其他预设/【233】日式怀旧街道调色预设208款/1.3D LUT预设（视频调色-PR-AE-PS-FCPX-达芬奇用）/2.富士胶片风-日式城市街拍预设/JA – Chrome 5 (Classic Chrome).cube
# Created by Adobe Lightroom plugin Export LUT (1.17.0)
# www.johnrellis.com/lightroom/exportlut.htm
# Preset: JA – Chrome 5 (Classic Chrome)
# Color profile: /Library/Application Support/Adobe/Color/Profiles/Recommended/AdobeRGB1998.icc
LUT_3D_SIZE 5
DOMAIN_MIN 0.000000 0.000000 0.000000
DOMAIN_MAX 0.903226 0.903226 0.903226
0.084840 0.084779 0.084474
0.167666 0.072450 0.084230
0.539696 0.066529 0.000000
0.861448 0.219120 0.000000
1.000000 0.288396 0.000000
0.070192 0.171725 0.073640
0.176608 0.173922 0.068421
0.573938 0.307103 0.000000
0.872862 0.361852 0.000000
1.000000 0.379004 0.000000
0.000000 0.492805 0.000000
0.251499 0.489998 0.000000
0.594934 0.563226 0.000000
0.892485 0.607782 0.000000
1.000000 0.579339 0.000000
0.000000 0.762966 0.000000
0.221836 0.760098 0.000000
0.533440 0.747890 0.000000
0.850340 0.808652 0.000000
1.000000 0.766964 0.000000
0.000000 0.971801 0.000000
0.205356 0.969451 0.000000
0.499428 0.959014 0.000000
0.762051 0.950866 0.000000
0.983215 0.945617 0.000000
0.099062 0.108248 0.144167
0.164004 0.070802 0.157870
0.518181 0.000000 0.151919
0.849027 0.085542 0.070832
1.000000 0.234012 0.000000
0.099275 0.156558 0.157290
0.172366 0.170993 0.168795
0.557946 0.224704 0.136385
0.860136 0.292546 0.010620
1.000000 0.336370 0.000000
0.000000 0.496315 0.214786
0.116823 0.508507 0.112398
0.581262 0.550896 0.000000
0.887724 0.592584 0.000000
1.000000 0.560143 0.000000
0.000000 0.766323 0.112459
0.000000 0.767300 0.000000
0.507469 0.753231 0.000000
0.847745 0.806607 0.000000
1.000000 0.770626 0.152804
0.000000 0.973754 0.000000
0.207126 0.968627 0.162264
0.492561 0.961730 0.023163
0.758083 0.951232 0.000000
0.981872 0.945403 0.222995
0.137362 0.135592 0.330907
0.246036 0.088930 0.390021
0.511833 0.000000 0.452003
0.797055 0.000000 0.444312
1.000000 0.236667 0.429450
0.138338 0.200229 0.332311
0.214969 0.189151 0.389075
0.532891 0.031800 0.469703
0.806149 0.183352 0.450050
1.000000 0.416052 0.473640
0.000000 0.428321 0.411719
0.183932 0.452583 0.431708
0.559289 0.535637 0.497719
0.840757 0.586175 0.511925
1.000000 0.609735 0.503838
0.000000 0.756466 0.462745
0.105104 0.759518 0.455634
0.515770 0.764248 0.453620
0.838041 0.800809 0.468757
0.998810 0.808194 0.552148
0.000000 0.968353 0.434211
0.216281 0.966003 0.438239
0.530144 0.956451 0.459419
0.752163 0.946075 0.392340
0.975860 0.942748 0.498878
0.244175 0.173770 0.598566
0.322515 0.153567 0.620874
0.558251 0.000000 0.697505
0.801785 0.000000 0.709682
0.966339 0.362585 0.696376
0.244236 0.265812 0.591028
0.320745 0.264866 0.613428
0.553307 0.245579 0.689448
0.800046 0.249760 0.710323
0.965576 0.433906 0.698421
0.294438 0.430365 0.537194
0.365484 0.447425 0.542626
0.565148 0.527947 0.647700
0.800381 0.557885 0.718288
0.968261 0.605158 0.709224
0.318425 0.670863 0.637049
0.396765 0.676905 0.641688
0.577508 0.704555 0.665034
0.811063 0.783566 0.740566
0.970367 0.823697 0.765225
0.423438 0.942931 0.728237
0.470039 0.942931 0.725948
0.589410 0.944762 0.713436
0.768307 0.941863 0.693874
0.964782 0.940063 0.737148
0.578607 0.530755 0.861997
0.597986 0.523461 0.867765
0.670222 0.491188 0.886839
0.813199 0.400916 0.916228
0.967987 0.431739 0.907500
0.596307 0.573205 0.857969
0.614008 0.567926 0.863828
0.681483 0.545312 0.883330
0.816739 0.486519 0.913146
0.965728 0.494423 0.907195
0.634913 0.670741 0.839445
0.646113 0.667659 0.847288
0.701076 0.661128 0.870207
0.821286 0.649073 0.903899
0.959472 0.640223 0.906950
0.657862 0.770260 0.844419
0.672175 0.770382 0.843473
0.719203 0.769833 0.838682
0.818051 0.788540 0.881987
0.950713 0.810941 0.908293
0.651331 0.902251 0.889769
0.667750 0.903014 0.890105
0.724727 0.905943 0.891417
0.823697 0.912505 0.894743
0.948882 0.937011 0.918273
