其他预设/【233】日式怀旧街道调色预设208款/1.3D LUT预设（视频调色-PR-AE-PS-FCPX-达芬奇用）/2.富士胶片风-日式城市街拍预设/JA – Gritty Contrast 4 (Classic Chrome).cube
# Created by Adobe Lightroom plugin Export LUT (1.17.0)
# www.johnrellis.com/lightroom/exportlut.htm
# Preset: JA – Gritty Contrast 4 (Classic Chrome)
# Color profile: /Library/Application Support/Adobe/Color/Profiles/Recommended/AdobeRGB1998.icc
LUT_3D_SIZE 32
0.070192 0.076143 0.083955
0.070192 0.076143 0.083955
0.072633 0.076448 0.084504
0.096376 0.076204 0.089387
0.121614 0.074647 0.094575
0.145235 0.070619 0.098970
0.170565 0.061677 0.099245
0.197848 0.035798 0.096864
0.228367 0.002808 0.095430
0.264286 0.000000 0.093172
0.307744 0.000000 0.089082
0.360327 0.000000 0.084443
0.419898 0.000000 0.079408
0.482490 0.000000 0.072938
0.543297 0.000000 0.063966
0.597070 0.000000 0.050294
0.642847 0.000000 0.028016
0.681849 0.000000 0.007355
0.715663 0.000000 0.000000
0.745937 0.000000 0.000000
0.774319 0.000000 0.000000
0.802884 0.000000 0.000000
0.833249 0.000000 0.000000
0.865263 0.000000 0.000000
0.897673 0.000000 0.000000
0.929351 0.000000 0.000000
0.958984 0.000000 0.000000
0.985718 0.000000 0.000000
1.000000 0.000000 0.005982
1.000000 0.000000 0.062104
1.000000 0.000000 0.091585
1.000000 0.000000 0.120363
0.070192 0.076143 0.083955
0.070192 0.076143 0.083955
0.073854 0.076600 0.084779
0.098177 0.076173 0.089601
0.122835 0.074678 0.094270
0.146944 0.070893 0.095613
0.172366 0.065034 0.096742
0.199527 0.053223 0.096651
0.230320 0.021180 0.095430
0.266850 0.000000 0.092836
0.311376 0.000000 0.088716
0.364813 0.000000 0.083528
0.424781 0.000000 0.078126
0.487892 0.000000 0.071473
0.548211 0.000000 0.062135
0.601465 0.000000 0.045899
0.646601 0.000000 0.023102
0.685115 0.000000 0.002502
0.718532 0.000000 0.000000
0.748409 0.000000 0.000000
0.776699 0.000000 0.000000
0.805142 0.000000 0.000000
0.835569 0.000000 0.000000
0.867552 0.000000 0.000000
0.899779 0.000000 0.000000
0.931212 0.000000 0.000000
0.960540 0.000000 0.000000
0.986908 0.000000 0.000000
1.000000 0.000000 0.006867
1.000000 0.000000 0.063050
1.000000 0.000000 0.092561
1.000000 0.000000 0.121248
0.070008 0.076844 0.084230
0.070741 0.077455 0.084474
0.074952 0.078889 0.085725
0.099611 0.080812 0.088685
0.124086 0.081147 0.092775
0.148440 0.079255 0.095552
0.174014 0.074708 0.096895
0.201419 0.067323 0.096742
0.232883 0.049256 0.095186
0.270024 0.002014 0.092470
0.315190 0.000000 0.088167
0.369512 0.000000 0.082612
0.430091 0.000000 0.076753
0.493050 0.000000 0.069459
0.552819 0.000000 0.059602
0.605524 0.000000 0.038483
0.650019 0.000000 0.016663
0.687922 0.000000 0.000000
0.720974 0.000000 0.000000
0.750515 0.000000 0.000000
0.778592 0.000000 0.000000
0.807004 0.000000 0.000000
0.837400 0.000000 0.000000
0.869261 0.000000 0.000000
0.901427 0.000000 0.000000
0.932586 0.000000 0.000000
0.961669 0.000000 0.000000
0.987793 0.000000 0.000000
1.000000 0.000000 0.006226
1.000000 0.000000 0.063325
1.000000 0.000000 0.093080
1.000000 0.000000 0.122042
0.073793 0.092592 0.088960
0.073640 0.093477 0.088899
0.081636 0.093263 0.089296
0.096773 0.094759 0.092317
0.120241 0.099947 0.098878
0.147982 0.098146 0.098695
0.176608 0.093202 0.096986
0.205020 0.087343 0.096773
0.237308 0.078004 0.094820
0.275822 0.063508 0.091218
0.322484 0.016968 0.086366
0.378363 0.000000 0.079988
0.439521 0.000000 0.073732
0.502251 0.000000 0.065003
0.561212 0.000000 0.050416
0.612390 0.000000 0.026307
0.655879 0.000000 0.003540
0.692958 0.000000 0.000000
0.725368 0.000000 0.000000
0.754452 0.000000 0.000000
0.782345 0.000000 0.000000
0.810727 0.000000 0.000000
0.840940 0.000000 0.000000
0.872465 0.000000 0.000000
0.903960 0.000000 0.000000
0.934478 0.000000 0.000000
0.962982 0.000000 0.000000
0.988678 0.000000 0.000000
1.000000 0.000000 0.005188
1.000000 0.000000 0.063233
1.000000 0.000000 0.093324
1.000000 0.000000 0.122896
0.078035 0.111452 0.095186
0.081117 0.111574 0.095369
0.088472 0.111147 0.095216
0.101350 0.110994 0.095674
0.118166 0.111604 0.100618
0.141299 0.119326 0.110109
0.171695 0.119478 0.107973
0.204227 0.116274 0.104097
0.241093 0.110018 0.098604
0.284398 0.101472 0.091402
0.334874 0.089265 0.083650
0.392737 0.072297 0.075746
0.454688 0.027039 0.067262
0.516564 0.000000 0.054719
0.573449 0.000000 0.029084
0.622156 0.000000 0.004578
0.663630 0.000000 0.000000
0.699367 0.000000 0.000000
0.730526 0.000000 0.000000
0.758999 0.000000 0.000000
0.786557 0.000000 0.000000
0.814969 0.000000 0.000000
0.845090 0.000000 0.000000
0.876249 0.000000 0.000000
0.907225 0.000000 0.000000
0.937194 0.000000 0.000000
0.965118 0.000000 0.000000
0.990265 0.000000 0.000000
1.000000 0.000000 0.001556
1.000000 0.000000 0.063447
1.000000 0.000000 0.094209
1.000000 0.000000 0.124392
0.084047 0.127871 0.101076
0.088685 0.127596 0.101228
0.094667 0.127321 0.101137
0.106233 0.126864 0.101350
0.121126 0.127077 0.101839
0.140078 0.128603 0.107271
0.167300 0.137453 0.115175
0.198215 0.142519 0.116732
0.237064 0.142184 0.110780
0.282719 0.140139 0.103059
0.337346 0.137514 0.093233
0.400824 0.132357 0.080842
0.467109 0.123903 0.066163
0.531487 0.109194 0.035554
0.587121 0.085969 0.000000
0.633387 0.048524 0.000000
0.672694 0.000000 0.000000
0.706874 0.000000 0.000000
0.736721 0.000000 0.000000
0.764279 0.000000 0.000000
0.791409 0.000000 0.000000
0.819577 0.000000 0.000000
0.839628 0.000000 0.000000
0.870665 0.000000 0.000000
0.901884 0.000000 0.000000
0.932189 0.000000 0.000000
0.960723 0.000000 0.000000
0.986481 0.000000 0.000000
1.000000 0.000000 0.000000
1.000000 0.000000 0.055604
1.000000 0.000000 0.090242
1.000000 0.000000 0.121279
0.091463 0.143313 0.105470
0.095735 0.143069 0.105409
0.100893 0.142855 0.105531
0.110994 0.142214 0.105562
0.124819 0.142458 0.105592
0.141085 0.143069 0.106111
0.162509 0.145449 0.111360
0.193454 0.156100 0.118685
0.227604 0.166476 0.124971
0.274052 0.171054 0.117250
0.330083 0.174655 0.107088
0.394751 0.177432 0.094697
0.462928 0.178073 0.080323
0.529168 0.173556 0.062562
0.587610 0.164462 0.021790
0.636378 0.150088 0.000000
0.677333 0.131533 0.000000
0.712428 0.107759 0.000000
0.741421 0.077211 0.000000
0.768063 0.000000 0.000000
0.794217 0.000000 0.000000
0.821286 0.000000 0.000000
0.849790 0.000000 0.000000
0.879149 0.000000 0.000000
0.908507 0.000000 0.000000
0.937377 0.000000 0.000000
0.964630 0.000000 0.000000
0.989349 0.000000 0.000000
1.000000 0.000000 0.000000
1.000000 0.000000 0.056031
1.000000 0.000000 0.091920
1.000000 0.000000 0.124147
0.100343 0.161013 0.108888
0.103853 0.160983 0.108797
0.108553 0.160800 0.108919
0.118166 0.160220 0.108736
0.131411 0.159945 0.108797
0.146944 0.161074 0.109010
0.163394 0.160678 0.109499
0.190066 0.166262 0.114565
0.228000 0.180362 0.120974
0.271092 0.194858 0.126558
0.328466 0.209537 0.124056
0.396857 0.219272 0.110475
0.468055 0.225986 0.095888
0.535729 0.227237 0.078218
0.594202 0.222568 0.058045
0.642390 0.213260 0.015137
0.682734 0.200839 0.000000
0.717220 0.185275 0.000000
0.746883 0.167605 0.000000
0.774441 0.146944 0.000000
0.801785 0.122011 0.000000
0.829496 0.087739 0.000000
0.857725 0.000000 0.000000
0.886381 0.000000 0.000000
0.914946 0.000000 0.000000
0.942779 0.000000 0.000000
0.968872 0.000000 0.000000
0.992462 0.000000 0.000000
1.000000 0.000000 0.000000
1.000000 0.000000 0.057679
1.000000 0.000000 0.094423
1.000000 0.000000 0.127626
0.109865 0.180606 0.111147
0.113283 0.180423 0.111299
0.117800 0.180392 0.111177
0.126802 0.179843 0.110994
0.139376 0.179171 0.111116
0.154269 0.180514 0.111025
0.172396 0.182254 0.111086
0.188449 0.180270 0.111696
0.222904 0.190799 0.116426
0.270542 0.210239 0.121523
0.326299 0.231022 0.125978
0.396246 0.256504 0.130495
0.471046 0.270115 0.116457
0.540673 0.276097 0.099611
0.599176 0.274907 0.082338
0.647303 0.268132 0.064851
0.687404 0.257847 0.034821
0.721492 0.245212 0.000000
0.750729 0.230594 0.000000
0.778347 0.214603 0.000000
0.805875 0.197482 0.000000
0.834623 0.177554 0.000000
0.864134 0.154025 0.000000
0.893736 0.123781 0.000000
0.921538 0.083589 0.000000
0.948180 0.000000 0.000000
0.973144 0.000000 0.000000
0.995483 0.000000 0.000000
1.000000 0.000000 0.000000
1.000000 0.000000 0.059449
1.000000 0.000000 0.097505
1.000000 0.000000 0.131777
0.120699 0.202457 0.112551
0.124025 0.202274 0.112490
0.128084 0.202243 0.112581
0.136690 0.201846 0.112367
0.149050 0.201175 0.112276
0.163790 0.202121 0.111971
0.181552 0.204440 0.111849
0.202029 0.207187 0.111635
0.218082 0.203464 0.112642
0.263798 0.221317 0.116182
0.325322 0.248417 0.119875
0.394507 0.275975 0.123323
0.471534 0.304540 0.129305
0.544579 0.322484 0.126253
0.603662 0.323919 0.110414
0.651514 0.318700 0.096040
0.691249 0.309514 0.082734
0.724758 0.298009 0.069581
0.753872 0.284794 0.054627
0.781552 0.270787 0.025544
0.809689 0.256352 0.000000
0.838895 0.240940 0.000000
0.868650 0.224033 0.000000
0.898070 0.204562 0.000000
0.926604 0.181399 0.000000
0.953643 0.152438 0.000000
0.977935 0.117128 0.000000
0.998840 0.068940 0.000000
1.000000 0.000000 0.000000
1.000000 0.000000 0.062043
1.000000 0.000000 0.101259
1.000000 0.000000 0.136599
0.133120 0.228153 0.112673
0.136080 0.228000 0.112612
0.140139 0.227817 0.112734
0.148653 0.227512 0.112490
0.160433 0.226871 0.112367
0.175326 0.226749 0.112184
0.193210 0.229465 0.111635
0.214023 0.232975 0.111116
0.237888 0.237095 0.110140
0.256016 0.232853 0.111879
0.315496 0.259464 0.113191
0.392157 0.294987 0.115419
0.468299 0.325414 0.120272
0.543023 0.351690 0.128634
0.606928 0.370550 0.143191
0.655055 0.367468 0.130465
0.694972 0.359106 0.118471
0.728206 0.348302 0.108186
0.757412 0.335637 0.098573
0.785458 0.322576 0.089235
0.813931 0.309667 0.079438
0.843320 0.296025 0.067964
0.872892 0.281773 0.052613
0.901823 0.266697 0.024567
0.929747 0.248997 0.000000
0.956054 0.229068 0.000000
0.980072 0.205417 0.000000
1.000000 0.177981 0.000000
1.000000 0.145998 0.000000
1.000000 0.115236 0.066102
1.000000 0.079255 0.106416
1.000000 0.023682 0.142916
0.146944 0.257542 0.111635
0.149966 0.257359 0.111574
0.154116 0.257267 0.111635
0.162325 0.256748 0.111421
0.174258 0.256260 0.111025
0.189120 0.255406 0.110750
0.207034 0.258000 0.110292
0.228305 0.262150 0.109163
0.252995 0.267124 0.108064
0.281163 0.272953 0.106203
0.305241 0.271061 0.108156
0.378485 0.305577 0.107546
0.449653 0.335515 0.110903
0.524407 0.364355 0.117098
0.590600 0.385595 0.129824
0.645136 0.400305 0.149874
0.688716 0.401923 0.154513
0.723384 0.392279 0.144167
0.753597 0.380743 0.135348
0.782376 0.368902 0.127230
0.811643 0.356786 0.119326
0.841611 0.344823 0.111635
0.871641 0.332555 0.104402
0.900938 0.319585 0.097902
0.928923 0.305028 0.091798
0.955016 0.288853 0.087251
0.978759 0.270512 0.084474
0.999603 0.250462 0.084535
1.000000 0.227481 0.087007
1.000000 0.201724 0.092073
1.000000 0.176547 0.109865
1.000000 0.162753 0.147951
0.161593 0.288060 0.109529
0.164584 0.288029 0.109407
0.168429 0.288151 0.109438
0.176852 0.287907 0.109102
0.188998 0.287785 0.108766
0.204044 0.287266 0.108553
0.222232 0.288670 0.107759
0.244144 0.293675 0.106294
0.269505 0.299535 0.104524
0.298253 0.306249 0.101869
0.329961 0.312840 0.098970
0.361242 0.313787 0.101137
0.441016 0.351202 0.100313
0.523980 0.387610 0.104189
0.588739 0.409003 0.116854
0.642756 0.423407 0.137758
0.688167 0.433845 0.164645
0.725673 0.440131 0.190616
0.756313 0.429084 0.180545
0.785855 0.417670 0.172030
0.815793 0.406653 0.164370
0.846098 0.395575 0.157412
0.876005 0.384192 0.151644
0.904814 0.372320 0.146975
0.932067 0.359655 0.143771
0.957275 0.345403 0.141817
0.980041 0.329961 0.141665
0.999847 0.313268 0.143648
1.000000 0.295109 0.147402
1.000000 0.276158 0.153689
1.000000 0.256504 0.161501
1.000000 0.236057 0.171023
0.181125 0.328374 0.105684
0.184176 0.328313 0.105531
0.187991 0.328374 0.105318
0.196323 0.328222 0.105165
0.208713 0.328099 0.104952
0.224491 0.327611 0.104341
0.242618 0.326879 0.103792
0.265354 0.332403 0.101839
0.291661 0.339086 0.099397
0.321599 0.346746 0.095979
0.355077 0.354864 0.091829
0.388098 0.359777 0.088594
0.429267 0.365454 0.090272
0.510552 0.401617 0.090059
0.584375 0.430823 0.101289
0.639551 0.446082 0.123445
0.685206 0.456123 0.151797
0.723415 0.463844 0.184421
0.756954 0.471870 0.220920
0.787991 0.467292 0.225284
0.818784 0.456886 0.216312
0.849424 0.446754 0.209018
0.879179 0.435920 0.203006
0.907500 0.424994 0.198886
0.934020 0.413489 0.196597
0.958343 0.400549 0.195499
0.980163 0.386816 0.196475
0.998962 0.372442 0.199527
1.000000 0.357855 0.205020
1.000000 0.343053 0.212528
1.000000 0.328862 0.222354
1.000000 0.316136 0.234989
0.203189 0.373236 0.099763
0.206119 0.373083 0.099641
0.209995 0.372930 0.099702
0.218723 0.372900 0.099397
0.231418 0.372839 0.099001
0.247410 0.372381 0.098238
0.266117 0.371618 0.097475
0.288487 0.374426 0.095766
0.315404 0.381445 0.092256
0.345922 0.389380 0.088045
0.379583 0.397528 0.082399
0.417182 0.406531 0.075227
0.449500 0.408240 0.072663
0.497963 0.416693 0.074708
0.572198 0.446387 0.082094
0.634272 0.467201 0.105959
0.681422 0.478004 0.136660
0.720089 0.485054 0.170962
0.754177 0.491951 0.208743
0.787167 0.502037 0.250767
0.819883 0.509239 0.279362
0.851072 0.499550 0.270298
0.880797 0.489723 0.263554
0.908721 0.479377 0.258976
0.934539 0.468482 0.256229
0.957977 0.457191 0.255894
0.978698 0.444709 0.256962
0.996490 0.432349 0.260746
1.000000 0.420050 0.266850
1.000000 0.408545 0.275517
1.000000 0.398657 0.287205
1.000000 0.391547 0.302342
0.226200 0.420172 0.091127
0.229282 0.419928 0.091005
0.233158 0.419715 0.090822
0.241672 0.419471 0.090517
0.254520 0.418921 0.089937
0.270634 0.418067 0.089143
0.289342 0.416907 0.088380
0.310643 0.416114 0.086915
0.337560 0.422827 0.082918
0.367742 0.430518 0.077394
0.401709 0.438849 0.070161
0.438941 0.447883 0.060609
0.479530 0.457313 0.036591
0.509911 0.454871 0.041779
0.560479 0.462837 0.057496
0.623590 0.484047 0.082673
0.676051 0.498634 0.118135
0.716487 0.506126 0.155795
0.751034 0.512108 0.195224
0.784268 0.520714 0.238132
0.817716 0.534020 0.285405
0.849790 0.552056 0.336095
0.879606 0.545006 0.331914
0.907256 0.535454 0.326207
0.932494 0.525689 0.323033
0.955169 0.515465 0.322301
0.975097 0.504326 0.323033
0.992096 0.493629 0.326726
1.000000 0.483680 0.333318
1.000000 0.474983 0.342626
1.000000 0.468879 0.355627
1.000000 0.466285 0.372442
0.250156 0.467201 0.079133
0.253025 0.467140 0.079194
0.256931 0.467018 0.079194
0.265537 0.466590 0.078523
0.278264 0.465980 0.077790
0.294347 0.465064 0.076783
0.313207 0.463691 0.075532
0.334539 0.461860 0.074281
0.360113 0.465248 0.070192
0.389776 0.472328 0.063600
0.422827 0.479927 0.051118
0.458747 0.487892 0.028016
0.497444 0.496101 0.000122
0.538811 0.504234 0.000000
0.564416 0.496071 0.000000
0.612543 0.500969 0.046693
0.666041 0.515679 0.093751
0.711025 0.526085 0.137057
0.747585 0.532341 0.180117
0.781369 0.539879 0.224430
0.815366 0.551690 0.273075
0.847990 0.567895 0.324895
0.877562 0.587884 0.377996
0.904387 0.592462 0.396643
0.929137 0.583551 0.392401
0.951049 0.574609 0.390967
0.970123 0.564782 0.391150
0.986297 0.555444 0.394324
1.000000 0.546929 0.400061
1.000000 0.540368 0.409033
1.000000 0.536370 0.421424
1.000000 0.535882 0.437598
0.272557 0.511131 0.065644
0.275547 0.510674 0.065644
0.275608 0.503624 0.067414
0.283726 0.503197 0.066651
0.296056 0.502708 0.066011
0.311772 0.501976 0.064515
0.330571 0.500847 0.063416
0.351720 0.499245 0.061189
0.375433 0.498726 0.057923
0.404181 0.505241 0.044282
0.435584 0.512108 0.024659
0.469825 0.519188 0.003510
0.506676 0.526604 0.000000
0.545953 0.533989 0.000000
0.587243 0.541436 0.000000
0.607660 0.527794 0.000000
0.653925 0.531029 0.060548
0.700526 0.541863 0.111849
0.740169 0.549737 0.159854
0.775662 0.557122 0.206973
0.810391 0.567620 0.256596
0.843931 0.582208 0.309880
0.874418 0.600397 0.364599
0.900908 0.621424 0.418128
0.923705 0.636622 0.455482
0.945281 0.629175 0.453620
0.963806 0.621057 0.453773
0.979522 0.612970 0.456153
0.992828 0.605707 0.461036
1.000000 0.600031 0.468696
1.000000 0.596582 0.479255
1.000000 0.596307 0.493233
0.292546 0.549737 0.048829
0.294896 0.548791 0.048432
0.298192 0.547784 0.048676
0.305699 0.546593 0.047089
0.317388 0.545373 0.045258
0.332586 0.544244 0.043214
0.351141 0.542870 0.038666
0.372137 0.541344 0.033661
0.395239 0.539391 0.027771
0.421912 0.542535 0.016327
0.451972 0.548272 0.000488
0.484474 0.554192 0.000000
0.519432 0.560449 0.000000
0.556512 0.566705 0.000000
0.595575 0.573022 0.000000
0.634607 0.577813 0.000000
0.651240 0.559991 0.000000
0.694636 0.561242 0.083925
0.734981 0.568811 0.139223
0.771817 0.576318 0.190249
0.807584 0.586084 0.241855
0.841703 0.599207 0.296696
0.872801 0.615534 0.353002
0.899718 0.634668 0.408331
0.922148 0.655177 0.459510
0.940215 0.674891 0.503868
0.957733 0.670008 0.506920
0.972869 0.662623 0.508232
0.985718 0.655940 0.511772
0.996643 0.650446 0.517723
1.000000 0.646876 0.526390
1.000000 0.645991 0.538079
0.311864 0.587427 0.032532
0.314397 0.586633 0.032715
0.317449 0.585718 0.031891
0.324620 0.584649 0.030701
0.336065 0.583551 0.028382
0.350958 0.582452 0.025208
0.369055 0.581048 0.020661
0.389563 0.579522 0.016754
0.412238 0.577600 0.010712
0.437263 0.576745 0.003265
0.465827 0.581537 0.000000
0.496773 0.586419 0.000000
0.529870 0.591699 0.000000
0.565026 0.597009 0.000000
0.602075 0.602411 0.000000
0.640589 0.607752 0.000000
0.674678 0.607874 0.000000
0.690059 0.588586 0.055848
0.730587 0.588464 0.115755
0.767880 0.595514 0.171878
0.804379 0.604608 0.225834
0.838987 0.616327 0.281987
0.870726 0.631098 0.340063
0.898222 0.648432 0.397375
0.921141 0.667323 0.450752
0.939544 0.685725 0.497200
0.953643 0.702541 0.537072
0.966796 0.704402 0.551385
0.979248 0.698085 0.553857
0.989837 0.692744 0.558495
0.998901 0.689052 0.565698
1.000000 0.687648 0.575738
0.329473 0.621820 0.040497
0.331731 0.621057 0.039704
0.334844 0.620264 0.039612
0.341894 0.619379 0.036774
0.352850 0.618219 0.034882
0.367254 0.617151 0.031617
0.384649 0.615930 0.027832
0.404669 0.614496 0.023590
0.427039 0.612512 0.018830
0.451057 0.610346 0.011475
0.477913 0.612482 0.005432
0.507408 0.616724 0.000000
0.538994 0.621180 0.000000
0.572381 0.625696 0.000000
0.607446 0.630274 0.000000
0.643824 0.634760 0.000000
0.681361 0.638972 0.000000
0.709895 0.634150 0.051606
0.726406 0.615686 0.098054
0.763729 0.614527 0.150729
0.800381 0.622766 0.207492
0.835294 0.633021 0.264988
0.866728 0.645289 0.323247
0.895048 0.660761 0.382391
0.918639 0.677943 0.438025
0.937652 0.695094 0.487098
0.952239 0.710903 0.528862
0.963134 0.725399 0.565393
0.972686 0.732296 0.587579
0.983185 0.727077 0.591180
0.992157 0.723171 0.597070
0.999817 0.721218 0.605615
0.344488 0.651545 0.064607
0.346777 0.651179 0.063752
0.349920 0.650690 0.063325
0.356786 0.650111 0.063081
0.367437 0.649409 0.061769
0.381384 0.648463 0.060761
0.398260 0.647272 0.059632
0.417609 0.645777 0.056886
0.439185 0.644007 0.053071
0.462654 0.641810 0.048585
0.487861 0.640436 0.044495
0.515953 0.643977 0.045594
0.545861 0.647700 0.048768
0.577539 0.651453 0.053712
0.610773 0.655360 0.060029
0.645441 0.659266 0.065461
0.681270 0.663172 0.072328
0.718196 0.667048 0.080262
0.742214 0.658473 0.103822
0.760891 0.642054 0.138491
0.798306 0.642878 0.189975
0.834104 0.652491 0.250431
0.865843 0.663294 0.310735
0.893217 0.675654 0.369329
0.917510 0.691310 0.427588
0.936889 0.707118 0.479133
0.951751 0.721706 0.522820
0.962799 0.735012 0.560754
0.970916 0.747616 0.594354
0.977295 0.757870 0.621790
0.986053 0.753994 0.626764
0.993561 0.751858 0.634333
0.360113 0.681209 0.088533
0.362188 0.680903 0.088502
0.365118 0.680507 0.087861
0.371710 0.679927 0.087465
0.381811 0.679164 0.087221
0.395239 0.678340 0.086488
0.411353 0.677333 0.086244
0.429938 0.675959 0.085206
0.451026 0.674311 0.084016
0.473976 0.672267 0.082277
0.498238 0.670039 0.081025
0.524712 0.671046 0.082429
0.553216 0.674250 0.086122
0.583581 0.677546 0.090852
0.615442 0.681025 0.096132
0.648737 0.684627 0.102541
0.683253 0.688411 0.109621
0.718990 0.692256 0.117800
0.755825 0.696345 0.126680
0.776089 0.684627 0.148867
0.797635 0.671168 0.182376
0.834012 0.673426 0.236301
0.866209 0.683131 0.299290
0.893309 0.693324 0.359258
0.916594 0.705684 0.417029
0.936370 0.720089 0.471229
0.951446 0.733364 0.516991
0.962646 0.745510 0.556359
0.970825 0.756985 0.591180
0.976776 0.768093 0.622339
0.980621 0.780026 0.652552
0.987243 0.779812 0.662501
0.374640 0.708095 0.116213
0.376532 0.707759 0.116060
0.379309 0.707424 0.115785
0.385565 0.706996 0.115602
0.395331 0.706477 0.115511
0.408057 0.705715 0.115358
0.423560 0.704860 0.115114
0.441688 0.703792 0.115023
0.462043 0.702388 0.114504
0.484260 0.700740 0.114137
0.508110 0.698878 0.113527
0.533440 0.697139 0.113375
0.561059 0.700221 0.118166
0.590478 0.703609 0.123690
0.621454 0.707301 0.130129
0.654047 0.711238 0.137453
0.688045 0.715480 0.145510
0.723232 0.719936 0.154421
0.759304 0.724514 0.164004
0.796292 0.729122 0.174563
0.812772 0.714229 0.197238
0.835874 0.703151 0.233799
0.868742 0.705623 0.290654
0.896117 0.714565 0.353918
0.918059 0.723720 0.411414
0.935332 0.732906 0.461494
0.950835 0.744991 0.509789
0.962280 0.756039 0.551141
0.970672 0.766506 0.587396
0.976684 0.776638 0.619623
0.980621 0.787594 0.650660
0.982361 0.800809 0.683223
0.391852 0.737575 0.149813
0.393713 0.737179 0.149416
0.396399 0.736873 0.149203
0.402350 0.736477 0.149081
0.411475 0.735958 0.149172
0.423621 0.735378 0.149294
0.438453 0.734585 0.149416
0.455787 0.733547 0.149203
0.475319 0.732296 0.149386
0.496834 0.730770 0.149264
0.519890 0.729030 0.149111
0.544488 0.726986 0.148775
0.570947 0.727687 0.151766
0.599573 0.731136 0.157809
0.629816 0.735012 0.164950
0.661585 0.739193 0.172793
0.694789 0.743648 0.181735
0.728878 0.748196 0.191562
0.763912 0.752804 0.202335
0.799649 0.757382 0.213993
0.834745 0.761074 0.226902
0.847776 0.743496 0.250156
0.870817 0.734188 0.290227
0.898711 0.736049 0.347601
0.920592 0.743557 0.407874
0.937407 0.750698 0.459419
0.949981 0.756832 0.501549
0.961700 0.766598 0.544762
0.970275 0.775967 0.582513
0.976471 0.785092 0.615961
0.980529 0.795041 0.647791
0.982422 0.807248 0.681239
0.412329 0.769192 0.187198
0.414221 0.768917 0.186862
0.416785 0.768673 0.186770
0.422370 0.768429 0.186954
0.431128 0.768032 0.187228
0.442756 0.767605 0.187472
0.457069 0.767025 0.187930
0.473640 0.766201 0.188388
0.492531 0.765164 0.188693
0.513237 0.763851 0.188876
0.535698 0.762295 0.189364
0.559564 0.760525 0.189578
0.584649 0.758511 0.190005
0.612543 0.761807 0.196506
0.641962 0.765713 0.204562
0.672816 0.769833 0.213748
0.704860 0.774136 0.223667
0.737789 0.778470 0.234745
0.771359 0.782742 0.246403
0.805356 0.786923 0.258824
0.839597 0.791012 0.271977
0.869444 0.790951 0.287510
0.881224 0.773281 0.309880
0.902434 0.764889 0.352300
0.924437 0.765560 0.407233
0.940673 0.770657 0.460609
0.952667 0.774899 0.504021
0.961608 0.778653 0.539818
0.970062 0.786374 0.578271
0.976379 0.794430 0.612940
0.980529 0.803342 0.645747
0.982483 0.814572 0.680110
0.438666 0.803799 0.232761
0.440162 0.803555 0.232670
0.442786 0.803372 0.232578
0.447913 0.803159 0.232822
0.456184 0.802731 0.233005
0.466926 0.802213 0.233280
0.480140 0.801358 0.233463
0.495613 0.800290 0.233738
0.513146 0.799008 0.233768
0.532525 0.797421 0.233860
0.553613 0.795651 0.233951
0.576287 0.793759 0.234226
0.600305 0.791684 0.234653
0.626154 0.791440 0.237827
0.654231 0.794797 0.246128
0.683680 0.798459 0.255741
0.714290 0.802243 0.266270
0.745571 0.806058 0.277684
0.777340 0.809812 0.289708
0.809445 0.813443 0.302342
0.841581 0.816892 0.315679
0.873716 0.820249 0.329564
0.898039 0.816495 0.346441
0.908232 0.798764 0.367559
0.926604 0.790829 0.410468
0.943084 0.789822 0.459663
0.954681 0.792264 0.504631
0.963317 0.794430 0.541619
0.969696 0.796597 0.572778
0.975860 0.802762 0.607202
0.980285 0.810666 0.641138
0.982452 0.820829 0.676509
0.468025 0.836088 0.282628
0.469581 0.835966 0.282597
0.471809 0.835874 0.282658
0.476753 0.835691 0.282963
0.484413 0.835447 0.283543
0.494636 0.835111 0.284123
0.507103 0.834562 0.284947
0.521752 0.833799 0.285649
0.538415 0.832883 0.286381
0.557000 0.831785 0.287297
0.577203 0.830503 0.288182
0.599023 0.829038 0.289311
0.622126 0.827512 0.290532
0.646540 0.825864 0.292210
0.672969 0.827573 0.299382
