其他预设/【233】日式怀旧街道调色预设208款/1.3D LUT预设（视频调色-PR-AE-PS-FCPX-达芬奇用）/2.富士胶片风-日式城市街拍预设/JA – Warm Normal 1 (Classic Chrome).cube
# Created by Adobe Lightroom plugin Export LUT (1.17.0)
# www.johnrellis.com/lightroom/exportlut.htm
# Preset: JA – Warm Normal 1 (Classic Chrome)
# Color profile: /Library/Application Support/Adobe/Color/Profiles/Recommended/AdobeRGB1998.icc
LUT_3D_SIZE 5
DOMAIN_MIN 0.000000 0.000000 0.000000
DOMAIN_MAX 0.903226 0.903226 0.903226
0.112276 0.101625 0.094667
0.256321 0.086519 0.088258
0.589288 0.000000 0.000000
0.843076 0.000000 0.000000
1.000000 0.000000 0.000000
0.099275 0.242588 0.077516
0.264530 0.244938 0.049775
0.592309 0.258000 0.000000
0.845274 0.229587 0.000000
1.000000 0.144198 0.000000
0.000000 0.558587 0.000000
0.285679 0.560876 0.000000
0.600214 0.568017 0.000000
0.847654 0.512963 0.000000
1.000000 0.428565 0.000000
0.000000 0.802762 0.000000
0.216831 0.803250 0.000000
0.547021 0.803372 0.000000
0.827176 0.799466 0.000000
1.000000 0.704799 0.000000
0.000000 0.968994 0.000000
0.006653 0.966888 0.000000
0.452888 0.958556 0.000000
0.716335 0.944274 0.000000
0.940307 0.923644 0.000000
0.126497 0.111574 0.223514
0.257694 0.070192 0.222263
0.581689 0.000000 0.199100
0.839048 0.000000 0.120363
1.000000 0.000000 0.000000
0.110658 0.235477 0.222965
0.262425 0.239109 0.223423
0.595575 0.202792 0.176150
0.843992 0.156130 0.076143
1.000000 0.083497 0.000000
0.000000 0.551293 0.230533
0.209659 0.561303 0.162692
0.596643 0.563806 0.000000
0.847318 0.483680 0.000000
1.000000 0.412940 0.000000
0.000000 0.799496 0.154055
0.145327 0.802792 0.022339
0.530022 0.803403 0.000000
0.827237 0.799283 0.000000
1.000000 0.695430 0.000000
0.000000 0.967498 0.000000
0.000000 0.966522 0.000000
0.437079 0.959777 0.000000
0.706752 0.945617 0.000000
0.942718 0.923583 0.000000
0.154025 0.131258 0.526116
0.303532 0.071595 0.524193
0.566430 0.000000 0.507713
0.806973 0.000000 0.454658
0.999084 0.000000 0.413275
0.197513 0.307164 0.526360
0.297887 0.270237 0.527184
0.572656 0.158267 0.512932
0.812070 0.165621 0.458320
0.996490 0.266148 0.431220
0.064027 0.532433 0.516655
0.284001 0.535454 0.518029
0.582696 0.544121 0.518883
0.828489 0.515038 0.480934
1.000000 0.437842 0.388586
0.000000 0.780941 0.488777
0.204837 0.782834 0.484169
0.539391 0.790616 0.475593
0.825376 0.795224 0.419135
0.996124 0.674495 0.318120
0.000000 0.960418 0.436744
0.214817 0.958282 0.437140
0.490761 0.951904 0.426520
0.712734 0.942046 0.344762
0.942351 0.922332 0.094606
0.250980 0.235538 0.766873
0.339879 0.211460 0.765194
0.542870 0.000000 0.758602
0.791348 0.000000 0.739223
0.973877 0.000000 0.668238
0.313176 0.369482 0.766415
0.373907 0.349828 0.764889
0.546502 0.258061 0.758694
0.791714 0.092531 0.739498
0.972137 0.179599 0.669184
0.428138 0.589807 0.759609
0.500999 0.601221 0.759854
0.601740 0.568902 0.758907
0.792508 0.485817 0.739956
0.966369 0.496376 0.681239
0.297887 0.757595 0.751186
0.393164 0.758755 0.750942
0.593622 0.764157 0.751980
0.805905 0.775570 0.755306
0.957458 0.746273 0.717281
0.118227 0.948516 0.709255
0.284428 0.946410 0.707576
0.530846 0.939391 0.704036
0.770809 0.926757 0.719203
0.936767 0.917144 0.666926
0.470924 0.452277 0.917754
0.494179 0.438025 0.917906
0.574731 0.374609 0.918853
0.722652 0.141634 0.920134
0.941650 0.000000 0.913176
0.519005 0.526696 0.914549
0.535454 0.513542 0.914855
0.598169 0.458717 0.916106
0.726864 0.296391 0.917815
0.940124 0.174838 0.911559
0.635218 0.689845 0.906279
0.652552 0.688624 0.906523
0.672786 0.647730 0.908476
0.748714 0.549493 0.911040
0.935943 0.462623 0.907530
0.640864 0.785641 0.902586
0.670405 0.790555 0.901884
0.758907 0.809720 0.900053
0.819028 0.796811 0.901762
0.928710 0.729305 0.901122
0.533318 0.897307 0.902159
0.568475 0.897765 0.901732
0.677974 0.899901 0.900633
0.821714 0.903960 0.898833
0.924804 0.909575 0.899138
