其他预设/【233】日式怀旧街道调色预设208款/1.3D LUT预设（视频调色-PR-AE-PS-FCPX-达芬奇用）/2.富士胶片风-日式城市街拍预设/JA – Chrome 5 (Classic Chrome).cube
# Created by Adobe Lightroom plugin Export LUT (1.17.0)
# www.johnrellis.com/lightroom/exportlut.htm
# Preset: JA – Chrome 5 (Classic Chrome)
# Color profile: /Library/Application Support/Adobe/Color/Profiles/Recommended/AdobeRGB1998.icc
LUT_3D_SIZE 8
DOMAIN_MIN 0.000000 0.000000 0.000000
DOMAIN_MAX 0.903226 0.903226 0.903226
0.084840 0.084779 0.084474
0.096956 0.083528 0.084504
0.190524 0.065980 0.084382
0.387366 0.000000 0.058717
0.653254 0.121401 0.000000
0.823514 0.202182 0.000000
0.953094 0.257572 0.000000
1.000000 0.288396 0.000000
0.082734 0.104250 0.082948
0.103273 0.108003 0.081910
0.194736 0.103731 0.078279
0.397070 0.138491 0.020874
0.655726 0.204318 0.000000
0.822843 0.255619 0.000000
0.950439 0.294957 0.000000
1.000000 0.316716 0.000000
0.063386 0.193606 0.068635
0.106264 0.193271 0.067659
0.206302 0.201236 0.057862
0.445563 0.303807 0.000000
0.685908 0.373053 0.000000
0.841459 0.391821 0.000000
0.961486 0.404456 0.000000
1.000000 0.403845 0.000000
0.000000 0.370855 0.000000
0.125948 0.370214 0.000000
0.265568 0.372290 0.000000
0.478614 0.455299 0.000000
0.707546 0.519066 0.000000
0.867399 0.552575 0.000000
0.969787 0.538842 0.000000
1.000000 0.516930 0.000000
0.000000 0.586084 0.000000
0.094636 0.584558 0.000000
0.296635 0.580438 0.000000
0.471565 0.589441 0.000000
0.678309 0.641749 0.000000
0.850004 0.655879 0.000000
0.967102 0.662562 0.000000
1.000000 0.645167 0.000000
0.000000 0.727199 0.000000
0.000000 0.729000 0.000000
0.278386 0.724636 0.000000
0.454017 0.717433 0.000000
0.628199 0.736721 0.000000
0.820157 0.778744 0.000000
0.957244 0.767697 0.000000
1.000000 0.742977 0.000000
0.000000 0.860655 0.000000
0.000000 0.860472 0.000000
0.251835 0.856535 0.000000
0.435370 0.850889 0.000000
0.600580 0.842435 0.000000
0.763760 0.863798 0.000000
0.921843 0.881102 0.000000
1.000000 0.840818 0.000000
0.000000 0.971801 0.000000
0.000000 0.971038 0.000000
0.253086 0.968719 0.000000
0.423041 0.965118 0.000000
0.577630 0.955749 0.000000
0.727657 0.950195 0.000000
0.861814 0.950744 0.000000
0.983215 0.945617 0.000000
0.086976 0.088899 0.097932
0.101137 0.082704 0.099977
0.190372 0.055421 0.090852
0.386938 0.081697 0.080598
0.648829 0.140475 0.000000
0.816342 0.200443 0.000000
0.946502 0.250004 0.000000
1.000000 0.283207 0.000000
0.084962 0.100008 0.102937
0.106844 0.106722 0.106020
0.194278 0.115053 0.101717
0.398138 0.149203 0.076265
0.653437 0.205478 0.000000
0.817929 0.248722 0.000000
0.944976 0.284886 0.000000
1.000000 0.310094 0.000000
0.058412 0.192081 0.108400
0.110567 0.192782 0.109926
0.204959 0.199557 0.102022
0.442664 0.297887 0.008270
0.678218 0.356023 0.000000
0.832456 0.373968 0.000000
0.952972 0.388128 0.000000
1.000000 0.393225 0.000000
0.000000 0.368017 0.101564
0.079591 0.372656 0.080262
0.256199 0.375952 0.049989
0.465187 0.442878 0.000000
0.693355 0.504204 0.000000
0.854643 0.537469 0.000000
0.961456 0.525078 0.000000
1.000000 0.507347 0.000000
0.000000 0.587640 0.000000
0.000000 0.586664 0.000000
0.274235 0.580987 0.000000
0.459419 0.582391 0.000000
0.669734 0.633692 0.000000
0.843992 0.648554 0.000000
0.963989 0.657465 0.000000
1.000000 0.638972 0.000000
0.000000 0.726070 0.000000
0.000000 0.725368 0.000000
0.249943 0.721126 0.000000
0.440650 0.714595 0.000000
0.620478 0.732296 0.000000
0.817746 0.776333 0.000000
0.955749 0.765438 0.000000
1.000000 0.741421 0.000000
0.000000 0.857115 0.000000
0.000000 0.855497 0.000000
0.222507 0.852262 0.000000
0.421302 0.847898 0.000000
0.592493 0.840513 0.000000
0.758938 0.860807 0.000000
0.919158 0.878477 0.000000
1.000000 0.839292 0.000000
0.000000 0.969879 0.000000
0.000000 0.969451 0.000000
0.242130 0.967407 0.000000
0.416022 0.964050 0.000000
0.574884 0.957885 0.000000
0.725704 0.950744 0.000000
0.860838 0.950164 0.000000
0.982208 0.944854 0.000000
0.102113 0.114443 0.159548
0.113375 0.106447 0.165621
0.186282 0.074861 0.178408
0.353948 0.000000 0.215335
0.632288 0.000000 0.171725
0.809262 0.000000 0.147738
0.946105 0.115358 0.095338
1.000000 0.206302 0.000000
0.111513 0.124056 0.161746
0.125826 0.123049 0.169528
0.189212 0.114504 0.181857
0.368444 0.017731 0.210788
0.637171 0.000000 0.162753
0.812528 0.068421 0.141085
0.945464 0.188296 0.090974
1.000000 0.245670 0.000000
0.108614 0.176059 0.176364
0.132265 0.180850 0.180331
0.199588 0.197482 0.194064
0.430457 0.224338 0.182681
0.671229 0.268101 0.158877
0.828153 0.303227 0.131594
0.951293 0.333410 0.086824
1.000000 0.350652 0.000000
0.000000 0.362341 0.237858
0.000000 0.374975 0.233249
0.177920 0.406592 0.171786
0.465797 0.443977 0.137148
0.700862 0.491157 0.130526
0.850553 0.502281 0.128878
0.960235 0.497627 0.108278
1.000000 0.484962 0.006287
0.000000 0.590265 0.246342
0.000000 0.593347 0.225193
0.138918 0.600366 0.129274
0.430549 0.589197 0.067323
0.670985 0.635431 0.000000
0.847532 0.645472 0.087770
0.963470 0.658961 0.162020
1.000000 0.633478 0.156649
0.000000 0.728878 0.199435
0.000000 0.730434 0.170626
0.114351 0.731197 0.093965
0.400244 0.722683 0.000000
0.602625 0.728450 0.000000
0.814206 0.773617 0.000000
0.952636 0.765988 0.156954
1.000000 0.750576 0.232334
0.000000 0.860777 0.134615
0.000000 0.860655 0.096773
0.134066 0.857267 0.098482
0.386175 0.851621 0.000000
0.572015 0.843320 0.000000
0.751247 0.859068 0.000000
0.918517 0.878904 0.107118
1.000000 0.844846 0.254276
0.000000 0.971984 0.131258
0.000000 0.971160 0.124086
0.256413 0.965698 0.211368
0.417090 0.963439 0.183047
0.568414 0.957763 0.112062
0.719417 0.949950 0.000000
0.860807 0.949371 0.163943
0.980774 0.944610 0.268070
0.120607 0.131441 0.246433
0.143404 0.121950 0.263127
0.252140 0.060243 0.325383
0.377935 0.000000 0.343297
0.581262 0.000000 0.386542
0.777432 0.000000 0.357916
0.924376 0.000000 0.319829
1.000000 0.298497 0.377081
0.133181 0.144015 0.257359
0.152071 0.140871 0.271336
0.249210 0.110292 0.327672
0.388098 0.000000 0.351812
0.591943 0.000000 0.385809
0.781003 0.000000 0.352605
0.923980 0.000000 0.328038
1.000000 0.315038 0.371984
0.149050 0.197116 0.243473
0.163943 0.202396 0.250980
0.221286 0.207919 0.321935
0.415869 0.172030 0.375433
0.624201 0.156191 0.380926
0.796139 0.229068 0.363684
0.927703 0.374243 0.398871
1.000000 0.391211 0.370153
0.069032 0.325444 0.318395
0.100618 0.334844 0.326574
0.212131 0.368872 0.355657
0.447669 0.431464 0.405158
0.662501 0.464057 0.410742
0.815732 0.494392 0.415686
0.937682 0.518822 0.414862
1.000000 0.524041 0.398444
0.000000 0.578882 0.407996
0.000000 0.583032 0.404547
0.136873 0.597620 0.391455
0.423987 0.610163 0.380316
0.664210 0.631464 0.373602
0.837949 0.664088 0.430243
0.947539 0.681910 0.454017
1.000000 0.663600 0.440436
0.000000 0.728725 0.385809
0.000000 0.733028 0.380621
0.083650 0.738186 0.361120
0.410101 0.735653 0.363592
0.588373 0.724697 0.306126
0.810910 0.772641 0.371557
0.943267 0.780362 0.438911
1.000000 0.779263 0.474159
0.000000 0.861601 0.355444
0.000000 0.861906 0.350439
0.107729 0.861204 0.341466
0.410864 0.856107 0.358465
0.570092 0.849332 0.313329
0.746975 0.855283 0.307042
0.915618 0.878172 0.389014
1.000000 0.854551 0.458198
0.000000 0.971374 0.352697
0.000000 0.970733 0.353521
0.236515 0.967803 0.357458
0.455879 0.960479 0.392523
0.582238 0.955871 0.361486
0.718837 0.949279 0.314672
0.862028 0.947234 0.365606
0.978119 0.943908 0.433875
0.165927 0.136446 0.420752
0.199863 0.125368 0.435370
0.303349 0.069245 0.478065
0.484627 0.000000 0.545190
0.615930 0.000000 0.538079
0.743801 0.000000 0.523735
0.890318 0.000000 0.516777
0.998047 0.275120 0.513725
0.162081 0.157259 0.424842
0.192630 0.151583 0.438117
0.295323 0.116854 0.478859
0.477699 0.000000 0.544152
0.619501 0.000000 0.541375
0.744869 0.000000 0.524712
0.891417 0.136599 0.520317
0.997559 0.315831 0.517845
0.141085 0.234287 0.410956
0.158907 0.231662 0.429725
0.262791 0.226322 0.470558
0.454810 0.199039 0.538720
0.627008 0.170779 0.548974
0.743435 0.251774 0.530724
0.893889 0.337255 0.532280
0.995758 0.418402 0.529442
0.143465 0.334142 0.411017
0.174166 0.338781 0.416297
0.283696 0.363073 0.434333
0.458656 0.430732 0.515312
0.634180 0.447730 0.558923
0.761654 0.469337 0.552514
0.903349 0.505089 0.553002
0.990784 0.576837 0.573297
0.000000 0.509178 0.484779
0.103395 0.514366 0.489143
0.285832 0.532494 0.503349
0.477821 0.566125 0.529870
0.643641 0.615869 0.571801
0.799130 0.644800 0.583093
0.920043 0.669306 0.590448
0.995514 0.677363 0.584680
0.000000 0.707393 0.540612
0.000000 0.709926 0.542565
0.287572 0.713954 0.544335
0.459480 0.722042 0.546380
0.609064 0.732967 0.537835
0.799069 0.764065 0.549554
0.931243 0.796109 0.610224
0.992706 0.800137 0.626825
0.000000 0.848264 0.534234
0.068879 0.848264 0.533501
0.280552 0.848936 0.531762
0.433478 0.852140 0.524895
0.588190 0.850431 0.515923
0.730312 0.841764 0.468238
0.909697 0.875059 0.546990
0.989105 0.864591 0.606836
0.157351 0.961975 0.527733
0.205447 0.961639 0.526543
0.312322 0.960845 0.521386
0.448432 0.959564 0.517266
0.599420 0.952697 0.523583
0.719142 0.947295 0.488594
0.858244 0.943664 0.497414
0.973693 0.942229 0.565606
0.227146 0.159823 0.567437
0.253452 0.153475 0.575036
0.336309 0.122988 0.599695
0.473487 0.000000 0.644617
0.652644 0.000000 0.696590
0.769955 0.000000 0.677882
0.874327 0.141939 0.659693
0.973968 0.349157 0.663386
0.220859 0.186374 0.564508
0.246799 0.181827 0.571710
0.330144 0.161135 0.596735
0.468177 0.085847 0.641962
0.651179 0.000000 0.696407
0.769039 0.000000 0.677485
0.872801 0.216709 0.660731
0.973480 0.374182 0.664332
0.220310 0.276371 0.556481
0.245731 0.277104 0.563958
0.329137 0.279026 0.590021
0.466041 0.278355 0.635218
0.654780 0.263523 0.698054
0.769802 0.282261 0.680720
0.870848 0.364660 0.667506
0.973449 0.452094 0.669429
0.257877 0.374975 0.511254
0.282261 0.383124 0.521599
0.371923 0.417609 0.559625
0.490211 0.452552 0.614191
0.652003 0.481880 0.683497
0.773465 0.483864 0.688624
0.870237 0.506432 0.679194
0.974884 0.555291 0.678279
0.263340 0.484779 0.546777
0.291905 0.488777 0.548669
0.378637 0.504326 0.555169
0.493660 0.534783 0.567498
0.634058 0.600366 0.645472
0.774289 0.623255 0.694392
0.879118 0.631678 0.689479
0.975341 0.667994 0.690791
0.267033 0.638056 0.605005
0.302037 0.641260 0.607630
0.395178 0.650507 0.614862
0.512871 0.668086 0.629450
0.637232 0.697475 0.655329
0.781674 0.752956 0.708064
0.905516 0.785885 0.729519
0.975555 0.799741 0.734524
0.309789 0.823301 0.676051
0.339818 0.824826 0.678004
0.421454 0.828946 0.682887
0.524926 0.836698 0.689143
0.625452 0.844266 0.682765
0.745113 0.850980 0.669062
0.901854 0.872557 0.698390
0.973907 0.884428 0.757778
0.386755 0.947173 0.692103
0.402869 0.946960 0.691188
0.453529 0.946685 0.687678
0.526787 0.947509 0.679927
0.611627 0.948882 0.662989
0.733577 0.943908 0.656733
0.847501 0.938659 0.617151
0.967041 0.940612 0.703517
0.338476 0.272801 0.705928
0.355779 0.271275 0.710842
0.413550 0.262821 0.727718
0.510399 0.240055 0.757229
0.642573 0.178927 0.796506
0.783749 0.114534 0.820432
0.888365 0.201114 0.804562
0.965057 0.386297 0.781552
0.349279 0.304631 0.704128
0.365332 0.303441 0.708858
0.420417 0.297826 0.725582
0.514092 0.281926 0.754726
0.644190 0.244083 0.794553
0.785153 0.211917 0.820554
0.887785 0.260319 0.804776
0.964324 0.409674 0.782620
0.383032 0.390875 0.693904
0.396826 0.391455 0.698726
0.445075 0.392706 0.715755
0.530205 0.392676 0.745907
0.651392 0.386114 0.787350
0.790127 0.377020 0.821134
0.886076 0.389502 0.805661
0.961975 0.478096 0.786130
0.422858 0.480873 0.666468
0.436316 0.484688 0.672541
0.474250 0.491218 0.692805
0.547509 0.502770 0.726406
0.656764 0.515587 0.772763
0.797391 0.526390 0.823270
0.884154 0.521050 0.807980
0.958770 0.566003 0.791135
0.430915 0.539147 0.636103
0.442329 0.540856 0.635859
0.479805 0.547845 0.636805
0.551080 0.578149 0.681331
0.648402 0.608972 0.743282
0.786130 0.642725 0.809689
0.882963 0.641444 0.812314
0.954467 0.664302 0.798398
0.440375 0.641382 0.685847
0.452369 0.642420 0.686091
0.491646 0.646082 0.686976
0.551934 0.652308 0.688441
0.628107 0.663081 0.690791
0.759426 0.726497 0.771328
0.882414 0.761196 0.818967
0.953582 0.773342 0.811246
0.442542 0.771145 0.740932
0.455634 0.772061 0.741634
0.497902 0.775357 0.744167
0.563043 0.781735 0.749325
0.648646 0.793240 0.759243
0.759579 0.815549 0.779934
0.885283 0.863767 0.830106
0.958740 0.885832 0.847227
0.493385 0.926177 0.809110
0.505028 0.926482 0.809415
0.543023 0.927672 0.810483
0.604242 0.929931 0.812345
0.686854 0.932830 0.815946
0.768429 0.934783 0.808835
0.860044 0.934936 0.800137
0.958007 0.939086 0.830594
0.578607 0.530755 0.861997
0.584192 0.528618 0.863706
0.604700 0.520775 0.869688
0.643214 0.504082 0.880125
0.703029 0.473854 0.894408
0.787686 0.420264 0.911620
0.882109 0.406744 0.915618
0.967987 0.431739 0.907500
0.584558 0.544457 0.860868
0.589990 0.542596 0.862577
0.609796 0.535424 0.868589
0.647425 0.520348 0.879026
0.706111 0.493355 0.893462
0.789303 0.446235 0.910704
0.882536 0.431525 0.915373
0.967315 0.451911 0.907408
0.600946 0.585168 0.856535
0.605951 0.583886 0.858274
0.624384 0.578882 0.864439
0.659602 0.568597 0.875212
0.715084 0.550286 0.889982
0.793973 0.519646 0.907530
0.883909 0.503258 0.914641
0.965026 0.512169 0.907103
0.619471 0.638483 0.847562
0.624048 0.637995 0.849485
0.640742 0.635767 0.856229
0.673213 0.631159 0.867887
0.724849 0.622492 0.883726
0.798550 0.608179 0.902312
0.885771 0.595087 0.914031
0.961639 0.593866 0.906950
0.646906 0.699062 0.828733
0.650141 0.698909 0.830991
0.662318 0.698146 0.839231
0.682704 0.692653 0.854307
0.730709 0.693080 0.872984
0.800595 0.693111 0.894347
0.888884 0.694270 0.913817
0.957061 0.689265 0.907042
0.657679 0.754513 0.837247
0.661891 0.754543 0.836912
0.676356 0.754604 0.835599
0.701289 0.754116 0.832547
0.737301 0.757717 0.849485
0.799252 0.767849 0.879881
0.886992 0.788418 0.907713
0.951873 0.787778 0.907805
0.656977 0.822446 0.865141
0.661494 0.822538 0.865080
0.677028 0.822812 0.864775
0.704341 0.823178 0.864012
0.744076 0.823911 0.862333
0.795529 0.825711 0.858366
0.875639 0.852873 0.890349
0.948333 0.873198 0.910918
0.651331 0.902251 0.889769
0.656245 0.902434 0.889860
0.673274 0.903258 0.890196
0.704067 0.904814 0.890898
0.748928 0.907317 0.892058
0.807248 0.911192 0.894011
0.876127 0.917784 0.898375
0.948882 0.937011 0.918273
