其他预设/【233】日式怀旧街道调色预设208款/1.3D LUT预设（视频调色-PR-AE-PS-FCPX-达芬奇用）/2.富士胶片风-日式城市街拍预设/JA – Static Pop 3 (Classic Chrome).cube
# Created by Adobe Lightroom plugin Export LUT (1.17.0)
# www.johnrellis.com/lightroom/exportlut.htm
# Preset: JA – Static Pop 3 (Classic Chrome)
# Color profile: /Library/Application Support/Adobe/Color/Profiles/Recommended/AdobeRGB1998.icc
LUT_3D_SIZE 32
0.074311 0.079377 0.084535
0.074311 0.079377 0.084535
0.074739 0.079316 0.084535
0.084993 0.077913 0.084993
0.100252 0.074739 0.085359
0.119753 0.071046 0.084627
0.147372 0.067140 0.083589
0.185000 0.062165 0.082246
0.232547 0.051392 0.079103
0.288609 0.031464 0.073579
0.351659 0.008270 0.065095
0.418433 0.000000 0.043030
0.485115 0.000000 0.000000
0.546777 0.000000 0.000000
0.601556 0.000000 0.000000
0.656092 0.013581 0.000000
0.715694 0.033631 0.000000
0.768032 0.052155 0.000000
0.817868 0.063142 0.000000
0.866667 0.070558 0.000000
0.912749 0.076234 0.000000
0.954925 0.079347 0.000000
0.991913 0.083314 0.000000
1.000000 0.086915 0.000000
1.000000 0.087861 0.000000
1.000000 0.090944 0.000000
1.000000 0.093568 0.000000
1.000000 0.097017 0.000000
1.000000 0.099123 0.000000
1.000000 0.097475 0.000000
1.000000 0.073365 0.000000
1.000000 0.007721 0.000000
0.074311 0.079377 0.084535
0.074311 0.079377 0.084535
0.074739 0.079316 0.084535
0.084627 0.078004 0.084993
0.099977 0.075593 0.084718
0.118807 0.074037 0.084443
0.146151 0.071748 0.083650
0.183169 0.068513 0.081971
0.229923 0.062989 0.078828
0.285496 0.056367 0.073243
0.347601 0.045075 0.064759
0.413825 0.034333 0.042542
0.480110 0.029847 0.000000
0.541985 0.032349 0.000000
0.596948 0.046479 0.000000
0.651789 0.059998 0.000000
0.709438 0.067964 0.000000
0.760494 0.074281 0.000000
0.809293 0.081788 0.000000
0.858000 0.086000 0.000000
0.904387 0.089631 0.000000
0.947265 0.092409 0.000000
0.985168 0.095064 0.000000
1.000000 0.097108 0.000000
1.000000 0.098543 0.000000
1.000000 0.100343 0.000000
1.000000 0.101839 0.000000
1.000000 0.104891 0.000000
1.000000 0.106355 0.000000
1.000000 0.105898 0.000000
1.000000 0.084535 0.000000
1.000000 0.043580 0.000000
0.074311 0.079377 0.084535
0.074311 0.079377 0.084535
0.074739 0.079316 0.084535
0.084474 0.079438 0.084596
0.099336 0.078950 0.084504
0.118227 0.078218 0.084169
0.144839 0.077119 0.083650
0.181247 0.075776 0.081605
0.227695 0.073335 0.078340
0.282353 0.071138 0.073030
0.344213 0.069215 0.063966
0.410254 0.068238 0.040467
0.476570 0.068788 0.000000
0.538567 0.073091 0.000000
0.593744 0.077913 0.000000
0.649500 0.082429 0.000000
0.705898 0.089509 0.000000
0.756008 0.095735 0.000000
0.804349 0.099001 0.000000
0.852995 0.103212 0.000000
0.899748 0.106020 0.000000
0.943114 0.108522 0.000000
0.981567 0.109926 0.000000
1.000000 0.110994 0.000000
1.000000 0.111940 0.000000
1.000000 0.112306 0.000000
1.000000 0.113252 0.000000
1.000000 0.115450 0.000000
1.000000 0.116487 0.000000
1.000000 0.115297 0.000000
1.000000 0.096925 0.000000
1.000000 0.068879 0.000000
0.074250 0.084443 0.084749
0.074128 0.085084 0.084688
0.074464 0.085664 0.084627
0.083833 0.086488 0.084352
0.098390 0.086763 0.084199
0.117159 0.086793 0.083803
0.143526 0.087556 0.082856
0.179660 0.088472 0.080964
0.225437 0.090120 0.077424
0.279850 0.092439 0.071717
0.340948 0.095521 0.061585
0.406561 0.099092 0.034791
0.472389 0.104005 0.000000
0.534447 0.108217 0.000000
0.590021 0.112276 0.000000
0.647120 0.117556 0.000000
0.701686 0.122530 0.000000
0.750607 0.125826 0.000000
0.797696 0.129274 0.000000
0.845396 0.131838 0.000000
0.891997 0.133516 0.000000
0.935668 0.134859 0.000000
0.975311 0.135531 0.000000
1.000000 0.136141 0.000000
1.000000 0.135866 0.000000
1.000000 0.135622 0.000000
1.000000 0.135622 0.000000
1.000000 0.136110 0.000000
1.000000 0.137636 0.000000
1.000000 0.135592 0.000000
1.000000 0.119509 0.000000
1.000000 0.096925 0.000000
0.073365 0.093935 0.084230
0.073335 0.094209 0.084199
0.073152 0.095064 0.084108
0.082307 0.095857 0.083833
0.095552 0.096071 0.084047
0.114687 0.098085 0.083162
0.140810 0.100771 0.082033
0.176150 0.104799 0.079866
0.221073 0.109957 0.075959
0.274510 0.116579 0.069276
0.334966 0.123262 0.058717
0.400031 0.131350 0.024933
0.466011 0.138277 0.000000
0.528588 0.144564 0.000000
0.584924 0.149172 0.000000
0.644373 0.154604 0.000000
0.698085 0.158236 0.000000
0.746792 0.161807 0.000000
0.793881 0.163333 0.000000
0.841428 0.165499 0.000000
0.887694 0.166598 0.000000
0.931456 0.167300 0.000000
0.971405 0.167514 0.000000
1.000000 0.167361 0.000000
1.000000 0.165743 0.000000
1.000000 0.164767 0.000000
1.000000 0.163821 0.000000
1.000000 0.162692 0.000000
1.000000 0.163119 0.000000
1.000000 0.161105 0.000000
1.000000 0.147005 0.000000
1.000000 0.128481 0.000000
0.072267 0.104921 0.084047
0.072175 0.105440 0.083986
0.071992 0.106203 0.083925
0.080659 0.106722 0.083345
0.093812 0.107454 0.083192
0.109773 0.108156 0.082582
0.137179 0.114656 0.080964
0.173770 0.122469 0.078096
0.218235 0.131350 0.073426
0.271397 0.141390 0.065705
0.331395 0.151980 0.049439
0.396216 0.162844 0.011231
0.462074 0.172732 0.000000
0.525017 0.180331 0.000000
0.584039 0.185946 0.000000
0.643336 0.191775 0.000000
0.696101 0.195529 0.000000
0.744564 0.198062 0.000000
0.791684 0.199588 0.000000
0.839689 0.200992 0.000000
0.886534 0.201633 0.000000
0.930938 0.201816 0.000000
1.000000 0.209567 0.000000
1.000000 0.208316 0.000000
1.000000 0.206851 0.000000
1.000000 0.204288 0.000000
1.000000 0.201450 0.000000
1.000000 0.199619 0.000000
1.000000 0.198825 0.000000
1.000000 0.191623 0.000000
1.000000 0.176577 0.000000
1.000000 0.159945 0.000000
0.070008 0.121309 0.082765
0.069917 0.121767 0.082704
0.070619 0.122530 0.082582
0.080415 0.123476 0.082216
0.095430 0.125124 0.081270
0.112123 0.125521 0.080964
0.132418 0.127687 0.080110
0.172396 0.141848 0.075837
0.220768 0.156283 0.069184
0.278782 0.172274 0.057893
0.340642 0.186709 0.025177
0.406683 0.200717 0.000000
0.472572 0.212284 0.000000
0.534539 0.220615 0.000000
0.598474 0.229007 0.000000
0.655879 0.234165 0.000000
0.707515 0.236667 0.000000
0.755367 0.237675 0.000000
0.803372 0.238376 0.000000
0.852934 0.238865 0.000000
0.902068 0.239780 0.000000
0.948943 0.240177 0.000000
0.991180 0.240391 0.000000
1.000000 0.239506 0.000000
1.000000 0.238102 0.000000
1.000000 0.236118 0.000000
1.000000 0.232975 0.000000
1.000000 0.229801 0.000000
1.000000 0.227512 0.000000
1.000000 0.221988 0.000000
1.000000 0.207218 0.000000
1.000000 0.191379 0.000000
0.066468 0.141543 0.080842
0.065888 0.142123 0.080476
0.067964 0.142855 0.080629
0.079652 0.144198 0.079805
0.096284 0.145937 0.078981
0.115663 0.147585 0.077974
0.135805 0.147860 0.076997
0.159854 0.151583 0.075257
0.209720 0.172610 0.066865
0.266819 0.192538 0.050782
0.332891 0.213474 0.007752
0.401129 0.231388 0.000000
0.467048 0.245182 0.000000
0.533440 0.256809 0.000000
0.597253 0.265385 0.000000
0.652125 0.269108 0.000000
0.702327 0.270939 0.000000
0.749386 0.271336 0.000000
0.796750 0.272068 0.000000
0.846006 0.272709 0.000000
0.895140 0.273777 0.000000
0.942229 0.274052 0.000000
0.984985 0.274174 0.000000
1.000000 0.272801 0.000000
1.000000 0.270939 0.000000
1.000000 0.268193 0.000000
1.000000 0.265049 0.000000
1.000000 0.260990 0.000000
1.000000 0.257633 0.000000
1.000000 0.253147 0.000000
1.000000 0.238468 0.000000
1.000000 0.223026 0.000000
0.046021 0.169711 0.076875
0.046540 0.170382 0.076753
0.060517 0.171084 0.078065
0.076844 0.172396 0.077424
0.097047 0.174624 0.075685
0.120211 0.177188 0.073762
0.143587 0.177951 0.072358
0.166751 0.178286 0.071138
0.195315 0.183322 0.067414
0.255039 0.210452 0.046754
0.319799 0.234531 0.000000
0.391180 0.257542 0.000000
0.465888 0.278538 0.000000
0.536706 0.293431 0.000000
0.597009 0.301488 0.000000
0.650141 0.304906 0.000000
0.699245 0.306279 0.000000
0.745815 0.306706 0.000000
0.792691 0.306859 0.000000
0.841794 0.307744 0.000000
0.890806 0.308751 0.000000
0.937926 0.309209 0.000000
0.980774 0.308659 0.000000
1.000000 0.307256 0.000000
1.000000 0.304631 0.000000
1.000000 0.300999 0.000000
1.000000 0.297307 0.000000
1.000000 0.293217 0.000000
1.000000 0.288762 0.000000
1.000000 0.284245 0.000000
1.000000 0.270024 0.000000
1.000000 0.254551 0.000000
0.000000 0.205600 0.076387
0.003540 0.206210 0.072694
0.027131 0.207156 0.072572
0.068116 0.208438 0.072389
0.095491 0.210239 0.070710
0.123354 0.213016 0.067781
0.151522 0.215488 0.064851
0.178531 0.215305 0.062623
0.205142 0.215396 0.059876
0.237675 0.221347 0.049470
0.305272 0.252384 0.000000
0.377630 0.280247 0.000000
0.458045 0.307927 0.000000
0.533318 0.327764 0.000000
0.595758 0.337621 0.000000
0.648890 0.341283 0.000000
0.698543 0.342992 0.000000
0.745480 0.343145 0.000000
0.792538 0.343450 0.000000
0.841123 0.344060 0.000000
0.889006 0.344732 0.000000
0.934600 0.344579 0.000000
0.976226 0.343572 0.000000
1.000000 0.341375 0.000000
1.000000 0.337987 0.000000
1.000000 0.333959 0.000000
1.000000 0.329473 0.000000
1.000000 0.325170 0.000000
1.000000 0.320287 0.000000
1.000000 0.315557 0.000000
1.000000 0.301854 0.000000
1.000000 0.286015 0.000000
0.000000 0.247166 0.071962
0.000000 0.247929 0.066316
0.000000 0.248905 0.061891
0.040314 0.250248 0.063142
0.089265 0.252323 0.060121
0.124514 0.255192 0.054871
0.158480 0.258854 0.046326
0.190494 0.260105 0.036530
0.220890 0.259373 0.027893
0.250523 0.258885 0.018799
0.288945 0.267124 0.000000
0.368780 0.305547 0.000000
0.446448 0.334661 0.000000
0.521019 0.356634 0.000000
0.586969 0.370062 0.000000
0.645747 0.377600 0.000000
0.695064 0.378820 0.000000
0.741665 0.378759 0.000000
0.788418 0.378882 0.000000
0.836881 0.379553 0.000000
0.884794 0.380072 0.000000
0.930571 0.379919 0.000000
0.972534 0.378759 0.000000
1.000000 0.376349 0.000000
1.000000 0.372473 0.000000
1.000000 0.367681 0.000000
1.000000 0.362402 0.000000
1.000000 0.357305 0.000000
1.000000 0.352270 0.000000
1.000000 0.347326 0.000000
1.000000 0.333623 0.000000
1.000000 0.317571 0.000000
0.000000 0.295903 0.064271
0.000000 0.296727 0.051148
0.000000 0.297612 0.026032
0.000000 0.298802 0.031739
0.074800 0.300816 0.024079
0.121492 0.303502 0.013947
0.162448 0.306981 0.000000
0.201266 0.311131 0.000000
0.236362 0.310094 0.000000
0.271733 0.311223 0.000000
0.308995 0.314702 0.000000
0.353307 0.324407 0.000000
0.470039 0.388586 0.000000
0.545220 0.411048 0.000000
0.610986 0.423651 0.000000
0.670192 0.430365 0.000000
0.725093 0.433845 0.000000
0.774502 0.433967 0.000000
0.820951 0.432593 0.000000
0.867216 0.431342 0.000000
0.911650 0.429572 0.000000
0.953002 0.427008 0.000000
0.990173 0.423255 0.000000
1.000000 0.418555 0.000000
1.000000 0.412726 0.000000
1.000000 0.406287 0.000000
1.000000 0.399451 0.000000
1.000000 0.392981 0.000000
1.000000 0.387152 0.000000
1.000000 0.379614 0.000000
1.000000 0.365118 0.000000
1.000000 0.349096 0.000000
0.000000 0.359716 0.032959
0.000000 0.360327 0.002502
0.000000 0.360815 0.000000
0.000000 0.360906 0.000000
0.016480 0.361578 0.000000
0.114626 0.362890 0.000000
0.164950 0.365148 0.000000
0.210086 0.368170 0.000000
0.256138 0.375647 0.000000
0.299840 0.379797 0.000000
0.342901 0.383673 0.000000
0.385290 0.386786 0.000000
0.435096 0.396582 0.000000
0.518669 0.430091 0.000000
0.589105 0.448341 0.000000
0.650813 0.458167 0.000000
0.707424 0.463386 0.000000
0.760555 0.466041 0.000000
0.813413 0.468330 0.000000
0.859648 0.466926 0.000000
0.904295 0.465095 0.000000
0.946075 0.462440 0.000000
0.983673 0.458534 0.000000
1.000000 0.453376 0.000000
1.000000 0.447181 0.000000
1.000000 0.439979 0.000000
1.000000 0.432593 0.000000
1.000000 0.425269 0.000000
1.000000 0.418524 0.000000
1.000000 0.411872 0.000000
1.000000 0.396643 0.000000
1.000000 0.380468 0.000000
0.000000 0.414343 0.000000
0.000000 0.414862 0.000000
0.000000 0.415198 0.000000
0.000000 0.415351 0.000000
0.000000 0.415625 0.000000
0.095125 0.417426 0.000000
0.161440 0.423133 0.000000
0.215610 0.429358 0.000000
0.266392 0.436378 0.000000
0.314153 0.439673 0.000000
0.359564 0.441016 0.000000
0.403693 0.442206 0.000000
0.445960 0.442237 0.000000
0.493385 0.447364 0.000000
0.567193 0.471412 0.000000
0.631189 0.484230 0.000000
0.688716 0.491066 0.000000
0.742367 0.494820 0.000000
0.796201 0.498146 0.000000
0.849638 0.501030 0.000000
0.897490 0.500786 0.000000
0.939879 0.498146 0.000000
0.978058 0.494057 0.000000
1.000000 0.488777 0.000000
1.000000 0.481971 0.000000
1.000000 0.474281 0.000000
1.000000 0.466102 0.000000
1.000000 0.458106 0.000000
1.000000 0.450721 0.000000
1.000000 0.443915 0.000000
1.000000 0.428229 0.000000
1.000000 0.411963 0.000000
0.000000 0.475013 0.000000
0.000000 0.476051 0.000000
0.000000 0.476783 0.000000
0.000000 0.478035 0.000000
0.000000 0.479225 0.000000
0.048432 0.481117 0.000000
0.151278 0.483772 0.000000
0.213993 0.487282 0.000000
0.269169 0.491585 0.000000
0.321752 0.496559 0.000000
0.369574 0.496071 0.000000
0.415625 0.495644 0.000000
0.459632 0.494240 0.000000
0.500938 0.491463 0.000000
0.545006 0.491798 0.000000
0.610529 0.508171 0.000000
0.670375 0.517815 0.000000
0.724941 0.522789 0.000000
0.779110 0.527001 0.000000
0.833829 0.531182 0.000000
0.886046 0.533776 0.000000
0.933837 0.534020 0.000000
0.972412 0.529778 0.000000
1.000000 0.523980 0.000000
1.000000 0.516960 0.000000
1.000000 0.508843 0.000000
1.000000 0.500175 0.000000
1.000000 0.491676 0.000000
1.000000 0.483803 0.000000
1.000000 0.476295 0.000000
1.000000 0.459968 0.000000
1.000000 0.443061 0.000000
0.000000 0.536034 0.000000
0.000000 0.536767 0.000000
0.000000 0.537407 0.000000
0.000000 0.538293 0.000000
0.000000 0.538689 0.000000
0.000000 0.539818 0.000000
0.132509 0.541405 0.000000
0.206638 0.543725 0.000000
0.267857 0.546441 0.000000
0.323369 0.549645 0.000000
0.375402 0.550286 0.000000
0.422766 0.547448 0.000000
0.467292 0.543572 0.000000
0.509209 0.538689 0.000000
0.548119 0.532586 0.000000
0.588342 0.528954 0.000000
0.648310 0.540581 0.000000
0.706264 0.548974 0.000000
0.761807 0.554620 0.000000
0.818570 0.560815 0.000000
0.873381 0.565362 0.000000
0.923766 0.567224 0.000000
0.968109 0.566064 0.000000
1.000000 0.561151 0.000000
1.000000 0.553582 0.000000
1.000000 0.544762 0.000000
1.000000 0.535363 0.000000
1.000000 0.526177 0.000000
1.000000 0.517388 0.000000
1.000000 0.508904 0.000000
1.000000 0.491493 0.000000
1.000000 0.474128 0.000000
0.000000 0.585870 0.000000
0.000000 0.586236 0.000000
0.000000 0.586389 0.000000
0.000000 0.587091 0.000000
0.000000 0.586725 0.000000
0.000000 0.587060 0.000000
0.098116 0.587793 0.000000
0.191562 0.588861 0.000000
0.258091 0.590356 0.000000
0.316655 0.592187 0.000000
0.371618 0.594446 0.000000
0.421790 0.592096 0.000000
0.468360 0.588067 0.000000
0.512078 0.582940 0.000000
0.552972 0.576623 0.000000
0.590600 0.569116 0.000000
0.628595 0.563287 0.000000
0.685389 0.572290 0.000000
0.743191 0.580560 0.000000
0.800809 0.588037 0.000000
0.857328 0.594232 0.000000
0.909789 0.597742 0.000000
0.956512 0.597925 0.000000
0.996704 0.594995 0.000000
1.000000 0.589075 0.000000
1.000000 0.579767 0.000000
1.000000 0.569879 0.000000
1.000000 0.560021 0.000000
1.000000 0.550561 0.000000
1.000000 0.541619 0.000000
1.000000 0.523125 0.000000
1.000000 0.505119 0.000000
0.000000 0.631495 0.000000
0.000000 0.632349 0.000000
0.000000 0.654749 0.000000
0.000000 0.655177 0.000000
0.000000 0.654383 0.000000
0.000000 0.653559 0.000000
0.009064 0.652949 0.000000
0.178164 0.652522 0.000000
0.253880 0.652522 0.000000
0.317662 0.652918 0.000000
0.375769 0.653498 0.000000
0.430304 0.653132 0.000000
0.479255 0.647395 0.000000
0.525139 0.640894 0.000000
0.567773 0.633417 0.000000
0.607660 0.625086 0.000000
0.644862 0.615961 0.000000
0.681422 0.608118 0.000000
0.735775 0.614343 0.000000
0.795468 0.623590 0.000000
0.852415 0.630335 0.000000
0.905608 0.634302 0.000000
0.953063 0.634699 0.000000
0.993591 0.631617 0.000000
1.000000 0.625055 0.000000
1.000000 0.616114 0.000000
1.000000 0.605432 0.000000
1.000000 0.594354 0.000000
1.000000 0.584039 0.000000
1.000000 0.574609 0.000000
1.000000 0.554955 0.000000
1.000000 0.536126 0.000000
0.000000 0.680110 0.000000
0.000000 0.683223 0.000000
0.000000 0.686397 0.000000
0.000000 0.689387 0.000000
0.000000 0.690883 0.000000
0.000000 0.690913 0.000000
0.000000 0.690608 0.000000
0.150942 0.689998 0.000000
0.236728 0.689845 0.000000
0.303929 0.689723 0.000000
0.364569 0.689998 0.000000
0.420783 0.690181 0.000000
0.472786 0.686976 0.000000
0.520226 0.680537 0.000000
0.564569 0.673182 0.000000
0.606195 0.665003 0.000000
0.645197 0.656245 0.000000
0.681880 0.647120 0.000000
0.718349 0.639246 0.000000
0.773281 0.646174 0.000000
0.833555 0.656153 0.000000
0.889677 0.662623 0.000000
0.940093 0.665217 0.000000
0.983459 0.663630 0.000000
1.000000 0.658137 0.000000
1.000000 0.649622 0.000000
1.000000 0.639460 0.000000
1.000000 0.628717 0.000000
1.000000 0.617700 0.000000
1.000000 0.607660 0.000000
1.000000 0.586847 0.000000
1.000000 0.567041 0.000000
0.000000 0.718898 0.000000
0.000000 0.721828 0.000000
0.000000 0.724788 0.000000
0.000000 0.727626 0.000000
0.000000 0.729305 0.000000
0.000000 0.729152 0.000000
0.000000 0.728725 0.000000
0.115419 0.728206 0.000000
0.217990 0.727962 0.000000
0.290654 0.727901 0.000000
0.353338 0.728115 0.000000
0.411719 0.728328 0.000000
0.466651 0.728054 0.000000
0.516167 0.722377 0.000000
0.562432 0.715175 0.000000
0.605798 0.707179 0.000000
0.646601 0.698695 0.000000
0.685267 0.689815 0.000000
0.722133 0.680964 0.000000
0.759701 0.674067 0.000000
0.814908 0.681300 0.000000
0.873716 0.690364 0.000000
0.927153 0.695338 0.000000
0.973205 0.695460 0.000000
1.000000 0.691035 0.000000
1.000000 0.682979 0.000000
1.000000 0.672694 0.000000
1.000000 0.661677 0.000000
1.000000 0.650843 0.000000
1.000000 0.640528 0.000000
1.000000 0.618952 0.000000
1.000000 0.598047 0.000000
0.000000 0.759152 0.000000
0.000000 0.762020 0.000000
0.000000 0.765011 0.000000
0.000000 0.767819 0.000000
0.000000 0.769589 0.000000
0.000000 0.769375 0.000000
0.000000 0.768978 0.000000
0.049073 0.768399 0.000000
0.197116 0.767941 0.000000
0.276249 0.767666 0.000000
0.342351 0.767697 0.000000
0.402502 0.767636 0.000000
0.458900 0.767269 0.000000
0.512047 0.765316 0.000000
0.560327 0.758785 0.000000
0.606226 0.751797 0.000000
0.650050 0.744594 0.000000
0.692164 0.737484 0.000000
0.732906 0.730526 0.000000
0.772519 0.723873 0.000000
0.812863 0.718898 0.000000
0.867460 0.725338 0.000000
0.922728 0.731716 0.000000
0.971283 0.733333 0.000000
1.000000 0.729519 0.000000
1.000000 0.721309 0.000000
1.000000 0.710475 0.000000
1.000000 0.698787 0.000000
1.000000 0.687251 0.000000
1.000000 0.673884 0.000000
1.000000 0.651362 0.000000
1.000000 0.629328 0.000000
0.000000 0.812039 0.000000
0.000000 0.813535 0.000000
0.000000 0.814694 0.000000
0.000000 0.815885 0.000000
0.000000 0.816617 0.000000
0.000000 0.815793 0.000000
0.000000 0.815061 0.000000
0.000000 0.814572 0.000000
0.176272 0.814481 0.000000
0.264225 0.814572 0.000000
0.334478 0.814817 0.000000
0.397498 0.814878 0.000000
0.455787 0.814511 0.000000
0.511162 0.813687 0.000000
0.562615 0.809293 0.000000
0.610651 0.802548 0.000000
0.656428 0.795560 0.000000
0.700618 0.788479 0.000000
0.743069 0.781552 0.000000
0.784298 0.774716 0.000000
0.824216 0.768002 0.000000
0.863157 0.761563 0.000000
0.912200 0.763516 0.000000
0.960143 0.764584 0.000000
1.000000 0.761959 0.000000
1.000000 0.754543 0.000000
1.000000 0.743954 0.000000
1.000000 0.732082 0.000000
1.000000 0.720150 0.000000
1.000000 0.706325 0.000000
1.000000 0.682795 0.000000
1.000000 0.660304 0.000000
0.000000 0.853086 0.000000
0.000000 0.854429 0.000000
0.000000 0.855711 0.000000
0.000000 0.856779 0.000000
0.000000 0.857603 0.000000
0.000000 0.856687 0.000000
0.000000 0.855589 0.000000
0.000000 0.854795 0.000000
0.148226 0.854276 0.000000
0.247959 0.853941 0.000000
0.322332 0.853819 0.000000
0.387060 0.853635 0.000000
0.446815 0.853086 0.000000
0.503410 0.852262 0.000000
0.557610 0.851225 0.000000
0.607477 0.845365 0.000000
0.655268 0.839322 0.000000
0.701381 0.833188 0.000000
0.746120 0.827085 0.000000
0.789578 0.821225 0.000000
0.831968 0.815488 0.000000
0.873320 0.810086 0.000000
0.911376 0.802884 0.000000
0.955108 0.800748 0.000000
0.990539 0.792325 0.000000
1.000000 0.786160 0.000000
1.000000 0.776211 0.000000
1.000000 0.764340 0.000000
1.000000 0.752102 0.000000
1.000000 0.738766 0.000000
1.000000 0.714229 0.000000
1.000000 0.690852 0.000000
0.000000 0.900420 0.000000
0.000000 0.901793 0.000000
0.000000 0.902678 0.000000
0.000000 0.903197 0.000000
0.000000 0.903380 0.000000
0.000000 0.902129 0.000000
0.000000 0.900237 0.000000
0.000000 0.898711 0.000000
0.121279 0.897154 0.000000
0.234104 0.895750 0.000000
0.311528 0.894347 0.000000
0.377783 0.893126 0.000000
0.438300 0.891752 0.000000
0.495155 0.889982 0.000000
0.549340 0.887846 0.000000
0.600824 0.884062 0.000000
0.649165 0.877592 0.000000
0.695979 0.871336 0.000000
0.741726 0.865660 0.000000
0.786740 0.860502 0.000000
0.830777 0.855741 0.000000
0.873686 0.851072 0.000000
0.915221 0.846220 0.000000
0.950317 0.836728 0.000000
0.987091 0.829374 0.000000
1.000000 0.819883 0.000000
1.000000 0.809934 0.000000
1.000000 0.797696 0.000000
1.000000 0.785061 0.000000
1.000000 0.771389 0.000000
1.000000 0.745785 0.000000
1.000000 0.721401 0.000000
0.000000 0.934783 0.000000
0.000000 0.935973 0.000000
0.000000 0.936767 0.000000
0.000000 0.937194 0.000000
0.000000 0.937285 0.000000
0.000000 0.936370 0.000000
0.000000 0.934600 0.000000
0.000000 0.933288 0.000000
0.085542 0.932097 0.000000
0.218997 0.930999 0.000000
0.299779 0.929931 0.000000
0.368170 0.928893 0.000000
0.429633 0.927794 0.000000
0.487160 0.926329 0.000000
0.541894 0.924468 0.000000
0.594629 0.922332 0.000000
0.644739 0.917754 0.000000
0.692836 0.912383 0.000000
0.739864 0.907317 0.000000
0.785946 0.902647 0.000000
0.831052 0.898222 0.000000
0.875120 0.893889 0.000000
0.917937 0.889494 0.000000
0.959380 0.885008 0.000000
0.990784 0.872709 0.000000
1.000000 0.859922 0.000000
1.000000 0.845457 0.000000
1.000000 0.832883 0.000000
1.000000 0.819821 0.000000
1.000000 0.804166 0.000000
1.000000 0.777462 0.000000
1.000000 0.752102 0.000000
0.000000 0.968292 0.000000
0.000000 0.969024 0.000000
0.000000 0.969329 0.000000
0.000000 0.969360 0.000000
0.000000 0.969116 0.000000
0.000000 0.968109 0.000000
0.000000 0.966125 0.000000
0.000000 0.964508 0.000000
0.026490 0.963256 0.000000
0.205356 0.962188 0.000000
0.289281 0.961089 0.000000
0.358221 0.960143 0.000000
0.420081 0.959014 0.000000
0.477607 0.957580 0.000000
0.532189 0.955688 0.000000
0.584680 0.953521 0.000000
0.635645 0.950958 0.000000
0.684199 0.946136 0.000000
0.731807 0.941527 0.000000
0.778347 0.937224 0.000000
0.824002 0.933135 0.000000
0.868589 0.929107 0.000000
0.911955 0.925078 0.000000
0.954162 0.920958 0.000000
0.994965 0.916777 0.000000
1.000000 0.901457 0.000000
1.000000 0.884703 0.000000
1.000000 0.867308 0.000000
1.000000 0.853422 0.000000
1.000000 0.837064 0.000000
1.000000 0.809201 0.000000
1.000000 0.782864 0.000000
0.000000 0.995697 0.000000
0.000000 0.996094 0.000000
0.000000 0.996307 0.000000
0.000000 0.996368 0.000000
0.000000 0.996368 0.000000
0.000000 0.996094 0.000000
0.000000 0.995026 0.000000
0.000000 0.994232 0.071626
0.044312 0.994232 0.048280
0.206607 0.994293 0.001892
0.289525 0.994293 0.000000
0.357885 0.994110 0.000000
0.419104 0.993622 0.000000
0.476112 0.992645 0.000000
0.530083 0.991180 0.000000
0.581842 0.989136 0.000000
0.632166 0.986816 0.000000
0.681056 0.983612 0.000000
0.728756 0.979553 0.000000
0.775418 0.975586 0.000000
0.821103 0.971740 0.000000
0.865873 0.967926 0.000000
0.909483 0.963989 0.000000
0.951904 0.960082 0.000000
0.993133 0.956085 0.000000
1.000000 0.952331 0.000000
1.000000 0.934173 0.000000
1.000000 0.914061 0.000000
1.000000 0.894163 0.000000
1.000000 0.870390 0.000000
1.000000 0.841276 0.000000
1.000000 0.813840 0.000000
0.000000 1.000000 0.053132
0.000000 1.000000 0.035706
0.000000 1.000000 0.008392
0.000000 1.000000 0.000000
0.000000 1.000000 0.000000
0.000000 1.000000 0.000000
0.000000 1.000000 0.099397
0.000000 1.000000 0.168368
0.100587 1.000000 0.160525
0.216617 1.000000 0.151614
0.292454 1.000000 0.140963
0.356481 1.000000 0.127443
0.414679 1.000000 0.109163
0.469306 1.000000 0.083803
0.521324 1.000000 0.012085
