其他预设/【233】日式怀旧街道调色预设208款/1.3D LUT预设（视频调色-PR-AE-PS-FCPX-达芬奇用）/2.富士胶片风-日式城市街拍预设/JA – Chrome 4 (Classic Chrome).cube
# Created by Adobe Lightroom plugin Export LUT (1.17.0)
# www.johnrellis.com/lightroom/exportlut.htm
# Preset: JA – Chrome 4 (Classic Chrome)
# Color profile: /Library/Application Support/Adobe/Color/Profiles/Recommended/AdobeRGB1998.icc
LUT_3D_SIZE 32
0.102937 0.100343 0.105287
0.102937 0.100343 0.105287
0.102937 0.100343 0.105287
0.105196 0.099916 0.105470
0.119875 0.099153 0.107393
0.133974 0.097810 0.109255
0.150454 0.095308 0.111208
0.170352 0.091218 0.113436
0.196109 0.084627 0.114107
0.228672 0.076631 0.114199
0.270909 0.064485 0.114626
0.324193 0.026276 0.114137
0.386023 0.000000 0.112367
0.450813 0.000000 0.109560
0.512566 0.000000 0.105684
0.569085 0.000000 0.101961
0.620722 0.000000 0.098451
0.668147 0.000000 0.095827
0.711330 0.000000 0.094820
0.753567 0.000000 0.096986
0.792081 0.000000 0.102663
0.825925 0.022400 0.114229
0.855802 0.075044 0.130495
0.882353 0.107057 0.149996
0.905943 0.137514 0.172580
0.927001 0.169986 0.199344
0.945708 0.206180 0.230320
0.962310 0.245701 0.265202
0.976867 0.288457 0.303624
0.989380 0.335485 0.347295
0.999878 0.385840 0.394385
1.000000 0.437598 0.442573
0.102937 0.100343 0.105287
0.102937 0.100343 0.105287
0.102937 0.100343 0.105287
0.105409 0.100160 0.105684
0.120363 0.099062 0.107393
0.134218 0.097749 0.109255
0.150423 0.095613 0.111421
0.170413 0.091829 0.112551
0.195895 0.087922 0.113100
0.228305 0.082734 0.114290
0.270268 0.073610 0.114870
0.323308 0.057130 0.114107
0.385138 0.005158 0.112184
0.449714 0.000000 0.109041
0.511223 0.000000 0.105379
0.567773 0.000000 0.101625
0.619287 0.000000 0.097780
0.666682 0.000000 0.095521
0.710048 0.000000 0.094789
0.752224 0.000000 0.096681
0.790494 0.016449 0.102541
0.824155 0.065095 0.114046
0.854063 0.090059 0.130037
0.880735 0.116304 0.149203
0.904540 0.144442 0.171786
0.925719 0.174899 0.198581
0.944671 0.209415 0.229068
0.961364 0.248234 0.264530
0.976074 0.290135 0.302892
0.988739 0.336400 0.346136
0.999329 0.386175 0.393225
1.000000 0.437720 0.441566
0.102937 0.100343 0.105287
0.102937 0.100343 0.105287
0.102937 0.100343 0.105287
0.106264 0.100008 0.105684
0.121096 0.098909 0.107362
0.134646 0.097932 0.109010
0.150668 0.096712 0.110262
0.170352 0.096132 0.111849
0.195621 0.094209 0.113344
0.228000 0.090700 0.114473
0.269963 0.084352 0.114748
0.323308 0.073426 0.114260
0.384985 0.057343 0.111940
0.449470 0.015564 0.108675
0.511101 0.000000 0.104738
0.567437 0.000000 0.100923
0.619043 0.000000 0.097505
0.666255 0.000000 0.094667
0.709651 0.004395 0.093904
0.751888 0.049622 0.095796
0.789883 0.073396 0.102358
0.823423 0.089357 0.114443
0.853361 0.108339 0.130556
0.879973 0.130282 0.150118
0.903777 0.155215 0.172946
0.925048 0.183261 0.199374
0.943999 0.216281 0.229801
0.960784 0.253483 0.265171
0.975586 0.294469 0.303502
0.988312 0.339513 0.346258
0.998901 0.388983 0.393713
1.000000 0.439643 0.441627
0.102937 0.105409 0.105562
0.102876 0.105898 0.105531
0.102968 0.106630 0.105928
0.108156 0.107485 0.105715
0.120272 0.107912 0.108248
0.134066 0.107729 0.109804
0.150179 0.107576 0.111391
0.170230 0.107485 0.112734
0.195590 0.107027 0.114107
0.228458 0.105806 0.114870
0.270665 0.103517 0.115114
0.324254 0.099947 0.113649
0.385962 0.095491 0.111360
0.450355 0.091218 0.107607
0.511833 0.087953 0.103395
0.567987 0.088167 0.099397
0.619348 0.089418 0.095857
0.666529 0.093782 0.093385
0.709499 0.099794 0.092683
0.751766 0.109133 0.095125
0.789090 0.117586 0.103059
0.822324 0.126680 0.115846
0.852201 0.139162 0.132174
0.879026 0.155764 0.152224
0.903075 0.176791 0.175296
0.924590 0.202029 0.202396
0.943633 0.232120 0.233677
0.960449 0.267430 0.269078
0.975158 0.306523 0.307805
0.987884 0.349279 0.349493
0.998444 0.396429 0.395911
1.000000 0.445563 0.443488
0.102510 0.120272 0.106538
0.102541 0.120485 0.106050
0.102632 0.120851 0.106691
0.108797 0.121065 0.106294
0.122499 0.120363 0.106874
0.134554 0.119203 0.109468
0.149081 0.121401 0.113466
0.169375 0.122591 0.114443
0.195438 0.123659 0.115206
0.228702 0.125399 0.115694
0.271397 0.127352 0.115175
0.325536 0.129946 0.113558
0.387549 0.132601 0.110414
0.451942 0.135225 0.106203
0.513207 0.138338 0.101564
0.569268 0.141054 0.097383
0.620874 0.144656 0.093294
0.667872 0.148348 0.091341
0.712001 0.152865 0.090913
0.753048 0.156649 0.096407
0.789578 0.160769 0.105776
0.822385 0.167178 0.119509
0.851987 0.176394 0.136568
0.878630 0.189334 0.157107
0.902586 0.206485 0.180880
0.924010 0.228031 0.208255
0.942962 0.255100 0.240208
0.959655 0.287236 0.275608
0.974273 0.323705 0.313939
0.986969 0.363836 0.354864
0.997650 0.407782 0.399390
1.000000 0.454749 0.446326
0.102174 0.134279 0.107149
0.102113 0.134676 0.107118
0.102266 0.135012 0.107301
0.109834 0.134829 0.107118
0.122499 0.134737 0.106996
0.137362 0.134401 0.107881
0.151492 0.133059 0.110567
0.170535 0.136812 0.113863
0.196109 0.142519 0.116823
0.230350 0.147402 0.116487
0.274022 0.153719 0.115511
0.329015 0.161471 0.113313
0.391333 0.170108 0.109133
0.455787 0.177676 0.103944
0.516716 0.184176 0.098878
0.572595 0.189425 0.094148
0.623743 0.193393 0.090425
0.670405 0.196292 0.089540
0.715084 0.198581 0.092897
0.755306 0.200931 0.099977
0.791318 0.204013 0.111269
0.823728 0.208743 0.126040
0.863920 0.224338 0.153841
0.889036 0.236606 0.176761
0.911284 0.252415 0.202823
0.930938 0.272862 0.232731
0.948272 0.298070 0.265293
0.963531 0.327367 0.300511
0.976959 0.360876 0.337896
0.988739 0.397162 0.376654
0.998871 0.435828 0.416815
1.000000 0.479164 0.462043
0.100893 0.152071 0.107576
0.100893 0.152224 0.107332
0.103487 0.152438 0.107240
0.112093 0.152621 0.107240
0.124758 0.152682 0.106844
0.140169 0.152590 0.107240
0.157473 0.152804 0.108309
0.174380 0.151888 0.109895
0.199832 0.158541 0.112978
0.234897 0.169467 0.115206
0.282048 0.183902 0.116152
0.339300 0.197269 0.112459
0.402747 0.210636 0.106935
0.466896 0.221988 0.100954
0.526513 0.230533 0.095094
0.580774 0.235447 0.092195
0.630671 0.239200 0.090822
0.678370 0.241825 0.092378
0.722408 0.244144 0.097993
0.761959 0.246250 0.107637
0.797757 0.249851 0.120729
0.830350 0.254490 0.138216
0.859800 0.262089 0.159640
0.886046 0.272496 0.184115
0.909209 0.287083 0.211856
0.929229 0.305455 0.242954
0.946654 0.328191 0.275883
0.961883 0.354955 0.311101
0.975311 0.385077 0.347723
0.986999 0.418402 0.385718
0.997223 0.453529 0.424048
1.000000 0.493050 0.466712
0.099702 0.172549 0.106416
0.102571 0.172580 0.106569
0.106508 0.172763 0.106447
0.115389 0.172854 0.106416
0.128267 0.172976 0.106233
0.143954 0.173495 0.106050
0.161807 0.174075 0.106600
0.181582 0.175174 0.107088
0.201236 0.174777 0.108339
0.235294 0.186252 0.110079
0.281376 0.203281 0.110689
0.341222 0.225620 0.109834
0.408240 0.248234 0.107301
0.472175 0.262364 0.101472
0.530999 0.271824 0.097292
0.584588 0.278141 0.094881
0.635126 0.282658 0.094667
0.682887 0.286381 0.098085
0.725307 0.288518 0.105257
0.763668 0.290257 0.116274
0.798550 0.293126 0.130861
0.830442 0.297154 0.149599
0.859342 0.303502 0.171511
0.885100 0.312596 0.197421
0.907866 0.325109 0.225834
0.927642 0.341711 0.257267
0.944884 0.361730 0.289738
0.960021 0.385443 0.324224
0.973327 0.412818 0.360204
0.984985 0.442908 0.397040
0.995239 0.475044 0.434119
1.000000 0.509850 0.472938
0.101137 0.197848 0.107546
0.104585 0.197818 0.107485
0.109133 0.198154 0.107515
0.118593 0.198032 0.107271
0.132265 0.198703 0.106966
0.148562 0.199252 0.106722
0.167666 0.200443 0.106630
0.189120 0.202274 0.106600
0.212528 0.204654 0.106905
0.235996 0.205447 0.107729
0.280552 0.222660 0.107424
0.338994 0.246738 0.105867
0.406134 0.273259 0.103822
0.475685 0.298589 0.102785
0.537041 0.314763 0.102327
0.591211 0.322759 0.101106
0.642054 0.328222 0.102998
0.688197 0.332189 0.107424
0.729000 0.333745 0.116518
0.766140 0.335302 0.129091
0.800107 0.337621 0.145174
0.831266 0.340948 0.164828
0.859464 0.346380 0.188174
0.884642 0.354742 0.214755
0.906859 0.365972 0.244236
0.926268 0.380194 0.274846
0.943206 0.398352 0.307652
0.958099 0.419348 0.341100
0.971252 0.443549 0.375555
0.982879 0.470283 0.410651
0.993072 0.499184 0.446204
1.000000 0.530541 0.482856
0.099977 0.229496 0.107912
0.104036 0.229526 0.107820
0.109163 0.229770 0.107851
0.120241 0.230076 0.107271
0.135531 0.230747 0.107088
0.153872 0.231449 0.106477
0.174624 0.232639 0.105745
0.198215 0.235111 0.105379
0.224002 0.238529 0.105135
0.252415 0.242832 0.104494
0.279698 0.244327 0.104982
0.335058 0.267308 0.101778
0.400763 0.295506 0.098238
0.469337 0.322728 0.095888
0.536919 0.347173 0.098512
0.598810 0.367620 0.109438
0.649653 0.375799 0.115480
0.694392 0.379095 0.122438
0.733883 0.380560 0.132753
0.769711 0.381628 0.146731
0.802426 0.383093 0.164584
0.832303 0.385809 0.185306
0.859403 0.390600 0.208927
0.883665 0.397498 0.236057
0.905211 0.407172 0.264591
0.924224 0.419959 0.295109
0.940948 0.435676 0.326848
0.955749 0.454383 0.359442
0.968872 0.475837 0.392706
0.980499 0.499672 0.426398
0.990692 0.525811 0.460700
0.999420 0.554406 0.496162
0.095369 0.268101 0.106081
0.100587 0.268070 0.105959
0.107515 0.268437 0.105684
0.120302 0.268894 0.105440
0.138186 0.269780 0.104860
0.159426 0.271031 0.104158
0.182864 0.272404 0.102907
0.208316 0.274723 0.101778
0.237247 0.279210 0.100526
0.268620 0.284794 0.099123
0.302617 0.291173 0.097261
0.333440 0.292760 0.097200
0.396216 0.318700 0.091127
0.465522 0.348638 0.086458
0.531670 0.373785 0.087831
0.592859 0.394446 0.098421
0.649073 0.412085 0.117800
0.699275 0.426612 0.142855
0.737392 0.427588 0.154849
0.772122 0.428107 0.170047
0.803891 0.429297 0.188754
0.832944 0.431617 0.210086
0.859342 0.435767 0.234806
0.882963 0.441932 0.261692
0.903929 0.450446 0.290379
0.922454 0.461463 0.319615
0.938811 0.474861 0.349859
0.953338 0.490974 0.380652
0.966278 0.509514 0.412116
0.977813 0.530175 0.443732
0.987945 0.553460 0.476600
0.996674 0.579187 0.510399
0.086213 0.314305 0.101167
0.092714 0.314733 0.101137
0.101259 0.314855 0.101106
0.117800 0.315404 0.100465
0.139223 0.316350 0.099886
0.164248 0.317693 0.098360
0.191073 0.319432 0.097078
0.219333 0.321660 0.095216
0.250462 0.325475 0.093019
0.284672 0.331640 0.090394
0.322362 0.340032 0.087190
0.362890 0.349248 0.082826
0.412024 0.363561 0.078126
0.472572 0.384039 0.070832
0.538231 0.409918 0.071992
0.599115 0.430762 0.085359
0.654963 0.448127 0.108431
0.705043 0.462867 0.140230
0.748104 0.475837 0.177646
0.783902 0.484016 0.210636
0.813291 0.484077 0.230381
0.840116 0.485512 0.252415
0.864439 0.488502 0.276005
0.886290 0.493446 0.301396
0.905852 0.500267 0.328038
0.923186 0.509361 0.355383
0.938628 0.520409 0.383032
0.952453 0.533501 0.410925
0.964843 0.548791 0.439307
0.975952 0.566278 0.468391
0.985687 0.586389 0.498970
0.994141 0.608881 0.530571
0.067445 0.369146 0.092592
0.078370 0.369207 0.092073
0.090333 0.369268 0.092042
0.112673 0.369574 0.091218
0.139284 0.370153 0.089937
0.167910 0.370977 0.088991
0.198428 0.372381 0.086976
0.230808 0.375067 0.084016
0.264500 0.378607 0.080476
0.301915 0.385870 0.075807
0.342290 0.394842 0.070832
0.385412 0.404578 0.063752
0.430762 0.414801 0.053651
0.473396 0.420600 0.046357
0.524987 0.431373 0.045533
0.586633 0.454108 0.062928
0.643366 0.472328 0.089998
0.694575 0.487221 0.123201
0.738979 0.499611 0.162112
0.777859 0.512047 0.206912
0.811795 0.526207 0.255894
0.839170 0.531609 0.286168
0.862821 0.533623 0.308537
0.884123 0.537346 0.332769
0.903258 0.542535 0.357122
0.920317 0.549615 0.382330
0.935576 0.558465 0.407752
0.949279 0.569207 0.433661
0.961578 0.582025 0.460243
0.972625 0.597192 0.487800
0.982330 0.614740 0.516686
0.990784 0.634852 0.547051
0.013519 0.421698 0.080720
0.052064 0.421973 0.080262
0.074586 0.422126 0.079744
0.103212 0.422675 0.078859
0.135470 0.423377 0.077668
0.169345 0.424323 0.075410
0.203311 0.425910 0.073030
0.238163 0.427893 0.069184
0.274083 0.430335 0.063783
0.311070 0.434028 0.057252
0.351873 0.441749 0.044770
0.394690 0.450263 0.026886
0.439307 0.459113 0.008606
0.485298 0.467994 0.000000
0.529381 0.473671 0.000000
0.571984 0.474983 0.008057
0.629419 0.494545 0.062959
0.682063 0.510369 0.101411
0.728237 0.522820 0.142947
0.768856 0.534386 0.189090
0.804257 0.546777 0.239414
0.834989 0.561212 0.291447
0.861082 0.578149 0.343725
0.882017 0.580713 0.365667
0.900755 0.584405 0.388220
0.917540 0.589532 0.410956
0.932586 0.596307 0.434241
0.946105 0.604883 0.458198
0.958282 0.615686 0.483131
0.969238 0.628504 0.508934
0.978912 0.643732 0.536248
0.987335 0.661463 0.565087
0.000000 0.473732 0.065217
0.000000 0.473915 0.064607
0.036103 0.473854 0.064118
0.090120 0.474067 0.063020
0.130343 0.474128 0.060822
0.167880 0.474556 0.058930
0.205203 0.475288 0.051820
0.241917 0.476417 0.043885
0.279301 0.478004 0.029633
0.317113 0.480293 0.015473
0.356756 0.484840 0.000000
0.399268 0.492409 0.000000
0.443091 0.500114 0.000000
0.488075 0.507988 0.000000
0.533959 0.515465 0.000000
0.579095 0.521477 0.000000
0.615320 0.516808 0.000000
0.667872 0.531975 0.070741
0.716182 0.545434 0.119844
0.758755 0.556756 0.168887
0.795773 0.567773 0.220859
0.827909 0.580255 0.274540
0.855406 0.594720 0.328252
0.878721 0.611139 0.379126
0.898131 0.624598 0.419715
0.914702 0.628199 0.440345
0.929564 0.633417 0.462013
0.942992 0.640467 0.484596
0.955077 0.649500 0.508080
0.965972 0.660578 0.532586
0.975525 0.674067 0.558862
0.983917 0.689418 0.585931
0.000000 0.520073 0.037995
0.000000 0.520348 0.038392
0.000000 0.520287 0.035859
0.074403 0.520439 0.034119
0.122438 0.520562 0.029358
0.165347 0.520928 0.020722
0.204501 0.521477 0.014099
0.243503 0.522484 0.002716
0.282139 0.523644 0.000000
0.320714 0.525200 0.000000
0.359564 0.526757 0.000000
0.401007 0.532097 0.000000
0.443793 0.538323 0.000000
0.487495 0.544823 0.000000
0.531762 0.551202 0.000000
0.576684 0.557366 0.000000
0.622065 0.563378 0.000000
0.654108 0.555566 0.001312
0.702388 0.566583 0.087739
0.747433 0.578698 0.143893
0.786618 0.589319 0.199222
0.820645 0.600366 0.255955
0.849699 0.612909 0.311498
0.874296 0.627283 0.365362
0.894926 0.643153 0.415320
0.912200 0.660151 0.461677
0.926818 0.670008 0.491768
0.939971 0.675410 0.512352
0.951812 0.682612 0.534234
0.962432 0.691798 0.557153
0.971923 0.702693 0.580835
0.980316 0.715480 0.605554
0.000000 0.561517 0.008789
0.000000 0.561486 0.006531
0.000000 0.561486 0.008301
0.054536 0.561486 0.003510
0.114961 0.561608 0.000000
0.160342 0.561669 0.000000
0.201877 0.562036 0.000000
0.242039 0.562615 0.000000
0.281621 0.563470 0.000000
0.320745 0.564477 0.000000
0.360021 0.565667 0.000000
0.399237 0.567529 0.000000
0.441627 0.573266 0.000000
0.484443 0.579034 0.000000
0.527886 0.584802 0.000000
0.571588 0.590448 0.000000
0.615839 0.595911 0.000000
0.660395 0.601526 0.000000
0.690272 0.592218 0.049775
0.733852 0.599054 0.112032
0.775418 0.609918 0.172488
0.811490 0.619959 0.231998
0.842405 0.630884 0.291081
0.868559 0.643214 0.347478
0.890532 0.657130 0.400275
0.908873 0.672328 0.448920
0.924102 0.688685 0.494209
0.936706 0.706264 0.536828
0.948211 0.713649 0.559838
0.958740 0.720974 0.580896
0.968231 0.729854 0.602502
0.976684 0.740322 0.625055
0.000000 0.600122 0.000000
0.000000 0.600336 0.000000
0.000000 0.608606 0.000000
0.018677 0.608515 0.000000
0.109285 0.608331 0.000000
0.157839 0.608148 0.000000
0.201328 0.608087 0.000000
0.242985 0.608057 0.000000
0.283330 0.608301 0.000000
0.323156 0.608728 0.000000
0.362890 0.609339 0.000000
0.402045 0.609979 0.000000
0.442542 0.612360 0.000000
0.484840 0.617365 0.000000
0.527550 0.622400 0.000000
0.570520 0.627131 0.000000
0.613550 0.631800 0.000000
0.656550 0.636255 0.000000
0.699641 0.640650 0.015686
0.727230 0.629938 0.092958
0.765835 0.632593 0.144778
0.803708 0.642115 0.209842
0.836271 0.651514 0.271397
0.863737 0.661921 0.330419
0.886687 0.673518 0.385687
0.905852 0.686397 0.436072
0.921752 0.700587 0.482918
0.934936 0.716121 0.526879
0.945769 0.733059 0.568811
0.955138 0.748287 0.603998
0.964630 0.755154 0.623407
0.973022 0.763668 0.643854
0.000000 0.638819 0.000000
0.000000 0.639887 0.000000
0.000000 0.640894 0.000000
0.000000 0.641932 0.000000
0.102296 0.642573 0.000000
0.153750 0.642786 0.000000
0.198367 0.642847 0.000000
0.240513 0.642786 0.000000
0.281132 0.642969 0.000000
0.320897 0.643214 0.000000
0.360479 0.643671 0.000000
0.399542 0.644099 0.000000
0.438697 0.644404 0.000000
0.479469 0.647730 0.000000
0.521202 0.652064 0.000000
0.563043 0.656153 0.000000
0.604974 0.660243 0.000000
0.646815 0.664240 0.015412
0.688716 0.668208 0.064088
0.730465 0.672236 0.087373
0.756588 0.661250 0.127840
0.791684 0.661006 0.175937
0.826688 0.669978 0.243229
0.856413 0.679072 0.306401
0.881163 0.689052 0.365484
0.901762 0.700160 0.419135
0.918853 0.712612 0.468605
0.932891 0.726558 0.515038
0.944457 0.742000 0.559075
0.954040 0.758083 0.599512
0.962005 0.774075 0.635859
0.969451 0.785763 0.662623
0.000000 0.672938 0.005463
0.000000 0.673884 0.008576
0.000000 0.674800 0.005524
0.000000 0.675532 0.005737
0.099153 0.676143 0.005341
0.152346 0.676295 0.000000
0.196811 0.676265 0.000000
0.238743 0.676143 0.000000
0.279484 0.676173 0.000000
0.318730 0.676326 0.000000
0.358160 0.676539 0.000000
0.397131 0.676753 0.000000
0.435645 0.676875 0.000000
0.474189 0.677150 0.000000
0.515129 0.680873 0.000000
0.555932 0.684504 0.000000
0.596826 0.687984 0.023072
0.637690 0.691493 0.064973
0.678401 0.694972 0.087800
0.719081 0.698482 0.109102
0.759274 0.701991 0.131563
0.784115 0.691279 0.165957
0.816037 0.688472 0.209903
0.848173 0.696773 0.278447
0.874907 0.705379 0.341894
0.897124 0.714870 0.399725
0.915435 0.725460 0.452155
0.930541 0.737697 0.501305
0.942931 0.751461 0.547478
0.953063 0.766293 0.590326
0.961486 0.781369 0.628809
0.968353 0.796353 0.663691
0.000000 0.705257 0.048005
0.000000 0.705959 0.049928
0.000000 0.706874 0.051759
0.000000 0.707515 0.051240
0.103975 0.707881 0.049744
0.153719 0.708003 0.048402
0.197269 0.707881 0.043702
0.238132 0.707790 0.038483
0.278325 0.707607 0.033265
0.317693 0.707576 0.023987
0.356207 0.707607 0.014405
0.394598 0.707637 0.007568
0.432776 0.707454 0.000000
0.470405 0.707362 0.000000
0.509056 0.708522 0.000000
0.549218 0.711788 0.042603
0.589471 0.715145 0.072602
0.629725 0.718502 0.094423
0.669825 0.721950 0.115114
0.709834 0.725399 0.135500
0.749325 0.728939 0.157259
0.788327 0.732418 0.179507
0.812192 0.722072 0.210636
0.841245 0.717708 0.252262
0.869963 0.724727 0.320134
0.893736 0.732845 0.382574
0.913268 0.741909 0.439246
0.929290 0.752377 0.490974
0.942382 0.764401 0.539605
0.952941 0.777859 0.584802
0.961608 0.791745 0.625360
0.968688 0.805692 0.661769
0.000000 0.738766 0.086061
0.000000 0.739132 0.086519
0.000000 0.739406 0.086336
0.055604 0.739528 0.086397
0.115084 0.739620 0.086519
0.160891 0.739467 0.085451
0.202029 0.739254 0.084810
0.241917 0.739071 0.083131
0.280797 0.738979 0.082216
0.319219 0.738918 0.081239
0.357031 0.739010 0.079408
0.394781 0.738949 0.078889
0.432013 0.738796 0.077424
0.469093 0.738460 0.075105
0.505943 0.738064 0.071901
0.544640 0.739925 0.085451
0.584009 0.742672 0.104128
0.623285 0.745480 0.122744
0.662287 0.748287 0.142092
0.700984 0.751125 0.161654
0.739284 0.753964 0.181674
0.776944 0.756710 0.202731
0.813809 0.759396 0.224552
0.836301 0.749599 0.252567
0.862486 0.744411 0.293889
0.887785 0.748959 0.356451
0.909087 0.756466 0.417243
0.926482 0.765255 0.473182
0.940612 0.775601 0.524834
0.951934 0.787533 0.573114
0.961151 0.800259 0.616358
0.968658 0.813382 0.655360
0.000000 0.767483 0.116213
0.000000 0.767819 0.116884
0.036042 0.768093 0.116976
0.093477 0.768185 0.117617
0.134981 0.768185 0.117403
0.173281 0.768032 0.117128
0.211185 0.767788 0.116518
0.248051 0.767514 0.116213
0.285069 0.767300 0.115969
0.322087 0.767147 0.115267
0.358709 0.767025 0.115541
0.395270 0.766873 0.114992
0.431495 0.766629 0.115297
0.467842 0.766354 0.114778
0.503716 0.765927 0.114534
0.539696 0.765591 0.114992
0.578302 0.768032 0.131807
0.616815 0.770474 0.149599
0.654902 0.772915 0.168276
0.692775 0.775387 0.187655
0.730068 0.777829 0.207462
0.766720 0.780270 0.228153
0.802518 0.782681 0.249302
0.837339 0.785000 0.270726
0.858579 0.775387 0.293950
0.881346 0.768948 0.334112
0.903899 0.771420 0.390753
0.922942 0.778531 0.450904
0.938354 0.787167 0.506493
0.950652 0.797513 0.558312
0.960601 0.809079 0.605158
0.968566 0.821378 0.647272
0.085786 0.797238 0.153079
0.098177 0.797574 0.153994
0.112001 0.797726 0.153689
0.135348 0.797726 0.154086
0.164218 0.797574 0.154025
0.195071 0.797238 0.153994
0.227878 0.796841 0.153841
0.261143 0.796353 0.153170
0.295384 0.795834 0.152529
0.329778 0.795377 0.152590
0.364385 0.794919 0.152621
0.399084 0.794461 0.152956
0.433997 0.793973 0.152834
0.468635 0.793454 0.153201
0.503258 0.792721 0.153353
0.537926 0.791928 0.153109
0.573480 0.792081 0.159030
0.610742 0.793881 0.175662
0.647883 0.795865 0.193271
0.684810 0.797910 0.212314
0.721157 0.800015 0.231754
0.756771 0.802090 0.251957
0.791592 0.804013 0.272587
0.825254 0.805722 0.293187
0.857603 0.807309 0.313664
0.879667 0.800290 0.337346
0.899413 0.792905 0.375525
0.919341 0.793545 0.427070
0.936065 0.800381 0.486854
0.949401 0.808927 0.542351
0.960082 0.819120 0.593256
0.968597 0.830320 0.638514
0.142672 0.823056 0.188296
0.149691 0.823362 0.188815
0.158419 0.823514 0.189242
0.174228 0.823484 0.189242
0.195560 0.823362 0.189670
0.221134 0.823087 0.189517
0.249027 0.822690 0.189090
0.278447 0.822293 0.189273
0.309575 0.821866 0.189548
0.341436 0.821500 0.190158
0.373724 0.821134 0.190555
0.406744 0.820768 0.191165
0.439948 0.820371 0.192233
0.473121 0.819821 0.193149
0.506432 0.819242 0.194186
0.539696 0.818540 0.195163
0.573053 0.817777 0.196139
0.608453 0.818540 0.207736
0.644556 0.820035 0.224704
0.680415 0.821592 0.242985
0.715633 0.823178 0.261753
0.750179 0.824735 0.281559
0.783810 0.826169 0.300969
0.816312 0.827451 0.320806
0.847654 0.828611 0.340703
0.877775 0.829740 0.359869
0.899260 0.824033 0.381292
0.916320 0.816098 0.418585
0.934081 0.815579 0.466102
0.948577 0.822354 0.526055
0.959991 0.830991 0.581445
0.969024 0.840848 0.630396
0.195224 0.848478 0.227573
0.200259 0.848661 0.228275
0.205814 0.848692 0.228336
0.217166 0.848600 0.228641
0.233341 0.848325 0.228336
0.253391 0.848020 0.228153
0.276555 0.847562 0.228611
0.302129 0.847105 0.228519
0.329442 0.846677 0.228641
0.358068 0.846311 0.229191
0.387854 0.845884 0.230198
0.418494 0.845579 0.231693
0.449592 0.845182 0.233036
0.480995 0.844694 0.234257
0.512505 0.844083 0.235508
0.544091 0.843381 0.237003
0.575891 0.842649 0.238499
0.607752 0.841917 0.240909
0.642817 0.842924 0.257084
0.677394 0.843961 0.274449
0.711513 0.845060 0.292424
0.744869 0.846098 0.311345
0.777279 0.847044 0.329778
0.808682 0.847959 0.348730
0.838865 0.848722 0.367193
0.867948 0.849424 0.385901
0.895720 0.850156 0.404425
0.916838 0.845731 0.424018
0.931243 0.837522 0.460212
0.947234 0.836301 0.505180
0.959625 0.843107 0.565393
0.969238 0.851469 0.619013
0.246494 0.871946 0.269108
0.249760 0.872068 0.269444
0.254124 0.872099 0.269535
0.262455 0.872007 0.269505
0.275639 0.871855 0.270115
0.291875 0.871702 0.270451
0.311620 0.871611 0.271153
0.333776 0.871580 0.272435
0.358312 0.871519 0.273991
0.384436 0.871580 0.276249
0.411780 0.871580 0.278019
0.439979 0.871580 0.280827
0.468818 0.871458 0.283238
0.498085 0.871153 0.285710
0.527581 0.870695 0.287816
0.557092 0.870054 0.289769
0.586877 0.869352 0.292241
0.616846 0.868589 0.294285
0.648066 0.868254 0.301762
0.681209 0.868772 0.317815
0.713771 0.869291 0.334874
0.745541 0.869780 0.352392
0.776425 0.870176 0.369543
0.806271 0.870542 0.386847
0.835080 0.870848 0.404700
0.862669 0.871092 0.422126
0.889189 0.871397 0.439368
0.914458 0.871733 0.457252
0.934661 0.868559 0.476051
0.946532 0.860288 0.510765
0.960479 0.858793 0.553552
0.970459 0.865263 0.611536
0.307225 0.896391 0.320073
0.309728 0.896452 0.320470
0.312810 0.896391 0.320470
0.319005 0.896239 0.320470
0.328557 0.896025 0.320409
0.341100 0.895750 0.320623
0.356573 0.895476 0.321202
0.374487 0.895201 0.322057
0.394629 0.894926 0.323033
0.416602 0.894682 0.324620
0.440040 0.894408 0.326024
0.464698 0.894072 0.327855
0.490303 0.893675 0.329839
0.516503 0.893217 0.332067
0.543359 0.892638 0.334325
