其他预设/【233】日式怀旧街道调色预设208款/1.3D LUT预设（视频调色-PR-AE-PS-FCPX-达芬奇用）/2.富士胶片风-日式城市街拍预设/JA – Chrome 1 (Classic Chrome).cube
# Created by Adobe Lightroom plugin Export LUT (1.17.0)
# www.johnrellis.com/lightroom/exportlut.htm
# Preset: JA – Chrome 1 (Classic Chrome)
# Color profile: /Library/Application Support/Adobe/Color/Profiles/Recommended/AdobeRGB1998.icc
LUT_3D_SIZE 8
DOMAIN_MIN 0.000000 0.000000 0.000000
DOMAIN_MAX 0.903226 0.903226 0.903226
0.118410 0.113527 0.110262
0.114595 0.114168 0.110292
0.201572 0.089296 0.108827
0.421607 0.000000 0.093507
0.615869 0.000000 0.047639
0.791135 0.000000 0.000000
0.935698 0.000000 0.000000
1.000000 0.000000 0.000000
0.117800 0.110445 0.109438
0.115572 0.111269 0.110079
0.216281 0.117861 0.105501
0.430426 0.079774 0.083742
0.621515 0.000000 0.005493
0.794278 0.000000 0.000000
0.936858 0.000000 0.000000
1.000000 0.000000 0.000000
0.119875 0.159854 0.102113
0.133883 0.157961 0.101900
0.205203 0.184573 0.094301
0.459968 0.257267 0.000000
0.643671 0.232670 0.000000
0.807675 0.165347 0.000000
0.944274 0.000000 0.000000
1.000000 0.000000 0.000000
0.153872 0.312871 0.077089
0.180819 0.307774 0.076875
0.250889 0.302190 0.070283
0.395422 0.353185 0.000000
0.647700 0.418158 0.000000
0.829953 0.398383 0.000000
0.954498 0.345434 0.000000
1.000000 0.281498 0.000000
0.210391 0.449500 0.087495
0.232395 0.444312 0.084993
0.291112 0.425940 0.076143
0.389868 0.442298 0.000000
0.550988 0.496956 0.000000
0.797116 0.560998 0.000000
0.965301 0.542046 0.000000
1.000000 0.481361 0.000000
0.283848 0.577600 0.154910
0.299351 0.573541 0.151736
0.344732 0.557305 0.139284
0.404028 0.527306 0.115328
0.535821 0.584558 0.052857
0.710414 0.646357 0.000000
0.922545 0.685634 0.000000
1.000000 0.643946 0.000000
0.382605 0.735897 0.252293
0.394171 0.733120 0.249302
0.431525 0.722377 0.238193
0.488045 0.702449 0.217411
0.572442 0.703975 0.191928
0.713069 0.757748 0.162112
0.872129 0.797024 0.077455
1.000000 0.781064 0.000000
0.529412 0.906188 0.425971
0.538018 0.905364 0.424567
0.567681 0.902525 0.419684
0.618738 0.897795 0.411475
0.687251 0.890349 0.398199
0.781582 0.906859 0.391882
0.891325 0.923125 0.374701
0.996307 0.915526 0.327520
0.117586 0.112398 0.107729
0.116976 0.113832 0.108492
0.208713 0.081636 0.124086
0.420294 0.000000 0.114473
0.612512 0.000000 0.085267
0.788083 0.000000 0.057435
0.933318 0.000000 0.029389
1.000000 0.000000 0.078035
0.117220 0.111055 0.108064
0.117525 0.112581 0.109255
0.222446 0.094820 0.107454
0.432074 0.000000 0.094820
0.621057 0.000000 0.072541
0.792905 0.000000 0.019379
0.935424 0.000000 0.000000
1.000000 0.000000 0.067140
0.106691 0.177127 0.110445
0.132326 0.181704 0.110567
0.220859 0.198917 0.100679
0.459113 0.240330 0.053376
0.642023 0.207004 0.000000
0.805722 0.127504 0.000000
0.942107 0.000000 0.000000
1.000000 0.000000 0.073182
0.138460 0.334386 0.107820
0.176272 0.330236 0.109560
0.254643 0.314275 0.102907
0.403754 0.361883 0.041382
0.651637 0.414710 0.000000
0.826658 0.390753 0.000000
0.951934 0.342626 0.000000
1.000000 0.288182 0.091615
0.212375 0.464363 0.141146
0.235019 0.459022 0.137881
0.295933 0.440223 0.126406
0.392065 0.448005 0.101900
0.555016 0.502220 0.000000
0.799069 0.561791 0.000000
0.963104 0.543450 0.000000
1.000000 0.487373 0.129793
0.289464 0.587823 0.196933
0.304326 0.583307 0.193423
0.349310 0.566888 0.180331
0.408698 0.536614 0.155703
0.536675 0.587396 0.128389
0.712245 0.649714 0.000000
0.922942 0.687709 0.000000
1.000000 0.648035 0.158480
0.384405 0.741085 0.278691
0.395697 0.738003 0.275547
0.432746 0.727352 0.264225
0.489418 0.707576 0.242924
0.571038 0.703975 0.218173
0.712062 0.758267 0.198672
0.871550 0.797940 0.152499
1.000000 0.782254 0.084688
0.529931 0.907591 0.441413
0.538415 0.906828 0.439979
0.567651 0.904082 0.434821
0.618280 0.899321 0.425940
0.687373 0.892699 0.413123
0.780819 0.907256 0.406836
0.890288 0.923308 0.392035
0.995178 0.915831 0.350072
0.082307 0.121889 0.202792
0.111543 0.105898 0.215579
0.237827 0.043977 0.235416
0.424689 0.000000 0.266026
0.609216 0.000000 0.272404
0.778927 0.000000 0.280919
0.922057 0.000000 0.293584
1.000000 0.000000 0.313939
0.095521 0.152010 0.199313
0.108217 0.139071 0.214817
0.239750 0.083009 0.236515
0.430396 0.000000 0.257267
0.612238 0.000000 0.264775
0.779965 0.000000 0.276341
0.923339 0.000000 0.287541
1.000000 0.000000 0.309880
0.090089 0.219730 0.205844
0.127565 0.226505 0.213809
0.248936 0.241184 0.236210
0.447761 0.223758 0.243229
0.629450 0.191958 0.251926
0.795377 0.138949 0.262943
0.934051 0.022309 0.278172
1.000000 0.000000 0.298222
0.115602 0.373632 0.237339
0.166262 0.376257 0.239109
0.284916 0.375158 0.250309
0.423987 0.392157 0.237278
0.665187 0.423743 0.247745
0.816648 0.397345 0.267552
0.944091 0.367132 0.287480
1.000000 0.337285 0.310216
0.200656 0.501244 0.251194
0.233188 0.501335 0.254215
0.324468 0.488960 0.269230
0.403418 0.467292 0.244907
0.568872 0.524437 0.241917
0.807095 0.576440 0.256626
0.955322 0.558251 0.301091
1.000000 0.514580 0.328496
0.291173 0.623682 0.291630
0.322728 0.621149 0.304784
0.371130 0.604883 0.296086
0.429603 0.572900 0.268833
0.540948 0.598383 0.255741
0.718288 0.662440 0.250217
0.924193 0.698451 0.268650
1.000000 0.665492 0.347448
0.393011 0.762905 0.362371
0.404761 0.759915 0.359899
0.441077 0.749111 0.347936
0.496559 0.728817 0.324193
0.566918 0.705318 0.291386
0.709865 0.761868 0.292302
0.871946 0.803769 0.284764
1.000000 0.788998 0.297704
0.537011 0.914244 0.499184
0.543755 0.913420 0.495979
0.570886 0.910552 0.489235
0.619013 0.905882 0.478035
0.685847 0.899016 0.461250
0.777432 0.907927 0.454200
0.887053 0.924254 0.448890
0.991333 0.917357 0.422370
0.000000 0.187289 0.425940
0.000000 0.144839 0.433326
0.247166 0.062226 0.451606
0.440772 0.000000 0.455360
0.608209 0.000000 0.448981
0.773281 0.000000 0.453010
0.915770 0.000000 0.458839
1.000000 0.000000 0.461006
0.054353 0.250523 0.423529
0.103822 0.231022 0.430732
0.245060 0.152987 0.449500
0.441718 0.000000 0.455238
0.609155 0.000000 0.446662
0.773953 0.000000 0.453498
0.915618 0.000000 0.460548
1.000000 0.000000 0.464576
0.161898 0.341192 0.417060
0.215396 0.345464 0.421332
0.304356 0.336339 0.438392
0.444495 0.263371 0.451789
0.613367 0.237369 0.446906
0.776852 0.228122 0.458137
0.916167 0.230747 0.469947
1.000000 0.271366 0.487922
0.174411 0.430335 0.411322
0.220340 0.432013 0.414893
0.327977 0.437385 0.426337
0.448341 0.444800 0.443488
0.628077 0.437446 0.453071
0.789731 0.427649 0.464515
0.925017 0.419013 0.478035
1.000000 0.417365 0.492500
0.247501 0.551781 0.424872
0.277104 0.551843 0.426581
0.357061 0.551873 0.431403
0.456397 0.542443 0.434546
0.589746 0.564263 0.430213
0.819730 0.609613 0.475380
0.938567 0.588067 0.494759
1.000000 0.564752 0.509880
0.312505 0.669093 0.434119
0.332341 0.668757 0.434913
0.389929 0.665400 0.434516
0.472969 0.644373 0.431464
0.548791 0.617762 0.396460
0.728084 0.685786 0.419562
0.925322 0.722133 0.475074
1.000000 0.700587 0.533776
0.392065 0.794888 0.466773
0.404639 0.793759 0.465705
0.451484 0.788174 0.467170
0.514611 0.768368 0.453895
0.576562 0.735317 0.408850
0.704463 0.767575 0.408209
0.871366 0.813657 0.428565
0.997528 0.803281 0.483192
0.542199 0.926482 0.577966
0.556359 0.925261 0.583703
0.594049 0.921416 0.592676
0.626917 0.916991 0.569482
0.686183 0.910002 0.546410
0.770321 0.908507 0.527092
0.880858 0.925597 0.534936
0.983856 0.919921 0.527642
0.025086 0.321386 0.634760
0.003906 0.293217 0.639002
0.240330 0.241154 0.649866
0.434668 0.101717 0.664973
0.620569 0.000000 0.655909
0.771664 0.000000 0.633509
0.907530 0.000000 0.617700
1.000000 0.000000 0.603510
0.196536 0.376989 0.632502
0.208743 0.361212 0.636561
0.267582 0.299077 0.648066
0.437629 0.200534 0.662898
0.620722 0.021515 0.654841
0.771481 0.000000 0.632776
0.907561 0.000000 0.618494
1.000000 0.000000 0.605432
0.308843 0.475013 0.625116
0.327764 0.472572 0.628809
0.366705 0.444587 0.639826
0.451514 0.367407 0.654932
0.621363 0.295872 0.650752
0.770138 0.263340 0.629694
0.907134 0.259434 0.622095
1.000000 0.284947 0.613336
0.313848 0.540887 0.615930
0.342596 0.543236 0.618585
0.425208 0.551141 0.627314
0.506615 0.540551 0.640223
0.622553 0.469795 0.643610
0.769863 0.449683 0.628473
0.906065 0.455055 0.632837
0.999512 0.467201 0.633173
0.313481 0.616938 0.600244
0.339239 0.617914 0.602411
0.414282 0.620783 0.609308
0.515587 0.624506 0.619959
0.621607 0.626154 0.630701
0.779568 0.626337 0.644129
0.910002 0.626459 0.657679
0.991638 0.628687 0.669306
0.369696 0.724880 0.609400
0.388739 0.724514 0.610163
0.446723 0.722774 0.611933
0.526574 0.718227 0.612268
0.605035 0.697414 0.596124
0.739712 0.719997 0.599451
0.924773 0.766445 0.677699
0.986847 0.744900 0.691493
0.447211 0.829831 0.622400
0.459754 0.829007 0.622583
0.499367 0.825803 0.622065
0.554864 0.818418 0.615229
0.613275 0.793668 0.584955
0.692348 0.771572 0.534356
0.868193 0.827787 0.584771
0.981018 0.829648 0.667536
0.587121 0.935485 0.692988
0.594202 0.935088 0.693080
0.616724 0.933684 0.691951
0.649683 0.931518 0.684138
0.698054 0.924315 0.664942
0.764309 0.915404 0.628779
0.871183 0.926757 0.634943
0.972442 0.923339 0.647089
0.284123 0.466743 0.802579
0.280980 0.449653 0.804715
0.319463 0.405158 0.810513
0.441566 0.347387 0.817777
0.599695 0.209903 0.826230
0.768093 0.125856 0.814328
0.904448 0.027985 0.787320
0.998413 0.032013 0.744503
0.342229 0.507591 0.800656
0.341985 0.494087 0.802640
0.348333 0.441993 0.808835
0.453071 0.387427 0.816129
0.602106 0.270787 0.824674
0.768246 0.204868 0.813443
0.903838 0.167056 0.786709
0.997559 0.166262 0.745205
0.423377 0.587213 0.795895
0.434577 0.583917 0.797513
0.461189 0.562341 0.803098
0.494148 0.498238 0.811826
0.612543 0.412634 0.820401
0.769711 0.354253 0.811063
0.902007 0.328313 0.785031
0.994385 0.328130 0.748409
0.468788 0.657252 0.789334
0.489448 0.660548 0.790646
0.554864 0.672969 0.795621
0.590814 0.649653 0.803555
0.638453 0.575982 0.813016
0.772335 0.513146 0.806973
0.898375 0.487587 0.782803
0.987976 0.492103 0.757259
0.468177 0.715236 0.780087
0.487343 0.716884 0.781369
0.548180 0.722805 0.785824
0.631952 0.733059 0.793637
0.693751 0.724483 0.801877
0.773983 0.658045 0.799649
0.893095 0.636225 0.781460
0.977539 0.648646 0.775448
0.460121 0.781216 0.765805
0.477607 0.781430 0.766934
0.532677 0.781674 0.770321
0.609735 0.782071 0.775784
0.689967 0.782345 0.782162
0.771145 0.779446 0.786618
0.896483 0.783780 0.800320
0.964965 0.788205 0.810361
0.531884 0.866117 0.773495
0.544396 0.866026 0.774899
0.582544 0.864775 0.777249
0.635248 0.861845 0.777890
0.691402 0.855528 0.772091
0.741421 0.830991 0.741360
0.867185 0.851011 0.749905
0.958373 0.872038 0.829953
0.645136 0.943877 0.801633
0.651606 0.943542 0.802060
0.672694 0.942443 0.803006
0.704921 0.940734 0.802609
0.743130 0.938048 0.796872
0.783993 0.931548 0.772519
0.859037 0.927398 0.740566
0.957427 0.927886 0.771115
0.486305 0.617334 0.909758
0.485054 0.608637 0.911650
0.479255 0.572442 0.915343
0.525261 0.533837 0.919646
0.604883 0.462165 0.925261
0.728878 0.334295 0.929900
0.876921 0.304265 0.922728
0.981994 0.299260 0.885985
0.516136 0.641840 0.905760
0.513939 0.633356 0.907530
0.499092 0.594232 0.911742
0.536736 0.555444 0.916136
0.609064 0.485786 0.921569
0.727352 0.362127 0.926207
0.873350 0.329076 0.918547
0.979339 0.316991 0.882933
0.575006 0.700740 0.904051
0.582971 0.699702 0.904753
0.596551 0.686671 0.907256
0.594202 0.638239 0.912688
0.641474 0.577935 0.917845
0.737270 0.470192 0.924285
0.876341 0.438117 0.917937
0.977173 0.427314 0.883391
0.639429 0.767971 0.900114
0.644648 0.766934 0.900572
0.662745 0.763058 0.902647
0.688350 0.750179 0.907530
0.696834 0.697200 0.913512
0.761990 0.621790 0.920287
0.881254 0.576776 0.916503
0.971679 0.557702 0.882902
0.636103 0.800748 0.894499
0.645808 0.801694 0.894438
0.680385 0.806760 0.895720
0.735714 0.817746 0.899596
0.764004 0.804074 0.905394
0.785672 0.744686 0.911833
0.881407 0.691829 0.909697
0.963592 0.675410 0.880400
0.632197 0.843992 0.888762
0.642329 0.844663 0.889281
0.675837 0.847196 0.891142
0.728054 0.852323 0.895079
0.790311 0.860258 0.900725
0.838712 0.859678 0.907652
0.887449 0.809171 0.907042
0.953582 0.794217 0.884276
0.628229 0.898039 0.883574
0.638300 0.898314 0.884459
0.668269 0.897917 0.885985
0.714992 0.897612 0.888853
0.771206 0.896391 0.891905
0.831907 0.895476 0.895933
0.885954 0.892607 0.898100
0.941466 0.898192 0.907073
0.703853 0.947478 0.884611
0.710109 0.947204 0.885222
0.734646 0.946899 0.888731
0.768643 0.945464 0.892546
0.807004 0.942931 0.894499
0.846098 0.939788 0.894713
0.876585 0.934600 0.880247
0.940642 0.933043 0.884306
0.668544 0.749752 0.950896
0.666835 0.744961 0.951537
0.655482 0.722713 0.953429
0.662348 0.697963 0.955840
0.681697 0.655634 0.959106
0.720577 0.576287 0.963684
0.805600 0.469062 0.967285
0.924773 0.449866 0.964996
0.682979 0.762783 0.949462
0.681239 0.758206 0.950072
0.670466 0.737423 0.952026
0.671534 0.710140 0.954620
0.689204 0.669703 0.957916
0.725734 0.594293 0.962463
0.806729 0.487037 0.966339
0.924498 0.466255 0.964080
0.709163 0.791226 0.946838
0.714900 0.791989 0.946990
0.719417 0.784176 0.947936
0.710262 0.755673 0.951385
0.720058 0.720180 0.954589
0.747097 0.656580 0.958892
0.814755 0.557519 0.963439
0.924987 0.535607 0.961608
0.736995 0.825650 0.943664
0.742397 0.826474 0.943908
0.757626 0.827390 0.944396
0.776059 0.823911 0.945861
0.767788 0.789609 0.949676
0.782101 0.741909 0.953796
0.829374 0.657557 0.959014
0.926360 0.632715 0.957885
0.759854 0.857572 0.940734
0.766537 0.859220 0.940795
0.785489 0.863249 0.940673
0.803494 0.862913 0.941833
0.826993 0.860197 0.943633
0.822568 0.823301 0.947814
0.849729 0.763912 0.952880
0.928069 0.735470 0.953063
0.763699 0.882841 0.939483
0.768338 0.883207 0.939391
0.784970 0.884947 0.939269
0.813565 0.888914 0.939391
0.851774 0.896483 0.939757
0.877836 0.897063 0.942046
0.883482 0.866880 0.946197
0.930846 0.840604 0.947784
0.773770 0.914244 0.938903
0.778103 0.914305 0.938872
0.793240 0.914549 0.938872
0.820066 0.915679 0.939117
0.855314 0.918090 0.939544
0.893736 0.923064 0.940246
0.919066 0.927337 0.941680
0.932372 0.909178 0.943297
0.785428 0.947967 0.938445
0.788937 0.947662 0.938445
0.802304 0.946654 0.938506
0.826261 0.944884 0.938781
0.857145 0.942565 0.939178
0.890501 0.940032 0.939727
0.918944 0.938170 0.940581
0.933257 0.937774 0.941466
