其他预设/【233】日式怀旧街道调色预设208款/1.3D LUT预设（视频调色-PR-AE-PS-FCPX-达芬奇用）/2.富士胶片风-日式城市街拍预设/JA – Gritty Contrast 2 (Classic Chrome).cube
# Created by Adobe Lightroom plugin Export LUT (1.17.0)
# www.johnrellis.com/lightroom/exportlut.htm
# Preset: JA – Gritty Contrast 2 (Classic Chrome)
# Color profile: /Library/Application Support/Adobe/Color/Profiles/Recommended/AdobeRGB1998.icc
LUT_3D_SIZE 8
DOMAIN_MIN 0.000000 0.000000 0.000000
DOMAIN_MAX 0.903226 0.903226 0.903226
0.070192 0.076143 0.083955
0.110048 0.094270 0.108248
0.215518 0.108644 0.144350
0.407752 0.101015 0.178531
0.611902 0.161410 0.248966
0.751583 0.301579 0.364263
0.885557 0.462776 0.500145
0.972961 0.614191 0.628321
0.078828 0.109224 0.095644
0.120577 0.113558 0.104585
0.239475 0.135500 0.141451
0.444434 0.151461 0.178195
0.632319 0.208652 0.254520
0.766934 0.330907 0.373754
0.894194 0.479103 0.506065
0.974517 0.623651 0.632197
0.101778 0.200351 0.112551
0.146487 0.201175 0.109346
0.272801 0.224735 0.112856
0.531792 0.303105 0.159091
0.680537 0.326421 0.259342
0.799649 0.404425 0.386114
0.907530 0.516350 0.510155
0.976104 0.641321 0.632959
0.160555 0.353094 0.078279
0.208194 0.354681 0.071015
0.335241 0.374517 0.029480
0.543603 0.420478 0.048219
0.741421 0.476234 0.243259
0.848844 0.516594 0.400397
0.931792 0.584833 0.521508
0.979858 0.678767 0.640894
0.246738 0.535607 0.000000
0.288273 0.534691 0.000000
0.400153 0.531640 0.000000
0.563806 0.558923 0.000000
0.737179 0.564752 0.113375
0.887480 0.623529 0.382818
0.956390 0.674067 0.536492
0.983154 0.727565 0.651514
0.311589 0.666682 0.000000
0.342992 0.663661 0.000000
0.438209 0.659571 0.000000
0.576715 0.671595 0.000000
0.753597 0.702724 0.000000
0.891081 0.694179 0.271885
0.964477 0.731472 0.509972
0.984649 0.781186 0.661494
0.385168 0.810727 0.123293
0.411292 0.809537 0.116670
0.494240 0.807584 0.091798
0.615412 0.803433 0.000000
0.767269 0.824002 0.139986
0.919280 0.836362 0.244419
0.972900 0.791928 0.461921
0.989197 0.810422 0.637446
0.509331 0.936248 0.349981
0.526635 0.935637 0.348302
0.583459 0.933257 0.341802
0.673426 0.928313 0.328008
0.788815 0.924926 0.354284
0.900938 0.919677 0.419013
0.985351 0.897765 0.483772
0.995850 0.854734 0.610590
0.091646 0.100893 0.143771
0.110750 0.094392 0.137789
0.208011 0.128115 0.158816
0.429755 0.142000 0.177371
0.626062 0.197787 0.252018
0.763790 0.324590 0.372107
0.893584 0.477424 0.505882
0.974609 0.622797 0.633234
0.079835 0.118166 0.139040
0.113008 0.122194 0.134157
0.225315 0.151461 0.159457
0.458564 0.183413 0.174472
0.641566 0.234470 0.255253
0.775326 0.348058 0.378210
0.900664 0.491768 0.510552
0.976043 0.631983 0.637110
0.093812 0.205631 0.140536
0.143954 0.202945 0.142550
0.260655 0.223667 0.132998
0.539513 0.320623 0.154665
0.687922 0.341009 0.260594
0.807095 0.417395 0.390967
0.914733 0.529564 0.516350
0.977691 0.650019 0.638819
0.149844 0.357458 0.118868
0.203769 0.358038 0.114351
0.339727 0.382025 0.066255
0.549554 0.429023 0.023560
0.748196 0.484596 0.245304
0.857023 0.528038 0.408392
0.937041 0.595056 0.527489
0.980926 0.685969 0.646448
0.245182 0.539574 0.000000
0.289860 0.539635 0.000000
0.404334 0.537652 0.000000
0.568505 0.565759 0.000000
0.741451 0.570520 0.111116
0.890135 0.627344 0.385107
0.958068 0.678676 0.539422
0.983581 0.731563 0.654841
0.312200 0.671870 0.000000
0.344701 0.670588 0.000000
0.440314 0.666316 0.000000
0.579126 0.677028 0.000000
0.755642 0.707210 0.000000
0.892027 0.696376 0.271092
0.965026 0.732937 0.510552
0.984802 0.783566 0.663813
0.382177 0.816648 0.132174
0.409613 0.816464 0.127077
0.493416 0.813901 0.103212
0.615045 0.807950 0.000000
0.766934 0.827054 0.144564
0.921202 0.840452 0.248325
0.973663 0.793942 0.463661
0.989380 0.812436 0.640284
0.505241 0.938567 0.356878
0.522301 0.937804 0.354803
0.579400 0.935271 0.348119
0.669917 0.930144 0.334112
0.784085 0.924804 0.350774
0.899168 0.919921 0.418402
0.985504 0.899290 0.484810
0.995880 0.855039 0.609979
0.089906 0.120455 0.286473
0.118349 0.132998 0.275914
0.207187 0.138155 0.254276
0.377356 0.163729 0.283574
0.552270 0.238590 0.330907
0.733059 0.358434 0.413977
0.890898 0.473762 0.503319
0.974334 0.621271 0.632288
0.000000 0.141146 0.277348
0.116396 0.151095 0.261662
0.205631 0.166140 0.248142
0.370275 0.199496 0.283360
0.572503 0.265751 0.338201
0.746151 0.379828 0.420691
0.897398 0.487221 0.507347
0.975463 0.628962 0.634913
0.007752 0.220951 0.261753
0.115023 0.215915 0.250065
0.231022 0.244907 0.263676
0.414130 0.286931 0.298192
0.625269 0.364569 0.366155
0.783536 0.441077 0.432685
0.913054 0.526574 0.514824
0.977783 0.650111 0.639429
0.000000 0.369879 0.287755
0.113863 0.363561 0.276371
0.265599 0.361486 0.254795
0.481849 0.409186 0.272129
0.709224 0.509728 0.392065
0.843259 0.541527 0.441901
0.935424 0.592096 0.525505
0.980835 0.684993 0.646143
0.068971 0.543908 0.268009
0.163485 0.539544 0.255741
0.341405 0.531426 0.253452
0.521477 0.549920 0.233982
0.714137 0.571435 0.269718
0.885679 0.628962 0.385840
0.957763 0.678157 0.538750
0.983673 0.731746 0.655604
0.256840 0.671412 0.268315
0.299016 0.670039 0.265629
0.407233 0.666651 0.243290
0.553582 0.671443 0.188724
0.745480 0.710658 0.135561
0.891630 0.700557 0.261845
0.965393 0.734249 0.510643
0.984833 0.784298 0.664973
0.357733 0.820584 0.237888
0.386999 0.820401 0.228611
0.474342 0.819699 0.176455
0.602869 0.815671 0.060700
0.758389 0.831388 0.147341
0.917937 0.845609 0.250492
0.973327 0.795071 0.459205
0.989441 0.812589 0.639338
0.479103 0.942657 0.368994
0.496834 0.942199 0.367895
0.557794 0.939788 0.361883
0.651789 0.934142 0.346838
0.770504 0.927764 0.350408
0.890959 0.922057 0.418677
0.985382 0.904417 0.484779
0.996033 0.856077 0.607904
0.000000 0.152895 0.487709
0.062074 0.161410 0.480812
0.255009 0.198947 0.462501
0.390082 0.192386 0.444526
0.585199 0.264347 0.459571
0.686427 0.401404 0.495460
0.835080 0.508263 0.565454
0.969970 0.631525 0.654994
0.000000 0.164431 0.476356
0.025574 0.183261 0.467109
0.256474 0.229740 0.452094
0.386969 0.223880 0.438392
0.579095 0.298924 0.459022
0.681636 0.420020 0.498817
0.844968 0.514061 0.566155
0.971496 0.636500 0.655177
0.000000 0.274357 0.467781
0.000000 0.269902 0.457527
0.240452 0.280095 0.435859
0.392340 0.311315 0.432227
0.558862 0.383520 0.459571
0.673152 0.464973 0.506340
0.867033 0.550439 0.576074
0.974975 0.649561 0.651423
0.000000 0.397711 0.455177
0.000000 0.393225 0.447028
0.236728 0.391119 0.430304
0.451545 0.455573 0.464515
0.594842 0.497627 0.498054
0.758206 0.560876 0.549523
0.905943 0.619104 0.595972
0.980926 0.678950 0.649409
0.000000 0.565301 0.472541
0.078431 0.561517 0.467109
0.305882 0.551293 0.454688
0.468788 0.543206 0.448341
0.646754 0.583734 0.495857
0.844388 0.682887 0.584405
0.939696 0.702419 0.610986
0.983795 0.727108 0.658473
0.198550 0.685512 0.457435
0.260380 0.680415 0.456855
0.397955 0.670192 0.463386
0.522545 0.660548 0.457374
0.681025 0.688899 0.461128
0.851957 0.724910 0.511284
0.957397 0.752956 0.569268
0.985016 0.782071 0.668208
0.354406 0.824613 0.468482
0.389899 0.821927 0.471473
0.495247 0.813413 0.487770
0.585565 0.811856 0.450660
0.724178 0.820462 0.412940
0.892424 0.846372 0.403082
0.973053 0.798032 0.452186
0.989471 0.813718 0.644160
0.500145 0.941375 0.504295
0.517876 0.940520 0.503044
0.550530 0.940826 0.469734
0.616907 0.940154 0.393866
0.739864 0.933165 0.349401
0.873228 0.926085 0.417639
0.985046 0.914946 0.484199
0.996216 0.857084 0.605890
0.033661 0.217990 0.622583
0.095247 0.223758 0.619715
0.318608 0.311131 0.607446
0.430121 0.324407 0.600214
0.559777 0.334112 0.590661
0.726528 0.427558 0.605005
0.854795 0.529046 0.642176
0.953582 0.679591 0.728145
0.000000 0.222629 0.617548
0.094301 0.242618 0.612970
0.315282 0.322301 0.602380
0.436164 0.350500 0.596155
0.560143 0.360143 0.587884
0.726009 0.446448 0.605707
0.852323 0.539605 0.642603
0.952667 0.687465 0.730709
0.000000 0.303807 0.610712
0.007599 0.308019 0.605646
0.296483 0.349737 0.592645
0.457282 0.420996 0.585473
0.563714 0.431128 0.581079
0.724056 0.499916 0.607935
0.845121 0.573297 0.644923
0.949859 0.714382 0.740536
0.000000 0.417823 0.606043
0.061341 0.420233 0.601709
0.295811 0.434913 0.587823
0.462348 0.475837 0.573114
0.575006 0.512200 0.577478
0.703639 0.556359 0.600916
0.829007 0.616693 0.644770
0.958892 0.734310 0.739284
0.000000 0.545068 0.598474
0.103853 0.544945 0.594446
0.317906 0.547662 0.583062
0.475502 0.559808 0.574334
0.620142 0.610468 0.602533
0.752590 0.652430 0.636866
0.896330 0.718013 0.693477
0.966094 0.774044 0.746090
0.165713 0.705013 0.617426
0.249119 0.702480 0.615686
0.405280 0.696956 0.613031
0.528771 0.690913 0.605097
0.634211 0.686824 0.588556
0.813626 0.744411 0.645655
0.931365 0.814359 0.734829
0.972045 0.813138 0.742885
0.348608 0.841184 0.629419
0.384741 0.839384 0.629419
0.475319 0.833890 0.626856
0.577783 0.826474 0.616968
0.684901 0.818723 0.590631
0.842496 0.841337 0.598657
0.946380 0.835874 0.650690
0.986267 0.823636 0.674739
0.467811 0.948547 0.629480
0.491035 0.947326 0.630518
0.561089 0.943267 0.633875
0.660548 0.935180 0.642420
0.724697 0.934569 0.580774
0.844572 0.929656 0.532952
0.971984 0.921935 0.486000
0.996460 0.858793 0.602564
0.236881 0.334264 0.751797
0.239933 0.334417 0.750668
0.396429 0.411170 0.742489
0.520073 0.468788 0.733486
0.604059 0.475898 0.728817
0.710384 0.483009 0.721462
0.868803 0.550561 0.747097
0.957549 0.693202 0.788205
0.209628 0.338262 0.751919
0.250736 0.352239 0.750088
0.400031 0.422919 0.741726
0.528252 0.485634 0.732296
0.608392 0.491035 0.727779
0.711604 0.496681 0.720638
0.869444 0.562921 0.747951
0.956786 0.702113 0.790311
0.171328 0.378027 0.746029
0.229191 0.386633 0.743435
0.391302 0.442969 0.733150
0.541558 0.523735 0.722683
0.616236 0.530083 0.720058
0.712490 0.534905 0.715450
0.870024 0.600641 0.748928
0.953887 0.728267 0.795834
0.192569 0.466438 0.742855
0.252720 0.474006 0.739895
0.381933 0.497108 0.728756
0.514183 0.534386 0.711421
0.625269 0.580224 0.708309
0.714412 0.587396 0.708095
0.871611 0.656031 0.750729
0.949401 0.765255 0.803708
0.213443 0.571069 0.740749
0.270085 0.574914 0.737667
0.394324 0.586664 0.727535
0.510369 0.599207 0.712795
0.619806 0.619715 0.700649
0.729366 0.655695 0.710689
0.861997 0.711055 0.745968
0.944762 0.811643 0.818173
0.240543 0.687587 0.737026
0.292393 0.688014 0.733944
0.408667 0.690394 0.725612
0.522484 0.693935 0.714626
0.631342 0.704952 0.708431
0.772061 0.754940 0.737270
0.889372 0.807156 0.785550
0.951690 0.855589 0.834073
0.292363 0.851530 0.770779
0.336370 0.849912 0.768795
0.443885 0.846830 0.763790
0.566613 0.844755 0.757382
0.684871 0.842191 0.747341
0.788663 0.835752 0.725734
0.917723 0.868650 0.796506
0.955413 0.891051 0.843717
0.447395 0.953063 0.766690
0.472328 0.951873 0.766415
0.547417 0.947845 0.765591
0.648676 0.941070 0.764858
0.756771 0.932769 0.769375
0.832944 0.928801 0.746487
0.930114 0.925536 0.741299
0.972961 0.893309 0.757076
0.467842 0.518547 0.886687
0.467720 0.517205 0.886076
0.526543 0.546899 0.882750
0.633661 0.608637 0.875883
0.692744 0.615198 0.872343
0.760616 0.618311 0.868559
0.850919 0.622644 0.862547
0.950103 0.720394 0.867674
0.461036 0.520836 0.887114
0.461158 0.519646 0.886564
0.527062 0.552453 0.883024
0.633967 0.613306 0.876524
0.698146 0.626368 0.872740
0.764736 0.629664 0.869200
0.853269 0.634302 0.863462
0.950317 0.731716 0.869352
0.422431 0.522911 0.885649
0.435889 0.527031 0.884886
0.516350 0.561364 0.880888
0.624537 0.619654 0.874601
0.708980 0.654841 0.869657
0.771695 0.657832 0.866361
0.854978 0.661433 0.860685
0.948821 0.754574 0.869535
0.401099 0.564141 0.883848
0.422461 0.568627 0.883116
0.486519 0.582544 0.879850
0.599847 0.625208 0.872038
0.723812 0.696071 0.864408
0.781460 0.698878 0.861357
0.858030 0.702724 0.856596
0.947265 0.790707 0.871305
0.398962 0.633356 0.882567
0.421180 0.636896 0.881834
0.486366 0.647456 0.878904
0.575280 0.663050 0.873289
0.693507 0.701106 0.863432
0.795804 0.750118 0.858061
0.865476 0.756649 0.854948
0.946380 0.835508 0.876738
0.392737 0.717403 0.879545
0.415686 0.719661 0.878630
0.483467 0.726925 0.875608
0.576104 0.738247 0.870207
0.679133 0.753964 0.862516
0.787228 0.780758 0.850980
0.872862 0.813138 0.851865
0.944610 0.873259 0.882322
0.380499 0.815549 0.874266
0.404852 0.816648 0.873320
0.477455 0.820920 0.870512
0.576623 0.828000 0.865690
0.688716 0.838407 0.859312
0.796994 0.851469 0.852598
0.892210 0.877989 0.862547
0.946502 0.908751 0.894224
0.373144 0.953216 0.893675
0.402319 0.954162 0.893889
0.487922 0.954192 0.891569
0.613153 0.947051 0.882414
0.748684 0.937682 0.875517
0.853086 0.930388 0.875212
0.910979 0.929137 0.870542
0.948760 0.923888 0.887358
0.632715 0.662348 0.938994
0.633387 0.662226 0.938994
0.652003 0.671626 0.938323
0.738247 0.729366 0.934173
0.807034 0.773281 0.930785
0.842283 0.778714 0.930114
0.882719 0.785214 0.929351
0.937011 0.795163 0.927489
0.629480 0.663111 0.938994
0.630396 0.662867 0.938994
0.650324 0.673060 0.938262
0.736934 0.730434 0.934112
0.810636 0.779385 0.930358
0.844877 0.784604 0.929717
0.884337 0.791104 0.928985
0.937102 0.800687 0.927184
0.614496 0.665339 0.939147
0.616175 0.665156 0.939117
0.639582 0.674708 0.938293
0.728756 0.731228 0.934142
0.821195 0.797848 0.929107
0.852628 0.802579 0.928527
0.888975 0.808286 0.927886
0.937438 0.816434 0.926329
0.604700 0.683040 0.938415
0.604913 0.681971 0.938445
0.607568 0.679103 0.938567
0.705135 0.726558 0.934661
0.813382 0.801266 0.928923
0.863523 0.828122 0.926818
0.895506 0.832700 0.926360
0.937957 0.838895 0.925139
0.597589 0.717769 0.936645
0.597864 0.716579 0.936736
0.598810 0.712093 0.936950
0.654505 0.725887 0.935515
0.779690 0.788022 0.930083
0.875608 0.856413 0.924926
0.903105 0.860288 0.924651
0.938628 0.865232 0.923827
0.587396 0.763912 0.934173
0.587549 0.763180 0.934234
0.588220 0.760281 0.934386
0.647974 0.772274 0.932952
0.745205 0.800870 0.929900
0.853788 0.851987 0.925292
0.910674 0.886900 0.923217
0.939605 0.890837 0.922789
0.573358 0.821256 0.930816
0.573419 0.821012 0.930816
0.573663 0.820005 0.930907
0.640009 0.829587 0.929503
0.746853 0.850950 0.926757
0.844236 0.877775 0.923857
0.910094 0.902770 0.922423
0.940917 0.915496 0.922362
0.554589 0.889860 0.926360
0.554467 0.890196 0.926329
0.554131 0.891417 0.926268
0.633051 0.897398 0.924987
0.751095 0.907561 0.922881
0.852018 0.918639 0.921172
0.912413 0.927306 0.921233
0.942321 0.933013 0.922667
