其他预设/【233】日式怀旧街道调色预设208款/1.3D LUT预设（视频调色-PR-AE-PS-FCPX-达芬奇用）/2.富士胶片风-日式城市街拍预设/JA – Chrome 1 (Classic Chrome).cube
# Created by Adobe Lightroom plugin Export LUT (1.17.0)
# www.johnrellis.com/lightroom/exportlut.htm
# Preset: JA – Chrome 1 (Classic Chrome)
# Color profile: /Library/Application Support/Adobe/Color/Profiles/Recommended/AdobeRGB1998.icc
LUT_3D_SIZE 32
0.118410 0.113527 0.110262
0.118410 0.113527 0.110262
0.118410 0.113527 0.110262
0.117678 0.113680 0.110262
0.114595 0.114168 0.110292
0.118990 0.113222 0.110048
0.132876 0.110597 0.109834
0.159915 0.103883 0.109377
0.201572 0.089296 0.108827
0.254093 0.059205 0.106355
0.312108 0.000000 0.103182
0.368231 0.000000 0.098970
0.421607 0.000000 0.093507
0.472541 0.000000 0.086275
0.521263 0.000000 0.077333
0.568811 0.000000 0.066194
0.615869 0.000000 0.047639
0.662043 0.000000 0.011109
0.707027 0.000000 0.000000
0.750210 0.000000 0.000000
0.791135 0.000000 0.000000
0.829923 0.000000 0.000000
0.867155 0.000000 0.000000
0.902586 0.000000 0.000000
0.935698 0.000000 0.000000
0.966186 0.000000 0.000000
0.993652 0.000000 0.000000
1.000000 0.000000 0.000000
1.000000 0.000000 0.000000
1.000000 0.000000 0.000000
1.000000 0.000000 0.000000
1.000000 0.000000 0.000000
0.118410 0.113527 0.110262
0.118410 0.113527 0.110262
0.118410 0.113527 0.110262
0.117403 0.113710 0.110262
0.114870 0.114137 0.110292
0.119234 0.113191 0.110048
0.133303 0.110506 0.109834
0.160616 0.103670 0.109346
0.202762 0.089418 0.108095
0.256168 0.065278 0.106172
0.313787 0.000000 0.102815
0.369726 0.000000 0.098238
0.422797 0.000000 0.092592
0.473182 0.000000 0.085145
0.521721 0.000000 0.076326
0.569268 0.000000 0.064881
0.616266 0.000000 0.043030
0.662348 0.000000 0.007416
0.707301 0.000000 0.000000
0.750393 0.000000 0.000000
0.791257 0.000000 0.000000
0.829892 0.000000 0.000000
0.867063 0.000000 0.000000
0.902495 0.000000 0.000000
0.935576 0.000000 0.000000
0.966064 0.000000 0.000000
0.993530 0.000000 0.000000
1.000000 0.000000 0.000000
1.000000 0.000000 0.000000
1.000000 0.000000 0.000000
1.000000 0.000000 0.000000
1.000000 0.000000 0.000000
0.118410 0.113527 0.110262
0.118410 0.113527 0.110262
0.118410 0.113527 0.110262
0.117159 0.113741 0.110262
0.114870 0.114137 0.110292
0.119722 0.113100 0.110048
0.134157 0.110323 0.109804
0.162234 0.104463 0.109224
0.205600 0.093202 0.107912
0.258976 0.073640 0.105531
0.316381 0.018677 0.102174
0.371588 0.000000 0.097383
0.423896 0.000000 0.091371
0.474128 0.000000 0.083833
0.522515 0.000000 0.074434
0.570123 0.000000 0.062867
0.616999 0.000000 0.037476
0.662989 0.000000 0.001862
0.707881 0.000000 0.000000
0.750881 0.000000 0.000000
0.791684 0.000000 0.000000
0.830228 0.000000 0.000000
0.867308 0.000000 0.000000
0.902647 0.000000 0.000000
0.935698 0.000000 0.000000
0.966094 0.000000 0.000000
0.993530 0.000000 0.000000
1.000000 0.000000 0.000000
1.000000 0.000000 0.000000
1.000000 0.000000 0.000000
1.000000 0.000000 0.000000
1.000000 0.000000 0.000000
0.118349 0.112398 0.110140
0.118349 0.112398 0.110140
0.118135 0.112215 0.110140
0.116701 0.112001 0.110201
0.115236 0.113161 0.110384
0.121065 0.113527 0.110170
0.136995 0.112490 0.109743
0.166720 0.109316 0.108858
0.210391 0.102632 0.107179
0.263554 0.091005 0.104372
0.320134 0.072724 0.100313
0.374640 0.032074 0.095064
0.426551 0.000000 0.088594
0.476265 0.000000 0.080262
0.524559 0.000000 0.070497
0.571984 0.000000 0.056306
0.618708 0.000000 0.025666
0.664607 0.000000 0.000000
0.709316 0.000000 0.000000
0.752041 0.000000 0.000000
0.792599 0.000000 0.000000
0.830900 0.000000 0.000000
0.867887 0.000000 0.000000
0.903105 0.000000 0.000000
0.936095 0.000000 0.000000
0.966430 0.000000 0.000000
0.993805 0.000000 0.000000
1.000000 0.000000 0.000000
1.000000 0.000000 0.000000
1.000000 0.000000 0.000000
1.000000 0.000000 0.000000
1.000000 0.000000 0.000000
0.117800 0.110445 0.109438
0.117800 0.110445 0.109438
0.117800 0.110445 0.109438
0.116793 0.110628 0.109438
0.115572 0.111269 0.110079
0.122744 0.115023 0.109987
0.140291 0.117403 0.109194
0.171633 0.118654 0.107820
0.216281 0.117861 0.105501
0.269505 0.114748 0.101930
0.325353 0.108339 0.097108
0.379217 0.099519 0.091035
0.430426 0.079774 0.083742
0.479805 0.016938 0.074830
0.527703 0.000000 0.063264
0.574884 0.000000 0.040986
0.621515 0.000000 0.005493
0.667262 0.000000 0.000000
0.711666 0.000000 0.000000
0.754147 0.000000 0.000000
0.794278 0.000000 0.000000
0.832364 0.000000 0.000000
0.869047 0.000000 0.000000
0.904082 0.000000 0.000000
0.936858 0.000000 0.000000
0.967041 0.000000 0.000000
0.994171 0.000000 0.000000
1.000000 0.000000 0.000000
1.000000 0.000000 0.000000
1.000000 0.000000 0.000000
1.000000 0.000000 0.000000
1.000000 0.000000 0.000000
0.116579 0.113252 0.108583
0.116579 0.113252 0.108583
0.116548 0.113466 0.108553
0.117037 0.113375 0.108553
0.118379 0.114046 0.108675
0.121614 0.115938 0.109071
0.142031 0.124636 0.108461
0.178286 0.132692 0.106111
0.224369 0.138643 0.102815
0.277501 0.142550 0.098146
0.332586 0.143954 0.092164
0.385351 0.139223 0.084901
0.435676 0.128908 0.076204
0.484596 0.112459 0.065583
0.532219 0.087160 0.047028
0.579095 0.018616 0.012940
0.625483 0.000000 0.000000
0.670893 0.000000 0.000000
0.714961 0.000000 0.000000
0.756924 0.000000 0.000000
0.796658 0.000000 0.000000
0.834440 0.000000 0.000000
0.872984 0.000000 0.000000
0.907591 0.000000 0.000000
0.939879 0.000000 0.000000
0.969482 0.000000 0.000000
0.996124 0.000000 0.000000
1.000000 0.000000 0.000000
1.000000 0.000000 0.000000
1.000000 0.000000 0.000000
1.000000 0.000000 0.000000
1.000000 0.000000 0.000000
0.115541 0.121492 0.107210
0.115785 0.121462 0.107179
0.116793 0.121492 0.107149
0.118532 0.121218 0.107149
0.121218 0.121004 0.107088
0.126925 0.123964 0.107271
0.136568 0.127871 0.107240
0.176394 0.146578 0.104616
0.227604 0.161654 0.099580
0.288365 0.174136 0.092103
0.341863 0.178164 0.084352
0.393408 0.177218 0.075502
0.443000 0.172122 0.064576
0.491341 0.163149 0.044495
0.538445 0.150423 0.012207
0.584955 0.132540 0.000000
0.630884 0.107912 0.000000
0.675990 0.066560 0.000000
0.719600 0.000000 0.000000
0.761013 0.000000 0.000000
0.800381 0.000000 0.000000
0.837949 0.000000 0.000000
0.874235 0.000000 0.000000
0.908751 0.000000 0.000000
0.940887 0.000000 0.000000
0.970306 0.000000 0.000000
0.996674 0.000000 0.000000
1.000000 0.000000 0.000000
1.000000 0.000000 0.000000
1.000000 0.000000 0.000000
1.000000 0.000000 0.000000
1.000000 0.000000 0.000000
0.116274 0.136385 0.105165
0.117281 0.136263 0.105165
0.118563 0.136080 0.105135
0.121492 0.135653 0.105104
0.126162 0.134981 0.105257
0.133242 0.137331 0.104738
0.145968 0.143160 0.104067
0.164309 0.150423 0.103090
0.220706 0.178225 0.096437
0.283177 0.198734 0.086671
0.347265 0.212100 0.074037
0.402106 0.215976 0.060731
0.450813 0.214084 0.035035
0.498390 0.209171 0.001465
0.545037 0.201266 0.000000
0.591180 0.190524 0.000000
0.636774 0.176730 0.000000
0.681422 0.158938 0.000000
0.724331 0.135470 0.000000
0.765011 0.102022 0.000000
0.803708 0.018189 0.000000
0.840818 0.000000 0.000000
0.876646 0.000000 0.000000
0.910704 0.000000 0.000000
0.942382 0.000000 0.000000
0.971405 0.000000 0.000000
0.997375 0.000000 0.000000
1.000000 0.000000 0.000000
1.000000 0.000000 0.000000
1.000000 0.000000 0.000000
1.000000 0.000000 0.000000
1.000000 0.000000 0.000000
0.119875 0.159854 0.102113
0.121553 0.159670 0.102083
0.123476 0.159426 0.102052
0.127687 0.158755 0.102022
0.133883 0.157961 0.101900
0.141909 0.157290 0.101686
0.156588 0.165072 0.099977
0.177798 0.174533 0.097444
0.205203 0.184573 0.094301
0.271305 0.217136 0.081727
0.338079 0.239200 0.065095
0.400305 0.251316 0.030060
0.459968 0.257267 0.000000
0.506859 0.254520 0.000000
0.552850 0.249454 0.000000
0.598566 0.242344 0.000000
0.643671 0.232670 0.000000
0.687922 0.220890 0.000000
0.729824 0.205692 0.000000
0.769711 0.187411 0.000000
0.807675 0.165347 0.000000
0.844266 0.136843 0.000000
0.879606 0.097536 0.000000
0.913115 0.000000 0.000000
0.944274 0.000000 0.000000
0.972747 0.000000 0.000000
0.998291 0.000000 0.000000
1.000000 0.000000 0.000000
1.000000 0.000000 0.000000
1.000000 0.000000 0.000000
1.000000 0.000000 0.000000
1.000000 0.000000 0.000000
0.125002 0.193118 0.097536
0.127108 0.192905 0.097505
0.129824 0.192508 0.097475
0.135561 0.191562 0.097444
0.144015 0.190219 0.097353
0.154177 0.188113 0.097292
0.168551 0.191684 0.095674
0.190646 0.202029 0.092103
0.219638 0.214450 0.087251
0.253574 0.226383 0.080781
0.321843 0.258274 0.059144
0.388922 0.279789 0.002441
0.449897 0.291051 0.000000
0.510491 0.297795 0.000000
0.561761 0.297002 0.000000
0.607019 0.291691 0.000000
0.651667 0.284581 0.000000
0.695247 0.275303 0.000000
0.736110 0.263890 0.000000
0.775113 0.250004 0.000000
0.812314 0.234134 0.000000
0.848234 0.215854 0.000000
0.882933 0.195010 0.000000
0.915709 0.170474 0.000000
0.946258 0.140719 0.000000
0.974182 0.101167 0.000000
0.999207 0.000000 0.000000
1.000000 0.000000 0.000000
1.000000 0.000000 0.000000
1.000000 0.000000 0.000000
1.000000 0.000000 0.000000
1.000000 0.000000 0.000000
0.132509 0.231998 0.091463
0.135134 0.231662 0.091432
0.138521 0.231174 0.091402
0.145480 0.229953 0.091402
0.155612 0.227970 0.091402
0.167849 0.225528 0.091371
0.181277 0.222293 0.091371
0.203128 0.231907 0.086976
0.231357 0.244266 0.080537
0.266026 0.258427 0.071199
0.303471 0.270451 0.059419
0.369116 0.298436 0.000000
0.436530 0.319707 0.000000
0.496956 0.330785 0.000000
0.557610 0.338018 0.000000
0.616266 0.340917 0.000000
0.660273 0.334874 0.000000
0.702937 0.327276 0.000000
0.742824 0.317296 0.000000
0.780941 0.305547 0.000000
0.817288 0.292393 0.000000
0.852567 0.277806 0.000000
0.886656 0.261936 0.000000
0.918761 0.244236 0.000000
0.948608 0.224643 0.000000
0.975891 0.203220 0.000000
1.000000 0.179232 0.000000
1.000000 0.152529 0.000000
1.000000 0.121614 0.000000
1.000000 0.082612 0.000000
1.000000 0.000000 0.000000
1.000000 0.000000 0.000000
0.142245 0.272862 0.084291
0.145083 0.272496 0.083986
0.149050 0.271763 0.084016
0.156771 0.270420 0.084047
0.168124 0.268345 0.084077
0.181674 0.265293 0.083925
0.196719 0.261570 0.084077
0.214847 0.262089 0.082185
0.241794 0.273991 0.074769
0.274205 0.287175 0.063294
0.311986 0.301579 0.036988
0.350805 0.312749 0.000000
0.414405 0.338109 0.000000
0.482948 0.359960 0.000000
0.543450 0.371130 0.000000
0.604517 0.378943 0.000000
0.665461 0.383490 0.000000
0.713283 0.379278 0.000000
0.751888 0.369726 0.000000
0.788846 0.358892 0.000000
0.824277 0.346807 0.000000
0.858732 0.334051 0.000000
0.891844 0.320073 0.000000
0.923033 0.305241 0.000000
0.952026 0.289006 0.000000
0.978424 0.272007 0.000000
1.000000 0.253910 0.000000
1.000000 0.235050 0.000000
1.000000 0.215702 0.000000
1.000000 0.196078 0.000000
1.000000 0.177188 0.000000
1.000000 0.160037 0.000000
0.153872 0.312871 0.077089
0.156832 0.312474 0.077089
0.160830 0.311711 0.077180
0.168826 0.310216 0.076997
0.180819 0.307774 0.076875
0.194888 0.304692 0.076783
0.210880 0.300694 0.076478
0.227359 0.295750 0.076692
0.250889 0.302190 0.070283
0.280919 0.314549 0.057710
0.315892 0.328130 0.021881
0.355688 0.342443 0.000000
0.395422 0.353185 0.000000
0.455604 0.375128 0.000000
0.525139 0.397711 0.000000
0.586511 0.409796 0.000000
0.647700 0.418158 0.000000
0.707271 0.422553 0.000000
0.759426 0.420417 0.000000
0.795285 0.409766 0.000000
0.829953 0.398383 0.000000
0.863645 0.386328 0.000000
0.895933 0.373541 0.000000
0.926329 0.359838 0.000000
0.954498 0.345434 0.000000
0.980163 0.330175 0.000000
1.000000 0.314366 0.000000
1.000000 0.298039 0.000000
1.000000 0.281498 0.000000
1.000000 0.265171 0.000000
1.000000 0.249607 0.000000
1.000000 0.235630 0.000000
0.166140 0.350011 0.072328
0.169406 0.349432 0.072053
0.173068 0.348699 0.072175
0.181369 0.347204 0.071992
0.192966 0.344701 0.071656
0.207462 0.341527 0.071351
0.223453 0.337316 0.071260
0.240360 0.332280 0.070619
0.258640 0.328252 0.069398
0.286564 0.339788 0.055879
0.318853 0.352422 0.019989
0.355505 0.366217 0.000000
0.396582 0.380743 0.000000
0.436866 0.391028 0.000000
0.494484 0.410712 0.000000
0.564813 0.433997 0.000000
0.628016 0.447669 0.000000
0.688716 0.456336 0.000000
0.745296 0.459419 0.000000
0.796994 0.457649 0.000000
0.835935 0.448615 0.000000
0.868894 0.436896 0.000000
0.900267 0.424506 0.000000
0.929839 0.411353 0.000000
0.957153 0.397650 0.000000
0.981994 0.383185 0.000000
1.000000 0.368261 0.000000
1.000000 0.353033 0.000000
1.000000 0.337591 0.000000
1.000000 0.322393 0.000000
1.000000 0.307805 0.000000
1.000000 0.294377 0.000000
0.179751 0.384863 0.072114
0.182712 0.384344 0.071839
0.186404 0.383612 0.071626
0.194278 0.381994 0.071229
0.205570 0.379614 0.070954
0.219608 0.376257 0.069764
0.235203 0.372015 0.069154
0.251957 0.366827 0.068421
0.269352 0.360815 0.067109
0.291722 0.363317 0.059907
0.321508 0.375280 0.028321
0.355474 0.388403 0.000000
0.393500 0.402441 0.000000
0.435676 0.417365 0.000000
0.476295 0.427405 0.000000
0.532036 0.445350 0.000000
0.603204 0.469673 0.000000
0.667903 0.484749 0.000000
0.726833 0.492561 0.000000
0.780911 0.494820 0.000000
0.830472 0.492622 0.000000
0.874327 0.486458 0.000000
0.904784 0.474006 0.000000
0.933410 0.460914 0.000000
0.959869 0.447181 0.000000
0.983856 0.433051 0.000000
1.000000 0.418463 0.000000
1.000000 0.403632 0.000000
1.000000 0.388586 0.000000
1.000000 0.373632 0.000000
1.000000 0.359136 0.000000
1.000000 0.345739 0.047913
0.194614 0.417945 0.077211
0.197330 0.417426 0.076997
0.200595 0.416724 0.076814
0.207980 0.415167 0.076173
0.218601 0.412634 0.075105
0.231876 0.409369 0.074098
0.247013 0.405158 0.072694
0.263279 0.400092 0.071138
0.280461 0.394018 0.069093
0.297612 0.387060 0.066926
0.324529 0.396857 0.050050
0.356023 0.409400 0.006561
0.391211 0.422919 0.000000
0.430335 0.437415 0.000000
0.473365 0.452583 0.000000
0.514061 0.462440 0.000000
0.568383 0.479225 0.000000
0.640253 0.504448 0.000000
0.706264 0.520623 0.000000
0.762997 0.527428 0.000000
0.814694 0.528923 0.000000
0.862669 0.526665 0.000000
0.905821 0.520836 0.000000
0.937163 0.509209 0.000000
0.962676 0.495308 0.000000
0.985779 0.480995 0.000000
1.000000 0.466255 0.000000
1.000000 0.451331 0.000000
1.000000 0.436255 0.000000
1.000000 0.421057 0.000000
1.000000 0.406378 0.000000
1.000000 0.392645 0.074647
0.210391 0.449500 0.087495
0.212528 0.449012 0.087037
0.215763 0.448310 0.086915
0.222507 0.446754 0.086122
0.232395 0.444312 0.084993
0.244694 0.441138 0.083345
0.258946 0.436988 0.081697
0.274662 0.431891 0.079011
0.291112 0.425940 0.076143
0.307927 0.419013 0.073152
0.327947 0.417182 0.067109
0.357153 0.429236 0.043641
0.389868 0.442298 0.000000
0.426123 0.456397 0.000000
0.466224 0.471351 0.000000
0.509911 0.486976 0.000000
0.550988 0.496956 0.000000
0.604059 0.512779 0.000000
0.677394 0.539330 0.000000
0.742824 0.555322 0.000000
0.797116 0.560998 0.000000
0.847196 0.562066 0.000000
0.892729 0.559197 0.000000
0.932677 0.552575 0.000000
0.965301 0.542046 0.000000
0.987457 0.527276 0.000000
1.000000 0.512169 0.000000
1.000000 0.496834 0.000000
1.000000 0.481361 0.000000
1.000000 0.465888 0.000000
1.000000 0.450629 0.021668
1.000000 0.436408 0.095003
0.226810 0.480232 0.101137
0.229007 0.479683 0.100801
0.232486 0.480049 0.100832
0.238376 0.478553 0.100252
0.247593 0.476143 0.098634
0.258885 0.472908 0.096712
0.272282 0.468879 0.094636
0.286992 0.463844 0.091554
0.302861 0.457923 0.088563
0.319066 0.451118 0.084627
0.335485 0.443366 0.080140
0.359777 0.449317 0.070680
0.390387 0.462074 0.048035
0.424384 0.475898 0.000000
0.461860 0.490578 0.000000
0.502922 0.506249 0.000000
0.547875 0.522698 0.000000
0.589441 0.532952 0.000000
0.641901 0.548241 0.000000
0.714351 0.574304 0.000000
0.778256 0.589197 0.000000
0.830747 0.594049 0.000000
0.878752 0.594385 0.000000
0.921080 0.590448 0.000000
0.957244 0.582544 0.000000
0.987121 0.571496 0.000000
1.000000 0.556695 0.000000
1.000000 0.540764 0.000000
1.000000 0.524651 0.000000
1.000000 0.508537 0.000000
1.000000 0.492683 0.071260
1.000000 0.477821 0.113069
0.244633 0.511406 0.117342
0.246586 0.511070 0.117189
0.249332 0.510491 0.116701
0.254856 0.509209 0.115938
0.263005 0.507073 0.114351
0.273747 0.504021 0.112551
0.286198 0.500053 0.109895
0.300023 0.495247 0.106966
0.315007 0.489570 0.103212
0.330632 0.482979 0.098878
0.346532 0.475441 0.093843
0.363531 0.469032 0.087984
0.392309 0.481666 0.076356
0.424231 0.495247 0.058198
0.459388 0.509850 0.001862
0.498116 0.525383 0.000000
0.540429 0.541863 0.000000
0.586389 0.559106 0.000000
0.628504 0.569482 0.000000
0.680751 0.584558 0.000000
0.749447 0.607721 0.000000
0.811460 0.621302 0.000000
0.862760 0.625757 0.000000
0.907866 0.624903 0.000000
0.946563 0.619471 0.000000
0.978729 0.610254 0.000000
1.000000 0.597955 0.000000
1.000000 0.583215 0.000000
1.000000 0.566430 0.000000
1.000000 0.549523 0.023682
1.000000 0.533043 0.095827
1.000000 0.517449 0.130892
0.263554 0.543542 0.135256
0.265354 0.543267 0.135103
0.267765 0.542748 0.134676
0.272801 0.541497 0.133730
0.280369 0.539422 0.132265
0.290105 0.536461 0.130129
0.301762 0.532647 0.127413
0.314824 0.527947 0.124147
0.328832 0.522454 0.120180
0.343847 0.516075 0.115511
0.359319 0.508812 0.110231
0.374731 0.500542 0.104036
0.396338 0.502403 0.096254
0.426551 0.515892 0.085176
0.459846 0.530388 0.068147
0.496376 0.545922 0.021271
0.536370 0.562310 0.000000
0.579858 0.579492 0.000000
0.626856 0.597375 0.000000
0.669276 0.607721 0.000000
0.719265 0.620539 0.000000
0.783352 0.640253 0.000000
0.843626 0.652766 0.000000
0.893248 0.656245 0.000000
0.934905 0.653742 0.000000
0.969574 0.646601 0.000000
0.997406 0.635767 0.000000
1.000000 0.622126 0.000000
1.000000 0.606439 0.000000
1.000000 0.589136 0.076997
1.000000 0.571801 0.117250
1.000000 0.555535 0.147799
0.283848 0.577600 0.154910
0.285527 0.577295 0.154513
0.287816 0.576837 0.154269
0.292363 0.575616 0.153201
0.299351 0.573541 0.151736
0.308354 0.570733 0.149477
0.319158 0.567071 0.146670
0.331243 0.562646 0.143282
0.344732 0.557305 0.139284
0.358984 0.551141 0.134463
0.373877 0.544152 0.128756
0.389044 0.536156 0.122499
0.404028 0.527306 0.115328
0.431403 0.538354 0.107210
0.463142 0.552728 0.096651
0.497810 0.568200 0.081056
0.535821 0.584558 0.052857
0.577081 0.601770 0.000000
0.621729 0.619593 0.000000
0.669154 0.637324 0.000000
0.710414 0.646357 0.000000
0.757473 0.656367 0.000000
0.817533 0.672908 0.000000
0.875517 0.683925 0.000000
0.922545 0.685634 0.000000
0.960021 0.681117 0.000000
0.990173 0.671931 0.000000
1.000000 0.659297 0.000000
1.000000 0.643946 0.000000
1.000000 0.626947 0.088930
1.000000 0.609461 0.138613
1.000000 0.592493 0.166323
0.306157 0.614435 0.176303
0.307652 0.614160 0.176059
0.309606 0.613581 0.175570
0.313848 0.612360 0.174533
0.320226 0.610407 0.172915
0.328618 0.607660 0.170809
0.338628 0.604211 0.168032
0.350225 0.599969 0.164431
0.362951 0.594934 0.160372
0.376745 0.589044 0.155520
0.391180 0.582422 0.150057
0.406043 0.574853 0.143557
0.420935 0.566400 0.136263
0.439673 0.563775 0.128878
0.469886 0.578088 0.121279
0.503044 0.593378 0.110994
0.539147 0.609583 0.097078
0.578393 0.626520 0.076051
0.620233 0.643610 0.017578
0.664607 0.660517 0.000000
0.711299 0.677028 0.000000
0.750851 0.684138 0.000000
0.794888 0.691402 0.000000
0.851072 0.705043 0.000000
0.905577 0.713680 0.000000
0.949218 0.712978 0.000000
0.982055 0.705989 0.000000
1.000000 0.694636 0.000000
1.000000 0.679866 0.000000
1.000000 0.662806 0.080140
1.000000 0.644984 0.139498
1.000000 0.627802 0.179965
0.329778 0.653559 0.198856
0.331121 0.653254 0.198581
0.333013 0.652827 0.198215
0.336919 0.651606 0.197147
0.342962 0.649805 0.195743
0.350744 0.647211 0.193576
0.360296 0.644038 0.190738
0.371191 0.640040 0.187442
0.383551 0.635340 0.183383
0.396796 0.629847 0.178683
0.410895 0.623590 0.173251
0.425513 0.616541 0.167117
0.440375 0.608606 0.160006
0.455421 0.599695 0.151736
0.480171 0.606622 0.145205
0.511864 0.621759 0.137972
0.546227 0.637537 0.128603
0.583154 0.653651 0.116335
0.622400 0.669734 0.100069
0.663905 0.685695 0.075410
0.707485 0.701259 0.000000
0.753017 0.716182 0.000000
0.790890 0.721553 0.000000
0.832761 0.726864 0.000000
0.883696 0.736355 0.000000
0.933806 0.742000 0.000000
0.973266 0.738125 0.000000
1.000000 0.728420 0.000000
1.000000 0.714504 0.000000
1.000000 0.697505 0.063050
1.000000 0.679194 0.134737
1.000000 0.661433 0.179782
0.355474 0.694697 0.224186
0.356786 0.694484 0.223911
0.358434 0.694026 0.223423
0.362127 0.693019 0.222446
0.367803 0.691371 0.220951
0.375189 0.689113 0.218936
0.384222 0.686275 0.216434
0.394812 0.682734 0.213046
0.406653 0.678523 0.209201
0.419654 0.673640 0.204685
0.433570 0.668025 0.199466
0.448127 0.661799 0.193393
0.463142 0.654627 0.186435
0.478370 0.646693 0.178836
0.494850 0.639765 0.170474
0.524834 0.654017 0.165408
0.557031 0.668696 0.159182
0.591608 0.683528 0.151369
0.628260 0.698451 0.141451
0.667048 0.713161 0.128420
0.707637 0.727596 0.111238
0.750301 0.741756 0.085512
0.795041 0.755520 0.009796
0.831327 0.759152 0.000000
0.870115 0.761715 0.000000
0.915251 0.766873 0.000000
0.960021 0.768765 0.000000
0.994324 0.760952 0.000000
1.000000 0.748074 0.000000
1.000000 0.731228 0.002625
1.000000 0.712581 0.127779
1.000000 0.693935 0.176547
0.382605 0.735897 0.252293
0.383825 0.735683 0.252079
0.385504 0.735348 0.251621
0.388952 0.734493 0.250675
0.394171 0.733120 0.249302
0.401282 0.731228 0.247349
0.409888 0.728817 0.244938
0.419959 0.725887 0.241886
0.431525 0.722377 0.238193
0.444312 0.718288 0.233982
0.458106 0.713649 0.229129
0.472724 0.708339 0.223636
0.488045 0.702449 0.217411
0.503838 0.695796 0.210208
0.519951 0.688502 0.202213
0.542168 0.690730 0.196139
0.572442 0.703975 0.191928
0.604639 0.717433 0.186893
0.638819 0.730892 0.180636
0.675013 0.744350 0.172396
0.713069 0.757748 0.162112
0.753170 0.770932 0.148531
0.794949 0.783688 0.130159
0.838193 0.795712 0.103578
0.872129 0.797024 0.077455
0.906828 0.796109 0.067231
0.945037 0.795926 0.014862
0.983307 0.793301 0.000000
1.000000 0.781064 0.000000
1.000000 0.764248 0.000000
1.000000 0.745174 0.118044
1.000000 0.725612 0.171695
0.412604 0.778042 0.284916
0.413764 0.777859 0.284703
0.415259 0.777554 0.284306
0.418494 0.776822 0.283543
0.423407 0.775662 0.282261
0.430030 0.774136 0.280430
0.438148 0.772152 0.278294
0.447883 0.769741 0.275425
0.458991 0.766842 0.272221
0.471443 0.763546 0.268406
0.484962 0.759792 0.263859
0.499611 0.755581 0.259068
0.515068 0.750881 0.253330
0.531243 0.745663 0.247013
0.547967 0.739895 0.239963
0.565148 0.733577 0.232151
0.592065 0.743038 0.228946
0.622156 0.755032 0.225559
0.654170 0.767269 0.221134
0.688014 0.779507 0.215854
0.723629 0.791684 0.208927
0.760861 0.803464 0.200137
0.799496 0.814725 0.189090
0.839414 0.825284 0.174868
0.880461 0.834928 0.155947
0.911406 0.833494 0.139834
0.941039 0.828397 0.139132
0.972015 0.822873 0.132296
1.000000 0.814664 0.110292
1.000000 0.797482 0.011841
1.000000 0.776822 0.097841
1.000000 0.756527 0.163210
0.446235 0.821530 0.323095
0.447211 0.821378 0.322911
0.448676 0.821103 0.322606
0.451637 0.820584 0.321843
0.456306 0.819669 0.320684
0.462623 0.818540 0.319280
0.470405 0.817075 0.317327
0.479744 0.815335 0.315038
0.490517 0.813230 0.312474
0.502617 0.810880 0.309270
0.516014 0.808103 0.305608
0.530571 0.805020 0.301457
0.546044 0.801572 0.296910
0.562432 0.797726 0.291661
0.579644 0.793423 0.285801
0.597436 0.788754 0.279301
0.618250 0.788052 0.273777
0.646296 0.798642 0.271733
0.675929 0.809262 0.268833
0.707240 0.819760 0.265263
0.739895 0.830045 0.260746
0.773983 0.839933 0.254887
0.809293 0.849210 0.247349
0.845579 0.857786 0.238132
0.882811 0.865507 0.226383
0.920745 0.872251 0.211429
0.948028 0.867704 0.198886
0.971588 0.857908 0.200534
0.994507 0.846708 0.198825
1.000000 0.831907 0.186374
1.000000 0.810025 0.150637
1.000000 0.786893 0.153048
0.485145 0.865599 0.369696
0.486091 0.865507 0.369635
0.487373 0.865324 0.369360
0.490089 0.864927 0.368811
0.494514 0.864286 0.367773
0.500298 0.863462 0.366552
0.507530 0.862394 0.364996
0.516350 0.861143 0.363134
0.526482 0.859648 0.360876
0.538170 0.857939 0.358312
0.550958 0.856016 0.355291
0.565087 0.853880 0.352026
0.580285 0.851499 0.348302
0.596582 0.848875 0.344213
0.613825 0.846006 0.339666
