其他预设/【233】日式怀旧街道调色预设208款/1.3D LUT预设（视频调色-PR-AE-PS-FCPX-达芬奇用）/2.富士胶片风-日式城市街拍预设/JA – Subdued 3 (Classic Chrome).cube
# Created by Adobe Lightroom plugin Export LUT (1.17.0)
# www.johnrellis.com/lightroom/exportlut.htm
# Preset: JA – Subdued 3 (Classic Chrome)
# Color profile: /Library/Application Support/Adobe/Color/Profiles/Recommended/AdobeRGB1998.icc
LUT_3D_SIZE 8
DOMAIN_MIN 0.000000 0.000000 0.000000
DOMAIN_MAX 0.903226 0.903226 0.903226
0.088197 0.088136 0.087861
0.162203 0.067140 0.086336
0.240146 0.051759 0.081239
0.353185 0.000000 0.067384
0.515648 0.000000 0.000000
0.691829 0.000000 0.000000
0.866026 0.000000 0.000000
1.000000 0.000000 0.000000
0.085817 0.161532 0.084657
0.158938 0.158907 0.075257
0.239139 0.129580 0.073701
0.352392 0.120821 0.056214
0.514336 0.113710 0.000000
0.691371 0.085328 0.000000
0.863127 0.000000 0.000000
1.000000 0.000000 0.000000
0.116030 0.240482 0.113069
0.151705 0.239933 0.109224
0.241428 0.239475 0.085847
0.357824 0.241459 0.054841
0.519799 0.257725 0.000000
0.698451 0.265782 0.000000
0.868803 0.253025 0.000000
1.000000 0.204227 0.000000
0.130037 0.369451 0.122408
0.168154 0.369512 0.119173
0.259068 0.370581 0.106996
0.385229 0.380194 0.049775
0.540581 0.398169 0.000000
0.709407 0.415686 0.000000
0.871733 0.416968 0.000000
1.000000 0.389380 0.000000
0.114626 0.549859 0.089235
0.170169 0.549950 0.084230
0.286168 0.550866 0.059663
0.421302 0.556146 0.000000
0.568200 0.558312 0.000000
0.714412 0.555962 0.000000
0.872435 0.563897 0.000000
0.999786 0.548211 0.000000
0.075349 0.720912 0.000000
0.157351 0.722805 0.000000
0.291539 0.722469 0.000000
0.432471 0.722316 0.000000
0.583825 0.725399 0.000000
0.737179 0.724147 0.000000
0.877287 0.710903 0.000000
0.999359 0.691798 0.000000
0.047211 0.876707 0.000000
0.149844 0.876799 0.000000
0.289891 0.875364 0.000000
0.432532 0.873594 0.000000
0.575219 0.870603 0.000000
0.728267 0.870329 0.000000
0.876677 0.864042 0.000000
0.996521 0.833310 0.000000
0.150912 0.990173 0.018830
0.197024 0.989776 0.000000
0.303624 0.988586 0.000000
0.428992 0.986755 0.000000
0.558282 0.981720 0.000000
0.693324 0.977844 0.000000
0.835080 0.972992 0.000000
0.972778 0.962707 0.000000
0.106569 0.104158 0.157076
0.156954 0.102052 0.153933
0.237461 0.109346 0.146609
0.356756 0.082795 0.135012
0.519738 0.000000 0.109163
0.694484 0.000000 0.032929
0.863828 0.000000 0.000000
1.000000 0.000000 0.000000
0.111269 0.159823 0.159915
0.160891 0.160403 0.160037
0.238773 0.152071 0.150515
0.357336 0.139071 0.135042
0.520012 0.119203 0.107424
0.694667 0.080385 0.017823
0.861906 0.000000 0.000000
0.998383 0.000000 0.000000
0.128328 0.240513 0.158846
0.163973 0.241276 0.161776
0.243931 0.242161 0.149294
0.361822 0.246128 0.133272
0.524926 0.256077 0.099184
0.699336 0.257359 0.000000
0.865263 0.246769 0.000000
0.999939 0.205814 0.000000
0.121309 0.370733 0.158785
0.162600 0.371923 0.156008
0.258549 0.373724 0.146822
0.385321 0.380377 0.117678
0.539178 0.394324 0.066743
0.705745 0.408392 0.000000
0.867613 0.407965 0.000000
0.999207 0.387823 0.000000
0.065461 0.552453 0.132052
0.146883 0.552087 0.128573
0.276402 0.552270 0.114778
0.416052 0.554864 0.073701
0.566247 0.556298 0.000000
0.713924 0.552941 0.000000
0.871580 0.559045 0.000000
0.998810 0.544060 0.000000
0.000000 0.720790 0.082307
0.125093 0.720851 0.074922
0.278050 0.720638 0.021118
0.425330 0.720974 0.000000
0.579950 0.724544 0.000000
0.737118 0.724117 0.000000
0.877897 0.709346 0.000000
0.998993 0.688655 0.000000
0.000000 0.875029 0.000641
0.123140 0.874388 0.000000
0.278416 0.873442 0.000000
0.425788 0.872374 0.000000
0.571313 0.870024 0.000000
0.725460 0.869474 0.000000
0.875273 0.862669 0.000000
0.995544 0.831022 0.000000
0.144686 0.989288 0.134737
0.192050 0.989075 0.128359
0.300603 0.988006 0.101900
0.426490 0.986297 0.000000
0.557427 0.982940 0.000000
0.691798 0.978424 0.000000
0.833616 0.972992 0.000000
0.972351 0.962310 0.000000
0.145541 0.139773 0.234653
0.170230 0.137758 0.233280
0.230503 0.141634 0.225010
0.323125 0.141451 0.227939
0.524193 0.000000 0.233982
0.714748 0.000000 0.185550
0.877714 0.000000 0.142306
1.000000 0.000000 0.000000
0.158328 0.177371 0.238865
0.179660 0.175662 0.237736
0.234867 0.170077 0.229770
0.340337 0.156283 0.232975
0.534447 0.000000 0.226230
0.714015 0.000000 0.183474
0.876280 0.000000 0.138338
1.000000 0.000000 0.000000
0.151675 0.245975 0.245548
0.176516 0.246128 0.245548
0.246342 0.244724 0.243381
0.377203 0.230625 0.227481
0.548089 0.212345 0.205966
0.717189 0.188724 0.174990
0.877379 0.152773 0.123079
1.000000 0.089601 0.000000
0.121462 0.375677 0.258824
0.151858 0.378576 0.255283
0.243748 0.385901 0.237736
0.394720 0.389471 0.215152
0.558404 0.390356 0.192447
0.721736 0.386725 0.158022
0.879545 0.374426 0.087129
1.000000 0.349035 0.000000
0.000000 0.556634 0.263279
0.086305 0.559014 0.253544
0.239078 0.563836 0.226261
0.405035 0.564080 0.207980
0.575219 0.565087 0.161288
0.728206 0.551781 0.107942
0.880644 0.546563 0.000000
1.000000 0.523125 0.000000
0.000000 0.724788 0.245274
0.000000 0.726223 0.233402
0.238315 0.727565 0.215610
0.408606 0.726894 0.194247
0.572107 0.728237 0.144015
0.740139 0.727077 0.000000
0.884062 0.706325 0.000000
1.000000 0.679103 0.000000
0.000000 0.878508 0.230686
0.000000 0.878691 0.220462
0.252750 0.877165 0.219211
0.411872 0.875364 0.194797
0.563470 0.872526 0.150729
0.720607 0.871550 0.000000
0.877684 0.865080 0.000000
0.999847 0.829099 0.000000
0.116609 0.990204 0.263981
0.204440 0.988922 0.279026
0.304814 0.987823 0.266667
0.427314 0.986542 0.244511
0.555596 0.983337 0.201541
0.688075 0.978943 0.100557
0.829923 0.973968 0.000000
0.973022 0.963073 0.000000
0.182773 0.167422 0.363134
0.207736 0.165042 0.361059
0.272587 0.153445 0.352178
0.343511 0.147005 0.330632
0.424628 0.158206 0.314336
0.659022 0.000000 0.353185
0.868864 0.000000 0.339483
1.000000 0.000000 0.285191
0.184176 0.198672 0.371313
0.208408 0.195010 0.368719
0.274327 0.180056 0.358740
0.349706 0.168276 0.336767
0.437293 0.174472 0.321141
0.671443 0.000000 0.353277
0.873350 0.000000 0.334173
1.000000 0.000000 0.255650
0.181125 0.284611 0.384131
0.207492 0.283207 0.384222
0.273899 0.264561 0.377295
0.368414 0.243381 0.355810
0.498177 0.229923 0.350134
0.717067 0.093416 0.351263
0.892363 0.000000 0.302647
1.000000 0.000000 0.234684
0.137484 0.397192 0.394476
0.170932 0.397253 0.394232
0.264103 0.396765 0.393164
0.396979 0.391516 0.386694
0.572900 0.369757 0.363500
0.735897 0.343328 0.334264
0.890837 0.305028 0.291020
1.000000 0.247776 0.223056
0.000000 0.563622 0.409796
0.082155 0.564874 0.407294
0.232090 0.569421 0.398322
0.395880 0.574304 0.381048
0.583062 0.572595 0.349187
0.741482 0.546929 0.322606
0.890593 0.524956 0.283391
1.000000 0.481544 0.205631
0.000000 0.729549 0.410163
0.000000 0.731991 0.407416
0.225834 0.734310 0.394018
0.400031 0.736294 0.379553
0.567773 0.734951 0.355688
0.746578 0.733516 0.301640
0.892882 0.701595 0.244816
1.000000 0.662318 0.174411
0.000000 0.879271 0.406134
0.030274 0.879759 0.403174
0.248844 0.880522 0.394171
0.416693 0.879576 0.389471
0.564508 0.877043 0.363775
0.717708 0.874815 0.310307
0.880125 0.867735 0.227390
1.000000 0.823545 0.095888
0.189975 0.989441 0.422126
0.230228 0.989166 0.422309
0.333715 0.987732 0.424079
0.459052 0.984894 0.426856
0.570886 0.982330 0.398962
0.692683 0.978424 0.355810
0.826810 0.974456 0.229709
0.973449 0.963714 0.000000
0.228916 0.194095 0.536797
0.254765 0.190341 0.534386
0.325780 0.173922 0.524071
0.414954 0.133150 0.504356
0.497169 0.115938 0.472175
0.587549 0.136812 0.445411
0.787167 0.000000 0.477974
0.983734 0.000000 0.478645
0.226139 0.225925 0.543328
0.252415 0.221439 0.541100
0.324834 0.203586 0.530510
0.416785 0.164309 0.510155
0.502678 0.146792 0.477577
0.591791 0.166201 0.447883
0.795621 0.000000 0.480293
0.987335 0.000000 0.475502
0.214206 0.319524 0.560601
0.240543 0.314183 0.559106
0.320317 0.297490 0.549340
0.421942 0.261295 0.529442
0.520043 0.237766 0.494759
0.603906 0.251041 0.455848
0.823911 0.130587 0.486915
0.999268 0.000000 0.462745
0.213931 0.449928 0.573602
0.246220 0.449470 0.573480
0.340856 0.449653 0.573480
0.438514 0.422644 0.559106
0.548150 0.382635 0.523766
0.664851 0.371618 0.496101
0.873106 0.308537 0.498939
1.000000 0.244694 0.468391
0.132784 0.583703 0.576898
0.181003 0.583642 0.576715
0.294316 0.582727 0.575341
0.437629 0.579797 0.571527
0.581323 0.570153 0.560540
0.742367 0.547265 0.536248
0.891264 0.512963 0.499702
1.000000 0.452796 0.436103
0.000000 0.730220 0.566522
0.082765 0.730770 0.565515
0.255680 0.732082 0.562646
0.418708 0.733669 0.560113
0.578058 0.734585 0.553735
0.748196 0.734798 0.521904
0.891814 0.701137 0.489357
1.000000 0.655177 0.436316
0.072786 0.878691 0.565911
0.154299 0.878599 0.564965
0.291875 0.878355 0.562951
0.440864 0.877653 0.561913
0.585412 0.876219 0.557153
0.723293 0.873381 0.531273
0.880491 0.868284 0.473884
1.000000 0.817472 0.399817
0.266026 0.985962 0.570367
0.296086 0.985473 0.571099
0.381201 0.983825 0.573388
0.492561 0.982025 0.577264
0.608881 0.978393 0.577539
0.713375 0.975402 0.549493
0.831693 0.972045 0.488289
0.972320 0.962860 0.392523
0.295323 0.245792 0.704646
0.316869 0.242161 0.702846
0.381445 0.226261 0.695613
0.472786 0.188663 0.683742
0.573053 0.102022 0.661372
0.664027 0.068818 0.627283
0.763577 0.147158 0.598962
0.925444 0.212711 0.626612
0.296727 0.277409 0.707057
0.317571 0.273167 0.704982
0.381659 0.257053 0.698970
0.472114 0.220951 0.686091
0.573144 0.146914 0.663569
0.665919 0.126192 0.629419
0.764706 0.180301 0.599603
0.928405 0.229618 0.627497
0.309575 0.373877 0.722103
0.328435 0.369543 0.720027
0.387793 0.353185 0.712856
0.475502 0.320104 0.698939
0.577478 0.259892 0.675196
0.675868 0.239689 0.639857
0.770901 0.270390 0.604211
0.940429 0.288029 0.632136
0.357031 0.512261 0.737972
0.374701 0.510399 0.736660
0.429603 0.502922 0.732265
0.501732 0.476509 0.720119
0.591333 0.421515 0.696437
0.693263 0.386297 0.659022
0.780575 0.395270 0.614588
0.961578 0.380621 0.639857
0.334630 0.622187 0.740780
0.361425 0.623346 0.740871
0.441993 0.627680 0.740810
0.550011 0.635584 0.740566
0.624506 0.605585 0.723354
0.712398 0.552270 0.682033
0.820554 0.532494 0.648188
0.987762 0.505089 0.648310
0.269505 0.747524 0.740505
0.301366 0.747921 0.740749
0.391394 0.747829 0.740169
0.506188 0.747005 0.738674
0.624353 0.744198 0.734707
0.747982 0.734890 0.723812
0.884031 0.714961 0.701747
0.993561 0.677546 0.661616
0.240635 0.878965 0.726528
0.275029 0.878996 0.726406
0.366491 0.877989 0.725032
0.482948 0.876677 0.722866
0.612634 0.875151 0.721401
0.749203 0.872129 0.723110
0.880949 0.869383 0.691463
0.988983 0.827756 0.652461
0.354406 0.982177 0.715358
0.376104 0.981659 0.715785
0.441840 0.980072 0.716854
0.534325 0.977874 0.718349
0.644312 0.974182 0.722774
0.758328 0.969299 0.731014
0.850889 0.966949 0.703822
0.970031 0.961334 0.641993
0.399481 0.350622 0.852293
0.413458 0.347326 0.851164
0.460304 0.334997 0.848203
0.533715 0.307378 0.842405
0.625513 0.252323 0.832181
0.729610 0.171756 0.815549
0.830564 0.146700 0.789639
0.931060 0.312108 0.768002
0.409461 0.380713 0.854673
0.422400 0.376867 0.853574
0.466316 0.363867 0.850553
0.536980 0.336095 0.844663
0.627405 0.283818 0.834806
0.731594 0.209476 0.818692
0.833524 0.188937 0.792905
0.933104 0.336706 0.770809
0.441138 0.467048 0.858000
0.451698 0.463600 0.857267
0.488228 0.450690 0.854520
0.549340 0.424048 0.848875
0.632105 0.376410 0.839322
0.733150 0.305608 0.823178
0.835782 0.287877 0.796445
0.932830 0.395239 0.771969
0.499367 0.585870 0.864134
0.509789 0.585046 0.863737
0.538842 0.576959 0.861509
0.582879 0.553338 0.855772
0.648371 0.512230 0.846220
0.736690 0.439155 0.829984
0.839017 0.415839 0.802090
0.933501 0.480507 0.774685
0.540429 0.691493 0.870237
0.555383 0.694148 0.870420
0.601099 0.701717 0.870603
0.643671 0.694270 0.867765
0.684840 0.661982 0.859190
0.749447 0.600305 0.842649
0.846464 0.556359 0.813748
0.935027 0.587823 0.780941
0.514366 0.773892 0.872221
0.528985 0.774899 0.872221
0.577203 0.778378 0.872221
0.649836 0.784421 0.872221
0.736599 0.794736 0.872435
0.788296 0.772122 0.861021
0.854368 0.713924 0.828031
0.948028 0.711055 0.802670
0.468879 0.875486 0.872313
0.483711 0.875425 0.872129
0.533074 0.875578 0.871977
0.607721 0.875853 0.871672
0.699550 0.876463 0.871336
0.794430 0.876249 0.869963
0.879515 0.870054 0.862028
0.972442 0.855589 0.845212
0.472236 0.976471 0.856596
0.486397 0.976135 0.856504
0.529595 0.974578 0.855375
0.599145 0.972595 0.854276
0.687434 0.969848 0.853941
0.788357 0.965881 0.858091
0.881254 0.962432 0.863432
0.966796 0.960388 0.839139
0.578424 0.542718 0.957763
0.584680 0.540429 0.957549
0.607630 0.533379 0.957275
0.646784 0.516838 0.956390
0.702998 0.487343 0.955138
0.776974 0.435676 0.953185
0.870329 0.399878 0.947356
0.967956 0.405646 0.936492
0.588617 0.562310 0.957855
0.594324 0.559930 0.957671
0.615534 0.552270 0.957366
0.652918 0.536065 0.956634
0.706905 0.506889 0.955413
0.778866 0.456550 0.953582
0.871153 0.419318 0.948089
0.968353 0.423590 0.937407
0.617975 0.619348 0.957519
0.622644 0.617151 0.957397
0.640223 0.609613 0.957275
0.670680 0.592615 0.956390
0.718105 0.564996 0.955444
0.784024 0.518914 0.953979
0.872099 0.475715 0.949157
0.968139 0.473823 0.938476
0.666682 0.702388 0.956756
0.669703 0.700191 0.956664
0.681697 0.693172 0.956542
0.703792 0.678157 0.956085
0.739376 0.652338 0.955291
0.793179 0.609735 0.954101
0.872770 0.556573 0.950439
0.967132 0.548669 0.939727
0.713588 0.782132 0.956115
0.718013 0.782101 0.956023
0.733425 0.782010 0.956146
0.751186 0.773800 0.956329
0.773861 0.753475 0.955810
0.811765 0.718868 0.954864
0.875364 0.658381 0.952758
0.965484 0.647272 0.941680
0.723629 0.837644 0.957427
0.730861 0.839109 0.957397
0.754360 0.843870 0.957214
0.790921 0.851347 0.956817
0.821195 0.850065 0.957061
0.843870 0.829038 0.956115
0.884703 0.785519 0.953307
0.962341 0.756924 0.943328
0.706905 0.891539 0.959838
0.714076 0.892210 0.959838
0.737575 0.894377 0.959808
0.774960 0.897795 0.959503
0.823270 0.903075 0.959258
0.877470 0.911223 0.959075
0.911315 0.902434 0.957885
0.961120 0.868528 0.948241
0.681300 0.960937 0.962219
0.688563 0.961028 0.962280
0.712123 0.961181 0.962219
0.750454 0.961364 0.961913
0.800534 0.961730 0.961669
0.857450 0.962432 0.961608
0.915587 0.963561 0.961791
0.967010 0.963684 0.960876
