其他预设/【233】日式怀旧街道调色预设208款/1.3D LUT预设（视频调色-PR-AE-PS-FCPX-达芬奇用）/2.富士胶片风-日式城市街拍预设/JA – Cine Night 4 (Classic Chrome).cube
# Created by Adobe Lightroom plugin Export LUT (1.17.0)
# www.johnrellis.com/lightroom/exportlut.htm
# Preset: JA – Cine Night 4 (Classic Chrome)
# Color profile: /Library/Application Support/Adobe/Color/Profiles/Recommended/AdobeRGB1998.icc
LUT_3D_SIZE 5
DOMAIN_MIN 0.000000 0.000000 0.000000
DOMAIN_MAX 0.903226 0.903226 0.903226
0.014038 0.000000 0.121248
0.112123 0.051820 0.134829
0.417578 0.186374 0.136843
0.812222 0.311742 0.121187
1.000000 0.428046 0.231510
0.000000 0.119234 0.140230
0.107668 0.139345 0.139315
0.449195 0.263554 0.135592
0.821836 0.360388 0.139132
1.000000 0.464759 0.252384
0.000000 0.385016 0.248936
0.000000 0.414649 0.209537
0.465888 0.445167 0.193240
0.850156 0.521080 0.214389
1.000000 0.584588 0.333501
0.000000 0.722072 0.397772
0.000000 0.734066 0.373907
0.437720 0.748745 0.278630
0.827695 0.744747 0.346685
1.000000 0.761685 0.507774
0.000000 0.928283 0.538109
0.149325 0.926787 0.542229
0.607874 0.913817 0.594629
0.799130 0.911345 0.548363
0.988830 0.902556 0.681300
0.000000 0.059846 0.174228
0.103090 0.069490 0.190005
0.424781 0.184634 0.205631
0.809140 0.309880 0.226230
1.000000 0.446662 0.312535
0.000000 0.143526 0.200504
0.107546 0.166751 0.213413
0.451118 0.262821 0.225315
0.818143 0.361151 0.242039
1.000000 0.484138 0.332586
0.000000 0.397833 0.301061
0.000000 0.427344 0.297704
0.483162 0.459327 0.273167
0.844022 0.527337 0.309361
1.000000 0.606928 0.413031
0.000000 0.728267 0.446906
0.000000 0.739040 0.434516
0.453223 0.752346 0.372534
0.827756 0.748653 0.425544
1.000000 0.774411 0.569696
0.000000 0.927977 0.571954
0.213199 0.925994 0.577508
0.622858 0.913451 0.627436
0.807767 0.910582 0.597406
0.987579 0.903288 0.704433
0.000000 0.173220 0.328008
0.041260 0.137362 0.339178
0.405219 0.158877 0.380865
0.796506 0.220249 0.386236
0.983581 0.545312 0.519402
0.000000 0.267002 0.353826
0.080415 0.264408 0.371710
0.433478 0.252049 0.402655
0.802518 0.346075 0.416846
0.985290 0.573053 0.531762
0.000000 0.451820 0.435401
0.000000 0.466011 0.448219
0.516197 0.493172 0.482399
0.819364 0.571862 0.518090
0.988708 0.669764 0.586877
0.000000 0.738766 0.576196
0.113283 0.747311 0.583307
0.546960 0.753902 0.587243
0.824979 0.758755 0.606012
0.992004 0.799161 0.684657
0.222538 0.924041 0.679622
0.371130 0.921904 0.683436
0.631342 0.913970 0.701289
0.826169 0.908965 0.708888
0.984161 0.905119 0.760616
0.000000 0.339208 0.568017
0.000000 0.286687 0.576989
0.439094 0.224186 0.584649
0.758968 0.290745 0.623102
0.962219 0.566583 0.673640
0.000000 0.410559 0.586755
0.088838 0.395911 0.600519
0.445808 0.311925 0.609186
0.765133 0.366552 0.635645
0.962585 0.602075 0.684108
0.000000 0.557275 0.642664
0.180270 0.558740 0.648096
0.539147 0.564263 0.667018
0.782071 0.568475 0.677302
0.968292 0.692073 0.712245
0.000000 0.748836 0.714107
0.280674 0.750332 0.717281
0.596338 0.754482 0.727443
0.821256 0.769009 0.747646
0.979248 0.811490 0.772854
0.419013 0.915435 0.794095
0.511437 0.913359 0.798459
0.695796 0.910460 0.812558
0.839322 0.910521 0.814725
0.979644 0.908202 0.835782
0.351629 0.544945 0.810513
0.398749 0.528679 0.812253
0.534508 0.471656 0.813107
0.772396 0.437446 0.809781
0.951354 0.621454 0.824430
0.379858 0.585168 0.813718
0.462776 0.587304 0.815549
0.559014 0.529015 0.817868
0.774502 0.485054 0.813962
0.951476 0.644312 0.828183
0.410864 0.682216 0.827756
0.475380 0.682765 0.826505
0.661006 0.694087 0.830228
0.781338 0.630274 0.828641
0.953124 0.706569 0.840330
0.493965 0.805997 0.860410
0.546899 0.806271 0.860044
0.671748 0.805051 0.858274
0.817594 0.799374 0.858000
0.958099 0.798032 0.863127
0.583398 0.912474 0.892302
0.620935 0.911742 0.892638
0.721950 0.909941 0.894072
0.852201 0.908659 0.897368
0.974853 0.911315 0.905150
