其他预设/【233】日式怀旧街道调色预设208款/1.3D LUT预设（视频调色-PR-AE-PS-FCPX-达芬奇用）/2.富士胶片风-日式城市街拍预设/JA – Chrome 4 (Classic Chrome).cube
# Created by Adobe Lightroom plugin Export LUT (1.17.0)
# www.johnrellis.com/lightroom/exportlut.htm
# Preset: JA – Chrome 4 (Classic Chrome)
# Color profile: /Library/Application Support/Adobe/Color/Profiles/Recommended/AdobeRGB1998.icc
LUT_3D_SIZE 5
DOMAIN_MIN 0.000000 0.000000 0.000000
DOMAIN_MAX 0.903226 0.903226 0.903226
0.102937 0.100343 0.105287
0.170352 0.091218 0.113436
0.512566 0.000000 0.105684
0.825925 0.022400 0.114229
0.976867 0.288457 0.303624
0.099702 0.172549 0.106416
0.181582 0.175174 0.107088
0.530999 0.271824 0.097292
0.830442 0.297154 0.149599
0.973327 0.412818 0.360204
0.000000 0.473732 0.065217
0.241917 0.476417 0.043885
0.533959 0.515465 0.000000
0.827909 0.580255 0.274540
0.955077 0.649500 0.508080
0.000000 0.738766 0.086061
0.241917 0.739071 0.083131
0.505943 0.738064 0.071901
0.776944 0.756710 0.202731
0.940612 0.775601 0.524834
0.361913 0.916808 0.367132
0.416541 0.915801 0.369726
0.558831 0.910857 0.374456
0.747189 0.908019 0.421881
0.922728 0.906340 0.535668
0.094057 0.110353 0.162905
0.176638 0.082795 0.177188
0.500206 0.000000 0.231357
0.810422 0.000000 0.251041
0.965087 0.343542 0.407050
0.103578 0.165011 0.172580
0.182681 0.177859 0.185367
0.522423 0.200992 0.212741
0.814542 0.281285 0.292973
0.960998 0.447913 0.446693
0.000000 0.467414 0.236820
0.177188 0.485939 0.191409
0.526238 0.508812 0.204074
0.817838 0.604700 0.428290
0.946715 0.667170 0.567254
0.000000 0.736416 0.258915
0.232578 0.739559 0.251225
0.504295 0.737850 0.252689
0.774441 0.755062 0.337530
0.934417 0.788724 0.593927
0.394141 0.913237 0.435004
0.440864 0.912535 0.435462
0.577325 0.910338 0.445472
0.752926 0.907042 0.478309
0.922148 0.906340 0.580194
0.000000 0.098695 0.407965
0.244358 0.000000 0.468360
0.536889 0.000000 0.510430
0.788815 0.000000 0.502251
0.947539 0.390173 0.565850
0.000000 0.197299 0.393774
0.156802 0.155459 0.447303
0.542504 0.000000 0.516075
0.787991 0.226780 0.512688
0.941192 0.495552 0.596460
0.000000 0.431067 0.432837
0.141634 0.451667 0.451820
0.547326 0.532830 0.525750
0.792386 0.599756 0.588128
0.932952 0.680140 0.664271
0.000000 0.723445 0.485115
0.239933 0.726192 0.488685
0.538445 0.739132 0.519890
0.772732 0.755428 0.563012
0.924102 0.823056 0.731930
0.384222 0.907225 0.548180
0.452979 0.905974 0.558709
0.608667 0.903044 0.586633
0.758724 0.901030 0.596826
0.918334 0.903929 0.672755
0.000000 0.000000 0.664820
0.227298 0.000000 0.691524
0.539940 0.000000 0.757473
0.806729 0.000000 0.763821
0.943938 0.163272 0.702327
0.000000 0.146731 0.653864
0.119539 0.117769 0.677943
0.511894 0.000000 0.749813
0.803006 0.000000 0.761288
0.938262 0.343236 0.709468
0.000000 0.398657 0.578119
0.000000 0.398444 0.586511
0.471229 0.457618 0.698787
0.790616 0.539055 0.754177
0.925322 0.611688 0.740505
0.000000 0.665248 0.653956
0.209781 0.670924 0.659144
0.503899 0.696742 0.683162
0.783841 0.770291 0.753964
0.918914 0.817350 0.801389
0.368231 0.899046 0.710689
0.434241 0.897948 0.712551
0.595453 0.895842 0.721218
0.768124 0.896391 0.740780
0.914336 0.902556 0.780545
0.000000 0.059693 0.872404
0.148196 0.000000 0.878965
0.455268 0.000000 0.898314
0.735683 0.000000 0.919493
0.947021 0.000000 0.911437
0.000000 0.135500 0.871214
0.062715 0.097322 0.876799
0.429877 0.000000 0.895140
0.730312 0.000000 0.916808
0.943023 0.173953 0.908904
0.000000 0.452461 0.844633
0.192416 0.445258 0.851926
0.429603 0.421118 0.875792
0.734463 0.485145 0.903685
0.931426 0.555901 0.902129
0.183505 0.665492 0.832792
0.260899 0.663233 0.831693
0.423163 0.653651 0.828000
0.713863 0.702235 0.873167
0.920623 0.778317 0.897520
0.385840 0.871458 0.862272
0.430762 0.871580 0.862211
0.561089 0.872740 0.862791
0.729061 0.876219 0.865171
0.914855 0.907561 0.896971
