其他预设/【233】日式怀旧街道调色预设208款/1.3D LUT预设（视频调色-PR-AE-PS-FCPX-达芬奇用）/2.富士胶片风-日式城市街拍预设/JA – Cityscape Pop 5 (Classic Chrome).cube
# Created by Adobe Lightroom plugin Export LUT (1.17.0)
# www.johnrellis.com/lightroom/exportlut.htm
# Preset: JA – Cityscape Pop 5 (Classic Chrome)
# Color profile: /Library/Application Support/Adobe/Color/Profiles/Recommended/AdobeRGB1998.icc
LUT_3D_SIZE 32
0.108705 0.117098 0.122560
0.108705 0.117098 0.122560
0.109285 0.117037 0.122560
0.114229 0.116670 0.122652
0.120546 0.116945 0.122683
0.128359 0.117952 0.122957
0.138613 0.119417 0.123110
0.152377 0.121431 0.123079
0.170504 0.124086 0.122774
0.194949 0.128176 0.121981
0.229038 0.134005 0.120485
0.276402 0.143313 0.117494
0.340246 0.157473 0.111238
0.416388 0.175631 0.100649
0.495613 0.196628 0.083925
0.567773 0.216678 0.059846
0.628992 0.235050 0.000000
0.680476 0.251469 0.000000
0.726589 0.266636 0.000000
0.766690 0.280400 0.000000
0.801938 0.292454 0.000000
0.833066 0.303349 0.000000
0.860502 0.312993 0.000000
0.885039 0.321660 0.000000
0.907225 0.329381 0.000000
0.927672 0.336584 0.000000
0.946838 0.343236 0.000000
0.964904 0.349798 0.000000
0.982086 0.356359 0.000000
0.998322 0.363500 0.000000
1.000000 0.372076 0.000000
1.000000 0.383581 0.076356
0.108705 0.117098 0.122560
0.108705 0.117098 0.122560
0.109285 0.117037 0.122560
0.114443 0.117098 0.122621
0.120851 0.117983 0.122774
0.128634 0.118959 0.123049
0.138888 0.120424 0.123018
0.152621 0.122408 0.122988
0.170504 0.125277 0.122866
0.195102 0.129305 0.122072
0.229129 0.135653 0.120516
0.276188 0.145113 0.117311
0.339849 0.159609 0.110994
0.415656 0.178256 0.100343
0.494331 0.198886 0.083986
0.566735 0.219608 0.059144
0.627741 0.237705 0.000000
0.679286 0.253849 0.000000
0.725307 0.268803 0.000000
0.765042 0.282139 0.000000
0.800198 0.294133 0.000000
0.831418 0.304723 0.000000
0.858976 0.314336 0.000000
0.883635 0.322637 0.000000
0.905943 0.330480 0.000000
0.926604 0.337743 0.000000
0.945861 0.344244 0.000000
0.964050 0.350652 0.000000
0.981323 0.357092 0.000000
0.997650 0.364263 0.000000
1.000000 0.372625 0.000000
1.000000 0.384009 0.072206
0.108705 0.117098 0.122560
0.108675 0.117342 0.122560
0.109712 0.117617 0.122499
0.114687 0.118563 0.122683
0.121126 0.119234 0.122866
0.128847 0.120394 0.123140
0.139315 0.121828 0.123079
0.152987 0.123964 0.123049
0.171145 0.126955 0.122713
0.195590 0.131289 0.122072
0.229709 0.137819 0.120455
0.276890 0.147860 0.116976
0.340429 0.162509 0.110780
0.415961 0.181765 0.099947
0.494728 0.203037 0.082918
0.566918 0.223362 0.056794
0.627832 0.241550 0.000000
0.679194 0.257328 0.000000
0.725002 0.272160 0.000000
0.764492 0.285252 0.000000
0.799680 0.296880 0.000000
0.830808 0.307500 0.000000
0.858396 0.316777 0.000000
0.883024 0.324773 0.000000
0.905455 0.332433 0.000000
0.926055 0.339513 0.000000
0.945403 0.346044 0.000000
0.963653 0.352270 0.000000
0.980957 0.358648 0.000000
0.997314 0.365728 0.000000
1.000000 0.373968 0.000000
1.000000 0.385138 0.071351
0.108919 0.120485 0.122683
0.108583 0.120974 0.122652
0.110872 0.121035 0.122957
0.115206 0.121218 0.123049
0.121584 0.122286 0.122988
0.129732 0.123354 0.123232
0.140047 0.125154 0.123171
0.153964 0.127382 0.123110
0.172335 0.130556 0.122530
0.197330 0.135317 0.121798
0.231724 0.142855 0.120058
0.279637 0.153872 0.116304
0.343694 0.169986 0.109468
0.419135 0.190188 0.098024
0.497200 0.211582 0.080568
0.568688 0.231968 0.050080
0.628992 0.249577 0.000000
0.680140 0.265354 0.000000
0.725246 0.279393 0.000000
0.764157 0.291783 0.000000
0.798886 0.303075 0.000000
0.829892 0.313085 0.000000
0.857542 0.321935 0.000000
0.882414 0.330022 0.000000
0.905089 0.337285 0.000000
0.925933 0.343877 0.000000
0.945434 0.350195 0.000000
0.963745 0.356329 0.000000
0.981048 0.362554 0.000000
0.997345 0.369268 0.000000
1.000000 0.377386 0.000000
1.000000 0.388251 0.072419
0.108553 0.125277 0.122866
0.109560 0.125551 0.123018
0.111910 0.125399 0.123140
0.116060 0.125765 0.123598
0.121889 0.125673 0.123445
0.130617 0.127626 0.123232
0.141573 0.129793 0.123293
0.155795 0.132601 0.122957
0.174441 0.136233 0.122499
0.199863 0.141817 0.121431
0.234897 0.150454 0.119265
0.283696 0.163027 0.115328
0.348119 0.180880 0.107851
0.423743 0.202274 0.095491
0.501427 0.224521 0.076570
0.572045 0.245182 0.035401
0.631739 0.262547 0.000000
0.683070 0.277928 0.000000
0.727230 0.291081 0.000000
0.765499 0.302708 0.000000
0.799649 0.312932 0.000000
0.830289 0.322118 0.000000
0.857694 0.330388 0.000000
0.882506 0.337804 0.000000
0.905119 0.344671 0.000000
0.925963 0.350866 0.000000
0.945373 0.356817 0.000000
0.963684 0.362554 0.000000
0.980926 0.368505 0.000000
0.997192 0.374792 0.000000
1.000000 0.382513 0.000000
1.000000 0.393164 0.074525
0.109133 0.130495 0.123171
0.110964 0.130434 0.123323
0.112764 0.130373 0.123476
0.116915 0.130343 0.124117
0.123110 0.131716 0.124025
0.130465 0.131868 0.124025
0.143282 0.135286 0.123507
0.158083 0.138888 0.123079
0.177920 0.144289 0.122164
0.204196 0.151125 0.120851
0.240696 0.161257 0.118288
0.290806 0.176089 0.113466
0.356390 0.196017 0.104921
0.432197 0.219028 0.091005
0.508934 0.242161 0.069459
0.578210 0.262455 0.013642
0.636500 0.279332 0.000000
0.687617 0.293797 0.000000
0.730495 0.306310 0.000000
0.768002 0.316747 0.000000
0.801846 0.326390 0.000000
0.832090 0.334600 0.000000
0.869383 0.346288 0.000000
0.892821 0.352789 0.000000
0.914092 0.358526 0.000000
0.933745 0.363775 0.000000
0.952117 0.368933 0.000000
0.969390 0.373968 0.000000
0.985779 0.379248 0.000000
1.000000 0.385168 0.000000
1.000000 0.392798 0.000000
1.000000 0.403632 0.097353
0.111269 0.136904 0.123476
0.112795 0.136873 0.123629
0.114778 0.136965 0.123781
0.118837 0.136934 0.124422
0.124910 0.138216 0.124544
0.133547 0.140291 0.124300
0.143526 0.140780 0.124117
0.161959 0.146761 0.122927
0.182742 0.153109 0.121828
0.211643 0.162936 0.119753
0.252110 0.177157 0.116152
0.306157 0.195041 0.109957
0.374212 0.217716 0.099611
0.450233 0.242527 0.082643
0.524956 0.265782 0.052644
0.590509 0.285313 0.000000
0.646448 0.300999 0.000000
0.696773 0.314733 0.000000
0.738247 0.325872 0.000000
0.775174 0.335241 0.000000
0.808652 0.343877 0.000000
0.839078 0.351568 0.000000
0.866361 0.358343 0.000000
0.890959 0.364599 0.000000
0.913115 0.369940 0.000000
0.933165 0.374853 0.000000
0.951751 0.379583 0.000000
0.969055 0.383948 0.000000
0.985412 0.388678 0.000000
1.000000 0.394049 0.000000
1.000000 0.401190 0.000000
1.000000 0.411597 0.099214
0.114199 0.145083 0.123751
0.115450 0.145083 0.123720
0.117586 0.145144 0.124056
0.121553 0.145296 0.124514
0.127504 0.145968 0.124849
0.136080 0.148379 0.124544
0.147707 0.151797 0.124025
0.160616 0.152987 0.123842
0.186374 0.162753 0.121736
0.216190 0.173648 0.119173
0.258000 0.189975 0.114961
0.315953 0.212924 0.106813
0.387274 0.240635 0.093324
0.462501 0.266606 0.072755
0.535363 0.290135 0.019745
0.598657 0.308904 0.000000
0.654322 0.324071 0.000000
0.701991 0.336187 0.000000
0.741787 0.345495 0.000000
0.777584 0.353552 0.000000
0.810391 0.360998 0.000000
0.840146 0.367956 0.000000
0.867002 0.374182 0.000000
0.891234 0.379400 0.000000
0.913176 0.383948 0.000000
0.933135 0.388128 0.000000
0.951568 0.392065 0.000000
0.968841 0.395789 0.000000
0.985138 0.399756 0.000000
1.000000 0.404761 0.000000
1.000000 0.411353 0.000000
1.000000 0.421271 0.102998
0.118166 0.155734 0.123690
0.119631 0.155734 0.123659
0.121675 0.155947 0.123964
0.125765 0.155886 0.124239
0.132143 0.156252 0.124788
0.140475 0.159091 0.124422
0.152346 0.162875 0.123812
0.166995 0.167056 0.123171
0.184848 0.170169 0.122469
0.222446 0.186801 0.118227
0.265751 0.205112 0.113283
0.324804 0.230259 0.103853
0.397528 0.260655 0.087831
0.475929 0.291783 0.059541
0.548425 0.317662 0.000000
0.609613 0.335271 0.000000
0.663355 0.349401 0.000000
0.708461 0.359869 0.000000
0.746639 0.367437 0.000000
0.781338 0.374304 0.000000
0.813230 0.380804 0.000000
0.842222 0.386572 0.000000
0.868498 0.391669 0.000000
0.892332 0.396460 0.000000
0.913939 0.400031 0.000000
0.933654 0.403174 0.000000
0.951904 0.406470 0.000000
0.968994 0.409461 0.000000
0.985168 0.412818 0.000000
1.000000 0.417151 0.000000
1.000000 0.423194 0.000000
1.000000 0.432624 0.108461
0.122957 0.169741 0.123476
0.124544 0.169833 0.123629
0.126497 0.170047 0.123751
0.131258 0.170016 0.123995
0.137758 0.170321 0.124514
0.146700 0.172580 0.124361
0.158877 0.176974 0.123568
0.174868 0.182773 0.122621
0.193179 0.188235 0.121279
0.219608 0.195468 0.119326
0.274296 0.222049 0.111116
0.334874 0.249577 0.100282
0.407477 0.281254 0.082033
0.484596 0.312840 0.039033
0.557092 0.340398 0.000000
0.621546 0.362860 0.000000
0.673884 0.377173 0.000000
0.716426 0.385748 0.000000
0.753109 0.392370 0.000000
0.786496 0.397772 0.000000
0.817136 0.402716 0.000000
0.844907 0.407080 0.000000
0.870237 0.411048 0.000000
0.893339 0.414618 0.000000
0.914458 0.417609 0.000000
0.933898 0.419898 0.000000
0.952026 0.422187 0.000000
0.969085 0.424475 0.000000
0.985199 0.427314 0.000000
1.000000 0.431037 0.000000
1.000000 0.436591 0.000000
1.000000 0.445808 0.117769
0.128664 0.188144 0.123079
0.130404 0.188205 0.123018
0.132631 0.188449 0.123293
0.137514 0.188663 0.123507
0.144839 0.189029 0.123781
0.154299 0.190066 0.124086
0.167819 0.195468 0.123049
0.184939 0.202304 0.121736
0.207065 0.211032 0.119539
0.230808 0.218448 0.117586
0.270390 0.232364 0.113039
0.346746 0.271489 0.096101
0.419562 0.304540 0.073671
0.495338 0.336645 0.007019
0.567620 0.364630 0.000000
0.628687 0.385687 0.000000
0.680476 0.401343 0.000000
0.723690 0.412970 0.000000
0.758938 0.418311 0.000000
0.791104 0.422278 0.000000
0.820706 0.426032 0.000000
0.847776 0.429145 0.000000
0.872496 0.432044 0.000000
0.895048 0.434577 0.000000
0.915801 0.436805 0.000000
0.934905 0.438117 0.000000
0.952728 0.439643 0.000000
0.969512 0.441199 0.000000
0.985382 0.443153 0.000000
1.000000 0.446204 0.000000
1.000000 0.451362 0.000000
1.000000 0.460121 0.125704
0.136141 0.212619 0.121523
0.138125 0.212741 0.121645
0.140841 0.212894 0.121736
0.146365 0.213169 0.121706
0.154849 0.213840 0.122072
0.165438 0.214603 0.122316
0.179690 0.219303 0.121767
0.198795 0.227695 0.119661
0.223301 0.238193 0.116854
0.254032 0.251621 0.112612
0.285191 0.261601 0.108400
0.341924 0.284245 0.097780
0.447974 0.340154 0.049165
0.525811 0.373968 0.000000
0.593103 0.399420 0.000000
0.650202 0.417914 0.000000
0.698207 0.431342 0.000000
0.738308 0.440650 0.000000
0.773465 0.448005 0.000000
0.805081 0.453529 0.000000
0.832364 0.455024 0.000000
0.857420 0.456306 0.000000
0.880339 0.457435 0.000000
0.901488 0.458350 0.000000
0.921111 0.459327 0.000000
0.939300 0.459815 0.000000
0.956390 0.460060 0.000000
0.972473 0.460761 0.000000
0.987671 0.461830 0.000000
1.000000 0.464210 0.000000
1.000000 0.468971 0.043519
1.000000 0.477729 0.143801
0.147494 0.247532 0.117647
0.149874 0.247562 0.117769
0.152895 0.247745 0.117830
0.159426 0.248020 0.117739
0.169070 0.248539 0.118044
0.181308 0.249058 0.118441
0.196445 0.251591 0.118227
0.218051 0.261387 0.115236
0.245609 0.274266 0.111208
0.280156 0.290135 0.104921
0.322911 0.309667 0.095521
0.363592 0.322850 0.086854
0.438666 0.353765 0.057832
0.536248 0.401038 0.000000
0.601373 0.425422 0.000000
0.656031 0.442664 0.000000
0.701930 0.454475 0.000000
0.740780 0.462593 0.000000
0.775051 0.468788 0.000000
0.806363 0.474128 0.000000
0.834836 0.478767 0.000000
0.859953 0.480873 0.000000
0.882231 0.480598 0.000000
0.902922 0.480598 0.000000
0.922087 0.480476 0.000000
0.940002 0.480293 0.000000
0.956786 0.479622 0.000000
0.972686 0.479438 0.000000
0.987701 0.479896 0.000000
1.000000 0.481697 0.000000
1.000000 0.485847 0.066316
1.000000 0.494362 0.155184
0.161959 0.289708 0.110597
0.164767 0.289769 0.110475
0.168276 0.289860 0.110506
0.176089 0.290105 0.110536
0.186831 0.290562 0.110750
0.201083 0.291386 0.110903
0.217868 0.292729 0.110903
0.240757 0.301366 0.107973
0.270817 0.315740 0.102083
0.307683 0.332921 0.093141
0.353552 0.354620 0.079225
0.408087 0.379522 0.050843
0.452277 0.390814 0.008392
0.527520 0.417609 0.000000
0.608606 0.452064 0.000000
0.661891 0.468238 0.000000
0.705837 0.478645 0.000000
0.743252 0.485451 0.000000
0.776730 0.490517 0.000000
0.807401 0.494881 0.000000
0.835447 0.498512 0.000000
0.860990 0.501640 0.000000
0.884306 0.504326 0.000000
0.904753 0.503990 0.000000
0.923522 0.502892 0.000000
0.941131 0.501762 0.000000
0.957641 0.500298 0.000000
0.973236 0.499458 0.000000
0.988037 0.499153 0.000000
1.000000 0.500298 0.000000
1.000000 0.504082 0.084627
1.000000 0.512535 0.169528
0.181521 0.341588 0.097322
0.184726 0.341833 0.097292
0.188815 0.341741 0.097353
0.197269 0.341894 0.097292
0.209934 0.342321 0.097322
0.225895 0.343206 0.097169
0.244907 0.344091 0.097169
0.267369 0.348119 0.095521
0.300023 0.363684 0.086458
0.339513 0.382238 0.072908
0.385718 0.403510 0.041505
0.438453 0.426612 0.000000
0.496468 0.450446 0.000000
0.535210 0.453620 0.000000
0.600702 0.470588 0.000000
0.666773 0.493904 0.000000
0.710048 0.503563 0.000000
0.746365 0.509209 0.000000
0.778897 0.513237 0.000000
0.808865 0.516533 0.000000
0.836301 0.519188 0.000000
0.861448 0.521324 0.000000
0.884428 0.523156 0.000000
0.905608 0.524773 0.000000
0.925139 0.526024 0.000000
0.942443 0.524285 0.000000
0.958740 0.522026 0.000000
0.974182 0.520470 0.000000
0.988769 0.519646 0.000000
1.000000 0.520439 0.000000
1.000000 0.524102 0.107271
1.000000 0.532891 0.189181
0.204929 0.399145 0.074372
0.208377 0.399237 0.074342
0.212467 0.399390 0.074250
0.222232 0.399664 0.073823
0.236271 0.400061 0.073548
0.254429 0.401404 0.073152
0.275731 0.403388 0.071748
0.300267 0.405676 0.070527
0.332616 0.417670 0.057099
0.371984 0.434974 0.010437
0.416846 0.453742 0.000000
0.466194 0.473304 0.000000
0.518517 0.492653 0.000000
0.571740 0.509789 0.000000
0.602472 0.504234 0.000000
0.658289 0.513054 0.000000
0.712459 0.527886 0.000000
0.749203 0.533440 0.000000
0.781460 0.536584 0.000000
0.810910 0.539025 0.000000
0.837858 0.540856 0.000000
0.862669 0.542107 0.000000
0.885405 0.543114 0.000000
0.906340 0.543999 0.000000
0.925750 0.544732 0.000000
0.943908 0.545647 0.000000
0.960388 0.544915 0.000000
0.975463 0.542504 0.000000
0.989654 0.541100 0.000000
1.000000 0.541375 0.000000
1.000000 0.544701 0.128511
1.000000 0.553643 0.208499
0.230716 0.459602 0.000000
0.234592 0.459632 0.000000
0.239200 0.459693 0.000000
0.249577 0.460121 0.000000
0.264530 0.460578 0.000000
0.283909 0.461402 0.000000
0.306279 0.462409 0.000000
0.331609 0.463691 0.000000
0.360998 0.468330 0.000000
0.398871 0.483040 0.000000
0.441047 0.498665 0.000000
0.486519 0.514611 0.000000
0.534752 0.530541 0.000000
0.584985 0.545922 0.000000
0.631037 0.555932 0.000000
0.657313 0.545586 0.000000
0.704921 0.548058 0.000000
0.750942 0.557183 0.000000
0.783749 0.560418 0.000000
0.812558 0.561822 0.000000
0.838987 0.562676 0.000000
0.863310 0.563012 0.000000
0.885740 0.563226 0.000000
0.906493 0.563287 0.000000
0.925780 0.563378 0.000000
0.943786 0.563592 0.000000
0.960571 0.563867 0.000000
0.976257 0.564477 0.000000
0.990204 0.562921 0.000000
1.000000 0.562890 0.036103
1.000000 0.566125 0.150698
1.000000 0.575280 0.229374
0.256382 0.516320 0.000000
0.260594 0.516564 0.000000
0.269322 0.525383 0.000000
0.279759 0.525353 0.000000
0.295628 0.525414 0.000000
0.315251 0.525414 0.000000
0.338567 0.525322 0.000000
0.364508 0.525475 0.000000
0.393103 0.525750 0.000000
0.428016 0.534691 0.000000
0.467170 0.546960 0.000000
0.509453 0.559503 0.000000
0.553918 0.571954 0.000000
0.600214 0.584375 0.000000
0.647578 0.596094 0.000000
0.686305 0.599329 0.000000
0.708248 0.584619 0.000000
0.749416 0.582177 0.000000
0.788540 0.586603 0.000000
0.817380 0.587396 0.000000
0.842863 0.586847 0.000000
0.866392 0.586114 0.000000
0.888151 0.585168 0.000000
0.908293 0.584375 0.000000
0.926970 0.583429 0.000000
0.944488 0.582818 0.000000
0.960815 0.582269 0.000000
0.976104 0.582330 0.000000
0.990356 0.583368 0.000000
1.000000 0.584985 0.084413
1.000000 0.588251 0.173342
1.000000 0.597528 0.251560
0.280888 0.568139 0.000000
0.284886 0.569207 0.000000
0.290654 0.570336 0.000000
0.301396 0.571283 0.000000
0.317052 0.571740 0.000000
0.336706 0.571801 0.000000
0.359960 0.571588 0.000000
0.385840 0.571069 0.000000
0.414099 0.570794 0.000000
0.445289 0.573144 0.000000
0.482216 0.583124 0.000000
0.521660 0.593561 0.000000
0.563226 0.603876 0.000000
0.606226 0.613947 0.000000
0.650019 0.623621 0.000000
0.694362 0.632837 0.000000
0.726925 0.630549 0.000000
0.746487 0.613886 0.000000
0.783658 0.609064 0.000000
0.817777 0.610071 0.000000
0.843778 0.609369 0.000000
0.867063 0.607904 0.000000
0.888609 0.606256 0.000000
0.908568 0.604608 0.000000
0.927123 0.603113 0.000000
0.944518 0.601892 0.000000
0.960754 0.600885 0.000000
0.975860 0.600580 0.000000
0.989868 0.601465 0.000000
1.000000 0.604425 0.120027
1.000000 0.610986 0.198093
1.000000 0.620447 0.275181
0.301732 0.611261 0.000000
0.305669 0.612177 0.000000
0.311040 0.613214 0.000000
0.321538 0.613733 0.000000
0.336706 0.614069 0.000000
0.355993 0.613825 0.000000
0.378393 0.613245 0.000000
0.403937 0.612543 0.000000
0.431708 0.611749 0.000000
0.461219 0.610956 0.000000
0.495369 0.617334 0.000000
0.532403 0.625727 0.000000
0.571038 0.634058 0.000000
0.611292 0.642329 0.000000
0.652491 0.650477 0.000000
0.694453 0.658289 0.000000
0.736690 0.665980 0.000000
0.763729 0.659205 0.000000
0.781430 0.641047 0.000000
0.814755 0.633875 0.000000
0.844450 0.632105 0.000000
0.867857 0.630152 0.000000
0.889250 0.627771 0.000000
0.908995 0.625513 0.000000
0.927337 0.623346 0.000000
0.944549 0.621424 0.000000
0.960571 0.619959 0.000000
0.975463 0.619287 0.000000
0.989227 0.619959 0.050752
1.000000 0.623102 0.152193
1.000000 0.630030 0.226047
1.000000 0.642573 0.300175
0.320500 0.650050 0.000000
0.324620 0.650752 0.000000
0.329686 0.651453 0.000000
0.339727 0.651850 0.000000
0.354253 0.651942 0.000000
0.373053 0.651484 0.000000
0.394720 0.650690 0.000000
0.419501 0.649592 0.000000
0.446357 0.648585 0.000000
0.475471 0.647333 0.000000
0.506493 0.648646 0.000000
0.541253 0.655482 0.000000
0.577813 0.662379 0.000000
0.615656 0.669459 0.000000
0.654871 0.676387 0.000000
0.694728 0.683375 0.000000
0.735134 0.690242 0.000000
0.775814 0.696986 0.000000
0.797971 0.686030 0.000000
0.814267 0.667048 0.000000
0.844358 0.658259 0.000000
0.870512 0.654353 0.000000
0.891600 0.651087 0.000000
0.911192 0.648127 0.000000
0.929412 0.645350 0.000000
0.946319 0.642939 0.000000
0.962036 0.640986 0.000000
0.976501 0.640192 0.000000
0.989746 0.640986 0.118990
1.000000 0.644587 0.193790
1.000000 0.652186 0.263493
1.000000 0.665431 0.335882
0.340154 0.687678 0.000000
0.343450 0.687984 0.000000
0.347784 0.688075 0.000000
0.356939 0.688045 0.000000
0.371038 0.687648 0.000000
0.389136 0.686854 0.000000
0.409918 0.686000 0.000000
0.434028 0.684871 0.000000
0.460456 0.683772 0.000000
0.488685 0.682551 0.000000
0.518456 0.681300 0.000000
0.551232 0.685817 0.000000
0.585901 0.691707 0.000000
0.621973 0.697627 0.000000
0.658930 0.703487 0.000000
0.696712 0.709316 0.000000
0.735012 0.714961 0.000000
0.773404 0.720546 0.000000
0.811978 0.726009 0.000000
0.828885 0.710750 0.000000
0.843565 0.690791 0.000000
0.869993 0.680262 0.000000
0.892851 0.674159 0.000000
0.911498 0.669703 0.000000
0.929473 0.666194 0.000000
0.946258 0.663111 0.000000
0.961700 0.660883 0.000000
0.975921 0.659876 0.067140
0.988769 0.660792 0.156222
0.999969 0.664576 0.225193
1.000000 0.672419 0.292790
1.000000 0.685725 0.363775
0.356939 0.719356 0.000000
0.359655 0.719631 0.000000
0.363897 0.719814 0.000000
0.372778 0.719600 0.000000
0.385962 0.719203 0.000000
0.403326 0.718379 0.000000
0.423255 0.717403 0.000000
0.446357 0.716213 0.000000
0.471870 0.714992 0.000000
0.499489 0.713558 0.000000
0.528466 0.712093 0.000000
0.558923 0.712825 0.000000
0.591852 0.717708 0.000000
0.626001 0.722713 0.000000
0.661128 0.727687 0.000000
0.697139 0.732601 0.000000
0.733547 0.737453 0.000000
0.770169 0.742245 0.000000
0.806851 0.746883 0.000000
0.842618 0.750668 0.000000
0.855772 0.732509 0.000000
0.869688 0.712612 0.000000
0.892943 0.700710 0.000000
0.913298 0.693233 0.000000
0.928985 0.686915 0.000000
0.945617 0.683253 0.000000
0.960967 0.680598 0.000000
0.974853 0.679438 0.115450
0.987366 0.680354 0.188144
0.998138 0.684352 0.254459
1.000000 0.692439 0.321019
1.000000 0.705501 0.390051
0.374121 0.751095 0.000000
0.376867 0.751339 0.000000
0.380774 0.751400 0.000000
0.389258 0.751064 0.000000
0.401556 0.750484 0.000000
0.417762 0.749508 0.000000
0.437201 0.748318 0.000000
0.459205 0.746914 0.000000
0.483864 0.745327 0.000000
0.510307 0.743648 0.000000
0.538170 0.741817 0.000000
0.567102 0.739925 0.000000
0.598108 0.742977 0.000000
0.630335 0.746883 0.000000
0.663416 0.750790 0.000000
0.697230 0.754665 0.000000
0.731563 0.758511 0.000000
0.766415 0.762356 0.000000
0.801419 0.766262 0.000000
0.836362 0.770230 0.000000
0.867155 0.770352 0.000000
0.879179 0.751797 0.000000
0.892180 0.732113 0.000000
0.912627 0.719142 0.000000
0.930602 0.710628 0.000000
0.945495 0.704341 0.000000
0.960388 0.701381 0.086030
0.973968 0.699825 0.157198
0.986023 0.700649 0.221592
0.996338 0.704677 0.285161
1.000000 0.712703 0.350134
1.000000 0.725185 0.416571
0.388983 0.777737 0.000000
0.391608 0.777981 0.000000
0.395727 0.777951 0.000000
0.403449 0.777676 0.000000
0.415106 0.777096 0.000000
0.430701 0.776150 0.000000
0.449256 0.775051 0.000000
0.470314 0.773739 0.000000
0.493812 0.772305 0.000000
0.519615 0.770687 0.000000
0.546777 0.768948 0.000000
0.575219 0.767117 0.000000
0.604425 0.767208 0.000000
0.635157 0.770474 0.000000
0.666621 0.773739 0.000000
0.698939 0.776944 0.000000
0.731746 0.780179 0.000000
0.764858 0.783444 0.000000
0.798154 0.786740 0.000000
0.831571 0.790036 0.000000
0.864622 0.793332 0.000000
0.890623 0.789975 0.000000
0.901457 0.771084 0.000000
0.913420 0.751797 0.070039
0.931243 0.738430 0.129641
0.947051 0.729427 0.136568
0.959991 0.722957 0.148287
0.973053 0.721401 0.204227
0.984802 0.721981 0.259190
0.994629 0.725978 0.319554
1.000000 0.733883 0.382513
1.000000 0.745388 0.444862
0.404089 0.803342 0.000000
0.406836 0.803433 0.000000
0.410376 0.803342 0.000000
0.417639 0.802945 0.000000
0.428748 0.802274 0.000000
0.443336 0.801328 0.000000
0.461006 0.800198 0.000000
0.481239 0.798886 0.000000
0.503990 0.797391 0.000000
0.528832 0.795804 0.000000
0.554955 0.794125 0.000000
0.582452 0.792386 0.000000
0.610956 0.790463 0.000000
0.640131 0.792660 0.000000
0.670008 0.795346 0.000000
0.700771 0.798001 0.000000
0.731868 0.800656 0.000000
0.763455 0.803311 0.000000
0.795254 0.806058 0.000000
0.827024 0.808804 0.000000
0.858610 0.811582 0.000000
0.889891 0.814267 0.000000
0.911223 0.807736 0.080201
0.920684 0.789151 0.138888
0.931304 0.770840 0.187137
0.946319 0.758145 0.232090
0.960266 0.749264 0.239933
0.971740 0.742855 0.247898
0.982727 0.743008 0.297429
0.992370 0.746456 0.351904
1.000000 0.753445 0.410224
1.000000 0.763790 0.469032
0.419257 0.826780 0.000000
0.421637 0.826810 0.000000
0.425177 0.826658 0.000000
0.432013 0.826322 0.000000
0.442664 0.825742 0.000000
0.456703 0.825040 0.000000
0.473518 0.824277 0.000000
0.493477 0.823362 0.000000
0.515587 0.822354 0.000000
0.539666 0.821225 0.000000
0.565484 0.819974 0.000000
0.592645 0.818540 0.000000
0.620569 0.816953 0.000000
0.648951 0.816831 0.000000
0.677516 0.819120 0.000000
0.706630 0.821317 0.034302
0.736233 0.823453 0.066224
0.766140 0.825589 0.083711
0.796262 0.827787 0.102205
0.826444 0.829984 0.119539
0.856291 0.832212 0.137911
0.885527 0.834409 0.164767
0.914061 0.836515 0.192782
0.930602 0.827604 0.227359
0.938445 0.809873 0.263249
0.947601 0.793179 0.298009
0.959930 0.781735 0.335637
0.971923 0.773434 0.343053
0.981781 0.767605 0.350805
0.990387 0.769711 0.396551
0.997772 0.775448 0.447364
1.000000 0.784115 0.499733
0.437446 0.851408 0.000000
0.439796 0.851347 0.000000
0.442786 0.851225 0.000000
0.449317 0.850797 0.000000
0.459327 0.850187 0.000000
0.472602 0.849332 0.000000
0.488594 0.848417 0.000000
0.507164 0.847318 0.000000
0.528222 0.846098 0.000000
0.551446 0.844724 0.000000
0.576165 0.843229 0.000000
0.602197 0.841581 0.021851
0.629084 0.839750 0.089235
0.656764 0.837766 0.122347
0.683680 0.839231 0.134157
