其他预设/【233】日式怀旧街道调色预设208款/1.3D LUT预设（视频调色-PR-AE-PS-FCPX-达芬奇用）/2.富士胶片风-日式城市街拍预设/JA – Cityscape Pop 4 (Classic Chrome).cube
# Created by Adobe Lightroom plugin Export LUT (1.17.0)
# www.johnrellis.com/lightroom/exportlut.htm
# Preset: JA – Cityscape Pop 4 (Classic Chrome)
# Color profile: /Library/Application Support/Adobe/Color/Profiles/Recommended/AdobeRGB1998.icc
LUT_3D_SIZE 5
DOMAIN_MIN 0.000000 0.000000 0.000000
DOMAIN_MAX 0.903226 0.903226 0.903226
0.079744 0.086580 0.090974
0.120424 0.080537 0.091035
0.409461 0.000000 0.066224
0.778256 0.000000 0.000000
0.978302 0.000000 0.000000
0.077790 0.115633 0.092134
0.129274 0.125032 0.089754
0.421057 0.187442 0.011627
0.781857 0.212131 0.000000
0.980133 0.170291 0.000000
0.069368 0.323278 0.036866
0.195102 0.339635 0.000000
0.551904 0.469886 0.000000
0.806119 0.455268 0.000000
0.978058 0.403357 0.000000
0.003204 0.655695 0.000000
0.253544 0.663905 0.000000
0.549340 0.705013 0.000000
0.880003 0.735744 0.000000
0.985626 0.618402 0.000000
0.156100 0.889738 0.000000
0.290990 0.889769 0.000000
0.527153 0.886595 0.000000
0.791318 0.895232 0.000000
0.984649 0.849546 0.357610
0.077699 0.089631 0.130404
0.117311 0.090578 0.134493
0.422248 0.000000 0.116091
0.775570 0.000000 0.000000
0.975677 0.034211 0.000000
0.072023 0.125734 0.138949
0.130068 0.140566 0.147280
0.436591 0.159030 0.106477
0.780240 0.201480 0.000000
0.976196 0.209354 0.000000
0.000000 0.341741 0.182986
0.136965 0.375525 0.135348
0.540520 0.466499 0.077272
0.798306 0.443915 0.000000
0.977844 0.413733 0.000000
0.000000 0.667292 0.137362
0.163546 0.677363 0.092683
0.522698 0.705837 0.000000
0.876249 0.739376 0.000000
0.986542 0.621820 0.000000
0.086915 0.890929 0.202304
0.264866 0.890959 0.194766
0.518151 0.890898 0.165194
0.790280 0.896666 0.170596
0.984924 0.851286 0.365759
0.000000 0.103304 0.354772
0.149020 0.103853 0.385046
0.388464 0.033478 0.420294
0.702113 0.000000 0.403449
0.966430 0.180331 0.401892
0.000000 0.145968 0.355901
0.118990 0.171023 0.396185
0.412757 0.183566 0.442115
0.736080 0.087770 0.411810
0.968017 0.253361 0.392309
0.000000 0.365911 0.411810
0.000000 0.389441 0.431708
0.482551 0.488991 0.496162
0.790951 0.465675 0.444373
0.970855 0.419165 0.359106
0.000000 0.664546 0.476631
0.000000 0.677668 0.473182
0.489937 0.715908 0.484993
0.841215 0.763851 0.561364
0.970855 0.636072 0.365637
0.160250 0.884672 0.503105
0.306828 0.885496 0.507897
0.529442 0.887694 0.505821
0.772824 0.890654 0.520989
0.963592 0.869078 0.597162
0.000000 0.155123 0.634119
0.170993 0.174929 0.651301
0.429816 0.219913 0.698177
0.693904 0.265660 0.704524
0.876646 0.298131 0.642267
0.000000 0.188296 0.629236
0.134524 0.230106 0.648615
0.436194 0.303502 0.696315
0.700069 0.358221 0.708095
0.883330 0.368139 0.649958
0.000000 0.359960 0.633661
0.000000 0.361364 0.640681
0.454780 0.475837 0.685939
0.723415 0.554376 0.723201
0.907012 0.558984 0.686427
0.000000 0.620783 0.677485
0.000000 0.630945 0.682795
0.462470 0.674434 0.705867
0.776364 0.766506 0.764462
0.926360 0.747189 0.732570
0.210300 0.877806 0.728664
0.320348 0.878202 0.727932
0.540215 0.879545 0.728298
0.767422 0.882383 0.747463
0.932403 0.894591 0.813291
0.326177 0.389563 0.861875
0.411261 0.430030 0.863218
0.553979 0.482612 0.870237
0.730709 0.576287 0.880888
0.874083 0.597589 0.874632
0.291752 0.395392 0.859739
0.396368 0.443366 0.860929
0.562005 0.513664 0.867796
0.735012 0.601221 0.878904
0.874632 0.623896 0.874235
0.082246 0.421729 0.854826
0.223880 0.433509 0.856077
0.551965 0.571923 0.861112
0.745205 0.667384 0.874388
0.878813 0.701595 0.875364
0.244327 0.624323 0.863798
0.307744 0.626703 0.863005
0.464820 0.636561 0.861448
0.736294 0.735348 0.866300
0.887724 0.801694 0.880125
0.393835 0.820951 0.874662
0.436164 0.823545 0.874296
0.565759 0.834379 0.874113
0.743252 0.855406 0.874540
0.906889 0.898741 0.896178
