其他预设/【233】日式怀旧街道调色预设208款/1.3D LUT预设（视频调色-PR-AE-PS-FCPX-达芬奇用）/2.富士胶片风-日式城市街拍预设/JA – Night Pop 3 (Classic Chrome).cube
# Created by Adobe Lightroom plugin Export LUT (1.17.0)
# www.johnrellis.com/lightroom/exportlut.htm
# Preset: JA – Night Pop 3 (Classic Chrome)
# Color profile: /Library/Application Support/Adobe/Color/Profiles/Recommended/AdobeRGB1998.icc
LUT_3D_SIZE 5
DOMAIN_MIN 0.000000 0.000000 0.000000
DOMAIN_MAX 0.903226 0.903226 0.903226
0.066712 0.081422 0.094789
0.364050 0.000000 0.082612
0.896574 0.000000 0.000000
1.000000 0.000000 0.000000
1.000000 0.000000 0.000000
0.000000 0.262333 0.082582
0.194247 0.201755 0.123110
0.836637 0.324743 0.075837
1.000000 0.119387 0.000000
1.000000 0.000000 0.000000
0.000000 0.754086 0.137972
0.236454 0.742611 0.000000
0.656184 0.610803 0.282811
0.968719 0.741665 0.672816
1.000000 0.697688 0.660945
0.000000 1.000000 0.170779
0.000000 0.999725 0.000000
0.629603 0.961669 0.000000
0.922301 0.847868 0.604211
1.000000 0.919768 0.859586
0.000000 1.000000 0.000000
0.000000 1.000000 0.000000
0.331212 1.000000 0.000000
0.856016 1.000000 0.549004
1.000000 0.974060 0.839078
0.000000 0.113619 0.320073
0.228336 0.000000 0.285863
0.832151 0.000000 0.236912
1.000000 0.000000 0.000000
1.000000 0.000000 0.000000
0.000000 0.261601 0.312016
0.182742 0.218631 0.252964
0.821469 0.162875 0.155062
1.000000 0.000000 0.000000
1.000000 0.000000 0.000000
0.000000 0.738369 0.464393
0.000000 0.728328 0.306676
0.610132 0.583337 0.366308
0.957610 0.709255 0.637903
1.000000 0.654383 0.619379
0.000000 0.997650 0.431189
0.000000 0.996582 0.337682
0.598627 0.961608 0.206058
0.913970 0.840604 0.594598
1.000000 0.917357 0.860075
0.000000 1.000000 0.307042
0.000000 1.000000 0.221714
0.261082 1.000000 0.000000
0.844327 1.000000 0.533349
1.000000 0.974273 0.838712
0.000000 0.251865 0.784298
0.000000 0.000000 0.772000
0.710323 0.000000 0.722286
1.000000 0.000000 0.640894
1.000000 0.000000 0.448402
0.000000 0.467445 0.785702
0.000000 0.334600 0.771145
0.698909 0.000000 0.716701
1.000000 0.000000 0.622553
1.000000 0.000000 0.378119
0.000000 0.729366 0.771237
0.000000 0.723537 0.760983
0.596674 0.619776 0.666346
1.000000 0.601709 0.648920
1.000000 0.376623 0.413764
0.000000 0.990051 0.735866
0.000000 0.989166 0.713680
0.603601 0.944945 0.711727
0.895689 0.845640 0.727443
1.000000 0.915312 0.871885
0.000000 1.000000 0.590875
0.000000 1.000000 0.573968
0.328130 1.000000 0.604364
0.813321 1.000000 0.622156
1.000000 0.974823 0.837888
0.000000 0.317357 0.961334
0.000000 0.317052 0.960601
0.542779 0.000000 0.942962
0.981994 0.000000 0.913756
1.000000 0.000000 0.792569
0.000000 0.388495 0.959991
0.000000 0.405982 0.958587
0.461830 0.000000 0.944640
0.972412 0.000000 0.908476
1.000000 0.000000 0.794430
0.000000 0.682765 0.952758
0.000000 0.689540 0.951019
0.414984 0.641138 0.937163
0.936950 0.558007 0.893553
1.000000 0.573571 0.809598
0.000000 0.920684 0.942718
0.000000 0.926146 0.939879
0.176638 0.923919 0.929778
0.877317 0.857115 0.864500
1.000000 0.835019 0.840940
0.000000 1.000000 0.848447
0.000000 1.000000 0.839933
0.000000 1.000000 0.794583
0.874784 1.000000 0.881346
1.000000 0.982208 0.906310
0.000000 0.340429 1.000000
0.000000 0.340368 1.000000
0.000000 0.000000 1.000000
0.777462 0.000000 1.000000
1.000000 0.000000 1.000000
0.000000 0.340368 1.000000
0.000000 0.340307 1.000000
0.000000 0.000000 1.000000
0.755367 0.000000 1.000000
1.000000 0.000000 1.000000
0.000000 0.500175 1.000000
0.000000 0.495979 1.000000
0.000000 0.461433 1.000000
0.672389 0.313878 1.000000
1.000000 0.379431 1.000000
0.000000 0.752468 1.000000
0.000000 0.752285 1.000000
0.000000 0.747341 1.000000
0.753231 0.827848 1.000000
1.000000 0.826749 0.997772
0.000000 0.969757 1.000000
0.000000 0.972930 1.000000
0.000000 0.985657 1.000000
0.395056 0.997986 1.000000
0.994507 0.991424 0.990845
