其他预设/【233】日式怀旧街道调色预设208款/1.3D LUT预设（视频调色-PR-AE-PS-FCPX-达芬奇用）/2.富士胶片风-日式城市街拍预设/JA – Controlled Contrast 4 (Classic Chrome).cube
# Created by Adobe Lightroom plugin Export LUT (1.17.0)
# www.johnrellis.com/lightroom/exportlut.htm
# Preset: JA – Controlled Contrast 4 (Classic Chrome)
# Color profile: /Library/Application Support/Adobe/Color/Profiles/Recommended/AdobeRGB1998.icc
LUT_3D_SIZE 8
DOMAIN_MIN 0.000000 0.000000 0.000000
DOMAIN_MAX 0.903226 0.903226 0.903226
0.000000 0.000000 0.000000
0.042176 0.005615 0.009247
0.185489 0.000000 0.061769
0.476081 0.000000 0.019501
0.674952 0.000000 0.001648
0.796445 0.000000 0.000000
0.909026 0.000000 0.000000
1.000000 0.000000 0.144167
0.012207 0.030518 0.007996
0.036805 0.033478 0.008209
0.183780 0.000000 0.060975
0.474281 0.000000 0.000000
0.674861 0.000000 0.000000
0.796231 0.000000 0.000000
0.908812 0.000000 0.000000
1.000000 0.000000 0.140841
0.070924 0.155520 0.056641
0.070954 0.156466 0.057038
0.162814 0.145022 0.033661
0.476692 0.202274 0.000000
0.676204 0.103395 0.000000
0.797147 0.000000 0.000000
0.910430 0.000000 0.000000
1.000000 0.000000 0.129976
0.000000 0.415229 0.000000
0.000000 0.415961 0.000000
0.295048 0.455116 0.000000
0.408637 0.366278 0.000000
0.665614 0.392279 0.000000
0.798856 0.320195 0.000000
0.912352 0.232761 0.000000
1.000000 0.160128 0.104433
0.000000 0.620844 0.000000
0.000000 0.620935 0.000000
0.279454 0.641901 0.000000
0.501671 0.639673 0.000000
0.599634 0.546441 0.000000
0.762936 0.510277 0.000000
0.914549 0.460883 0.000000
1.000000 0.410620 0.015656
0.000000 0.745174 0.000000
0.000000 0.745602 0.000000
0.235599 0.758724 0.000000
0.460639 0.771633 0.000000
0.629572 0.745418 0.000000
0.723903 0.664759 0.000000
0.860960 0.616541 0.000000
1.000000 0.590875 0.000000
0.083803 0.858213 0.000000
0.086122 0.858610 0.000000
0.226749 0.867765 0.000000
0.413855 0.883787 0.000000
0.613977 0.892149 0.000000
0.750484 0.851774 0.000000
0.847898 0.781399 0.000000
0.977417 0.732845 0.000000
0.366766 0.964630 0.338354
0.367681 0.964935 0.339361
0.382238 0.968017 0.326818
0.447608 0.978393 0.217166
0.589563 0.979919 0.166567
0.748318 0.973541 0.199008
0.866911 0.950011 0.000000
0.993378 0.916960 0.000000
0.030793 0.033906 0.055299
0.059907 0.016510 0.053254
0.185824 0.000000 0.068269
0.472114 0.000000 0.060670
0.674861 0.000000 0.000000
0.796109 0.000000 0.000000
0.908782 0.000000 0.000000
1.000000 0.000000 0.143862
0.026947 0.049409 0.044953
0.057343 0.050446 0.046113
0.179812 0.040833 0.068360
0.473701 0.000000 0.000000
0.675227 0.000000 0.000000
0.796139 0.000000 0.000000
0.908782 0.000000 0.000000
1.000000 0.000000 0.140597
0.070863 0.159060 0.056611
0.083223 0.158907 0.061952
0.167758 0.147890 0.035279
0.479591 0.220371 0.000000
0.676539 0.147585 0.000000
0.797116 0.000000 0.000000
0.910124 0.000000 0.000000
1.000000 0.000000 0.129793
0.000000 0.418494 0.000000
0.032410 0.425116 0.000000
0.316838 0.460853 0.000000
0.411994 0.367926 0.000000
0.663722 0.396002 0.000000
0.798611 0.326909 0.000000
0.912108 0.238437 0.000000
1.000000 0.159426 0.104494
0.000000 0.621851 0.000000
0.000000 0.624048 0.000000
0.299443 0.643580 0.000000
0.506462 0.638270 0.000000
0.600336 0.546044 0.000000
0.762814 0.511467 0.000000
0.914885 0.462287 0.000000
1.000000 0.409796 0.022034
0.000000 0.745449 0.000000
0.000000 0.746273 0.000000
0.250309 0.759945 0.000000
0.467292 0.772183 0.000000
0.631556 0.744991 0.000000
0.724361 0.664454 0.000000
0.861784 0.616999 0.000000
1.000000 0.590356 0.000000
0.084291 0.858274 0.000000
0.085603 0.858579 0.000000
0.231113 0.868162 0.000000
0.416632 0.884001 0.000000
0.615625 0.892424 0.000000
0.751156 0.851804 0.000000
0.848051 0.781125 0.000000
0.978210 0.732692 0.000000
0.367102 0.964721 0.338750
0.368078 0.965118 0.339910
0.381292 0.967987 0.329381
0.446601 0.978393 0.221683
0.588403 0.980346 0.169406
0.747860 0.973907 0.202243
0.866972 0.950225 0.000000
0.993774 0.917021 0.000000
0.069825 0.102998 0.167391
0.076783 0.087037 0.167056
0.172671 0.011536 0.157107
0.381323 0.000000 0.219181
0.632837 0.000000 0.249454
0.771084 0.000000 0.223972
0.895872 0.000000 0.219821
1.000000 0.000000 0.241489
0.075013 0.117952 0.158572
0.095552 0.106538 0.154696
0.162234 0.079530 0.146609
0.385412 0.000000 0.210178
0.633753 0.000000 0.228489
0.772732 0.000000 0.209659
0.896483 0.000000 0.219821
1.000000 0.000000 0.233707
0.078401 0.143404 0.131319
0.101839 0.141024 0.130434
0.173373 0.162875 0.155550
0.413764 0.105348 0.152041
0.642512 0.000000 0.163058
0.777676 0.000000 0.179294
0.899840 0.000000 0.195956
1.000000 0.000000 0.204440
0.000000 0.333593 0.186923
0.000000 0.338781 0.180056
0.195102 0.380285 0.146731
0.375738 0.337530 0.098116
0.649836 0.365576 0.089052
0.783444 0.311803 0.124849
0.905547 0.253056 0.140444
1.000000 0.154025 0.129183
0.000000 0.588830 0.171633
0.000000 0.590906 0.143923
0.233860 0.603082 0.135592
0.481117 0.627680 0.000000
0.584802 0.532341 0.000000
0.760800 0.505119 0.000000
0.913024 0.463264 0.000000
1.000000 0.405432 0.063874
0.000000 0.732876 0.000000
0.000000 0.733852 0.000000
0.267155 0.739406 0.139528
0.456733 0.760098 0.000000
0.626673 0.741848 0.000000
0.721187 0.660609 0.000000
0.865721 0.618677 0.000000
1.000000 0.588220 0.000000
0.000000 0.856382 0.000000
0.000000 0.857084 0.000000
0.266697 0.865141 0.000000
0.422187 0.884428 0.000000
0.619379 0.894285 0.000000
0.753750 0.853239 0.000000
0.849912 0.781399 0.000000
0.982971 0.733272 0.000000
0.370214 0.965911 0.342321
0.371099 0.966247 0.343297
0.377752 0.968048 0.342138
0.442542 0.978637 0.242802
0.581384 0.981415 0.175570
0.745480 0.975250 0.212985
0.866209 0.951446 0.000000
0.995148 0.917479 0.000000
0.000000 0.158450 0.432898
0.000000 0.110689 0.429297
0.248142 0.000000 0.412726
0.384039 0.000000 0.366644
0.528038 0.000000 0.363104
0.716457 0.000000 0.382910
0.860746 0.000000 0.385840
1.000000 0.000000 0.409552
0.000000 0.212528 0.413886
0.000000 0.174929 0.409461
0.229252 0.088502 0.397253
0.374426 0.000000 0.356542
0.523522 0.000000 0.355657
0.719326 0.000000 0.380865
0.860136 0.000000 0.393347
0.999817 0.000000 0.423316
0.000000 0.296025 0.379950
0.072114 0.290654 0.377874
0.225467 0.255528 0.375433
0.363378 0.165316 0.344305
0.551385 0.126711 0.365881
0.724025 0.147921 0.396979
0.858152 0.232334 0.437934
0.993591 0.282444 0.480598
0.000000 0.330175 0.304265
0.036011 0.327214 0.302586
0.217258 0.333074 0.314275
0.424048 0.413397 0.407233
0.594263 0.392187 0.404791
0.731746 0.411353 0.440101
0.862455 0.423438 0.470527
0.994476 0.415900 0.488014
0.000000 0.497414 0.342809
0.000000 0.502373 0.345861
0.246525 0.523156 0.366033
0.449470 0.570581 0.424414
0.561547 0.529808 0.354864
0.744320 0.550469 0.428748
0.874235 0.540398 0.453132
1.000000 0.515251 0.455116
0.000000 0.684108 0.362646
0.075532 0.685206 0.369512
0.315251 0.689723 0.403540
0.496162 0.707851 0.467842
0.635340 0.734432 0.461891
0.695216 0.651087 0.318486
0.854002 0.644099 0.365332
1.000000 0.629053 0.386725
0.098146 0.823575 0.367224
0.184573 0.824125 0.377295
0.361669 0.826841 0.424323
0.521904 0.840543 0.485267
0.643030 0.868223 0.463813
0.756680 0.850340 0.390265
0.838743 0.777157 0.136751
0.988952 0.735592 0.000000
0.355230 0.957610 0.428382
0.353521 0.959014 0.421576
0.348425 0.964111 0.394263
0.497475 0.968597 0.435828
0.584131 0.979919 0.319066
0.735653 0.977539 0.227756
0.863371 0.953979 0.018097
0.997009 0.917906 0.000000
0.000000 0.265843 0.611810
0.000000 0.230350 0.610407
0.233585 0.179416 0.601678
0.411078 0.000000 0.585321
0.550958 0.000000 0.546838
0.649714 0.000000 0.502586
0.791287 0.000000 0.519097
0.972442 0.000000 0.549248
0.165377 0.336339 0.603052
0.156558 0.307805 0.602075
0.252049 0.242954 0.595575
0.407355 0.110475 0.580133
0.547051 0.000000 0.542473
0.646418 0.000000 0.500389
0.792477 0.000000 0.522881
0.973114 0.000000 0.553063
0.253452 0.432380 0.593591
0.291844 0.430304 0.589868
0.347356 0.399695 0.581018
0.414832 0.311192 0.566766
0.538018 0.216373 0.532403
0.635431 0.223239 0.497292
0.797299 0.267033 0.540581
0.971191 0.259831 0.576349
0.205417 0.481910 0.558068
0.260563 0.483284 0.557397
0.382910 0.492409 0.559136
0.474311 0.488594 0.563195
0.539300 0.415839 0.533562
0.646509 0.411383 0.526726
0.811063 0.444221 0.576440
0.971283 0.454170 0.609583
0.104860 0.522637 0.496010
0.181704 0.520592 0.495735
0.320592 0.517479 0.498878
0.454475 0.528466 0.519341
0.585534 0.584100 0.584649
0.699672 0.575586 0.586664
0.834653 0.587732 0.612482
0.974853 0.591028 0.633234
0.228275 0.599237 0.482338
0.265202 0.601587 0.487526
0.364233 0.611505 0.508110
0.481392 0.637415 0.547448
0.605798 0.692103 0.601129
0.673854 0.656001 0.546746
0.851102 0.696407 0.607416
0.981872 0.687434 0.617060
0.317906 0.768276 0.543023
0.347082 0.769223 0.548638
0.427344 0.774350 0.567254
0.524590 0.790005 0.594446
0.639033 0.825620 0.629847
0.766140 0.856077 0.631891
0.808591 0.772793 0.513481
0.972808 0.777035 0.536980
0.431098 0.928252 0.600153
0.430426 0.929778 0.597498
0.445289 0.934936 0.592889
0.530785 0.944244 0.604334
0.648096 0.956756 0.628260
0.759396 0.965576 0.609644
0.865354 0.952422 0.536217
0.987243 0.917967 0.310857
0.334966 0.442267 0.726680
0.331487 0.426368 0.726040
0.365759 0.393927 0.721798
0.436713 0.327916 0.712947
0.543023 0.176638 0.698299
0.660548 0.013062 0.667048
0.759945 0.184573 0.642786
0.906310 0.319860 0.688991
0.387945 0.483894 0.722103
0.383062 0.469459 0.721553
0.393774 0.430732 0.717922
0.450477 0.370428 0.709346
0.544732 0.242557 0.695094
0.658076 0.160800 0.664332
0.757137 0.232364 0.642176
0.907439 0.338537 0.690455
0.442664 0.548302 0.715663
0.455604 0.547082 0.713802
0.470619 0.525017 0.708919
0.491493 0.473426 0.700923
0.555200 0.386572 0.686458
0.651301 0.320378 0.656855
0.748379 0.341161 0.640803
0.912688 0.395911 0.695918
0.449592 0.593530 0.703822
0.469032 0.596735 0.703822
0.522301 0.605615 0.704585
0.550347 0.581353 0.695857
0.576532 0.520165 0.680079
0.645686 0.458534 0.650721
0.736538 0.449500 0.638880
0.925750 0.474983 0.704433
0.410407 0.619440 0.672969
0.431586 0.620600 0.672999
0.490852 0.625177 0.674372
0.563195 0.635645 0.681727
0.616541 0.632258 0.688991
0.651362 0.570428 0.656886
0.746334 0.554131 0.654078
0.948028 0.573663 0.715206
0.347082 0.646815 0.627375
0.371405 0.645411 0.627344
0.437354 0.641901 0.627771
0.515465 0.641352 0.632868
0.593164 0.652491 0.650141
0.696559 0.701015 0.705653
0.819120 0.701259 0.716335
0.961425 0.715877 0.744198
0.412696 0.703578 0.619867
0.426947 0.702266 0.620935
0.469886 0.700557 0.625757
0.531365 0.716793 0.645686
0.608911 0.750515 0.678157
0.726314 0.819791 0.731350
0.792294 0.778408 0.673945
0.966430 0.819028 0.738674
0.497780 0.885924 0.710780
0.497749 0.887510 0.710323
0.522087 0.893645 0.713863
0.571923 0.906340 0.721370
0.642969 0.926513 0.730495
0.758938 0.949310 0.757656
0.872251 0.953338 0.758053
0.960143 0.918334 0.633600
0.507866 0.591119 0.838071
0.507836 0.584588 0.839536
0.516503 0.563653 0.837461
0.548180 0.531853 0.832975
0.599237 0.471443 0.825895
0.678492 0.372686 0.812955
0.772854 0.319524 0.786923
0.905852 0.393103 0.809171
0.521752 0.604761 0.830167
0.520897 0.598047 0.831449
0.521843 0.573571 0.830137
0.550164 0.542412 0.825406
0.596765 0.483558 0.817227
0.671107 0.385473 0.803006
0.762448 0.330358 0.776059
0.893126 0.391394 0.796689
0.560845 0.652644 0.831113
0.568048 0.651484 0.830076
0.567498 0.630091 0.826993
0.577111 0.594995 0.822293
0.612634 0.544884 0.812436
0.675471 0.460945 0.798917
0.761105 0.414649 0.774502
0.897795 0.452827 0.803464
0.580438 0.698878 0.831754
0.586358 0.697108 0.830259
0.605798 0.691035 0.826047
0.622370 0.669551 0.821683
0.637690 0.623651 0.811917
0.685878 0.556970 0.798550
0.760769 0.509392 0.773983
0.899290 0.522301 0.805661
0.556237 0.715328 0.808774
0.564996 0.715297 0.807919
0.595697 0.718166 0.808347
0.644526 0.726833 0.815000
0.667292 0.700923 0.808957
0.688991 0.640528 0.791135
0.749477 0.583612 0.762020
0.890990 0.587762 0.795529
0.522148 0.735836 0.780148
0.532464 0.736202 0.780362
0.565393 0.737850 0.781827
0.614862 0.743008 0.787411
0.675105 0.752987 0.799496
0.728847 0.749874 0.811246
0.760128 0.679835 0.772915
0.903868 0.673915 0.799374
0.480354 0.763546 0.747860
0.492256 0.763729 0.748745
0.525750 0.761654 0.748898
0.574212 0.759976 0.750607
0.630365 0.758419 0.753414
0.698665 0.766934 0.767147
0.812161 0.819333 0.825620
0.944915 0.838743 0.854093
0.539910 0.846799 0.771603
0.546868 0.846677 0.772213
0.574365 0.851469 0.779049
0.611566 0.853483 0.783932
0.658350 0.869749 0.796902
0.730678 0.902586 0.820249
0.860990 0.941314 0.868345
0.937224 0.920134 0.805631
0.623743 0.702266 0.933989
0.623011 0.697414 0.934844
0.622095 0.679500 0.934295
0.642329 0.660548 0.934783
0.675441 0.626368 0.934813
0.727535 0.566735 0.934539
0.810056 0.496284 0.931975
0.906645 0.448890 0.920714
0.630549 0.710567 0.930785
0.629755 0.705867 0.931670
0.625025 0.685847 0.931823
0.643244 0.666224 0.931670
0.675074 0.632563 0.931670
0.725795 0.574395 0.931121
0.806027 0.502403 0.927672
0.901701 0.454597 0.915953
0.654322 0.740871 0.927214
0.659724 0.740658 0.927337
0.650385 0.719326 0.926696
0.657832 0.696193 0.929717
0.683955 0.663813 0.928862
0.728389 0.609033 0.926940
0.804227 0.538293 0.923980
0.898802 0.492256 0.912963
0.656489 0.767971 0.925689
0.662928 0.768521 0.926207
0.680262 0.766232 0.925322
0.689784 0.748257 0.926329
0.699855 0.712917 0.926757
0.736965 0.665614 0.925475
0.805722 0.595697 0.923583
0.899474 0.551080 0.913268
0.652613 0.797116 0.919127
0.660212 0.798856 0.920226
0.681727 0.801266 0.921324
0.706569 0.796536 0.923247
0.728634 0.776516 0.922942
0.744625 0.728542 0.921538
0.803281 0.661341 0.920745
0.899779 0.619867 0.913115
0.628473 0.821927 0.908507
0.633692 0.821500 0.908141
0.653346 0.821408 0.908324
0.689570 0.824063 0.911315
0.744198 0.832120 0.918425
0.783017 0.818173 0.923949
0.816342 0.762417 0.926238
0.909850 0.711879 0.921996
0.604730 0.860746 0.900023
0.610163 0.860349 0.899870
0.629877 0.859770 0.900267
0.666590 0.861265 0.903471
0.720394 0.865293 0.909545
0.794308 0.875944 0.920562
0.860929 0.879942 0.932036
0.904082 0.803433 0.915709
0.578180 0.912078 0.892210
0.583093 0.911345 0.891844
0.602289 0.910246 0.891936
0.637690 0.909972 0.893828
0.687465 0.909209 0.896422
0.751034 0.908141 0.900053
0.829984 0.909056 0.907256
0.925139 0.929900 0.933867
