其他预设/【233】日式怀旧街道调色预设208款/1.3D LUT预设（视频调色-PR-AE-PS-FCPX-达芬奇用）/2.富士胶片风-日式城市街拍预设/JA – Warm Bright 1 (Classic Chrome).cube
# Created by Adobe Lightroom plugin Export LUT (1.17.0)
# www.johnrellis.com/lightroom/exportlut.htm
# Preset: JA – Warm Bright 1 (Classic Chrome)
# Color profile: /Library/Application Support/Adobe/Color/Profiles/Recommended/AdobeRGB1998.icc
LUT_3D_SIZE 32
0.112276 0.101625 0.094667
0.118318 0.101503 0.094484
0.126070 0.100954 0.094514
0.143496 0.099763 0.093935
0.171359 0.097078 0.093080
0.209323 0.092805 0.091341
0.254704 0.085603 0.088502
0.305364 0.075502 0.084108
0.360235 0.060487 0.077546
0.417487 0.016724 0.068086
0.476478 0.000000 0.050385
0.534173 0.000000 0.010224
0.588312 0.000000 0.000000
0.638605 0.000000 0.000000
0.685573 0.000000 0.000000
0.728908 0.000000 0.000000
0.768154 0.000000 0.000000
0.804318 0.000000 0.000000
0.837858 0.000000 0.000000
0.871061 0.000000 0.000000
0.903532 0.000000 0.000000
0.932677 0.000000 0.000000
0.958404 0.000000 0.000000
0.980652 0.000000 0.000000
0.999542 0.000000 0.000000
1.000000 0.000000 0.000000
1.000000 0.000000 0.000000
1.000000 0.000000 0.000000
1.000000 0.000000 0.000000
1.000000 0.000000 0.000000
1.000000 0.000000 0.000000
1.000000 0.000000 0.000000
0.112245 0.107637 0.094392
0.117861 0.107362 0.093965
0.126223 0.106233 0.093782
0.143801 0.105074 0.093172
0.172183 0.103426 0.091920
0.210300 0.100404 0.090028
0.255802 0.095705 0.086946
0.305974 0.088441 0.082368
0.360418 0.078309 0.075593
0.417670 0.062593 0.066041
0.476387 0.022644 0.044251
0.533745 0.000000 0.004028
0.587762 0.000000 0.000000
0.637995 0.000000 0.000000
0.684749 0.000000 0.000000
0.727993 0.000000 0.000000
0.767269 0.000000 0.000000
0.803403 0.000000 0.000000
0.836942 0.000000 0.000000
0.870146 0.000000 0.000000
0.902342 0.000000 0.000000
0.931426 0.000000 0.000000
0.957214 0.000000 0.000000
0.979553 0.000000 0.000000
0.998627 0.000000 0.000000
1.000000 0.000000 0.000000
1.000000 0.000000 0.000000
1.000000 0.000000 0.000000
1.000000 0.000000 0.000000
1.000000 0.000000 0.000000
1.000000 0.000000 0.000000
1.000000 0.000000 0.000000
0.111604 0.115389 0.094148
0.118044 0.115450 0.093172
0.126070 0.115175 0.092897
0.143740 0.113649 0.092317
0.171969 0.112184 0.091066
0.210575 0.110719 0.088716
0.256535 0.107790 0.085115
0.307042 0.103059 0.080171
0.360998 0.096742 0.072938
0.418189 0.087709 0.062135
0.476509 0.075166 0.035004
0.533837 0.058747 0.000000
0.587732 0.022248 0.000000
0.637842 0.000000 0.000000
0.684535 0.000000 0.000000
0.727810 0.000000 0.000000
0.766934 0.000000 0.000000
0.803037 0.000000 0.000000
0.836576 0.000000 0.000000
0.869902 0.000000 0.000000
0.901884 0.000000 0.000000
0.930938 0.000000 0.000000
0.956634 0.000000 0.000000
0.979034 0.000000 0.000000
0.998169 0.000000 0.000000
1.000000 0.000000 0.000000
1.000000 0.000000 0.000000
1.000000 0.000000 0.000000
1.000000 0.000000 0.000000
1.000000 0.000000 0.000000
1.000000 0.000000 0.000000
1.000000 0.000000 0.000000
0.110719 0.132662 0.092470
0.117617 0.132662 0.091951
0.126650 0.132631 0.090822
0.144137 0.132143 0.090150
0.171908 0.131777 0.088777
0.210513 0.130373 0.086366
0.256138 0.130831 0.082246
0.307134 0.130068 0.076265
0.361700 0.127779 0.067597
0.419501 0.123873 0.051545
0.478096 0.119051 0.014038
0.535180 0.112612 0.000000
0.588556 0.106050 0.000000
0.638392 0.099031 0.000000
0.684901 0.089845 0.000000
0.727901 0.081422 0.000000
0.766873 0.069581 0.000000
0.802823 0.054383 0.000000
0.836240 0.021057 0.000000
0.869627 0.000000 0.000000
0.901244 0.000000 0.000000
0.929992 0.000000 0.000000
0.955749 0.000000 0.000000
0.978302 0.000000 0.000000
0.997650 0.000000 0.000000
1.000000 0.000000 0.000000
1.000000 0.000000 0.000000
1.000000 0.000000 0.000000
1.000000 0.000000 0.000000
1.000000 0.000000 0.000000
1.000000 0.000000 0.000000
1.000000 0.000000 0.000000
0.108461 0.159701 0.089723
0.116762 0.159854 0.089143
0.126955 0.160037 0.087861
0.147097 0.160159 0.085786
0.173404 0.159731 0.084413
0.210147 0.161959 0.081361
0.255741 0.162356 0.076905
0.306279 0.161807 0.070497
0.360876 0.163516 0.059907
0.418311 0.164431 0.030976
0.476936 0.163638 0.000000
0.534234 0.161959 0.000000
0.588037 0.158938 0.000000
0.638178 0.154940 0.000000
0.685023 0.149966 0.000000
0.728328 0.144045 0.000000
0.767361 0.137789 0.000000
0.803220 0.130648 0.000000
0.836698 0.122438 0.000000
0.870237 0.113680 0.000000
0.901335 0.102327 0.000000
0.929839 0.087739 0.000000
0.955413 0.066407 0.000000
0.977966 0.010224 0.000000
0.997253 0.000000 0.000000
1.000000 0.000000 0.000000
1.000000 0.000000 0.000000
1.000000 0.000000 0.000000
1.000000 0.000000 0.000000
1.000000 0.000000 0.000000
1.000000 0.000000 0.000000
1.000000 0.000000 0.000000
0.104646 0.196262 0.084840
0.114565 0.196536 0.083833
0.126925 0.196811 0.082643
0.150179 0.197360 0.079805
0.180331 0.197238 0.076600
0.213352 0.197086 0.073152
0.256260 0.201083 0.067231
0.306798 0.203464 0.058503
0.360937 0.203433 0.035615
0.418219 0.204623 0.000549
0.476692 0.207340 0.000000
0.533867 0.208133 0.000000
0.587579 0.207523 0.000000
0.637659 0.204715 0.000000
0.684443 0.201480 0.000000
0.727779 0.196902 0.000000
0.767117 0.191379 0.000000
0.803220 0.185031 0.000000
0.837919 0.178195 0.000000
0.871305 0.170809 0.000000
0.902251 0.162600 0.000000
0.930571 0.151949 0.000000
0.963378 0.141451 0.000000
0.984649 0.127108 0.000000
1.000000 0.109285 0.000000
1.000000 0.085817 0.000000
1.000000 0.045075 0.000000
1.000000 0.000000 0.000000
1.000000 0.000000 0.000000
1.000000 0.000000 0.000000
1.000000 0.000000 0.000000
1.000000 0.000000 0.000000
0.097597 0.241611 0.075593
0.110384 0.241855 0.074281
0.125002 0.242313 0.073091
0.152712 0.242893 0.069856
0.187472 0.244022 0.064302
0.224369 0.243503 0.058686
0.262943 0.243717 0.043977
0.310369 0.248875 0.016785
0.365240 0.252903 0.000000
0.422827 0.254734 0.000000
0.480720 0.253605 0.000000
0.537621 0.254551 0.000000
0.590906 0.255222 0.000000
0.640620 0.253483 0.000000
0.687190 0.250370 0.000000
0.729763 0.246311 0.000000
0.768765 0.240787 0.000000
0.804959 0.234745 0.000000
0.840513 0.228702 0.000000
0.873991 0.221897 0.000000
0.905394 0.214206 0.000000
0.934325 0.204959 0.000000
0.960204 0.194705 0.000000
0.982605 0.182467 0.000000
1.000000 0.169009 0.000000
1.000000 0.153109 0.000000
1.000000 0.135683 0.000000
1.000000 0.114260 0.000000
1.000000 0.081300 0.000000
1.000000 0.000000 0.000000
1.000000 0.000000 0.000000
1.000000 0.000000 0.000000
0.087098 0.289708 0.061280
0.103639 0.289799 0.059205
0.121187 0.290043 0.056855
0.151980 0.290806 0.049775
0.190646 0.291783 0.034394
0.231785 0.292668 0.014984
0.273228 0.292943 0.000000
0.315740 0.293492 0.000000
0.366705 0.299840 0.000000
0.424018 0.304234 0.000000
0.482063 0.306157 0.000000
0.538048 0.304479 0.000000
0.590570 0.299443 0.000000
0.639887 0.298985 0.000000
0.686366 0.296757 0.000000
0.728908 0.292576 0.000000
0.767788 0.287297 0.000000
0.805295 0.281834 0.000000
0.840177 0.275578 0.000000
0.873259 0.268833 0.000000
0.904356 0.261112 0.000000
0.933074 0.252323 0.000000
0.958831 0.242649 0.000000
0.981292 0.231357 0.000000
1.000000 0.218692 0.000000
1.000000 0.204654 0.000000
1.000000 0.189151 0.000000
1.000000 0.172488 0.000000
1.000000 0.152438 0.000000
1.000000 0.126955 0.000000
1.000000 0.094301 0.000000
1.000000 0.014832 0.000000
0.070649 0.341588 0.013001
0.091615 0.341741 0.009735
0.113893 0.342229 0.005249
0.149905 0.342748 0.000000
0.192233 0.343877 0.000000
0.236912 0.345129 0.000000
0.281621 0.345953 0.000000
0.326757 0.346624 0.000000
0.372900 0.347478 0.000000
0.425452 0.353643 0.000000
0.484230 0.358556 0.000000
0.539971 0.358160 0.000000
0.592065 0.354223 0.000000
0.640528 0.347143 0.000000
0.686122 0.340551 0.000000
0.728511 0.337224 0.000000
0.768704 0.333257 0.000000
0.805753 0.327398 0.000000
0.840116 0.320928 0.000000
0.872831 0.313939 0.000000
0.903685 0.306188 0.000000
0.932189 0.297429 0.000000
0.957824 0.287572 0.000000
0.980194 0.276738 0.000000
0.999145 0.264469 0.000000
1.000000 0.250919 0.000000
1.000000 0.236362 0.000000
1.000000 0.220676 0.000000
1.000000 0.203433 0.000000
1.000000 0.183261 0.000000
1.000000 0.160403 0.000000
1.000000 0.133791 0.000000
0.021485 0.395972 0.000000
0.073793 0.396002 0.000000
0.101472 0.396368 0.000000
0.144839 0.396948 0.000000
0.191104 0.397986 0.000000
0.239170 0.399084 0.000000
0.287724 0.400519 0.000000
0.334813 0.401221 0.000000
0.382727 0.402350 0.000000
0.431312 0.403510 0.000000
0.484260 0.408118 0.000000
0.541711 0.411963 0.000000
0.593469 0.408576 0.000000
0.641749 0.402136 0.000000
0.687556 0.394171 0.000000
0.730617 0.384070 0.000000
0.770047 0.376745 0.000000
0.806577 0.371618 0.000000
0.840665 0.365423 0.000000
0.872953 0.357855 0.000000
0.903410 0.349828 0.000000
0.931456 0.340887 0.000000
0.956725 0.330755 0.000000
0.978790 0.319738 0.000000
0.997650 0.307317 0.000000
1.000000 0.294072 0.000000
1.000000 0.279759 0.000000
1.000000 0.264805 0.000000
1.000000 0.248966 0.000000
1.000000 0.230716 0.000000
1.000000 0.209903 0.000000
1.000000 0.187961 0.000000
0.000000 0.450263 0.000000
0.013947 0.450446 0.000000
0.083619 0.450690 0.000000
0.135348 0.451209 0.000000
0.186709 0.452064 0.000000
0.238132 0.453132 0.000000
0.289494 0.454688 0.000000
0.339849 0.455879 0.000000
0.389136 0.456580 0.000000
0.438941 0.457710 0.000000
0.488808 0.458991 0.000000
0.540734 0.461799 0.000000
0.595575 0.463661 0.000000
0.644739 0.458259 0.000000
0.690852 0.450599 0.000000
0.732692 0.440314 0.000000
0.771084 0.428107 0.000000
0.806638 0.414893 0.000000
0.840330 0.407538 0.000000
0.872374 0.400946 0.000000
0.902617 0.392645 0.000000
0.930510 0.383185 0.000000
0.955627 0.372961 0.000000
0.977691 0.361547 0.000000
0.996490 0.349096 0.000000
1.000000 0.335454 0.000000
1.000000 0.321202 0.000000
1.000000 0.306310 0.000000
1.000000 0.290776 0.000000
1.000000 0.274174 0.000000
1.000000 0.255100 0.000000
1.000000 0.234623 0.000000
0.000000 0.503410 0.000000
0.000000 0.503716 0.000000
0.035248 0.503807 0.000000
0.120943 0.504234 0.000000
0.179660 0.504936 0.000000
0.234470 0.505699 0.000000
0.287480 0.506920 0.000000
0.340642 0.508171 0.000000
0.391699 0.509026 0.000000
0.442023 0.509667 0.000000
0.492470 0.510674 0.000000
0.543969 0.512718 0.000000
0.603967 0.522026 0.000000
0.657282 0.522667 0.000000
0.702449 0.513664 0.000000
0.743282 0.501823 0.000000
0.780850 0.488624 0.000000
0.815518 0.474525 0.000000
0.847929 0.459632 0.000000
0.878813 0.445869 0.000000
0.907958 0.437751 0.000000
0.934783 0.427466 0.000000
0.958801 0.416175 0.000000
0.979828 0.403906 0.000000
0.997833 0.390631 0.000000
1.000000 0.376471 0.000000
1.000000 0.361669 0.000000
1.000000 0.346441 0.000000
1.000000 0.330846 0.000000
1.000000 0.314916 0.000000
1.000000 0.296818 0.000000
1.000000 0.277440 0.000000
0.000000 0.556268 0.000000
0.000000 0.556390 0.000000
0.000000 0.556329 0.000000
0.100618 0.556481 0.000000
0.169345 0.556664 0.000000
0.228000 0.557000 0.000000
0.283604 0.557519 0.000000
0.337560 0.558343 0.000000
0.391150 0.559655 0.000000
0.443122 0.561547 0.000000
0.495430 0.563622 0.000000
0.547875 0.566003 0.000000
0.600427 0.568322 0.000000
0.652796 0.570459 0.000000
0.703456 0.569451 0.000000
0.743984 0.557214 0.000000
0.781125 0.543328 0.000000
0.815488 0.528496 0.000000
0.847532 0.513085 0.000000
0.878019 0.497597 0.000000
0.906584 0.481941 0.000000
0.933104 0.468544 0.000000
0.957031 0.456886 0.000000
0.978058 0.444007 0.000000
0.996063 0.430213 0.000000
1.000000 0.415686 0.000000
1.000000 0.400519 0.000000
1.000000 0.384955 0.000000
1.000000 0.369024 0.000000
1.000000 0.352972 0.000000
1.000000 0.335882 0.000000
1.000000 0.317205 0.000000
0.000000 0.602533 0.000000
0.000000 0.602564 0.000000
0.000000 0.602564 0.000000
0.070436 0.602564 0.000000
0.154360 0.602838 0.000000
0.218235 0.603540 0.000000
0.276127 0.604608 0.000000
0.332036 0.605737 0.000000
0.386664 0.607202 0.000000
0.440162 0.608850 0.000000
0.492103 0.610437 0.000000
0.544121 0.612116 0.000000
0.595911 0.613611 0.000000
0.647242 0.614923 0.000000
0.697902 0.615839 0.000000
0.744472 0.612482 0.000000
0.781216 0.597467 0.000000
0.815213 0.581933 0.000000
0.847044 0.565728 0.000000
0.877256 0.549706 0.000000
0.905608 0.533410 0.000000
0.931762 0.516716 0.000000
0.955413 0.498054 0.000000
0.976410 0.483680 0.000000
0.994415 0.469337 0.000000
1.000000 0.454231 0.000000
1.000000 0.438514 0.000000
1.000000 0.422522 0.000000
1.000000 0.406317 0.000000
1.000000 0.390021 0.000000
1.000000 0.373449 0.000000
1.000000 0.354925 0.000000
0.000000 0.648890 0.000000
0.000000 0.648981 0.000000
0.000000 0.648920 0.000000
0.000000 0.649042 0.000000
0.137484 0.649073 0.000000
0.207126 0.649287 0.000000
0.267277 0.649622 0.000000
0.324010 0.650202 0.000000
0.379126 0.651057 0.000000
0.433539 0.652216 0.000000
0.485542 0.653254 0.000000
0.536980 0.654231 0.000000
0.588067 0.655238 0.000000
0.638544 0.656031 0.000000
0.688472 0.656336 0.000000
0.737423 0.656153 0.000000
0.781399 0.652155 0.000000
0.815030 0.635370 0.000000
0.846616 0.618341 0.000000
0.876555 0.601465 0.000000
0.904601 0.584375 0.000000
0.930510 0.567010 0.000000
0.953857 0.549004 0.000000
0.974670 0.528069 0.000000
0.992706 0.507836 0.000000
1.000000 0.492256 0.000000
1.000000 0.476020 0.000000
1.000000 0.459693 0.000000
1.000000 0.442969 0.000000
1.000000 0.426337 0.000000
1.000000 0.409583 0.000000
1.000000 0.391455 0.000000
0.000000 0.690822 0.000000
0.000000 0.690883 0.000000
0.000000 0.690974 0.000000
0.000000 0.690913 0.000000
0.115175 0.690913 0.000000
0.193027 0.691005 0.000000
0.256382 0.691249 0.000000
0.314427 0.691646 0.000000
0.370092 0.692134 0.000000
0.424170 0.692775 0.000000
0.477333 0.693355 0.000000
0.528222 0.693751 0.000000
0.578149 0.693874 0.000000
0.627771 0.693965 0.000000
0.676631 0.693721 0.000000
0.724819 0.693294 0.000000
0.772091 0.692592 0.000000
0.813840 0.687434 0.000000
0.846250 0.670832 0.000000
0.876127 0.653010 0.000000
0.904021 0.635187 0.000000
0.929717 0.616938 0.000000
0.952850 0.598291 0.000000
0.973388 0.577722 0.000000
0.991241 0.555474 0.000000
1.000000 0.532403 0.000000
1.000000 0.513329 0.000000
1.000000 0.496315 0.000000
1.000000 0.479194 0.000000
1.000000 0.462013 0.000000
1.000000 0.444800 0.000000
1.000000 0.426978 0.000000
0.000000 0.728267 0.000000
0.000000 0.728267 0.000000
0.000000 0.728206 0.000000
0.000000 0.728206 0.000000
0.086305 0.728115 0.000000
0.177523 0.728115 0.000000
0.243442 0.728145 0.000000
0.302403 0.728237 0.000000
0.358892 0.728481 0.000000
0.412970 0.728817 0.000000
0.466011 0.729244 0.000000
0.517235 0.729519 0.000000
0.566735 0.729610 0.000000
0.615625 0.729397 0.000000
0.663844 0.728969 0.000000
0.711269 0.728237 0.000000
0.757992 0.727291 0.000000
0.803861 0.726375 0.000000
0.844053 0.720607 0.000000
0.875212 0.704341 0.000000
0.902831 0.685420 0.000000
0.928222 0.666255 0.000000
0.951110 0.646540 0.000000
0.971466 0.626001 0.000000
0.989197 0.603296 0.000000
1.000000 0.579828 0.000000
1.000000 0.555901 0.000000
1.000000 0.532525 0.000000
1.000000 0.514763 0.000000
1.000000 0.497078 0.000000
1.000000 0.479469 0.000000
1.000000 0.461707 0.000000
0.000000 0.763424 0.000000
0.000000 0.763485 0.000000
0.000000 0.769345 0.000000
0.000000 0.769253 0.000000
0.023102 0.769039 0.000000
0.160983 0.768795 0.000000
0.231388 0.768490 0.000000
0.292271 0.768215 0.000000
0.348882 0.768124 0.000000
0.403510 0.768032 0.000000
0.456245 0.768032 0.000000
0.508110 0.767941 0.000000
0.557488 0.767483 0.000000
0.606043 0.766812 0.000000
0.653529 0.766018 0.000000
0.700252 0.764950 0.000000
0.746365 0.763699 0.000000
0.791653 0.762264 0.000000
0.836149 0.760830 0.000000
0.874693 0.754299 0.000000
0.903655 0.737636 0.000000
0.928466 0.716732 0.000000
0.950805 0.695552 0.000000
0.970550 0.673976 0.000000
0.987762 0.650629 0.000000
1.000000 0.626612 0.000000
1.000000 0.602106 0.000000
1.000000 0.577447 0.000000
1.000000 0.552605 0.000000
1.000000 0.531792 0.000000
1.000000 0.513634 0.000000
1.000000 0.495521 0.000000
0.000000 0.798184 0.000000
0.000000 0.798886 0.000000
0.000000 0.799649 0.000000
0.000000 0.800198 0.000000
0.000000 0.800534 0.000000
0.141054 0.800534 0.000000
0.216770 0.800351 0.000000
0.279088 0.800046 0.000000
0.336217 0.799832 0.000000
0.390387 0.799619 0.000000
0.443030 0.799374 0.000000
0.494209 0.799161 0.000000
0.544488 0.798703 0.000000
0.592065 0.797910 0.000000
0.639094 0.796872 0.000000
0.685176 0.795651 0.000000
0.730587 0.794217 0.000000
0.775204 0.792691 0.000000
0.819242 0.791104 0.000000
0.862455 0.789487 0.000000
0.899626 0.782742 0.000000
0.926604 0.765591 0.000000
0.948760 0.743191 0.000000
0.968322 0.720607 0.000000
0.985443 0.696864 0.000000
1.000000 0.672145 0.000000
1.000000 0.647150 0.000000
1.000000 0.622095 0.000000
1.000000 0.597009 0.000000
1.000000 0.571832 0.000000
1.000000 0.547417 0.000000
1.000000 0.528801 0.000000
0.000000 0.829129 0.000000
0.000000 0.829740 0.000000
0.000000 0.830350 0.000000
0.000000 0.830808 0.000000
0.000000 0.831113 0.000000
0.117494 0.831022 0.000000
0.200900 0.830747 0.000000
0.265293 0.830350 0.000000
0.322911 0.830045 0.000000
0.377264 0.829709 0.000000
0.429633 0.829343 0.000000
0.480537 0.828946 0.000000
0.530236 0.828275 0.000000
0.578210 0.827420 0.000000
0.624537 0.826200 0.000000
0.670039 0.824765 0.000000
0.714626 0.823209 0.000000
0.758694 0.821408 0.000000
0.801968 0.819608 0.000000
0.844541 0.817777 0.000000
0.886320 0.815854 0.000000
0.922271 0.808988 0.000000
0.946624 0.790921 0.000000
0.966003 0.766903 0.000000
0.982971 0.742550 0.000000
0.997955 0.717098 0.000000
1.000000 0.691432 0.000000
1.000000 0.665919 0.000000
1.000000 0.640314 0.000000
1.000000 0.614954 0.000000
1.000000 0.589532 0.000000
1.000000 0.564202 0.000000
0.000000 0.858244 0.000000
0.000000 0.858793 0.000000
0.000000 0.859312 0.000000
0.000000 0.859709 0.000000
0.000000 0.859800 0.000000
0.087465 0.859648 0.000000
0.184054 0.859312 0.000000
0.250584 0.858854 0.000000
0.309361 0.858335 0.000000
0.363806 0.857786 0.000000
0.415625 0.857237 0.000000
0.466102 0.856535 0.000000
0.515373 0.855680 0.000000
0.563378 0.854673 0.000000
0.609430 0.853330 0.000000
0.654292 0.851835 0.000000
0.698421 0.850217 0.000000
0.741909 0.848508 0.000000
0.784634 0.846677 0.000000
0.826719 0.844785 0.000000
0.868009 0.842802 0.000000
0.908568 0.840665 0.000000
0.943450 0.833677 0.000000
0.964752 0.814176 0.000000
0.981506 0.788571 0.000000
0.996277 0.762356 0.000000
1.000000 0.735927 0.000000
1.000000 0.709560 0.000000
1.000000 0.683375 0.000000
1.000000 0.657435 0.000000
1.000000 0.631678 0.000000
1.000000 0.605890 0.000000
0.000000 0.887175 0.000000
0.000000 0.887388 0.000000
0.000000 0.887480 0.000000
0.000000 0.887449 0.000000
0.000000 0.887297 0.000000
0.020996 0.886961 0.000000
0.165469 0.886473 0.000000
0.236027 0.885954 0.000000
0.295689 0.885344 0.000000
0.350256 0.884703 0.000000
0.401953 0.884031 0.000000
0.452003 0.883146 0.000000
0.500694 0.882078 0.000000
0.548150 0.880766 0.000000
0.594385 0.879271 0.000000
0.638636 0.877470 0.000000
0.681941 0.875517 0.000000
0.724575 0.873442 0.000000
0.766506 0.871244 0.000000
0.807645 0.868894 0.000000
0.848051 0.866392 0.000000
0.887602 0.863737 0.000000
0.926268 0.860899 0.000000
0.960113 0.854002 0.000000
0.978607 0.833280 0.000000
0.993317 0.806271 0.000000
1.000000 0.779110 0.000000
1.000000 0.752102 0.000000
1.000000 0.725399 0.000000
1.000000 0.698909 0.000000
1.000000 0.672663 0.000000
1.000000 0.646509 0.000000
0.000000 0.911040 0.000000
0.000000 0.911192 0.000000
0.000000 0.911315 0.000000
0.000000 0.911223 0.000000
0.000000 0.910979 0.000000
0.000000 0.910552 0.000000
0.144289 0.910002 0.000000
0.219730 0.909270 0.000000
0.280552 0.908537 0.000000
0.335454 0.907652 0.000000
0.387121 0.906737 0.000000
0.436683 0.905638 0.000000
0.484382 0.904356 0.000000
0.531334 0.902831 0.000000
0.577142 0.901152 0.000000
0.621271 0.899229 0.000000
0.663905 0.897063 0.000000
0.705776 0.894804 0.000000
0.746975 0.892332 0.000000
0.787320 0.889769 0.000000
0.826963 0.887022 0.000000
0.865751 0.884123 0.000000
0.903716 0.881102 0.000000
0.940795 0.877897 0.000000
0.973663 0.871122 0.000000
0.989776 0.848966 0.000000
1.000000 0.821714 0.000000
1.000000 0.794034 0.000000
1.000000 0.766659 0.000000
1.000000 0.739651 0.000000
1.000000 0.712917 0.000000
1.000000 0.686336 0.000000
0.000000 0.933165 0.000000
0.000000 0.933288 0.000000
0.000000 0.933288 0.000000
0.000000 0.933074 0.000000
0.000000 0.932708 0.000000
0.000000 0.932097 0.000000
0.121248 0.931395 0.000000
0.202823 0.930510 0.000000
0.265476 0.929442 0.000000
0.320653 0.928283 0.000000
0.371862 0.927031 0.000000
0.420661 0.925628 0.000000
0.467964 0.924010 0.000000
0.513939 0.922210 0.000000
0.558831 0.920195 0.000000
0.602838 0.917937 0.000000
0.644923 0.915526 0.000000
0.685939 0.912932 0.000000
0.726223 0.910307 0.000000
0.765927 0.907561 0.000000
0.804807 0.904692 0.000000
0.842893 0.901671 0.000000
0.880125 0.898466 0.000000
0.916533 0.895018 0.000000
0.952026 0.891386 0.000000
0.985473 0.886442 0.000000
0.999603 0.862943 0.000000
1.000000 0.835691 0.000000
1.000000 0.807645 0.000000
1.000000 0.779965 0.000000
1.000000 0.752682 0.000000
1.000000 0.725551 0.000000
0.000000 0.950469 0.000000
0.000000 0.950530 0.000000
0.000000 0.950530 0.000000
0.000000 0.950317 0.000000
0.000000 0.949889 0.000000
0.000000 0.949310 0.000000
0.093141 0.948547 0.000000
0.184970 0.947662 0.000000
0.249180 0.946624 0.000000
0.304631 0.945464 0.000000
0.355688 0.944152 0.000000
0.404242 0.942687 0.000000
0.450935 0.941039 0.000000
0.496193 0.939178 0.000000
0.540368 0.937102 0.000000
0.583612 0.934813 0.000000
0.625910 0.932341 0.000000
0.666194 0.929686 0.000000
0.705898 0.926940 0.000000
0.744778 0.924071 0.000000
0.782956 0.921050 0.000000
0.820462 0.917876 0.000000
0.857023 0.914549 0.000000
0.892851 0.911009 0.000000
0.927794 0.907317 0.000000
0.961791 0.903532 0.000000
0.995270 0.899535 0.000000
1.000000 0.875578 0.000000
1.000000 0.848447 0.000000
1.000000 0.820127 0.000000
1.000000 0.792172 0.000000
1.000000 0.764401 0.000000
0.000000 0.965545 0.000000
0.000000 0.965545 0.000000
0.000000 0.965484 0.000000
0.000000 0.965209 0.000000
0.000000 0.964752 0.000000
0.000000 0.964111 0.000000
0.032654 0.963317 0.000000
0.164279 0.962432 0.000000
0.232029 0.961334 0.000000
0.287785 0.960143 0.000000
0.339055 0.958770 0.000000
0.387060 0.957305 0.000000
0.433173 0.955627 0.000000
0.477913 0.953735 0.000000
0.521386 0.951629 0.000000
0.563897 0.949310 0.000000
0.605707 0.946777 0.000000
0.646143 0.944091 0.000000
0.685115 0.941283 0.000000
0.723354 0.938354 0.000000
0.760891 0.935271 0.000000
0.797696 0.932036 0.000000
0.833738 0.928649 0.000000
0.868956 0.925109 0.000000
0.902983 0.921477 0.000000
0.936492 0.917662 0.000000
0.969482 0.913664 0.000000
1.000000 0.909514 0.000000
1.000000 0.886687 0.000000
1.000000 0.859770 0.000000
1.000000 0.831174 0.000000
1.000000 0.802792 0.000000
0.000000 0.978180 0.000000
0.000000 0.978149 0.000000
0.000000 0.978058 0.000000
0.000000 0.977813 0.000000
0.000000 0.977386 0.000000
0.000000 0.976867 0.000000
0.000000 0.976226 0.000000
0.141299 0.975433 0.000000
0.213321 0.974548 0.000000
0.270787 0.973510 0.000000
0.321996 0.972320 0.000000
0.369879 0.970977 0.000000
0.415656 0.969390 0.000000
0.459846 0.967559 0.000000
0.502770 0.965515 0.000000
0.544732 0.963195 0.000000
0.586053 0.960662 0.000000
0.626398 0.957977 0.000000
0.665003 0.955138 0.000000
0.702693 0.952148 0.000000
0.739620 0.949004 0.000000
0.775845 0.945739 0.000000
0.811276 0.942321 0.000000
0.845304 0.938842 0.000000
0.878904 0.935180 0.000000
0.911955 0.931334 0.000000
0.944579 0.927306 0.000000
0.976654 0.923156 0.000000
1.000000 0.918883 0.000000
1.000000 0.897276 0.000000
1.000000 0.870329 0.000000
1.000000 0.841093 0.000000
0.000000 0.989990 0.000000
0.000000 0.989960 0.000000
0.000000 0.989837 0.000000
0.000000 0.989532 0.000000
0.000000 0.989105 0.000000
0.000000 0.988556 0.000000
0.000000 0.987854 0.000000
0.111635 0.986999 0.000000
0.192386 0.986023 0.000000
0.251682 0.984894 0.000000
0.303532 0.983612 0.000000
0.351324 0.982147 0.000000
0.396826 0.980499 0.000000
0.440650 0.978637 0.000000
0.483101 0.976562 0.000000
