其他预设/【233】日式怀旧街道调色预设208款/1.3D LUT预设（视频调色-PR-AE-PS-FCPX-达芬奇用）/2.富士胶片风-日式城市街拍预设/JA – Gritty Contrast 2 (Classic Chrome).cube
# Created by Adobe Lightroom plugin Export LUT (1.17.0)
# www.johnrellis.com/lightroom/exportlut.htm
# Preset: JA – Gritty Contrast 2 (Classic Chrome)
# Color profile: /Library/Application Support/Adobe/Color/Profiles/Recommended/AdobeRGB1998.icc
LUT_3D_SIZE 32
0.070192 0.076143 0.083955
0.070192 0.076143 0.083955
0.070192 0.076143 0.083955
0.083009 0.081819 0.091524
0.110048 0.094270 0.108248
0.132967 0.103822 0.121553
0.156985 0.108644 0.131685
0.183322 0.110567 0.139773
0.215518 0.108644 0.144350
0.252842 0.105745 0.149416
0.297185 0.102998 0.156405
0.349584 0.101045 0.166384
0.407752 0.101015 0.178531
0.466987 0.103914 0.192416
0.522484 0.114900 0.208377
0.570520 0.135042 0.227176
0.611902 0.161410 0.248966
0.648737 0.192325 0.273747
0.683131 0.225895 0.301152
0.717220 0.262516 0.331487
0.751583 0.301579 0.364263
0.785794 0.342504 0.398901
0.820066 0.384527 0.434180
0.853574 0.424994 0.468238
0.885557 0.462776 0.500145
0.914763 0.498695 0.530632
0.939727 0.534447 0.560967
0.959228 0.572503 0.593072
0.972961 0.614191 0.628321
0.981872 0.659297 0.666896
0.986847 0.707057 0.708675
0.987854 0.726101 0.722621
0.070192 0.076143 0.083955
0.070192 0.076143 0.083955
0.070192 0.076143 0.083955
0.084627 0.082521 0.092256
0.111177 0.094850 0.108827
0.134157 0.103792 0.121920
0.157992 0.108614 0.131838
0.186191 0.110018 0.137881
0.218387 0.109773 0.143221
0.256107 0.108370 0.149416
0.301244 0.106355 0.156435
0.354284 0.105013 0.166537
0.412757 0.106020 0.178927
0.472175 0.110475 0.192966
0.527092 0.121736 0.209140
0.574426 0.141604 0.228305
0.615412 0.167636 0.250401
0.651850 0.197757 0.275456
0.686183 0.231052 0.303075
0.720211 0.267338 0.333623
0.754391 0.306004 0.366522
0.788449 0.346685 0.401038
0.822507 0.388251 0.436225
0.855772 0.428260 0.470100
0.887449 0.465644 0.501762
0.916320 0.501305 0.532128
0.940917 0.536767 0.562280
0.959960 0.574792 0.594446
0.973419 0.616358 0.629694
0.982086 0.661250 0.668238
0.986938 0.708858 0.709987
0.987854 0.726284 0.722560
0.070192 0.076143 0.083955
0.070192 0.076143 0.083955
0.070192 0.076143 0.083955
0.086641 0.083436 0.093721
0.112428 0.095674 0.109834
0.135714 0.103944 0.121279
0.161044 0.108614 0.129610
0.189242 0.111910 0.136812
0.221744 0.113161 0.143191
0.259861 0.112734 0.149264
0.305669 0.110780 0.156374
0.359747 0.111330 0.166537
0.418189 0.113191 0.179080
0.477333 0.118776 0.193210
0.531426 0.130282 0.209537
0.578088 0.149172 0.229007
0.618616 0.174807 0.251408
0.654841 0.204318 0.276585
0.688899 0.236667 0.304479
0.722774 0.272129 0.335088
0.756802 0.310460 0.368078
0.790616 0.350622 0.402564
0.824399 0.391669 0.437629
0.857450 0.431098 0.471290
0.888914 0.468147 0.502800
0.917418 0.503471 0.533074
0.941711 0.538781 0.563165
0.960510 0.576623 0.595270
0.973724 0.617975 0.630518
0.982269 0.662684 0.669032
0.986999 0.710079 0.710719
0.987854 0.726558 0.722469
0.072511 0.083925 0.086854
0.073060 0.085145 0.087312
0.072999 0.086671 0.088045
0.091890 0.090669 0.092805
0.116976 0.101808 0.108156
0.140444 0.109987 0.120119
0.166079 0.115389 0.128969
0.194858 0.119112 0.136110
0.228092 0.121340 0.142550
0.267674 0.121767 0.148623
0.314672 0.121828 0.155795
0.369451 0.124208 0.166262
0.428412 0.128481 0.178744
0.486763 0.135561 0.193179
0.539483 0.146853 0.210147
0.584985 0.165408 0.230045
0.624445 0.188785 0.252903
0.660090 0.216587 0.278630
0.693965 0.247593 0.306828
0.727657 0.281956 0.337835
0.761471 0.319249 0.370977
0.794919 0.358556 0.405463
0.828214 0.398505 0.440192
0.860533 0.436805 0.473274
0.891173 0.472663 0.504265
0.919005 0.507164 0.534142
0.942687 0.541802 0.563958
0.961028 0.579126 0.595911
0.973999 0.620081 0.631037
0.982391 0.664363 0.669490
0.987091 0.711452 0.711177
0.987854 0.727169 0.722286
0.078828 0.109224 0.095644
0.078981 0.109926 0.096071
0.081453 0.110811 0.096193
0.098878 0.110872 0.096284
0.120577 0.113558 0.104585
0.147860 0.123781 0.118593
0.174624 0.128481 0.127657
0.204410 0.132601 0.135042
0.239475 0.135500 0.141451
0.280766 0.137911 0.147372
0.329778 0.140078 0.154604
0.385870 0.145144 0.165347
0.444434 0.151461 0.178195
0.501213 0.159762 0.193118
0.551293 0.171237 0.210666
0.594446 0.187625 0.231174
0.632319 0.208652 0.254520
0.667079 0.233860 0.280644
0.700496 0.262821 0.309300
0.733700 0.295201 0.340520
0.766934 0.330907 0.373754
0.800015 0.368902 0.408301
0.832670 0.407416 0.442725
0.864317 0.444404 0.475410
0.894194 0.479103 0.506065
0.921233 0.512718 0.535576
0.944213 0.546624 0.565240
0.961944 0.583276 0.597070
0.974517 0.623651 0.632197
0.982635 0.667384 0.670558
0.987182 0.713863 0.712123
0.987854 0.728145 0.722042
0.085328 0.130007 0.103883
0.085451 0.130556 0.104280
0.089570 0.130892 0.104158
0.104768 0.131075 0.103304
0.124636 0.131502 0.104311
0.149386 0.135409 0.112947
0.184085 0.147738 0.124422
0.217136 0.153353 0.132479
0.253910 0.157321 0.138827
0.297459 0.161349 0.144564
0.348791 0.166323 0.151919
0.405676 0.173465 0.162966
0.463294 0.180941 0.176516
0.517632 0.189792 0.192111
0.564813 0.200351 0.210666
0.605737 0.214878 0.231998
0.642084 0.233188 0.256168
0.675868 0.255314 0.282872
0.708339 0.281529 0.311833
0.740963 0.311681 0.343175
0.773342 0.345190 0.376471
0.805570 0.381048 0.410803
0.827848 0.406195 0.435004
0.859525 0.442725 0.468360
0.889708 0.477302 0.499641
0.917266 0.510643 0.529595
0.941070 0.544152 0.559472
0.959686 0.579980 0.591211
0.973053 0.619501 0.626154
0.981781 0.662684 0.664454
0.986755 0.708827 0.706020
0.987884 0.729458 0.721645
0.088960 0.150088 0.109621
0.089906 0.150332 0.109590
0.096712 0.150362 0.109438
0.110475 0.150546 0.108644
0.129274 0.151095 0.108217
0.150851 0.152621 0.109255
0.180667 0.158297 0.116793
0.223148 0.173190 0.126284
0.268193 0.185580 0.133791
0.313481 0.191104 0.139406
0.365606 0.197879 0.146334
0.421942 0.206027 0.157565
0.478248 0.214267 0.171817
0.530388 0.222324 0.188388
0.575525 0.231418 0.207889
0.614984 0.243503 0.230350
0.650263 0.258732 0.255497
0.683467 0.277958 0.282872
0.715175 0.301274 0.312200
0.746700 0.328344 0.343542
0.777707 0.358679 0.376226
0.808316 0.391211 0.409522
0.838407 0.424811 0.442481
0.867765 0.457679 0.473854
0.895750 0.489387 0.503593
0.921569 0.520623 0.532586
0.943938 0.552697 0.562005
0.961456 0.587488 0.593561
0.974029 0.625971 0.628351
0.982300 0.668086 0.666468
0.986969 0.713191 0.707851
0.987854 0.731136 0.721218
0.092592 0.173678 0.112734
0.097658 0.173831 0.112398
0.104463 0.173922 0.112032
0.118196 0.173983 0.111025
0.136965 0.174166 0.109773
0.158938 0.176303 0.110384
0.181857 0.176913 0.111635
0.221469 0.187747 0.117342
0.275975 0.208194 0.124331
0.336675 0.228458 0.130617
0.395300 0.240635 0.138399
0.451087 0.248783 0.151095
0.504662 0.255985 0.166995
0.552422 0.262364 0.185519
0.594018 0.269200 0.207004
0.630854 0.278569 0.231174
0.664637 0.291142 0.257664
0.696864 0.307652 0.286290
0.727779 0.328222 0.316564
0.758328 0.352667 0.348302
0.788296 0.380499 0.381231
0.817838 0.410590 0.414496
0.846830 0.441810 0.447028
0.874937 0.472450 0.477760
0.901579 0.502251 0.506981
0.926024 0.531914 0.535546
0.946990 0.562554 0.564660
0.963378 0.596063 0.596094
0.975097 0.633356 0.630701
0.982818 0.674159 0.668574
0.987152 0.717983 0.709621
0.987884 0.733181 0.720668
0.101778 0.200351 0.112551
0.107149 0.200412 0.112398
0.114046 0.200534 0.112001
0.127657 0.200717 0.110933
0.146487 0.201175 0.109346
0.169039 0.203067 0.108553
0.194949 0.206821 0.108827
0.218845 0.205478 0.110140
0.272801 0.224735 0.112856
0.341558 0.252323 0.117220
0.412604 0.277165 0.124697
0.482277 0.298558 0.140352
0.531792 0.303105 0.159091
0.575128 0.306310 0.180819
0.613245 0.310246 0.204746
0.647913 0.316564 0.231083
0.680537 0.326421 0.259342
0.711635 0.340093 0.289372
0.741573 0.357641 0.320531
0.770779 0.379339 0.352941
0.799649 0.404425 0.386114
0.828000 0.431861 0.419257
0.855650 0.460456 0.451331
0.882353 0.488685 0.481544
0.907530 0.516350 0.510155
0.930480 0.544152 0.538323
0.950042 0.573327 0.567254
0.965209 0.605493 0.598505
0.976104 0.641321 0.632959
0.983307 0.680690 0.670588
0.987304 0.723079 0.711269
0.987884 0.735592 0.720027
0.113161 0.231510 0.109621
0.118441 0.231510 0.109224
0.125032 0.231693 0.108797
0.139132 0.232059 0.107576
0.158450 0.232334 0.105867
0.181582 0.233768 0.103792
0.208560 0.238499 0.103120
0.239872 0.244236 0.102083
0.264988 0.240848 0.103761
0.337438 0.271214 0.101900
0.417395 0.304082 0.106661
0.489815 0.328985 0.122744
0.554284 0.349096 0.146639
0.598566 0.353765 0.173739
0.633783 0.354406 0.201144
0.666346 0.357488 0.229923
0.697566 0.364080 0.260227
0.727352 0.374670 0.291630
0.755886 0.389166 0.323888
0.783871 0.407752 0.357092
0.811673 0.430243 0.390753
0.838895 0.455238 0.424018
0.865293 0.481239 0.455970
0.890593 0.507042 0.485725
0.914244 0.532525 0.514000
0.935546 0.558465 0.541772
0.953429 0.585779 0.570397
0.967254 0.616205 0.601404
0.977203 0.650355 0.635523
0.983795 0.687800 0.672602
0.987457 0.728359 0.712673
0.987884 0.738430 0.719295
0.126467 0.268376 0.102846
0.131746 0.268406 0.102632
0.138613 0.268559 0.101869
0.152834 0.268986 0.100465
0.172854 0.269139 0.098238
0.196719 0.269627 0.095247
0.224796 0.274723 0.093416
0.257328 0.281651 0.091249
0.295109 0.290135 0.087709
0.328130 0.289097 0.088655
0.411322 0.324559 0.084443
0.492927 0.356970 0.099245
0.556237 0.375860 0.125490
0.610529 0.390539 0.158938
0.655451 0.401312 0.195865
0.686854 0.401495 0.227939
0.716854 0.405188 0.260746
0.745327 0.412757 0.294285
0.772396 0.424109 0.328008
0.798947 0.439612 0.362097
0.825193 0.458991 0.396063
0.850645 0.480751 0.429206
0.875364 0.503746 0.460487
0.898863 0.526574 0.489631
0.920714 0.549615 0.517357
0.940276 0.573419 0.544823
0.956603 0.598901 0.573236
0.969177 0.627619 0.604150
0.978271 0.659998 0.638056
0.984283 0.695644 0.674800
0.987640 0.734432 0.714412
0.987854 0.741695 0.718502
0.142947 0.310552 0.091707
0.148226 0.310613 0.091432
0.155428 0.310796 0.090761
0.169619 0.310948 0.089143
0.190127 0.311376 0.086275
0.214603 0.311742 0.082795
0.243442 0.315007 0.078492
0.277226 0.323186 0.074647
0.316289 0.332647 0.068177
0.360418 0.343328 0.059480
0.401160 0.344091 0.060822
0.484932 0.377874 0.066438
0.546502 0.395514 0.096742
0.601160 0.409552 0.132143
0.649714 0.422248 0.171633
0.695674 0.437079 0.215274
0.728328 0.441657 0.253117
0.756130 0.446174 0.288670
0.782254 0.454322 0.323980
0.808011 0.466743 0.359442
0.833280 0.483070 0.394446
0.857755 0.502098 0.428290
0.881346 0.522515 0.459998
0.903777 0.543175 0.489357
0.924468 0.564202 0.517266
0.942870 0.586053 0.544640
0.958160 0.609674 0.573053
0.970062 0.636500 0.603845
0.978668 0.667048 0.637568
0.984405 0.700954 0.674098
0.987579 0.738064 0.713375
0.987823 0.745357 0.717647
0.160555 0.353094 0.078279
0.165988 0.353246 0.077516
0.173159 0.353582 0.076539
0.187503 0.353979 0.074586
0.208194 0.354681 0.071015
0.233463 0.355444 0.065919
0.262119 0.356146 0.059449
0.296208 0.364721 0.048829
0.335241 0.374517 0.029480
0.378882 0.385077 0.004486
0.425116 0.394507 0.000000
0.470130 0.395331 0.000000
0.543603 0.420478 0.048219
0.604730 0.438025 0.102541
0.652155 0.448249 0.147738
0.697658 0.460548 0.193820
0.741421 0.476234 0.243259
0.776913 0.489540 0.290593
0.801450 0.494453 0.327916
0.825528 0.503746 0.364752
0.848844 0.516594 0.400397
0.871275 0.532067 0.434150
0.892821 0.549096 0.465278
0.913146 0.566552 0.494087
0.931792 0.584833 0.521508
0.948150 0.604089 0.548577
0.961700 0.625666 0.576867
0.972229 0.650355 0.607446
0.979858 0.678767 0.640894
0.984924 0.710506 0.676936
0.987732 0.745388 0.715541
0.987762 0.749477 0.716732
0.183474 0.402991 0.059541
0.188846 0.402991 0.059022
0.195468 0.403235 0.056916
0.209812 0.403632 0.051759
0.230472 0.404089 0.043091
0.255802 0.404608 0.028138
0.284703 0.404791 0.011261
0.318059 0.410010 0.000000
0.356695 0.419440 0.000000
0.399420 0.429572 0.000000
0.446235 0.440009 0.000000
0.489509 0.444221 0.000000
0.536522 0.444007 0.000000
0.598596 0.460700 0.042390
0.652766 0.474281 0.116121
0.699123 0.484932 0.168368
0.742916 0.497993 0.220493
0.783261 0.514519 0.274784
0.820066 0.534905 0.330053
0.843229 0.542321 0.369635
0.864439 0.551629 0.405921
0.884703 0.563378 0.439582
0.904051 0.576715 0.470222
0.922148 0.590906 0.498543
0.938659 0.606104 0.525475
0.953033 0.622827 0.552270
0.964874 0.641993 0.580438
0.974121 0.664454 0.610803
0.980865 0.690639 0.643915
0.985351 0.720119 0.679377
0.987732 0.752041 0.716213
0.987701 0.754025 0.715785
0.206149 0.451667 0.007691
0.211276 0.451545 0.006500
0.217685 0.451728 0.003174
0.231754 0.451881 0.000000
0.252079 0.452216 0.000000
0.277256 0.452369 0.000000
0.305791 0.452247 0.000000
0.337469 0.452888 0.000000
0.374792 0.461555 0.000000
0.416144 0.470680 0.000000
0.460609 0.479683 0.000000
0.507988 0.488472 0.000000
0.545342 0.485908 0.000000
0.591974 0.484169 0.000000
0.646815 0.496284 0.064149
0.698665 0.509331 0.135744
0.743771 0.520928 0.193515
0.784390 0.534417 0.250797
0.821530 0.551751 0.309087
0.855070 0.573022 0.365911
0.879759 0.587884 0.410895
0.897826 0.595727 0.444648
0.914946 0.605310 0.474922
0.930816 0.616205 0.502861
0.945159 0.628351 0.529442
0.957580 0.642267 0.555993
0.967803 0.658869 0.583856
0.975830 0.678859 0.613886
0.981720 0.702449 0.646357
0.985626 0.729335 0.681056
0.987610 0.757687 0.715023
0.987579 0.758999 0.714778
0.227420 0.496315 0.000000
0.232334 0.496132 0.000000
0.238468 0.496040 0.000000
0.251560 0.495979 0.000000
0.271122 0.495674 0.000000
0.295415 0.495308 0.000000
0.323156 0.494484 0.000000
0.353552 0.493446 0.000000
0.388464 0.498054 0.000000
0.427344 0.505730 0.000000
0.469612 0.513542 0.000000
0.514427 0.521630 0.000000
0.561822 0.529381 0.000000
0.593530 0.520897 0.000000
0.640925 0.519310 0.000000
0.693019 0.530938 0.086793
0.742947 0.544152 0.160128
0.785245 0.555993 0.223178
0.822721 0.570214 0.285069
0.856443 0.588251 0.345434
0.885801 0.609064 0.401404
0.909911 0.628473 0.448615
0.924804 0.634211 0.478706
0.938537 0.641596 0.506340
0.950866 0.650690 0.532677
0.961517 0.661830 0.559045
0.970336 0.675837 0.586786
0.977295 0.693416 0.616571
0.982452 0.714534 0.648646
0.985840 0.739132 0.682856
0.987457 0.764157 0.713802
0.987457 0.764462 0.713741
0.246738 0.535607 0.000000
0.251164 0.535515 0.000000
0.257084 0.535393 0.000000
0.269810 0.535149 0.000000
0.288273 0.534691 0.000000
0.311406 0.533989 0.000000
0.338109 0.532952 0.000000
0.367681 0.531579 0.000000
0.400153 0.531640 0.000000
0.436927 0.538201 0.000000
0.476753 0.545006 0.000000
0.519005 0.551873 0.000000
0.563806 0.558923 0.000000
0.610864 0.565972 0.000000
0.636927 0.551995 0.000000
0.687037 0.552941 0.000000
0.737179 0.564752 0.113375
0.784024 0.577661 0.189212
0.823758 0.590387 0.257420
0.857939 0.605463 0.322362
0.887480 0.623529 0.382818
0.912352 0.642695 0.435706
0.932921 0.660761 0.479896
0.946014 0.668208 0.510277
0.956390 0.674067 0.536492
0.965362 0.682460 0.562799
0.972839 0.693935 0.590417
0.978790 0.708949 0.619898
0.983154 0.727565 0.651514
0.986053 0.749660 0.685115
0.987243 0.771420 0.712520
0.987274 0.770321 0.712734
0.263737 0.569757 0.000000
0.268040 0.569421 0.000000
0.270726 0.564385 0.000000
0.282567 0.564050 0.000000
0.299962 0.563622 0.000000
0.321660 0.562921 0.000000
0.347265 0.562097 0.000000
0.375525 0.560845 0.000000
0.406439 0.559228 0.000000
0.440955 0.563317 0.000000
0.478553 0.569543 0.000000
0.518853 0.576196 0.000000
0.561639 0.583062 0.000000
0.606867 0.590326 0.000000
0.654414 0.597925 0.000000
0.676020 0.579797 0.000000
0.729366 0.584375 0.000000
0.776974 0.595972 0.142977
0.820371 0.608545 0.221134
0.856779 0.621942 0.292760
0.887144 0.637324 0.358465
0.912474 0.654475 0.416754
0.933227 0.671199 0.465400
0.949615 0.686671 0.506340
0.960815 0.696986 0.539055
0.968536 0.702846 0.565698
0.975006 0.711971 0.593500
0.980041 0.724727 0.623102
0.983795 0.740932 0.654414
0.986145 0.760616 0.687526
0.986938 0.779568 0.711238
0.987060 0.776638 0.711696
0.279454 0.600519 0.000000
0.282841 0.599756 0.000000
0.287724 0.598962 0.000000
0.298436 0.598077 0.000000
0.314427 0.597101 0.000000
0.335027 0.596246 0.000000
0.359442 0.595209 0.000000
0.386938 0.593957 0.000000
0.416724 0.592370 0.000000
0.448859 0.592401 0.000000
0.485023 0.598413 0.000000
0.523766 0.604700 0.000000
0.565148 0.611719 0.000000
0.609064 0.619074 0.000000
0.655177 0.626856 0.000000
0.699794 0.631800 0.000000
0.720607 0.612390 0.000000
0.775418 0.619684 0.080842
0.819425 0.630457 0.181247
0.857542 0.642054 0.261631
0.888792 0.654932 0.334081
0.914153 0.669368 0.397681
0.934691 0.684230 0.450935
0.950866 0.697963 0.495064
0.963012 0.711177 0.533684
0.971588 0.724117 0.569329
0.976959 0.730648 0.597070
0.981170 0.740871 0.626490
0.984253 0.754574 0.657374
0.986175 0.771817 0.689937
0.986572 0.788571 0.710018
0.986816 0.783413 0.710719
0.295415 0.632959 0.000000
0.298589 0.632288 0.000000
0.303166 0.631556 0.000000
0.313115 0.630793 0.000000
0.328527 0.629847 0.000000
0.348058 0.629023 0.000000
0.371618 0.628016 0.000000
0.397955 0.626856 0.000000
0.426856 0.625330 0.000000
0.457832 0.623499 0.000000
0.492287 0.627619 0.000000
0.529900 0.633997 0.000000
0.570153 0.640925 0.000000
0.612757 0.648402 0.000000
0.657649 0.656306 0.000000
0.704494 0.664668 0.000000
0.744442 0.665461 0.000000
0.768704 0.648585 0.000000
0.819547 0.654536 0.131411
0.858274 0.663874 0.225467
0.890196 0.673945 0.305608
0.915618 0.685451 0.375280
0.936065 0.698116 0.434241
0.952056 0.710048 0.482216
0.964141 0.721584 0.523369
0.972839 0.733791 0.561456
0.978607 0.747829 0.599054
0.982116 0.757321 0.630060
0.984588 0.768643 0.660609
0.986053 0.783413 0.692653
0.986206 0.796323 0.709102
0.986511 0.790585 0.709773
0.311589 0.666682 0.000000
0.314672 0.666011 0.000000
0.319066 0.665278 0.000000
0.328496 0.664546 0.000000
0.342992 0.663661 0.000000
0.361944 0.662898 0.000000
0.384405 0.662013 0.000000
0.409949 0.660945 0.000000
0.438209 0.659571 0.000000
0.468421 0.657954 0.000000
0.500938 0.658167 0.000000
0.537621 0.664576 0.000000
0.576715 0.671595 0.000000
0.618158 0.678981 0.000000
0.661707 0.686732 0.000000
0.706844 0.694697 0.000000
0.753597 0.702724 0.000000
0.787900 0.698543 0.000000
0.814298 0.683497 0.092317
0.858885 0.687037 0.181155
0.891081 0.694179 0.271885
0.916503 0.702327 0.348363
0.936339 0.711635 0.412696
0.952361 0.721736 0.465705
0.964477 0.731472 0.509972
0.973388 0.741878 0.549706
0.979339 0.754086 0.588556
0.982788 0.768673 0.627344
0.984649 0.781186 0.661494
0.985809 0.793545 0.693019
0.985809 0.804410 0.708248
0.986145 0.798184 0.708888
0.327337 0.699672 0.000000
0.330327 0.699336 0.000000
0.334569 0.698970 0.000000
0.343786 0.698573 0.000000
0.357671 0.698024 0.000000
0.375952 0.697414 0.000000
0.397742 0.696681 0.000000
0.422431 0.695644 0.000000
0.449866 0.694362 0.000000
0.479377 0.692836 0.000000
0.510613 0.691066 0.000000
0.545647 0.695125 0.000000
0.583642 0.701869 0.000000
0.623621 0.708919 0.000000
0.665644 0.716335 0.000000
0.709407 0.724056 0.000000
0.754482 0.731807 0.000000
0.800565 0.739590 0.000000
0.828946 0.730343 0.082582
0.856077 0.716548 0.152499
0.893736 0.717708 0.234836
0.919402 0.722957 0.321324
0.938811 0.729152 0.392401
0.953582 0.735836 0.449012
0.965637 0.743771 0.497261
0.974517 0.752285 0.539330
0.980529 0.762661 0.579644
0.984009 0.775509 0.619806
0.985412 0.790555 0.659297
0.985443 0.805570 0.695888
0.985321 0.812894 0.707546
0.985718 0.806119 0.708095
0.345281 0.736324 0.000000
0.348119 0.735988 0.000000
0.352117 0.735653 0.000000
0.360967 0.735164 0.000000
0.374212 0.734707 0.000000
0.391791 0.734157 0.000000
0.412848 0.733577 0.000000
0.436683 0.732753 0.000000
0.463600 0.731685 0.000000
0.492500 0.730282 0.000000
0.523430 0.728725 0.000000
0.556146 0.728542 0.000000
0.592981 0.734829 0.000000
0.631922 0.741543 0.000000
0.672541 0.748470 0.000000
0.714717 0.755550 0.000000
0.757931 0.762570 0.000000
0.801846 0.769467 0.066621
0.846067 0.776089 0.103609
0.867826 0.761135 0.153170
0.893584 0.747768 0.212863
0.923217 0.746059 0.291295
0.942229 0.749020 0.371038
0.956023 0.752621 0.433265
0.966979 0.757229 0.483558
0.975799 0.763882 0.528527
0.981781 0.772274 0.570520
0.985290 0.783352 0.612146
0.986664 0.796902 0.653162
0.986267 0.812406 0.693080
0.986084 0.816770 0.701259
0.985229 0.814450 0.707424
0.363470 0.772122 0.073335
0.366033 0.771756 0.071962
0.369879 0.771420 0.070283
0.378241 0.771115 0.067109
0.391180 0.770840 0.061769
0.407904 0.770535 0.050477
0.428138 0.770138 0.027222
0.451606 0.769589 0.000000
0.477760 0.768826 0.000000
0.506096 0.767880 0.000000
0.536584 0.766751 0.000000
0.568536 0.765316 0.000000
0.603632 0.768765 0.000000
0.641321 0.774960 0.000000
0.680690 0.781369 0.000000
0.721401 0.787808 0.044556
0.762875 0.794064 0.089815
0.804868 0.800046 0.120577
0.846708 0.805631 0.149050
0.888212 0.810666 0.176669
0.902739 0.789944 0.218235
0.925292 0.776150 0.275578
0.946960 0.771908 0.349401
0.960052 0.772519 0.419409
0.969665 0.773739 0.472511
0.976867 0.775906 0.515740
0.982940 0.782315 0.559899
0.986511 0.791562 0.603265
0.987945 0.803586 0.646052
0.987488 0.817777 0.687556
0.987304 0.819516 0.692592
0.986267 0.817166 0.699947
0.385168 0.810727 0.123293
0.387579 0.810330 0.122560
0.391150 0.810086 0.121462
0.399115 0.809842 0.119417
0.411292 0.809537 0.116670
0.427192 0.809232 0.112886
0.446662 0.808835 0.107576
0.469093 0.808286 0.100679
0.494240 0.807584 0.091798
0.521752 0.806668 0.079500
0.551202 0.805570 0.062074
0.582574 0.804196 0.013367
0.615412 0.803433 0.000000
0.651606 0.808560 0.043854
0.689204 0.813809 0.085420
0.727840 0.818997 0.113527
0.767269 0.824002 0.139986
0.806851 0.828672 0.165682
0.846189 0.832914 0.191165
0.885069 0.836606 0.216953
0.919280 0.836362 0.244419
0.930571 0.813931 0.280797
0.949065 0.799527 0.336492
0.963897 0.793332 0.402960
0.972900 0.791928 0.461921
0.979461 0.791745 0.508171
0.984039 0.793027 0.547845
0.987701 0.800137 0.592859
0.989197 0.810422 0.637446
0.988800 0.823178 0.680629
0.988525 0.822721 0.683253
0.987457 0.819883 0.691432
0.409369 0.847776 0.173281
0.411810 0.847532 0.172610
0.415106 0.847379 0.171939
0.422583 0.847227 0.170809
0.433936 0.847044 0.168978
0.448920 0.846860 0.166384
0.467353 0.846555 0.162936
0.488655 0.846098 0.158663
0.512688 0.845426 0.153109
0.538872 0.844602 0.146365
0.567285 0.843534 0.138033
0.597375 0.842283 0.127962
0.629114 0.840879 0.115297
0.663020 0.842313 0.121187
0.698756 0.846220 0.143862
0.735378 0.850034 0.166629
0.772519 0.853513 0.189578
0.809659 0.856687 0.213169
0.846464 0.859373 0.236973
0.882567 0.861631 0.260899
0.917693 0.863371 0.284916
0.943969 0.857481 0.311772
0.952544 0.834409 0.343603
0.966674 0.819516 0.395605
0.976654 0.812039 0.452094
0.982605 0.809445 0.502312
0.986725 0.808774 0.544640
0.989105 0.810422 0.583459
0.990539 0.818357 0.628992
0.990539 0.829007 0.666651
0.989746 0.826444 0.673243
0.988647 0.823056 0.682277
0.438605 0.882963 0.229526
0.440650 0.882780 0.228946
0.443793 0.882658 0.228367
0.450416 0.882475 0.227420
0.460883 0.882200 0.225986
0.474464 0.881834 0.223911
0.491066 0.881224 0.221012
0.510521 0.880430 0.217258
0.532555 0.879423 0.212802
0.556847 0.878264 0.207156
0.583124 0.876860 0.200809
0.611292 0.875334 0.193484
0.641199 0.873716 0.184909
0.672572 0.872038 0.175479
0.706172 0.874266 0.194247
0.740597 0.876524 0.214694
0.775387 0.878569 0.235935
0.810056 0.880247 0.257542
0.844236 0.881498 0.279698
0.877806 0.882353 0.301854
0.910338 0.882841 0.324041
0.941680 0.883055 0.346197
0.960967 0.872679 0.371069
0.967590 0.849668 0.398413
0.978637 0.834836 0.444709
0.985382 0.827207 0.493904
0.989105 0.824399 0.539422
0.991211 0.824247 0.580682
0.991852 0.826596 0.619013
0.992065 0.834958 0.652491
0.990997 0.830716 0.662501
0.989837 0.826749 0.672450
0.470008 0.911589 0.286107
0.471931 0.911498 0.285710
0.474617 0.911406 0.285405
0.480781 0.911254 0.284855
0.490089 0.911070 0.283909
0.502373 0.910765 0.282475
0.517540 0.910338 0.280613
0.535180 0.909728 0.278202
0.555383 0.908965 0.275120
0.577844 0.907988 0.271366
0.602289 0.906889 0.266972
0.628595 0.905608 0.262058
0.656489 0.904204 0.256443
0.685847 0.902678 0.250187
0.716854 0.902037 0.253758
