其他预设/【233】日式怀旧街道调色预设208款/1.3D LUT预设（视频调色-PR-AE-PS-FCPX-达芬奇用）/2.富士胶片风-日式城市街拍预设/JA – Subdued 1 (Classic Chrome).cube
# Created by Adobe Lightroom plugin Export LUT (1.17.0)
# www.johnrellis.com/lightroom/exportlut.htm
# Preset: JA – Subdued 1 (Classic Chrome)
# Color profile: /Library/Application Support/Adobe/Color/Profiles/Recommended/AdobeRGB1998.icc
LUT_3D_SIZE 8
DOMAIN_MIN 0.000000 0.000000 0.000000
DOMAIN_MAX 0.903226 0.903226 0.903226
0.107851 0.103517 0.100435
0.129702 0.100954 0.101625
0.262547 0.068025 0.098177
0.477424 0.000000 0.066468
0.664881 0.054658 0.000000
0.818540 0.092134 0.000000
0.946075 0.101076 0.000000
1.000000 0.105257 0.000000
0.110109 0.122866 0.101900
0.131991 0.124300 0.100801
0.271336 0.136507 0.090944
0.481209 0.151278 0.035950
0.665980 0.169192 0.000000
0.817319 0.173037 0.000000
0.943023 0.172549 0.000000
1.000000 0.168490 0.000000
0.133944 0.216556 0.099550
0.163943 0.211643 0.099763
0.260410 0.237766 0.083619
0.494545 0.308934 0.000000
0.683833 0.323217 0.000000
0.830381 0.318425 0.000000
0.953460 0.309056 0.000000
1.000000 0.292882 0.000000
0.182101 0.374151 0.082795
0.215488 0.366979 0.082918
0.296208 0.357336 0.076997
0.446662 0.410529 0.000000
0.672511 0.473762 0.000000
0.851987 0.481239 0.000000
0.961852 0.457374 0.000000
1.000000 0.427344 0.000000
0.241550 0.513176 0.096437
0.267491 0.506828 0.094728
0.334874 0.485512 0.089052
0.439612 0.500725 0.048280
0.596582 0.553552 0.000000
0.793606 0.599084 0.000000
0.949828 0.600122 0.000000
1.000000 0.564538 0.000000
0.307988 0.637629 0.151705
0.328313 0.635309 0.150423
0.382177 0.617426 0.139284
0.450141 0.586419 0.119142
0.578119 0.634791 0.084291
0.736172 0.687465 0.000000
0.904204 0.714473 0.000000
1.000000 0.694911 0.000000
0.390356 0.772366 0.234958
0.404639 0.769986 0.232609
0.447883 0.758328 0.220798
0.512078 0.738674 0.200443
0.599725 0.738186 0.182132
0.727810 0.778805 0.173312
0.873777 0.818143 0.140597
0.995239 0.812894 0.103548
0.509483 0.917784 0.379187
0.519646 0.916533 0.377539
0.554650 0.912810 0.372778
0.613855 0.907561 0.367010
0.683314 0.893919 0.348425
0.780453 0.910094 0.354803
0.885985 0.925536 0.357733
0.989166 0.928954 0.338689
0.104005 0.108034 0.127779
0.132357 0.099886 0.126162
0.258000 0.075563 0.129732
0.468818 0.000000 0.110842
0.655329 0.000000 0.079500
0.810056 0.000000 0.000000
0.937835 0.027314 0.000000
1.000000 0.079164 0.000000
0.104036 0.130831 0.126955
0.135256 0.129671 0.126101
0.269566 0.131106 0.123415
0.474739 0.129488 0.105135
0.658473 0.133547 0.070466
0.810880 0.141726 0.000000
0.936095 0.150454 0.000000
1.000000 0.155459 0.000000
0.113680 0.233005 0.128817
0.162692 0.232914 0.132418
0.268589 0.247166 0.121950
0.495216 0.298711 0.077089
0.675990 0.307317 0.000000
0.821530 0.304814 0.000000
0.943542 0.299870 0.000000
1.000000 0.289616 0.000000
0.164950 0.388983 0.131991
0.209995 0.382971 0.135073
0.297093 0.364202 0.128267
0.445686 0.411139 0.095216
0.663416 0.464240 0.000000
0.838376 0.471199 0.000000
0.951415 0.452766 0.000000
1.000000 0.428351 0.000000
0.241337 0.524987 0.161440
0.268070 0.518151 0.158083
0.337407 0.495827 0.147921
0.437476 0.500450 0.130556
0.592340 0.551141 0.085176
0.789090 0.596155 0.000000
0.945861 0.600122 0.000000
1.000000 0.568170 0.054170
0.310430 0.643030 0.202518
0.328740 0.638239 0.199252
0.382208 0.620539 0.186954
0.450233 0.589441 0.165530
0.575280 0.633021 0.152285
0.734340 0.687221 0.121004
0.902495 0.714992 0.000000
1.000000 0.697261 0.091188
0.389380 0.771725 0.266697
0.402319 0.767910 0.262730
0.445350 0.756863 0.251133
0.509758 0.738277 0.231205
0.595789 0.734707 0.213413
0.723720 0.775662 0.211582
0.868833 0.814786 0.193759
0.992035 0.811856 0.178012
0.507286 0.916258 0.396155
0.517754 0.915465 0.394965
0.552728 0.911925 0.389960
0.611444 0.906798 0.383185
0.686183 0.898497 0.372473
0.780667 0.910979 0.375647
0.884550 0.924956 0.376989
0.987396 0.928374 0.360082
0.000000 0.119661 0.314458
0.123018 0.101228 0.307103
0.284276 0.061707 0.284337
0.465583 0.000000 0.287419
0.639582 0.000000 0.284855
0.796139 0.137362 0.298009
0.928649 0.186404 0.299901
1.000000 0.219730 0.296086
0.000000 0.191409 0.308049
0.094118 0.153811 0.300084
0.283909 0.129732 0.281773
0.466194 0.106325 0.283360
0.637812 0.150698 0.287877
0.798367 0.192721 0.295323
0.927855 0.229404 0.299229
1.000000 0.253086 0.296147
0.009979 0.298192 0.292241
0.136812 0.294835 0.289097
0.298894 0.291325 0.286534
0.483436 0.296635 0.285832
0.661585 0.314061 0.294194
0.808896 0.331090 0.301884
0.932952 0.344671 0.306981
1.000000 0.349584 0.304631
0.130190 0.432441 0.285832
0.193240 0.431495 0.284550
0.327062 0.423194 0.291630
0.463752 0.439216 0.283726
0.678096 0.483406 0.295720
0.826383 0.487190 0.312963
0.941924 0.483558 0.322118
1.000000 0.471260 0.321782
0.217472 0.562341 0.285924
0.257023 0.560143 0.288121
0.363165 0.542596 0.304417
0.448920 0.518303 0.281987
0.602930 0.569665 0.286625
0.794247 0.612573 0.298833
0.945037 0.623285 0.336034
1.000000 0.597742 0.345586
0.304875 0.674769 0.311345
0.345159 0.670649 0.329686
0.401892 0.652796 0.320958
0.467445 0.619623 0.293248
0.576562 0.638788 0.286687
0.733425 0.692866 0.294743
0.902556 0.724849 0.304021
1.000000 0.714229 0.348516
0.403510 0.789761 0.373175
0.416602 0.786252 0.370275
0.456367 0.774197 0.356909
0.516320 0.753841 0.331853
0.591089 0.733181 0.302129
0.720851 0.776608 0.316808
0.867765 0.818906 0.326238
0.990326 0.819242 0.341680
0.516289 0.921721 0.469978
0.523705 0.920256 0.465400
0.555383 0.916167 0.457465
0.612207 0.911742 0.448524
0.683955 0.902831 0.431556
0.777371 0.910552 0.432746
0.882078 0.925444 0.443671
0.983459 0.929168 0.440650
0.000000 0.151675 0.549950
0.000000 0.123537 0.545586
0.290684 0.086641 0.525841
0.478889 0.000000 0.497597
0.635340 0.064576 0.474434
0.780667 0.199191 0.474708
0.902312 0.312810 0.494667
0.999695 0.401709 0.524498
0.000000 0.249241 0.544274
0.000000 0.204990 0.540948
0.288731 0.179141 0.523247
0.479255 0.160006 0.495918
0.635462 0.179324 0.475410
0.779080 0.257542 0.478462
0.900145 0.349554 0.500572
1.000000 0.410315 0.520409
0.000000 0.392065 0.540520
0.108766 0.388098 0.536522
0.303929 0.348791 0.516808
0.482216 0.330114 0.491890
0.639155 0.347784 0.484535
0.779812 0.396796 0.499184
0.906737 0.443519 0.520592
1.000000 0.459663 0.520653
0.101686 0.512657 0.512383
0.195193 0.509819 0.509636
0.348211 0.502403 0.502342
0.498024 0.496803 0.497200
0.656428 0.506462 0.502190
0.794461 0.523522 0.514855
0.916960 0.539818 0.527062
1.000000 0.547448 0.531456
0.248753 0.617548 0.487800
0.288273 0.614557 0.486213
0.387854 0.606744 0.482643
0.500664 0.589624 0.481636
0.621149 0.604517 0.478279
0.803067 0.649928 0.518822
0.930327 0.662226 0.546532
1.000000 0.650324 0.549248
0.325444 0.718044 0.474556
0.352605 0.717586 0.476783
0.422370 0.708156 0.475898
0.512200 0.683162 0.473426
0.586572 0.656306 0.439063
0.738003 0.710018 0.467170
0.903136 0.749203 0.510582
0.997711 0.749020 0.557794
0.402045 0.818662 0.488106
0.418524 0.816861 0.488533
0.472267 0.808835 0.492317
0.540520 0.788052 0.482063
0.601312 0.756191 0.436225
0.718196 0.781094 0.444434
0.864286 0.825101 0.472663
0.983825 0.830747 0.508782
0.519219 0.934905 0.561181
0.534539 0.933501 0.566217
0.582300 0.927550 0.580133
0.619532 0.921660 0.553491
0.683558 0.912230 0.528405
0.769986 0.909483 0.512902
0.876951 0.925841 0.535607
0.976043 0.930053 0.548058
0.000000 0.217411 0.741085
0.000000 0.197910 0.738674
0.238163 0.200504 0.726741
0.473610 0.200473 0.705806
0.645991 0.204074 0.682521
0.775601 0.247349 0.646540
0.894316 0.333837 0.636500
0.988342 0.444343 0.652308
0.000000 0.314488 0.736934
0.000000 0.286564 0.735805
0.259098 0.271977 0.725093
0.478218 0.265934 0.704891
0.645624 0.262669 0.680598
0.774472 0.294041 0.646693
0.893492 0.368811 0.639887
0.986847 0.468544 0.657099
0.092103 0.465644 0.734981
0.206394 0.462867 0.730404
0.322393 0.424781 0.719570
0.492653 0.407202 0.700862
0.644831 0.392889 0.674281
0.768948 0.406806 0.645594
0.889586 0.463996 0.650416
0.981415 0.539513 0.672267
0.187533 0.586999 0.725307
0.256748 0.586847 0.723140
0.399817 0.586969 0.716976
0.521080 0.558373 0.697597
0.648188 0.533532 0.669337
0.768276 0.544549 0.655329
0.886687 0.586297 0.672602
0.976287 0.629938 0.693904
0.274723 0.688899 0.694148
0.316869 0.687312 0.692592
0.422705 0.681392 0.686702
0.543420 0.672419 0.677821
0.655421 0.661250 0.666773
0.781949 0.673121 0.675532
0.900328 0.689143 0.688777
0.980865 0.698512 0.696193
0.374182 0.763149 0.658930
0.399420 0.761501 0.658991
0.468147 0.754330 0.654658
0.555200 0.743008 0.647242
0.633936 0.718013 0.628412
0.744045 0.733822 0.631128
0.905364 0.785061 0.690181
0.978546 0.787900 0.716030
0.450324 0.850370 0.649226
0.465583 0.848417 0.648798
0.512474 0.842100 0.646876
0.575372 0.830686 0.639307
0.636255 0.803372 0.611566
0.708003 0.781308 0.567498
0.857511 0.832029 0.614099
0.971923 0.847288 0.668788
0.554681 0.943267 0.683162
0.563928 0.942229 0.683101
0.592981 0.938964 0.681361
0.636805 0.935271 0.675135
0.691127 0.924804 0.653132
0.759701 0.912383 0.612970
0.867216 0.924743 0.632013
0.965454 0.930327 0.657008
0.000000 0.328801 0.870787
0.000000 0.316564 0.869596
0.240024 0.327337 0.863340
0.459083 0.340185 0.853239
0.629297 0.345403 0.836057
0.773129 0.352392 0.816648
0.891661 0.391455 0.789914
0.978820 0.469581 0.769650
0.000000 0.399451 0.866392
0.000000 0.383978 0.865568
0.277531 0.376806 0.860716
0.469551 0.382208 0.850309
0.631708 0.382330 0.833371
0.772091 0.384833 0.814298
0.889921 0.417884 0.789212
0.977325 0.490394 0.771328
0.295384 0.540124 0.864714
0.335302 0.540368 0.862272
0.381933 0.508141 0.857969
0.508751 0.497597 0.847959
0.645624 0.487984 0.830900
0.773190 0.479103 0.811093
0.886900 0.498512 0.789914
0.973297 0.557977 0.779080
0.355718 0.650538 0.865599
0.393194 0.653620 0.864317
0.489540 0.655451 0.856962
0.572595 0.635218 0.846250
0.671595 0.616571 0.830350
0.777768 0.597070 0.808865
0.883909 0.602472 0.792569
0.968200 0.646174 0.790829
0.391394 0.737667 0.849302
0.422156 0.738827 0.848661
0.509819 0.742641 0.846220
0.617304 0.747921 0.842435
0.693080 0.724392 0.827787
0.778012 0.695552 0.801755
0.880491 0.697993 0.792538
0.961212 0.734890 0.803464
0.437690 0.818112 0.824063
0.461769 0.817868 0.823850
0.530053 0.815091 0.821195
0.616541 0.810178 0.816526
0.698634 0.802487 0.809140
0.781308 0.789639 0.796841
0.892760 0.805753 0.810544
0.959014 0.817655 0.821042
0.517571 0.886290 0.802884
0.533928 0.885557 0.803464
0.581109 0.881865 0.803738
0.642023 0.875853 0.800961
0.700038 0.864866 0.787045
0.751583 0.835325 0.752316
0.859373 0.850431 0.756344
0.955688 0.876799 0.819699
0.608667 0.952911 0.804410
0.616663 0.952117 0.804227
0.642481 0.949615 0.802914
0.681361 0.946075 0.799100
0.725460 0.940490 0.787808
0.772732 0.929412 0.757717
0.854002 0.923674 0.729946
0.952880 0.931426 0.768368
0.177676 0.453651 0.949035
0.204288 0.446204 0.948943
0.341527 0.455451 0.946502
0.485359 0.468849 0.942229
0.622980 0.479866 0.935454
0.754025 0.484138 0.925780
0.874601 0.492348 0.915679
0.965850 0.539452 0.889281
0.278904 0.501762 0.946685
0.292668 0.494453 0.946624
0.374884 0.490608 0.944854
0.501579 0.499306 0.940581
0.630488 0.506584 0.933989
0.756374 0.507256 0.924437
0.874083 0.511894 0.914214
0.964538 0.553857 0.888609
0.449653 0.621912 0.941558
0.457557 0.617090 0.941344
0.475044 0.594263 0.940826
0.555047 0.589410 0.937438
0.658564 0.588708 0.931273
0.767605 0.582086 0.922210
0.875792 0.578241 0.912383
0.961761 0.606653 0.888884
0.498207 0.702693 0.940276
0.519921 0.705653 0.939300
0.583948 0.714839 0.936217
0.629847 0.700679 0.933440
0.698268 0.689418 0.928313
0.784421 0.675654 0.919982
0.878691 0.661250 0.910094
0.957824 0.674250 0.888273
0.533959 0.777646 0.935698
0.553887 0.780453 0.935241
0.613367 0.789395 0.933989
0.686000 0.796780 0.931579
0.738582 0.781765 0.926360
0.800626 0.762325 0.918242
0.881193 0.740993 0.906798
0.952667 0.748165 0.887144
0.562676 0.846281 0.927306
0.578546 0.847257 0.927062
0.626886 0.850309 0.926390
0.693904 0.854673 0.925658
0.770932 0.860807 0.924743
0.828733 0.851041 0.919066
0.885496 0.823972 0.904204
0.945800 0.830320 0.891264
0.594110 0.912322 0.915831
0.606195 0.912169 0.915679
0.643549 0.911345 0.914977
0.698543 0.910002 0.913848
0.763699 0.907744 0.911925
0.830259 0.903929 0.908598
0.886564 0.893156 0.898650
0.939391 0.904479 0.908751
0.657740 0.958923 0.897398
0.666133 0.958251 0.897429
0.694453 0.956146 0.897856
0.737362 0.952514 0.898131
0.789059 0.947478 0.898375
0.834836 0.941985 0.893309
0.869261 0.933043 0.871855
0.938537 0.933318 0.878813
0.458106 0.593408 0.970672
0.464973 0.590845 0.970703
0.508110 0.595636 0.969909
0.579492 0.607294 0.968292
0.662318 0.619837 0.966186
0.749416 0.629694 0.963745
0.838437 0.635187 0.961059
0.925719 0.642206 0.958099
0.495277 0.622797 0.968902
0.500847 0.620203 0.968963
0.531701 0.619165 0.968536
0.595697 0.628229 0.967071
0.672236 0.637903 0.965148
0.754604 0.645167 0.962890
0.840391 0.647974 0.960357
0.925811 0.652918 0.957549
0.589960 0.702022 0.963714
0.593011 0.699367 0.963806
0.602350 0.688899 0.964141
0.643030 0.688258 0.963439
0.702754 0.691554 0.961975
0.771328 0.692439 0.960235
0.847318 0.689265 0.958190
0.926421 0.689235 0.955749
0.624628 0.752956 0.960601
0.640528 0.758206 0.959991
0.689082 0.774868 0.958068
0.705928 0.764126 0.958282
0.744228 0.760128 0.957580
0.796292 0.756680 0.956390
0.858091 0.748531 0.954925
0.927581 0.743069 0.953033
0.658259 0.808164 0.956970
0.669123 0.810300 0.956634
0.702358 0.816678 0.955596
0.749935 0.825803 0.953979
0.794186 0.830716 0.952514
0.826810 0.823545 0.951904
0.872221 0.814206 0.950958
0.929076 0.806241 0.949493
0.679530 0.852720 0.953613
0.689662 0.854429 0.953338
0.722621 0.860319 0.952331
0.772549 0.870298 0.950713
0.828946 0.883146 0.948669
0.868162 0.887572 0.947204
0.892851 0.879393 0.946715
0.930907 0.870115 0.945739
0.708827 0.899748 0.949676
0.716915 0.900359 0.949493
0.743435 0.902434 0.948882
0.785641 0.906310 0.947814
0.836942 0.912261 0.946410
0.888090 0.920928 0.944762
0.917510 0.925719 0.943542
0.932525 0.917937 0.942718
0.741604 0.943389 0.945647
0.747829 0.943236 0.945525
0.768917 0.942779 0.945190
0.803586 0.941955 0.944579
0.845975 0.940887 0.943816
0.888182 0.939727 0.942992
0.919768 0.938842 0.942351
0.933349 0.937865 0.941558
