其他预设/【233】日式怀旧街道调色预设208款/1.3D LUT预设（视频调色-PR-AE-PS-FCPX-达芬奇用）/2.富士胶片风-日式城市街拍预设/JA – Subdued 1 (Classic Chrome).cube
# Created by Adobe Lightroom plugin Export LUT (1.17.0)
# www.johnrellis.com/lightroom/exportlut.htm
# Preset: JA – Subdued 1 (Classic Chrome)
# Color profile: /Library/Application Support/Adobe/Color/Profiles/Recommended/AdobeRGB1998.icc
LUT_3D_SIZE 5
DOMAIN_MIN 0.000000 0.000000 0.000000
DOMAIN_MAX 0.903226 0.903226 0.903226
0.107851 0.103517 0.100435
0.213291 0.081483 0.101076
0.575494 0.000000 0.002106
0.853361 0.095216 0.000000
1.000000 0.105257 0.000000
0.124727 0.183230 0.100771
0.216709 0.198215 0.090547
0.594110 0.281041 0.000000
0.861082 0.279149 0.000000
1.000000 0.260655 0.000000
0.210086 0.445380 0.082277
0.294102 0.423865 0.080659
0.527367 0.487221 0.000000
0.865354 0.544671 0.000000
1.000000 0.495796 0.000000
0.328069 0.672999 0.170260
0.381872 0.657923 0.160098
0.515404 0.634607 0.125063
0.769894 0.719661 0.000000
1.000000 0.725124 0.000000
0.509483 0.917784 0.379187
0.543450 0.913909 0.374029
0.643732 0.898131 0.352819
0.806699 0.914885 0.356786
0.989166 0.928954 0.338689
0.000000 0.113710 0.251408
0.233097 0.084352 0.230137
0.554772 0.000000 0.234195
0.834958 0.079835 0.234012
1.000000 0.169345 0.227756
0.076600 0.243229 0.237217
0.245701 0.238041 0.233036
0.573053 0.251164 0.231907
0.842863 0.280156 0.239475
1.000000 0.296239 0.237858
0.170657 0.489082 0.235843
0.311254 0.474067 0.253147
0.530938 0.498299 0.233463
0.861692 0.554131 0.257267
1.000000 0.522881 0.274937
0.340978 0.698512 0.306004
0.396735 0.683894 0.298589
0.515038 0.637232 0.255009
0.767910 0.723415 0.260960
1.000000 0.736294 0.286656
0.515587 0.922271 0.450172
0.547051 0.918364 0.443000
0.647425 0.906950 0.422614
0.805570 0.916197 0.420722
0.985321 0.929686 0.421698
0.000000 0.178561 0.655329
0.188083 0.144350 0.639979
0.565850 0.123171 0.594385
0.808011 0.242588 0.557244
0.992432 0.434394 0.594690
0.000000 0.396704 0.649470
0.243381 0.349096 0.631983
0.567712 0.320928 0.590448
0.805020 0.379095 0.568322
0.987518 0.514366 0.617365
0.191775 0.607172 0.610224
0.346624 0.599359 0.602472
0.580987 0.583734 0.587030
0.818601 0.608362 0.605371
0.992370 0.630518 0.622827
0.367468 0.763363 0.564752
0.433936 0.755184 0.562707
0.573266 0.721279 0.547356
0.768032 0.745174 0.546288
0.986084 0.786130 0.635615
0.533318 0.938262 0.619928
0.565789 0.935424 0.620325
0.653895 0.922820 0.602350
0.789670 0.912352 0.560235
0.970825 0.929808 0.600488
0.000000 0.357275 0.894194
0.186465 0.354528 0.890562
0.545006 0.375799 0.874296
0.800748 0.385931 0.844541
0.975525 0.476875 0.798428
0.308141 0.531304 0.887938
0.343175 0.495949 0.885740
0.572229 0.486641 0.870115
0.800351 0.475441 0.840116
0.971221 0.538506 0.801633
0.404669 0.704311 0.883177
0.499397 0.713680 0.880827
0.646876 0.696376 0.864439
0.802853 0.656123 0.831571
0.962371 0.687282 0.815671
0.479988 0.847501 0.852934
0.541009 0.844633 0.850248
0.673365 0.837552 0.843656
0.810269 0.818509 0.825559
0.953429 0.841947 0.845884
0.623255 0.954681 0.831724
0.649226 0.952514 0.831113
0.718471 0.946227 0.825284
0.797024 0.931090 0.787228
0.949218 0.931701 0.796414
0.458106 0.593408 0.970672
0.493599 0.593378 0.970214
0.620081 0.613733 0.967285
0.771633 0.631495 0.963104
0.925719 0.642206 0.958099
0.564630 0.680232 0.965240
0.576043 0.670527 0.965515
0.660487 0.673823 0.963775
0.785580 0.678676 0.960510
0.926299 0.678523 0.956329
0.639002 0.779080 0.958953
0.675074 0.787045 0.957794
0.751888 0.798611 0.955352
0.822538 0.787594 0.953948
0.928252 0.773709 0.951354
0.685847 0.864408 0.952728
0.717586 0.869230 0.951812
0.804135 0.885008 0.949096
0.883452 0.899382 0.946044
0.931334 0.883909 0.944854
0.741604 0.943389 0.945647
0.762203 0.942901 0.945281
0.824277 0.941436 0.944182
0.897581 0.939452 0.942809
0.933349 0.937865 0.941558
