其他预设/【233】日式怀旧街道调色预设208款/1.3D LUT预设（视频调色-PR-AE-PS-FCPX-达芬奇用）/2.富士胶片风-日式城市街拍预设/JA – Chrome 1 (Classic Chrome).cube
# Created by Adobe Lightroom plugin Export LUT (1.17.0)
# www.johnrellis.com/lightroom/exportlut.htm
# Preset: JA – Chrome 1 (Classic Chrome)
# Color profile: /Library/Application Support/Adobe/Color/Profiles/Recommended/AdobeRGB1998.icc
LUT_3D_SIZE 5
DOMAIN_MIN 0.000000 0.000000 0.000000
DOMAIN_MAX 0.903226 0.903226 0.903226
0.118410 0.113527 0.110262
0.159915 0.103883 0.109377
0.521263 0.000000 0.077333
0.829923 0.000000 0.000000
1.000000 0.000000 0.000000
0.116274 0.136385 0.105165
0.164309 0.150423 0.103090
0.545037 0.201266 0.000000
0.840818 0.000000 0.000000
1.000000 0.000000 0.000000
0.179751 0.384863 0.072114
0.251957 0.366827 0.068421
0.476295 0.427405 0.000000
0.874327 0.486458 0.000000
1.000000 0.388586 0.000000
0.306157 0.614435 0.176303
0.350225 0.599969 0.164431
0.469886 0.578088 0.121279
0.750851 0.684138 0.000000
1.000000 0.679866 0.000000
0.529412 0.906188 0.425971
0.558099 0.903410 0.421180
0.650294 0.893767 0.404334
0.808103 0.911955 0.389563
0.996307 0.915526 0.327520
0.102693 0.116274 0.156924
0.187106 0.087037 0.182315
0.517967 0.000000 0.229160
0.817868 0.000000 0.229953
1.000000 0.000000 0.260288
0.101534 0.171359 0.161166
0.196323 0.189273 0.184543
0.538201 0.127474 0.193027
0.832883 0.000000 0.209903
1.000000 0.000000 0.246464
0.149813 0.430304 0.200443
0.272068 0.422522 0.217594
0.493568 0.451118 0.188022
0.865690 0.487892 0.217258
1.000000 0.418830 0.270817
0.320928 0.647761 0.286351
0.367498 0.633265 0.278355
0.472206 0.585321 0.232975
0.755093 0.694209 0.213748
1.000000 0.692470 0.291600
0.534264 0.912535 0.480629
0.561151 0.909789 0.474586
0.650385 0.900755 0.454383
0.805386 0.913085 0.439490
0.992676 0.916991 0.401221
0.000000 0.248478 0.532189
0.175387 0.173129 0.547478
0.532830 0.000000 0.558312
0.806973 0.000000 0.538354
1.000000 0.000000 0.532036
0.236973 0.390570 0.522881
0.295109 0.364385 0.538537
0.534325 0.227451 0.554864
0.808591 0.175265 0.541070
1.000000 0.211795 0.541985
0.248844 0.524712 0.506859
0.344945 0.528588 0.515587
0.536767 0.537438 0.539147
0.821164 0.531548 0.561059
1.000000 0.531334 0.585321
0.354803 0.724483 0.523247
0.409216 0.721553 0.523491
0.537591 0.694270 0.507317
0.766079 0.729274 0.503532
0.995483 0.752132 0.624720
0.562463 0.930877 0.634913
0.586145 0.929412 0.633326
0.660853 0.920439 0.615839
0.792416 0.914061 0.573816
0.978607 0.921416 0.586084
0.332921 0.503716 0.835721
0.332219 0.453254 0.841337
0.519219 0.350378 0.852628
0.799924 0.177188 0.847013
0.994842 0.151797 0.782010
0.437537 0.594385 0.830625
0.462470 0.574975 0.835508
0.547112 0.467994 0.848508
0.801114 0.336828 0.844694
0.991760 0.309422 0.782284
0.513146 0.711208 0.819760
0.570367 0.719905 0.823209
0.664698 0.711910 0.834318
0.800900 0.593439 0.832761
0.979797 0.574640 0.792203
0.504295 0.816190 0.801083
0.553063 0.816037 0.803738
0.671382 0.816464 0.812100
0.804440 0.812741 0.819791
0.958282 0.821286 0.839628
0.661128 0.945495 0.825986
0.682033 0.944457 0.827420
0.739773 0.941314 0.828122
0.807584 0.932830 0.800717
0.953155 0.929168 0.801816
0.668544 0.749752 0.950896
0.659022 0.730068 0.952789
0.670558 0.680232 0.957366
0.735592 0.547021 0.965087
0.924773 0.449866 0.964996
0.704555 0.784817 0.947662
0.710048 0.777829 0.948730
0.703609 0.726741 0.953887
0.753201 0.614466 0.961364
0.925048 0.517266 0.962463
0.757992 0.846799 0.941405
0.766018 0.844877 0.942168
0.800534 0.841245 0.944549
0.804410 0.765927 0.951934
0.927031 0.682063 0.955596
0.768399 0.891173 0.939605
0.784085 0.892424 0.939483
0.834501 0.898680 0.939666
0.889738 0.905730 0.941802
0.931243 0.860655 0.946502
0.785428 0.947967 0.938445
0.797910 0.946960 0.938476
0.841154 0.943816 0.938964
0.898528 0.939452 0.939910
0.933257 0.937774 0.941466
