其他预设/【233】日式怀旧街道调色预设208款/1.3D LUT预设（视频调色-PR-AE-PS-FCPX-达芬奇用）/2.富士胶片风-日式城市街拍预设/JA – Cityscape Pop 4 (Classic Chrome).cube
# Created by Adobe Lightroom plugin Export LUT (1.17.0)
# www.johnrellis.com/lightroom/exportlut.htm
# Preset: JA – Cityscape Pop 4 (Classic Chrome)
# Color profile: /Library/Application Support/Adobe/Color/Profiles/Recommended/AdobeRGB1998.icc
LUT_3D_SIZE 32
0.079744 0.086580 0.090974
0.079744 0.086580 0.090974
0.079744 0.086580 0.090974
0.080934 0.086397 0.090944
0.087160 0.086030 0.091096
0.094972 0.084962 0.090974
0.105531 0.083101 0.091066
0.120424 0.080537 0.091035
0.141207 0.076295 0.090761
0.167941 0.072053 0.090242
0.201785 0.066651 0.089021
0.242313 0.058381 0.086519
0.290990 0.034607 0.082979
0.347784 0.004608 0.076509
0.409461 0.000000 0.066224
0.472023 0.000000 0.044923
0.531456 0.000000 0.001648
0.585565 0.000000 0.000000
0.635309 0.000000 0.000000
0.683680 0.000000 0.000000
0.732967 0.000000 0.000000
0.778256 0.000000 0.000000
0.818845 0.000000 0.000000
0.854490 0.000000 0.000000
0.885679 0.000000 0.000000
0.913024 0.000000 0.000000
0.937255 0.000000 0.000000
0.958831 0.000000 0.000000
0.978302 0.000000 0.000000
0.995941 0.000000 0.000000
1.000000 0.000000 0.000000
1.000000 0.000000 0.000000
0.079744 0.086580 0.090974
0.079744 0.086580 0.090974
0.079744 0.086580 0.090974
0.081331 0.086336 0.090944
0.087160 0.086030 0.091096
0.094972 0.084962 0.090974
0.105531 0.083101 0.091066
0.120150 0.080934 0.091005
0.140902 0.078187 0.090639
0.167636 0.074495 0.090120
0.201022 0.070100 0.088899
0.241367 0.063050 0.086366
0.289677 0.049958 0.082765
0.346136 0.027588 0.076204
0.407385 0.000000 0.065980
0.469703 0.000000 0.044129
0.529107 0.000000 0.001007
0.583276 0.000000 0.000000
0.633112 0.000000 0.000000
0.681697 0.000000 0.000000
0.730373 0.000000 0.000000
0.775448 0.000000 0.000000
0.816037 0.000000 0.000000
0.851957 0.000000 0.000000
0.883391 0.000000 0.000000
0.911070 0.000000 0.000000
0.935607 0.000000 0.000000
0.957488 0.000000 0.000000
0.977142 0.000000 0.000000
0.994995 0.000000 0.000000
1.000000 0.000000 0.000000
1.000000 0.000000 0.000000
0.079744 0.086580 0.090974
0.079744 0.086580 0.090974
0.079744 0.086580 0.090974
0.081331 0.086336 0.090944
0.087160 0.086030 0.091096
0.094972 0.084962 0.090974
0.105409 0.083803 0.091310
0.120211 0.082551 0.091157
0.140719 0.080354 0.090761
0.167269 0.077943 0.090181
0.200717 0.074525 0.088624
0.240970 0.069459 0.086305
0.289067 0.063111 0.082307
0.345434 0.049073 0.075776
0.406470 0.027222 0.065248
0.468818 0.002258 0.041840
0.528161 0.000000 0.000000
0.582238 0.000000 0.000000
0.632136 0.000000 0.000000
0.680964 0.000000 0.000000
0.729274 0.000000 0.000000
0.774105 0.000000 0.000000
0.814664 0.000000 0.000000
0.850675 0.000000 0.000000
0.882292 0.000000 0.000000
0.910063 0.000000 0.000000
0.934752 0.000000 0.000000
0.956786 0.000000 0.000000
0.976562 0.000000 0.000000
0.994507 0.000000 0.000000
1.000000 0.000000 0.000000
1.000000 0.000000 0.000000
0.079591 0.087526 0.090883
0.079591 0.087526 0.090883
0.079530 0.087831 0.090883
0.081483 0.087861 0.090822
0.087617 0.087831 0.090944
0.095247 0.087404 0.091066
0.105653 0.086915 0.091066
0.120790 0.086610 0.090852
0.141329 0.085451 0.090364
0.167849 0.084504 0.089662
0.201083 0.082795 0.088289
0.241367 0.081056 0.085756
0.289342 0.078492 0.081239
0.345220 0.075593 0.074586
0.406287 0.072053 0.063447
0.468330 0.067597 0.035401
0.527398 0.062470 0.000000
0.581231 0.056458 0.000000
0.630976 0.044221 0.000000
0.680018 0.033265 0.000000
0.727535 0.018494 0.000000
0.771969 0.000610 0.000000
0.812680 0.000000 0.000000
0.848966 0.000000 0.000000
0.881163 0.000000 0.000000
0.909422 0.000000 0.000000
0.934417 0.000000 0.000000
0.956603 0.000000 0.000000
0.976471 0.000000 0.000000
0.994324 0.000000 0.000000
1.000000 0.000000 0.000000
1.000000 0.000000 0.000000
0.079469 0.092042 0.091341
0.079408 0.092348 0.091341
0.079408 0.092348 0.091341
0.081697 0.092592 0.091249
0.087892 0.092561 0.091096
0.095460 0.092470 0.091188
0.106355 0.092195 0.091157
0.121370 0.092531 0.090608
0.142031 0.093111 0.090272
0.168673 0.093629 0.089174
0.201633 0.094453 0.087251
0.241703 0.096162 0.084443
0.289647 0.097414 0.079805
0.345342 0.099062 0.072175
0.406287 0.100191 0.059998
0.468421 0.101686 0.026246
0.527611 0.101869 0.000000
0.581567 0.101808 0.000000
0.631403 0.100343 0.000000
0.680812 0.097871 0.000000
0.727565 0.095796 0.000000
0.771450 0.092012 0.000000
0.811795 0.086275 0.000000
0.848173 0.078676 0.000000
0.880400 0.066621 0.000000
0.908812 0.040467 0.000000
0.933867 0.000000 0.000000
0.956085 0.000000 0.000000
0.975952 0.000000 0.000000
0.993835 0.000000 0.000000
1.000000 0.000000 0.000000
1.000000 0.000000 0.000000
0.079103 0.097688 0.091676
0.079103 0.097688 0.091676
0.079103 0.097963 0.091402
0.081727 0.098146 0.091585
0.087465 0.098726 0.091402
0.095735 0.098543 0.091463
0.108064 0.099916 0.090974
0.122774 0.100984 0.090364
0.143679 0.102968 0.089601
0.170474 0.105776 0.088197
0.203677 0.108949 0.086275
0.244114 0.113344 0.082643
0.291722 0.118227 0.077699
0.347753 0.123751 0.068605
0.408331 0.128725 0.052705
0.470222 0.133577 0.011902
0.529168 0.136324 0.000000
0.582971 0.137881 0.000000
0.632868 0.139132 0.000000
0.682765 0.139040 0.000000
0.729122 0.138125 0.000000
0.772793 0.135836 0.000000
0.830472 0.136507 0.000000
0.864652 0.130800 0.000000
0.894438 0.124514 0.000000
0.920439 0.116152 0.000000
0.943389 0.104829 0.000000
0.963806 0.091920 0.000000
0.982208 0.074769 0.000000
0.998932 0.042267 0.000000
1.000000 0.000000 0.000000
1.000000 0.000000 0.000000
0.078676 0.105257 0.091829
0.078981 0.105440 0.092073
0.078920 0.105715 0.092042
0.082002 0.106081 0.091646
0.087984 0.106813 0.091707
0.097536 0.108400 0.091310
0.109651 0.109133 0.091127
0.128725 0.113191 0.090028
0.149233 0.116548 0.088746
0.176089 0.121035 0.086732
0.210361 0.126955 0.083894
0.251957 0.134096 0.079713
0.300847 0.142306 0.072999
0.357458 0.150790 0.062104
0.417945 0.158846 0.032685
0.478737 0.165927 0.000000
0.536248 0.170932 0.000000
0.589044 0.173648 0.000000
0.640620 0.175723 0.000000
0.690333 0.177066 0.000000
0.737514 0.177523 0.000000
0.782437 0.175937 0.000000
0.823484 0.174441 0.000000
0.859922 0.170291 0.000000
0.891508 0.164889 0.000000
0.918517 0.157809 0.000000
0.941985 0.150027 0.000000
0.962646 0.139742 0.000000
0.981170 0.128908 0.000000
0.997955 0.116030 0.000000
1.000000 0.101198 0.000000
1.000000 0.087343 0.000000
0.077790 0.115633 0.092134
0.077729 0.115846 0.092103
0.078523 0.116243 0.091768
0.082643 0.116884 0.091615
0.089296 0.117678 0.091371
0.098817 0.119692 0.091127
0.112734 0.122988 0.090608
0.129274 0.125032 0.089754
0.156680 0.132998 0.087434
0.183261 0.138613 0.084810
0.214633 0.145266 0.081422
0.255192 0.154482 0.076204
0.304570 0.165347 0.067994
0.360754 0.176608 0.051881
0.421057 0.187442 0.011627
0.481178 0.196353 0.000000
0.538079 0.202701 0.000000
0.591028 0.206943 0.000000
0.643061 0.210391 0.000000
0.691493 0.212222 0.000000
0.737636 0.212833 0.000000
0.781857 0.212131 0.000000
0.822416 0.210697 0.000000
0.858579 0.207248 0.000000
0.890074 0.202152 0.000000
0.917144 0.196170 0.000000
0.940642 0.188296 0.000000
0.961486 0.179232 0.000000
0.980133 0.170291 0.000000
0.996979 0.159579 0.000000
1.000000 0.148440 0.000000
1.000000 0.138399 0.000000
0.075776 0.130251 0.091005
0.076936 0.130526 0.090944
0.079591 0.130861 0.091096
0.084352 0.131563 0.090913
0.092012 0.132876 0.090547
0.101900 0.134554 0.090059
0.116640 0.138888 0.089265
0.136141 0.144747 0.087922
0.157992 0.148348 0.086275
0.194553 0.161013 0.081819
0.227726 0.169741 0.077272
0.266026 0.179049 0.070588
0.309850 0.189822 0.060731
0.366400 0.203677 0.030274
0.425879 0.216770 0.000000
0.485359 0.227481 0.000000
0.541436 0.234745 0.000000
0.596002 0.240879 0.000000
0.646387 0.244480 0.000000
0.693751 0.246830 0.000000
0.739101 0.247471 0.000000
0.782559 0.247471 0.000000
0.822568 0.245853 0.000000
0.858274 0.242405 0.000000
0.889494 0.237888 0.000000
0.916411 0.231693 0.000000
0.939940 0.224369 0.000000
0.960723 0.216220 0.000000
0.979370 0.207309 0.000000
0.996246 0.197330 0.000000
1.000000 0.187747 0.000000
1.000000 0.178592 0.000000
0.076631 0.149416 0.089448
0.078431 0.149935 0.089601
0.081056 0.150393 0.089479
0.086702 0.151217 0.089204
0.095674 0.152651 0.088746
0.106935 0.154849 0.088045
0.122042 0.158663 0.087434
0.142580 0.165499 0.085359
0.168429 0.174258 0.082551
0.196109 0.179934 0.079805
0.243473 0.198276 0.070802
0.283909 0.209689 0.061158
0.329381 0.222019 0.036194
0.378180 0.234165 0.000000
0.431769 0.246403 0.000000
0.490913 0.258610 0.000000
0.549065 0.268528 0.000000
0.602258 0.274876 0.000000
0.651514 0.278965 0.000000
0.697475 0.281071 0.000000
0.741848 0.282078 0.000000
0.783932 0.281834 0.000000
0.822751 0.280186 0.000000
0.857511 0.276860 0.000000
0.888243 0.272129 0.000000
0.915129 0.265904 0.000000
0.938689 0.258885 0.000000
0.959686 0.250584 0.000000
0.978546 0.242039 0.000000
0.995544 0.232731 0.000000
1.000000 0.223606 0.000000
1.000000 0.214908 0.000000
0.078523 0.173251 0.086763
0.080812 0.173495 0.086671
0.083986 0.174105 0.086488
0.090669 0.175113 0.086122
0.100526 0.176883 0.085786
0.113375 0.179171 0.085206
0.129183 0.182498 0.083864
0.150729 0.190494 0.081392
0.177493 0.200412 0.077638
0.210513 0.212741 0.071839
0.245365 0.221042 0.065705
0.305882 0.246159 0.031464
0.353185 0.259953 0.000000
0.402594 0.272557 0.000000
0.452552 0.283421 0.000000
0.502678 0.293095 0.000000
0.555749 0.301884 0.000000
0.607111 0.308598 0.000000
0.654994 0.312535 0.000000
0.700130 0.314672 0.000000
0.743709 0.315709 0.000000
0.785183 0.315740 0.000000
0.823484 0.314000 0.000000
0.857877 0.310796 0.000000
0.888273 0.306004 0.000000
0.914824 0.299596 0.000000
0.938231 0.292210 0.000000
0.959075 0.284215 0.000000
0.977813 0.275303 0.000000
0.994812 0.266209 0.000000
1.000000 0.257053 0.000000
1.000000 0.248600 0.000000
0.078126 0.202274 0.083314
0.081575 0.202670 0.082826
0.085420 0.203250 0.082582
0.093874 0.204288 0.082094
0.105806 0.206149 0.081239
0.120485 0.208713 0.080018
0.138094 0.212192 0.077913
0.160311 0.219394 0.074922
0.188724 0.230930 0.069459
0.223026 0.244785 0.060914
0.264714 0.261479 0.037781
0.308629 0.273350 0.007843
0.394385 0.313573 0.000000
0.448493 0.328252 0.000000
0.499886 0.339086 0.000000
0.546777 0.345739 0.000000
0.589654 0.349371 0.000000
0.629267 0.351049 0.000000
0.674678 0.353918 0.000000
0.717922 0.355383 0.000000
0.759518 0.355535 0.000000
0.798672 0.354559 0.000000
0.834287 0.351781 0.000000
0.866392 0.347478 0.000000
0.894896 0.341894 0.000000
0.919982 0.334997 0.000000
0.942199 0.326909 0.000000
0.962066 0.318334 0.000000
0.980041 0.309270 0.000000
0.996399 0.299870 0.000000
1.000000 0.290806 0.000000
1.000000 0.282200 0.000000
0.076387 0.239597 0.076539
0.080537 0.240055 0.076265
0.085908 0.240452 0.075990
0.096498 0.241489 0.074952
0.110719 0.243198 0.073793
0.128206 0.245792 0.071717
0.148287 0.249210 0.069276
0.170809 0.254154 0.065309
0.202182 0.267216 0.053376
0.238987 0.283207 0.025971
0.283421 0.302586 0.000000
0.337316 0.325841 0.000000
0.394354 0.343633 0.000000
0.479591 0.378149 0.000000
0.528466 0.386816 0.000000
0.572473 0.391028 0.000000
0.612390 0.392370 0.000000
0.648768 0.391424 0.000000
0.682673 0.389502 0.000000
0.719722 0.388708 0.000000
0.760494 0.388830 0.000000
0.799008 0.387640 0.000000
0.834073 0.384680 0.000000
0.865812 0.380224 0.000000
0.893950 0.374334 0.000000
0.918914 0.366979 0.000000
0.941039 0.359045 0.000000
0.960906 0.350134 0.000000
0.978943 0.340795 0.000000
0.995331 0.331334 0.000000
1.000000 0.321965 0.000000
1.000000 0.313237 0.000000
0.073671 0.278630 0.065980
0.078706 0.279149 0.065583
0.085603 0.279667 0.065126
0.097841 0.280919 0.064027
0.115084 0.282689 0.061830
0.135286 0.285313 0.059266
0.157748 0.289036 0.052277
0.182101 0.293828 0.040284
0.213016 0.304570 0.017609
0.252110 0.321782 0.000000
0.299931 0.344152 0.000000
0.355718 0.369818 0.000000
0.419928 0.397498 0.000000
0.478035 0.410864 0.000000
0.556085 0.436622 0.000000
0.597955 0.438361 0.000000
0.635096 0.436896 0.000000
0.668788 0.433814 0.000000
0.700618 0.429755 0.000000
0.731930 0.425940 0.000000
0.762997 0.422248 0.000000
0.799771 0.420539 0.000000
0.834409 0.417395 0.000000
0.865782 0.412757 0.000000
0.893645 0.406531 0.000000
0.918364 0.399145 0.000000
0.940429 0.390723 0.000000
0.960204 0.381720 0.000000
0.978180 0.372107 0.000000
0.994598 0.362493 0.000000
1.000000 0.352941 0.000000
1.000000 0.343969 0.000000
0.069368 0.323278 0.036866
0.075898 0.323888 0.035462
0.084535 0.324315 0.034028
0.099550 0.325566 0.030579
0.119448 0.327520 0.023987
0.142519 0.330236 0.015076
0.167483 0.334051 0.003235
0.195102 0.339635 0.000000
0.225254 0.346899 0.000000
0.266758 0.365820 0.000000
0.315068 0.387823 0.000000
0.370245 0.412482 0.000000
0.432288 0.438666 0.000000
0.499428 0.464668 0.000000
0.551904 0.469886 0.000000
0.622522 0.487404 0.000000
0.658137 0.483833 0.000000
0.689448 0.478065 0.000000
0.719295 0.472053 0.000000
0.748928 0.466255 0.000000
0.778012 0.460914 0.000000
0.806119 0.455268 0.000000
0.834897 0.449958 0.000000
0.865843 0.444984 0.000000
0.893462 0.438544 0.000000
0.918090 0.430884 0.000000
0.940124 0.422126 0.000000
0.960021 0.412909 0.000000
0.978058 0.403357 0.000000
0.994537 0.393439 0.000000
1.000000 0.383764 0.000000
1.000000 0.374578 0.000000
0.063539 0.372839 0.000000
0.072145 0.373663 0.000000
0.082551 0.374273 0.000000
0.100801 0.376013 0.000000
0.124727 0.378424 0.000000
0.150698 0.381933 0.000000
0.179110 0.386450 0.000000
0.209445 0.392218 0.000000
0.242008 0.399023 0.000000
0.280064 0.411383 0.000000
0.328344 0.432136 0.000000
0.381903 0.454597 0.000000
0.440345 0.477394 0.000000
0.503014 0.500053 0.000000
0.567193 0.520745 0.000000
0.614923 0.519982 0.000000
0.678523 0.530846 0.000000
0.709773 0.523857 0.000000
0.738308 0.515801 0.000000
0.766537 0.508385 0.000000
0.793973 0.501152 0.000000
0.820279 0.493812 0.000000
0.845121 0.486183 0.000000
0.868498 0.478279 0.000000
0.894591 0.470985 0.000000
0.918883 0.462928 0.000000
0.940703 0.453834 0.000000
0.960357 0.444312 0.000000
0.978180 0.434211 0.000000
0.994446 0.424048 0.000000
1.000000 0.413977 0.000000
1.000000 0.404517 0.000000
0.053712 0.425299 0.000000
0.066804 0.425757 0.000000
0.080049 0.426398 0.000000
0.102113 0.427802 0.000000
0.128542 0.430091 0.000000
0.157290 0.433082 0.000000
0.188327 0.437079 0.000000
0.220676 0.441932 0.000000
0.254398 0.447700 0.000000
0.290135 0.454383 0.000000
0.336217 0.471656 0.000000
0.387762 0.491676 0.000000
0.443580 0.512352 0.000000
0.502983 0.532921 0.000000
0.565667 0.553277 0.000000
0.626368 0.569207 0.000000
0.670192 0.563958 0.000000
0.728298 0.569909 0.000000
0.756985 0.560998 0.000000
0.783200 0.551171 0.000000
0.808591 0.541833 0.000000
0.832914 0.532403 0.000000
0.855924 0.522972 0.000000
0.877684 0.513573 0.000000
0.898100 0.503807 0.000000
0.918822 0.494362 0.000000
0.940459 0.484962 0.000000
0.960021 0.475074 0.000000
0.977783 0.464698 0.000000
0.993988 0.454231 0.000000
1.000000 0.443854 0.000000
1.000000 0.434119 0.000000
0.037781 0.475929 0.000000
0.061402 0.476661 0.000000
0.077821 0.488228 0.000000
0.104280 0.489418 0.000000
0.135073 0.491096 0.000000
0.166415 0.493385 0.000000
0.200290 0.496284 0.000000
0.234470 0.499825 0.000000
0.270329 0.504326 0.000000
0.307256 0.509606 0.000000
0.348180 0.518517 0.000000
0.398810 0.536217 0.000000
0.452461 0.554253 0.000000
0.509514 0.572717 0.000000
0.569146 0.590723 0.000000
0.630396 0.608026 0.000000
0.687221 0.619043 0.000000
0.727687 0.610132 0.000000
0.779995 0.611048 0.000000
0.804654 0.598749 0.000000
0.827329 0.586389 0.000000
0.849058 0.574426 0.000000
0.869749 0.562585 0.000000
0.889281 0.551019 0.000000
0.907500 0.539300 0.000000
0.924865 0.527794 0.000000
0.941375 0.516472 0.000000
0.959991 0.505760 0.000000
0.977417 0.494881 0.000000
0.993439 0.483955 0.000000
1.000000 0.473304 0.000000
1.000000 0.463233 0.000000
0.024201 0.526055 0.000000
0.056458 0.527794 0.000000
0.075044 0.529747 0.000000
0.103944 0.532067 0.000000
0.136873 0.534447 0.000000
0.170260 0.536919 0.000000
0.204715 0.539391 0.000000
0.240391 0.542565 0.000000
0.276860 0.546227 0.000000
0.314061 0.550713 0.000000
0.352636 0.555474 0.000000
0.399390 0.568566 0.000000
0.451270 0.585321 0.000000
0.505821 0.601953 0.000000
0.562371 0.618372 0.000000
0.621088 0.634363 0.000000
0.681361 0.649897 0.000000
0.733944 0.657191 0.000000
0.771695 0.645838 0.000000
0.818357 0.642176 0.000000
0.840055 0.627924 0.000000
0.860288 0.614008 0.000000
0.879515 0.600427 0.000000
0.897642 0.587152 0.000000
0.914672 0.574090 0.000000
0.930846 0.561120 0.000000
0.946380 0.548638 0.000000
0.961364 0.536522 0.000000
0.977050 0.524895 0.000000
0.992950 0.513542 0.000000
1.000000 0.502586 0.000000
1.000000 0.492226 0.000000
0.011414 0.569329 0.000000
0.046601 0.570916 0.000000
0.073732 0.572747 0.000000
0.104463 0.574670 0.000000
0.138796 0.576867 0.000000
0.174105 0.578851 0.000000
0.209201 0.581079 0.000000
0.245212 0.583734 0.000000
0.281834 0.587030 0.000000
0.319738 0.590661 0.000000
0.358587 0.594965 0.000000
0.399664 0.601038 0.000000
0.449897 0.615961 0.000000
0.502403 0.631220 0.000000
0.557031 0.646326 0.000000
0.613092 0.661311 0.000000
0.670924 0.675898 0.000000
0.729824 0.689906 0.000000
0.777859 0.692958 0.000000
0.811765 0.678645 0.000000
0.852415 0.670222 0.000000
0.871061 0.654261 0.000000
0.888884 0.638819 0.000000
0.905669 0.623774 0.000000
0.921477 0.609186 0.000000
0.936553 0.594965 0.000000
0.951019 0.581140 0.000000
0.965057 0.567895 0.000000
0.978759 0.555169 0.000000
0.992279 0.542931 0.000000
1.000000 0.531518 0.000000
1.000000 0.520806 0.000000
0.005829 0.611017 0.000000
0.041871 0.612573 0.000000
0.073304 0.614130 0.000000
0.106355 0.615930 0.000000
0.140871 0.617762 0.000000
0.176608 0.619593 0.000000
0.212802 0.621393 0.000000
0.248844 0.623468 0.000000
0.286625 0.626062 0.000000
0.324407 0.629145 0.000000
0.363256 0.632563 0.000000
0.402686 0.636347 0.000000
0.448096 0.645930 0.000000
0.498756 0.659968 0.000000
0.551690 0.674220 0.000000
0.606195 0.688350 0.000000
0.662165 0.702296 0.000000
0.718776 0.715602 0.000000
0.775845 0.727962 0.000000
0.819120 0.727199 0.000000
0.849393 0.709926 0.000000
0.884276 0.697169 0.000000
0.900023 0.679225 0.000000
0.915679 0.662562 0.000000
0.930388 0.646357 0.000000
0.944305 0.630701 0.000000
0.957671 0.615595 0.000000
0.970672 0.601160 0.000000
0.983398 0.587366 0.000000
0.995850 0.574273 0.000000
1.000000 0.561791 0.000000
1.000000 0.550622 0.000000
0.003204 0.655695 0.000000
0.048188 0.656519 0.000000
0.076692 0.657099 0.000000
0.108827 0.658106 0.000000
0.143984 0.659174 0.000000
0.180117 0.660487 0.000000
0.216800 0.661982 0.000000
0.253544 0.663905 0.000000
0.291234 0.666194 0.000000
0.329534 0.669001 0.000000
0.368750 0.672206 0.000000
0.408331 0.675593 0.000000
0.448707 0.679164 0.000000
0.498054 0.692073 0.000000
0.549340 0.705013 0.000000
0.601953 0.717830 0.000000
0.655421 0.730068 0.000000
0.709346 0.741695 0.000000
0.763333 0.752468 0.000000
0.816678 0.762081 0.000000
0.854398 0.756588 0.000000
0.880003 0.735744 0.000000
0.909178 0.718990 0.000000
0.922179 0.699397 0.000000
0.935790 0.681666 0.000000
0.948852 0.664759 0.000000
0.961425 0.648554 0.000000
0.973663 0.633082 0.000000
0.985626 0.618402 0.000000
0.997375 0.604486 0.000000
1.000000 0.591455 0.000000
1.000000 0.579370 0.000000
0.016388 0.693996 0.000000
0.058869 0.694759 0.000000
0.079011 0.695491 0.000000
0.112428 0.696284 0.000000
0.147127 0.697292 0.000000
0.183597 0.698299 0.000000
0.220035 0.699519 0.000000
0.256962 0.701045 0.000000
0.294682 0.702998 0.000000
0.332799 0.705257 0.000000
0.371862 0.707973 0.000000
0.411017 0.710842 0.000000
0.451087 0.713802 0.000000
0.495186 0.720699 0.000000
0.544671 0.732418 0.000000
0.595239 0.743893 0.000000
0.646357 0.754757 0.000000
0.698207 0.765133 0.000000
0.749722 0.774594 0.000000
0.800595 0.783047 0.000000
0.850645 0.790372 0.000000
0.883452 0.780880 0.000000
0.905486 0.757778 0.000000
0.930327 0.738216 0.000000
0.939971 0.716609 0.000000
0.952300 0.698451 0.000000
0.964202 0.681117 0.000000
0.975738 0.664759 0.000000
0.987060 0.649256 0.000000
0.998169 0.634699 0.000000
1.000000 0.621149 0.000000
1.000000 0.608850 0.000000
0.039460 0.735164 0.000000
0.069551 0.735927 0.000000
0.089082 0.736416 0.000000
0.118471 0.736995 0.000000
0.152499 0.737514 0.000000
0.188144 0.738155 0.000000
0.224765 0.738888 0.000000
0.261143 0.739803 0.000000
0.299107 0.740993 0.000000
0.336950 0.742428 0.000000
0.375311 0.744167 0.000000
0.414160 0.746120 0.000000
0.453529 0.748196 0.000000
0.493202 0.750240 0.000000
0.539666 0.758968 0.000000
0.588067 0.768551 0.000000
0.636713 0.777646 0.000000
0.685908 0.786313 0.000000
0.735103 0.794369 0.000000
0.783627 0.801724 0.000000
0.831327 0.808103 0.000000
0.878447 0.813535 0.000000
0.906615 0.800595 0.000000
0.925475 0.775723 0.000000
0.946532 0.754055 0.000000
0.955840 0.732815 0.000000
0.966979 0.714351 0.000000
0.977813 0.696956 0.000000
0.988434 0.680629 0.000000
0.998871 0.665431 0.000000
1.000000 0.651423 0.000000
1.000000 0.638941 0.000000
0.064363 0.769955 0.000000
0.079988 0.770626 0.000000
0.097139 0.771145 0.000000
0.124727 0.771542 0.000000
0.158389 0.772000 0.000000
0.192538 0.772488 0.000000
0.228580 0.773129 0.000000
0.264866 0.773892 0.000000
0.302007 0.774899 0.000000
0.339879 0.776120 0.000000
0.377508 0.777523 0.000000
0.416297 0.779141 0.000000
0.455299 0.780789 0.000000
0.494331 0.782437 0.000000
0.535760 0.785977 0.000000
0.582269 0.794125 0.000000
0.629236 0.801816 0.000000
0.676295 0.809049 0.000000
0.723140 0.815702 0.000000
0.769223 0.821714 0.000000
0.814481 0.826902 0.000000
0.859464 0.831296 0.000000
0.903716 0.834867 0.000000
0.927459 0.818814 0.000000
0.943481 0.792782 0.000000
0.961364 0.769772 0.000000
0.969451 0.748135 0.000000
0.979675 0.729854 0.000000
0.989715 0.712795 0.000000
0.999451 0.697078 0.000000
1.000000 0.682795 0.000000
1.000000 0.670314 0.101015
0.081697 0.803830 0.000000
0.094606 0.804257 0.000000
0.108766 0.804532 0.000000
0.134371 0.804685 0.000000
0.165499 0.804868 0.000000
0.198001 0.805081 0.000000
0.233188 0.805356 0.000000
0.268467 0.805753 0.000000
0.305150 0.806424 0.000000
0.342077 0.807279 0.000000
0.379522 0.808255 0.000000
0.417487 0.809476 0.000000
0.455543 0.810697 0.000000
0.494240 0.811795 0.000000
0.532708 0.812802 0.000000
0.575891 0.817868 0.000000
0.620844 0.824094 0.000000
0.665766 0.829892 0.000000
0.710628 0.835264 0.000000
0.754116 0.840024 0.000000
0.797482 0.844205 0.000000
0.840543 0.847715 0.000000
0.882841 0.850523 0.000000
0.924315 0.852598 0.000000
0.944244 0.834073 0.000000
0.957855 0.807553 0.000000
0.972961 0.784115 0.056214
0.980346 0.762570 0.000000
0.989563 0.744717 0.057984
0.998779 0.728511 0.101961
1.000000 0.714046 0.144167
1.000000 0.701686 0.187930
0.101411 0.834012 0.000000
0.112276 0.834226 0.000000
0.124483 0.834409 0.000000
0.146090 0.834592 0.000000
0.174563 0.834806 0.000000
0.205753 0.835172 0.000000
0.239139 0.835752 0.000000
0.274266 0.836545 0.000000
0.310002 0.837522 0.000000
0.346319 0.838651 0.000000
0.383429 0.839872 0.000000
0.420783 0.841062 0.000000
0.458473 0.842191 0.000000
0.496468 0.843076 0.000000
0.534417 0.843687 0.000000
0.572992 0.844785 0.000000
0.616266 0.849516 0.000000
0.659358 0.853880 0.000000
0.701503 0.857725 0.000000
0.743038 0.861204 0.000000
0.784390 0.864134 0.000000
0.825467 0.866575 0.000000
0.865843 0.868345 0.000000
0.905394 0.869627 0.000000
0.943908 0.870298 0.000000
0.959808 0.849943 0.047211
0.970886 0.823575 0.160433
0.983124 0.800381 0.219150
0.989929 0.779355 0.204196
0.998016 0.762387 0.216495
1.000000 0.747860 0.239658
1.000000 0.735805 0.272038
0.130831 0.865171 0.000000
0.137240 0.865293 0.000000
0.147250 0.865324 0.000000
0.165316 0.865324 0.000000
0.190005 0.865263 0.000000
0.218357 0.865293 0.000000
0.249516 0.865385 0.000000
0.282048 0.865599 0.000000
0.315984 0.865904 0.000000
0.350896 0.866270 0.000000
0.386511 0.866667 0.000000
0.422431 0.867094 0.000000
0.458869 0.867430 0.000000
0.495460 0.867643 0.000000
0.532158 0.867674 0.000000
