其他预设/【233】日式怀旧街道调色预设208款/1.3D LUT预设（视频调色-PR-AE-PS-FCPX-达芬奇用）/2.富士胶片风-日式城市街拍预设/JA – Cityscape Pop 1 (Classic Chrome).cube
# Created by Adobe Lightroom plugin Export LUT (1.17.0)
# www.johnrellis.com/lightroom/exportlut.htm
# Preset: JA – Cityscape Pop 1 (Classic Chrome)
# Color profile: /Library/Application Support/Adobe/Color/Profiles/Recommended/AdobeRGB1998.icc
LUT_3D_SIZE 8
DOMAIN_MIN 0.000000 0.000000 0.000000
DOMAIN_MAX 0.903226 0.903226 0.903226
0.112947 0.115755 0.117494
0.121401 0.115236 0.117311
0.224277 0.116579 0.112795
0.420935 0.134463 0.090547
0.627161 0.171969 0.000000
0.807828 0.210056 0.000000
0.926574 0.229679 0.000000
1.000000 0.229953 0.000000
0.112642 0.121401 0.117037
0.121218 0.121523 0.117006
0.222904 0.143069 0.110506
0.414618 0.176181 0.084871
0.619837 0.213046 0.000000
0.797879 0.244205 0.000000
0.920012 0.258091 0.000000
0.997345 0.254490 0.000000
0.126986 0.189944 0.108797
0.151461 0.186770 0.108431
0.219699 0.195468 0.103975
0.427314 0.272313 0.040528
0.632654 0.318547 0.000000
0.805173 0.341070 0.000000
0.927459 0.343725 0.000000
1.000000 0.328038 0.000000
0.174441 0.344335 0.056855
0.209354 0.339208 0.057923
0.297459 0.340337 0.031769
0.430060 0.363134 0.000000
0.665064 0.441566 0.000000
0.820432 0.464729 0.000000
0.928344 0.451453 0.000000
0.998535 0.423804 0.000000
0.242344 0.522148 0.000000
0.278202 0.518212 0.000000
0.371008 0.506645 0.000000
0.503899 0.528588 0.000000
0.637079 0.528313 0.000000
0.812589 0.560937 0.000000
0.924071 0.556878 0.000000
0.995361 0.528527 0.000000
0.310460 0.686122 0.000000
0.344945 0.688258 0.000000
0.434394 0.677302 0.000000
0.552422 0.673548 0.000000
0.691951 0.687892 0.000000
0.806210 0.665583 0.000000
0.922301 0.654566 0.000000
0.994415 0.624872 0.000000
0.369360 0.823606 0.000000
0.396918 0.822354 0.000000
0.476539 0.813626 0.000000
0.586542 0.800443 0.000000
0.706874 0.802274 0.000000
0.835966 0.806821 0.000000
0.919158 0.760281 0.000000
0.987579 0.715602 0.000000
0.408331 0.917082 0.000000
0.430182 0.915557 0.000000
0.498238 0.910857 0.000000
0.596002 0.903929 0.000000
0.702419 0.891875 0.000000
0.814817 0.890013 0.000000
0.930297 0.886412 0.000000
0.989319 0.824613 0.000000
0.111757 0.115480 0.129976
0.119448 0.115480 0.125612
0.217533 0.095613 0.120760
0.409155 0.110079 0.102571
0.615625 0.150942 0.016358
0.792325 0.195987 0.000000
0.916594 0.232303 0.000000
0.995148 0.240299 0.000000
0.109468 0.123751 0.128145
0.121309 0.124269 0.126192
0.219394 0.131380 0.120089
0.409735 0.157687 0.097200
0.614008 0.194980 0.000000
0.788479 0.231327 0.000000
0.911894 0.259434 0.000000
0.992065 0.262821 0.000000
0.095888 0.199649 0.122957
0.136629 0.200015 0.118013
0.223514 0.200259 0.114717
0.421332 0.261631 0.071229
0.623468 0.301854 0.000000
0.793149 0.326543 0.000000
0.915709 0.339574 0.000000
0.994354 0.331884 0.000000
0.124422 0.353094 0.074922
0.181582 0.349340 0.077424
0.290074 0.344854 0.071199
0.421057 0.356847 0.012879
0.641810 0.422065 0.000000
0.800381 0.446174 0.000000
0.916258 0.444160 0.000000
0.992706 0.424659 0.000000
0.202152 0.531273 0.000000
0.248417 0.526085 0.000000
0.356909 0.511559 0.000000
0.491279 0.522515 0.000000
0.624475 0.519036 0.000000
0.802762 0.551568 0.000000
0.918242 0.552422 0.000000
0.992035 0.528283 0.000000
0.277165 0.686946 0.000000
0.314061 0.683986 0.000000
0.413550 0.673213 0.000000
0.538415 0.667262 0.000000
0.683345 0.683803 0.000000
0.803189 0.663874 0.000000
0.919860 0.652705 0.000000
0.992279 0.624048 0.000000
0.341466 0.820432 0.000000
0.370672 0.817166 0.000000
0.457008 0.809262 0.000000
0.573663 0.797635 0.000000
0.698939 0.799496 0.000000
0.830777 0.803861 0.000000
0.914885 0.756985 0.000000
0.984588 0.713497 0.000000
0.386908 0.916289 0.000000
0.410803 0.915129 0.000000
0.484443 0.910430 0.000000
0.590112 0.902983 0.000000
0.704372 0.894621 0.000000
0.815396 0.891051 0.000000
0.929442 0.885893 0.000000
0.988251 0.823697 0.000000
0.083711 0.109255 0.278904
0.130922 0.104372 0.267338
0.204105 0.106691 0.222263
0.391821 0.000000 0.242344
0.622339 0.000000 0.181521
0.799039 0.000000 0.152163
0.922057 0.116823 0.077394
0.998993 0.172396 0.000000
0.000000 0.121462 0.276799
0.103822 0.122347 0.263157
0.206821 0.131014 0.223331
0.399359 0.077485 0.231876
0.619989 0.000000 0.183993
0.794919 0.109651 0.145968
0.918761 0.172000 0.062501
0.997345 0.206180 0.000000
0.000000 0.228458 0.254551
0.045472 0.225284 0.248875
0.221195 0.224979 0.227878
0.419684 0.232731 0.207645
0.631098 0.254276 0.177340
0.799100 0.274998 0.128481
0.919188 0.289220 0.000000
0.996460 0.294438 0.000000
0.000000 0.383673 0.255741
0.000000 0.386603 0.239750
0.251804 0.383124 0.203250
0.433051 0.379522 0.202579
0.647181 0.416876 0.151644
0.805905 0.424445 0.083772
0.920928 0.417762 0.000000
0.995819 0.402777 0.000000
0.000000 0.561791 0.187778
0.000000 0.562799 0.149416
0.302831 0.549920 0.162692
0.481117 0.541650 0.158602
0.635798 0.536889 0.152926
0.808103 0.551751 0.000000
0.920226 0.543328 0.000000
0.993835 0.516228 0.000000
0.000000 0.712673 0.000000
0.178103 0.709529 0.034638
0.355688 0.697017 0.077668
0.513176 0.676051 0.079713
0.671229 0.688777 0.000000
0.800320 0.668513 0.003326
0.918517 0.651209 0.000000
0.993439 0.620447 0.000000
0.232425 0.836240 0.000000
0.282536 0.833219 0.000000
0.402686 0.823545 0.000000
0.543145 0.808774 0.000000
0.681910 0.802335 0.000000
0.822477 0.806882 0.000000
0.914916 0.762722 0.000000
0.986969 0.716121 0.000000
0.310246 0.923278 0.000000
0.340826 0.921355 0.000000
0.433570 0.915770 0.000000
0.557794 0.908354 0.000000
0.687526 0.896117 0.000000
0.807645 0.892515 0.000000
0.927398 0.887144 0.000000
0.989197 0.825345 0.000000
0.000000 0.081910 0.516197
0.098512 0.071046 0.506767
0.256931 0.021088 0.465400
0.370947 0.097017 0.398871
0.569726 0.104433 0.417853
0.776608 0.000000 0.390234
0.910216 0.000000 0.342260
0.990448 0.163851 0.305303
0.000000 0.106111 0.519677
0.000000 0.109621 0.507958
0.250278 0.103792 0.470680
0.375097 0.143496 0.401709
0.576684 0.153323 0.417731
0.777920 0.000000 0.383581
0.907866 0.143465 0.345708
0.990051 0.192721 0.298985
0.000000 0.254917 0.509545
0.000000 0.235996 0.504875
0.205844 0.230594 0.473396
0.388586 0.257786 0.407355
0.601068 0.264988 0.413977
0.790036 0.248539 0.374426
0.913573 0.293736 0.352331
0.992096 0.288945 0.293736
0.000000 0.424994 0.475532
0.000000 0.422889 0.471107
0.138064 0.418280 0.455085
0.416846 0.415625 0.416999
0.624231 0.419074 0.397498
0.790738 0.422400 0.371862
0.911406 0.418219 0.336004
0.990723 0.398138 0.276280
0.000000 0.597253 0.459266
0.000000 0.596246 0.450202
0.145296 0.593378 0.418555
0.443275 0.577905 0.391974
0.632410 0.565972 0.396368
0.800992 0.569879 0.362249
0.913634 0.551171 0.320439
0.989654 0.513756 0.250065
0.000000 0.740261 0.399786
0.000000 0.743191 0.392096
0.201663 0.737362 0.358648
0.471626 0.717037 0.359350
0.653742 0.704799 0.355108
0.796231 0.689174 0.367041
0.912993 0.665888 0.312230
0.988830 0.626246 0.213474
0.000000 0.853819 0.315465
0.000000 0.853117 0.307256
0.308110 0.846281 0.323796
0.495399 0.831449 0.315770
0.658320 0.811093 0.308659
0.807187 0.814267 0.309117
0.907469 0.775570 0.323430
0.982330 0.725460 0.221714
0.168002 0.933898 0.265721
0.265324 0.931212 0.295354
0.373358 0.926177 0.280278
0.507622 0.917052 0.251865
0.655970 0.902861 0.252140
0.788754 0.894682 0.247959
0.913146 0.889555 0.231296
0.983459 0.832853 0.229099
0.000000 0.000000 0.718807
0.000000 0.011078 0.712581
0.260990 0.000000 0.689570
0.414282 0.071778 0.632502
0.552239 0.156161 0.581140
0.729152 0.232914 0.583062
0.877745 0.278141 0.568536
0.969085 0.333745 0.538445
0.000000 0.086427 0.720485
0.000000 0.101442 0.715053
0.251316 0.110933 0.691615
0.416632 0.141390 0.637171
0.554192 0.199283 0.581415
0.730800 0.270207 0.584009
0.878752 0.304631 0.568414
0.969055 0.352636 0.538323
0.000000 0.187594 0.728573
0.000000 0.184207 0.722530
0.201114 0.253422 0.696010
0.423133 0.275212 0.648981
0.560937 0.308324 0.581567
0.732204 0.368353 0.584466
0.880552 0.375860 0.564538
0.968139 0.407813 0.535576
0.000000 0.424994 0.707912
0.000000 0.419440 0.705440
0.000000 0.405890 0.697353
0.429877 0.439521 0.661128
0.579553 0.450080 0.586786
0.751492 0.476387 0.587152
0.887358 0.477119 0.559289
0.967864 0.488106 0.532250
0.000000 0.605890 0.673335
0.000000 0.605524 0.670741
0.000000 0.603937 0.659236
0.390723 0.602838 0.636072
0.603021 0.593500 0.591333
0.769375 0.593347 0.573938
0.889036 0.586847 0.549981
0.970001 0.562737 0.507103
0.000000 0.761044 0.635218
0.000000 0.759884 0.630488
0.000000 0.753567 0.612146
0.387701 0.742611 0.582422
0.608972 0.718593 0.557214
0.773587 0.709957 0.569665
0.893462 0.699001 0.543816
0.970642 0.663416 0.492378
0.000000 0.864927 0.567864
0.000000 0.863432 0.563226
0.185122 0.858366 0.550408
0.430488 0.848508 0.535424
0.621027 0.828550 0.526848
0.777249 0.816098 0.522759
0.888518 0.793271 0.540917
0.967132 0.750393 0.475593
0.000000 0.937316 0.499855
0.079316 0.935973 0.498604
0.300175 0.931029 0.496407
0.482918 0.923217 0.507500
0.621118 0.910338 0.483619
0.764157 0.894408 0.475471
0.889616 0.890532 0.479133
0.966522 0.847501 0.485328
0.000000 0.036805 0.843503
0.000000 0.091493 0.840574
0.243839 0.111147 0.830472
0.416388 0.126894 0.813413
0.561151 0.224186 0.763241
0.700252 0.281651 0.727962
0.845884 0.390692 0.722255
0.933654 0.512383 0.718593
0.000000 0.106600 0.841917
0.000000 0.133822 0.838895
0.243961 0.176333 0.829252
0.416968 0.186831 0.811093
0.562066 0.255863 0.761929
0.699641 0.307408 0.725795
0.844877 0.410468 0.721584
0.933318 0.521355 0.718166
0.000000 0.197086 0.848600
0.000000 0.217929 0.845548
0.235843 0.297734 0.833555
0.436316 0.331182 0.813413
0.577081 0.357916 0.768215
0.706081 0.392279 0.726650
0.845487 0.480873 0.724086
0.933776 0.557305 0.719783
0.000000 0.370672 0.846769
0.000000 0.369909 0.845548
0.000000 0.381445 0.842435
0.472145 0.487312 0.819486
0.611078 0.500298 0.782345
0.721523 0.511955 0.732052
0.848508 0.581445 0.732418
0.936126 0.611810 0.722072
0.000000 0.558343 0.828122
0.000000 0.559380 0.827298
0.000000 0.566857 0.823697
0.420996 0.588708 0.816312
0.638392 0.635004 0.789639
0.731716 0.623621 0.729519
0.853910 0.657282 0.730159
0.939269 0.665034 0.713649
0.000000 0.725582 0.802487
0.000000 0.727535 0.802060
0.000000 0.731594 0.797574
0.406195 0.738888 0.788022
0.603021 0.745052 0.770199
0.751339 0.738216 0.734157
0.865690 0.739681 0.724025
0.942626 0.728847 0.702296
0.000000 0.883207 0.778958
0.000000 0.882414 0.776669
0.021393 0.877073 0.766506
0.398169 0.866789 0.749081
0.601068 0.851408 0.727352
0.754971 0.828855 0.710780
0.866972 0.818143 0.720150
0.943664 0.799252 0.690669
0.000000 0.943236 0.696040
0.000000 0.941894 0.694240
0.246952 0.937072 0.688960
0.452735 0.928649 0.684596
0.623590 0.915648 0.686366
0.749752 0.900481 0.677516
0.865049 0.891081 0.675380
0.942718 0.869139 0.689509
0.000000 0.142031 0.909392
0.000000 0.178286 0.908171
0.267185 0.227024 0.903655
0.411780 0.251713 0.896147
0.552483 0.299199 0.880735
0.678981 0.385138 0.847013
0.804227 0.435645 0.830289
0.911589 0.560723 0.822812
0.000000 0.170840 0.908934
0.000000 0.202029 0.907683
0.282536 0.269657 0.902525
0.420142 0.289464 0.894743
0.555901 0.325750 0.879698
0.680171 0.401526 0.845853
0.803250 0.448127 0.828214
0.910124 0.567742 0.821225
0.000000 0.235294 0.911223
0.000000 0.261326 0.909667
0.296635 0.351537 0.903227
0.461891 0.405402 0.893767
0.576715 0.417060 0.880461
0.692744 0.467292 0.847532
0.807797 0.505638 0.828244
0.909850 0.610834 0.823331
0.000000 0.317205 0.914855
0.000000 0.328252 0.913542
0.212284 0.402106 0.907439
0.510735 0.526940 0.894102
0.625940 0.554253 0.879759
0.716976 0.565881 0.851682
0.815335 0.586786 0.828489
0.909087 0.669825 0.825864
0.000000 0.494667 0.905821
0.000000 0.499672 0.905211
0.186160 0.522911 0.903044
0.458808 0.573693 0.898985
0.671443 0.670802 0.881224
0.745998 0.668971 0.857176
0.822324 0.669673 0.826535
0.907958 0.733272 0.828794
0.000000 0.651637 0.894072
0.000000 0.654932 0.893553
0.220981 0.668208 0.891600
0.464332 0.695216 0.887968
0.649104 0.734005 0.882506
0.786007 0.777920 0.866972
0.834440 0.759182 0.828244
0.912444 0.787869 0.831113
0.000000 0.799527 0.879149
0.000000 0.801266 0.878721
0.244358 0.807279 0.876738
0.462379 0.817990 0.873014
0.635737 0.831205 0.866697
0.765377 0.841672 0.856718
0.847562 0.835782 0.831876
0.920592 0.835752 0.824063
0.000000 0.949279 0.869963
0.000000 0.948028 0.868009
0.206394 0.943938 0.861814
0.437781 0.935454 0.851011
0.612665 0.923186 0.838224
0.753262 0.909728 0.826993
0.848142 0.895842 0.814603
0.922423 0.887938 0.821500
0.102754 0.249454 0.949645
0.210971 0.284764 0.948516
0.362280 0.357061 0.944945
0.460456 0.383764 0.941497
0.565118 0.415045 0.936217
0.686091 0.491402 0.924315
0.786404 0.573053 0.905150
0.877928 0.616938 0.897917
0.078920 0.261570 0.949493
0.202213 0.295171 0.948363
0.383612 0.388617 0.943969
0.474739 0.411658 0.940520
0.574273 0.439124 0.935302
0.689876 0.505974 0.923766
0.787655 0.581353 0.904601
0.877928 0.623529 0.897246
0.000000 0.287877 0.950042
0.137392 0.318761 0.948882
0.377874 0.419867 0.943877
0.525994 0.498817 0.938018
0.608972 0.517113 0.932921
0.705257 0.556542 0.922820
0.794797 0.614435 0.904265
0.879820 0.650996 0.896391
0.000000 0.298161 0.952392
0.000000 0.328008 0.951293
0.296971 0.427314 0.946380
0.559075 0.573083 0.936584
0.664118 0.622034 0.929534
0.731136 0.631098 0.922240
0.807584 0.666926 0.904784
0.883543 0.693904 0.895720
0.000000 0.424048 0.950011
0.000000 0.432807 0.949645
0.164126 0.467994 0.947753
0.447425 0.547692 0.942260
0.700160 0.700587 0.928161
0.767453 0.719112 0.920531
0.823484 0.727474 0.906065
0.888365 0.744778 0.894987
0.000000 0.574090 0.943511
0.000000 0.579339 0.942992
0.213901 0.600336 0.941192
0.455848 0.643732 0.937652
0.648585 0.710323 0.932250
0.803098 0.797604 0.920897
0.845945 0.796963 0.910063
0.894835 0.799619 0.895262
0.000000 0.712734 0.935515
0.000000 0.715969 0.935088
0.263798 0.728145 0.933471
0.476051 0.753536 0.930419
0.654353 0.791287 0.926055
0.786740 0.830961 0.921874
0.871855 0.864378 0.915282
0.900938 0.850492 0.895140
0.000000 0.844633 0.926207
0.066896 0.846189 0.925780
0.307897 0.851896 0.924437
0.494545 0.862852 0.921965
0.656703 0.877440 0.918486
0.778805 0.891661 0.914855
0.859922 0.902068 0.910918
0.909575 0.900938 0.897978
