其他预设/【233】日式怀旧街道调色预设208款/1.3D LUT预设（视频调色-PR-AE-PS-FCPX-达芬奇用）/2.富士胶片风-日式城市街拍预设/JA – Shaded Light 5 (Classic Chrome).cube
# Created by Adobe Lightroom plugin Export LUT (1.17.0)
# www.johnrellis.com/lightroom/exportlut.htm
# Preset: JA – Shaded Light 5 (Classic Chrome)
# Color profile: /Library/Application Support/Adobe/Color/Profiles/Recommended/AdobeRGB1998.icc
LUT_3D_SIZE 32
0.061799 0.074098 0.088899
0.061799 0.074098 0.088899
0.063996 0.073793 0.088899
0.077943 0.072724 0.089235
0.099489 0.069245 0.089723
0.130434 0.065522 0.089418
0.163760 0.065034 0.088685
0.194125 0.067506 0.087800
0.224857 0.071382 0.086397
0.261479 0.076905 0.083833
0.308141 0.080690 0.081209
0.365606 0.082673 0.076020
0.433173 0.084627 0.067353
0.510277 0.085176 0.046693
0.590600 0.084596 0.000000
0.664973 0.082185 0.000000
0.729274 0.078645 0.000000
0.781613 0.076509 0.000000
0.823148 0.077638 0.000000
0.857877 0.079866 0.000000
0.892271 0.085756 0.000000
0.920897 0.092775 0.000000
0.944884 0.102846 0.014069
0.966430 0.110872 0.066529
0.987091 0.119081 0.087373
1.000000 0.126040 0.104616
1.000000 0.134890 0.119936
1.000000 0.143526 0.135958
1.000000 0.153384 0.153353
1.000000 0.166201 0.173861
1.000000 0.183536 0.198367
1.000000 0.205600 0.227573
0.061799 0.074098 0.088899
0.061799 0.074098 0.088899
0.063996 0.073793 0.088899
0.077821 0.073518 0.089204
0.099916 0.073854 0.089693
0.130861 0.074250 0.089418
0.164187 0.075319 0.088594
0.194308 0.078218 0.087648
0.224887 0.081910 0.085939
0.261418 0.086702 0.083345
0.307652 0.091188 0.080385
0.364477 0.094392 0.076081
0.431312 0.098329 0.066987
0.507500 0.100740 0.045930
0.587182 0.102541 0.000000
0.661463 0.102785 0.000000
0.725795 0.101503 0.000000
0.778470 0.100923 0.000000
0.820432 0.099947 0.000000
0.855497 0.101411 0.000000
0.889769 0.105867 0.000000
0.918059 0.110475 0.000000
0.941924 0.116518 0.005005
0.963378 0.123140 0.061494
0.983917 0.129458 0.084382
1.000000 0.135897 0.101534
1.000000 0.142489 0.117128
1.000000 0.150423 0.133516
1.000000 0.159213 0.150942
1.000000 0.171267 0.170993
1.000000 0.187198 0.195163
1.000000 0.209293 0.225925
0.061646 0.077058 0.089265
0.061433 0.077790 0.089509
0.063966 0.078920 0.089113
0.077790 0.080720 0.089815
0.100404 0.082612 0.089631
0.132113 0.085298 0.089143
0.165042 0.087800 0.088167
0.194980 0.090547 0.086915
0.225650 0.094118 0.085451
0.262181 0.099489 0.082979
0.308568 0.103670 0.080232
0.365454 0.108888 0.075227
0.432349 0.113436 0.065766
0.508415 0.118929 0.042115
0.587488 0.122560 0.000000
0.661433 0.124147 0.000000
0.725582 0.125795 0.000000
0.777890 0.125338 0.000000
0.819730 0.123384 0.000000
0.854856 0.125093 0.000000
0.889067 0.127199 0.000000
0.917021 0.130007 0.000000
0.940703 0.134981 0.002564
0.962036 0.138949 0.060578
0.982483 0.143801 0.083284
1.000000 0.148898 0.100587
1.000000 0.154452 0.116365
1.000000 0.160647 0.132815
1.000000 0.168826 0.149996
1.000000 0.179477 0.170230
1.000000 0.193942 0.194064
1.000000 0.214542 0.224674
0.060121 0.092287 0.091707
0.060395 0.093111 0.091890
0.062745 0.094057 0.090425
0.078676 0.095888 0.089937
0.101320 0.099275 0.089876
0.135927 0.107759 0.088624
0.168490 0.111147 0.087160
0.198184 0.113832 0.085847
0.229191 0.117128 0.084199
0.266667 0.121920 0.081758
0.313787 0.128023 0.078614
0.371313 0.135012 0.072694
0.438544 0.143252 0.062257
0.514519 0.150942 0.031220
0.592767 0.157351 0.000000
0.665400 0.161929 0.000000
0.728054 0.163302 0.000000
0.779232 0.163668 0.000000
0.820218 0.162966 0.000000
0.855222 0.162417 0.000000
0.888212 0.163119 0.000000
0.915373 0.163546 0.000000
0.938842 0.165530 0.002777
0.960357 0.168185 0.060243
0.981231 0.170748 0.083742
1.000000 0.174136 0.101350
1.000000 0.177615 0.118044
1.000000 0.182986 0.134493
1.000000 0.189456 0.151705
1.000000 0.198093 0.171939
1.000000 0.210636 0.196170
1.000000 0.228702 0.225803
0.053010 0.118532 0.095094
0.052491 0.119417 0.095003
0.057710 0.121218 0.091035
0.080232 0.124788 0.088838
0.105409 0.126680 0.088746
0.132265 0.128328 0.087800
0.169039 0.138338 0.086000
0.202274 0.144167 0.084108
0.234134 0.147066 0.082185
0.272801 0.152163 0.080201
0.321263 0.160098 0.076020
0.379919 0.169802 0.068696
0.447761 0.180758 0.054505
0.524163 0.191928 0.013062
0.601892 0.201602 0.000000
0.673243 0.207889 0.000000
0.734585 0.210239 0.000000
0.784298 0.210513 0.000000
0.823911 0.208499 0.000000
0.859007 0.207736 0.000000
0.889982 0.206455 0.000000
0.916014 0.205600 0.000000
0.938811 0.205020 0.011688
0.959991 0.204990 0.064332
0.980713 0.205447 0.086397
1.000000 0.206729 0.103792
1.000000 0.208957 0.120027
1.000000 0.211765 0.136141
1.000000 0.216434 0.153994
1.000000 0.223575 0.173983
1.000000 0.233738 0.198123
1.000000 0.249332 0.228397
0.026703 0.155154 0.098085
0.025513 0.156100 0.098207
0.037140 0.157717 0.089754
0.076051 0.160250 0.087709
0.109041 0.162539 0.084962
0.138460 0.163760 0.084413
0.164034 0.160922 0.084474
0.198550 0.168887 0.082490
0.238254 0.179019 0.081117
0.284428 0.190097 0.077729
0.335576 0.200504 0.071809
0.396307 0.212894 0.062409
0.465766 0.226658 0.034119
0.542962 0.240726 0.000000
0.618555 0.251804 0.000000
0.687282 0.258549 0.000000
0.745632 0.261143 0.000000
0.792355 0.261082 0.000000
0.829953 0.258244 0.000000
0.864775 0.256046 0.000000
0.893950 0.253208 0.000000
0.919005 0.250217 0.000000
0.960906 0.256077 0.078431
0.981567 0.254368 0.099397
1.000000 0.253239 0.116243
1.000000 0.253025 0.131106
1.000000 0.253819 0.146242
1.000000 0.255619 0.162600
1.000000 0.259556 0.181064
1.000000 0.266209 0.202701
1.000000 0.276738 0.228916
1.000000 0.286320 0.251102
0.000000 0.195560 0.101595
0.000000 0.196292 0.095766
0.006592 0.197360 0.086976
0.070192 0.199008 0.084565
0.107576 0.200961 0.080903
0.141115 0.201389 0.079957
0.172274 0.202121 0.080171
0.198123 0.197635 0.081605
0.237125 0.206821 0.079438
0.291844 0.226658 0.074891
0.365515 0.255680 0.064363
0.436652 0.275181 0.036194
0.510521 0.291814 0.000000
0.586419 0.306310 0.000000
0.656397 0.315526 0.000000
0.717281 0.319707 0.000000
0.768032 0.319799 0.000000
0.808957 0.316350 0.000000
0.844968 0.312444 0.000000
0.877836 0.308476 0.000000
0.905974 0.304479 0.000000
0.931029 0.300542 0.029511
0.954192 0.297185 0.076173
0.976440 0.294377 0.098756
0.998383 0.292302 0.117739
1.000000 0.290837 0.134005
1.000000 0.290288 0.149813
1.000000 0.290776 0.166476
1.000000 0.293004 0.184878
1.000000 0.297795 0.206790
1.000000 0.306065 0.233127
1.000000 0.315160 0.258213
0.000000 0.229801 0.108614
0.000000 0.230808 0.099794
0.000000 0.231754 0.086793
0.043763 0.233005 0.084718
0.097658 0.234653 0.081300
0.137179 0.236484 0.076814
0.170993 0.236698 0.077028
0.203769 0.238254 0.077394
0.232944 0.235630 0.078859
0.277989 0.247837 0.075319
0.347814 0.278386 0.064790
0.436774 0.316686 0.028260
0.539361 0.357244 0.000000
0.612329 0.370855 0.000000
0.678126 0.378271 0.000000
0.734005 0.380011 0.000000
0.780087 0.377356 0.000000
0.818387 0.371832 0.000000
0.853239 0.366522 0.000000
0.882658 0.359869 0.000000
0.908568 0.353460 0.000000
0.932189 0.347539 0.055390
0.954345 0.342138 0.084657
0.975860 0.337469 0.105745
0.997223 0.333776 0.123232
1.000000 0.330755 0.139925
1.000000 0.328740 0.155428
1.000000 0.327886 0.172000
1.000000 0.328771 0.191196
1.000000 0.331945 0.213230
1.000000 0.338628 0.240177
1.000000 0.347326 0.268132
0.000000 0.271550 0.118074
0.000000 0.272343 0.109071
0.000000 0.273625 0.094667
0.000000 0.274907 0.085725
0.083467 0.277012 0.081422
0.130617 0.279362 0.075532
0.172366 0.280247 0.070771
0.208560 0.282353 0.070466
0.245121 0.284916 0.070649
0.279911 0.285466 0.072206
0.329717 0.299016 0.066224
0.415259 0.339971 0.024567
0.517906 0.386755 0.000000
0.623926 0.428809 0.000000
0.703944 0.448280 0.000000
0.753811 0.445747 0.000000
0.795102 0.439216 0.000000
0.832303 0.432044 0.000000
0.862364 0.422553 0.000000
0.888762 0.413184 0.000000
0.912596 0.404486 0.026307
0.934783 0.396033 0.072724
0.955932 0.388647 0.096315
0.976684 0.382300 0.115785
0.997406 0.377142 0.132815
1.000000 0.372442 0.148898
1.000000 0.369268 0.164523
1.000000 0.366979 0.181552
1.000000 0.366735 0.200687
1.000000 0.368627 0.223301
1.000000 0.373724 0.250248
1.000000 0.382055 0.281102
0.000000 0.325963 0.130343
0.000000 0.326696 0.121248
0.000000 0.327703 0.105623
0.000000 0.329381 0.085908
0.051637 0.331273 0.080446
0.122255 0.333806 0.072694
0.172702 0.336706 0.061372
0.216403 0.337224 0.055512
0.256809 0.340612 0.054566
0.298283 0.344823 0.053498
0.338689 0.347082 0.056062
0.389410 0.357336 0.041505
0.489052 0.407935 0.000000
0.596277 0.456397 0.000000
0.692500 0.491066 0.000000
0.768734 0.509911 0.000000
0.815030 0.506554 0.000000
0.846494 0.494057 0.000000
0.872892 0.481270 0.000000
0.896269 0.468391 0.015351
0.917784 0.456519 0.067384
0.938018 0.445716 0.091646
0.957610 0.436042 0.110384
0.977020 0.427741 0.127810
0.996704 0.420600 0.143771
1.000000 0.414679 0.159335
1.000000 0.410224 0.174929
1.000000 0.407050 0.192477
1.000000 0.405737 0.212955
1.000000 0.406806 0.236698
1.000000 0.411292 0.265202
1.000000 0.419165 0.298222
0.000000 0.391180 0.146059
0.000000 0.392035 0.136965
0.000000 0.393133 0.120974
0.000000 0.395209 0.084871
0.000000 0.397284 0.078370
0.105928 0.400153 0.067109
0.170199 0.403571 0.045045
0.224369 0.407507 0.000458
0.271550 0.407813 0.000000
0.317388 0.412512 0.000000
0.364233 0.417975 0.000000
0.410803 0.421912 0.000000
0.459358 0.425757 0.000000
0.566094 0.479316 0.000000
0.671229 0.524468 0.000000
0.753933 0.549218 0.000000
0.813687 0.557336 0.000000
0.857267 0.556512 0.000000
0.880827 0.539727 0.018585
0.901976 0.523583 0.069459
0.921904 0.509209 0.091890
0.941039 0.496071 0.111391
0.959899 0.484657 0.129061
0.978759 0.474830 0.144869
0.997833 0.466255 0.160464
1.000000 0.458900 0.175723
1.000000 0.452949 0.191501
1.000000 0.448676 0.208957
1.000000 0.446326 0.229343
1.000000 0.446387 0.253300
1.000000 0.449592 0.282231
1.000000 0.457099 0.317052
0.000000 0.470680 0.163302
0.000000 0.471534 0.153475
0.000000 0.472511 0.136568
0.000000 0.474861 0.088594
0.000000 0.477180 0.069184
0.064393 0.479805 0.049378
0.161440 0.483223 0.003967
0.228031 0.487312 0.000000
0.286778 0.488838 0.000000
0.338537 0.491890 0.000000
0.390234 0.497810 0.000000
0.442969 0.503960 0.000000
0.534966 0.546807 0.000000
0.589990 0.548272 0.000000
0.687465 0.586511 0.000000
0.767849 0.609247 0.000000
0.824186 0.613855 0.000000
0.865263 0.609583 0.000000
0.897093 0.601678 0.088258
0.921752 0.590448 0.130678
0.938933 0.572137 0.145052
0.955962 0.556176 0.159396
0.973022 0.542077 0.172732
0.990417 0.530022 0.186404
1.000000 0.519646 0.200168
1.000000 0.510948 0.214633
1.000000 0.503685 0.229709
1.000000 0.498207 0.246952
1.000000 0.494881 0.267033
1.000000 0.494118 0.290929
1.000000 0.496803 0.319951
1.000000 0.500603 0.348547
0.000000 0.576715 0.184634
0.000000 0.577386 0.174716
0.000000 0.577356 0.156161
0.000000 0.578088 0.103182
0.000000 0.578454 0.017334
0.000000 0.578546 0.000000
0.141390 0.579797 0.000000
0.227573 0.581720 0.000000
0.297856 0.584802 0.000000
0.361059 0.584070 0.000000
0.422187 0.595300 0.000000
0.485939 0.607874 0.000000
0.551324 0.620111 0.000000
0.617243 0.630457 0.000000
0.666773 0.623987 0.000000
0.741146 0.640070 0.000000
0.804837 0.649989 0.000000
0.849851 0.647303 0.000000
0.884337 0.639429 0.010437
0.912840 0.630121 0.116915
0.937774 0.621790 0.165652
0.957183 0.608698 0.191165
0.973571 0.592737 0.203250
0.990295 0.578943 0.214878
1.000000 0.566918 0.227115
1.000000 0.556634 0.240696
1.000000 0.548119 0.255253
1.000000 0.541436 0.271794
1.000000 0.536950 0.291112
1.000000 0.535302 0.314946
1.000000 0.536980 0.343450
1.000000 0.541711 0.375921
0.000000 0.658015 0.201541
0.000000 0.658412 0.190951
0.000000 0.658595 0.173648
0.000000 0.659052 0.123476
0.000000 0.659266 0.000000
0.000000 0.658595 0.000000
0.086488 0.658778 0.000000
0.210269 0.661799 0.000000
0.293034 0.666102 0.000000
0.366949 0.671046 0.000000
0.433112 0.672877 0.000000
0.495918 0.680812 0.000000
0.558709 0.687984 0.000000
0.621088 0.693538 0.000000
0.682185 0.696986 0.000000
0.726436 0.684565 0.000000
0.779507 0.680934 0.000000
0.831144 0.682338 0.000000
0.869688 0.675532 0.000000
0.900511 0.666133 0.075044
0.927031 0.656641 0.143038
0.951049 0.648737 0.193149
0.973449 0.643061 0.238010
0.990387 0.629297 0.252537
1.000000 0.615839 0.263554
1.000000 0.604150 0.275364
1.000000 0.594232 0.288304
1.000000 0.586419 0.303624
1.000000 0.581048 0.322606
1.000000 0.578546 0.345647
1.000000 0.579644 0.374517
1.000000 0.584833 0.409064
0.000000 0.731411 0.218357
0.000000 0.732082 0.207858
0.000000 0.732174 0.191531
0.000000 0.733028 0.147433
0.000000 0.733883 0.000000
0.000000 0.733394 0.000000
0.000000 0.733364 0.000000
0.178775 0.733883 0.000000
0.276249 0.734981 0.000000
0.355535 0.736812 0.000000
0.427436 0.737758 0.000000
0.491890 0.738643 0.000000
0.552636 0.742184 0.000000
0.612329 0.744503 0.000000
0.670710 0.745052 0.000000
0.727108 0.743709 0.000000
0.774899 0.734524 0.000000
0.809049 0.714107 0.000000
0.852811 0.710292 0.000000
0.887144 0.701350 0.000000
0.915526 0.691188 0.106355
0.940703 0.681910 0.169863
0.963989 0.674647 0.220523
0.985962 0.669886 0.267369
1.000000 0.665553 0.306584
1.000000 0.652705 0.316686
1.000000 0.641993 0.329137
1.000000 0.633692 0.344610
1.000000 0.628046 0.364141
1.000000 0.625574 0.388312
1.000000 0.627131 0.418738
1.000000 0.630884 0.450782
0.000000 0.790219 0.235660
0.000000 0.790799 0.226596
0.000000 0.791012 0.212314
0.000000 0.791501 0.173739
0.000000 0.792203 0.066651
0.000000 0.791897 0.000000
0.000000 0.791257 0.000000
0.125124 0.790829 0.000000
0.249027 0.790402 0.000000
0.334661 0.790036 0.000000
0.409674 0.789395 0.000000
0.478218 0.786343 0.000000
0.537926 0.785245 0.000000
0.594965 0.784604 0.000000
0.650660 0.782864 0.000000
0.704982 0.780179 0.000000
0.758053 0.776730 0.000000
0.807340 0.770077 0.000000
0.834440 0.744076 0.000000
0.872068 0.735744 0.000000
0.903838 0.725856 0.000000
0.930907 0.715846 0.137453
0.955505 0.707424 0.200076
0.978576 0.701411 0.252964
0.999847 0.697749 0.302342
1.000000 0.696742 0.350530
1.000000 0.692409 0.381781
1.000000 0.683345 0.395941
1.000000 0.676936 0.413947
1.000000 0.673823 0.436896
1.000000 0.674586 0.465736
1.000000 0.677028 0.495033
0.000000 0.830259 0.252903
0.000000 0.830472 0.244877
0.000000 0.830472 0.232395
0.000000 0.830686 0.201328
0.000000 0.831144 0.131624
0.000000 0.830900 0.000000
0.000000 0.829831 0.000000
0.000000 0.828672 0.000000
0.211124 0.827451 0.000000
0.305241 0.826169 0.000000
0.382635 0.824765 0.000000
0.452705 0.822965 0.000000
0.517388 0.818448 0.000000
0.573114 0.816922 0.000000
0.627405 0.814511 0.000000
0.679835 0.811215 0.000000
0.731472 0.807248 0.000000
0.782101 0.802945 0.000000
0.830503 0.796902 0.000000
0.857450 0.772457 0.000000
0.889036 0.758816 0.000000
0.918669 0.748470 0.088197
0.944945 0.738735 0.164828
0.969299 0.731411 0.227695
0.991852 0.726375 0.283513
1.000000 0.723842 0.335607
1.000000 0.724239 0.387396
1.000000 0.728237 0.439979
1.000000 0.725002 0.466529
1.000000 0.721584 0.488655
1.000000 0.721889 0.516045
1.000000 0.722866 0.541985
0.000000 0.861082 0.271550
0.000000 0.861540 0.265690
0.000000 0.874723 0.267735
0.000000 0.874815 0.241367
0.000000 0.874937 0.193423
0.000000 0.874754 0.110414
0.000000 0.872984 0.094728
0.000000 0.871031 0.070466
0.175753 0.868986 0.002136
0.280125 0.866850 0.000000
0.360204 0.864500 0.000000
0.431037 0.861662 0.000000
0.496712 0.857847 0.000000
0.556298 0.852659 0.000000
0.609125 0.849363 0.000000
0.660517 0.845457 0.000000
0.710811 0.840970 0.000000
0.759945 0.836088 0.000000
0.808316 0.830900 0.000000
0.855406 0.825010 0.000000
0.883085 0.802701 0.000000
0.909606 0.784512 0.043793
0.937407 0.773922 0.144533
0.963165 0.764797 0.204288
0.986206 0.757992 0.267124
1.000000 0.753414 0.323003
1.000000 0.751492 0.376532
1.000000 0.752926 0.430732
1.000000 0.758602 0.486610
1.000000 0.768154 0.542107
1.000000 0.767208 0.566064
1.000000 0.766567 0.588434
0.000000 0.888365 0.296941
0.000000 0.889891 0.294102
0.000000 0.891478 0.286778
0.000000 0.892943 0.267582
0.000000 0.894133 0.232395
0.000000 0.894865 0.164797
0.000000 0.893645 0.144900
0.000000 0.891936 0.130587
0.127932 0.890074 0.112093
0.247349 0.888029 0.086336
0.330449 0.885740 0.023865
0.401526 0.883116 0.000000
0.466682 0.879850 0.000000
0.527886 0.875212 0.000000
0.582544 0.870573 0.000000
0.632929 0.866789 0.000000
0.681971 0.862577 0.000000
0.729915 0.858061 0.000000
0.777249 0.853330 0.000000
0.823941 0.848508 0.000000
0.869993 0.843442 0.000000
0.900267 0.825162 0.000000
0.924437 0.804929 0.106203
0.951934 0.795346 0.179660
0.977447 0.787137 0.236179
1.000000 0.781216 0.297154
1.000000 0.777798 0.357580
1.000000 0.777493 0.416388
1.000000 0.781216 0.476417
1.000000 0.789181 0.536706
1.000000 0.800839 0.594842
1.000000 0.807309 0.633265
0.000000 0.907134 0.319707
0.000000 0.908354 0.318669
0.000000 0.909667 0.312963
0.000000 0.910918 0.298192
0.000000 0.911925 0.270542
0.000000 0.912627 0.222599
0.000000 0.912016 0.191135
0.000000 0.910552 0.179355
0.073640 0.908904 0.165499
0.218997 0.907073 0.149233
0.303838 0.905058 0.127932
0.374823 0.902708 0.099367
0.439033 0.899809 0.036774
0.499214 0.896422 0.000000
0.556878 0.891081 0.000000
0.607294 0.887053 0.000000
0.655329 0.883177 0.000000
0.702296 0.878996 0.000000
0.748592 0.874662 0.000000
0.794339 0.870329 0.000000
0.839536 0.865873 0.019928
0.884520 0.861631 0.070741
0.917449 0.847379 0.111299
0.940154 0.825711 0.149874
0.967315 0.817166 0.216251
0.992218 0.809873 0.272251
1.000000 0.804410 0.331212
1.000000 0.802243 0.396094
1.000000 0.803738 0.460700
1.000000 0.809476 0.525628
1.000000 0.818814 0.587182
1.000000 0.827695 0.637690
0.000000 0.924071 0.346227
0.000000 0.925109 0.346197
0.000000 0.926299 0.342779
0.000000 0.927398 0.330388
0.000000 0.928344 0.309361
0.000000 0.928985 0.272862
0.000000 0.928954 0.236332
0.000000 0.927642 0.226535
0.000000 0.926177 0.214389
0.197604 0.924559 0.200778
0.282414 0.922759 0.184085
0.352026 0.920653 0.163943
0.414649 0.918151 0.138399
0.473304 0.915190 0.103670
0.529625 0.911742 0.024872
0.584039 0.906493 0.000000
0.631617 0.903380 0.021790
0.678218 0.900175 0.063722
0.724269 0.896880 0.085573
0.769680 0.893584 0.106020
0.814633 0.890257 0.123842
0.859190 0.886870 0.142702
0.903563 0.883574 0.160616
0.940154 0.874144 0.184451
0.962432 0.853086 0.212955
0.988342 0.844114 0.272129
1.000000 0.837858 0.331701
1.000000 0.833524 0.391363
1.000000 0.833524 0.463813
1.000000 0.837430 0.533745
1.000000 0.844755 0.598993
1.000000 0.846250 0.637903
0.000000 0.944060 0.385718
0.000000 0.944518 0.385534
0.000000 0.944945 0.382055
0.000000 0.945464 0.371588
0.000000 0.945953 0.353643
0.000000 0.946380 0.326177
0.000000 0.946838 0.288640
0.000000 0.945830 0.280095
0.059480 0.944823 0.269902
0.197086 0.943664 0.257786
0.275029 0.942412 0.244388
0.340276 0.940826 0.228305
0.399451 0.938842 0.208743
0.455238 0.936400 0.184604
0.509026 0.933562 0.155367
0.562127 0.929717 0.127108
0.612390 0.925261 0.122499
0.658015 0.922240 0.134127
0.702968 0.919158 0.146273
0.747341 0.915953 0.159274
0.791135 0.912688 0.172580
0.834379 0.909331 0.186404
0.877043 0.905821 0.200748
0.919493 0.902464 0.216098
0.959991 0.897856 0.234623
0.980224 0.876738 0.261906
1.000000 0.866361 0.313909
1.000000 0.860960 0.377386
1.000000 0.857725 0.442023
1.000000 0.858671 0.515770
1.000000 0.863523 0.587304
1.000000 0.862821 0.629267
0.000000 0.959411 0.419806
0.000000 0.959838 0.420508
0.000000 0.960266 0.418891
0.000000 0.960815 0.410620
0.000000 0.961303 0.395850
0.000000 0.961791 0.373907
0.000000 0.962310 0.342992
0.000000 0.961730 0.328191
0.114992 0.960876 0.318334
0.207553 0.959930 0.307256
0.274998 0.958923 0.294682
0.333715 0.957702 0.279942
0.388098 0.956146 0.263096
0.440558 0.954253 0.242832
0.491310 0.952056 0.219394
0.541436 0.949493 0.191287
0.591882 0.945617 0.174899
0.638880 0.942199 0.177646
0.683192 0.939544 0.188724
0.726802 0.936889 0.200900
0.769924 0.934203 0.214115
0.812497 0.931426 0.228550
0.854551 0.928557 0.243015
0.895995 0.925536 0.258274
0.934081 0.919768 0.262547
0.977020 0.918761 0.280461
0.996765 0.898985 0.308904
1.000000 0.887572 0.355688
1.000000 0.882872 0.424323
1.000000 0.880613 0.494606
1.000000 0.881987 0.567590
1.000000 0.879698 0.616266
0.091188 0.977417 0.468757
0.113222 0.977813 0.470283
0.123659 0.978119 0.469490
0.122103 0.978454 0.462593
0.115206 0.978851 0.450141
0.104402 0.979187 0.432197
0.089815 0.979583 0.407630
0.126314 0.979400 0.387457
0.190585 0.978424 0.376532
0.244205 0.977447 0.364660
0.293675 0.976318 0.351202
0.341314 0.975158 0.336217
0.388037 0.973754 0.319707
0.434119 0.972015 0.300328
0.479896 0.969879 0.277684
0.525719 0.967437 0.252323
0.571923 0.964721 0.223392
0.620142 0.960418 0.214633
0.663996 0.957641 0.222080
0.706874 0.955352 0.233677
0.749203 0.953124 0.247593
0.791043 0.950744 0.261479
0.832090 0.948150 0.275883
0.872404 0.945190 0.289860
0.911772 0.941924 0.303380
0.950561 0.938598 0.317266
0.992401 0.938354 0.337407
1.000000 0.922271 0.366461
1.000000 0.909850 0.408698
1.000000 0.905638 0.483253
1.000000 0.903899 0.556603
1.000000 0.897551 0.599908
0.227359 0.990845 0.509636
0.237125 0.991150 0.511803
0.243351 0.991394 0.511986
0.241611 0.991791 0.506035
0.237400 0.992187 0.495888
0.231083 0.992645 0.481239
0.223148 0.993194 0.461402
0.222934 0.993652 0.439734
0.255558 0.993133 0.430304
0.289952 0.992584 0.419501
0.325383 0.992004 0.407202
0.362768 0.991363 0.394079
0.400885 0.990570 0.379095
0.439734 0.989502 0.361608
0.479530 0.988098 0.341558
0.520195 0.986389 0.318914
0.562158 0.984466 0.293828
0.605951 0.981964 0.272313
0.651637 0.978454 0.268070
0.693446 0.976318 0.280034
0.734768 0.974212 0.293187
0.775601 0.971984 0.306981
0.815640 0.969604 0.321294
0.854856 0.966979 0.335668
0.893309 0.964080 0.350317
0.930816 0.960967 0.365179
0.967712 0.957763 0.380438
1.000000 0.958312 0.404913
1.000000 0.946136 0.438300
1.000000 0.933288 0.479255
1.000000 0.929046 0.557397
1.000000 0.918547 0.594720
0.327306 1.000000 0.557946
0.333654 1.000000 0.559869
0.337560 1.000000 0.559960
0.335607 1.000000 0.555047
0.330541 1.000000 0.545861
0.324102 1.000000 0.533257
0.316442 1.000000 0.516899
0.307591 1.000000 0.495613
0.324620 1.000000 0.486030
0.345678 1.000000 0.475898
0.369879 1.000000 0.464912
0.397101 1.000000 0.453101
0.425940 1.000000 0.438941
0.456733 1.000000 0.422919
0.488960 1.000000 0.404303
0.523064 1.000000 0.383246
0.559167 1.000000 0.360082
0.597192 1.000000 0.334691
0.639246 0.997681 0.320378
0.681910 0.994903 0.322026
0.722103 0.992889 0.335271
0.761776 0.990784 0.349828
0.800626 0.988525 0.364294
0.838773 0.986084 0.379431
0.876036 0.983429 0.394598
0.912444 0.980560 0.410040
0.947967 0.977630 0.426459
0.982635 0.974640 0.443091
1.000000 0.975433 0.471778
1.000000 0.966674 0.509270
1.000000 0.953735 0.551049
1.000000 0.939849 0.584649
0.404944 1.000000 0.602411
0.409461 1.000000 0.603998
0.413397 1.000000 0.604791
0.411719 1.000000 0.600732
0.408637 1.000000 0.593927
0.405188 1.000000 0.584833
0.401740 1.000000 0.573510
0.398840 1.000000 0.560052
0.408362 1.000000 0.552056
0.425238 1.000000 0.546746
0.444617 1.000000 0.541100
0.464973 1.000000 0.533593
0.486763 1.000000 0.524620
0.509087 1.000000 0.512657
0.532647 1.000000 0.498177
0.557153 1.000000 0.479927
0.583886 1.000000 0.458839
0.613123 1.000000 0.435523
0.645289 1.000000 0.410285
0.684779 1.000000 0.405005
0.723842 1.000000 0.412726
0.761593 1.000000 0.427588
0.798550 1.000000 0.442817
0.834623 1.000000 0.458534
0.869718 1.000000 0.474220
0.903777 1.000000 0.490028
0.936858 0.999420 0.506218
0.968963 0.996490 0.523003
0.999939 0.993622 0.540337
1.000000 0.993591 0.569970
1.000000 0.986633 0.605371
1.000000 0.964294 0.591699
0.501305 1.000000 0.662806
0.504326 1.000000 0.663874
0.507225 1.000000 0.664637
0.505150 1.000000 0.661036
0.501976 1.000000 0.655299
0.498116 1.000000 0.647639
0.494026 1.000000 0.638239
0.489418 1.000000 0.626520
0.489723 1.000000 0.616266
0.499458 1.000000 0.610620
0.510582 1.000000 0.603967
0.523278 1.000000 0.596307
0.537285 1.000000 0.587152
0.552728 1.000000 0.576349
0.569299 1.000000 0.563256
