其他预设/【233】日式怀旧街道调色预设208款/1.3D LUT预设（视频调色-PR-AE-PS-FCPX-达芬奇用）/2.富士胶片风-日式城市街拍预设/JA – Shaded Light 2 (Classic Chrome).cube
# Created by Adobe Lightroom plugin Export LUT (1.17.0)
# www.johnrellis.com/lightroom/exportlut.htm
# Preset: JA – Shaded Light 2 (Classic Chrome)
# Color profile: /Library/Application Support/Adobe/Color/Profiles/Recommended/AdobeRGB1998.icc
LUT_3D_SIZE 5
DOMAIN_MIN 0.000000 0.000000 0.000000
DOMAIN_MAX 0.903226 0.903226 0.903226
0.093874 0.090883 0.085451
0.134707 0.088197 0.084474
0.297765 0.074159 0.078279
0.541863 0.000000 0.013062
0.836820 0.000000 0.000000
0.094545 0.124025 0.089387
0.137636 0.134859 0.086671
0.339055 0.164248 0.066682
0.571466 0.159304 0.000000
0.860075 0.128939 0.000000
0.072206 0.249729 0.098573
0.137026 0.263371 0.086702
0.345830 0.341924 0.000000
0.643061 0.398108 0.000000
0.924254 0.409094 0.000000
0.000000 0.449195 0.105013
0.024353 0.465126 0.040467
0.316564 0.495094 0.058198
0.598352 0.595544 0.000000
0.946258 0.683009 0.000000
0.000000 0.745968 0.154940
0.000000 0.759640 0.110201
0.344549 0.792630 0.127993
0.630091 0.847684 0.200900
0.904417 0.905974 0.169619
0.096284 0.090913 0.118196
0.129915 0.100313 0.116976
0.281804 0.043793 0.133852
0.523827 0.000000 0.101411
0.823850 0.000000 0.000000
0.095247 0.130465 0.123262
0.143130 0.138521 0.130526
0.321508 0.124239 0.121645
0.555016 0.077760 0.098360
0.848020 0.000000 0.000000
0.070375 0.251652 0.143923
0.124025 0.278050 0.135775
0.351781 0.347234 0.121370
0.648554 0.384619 0.095735
0.918181 0.384527 0.000000
0.000000 0.448005 0.168093
0.000000 0.468330 0.145144
0.312139 0.502586 0.138186
0.601617 0.598230 0.118593
0.948760 0.680659 0.139010
0.000000 0.743832 0.220188
0.000000 0.757351 0.197116
0.328679 0.795499 0.190860
0.628016 0.846952 0.262821
0.905241 0.906371 0.261204
0.111849 0.089357 0.242771
0.172549 0.090272 0.249851
0.287053 0.113375 0.255802
0.484657 0.016449 0.300877
0.781521 0.000000 0.306004
0.030671 0.134127 0.254551
0.148226 0.128786 0.270420
0.307103 0.168490 0.275547
0.503807 0.118593 0.301579
0.795560 0.000000 0.274388
0.000000 0.272251 0.259800
0.087892 0.289952 0.276646
0.367376 0.357885 0.340185
0.583764 0.320104 0.308049
0.882689 0.275669 0.275975
0.000000 0.436255 0.283635
0.000000 0.456245 0.287449
0.302098 0.518914 0.307500
0.611688 0.605676 0.363470
0.954101 0.674647 0.405524
0.000000 0.735714 0.363256
0.000000 0.748775 0.354711
0.242679 0.794491 0.328283
0.608240 0.849363 0.383886
0.907103 0.907042 0.425391
0.135958 0.058473 0.445747
0.210422 0.028901 0.454597
0.384649 0.113558 0.479835
0.521324 0.180911 0.473060
0.754574 0.309056 0.570428
0.000000 0.108614 0.453346
0.164370 0.107424 0.461799
0.379431 0.170291 0.487800
0.529717 0.242039 0.482918
0.766049 0.326757 0.573449
0.000000 0.278752 0.429938
0.000000 0.269780 0.441321
0.317266 0.291966 0.503685
0.554162 0.399512 0.513573
0.809873 0.371008 0.569848
0.000000 0.459632 0.444312
0.000000 0.469154 0.453681
0.233616 0.505730 0.489326
0.625238 0.615991 0.597162
0.919799 0.555200 0.541192
0.000000 0.719295 0.525017
0.000000 0.731411 0.527306
0.061311 0.775174 0.532677
0.507500 0.854490 0.529046
0.909575 0.907988 0.648005
0.171084 0.000000 0.774044
0.266545 0.000000 0.778195
0.474128 0.114199 0.792050
0.706752 0.369635 0.805509
0.842313 0.387030 0.795651
0.000000 0.018769 0.775113
0.198337 0.029145 0.779477
0.452461 0.164920 0.793942
0.704891 0.396216 0.808682
0.844358 0.410834 0.798672
0.000000 0.272068 0.764431
0.000000 0.227207 0.775875
0.309667 0.250034 0.800992
0.679774 0.443946 0.820829
0.857725 0.489418 0.816098
0.000000 0.548363 0.771939
0.000000 0.537255 0.773007
0.000000 0.489754 0.782254
0.525170 0.497963 0.841001
0.880583 0.667018 0.850614
0.000000 0.826078 0.823880
0.000000 0.827146 0.825010
0.000000 0.834531 0.832364
0.314092 0.848142 0.845029
0.909331 0.907042 0.900816
