其他预设/【233】日式怀旧街道调色预设208款/1.3D LUT预设（视频调色-PR-AE-PS-FCPX-达芬奇用）/2.富士胶片风-日式城市街拍预设/JA – Chrome 4 (Classic Chrome).cube
# Created by Adobe Lightroom plugin Export LUT (1.17.0)
# www.johnrellis.com/lightroom/exportlut.htm
# Preset: JA – Chrome 4 (Classic Chrome)
# Color profile: /Library/Application Support/Adobe/Color/Profiles/Recommended/AdobeRGB1998.icc
LUT_3D_SIZE 8
DOMAIN_MIN 0.000000 0.000000 0.000000
DOMAIN_MAX 0.903226 0.903226 0.903226
0.102937 0.100343 0.105287
0.119875 0.099153 0.107393
0.196109 0.084627 0.114107
0.386023 0.000000 0.112367
0.620722 0.000000 0.098451
0.792081 0.000000 0.102663
0.905943 0.137514 0.172580
0.976867 0.288457 0.303624
0.102510 0.120272 0.106538
0.122499 0.120363 0.106874
0.195438 0.123659 0.115206
0.387549 0.132601 0.110414
0.620874 0.144656 0.093294
0.789578 0.160769 0.105776
0.902586 0.206485 0.180880
0.974273 0.323705 0.313939
0.101137 0.197848 0.107546
0.132265 0.198703 0.106966
0.212528 0.204654 0.106905
0.406134 0.273259 0.103822
0.642054 0.328222 0.102998
0.800107 0.337621 0.145174
0.906859 0.365972 0.244236
0.971252 0.443549 0.375555
0.067445 0.369146 0.092592
0.139284 0.370153 0.089937
0.264500 0.378607 0.080476
0.430762 0.414801 0.053651
0.643366 0.472328 0.089998
0.811795 0.526207 0.255894
0.903258 0.542535 0.357122
0.961578 0.582025 0.460243
0.000000 0.561517 0.008789
0.114961 0.561608 0.000000
0.281621 0.563470 0.000000
0.441627 0.573266 0.000000
0.615839 0.595911 0.000000
0.775418 0.609918 0.172488
0.890532 0.657130 0.400275
0.948211 0.713649 0.559838
0.000000 0.705257 0.048005
0.103975 0.707881 0.049744
0.278325 0.707607 0.033265
0.432776 0.707454 0.000000
0.589471 0.715145 0.072602
0.749325 0.728939 0.157259
0.869963 0.724727 0.320134
0.942382 0.764401 0.539605
0.142672 0.823056 0.188296
0.195560 0.823362 0.189670
0.309575 0.821866 0.189548
0.439948 0.820371 0.192233
0.573053 0.817777 0.196139
0.715633 0.823178 0.261753
0.847654 0.828611 0.340703
0.934081 0.815579 0.466102
0.361913 0.916808 0.367132
0.378851 0.916442 0.367742
0.433692 0.915557 0.371038
0.517540 0.914549 0.379034
0.609552 0.909850 0.379980
0.718074 0.908110 0.405859
0.829038 0.907530 0.470710
0.922728 0.906340 0.535668
0.101320 0.103273 0.122011
0.120882 0.097169 0.123445
0.193790 0.094392 0.130465
0.379522 0.000000 0.131533
0.612696 0.000000 0.131319
0.782559 0.000000 0.151461
0.898039 0.132235 0.216434
0.971374 0.301762 0.334630
0.099855 0.117464 0.124056
0.122835 0.119661 0.125582
0.196689 0.124575 0.131533
0.384924 0.121798 0.133974
0.615686 0.110079 0.134188
0.782773 0.130556 0.157717
0.895720 0.205478 0.225559
0.968780 0.334691 0.343908
0.102235 0.194003 0.136599
0.127962 0.198306 0.132784
0.211460 0.203891 0.132876
0.407660 0.270939 0.145846
0.633936 0.313268 0.155550
0.791012 0.327855 0.195987
0.897429 0.366339 0.281590
0.965454 0.448981 0.398199
0.025635 0.364385 0.143832
0.108492 0.369879 0.124331
0.255406 0.378424 0.118044
0.420996 0.405615 0.112306
0.631342 0.462074 0.156161
0.799283 0.522576 0.299290
0.894102 0.540276 0.380255
0.956542 0.583215 0.475074
0.000000 0.560998 0.125307
0.021271 0.561578 0.102846
0.266911 0.562066 0.095430
0.432471 0.567590 0.085023
0.608270 0.588739 0.102602
0.769955 0.607355 0.228641
0.885527 0.661402 0.432776
0.944915 0.714687 0.571710
0.000000 0.702815 0.126864
0.041260 0.702876 0.125795
0.266148 0.702876 0.122988
0.425910 0.703548 0.118776
0.585382 0.711635 0.143648
0.747158 0.726925 0.210513
0.867124 0.725795 0.357427
0.939361 0.767544 0.558801
0.140139 0.818631 0.223209
0.191348 0.817868 0.222751
0.306615 0.817044 0.223728
0.438209 0.816648 0.228305
0.571740 0.815152 0.233646
0.713893 0.820340 0.291203
0.844724 0.825772 0.362676
0.930968 0.814481 0.481758
0.365454 0.914153 0.383459
0.382849 0.914061 0.385046
0.437110 0.913390 0.388434
0.520043 0.912596 0.396612
0.616083 0.910613 0.405646
0.720516 0.908049 0.425635
0.829129 0.906676 0.484627
0.921660 0.905333 0.546075
0.087312 0.113497 0.182650
0.112947 0.099214 0.194064
0.207126 0.075349 0.206760
0.381109 0.000000 0.253605
0.605493 0.000000 0.274235
0.775570 0.000000 0.284733
0.890684 0.177005 0.345678
0.963409 0.362799 0.436561
0.100557 0.125307 0.185550
0.120027 0.119203 0.195346
0.208530 0.108339 0.208835
0.386358 0.000000 0.247807
0.607721 0.000000 0.263981
0.776455 0.000000 0.282292
0.888823 0.241764 0.354528
0.961517 0.391730 0.444648
0.100649 0.188815 0.196750
0.124636 0.193210 0.201205
0.216861 0.211124 0.219089
0.414527 0.228946 0.238895
0.629664 0.264469 0.274784
0.783017 0.319249 0.327764
0.887938 0.396277 0.399084
0.957122 0.485695 0.481270
0.000000 0.359655 0.252781
0.066712 0.369085 0.249790
0.220188 0.397528 0.226383
0.429603 0.414954 0.235874
0.644068 0.482765 0.333776
0.790372 0.530358 0.414801
0.885954 0.562036 0.474434
0.949493 0.609155 0.543969
0.000000 0.555810 0.274357
0.000000 0.560540 0.265446
0.227146 0.573388 0.239475
0.424018 0.574762 0.237644
0.613184 0.594537 0.271672
0.771572 0.624750 0.389563
0.880095 0.691798 0.541802
0.939178 0.727932 0.620905
0.000000 0.699794 0.281071
0.000000 0.701839 0.278447
0.258061 0.705745 0.271489
0.423346 0.705196 0.271763
0.583703 0.709560 0.287541
0.744717 0.725368 0.344030
0.862791 0.735256 0.464118
0.933776 0.784665 0.626032
0.179080 0.816861 0.331182
0.229526 0.816495 0.335302
0.330480 0.815885 0.337194
0.450904 0.814694 0.339208
0.578058 0.813138 0.342992
0.716152 0.818143 0.384100
0.844297 0.826047 0.446448
0.927855 0.822354 0.555230
0.388067 0.911559 0.443519
0.409583 0.910643 0.448402
0.458076 0.909880 0.450477
0.536522 0.909850 0.458747
0.626490 0.908049 0.465644
0.725185 0.906035 0.478645
0.831754 0.905547 0.533562
0.921111 0.905394 0.589563
0.000000 0.106355 0.317235
0.106508 0.088411 0.339666
0.283299 0.000000 0.401526
0.422126 0.000000 0.407050
0.594324 0.000000 0.427436
0.761532 0.000000 0.433173
0.874693 0.197238 0.466255
0.947814 0.419318 0.540429
0.000000 0.117372 0.326848
0.104158 0.109957 0.342565
0.268345 0.000000 0.398077
0.424964 0.000000 0.409766
0.598566 0.000000 0.425788
0.761410 0.000000 0.434272
0.872282 0.266545 0.475257
0.946807 0.440803 0.544762
0.061524 0.210666 0.297673
0.095583 0.211551 0.305211
0.199069 0.195438 0.373510
0.432166 0.171756 0.417212
0.612573 0.196567 0.427070
0.764096 0.306065 0.459419
0.871672 0.423438 0.512932
0.946990 0.511681 0.564233
0.000000 0.343328 0.349432
0.000000 0.350622 0.356390
0.206241 0.377722 0.381933
0.445228 0.432776 0.432746
0.629480 0.469184 0.466529
0.770260 0.514275 0.508141
0.871702 0.567926 0.557885
0.940246 0.626307 0.612604
0.000000 0.549340 0.413855
0.000000 0.553429 0.412879
0.221012 0.567590 0.413764
0.444495 0.590112 0.433600
0.620111 0.603143 0.454231
0.774807 0.660670 0.556115
0.872282 0.713375 0.634241
0.932891 0.737240 0.673091
0.000000 0.696223 0.418036
0.000000 0.699825 0.419409
0.275273 0.704219 0.424872
0.453651 0.711696 0.443397
0.593194 0.711086 0.444404
0.746487 0.728359 0.489693
0.859861 0.755947 0.593744
0.927764 0.808469 0.706752
0.178012 0.812741 0.438666
0.230442 0.812985 0.441932
0.353918 0.813321 0.454597
0.482734 0.814328 0.470680
0.596338 0.813413 0.473182
0.721767 0.816526 0.495613
0.843259 0.825986 0.548333
0.922911 0.832609 0.642939
0.391058 0.910216 0.511894
0.413062 0.909789 0.515801
0.478309 0.907897 0.528466
0.561334 0.906065 0.543114
0.642969 0.904753 0.548363
0.733547 0.903349 0.556146
0.834501 0.903746 0.598230
0.919951 0.905089 0.646357
0.000000 0.085603 0.489662
0.100618 0.043305 0.505913
0.288121 0.000000 0.551080
0.495796 0.000000 0.609491
0.634333 0.000000 0.598962
0.757748 0.000000 0.575250
0.867796 0.000000 0.567254
0.947112 0.351629 0.597009
0.000000 0.101198 0.493202
0.072969 0.086793 0.506004
0.268406 0.000000 0.546899
0.484901 0.000000 0.606043
0.635035 0.000000 0.599817
0.757534 0.000000 0.574609
0.866819 0.141115 0.571496
0.945220 0.389837 0.603906
0.000000 0.226047 0.465339
0.000000 0.215030 0.481880
0.181125 0.177218 0.524956
0.445991 0.131594 0.593835
0.634882 0.113222 0.600641
0.751980 0.206912 0.575128
0.861875 0.355779 0.587671
0.938445 0.492256 0.626551
0.000000 0.342870 0.450202
0.000000 0.344213 0.455177
0.172335 0.352270 0.473610
0.405188 0.392950 0.557580
0.632715 0.429816 0.601343
0.751003 0.463355 0.592981
0.856382 0.538354 0.622156
0.930022 0.617151 0.665858
0.000000 0.505425 0.502464
0.000000 0.510307 0.506981
0.212222 0.527489 0.522728
0.433448 0.561028 0.553338
0.631617 0.616327 0.604120
0.760800 0.649104 0.635065
0.858915 0.686854 0.671168
0.927245 0.724025 0.707210
0.000000 0.682918 0.547906
0.000000 0.684871 0.549004
0.263035 0.689784 0.552819
0.450141 0.699580 0.564996
0.612451 0.715785 0.587304
0.746731 0.730190 0.613031
0.860777 0.782742 0.705745
0.923857 0.822843 0.765682
0.169406 0.805112 0.552880
0.222538 0.804929 0.554131
0.344915 0.805051 0.559655
0.482979 0.806821 0.571984
0.614649 0.810819 0.590692
0.721920 0.811246 0.594659
0.840635 0.824643 0.641505
0.918700 0.844541 0.725185
0.380682 0.905028 0.590661
0.401740 0.904448 0.592554
0.466285 0.902831 0.599512
0.561700 0.902037 0.615778
0.655116 0.900572 0.630365
0.739467 0.899901 0.635645
0.833524 0.900786 0.660365
0.917479 0.903685 0.702937
0.000000 0.022248 0.634180
0.083772 0.000000 0.644373
0.274113 0.000000 0.672389
0.454566 0.000000 0.714931
0.653010 0.000000 0.753445
0.779690 0.000000 0.736965
0.870146 0.000000 0.693233
0.945190 0.224796 0.678828
0.000000 0.071168 0.632471
0.000000 0.031098 0.640345
0.252995 0.000000 0.667262
0.442359 0.000000 0.711330
0.649683 0.000000 0.752468
0.778164 0.000000 0.735653
0.868193 0.000000 0.693324
0.943389 0.280613 0.681514
0.000000 0.183291 0.614893
0.000000 0.175418 0.623133
0.162173 0.157534 0.652613
0.403326 0.103822 0.700282
0.640101 0.096101 0.749172
0.775601 0.154940 0.734585
0.862791 0.279210 0.697383
0.938323 0.416571 0.693599
0.000000 0.343664 0.556146
0.000000 0.344091 0.567651
0.145846 0.350225 0.610193
0.373754 0.361761 0.670832
0.624292 0.422797 0.732387
0.771450 0.450294 0.733669
0.854795 0.482765 0.706905
0.930877 0.565728 0.716365
0.000000 0.473182 0.578637
0.000000 0.474525 0.581170
0.164584 0.481880 0.590295
0.366522 0.503288 0.607385
0.585046 0.570123 0.688228
0.762661 0.619776 0.728542
0.846677 0.637049 0.719661
0.922362 0.690913 0.743221
0.000000 0.634058 0.623957
0.000000 0.637110 0.626856
0.246067 0.646113 0.635096
0.425910 0.663355 0.651057
0.595727 0.692012 0.677821
0.758755 0.744533 0.728237
0.854429 0.775021 0.758480
0.920531 0.802090 0.785702
0.158846 0.793515 0.666133
0.215335 0.794522 0.667903
0.338140 0.796872 0.672999
0.475227 0.800473 0.680049
0.611994 0.804868 0.689387
0.737758 0.815702 0.708736
0.841306 0.827329 0.733272
0.918944 0.865049 0.808591
0.372290 0.900572 0.685664
0.392828 0.900023 0.686275
0.456367 0.898589 0.688777
0.547997 0.897246 0.694850
0.647883 0.896117 0.704280
0.745144 0.896574 0.717708
0.829923 0.897490 0.725399
0.915129 0.902892 0.765103
0.000000 0.000000 0.757992
0.000000 0.000000 0.763455
0.251743 0.000000 0.780148
0.415076 0.000000 0.804959
0.589960 0.000000 0.832914
0.755886 0.000000 0.847898
0.877012 0.000000 0.835843
0.947326 0.000000 0.785611
0.000000 0.000000 0.757656
0.000000 0.000000 0.762203
0.231571 0.000000 0.777127
0.403326 0.000000 0.801938
0.583246 0.000000 0.830838
0.754482 0.000000 0.846952
0.875212 0.000000 0.834409
0.945159 0.106294 0.785611
0.000000 0.165866 0.747219
0.000000 0.160189 0.751797
0.137545 0.136782 0.767483
0.366125 0.065492 0.793759
0.565850 0.000000 0.825559
0.756130 0.156161 0.845487
0.871733 0.225528 0.832609
0.940398 0.335607 0.789761
0.000000 0.350256 0.715297
0.000000 0.347356 0.721096
0.000000 0.317174 0.741726
0.338079 0.328008 0.772610
0.559503 0.366400 0.809995
0.765255 0.456489 0.842252
0.865721 0.466468 0.829557
0.932341 0.506004 0.796445
0.000000 0.467292 0.673671
0.000000 0.465858 0.673823
0.030030 0.463233 0.676356
0.338109 0.488319 0.720485
0.538811 0.525231 0.775998
0.750301 0.607691 0.825162
0.858061 0.628016 0.825315
0.922515 0.642939 0.804135
0.000000 0.605554 0.705287
0.000000 0.605829 0.705745
0.179721 0.607416 0.707362
0.344823 0.611536 0.710597
0.495003 0.620905 0.716579
0.710292 0.696468 0.787503
0.853147 0.749294 0.823972
0.915343 0.758358 0.816434
0.121614 0.752132 0.739406
0.178836 0.752895 0.740200
0.295476 0.755428 0.742397
0.425513 0.760616 0.747158
0.567437 0.770413 0.756191
0.711513 0.791012 0.775937
0.848417 0.837308 0.822416
0.917327 0.861387 0.847410
0.344762 0.889982 0.777523
0.366033 0.889952 0.778012
0.432990 0.890318 0.780423
0.527611 0.890532 0.784573
0.633356 0.891051 0.790616
0.735775 0.891630 0.794888
0.831662 0.895750 0.806241
0.912840 0.902647 0.828855
0.000000 0.059693 0.872404
0.000000 0.000000 0.874510
0.203799 0.000000 0.881041
0.378546 0.000000 0.892088
0.532341 0.000000 0.905089
0.693965 0.000000 0.916655
0.832517 0.000000 0.918791
0.947021 0.000000 0.911437
0.000000 0.045319 0.872892
0.000000 0.000000 0.874907
0.204929 0.000000 0.881254
0.369299 0.000000 0.891051
0.525719 0.000000 0.904143
0.690791 0.000000 0.915892
0.832303 0.000000 0.918059
0.945678 0.000000 0.910491
0.000000 0.172030 0.869383
0.000000 0.165621 0.871092
0.123293 0.137881 0.876768
0.337713 0.028840 0.887388
0.507805 0.000000 0.900938
0.684901 0.000000 0.913115
0.834226 0.171511 0.915648
0.941619 0.251164 0.908019
0.000000 0.354131 0.856596
0.000000 0.342077 0.859007
0.009461 0.326482 0.865934
0.330236 0.325200 0.877165
0.510918 0.326604 0.891814
0.688869 0.364141 0.906157
0.840208 0.452369 0.911437
0.935302 0.468910 0.904356
0.000000 0.516411 0.830777
0.100557 0.515801 0.833097
0.243198 0.513512 0.840787
0.360784 0.499886 0.855985
0.517998 0.507530 0.874846
0.691676 0.547173 0.894224
0.848875 0.629969 0.906737
0.927764 0.631189 0.900206
0.145144 0.634424 0.828061
0.177859 0.633539 0.827604
0.257664 0.630365 0.826291
0.353674 0.623560 0.824094
0.506432 0.632044 0.841489
0.678920 0.667140 0.873106
0.842863 0.738827 0.898497
0.921843 0.753384 0.897887
0.272007 0.755734 0.845090
0.290318 0.755489 0.844877
0.346593 0.754665 0.844236
0.429328 0.753506 0.843351
0.529442 0.752163 0.841764
0.637110 0.750454 0.839200
0.808774 0.798306 0.876005
0.917784 0.842222 0.897093
0.385840 0.871458 0.862272
0.399481 0.871489 0.862242
0.445197 0.871672 0.862242
0.518151 0.872251 0.862547
0.606592 0.873320 0.863096
0.703670 0.875395 0.864500
0.807431 0.880980 0.869474
0.914855 0.907561 0.896971
