其他预设/【233】日式怀旧街道调色预设208款/1.3D LUT预设（视频调色-PR-AE-PS-FCPX-达芬奇用）/2.富士胶片风-日式城市街拍预设/JA – Warm Normal 1 (Classic Chrome).cube
# Created by Adobe Lightroom plugin Export LUT (1.17.0)
# www.johnrellis.com/lightroom/exportlut.htm
# Preset: JA – Warm Normal 1 (Classic Chrome)
# Color profile: /Library/Application Support/Adobe/Color/Profiles/Recommended/AdobeRGB1998.icc
LUT_3D_SIZE 32
0.112276 0.101625 0.094667
0.117098 0.101503 0.094545
0.123293 0.101259 0.094606
0.137545 0.099916 0.094179
0.157809 0.098238 0.093660
0.184421 0.095888 0.092714
0.217777 0.091890 0.090791
0.256321 0.086519 0.088258
0.299107 0.078950 0.084627
0.345434 0.068055 0.079438
0.394659 0.047517 0.071778
0.445045 0.006104 0.061402
0.495125 0.000000 0.036408
0.543755 0.000000 0.000000
0.589288 0.000000 0.000000
0.631769 0.000000 0.000000
0.671687 0.000000 0.000000
0.709285 0.000000 0.000000
0.743801 0.000000 0.000000
0.777340 0.000000 0.000000
0.810758 0.000000 0.000000
0.843076 0.000000 0.000000
0.873930 0.000000 0.000000
0.902983 0.000000 0.000000
0.930053 0.000000 0.000000
0.954894 0.000000 0.000000
0.977325 0.000000 0.000000
0.997101 0.000000 0.000000
1.000000 0.000000 0.000000
1.000000 0.000000 0.000000
1.000000 0.000000 0.000000
1.000000 0.000000 0.000000
0.111879 0.106477 0.094514
0.116762 0.106355 0.094087
0.123537 0.105531 0.093935
0.137728 0.104494 0.093477
0.158511 0.103059 0.092683
0.185275 0.100740 0.091676
0.218692 0.097688 0.089662
0.256931 0.093690 0.087312
0.299687 0.087434 0.083253
0.345892 0.079805 0.077821
0.394842 0.068971 0.070253
0.445167 0.048493 0.059541
0.495186 0.012024 0.031617
0.543633 0.000000 0.000000
0.589044 0.000000 0.000000
0.631373 0.000000 0.000000
0.671199 0.000000 0.000000
0.708888 0.000000 0.000000
0.743343 0.000000 0.000000
0.776852 0.000000 0.000000
0.810025 0.000000 0.000000
0.842283 0.000000 0.000000
0.873045 0.000000 0.000000
0.902159 0.000000 0.000000
0.929259 0.000000 0.000000
0.954192 0.000000 0.000000
0.976715 0.000000 0.000000
0.996612 0.000000 0.000000
1.000000 0.000000 0.000000
1.000000 0.000000 0.000000
1.000000 0.000000 0.000000
1.000000 0.000000 0.000000
0.111757 0.112886 0.094148
0.116915 0.112947 0.093446
0.123415 0.112490 0.093263
0.137636 0.111269 0.092836
0.158328 0.109255 0.092073
0.185519 0.107942 0.090700
0.219089 0.105837 0.088594
0.257816 0.102693 0.085512
0.300542 0.098421 0.081483
0.346654 0.092744 0.075837
0.395453 0.084932 0.067842
0.445686 0.075929 0.054658
0.495521 0.063661 0.024048
0.543999 0.047669 0.000000
0.589044 0.017823 0.000000
0.631464 0.000000 0.000000
0.671229 0.000000 0.000000
0.708766 0.000000 0.000000
0.743252 0.000000 0.000000
0.776761 0.000000 0.000000
0.809842 0.000000 0.000000
0.841978 0.000000 0.000000
0.872740 0.000000 0.000000
0.901823 0.000000 0.000000
0.928923 0.000000 0.000000
0.953887 0.000000 0.000000
0.976440 0.000000 0.000000
0.996338 0.000000 0.000000
1.000000 0.000000 0.000000
1.000000 0.000000 0.000000
1.000000 0.000000 0.000000
1.000000 0.000000 0.000000
0.111238 0.126589 0.092927
0.116365 0.126650 0.092500
0.123415 0.126558 0.091707
0.137575 0.125948 0.091188
0.158114 0.124239 0.090455
0.185428 0.121859 0.089174
0.219028 0.121706 0.086793
0.257847 0.120943 0.083406
0.301152 0.118929 0.078676
0.347906 0.116182 0.071992
0.397223 0.112642 0.062470
0.447272 0.107820 0.042390
0.496956 0.103578 0.006867
0.544884 0.098299 0.000000
0.589868 0.091005 0.000000
0.631983 0.084230 0.000000
0.671748 0.075349 0.000000
0.709071 0.064851 0.000000
0.743343 0.047150 0.000000
0.776822 0.011322 0.000000
0.809628 0.000000 0.000000
0.841581 0.000000 0.000000
0.872282 0.000000 0.000000
0.901427 0.000000 0.000000
0.928679 0.000000 0.000000
0.953765 0.000000 0.000000
0.976379 0.000000 0.000000
0.996338 0.000000 0.000000
1.000000 0.000000 0.000000
1.000000 0.000000 0.000000
1.000000 0.000000 0.000000
1.000000 0.000000 0.000000
0.109957 0.146212 0.091463
0.115694 0.146365 0.090700
0.123262 0.146242 0.089906
0.138308 0.146090 0.088472
0.158114 0.145296 0.087617
0.185061 0.145602 0.085969
0.218784 0.144625 0.083619
0.257786 0.143984 0.080079
0.300938 0.144808 0.074647
0.347601 0.145602 0.066896
0.396643 0.144961 0.054108
0.447028 0.144228 0.023987
0.497108 0.142397 0.000000
0.545312 0.140200 0.000000
0.590723 0.136599 0.000000
0.632990 0.132296 0.000000
0.672663 0.126955 0.000000
0.709926 0.121279 0.000000
0.744137 0.114748 0.000000
0.777615 0.106813 0.000000
0.810086 0.097047 0.000000
0.841855 0.083680 0.000000
0.872404 0.065064 0.000000
0.901457 0.012604 0.000000
0.928618 0.000000 0.000000
0.953704 0.000000 0.000000
0.976287 0.000000 0.000000
0.996216 0.000000 0.000000
1.000000 0.000000 0.000000
1.000000 0.000000 0.000000
1.000000 0.000000 0.000000
1.000000 0.000000 0.000000
0.107576 0.172305 0.088716
0.114168 0.172488 0.088167
0.122713 0.172702 0.087221
0.139437 0.172793 0.085328
0.161471 0.172610 0.083314
0.186740 0.172122 0.081178
0.218936 0.174197 0.078157
0.258030 0.175418 0.073854
0.300908 0.175051 0.068116
0.347539 0.176120 0.059266
0.396765 0.178592 0.034638
0.447181 0.180362 0.000397
0.497078 0.181155 0.000000
0.545312 0.180148 0.000000
0.590539 0.178408 0.000000
0.632959 0.175326 0.000000
0.672847 0.171969 0.000000
0.710201 0.167544 0.000000
0.745083 0.162173 0.000000
0.778714 0.156100 0.000000
0.811215 0.149050 0.000000
0.842893 0.140078 0.000000
0.879240 0.130617 0.000000
0.907713 0.118135 0.000000
0.934203 0.101717 0.000000
0.958373 0.079011 0.000000
0.980102 0.023438 0.000000
0.999176 0.000000 0.000000
1.000000 0.000000 0.000000
1.000000 0.000000 0.000000
1.000000 0.000000 0.000000
1.000000 0.000000 0.000000
0.104494 0.205417 0.084230
0.112154 0.205509 0.083314
0.122011 0.205692 0.082551
0.140658 0.206363 0.080629
0.165713 0.206943 0.077394
0.193484 0.206516 0.074464
0.223239 0.206332 0.070710
0.259831 0.209873 0.063966
0.303471 0.212894 0.053407
0.350225 0.214633 0.031464
0.399359 0.214603 0.003601
0.449531 0.217014 0.000000
0.499306 0.219547 0.000000
0.547417 0.220035 0.000000
0.592432 0.219303 0.000000
0.634394 0.217105 0.000000
0.674098 0.214023 0.000000
0.711513 0.210117 0.000000
0.746822 0.205447 0.000000
0.780514 0.200107 0.000000
0.813504 0.194522 0.000000
0.845975 0.186984 0.000000
0.877104 0.179202 0.000000
0.906493 0.169100 0.000000
0.933471 0.157565 0.000000
0.957916 0.143557 0.000000
0.979736 0.126558 0.000000
0.998779 0.104952 0.000000
1.000000 0.070832 0.000000
1.000000 0.000000 0.000000
1.000000 0.000000 0.000000
1.000000 0.000000 0.000000
0.099275 0.242588 0.077516
0.108400 0.242771 0.076448
0.119600 0.242954 0.075624
0.140475 0.243442 0.073304
0.168185 0.244175 0.070192
0.199222 0.244785 0.065309
0.231052 0.244938 0.059846
0.264530 0.244938 0.049775
0.304509 0.249729 0.026032
0.351598 0.253849 0.000000
0.400763 0.256596 0.000000
0.450446 0.257115 0.000000
0.499702 0.255589 0.000000
0.547478 0.257664 0.000000
0.592309 0.258000 0.000000
0.634150 0.256596 0.000000
0.673793 0.253880 0.000000
0.711666 0.250797 0.000000
0.746578 0.246586 0.000000
0.780117 0.241489 0.000000
0.812985 0.235935 0.000000
0.845274 0.229587 0.000000
0.876341 0.222416 0.000000
0.905699 0.214054 0.000000
0.932860 0.204105 0.000000
0.957549 0.192782 0.000000
0.979461 0.179110 0.000000
0.998474 0.163302 0.000000
1.000000 0.144198 0.000000
1.000000 0.119417 0.000000
1.000000 0.084688 0.000000
1.000000 0.000000 0.000000
0.092348 0.283879 0.066865
0.103120 0.283970 0.065614
0.115846 0.284215 0.064912
0.139712 0.284764 0.062257
0.170413 0.285649 0.056825
0.203525 0.286656 0.045258
0.238193 0.287205 0.028687
0.273564 0.287663 0.011078
0.310369 0.288396 0.000000
0.352911 0.293156 0.000000
0.402716 0.298619 0.000000
0.452491 0.300908 0.000000
0.501549 0.300969 0.000000
0.548577 0.298192 0.000000
0.592676 0.294621 0.000000
0.634394 0.294041 0.000000
0.674464 0.292485 0.000000
0.712062 0.290379 0.000000
0.746639 0.285954 0.000000
0.780056 0.281193 0.000000
0.812772 0.276097 0.000000
0.844907 0.270024 0.000000
0.875853 0.263371 0.000000
0.905119 0.255711 0.000000
0.932250 0.246891 0.000000
0.956909 0.236362 0.000000
0.978882 0.224460 0.000000
0.998047 0.210605 0.000000
1.000000 0.194736 0.000000
1.000000 0.175967 0.000000
1.000000 0.154055 0.000000
1.000000 0.126986 0.000000
0.081056 0.328374 0.037995
0.094087 0.328771 0.036103
0.109285 0.328862 0.033082
0.137209 0.329473 0.024750
0.170443 0.330266 0.013825
0.206668 0.331182 0.000000
0.244450 0.332494 0.000000
0.281865 0.333104 0.000000
0.320134 0.333959 0.000000
0.359594 0.334844 0.000000
0.403204 0.339086 0.000000
0.454719 0.345251 0.000000
0.503471 0.346471 0.000000
0.550286 0.344732 0.000000
0.594232 0.340215 0.000000
0.635981 0.334020 0.000000
0.675685 0.330083 0.000000
0.712856 0.327642 0.000000
0.747219 0.324163 0.000000
0.780331 0.320134 0.000000
0.812863 0.314977 0.000000
0.844694 0.309422 0.000000
0.875334 0.302770 0.000000
0.904356 0.295415 0.000000
0.931304 0.287053 0.000000
0.955932 0.277287 0.000000
0.977966 0.266087 0.000000
0.997192 0.253574 0.000000
1.000000 0.239353 0.000000
1.000000 0.222599 0.000000
1.000000 0.203555 0.000000
1.000000 0.182406 0.000000
0.060639 0.374823 0.000000
0.078462 0.374975 0.000000
0.099580 0.375219 0.000000
0.131411 0.375860 0.000000
0.168460 0.376471 0.000000
0.207706 0.377722 0.000000
0.247654 0.379187 0.000000
0.288151 0.380407 0.000000
0.328283 0.381109 0.000000
0.368933 0.382177 0.000000
0.410346 0.383459 0.000000
0.454444 0.386572 0.000000
0.505943 0.392493 0.000000
0.552789 0.391638 0.000000
0.596704 0.388159 0.000000
0.637964 0.382177 0.000000
0.676875 0.374517 0.000000
0.713191 0.365545 0.000000
0.747250 0.361028 0.000000
0.780270 0.356847 0.000000
0.812680 0.353033 0.000000
0.844388 0.347417 0.000000
0.874968 0.341192 0.000000
0.903899 0.334081 0.000000
0.930785 0.325933 0.000000
0.955352 0.316442 0.000000
0.977264 0.305791 0.000000
0.996429 0.293736 0.000000
1.000000 0.280064 0.000000
1.000000 0.265080 0.000000
1.000000 0.247837 0.000000
1.000000 0.228916 0.000000
0.000000 0.422370 0.000000
0.049378 0.422492 0.000000
0.083345 0.422766 0.000000
0.121859 0.423102 0.000000
0.164218 0.423926 0.000000
0.206332 0.424964 0.000000
0.248722 0.426337 0.000000
0.291814 0.427710 0.000000
0.333928 0.428870 0.000000
0.375921 0.429755 0.000000
0.418311 0.430884 0.000000
0.461616 0.432685 0.000000
0.510765 0.439124 0.000000
0.561212 0.443915 0.000000
0.604700 0.439948 0.000000
0.645502 0.433722 0.000000
0.684138 0.425940 0.000000
0.719692 0.416449 0.000000
0.752621 0.405798 0.000000
0.784970 0.396155 0.000000
0.816953 0.391577 0.000000
0.848081 0.387182 0.000000
0.878080 0.380499 0.000000
0.906432 0.373175 0.000000
0.932738 0.364752 0.000000
0.956756 0.355322 0.000000
0.978241 0.344579 0.000000
0.996948 0.332586 0.000000
1.000000 0.319249 0.000000
1.000000 0.304875 0.000000
1.000000 0.288853 0.000000
1.000000 0.271092 0.000000
0.000000 0.470893 0.000000
0.000000 0.471077 0.000000
0.053285 0.471199 0.000000
0.109804 0.471443 0.000000
0.157412 0.471839 0.000000
0.202792 0.472633 0.000000
0.247837 0.473487 0.000000
0.292515 0.474678 0.000000
0.337102 0.476051 0.000000
0.380713 0.477607 0.000000
0.424506 0.479347 0.000000
0.468849 0.480995 0.000000
0.513451 0.482979 0.000000
0.558160 0.484565 0.000000
0.606256 0.487922 0.000000
0.646967 0.481666 0.000000
0.685267 0.473823 0.000000
0.720394 0.463874 0.000000
0.753231 0.453285 0.000000
0.785183 0.442145 0.000000
0.816617 0.431373 0.000000
0.847471 0.423194 0.000000
0.877256 0.417731 0.000000
0.905486 0.410285 0.000000
0.931731 0.401892 0.000000
0.955718 0.392432 0.000000
0.977173 0.381689 0.000000
0.995911 0.369696 0.000000
1.000000 0.356481 0.000000
1.000000 0.342382 0.000000
1.000000 0.327001 0.000000
1.000000 0.310063 0.000000
0.000000 0.515618 0.000000
0.000000 0.515648 0.000000
0.000000 0.515648 0.000000
0.090211 0.515984 0.000000
0.147646 0.516320 0.000000
0.196323 0.517021 0.000000
0.243656 0.517937 0.000000
0.290074 0.519127 0.000000
0.336248 0.520439 0.000000
0.381231 0.521843 0.000000
0.425391 0.522911 0.000000
0.469886 0.524254 0.000000
0.514122 0.525566 0.000000
0.558495 0.526848 0.000000
0.602655 0.527916 0.000000
0.648371 0.529808 0.000000
0.686244 0.521355 0.000000
0.721096 0.511162 0.000000
0.753750 0.499977 0.000000
0.785550 0.489052 0.000000
0.816922 0.477974 0.000000
0.847379 0.466865 0.000000
0.876768 0.455390 0.000000
0.904784 0.447059 0.000000
0.930999 0.438605 0.000000
0.954894 0.428931 0.000000
0.976226 0.418128 0.000000
0.994934 0.406043 0.000000
1.000000 0.392859 0.000000
1.000000 0.378729 0.000000
1.000000 0.363836 0.000000
1.000000 0.347295 0.000000
0.000000 0.558587 0.000000
0.000000 0.558770 0.000000
0.000000 0.558740 0.000000
0.063722 0.558892 0.000000
0.134157 0.559197 0.000000
0.188266 0.559686 0.000000
0.238071 0.560082 0.000000
0.285679 0.560876 0.000000
0.332189 0.561852 0.000000
0.378668 0.563165 0.000000
0.423407 0.564141 0.000000
0.467750 0.565087 0.000000
0.512047 0.566125 0.000000
0.556207 0.567193 0.000000
0.600214 0.568017 0.000000
0.643671 0.568414 0.000000
0.687404 0.569360 0.000000
0.721828 0.558526 0.000000
0.754360 0.546990 0.000000
0.786130 0.535454 0.000000
0.817258 0.524224 0.000000
0.847654 0.512963 0.000000
0.876707 0.501427 0.000000
0.904326 0.489052 0.000000
0.930205 0.474861 0.000000
0.954040 0.465126 0.000000
0.975402 0.454139 0.000000
0.994049 0.441962 0.000000
1.000000 0.428565 0.000000
1.000000 0.414405 0.000000
1.000000 0.399390 0.000000
1.000000 0.383185 0.000000
0.000000 0.598993 0.000000
0.000000 0.599145 0.000000
0.000000 0.599145 0.000000
0.000000 0.599298 0.000000
0.117800 0.599481 0.000000
0.178164 0.599847 0.000000
0.230106 0.600275 0.000000
0.279301 0.600946 0.000000
0.326879 0.601709 0.000000
0.373724 0.602716 0.000000
0.419776 0.603632 0.000000
0.464363 0.604395 0.000000
0.508049 0.604974 0.000000
0.551965 0.605463 0.000000
0.595331 0.605676 0.000000
0.638453 0.605859 0.000000
0.680873 0.605982 0.000000
0.721706 0.604761 0.000000
0.755062 0.593866 0.000000
0.786893 0.582025 0.000000
0.817990 0.570520 0.000000
0.848264 0.558923 0.000000
0.877195 0.547051 0.000000
0.904540 0.534722 0.000000
0.930114 0.520287 0.000000
0.953643 0.503838 0.000000
0.974823 0.489876 0.000000
0.993347 0.477455 0.000000
1.000000 0.463752 0.000000
1.000000 0.449348 0.000000
1.000000 0.434119 0.000000
1.000000 0.418189 0.000000
0.000000 0.636744 0.000000
0.000000 0.636835 0.000000
0.000000 0.636835 0.000000
0.000000 0.636866 0.000000
0.097688 0.636988 0.000000
0.165805 0.637232 0.000000
0.220615 0.637659 0.000000
0.271153 0.637995 0.000000
0.319493 0.638514 0.000000
0.366522 0.639185 0.000000
0.413214 0.639948 0.000000
0.458228 0.640589 0.000000
0.501915 0.640864 0.000000
0.545281 0.641016 0.000000
0.588312 0.641047 0.000000
0.630762 0.640864 0.000000
0.672877 0.640589 0.000000
0.714565 0.640314 0.000000
0.754086 0.638422 0.000000
0.787411 0.628626 0.000000
0.818387 0.616510 0.000000
0.848417 0.604456 0.000000
0.877165 0.592126 0.000000
0.904326 0.579370 0.000000
0.929656 0.565667 0.000000
0.952911 0.549187 0.000000
0.973846 0.531365 0.000000
0.992340 0.512474 0.000000
1.000000 0.498451 0.000000
1.000000 0.483742 0.000000
1.000000 0.468360 0.000000
1.000000 0.452399 0.000000
0.000000 0.671931 0.000000
0.000000 0.671992 0.000000
0.000000 0.675776 0.000000
0.000000 0.675746 0.000000
0.068391 0.675776 0.000000
0.151675 0.675715 0.000000
0.210666 0.675746 0.000000
0.263157 0.675837 0.000000
0.312047 0.676081 0.000000
0.360021 0.676387 0.000000
0.406531 0.676753 0.000000
0.452491 0.677089 0.000000
0.496223 0.677150 0.000000
0.539452 0.677058 0.000000
0.582086 0.676875 0.000000
0.624262 0.676539 0.000000
0.666133 0.676204 0.000000
0.707576 0.675715 0.000000
0.748623 0.675288 0.000000
0.787411 0.673243 0.000000
0.820401 0.664210 0.000000
0.850065 0.651270 0.000000
0.878386 0.638087 0.000000
0.905119 0.624567 0.000000
0.929870 0.610498 0.000000
0.952605 0.594049 0.000000
0.973053 0.575952 0.000000
0.991180 0.556481 0.000000
1.000000 0.535851 0.000000
1.000000 0.517815 0.000000
1.000000 0.502068 0.000000
1.000000 0.485847 0.000000
0.000000 0.706172 0.000000
0.000000 0.706661 0.000000
0.000000 0.707118 0.000000
0.000000 0.707546 0.000000
0.000000 0.707851 0.000000
0.134951 0.708064 0.000000
0.198489 0.708156 0.000000
0.252476 0.708217 0.000000
0.302800 0.708431 0.000000
0.350469 0.708583 0.000000
0.397253 0.708858 0.000000
0.442969 0.709194 0.000000
0.487831 0.709407 0.000000
0.530602 0.709316 0.000000
0.573144 0.709071 0.000000
0.615167 0.708797 0.000000
0.656764 0.708431 0.000000
0.697932 0.708064 0.000000
0.738888 0.707729 0.000000
0.779355 0.707485 0.000000
0.817624 0.705409 0.000000
0.850095 0.696986 0.000000
0.878264 0.683162 0.000000
0.904753 0.669001 0.000000
0.929290 0.654200 0.000000
0.951751 0.637903 0.000000
0.971954 0.619562 0.000000
0.989837 0.599878 0.000000
1.000000 0.579187 0.000000
1.000000 0.557427 0.000000
1.000000 0.535393 0.000000
1.000000 0.518883 0.000000
0.000000 0.738247 0.000000
0.000000 0.738674 0.000000
0.000000 0.739132 0.000000
0.000000 0.739559 0.000000
0.000000 0.739864 0.000000
0.114046 0.740017 0.000000
0.185153 0.740017 0.000000
0.241184 0.740139 0.000000
0.292638 0.740230 0.000000
0.340948 0.740444 0.000000
0.387732 0.740749 0.000000
0.433600 0.741024 0.000000
0.478767 0.741176 0.000000
0.522332 0.741207 0.000000
0.564538 0.741024 0.000000
0.606348 0.740719 0.000000
0.647669 0.740383 0.000000
0.688685 0.739956 0.000000
0.729213 0.739590 0.000000
0.769467 0.739223 0.000000
0.809323 0.738918 0.000000
0.846830 0.736843 0.000000
0.878172 0.728420 0.000000
0.904387 0.713405 0.000000
0.928679 0.697749 0.000000
0.950805 0.681209 0.000000
0.970672 0.662470 0.000000
0.988342 0.642451 0.000000
1.000000 0.621546 0.000000
1.000000 0.599634 0.000000
1.000000 0.577173 0.000000
1.000000 0.554131 0.000000
0.000000 0.770047 0.000000
0.000000 0.770413 0.000000
0.000000 0.770840 0.000000
0.000000 0.771237 0.000000
0.000000 0.771481 0.000000
0.089296 0.771603 0.000000
0.169894 0.771664 0.000000
0.229221 0.771756 0.000000
0.281956 0.771786 0.000000
0.331182 0.771847 0.000000
0.378088 0.772030 0.000000
0.424170 0.772183 0.000000
0.468971 0.772305 0.000000
0.513329 0.772427 0.000000
0.555688 0.772213 0.000000
0.597284 0.771969 0.000000
0.638544 0.771664 0.000000
0.679377 0.771359 0.000000
0.719844 0.771115 0.000000
0.759945 0.770809 0.000000
0.799588 0.770596 0.000000
0.838865 0.770260 0.000000
0.875578 0.767971 0.000000
0.905150 0.758968 0.000000
0.929107 0.742245 0.000000
0.950835 0.725002 0.000000
0.970306 0.705684 0.000000
0.987579 0.685176 0.000000
1.000000 0.663630 0.000000
1.000000 0.641444 0.000000
1.000000 0.618738 0.000000
1.000000 0.595514 0.000000
0.000000 0.802762 0.000000
0.000000 0.802976 0.000000
0.000000 0.803098 0.000000
0.000000 0.803250 0.000000
0.000000 0.803311 0.000000
0.034333 0.803281 0.000000
0.153780 0.803220 0.000000
0.216831 0.803250 0.000000
0.271305 0.803342 0.000000
0.321080 0.803403 0.000000
0.368750 0.803525 0.000000
0.414710 0.803647 0.000000
0.459693 0.803647 0.000000
0.503929 0.803586 0.000000
0.547021 0.803372 0.000000
0.588464 0.802945 0.000000
0.629358 0.802457 0.000000
0.669795 0.801968 0.000000
0.709865 0.801389 0.000000
0.749416 0.800809 0.000000
0.788571 0.800198 0.000000
0.827176 0.799466 0.000000
0.865354 0.798734 0.000000
0.900999 0.796048 0.000000
0.928130 0.785824 0.000000
0.949554 0.767514 0.000000
0.968719 0.747799 0.000000
0.985779 0.726741 0.000000
1.000000 0.704799 0.000000
1.000000 0.682216 0.000000
1.000000 0.659144 0.000000
1.000000 0.635767 0.000000
0.000000 0.832853 0.000000
0.000000 0.833036 0.000000
0.000000 0.833219 0.000000
0.000000 0.833249 0.000000
0.000000 0.833280 0.000000
0.000000 0.833219 0.000000
0.132876 0.833127 0.000000
0.202609 0.833036 0.000000
0.258885 0.833005 0.000000
0.310063 0.832883 0.000000
0.358129 0.832822 0.000000
0.404425 0.832761 0.000000
0.449226 0.832609 0.000000
0.493233 0.832364 0.000000
0.536492 0.832059 0.000000
0.578271 0.831601 0.000000
0.618952 0.830930 0.000000
0.658991 0.830259 0.000000
0.698604 0.829526 0.000000
0.737728 0.828733 0.000000
0.776394 0.827878 0.000000
0.814572 0.826932 0.000000
0.852140 0.825925 0.000000
0.889189 0.824765 0.000000
0.923369 0.821378 0.000000
0.947570 0.808957 0.000000
0.966766 0.789364 0.000000
0.983612 0.767758 0.000000
0.998688 0.745327 0.000000
1.000000 0.722316 0.000000
1.000000 0.698909 0.000000
1.000000 0.675257 0.000000
0.000000 0.862608 0.000000
0.000000 0.862791 0.000000
0.000000 0.862821 0.000000
0.000000 0.862791 0.000000
0.000000 0.862730 0.000000
0.000000 0.862516 0.000000
0.109194 0.862303 0.000000
0.187320 0.861997 0.000000
0.246677 0.861631 0.000000
0.298528 0.861326 0.000000
0.347204 0.860990 0.000000
0.393530 0.860594 0.000000
0.438178 0.860197 0.000000
0.482002 0.859617 0.000000
0.524712 0.858946 0.000000
0.567010 0.858152 0.000000
0.607416 0.857206 0.000000
0.646906 0.856199 0.000000
0.686061 0.855192 0.000000
0.724666 0.854154 0.000000
0.762844 0.853025 0.000000
0.800381 0.851774 0.000000
0.837339 0.850370 0.000000
0.873655 0.848783 0.000000
0.909270 0.847044 0.000000
0.943481 0.844388 0.000000
0.964477 0.829465 0.000000
0.981506 0.808591 0.000000
0.996399 0.785611 0.000000
1.000000 0.762112 0.000000
1.000000 0.738277 0.000000
1.000000 0.714199 0.000000
0.000000 0.888914 0.000000
0.000000 0.889036 0.000000
0.000000 0.889128 0.000000
0.000000 0.889097 0.000000
0.000000 0.888914 0.000000
0.000000 0.888701 0.000000
0.074983 0.888396 0.000000
0.169955 0.888060 0.000000
0.232456 0.887633 0.000000
0.285924 0.887236 0.000000
0.334905 0.886809 0.000000
0.381720 0.886290 0.000000
0.426520 0.885679 0.000000
0.469978 0.884977 0.000000
0.512566 0.884123 0.000000
0.554406 0.883116 0.000000
0.595300 0.881987 0.000000
0.634424 0.880797 0.000000
0.672969 0.879454 0.000000
0.711025 0.878080 0.000000
0.748623 0.876585 0.000000
0.785519 0.874968 0.000000
0.821927 0.873167 0.000000
0.857542 0.871244 0.000000
0.892546 0.869108 0.000000
0.926848 0.866819 0.000000
0.960479 0.864378 0.000000
0.979004 0.847471 0.000000
0.994171 0.825803 0.000000
1.000000 0.801724 0.000000
1.000000 0.777340 0.000000
1.000000 0.752804 0.000000
0.000000 0.913207 0.000000
0.000000 0.913268 0.000000
0.000000 0.913268 0.000000
0.000000 0.913146 0.000000
0.000000 0.912871 0.000000
0.000000 0.912596 0.000000
0.000000 0.912169 0.000000
0.149111 0.911742 0.000000
0.216495 0.911192 0.000000
0.271702 0.910674 0.000000
0.321691 0.910033 0.000000
0.368719 0.909331 0.000000
0.413428 0.908537 0.000000
0.456947 0.907622 0.000000
0.499184 0.906554 0.000000
0.540581 0.905303 0.000000
0.581292 0.903929 0.000000
0.620508 0.902403 0.000000
0.658595 0.900816 0.000000
0.696162 0.899107 0.000000
0.733028 0.897276 0.000000
0.769375 0.895323 0.000000
0.805020 0.893248 0.000000
0.840116 0.891020 0.000000
0.874479 0.888579 0.000000
0.908232 0.885985 0.000000
0.941100 0.883360 0.000000
0.973571 0.880522 0.000000
0.991150 0.863127 0.000000
1.000000 0.840848 0.000000
1.000000 0.815946 0.000000
1.000000 0.790982 0.000000
0.000000 0.934356 0.000000
0.000000 0.934356 0.000000
0.000000 0.934295 0.000000
0.000000 0.934173 0.000000
0.000000 0.933928 0.000000
0.000000 0.933654 0.000000
0.000000 0.933318 0.000000
0.125277 0.932891 0.000000
0.200046 0.932464 0.000000
0.256992 0.931975 0.000000
0.307927 0.931334 0.000000
0.355291 0.930571 0.000000
0.400061 0.929717 0.000000
0.443183 0.928679 0.000000
0.485267 0.927428 0.000000
0.526329 0.925994 0.000000
0.566613 0.924376 0.000000
0.606073 0.922667 0.000000
0.643824 0.920806 0.000000
0.680842 0.918791 0.000000
0.717128 0.916686 0.000000
0.752926 0.914458 0.000000
0.788083 0.912078 0.000000
0.822538 0.909575 0.000000
0.856382 0.906889 0.000000
0.889220 0.904143 0.000000
0.921538 0.901244 0.000000
0.953491 0.898222 0.000000
0.985046 0.894987 0.000000
1.000000 0.877562 0.000000
1.000000 0.854734 0.000000
1.000000 0.829160 0.000000
0.000000 0.953491 0.000000
0.000000 0.953460 0.000000
0.000000 0.953368 0.000000
0.000000 0.953185 0.000000
0.000000 0.952880 0.000000
0.000000 0.952483 0.000000
0.000000 0.952026 0.000000
0.092836 0.951446 0.000000
0.179904 0.950835 0.000000
0.240452 0.950072 0.000000
0.292515 0.949218 0.000000
0.340093 0.948241 0.000000
0.384955 0.947143 0.000000
0.428016 0.945861 0.000000
0.469764 0.944427 0.000000
