其他预设/【233】日式怀旧街道调色预设208款/1.3D LUT预设（视频调色-PR-AE-PS-FCPX-达芬奇用）/2.富士胶片风-日式城市街拍预设/JA – Night Pop 2 (Classic Chrome).cube
# Created by Adobe Lightroom plugin Export LUT (1.17.0)
# www.johnrellis.com/lightroom/exportlut.htm
# Preset: JA – Night Pop 2 (Classic Chrome)
# Color profile: /Library/Application Support/Adobe/Color/Profiles/Recommended/AdobeRGB1998.icc
LUT_3D_SIZE 5
DOMAIN_MIN 0.000000 0.000000 0.000000
DOMAIN_MAX 0.903226 0.903226 0.903226
0.049531 0.057221 0.062287
0.162905 0.011505 0.057862
0.481056 0.000000 0.000000
0.835904 0.000000 0.000000
1.000000 0.000000 0.000000
0.012879 0.131960 0.051942
0.128969 0.124331 0.067445
0.389441 0.190127 0.087068
0.808438 0.223667 0.000000
1.000000 0.167636 0.000000
0.000000 0.359716 0.064393
0.142824 0.351537 0.000000
0.311376 0.289921 0.000000
0.674311 0.446082 0.261967
1.000000 0.490791 0.286473
0.000000 0.745907 0.018189
0.000000 0.738338 0.000000
0.471015 0.704707 0.000000
0.700221 0.626062 0.000000
0.937530 0.728450 0.562463
0.000000 0.994415 0.000000
0.000000 0.995331 0.000000
0.384955 0.979706 0.000000
0.756191 0.946136 0.000000
1.000000 0.891447 0.000000
0.000000 0.055879 0.162753
0.133547 0.032380 0.148684
0.454261 0.000000 0.108766
0.838560 0.000000 0.000000
1.000000 0.000000 0.000000
0.000000 0.141939 0.159426
0.118746 0.128756 0.138766
0.430396 0.142672 0.120455
0.823362 0.154208 0.000000
1.000000 0.149081 0.000000
0.000000 0.381964 0.221439
0.000000 0.364660 0.144961
0.319371 0.301946 0.127413
0.701991 0.452155 0.290837
1.000000 0.483589 0.277470
0.000000 0.754391 0.285435
0.000000 0.748074 0.140291
0.439796 0.715297 0.000000
0.701289 0.628992 0.000000
0.938170 0.729976 0.568688
0.000000 0.996490 0.198337
0.000000 0.997955 0.039948
0.314733 0.982940 0.000000
0.743343 0.948180 0.000000
1.000000 0.891478 0.000000
0.000000 0.034211 0.527001
0.000000 0.000000 0.489113
0.367620 0.000000 0.394293
0.811612 0.000000 0.436622
1.000000 0.000000 0.225895
0.000000 0.262974 0.546746
0.000000 0.165408 0.503960
0.354589 0.000000 0.383001
0.809812 0.000000 0.393225
1.000000 0.000000 0.195010
0.000000 0.479561 0.522759
0.000000 0.456519 0.497200
0.289250 0.308782 0.330327
0.783200 0.353735 0.352056
1.000000 0.323796 0.285924
0.000000 0.777310 0.564111
0.000000 0.777707 0.536187
0.257572 0.741787 0.405158
0.693385 0.636591 0.312627
0.932189 0.770718 0.698909
0.000000 1.000000 0.510155
0.000000 1.000000 0.490547
0.000000 0.998199 0.357671
0.702022 0.959594 0.363745
0.999634 0.897581 0.346777
0.000000 0.000000 0.844663
0.000000 0.000000 0.839994
0.361334 0.000000 0.778805
0.748470 0.000000 0.738949
1.000000 0.000000 0.672724
0.000000 0.266514 0.854063
0.000000 0.229557 0.849027
0.317601 0.000000 0.788846
0.747005 0.000000 0.738338
1.000000 0.000000 0.667445
0.000000 0.545373 0.857023
0.000000 0.533867 0.855283
0.171145 0.437964 0.823484
0.727443 0.290135 0.727077
1.000000 0.320562 0.664454
0.000000 0.796689 0.834897
0.000000 0.800565 0.833097
0.000000 0.785245 0.813657
0.646113 0.654810 0.674128
1.000000 0.688655 0.694697
0.000000 1.000000 0.776364
0.000000 1.000000 0.769192
0.000000 1.000000 0.718441
0.681209 0.967926 0.735683
0.972778 0.909697 0.668055
0.000000 0.000000 0.988617
0.000000 0.000000 0.988586
0.000000 0.000000 0.984100
0.614099 0.000000 0.969818
1.000000 0.000000 0.957519
0.000000 0.000000 0.989044
0.000000 0.057008 0.989105
0.000000 0.000000 0.985351
0.596582 0.000000 0.971374
1.000000 0.000000 0.957549
0.000000 0.376715 0.988251
0.000000 0.375158 0.988312
0.000000 0.329290 0.987610
0.559319 0.304417 0.973205
0.991943 0.248661 0.954101
0.000000 0.651637 0.980011
0.000000 0.652430 0.980041
0.000000 0.644678 0.980591
0.681239 0.751095 0.965148
0.969635 0.674006 0.945861
0.000000 0.908415 0.965728
0.000000 0.912200 0.965484
0.000000 0.926604 0.964385
0.428351 0.939117 0.957458
0.933196 0.926421 0.926726
