其他预设/【233】日式怀旧街道调色预设208款/1.3D LUT预设（视频调色-PR-AE-PS-FCPX-达芬奇用）/2.富士胶片风-日式城市街拍预设/JA – Subdued 3 (Classic Chrome).cube
# Created by Adobe Lightroom plugin Export LUT (1.17.0)
# www.johnrellis.com/lightroom/exportlut.htm
# Preset: JA – Subdued 3 (Classic Chrome)
# Color profile: /Library/Application Support/Adobe/Color/Profiles/Recommended/AdobeRGB1998.icc
LUT_3D_SIZE 5
DOMAIN_MIN 0.000000 0.000000 0.000000
DOMAIN_MAX 0.903226 0.903226 0.903226
0.088197 0.088136 0.087861
0.220523 0.058137 0.082795
0.429694 0.000000 0.042969
0.737575 0.000000 0.000000
1.000000 0.000000 0.000000
0.109071 0.218906 0.106661
0.217868 0.216312 0.079347
0.432807 0.218051 0.000000
0.741482 0.224765 0.000000
1.000000 0.141085 0.000000
0.126375 0.455146 0.113436
0.246281 0.456641 0.099855
0.477882 0.470344 0.000000
0.752743 0.488106 0.000000
1.000000 0.470161 0.000000
0.060426 0.764157 0.000000
0.256291 0.764340 0.000000
0.506432 0.763546 0.000000
0.776730 0.763455 0.000000
0.998718 0.727077 0.000000
0.150912 0.990173 0.018830
0.274266 0.988952 0.000000
0.492409 0.983490 0.000000
0.728603 0.976898 0.000000
0.972778 0.962707 0.000000
0.136385 0.131777 0.212619
0.210483 0.134249 0.205753
0.435218 0.001953 0.209903
0.749752 0.000000 0.146914
1.000000 0.000000 0.000000
0.146822 0.220310 0.220005
0.220890 0.219699 0.218692
0.450935 0.196201 0.191409
0.752255 0.154513 0.135348
1.000000 0.000000 0.000000
0.087831 0.461494 0.232975
0.214084 0.468208 0.204776
0.482063 0.474525 0.159426
0.759915 0.474678 0.070100
1.000000 0.449500 0.000000
0.000000 0.768704 0.193240
0.207492 0.769955 0.177859
0.494789 0.768368 0.124422
0.779324 0.766079 0.000000
1.000000 0.719692 0.000000
0.156558 0.990295 0.246006
0.274388 0.989166 0.232883
0.490425 0.985382 0.178347
0.724117 0.978241 0.000000
0.973419 0.963439 0.000000
0.204410 0.179904 0.447120
0.278874 0.167697 0.437629
0.415442 0.136446 0.396979
0.662135 0.000000 0.406256
1.000000 0.000000 0.385290
0.190372 0.273167 0.468727
0.273289 0.256077 0.458808
0.436225 0.215244 0.417273
0.701167 0.121920 0.417029
1.000000 0.000000 0.375433
0.119692 0.492988 0.487831
0.242252 0.492226 0.486763
0.490700 0.482155 0.474830
0.780545 0.436164 0.425879
1.000000 0.344701 0.326268
0.000000 0.771084 0.489143
0.198306 0.772427 0.482063
0.494301 0.775357 0.470497
0.785550 0.772305 0.401373
1.000000 0.696651 0.300298
0.224521 0.987579 0.496010
0.328466 0.986389 0.498726
0.534844 0.981781 0.503105
0.731075 0.975830 0.444617
0.972808 0.963165 0.241703
0.315923 0.265110 0.743435
0.379339 0.252110 0.738796
0.535943 0.180209 0.717891
0.705074 0.068299 0.666377
0.911070 0.278904 0.655146
0.329747 0.362036 0.754940
0.386603 0.347601 0.749416
0.537285 0.284581 0.726894
0.711940 0.212131 0.673915
0.917296 0.330694 0.658686
0.402472 0.585901 0.775479
0.470893 0.593286 0.775387
0.577813 0.554345 0.757473
0.736324 0.468360 0.702358
0.955871 0.467048 0.677699
0.320348 0.784665 0.778347
0.400916 0.784146 0.777401
0.581292 0.783291 0.775265
0.785031 0.772396 0.761715
0.987243 0.727718 0.712703
0.375708 0.980987 0.750149
0.439429 0.979553 0.751217
0.599634 0.975341 0.754726
0.792874 0.967315 0.767544
0.969055 0.960784 0.697963
0.578424 0.542718 0.957763
0.600366 0.535851 0.957397
0.672755 0.504051 0.955810
0.798459 0.417121 0.952514
0.967956 0.405646 0.936492
0.608270 0.601495 0.957519
0.625879 0.594141 0.957214
0.687434 0.562829 0.955932
0.802457 0.483314 0.953246
0.968017 0.457679 0.937896
0.693629 0.745327 0.956390
0.709041 0.744472 0.956420
0.739528 0.716548 0.956023
0.816770 0.650416 0.954437
0.966583 0.595727 0.940795
0.719142 0.849302 0.957763
0.742580 0.853361 0.957610
0.809171 0.865415 0.957000
0.861173 0.847837 0.956390
0.961944 0.785641 0.944396
0.681300 0.960937 0.962219
0.704738 0.961151 0.962249
0.774258 0.961486 0.961791
0.872099 0.962676 0.961608
0.967010 0.963684 0.960876
