其他预设/【233】日式怀旧街道调色预设208款/1.3D LUT预设（视频调色-PR-AE-PS-FCPX-达芬奇用）/2.富士胶片风-日式城市街拍预设/JA – Chrome 3 (Classic Chrome).cube
# Created by Adobe Lightroom plugin Export LUT (1.17.0)
# www.johnrellis.com/lightroom/exportlut.htm
# Preset: JA – Chrome 3 (Classic Chrome)
# Color profile: /Library/Application Support/Adobe/Color/Profiles/Recommended/AdobeRGB1998.icc
LUT_3D_SIZE 5
DOMAIN_MIN 0.000000 0.000000 0.000000
DOMAIN_MAX 0.903226 0.903226 0.903226
0.120058 0.117037 0.122683
0.177218 0.105470 0.123140
0.567285 0.051362 0.084962
0.844724 0.144625 0.000000
0.988800 0.161318 0.000000
0.121157 0.174502 0.122377
0.192905 0.183413 0.120394
0.592584 0.327306 0.000000
0.850828 0.325780 0.000000
0.992004 0.306004 0.000000
0.078431 0.513298 0.000000
0.291356 0.508843 0.000000
0.617670 0.584039 0.000000
0.863981 0.600336 0.000000
0.988830 0.555840 0.000000
0.062501 0.749020 0.000000
0.282170 0.745937 0.000000
0.549096 0.732845 0.000000
0.822141 0.784024 0.000000
0.970916 0.759030 0.288640
0.304570 0.908202 0.262364
0.375830 0.905821 0.257939
0.544823 0.894713 0.229313
0.754665 0.892485 0.270146
0.937072 0.904265 0.431373
0.116060 0.123995 0.161929
0.172305 0.110170 0.172488
0.533074 0.000000 0.223087
0.822751 0.000000 0.140414
0.981170 0.000000 0.118135
0.121401 0.166934 0.174777
0.178988 0.174197 0.181735
0.564172 0.182834 0.157229
0.830900 0.210605 0.137362
0.981964 0.239750 0.136629
0.000000 0.508598 0.234531
0.170932 0.518791 0.153567
0.590021 0.558984 0.129641
0.848295 0.587976 0.199374
0.979004 0.554620 0.267216
0.000000 0.750668 0.162112
0.235050 0.748470 0.202335
0.533227 0.734401 0.173739
0.814267 0.779294 0.280735
0.961486 0.770108 0.425116
0.255436 0.908995 0.304234
0.400122 0.902708 0.364019
0.560906 0.896696 0.354864
0.757900 0.891356 0.366644
0.935119 0.904417 0.498024
0.000000 0.112276 0.415564
0.254765 0.000000 0.469306
0.534630 0.000000 0.502861
0.785519 0.000000 0.480568
0.951324 0.191531 0.487098
0.000000 0.207919 0.413794
0.158968 0.156222 0.461372
0.548272 0.000000 0.516289
0.785397 0.142306 0.487678
0.946624 0.364416 0.517632
0.000000 0.476234 0.477729
0.082216 0.489174 0.489204
0.549645 0.535088 0.527886
0.797055 0.557549 0.537346
0.948363 0.582483 0.551690
0.000000 0.743893 0.485573
0.166384 0.741115 0.482368
0.540734 0.736843 0.512047
0.794919 0.769009 0.549279
0.941955 0.794766 0.623865
0.234592 0.903075 0.482612
0.349279 0.900938 0.493111
0.575097 0.891722 0.538537
0.748318 0.882322 0.518090
0.926299 0.900664 0.621241
0.000000 0.052522 0.661097
0.238865 0.000000 0.680507
0.532403 0.000000 0.735622
0.785428 0.000000 0.734096
0.921599 0.183108 0.677638
0.000000 0.157351 0.656428
0.139284 0.129305 0.673915
0.504845 0.000000 0.731655
0.780697 0.000000 0.731472
0.917906 0.330510 0.683589
0.000000 0.437903 0.615259
0.227756 0.449561 0.619745
0.508751 0.493812 0.691768
0.767971 0.530846 0.727749
0.915435 0.559075 0.706355
0.000000 0.687556 0.678828
0.278141 0.690089 0.680629
0.534203 0.705531 0.693202
0.761379 0.747280 0.730983
0.918975 0.772488 0.749325
0.265843 0.896361 0.699886
0.360754 0.894163 0.699733
0.545251 0.889708 0.698116
0.739742 0.882811 0.704982
0.915251 0.897185 0.754330
0.000000 0.068452 0.850065
0.173800 0.000000 0.856626
0.455238 0.000000 0.876005
0.728511 0.000000 0.898314
0.932891 0.000000 0.885466
0.000000 0.150820 0.849332
0.119600 0.119966 0.854978
0.430793 0.000000 0.873442
0.722194 0.000000 0.896330
0.928344 0.204196 0.883482
0.298955 0.502495 0.823789
0.357946 0.501427 0.830655
0.486854 0.474617 0.853635
0.729427 0.489418 0.883940
0.916899 0.537102 0.879057
0.364019 0.678706 0.817075
0.414771 0.680812 0.816068
0.542016 0.686183 0.812406
0.722499 0.709926 0.854734
0.905425 0.751095 0.876707
0.385962 0.856718 0.850278
0.433600 0.857115 0.850309
0.564111 0.859098 0.850980
0.727413 0.864164 0.853819
0.898039 0.889647 0.877653
