其他预设/【233】日式怀旧街道调色预设208款/1.3D LUT预设（视频调色-PR-AE-PS-FCPX-达芬奇用）/2.富士胶片风-日式城市街拍预设/JA – Chrome 3 (Classic Chrome).cube
# Created by Adobe Lightroom plugin Export LUT (1.17.0)
# www.johnrellis.com/lightroom/exportlut.htm
# Preset: JA – Chrome 3 (Classic Chrome)
# Color profile: /Library/Application Support/Adobe/Color/Profiles/Recommended/AdobeRGB1998.icc
LUT_3D_SIZE 32
0.120058 0.117037 0.122683
0.120058 0.117037 0.122683
0.120058 0.117037 0.122683
0.125277 0.116121 0.122805
0.136782 0.114321 0.123384
0.147799 0.112123 0.124147
0.160739 0.109163 0.124483
0.177218 0.105470 0.123140
0.201236 0.102663 0.122683
0.237583 0.097322 0.121675
0.290959 0.088106 0.119417
0.360723 0.072480 0.114595
0.436591 0.052644 0.107210
0.507347 0.038514 0.096834
0.567285 0.051362 0.084962
0.618402 0.066621 0.071321
0.663081 0.083314 0.048615
0.703151 0.098329 0.004120
0.738857 0.112520 0.000000
0.778347 0.127230 0.000000
0.813748 0.138399 0.000000
0.844724 0.144625 0.000000
0.872007 0.149050 0.000000
0.896208 0.153079 0.000000
0.917937 0.156527 0.000000
0.937652 0.159426 0.000000
0.955871 0.162783 0.000000
0.972869 0.164126 0.000000
0.988800 0.161318 0.000000
1.000000 0.157351 0.000000
1.000000 0.153292 0.000000
1.000000 0.148653 0.000000
0.120058 0.117037 0.122683
0.120058 0.117037 0.122683
0.120058 0.117037 0.122683
0.125704 0.116030 0.122988
0.137057 0.114046 0.123201
0.147860 0.112123 0.123751
0.160891 0.109895 0.122896
0.176974 0.108736 0.122927
0.200839 0.106569 0.122621
0.237003 0.102602 0.121553
0.289433 0.096101 0.119265
0.358923 0.086152 0.114260
0.434028 0.076905 0.106569
0.504601 0.074311 0.096315
0.564599 0.079652 0.084382
0.615808 0.090120 0.070069
0.660487 0.103029 0.045502
0.700618 0.114137 0.000977
0.736568 0.126528 0.000000
0.775845 0.138552 0.000000
0.810697 0.147768 0.000000
0.841520 0.152316 0.000000
0.868864 0.156130 0.000000
0.893248 0.160098 0.000000
0.915190 0.163638 0.000000
0.935210 0.165805 0.000000
0.953765 0.168093 0.000000
0.971038 0.169619 0.000000
0.987213 0.167086 0.000000
1.000000 0.163424 0.000000
1.000000 0.159030 0.000000
1.000000 0.153628 0.000000
0.120058 0.117037 0.122683
0.120058 0.117037 0.122683
0.120058 0.117037 0.122683
0.126192 0.116182 0.122774
0.137392 0.115328 0.122713
0.148074 0.114809 0.122805
0.160983 0.114015 0.122988
0.177066 0.113130 0.122805
0.201022 0.111727 0.122255
0.237064 0.109468 0.121065
0.289311 0.105592 0.118624
0.358526 0.101076 0.113375
0.433417 0.096986 0.105592
0.503960 0.099001 0.094881
0.563836 0.105867 0.082124
0.614954 0.113802 0.067231
0.659632 0.124575 0.037324
0.699611 0.133303 0.000000
0.735592 0.142733 0.000000
0.774990 0.153048 0.000000
0.809415 0.159854 0.000000
0.840116 0.163790 0.000000
0.867430 0.167117 0.000000
0.891814 0.169589 0.000000
0.913878 0.172519 0.000000
0.934020 0.174319 0.000000
0.952728 0.176852 0.000000
0.970092 0.178347 0.000000
0.986389 0.175235 0.000000
1.000000 0.171389 0.000000
1.000000 0.166751 0.000000
1.000000 0.161471 0.000000
0.119783 0.123842 0.122530
0.119936 0.124422 0.122469
0.119844 0.125032 0.122408
0.127871 0.125154 0.122377
0.137575 0.125032 0.122499
0.148867 0.124025 0.122621
0.161746 0.123079 0.122621
0.178347 0.122347 0.122408
0.202640 0.122347 0.121920
0.239414 0.122896 0.120272
0.292515 0.124117 0.117098
0.361334 0.126375 0.111604
0.435798 0.131136 0.102358
0.505394 0.136873 0.091005
0.564477 0.143526 0.077302
0.615290 0.151644 0.060060
0.659571 0.158572 0.020783
0.699397 0.166110 0.000000
0.736202 0.172824 0.000000
0.774105 0.179385 0.000000
0.807523 0.182284 0.000000
0.837766 0.184909 0.000000
0.865110 0.187228 0.000000
0.890013 0.189303 0.000000
0.912627 0.190402 0.000000
0.933349 0.192569 0.000000
0.952422 0.193240 0.000000
0.969970 0.195224 0.000000
0.986328 0.193118 0.000000
1.000000 0.188449 0.000000
1.000000 0.183200 0.000000
1.000000 0.178073 0.000000
0.119753 0.134127 0.122377
0.119692 0.134524 0.122347
0.120119 0.134829 0.122316
0.128145 0.134524 0.122499
0.138613 0.134676 0.122591
0.149081 0.133913 0.122499
0.162509 0.135897 0.122042
0.179782 0.136324 0.121706
0.204868 0.137881 0.121004
0.242435 0.142214 0.118898
0.296483 0.149172 0.114900
0.365270 0.158450 0.108003
0.439124 0.169467 0.097444
0.507836 0.179690 0.083955
0.566400 0.187716 0.067689
0.616815 0.194156 0.036805
0.661128 0.200198 0.000000
0.700679 0.205417 0.000000
0.739071 0.209232 0.000000
0.775479 0.211643 0.000000
0.807858 0.213077 0.000000
0.837552 0.214389 0.000000
0.864561 0.215244 0.000000
0.889311 0.215824 0.000000
0.911955 0.216098 0.000000
0.932738 0.217105 0.000000
0.951781 0.217075 0.000000
0.969390 0.217411 0.000000
0.985718 0.216770 0.000000
1.000000 0.212009 0.000000
1.000000 0.206485 0.000000
1.000000 0.201022 0.000000
0.119509 0.144778 0.122133
0.119448 0.145113 0.122103
0.121584 0.145022 0.122255
0.128908 0.144686 0.122103
0.139345 0.144625 0.122164
0.150973 0.145571 0.122103
0.163272 0.145205 0.122072
0.181521 0.149538 0.121096
0.209659 0.158328 0.119203
0.249485 0.167239 0.116396
0.305699 0.180545 0.110933
0.374975 0.196536 0.101686
0.447761 0.212070 0.088808
0.514397 0.224765 0.071687
0.571649 0.233890 0.043183
0.621057 0.239536 0.000000
0.664424 0.242954 0.000000
0.703395 0.244388 0.000000
0.743099 0.246677 0.000000
0.778470 0.247349 0.000000
0.810239 0.248264 0.000000
0.839506 0.247868 0.000000
0.886351 0.253941 0.000000
0.908995 0.253025 0.000000
0.929259 0.251987 0.000000
0.947631 0.250919 0.000000
0.964416 0.249760 0.000000
0.979980 0.248356 0.000000
0.994598 0.247288 0.000000
1.000000 0.244388 0.000000
1.000000 0.238285 0.000000
1.000000 0.232120 0.000000
0.119234 0.158572 0.121462
0.121370 0.158480 0.121614
0.124636 0.158389 0.121523
0.131716 0.158236 0.121523
0.142153 0.158022 0.121431
0.154025 0.159091 0.121309
0.168765 0.161440 0.121065
0.186007 0.163302 0.120516
0.216648 0.174807 0.117983
0.263340 0.194278 0.112886
0.330175 0.224002 0.102235
0.402228 0.247074 0.087922
0.472450 0.264958 0.069886
0.534295 0.276555 0.034638
0.587091 0.282414 0.000000
0.633143 0.285649 0.000000
0.674434 0.286992 0.000000
0.715908 0.288518 0.000000
0.754025 0.289097 0.000000
0.788693 0.289128 0.000000
0.820829 0.288579 0.000000
0.851041 0.287785 0.000000
0.878782 0.286809 0.000000
0.903838 0.285710 0.000000
0.926055 0.283879 0.000000
0.945464 0.281956 0.000000
0.962768 0.279850 0.000000
0.978576 0.277562 0.000000
0.993317 0.275517 0.000000
1.000000 0.273167 0.000000
1.000000 0.267704 0.000000
1.000000 0.261112 0.000000
0.121157 0.174502 0.122377
0.123690 0.174502 0.122499
0.127352 0.174350 0.122438
0.134493 0.174350 0.122225
0.145052 0.174228 0.122103
0.158145 0.174563 0.122011
0.173342 0.178256 0.121340
0.192905 0.183413 0.120394
0.217563 0.189120 0.118959
0.263981 0.210758 0.113283
0.330083 0.242527 0.101717
0.407111 0.278660 0.082429
0.482277 0.309972 0.044923
0.541466 0.321324 0.000000
0.592584 0.327306 0.000000
0.637568 0.329534 0.000000
0.680751 0.331395 0.000000
0.721431 0.332006 0.000000
0.757382 0.331060 0.000000
0.790402 0.329625 0.000000
0.821469 0.327611 0.000000
0.850828 0.325780 0.000000
0.877989 0.324071 0.000000
0.902678 0.321538 0.000000
0.924651 0.318517 0.000000
0.944030 0.315709 0.000000
0.961364 0.312474 0.000000
0.977203 0.309087 0.000000
0.992004 0.306004 0.000000
1.000000 0.302892 0.000000
1.000000 0.298894 0.000000
1.000000 0.291752 0.000000
0.122896 0.198062 0.123537
0.125917 0.198001 0.123262
0.129671 0.197971 0.123354
0.137881 0.197940 0.123140
0.149355 0.198276 0.122896
0.164126 0.198306 0.122591
0.181277 0.201236 0.121675
0.202640 0.208499 0.120150
0.230503 0.218296 0.117647
0.264714 0.229129 0.114076
0.331731 0.263554 0.101198
0.407813 0.301457 0.079347
0.482612 0.335637 0.026062
0.547601 0.361791 0.000000
0.600702 0.375647 0.000000
0.647150 0.378485 0.000000
0.690242 0.379553 0.000000
0.728054 0.378271 0.000000
0.761929 0.375586 0.000000
0.793545 0.372259 0.000000
0.823606 0.369055 0.000000
0.852110 0.366033 0.000000
0.878630 0.363012 0.000000
0.902708 0.359258 0.000000
0.924346 0.355413 0.000000
0.943481 0.351049 0.000000
0.960693 0.346777 0.000000
0.976410 0.342351 0.000000
0.991119 0.338293 0.000000
1.000000 0.334142 0.000000
1.000000 0.330388 0.000000
1.000000 0.324041 0.000000
0.123110 0.231662 0.121981
0.126558 0.231571 0.121889
0.131380 0.231662 0.121736
0.140993 0.231876 0.121401
0.155093 0.231968 0.121126
0.172488 0.232395 0.120394
0.192386 0.232822 0.119844
0.216129 0.240543 0.117586
0.246983 0.253361 0.113558
0.285863 0.269810 0.107729
0.328527 0.284276 0.100496
0.407477 0.324926 0.075441
0.480995 0.359899 0.008576
0.545892 0.386755 0.000000
0.606104 0.409705 0.000000
0.657954 0.426947 0.000000
0.700343 0.430671 0.000000
0.736172 0.426917 0.000000
0.768490 0.422492 0.000000
0.798581 0.417334 0.000000
0.827176 0.412848 0.000000
0.854124 0.407904 0.000000
0.879271 0.402747 0.000000
0.902312 0.397833 0.000000
0.923278 0.392523 0.000000
0.942168 0.387304 0.000000
0.959380 0.381781 0.000000
0.975280 0.376745 0.000000
0.990082 0.371649 0.000000
1.000000 0.366918 0.000000
1.000000 0.362310 0.000000
1.000000 0.357427 0.000000
0.120607 0.275883 0.117037
0.125246 0.275883 0.116915
0.131533 0.276188 0.116854
0.144411 0.276432 0.116396
0.161624 0.276921 0.115846
0.182742 0.277684 0.114778
0.206668 0.278660 0.113375
0.232761 0.281071 0.111452
0.266361 0.296269 0.105715
0.307103 0.314366 0.097688
0.355932 0.335332 0.084962
0.403540 0.350286 0.071046
0.485176 0.390234 0.000000
0.551537 0.418402 0.000000
0.608362 0.438941 0.000000
0.658228 0.454444 0.000000
0.702815 0.466896 0.000000
0.742184 0.476417 0.000000
0.773068 0.469917 0.000000
0.802060 0.463050 0.000000
0.829770 0.456703 0.000000
0.856016 0.450477 0.000000
0.880552 0.444221 0.000000
0.903136 0.438087 0.000000
0.923644 0.431678 0.000000
0.942168 0.425025 0.000000
0.959014 0.418463 0.000000
0.974609 0.412329 0.000000
0.989258 0.406287 0.000000
1.000000 0.400397 0.000000
1.000000 0.395056 0.000000
1.000000 0.389929 0.000000
0.115602 0.331273 0.107088
0.121920 0.331731 0.106783
0.130098 0.331670 0.106508
0.145815 0.331884 0.105867
0.168368 0.332403 0.104768
0.193790 0.332982 0.103273
0.221897 0.334051 0.101442
0.252018 0.335363 0.099001
0.285710 0.343053 0.093904
0.327459 0.361761 0.081788
0.379461 0.386633 0.060090
0.437446 0.412177 0.000000
0.515221 0.449897 0.000000
0.581598 0.472236 0.000000
0.634852 0.488716 0.000000
0.682094 0.500725 0.000000
0.723873 0.509667 0.000000
0.760494 0.516075 0.000000
0.793149 0.520867 0.000000
0.822538 0.521386 0.000000
0.847562 0.511650 0.000000
0.871061 0.502403 0.000000
0.892882 0.493233 0.000000
0.913115 0.484565 0.000000
0.931640 0.475807 0.000000
0.948577 0.467445 0.000000
0.964111 0.459327 0.000000
0.978576 0.451484 0.000000
0.992187 0.444129 0.000000
1.000000 0.437263 0.000000
1.000000 0.430793 0.000000
1.000000 0.424720 0.000000
0.105684 0.399878 0.086915
0.113680 0.399939 0.086610
0.124941 0.399664 0.086336
0.146944 0.399023 0.085389
0.174136 0.398230 0.084260
0.204440 0.397589 0.082460
0.237125 0.397406 0.079744
0.271977 0.399634 0.075319
0.309789 0.403326 0.068330
0.353460 0.420539 0.038666
0.404364 0.443793 0.000000
0.460578 0.467475 0.000000
0.520287 0.490974 0.000000
0.573114 0.503960 0.000000
0.629664 0.516442 0.000000
0.677302 0.528283 0.000000
0.718959 0.536248 0.000000
0.755459 0.541527 0.000000
0.788205 0.545281 0.000000
0.818723 0.548638 0.000000
0.847105 0.551781 0.000000
0.871519 0.546899 0.000000
0.892760 0.536492 0.000000
0.912535 0.526085 0.000000
0.930724 0.516350 0.000000
0.947326 0.506462 0.000000
0.962707 0.497414 0.000000
0.977050 0.488563 0.000000
0.990631 0.480262 0.000000
1.000000 0.472419 0.000000
1.000000 0.465278 0.000000
1.000000 0.458442 0.000000
0.092256 0.457710 0.056764
0.104555 0.457862 0.056275
0.120027 0.457679 0.054200
0.144869 0.457801 0.050996
0.176303 0.457679 0.047150
0.210880 0.457954 0.038819
0.247654 0.458381 0.026276
0.285649 0.459083 0.010376
0.324498 0.460548 0.000000
0.364935 0.463142 0.000000
0.411475 0.482429 0.000000
0.462440 0.502617 0.000000
0.516686 0.522515 0.000000
0.573449 0.541711 0.000000
0.623377 0.551720 0.000000
0.671809 0.555871 0.000000
0.713191 0.562982 0.000000
0.749783 0.567346 0.000000
0.782773 0.570214 0.000000
0.813474 0.572747 0.000000
0.842222 0.575036 0.000000
0.868711 0.577111 0.000000
0.892790 0.578637 0.000000
0.912566 0.568933 0.000000
0.930358 0.557794 0.000000
0.946715 0.546685 0.000000
0.961852 0.536431 0.000000
0.976043 0.526513 0.000000
0.989441 0.517235 0.000000
1.000000 0.508690 0.000000
1.000000 0.500725 0.000000
1.000000 0.493416 0.000000
0.078431 0.513298 0.000000
0.092195 0.513512 0.000000
0.109987 0.513085 0.000000
0.140322 0.512383 0.000000
0.176669 0.511254 0.000000
0.214298 0.510094 0.000000
0.252140 0.509300 0.000000
0.291356 0.508843 0.000000
0.330968 0.508751 0.000000
0.371832 0.509422 0.000000
0.414252 0.515953 0.000000
0.461036 0.533349 0.000000
0.511192 0.550927 0.000000
0.563745 0.567956 0.000000
0.617670 0.584039 0.000000
0.665858 0.592737 0.000000
0.706538 0.590570 0.000000
0.744320 0.594018 0.000000
0.777462 0.596063 0.000000
0.808408 0.597650 0.000000
0.837278 0.599145 0.000000
0.863981 0.600336 0.000000
0.888304 0.601129 0.000000
0.910399 0.601495 0.000000
0.929931 0.599695 0.000000
0.946105 0.587762 0.000000
0.961212 0.576349 0.000000
0.975402 0.565759 0.000000
0.988830 0.555840 0.000000
1.000000 0.546715 0.000000
1.000000 0.538262 0.000000
1.000000 0.530419 0.000000
0.062043 0.558648 0.000000
0.082673 0.558679 0.000000
0.102876 0.558434 0.000000
0.135653 0.557916 0.000000
0.173983 0.557031 0.000000
0.213870 0.555962 0.000000
0.253269 0.555230 0.000000
0.293553 0.554467 0.000000
0.334752 0.553857 0.000000
0.375494 0.553338 0.000000
0.416480 0.552911 0.000000
0.459541 0.562463 0.000000
0.505303 0.577142 0.000000
0.553338 0.591638 0.000000
0.603143 0.605737 0.000000
0.654170 0.619196 0.000000
0.700954 0.627344 0.000000
0.735714 0.620996 0.000000
0.772000 0.622400 0.000000
0.803708 0.623590 0.000000
0.833158 0.624628 0.000000
0.860349 0.625269 0.000000
0.885161 0.625391 0.000000
0.907561 0.625177 0.000000
0.927642 0.624537 0.000000
0.945586 0.623743 0.000000
0.961242 0.617945 0.000000
0.975067 0.606409 0.000000
0.988159 0.595544 0.000000
1.000000 0.585534 0.000000
1.000000 0.576349 0.000000
1.000000 0.567926 0.067964
0.040040 0.595911 0.000000
0.070802 0.595850 0.000000
0.095277 0.595422 0.000000
0.130648 0.594842 0.000000
0.169711 0.593927 0.000000
0.210330 0.592828 0.000000
0.251377 0.591669 0.000000
0.291875 0.590600 0.000000
0.332494 0.589593 0.000000
0.373297 0.588586 0.000000
0.414099 0.587762 0.000000
0.455055 0.586725 0.000000
0.497993 0.599878 0.000000
0.543267 0.613367 0.000000
0.589960 0.626398 0.000000
0.637568 0.638666 0.000000
0.686152 0.650202 0.000000
0.732174 0.658381 0.000000
0.762600 0.649256 0.000000
0.797787 0.649287 0.000000
0.827634 0.649622 0.000000
0.855192 0.649561 0.000000
0.880339 0.649104 0.000000
0.903166 0.648402 0.000000
0.923644 0.647272 0.000000
0.941985 0.645991 0.000000
0.958465 0.644770 0.000000
0.973358 0.643793 0.000000
0.986481 0.635370 0.049744
0.998535 0.624811 0.093874
1.000000 0.615167 0.119203
1.000000 0.606439 0.141024
0.007904 0.629969 0.000000
0.060578 0.630152 0.000000
0.088014 0.644129 0.000000
0.128084 0.643366 0.000000
0.170199 0.642145 0.000000
0.211582 0.640711 0.000000
0.252689 0.639002 0.000000
0.294560 0.637079 0.000000
0.335668 0.635370 0.000000
0.377020 0.633631 0.000000
0.417762 0.631891 0.000000
0.458656 0.629908 0.000000
0.499153 0.631617 0.000000
0.541772 0.643366 0.000000
0.585565 0.654627 0.000000
0.630549 0.665583 0.000000
0.676295 0.675959 0.000000
0.722621 0.685725 0.000000
0.767636 0.693629 0.000000
0.793881 0.681636 0.000000
0.827329 0.679652 0.000000
0.854490 0.678370 0.000000
0.879332 0.676753 0.000000
0.901701 0.674952 0.000000
0.921660 0.672633 0.000000
0.939513 0.670405 0.000000
0.955657 0.668147 0.005615
0.970336 0.666407 0.091005
0.983764 0.665248 0.128878
0.996033 0.664454 0.159030
1.000000 0.654383 0.178683
1.000000 0.645289 0.196841
0.002228 0.664729 0.000000
0.054627 0.666407 0.000000
0.084657 0.667903 0.000000
0.123751 0.668879 0.000000
0.166140 0.669093 0.000000
0.207279 0.668391 0.000000
0.249149 0.666987 0.000000
0.289677 0.665370 0.000000
0.330877 0.663661 0.000000
0.371008 0.661921 0.000000
0.411933 0.660121 0.000000
0.451789 0.658198 0.000000
0.491585 0.655787 0.000000
0.531609 0.661219 0.000000
0.572961 0.671687 0.000000
0.615442 0.681849 0.000000
0.658961 0.691585 0.000000
0.702907 0.700923 0.000000
0.747433 0.710018 0.000000
0.792386 0.718837 0.000000
0.815824 0.705715 0.000000
0.848600 0.703029 0.000000
0.873991 0.701167 0.000000
0.896910 0.698970 0.000000
0.917357 0.696345 0.000000
0.935576 0.693751 0.053346
0.951995 0.691249 0.106722
0.966857 0.689235 0.142519
0.980438 0.687800 0.172244
0.992737 0.687007 0.200473
1.000000 0.686854 0.227054
1.000000 0.684260 0.249516
0.000000 0.692226 0.000000
0.052308 0.693629 0.000000
0.084352 0.694942 0.000000
0.122255 0.695766 0.000000
0.164034 0.696010 0.000000
0.204715 0.695308 0.000000
0.245762 0.693996 0.000000
0.285863 0.692500 0.000000
0.326055 0.690974 0.000000
0.365972 0.689235 0.000000
0.406104 0.687495 0.000000
0.445655 0.685603 0.000000
0.484840 0.683253 0.000000
0.523400 0.680568 0.000000
0.562646 0.689296 0.000000
0.603204 0.698787 0.000000
0.644373 0.707881 0.000000
0.686152 0.716823 0.000000
0.728817 0.725521 0.000000
0.771939 0.734157 0.000000
0.815274 0.742458 0.000000
0.837217 0.729580 0.000000
0.868803 0.725917 0.000000
0.892088 0.723323 0.000000
0.912902 0.720394 0.064302
0.931426 0.717342 0.114778
0.948028 0.714412 0.149447
0.963043 0.712001 0.180331
0.976684 0.710292 0.208774
0.989075 0.709224 0.234958
1.000000 0.708766 0.260349
1.000000 0.709041 0.285710
0.009583 0.718532 0.000000
0.060822 0.719783 0.000000
0.088808 0.720974 0.000000
0.124178 0.721798 0.000000
0.164584 0.721828 0.000000
0.203861 0.721187 0.000000
0.243473 0.720027 0.000000
0.282689 0.718593 0.000000
0.322026 0.716976 0.000000
0.361334 0.715297 0.000000
0.400610 0.713436 0.000000
0.439307 0.711574 0.000000
0.477882 0.709346 0.000000
0.516258 0.706752 0.000000
0.553887 0.706722 0.000000
0.592706 0.715877 0.000000
0.632563 0.724971 0.000000
0.673091 0.734066 0.000000
0.714595 0.743099 0.000000
0.756466 0.751980 0.000000
0.798611 0.760555 0.000000
0.840574 0.768734 0.000000
0.861204 0.756161 0.000000
0.890562 0.751492 0.093660
0.911711 0.748196 0.140139
0.930236 0.744747 0.174990
0.946715 0.741573 0.204318
0.961517 0.738888 0.232975
0.974914 0.736843 0.259770
0.986969 0.735500 0.284977
0.997803 0.734859 0.309728
1.000000 0.734890 0.333501
0.062501 0.749020 0.000000
0.080354 0.749477 0.000000
0.100160 0.749783 0.000000
0.131350 0.749752 0.000000
0.168368 0.749294 0.000000
0.205631 0.748409 0.000000
0.244053 0.747250 0.000000
0.282170 0.745937 0.000000
0.320928 0.744656 0.000000
0.359442 0.743252 0.000000
0.397772 0.741817 0.000000
0.436408 0.740078 0.000000
0.474434 0.738003 0.000000
0.512047 0.735531 0.000000
0.549096 0.732845 0.000000
0.586358 0.736080 0.000000
0.624353 0.744472 0.000000
0.663172 0.752804 0.000000
0.702663 0.761074 0.000000
0.742397 0.769070 0.000000
0.782406 0.776730 0.000000
0.822141 0.784024 0.000000
0.861143 0.790829 0.000000
0.879911 0.778256 0.118868
0.905943 0.772244 0.170748
0.925566 0.767941 0.204746
0.942351 0.764401 0.234775
0.957397 0.761379 0.261997
0.970916 0.759030 0.288640
0.983124 0.757321 0.313756
0.994049 0.756252 0.337407
1.000000 0.756008 0.361120
0.083711 0.773068 0.000000
0.098054 0.773526 0.000000
0.113802 0.773892 0.000000
0.142397 0.773831 0.000000
0.174472 0.773465 0.000000
0.209659 0.772580 0.000000
0.245762 0.771389 0.000000
0.282231 0.770077 0.000000
0.319219 0.768734 0.000000
0.356878 0.767330 0.000000
0.394415 0.765866 0.000000
0.431830 0.764248 0.000000
0.469001 0.762295 0.000000
0.506096 0.760098 0.000000
0.542687 0.757717 0.000000
0.579126 0.755062 0.000000
0.615686 0.761501 0.000000
0.653040 0.769467 0.000000
0.691035 0.777279 0.000000
0.729213 0.784939 0.000000
0.767788 0.792233 0.000000
0.805905 0.799191 0.011048
0.843534 0.805722 0.100710
0.880156 0.811673 0.143740
0.896208 0.798001 0.181613
0.918822 0.790707 0.223911
0.937255 0.785916 0.257481
0.952636 0.782559 0.284825
0.966461 0.779782 0.310948
0.978882 0.777646 0.335973
0.990112 0.776242 0.359808
1.000000 0.775814 0.383948
0.116854 0.800473 0.000000
0.126284 0.800992 0.000000
0.138521 0.801205 0.000000
0.160311 0.800931 0.000000
0.188632 0.800320 0.000000
0.219883 0.799283 0.000000
0.252567 0.797971 0.000000
0.287205 0.796353 0.000000
0.322271 0.794675 0.000000
0.358038 0.792844 0.000000
0.393530 0.791012 0.000000
0.429664 0.789090 0.000000
0.465766 0.786954 0.000000
0.501518 0.784573 0.000000
0.537133 0.781857 0.000000
0.572442 0.778897 0.000000
0.607538 0.777554 0.000000
0.643153 0.784604 0.000000
0.679347 0.791745 0.000000
0.716274 0.798886 0.000000
0.753231 0.805844 0.000000
0.789883 0.812406 0.088472
0.825925 0.818357 0.133455
0.861082 0.823636 0.170016
0.894804 0.828275 0.202152
0.911955 0.817594 0.239414
0.931365 0.809354 0.278508
0.948455 0.804044 0.309453
0.962432 0.800626 0.333989
0.975006 0.798001 0.358312
0.986419 0.796231 0.381720
0.996551 0.795346 0.406012
0.144137 0.822324 0.001984
0.152010 0.822843 0.010132
0.161410 0.823026 0.012818
0.179202 0.822843 0.009674
0.203464 0.822232 0.001953
0.231388 0.821347 0.000000
0.261326 0.820218 0.000000
0.293217 0.818906 0.000000
0.326299 0.817502 0.000000
0.360266 0.816037 0.000000
0.394690 0.814511 0.000000
0.429511 0.812924 0.000000
0.464546 0.811185 0.000000
0.499458 0.809110 0.000000
0.534234 0.806821 0.000000
0.568872 0.804288 0.000000
0.603449 0.801633 0.000000
0.637873 0.803403 0.000000
0.672786 0.809812 0.000000
0.708095 0.816220 0.000000
0.743496 0.822385 0.090852
0.778653 0.828214 0.135348
0.813199 0.833494 0.171298
0.846708 0.838224 0.203403
0.879088 0.842374 0.233738
0.910246 0.846036 0.262577
0.926543 0.836393 0.294469
0.943267 0.827756 0.330694
0.959136 0.822141 0.360357
0.971862 0.819120 0.384192
0.983337 0.816953 0.407935
0.993500 0.815579 0.431403
0.177462 0.844907 0.106996
0.184115 0.845212 0.107729
0.191012 0.845212 0.108248
0.204868 0.844877 0.107393
0.224582 0.844175 0.103914
0.247868 0.843259 0.101320
0.274418 0.842100 0.095857
0.303288 0.840848 0.091218
0.333867 0.839536 0.086000
0.365545 0.838224 0.079042
0.398291 0.836820 0.072053
0.431464 0.835477 0.064851
0.465064 0.833982 0.050507
0.498817 0.832181 0.022126
0.532311 0.830167 0.000000
0.565942 0.827848 0.000000
0.599603 0.825406 0.000000
0.633234 0.822965 0.000000
0.666773 0.826963 0.000000
0.700679 0.832547 0.085267
0.734676 0.837980 0.129244
0.768368 0.843015 0.166171
0.801419 0.847654 0.199100
0.833585 0.851774 0.230228
0.864744 0.855467 0.258885
0.894621 0.858671 0.286412
0.923339 0.861601 0.312200
0.939117 0.853086 0.339666
0.953460 0.843931 0.373205
0.968231 0.838346 0.402930
0.979858 0.835630 0.426551
0.990173 0.833707 0.449592
0.211826 0.865537 0.155550
0.216587 0.865660 0.155550
0.222171 0.865660 0.156344
0.233341 0.865415 0.155032
0.250004 0.864988 0.154269
0.270359 0.864469 0.153048
0.294560 0.864012 0.151705
0.321019 0.863615 0.151247
0.349798 0.863249 0.150576
0.379858 0.862852 0.150790
0.411109 0.862394 0.150118
0.442908 0.861845 0.149355
0.475105 0.861082 0.148745
0.507378 0.859953 0.146090
0.539818 0.858457 0.142031
0.572015 0.856565 0.136538
0.604425 0.854490 0.129641
0.636805 0.852323 0.122896
0.669398 0.850950 0.120943
0.701839 0.855314 0.155947
0.734127 0.859525 0.188571
0.766140 0.863432 0.219944
0.797391 0.866972 0.249302
0.827817 0.870146 0.277287
0.857145 0.872953 0.303471
0.885344 0.875456 0.328405
0.912474 0.877745 0.351446
0.938415 0.879820 0.373877
0.953246 0.872343 0.398138
0.965026 0.862913 0.428260
0.977966 0.857023 0.457404
0.987945 0.854429 0.480079
0.263310 0.889738 0.217288
0.266453 0.889830 0.217319
0.270573 0.889677 0.217075
0.278721 0.889342 0.215976
0.291051 0.888823 0.214878
0.307103 0.888151 0.213291
0.326360 0.887449 0.211612
0.348211 0.886748 0.209934
0.372717 0.885985 0.208438
0.398901 0.885222 0.207767
0.426398 0.884337 0.205722
0.455024 0.883360 0.204318
0.484321 0.882292 0.202945
0.514183 0.880980 0.199893
0.544305 0.879454 0.196994
