其他预设/【233】日式怀旧街道调色预设208款/1.3D LUT预设（视频调色-PR-AE-PS-FCPX-达芬奇用）/2.富士胶片风-日式城市街拍预设/JA – Shaded Light 5 (Classic Chrome).cube
# Created by Adobe Lightroom plugin Export LUT (1.17.0)
# www.johnrellis.com/lightroom/exportlut.htm
# Preset: JA – Shaded Light 5 (Classic Chrome)
# Color profile: /Library/Application Support/Adobe/Color/Profiles/Recommended/AdobeRGB1998.icc
LUT_3D_SIZE 8
DOMAIN_MIN 0.000000 0.000000 0.000000
DOMAIN_MAX 0.903226 0.903226 0.903226
0.061799 0.074098 0.088899
0.099489 0.069245 0.089723
0.224857 0.071382 0.086397
0.433173 0.084627 0.067353
0.729274 0.078645 0.000000
0.892271 0.085756 0.000000
0.987091 0.119081 0.087373
1.000000 0.153384 0.153353
0.053010 0.118532 0.095094
0.105409 0.126680 0.088746
0.234134 0.147066 0.082185
0.447761 0.180758 0.054505
0.734585 0.210239 0.000000
0.889982 0.206455 0.000000
0.980713 0.205447 0.086397
1.000000 0.216434 0.153994
0.000000 0.271550 0.118074
0.083467 0.277012 0.081422
0.245121 0.284916 0.070649
0.517906 0.386755 0.000000
0.795102 0.439216 0.000000
0.912596 0.404486 0.026307
0.997406 0.377142 0.132815
1.000000 0.366735 0.200687
0.000000 0.576715 0.184634
0.000000 0.578454 0.017334
0.297856 0.584802 0.000000
0.551324 0.620111 0.000000
0.804837 0.649989 0.000000
0.937774 0.621790 0.165652
1.000000 0.566918 0.227115
1.000000 0.536950 0.291112
0.000000 0.830259 0.252903
0.000000 0.831144 0.131624
0.211124 0.827451 0.000000
0.517388 0.818448 0.000000
0.731472 0.807248 0.000000
0.889036 0.758816 0.000000
0.991852 0.726375 0.283513
1.000000 0.725002 0.466529
0.000000 0.924071 0.346227
0.000000 0.928344 0.309361
0.000000 0.926177 0.214389
0.414649 0.918151 0.138399
0.631617 0.903380 0.021790
0.814633 0.890257 0.123842
0.962432 0.853086 0.212955
1.000000 0.833524 0.463813
0.227359 0.990845 0.509636
0.237400 0.992187 0.495888
0.255558 0.993133 0.430304
0.400885 0.990570 0.379095
0.562158 0.984466 0.293828
0.734768 0.974212 0.293187
0.893309 0.964080 0.350317
1.000000 0.946136 0.438300
0.561608 1.000000 0.702785
0.562860 1.000000 0.697230
0.552911 1.000000 0.666407
0.591821 1.000000 0.646693
0.623987 1.000000 0.576379
0.718410 1.000000 0.515892
0.848936 1.000000 0.563226
0.956573 1.000000 0.589532
0.049256 0.075105 0.135836
0.090425 0.076020 0.129061
0.215061 0.025849 0.152926
0.411749 0.000000 0.140566
0.703822 0.000000 0.127108
0.877256 0.000000 0.126101
0.973053 0.000000 0.149874
1.000000 0.087404 0.188876
0.036500 0.116487 0.143832
0.106325 0.126864 0.151705
0.229618 0.130282 0.151064
0.435767 0.137819 0.147829
0.719570 0.140169 0.128542
0.879332 0.143130 0.128328
0.969268 0.155856 0.150057
1.000000 0.179446 0.188571
0.000000 0.264744 0.194919
0.082734 0.274907 0.180301
0.246281 0.286687 0.154788
0.528496 0.384070 0.164950
0.780728 0.409186 0.139803
0.899474 0.376867 0.149813
0.980499 0.352117 0.179995
1.000000 0.347662 0.229770
0.000000 0.558587 0.278264
0.000000 0.567834 0.225559
0.273350 0.580133 0.119265
0.528099 0.595178 0.086732
0.783780 0.626307 0.082490
0.921111 0.606287 0.237003
0.989380 0.550256 0.263462
1.000000 0.526024 0.315496
0.000000 0.826505 0.336339
0.000000 0.826139 0.285832
0.154971 0.822812 0.121889
0.499916 0.808988 0.000000
0.719600 0.794949 0.000000
0.881529 0.749477 0.123018
0.983154 0.723140 0.342809
1.000000 0.724910 0.497475
0.000000 0.918395 0.395911
0.000000 0.918425 0.379309
0.000000 0.918425 0.270848
0.403449 0.911711 0.212436
0.625208 0.898589 0.158389
0.812100 0.887083 0.204868
0.957946 0.848295 0.268803
1.000000 0.834348 0.504082
0.231846 0.983551 0.526055
0.273472 0.981842 0.526268
0.271519 0.984497 0.459693
0.408057 0.983764 0.417151
0.562402 0.979675 0.342809
0.731930 0.969390 0.332280
0.888182 0.958251 0.378241
1.000000 0.939696 0.453834
0.558007 1.000000 0.706233
0.577630 1.000000 0.712581
0.573602 1.000000 0.687495
0.605676 1.000000 0.666346
0.656336 1.000000 0.627710
0.732479 1.000000 0.561639
0.853971 1.000000 0.593164
0.957916 1.000000 0.614313
0.027070 0.071962 0.281651
0.102388 0.075380 0.270481
0.187289 0.096132 0.259434
0.312749 0.100130 0.302220
0.652979 0.000000 0.367651
0.869505 0.000000 0.291844
0.971984 0.000000 0.280156
1.000000 0.000000 0.318547
0.000000 0.123354 0.316747
0.105318 0.131533 0.301274
0.200137 0.146120 0.275914
0.351049 0.121675 0.318029
0.678157 0.000000 0.338445
0.872892 0.000000 0.264927
0.969512 0.000000 0.284764
1.000000 0.000000 0.324071
0.000000 0.277806 0.336828
0.093751 0.282200 0.339727
0.249149 0.288701 0.336187
0.506981 0.282170 0.322362
0.766262 0.279850 0.312718
0.892515 0.283391 0.314946
0.974762 0.297948 0.332006
1.000000 0.331579 0.370642
0.000000 0.576959 0.465614
0.000000 0.587060 0.456062
0.183291 0.611231 0.371283
0.551659 0.618311 0.309087
0.810697 0.633692 0.403326
0.906889 0.600641 0.456947
0.978851 0.561730 0.455390
1.000000 0.554406 0.480568
0.000000 0.827573 0.512108
0.000000 0.828702 0.498451
0.168490 0.829435 0.437995
0.475929 0.822019 0.332616
0.729732 0.802701 0.324407
0.887816 0.752773 0.390661
0.969116 0.766476 0.595636
1.000000 0.763058 0.642725
0.000000 0.915496 0.536126
0.049561 0.914702 0.535149
0.321660 0.910277 0.531914
0.431098 0.908415 0.444160
0.626307 0.895903 0.376959
0.812772 0.883421 0.407630
0.951415 0.849119 0.466835
1.000000 0.861692 0.667262
0.380316 0.978058 0.634516
0.412360 0.976287 0.638880
0.500908 0.971160 0.652399
0.518975 0.974090 0.593561
0.607324 0.972747 0.529473
0.749172 0.965545 0.501610
0.896025 0.957733 0.545129
1.000000 0.943175 0.604242
0.599542 1.000000 0.751400
0.609674 1.000000 0.752316
0.654902 1.000000 0.763210
0.668391 1.000000 0.739956
0.709285 1.000000 0.714473
0.770169 1.000000 0.669306
0.871489 1.000000 0.680568
0.963043 1.000000 0.693507
0.063539 0.023499 0.519860
0.141726 0.050965 0.505760
0.228428 0.099367 0.440284
0.322423 0.110201 0.419471
0.452979 0.072450 0.453407
0.774807 0.000000 0.545617
0.938750 0.000000 0.503929
1.000000 0.000000 0.462196
0.000000 0.127749 0.575586
0.134707 0.128634 0.555200
0.246250 0.138857 0.478218
0.343023 0.139315 0.441718
0.471138 0.109957 0.464454
0.789883 0.000000 0.540581
0.941405 0.000000 0.491371
1.000000 0.000000 0.458228
0.000000 0.347265 0.695369
0.000000 0.318090 0.677180
0.259037 0.272679 0.599207
0.416541 0.258701 0.515831
0.608576 0.210025 0.534417
0.848905 0.000000 0.526574
0.957519 0.176822 0.497993
1.000000 0.354376 0.539910
0.000000 0.612268 0.678492
0.000000 0.613703 0.677943
0.295415 0.617975 0.673945
0.570611 0.613855 0.652308
0.764034 0.595666 0.633387
0.865934 0.585534 0.623377
0.946838 0.588159 0.625208
1.000000 0.607172 0.643000
0.082887 0.828458 0.716762
0.209079 0.826474 0.712978
0.410163 0.821500 0.705226
0.592889 0.813596 0.692012
0.748775 0.802213 0.646632
0.870420 0.799313 0.726650
0.947662 0.811673 0.764858
1.000000 0.794034 0.752956
0.357702 0.908080 0.712306
0.417334 0.908110 0.720638
0.524102 0.901274 0.727901
0.638483 0.893462 0.734585
0.698207 0.891478 0.674769
0.829404 0.881193 0.670680
0.939757 0.868956 0.710872
1.000000 0.892027 0.797238
0.533440 0.966735 0.756405
0.556451 0.965942 0.760708
0.616938 0.963439 0.770535
0.687098 0.961059 0.777188
0.716640 0.963561 0.737240
0.798184 0.960357 0.701381
0.908904 0.954955 0.714626
1.000000 0.944488 0.736080
0.669978 1.000000 0.819852
0.678462 1.000000 0.820829
0.701656 1.000000 0.821103
0.742580 1.000000 0.822751
0.761501 1.000000 0.797116
0.813169 1.000000 0.773678
0.890959 1.000000 0.766262
0.969329 1.000000 0.772213
0.182345 0.000000 0.770474
0.232761 0.000000 0.763027
0.334874 0.000000 0.725643
0.415534 0.000000 0.650538
0.540948 0.000000 0.635035
0.690852 0.000000 0.657771
0.866148 0.000000 0.682795
1.000000 0.000000 0.681209
0.150546 0.110994 0.788479
0.214878 0.106569 0.782437
0.335393 0.088685 0.747433
0.424384 0.084199 0.667231
0.555077 0.000000 0.647761
0.697902 0.000000 0.661036
0.871885 0.000000 0.681971
1.000000 0.123934 0.678309
0.000000 0.290166 0.829953
0.000000 0.292332 0.823697
0.315618 0.279606 0.797024
0.457740 0.247868 0.727626
0.600732 0.223575 0.687953
0.712856 0.206577 0.666163
0.886748 0.225772 0.677729
1.000000 0.271702 0.666712
0.000000 0.585870 0.854185
0.172457 0.590326 0.853300
0.433967 0.616266 0.848966
0.574670 0.593317 0.805783
0.679652 0.538048 0.751675
0.772976 0.492073 0.710933
0.909300 0.507988 0.703029
1.000000 0.537438 0.701564
0.352636 0.791318 0.835813
0.412055 0.793332 0.835355
0.552819 0.797696 0.832547
0.681636 0.800473 0.827115
0.760739 0.791470 0.812406
0.840330 0.780545 0.802213
0.919646 0.773526 0.795621
1.000000 0.772488 0.794736
0.580835 0.886839 0.840085
0.600183 0.885771 0.840177
0.650996 0.882109 0.838895
0.712123 0.878904 0.836210
0.762203 0.875578 0.821225
0.838499 0.873075 0.803372
0.938140 0.888640 0.837766
1.000000 0.898863 0.858274
0.656886 0.952758 0.852567
0.666499 0.952056 0.852781
0.697108 0.950927 0.853544
0.738125 0.951263 0.852262
0.779019 0.952819 0.841001
0.826139 0.953521 0.809812
0.915496 0.949493 0.807797
1.000000 0.945281 0.822965
0.721614 1.000000 0.876524
0.726406 1.000000 0.876249
0.742214 1.000000 0.874876
0.770932 1.000000 0.873472
0.804044 1.000000 0.864927
0.836301 1.000000 0.841367
0.902678 1.000000 0.826871
0.974823 1.000000 0.829404
0.255009 0.077668 0.881498
0.288182 0.078431 0.878752
0.376867 0.073091 0.867399
0.484474 0.053956 0.844694
0.596948 0.000000 0.816129
0.729091 0.000000 0.801816
0.853269 0.196170 0.806058
0.952026 0.547387 0.845975
0.240299 0.151339 0.883299
0.276158 0.150881 0.880461
0.370397 0.147646 0.869566
0.481331 0.136080 0.846006
0.594507 0.094606 0.815549
0.729366 0.000000 0.801724
0.851469 0.233524 0.804166
0.952514 0.550805 0.844022
0.244968 0.337041 0.898985
0.282170 0.335973 0.895750
0.381048 0.332799 0.884764
0.495918 0.320073 0.863035
0.604425 0.284154 0.827665
0.743893 0.267063 0.812680
0.851804 0.368933 0.805539
0.960357 0.586847 0.845548
0.440406 0.613764 0.915129
0.478035 0.623865 0.911009
0.555261 0.638178 0.899535
0.615259 0.622217 0.882597
0.662959 0.560449 0.849210
0.771145 0.537652 0.830686
0.852323 0.558373 0.815122
0.977874 0.652186 0.850645
0.556023 0.775875 0.912169
0.584588 0.781827 0.911711
0.658473 0.797665 0.910399
0.735622 0.812802 0.909178
0.764248 0.784207 0.877989
0.796048 0.741939 0.844816
0.857084 0.709987 0.828000
0.996185 0.721614 0.844297
0.650660 0.873655 0.899718
0.668391 0.875456 0.900420
0.711391 0.877928 0.900175
0.762142 0.880430 0.899260
0.808255 0.880156 0.895872
0.851255 0.872435 0.885191
0.924773 0.865782 0.879149
1.000000 0.862943 0.876768
0.745480 0.946838 0.919158
0.753506 0.947143 0.919890
0.773220 0.947021 0.920012
0.797757 0.948730 0.918761
0.826474 0.951019 0.914061
0.859251 0.952056 0.897704
0.925933 0.948730 0.879881
1.000000 0.953552 0.904967
0.776547 1.000000 0.930297
0.779721 1.000000 0.929900
0.790890 1.000000 0.928649
0.810727 1.000000 0.926726
0.836606 1.000000 0.921477
0.872404 1.000000 0.912139
0.913695 1.000000 0.887968
0.981079 1.000000 0.887114
0.327092 0.201968 0.946105
0.352331 0.211826 0.946044
0.420905 0.231296 0.940276
0.515557 0.261631 0.929808
0.613153 0.286320 0.912169
0.723507 0.301823 0.900877
0.839231 0.319310 0.892760
0.956970 0.604120 0.921691
0.323125 0.239475 0.943267
0.348486 0.247257 0.942901
0.417456 0.262516 0.937255
0.510491 0.283574 0.925872
0.606348 0.297581 0.907378
0.714076 0.301061 0.894163
0.829740 0.306493 0.884947
0.945098 0.574762 0.909697
0.378576 0.403876 0.951904
0.398505 0.406592 0.950134
0.458167 0.413977 0.943236
0.542718 0.425818 0.931304
0.626459 0.422156 0.911681
0.723690 0.417884 0.896025
0.837034 0.433631 0.888914
0.953124 0.645350 0.919158
0.572168 0.659327 0.958099
0.577722 0.656458 0.955901
0.601556 0.649989 0.949340
0.648493 0.646082 0.938903
0.695277 0.625208 0.920684
0.755306 0.598199 0.901244
0.849119 0.601892 0.894652
0.960082 0.712978 0.926207
0.660914 0.791684 0.967987
0.671687 0.793271 0.965881
0.705867 0.798825 0.959716
0.743465 0.798306 0.949432
0.763760 0.773373 0.932158
0.783841 0.731289 0.902922
0.851225 0.716670 0.892363
0.959411 0.764981 0.924041
0.709987 0.873594 0.959411
0.718807 0.875059 0.959472
0.745846 0.879332 0.959686
0.784024 0.884855 0.960967
0.827543 0.888273 0.962524
0.850584 0.862181 0.940215
0.880217 0.830961 0.911467
0.976135 0.828946 0.928405
0.758419 0.938140 0.955230
0.765255 0.939239 0.955901
0.784024 0.940978 0.956451
0.813321 0.944091 0.957610
0.849851 0.946624 0.957763
0.893370 0.949004 0.957183
0.933898 0.944213 0.949767
1.000000 0.940551 0.946685
0.811063 0.995636 0.968902
0.815183 0.995544 0.968963
0.833341 0.996643 0.970764
0.858518 0.996460 0.971679
0.884276 0.997711 0.971221
0.913573 0.999969 0.969360
0.946777 1.000000 0.963348
0.989166 0.998474 0.952178
0.445502 0.368566 1.000000
0.464454 0.380163 1.000000
0.514946 0.404211 0.998383
0.598474 0.456184 0.993469
0.689998 0.515770 0.985534
0.775051 0.571008 0.974823
0.862699 0.609216 0.973297
0.943267 0.637446 0.971038
0.450355 0.393133 1.000000
0.469062 0.403784 1.000000
0.519707 0.427161 0.996735
0.598932 0.470619 0.991211
0.688045 0.523674 0.983215
0.771023 0.572320 0.972198
0.856840 0.605035 0.969543
0.938201 0.631617 0.967132
0.498695 0.500206 0.998901
0.513695 0.506554 0.998260
0.553399 0.517540 0.994232
0.632288 0.559106 0.990906
0.707362 0.589929 0.982788
0.777890 0.614771 0.971099
0.858152 0.638880 0.967651
0.938506 0.659815 0.966400
0.601923 0.657954 0.997620
0.612909 0.661860 0.997284
0.639033 0.665156 0.994385
0.687312 0.676570 0.990448
0.743435 0.687190 0.984131
0.800259 0.693263 0.974640
0.868620 0.702358 0.970031
0.945495 0.713069 0.970153
0.712215 0.796902 0.996643
0.720333 0.799527 0.996399
0.730098 0.795132 0.994537
0.737697 0.777981 0.992309
0.773953 0.772549 0.986481
0.817563 0.764523 0.977813
0.875029 0.761166 0.971313
0.954284 0.769253 0.975006
0.743679 0.866636 0.998108
0.747799 0.866728 0.997833
0.763027 0.867796 0.997345
0.788479 0.868650 0.996246
0.817655 0.864195 0.992493
0.845365 0.847318 0.988647
0.895293 0.837217 0.983795
0.975921 0.842100 0.989227
0.784360 0.930724 0.995270
0.787747 0.930877 0.995178
0.800015 0.931670 0.994995
0.823789 0.934234 0.995422
0.858885 0.938689 0.996155
0.904845 0.946105 0.997345
0.932372 0.934417 0.995361
0.983551 0.916838 0.991547
0.828061 0.982574 0.993835
0.830747 0.982635 0.993713
0.841886 0.983307 0.993683
0.863554 0.985046 0.994110
0.893584 0.987427 0.994537
0.929564 0.990112 0.994903
0.966888 0.993042 0.995331
0.995392 0.996155 0.996551
