其他预设/【233】日式怀旧街道调色预设208款/1.3D LUT预设（视频调色-PR-AE-PS-FCPX-达芬奇用）/2.富士胶片风-日式城市街拍预设/JA – Static Pop 3 (Classic Chrome).cube
# Created by Adobe Lightroom plugin Export LUT (1.17.0)
# www.johnrellis.com/lightroom/exportlut.htm
# Preset: JA – Static Pop 3 (Classic Chrome)
# Color profile: /Library/Application Support/Adobe/Color/Profiles/Recommended/AdobeRGB1998.icc
LUT_3D_SIZE 5
DOMAIN_MIN 0.000000 0.000000 0.000000
DOMAIN_MAX 0.903226 0.903226 0.903226
0.074311 0.079377 0.084535
0.185000 0.062165 0.082246
0.601556 0.000000 0.000000
0.954925 0.079347 0.000000
1.000000 0.099123 0.000000
0.066468 0.141543 0.080842
0.159854 0.151583 0.075257
0.597253 0.265385 0.000000
0.942229 0.274052 0.000000
1.000000 0.257633 0.000000
0.000000 0.475013 0.000000
0.213993 0.487282 0.000000
0.545006 0.491798 0.000000
0.933837 0.534020 0.000000
1.000000 0.483803 0.000000
0.000000 0.812039 0.000000
0.000000 0.814572 0.000000
0.562615 0.809293 0.000000
0.863157 0.761563 0.000000
1.000000 0.720150 0.000000
0.000000 1.000000 0.117220
0.000000 1.000000 0.218448
0.506798 1.000000 0.117739
0.833280 1.000000 0.000000
1.000000 0.970611 0.000000
0.075776 0.091127 0.129458
0.136019 0.067292 0.148653
0.550896 0.000000 0.126040
0.908537 0.000000 0.000000
1.000000 0.000000 0.000000
0.053162 0.131868 0.142367
0.128817 0.137423 0.146456
0.552789 0.145754 0.106783
0.904753 0.152682 0.000000
1.000000 0.175082 0.000000
0.000000 0.459480 0.246952
0.000000 0.473487 0.130892
0.504326 0.459327 0.000000
0.899931 0.493141 0.000000
1.000000 0.459785 0.000000
0.000000 0.804685 0.272435
0.000000 0.810910 0.164370
0.527733 0.806699 0.069093
0.850004 0.752804 0.000000
1.000000 0.714412 0.000000
0.000000 1.000000 0.287022
0.000000 1.000000 0.270237
0.502312 1.000000 0.316899
0.825711 1.000000 0.220218
1.000000 0.971435 0.000000
0.000000 0.153079 0.426307
0.047089 0.113954 0.429786
0.450568 0.000000 0.467720
0.858152 0.000000 0.466773
1.000000 0.000000 0.415320
0.000000 0.261143 0.431617
0.095613 0.239322 0.442634
0.454810 0.000000 0.473243
0.853025 0.000000 0.449104
1.000000 0.000000 0.403143
0.000000 0.465492 0.492012
0.000000 0.469093 0.494636
0.410163 0.427039 0.447761
0.848295 0.443153 0.447974
1.000000 0.428473 0.413153
0.000000 0.786038 0.546258
0.000000 0.787259 0.527337
0.410101 0.785550 0.492256
0.810483 0.738949 0.382086
1.000000 0.716701 0.458778
0.000000 1.000000 0.538445
0.000000 1.000000 0.522789
0.398413 1.000000 0.524681
0.789395 1.000000 0.505699
1.000000 0.974823 0.389441
0.140383 0.354559 0.730648
0.135042 0.340612 0.731136
0.381933 0.145357 0.735836
0.771115 0.000000 0.754757
1.000000 0.000000 0.713802
0.246983 0.439338 0.728847
0.267765 0.435554 0.731563
0.393530 0.293095 0.740963
0.764065 0.000000 0.749752
1.000000 0.000000 0.710109
0.220035 0.571374 0.746212
0.316869 0.580438 0.747921
0.526238 0.591485 0.754269
0.748501 0.373602 0.742916
1.000000 0.419135 0.710231
0.000000 0.771695 0.787320
0.000000 0.772183 0.786221
0.417639 0.776822 0.788357
0.700313 0.703670 0.716732
1.000000 0.717983 0.718837
0.000000 1.000000 0.779538
0.000000 1.000000 0.773068
0.000000 1.000000 0.756680
0.740566 1.000000 0.772305
1.000000 0.977234 0.667506
0.500023 0.612665 0.955932
0.499855 0.612543 0.955871
0.518334 0.530663 0.966827
0.681392 0.262455 0.983337
1.000000 0.000000 0.993988
0.501701 0.613947 0.956695
0.507073 0.621057 0.956085
0.542626 0.580804 0.965209
0.686061 0.369482 0.981994
1.000000 0.000000 0.993652
0.592737 0.720272 0.948943
0.592126 0.719600 0.949065
0.630335 0.719631 0.956909
0.707271 0.590478 0.977783
1.000000 0.317937 0.992706
0.549737 0.810605 0.958953
0.549310 0.810880 0.958984
0.581872 0.811429 0.958770
0.837186 0.863066 0.965850
1.000000 0.689418 0.989776
0.358190 0.955261 0.975158
0.353185 0.958007 0.975280
0.333440 0.968750 0.975982
0.722835 0.974762 0.978485
0.984253 0.982177 0.981872
