其他预设/【233】日式怀旧街道调色预设208款/1.3D LUT预设（视频调色-PR-AE-PS-FCPX-达芬奇用）/2.富士胶片风-日式城市街拍预设/JA – Controlled Contrast 4 (Classic Chrome).cube
# Created by Adobe Lightroom plugin Export LUT (1.17.0)
# www.johnrellis.com/lightroom/exportlut.htm
# Preset: JA – Controlled Contrast 4 (Classic Chrome)
# Color profile: /Library/Application Support/Adobe/Color/Profiles/Recommended/AdobeRGB1998.icc
LUT_3D_SIZE 32
0.000000 0.000000 0.000000
0.000000 0.000000 0.000000
0.000000 0.000000 0.000000
0.000000 0.000000 0.000000
0.042176 0.005615 0.009247
0.091554 0.020478 0.035096
0.117952 0.028565 0.052949
0.146273 0.017853 0.060609
0.185489 0.000000 0.061769
0.244816 0.000000 0.059236
0.320867 0.000000 0.049561
0.401007 0.000000 0.032898
0.476081 0.000000 0.019501
0.539666 0.000000 0.011475
0.592462 0.000000 0.005921
0.636896 0.000000 0.002960
0.674952 0.000000 0.001648
0.708431 0.000000 0.002502
0.739010 0.000000 0.000000
0.768399 0.000000 0.000000
0.796445 0.000000 0.000000
0.824063 0.000000 0.000000
0.851957 0.000000 0.000000
0.880247 0.000000 0.000000
0.909026 0.000000 0.000000
0.938354 0.000000 0.013977
0.967773 0.000000 0.067964
0.996246 0.000000 0.103853
1.000000 0.000000 0.144167
1.000000 0.000000 0.190707
1.000000 0.000000 0.244358
1.000000 0.000000 0.305303
0.000000 0.000000 0.000000
0.000000 0.000000 0.000000
0.000000 0.000000 0.000000
0.000000 0.000000 0.000000
0.042176 0.005615 0.009247
0.091218 0.020691 0.035096
0.117952 0.028565 0.052949
0.146090 0.018067 0.060609
0.185214 0.000000 0.061769
0.244480 0.000000 0.059236
0.320714 0.000000 0.049592
0.400793 0.000000 0.032959
0.475837 0.000000 0.019593
0.539483 0.000000 0.011566
0.592248 0.000000 0.007111
0.636652 0.000000 0.003082
0.674708 0.000000 0.002869
0.708125 0.000000 0.002686
0.739223 0.000000 0.000000
0.768307 0.000000 0.000000
0.796292 0.000000 0.000000
0.823911 0.000000 0.000000
0.851804 0.000000 0.000000
0.880064 0.000000 0.000000
0.908843 0.000000 0.000000
0.938201 0.000000 0.011048
0.967620 0.000000 0.066957
0.996094 0.000000 0.102998
1.000000 0.000000 0.143618
1.000000 0.000000 0.190219
1.000000 0.000000 0.244022
1.000000 0.000000 0.305058
0.000000 0.000000 0.000000
0.000000 0.000000 0.000000
0.000000 0.000000 0.000000
0.000000 0.000000 0.000000
0.043519 0.005371 0.009247
0.091218 0.020691 0.035096
0.117952 0.028565 0.052949
0.145724 0.018524 0.060212
0.184909 0.000000 0.061799
0.244266 0.000000 0.059266
0.320256 0.000000 0.050477
0.400549 0.000000 0.033021
0.475563 0.000000 0.019684
0.539239 0.000000 0.012757
0.591852 0.000000 0.006226
0.636469 0.000000 0.002197
0.674495 0.000000 0.000824
0.708309 0.000000 0.000000
0.739254 0.000000 0.000000
0.768246 0.000000 0.000000
0.796262 0.000000 0.000000
0.823880 0.000000 0.000000
0.851713 0.000000 0.000000
0.880034 0.000000 0.000000
0.908812 0.000000 0.000000
0.938140 0.000000 0.006989
0.967559 0.000000 0.065522
0.996033 0.000000 0.102388
1.000000 0.000000 0.143069
1.000000 0.000000 0.190066
1.000000 0.000000 0.243900
1.000000 0.000000 0.304845
0.000000 0.000000 0.000000
0.000000 0.000000 0.000000
0.000000 0.000000 0.000000
0.000000 0.000000 0.000000
0.043519 0.005371 0.009247
0.091218 0.020691 0.035096
0.117708 0.028809 0.052979
0.145724 0.018524 0.060212
0.184634 0.000000 0.061799
0.244083 0.000000 0.059266
0.319738 0.000000 0.050568
0.400275 0.000000 0.033112
0.475074 0.000000 0.018769
0.538384 0.000000 0.012024
0.591302 0.000000 0.006592
0.636225 0.000000 0.000000
0.674739 0.000000 0.000000
0.708492 0.000000 0.000000
0.739254 0.000000 0.000000
0.768154 0.000000 0.000000
0.796262 0.000000 0.000000
0.823758 0.000000 0.000000
0.851652 0.000000 0.000000
0.879942 0.000000 0.000000
0.908782 0.000000 0.000000
0.938170 0.000000 0.000000
0.967559 0.000000 0.062318
0.996033 0.000000 0.100893
1.000000 0.000000 0.142214
1.000000 0.000000 0.189517
1.000000 0.000000 0.243534
1.000000 0.000000 0.304723
0.012207 0.030518 0.007996
0.012055 0.031739 0.007904
0.011841 0.031739 0.009003
0.012848 0.033906 0.008789
0.036805 0.033478 0.008209
0.090059 0.036774 0.032837
0.117067 0.036469 0.051759
0.144869 0.023011 0.060121
0.183780 0.000000 0.060975
0.242771 0.000000 0.057557
0.318364 0.000000 0.043214
0.398779 0.000000 0.019196
0.474281 0.000000 0.000000
0.538140 0.000000 0.000000
0.591455 0.000000 0.000000
0.636347 0.000000 0.000000
0.674861 0.000000 0.000000
0.708614 0.000000 0.000000
0.739406 0.000000 0.000000
0.768246 0.000000 0.000000
0.796231 0.000000 0.000000
0.823819 0.000000 0.000000
0.851713 0.000000 0.000000
0.880034 0.000000 0.000000
0.908812 0.000000 0.000000
0.938201 0.000000 0.000000
0.967559 0.000000 0.055299
0.996002 0.000000 0.097902
1.000000 0.000000 0.140841
1.000000 0.000000 0.188785
1.000000 0.000000 0.243381
1.000000 0.000000 0.304723
0.044800 0.079683 0.032074
0.044617 0.080018 0.031983
0.044617 0.080018 0.031983
0.045808 0.080323 0.031861
0.047883 0.080873 0.031647
0.084169 0.076814 0.026062
0.114351 0.074098 0.045991
0.142977 0.069947 0.055787
0.182193 0.059236 0.057069
0.241642 0.000000 0.049317
0.318151 0.000000 0.028473
0.398810 0.000000 0.000000
0.474403 0.000000 0.000000
0.538476 0.000000 0.000000
0.591699 0.000000 0.000000
0.636713 0.000000 0.000000
0.675135 0.000000 0.000000
0.708827 0.000000 0.000000
0.739559 0.000000 0.000000
0.768338 0.000000 0.000000
0.796353 0.000000 0.000000
0.823972 0.000000 0.000000
0.853056 0.000000 0.000000
0.881346 0.000000 0.000000
0.910155 0.000000 0.000000
0.939452 0.000000 0.000000
0.968688 0.000000 0.043854
0.996948 0.000000 0.095674
1.000000 0.000000 0.140108
1.000000 0.000000 0.189029
1.000000 0.000000 0.244358
1.000000 0.000000 0.306188
0.063325 0.102419 0.051575
0.063325 0.102419 0.051575
0.063264 0.102693 0.051484
0.063752 0.102907 0.051423
0.063691 0.103182 0.051331
0.085298 0.103639 0.043305
0.108064 0.097444 0.039765
0.137850 0.096559 0.050629
0.180087 0.095949 0.050050
0.240909 0.092378 0.036103
0.318059 0.076875 0.007752
0.399725 0.000000 0.000000
0.475441 0.000000 0.000000
0.539391 0.000000 0.000000
0.592676 0.000000 0.000000
0.637354 0.000000 0.000000
0.675685 0.000000 0.000000
0.709316 0.000000 0.000000
0.739956 0.000000 0.000000
0.768795 0.000000 0.000000
0.796872 0.000000 0.000000
0.824643 0.000000 0.000000
0.852689 0.000000 0.000000
0.881193 0.000000 0.000000
0.910063 0.000000 0.000000
0.939422 0.000000 0.000000
0.968688 0.000000 0.020386
0.996826 0.000000 0.090639
1.000000 0.000000 0.137423
1.000000 0.000000 0.187594
1.000000 0.000000 0.243626
1.000000 0.000000 0.305974
0.069490 0.125277 0.059022
0.069490 0.125277 0.059022
0.069429 0.125490 0.058991
0.069368 0.125704 0.058961
0.069795 0.125856 0.058900
0.086183 0.128573 0.049805
0.113344 0.126040 0.046662
0.131807 0.118227 0.044312
0.168124 0.121401 0.043549
0.237888 0.134615 0.019196
0.317479 0.142000 0.000000
0.399969 0.139406 0.000000
0.475990 0.124086 0.000000
0.539971 0.091981 0.000000
0.593072 0.000000 0.000000
0.637751 0.000000 0.000000
0.675959 0.000000 0.000000
0.709468 0.000000 0.000000
0.739956 0.000000 0.000000
0.768887 0.000000 0.000000
0.797024 0.000000 0.000000
0.824765 0.000000 0.000000
0.852873 0.000000 0.000000
0.881315 0.000000 0.000000
0.910185 0.000000 0.000000
0.939513 0.000000 0.000000
0.968688 0.000000 0.000000
0.996796 0.000000 0.083955
1.000000 0.000000 0.133974
1.000000 0.000000 0.185824
1.000000 0.000000 0.242771
1.000000 0.000000 0.305913
0.070924 0.155520 0.056641
0.070863 0.155703 0.056580
0.070741 0.155856 0.057313
0.071138 0.155978 0.057252
0.070954 0.156466 0.057038
0.087404 0.161105 0.046265
0.121920 0.164096 0.034638
0.147005 0.157046 0.032868
0.162814 0.145022 0.033661
0.211643 0.156252 0.014954
0.303319 0.184207 0.000000
0.400031 0.201938 0.000000
0.476692 0.202274 0.000000
0.540642 0.191623 0.000000
0.593591 0.172030 0.000000
0.638209 0.143709 0.000000
0.676204 0.103395 0.000000
0.709621 0.000000 0.000000
0.740108 0.000000 0.000000
0.769009 0.000000 0.000000
0.797147 0.000000 0.000000
0.824979 0.000000 0.000000
0.853086 0.000000 0.000000
0.881559 0.000000 0.000000
0.910430 0.000000 0.000000
0.939696 0.000000 0.000000
0.968811 0.000000 0.000000
0.996765 0.000000 0.075013
1.000000 0.000000 0.129976
1.000000 0.000000 0.183780
1.000000 0.000000 0.242008
1.000000 0.000000 0.305943
0.064942 0.202121 0.036042
0.064942 0.202121 0.036042
0.065248 0.202426 0.035737
0.065064 0.202792 0.035431
0.064698 0.203494 0.034882
0.088075 0.210086 0.019593
0.133211 0.219242 0.000000
0.177371 0.222751 0.000000
0.196445 0.204318 0.000000
0.209049 0.185550 0.000000
0.268559 0.202701 0.000000
0.371283 0.239017 0.000000
0.472999 0.261997 0.000000
0.541131 0.260410 0.000000
0.594171 0.248203 0.000000
0.638514 0.230289 0.000000
0.676387 0.207401 0.000000
0.709804 0.180209 0.000000
0.740291 0.147463 0.000000
0.769192 0.103487 0.000000
0.797452 0.000000 0.000000
0.825223 0.000000 0.000000
0.853391 0.000000 0.000000
0.881834 0.000000 0.000000
0.910613 0.000000 0.000000
0.939849 0.000000 0.000000
0.968872 0.000000 0.000000
0.996735 0.000000 0.062379
1.000000 0.000000 0.125154
1.000000 0.000000 0.181521
1.000000 0.000000 0.241215
1.000000 0.057465 0.306035
0.033143 0.266850 0.000000
0.032959 0.266941 0.000000
0.032471 0.267185 0.000000
0.032837 0.267674 0.000000
0.032502 0.267826 0.000000
0.085420 0.276249 0.000000
0.146120 0.291173 0.000000
0.201633 0.297978 0.000000
0.242924 0.291173 0.000000
0.261204 0.266819 0.000000
0.271214 0.240696 0.000000
0.331456 0.255802 0.000000
0.435920 0.294011 0.000000
0.526787 0.312902 0.000000
0.594476 0.311803 0.000000
0.638544 0.297215 0.000000
0.676326 0.278477 0.000000
0.709773 0.257420 0.000000
0.740352 0.233982 0.000000
0.769406 0.208377 0.000000
0.797665 0.179690 0.000000
0.825589 0.144930 0.000000
0.853727 0.097292 0.000000
0.882139 0.000000 0.000000
0.910979 0.000000 0.000000
0.940154 0.000000 0.000000
0.969024 0.000000 0.000000
0.996735 0.000000 0.033021
1.000000 0.000000 0.119142
1.000000 0.000000 0.178805
1.000000 0.000000 0.240238
1.000000 0.162325 0.306218
0.000000 0.340642 0.000000
0.000000 0.340978 0.000000
0.000000 0.340978 0.000000
0.000000 0.341619 0.000000
0.000000 0.341863 0.000000
0.076661 0.350103 0.000000
0.154788 0.367590 0.000000
0.219913 0.375738 0.000000
0.281712 0.383948 0.000000
0.313268 0.363012 0.000000
0.331579 0.334783 0.000000
0.340612 0.303502 0.000000
0.394293 0.310643 0.000000
0.492012 0.344854 0.000000
0.571557 0.357824 0.000000
0.635615 0.356054 0.000000
0.677241 0.340887 0.000000
0.710719 0.321782 0.000000
0.741268 0.301305 0.000000
0.770413 0.279820 0.000000
0.798703 0.257145 0.000000
0.826627 0.233219 0.000000
0.854795 0.206790 0.000000
0.883207 0.177584 0.000000
0.911986 0.142550 0.000000
0.941070 0.097322 0.000000
0.969726 0.000000 0.000000
0.997162 0.000000 0.000000
1.000000 0.000000 0.112947
1.000000 0.000000 0.176547
1.000000 0.137667 0.239963
1.000000 0.224186 0.307134
0.000000 0.415229 0.000000
0.000000 0.415503 0.000000
0.000000 0.415503 0.000000
0.000000 0.415808 0.000000
0.000000 0.415961 0.000000
0.058656 0.423438 0.000000
0.157717 0.438392 0.000000
0.229709 0.448219 0.000000
0.295048 0.455116 0.000000
0.351751 0.455085 0.000000
0.379675 0.429206 0.000000
0.398993 0.399634 0.000000
0.408637 0.366278 0.000000
0.449592 0.360906 0.000000
0.537591 0.388067 0.000000
0.608026 0.396307 0.000000
0.665614 0.392279 0.000000
0.710567 0.379522 0.000000
0.741238 0.360235 0.000000
0.770504 0.340368 0.000000
0.798856 0.320195 0.000000
0.826963 0.299351 0.000000
0.855161 0.278264 0.000000
0.883604 0.256016 0.000000
0.912352 0.232761 0.000000
0.941344 0.208469 0.000000
0.969879 0.184909 0.000000
0.997101 0.166049 0.000000
1.000000 0.160128 0.104433
1.000000 0.176669 0.173037
1.000000 0.216709 0.238743
1.000000 0.274083 0.307378
0.000000 0.480873 0.000000
0.000000 0.481056 0.000000
0.000000 0.481117 0.000000
0.000000 0.481117 0.000000
0.000000 0.481270 0.000000
0.011597 0.487617 0.000000
0.156924 0.499031 0.000000
0.231907 0.509117 0.000000
0.298558 0.514275 0.000000
0.362432 0.519860 0.000000
0.407721 0.508446 0.000000
0.436072 0.483711 0.000000
0.457038 0.455360 0.000000
0.468879 0.422705 0.000000
0.496651 0.404822 0.000000
0.575860 0.425849 0.000000
0.639124 0.430213 0.000000
0.691798 0.424750 0.000000
0.738277 0.413977 0.000000
0.770565 0.396063 0.000000
0.799039 0.376806 0.000000
0.827298 0.357641 0.000000
0.855558 0.338231 0.000000
0.884062 0.318883 0.000000
0.912810 0.299474 0.000000
0.941711 0.280064 0.000000
0.970123 0.261997 0.000000
0.997070 0.247990 0.000000
1.000000 0.242313 0.093996
1.000000 0.250340 0.169253
1.000000 0.276127 0.237583
1.000000 0.319371 0.307988
0.000000 0.535851 0.000000
0.000000 0.535943 0.000000
0.000000 0.535943 0.000000
0.000000 0.536004 0.000000
0.000000 0.535943 0.000000
0.000000 0.541192 0.000000
0.150820 0.549737 0.000000
0.228428 0.559655 0.000000
0.295384 0.563836 0.000000
0.359075 0.568170 0.000000
0.421088 0.572534 0.000000
0.455695 0.552453 0.000000
0.484047 0.528740 0.000000
0.505913 0.501793 0.000000
0.519829 0.470680 0.000000
0.536950 0.443275 0.000000
0.608453 0.458991 0.000000
0.666133 0.460517 0.000000
0.716091 0.454749 0.000000
0.761410 0.444617 0.000000
0.799222 0.430030 0.000000
0.827634 0.411353 0.000000
0.856016 0.393042 0.000000
0.884550 0.375036 0.000000
0.913329 0.357092 0.000000
0.942168 0.339971 0.000000
0.970336 0.324041 0.000000
0.997101 0.311589 0.000000
1.000000 0.305272 0.081025
1.000000 0.309453 0.165438
1.000000 0.327642 0.236851
1.000000 0.361700 0.308995
0.000000 0.581933 0.000000
0.000000 0.581933 0.000000
0.000000 0.581903 0.000000
0.000000 0.581903 0.000000
0.000000 0.581903 0.000000
0.000000 0.586084 0.000000
0.141329 0.592889 0.000000
0.220981 0.600702 0.000000
0.288609 0.605859 0.000000
0.351598 0.609247 0.000000
0.412177 0.612787 0.000000
0.464332 0.609033 0.000000
0.497078 0.589136 0.000000
0.525109 0.566613 0.000000
0.547417 0.540764 0.000000
0.562707 0.511376 0.000000
0.571405 0.476661 0.000000
0.636896 0.488441 0.000000
0.691127 0.488563 0.000000
0.739773 0.482948 0.000000
0.784298 0.473732 0.000000
0.826474 0.462165 0.000000
0.856596 0.444831 0.000000
0.885222 0.427375 0.000000
0.913970 0.410407 0.000000
0.942718 0.394293 0.000000
0.970672 0.379339 0.000000
0.997162 0.367193 0.000000
1.000000 0.360266 0.063111
1.000000 0.361578 0.161013
1.000000 0.374762 0.235996
1.000000 0.401831 0.310063
0.000000 0.620844 0.000000
0.000000 0.620905 0.000000
0.000000 0.620905 0.000000
0.000000 0.620905 0.000000
0.000000 0.620935 0.000000
0.000000 0.624384 0.000000
0.130648 0.629786 0.000000
0.212131 0.636164 0.000000
0.279454 0.641901 0.000000
0.341497 0.644709 0.000000
0.401038 0.647700 0.000000
0.459602 0.650690 0.000000
0.501671 0.639673 0.000000
0.533257 0.620417 0.000000
0.560723 0.598657 0.000000
0.583154 0.574182 0.000000
0.599634 0.546441 0.000000
0.603449 0.507683 0.000000
0.662959 0.515557 0.000000
0.715480 0.515465 0.000000
0.762936 0.510277 0.000000
0.807218 0.501793 0.000000
0.849912 0.491432 0.000000
0.885771 0.477546 0.000000
0.914549 0.460883 0.000000
0.943145 0.445075 0.000000
0.970886 0.430457 0.000000
0.997101 0.418402 0.000000
1.000000 0.410620 0.015656
1.000000 0.409705 0.156069
1.000000 0.418952 0.235172
1.000000 0.440528 0.311528
0.000000 0.654841 0.000000
0.000000 0.654841 0.000000
0.000000 0.655634 0.000000
0.000000 0.655573 0.000000
0.000000 0.655634 0.000000
0.000000 0.658473 0.000000
0.117769 0.663020 0.000000
0.201785 0.668360 0.000000
0.269047 0.674556 0.000000
0.331151 0.677333 0.000000
0.389593 0.680049 0.000000
0.446754 0.682795 0.000000
0.502678 0.684810 0.000000
0.536461 0.667933 0.000000
0.566796 0.649042 0.000000
0.593500 0.627955 0.000000
0.615930 0.604669 0.000000
0.633326 0.578668 0.000000
0.635218 0.538567 0.000000
0.688350 0.541924 0.000000
0.739528 0.541680 0.000000
0.786404 0.536950 0.000000
0.831113 0.529473 0.000000
0.874205 0.520409 0.000000
0.915282 0.509697 0.000000
0.943725 0.494057 0.000000
0.971191 0.479377 0.000000
0.997040 0.466865 0.000000
1.000000 0.458076 0.000000
1.000000 0.455207 0.150668
1.000000 0.461219 0.234501
1.000000 0.478126 0.313085
0.000000 0.686427 0.000000
0.000000 0.686519 0.000000
0.000000 0.686610 0.000000
0.000000 0.686763 0.000000
0.000000 0.686854 0.000000
0.000000 0.689448 0.000000
0.103304 0.693446 0.000000
0.191379 0.698146 0.000000
0.258366 0.703609 0.000000
0.319188 0.707393 0.000000
0.376989 0.709865 0.000000
0.433204 0.712398 0.000000
0.488777 0.715023 0.000000
0.536187 0.710933 0.000000
0.568536 0.694331 0.000000
0.598016 0.675959 0.000000
0.624323 0.655665 0.000000
0.646540 0.633021 0.000000
0.664363 0.608179 0.000000
0.664912 0.567254 0.000000
0.713130 0.567285 0.000000
0.763302 0.567132 0.000000
0.810208 0.563073 0.000000
0.855406 0.556939 0.000000
0.898894 0.548943 0.000000
0.940032 0.539544 0.000000
0.971435 0.526452 0.000000
0.996948 0.513451 0.000000
1.000000 0.503685 0.000000
1.000000 0.499031 0.145174
1.000000 0.502159 0.234134
1.000000 0.515068 0.315129
0.000000 0.716304 0.000000
0.000000 0.716396 0.000000
0.000000 0.716518 0.000000
0.000000 0.716579 0.000000
0.000000 0.716732 0.000000
0.000000 0.718898 0.000000
0.084260 0.722408 0.000000
0.179843 0.726619 0.000000
0.246799 0.731502 0.000000
0.307164 0.736324 0.000000
0.364599 0.738674 0.000000
0.420142 0.741085 0.000000
0.474434 0.743587 0.000000
0.528710 0.746151 0.000000
0.568139 0.736355 0.000000
0.599512 0.720027 0.000000
0.628229 0.702113 0.000000
0.653956 0.682277 0.000000
0.676234 0.660578 0.000000
0.694392 0.636744 0.000000
0.693996 0.595392 0.000000
0.737575 0.592248 0.000000
0.787320 0.592462 0.000000
0.834806 0.589502 0.000000
0.880613 0.584405 0.000000
0.924376 0.577569 0.000000
0.964233 0.568933 0.000000
0.996765 0.558862 0.000000
1.000000 0.547906 0.000000
1.000000 0.541527 0.139040
1.000000 0.542016 0.233799
1.000000 0.551354 0.317601
0.000000 0.745174 0.000000
0.000000 0.745235 0.000000
0.000000 0.745327 0.000000
0.000000 0.745449 0.000000
0.000000 0.745602 0.000000
0.000000 0.747372 0.000000
0.063691 0.750546 0.000000
0.167849 0.754360 0.000000
0.235599 0.758724 0.000000
0.294926 0.763668 0.000000
0.351934 0.766659 0.000000
0.407050 0.769039 0.000000
0.460639 0.771633 0.000000
0.513848 0.774228 0.000000
0.566674 0.776577 0.000000
0.599207 0.761715 0.000000
0.629572 0.745418 0.000000
0.657679 0.727779 0.000000
0.683070 0.708705 0.000000
0.705318 0.687678 0.000000
0.723903 0.664759 0.000000
0.722896 0.623255 0.000000
0.762692 0.617365 0.000000
0.812741 0.618311 0.000000
0.860960 0.616541 0.000000
0.907378 0.612634 0.000000
0.950439 0.606470 0.000000
0.987823 0.598627 0.000000
1.000000 0.590875 0.000000
1.000000 0.583307 0.133730
1.000000 0.581476 0.234897
1.000000 0.587518 0.321294
0.000000 0.773526 0.000000
0.000000 0.773617 0.000000
0.000000 0.773617 0.000000
0.000000 0.773739 0.000000
0.000000 0.773861 0.000000
0.000000 0.775235 0.000000
0.032105 0.778164 0.000000
0.158022 0.781735 0.000000
0.225101 0.785946 0.000000
0.283604 0.790646 0.000000
0.339757 0.794888 0.000000
0.394720 0.797269 0.000000
0.447852 0.799802 0.000000
0.500237 0.802426 0.000000
0.552514 0.805112 0.000000
0.598505 0.802243 0.000000
0.629969 0.787472 0.000000
0.659632 0.771420 0.000000
0.687037 0.754025 0.000000
0.712001 0.735012 0.000000
0.734218 0.714595 0.000000
0.753262 0.692470 0.000000
0.751919 0.651118 0.000000
0.788235 0.642756 0.000000
0.839200 0.644862 0.000000
0.888304 0.644190 0.000000
0.934783 0.641108 0.000000
0.975830 0.635340 0.000000
1.000000 0.628199 0.000000
1.000000 0.622370 0.110384
1.000000 0.619867 0.235630
1.000000 0.622980 0.324987
0.000000 0.801602 0.000000
0.000000 0.801663 0.000000
0.000000 0.801724 0.000000
0.000000 0.801785 0.000000
0.000000 0.801968 0.000000
0.000000 0.802884 0.000000
0.040070 0.805692 0.000000
0.152895 0.809110 0.000000
0.217533 0.813138 0.000000
0.274052 0.817624 0.000000
0.327855 0.822690 0.000000
0.382391 0.825315 0.000000
0.435218 0.827726 0.000000
0.487251 0.830259 0.000000
0.538598 0.832914 0.000000
0.590326 0.835569 0.000000
0.629572 0.827909 0.000000
0.660426 0.813413 0.000000
0.689540 0.797635 0.000000
0.716670 0.780606 0.000000
0.741543 0.762112 0.000000
0.763760 0.742123 0.000000
0.783139 0.720699 0.000000
0.781643 0.679469 0.000000
0.815335 0.669245 0.000000
0.867430 0.672480 0.000000
0.917174 0.672908 0.000000
0.962310 0.669978 0.000000
0.999786 0.664332 0.000000
1.000000 0.658015 0.000000
1.000000 0.654688 0.218692
1.000000 0.657801 0.328649
0.000000 0.830014 0.000000
0.000000 0.830106 0.000000
0.000000 0.830137 0.000000
0.000000 0.830228 0.000000
0.000000 0.830350 0.000000
0.000000 0.830716 0.000000
0.085481 0.833433 0.000000
0.159823 0.836728 0.000000
0.216770 0.840543 0.000000
0.268742 0.844846 0.000000
0.319097 0.849577 0.000000
0.370855 0.853483 0.000000
0.423651 0.855741 0.000000
0.475166 0.858152 0.000000
0.525872 0.860594 0.000000
0.576562 0.863066 0.000000
0.627344 0.865476 0.000000
0.660487 0.853635 0.000000
0.690852 0.839597 0.000000
0.719722 0.824308 0.000000
0.746761 0.807828 0.000000
0.771725 0.790005 0.000000
0.794400 0.770779 0.000000
0.814359 0.750057 0.000000
0.813107 0.709285 0.000000
0.844694 0.697444 0.000000
0.897917 0.701869 0.000000
0.947295 0.702541 0.000000
0.989197 0.699184 0.000000
1.000000 0.693355 0.000000
1.000000 0.688289 0.187167
1.000000 0.688014 0.310948
0.083803 0.858213 0.000000
0.084291 0.858274 0.000000
0.084810 0.858366 0.000000
0.084840 0.858457 0.000000
0.086122 0.858610 0.000000
0.086915 0.858793 0.000000
0.132723 0.860929 0.000000
0.181460 0.864073 0.000000
0.226749 0.867765 0.000000
0.271031 0.871916 0.000000
0.315770 0.876555 0.000000
0.362005 0.881468 0.000000
0.413855 0.883787 0.000000
0.464759 0.885863 0.000000
0.514794 0.888029 0.000000
0.564416 0.890135 0.000000
0.613977 0.892149 0.000000
0.659937 0.891203 0.000000
0.691279 0.879240 0.000000
0.721553 0.866117 0.000000
0.750484 0.851774 0.000000
0.777829 0.836149 0.000000
0.803342 0.819272 0.000000
0.826780 0.801022 0.000000
0.847898 0.781399 0.000000
0.847349 0.741329 0.000000
0.877073 0.727932 0.000000
0.930724 0.732937 0.000000
0.977417 0.732845 0.000000
1.000000 0.728420 0.000000
1.000000 0.722072 0.144411
1.000000 0.718441 0.288090
0.172122 0.886595 0.077424
0.172152 0.886687 0.077974
0.172366 0.886717 0.078553
0.172519 0.886839 0.078676
0.172915 0.886961 0.079774
0.173495 0.887175 0.081331
0.186007 0.888426 0.060578
0.216983 0.891417 0.000000
0.249882 0.894896 0.000000
0.284764 0.898802 0.000000
0.321782 0.903075 0.000000
0.361456 0.907683 0.000000
0.406806 0.911131 0.000000
0.456947 0.912779 0.000000
0.505913 0.914397 0.000000
0.554192 0.916014 0.000000
0.602411 0.917418 0.000000
0.650477 0.918700 0.000000
0.690425 0.914336 0.000000
0.721553 0.903624 0.000000
0.751858 0.891905 0.000000
0.781277 0.878965 0.000000
0.809415 0.864927 0.000000
0.836118 0.849607 0.000000
0.861051 0.832975 0.000000
0.883909 0.815030 0.000000
0.884733 0.776059 0.000000
0.913176 0.761532 0.000000
0.964233 0.765011 0.000000
1.000000 0.762936 0.000000
1.000000 0.755703 0.057954
1.000000 0.749508 0.259617
0.241123 0.914366 0.187594
0.241276 0.914397 0.187778
0.241428 0.914488 0.187991
0.241703 0.914611 0.188235
0.241947 0.914763 0.188602
0.242679 0.914977 0.189487
0.243839 0.915343 0.190127
0.263310 0.918090 0.167422
0.286168 0.921263 0.134035
0.311650 0.924865 0.074403
0.340032 0.928710 0.000000
0.371618 0.932830 0.000000
0.406256 0.937072 0.000000
0.453315 0.938537 0.000000
0.500786 0.939574 0.000000
0.547539 0.940459 0.000000
0.593957 0.941222 0.000000
0.639979 0.941772 0.000000
0.686030 0.942077 0.000000
0.720577 0.935668 0.000000
0.751308 0.926574 0.000000
0.781857 0.916533 0.000000
0.811887 0.905547 0.000000
0.841184 0.893553 0.000000
0.869627 0.880491 0.000000
0.896910 0.866361 0.000000
0.922820 0.851102 0.000000
0.925841 0.813962 0.000000
0.952361 0.797757 0.000000
0.996399 0.796689 0.000000
1.000000 0.789853 0.000000
1.000000 0.781491 0.225071
0.306462 0.940856 0.267887
0.306462 0.940948 0.268009
0.306645 0.940978 0.268193
0.306950 0.941070 0.268467
0.307286 0.941222 0.268986
0.307774 0.941436 0.269566
0.308598 0.941711 0.270542
0.316655 0.943267 0.261662
0.332128 0.945953 0.242039
0.350042 0.948974 0.215885
0.370672 0.952209 0.180026
0.394141 0.955688 0.123995
0.420630 0.959228 0.000000
0.455482 0.961730 0.000000
0.500542 0.962066 0.000000
