其他预设/【233】日式怀旧街道调色预设208款/1.3D LUT预设（视频调色-PR-AE-PS-FCPX-达芬奇用）/2.富士胶片风-日式城市街拍预设/JA – Warm Bright 1 (Classic Chrome).cube
# Created by Adobe Lightroom plugin Export LUT (1.17.0)
# www.johnrellis.com/lightroom/exportlut.htm
# Preset: JA – Warm Bright 1 (Classic Chrome)
# Color profile: /Library/Application Support/Adobe/Color/Profiles/Recommended/AdobeRGB1998.icc
LUT_3D_SIZE 8
DOMAIN_MIN 0.000000 0.000000 0.000000
DOMAIN_MAX 0.903226 0.903226 0.903226
0.112276 0.101625 0.094667
0.171359 0.097078 0.093080
0.360235 0.060487 0.077546
0.588312 0.000000 0.000000
0.768154 0.000000 0.000000
0.903532 0.000000 0.000000
0.999542 0.000000 0.000000
1.000000 0.000000 0.000000
0.108461 0.159701 0.089723
0.173404 0.159731 0.084413
0.360876 0.163516 0.059907
0.588037 0.158938 0.000000
0.767361 0.137789 0.000000
0.901335 0.102327 0.000000
0.997253 0.000000 0.000000
1.000000 0.000000 0.000000
0.070649 0.341588 0.013001
0.192233 0.343877 0.000000
0.372900 0.347478 0.000000
0.592065 0.354223 0.000000
0.768704 0.333257 0.000000
0.903685 0.306188 0.000000
0.999145 0.264469 0.000000
1.000000 0.203433 0.000000
0.000000 0.556268 0.000000
0.169345 0.556664 0.000000
0.391150 0.559655 0.000000
0.600427 0.568322 0.000000
0.781125 0.543328 0.000000
0.906584 0.481941 0.000000
0.996063 0.430213 0.000000
1.000000 0.369024 0.000000
0.000000 0.728267 0.000000
0.086305 0.728115 0.000000
0.358892 0.728481 0.000000
0.566735 0.729610 0.000000
0.757992 0.727291 0.000000
0.902831 0.685420 0.000000
0.989197 0.603296 0.000000
1.000000 0.514763 0.000000
0.000000 0.858244 0.000000
0.000000 0.859800 0.000000
0.309361 0.858335 0.000000
0.515373 0.855680 0.000000
0.698421 0.850217 0.000000
0.868009 0.842802 0.000000
0.981506 0.788571 0.000000
1.000000 0.683375 0.000000
0.000000 0.950469 0.000000
0.000000 0.949889 0.000000
0.249180 0.946624 0.000000
0.450935 0.941039 0.000000
0.625910 0.932341 0.000000
0.782956 0.921050 0.000000
0.927794 0.907317 0.000000
1.000000 0.848447 0.000000
0.000000 0.999420 0.000000
0.000000 0.998596 0.000000
0.165896 0.995666 0.000000
0.377111 0.990326 0.000000
0.544244 0.981018 0.000000
0.694240 0.970001 0.000000
0.828733 0.956847 0.000000
0.955352 0.940917 0.000000
0.119753 0.107546 0.146792
0.172122 0.095155 0.146975
0.353674 0.000000 0.138491
0.583368 0.000000 0.097505
0.764279 0.000000 0.000000
0.899077 0.000000 0.000000
0.996429 0.000000 0.000000
1.000000 0.000000 0.000000
0.115633 0.155520 0.146181
0.173373 0.157321 0.146548
0.362707 0.142031 0.127291
0.587732 0.116579 0.079286
0.765469 0.089052 0.000000
0.898741 0.064973 0.000000
0.994842 0.008698 0.000000
1.000000 0.000000 0.000000
0.026337 0.335454 0.155337
0.149752 0.343297 0.118166
0.372198 0.346593 0.074128
0.592370 0.333745 0.000000
0.767971 0.312810 0.000000
0.900389 0.289677 0.000000
0.995392 0.263218 0.000000
1.000000 0.200961 0.000000
0.000000 0.551232 0.102327
0.072663 0.555108 0.000000
0.373388 0.558862 0.000000
0.594293 0.561944 0.000000
0.773495 0.527367 0.000000
0.899901 0.464118 0.000000
0.992309 0.424445 0.000000
1.000000 0.366369 0.000000
0.000000 0.726467 0.000000
0.000000 0.726680 0.000000
0.337255 0.726223 0.000000
0.556237 0.725521 0.000000
0.752987 0.722133 0.000000
0.899870 0.677180 0.000000
0.987793 0.596521 0.000000
1.000000 0.512413 0.000000
0.000000 0.855741 0.000000
0.000000 0.855528 0.000000
0.290654 0.854459 0.000000
0.504936 0.852689 0.000000
0.693080 0.848325 0.000000
0.867124 0.841703 0.000000
0.981231 0.784817 0.000000
1.000000 0.681056 0.000000
0.000000 0.948272 0.000000
0.000000 0.947234 0.000000
0.236545 0.944457 0.000000
0.443488 0.939666 0.000000
0.620661 0.931640 0.000000
0.779934 0.920378 0.000000
0.926940 0.906310 0.000000
1.000000 0.846403 0.000000
0.000000 0.998474 0.000000
0.000000 0.997803 0.000000
0.161349 0.995087 0.000000
0.371435 0.990082 0.000000
0.538445 0.981903 0.000000
0.691829 0.970428 0.000000
0.828702 0.956725 0.000000
0.955749 0.940642 0.000000
0.130861 0.112978 0.318639
0.203708 0.091035 0.319554
0.357702 0.000000 0.311864
0.565026 0.000000 0.307042
0.755459 0.000000 0.264683
0.895903 0.000000 0.236149
0.995666 0.000000 0.173495
1.000000 0.000000 0.000000
0.131197 0.190524 0.317235
0.190494 0.169955 0.320073
0.361242 0.111482 0.314488
0.570855 0.000000 0.299992
0.757595 0.000000 0.258427
0.895628 0.000000 0.228336
0.994842 0.000000 0.161013
1.000000 0.000000 0.000000
0.079622 0.329839 0.314855
0.173983 0.331975 0.316045
0.366217 0.335515 0.315221
0.590723 0.312779 0.287388
0.769039 0.285100 0.248661
0.901213 0.252750 0.198276
0.995911 0.207828 0.113741
1.000000 0.134951 0.000000
0.000000 0.539696 0.328740
0.000000 0.544884 0.319615
0.333227 0.557977 0.280247
0.595056 0.561028 0.229679
0.775051 0.502495 0.204471
0.902312 0.448829 0.160067
0.994354 0.398230 0.000000
1.000000 0.336095 0.000000
0.000000 0.717220 0.300298
0.000000 0.719448 0.288762
0.304448 0.724849 0.247715
0.545098 0.725978 0.211612
0.755245 0.723415 0.115114
0.901915 0.663600 0.000000
0.988922 0.574975 0.000000
1.000000 0.495003 0.000000
0.000000 0.849912 0.261906
0.000000 0.850462 0.254490
0.281407 0.851652 0.218631
0.495766 0.850309 0.176638
0.687037 0.846799 0.067231
0.866361 0.840391 0.000000
0.981140 0.774624 0.000000
1.000000 0.667262 0.000000
0.000000 0.944884 0.233982
0.000000 0.943847 0.234531
0.262119 0.942199 0.192752
0.447150 0.937774 0.135958
0.616754 0.930632 0.000000
0.776211 0.920256 0.000000
0.927367 0.906554 0.000000
1.000000 0.840269 0.000000
0.000000 0.994232 0.220645
0.118227 0.993103 0.222660
0.233768 0.992004 0.156008
0.389532 0.988098 0.000000
0.536095 0.981292 0.000000
0.682948 0.971099 0.000000
0.825040 0.957275 0.000000
0.958007 0.940520 0.000000
0.149355 0.126986 0.523827
0.226383 0.108125 0.523766
0.385229 0.000000 0.519738
0.563287 0.000000 0.504509
0.720821 0.000000 0.466560
0.873014 0.000000 0.434882
0.979492 0.000000 0.411749
1.000000 0.264073 0.415412
0.146792 0.210727 0.526421
0.221073 0.196902 0.525780
0.379370 0.126802 0.521782
0.566247 0.000000 0.507195
0.724666 0.000000 0.466377
0.873411 0.000000 0.436744
0.977905 0.179538 0.418952
1.000000 0.270024 0.405798
0.209140 0.382208 0.519005
0.274907 0.385016 0.519554
0.384161 0.352575 0.522789
0.572503 0.291905 0.512016
0.736019 0.297276 0.474250
0.877531 0.334081 0.458656
0.976135 0.372656 0.449226
1.000000 0.314672 0.381994
0.026246 0.530327 0.514519
0.181613 0.531701 0.515373
0.379583 0.536217 0.517021
0.581292 0.542748 0.517510
0.751064 0.526085 0.495674
0.883513 0.502159 0.464698
0.979065 0.462745 0.416754
1.000000 0.388098 0.331182
0.000000 0.701778 0.500908
0.000000 0.702937 0.498512
0.330694 0.706813 0.493629
0.554589 0.713802 0.491066
0.751797 0.717830 0.457923
0.889311 0.660487 0.434760
0.977356 0.596063 0.392248
1.000000 0.512444 0.289158
0.000000 0.840879 0.467781
0.000000 0.842496 0.467353
0.333532 0.841825 0.467079
0.530449 0.842374 0.466529
0.699702 0.842374 0.444404
0.866056 0.838865 0.395514
0.973053 0.768582 0.336675
1.000000 0.659998 0.234195
0.000000 0.939391 0.433539
0.129580 0.938598 0.434699
0.347662 0.934966 0.444465
0.509453 0.930449 0.445289
0.646265 0.925353 0.416907
0.785855 0.917266 0.368994
0.927031 0.905211 0.288823
1.000000 0.830961 0.074372
0.140414 0.990875 0.405158
0.218601 0.989502 0.410040
0.371710 0.984436 0.428962
0.486275 0.979553 0.421851
0.587030 0.974609 0.375555
0.701045 0.967193 0.289220
0.826047 0.955871 0.125856
0.958068 0.940063 0.000000
0.202823 0.184604 0.689174
0.257511 0.173434 0.688472
0.387488 0.112032 0.684352
0.546349 0.000000 0.676753
0.719356 0.000000 0.661921
0.848447 0.000000 0.611048
0.961212 0.000000 0.573480
1.000000 0.249668 0.547021
0.223728 0.257755 0.689509
0.269871 0.247898 0.689204
0.389105 0.203708 0.685420
0.544579 0.000000 0.677363
0.720180 0.000000 0.662745
0.848325 0.000000 0.610895
0.960601 0.120241 0.576074
1.000000 0.299016 0.552605
0.321263 0.428016 0.687221
0.353857 0.425635 0.687709
0.418647 0.388800 0.685206
0.548791 0.323278 0.679408
0.721767 0.268650 0.663935
0.845029 0.282689 0.611933
0.957092 0.343725 0.587854
1.000000 0.423651 0.572808
0.326116 0.554101 0.681117
0.371069 0.557702 0.681270
0.492561 0.572137 0.681910
0.590387 0.554864 0.681147
0.725765 0.507225 0.667201
0.848814 0.508659 0.630152
0.951415 0.537957 0.618372
1.000000 0.581964 0.620203
0.216220 0.683131 0.672206
0.278447 0.683925 0.672511
0.425452 0.686458 0.672755
0.588067 0.691432 0.673610
0.733211 0.697810 0.674372
0.860960 0.684291 0.655512
0.951568 0.660731 0.626184
1.000000 0.613458 0.572747
0.000000 0.821408 0.646479
0.125093 0.820951 0.645838
0.349432 0.820401 0.644587
0.540307 0.821164 0.646143
0.706142 0.826413 0.646937
0.859037 0.831418 0.627497
0.952117 0.774594 0.601953
1.000000 0.702205 0.545556
0.101595 0.930083 0.608484
0.202121 0.928985 0.608759
0.370672 0.925444 0.611231
0.540093 0.919768 0.619196
0.685603 0.914336 0.626368
0.803311 0.909667 0.607660
0.923552 0.901640 0.567102
0.999939 0.830625 0.488869
0.235325 0.984894 0.564782
0.283940 0.983551 0.567071
0.404791 0.978820 0.575647
0.549340 0.971008 0.595911
0.665705 0.962890 0.606012
0.748257 0.957580 0.570733
0.844236 0.949554 0.513085
0.955993 0.937072 0.416358
0.293431 0.278782 0.819852
0.323613 0.271733 0.819272
0.410224 0.240452 0.816678
0.532769 0.152895 0.813474
0.680049 0.000000 0.807004
0.839658 0.000000 0.792874
0.946014 0.000000 0.735775
1.000000 0.226444 0.681880
0.320592 0.333349 0.817685
0.344976 0.326207 0.817136
0.420935 0.296941 0.815122
0.535637 0.227970 0.812161
0.678737 0.000000 0.805783
0.838682 0.000000 0.791867
0.944640 0.018311 0.735409
1.000000 0.274113 0.683589
0.409094 0.473884 0.816739
0.423041 0.468025 0.816312
0.472267 0.445991 0.814847
0.558618 0.398840 0.811826
0.682490 0.302892 0.805386
0.838529 0.273655 0.791653
0.940978 0.310460 0.736782
1.000000 0.397803 0.691646
0.498939 0.615137 0.811917
0.514916 0.615167 0.811704
0.565728 0.614588 0.811948
0.615900 0.585351 0.811398
0.701442 0.525780 0.805783
0.839384 0.488930 0.792905
0.934997 0.494118 0.741360
0.994263 0.546471 0.709926
0.454566 0.694697 0.806332
0.481514 0.697261 0.806302
0.562860 0.706630 0.806271
0.669734 0.723507 0.806943
0.738491 0.708217 0.805051
0.838254 0.661860 0.792081
0.927367 0.660792 0.752773
0.979828 0.696651 0.744320
0.363897 0.801480 0.798245
0.397467 0.802274 0.798550
0.491463 0.803861 0.798337
0.611322 0.806668 0.798123
0.731655 0.811032 0.798245
0.844968 0.818509 0.800748
0.924102 0.808896 0.786923
0.973449 0.785824 0.759335
0.260166 0.919310 0.774380
0.303410 0.918517 0.774075
0.412970 0.915099 0.772000
0.547662 0.909850 0.768490
0.694118 0.903899 0.768460
0.827787 0.898772 0.783047
0.917754 0.897795 0.771115
0.972320 0.851682 0.736294
0.316320 0.977752 0.716487
0.349950 0.976501 0.717037
0.445106 0.972229 0.719203
0.568261 0.965087 0.725154
0.698665 0.954955 0.740352
0.812161 0.944305 0.766293
0.875029 0.940124 0.744594
0.950408 0.932860 0.700374
0.425605 0.408240 0.901701
0.438544 0.403662 0.901732
0.480903 0.383948 0.901610
0.551537 0.338323 0.901427
0.649500 0.239933 0.900633
0.778439 0.000000 0.897734
0.922362 0.000000 0.889738
0.994507 0.221866 0.819638
0.449561 0.445716 0.900114
0.460334 0.440711 0.900206
0.496925 0.421057 0.900175
0.560815 0.378149 0.899962
0.653101 0.291997 0.899351
0.778347 0.118990 0.896727
0.921355 0.092744 0.888640
0.993164 0.265049 0.819364
0.518975 0.546960 0.896666
0.525475 0.542504 0.896696
0.549615 0.525750 0.896696
0.596216 0.491585 0.896696
0.670375 0.427710 0.896361
0.780972 0.320562 0.894774
0.919646 0.313664 0.886931
0.989319 0.384375 0.820737
0.606806 0.665919 0.890959
0.615839 0.666224 0.890867
0.632990 0.657069 0.891295
0.657252 0.631098 0.891600
0.705013 0.585779 0.891630
0.788632 0.502312 0.891173
0.916564 0.487556 0.884031
0.982361 0.521660 0.823331
0.631708 0.740352 0.886320
0.645472 0.743648 0.885985
0.690700 0.755673 0.884977
0.731807 0.757809 0.885252
0.757351 0.731899 0.885924
0.805631 0.674830 0.885344
0.911894 0.642359 0.879484
0.971984 0.659937 0.829129
0.586206 0.795956 0.884611
0.601373 0.797604 0.884398
0.650233 0.803494 0.883696
0.722530 0.814298 0.882689
0.803586 0.831327 0.881743
0.848295 0.826383 0.881224
0.907378 0.790982 0.875517
0.957488 0.798917 0.848203
0.511864 0.878660 0.881498
0.529686 0.878904 0.881346
0.584588 0.879759 0.880766
0.664576 0.881315 0.879911
0.757870 0.883604 0.878691
0.846311 0.886778 0.877806
0.908995 0.891203 0.878996
0.948730 0.885679 0.871061
0.442237 0.966247 0.856260
0.461982 0.965270 0.855802
0.523095 0.962066 0.854520
0.608881 0.956695 0.852171
0.710536 0.948913 0.850889
0.824826 0.938354 0.858030
0.901152 0.931884 0.870848
0.943816 0.929564 0.863340
0.597742 0.575891 0.939757
0.601282 0.572320 0.939910
0.613367 0.557977 0.940459
0.637201 0.528252 0.941619
0.676936 0.473213 0.943450
0.740047 0.366949 0.946014
0.843534 0.257847 0.946105
0.964233 0.264714 0.941863
0.612634 0.596857 0.938506
0.615778 0.593500 0.938659
0.626398 0.579522 0.939300
0.647639 0.550835 0.940490
0.684077 0.498207 0.942382
0.743771 0.399329 0.945037
0.844144 0.296727 0.945373
0.963561 0.300816 0.941192
0.657862 0.658808 0.934813
0.659754 0.655665 0.934997
0.666529 0.643458 0.935637
0.682155 0.619745 0.936950
0.709590 0.575769 0.938933
0.757687 0.494881 0.941802
0.846860 0.403174 0.943023
0.961486 0.401953 0.939086
0.729244 0.746517 0.928893
0.727413 0.742061 0.929290
0.728450 0.731380 0.930053
0.735439 0.712551 0.931395
0.750668 0.678737 0.933471
0.782925 0.618952 0.936492
0.852262 0.533440 0.939147
0.957946 0.528222 0.935607
0.767910 0.805173 0.923980
0.771908 0.805905 0.924041
0.784360 0.807462 0.924132
0.802884 0.807858 0.924620
0.803952 0.782742 0.926757
0.818936 0.742611 0.929595
0.861143 0.665278 0.933806
0.952880 0.661372 0.930602
0.762936 0.835843 0.922972
0.769741 0.837736 0.922728
0.792081 0.844175 0.921843
0.826200 0.854978 0.920531
0.853971 0.860716 0.920531
0.866117 0.847929 0.922545
0.885679 0.810941 0.925597
0.946654 0.791806 0.924651
0.728511 0.867521 0.923583
0.736110 0.868528 0.923400
0.761135 0.872099 0.922698
0.800717 0.878447 0.921569
0.847044 0.887419 0.920195
0.889525 0.897612 0.919005
0.911711 0.896696 0.920104
0.941863 0.880613 0.920165
0.669764 0.919493 0.923430
0.678492 0.919646 0.923308
0.708125 0.920195 0.922789
0.756374 0.921263 0.921965
0.814359 0.922789 0.920928
0.868742 0.924498 0.919921
0.911009 0.926238 0.919310
0.940490 0.928008 0.919432
