其他预设/【233】日式怀旧街道调色预设208款/1.3D LUT预设（视频调色-PR-AE-PS-FCPX-达芬奇用）/2.富士胶片风-日式城市街拍预设/JA – Cityscape Pop 4 (Classic Chrome).cube
# Created by Adobe Lightroom plugin Export LUT (1.17.0)
# www.johnrellis.com/lightroom/exportlut.htm
# Preset: JA – Cityscape Pop 4 (Classic Chrome)
# Color profile: /Library/Application Support/Adobe/Color/Profiles/Recommended/AdobeRGB1998.icc
LUT_3D_SIZE 8
DOMAIN_MIN 0.000000 0.000000 0.000000
DOMAIN_MAX 0.903226 0.903226 0.903226
0.079744 0.086580 0.090974
0.087160 0.086030 0.091096
0.141207 0.076295 0.090761
0.290990 0.034607 0.082979
0.531456 0.000000 0.001648
0.732967 0.000000 0.000000
0.885679 0.000000 0.000000
0.978302 0.000000 0.000000
0.079469 0.092042 0.091341
0.087892 0.092561 0.091096
0.142031 0.093111 0.090272
0.289647 0.097414 0.079805
0.527611 0.101869 0.000000
0.727565 0.095796 0.000000
0.880400 0.066621 0.000000
0.975952 0.000000 0.000000
0.075776 0.130251 0.091005
0.092012 0.132876 0.090547
0.157992 0.148348 0.086275
0.309850 0.189822 0.060731
0.541436 0.234745 0.000000
0.739101 0.247471 0.000000
0.889494 0.237888 0.000000
0.979370 0.207309 0.000000
0.076387 0.239597 0.076539
0.110719 0.243198 0.073793
0.202182 0.267216 0.053376
0.394354 0.343633 0.000000
0.612390 0.392370 0.000000
0.760494 0.388830 0.000000
0.893950 0.374334 0.000000
0.978943 0.340795 0.000000
0.053712 0.425299 0.000000
0.128542 0.430091 0.000000
0.254398 0.447700 0.000000
0.443580 0.512352 0.000000
0.670192 0.563958 0.000000
0.808591 0.541833 0.000000
0.898100 0.503807 0.000000
0.977783 0.464698 0.000000
0.005829 0.611017 0.000000
0.140871 0.617762 0.000000
0.286625 0.626062 0.000000
0.448096 0.645930 0.000000
0.662165 0.702296 0.000000
0.849393 0.709926 0.000000
0.930388 0.646357 0.000000
0.983398 0.587366 0.000000
0.064363 0.769955 0.000000
0.158389 0.772000 0.000000
0.302007 0.774899 0.000000
0.455299 0.780789 0.000000
0.629236 0.801816 0.000000
0.814481 0.826902 0.000000
0.943481 0.792782 0.000000
0.989715 0.712795 0.000000
0.156100 0.889738 0.000000
0.206577 0.889677 0.000000
0.323064 0.889891 0.000000
0.460090 0.890593 0.000000
0.597436 0.886229 0.000000
0.752926 0.894072 0.000000
0.901335 0.896178 0.189120
0.984649 0.849546 0.357610
0.079866 0.087465 0.099428
0.086427 0.086458 0.098848
0.142184 0.081361 0.095918
0.290867 0.081971 0.085328
0.527459 0.100740 0.000000
0.724910 0.097658 0.000000
0.877867 0.027222 0.000000
0.974334 0.000000 0.000000
0.078248 0.093324 0.100008
0.088075 0.095857 0.100343
0.145205 0.098146 0.096834
0.293858 0.113985 0.082429
0.528191 0.146181 0.000000
0.723445 0.153567 0.000000
0.874266 0.129030 0.000000
0.971893 0.048249 0.000000
0.075410 0.133883 0.105257
0.090547 0.140200 0.101442
0.161990 0.153536 0.096193
0.312139 0.193057 0.067262
0.541314 0.246128 0.000000
0.731777 0.265080 0.000000
0.879820 0.252873 0.000000
0.974548 0.218021 0.000000
0.020905 0.245823 0.098787
0.090394 0.251987 0.091646
0.196139 0.271824 0.078767
0.388525 0.339940 0.000000
0.596368 0.383825 0.000000
0.745174 0.389227 0.000000
0.883818 0.377844 0.000000
0.974395 0.344305 0.000000
0.000000 0.434699 0.000000
0.080140 0.438178 0.000000
0.240757 0.453010 0.000000
0.430915 0.506950 0.000000
0.659510 0.556359 0.000000
0.802029 0.539055 0.000000
0.894652 0.505333 0.000000
0.975311 0.465827 0.000000
0.000000 0.611780 0.000000
0.077638 0.614466 0.000000
0.264958 0.622766 0.000000
0.433265 0.640101 0.000000
0.653498 0.698665 0.000000
0.847379 0.709133 0.000000
0.929473 0.647150 0.000000
0.982208 0.587640 0.000000
0.000000 0.766201 0.000000
0.105379 0.766415 0.000000
0.281224 0.770321 0.000000
0.443122 0.778042 0.000000
0.621027 0.799161 0.000000
0.811246 0.825071 0.000000
0.941588 0.791196 0.000000
0.988281 0.711696 0.000000
0.125124 0.887846 0.000000
0.186221 0.888212 0.000000
0.311711 0.888731 0.000000
0.452979 0.889738 0.000000
0.597131 0.888762 0.000000
0.753994 0.894987 0.000000
0.900999 0.896056 0.187198
0.984375 0.849088 0.353918
0.076143 0.091310 0.150423
0.090150 0.091676 0.154025
0.138064 0.091341 0.158053
0.267491 0.016907 0.174014
0.547265 0.000000 0.130739
0.741512 0.000000 0.082521
0.887144 0.000000 0.000000
0.978332 0.000000 0.000000
0.071321 0.098817 0.151888
0.088869 0.103822 0.158206
0.142611 0.105715 0.162936
0.286290 0.056641 0.171847
0.548150 0.000000 0.130892
0.739315 0.000000 0.074983
0.884703 0.009644 0.000000
0.977111 0.113832 0.000000
0.062715 0.145876 0.163088
0.080293 0.150607 0.166842
0.157565 0.169680 0.177554
0.330663 0.171298 0.155886
0.564385 0.191623 0.118257
0.746548 0.210575 0.018128
0.886992 0.226413 0.000000
0.977111 0.233951 0.000000
0.000000 0.258640 0.198611
0.000000 0.269749 0.198093
0.163088 0.303075 0.175570
0.396826 0.356634 0.169589
0.595331 0.364172 0.074037
0.758602 0.366369 0.000000
0.891752 0.364569 0.000000
0.977813 0.352605 0.000000
0.000000 0.445716 0.227543
0.000000 0.457008 0.214267
0.170199 0.485145 0.162203
0.407294 0.519188 0.143374
0.662928 0.567071 0.134463
0.800809 0.531334 0.000000
0.895933 0.497261 0.000000
0.977691 0.470527 0.000000
0.000000 0.621027 0.212711
0.000000 0.627802 0.191348
0.186862 0.639826 0.149416
0.403662 0.651667 0.125704
0.634638 0.699519 0.108522
0.840787 0.712856 0.142672
0.926604 0.646845 0.000000
0.984009 0.590997 0.000000
0.000000 0.774350 0.195834
0.000000 0.776577 0.169589
0.221012 0.779294 0.160494
0.415198 0.784817 0.139742
0.600153 0.798428 0.118379
0.800381 0.826047 0.152682
0.937346 0.798001 0.212253
0.990356 0.715694 0.000000
0.073518 0.889067 0.249485
0.150179 0.888884 0.243076
0.292668 0.889067 0.236545
0.442451 0.890715 0.231113
0.588556 0.889708 0.209873
0.748379 0.894774 0.228275
0.899199 0.896971 0.248783
0.984680 0.850889 0.362463
0.029236 0.098116 0.270695
0.082185 0.100008 0.280705
0.168368 0.096345 0.306401
0.281041 0.079011 0.312718
0.427344 0.000000 0.312108
0.701137 0.000000 0.318181
0.884825 0.000000 0.279179
0.976867 0.000000 0.225284
0.000000 0.108858 0.275547
0.069245 0.116030 0.287205
0.168215 0.119051 0.312261
0.289189 0.108736 0.321050
0.448493 0.000000 0.320073
0.711788 0.000000 0.312657
0.884001 0.000000 0.280613
0.976623 0.000000 0.219394
0.000000 0.166140 0.283635
0.000000 0.165805 0.290196
0.155795 0.186069 0.321721
0.314733 0.200381 0.345006
0.518883 0.155886 0.340337
0.750393 0.149386 0.322881
0.890593 0.176944 0.287755
0.978729 0.162325 0.216098
0.000000 0.278447 0.315740
0.000000 0.285405 0.322026
0.132113 0.312871 0.344793
0.360754 0.373907 0.384039
0.586389 0.361120 0.350011
0.758297 0.353155 0.315465
0.891173 0.342748 0.271641
0.978119 0.321416 0.205600
0.000000 0.458869 0.378424
0.000000 0.467567 0.380072
0.085420 0.497993 0.381903
0.369879 0.540307 0.381415
0.640742 0.583032 0.418433
0.782834 0.527428 0.315618
0.896422 0.490272 0.252445
0.977844 0.456306 0.190707
0.000000 0.626886 0.398352
0.000000 0.635584 0.397162
0.121645 0.652277 0.386175
0.383978 0.674311 0.381689
0.607477 0.701808 0.392889
0.823301 0.730007 0.455512
0.913085 0.662013 0.356573
0.978820 0.588281 0.196689
0.000000 0.773404 0.401556
0.000000 0.776486 0.398901
0.207553 0.785092 0.395605
0.407477 0.794553 0.391119
0.584070 0.800473 0.384619
0.784176 0.826810 0.432624
0.919860 0.814420 0.493751
0.977569 0.736995 0.380652
0.162875 0.887938 0.434668
0.217777 0.888182 0.436530
0.342443 0.888212 0.443336
0.455451 0.889677 0.428565
0.592065 0.889250 0.421973
0.740597 0.891752 0.434668
0.886656 0.896666 0.477546
0.973602 0.861601 0.508873
0.000000 0.110719 0.441657
0.016358 0.115999 0.452796
0.185306 0.113008 0.477668
0.337560 0.104768 0.521660
0.491402 0.033570 0.517998
0.589593 0.000000 0.459907
0.810819 0.000000 0.477089
0.950988 0.176822 0.476936
0.000000 0.125154 0.443305
0.000000 0.133516 0.455818
0.180850 0.139986 0.482124
0.338018 0.142245 0.524163
0.496223 0.117769 0.521935
0.593896 0.026947 0.461677
0.817288 0.000000 0.480812
0.951995 0.228611 0.482246
0.000000 0.169833 0.438972
0.000000 0.167880 0.449836
0.148531 0.208316 0.487465
0.338293 0.239841 0.528527
0.512352 0.249302 0.534539
0.617212 0.213046 0.474342
0.835660 0.251011 0.496223
0.953521 0.352605 0.503197
0.000000 0.297581 0.465003
0.000000 0.298802 0.470100
0.023926 0.305211 0.488746
0.350469 0.375311 0.532341
0.543786 0.421851 0.558038
0.688075 0.405432 0.527520
0.864561 0.445045 0.536461
0.955840 0.451453 0.511681
0.000000 0.447852 0.498848
0.000000 0.453620 0.503746
0.026703 0.474922 0.519493
0.357214 0.519005 0.547601
0.584192 0.583703 0.587335
0.749264 0.570397 0.561913
0.874083 0.554192 0.532403
0.959258 0.524071 0.488014
0.000000 0.622644 0.540307
0.000000 0.627588 0.541772
0.062470 0.641749 0.546075
0.372290 0.665156 0.557488
0.576135 0.695857 0.571405
0.790951 0.739559 0.623926
0.886168 0.682704 0.546166
0.961151 0.625910 0.475593
0.000000 0.768826 0.555230
0.000000 0.770748 0.554650
0.196109 0.777523 0.555474
0.409918 0.788693 0.562005
0.581323 0.801785 0.567102
0.755581 0.819303 0.590265
0.897917 0.829801 0.660883
0.957153 0.767391 0.573632
0.171939 0.882628 0.571130
0.221530 0.882628 0.571344
0.338201 0.882689 0.573175
0.480690 0.884489 0.582330
0.601312 0.885832 0.578820
0.727413 0.885893 0.577020
0.870939 0.894469 0.630518
0.953368 0.877714 0.678004
0.000000 0.143771 0.601953
0.000000 0.154849 0.609613
0.200107 0.161624 0.625513
0.347265 0.178439 0.653712
0.517418 0.227817 0.691310
0.658869 0.220432 0.672297
0.750362 0.195132 0.613428
0.895995 0.290135 0.619593
0.000000 0.156344 0.598291
0.000000 0.166659 0.605066
0.194888 0.184421 0.623316
0.344976 0.203983 0.650965
0.517327 0.256596 0.689052
0.659876 0.254063 0.672511
0.750423 0.226444 0.613519
0.897490 0.314153 0.621729
0.000000 0.186770 0.595483
0.000000 0.196872 0.601404
0.167636 0.244205 0.623743
0.350927 0.288121 0.652949
0.528466 0.349981 0.689967
0.670405 0.357336 0.679896
0.754788 0.318120 0.618311
0.904509 0.393835 0.632990
0.000000 0.295903 0.598474
0.000000 0.293919 0.600671
0.000000 0.292607 0.610376
0.361791 0.394659 0.651667
0.551690 0.470008 0.692622
0.691768 0.489601 0.695399
0.763210 0.431891 0.627649
0.916136 0.509270 0.656336
0.000000 0.434882 0.617456
0.000000 0.436866 0.620050
0.000000 0.446540 0.629267
0.321263 0.476112 0.645441
0.557336 0.564660 0.682734
0.712062 0.610712 0.709255
0.814725 0.585657 0.674647
0.926482 0.640436 0.693965
0.000000 0.586145 0.642206
0.000000 0.590723 0.645441
0.121248 0.604761 0.653773
0.367590 0.632074 0.668910
0.559228 0.673579 0.693080
0.746029 0.736965 0.735531
0.856046 0.728939 0.719234
0.933074 0.712062 0.694728
0.000000 0.767178 0.690791
0.000000 0.769558 0.691951
0.205509 0.774990 0.693751
0.403296 0.783993 0.697108
0.575860 0.796902 0.703731
0.738033 0.814359 0.722286
0.876951 0.842313 0.775051
0.935332 0.797452 0.710964
0.204440 0.879026 0.698878
0.243992 0.878935 0.698604
0.345708 0.878996 0.697780
0.473243 0.879789 0.698451
0.609949 0.880247 0.703792
0.736751 0.882139 0.715969
0.854002 0.890043 0.742550
0.935851 0.891997 0.793362
0.000000 0.214664 0.741756
0.132692 0.229618 0.745937
0.255253 0.252140 0.755367
0.384527 0.284794 0.770840
0.529046 0.343297 0.790433
0.679225 0.429206 0.812467
0.787289 0.407630 0.791836
0.871458 0.412360 0.750454
0.000000 0.222171 0.738155
0.106050 0.236332 0.742245
0.254948 0.269657 0.752529
0.384466 0.301488 0.767697
0.529259 0.359045 0.787564
0.678523 0.441169 0.809964
0.785611 0.420172 0.789853
0.869078 0.418647 0.747738
0.000000 0.245060 0.735286
0.000000 0.257939 0.738582
0.238895 0.311315 0.749538
0.396277 0.363867 0.765774
0.540185 0.419013 0.785672
0.686519 0.494453 0.808927
0.790860 0.480232 0.793088
0.870695 0.466255 0.750698
0.000000 0.296513 0.727291
0.000000 0.295506 0.728084
0.022644 0.323796 0.739528
0.394568 0.431464 0.760037
0.555077 0.497902 0.782589
0.699031 0.567895 0.807980
0.799588 0.564202 0.798642
0.871763 0.529412 0.752560
0.000000 0.432258 0.737697
0.000000 0.432288 0.737881
0.000000 0.435309 0.739742
0.288273 0.448371 0.743984
0.544152 0.558587 0.771267
0.704616 0.635676 0.802090
0.807675 0.652033 0.802914
0.870756 0.598779 0.751034
0.000000 0.570489 0.752773
0.000000 0.572137 0.753384
0.138674 0.578912 0.755734
0.335637 0.593439 0.760250
0.500145 0.617975 0.767483
0.705348 0.702724 0.793393
0.823850 0.751186 0.814511
0.891997 0.730037 0.787533
0.000000 0.712856 0.771115
0.032227 0.715206 0.772030
0.246647 0.722072 0.774258
0.396643 0.734981 0.778744
0.549310 0.755215 0.786099
0.710292 0.787747 0.800778
0.846159 0.836057 0.833219
0.913085 0.831327 0.823117
0.212497 0.874235 0.812924
0.248234 0.874357 0.812375
0.347295 0.875639 0.811612
0.466773 0.876219 0.808957
0.598291 0.876219 0.806363
0.730922 0.877317 0.809445
0.838865 0.884855 0.822507
0.923919 0.901152 0.860472
0.326177 0.389563 0.861875
0.358038 0.405493 0.862455
0.427070 0.434821 0.863828
0.507164 0.463416 0.867735
0.603235 0.505058 0.872923
0.705287 0.560266 0.879118
0.803525 0.629206 0.886259
0.874083 0.597589 0.874632
0.315984 0.390784 0.860594
0.348486 0.406348 0.861204
0.430243 0.445167 0.862608
0.508843 0.472175 0.866392
0.604456 0.512963 0.871763
0.706050 0.567132 0.878172
0.803738 0.634699 0.885405
0.873747 0.603754 0.874022
0.275120 0.395148 0.858854
0.311101 0.409216 0.859312
0.413886 0.457191 0.860166
0.518761 0.505669 0.864500
0.612238 0.543481 0.869902
0.711482 0.593896 0.876463
0.807553 0.658808 0.884245
0.874754 0.631617 0.873991
0.122621 0.391424 0.856962
0.195071 0.404944 0.857572
0.338903 0.450752 0.858579
0.506371 0.533288 0.861326
0.620081 0.586145 0.867063
0.719722 0.634791 0.874479
0.814023 0.695766 0.883146
0.877317 0.676112 0.874907
0.132326 0.478370 0.856718
0.172213 0.479744 0.856870
0.259495 0.482124 0.856107
0.377569 0.500084 0.858183
0.600641 0.614038 0.862119
0.722011 0.675563 0.870634
0.819242 0.734859 0.881254
0.881010 0.729946 0.876371
0.217197 0.593652 0.861479
0.239933 0.594263 0.861112
0.306279 0.596490 0.860288
0.397436 0.600855 0.859403
0.505821 0.609857 0.858366
0.708248 0.709773 0.865019
0.824857 0.777798 0.879576
0.886442 0.788022 0.879423
0.305180 0.710018 0.868040
0.321660 0.710780 0.867857
0.374365 0.713649 0.867338
0.455818 0.719936 0.866941
0.556054 0.730556 0.866392
0.671778 0.749569 0.865812
0.815976 0.809720 0.872374
0.892973 0.843137 0.883726
0.393835 0.820951 0.874662
0.406439 0.821622 0.874510
0.450019 0.824491 0.874266
0.521538 0.830320 0.874174
0.614160 0.839231 0.873991
0.717372 0.851682 0.874205
0.817868 0.868620 0.877440
0.906889 0.898741 0.896178
