其他预设/【237】莫兰迪灰色调LR预设合集/Kawaii/Camera Raw/Kawaii no.2.xmp
<x:xmpmeta xmlns:x="adobe:ns:meta/" x:xmptk="Adobe XMP Core 5.6-c140 79.160451, 2017/05/06-01:08:21        ">
 <rdf:RDF xmlns:rdf="http://www.w3.org/1999/02/22-rdf-syntax-ns#">
  <rdf:Description rdf:about=""
    xmlns:crs="http://ns.adobe.com/camera-raw-settings/1.0/"
   crs:Version="10.3"
   crs:ProcessVersion="10.0"
   crs:WhiteBalance="Custom"
   crs:IncrementalTemperature="+2"
   crs:IncrementalTint="-19"
   crs:Saturation="+20"
   crs:Sharpness="29"
   crs:LuminanceSmoothing="35"
   crs:ColorNoiseReduction="30"
   crs:VignetteAmount="0"
   crs:ShadowTint="0"
   crs:RedHue="+24"
   crs:RedSaturation="-33"
   crs:GreenHue="+42"
   crs:GreenSaturation="-28"
   crs:BlueHue="-38"
   crs:BlueSaturation="+7"
   crs:Vibrance="-14"
   crs:HueAdjustmentRed="+5"
   crs:HueAdjustmentOrange="0"
   crs:HueAdjustmentYellow="0"
   crs:HueAdjustmentGreen="+51"
   crs:HueAdjustmentAqua="-34"
   crs:HueAdjustmentBlue="-26"
   crs:HueAdjustmentPurple="+14"
   crs:HueAdjustmentMagenta="+32"
   crs:SaturationAdjustmentRed="-21"
   crs:SaturationAdjustmentOrange="+15"
   crs:SaturationAdjustmentYellow="-32"
   crs:SaturationAdjustmentGreen="-30"
   crs:SaturationAdjustmentAqua="0"
   crs:SaturationAdjustmentBlue="-50"
   crs:SaturationAdjustmentPurple="-40"
   crs:SaturationAdjustmentMagenta="+4"
   crs:LuminanceAdjustmentRed="-28"
   crs:LuminanceAdjustmentOrange="-20"
   crs:LuminanceAdjustmentYellow="+25"
   crs:LuminanceAdjustmentGreen="+51"
   crs:LuminanceAdjustmentAqua="+23"
   crs:LuminanceAdjustmentBlue="+12"
   crs:LuminanceAdjustmentPurple="+7"
   crs:LuminanceAdjustmentMagenta="+2"
   crs:SplitToningShadowHue="0"
   crs:SplitToningShadowSaturation="0"
   crs:SplitToningHighlightHue="0"
   crs:SplitToningHighlightSaturation="0"
   crs:SplitToningBalance="0"
   crs:ParametricShadows="0"
   crs:ParametricDarks="0"
   crs:ParametricLights="0"
   crs:ParametricHighlights="0"
   crs:ParametricShadowSplit="14"
   crs:ParametricMidtoneSplit="60"
   crs:ParametricHighlightSplit="75"
   crs:SharpenRadius="+1.1"
   crs:SharpenDetail="25"
   crs:SharpenEdgeMasking="0"
   crs:PostCropVignetteAmount="0"
   crs:GrainAmount="0"
   crs:LuminanceNoiseReductionDetail="50"
   crs:ColorNoiseReductionDetail="55"
   crs:LuminanceNoiseReductionContrast="0"
   crs:ColorNoiseReductionSmoothness="54"
   crs:LensProfileEnable="0"
   crs:LensManualDistortionAmount="0"
   crs:PerspectiveVertical="0"
   crs:PerspectiveHorizontal="0"
   crs:PerspectiveRotate="0.0"
   crs:PerspectiveScale="100"
   crs:PerspectiveAspect="0"
   crs:PerspectiveUpright="0"
   crs:PerspectiveX="0.00"
   crs:PerspectiveY="0.00"
   crs:AutoLateralCA="0"
   crs:Exposure2012="+0.40"
   crs:Contrast2012="+5"
   crs:Highlights2012="-44"
   crs:Shadows2012="+45"
   crs:Whites2012="-27"
   crs:Blacks2012="+71"
   crs:Clarity2012="+11"
   crs:DefringePurpleAmount="0"
   crs:DefringePurpleHueLo="30"
   crs:DefringePurpleHueHi="70"
   crs:DefringeGreenAmount="0"
   crs:DefringeGreenHueLo="40"
   crs:DefringeGreenHueHi="60"
   crs:Dehaze="0"
   crs:ConvertToGrayscale="False"
   crs:OverrideLookVignette="False"
   crs:ToneCurveName2012="Custom"
   crs:CameraProfile="Embedded"
   crs:CameraProfileDigest="54650A341B5B5CCAE8442D0B43A92BCE"
   crs:LensProfileSetup="LensDefaults"
   crs:HasSettings="True">
   <crs:ToneCurvePV2012>
    <rdf:Seq>
     <rdf:li>1, 25</rdf:li>
     <rdf:li>49, 55</rdf:li>
     <rdf:li>93, 96</rdf:li>
     <rdf:li>173, 170</rdf:li>
     <rdf:li>255, 255</rdf:li>
    </rdf:Seq>
   </crs:ToneCurvePV2012>
   <crs:ToneCurvePV2012Red>
    <rdf:Seq>
     <rdf:li>0, 0</rdf:li>
     <rdf:li>56, 38</rdf:li>
     <rdf:li>123, 122</rdf:li>
     <rdf:li>186, 200</rdf:li>
     <rdf:li>255, 255</rdf:li>
    </rdf:Seq>
   </crs:ToneCurvePV2012Red>
   <crs:ToneCurvePV2012Green>
    <rdf:Seq>
     <rdf:li>0, 0</rdf:li>
     <rdf:li>43, 22</rdf:li>
     <rdf:li>119, 121</rdf:li>
     <rdf:li>183, 195</rdf:li>
     <rdf:li>255, 255</rdf:li>
    </rdf:Seq>
   </crs:ToneCurvePV2012Green>
   <crs:ToneCurvePV2012Blue>
    <rdf:Seq>
     <rdf:li>0, 0</rdf:li>
     <rdf:li>43, 22</rdf:li>
     <rdf:li>115, 126</rdf:li>
     <rdf:li>180, 200</rdf:li>
     <rdf:li>255, 255</rdf:li>
    </rdf:Seq>
   </crs:ToneCurvePV2012Blue>
   <crs:Look
    crs:Name=""/>
  </rdf:Description>
 </rdf:RDF>
</x:xmpmeta>
