其他预设/【233】日式怀旧街道调色预设208款/2.LR预设文件/1.日式城市街拍预设/JA – Static Pop 2.lrtemplate
s = {
	id = "E10AE0A3-1FE6-4A45-B619-C756CF6D9F44",
	internalName = "JA — Static Pop 2",
	title = "JA – Static Pop 2",
	type = "Develop",
	value = {
		settings = {
			Blacks2012 = -39,
			BlueHue = -30,
			BlueSaturation = 58,
			CameraProfile = "Adobe Standard",
			Clarity2012 = 16,
			Contrast2012 = 17,
			ConvertToGrayscale = false,
			Dehaze = 0,
			EnableCalibration = true,
			EnableCircularGradientBasedCorrections = true,
			EnableColorAdjustments = true,
			EnableEffects = true,
			EnableGradientBasedCorrections = true,
			EnableSplitToning = true,
			Exposure2012 = -0.3,
			GrainAmount = 22,
			GrainFrequency = 50,
			GrainSize = 9,
			GreenHue = 18,
			GreenSaturation = 20,
			Highlights2012 = -35,
			HueAdjustmentAqua = 0,
			HueAdjustmentBlue = 2,
			HueAdjustmentGreen = 0,
			HueAdjustmentMagenta = -7,
			HueAdjustmentOrange = 0,
			HueAdjustmentPurple = -4,
			HueAdjustmentRed = -5,
			HueAdjustmentYellow = 0,
			LuminanceAdjustmentAqua = 19,
			LuminanceAdjustmentBlue = 45,
			LuminanceAdjustmentGreen = 18,
			LuminanceAdjustmentMagenta = 13,
			LuminanceAdjustmentOrange = 13,
			LuminanceAdjustmentPurple = 8,
			LuminanceAdjustmentRed = 10,
			LuminanceAdjustmentYellow = 0,
			ParametricDarks = 0,
			ParametricHighlightSplit = 75,
			ParametricHighlights = 0,
			ParametricLights = 0,
			ParametricMidtoneSplit = 50,
			ParametricShadowSplit = 25,
			ParametricShadows = 0,
			PostCropVignetteAmount = 0,
			PostCropVignetteFeather = 50,
			PostCropVignetteHighlightContrast = 0,
			PostCropVignetteMidpoint = 50,
			PostCropVignetteRoundness = 0,
			PostCropVignetteStyle = 1,
			ProcessVersion = "10.0",
			RedHue = 19,
			RedSaturation = -1,
			Saturation = -12,
			SaturationAdjustmentAqua = 5,
			SaturationAdjustmentBlue = -46,
			SaturationAdjustmentGreen = 0,
			SaturationAdjustmentMagenta = -2,
			SaturationAdjustmentOrange = 21,
			SaturationAdjustmentPurple = 7,
			SaturationAdjustmentRed = 32,
			SaturationAdjustmentYellow = 8,
			ShadowTint = 8,
			Shadows2012 = 70,
			SplitToningBalance = -62,
			SplitToningHighlightHue = 20,
			SplitToningHighlightSaturation = 6,
			SplitToningShadowHue = 222,
			SplitToningShadowSaturation = 5,
			ToneCurveName2012 = "Custom",
			ToneCurvePV2012 = {
				0,
				12,
				24,
				26,
				53,
				59,
				94,
				118,
				154,
				181,
				220,
				233,
				255,
				255,
			},
			ToneCurvePV2012Blue = {
				0,
				0,
				255,
				255,
			},
			ToneCurvePV2012Green = {
				0,
				0,
				255,
				255,
			},
			ToneCurvePV2012Red = {
				0,
				0,
				255,
				255,
			},
			Vibrance = 7,
			Whites2012 = 54,
			orientation = "DA",
		},
		uuid = "FFD75D22-814B-436A-A4D8-CB082A7393F3",
	},
	version = 0,
}
