其他预设/【233】日式怀旧街道调色预设208款/2.LR预设文件/1.日式城市街拍预设/JA – Controlled Contrast 2.lrtemplate
s = {
	id = "76BBD1DA-9C9F-4994-97F2-2C017953A4C6",
	internalName = "JA — Controlled Contrast 2",
	title = "JA – Controlled Contrast 2",
	type = "Develop",
	value = {
		settings = {
			Blacks2012 = -41,
			BlueHue = -16,
			BlueSaturation = -22,
			CameraProfile = "Adobe Standard",
			Clarity2012 = 15,
			Contrast2012 = 7,
			ConvertToGrayscale = false,
			Dehaze = 0,
			EnableCalibration = true,
			EnableCircularGradientBasedCorrections = true,
			EnableColorAdjustments = true,
			EnableEffects = true,
			EnableGradientBasedCorrections = true,
			EnableSplitToning = true,
			Exposure2012 = -0.6,
			GrainAmount = 13,
			GrainFrequency = 38,
			GrainSize = 25,
			GreenHue = -6,
			GreenSaturation = 7,
			Highlights2012 = -57,
			HueAdjustmentAqua = 0,
			HueAdjustmentBlue = -10,
			HueAdjustmentGreen = -16,
			HueAdjustmentMagenta = 0,
			HueAdjustmentOrange = -7,
			HueAdjustmentPurple = -3,
			HueAdjustmentRed = -1,
			HueAdjustmentYellow = -8,
			LuminanceAdjustmentAqua = 0,
			LuminanceAdjustmentBlue = 8,
			LuminanceAdjustmentGreen = -23,
			LuminanceAdjustmentMagenta = 0,
			LuminanceAdjustmentOrange = 15,
			LuminanceAdjustmentPurple = 11,
			LuminanceAdjustmentRed = 3,
			LuminanceAdjustmentYellow = -14,
			ParametricDarks = 0,
			ParametricHighlightSplit = 75,
			ParametricHighlights = 0,
			ParametricLights = 0,
			ParametricMidtoneSplit = 50,
			ParametricShadowSplit = 25,
			ParametricShadows = 0,
			PostCropVignetteAmount = 0,
			PostCropVignetteFeather = 50,
			PostCropVignetteHighlightContrast = 0,
			PostCropVignetteMidpoint = 50,
			PostCropVignetteRoundness = 0,
			PostCropVignetteStyle = 1,
			ProcessVersion = "10.0",
			RedHue = -11,
			RedSaturation = 16,
			Saturation = -10,
			SaturationAdjustmentAqua = -39,
			SaturationAdjustmentBlue = -25,
			SaturationAdjustmentGreen = -34,
			SaturationAdjustmentMagenta = -21,
			SaturationAdjustmentOrange = 12,
			SaturationAdjustmentPurple = -13,
			SaturationAdjustmentRed = 16,
			SaturationAdjustmentYellow = -1,
			ShadowTint = -12,
			Shadows2012 = 56,
			SplitToningBalance = 0,
			SplitToningHighlightHue = 217,
			SplitToningHighlightSaturation = 5,
			SplitToningShadowHue = 34,
			SplitToningShadowSaturation = 8,
			ToneCurveName2012 = "Custom",
			ToneCurvePV2012 = {
				0,
				16,
				40,
				35,
				65,
				79,
				118,
				140,
				185,
				205,
				227,
				236,
				255,
				246,
			},
			ToneCurvePV2012Blue = {
				0,
				0,
				255,
				255,
			},
			ToneCurvePV2012Green = {
				0,
				0,
				255,
				255,
			},
			ToneCurvePV2012Red = {
				0,
				0,
				255,
				255,
			},
			Vibrance = 5,
			Whites2012 = 49,
			orientation = "AB",
		},
		uuid = "1FB1388A-2FFA-4F86-B467-A53A29AC37E4",
	},
	version = 0,
}
