其他预设/【233】日式怀旧街道调色预设208款/2.LR预设文件/1.日式城市街拍预设/JA – Shaded Light 4.lrtemplate
s = {
	id = "AAF58D4E-3E71-4D35-BE19-CF3B70DA1431",
	internalName = "JA — Shaded Light 4",
	title = "JA – Shaded Light 4",
	type = "Develop",
	value = {
		settings = {
			Blacks2012 = -37,
			BlueHue = 13,
			BlueSaturation = -9,
			CameraProfile = "Adobe Standard",
			Clarity2012 = 10,
			Contrast2012 = -11,
			ConvertToGrayscale = false,
			Dehaze = 0,
			EnableCalibration = true,
			EnableCircularGradientBasedCorrections = true,
			EnableColorAdjustments = true,
			EnableEffects = true,
			EnableGradientBasedCorrections = true,
			EnableSplitToning = true,
			Exposure2012 = 0.2,
			GrainAmount = 17,
			GrainFrequency = 35,
			GrainSize = 24,
			GreenHue = 5,
			GreenSaturation = 12,
			Highlights2012 = 1,
			HueAdjustmentAqua = -4,
			HueAdjustmentBlue = -19,
			HueAdjustmentGreen = -3,
			HueAdjustmentMagenta = -29,
			HueAdjustmentOrange = 0,
			HueAdjustmentPurple = -10,
			HueAdjustmentRed = 0,
			HueAdjustmentYellow = -13,
			LuminanceAdjustmentAqua = 31,
			LuminanceAdjustmentBlue = 21,
			LuminanceAdjustmentGreen = -3,
			LuminanceAdjustmentMagenta = -22,
			LuminanceAdjustmentOrange = 15,
			LuminanceAdjustmentPurple = -2,
			LuminanceAdjustmentRed = -13,
			LuminanceAdjustmentYellow = -4,
			ParametricDarks = 0,
			ParametricHighlightSplit = 75,
			ParametricHighlights = 0,
			ParametricLights = 0,
			ParametricMidtoneSplit = 50,
			ParametricShadowSplit = 25,
			ParametricShadows = 0,
			PostCropVignetteAmount = 0,
			PostCropVignetteFeather = 50,
			PostCropVignetteHighlightContrast = 0,
			PostCropVignetteMidpoint = 50,
			PostCropVignetteRoundness = 0,
			PostCropVignetteStyle = 1,
			ProcessVersion = "10.0",
			RedHue = -6,
			RedSaturation = 3,
			Saturation = -13,
			SaturationAdjustmentAqua = -18,
			SaturationAdjustmentBlue = -44,
			SaturationAdjustmentGreen = 2,
			SaturationAdjustmentMagenta = -37,
			SaturationAdjustmentOrange = 0,
			SaturationAdjustmentPurple = -29,
			SaturationAdjustmentRed = 34,
			SaturationAdjustmentYellow = 5,
			ShadowTint = -3,
			Shadows2012 = -17,
			SplitToningBalance = 28,
			SplitToningHighlightHue = 210,
			SplitToningHighlightSaturation = 7,
			SplitToningShadowHue = 226,
			SplitToningShadowSaturation = 27,
			ToneCurveName2012 = "Custom",
			ToneCurvePV2012 = {
				0,
				6,
				26,
				23,
				55,
				40,
				88,
				61,
				114,
				109,
				161,
				176,
				212,
				225,
				255,
				254,
			},
			ToneCurvePV2012Blue = {
				0,
				0,
				255,
				255,
			},
			ToneCurvePV2012Green = {
				0,
				0,
				255,
				255,
			},
			ToneCurvePV2012Red = {
				0,
				0,
				255,
				255,
			},
			Vibrance = 37,
			Whites2012 = 37,
			orientation = "DA",
		},
		uuid = "60C8CC59-8B29-484C-97D7-A7109223D1F0",
	},
	version = 0,
}
