其他预设/【233】日式怀旧街道调色预设208款/2.LR预设文件/1.日式城市街拍预设/JA – Controlled Contrast 1.lrtemplate
s = {
	id = "B444FC99-4F2C-430C-B494-223D77B47045",
	internalName = "JA — Controlled Contrast 1",
	title = "JA – Controlled Contrast 1",
	type = "Develop",
	value = {
		settings = {
			Blacks2012 = -33,
			BlueHue = -25,
			BlueSaturation = -12,
			CameraProfile = "Adobe Standard",
			Clarity2012 = 14,
			Contrast2012 = 15,
			ConvertToGrayscale = false,
			Dehaze = 0,
			EnableCalibration = true,
			EnableCircularGradientBasedCorrections = true,
			EnableColorAdjustments = true,
			EnableEffects = true,
			EnableGradientBasedCorrections = true,
			EnableSplitToning = true,
			Exposure2012 = -0.05,
			GrainAmount = 17,
			GrainFrequency = 20,
			GrainSize = 7,
			GreenHue = -5,
			GreenSaturation = 28,
			Highlights2012 = 1,
			HueAdjustmentAqua = -11,
			HueAdjustmentBlue = -13,
			HueAdjustmentGreen = -8,
			HueAdjustmentMagenta = 2,
			HueAdjustmentOrange = -8,
			HueAdjustmentPurple = 4,
			HueAdjustmentRed = 9,
			HueAdjustmentYellow = -5,
			LuminanceAdjustmentAqua = 0,
			LuminanceAdjustmentBlue = -14,
			LuminanceAdjustmentGreen = 1,
			LuminanceAdjustmentMagenta = -8,
			LuminanceAdjustmentOrange = -11,
			LuminanceAdjustmentPurple = -3,
			LuminanceAdjustmentRed = 13,
			LuminanceAdjustmentYellow = 6,
			ParametricDarks = 0,
			ParametricHighlightSplit = 75,
			ParametricHighlights = 0,
			ParametricLights = 0,
			ParametricMidtoneSplit = 50,
			ParametricShadowSplit = 25,
			ParametricShadows = 0,
			PostCropVignetteAmount = 0,
			PostCropVignetteFeather = 50,
			PostCropVignetteHighlightContrast = 0,
			PostCropVignetteMidpoint = 50,
			PostCropVignetteRoundness = 0,
			PostCropVignetteStyle = 1,
			ProcessVersion = "10.0",
			RedHue = 27,
			RedSaturation = -5,
			Saturation = 8,
			SaturationAdjustmentAqua = 24,
			SaturationAdjustmentBlue = 44,
			SaturationAdjustmentGreen = 4,
			SaturationAdjustmentMagenta = -11,
			SaturationAdjustmentOrange = -9,
			SaturationAdjustmentPurple = 5,
			SaturationAdjustmentRed = 7,
			SaturationAdjustmentYellow = -37,
			ShadowTint = 0,
			Shadows2012 = -33,
			SplitToningBalance = 3,
			SplitToningHighlightHue = 320,
			SplitToningHighlightSaturation = 5,
			SplitToningShadowHue = 12,
			SplitToningShadowSaturation = 1,
			ToneCurveName2012 = "Custom",
			ToneCurvePV2012 = {
				0,
				15,
				39,
				32,
				70,
				62,
				103,
				113,
				146,
				171,
				217,
				233,
				255,
				252,
			},
			ToneCurvePV2012Blue = {
				0,
				0,
				255,
				255,
			},
			ToneCurvePV2012Green = {
				0,
				0,
				255,
				255,
			},
			ToneCurvePV2012Red = {
				0,
				0,
				255,
				255,
			},
			Vibrance = -16,
			Whites2012 = 52,
			orientation = "AB",
		},
		uuid = "2E7FF793-4F2A-4097-A7A3-E3D317D3E6A0",
	},
	version = 0,
}
