其他预设/【233】日式怀旧街道调色预设208款/2.LR预设文件/1.日式城市街拍预设/JA – Faded Soft 2.lrtemplate
s = {
	id = "FA314E94-62DE-4007-9E08-9F3C9C3EF92E",
	internalName = "JA — Analogue Soft 1",
	title = "JA – Faded Soft 2",
	type = "Develop",
	value = {
		settings = {
			Blacks2012 = -23,
			BlueHue = -52,
			BlueSaturation = 14,
			CameraProfile = "Adobe Standard",
			Clarity2012 = 31,
			Contrast2012 = -11,
			ConvertToGrayscale = false,
			Dehaze = 0,
			EnableCalibration = true,
			EnableCircularGradientBasedCorrections = true,
			EnableColorAdjustments = true,
			EnableEffects = true,
			EnableGradientBasedCorrections = true,
			EnableSplitToning = true,
			Exposure2012 = 0.15,
			GradientBasedCorrections = {
				{
					CorrectionActive = true,
					CorrectionAmount = 1,
					CorrectionID = "2FA1AD51-186D-4E0E-B291-55AD9B37E603",
					CorrectionMasks = {
						{
							FullX = -0.09737,
							FullY = 0.537458,
							MaskID = "B01A68A8-015B-4036-8770-FD35F2D7B8B9",
							MaskValue = 1,
							What = "Mask/Gradient",
							ZeroX = 0.296504,
							ZeroY = 0.536835,
						},
					},
					CorrectionRangeMask = {
						ColorAmount = 0.5,
						LumFeather = 0.5,
						LumMax = 1,
						LumMin = 0,
						Type = 0,
						Version = 2,
					},
					CorrectionReferenceX = 0.537146,
					CorrectionReferenceY = 0.900434,
					LocalBlacks2012 = 0.137449,
					LocalBrightness = 0,
					LocalClarity = 0,
					LocalClarity2012 = 0,
					LocalContrast = 0,
					LocalContrast2012 = 0.031758,
					LocalDefringe = 0,
					LocalDehaze = 0,
					LocalExposure = 0,
					LocalExposure2012 = -0.078637,
					LocalHighlights2012 = -0.22482,
					LocalLuminanceNoise = 0,
					LocalMoire = 0,
					LocalSaturation = 0,
					LocalShadows2012 = -0.168165,
					LocalSharpness = 0.002096,
					LocalTemperature = -0.019817,
					LocalTint = 0,
					LocalToningHue = 0,
					LocalToningSaturation = 0,
					LocalWhites2012 = 0.185658,
					What = "Correction",
				},
			},
			GrainAmount = 28,
			GrainFrequency = 31,
			GrainSize = 17,
			GreenHue = -21,
			GreenSaturation = 3,
			Highlights2012 = -35,
			HueAdjustmentAqua = 6,
			HueAdjustmentBlue = 23,
			HueAdjustmentGreen = -18,
			HueAdjustmentMagenta = 0,
			HueAdjustmentOrange = -2,
			HueAdjustmentPurple = 0,
			HueAdjustmentRed = 4,
			HueAdjustmentYellow = -22,
			LuminanceAdjustmentAqua = 20,
			LuminanceAdjustmentBlue = 35,
			LuminanceAdjustmentGreen = -7,
			LuminanceAdjustmentMagenta = 0,
			LuminanceAdjustmentOrange = 8,
			LuminanceAdjustmentPurple = -5,
			LuminanceAdjustmentRed = 6,
			LuminanceAdjustmentYellow = 7,
			ParametricDarks = 0,
			ParametricHighlightSplit = 75,
			ParametricHighlights = 0,
			ParametricLights = 0,
			ParametricMidtoneSplit = 50,
			ParametricShadowSplit = 25,
			ParametricShadows = 0,
			PostCropVignetteAmount = 0,
			PostCropVignetteFeather = 50,
			PostCropVignetteHighlightContrast = 0,
			PostCropVignetteMidpoint = 50,
			PostCropVignetteRoundness = 0,
			PostCropVignetteStyle = 1,
			ProcessVersion = "10.0",
			RedHue = 30,
			RedSaturation = 12,
			Saturation = -12,
			SaturationAdjustmentAqua = -31,
			SaturationAdjustmentBlue = -33,
			SaturationAdjustmentGreen = 8,
			SaturationAdjustmentMagenta = -24,
			SaturationAdjustmentOrange = -14,
			SaturationAdjustmentPurple = -22,
			SaturationAdjustmentRed = -7,
			SaturationAdjustmentYellow = -15,
			ShadowTint = -12,
			Shadows2012 = 44,
			SplitToningBalance = 0,
			SplitToningHighlightHue = 26,
			SplitToningHighlightSaturation = 6,
			SplitToningShadowHue = 214,
			SplitToningShadowSaturation = 8,
			ToneCurveName2012 = "Custom",
			ToneCurvePV2012 = {
				0,
				9,
				35,
				34,
				69,
				64,
				101,
				116,
				136,
				156,
				191,
				210,
				255,
				239,
			},
			ToneCurvePV2012Blue = {
				0,
				0,
				255,
				255,
			},
			ToneCurvePV2012Green = {
				0,
				0,
				255,
				255,
			},
			ToneCurvePV2012Red = {
				0,
				0,
				255,
				255,
			},
			Vibrance = 30,
			Whites2012 = 40,
			orientation = "DA",
		},
		uuid = "18E4FF7A-7343-4268-87BF-658DC0DA045E",
	},
	version = 0,
}
