其他预设/【233】日式怀旧街道调色预设208款/2.LR预设文件/1.日式城市街拍预设/JA_–_Cityscape_Pop_3.lrtemplate
s = {
	id = "FA70B156-4494-49E6-9665-B0568C5DA19F",
	internalName = "JA Urban — Cityscape Pop 3",
	title = "JA – Cityscape Pop 3",
	type = "Develop",
	value = {
		settings = {
			Blacks2012 = -42,
			BlueHue = -6,
			BlueSaturation = -6,
			CameraProfile = "Adobe Standard",
			Clarity2012 = 21,
			Contrast2012 = 0,
			ConvertToGrayscale = false,
			Dehaze = 0,
			EnableCalibration = true,
			EnableCircularGradientBasedCorrections = true,
			EnableColorAdjustments = true,
			EnableEffects = true,
			EnableGradientBasedCorrections = true,
			EnableSplitToning = true,
			Exposure2012 = 0.15,
			GradientBasedCorrections = {
				{
					CorrectionActive = true,
					CorrectionAmount = 1,
					CorrectionID = "2FA1AD51-186D-4E0E-B291-55AD9B37E603",
					CorrectionMasks = {
						{
							FullX = 0.536885,
							FullY = 1.0461,
							MaskID = "B01A68A8-015B-4036-8770-FD35F2D7B8B9",
							MaskValue = 1,
							What = "Mask/Gradient",
							ZeroX = 0.537078,
							ZeroY = 0.607682,
						},
					},
					CorrectionReferenceX = 0.173109,
					CorrectionReferenceY = 0.536982,
					LocalBlacks2012 = 0.137449,
					LocalBrightness = 0,
					LocalClarity = 0,
					LocalClarity2012 = 0,
					LocalContrast = 0,
					LocalContrast2012 = 0.031758,
					LocalDefringe = 0,
					LocalDehaze = 0,
					LocalExposure = 0,
					LocalExposure2012 = -0.078637,
					LocalHighlights2012 = -0.401994,
					LocalLuminanceNoise = 0,
					LocalMoire = 0,
					LocalSaturation = 0,
					LocalShadows2012 = -0.236916,
					LocalSharpness = 0.002096,
					LocalTemperature = -0.019817,
					LocalTint = 0,
					LocalToningHue = 0,
					LocalToningSaturation = 0,
					LocalWhites2012 = 0.185658,
					What = "Correction",
				},
			},
			GrainAmount = 10,
			GrainFrequency = 50,
			GrainSize = 25,
			GreenHue = 13,
			GreenSaturation = -27,
			Highlights2012 = -45,
			HueAdjustmentAqua = 6,
			HueAdjustmentBlue = 23,
			HueAdjustmentGreen = 8,
			HueAdjustmentMagenta = 0,
			HueAdjustmentOrange = 3,
			HueAdjustmentPurple = 0,
			HueAdjustmentRed = 5,
			HueAdjustmentYellow = 3,
			LuminanceAdjustmentAqua = 6,
			LuminanceAdjustmentBlue = 13,
			LuminanceAdjustmentGreen = -7,
			LuminanceAdjustmentMagenta = 0,
			LuminanceAdjustmentOrange = 2,
			LuminanceAdjustmentPurple = -5,
			LuminanceAdjustmentRed = 13,
			LuminanceAdjustmentYellow = 2,
			ParametricDarks = 0,
			ParametricHighlightSplit = 75,
			ParametricHighlights = 0,
			ParametricLights = 0,
			ParametricMidtoneSplit = 50,
			ParametricShadowSplit = 25,
			ParametricShadows = 0,
			ProcessVersion = "6.7",
			RedHue = 9,
			RedSaturation = -3,
			Saturation = 22,
			SaturationAdjustmentAqua = 1,
			SaturationAdjustmentBlue = -15,
			SaturationAdjustmentGreen = -9,
			SaturationAdjustmentMagenta = -24,
			SaturationAdjustmentOrange = 5,
			SaturationAdjustmentPurple = -22,
			SaturationAdjustmentRed = 14,
			SaturationAdjustmentYellow = -4,
			ShadowTint = -7,
			Shadows2012 = 45,
			SplitToningBalance = 0,
			SplitToningHighlightHue = 26,
			SplitToningHighlightSaturation = 5,
			SplitToningShadowHue = 214,
			SplitToningShadowSaturation = 3,
			ToneCurveName2012 = "Custom",
			ToneCurvePV2012 = {
				0,
				21,
				34,
				34,
				68,
				69,
				106,
				115,
				140,
				158,
				179,
				197,
				255,
				239,
			},
			ToneCurvePV2012Blue = {
				0,
				0,
				255,
				255,
			},
			ToneCurvePV2012Green = {
				0,
				0,
				255,
				255,
			},
			ToneCurvePV2012Red = {
				0,
				0,
				255,
				255,
			},
			Vibrance = 14,
			Whites2012 = 1,
			orientation = "AB",
		},
		uuid = "FFB63336-3388-47B6-AE13-1192FA109555",
	},
	version = 0,
}
