其他预设/【236】赛博朋克风调色预设/【后期菌】图片调色预设/Photoshop CC/Glitch 04 S_1.xmp
<x:xmpmeta xmlns:x="adobe:ns:meta/" x:xmptk="Adobe XMP Core 5.6-c140 79.160451, 2017/05/06-01:08:21        ">
 <rdf:RDF xmlns:rdf="http://www.w3.org/1999/02/22-rdf-syntax-ns#">
  <rdf:Description rdf:about=""
    xmlns:crs="http://ns.adobe.com/camera-raw-settings/1.0/"
   crs:PresetType="Normal"
   crs:Cluster="SparkleStock"
   crs:UUID="49AE564A18BC7442BF1D04FE18796471"
   crs:SupportsAmount="False"
   crs:SupportsColor="True"
   crs:SupportsMonochrome="True"
   crs:SupportsHighDynamicRange="True"
   crs:SupportsNormalDynamicRange="True"
   crs:SupportsSceneReferred="True"
   crs:SupportsOutputReferred="True"
   crs:CameraModelRestriction=""
   crs:Copyright="2000px Media Inc."
   crs:ContactInfo="https://www.sparklestock.com"
   crs:Version="12.0"
   crs:ProcessVersion="11.0"
   crs:ShadowTint="0"
   crs:RedHue="0"
   crs:RedSaturation="0"
   crs:GreenHue="0"
   crs:GreenSaturation="0"
   crs:BlueHue="0"
   crs:BlueSaturation="0"
   crs:Contrast2012="+80"
   crs:Highlights2012="-50"
   crs:Shadows2012="+20"
   crs:Whites2012="0"
   crs:Blacks2012="+85"
   crs:Clarity2012="0"
   crs:Texture="+20"
   crs:HasSettings="True">
   <crs:Name>
    <rdf:Alt>
     <rdf:li xml:lang="x-default">Glitch 04 S</rdf:li>
    </rdf:Alt>
   </crs:Name>
   <crs:ShortName>
    <rdf:Alt>
     <rdf:li xml:lang="x-default"/>
    </rdf:Alt>
   </crs:ShortName>
   <crs:SortName>
    <rdf:Alt>
     <rdf:li xml:lang="x-default"/>
    </rdf:Alt>
   </crs:SortName>
   <crs:Group>
    <rdf:Alt>
     <rdf:li xml:lang="x-default">Cyberpunk</rdf:li>
    </rdf:Alt>
   </crs:Group>
   <crs:Description>
    <rdf:Alt>
     <rdf:li xml:lang="x-default"/>
    </rdf:Alt>
   </crs:Description>
   <crs:Look
    crs:Name="Glitch 04 S"
    crs:Amount="1.000000"
    crs:UUID="55EA1886F9256E46ADA36C8D532610C5"
    crs:Stubbed="true"/>
  </rdf:Description>
 </rdf:RDF>
</x:xmpmeta>
