其他预设/【233】日式怀旧街道调色预设208款/3.XMP格式(PS 19LR用)预设/4.富士胶片风日式城市街拍预设 (自动曝光预设)/JA_–_Cityscape_Pop_3_(Classic_Chrome)_(Auto).xmp
<x:xmpmeta xmlns:x="adobe:ns:meta/" x:xmptk="Adobe XMP Core 5.6-c140 79.160451, 2017/05/06-01:08:21        ">
 <rdf:RDF xmlns:rdf="http://www.w3.org/1999/02/22-rdf-syntax-ns#">
  <rdf:Description rdf:about=""
    xmlns:crs="http://ns.adobe.com/camera-raw-settings/1.0/"
   crs:PresetType="Normal"
   crs:Cluster=""
   crs:UUID="783A701EB08D2EB8E559BBCC04843658"
   crs:SupportsAmount="False"
   crs:SupportsColor="True"
   crs:SupportsMonochrome="True"
   crs:SupportsHighDynamicRange="True"
   crs:SupportsNormalDynamicRange="True"
   crs:SupportsSceneReferred="True"
   crs:SupportsOutputReferred="True"
   crs:CameraModelRestriction=""
   crs:Copyright=""
   crs:ContactInfo=""
   crs:Version="10.5"
   crs:ProcessVersion="6.7"
   crs:Saturation="+22"
   crs:ShadowTint="-7"
   crs:RedHue="+9"
   crs:RedSaturation="-3"
   crs:GreenHue="+13"
   crs:GreenSaturation="-27"
   crs:BlueHue="-6"
   crs:BlueSaturation="-6"
   crs:Vibrance="+14"
   crs:HueAdjustmentRed="+5"
   crs:HueAdjustmentOrange="+3"
   crs:HueAdjustmentYellow="+3"
   crs:HueAdjustmentGreen="+8"
   crs:HueAdjustmentAqua="+6"
   crs:HueAdjustmentBlue="+23"
   crs:HueAdjustmentPurple="0"
   crs:HueAdjustmentMagenta="0"
   crs:SaturationAdjustmentRed="+14"
   crs:SaturationAdjustmentOrange="+5"
   crs:SaturationAdjustmentYellow="-4"
   crs:SaturationAdjustmentGreen="-9"
   crs:SaturationAdjustmentAqua="+1"
   crs:SaturationAdjustmentBlue="-15"
   crs:SaturationAdjustmentPurple="-22"
   crs:SaturationAdjustmentMagenta="-24"
   crs:LuminanceAdjustmentRed="+13"
   crs:LuminanceAdjustmentOrange="+2"
   crs:LuminanceAdjustmentYellow="+2"
   crs:LuminanceAdjustmentGreen="-7"
   crs:LuminanceAdjustmentAqua="+6"
   crs:LuminanceAdjustmentBlue="+13"
   crs:LuminanceAdjustmentPurple="-5"
   crs:LuminanceAdjustmentMagenta="0"
   crs:SplitToningShadowHue="214"
   crs:SplitToningShadowSaturation="3"
   crs:SplitToningHighlightHue="26"
   crs:SplitToningHighlightSaturation="5"
   crs:SplitToningBalance="0"
   crs:ParametricShadows="0"
   crs:ParametricDarks="0"
   crs:ParametricLights="0"
   crs:ParametricHighlights="0"
   crs:ParametricShadowSplit="25"
   crs:ParametricMidtoneSplit="50"
   crs:ParametricHighlightSplit="75"
   crs:GrainAmount="10"
   crs:GrainSize="25"
   crs:GrainFrequency="50"
   crs:Clarity2012="+21"
   crs:Dehaze="0"
   crs:ConvertToGrayscale="False"
   crs:AutoTone="True"
   crs:ToneCurveName2012="Custom"
   crs:CameraProfile="Camera CLASSIC CHROME"
   crs:HasSettings="True">
   <crs:Name>
    <rdf:Alt>
     <rdf:li xml:lang="x-default">JA – Cityscape Pop 3 (Classic Chrome) (Auto)</rdf:li>
    </rdf:Alt>
   </crs:Name>
   <crs:ShortName>
    <rdf:Alt>
     <rdf:li xml:lang="x-default"/>
    </rdf:Alt>
   </crs:ShortName>
   <crs:SortName>
    <rdf:Alt>
     <rdf:li xml:lang="x-default"/>
    </rdf:Alt>
   </crs:SortName>
   <crs:Group>
    <rdf:Alt>
     <rdf:li xml:lang="x-default">4.富士胶片风日式城市街拍预设 (自动曝光预设)</rdf:li>
    </rdf:Alt>
   </crs:Group>
   <crs:Description>
    <rdf:Alt>
     <rdf:li xml:lang="x-default"/>
    </rdf:Alt>
   </crs:Description>
   <crs:ToneCurvePV2012>
    <rdf:Seq>
     <rdf:li>0, 21</rdf:li>
     <rdf:li>34, 34</rdf:li>
     <rdf:li>68, 69</rdf:li>
     <rdf:li>106, 115</rdf:li>
     <rdf:li>140, 158</rdf:li>
     <rdf:li>179, 197</rdf:li>
     <rdf:li>255, 239</rdf:li>
    </rdf:Seq>
   </crs:ToneCurvePV2012>
   <crs:ToneCurvePV2012Red>
    <rdf:Seq>
     <rdf:li>0, 0</rdf:li>
     <rdf:li>255, 255</rdf:li>
    </rdf:Seq>
   </crs:ToneCurvePV2012Red>
   <crs:ToneCurvePV2012Green>
    <rdf:Seq>
     <rdf:li>0, 0</rdf:li>
     <rdf:li>255, 255</rdf:li>
    </rdf:Seq>
   </crs:ToneCurvePV2012Green>
   <crs:ToneCurvePV2012Blue>
    <rdf:Seq>
     <rdf:li>0, 0</rdf:li>
     <rdf:li>255, 255</rdf:li>
    </rdf:Seq>
   </crs:ToneCurvePV2012Blue>
   <crs:GradientBasedCorrections>
    <rdf:Seq>
     <rdf:li>
      <rdf:Description
       crs:What="Correction"
       crs:CorrectionAmount="1.000000"
       crs:CorrectionActive="true"
       crs:LocalExposure="0.000000"
       crs:LocalSaturation="0.000000"
       crs:LocalContrast="0.000000"
       crs:LocalClarity="0.000000"
       crs:LocalSharpness="0.002096"
       crs:LocalBrightness="0.000000"
       crs:LocalToningHue="0.000000"
       crs:LocalToningSaturation="0.000000"
       crs:LocalExposure2012="-0.078637"
       crs:LocalContrast2012="0.031758"
       crs:LocalHighlights2012="-0.401994"
       crs:LocalShadows2012="-0.236916"
       crs:LocalWhites2012="0.185658"
       crs:LocalBlacks2012="0.137449"
       crs:LocalClarity2012="0.000000"
       crs:LocalDehaze="0.000000"
       crs:LocalLuminanceNoise="0.000000"
       crs:LocalMoire="0.000000"
       crs:LocalDefringe="0.000000"
       crs:LocalTemperature="-0.019817"
       crs:LocalTint="0.000000">
      <crs:CorrectionMasks>
       <rdf:Seq>
        <rdf:li
         crs:What="Mask/Gradient"
         crs:MaskValue="1.000000"
         crs:ZeroX="0.537078"
         crs:ZeroY="0.607682"
         crs:FullX="0.536885"
         crs:FullY="1.046100"/>
       </rdf:Seq>
      </crs:CorrectionMasks>
      <crs:CorrectionRangeMask
       crs:Version="+2"
       crs:Type="0"
       crs:ColorAmount="0.500000"
       crs:LumMin="0.000000"
       crs:LumMax="1.000000"
       crs:LumFeather="0.500000"/>
      </rdf:Description>
     </rdf:li>
    </rdf:Seq>
   </crs:GradientBasedCorrections>
   <crs:Look
    crs:Name=""/>
  </rdf:Description>
 </rdf:RDF>
</x:xmpmeta>
