其他预设/【233】日式怀旧街道调色预设208款/3.XMP格式(PS 19LR用)预设/4.富士胶片风日式城市街拍预设 (自动曝光预设)/胶片风预设(自动曝光)-12.xmp
<x:xmpmeta xmlns:x="adobe:ns:meta/" x:xmptk="Adobe XMP Core 5.6-c140 79.160451, 2017/05/06-01:08:21        ">
 <rdf:RDF xmlns:rdf="http://www.w3.org/1999/02/22-rdf-syntax-ns#">
  <rdf:Description rdf:about=""
    xmlns:crs="http://ns.adobe.com/camera-raw-settings/1.0/"
   crs:PresetType="Normal"
   crs:Cluster=""
   crs:UUID="1B8CA8B5196EA44EB89626338A3CA4E3"
   crs:SupportsAmount="False"
   crs:SupportsColor="True"
   crs:SupportsMonochrome="True"
   crs:SupportsHighDynamicRange="True"
   crs:SupportsNormalDynamicRange="True"
   crs:SupportsSceneReferred="True"
   crs:SupportsOutputReferred="True"
   crs:CameraModelRestriction=""
   crs:Copyright=""
   crs:ContactInfo=""
   crs:Version="10.5"
   crs:ProcessVersion="10.0"
   crs:ShadowTint="-5"
   crs:RedHue="+21"
   crs:RedSaturation="+10"
   crs:GreenHue="-1"
   crs:GreenSaturation="+2"
   crs:BlueHue="-21"
   crs:BlueSaturation="+19"
   crs:HueAdjustmentRed="+4"
   crs:HueAdjustmentOrange="-2"
   crs:HueAdjustmentYellow="0"
   crs:HueAdjustmentGreen="-10"
   crs:HueAdjustmentAqua="+13"
   crs:HueAdjustmentBlue="+33"
   crs:HueAdjustmentPurple="-1"
   crs:HueAdjustmentMagenta="-2"
   crs:SaturationAdjustmentRed="-7"
   crs:SaturationAdjustmentOrange="+10"
   crs:SaturationAdjustmentYellow="-5"
   crs:SaturationAdjustmentGreen="+1"
   crs:SaturationAdjustmentAqua="-31"
   crs:SaturationAdjustmentBlue="-10"
   crs:SaturationAdjustmentPurple="-22"
   crs:SaturationAdjustmentMagenta="-30"
   crs:LuminanceAdjustmentRed="-5"
   crs:LuminanceAdjustmentOrange="-4"
   crs:LuminanceAdjustmentYellow="+2"
   crs:LuminanceAdjustmentGreen="-6"
   crs:LuminanceAdjustmentAqua="+20"
   crs:LuminanceAdjustmentBlue="+22"
   crs:LuminanceAdjustmentPurple="-5"
   crs:LuminanceAdjustmentMagenta="-15"
   crs:SplitToningShadowHue="230"
   crs:SplitToningShadowSaturation="12"
   crs:SplitToningHighlightHue="26"
   crs:SplitToningHighlightSaturation="3"
   crs:SplitToningBalance="-17"
   crs:ParametricShadows="0"
   crs:ParametricDarks="0"
   crs:ParametricLights="0"
   crs:ParametricHighlights="0"
   crs:ParametricShadowSplit="25"
   crs:ParametricMidtoneSplit="50"
   crs:ParametricHighlightSplit="75"
   crs:PostCropVignetteAmount="0"
   crs:GrainAmount="21"
   crs:GrainSize="15"
   crs:GrainFrequency="34"
   crs:Clarity2012="+25"
   crs:Dehaze="0"
   crs:ConvertToGrayscale="False"
   crs:AutoTone="True"
   crs:OverrideLookVignette="False"
   crs:ToneCurveName2012="Custom"
   crs:CameraProfile="Camera CLASSIC CHROME"
   crs:HasSettings="True">
   <crs:Name>
    <rdf:Alt>
     <rdf:li xml:lang="x-default">JA – Faded Soft 3 (Classic Chrome) (Auto)</rdf:li>
    </rdf:Alt>
   </crs:Name>
   <crs:ShortName>
    <rdf:Alt>
     <rdf:li xml:lang="x-default"/>
    </rdf:Alt>
   </crs:ShortName>
   <crs:SortName>
    <rdf:Alt>
     <rdf:li xml:lang="x-default"/>
    </rdf:Alt>
   </crs:SortName>
   <crs:Group>
    <rdf:Alt>
     <rdf:li xml:lang="x-default">富士胶片风日式城市街拍预设 (自动曝光预设)</rdf:li>
    </rdf:Alt>
   </crs:Group>
   <crs:Description>
    <rdf:Alt>
     <rdf:li xml:lang="x-default"/>
    </rdf:Alt>
   </crs:Description>
   <crs:ToneCurvePV2012>
    <rdf:Seq>
     <rdf:li>0, 9</rdf:li>
     <rdf:li>34, 31</rdf:li>
     <rdf:li>63, 55</rdf:li>
     <rdf:li>109, 108</rdf:li>
     <rdf:li>136, 156</rdf:li>
     <rdf:li>195, 211</rdf:li>
     <rdf:li>255, 239</rdf:li>
    </rdf:Seq>
   </crs:ToneCurvePV2012>
   <crs:ToneCurvePV2012Red>
    <rdf:Seq>
     <rdf:li>0, 0</rdf:li>
     <rdf:li>255, 255</rdf:li>
    </rdf:Seq>
   </crs:ToneCurvePV2012Red>
   <crs:ToneCurvePV2012Green>
    <rdf:Seq>
     <rdf:li>0, 0</rdf:li>
     <rdf:li>255, 255</rdf:li>
    </rdf:Seq>
   </crs:ToneCurvePV2012Green>
   <crs:ToneCurvePV2012Blue>
    <rdf:Seq>
     <rdf:li>0, 0</rdf:li>
     <rdf:li>255, 255</rdf:li>
    </rdf:Seq>
   </crs:ToneCurvePV2012Blue>
   <crs:GradientBasedCorrections>
    <rdf:Seq>
     <rdf:li>
      <rdf:Description
       crs:What="Correction"
       crs:CorrectionAmount="1.000000"
       crs:CorrectionActive="true"
       crs:LocalExposure="0.000000"
       crs:LocalSaturation="-0.144335"
       crs:LocalContrast="0.000000"
       crs:LocalClarity="0.000000"
       crs:LocalSharpness="0.002096"
       crs:LocalBrightness="0.000000"
       crs:LocalToningHue="0.000000"
       crs:LocalToningSaturation="0.000000"
       crs:LocalExposure2012="-0.078637"
       crs:LocalContrast2012="0.031758"
       crs:LocalHighlights2012="-0.267199"
       crs:LocalShadows2012="-0.185420"
       crs:LocalWhites2012="0.185658"
       crs:LocalBlacks2012="0.137449"
       crs:LocalClarity2012="0.000000"
       crs:LocalDehaze="0.000000"
       crs:LocalLuminanceNoise="0.000000"
       crs:LocalMoire="0.000000"
       crs:LocalDefringe="0.000000"
       crs:LocalTemperature="-0.019817"
       crs:LocalTint="0.000000">
      <crs:CorrectionMasks>
       <rdf:Seq>
        <rdf:li
         crs:What="Mask/Gradient"
         crs:MaskValue="1.000000"
         crs:ZeroX="0.488851"
         crs:ZeroY="0.710815"
         crs:FullX="0.488038"
         crs:FullY="1.149230"/>
       </rdf:Seq>
      </crs:CorrectionMasks>
      <crs:CorrectionRangeMask
       crs:Version="+2"
       crs:Type="0"
       crs:ColorAmount="0.500000"
       crs:LumMin="0.000000"
       crs:LumMax="1.000000"
       crs:LumFeather="0.500000"/>
      </rdf:Description>
     </rdf:li>
    </rdf:Seq>
   </crs:GradientBasedCorrections>
   <crs:Look
    crs:Name=""/>
  </rdf:Description>
 </rdf:RDF>
</x:xmpmeta>
