其他预设/【232】美食博客调色预设124款/1.3D LUT预设（视频调色-PR-AE-PS-FCPX-达芬奇用）/0 A Piece Of Candy And A Book.cube
# Created by Adobe Lightroom plugin Export LUT (1.17.0)
# www.johnrellis.com/lightroom/exportlut.htm
# Preset: 0 A Piece Of Candy And A Book
# Color profile: /Library/Application Support/Adobe/Color/Profiles/Recommended/AdobeRGB1998.icc
LUT_3D_SIZE 5
DOMAIN_MIN 0.000000 0.000000 0.000000
DOMAIN_MAX 0.903226 0.903226 0.903226
0.164797 0.143496 0.117281
0.317327 0.132113 0.110506
0.649653 0.090517 0.079591
0.901213 0.039857 0.000000
1.000000 0.098299 0.000000
0.167117 0.293217 0.104982
0.321996 0.292332 0.099825
0.648005 0.310613 0.023133
0.898619 0.289647 0.000000
1.000000 0.271244 0.000000
0.156405 0.619684 0.000000
0.350317 0.618067 0.000000
0.651301 0.616541 0.000000
0.892180 0.575128 0.000000
1.000000 0.518639 0.000000
0.182773 0.861784 0.000000
0.339727 0.859373 0.000000
0.603265 0.850767 0.000000
0.861967 0.836973 0.000000
1.000000 0.766903 0.000000
0.283085 1.000000 0.000000
0.370214 1.000000 0.000000
0.564477 0.997406 0.000000
0.779843 0.986023 0.000000
0.985626 0.971191 0.107668
0.179477 0.138186 0.244236
0.326665 0.130373 0.243015
0.652430 0.000000 0.246860
0.897734 0.000000 0.228428
1.000000 0.162325 0.232456
0.181247 0.293400 0.241337
0.329381 0.290776 0.239811
0.653101 0.278935 0.230228
0.895567 0.278080 0.224155
1.000000 0.296818 0.232517
0.141085 0.618524 0.231662
0.331701 0.617945 0.213199
0.649805 0.611536 0.205020
0.888701 0.571679 0.211368
1.000000 0.531579 0.235050
0.208652 0.859953 0.197971
0.360418 0.857053 0.206912
0.611383 0.848631 0.207004
0.862821 0.835538 0.209903
1.000000 0.771603 0.248356
0.357305 1.000000 0.259220
0.424567 1.000000 0.260441
0.594110 0.995026 0.266178
0.792325 0.984161 0.277592
0.986542 0.970550 0.297948
0.230869 0.119112 0.540856
0.378180 0.085542 0.540124
0.659754 0.000000 0.537896
0.893919 0.028901 0.497505
1.000000 0.319249 0.487251
0.181247 0.296971 0.540215
0.356085 0.284947 0.539422
0.660273 0.268681 0.537224
0.889494 0.317723 0.502922
1.000000 0.437110 0.510155
0.173648 0.613336 0.533654
0.354162 0.611841 0.532677
0.657801 0.608606 0.529931
0.877043 0.609247 0.529320
1.000000 0.616114 0.533837
0.265812 0.854887 0.488228
0.408545 0.850065 0.495766
0.662776 0.838468 0.530541
0.864530 0.831937 0.532311
1.000000 0.796719 0.540948
0.409522 0.998779 0.473854
0.503319 0.994202 0.498024
0.680598 0.983734 0.547936
0.827909 0.976501 0.551324
0.985992 0.967620 0.558740
0.250980 0.106844 0.788418
0.370031 0.088441 0.787930
0.613581 0.003174 0.786496
0.873899 0.120150 0.782559
1.000000 0.338231 0.709041
0.246342 0.286961 0.786831
0.370733 0.286839 0.786252
0.617304 0.295079 0.784024
0.871244 0.332372 0.779629
1.000000 0.445594 0.716854
0.293614 0.567376 0.780911
0.424842 0.577813 0.779294
0.658137 0.606592 0.775204
0.864073 0.615717 0.772244
1.000000 0.652186 0.740932
0.347845 0.831937 0.774380
0.461219 0.830655 0.773251
0.673701 0.828824 0.771481
0.860410 0.828550 0.770718
0.990509 0.830869 0.772396
0.470497 0.992096 0.714076
0.542260 0.988342 0.721248
0.706355 0.978302 0.744228
0.862730 0.968475 0.777493
0.981109 0.965179 0.780819
0.248234 0.134310 0.964599
0.344244 0.136751 0.964141
0.552239 0.165042 0.962646
0.779294 0.246342 0.959564
0.989990 0.364446 0.955138
0.284794 0.296880 0.962707
0.372290 0.302647 0.962158
0.570306 0.327764 0.960388
0.787442 0.382940 0.956970
0.987640 0.460609 0.953063
0.432654 0.570275 0.955840
0.512993 0.591028 0.954253
0.650324 0.607446 0.952392
0.814450 0.625849 0.950195
0.981628 0.655940 0.948516
0.474403 0.768887 0.951415
0.540612 0.776150 0.950286
0.698634 0.799191 0.947387
0.850217 0.825895 0.944976
0.975616 0.836820 0.945953
0.525902 0.963897 0.948089
0.579858 0.963470 0.947692
0.720455 0.962737 0.946868
0.862028 0.962646 0.946532
0.972503 0.964172 0.947906
