其他预设/【232】美食博客调色预设124款/1.3D LUT预设（视频调色-PR-AE-PS-FCPX-达芬奇用）/0 A Piece Of Candy And A Book.cube
# Created by Adobe Lightroom plugin Export LUT (1.17.0)
# www.johnrellis.com/lightroom/exportlut.htm
# Preset: 0 A Piece Of Candy And A Book
# Color profile: /Library/Application Support/Adobe/Color/Profiles/Recommended/AdobeRGB1998.icc
LUT_3D_SIZE 8
DOMAIN_MIN 0.000000 0.000000 0.000000
DOMAIN_MAX 0.903226 0.903226 0.903226
0.164797 0.143496 0.117281
0.220279 0.137209 0.115267
0.358282 0.129397 0.108583
0.550591 0.108034 0.093874
0.734340 0.072175 0.061921
0.871672 0.041169 0.000000
0.975158 0.062623 0.000000
1.000000 0.098299 0.000000
0.161990 0.198215 0.111391
0.220279 0.196445 0.110475
0.357519 0.194919 0.106142
0.548547 0.193637 0.088289
0.731838 0.182925 0.044465
0.868681 0.170779 0.000000
0.972686 0.165438 0.000000
1.000000 0.171206 0.000000
0.167971 0.333532 0.098939
0.228641 0.333440 0.097261
0.365148 0.333379 0.090120
0.551141 0.348913 0.052918
0.731777 0.349218 0.000000
0.868101 0.334234 0.000000
0.972625 0.318242 0.000000
1.000000 0.305760 0.000000
0.162600 0.523766 0.000000
0.235721 0.523430 0.000000
0.388800 0.523278 0.000000
0.563684 0.527977 0.000000
0.735225 0.524834 0.000000
0.867430 0.501091 0.000000
0.968902 0.473304 0.000000
1.000000 0.447364 0.000000
0.155367 0.700984 0.000000
0.232486 0.700099 0.000000
0.387793 0.697719 0.000000
0.555688 0.694575 0.000000
0.721584 0.688838 0.000000
0.860227 0.664759 0.000000
0.961822 0.626795 0.000000
1.000000 0.590051 0.000000
0.173007 0.833005 0.000000
0.237888 0.833402 0.000000
0.377417 0.830533 0.000000
0.532586 0.825925 0.000000
0.687800 0.819272 0.000000
0.838254 0.811673 0.000000
0.954772 0.779629 0.000000
1.000000 0.732052 0.000000
0.219669 0.932921 0.000000
0.264561 0.932372 0.000000
0.376684 0.929473 0.000000
0.512047 0.924804 0.000000
0.651698 0.918212 0.000000
0.789548 0.910582 0.000000
0.922362 0.902068 0.000000
1.000000 0.869749 0.000000
0.283085 1.000000 0.000000
0.311833 1.000000 0.000000
0.394781 1.000000 0.000000
0.506126 1.000000 0.000000
0.625818 0.994537 0.000000
0.749203 0.987854 0.000000
0.870115 0.980102 0.068910
0.985626 0.971191 0.107668
0.165408 0.141817 0.162844
0.222965 0.138125 0.162295
0.358587 0.126467 0.161196
0.549981 0.062531 0.151003
0.732815 0.000000 0.135775
0.868467 0.000000 0.122683
0.972229 0.017609 0.116335
1.000000 0.106386 0.120760
0.169680 0.196902 0.160952
0.223728 0.195590 0.160250
0.359686 0.190372 0.157198
0.549859 0.176638 0.147127
0.731655 0.159945 0.131075
0.866911 0.153201 0.118410
0.970367 0.158267 0.112490
1.000000 0.174990 0.117983
0.171054 0.331853 0.155886
0.225895 0.332525 0.151186
0.366125 0.332433 0.146761
0.552026 0.342992 0.131746
0.730800 0.340459 0.112642
0.865476 0.326757 0.102052
0.969085 0.314641 0.101717
1.000000 0.307774 0.114199
0.149538 0.521813 0.125093
0.221958 0.522148 0.115511
0.384161 0.522515 0.107393
0.560510 0.523552 0.089906
0.730282 0.517723 0.064485
0.862547 0.495216 0.061311
0.965118 0.470497 0.078279
1.000000 0.448585 0.105806
0.132815 0.700282 0.001740
0.220035 0.699153 0.000000
0.382452 0.696071 0.000000
0.552483 0.691554 0.000000
0.718898 0.685237 0.000000
0.857633 0.661463 0.000000
0.959716 0.625452 0.011048
1.000000 0.591180 0.099458
0.172854 0.831174 0.000000
0.237064 0.830442 0.000000
0.376745 0.827756 0.000000
0.532128 0.823545 0.000000
0.687312 0.817502 0.000000
0.837949 0.810575 0.000000
0.953491 0.778714 0.000000
1.000000 0.732662 0.103517
0.233219 0.930663 0.000000
0.274510 0.929717 0.000000
0.382635 0.927092 0.000000
0.515709 0.922911 0.000000
0.653956 0.916808 0.000000
0.790311 0.909239 0.000000
0.921630 0.900664 0.046754
1.000000 0.868772 0.117556
0.302556 1.000000 0.121736
0.329137 1.000000 0.122621
0.407355 1.000000 0.125612
0.514763 0.999695 0.132418
0.632898 0.994324 0.140505
0.753292 0.987396 0.151217
0.871763 0.979461 0.165682
0.985534 0.970611 0.183230
0.186221 0.137301 0.280400
0.242069 0.135073 0.280003
0.371130 0.121004 0.278782
0.558221 0.000000 0.289647
0.736538 0.000000 0.279210
0.870146 0.000000 0.269810
0.971099 0.121157 0.270115
1.000000 0.196139 0.274205
0.182803 0.197910 0.279484
0.237705 0.193820 0.279088
0.371496 0.183871 0.277989
0.558526 0.143954 0.284184
0.735866 0.093019 0.273869
0.868437 0.138949 0.268406
0.969604 0.191257 0.268650
1.000000 0.236545 0.273442
0.182010 0.334997 0.276738
0.233768 0.334447 0.276493
0.374243 0.332006 0.275029
0.561761 0.326757 0.271092
0.735958 0.323430 0.267002
0.866728 0.324651 0.265415
0.967376 0.331090 0.267491
1.000000 0.342687 0.273960
0.158755 0.522393 0.280461
0.221439 0.523369 0.276249
0.376471 0.525139 0.264652
0.566064 0.524407 0.260868
0.734127 0.513542 0.258610
0.863462 0.496162 0.260594
0.963592 0.481544 0.266239
1.000000 0.471504 0.276005
0.146914 0.699214 0.261631
0.220554 0.698848 0.257908
0.381964 0.696407 0.253178
0.555352 0.692012 0.251347
0.722683 0.685817 0.248875
0.857694 0.661738 0.253666
0.957336 0.631617 0.265171
1.000000 0.605768 0.279881
0.194705 0.830045 0.241947
0.257389 0.829129 0.244358
0.396887 0.825681 0.252720
0.543389 0.821256 0.252384
0.692897 0.815366 0.252598
0.838773 0.808865 0.254582
0.950256 0.779294 0.268498
1.000000 0.740719 0.289464
0.276036 0.929046 0.249577
0.322545 0.927581 0.258854
0.423285 0.924163 0.269078
0.540795 0.919951 0.270359
0.668574 0.914183 0.272587
0.797574 0.907408 0.277287
0.923095 0.900175 0.284672
1.000000 0.870939 0.303075
0.366247 1.000000 0.290043
0.399207 1.000000 0.301518
0.460639 0.999023 0.302525
0.552789 0.995911 0.307073
0.657954 0.990967 0.311040
0.768643 0.984802 0.317235
0.879271 0.977722 0.325780
0.986419 0.969909 0.336309
0.217472 0.127382 0.451942
0.272679 0.120302 0.452216
0.406744 0.086702 0.451545
0.569390 0.000000 0.450446
0.737636 0.000000 0.444068
0.867857 0.000000 0.423804
0.965789 0.185855 0.415747
1.000000 0.315099 0.431098
0.200381 0.190768 0.452735
0.260838 0.186191 0.452644
0.402258 0.168551 0.451850
0.570092 0.132723 0.450629
0.737697 0.094148 0.442451
0.866484 0.153079 0.424231
0.963897 0.251469 0.420111
1.000000 0.355627 0.439185
0.177768 0.346990 0.451026
0.236149 0.341588 0.451026
0.388006 0.329229 0.450538
0.571008 0.321660 0.449226
0.736660 0.324285 0.439704
0.863554 0.353491 0.433356
0.959411 0.407294 0.444617
1.000000 0.440284 0.450660
0.166720 0.525841 0.448371
0.231540 0.525536 0.448249
0.386755 0.524376 0.447700
0.572900 0.522576 0.446357
0.731533 0.521447 0.444923
0.856931 0.523064 0.445228
0.954376 0.527672 0.447913
1.000000 0.534722 0.452796
0.172702 0.698329 0.435492
0.240970 0.697383 0.434241
0.397864 0.694179 0.433295
0.576806 0.688441 0.444617
0.726833 0.684596 0.444343
0.853269 0.670558 0.446418
0.949554 0.655848 0.451057
1.000000 0.644678 0.457404
0.228733 0.829068 0.410864
0.286107 0.828763 0.413245
0.426795 0.824002 0.423407
0.584314 0.816953 0.447242
0.712062 0.812680 0.447883
0.841367 0.807828 0.449165
0.943450 0.785580 0.455604
1.000000 0.760342 0.464820
0.307073 0.926970 0.398657
0.350317 0.925658 0.404425
0.469337 0.920653 0.428321
0.597131 0.914214 0.456916
0.702022 0.909789 0.458198
0.812985 0.904540 0.460334
0.924285 0.898833 0.463783
1.000000 0.875029 0.472816
0.395117 1.000000 0.410986
0.427893 0.999268 0.420172
0.520531 0.994293 0.450507
0.615778 0.989105 0.474525
0.700404 0.985138 0.476478
0.793912 0.980285 0.479469
0.890715 0.974731 0.484138
0.986664 0.968688 0.490089
0.240452 0.112825 0.618616
0.289586 0.104707 0.618555
0.414740 0.064393 0.617700
0.568719 0.000000 0.616449
0.734005 0.000000 0.615595
0.864195 0.000000 0.585321
0.961089 0.198703 0.556786
1.000000 0.323919 0.546868
0.225498 0.181613 0.618524
0.278691 0.177401 0.618677
0.409430 0.161440 0.617823
0.566888 0.133455 0.616083
0.733608 0.102937 0.615015
0.863310 0.163546 0.585382
0.959655 0.261814 0.559472
1.000000 0.363348 0.552270
0.195377 0.334020 0.617060
0.255375 0.331182 0.616876
0.400153 0.327764 0.615686
0.565240 0.325200 0.614496
0.731624 0.326452 0.612207
0.858640 0.355108 0.586725
0.953704 0.407935 0.570947
1.000000 0.467323 0.569726
0.199069 0.510979 0.613611
0.260075 0.510307 0.613306
0.408728 0.511254 0.612238
0.578271 0.521324 0.609949
0.728969 0.525170 0.607935
0.851621 0.537835 0.595972
0.945373 0.560174 0.591394
1.000000 0.589960 0.596887
0.209995 0.686000 0.608759
0.270665 0.685725 0.608576
0.418250 0.684260 0.607507
0.586664 0.682399 0.605890
0.726955 0.681025 0.604395
0.845640 0.680842 0.603601
0.938476 0.682582 0.604456
1.000000 0.685817 0.606744
0.264103 0.824094 0.579278
0.314366 0.822904 0.579828
0.445869 0.818143 0.583124
0.596246 0.811368 0.592340
0.726040 0.806332 0.602289
0.840360 0.804715 0.603967
0.934508 0.792844 0.607599
1.000000 0.781674 0.611841
0.344701 0.923186 0.550652
0.382818 0.921691 0.553857
0.490272 0.916716 0.566522
0.616541 0.909880 0.586969
0.731380 0.903624 0.608026
0.825864 0.900267 0.609339
0.923125 0.896666 0.611200
1.000000 0.879515 0.616175
0.426886 0.997009 0.540093
0.455421 0.995575 0.545617
0.537560 0.991028 0.563714
0.643000 0.984924 0.592493
0.740627 0.978576 0.618921
0.818357 0.975067 0.620844
0.901244 0.971130 0.623896
0.985199 0.966888 0.627924
0.250340 0.106203 0.758785
0.292882 0.100343 0.758633
0.405310 0.075380 0.757565
0.547082 0.000000 0.756802
0.698970 0.000000 0.755398
0.851133 0.055756 0.753048
0.953124 0.216281 0.709163
1.000000 0.336492 0.675624
0.242802 0.177432 0.757443
0.286931 0.174685 0.757229
0.402258 0.165927 0.756497
0.546166 0.155886 0.755642
0.698573 0.156893 0.754055
0.850065 0.182589 0.751766
0.951568 0.274052 0.709621
1.000000 0.373236 0.678492
0.245060 0.330053 0.756466
0.290410 0.330053 0.756191
0.407782 0.330755 0.755428
0.551934 0.334295 0.754208
0.701656 0.344244 0.752071
0.847990 0.364263 0.749508
0.946746 0.415686 0.713649
1.000000 0.474617 0.688991
0.266392 0.493935 0.753994
0.314855 0.496376 0.753353
0.445045 0.510002 0.751614
0.582818 0.524498 0.750423
0.714687 0.532403 0.748928
0.845212 0.542321 0.746883
0.939971 0.564538 0.721462
1.000000 0.594537 0.705348
0.286748 0.652155 0.749172
0.332891 0.653468 0.748836
0.458228 0.659541 0.747433
0.601923 0.671260 0.745357
0.726558 0.680476 0.743526
0.840787 0.683284 0.742367
0.931487 0.693965 0.729671
1.000000 0.711177 0.726345
0.316289 0.806577 0.743954
0.359380 0.806546 0.744015
0.475380 0.805570 0.743221
0.607538 0.804318 0.742092
0.729976 0.803311 0.740902
0.838499 0.803494 0.740810
0.925048 0.804746 0.741726
0.994385 0.806821 0.743343
0.386847 0.919188 0.711147
0.420630 0.917998 0.712367
0.514031 0.913634 0.715816
0.627253 0.907652 0.721370
0.739956 0.901335 0.730343
0.838834 0.896727 0.742885
0.920745 0.895506 0.743984
0.990692 0.887633 0.746853
0.462501 0.993194 0.678523
0.486549 0.991943 0.681239
0.557641 0.987945 0.690211
0.652918 0.982208 0.705104
0.753872 0.975341 0.726772
0.841520 0.969879 0.748165
0.910674 0.967773 0.750332
0.982147 0.965515 0.753017
0.251316 0.114046 0.871427
0.288243 0.111940 0.871519
0.388708 0.105531 0.870970
0.517815 0.103182 0.870115
0.657099 0.124575 0.868498
0.797330 0.173526 0.866239
0.932036 0.239963 0.863493
1.000000 0.347295 0.814847
0.251255 0.181308 0.870298
0.288518 0.180941 0.870329
0.389685 0.179965 0.869841
0.519402 0.184176 0.868742
0.658381 0.201633 0.867063
0.797543 0.237003 0.864714
0.930632 0.289982 0.861845
1.000000 0.379706 0.814817
0.280674 0.331792 0.869017
0.314672 0.332647 0.868803
0.410040 0.336400 0.868009
0.534844 0.345251 0.866728
0.668666 0.361364 0.864744
0.801938 0.387793 0.862425
0.928496 0.423682 0.860014
1.000000 0.479011 0.818936
0.346227 0.494301 0.865843
0.383124 0.500572 0.865141
0.479286 0.518090 0.863432
0.580896 0.525689 0.862333
0.694911 0.536278 0.860685
0.811490 0.550225 0.859037
0.925292 0.566400 0.857572
1.000000 0.595880 0.824796
0.368566 0.629511 0.861997
0.403204 0.633234 0.861357
0.501030 0.646540 0.859586
0.618524 0.666560 0.857359
0.721889 0.678859 0.855741
0.820768 0.685115 0.854673
0.920867 0.693843 0.853758
0.993896 0.712093 0.832944
0.398688 0.764920 0.858152
0.429633 0.766537 0.857816
0.517601 0.771847 0.856748
0.626612 0.779934 0.855375
0.737453 0.791165 0.853696
0.834195 0.802426 0.852659
0.917967 0.805966 0.852628
0.986419 0.813870 0.843870
0.433661 0.895781 0.855039
0.460365 0.895689 0.855009
0.537102 0.895109 0.854520
0.637385 0.894469 0.853910
0.743160 0.893736 0.853025
0.837339 0.893584 0.852598
0.916197 0.894255 0.853025
0.981109 0.895781 0.854429
0.490211 0.988556 0.823026
0.510765 0.987549 0.823606
0.574548 0.984466 0.826169
0.663142 0.979309 0.830472
0.758541 0.973205 0.837552
0.844205 0.968170 0.846494
0.916747 0.965179 0.856901
0.977783 0.964660 0.858854
0.248234 0.134310 0.964599
0.280491 0.134707 0.964569
0.370428 0.138155 0.963989
0.488624 0.152010 0.963226
0.617121 0.182986 0.961913
0.747189 0.231418 0.960082
0.873136 0.294285 0.957855
0.989990 0.364446 0.955138
0.255131 0.194064 0.963897
0.286809 0.195285 0.963867
0.375921 0.199954 0.963317
0.493385 0.213199 0.962432
0.620905 0.239475 0.961059
0.749630 0.280339 0.959167
0.873930 0.334661 0.956847
0.989105 0.395544 0.954253
0.302892 0.336950 0.961822
0.329778 0.338659 0.961700
0.408911 0.344579 0.960967
0.518395 0.358038 0.960235
0.638727 0.379034 0.958709
0.760586 0.409400 0.956603
0.877806 0.447272 0.954437
0.986847 0.485969 0.952331
0.415595 0.511803 0.957336
0.433753 0.513481 0.957214
0.490700 0.518273 0.956573
0.576440 0.527794 0.955688
0.676295 0.541100 0.954406
0.780514 0.557397 0.952880
0.884001 0.576318 0.951354
0.983642 0.597894 0.950011
0.442908 0.625910 0.954559
0.468269 0.631159 0.954192
0.541497 0.647364 0.952697
0.637507 0.671717 0.950652
0.715358 0.677852 0.949737
0.801968 0.686519 0.948730
0.891569 0.698360 0.947845
0.979644 0.712978 0.947265
0.466712 0.739864 0.951781
0.488685 0.742550 0.951385
0.554711 0.751278 0.950164
0.645716 0.765743 0.948455
0.744991 0.786496 0.946380
0.827115 0.800259 0.945495
0.901335 0.806882 0.945708
0.976349 0.814725 0.946136
0.494667 0.853696 0.949523
0.513817 0.854704 0.949248
0.573083 0.858244 0.948455
0.659113 0.864836 0.947326
0.752956 0.874235 0.945983
0.838407 0.884520 0.945098
0.910674 0.893675 0.945129
0.973632 0.897063 0.945769
0.525902 0.963897 0.948089
0.542718 0.963745 0.947936
0.596460 0.963378 0.947570
0.676722 0.962921 0.947112
0.763455 0.962585 0.946654
0.843503 0.962585 0.946502
0.913787 0.963104 0.946868
0.972503 0.964172 0.947906
