其他预设/【232】美食博客调色预设124款/1.3D LUT预设（视频调色-PR-AE-PS-FCPX-达芬奇用）/0 A Piece Of Candy And A Book.cube
# Created by Adobe Lightroom plugin Export LUT (1.17.0)
# www.johnrellis.com/lightroom/exportlut.htm
# Preset: 0 A Piece Of Candy And A Book
# Color profile: /Library/Application Support/Adobe/Color/Profiles/Recommended/AdobeRGB1998.icc
LUT_3D_SIZE 32
0.164797 0.143496 0.117281
0.166476 0.143191 0.117250
0.177005 0.140993 0.117037
0.195926 0.138186 0.116457
0.220279 0.137209 0.115267
0.248600 0.135927 0.113649
0.280949 0.134279 0.111666
0.317327 0.132113 0.110506
0.358282 0.129397 0.108583
0.402899 0.125765 0.106325
0.450690 0.120790 0.103548
0.500206 0.115206 0.099397
0.550591 0.108034 0.093874
0.601160 0.099519 0.087190
0.649653 0.090517 0.079591
0.694026 0.081300 0.070954
0.734340 0.072175 0.061921
0.771267 0.065248 0.048371
0.805447 0.058625 0.028901
0.839567 0.048127 0.009583
0.871672 0.041169 0.000000
0.901213 0.039857 0.000000
0.928099 0.045686 0.000000
0.952605 0.055390 0.000000
0.975158 0.062623 0.000000
0.996063 0.070985 0.000000
1.000000 0.079530 0.000000
1.000000 0.089082 0.000000
1.000000 0.098299 0.000000
1.000000 0.108095 0.000000
1.000000 0.118196 0.005158
1.000000 0.128450 0.027802
0.164523 0.145937 0.117037
0.167056 0.146639 0.116884
0.177462 0.146395 0.116457
0.196017 0.145632 0.115694
0.220249 0.144564 0.114504
0.248478 0.143221 0.112917
0.280827 0.141878 0.111299
0.317052 0.140078 0.110109
0.357885 0.137636 0.108431
0.402533 0.134829 0.106111
0.450172 0.130983 0.103029
0.499580 0.126101 0.098878
0.549950 0.120180 0.093538
0.600427 0.113191 0.086793
0.648859 0.106081 0.078828
0.693294 0.098329 0.070527
0.733547 0.091707 0.061372
0.770474 0.085512 0.046845
0.804715 0.080873 0.026886
0.838712 0.076692 0.006683
0.870695 0.073701 0.000000
0.900267 0.072236 0.000000
0.927184 0.073365 0.000000
0.951781 0.076020 0.000000
0.974365 0.080629 0.000000
0.995331 0.086458 0.000000
1.000000 0.092622 0.000000
1.000000 0.100282 0.000000
1.000000 0.108003 0.000000
1.000000 0.116487 0.000000
1.000000 0.125307 0.001556
1.000000 0.134646 0.024231
0.163180 0.156649 0.115908
0.167697 0.156924 0.115694
0.177646 0.156619 0.115297
0.196109 0.155337 0.114595
0.220249 0.153872 0.113466
0.248569 0.152621 0.112032
0.280613 0.151278 0.111116
0.316869 0.149783 0.109682
0.357702 0.148196 0.107912
0.402197 0.145907 0.105776
0.449744 0.143191 0.102632
0.499184 0.139406 0.098390
0.549493 0.134463 0.092744
0.600000 0.128969 0.085847
0.648341 0.123110 0.078096
0.692805 0.117128 0.069184
0.733089 0.111666 0.059937
0.769955 0.106752 0.043427
0.804288 0.102327 0.023713
0.838254 0.099397 0.003540
0.870176 0.096559 0.000000
0.899718 0.094728 0.000000
0.926665 0.095552 0.000000
0.951263 0.096407 0.000000
0.973907 0.099275 0.000000
0.994903 0.102846 0.000000
1.000000 0.107790 0.000000
1.000000 0.113771 0.000000
1.000000 0.119753 0.000000
1.000000 0.127077 0.000000
1.000000 0.134707 0.000000
1.000000 0.142885 0.023499
0.161105 0.174990 0.113649
0.168032 0.174746 0.113405
0.177523 0.174289 0.113069
0.196170 0.173770 0.112215
0.220554 0.172183 0.111513
0.248692 0.170809 0.110994
0.280705 0.169650 0.110048
0.316960 0.169070 0.108949
0.357549 0.168215 0.107332
0.402167 0.167330 0.104799
0.449531 0.165866 0.101503
0.499001 0.163577 0.096834
0.549065 0.160922 0.091157
0.599420 0.157473 0.083742
0.647822 0.153048 0.075349
0.692195 0.148836 0.065980
0.732448 0.144656 0.054444
0.769314 0.140597 0.034882
0.803830 0.137087 0.015167
0.837491 0.134005 0.000000
0.869261 0.131594 0.000000
0.898741 0.129580 0.000000
0.925750 0.128878 0.000000
0.950500 0.128695 0.000000
0.973327 0.129702 0.000000
0.994507 0.131655 0.000000
1.000000 0.134463 0.000000
1.000000 0.138216 0.000000
1.000000 0.142672 0.000000
1.000000 0.147494 0.000000
1.000000 0.153353 0.000000
1.000000 0.159701 0.019348
0.161990 0.198215 0.111391
0.168856 0.198001 0.111360
0.177829 0.197665 0.111238
0.195590 0.197269 0.110842
0.220279 0.196445 0.110475
0.248569 0.195254 0.109926
0.280705 0.194583 0.109133
0.316777 0.194614 0.107942
0.357519 0.194919 0.106142
0.401862 0.195590 0.103365
0.449165 0.195377 0.099336
0.498390 0.194980 0.094301
0.548547 0.193637 0.088289
0.598810 0.192081 0.080293
0.647089 0.189609 0.071199
0.691432 0.186648 0.060975
0.731838 0.182925 0.044465
0.768734 0.179782 0.022522
0.803647 0.176089 0.002991
0.837095 0.173281 0.000000
0.868681 0.170779 0.000000
0.898100 0.168551 0.000000
0.925078 0.166873 0.000000
0.949859 0.165988 0.000000
0.972686 0.165438 0.000000
0.993957 0.165652 0.000000
1.000000 0.166903 0.000000
1.000000 0.168399 0.000000
1.000000 0.171206 0.000000
1.000000 0.174472 0.000000
1.000000 0.178164 0.000000
1.000000 0.182742 0.016114
0.163607 0.225284 0.109957
0.170199 0.225315 0.109895
0.178897 0.225162 0.109743
0.196445 0.224704 0.109590
0.220768 0.224155 0.109194
0.249088 0.223484 0.108797
0.280980 0.223270 0.107942
0.317174 0.224155 0.106538
0.357763 0.225559 0.104250
0.402106 0.227207 0.100923
0.449348 0.228733 0.096437
0.498573 0.229557 0.090913
0.548394 0.229984 0.083925
0.598657 0.229679 0.075074
0.646784 0.228580 0.064454
0.691096 0.226383 0.049622
0.731380 0.223423 0.025757
0.768276 0.220157 0.004578
0.803494 0.216953 0.000000
0.836851 0.213993 0.000000
0.868406 0.211246 0.000000
0.897856 0.208316 0.000000
0.929961 0.207706 0.000000
0.954253 0.205844 0.000000
0.976562 0.204593 0.000000
0.997284 0.203677 0.000000
1.000000 0.203555 0.000000
1.000000 0.203738 0.000000
1.000000 0.204715 0.000000
1.000000 0.206363 0.000000
1.000000 0.208713 0.000000
1.000000 0.211673 0.024994
0.165469 0.257603 0.108064
0.172305 0.257420 0.108034
0.181186 0.257359 0.107851
0.198825 0.257115 0.107881
0.223148 0.256931 0.107393
0.251865 0.256352 0.106691
0.283513 0.255894 0.105867
0.318914 0.256657 0.104036
0.359808 0.259312 0.100984
0.404486 0.262211 0.097047
0.451789 0.265110 0.091768
0.500908 0.267430 0.085054
0.550713 0.269108 0.076875
0.600793 0.269963 0.066377
0.648524 0.269535 0.050965
0.692287 0.267796 0.025086
0.732174 0.265080 0.002167
0.769650 0.261875 0.000000
0.804837 0.258671 0.000000
0.838285 0.255406 0.000000
0.870115 0.252323 0.000000
0.899809 0.249332 0.000000
0.927092 0.246769 0.000000
0.952087 0.244083 0.000000
0.974975 0.241978 0.000000
0.996033 0.239933 0.000000
1.000000 0.238743 0.000000
1.000000 0.237858 0.000000
1.000000 0.237491 0.000000
1.000000 0.237827 0.000000
1.000000 0.238468 0.000000
1.000000 0.240085 0.018555
0.167117 0.293217 0.104982
0.174044 0.293217 0.104646
0.182956 0.293126 0.104463
0.200809 0.293034 0.104005
0.225650 0.292912 0.103426
0.254978 0.292668 0.102541
0.287388 0.292454 0.101289
0.321996 0.292332 0.099825
0.360449 0.293828 0.097139
0.404913 0.297948 0.092226
0.452094 0.302007 0.086030
0.500999 0.305577 0.078065
0.550713 0.308385 0.068238
0.600549 0.310307 0.052033
0.648005 0.310613 0.023133
0.691554 0.309300 0.000000
0.731716 0.306798 0.000000
0.769253 0.303655 0.000000
0.804105 0.300114 0.000000
0.837339 0.296666 0.000000
0.868986 0.293156 0.000000
0.898619 0.289647 0.000000
0.925811 0.286290 0.000000
0.950805 0.282963 0.000000
0.973724 0.279820 0.000000
0.994842 0.277226 0.000000
1.000000 0.274693 0.000000
1.000000 0.272709 0.000000
1.000000 0.271244 0.000000
1.000000 0.270298 0.000000
1.000000 0.269932 0.000000
1.000000 0.269993 0.011597
0.167971 0.333532 0.098939
0.175143 0.333501 0.098817
0.184390 0.333562 0.098543
0.202976 0.333410 0.098238
0.228641 0.333440 0.097261
0.258793 0.333349 0.096193
0.292149 0.333257 0.094636
0.327672 0.333318 0.092561
0.365148 0.333379 0.090120
0.405859 0.335302 0.085908
0.452888 0.340520 0.078004
0.501549 0.345037 0.068147
0.551141 0.348913 0.052918
0.600763 0.351690 0.020600
0.647791 0.352636 0.000000
0.691371 0.351598 0.000000
0.731777 0.349218 0.000000
0.768978 0.346014 0.000000
0.803494 0.341985 0.000000
0.836606 0.338018 0.000000
0.868101 0.334234 0.000000
0.897612 0.330144 0.000000
0.924743 0.326116 0.000000
0.949676 0.322210 0.000000
0.972625 0.318242 0.000000
0.993744 0.314488 0.000000
1.000000 0.311223 0.000000
1.000000 0.308293 0.000000
1.000000 0.305760 0.000000
1.000000 0.303655 0.000000
1.000000 0.302190 0.000000
1.000000 0.301244 0.003632
0.168246 0.377539 0.089601
0.175723 0.377508 0.089448
0.185245 0.377508 0.089174
0.204746 0.377478 0.088411
0.231357 0.377539 0.087465
0.262730 0.377478 0.085756
0.297002 0.377508 0.083772
0.333562 0.377508 0.081147
0.371832 0.377783 0.077882
0.411322 0.377996 0.073762
0.453620 0.379706 0.067384
0.502098 0.385229 0.050172
0.551446 0.389960 0.016632
0.600763 0.393530 0.000000
0.648188 0.395270 0.000000
0.692042 0.394690 0.000000
0.731991 0.392187 0.000000
0.768887 0.388464 0.000000
0.803250 0.384253 0.000000
0.836118 0.379797 0.000000
0.867399 0.375433 0.000000
0.896635 0.370855 0.000000
0.923552 0.365972 0.000000
0.948272 0.361242 0.000000
0.971160 0.356481 0.000000
0.992309 0.351995 0.000000
1.000000 0.347784 0.000000
1.000000 0.344030 0.000000
1.000000 0.340551 0.000000
1.000000 0.337591 0.000000
1.000000 0.335210 0.000000
1.000000 0.333196 0.000000
0.166964 0.423987 0.075441
0.174929 0.423987 0.075227
0.185489 0.424018 0.074739
0.205722 0.424018 0.073732
0.233616 0.423987 0.072084
0.265965 0.424048 0.070069
0.301518 0.424201 0.067109
0.339055 0.424353 0.063203
0.378241 0.424537 0.058412
0.418677 0.424903 0.047456
0.459907 0.425208 0.030579
0.502983 0.426520 0.008972
0.552270 0.432074 0.000000
0.601984 0.436744 0.000000
0.648981 0.438697 0.000000
0.692134 0.437995 0.000000
0.731563 0.435035 0.000000
0.768124 0.431006 0.000000
0.802365 0.426215 0.000000
0.835142 0.421393 0.000000
0.866331 0.416510 0.000000
0.895415 0.411292 0.000000
0.922362 0.405982 0.000000
0.947082 0.400519 0.000000
0.969909 0.395117 0.000000
0.991119 0.389715 0.000000
1.000000 0.384710 0.000000
1.000000 0.380072 0.000000
1.000000 0.375738 0.000000
1.000000 0.371893 0.000000
1.000000 0.368475 0.000000
1.000000 0.365698 0.000000
0.165347 0.472480 0.046967
0.173526 0.472602 0.044984
0.184787 0.472511 0.044709
0.205753 0.472450 0.040467
0.234897 0.472572 0.035767
0.268528 0.472541 0.028321
0.305211 0.472755 0.019226
0.343755 0.472938 0.009094
0.383886 0.473060 0.000000
0.425086 0.473365 0.000000
0.467079 0.473671 0.000000
0.510307 0.474800 0.000000
0.559411 0.480446 0.000000
0.608942 0.485389 0.000000
0.655116 0.486854 0.000000
0.697566 0.485389 0.000000
0.736446 0.481788 0.000000
0.772488 0.476936 0.000000
0.806210 0.471412 0.000000
0.838590 0.465858 0.000000
0.869169 0.460029 0.000000
0.897642 0.453956 0.000000
0.923919 0.447608 0.000000
0.948211 0.441260 0.000000
0.970703 0.434913 0.000000
0.991577 0.428717 0.000000
1.000000 0.422827 0.000000
1.000000 0.417212 0.000000
1.000000 0.412024 0.000000
1.000000 0.407263 0.000000
1.000000 0.403052 0.000000
1.000000 0.399176 0.000000
0.162600 0.523766 0.000000
0.171389 0.523857 0.000000
0.183139 0.523705 0.000000
0.205356 0.523583 0.000000
0.235721 0.523430 0.000000
0.270481 0.523247 0.000000
0.308171 0.523186 0.000000
0.347784 0.523156 0.000000
0.388800 0.523278 0.000000
0.431342 0.524376 0.000000
0.474922 0.525566 0.000000
0.519066 0.526696 0.000000
0.563684 0.527977 0.000000
0.608576 0.528893 0.000000
0.654536 0.530480 0.000000
0.696651 0.528923 0.000000
0.735225 0.524834 0.000000
0.771054 0.519493 0.000000
0.804685 0.513451 0.000000
0.836942 0.507347 0.000000
0.867430 0.501091 0.000000
0.895872 0.494392 0.000000
0.922087 0.487465 0.000000
0.946410 0.480323 0.000000
0.968902 0.473304 0.000000
0.989807 0.466346 0.000000
1.000000 0.459693 0.000000
1.000000 0.453376 0.000000
1.000000 0.447364 0.000000
1.000000 0.441871 0.000000
1.000000 0.436744 0.000000
1.000000 0.432074 0.000000
0.158816 0.572839 0.000000
0.168612 0.572778 0.000000
0.180545 0.572686 0.000000
0.203891 0.572503 0.000000
0.235111 0.572168 0.000000
0.271000 0.572045 0.000000
0.309636 0.572198 0.000000
0.350072 0.572351 0.000000
0.391821 0.572564 0.000000
0.434516 0.572961 0.000000
0.477882 0.573358 0.000000
0.521813 0.573938 0.000000
0.565881 0.574304 0.000000
0.609979 0.574517 0.000000
0.653895 0.574456 0.000000
0.695583 0.572381 0.000000
0.733791 0.567834 0.000000
0.769406 0.562066 0.000000
0.802976 0.555474 0.000000
0.835172 0.548882 0.000000
0.865660 0.541985 0.000000
0.894041 0.534783 0.000000
0.920287 0.527184 0.000000
0.944610 0.519463 0.000000
0.967163 0.511711 0.000000
0.988159 0.504051 0.000000
1.000000 0.496651 0.000000
1.000000 0.489540 0.000000
1.000000 0.482887 0.000000
1.000000 0.476631 0.000000
1.000000 0.470832 0.000000
1.000000 0.465400 0.000000
0.156405 0.619684 0.000000
0.166079 0.619715 0.000000
0.178317 0.619562 0.000000
0.202609 0.619379 0.000000
0.234440 0.619104 0.000000
0.270787 0.618769 0.000000
0.309697 0.618402 0.000000
0.350317 0.618067 0.000000
0.392035 0.617823 0.000000
0.434638 0.617731 0.000000
0.477638 0.617639 0.000000
0.521080 0.617639 0.000000
0.564660 0.617487 0.000000
0.608148 0.617182 0.000000
0.651301 0.616541 0.000000
0.693996 0.615442 0.000000
0.732448 0.610895 0.000000
0.767819 0.604547 0.000000
0.801297 0.597528 0.000000
0.833494 0.590387 0.000000
0.863828 0.582940 0.000000
0.892180 0.575128 0.000000
0.918395 0.566888 0.000000
0.942718 0.558495 0.000000
0.965301 0.550011 0.000000
0.986419 0.541741 0.000000
1.000000 0.533654 0.000000
1.000000 0.525963 0.000000
1.000000 0.518639 0.000000
1.000000 0.511742 0.000000
1.000000 0.505211 0.000000
1.000000 0.499092 0.000000
0.154513 0.662593 0.000000
0.164920 0.662531 0.000000
0.176852 0.662440 0.000000
0.201144 0.662196 0.000000
0.233280 0.661830 0.000000
0.269871 0.661372 0.000000
0.308568 0.660945 0.000000
0.348974 0.660487 0.000000
0.390661 0.659937 0.000000
0.432837 0.659449 0.000000
0.475471 0.658839 0.000000
0.518273 0.658228 0.000000
0.560937 0.657435 0.000000
0.603601 0.656550 0.000000
0.645960 0.655390 0.000000
0.687984 0.654047 0.000000
0.729427 0.652552 0.000000
0.766049 0.646906 0.000000
0.799619 0.639460 0.000000
0.831846 0.631952 0.000000
0.862272 0.624018 0.000000
0.890593 0.615564 0.000000
0.916808 0.606744 0.000000
0.941161 0.597681 0.000000
0.963775 0.588617 0.000000
0.984924 0.579614 0.000000
1.000000 0.570855 0.000000
1.000000 0.562493 0.000000
1.000000 0.554467 0.000000
1.000000 0.546807 0.000000
1.000000 0.539544 0.000000
1.000000 0.532616 0.000000
0.155367 0.700984 0.000000
0.164767 0.700923 0.000000
0.177066 0.700740 0.000000
0.200809 0.700526 0.000000
0.232486 0.700099 0.000000
0.268254 0.699580 0.000000
0.306706 0.699001 0.000000
0.346777 0.698390 0.000000
0.387793 0.697719 0.000000
0.429419 0.696986 0.000000
0.471412 0.696254 0.000000
0.513573 0.695460 0.000000
0.555688 0.694575 0.000000
0.597650 0.693446 0.000000
0.639429 0.692103 0.000000
0.680629 0.690578 0.000000
0.721584 0.688838 0.000000
0.762051 0.687129 0.000000
0.797787 0.681331 0.000000
0.829923 0.673243 0.000000
0.860227 0.664759 0.000000
0.888518 0.655695 0.000000
0.914733 0.646204 0.000000
0.939117 0.636561 0.000000
0.961822 0.626795 0.000000
0.983001 0.617151 0.000000
1.000000 0.607782 0.000000
1.000000 0.598749 0.000000
1.000000 0.590051 0.000000
1.000000 0.581781 0.000000
1.000000 0.573785 0.000000
1.000000 0.566186 0.000000
0.156924 0.736812 0.000000
0.166995 0.736751 0.000000
0.179019 0.740414 0.000000
0.202274 0.740108 0.000000
0.233341 0.739620 0.000000
0.268406 0.738949 0.000000
0.306310 0.738216 0.000000
0.345647 0.737331 0.000000
0.386236 0.736477 0.000000
0.427283 0.735531 0.000000
0.468757 0.734554 0.000000
0.510185 0.733486 0.000000
0.551690 0.732265 0.000000
0.593103 0.730892 0.000000
0.634180 0.729366 0.000000
0.674891 0.727687 0.000000
0.715297 0.725917 0.000000
0.755245 0.723934 0.000000
0.794766 0.722011 0.000000
0.829587 0.716060 0.000000
0.859586 0.706661 0.000000
0.887633 0.696773 0.000000
0.913695 0.686427 0.000000
0.937865 0.675990 0.000000
0.960388 0.665400 0.000000
0.981445 0.654963 0.000000
1.000000 0.644800 0.000000
1.000000 0.634974 0.000000
1.000000 0.625605 0.000000
1.000000 0.616571 0.000000
1.000000 0.607935 0.000000
1.000000 0.599603 0.000000
0.161166 0.771542 0.000000
0.170016 0.771939 0.000000
0.181674 0.772274 0.000000
0.203861 0.772457 0.000000
0.233463 0.772335 0.000000
0.267857 0.771908 0.000000
0.304662 0.771267 0.000000
0.343267 0.770413 0.000000
0.382879 0.769589 0.000000
0.423072 0.768643 0.000000
0.463722 0.767605 0.000000
0.504570 0.766537 0.000000
0.545342 0.765286 0.000000
0.586053 0.763882 0.000000
0.626429 0.762325 0.000000
0.666499 0.760586 0.000000
0.706294 0.758724 0.000000
0.745602 0.756832 0.000000
0.784634 0.754849 0.000000
0.823270 0.752865 0.000000
0.857298 0.746944 0.000000
0.885344 0.736538 0.000000
0.911406 0.725612 0.000000
0.935637 0.714504 0.000000
0.958221 0.703304 0.000000
0.979370 0.692256 0.000000
0.999237 0.681453 0.000000
1.000000 0.671015 0.000000
1.000000 0.661006 0.000000
1.000000 0.651301 0.000000
1.000000 0.642023 0.000000
1.000000 0.633051 0.000000
0.166110 0.803250 0.000000
0.174685 0.803586 0.000000
0.185428 0.803922 0.000000
0.206302 0.804013 0.000000
0.235050 0.803861 0.000000
0.268009 0.803464 0.000000
0.303868 0.802762 0.000000
0.341344 0.801968 0.000000
0.379919 0.801114 0.000000
0.419287 0.800137 0.000000
0.459052 0.799130 0.000000
0.499031 0.798001 0.000000
0.539055 0.796658 0.000000
0.578943 0.795254 0.000000
0.618647 0.793637 0.000000
0.658015 0.791836 0.000000
0.697078 0.789975 0.000000
0.735775 0.787991 0.000000
0.774166 0.785946 0.000000
0.812161 0.783932 0.000000
0.849729 0.781857 0.000000
0.883055 0.776181 0.000000
0.909148 0.764675 0.000000
0.933379 0.752926 0.000000
0.955993 0.741085 0.000000
0.977203 0.729366 0.000000
0.997101 0.717891 0.000000
1.000000 0.706844 0.000000
1.000000 0.696162 0.000000
1.000000 0.685817 0.000000
1.000000 0.675898 0.000000
1.000000 0.666285 0.000000
0.173007 0.833005 0.000000
0.180697 0.833249 0.000000
0.190921 0.833524 0.000000
0.210788 0.833585 0.000000
0.237888 0.833402 0.000000
0.269383 0.832944 0.000000
0.303685 0.832273 0.000000
0.339849 0.831510 0.000000
0.377417 0.830533 0.000000
0.415747 0.829557 0.000000
0.454444 0.828489 0.000000
0.493599 0.827268 0.000000
0.532586 0.825925 0.000000
0.571740 0.824430 0.000000
0.610620 0.822812 0.000000
0.649287 0.821103 0.000000
0.687800 0.819272 0.000000
0.725887 0.817441 0.000000
0.763699 0.815549 0.000000
0.801236 0.813596 0.000000
0.838254 0.811673 0.000000
0.874937 0.809720 0.000000
0.907805 0.804440 0.000000
0.932128 0.792050 0.000000
0.954772 0.779629 0.000000
0.975982 0.767300 0.000000
0.995880 0.755154 0.000000
1.000000 0.743435 0.000000
1.000000 0.732052 0.000000
1.000000 0.721126 0.000000
1.000000 0.710475 0.000000
1.000000 0.700160 0.026642
0.182773 0.861784 0.000000
0.189700 0.861875 0.000000
0.198672 0.861875 0.000000
0.216861 0.861723 0.000000
0.242313 0.861387 0.000000
0.272190 0.860838 0.000000
0.304997 0.860166 0.000000
0.339727 0.859373 0.000000
0.375952 0.858518 0.000000
0.413214 0.857542 0.000000
0.450843 0.856504 0.000000
0.488991 0.855314 0.000000
0.527123 0.853941 0.000000
0.565270 0.852415 0.000000
0.603265 0.850767 0.000000
0.641169 0.848997 0.000000
0.678706 0.847135 0.000000
0.716121 0.845182 0.000000
0.753079 0.843229 0.000000
0.789792 0.841184 0.000000
0.826108 0.839078 0.000000
0.861967 0.836973 0.000000
0.897368 0.834806 0.000000
0.929717 0.830014 0.000000
0.952361 0.816892 0.000000
0.973602 0.803922 0.000000
0.993591 0.791196 0.000000
1.000000 0.778866 0.000000
1.000000 0.766903 0.000000
1.000000 0.755306 0.000000
1.000000 0.744076 0.000000
1.000000 0.733089 0.046693
0.193393 0.887053 0.000000
0.199649 0.887114 0.000000
0.207858 0.887144 0.000000
0.224826 0.886961 0.000000
0.248112 0.886625 0.000000
0.276036 0.886076 0.000000
0.307103 0.885435 0.000000
0.340124 0.884611 0.000000
0.375036 0.883726 0.000000
0.410803 0.882719 0.000000
0.447333 0.881651 0.000000
0.484169 0.880430 0.000000
0.521202 0.879088 0.000000
0.558434 0.877592 0.000000
0.595514 0.875975 0.000000
0.632471 0.874266 0.000000
0.669276 0.872404 0.000000
0.705806 0.870542 0.000000
0.742123 0.868589 0.000000
0.778073 0.866606 0.000000
0.813718 0.864591 0.000000
0.848966 0.862486 0.000000
0.883726 0.860349 0.000000
0.918090 0.858152 0.000000
0.949615 0.853574 0.000000
0.970886 0.840024 0.000000
0.990967 0.826719 0.000000
1.000000 0.813809 0.000000
1.000000 0.801266 0.000000
1.000000 0.789059 0.000000
1.000000 0.777218 0.000000
1.000000 0.765652 0.062135
0.206668 0.911376 0.000000
0.212222 0.911437 0.000000
0.219699 0.911406 0.000000
0.234714 0.911223 0.000000
0.256168 0.910826 0.000000
0.281804 0.910246 0.000000
0.310918 0.909545 0.000000
0.342321 0.908659 0.000000
0.375463 0.907683 0.000000
0.409735 0.906584 0.000000
0.444800 0.905394 0.000000
0.480323 0.904112 0.000000
0.516197 0.902708 0.000000
0.552178 0.901152 0.000000
0.588159 0.899474 0.000000
0.624109 0.897642 0.000000
0.659937 0.895750 0.000000
0.695583 0.893828 0.000000
0.730983 0.891905 0.000000
0.766232 0.889952 0.000000
0.801114 0.887968 0.000000
0.835660 0.885924 0.000000
0.869780 0.883787 0.000000
0.903410 0.881590 0.000000
0.936553 0.879271 0.000000
0.968505 0.876188 0.000000
0.988525 0.862211 0.000000
1.000000 0.848661 0.000000
1.000000 0.835508 0.000000
1.000000 0.822690 0.000000
1.000000 0.810269 0.000000
1.000000 0.798062 0.074098
0.219669 0.932921 0.000000
0.224735 0.932982 0.000000
0.231449 0.932982 0.000000
0.244938 0.932769 0.000000
0.264561 0.932372 0.000000
0.288396 0.931853 0.000000
0.315587 0.931182 0.000000
0.345190 0.930358 0.000000
0.376684 0.929473 0.000000
0.409430 0.928466 0.000000
0.443030 0.927337 0.000000
0.477363 0.926116 0.000000
0.512047 0.924804 0.000000
0.546899 0.923339 0.000000
0.581872 0.921752 0.000000
0.616785 0.920043 0.000000
0.651698 0.918212 0.000000
0.686458 0.916350 0.000000
0.721004 0.914458 0.000000
0.755428 0.912535 0.000000
0.789548 0.910582 0.000000
0.823362 0.908537 0.000000
0.856809 0.906462 0.000000
0.889769 0.904295 0.000000
0.922362 0.902068 0.000000
0.954406 0.899748 0.000000
0.986023 0.897398 0.000000
1.000000 0.883482 0.000000
1.000000 0.869749 0.000000
1.000000 0.856382 0.000000
1.000000 0.843320 0.039246
1.000000 0.830533 0.089357
0.234379 0.953368 0.000000
0.239017 0.953368 0.000000
0.244724 0.953307 0.000000
0.256779 0.953094 0.000000
0.274296 0.952667 0.000000
0.296239 0.952178 0.000000
0.321324 0.951476 0.000000
0.349157 0.950713 0.000000
0.379004 0.949828 0.000000
0.409949 0.948852 0.000000
0.442237 0.947814 0.000000
0.475135 0.946654 0.000000
0.508507 0.945373 0.000000
0.542321 0.943999 0.000000
0.576074 0.942473 0.000000
0.610010 0.940826 0.000000
0.643946 0.939055 0.000000
0.677729 0.937255 0.000000
0.711452 0.935393 0.000000
0.744961 0.933501 0.000000
0.778286 0.931579 0.000000
0.811368 0.929625 0.000000
0.844022 0.927581 0.000000
0.876371 0.925444 0.000000
0.908263 0.923278 0.000000
0.939757 0.920989 0.000000
0.970794 0.918730 0.000000
1.000000 0.916381 0.000000
1.000000 0.903349 0.000000
1.000000 0.889403 0.000000
1.000000 0.875731 0.065980
1.000000 0.862333 0.101198
0.249332 0.972290 0.000000
0.253269 0.972290 0.000000
0.258579 0.972198 0.000000
0.269139 0.971984 0.000000
0.285344 0.971649 0.000000
0.305425 0.971221 0.000000
0.328832 0.970703 0.000000
0.354925 0.970123 0.000000
0.383154 0.969451 0.000000
0.412757 0.968688 0.000000
0.443519 0.967834 0.000000
0.475196 0.966857 0.000000
0.507317 0.965759 0.000000
0.539849 0.964508 0.000000
0.572625 0.963104 0.000000
0.605371 0.961547 0.000000
0.638270 0.959899 0.000000
0.671077 0.958160 0.000000
0.703883 0.956329 0.000000
0.736477 0.954498 0.000000
0.768917 0.952605 0.000000
0.801144 0.950652 0.000000
0.833036 0.948608 0.000000
0.864622 0.946502 0.000000
0.895842 0.944335 0.000000
0.926604 0.942107 0.000000
0.957000 0.939818 0.000000
0.987030 0.937530 0.000000
1.000000 0.935210 0.000000
1.000000 0.922972 0.041260
1.000000 0.908659 0.093111
1.000000 0.894591 0.121340
0.267063 0.990997 0.000000
0.270451 0.990967 0.000000
0.275120 0.990845 0.000000
0.284611 0.990631 0.000000
0.298894 0.990295 0.000000
0.317082 0.989837 0.000000
0.338476 0.989288 0.000000
0.362402 0.988647 0.000000
0.388647 0.987915 0.000000
0.416480 0.987060 0.000000
0.445502 0.986145 0.000000
0.475502 0.985107 0.000000
0.506126 0.983978 0.000000
0.537316 0.982696 0.000000
0.568719 0.981292 0.000000
