其他预设/【232】美食博客调色预设124款/1.3D LUT预设（视频调色-PR-AE-PS-FCPX-达芬奇用）/0 All Worries Are Less With Wine.cube
# Created by Adobe Lightroom plugin Export LUT (1.17.0)
# www.johnrellis.com/lightroom/exportlut.htm
# Preset: 0 All Worries Are Less With Wine
# Color profile: /Library/Application Support/Adobe/Color/Profiles/Recommended/AdobeRGB1998.icc
LUT_3D_SIZE 32
0.000000 0.000000 0.000000
0.036957 0.000000 0.000122
0.067140 0.000122 0.000000
0.096559 0.000000 0.000549
0.130892 0.000000 0.000000
0.165408 0.000000 0.000000
0.199649 0.000000 0.000000
0.233616 0.000000 0.000000
0.267338 0.000000 0.000000
0.300999 0.000000 0.000000
0.334997 0.000000 0.000000
0.369177 0.000000 0.000000
0.403449 0.000000 0.000000
0.437812 0.000000 0.000000
0.472114 0.000000 0.000000
0.506493 0.000000 0.000000
0.541131 0.000000 0.000000
0.575891 0.000000 0.000000
0.609735 0.000000 0.000000
0.649287 0.000000 0.000000
0.688136 0.000000 0.000000
0.725063 0.000000 0.000000
0.759579 0.000000 0.000000
0.792172 0.000000 0.000000
0.823301 0.000000 0.000000
0.853483 0.000000 0.000000
0.883207 0.000000 0.000000
0.912688 0.000000 0.000000
0.942107 0.000000 0.000000
0.971527 0.000000 0.000000
1.000000 0.000000 0.000000
1.000000 0.000000 0.000000
0.000000 0.035187 0.000366
0.034058 0.035401 0.000549
0.066651 0.034333 0.000427
0.096254 0.034943 0.000000
0.130465 0.035065 0.000000
0.164706 0.034821 0.000000
0.198825 0.032807 0.000000
0.232517 0.030457 0.000000
0.266117 0.027070 0.000000
0.299687 0.024659 0.000000
0.333532 0.019623 0.000000
0.367529 0.015167 0.000000
0.401587 0.010315 0.000000
0.435798 0.004150 0.000000
0.469978 0.000000 0.000000
0.504204 0.000000 0.000000
0.538567 0.000000 0.000000
0.573297 0.000000 0.000000
0.607141 0.000000 0.000000
0.646296 0.000000 0.000000
0.684474 0.000000 0.000000
0.721187 0.000000 0.000000
0.755612 0.000000 0.000000
0.788327 0.000000 0.000000
0.819577 0.000000 0.000000
0.849973 0.000000 0.000000
0.879973 0.000000 0.000000
0.909728 0.000000 0.000000
0.939422 0.000000 0.000000
0.969085 0.000000 0.000000
0.998596 0.000000 0.000000
1.000000 0.000000 0.000000
0.000000 0.066346 0.000000
0.033753 0.065980 0.000061
0.065583 0.065766 0.000000
0.095857 0.065888 0.000000
0.129946 0.066438 0.000000
0.164096 0.067323 0.000000
0.197971 0.066407 0.000000
0.231571 0.065705 0.000000
0.265049 0.064729 0.000000
0.298528 0.063539 0.000000
0.332250 0.061799 0.000000
0.366247 0.060273 0.000000
0.400305 0.057496 0.000000
0.434485 0.054292 0.000000
0.468574 0.048951 0.000000
0.502770 0.041047 0.000000
0.537072 0.032898 0.000000
0.571710 0.023590 0.000000
0.605646 0.013184 0.000000
0.644709 0.002564 0.000000
0.682582 0.000000 0.000000
0.719173 0.000000 0.000000
0.753567 0.000000 0.000000
0.786252 0.000000 0.000000
0.817594 0.000000 0.000000
0.848081 0.000000 0.000000
0.878202 0.000000 0.000000
0.908110 0.000000 0.000000
0.937987 0.000000 0.000000
0.967742 0.000000 0.000000
0.997375 0.000000 0.000000
1.000000 0.000000 0.000000
0.000000 0.095796 0.000000
0.033967 0.095857 0.000000
0.065583 0.095979 0.000000
0.096193 0.096040 0.000000
0.129671 0.097078 0.000000
0.163546 0.097719 0.000000
0.197391 0.097475 0.000000
0.230777 0.097169 0.000000
0.264073 0.096712 0.000000
0.297520 0.095827 0.000000
0.331090 0.095003 0.000000
0.364935 0.094026 0.000000
0.398810 0.093263 0.000000
0.432868 0.091890 0.000000
0.466926 0.090028 0.000000
0.500969 0.088472 0.000000
0.535180 0.086030 0.000000
0.569726 0.083864 0.000000
0.604456 0.080720 0.000000
0.642359 0.078004 0.000000
0.679408 0.074311 0.000000
0.715511 0.070069 0.000000
0.750057 0.065278 0.000000
0.783261 0.059754 0.000000
0.815305 0.047944 0.000000
0.846586 0.032288 0.000000
0.877287 0.015442 0.000000
0.907561 0.001129 0.000000
0.937560 0.000000 0.000000
0.967285 0.000000 0.000000
0.996735 0.000000 0.000000
1.000000 0.000000 0.000000
0.000000 0.129091 0.000000
0.032258 0.129091 0.000000
0.065858 0.129122 0.000000
0.096376 0.129152 0.000000
0.129061 0.129030 0.000000
0.162448 0.129458 0.000000
0.195926 0.129610 0.000000
0.229007 0.129580 0.000000
0.262211 0.129000 0.000000
0.295476 0.128756 0.000000
0.329015 0.128328 0.000000
0.362707 0.127871 0.000000
0.396582 0.127108 0.000000
0.430549 0.126406 0.000000
0.464637 0.125673 0.000000
0.498939 0.124361 0.000000
0.533440 0.123232 0.000000
0.568109 0.122042 0.000000
0.604273 0.120455 0.000000
0.641413 0.118898 0.000000
0.677821 0.117250 0.000000
0.713558 0.115084 0.000000
0.747921 0.112520 0.000000
0.781155 0.109407 0.000000
0.813352 0.106081 0.000000
0.844816 0.102205 0.000000
0.875669 0.098268 0.000000
0.906065 0.093629 0.000000
0.936095 0.088869 0.000000
0.965850 0.083711 0.000000
0.995392 0.077363 0.000000
1.000000 0.071168 0.000000
0.000000 0.162692 0.000000
0.028382 0.162997 0.000000
0.064576 0.162844 0.000000
0.095949 0.162539 0.000000
0.129152 0.162387 0.000000
0.162112 0.162203 0.000000
0.195163 0.162142 0.000000
0.228214 0.162295 0.000000
0.261265 0.161776 0.000000
0.294347 0.161563 0.000000
0.327886 0.161440 0.000000
0.361517 0.161044 0.000000
0.395178 0.160739 0.000000
0.429175 0.160250 0.000000
0.463233 0.159945 0.000000
0.497658 0.159152 0.000000
0.532219 0.158480 0.000000
0.567041 0.157717 0.000000
0.604608 0.157443 0.000000
0.641413 0.156619 0.000000
0.677699 0.155673 0.000000
0.713527 0.154086 0.000000
0.771298 0.157931 0.000000
0.803647 0.155703 0.000000
0.834501 0.153292 0.000000
0.864317 0.150301 0.000000
0.893400 0.147280 0.000000
0.921996 0.144106 0.000000
0.950317 0.140993 0.000000
0.978607 0.137453 0.000000
1.000000 0.133944 0.000000
1.000000 0.130282 0.000000
0.000000 0.199344 0.000000
0.022950 0.199283 0.000000
0.063416 0.199252 0.000000
0.096773 0.199039 0.000000
0.130892 0.198795 0.000000
0.164614 0.198367 0.000000
0.197848 0.197971 0.000000
0.231113 0.197513 0.000000
0.264469 0.197177 0.000000
0.297856 0.196902 0.000000
0.331518 0.196780 0.000000
0.365423 0.196567 0.000000
0.399176 0.196262 0.000000
0.433112 0.195865 0.000000
0.467079 0.195285 0.000000
0.500938 0.194766 0.000000
0.535271 0.194125 0.000000
0.572503 0.194308 0.000000
0.610315 0.194522 0.000000
0.647822 0.194430 0.000000
0.685664 0.194278 0.000000
0.723384 0.193759 0.000000
0.759976 0.193149 0.000000
0.795132 0.191928 0.000000
0.828489 0.190188 0.000000
0.859831 0.187961 0.000000
0.889769 0.185550 0.000000
0.918791 0.182925 0.000000
0.947478 0.179812 0.000000
0.975799 0.176883 0.000000
1.000000 0.173831 0.000000
1.000000 0.170626 0.000000
0.000000 0.232151 0.000000
0.014466 0.232029 0.000000
0.060029 0.232029 0.000000
0.094575 0.231754 0.000000
0.129427 0.231357 0.000000
0.163180 0.230930 0.000000
0.196780 0.230289 0.000000
0.229953 0.229953 0.000000
0.262974 0.229374 0.000000
0.296513 0.229191 0.000000
0.329961 0.229068 0.000000
0.363531 0.228916 0.000000
0.397223 0.228855 0.000000
0.430945 0.228672 0.000000
0.464790 0.228305 0.000000
0.498695 0.227848 0.000000
0.534173 0.227939 0.000000
0.572076 0.228885 0.000000
0.608820 0.229068 0.000000
0.645533 0.229191 0.000000
0.682765 0.229160 0.000000
0.720027 0.229038 0.000000
0.756344 0.228702 0.000000
0.791287 0.227573 0.000000
0.824613 0.226139 0.000000
0.856107 0.224247 0.000000
0.886259 0.221775 0.000000
0.915557 0.219242 0.000000
0.944488 0.216495 0.000000
0.973053 0.213657 0.000000
1.000000 0.210880 0.000000
1.000000 0.207980 0.000000
0.000000 0.264958 0.000000
0.005432 0.264836 0.000000
0.053590 0.264744 0.000000
0.092073 0.264408 0.000000
0.127474 0.264195 0.000000
0.161776 0.263584 0.000000
0.195529 0.263066 0.000000
0.228855 0.262608 0.000000
0.262119 0.262089 0.000000
0.295506 0.261906 0.000000
0.329137 0.261875 0.000000
0.362646 0.261692 0.000000
0.396124 0.261662 0.000000
0.429755 0.261448 0.000000
0.463355 0.261265 0.000000
0.498085 0.261448 0.000000
0.535149 0.262577 0.000000
0.572076 0.263371 0.000000
0.607996 0.263462 0.000000
0.644160 0.263615 0.000000
0.680934 0.263951 0.000000
0.717830 0.263890 0.000000
0.753841 0.263584 0.000000
0.788602 0.262852 0.000000
0.821805 0.261570 0.000000
0.853361 0.259434 0.000000
0.883635 0.257237 0.000000
0.913054 0.254673 0.000000
0.942077 0.252140 0.000000
0.970764 0.249332 0.000000
0.999145 0.246616 0.000000
1.000000 0.243809 0.000000
0.000000 0.297642 0.000000
0.000000 0.297551 0.000000
0.045014 0.297307 0.000000
0.089021 0.297063 0.000000
0.125490 0.296635 0.000000
0.160311 0.296178 0.000000
0.194095 0.295598 0.000000
0.227634 0.294987 0.000000
0.260960 0.294652 0.000000
0.294194 0.294224 0.000000
0.327611 0.294041 0.000000
0.361273 0.294011 0.000000
0.394873 0.293889 0.000000
0.428351 0.293858 0.000000
0.463478 0.294804 0.000000
0.499825 0.296178 0.000000
0.536461 0.297337 0.000000
0.573053 0.298070 0.000000
0.608606 0.298344 0.000000
0.644190 0.298344 0.000000
0.680262 0.298528 0.000000
0.716121 0.298344 0.000000
0.751095 0.297795 0.000000
0.785000 0.296910 0.000000
0.817807 0.295415 0.000000
0.849302 0.293614 0.000000
0.879881 0.291447 0.000000
0.909819 0.289067 0.000000
0.939361 0.286595 0.000000
0.968566 0.284062 0.000000
0.997436 0.281590 0.000000
1.000000 0.278874 0.000000
0.000000 0.329534 0.000000
0.000000 0.329534 0.000000
0.030579 0.329351 0.000000
0.084840 0.329198 0.000000
0.122530 0.328862 0.000000
0.157870 0.328588 0.000000
0.192538 0.328252 0.000000
0.226291 0.327916 0.000000
0.259953 0.327459 0.000000
0.293492 0.327123 0.000000
0.326787 0.326818 0.000000
0.360174 0.326513 0.000000
0.394354 0.327031 0.000000
0.429725 0.328161 0.000000
0.464973 0.329198 0.000000
0.500389 0.330205 0.000000
0.536156 0.331090 0.000000
0.571984 0.331884 0.000000
0.607111 0.331975 0.000000
0.642390 0.332067 0.000000
0.678187 0.332250 0.000000
0.713863 0.332219 0.000000
0.748836 0.331853 0.000000
0.782712 0.331060 0.000000
0.815427 0.329656 0.000000
0.846921 0.327733 0.000000
0.877409 0.325536 0.000000
0.907347 0.323125 0.000000
0.936889 0.320653 0.000000
0.966125 0.318120 0.000000
0.995117 0.315587 0.000000
1.000000 0.313024 0.000000
0.000000 0.362188 0.000000
0.000000 0.362188 0.000000
0.013031 0.362097 0.000000
0.079927 0.361852 0.000000
0.119326 0.361761 0.000000
0.155734 0.361395 0.000000
0.190829 0.361212 0.000000
0.225101 0.360937 0.000000
0.259129 0.360632 0.000000
0.292851 0.360449 0.000000
0.326513 0.360235 0.000000
0.361700 0.361730 0.000000
0.408301 0.373266 0.000000
0.444923 0.374640 0.000000
0.481453 0.375647 0.000000
0.517571 0.376287 0.000000
0.553765 0.376867 0.000000
0.589014 0.376776 0.000000
0.623224 0.376043 0.000000
0.657832 0.375402 0.000000
0.692561 0.374731 0.000000
0.726711 0.373816 0.000000
0.759915 0.372320 0.000000
0.792264 0.370672 0.000000
0.823697 0.368475 0.000000
0.854124 0.366094 0.000000
0.883726 0.363287 0.000000
0.912718 0.360449 0.000000
0.941375 0.357488 0.000000
0.969909 0.354620 0.000000
0.998108 0.351781 0.000000
1.000000 0.348882 0.000000
0.000000 0.399390 0.000000
0.000000 0.399329 0.000000
0.000000 0.399054 0.000000
0.074830 0.398566 0.000000
0.116854 0.397955 0.000000
0.154116 0.397253 0.000000
0.190127 0.396704 0.000000
0.224796 0.396246 0.000000
0.259495 0.396155 0.000000
0.295171 0.398077 0.000000
0.331365 0.400275 0.000000
0.368078 0.402686 0.000000
0.405005 0.405066 0.000000
0.441993 0.406958 0.000000
0.479011 0.408667 0.000000
0.515557 0.409735 0.000000
0.551598 0.410254 0.000000
0.586328 0.409888 0.000000
0.620203 0.409003 0.000000
0.654261 0.408179 0.000000
0.688594 0.407599 0.000000
0.722621 0.406653 0.000000
0.755673 0.405249 0.000000
0.787991 0.403510 0.000000
0.819425 0.401404 0.000000
0.849912 0.398871 0.000000
0.879667 0.396185 0.000000
0.908904 0.393286 0.000000
0.937804 0.390356 0.000000
0.966613 0.387549 0.000000
0.995178 0.384771 0.000000
1.000000 0.381933 0.000000
0.000000 0.431861 0.000000
0.000000 0.431830 0.000000
0.000000 0.431556 0.000000
0.066957 0.431128 0.000000
0.112551 0.430488 0.000000
0.151339 0.430396 0.000000
0.188296 0.430823 0.000000
0.224125 0.431373 0.000000
0.259709 0.432258 0.000000
0.295354 0.433600 0.000000
0.331304 0.435248 0.000000
0.367773 0.437263 0.000000
0.404303 0.439185 0.000000
0.440772 0.440803 0.000000
0.476844 0.441718 0.000000
0.512932 0.442603 0.000000
0.548791 0.443000 0.000000
0.583337 0.442512 0.000000
0.617029 0.441444 0.000000
0.650904 0.440681 0.000000
0.685115 0.440101 0.000000
0.718990 0.439338 0.000000
0.752041 0.438025 0.000000
0.784451 0.436408 0.000000
0.815976 0.434302 0.000000
0.846647 0.431769 0.000000
0.876555 0.429114 0.000000
0.905974 0.426184 0.000000
0.935088 0.423346 0.000000
0.964141 0.420539 0.000000
0.992950 0.417823 0.000000
1.000000 0.415045 0.000000
0.000000 0.468330 0.000000
0.000000 0.468391 0.000000
0.000000 0.468208 0.000000
0.056794 0.467994 0.000000
0.108309 0.467628 0.000000
0.149172 0.467231 0.000000
0.186740 0.467079 0.000000
0.223148 0.467170 0.000000
0.259068 0.467628 0.000000
0.294957 0.468666 0.000000
0.330846 0.470069 0.000000
0.367163 0.471839 0.000000
0.403540 0.473548 0.000000
0.439857 0.475013 0.000000
0.475776 0.475776 0.000000
0.510796 0.475715 0.000000
0.546136 0.475807 0.000000
0.580560 0.475196 0.000000
0.614374 0.474098 0.000000
0.647974 0.473121 0.000000
0.681941 0.472450 0.000000
0.715602 0.471626 0.000000
0.748501 0.470405 0.000000
0.780850 0.468788 0.000000
0.812528 0.466804 0.000000
0.843565 0.464515 0.000000
0.874022 0.462013 0.000000
0.904082 0.459449 0.000000
0.933898 0.456855 0.000000
0.963500 0.454322 0.000000
0.992889 0.451789 0.000000
1.000000 0.449104 0.000000
0.000000 0.505364 0.000000
0.000000 0.505577 0.000000
0.000000 0.505486 0.000000
0.030182 0.505303 0.000000
0.102937 0.504967 0.000000
0.146395 0.504723 0.000000
0.185306 0.504662 0.000000
0.222599 0.504906 0.000000
0.259190 0.505272 0.000000
0.295354 0.505974 0.000000
0.331334 0.506737 0.000000
0.367315 0.507683 0.000000
0.403052 0.508476 0.000000
0.438758 0.509026 0.000000
0.473945 0.509117 0.000000
0.508751 0.508721 0.000000
0.543023 0.507958 0.000000
0.577295 0.507286 0.000000
0.611444 0.506493 0.000000
0.645838 0.505974 0.000000
0.680079 0.505577 0.000000
0.713924 0.504875 0.000000
0.747036 0.503716 0.000000
0.779507 0.502190 0.000000
0.811246 0.500359 0.000000
0.842466 0.498238 0.000000
0.873136 0.495766 0.000000
0.903349 0.493233 0.000000
0.933227 0.490547 0.000000
0.962768 0.487922 0.000000
0.991974 0.485145 0.000000
1.000000 0.482399 0.000000
0.000000 0.540826 0.000000
0.000000 0.540764 0.000000
0.000000 0.540581 0.000000
0.000000 0.540337 0.000000
0.095918 0.540002 0.000000
0.142000 0.539696 0.000000
0.182193 0.539513 0.000000
0.220218 0.539513 0.000000
0.257084 0.539727 0.000000
0.293645 0.540093 0.000000
0.329778 0.540734 0.000000
0.365728 0.541466 0.000000
0.401495 0.542077 0.000000
0.436927 0.542382 0.000000
0.471992 0.542229 0.000000
0.506401 0.541497 0.000000
0.540459 0.540459 0.000000
0.574273 0.539452 0.000000
0.608209 0.538506 0.000000
0.642390 0.537957 0.000000
0.676905 0.537591 0.000000
0.710719 0.536828 0.000000
0.743801 0.535698 0.000000
0.776364 0.534325 0.000000
0.808347 0.532525 0.000000
0.839719 0.530510 0.000000
0.870603 0.528313 0.000000
0.901122 0.525933 0.000000
0.931273 0.523400 0.000000
0.961151 0.520806 0.000000
0.990661 0.518181 0.000000
1.000000 0.515435 0.000000
0.000000 0.575708 0.000000
0.000000 0.575982 0.000000
0.000000 0.588647 0.000000
0.000000 0.588312 0.000000
0.090333 0.587762 0.000000
0.140536 0.587030 0.000000
0.182895 0.586328 0.000000
0.222141 0.585626 0.000000
0.260075 0.585168 0.000000
0.297276 0.584955 0.000000
0.333898 0.584894 0.000000
0.370092 0.584833 0.000000
0.405951 0.584497 0.000000
0.441444 0.583978 0.000000
0.476448 0.583154 0.000000
0.510948 0.581933 0.000000
0.545098 0.580468 0.000000
0.578729 0.578790 0.000000
0.612238 0.577173 0.000000
0.645899 0.575769 0.000000
0.679622 0.574640 0.000000
0.713130 0.573297 0.000000
0.745968 0.571588 0.000000
0.777890 0.569604 0.000000
0.808988 0.567102 0.000000
0.839506 0.564385 0.000000
0.869627 0.561578 0.000000
0.899565 0.558770 0.000000
0.929473 0.556146 0.000000
0.959350 0.553491 0.000000
0.989014 0.550835 0.000000
1.000000 0.548058 0.000000
0.000000 0.612879 0.000000
0.000000 0.614527 0.000000
0.000000 0.616114 0.000000
0.000000 0.617395 0.000000
0.079774 0.618128 0.000000
0.133761 0.618097 0.000000
0.177951 0.617639 0.000000
0.217960 0.617029 0.000000
0.256321 0.616632 0.000000
0.293462 0.616327 0.000000
0.330205 0.616144 0.000000
0.366461 0.615961 0.000000
0.402197 0.615595 0.000000
0.437537 0.614984 0.000000
0.472450 0.614038 0.000000
0.506889 0.612757 0.000000
0.540917 0.611292 0.000000
0.574609 0.609766 0.000000
0.608301 0.608270 0.000000
0.641962 0.607080 0.000000
0.675746 0.605982 0.000000
0.709438 0.604974 0.000000
0.742611 0.603540 0.000000
0.775051 0.601617 0.000000
0.806394 0.599237 0.000000
0.837186 0.596704 0.000000
0.867582 0.593927 0.000000
0.897704 0.591211 0.000000
0.927764 0.588586 0.000000
0.957763 0.586023 0.000000
0.987518 0.583459 0.000000
1.000000 0.580743 0.000000
0.000000 0.644831 0.000000
0.000000 0.646326 0.000000
0.000000 0.647852 0.000000
0.000000 0.649042 0.000000
0.066072 0.649744 0.000000
0.126711 0.649744 0.000000
0.172671 0.649287 0.000000
0.213504 0.648737 0.000000
0.252293 0.648341 0.000000
0.289891 0.648035 0.000000
0.326726 0.647883 0.000000
0.363012 0.647669 0.000000
0.398901 0.647181 0.000000
0.434211 0.646571 0.000000
0.469154 0.645563 0.000000
0.503532 0.644312 0.000000
0.537591 0.642908 0.000000
0.571344 0.641382 0.000000
0.604974 0.639979 0.000000
0.638727 0.638758 0.000000
0.672511 0.637751 0.000000
0.706355 0.636927 0.000000
0.739712 0.635676 0.000000
0.772305 0.633906 0.000000
0.804044 0.631556 0.000000
0.834958 0.628901 0.000000
0.865354 0.626062 0.000000
0.895506 0.623316 0.000000
0.925658 0.620661 0.000000
0.955688 0.618097 0.000000
0.985565 0.615564 0.000000
1.000000 0.612909 0.000000
0.000000 0.676814 0.000000
0.000000 0.678187 0.000000
0.000000 0.679591 0.000000
0.000000 0.680720 0.000000
0.037659 0.681300 0.000000
0.119081 0.681270 0.000000
0.166690 0.680842 0.000000
0.208682 0.680262 0.000000
0.248051 0.679774 0.000000
0.285924 0.679347 0.000000
0.322881 0.679011 0.000000
0.359258 0.678645 0.000000
0.395087 0.678096 0.000000
0.430518 0.677455 0.000000
0.465522 0.676631 0.000000
0.500206 0.675746 0.000000
0.534752 0.674861 0.000000
0.569146 0.674128 0.000000
0.603632 0.673518 0.000000
0.638178 0.673121 0.000000
0.672847 0.672908 0.000000
0.707607 0.672786 0.000000
0.741939 0.672297 0.000000
0.775113 0.670771 0.000000
0.807279 0.668666 0.000000
0.838621 0.665949 0.000000
0.869261 0.662928 0.000000
0.899474 0.659998 0.000000
0.929534 0.657099 0.000000
0.959380 0.654261 0.000000
0.988952 0.651392 0.000000
1.000000 0.648432 0.000000
0.000000 0.713985 0.000000
0.000000 0.714565 0.000000
0.000000 0.715023 0.000000
0.000000 0.715236 0.000000
0.000000 0.715236 0.000000
0.110567 0.714870 0.000000
0.161227 0.714412 0.000000
0.204501 0.713954 0.000000
0.244663 0.713619 0.000000
0.283268 0.713405 0.000000
0.320653 0.713283 0.000000
0.357519 0.713008 0.000000
0.393591 0.712520 0.000000
0.429084 0.711818 0.000000
0.464240 0.710933 0.000000
0.499031 0.709895 0.000000
0.533501 0.708919 0.000000
0.567987 0.707942 0.000000
0.602228 0.707088 0.000000
0.636500 0.706294 0.000000
0.670710 0.705623 0.000000
0.704921 0.704952 0.000000
0.739010 0.704311 0.000000
0.772580 0.703243 0.000000
0.804654 0.700832 0.000000
0.836088 0.698238 0.000000
0.867002 0.695308 0.000000
0.897551 0.692287 0.000000
0.927672 0.689357 0.000000
0.957610 0.686458 0.000000
0.987243 0.683528 0.000000
1.000000 0.680568 0.000000
0.000000 0.744656 0.000000
0.000000 0.745235 0.000000
0.000000 0.745785 0.000000
0.000000 0.745998 0.000000
0.000000 0.745968 0.000000
0.100191 0.745571 0.000000
0.154208 0.745022 0.000000
0.198764 0.744411 0.000000
0.239719 0.743954 0.000000
0.278599 0.743587 0.000000
0.316320 0.743343 0.000000
0.353155 0.743008 0.000000
0.389258 0.742550 0.000000
0.425025 0.741878 0.000000
0.460182 0.741176 0.000000
0.495155 0.740352 0.000000
0.529778 0.739528 0.000000
0.564294 0.738766 0.000000
0.598718 0.738064 0.000000
0.633112 0.737514 0.000000
0.667475 0.737057 0.000000
0.701900 0.736629 0.000000
0.736233 0.736263 0.000000
0.770474 0.735836 0.000000
0.800687 0.731807 0.000000
0.832212 0.729152 0.000000
0.863310 0.726375 0.000000
0.894041 0.723445 0.000000
0.924498 0.720516 0.000000
0.954620 0.717647 0.000000
0.984588 0.714839 0.000000
1.000000 0.712093 0.000000
0.000000 0.779355 0.000000
0.000000 0.779995 0.000000
0.000000 0.780331 0.000000
0.000000 0.780331 0.000000
0.000000 0.779995 0.000000
0.089174 0.779355 0.000000
0.147921 0.778500 0.000000
0.194095 0.777554 0.000000
0.235843 0.776577 0.000000
0.274968 0.775662 0.000000
0.312749 0.774777 0.000000
0.349462 0.774014 0.000000
0.385595 0.773159 0.000000
0.421027 0.772122 0.000000
0.455940 0.770840 0.000000
0.490455 0.769497 0.000000
0.524712 0.768185 0.000000
0.558862 0.767025 0.000000
0.593072 0.766262 0.000000
0.627497 0.765835 0.000000
0.661860 0.765591 0.000000
0.696254 0.765347 0.000000
0.730343 0.764889 0.000000
0.764157 0.764218 0.000000
0.797604 0.763210 0.000000
0.830625 0.761959 0.000000
0.861540 0.758907 0.000000
0.892088 0.755734 0.000000
0.922393 0.752621 0.000000
0.952575 0.749538 0.000000
0.982666 0.746670 0.000000
1.000000 0.743984 0.000000
0.000000 0.808133 0.000000
0.000000 0.808774 0.000000
0.000000 0.809110 0.000000
0.000000 0.809110 0.000000
0.000000 0.808774 0.000000
0.074037 0.808225 0.000000
0.139742 0.807553 0.000000
0.187594 0.806790 0.000000
0.230381 0.806027 0.000000
0.270115 0.805386 0.000000
0.308202 0.804746 0.000000
0.345434 0.804166 0.000000
0.381781 0.803555 0.000000
0.417487 0.802731 0.000000
0.452644 0.801755 0.000000
0.487343 0.800626 0.000000
0.521752 0.799527 0.000000
0.556054 0.798520 0.000000
0.590326 0.797818 0.000000
0.624720 0.797360 0.000000
0.659022 0.797024 0.000000
0.693324 0.796750 0.000000
0.727443 0.796292 0.000000
0.761257 0.795712 0.000000
0.794827 0.794858 0.000000
0.828092 0.793851 0.000000
0.861234 0.792813 0.000000
0.891997 0.789639 0.000000
0.922423 0.786435 0.000000
0.952667 0.783322 0.000000
0.982879 0.780362 0.000000
1.000000 0.777432 0.000000
0.000000 0.838102 0.000000
0.000000 0.838499 0.000000
0.000000 0.838621 0.000000
0.000000 0.838437 0.000000
0.000000 0.837949 0.000000
0.046937 0.837278 0.000000
0.130098 0.836484 0.000000
0.180545 0.835691 0.000000
0.224521 0.834928 0.000000
0.264744 0.834318 0.000000
0.303319 0.833738 0.000000
0.340703 0.833310 0.000000
0.377356 0.832792 0.000000
0.413245 0.832120 0.000000
0.448432 0.831235 0.000000
0.483223 0.830198 0.000000
0.517693 0.829038 0.000000
0.551904 0.828061 0.000000
0.586175 0.827329 0.000000
0.620386 0.826841 0.000000
0.654658 0.826505 0.000000
0.688869 0.826169 0.000000
0.722835 0.825772 0.000000
0.756649 0.825223 0.000000
0.790219 0.824491 0.000000
0.823514 0.823545 0.000000
0.856687 0.822599 0.000000
0.889677 0.821561 0.000000
0.920439 0.818601 0.000000
0.950835 0.815457 0.000000
0.981109 0.812436 0.000000
1.000000 0.809506 0.000000
0.000000 0.866270 0.000000
0.000000 0.866545 0.000000
0.000000 0.866606 0.000000
0.000000 0.866514 0.000000
0.000000 0.866270 0.000000
0.000000 0.866056 0.000000
0.120424 0.866026 0.000000
0.174197 0.866117 0.000000
0.219791 0.866361 0.000000
0.261357 0.866758 0.000000
0.300816 0.867155 0.000000
0.338994 0.867521 0.000000
0.376226 0.867735 0.000000
0.412665 0.867643 0.000000
0.448524 0.867247 0.000000
0.483650 0.866453 0.000000
0.518425 0.865507 0.000000
0.552911 0.864591 0.000000
0.587366 0.863828 0.000000
0.621698 0.863279 0.000000
0.656001 0.862791 0.000000
0.690242 0.862364 0.000000
0.724269 0.861814 0.000000
0.758083 0.861143 0.000000
0.791684 0.860349 0.000000
0.825071 0.859403 0.000000
0.858366 0.858396 0.000000
0.891478 0.857359 0.000000
0.924620 0.856443 0.000000
0.955352 0.853361 0.000000
0.985199 0.849790 0.000000
1.000000 0.846220 0.000000
0.000000 0.899962 0.000000
0.000000 0.900084 0.000000
0.000000 0.900023 0.000000
0.000000 0.899748 0.000000
0.000000 0.899321 0.000000
0.000000 0.898863 0.000000
0.112154 0.898436 0.000000
0.168551 0.898100 0.000000
0.214969 0.897826 0.000000
0.257084 0.897612 0.000000
0.296574 0.897368 0.000000
0.334844 0.897185 0.000000
0.371923 0.896849 0.000000
0.408240 0.896391 0.000000
0.443885 0.895750 0.000000
