其他预设/【232】美食博客调色预设124款/1.3D LUT预设（视频调色-PR-AE-PS-FCPX-达芬奇用）/0 All Worries Are Less With Wine.cube
# Created by Adobe Lightroom plugin Export LUT (1.17.0)
# www.johnrellis.com/lightroom/exportlut.htm
# Preset: 0 All Worries Are Less With Wine
# Color profile: /Library/Application Support/Adobe/Color/Profiles/Recommended/AdobeRGB1998.icc
LUT_3D_SIZE 8
DOMAIN_MIN 0.000000 0.000000 0.000000
DOMAIN_MAX 0.903226 0.903226 0.903226
0.000000 0.000000 0.000000
0.130892 0.000000 0.000000
0.267338 0.000000 0.000000
0.403449 0.000000 0.000000
0.541131 0.000000 0.000000
0.688136 0.000000 0.000000
0.823301 0.000000 0.000000
0.942107 0.000000 0.000000
0.000000 0.129091 0.000000
0.129061 0.129030 0.000000
0.262211 0.129000 0.000000
0.396582 0.127108 0.000000
0.533440 0.123232 0.000000
0.677821 0.117250 0.000000
0.813352 0.106081 0.000000
0.936095 0.088869 0.000000
0.000000 0.264958 0.000000
0.127474 0.264195 0.000000
0.262119 0.262089 0.000000
0.396124 0.261662 0.000000
0.535149 0.262577 0.000000
0.680934 0.263951 0.000000
0.821805 0.261570 0.000000
0.942077 0.252140 0.000000
0.000000 0.399390 0.000000
0.116854 0.397955 0.000000
0.259495 0.396155 0.000000
0.405005 0.405066 0.000000
0.551598 0.410254 0.000000
0.688594 0.407599 0.000000
0.819425 0.401404 0.000000
0.937804 0.390356 0.000000
0.000000 0.540826 0.000000
0.095918 0.540002 0.000000
0.257084 0.539727 0.000000
0.401495 0.542077 0.000000
0.540459 0.540459 0.000000
0.676905 0.537591 0.000000
0.808347 0.532525 0.000000
0.931273 0.523400 0.000000
0.000000 0.676814 0.000000
0.037659 0.681300 0.000000
0.248051 0.679774 0.000000
0.395087 0.678096 0.000000
0.534752 0.674861 0.000000
0.672847 0.672908 0.000000
0.807279 0.668666 0.000000
0.929534 0.657099 0.000000
0.000000 0.808133 0.000000
0.000000 0.808774 0.000000
0.230381 0.806027 0.000000
0.381781 0.803555 0.000000
0.521752 0.799527 0.000000
0.659022 0.797024 0.000000
0.794827 0.794858 0.000000
0.922423 0.786435 0.000000
0.000000 0.927611 0.000000
0.000000 0.927092 0.000000
0.208286 0.926116 0.000000
0.367651 0.925963 0.000000
0.505547 0.917205 0.000000
0.643610 0.916289 0.000000
0.779904 0.915740 0.000000
0.912505 0.912566 0.000000
0.000000 0.000000 0.127352
0.127749 0.000000 0.127901
0.261051 0.000000 0.125246
0.396246 0.000000 0.118318
0.532830 0.000000 0.109804
0.674250 0.000000 0.098970
0.809506 0.000000 0.082307
0.932189 0.000000 0.051698
0.000000 0.127108 0.127016
0.126284 0.126284 0.126284
0.259373 0.123903 0.123751
0.393774 0.116854 0.116762
0.529473 0.108034 0.108095
0.669429 0.096559 0.096498
0.802396 0.077333 0.077455
0.925994 0.031647 0.031983
0.000000 0.261173 0.122530
0.115145 0.262150 0.115389
0.260502 0.260594 0.112490
0.391974 0.256748 0.113069
0.528557 0.255222 0.103517
0.669001 0.253361 0.090303
0.804959 0.248600 0.069032
0.929961 0.239872 0.010956
0.000000 0.394232 0.103792
0.095583 0.394385 0.095552
0.253544 0.394141 0.092958
0.395148 0.395148 0.087922
0.532494 0.394018 0.081056
0.667536 0.392554 0.077180
0.801389 0.388678 0.034882
0.925994 0.380743 0.000000
0.000000 0.538109 0.062745
0.060487 0.536522 0.060731
0.247745 0.534386 0.052888
0.392096 0.532647 0.032807
0.529229 0.529229 0.000000
0.666316 0.527642 0.000000
0.799344 0.524712 0.000000
0.924132 0.516838 0.000000
0.000000 0.670832 0.000000
0.000000 0.670680 0.000000
0.235447 0.669642 0.000000
0.386358 0.669612 0.000000
0.528374 0.668757 0.000000
0.669215 0.669215 0.000000
0.803403 0.664424 0.000000
0.924712 0.652186 0.000000
0.000000 0.800198 0.000000
0.000000 0.798611 0.000000
0.216617 0.797116 0.000000
0.373693 0.796872 0.000000
0.516381 0.794919 0.000000
0.653956 0.792142 0.000000
0.788602 0.788663 0.000000
0.915679 0.779843 0.000000
0.000000 0.923369 0.000000
0.000000 0.923522 0.000000
0.195560 0.922972 0.000000
0.361151 0.923247 0.000000
0.505791 0.921263 0.000000
0.643336 0.917845 0.000000
0.778134 0.914519 0.000000
0.910002 0.910063 0.000000
0.000000 0.000000 0.261570
0.127626 0.000000 0.262150
0.262242 0.000000 0.262242
0.397253 0.000000 0.258946
0.534691 0.000000 0.252903
0.680018 0.000000 0.244694
0.815305 0.000000 0.235447
0.937102 0.000000 0.222904
0.000000 0.121248 0.262516
0.117037 0.116823 0.262364
0.260960 0.109804 0.261082
0.394110 0.101564 0.255344
0.531853 0.071809 0.249119
0.674952 0.000000 0.241886
0.810086 0.000000 0.232334
0.933715 0.000000 0.220127
0.000000 0.260563 0.260502
0.104067 0.260319 0.260441
0.255375 0.255375 0.255375
0.390692 0.252140 0.252171
0.534203 0.248020 0.248051
0.674495 0.240391 0.240391
0.808347 0.229984 0.229892
0.931670 0.217014 0.216983
0.000000 0.394720 0.253544
0.068452 0.395758 0.250523
0.239536 0.397559 0.239384
0.397345 0.397345 0.237675
0.536522 0.393408 0.242679
0.673304 0.389441 0.237522
0.806973 0.382391 0.226383
0.929992 0.371374 0.212497
0.000000 0.535943 0.244755
0.000000 0.536858 0.239536
0.223758 0.537987 0.223758
0.387091 0.537346 0.221836
0.534142 0.534173 0.217899
0.671382 0.527276 0.211246
0.801328 0.521508 0.217197
0.925902 0.511528 0.204196
0.000000 0.670192 0.226322
0.000000 0.670924 0.219425
0.204166 0.670558 0.204196
0.372778 0.668696 0.201205
0.521538 0.666590 0.196994
0.665980 0.666011 0.192538
0.802152 0.660121 0.183230
0.925933 0.649195 0.186252
0.000000 0.802304 0.200443
0.000000 0.801755 0.191287
0.179629 0.799496 0.179568
0.357977 0.797086 0.175875
0.507774 0.794186 0.170504
0.650629 0.792172 0.164706
0.790982 0.791012 0.158328
0.921111 0.782315 0.145510
0.000000 0.923949 0.162203
0.000000 0.923278 0.151675
0.148836 0.921965 0.148684
0.344274 0.923522 0.149630
0.496193 0.921111 0.143343
0.638544 0.918303 0.135286
0.776730 0.915496 0.125032
0.911620 0.911650 0.109804
0.000000 0.000000 0.392920
0.123476 0.000000 0.394537
0.258427 0.000000 0.394812
0.394202 0.000000 0.394141
0.532799 0.000000 0.392737
0.673121 0.000000 0.389014
0.806729 0.000000 0.378332
0.931212 0.000000 0.361730
0.000000 0.109560 0.397223
0.106844 0.106355 0.397284
0.255131 0.094057 0.396216
0.394781 0.064851 0.394812
0.533165 0.000000 0.391760
0.670985 0.000000 0.386145
0.804227 0.000000 0.375006
0.929870 0.000000 0.358831
0.000000 0.252293 0.394781
0.055726 0.248539 0.394965
0.238346 0.238163 0.394018
0.392950 0.232731 0.392920
0.533532 0.233921 0.388708
0.674403 0.223972 0.384283
0.811582 0.208347 0.376074
0.933623 0.184634 0.360418
0.000000 0.393774 0.393835
0.000000 0.393957 0.393957
0.229191 0.393194 0.393225
0.387060 0.387060 0.387060
0.527947 0.384161 0.384192
0.668055 0.378210 0.378241
0.804074 0.369055 0.369085
0.929961 0.355871 0.355901
0.000000 0.536095 0.391333
0.000000 0.535485 0.389044
0.208896 0.535698 0.382269
0.370764 0.536400 0.370764
0.533227 0.533257 0.367651
0.670680 0.524102 0.370825
0.802426 0.516991 0.366552
0.927031 0.503624 0.351568
0.000000 0.672236 0.380774
0.000000 0.676081 0.380285
0.182284 0.674952 0.369024
0.352483 0.674434 0.352544
0.516594 0.671534 0.349218
0.668055 0.668116 0.345159
0.804654 0.656550 0.335454
0.925963 0.644648 0.343450
0.000000 0.800839 0.363867
0.000000 0.801572 0.360723
0.140963 0.802731 0.348608
0.332433 0.803037 0.332464
0.497810 0.799863 0.328862
0.648127 0.796078 0.324346
0.792233 0.792233 0.319493
0.922789 0.779721 0.308904
0.000000 0.925322 0.344762
0.000000 0.925689 0.341222
0.074342 0.925719 0.326787
0.312596 0.925109 0.312627
0.479744 0.922271 0.308812
0.629786 0.919158 0.304234
0.773342 0.916197 0.300023
0.912596 0.912627 0.294560
0.000000 0.000000 0.530114
0.116670 0.000000 0.530816
0.255924 0.000000 0.530266
0.391516 0.000000 0.529870
0.532158 0.000000 0.532158
0.669673 0.000000 0.528313
0.802335 0.000000 0.519585
0.927428 0.000000 0.505669
0.000000 0.097719 0.532006
0.094240 0.093660 0.533227
0.250370 0.076204 0.532280
0.389471 0.000000 0.530114
0.531975 0.000000 0.531975
0.669703 0.000000 0.527367
0.802304 0.000000 0.518364
0.927184 0.000000 0.504173
0.000000 0.238346 0.532464
0.000000 0.232822 0.532860
0.226413 0.226291 0.531182
0.382696 0.218784 0.531334
0.529503 0.206027 0.529473
0.665187 0.199344 0.520897
0.799069 0.179355 0.512413
0.924315 0.142580 0.497719
0.000000 0.386297 0.530755
0.000000 0.384314 0.530632
0.202945 0.377661 0.530968
0.367071 0.366979 0.529839
0.527031 0.361334 0.527031
0.663874 0.361456 0.516716
0.798032 0.352087 0.508080
0.924468 0.335302 0.494026
0.000000 0.528191 0.528252
0.000000 0.528405 0.528466
0.190372 0.527520 0.527520
0.357092 0.524834 0.524895
0.515648 0.515648 0.515648
0.656703 0.511437 0.511467
0.793393 0.504082 0.504143
0.921508 0.490883 0.490913
0.000000 0.661433 0.517906
0.000000 0.661616 0.516899
0.154635 0.660578 0.511894
0.331334 0.660182 0.503655
0.490394 0.658076 0.490425
0.658106 0.658106 0.490303
0.795987 0.648676 0.495521
0.920958 0.638148 0.490608
0.000000 0.795712 0.507713
0.000000 0.795346 0.505608
0.098634 0.795193 0.498848
0.308629 0.796139 0.487160
0.472969 0.795834 0.473030
0.636103 0.792233 0.469368
0.787472 0.787533 0.464576
0.919219 0.770443 0.449897
0.000000 0.918944 0.489998
0.000000 0.918822 0.487587
0.000000 0.918761 0.479164
0.284123 0.922515 0.468086
0.454414 0.921202 0.454414
0.615473 0.917540 0.450141
0.765713 0.913878 0.446265
0.909667 0.909667 0.441718
0.000000 0.000000 0.669215
0.105470 0.000000 0.669184
0.252323 0.000000 0.667201
0.389960 0.000000 0.667903
0.527947 0.000000 0.668055
0.666224 0.000000 0.666224
0.798947 0.000000 0.658015
0.924254 0.000000 0.644678
0.000000 0.079042 0.666072
0.073793 0.073121 0.665736
0.243351 0.031922 0.664851
0.385138 0.000000 0.665522
0.524254 0.000000 0.665126
0.663844 0.000000 0.663874
0.797299 0.000000 0.655970
0.923125 0.000000 0.642878
0.000000 0.222782 0.669612
0.000000 0.221256 0.669245
0.216281 0.216068 0.668788
0.374792 0.206424 0.668269
0.520470 0.190341 0.666255
0.664088 0.166079 0.664057
0.797543 0.148714 0.653986
0.923125 0.109834 0.639918
0.000000 0.375860 0.669856
0.000000 0.372442 0.669184
0.167880 0.361730 0.669245
0.354376 0.354253 0.671382
0.515587 0.347967 0.670497
0.667536 0.337743 0.667506
0.800046 0.335515 0.653193
0.924407 0.321538 0.637598
0.000000 0.518303 0.663172
0.000000 0.517296 0.663325
0.147341 0.513298 0.663539
0.331701 0.505730 0.663630
0.494759 0.494728 0.661463
0.658137 0.488899 0.658167
0.791989 0.490547 0.644404
0.918456 0.482643 0.632837
0.000000 0.657160 0.657160
0.000000 0.658289 0.658350
0.113802 0.658259 0.658289
0.318517 0.657282 0.657313
0.482856 0.653712 0.653742
0.647272 0.647242 0.647242
0.786007 0.645594 0.645624
0.915343 0.637659 0.637690
0.000000 0.794736 0.650660
0.000000 0.795651 0.650690
0.000000 0.795621 0.647944
0.296086 0.795499 0.642756
0.465400 0.793698 0.635462
0.628870 0.789364 0.628901
0.784848 0.784817 0.624720
0.914183 0.771084 0.624262
0.000000 0.916960 0.631922
0.000000 0.916747 0.630488
0.000000 0.916472 0.625635
0.260410 0.917632 0.618402
0.440650 0.917144 0.610590
0.606226 0.914885 0.606226
0.761013 0.911650 0.603693
0.907469 0.907469 0.599817
0.000000 0.000000 0.791592
0.083650 0.000000 0.792386
0.242832 0.000000 0.792050
0.380438 0.000000 0.791928
0.515343 0.000000 0.790585
0.650355 0.000000 0.788754
0.786801 0.000000 0.786831
0.914641 0.000000 0.775753
0.000000 0.026368 0.789181
0.013275 0.007111 0.789822
0.233005 0.000000 0.789578
0.374578 0.000000 0.788815
0.510948 0.000000 0.787381
0.646509 0.000000 0.785306
0.783047 0.000000 0.783017
0.910979 0.000000 0.771847
0.000000 0.207980 0.791867
0.000000 0.206180 0.791653
0.200443 0.199863 0.790677
0.360021 0.188113 0.789670
0.503532 0.167941 0.787655
0.643763 0.135805 0.785855
0.784787 0.073182 0.784726
0.913909 0.000000 0.772671
0.000000 0.352087 0.792874
0.000000 0.347906 0.792264
0.115450 0.337407 0.791592
0.332219 0.332067 0.790951
0.490669 0.322972 0.789242
0.639857 0.311162 0.788022
0.787106 0.295445 0.787106
0.915801 0.284520 0.771420
0.000000 0.498726 0.787198
0.000000 0.496468 0.786709
0.005371 0.489113 0.786252
0.293156 0.476265 0.786831
0.465522 0.465400 0.786191
0.627955 0.459510 0.784421
0.782742 0.453315 0.782773
0.913298 0.455299 0.767300
0.000000 0.639734 0.783047
0.000000 0.638972 0.783108
0.000000 0.636316 0.783383
0.279759 0.631556 0.784146
0.454047 0.625513 0.784146
0.622217 0.622126 0.783352
0.781521 0.619837 0.781521
0.909941 0.621363 0.767544
0.000000 0.781125 0.781186
0.000000 0.781582 0.781643
0.000000 0.781796 0.781827
0.264408 0.782071 0.782132
0.447700 0.780819 0.780850
0.616175 0.778256 0.778256
0.772335 0.772305 0.772335
0.904051 0.769650 0.769650
0.000000 0.911528 0.768917
0.000000 0.911681 0.768460
0.000000 0.913695 0.768307
0.235508 0.914458 0.765774
0.430488 0.913542 0.762234
0.600122 0.911131 0.759243
0.757137 0.907500 0.757168
0.903960 0.903960 0.753994
0.000000 0.000000 0.905821
0.022004 0.000000 0.906096
0.228397 0.000000 0.905241
0.366461 0.000000 0.905028
0.499733 0.000000 0.904417
0.632441 0.000000 0.903563
0.766506 0.000000 0.903075
0.901915 0.000000 0.901884
0.000000 0.000000 0.904631
0.000000 0.000000 0.904906
0.217868 0.000000 0.904356
0.360937 0.000000 0.903838
0.496254 0.000000 0.903258
0.629999 0.000000 0.902373
0.764492 0.000000 0.901549
0.900389 0.000000 0.900359
0.000000 0.186831 0.904234
0.000000 0.184970 0.904265
0.177493 0.176730 0.903227
0.343236 0.163333 0.904051
0.486152 0.137362 0.903105
0.623896 0.086397 0.901671
0.761440 0.000000 0.900908
0.900084 0.000000 0.900053
0.000000 0.318181 0.904814
0.000000 0.317510 0.904997
0.000000 0.313420 0.904265
0.307225 0.306859 0.904082
0.467201 0.296330 0.903502
0.613947 0.280644 0.902464
0.757534 0.259220 0.901732
0.901091 0.229923 0.901061
0.000000 0.470649 0.902037
0.000000 0.468360 0.902525
0.000000 0.458686 0.902708
0.237430 0.440711 0.903716
0.434516 0.434302 0.902647
0.596887 0.426429 0.901457
0.750607 0.419074 0.900908
0.901183 0.413184 0.901152
0.000000 0.614221 0.899229
0.000000 0.612512 0.898955
0.000000 0.606806 0.898680
0.210758 0.597009 0.899138
0.409552 0.587884 0.900023
0.585779 0.585657 0.901183
0.748867 0.587060 0.902159
0.903075 0.588861 0.903044
0.000000 0.756100 0.898344
0.000000 0.755306 0.898222
0.000000 0.752773 0.898070
0.191806 0.749447 0.898589
0.405615 0.746517 0.899168
0.583093 0.745785 0.899840
0.748318 0.748226 0.901061
0.899809 0.747250 0.899840
0.000000 0.899443 0.899504
0.000000 0.899321 0.899382
0.000000 0.899321 0.899382
0.182437 0.899809 0.899870
0.407630 0.900053 0.900114
0.585016 0.899809 0.899840
0.746975 0.898833 0.898863
0.895232 0.895171 0.895232
