其他预设/【232】美食博客调色预设124款/1.3D LUT预设（视频调色-PR-AE-PS-FCPX-达芬奇用）/0 All Worries Are Less With Wine.cube
# Created by Adobe Lightroom plugin Export LUT (1.17.0)
# www.johnrellis.com/lightroom/exportlut.htm
# Preset: 0 All Worries Are Less With Wine
# Color profile: /Library/Application Support/Adobe/Color/Profiles/Recommended/AdobeRGB1998.icc
LUT_3D_SIZE 5
DOMAIN_MIN 0.000000 0.000000 0.000000
DOMAIN_MAX 0.903226 0.903226 0.903226
0.000000 0.000000 0.000000
0.233616 0.000000 0.000000
0.472114 0.000000 0.000000
0.725063 0.000000 0.000000
0.942107 0.000000 0.000000
0.000000 0.232151 0.000000
0.229953 0.229953 0.000000
0.464790 0.228305 0.000000
0.720027 0.229038 0.000000
0.944488 0.216495 0.000000
0.000000 0.468330 0.000000
0.223148 0.467170 0.000000
0.475776 0.475776 0.000000
0.715602 0.471626 0.000000
0.933898 0.456855 0.000000
0.000000 0.713985 0.000000
0.204501 0.713954 0.000000
0.464240 0.710933 0.000000
0.704921 0.704952 0.000000
0.927672 0.689357 0.000000
0.000000 0.927611 0.000000
0.160372 0.926268 0.000000
0.435248 0.917998 0.000000
0.677882 0.916289 0.000000
0.912505 0.912566 0.000000
0.000000 0.000000 0.226596
0.228244 0.000000 0.228214
0.463813 0.000000 0.220249
0.709834 0.000000 0.204776
0.932738 0.000000 0.184482
0.000000 0.227573 0.227481
0.223453 0.223453 0.223453
0.459846 0.215091 0.215000
0.707332 0.202090 0.202060
0.931853 0.181643 0.181674
0.000000 0.464515 0.213107
0.195163 0.465309 0.195041
0.463081 0.463142 0.190097
0.702693 0.457740 0.192203
0.929686 0.445930 0.171450
0.000000 0.712062 0.179385
0.163668 0.713008 0.163699
0.454383 0.709285 0.157229
0.702358 0.702388 0.144167
0.926177 0.684565 0.129519
0.000000 0.927550 0.103151
0.098909 0.926146 0.099062
0.427192 0.923644 0.088502
0.676020 0.919036 0.061463
0.914031 0.914092 0.000000
0.000000 0.000000 0.461311
0.223270 0.000000 0.461616
0.460853 0.000000 0.460853
0.705959 0.000000 0.457588
0.929351 0.000000 0.434791
0.000000 0.208865 0.464240
0.198703 0.198642 0.463386
0.462837 0.181888 0.462837
0.703151 0.161929 0.451606
0.929717 0.094453 0.430640
0.000000 0.460853 0.460883
0.168002 0.459907 0.459937
0.450629 0.450629 0.450629
0.697230 0.443397 0.443397
0.926390 0.423682 0.423651
0.000000 0.702998 0.449104
0.094728 0.701595 0.440894
0.417975 0.702937 0.417945
0.697597 0.697658 0.412085
0.921172 0.672328 0.407385
0.000000 0.920775 0.417639
0.000000 0.922148 0.408545
0.381689 0.923095 0.381689
0.658778 0.916716 0.373083
0.909880 0.909911 0.364080
0.000000 0.000000 0.697536
0.214511 0.000000 0.697536
0.455665 0.000000 0.698695
0.695827 0.000000 0.695827
0.920775 0.000000 0.676783
0.000000 0.184390 0.698085
0.178256 0.177829 0.697932
0.446326 0.152438 0.697017
0.693050 0.080354 0.693050
0.918334 0.000000 0.671809
0.000000 0.440192 0.693751
0.047730 0.432563 0.693629
0.411810 0.411688 0.692439
0.686793 0.395819 0.686793
0.917021 0.390021 0.664302
0.000000 0.691157 0.691188
0.000000 0.689570 0.689631
0.390387 0.687953 0.688014
0.678706 0.678645 0.678676
0.910857 0.669123 0.669154
0.000000 0.915953 0.666621
0.000000 0.916411 0.663294
0.352941 0.917876 0.653651
0.646571 0.914305 0.646540
0.906218 0.906218 0.638117
0.000000 0.000000 0.905821
0.191684 0.000000 0.905425
0.433295 0.000000 0.904845
0.665888 0.000000 0.903471
0.901915 0.000000 0.901884
0.000000 0.151553 0.904875
0.143038 0.142367 0.904479
0.420294 0.101472 0.903868
0.660121 0.000000 0.901884
0.900786 0.000000 0.900786
0.000000 0.395605 0.903532
0.000000 0.383093 0.903746
0.368994 0.368780 0.902647
0.641657 0.347509 0.900450
0.900847 0.323613 0.900816
0.000000 0.650843 0.900023
0.000000 0.646235 0.899718
0.316960 0.632959 0.900328
0.626154 0.626032 0.900786
0.902586 0.629664 0.902586
0.000000 0.899443 0.899504
0.000000 0.899260 0.899351
0.307836 0.900023 0.900084
0.626612 0.899657 0.899687
0.895232 0.895171 0.895232
