其他预设/【232】美食博客调色预设124款/1.3D LUT预设（视频调色-PR-AE-PS-FCPX-达芬奇用）/0 Black As Night_ Sweet As Sin.cube
# Created by Adobe Lightroom plugin Export LUT (1.17.0)
# www.johnrellis.com/lightroom/exportlut.htm
# Preset: 0 Black As Night, Sweet As Sin
# Color profile: /Library/Application Support/Adobe/Color/Profiles/Recommended/AdobeRGB1998.icc
LUT_3D_SIZE 32
0.142458 0.142458 0.142458
0.144900 0.142550 0.142519
0.148745 0.142245 0.142306
0.157961 0.142489 0.142184
0.176913 0.142336 0.141756
0.203891 0.142428 0.140871
0.232853 0.143435 0.139834
0.263249 0.144564 0.138491
0.295415 0.146273 0.137209
0.329625 0.148318 0.135103
0.366522 0.151125 0.132662
0.406348 0.153872 0.129641
0.448676 0.157626 0.125795
0.493782 0.159823 0.121370
0.540124 0.163180 0.115694
0.587243 0.165805 0.108919
0.634485 0.168490 0.100862
0.680323 0.171359 0.091157
0.724086 0.173159 0.080385
0.765164 0.174563 0.068177
0.803799 0.176425 0.047700
0.840421 0.177371 0.011322
0.875090 0.178988 0.000000
0.908812 0.179721 0.000000
0.941161 0.180941 0.000000
0.972107 0.181460 0.000000
1.000000 0.181613 0.000000
1.000000 0.181857 0.000000
1.000000 0.181979 0.000000
1.000000 0.181704 0.000000
1.000000 0.181155 0.000000
1.000000 0.180728 0.000000
0.142489 0.144839 0.142397
0.144961 0.144930 0.142336
0.148531 0.145022 0.142245
0.157931 0.145388 0.142092
0.176669 0.146120 0.141421
0.203281 0.147494 0.140627
0.232090 0.148684 0.139590
0.262394 0.149996 0.138216
0.294499 0.152193 0.136721
0.328496 0.154726 0.134585
0.365515 0.156954 0.132357
0.405188 0.160189 0.129274
0.447730 0.162966 0.125704
0.492714 0.166079 0.121004
0.538994 0.169528 0.115267
0.586328 0.172122 0.108675
0.633082 0.175662 0.100313
0.679469 0.177096 0.090913
0.723384 0.179171 0.080018
0.764340 0.181552 0.066743
0.803098 0.182895 0.044251
0.839719 0.183719 0.007721
0.874479 0.185214 0.000000
0.908385 0.185122 0.000000
0.940734 0.185855 0.000000
0.971740 0.187259 0.000000
1.000000 0.187503 0.000000
1.000000 0.187381 0.000000
1.000000 0.187350 0.000000
1.000000 0.187015 0.000000
1.000000 0.186709 0.000000
1.000000 0.185641 0.000000
0.142275 0.148714 0.142245
0.145174 0.148745 0.142184
0.148775 0.148653 0.142092
0.157931 0.149386 0.141909
0.176089 0.151156 0.141176
0.202579 0.153170 0.140322
0.230991 0.155215 0.139223
0.261082 0.157046 0.137972
0.293126 0.159182 0.136294
0.327428 0.161563 0.134310
0.364111 0.164584 0.131868
0.403845 0.167819 0.128756
0.446387 0.170840 0.125154
0.491157 0.174105 0.120424
0.537530 0.177432 0.114870
0.584710 0.180728 0.107942
0.631800 0.184054 0.099458
0.677974 0.185763 0.090272
0.722072 0.187808 0.078859
0.763241 0.189700 0.065827
0.802090 0.190982 0.041627
0.838865 0.191623 0.005005
0.873716 0.192874 0.000000
0.907591 0.193332 0.000000
0.940063 0.193973 0.000000
0.971221 0.194278 0.000000
1.000000 0.194369 0.000000
1.000000 0.194675 0.000000
1.000000 0.194064 0.000000
1.000000 0.193942 0.000000
1.000000 0.192813 0.000000
1.000000 0.191867 0.000000
0.141939 0.158389 0.141695
0.145205 0.158511 0.141604
0.149477 0.158633 0.141482
0.158999 0.158938 0.141329
0.176730 0.161532 0.140688
0.200839 0.164584 0.139651
0.228733 0.167544 0.138613
0.258701 0.170016 0.137301
0.290654 0.172641 0.135561
0.324559 0.175570 0.133547
0.361303 0.178714 0.131044
0.401038 0.182040 0.128084
0.443214 0.185977 0.124361
0.487953 0.189639 0.119570
0.534203 0.193362 0.113710
0.581567 0.197024 0.106630
0.628626 0.200107 0.098054
0.674952 0.202426 0.088563
0.719112 0.204501 0.077150
0.760678 0.206180 0.063172
0.799802 0.207492 0.034333
0.836820 0.208133 0.000000
0.871916 0.209018 0.000000
0.905974 0.209323 0.000000
0.938750 0.209354 0.000000
0.970031 0.209445 0.000000
0.999847 0.209232 0.000000
1.000000 0.209262 0.000000
1.000000 0.208682 0.000000
1.000000 0.207767 0.000000
1.000000 0.206394 0.000000
1.000000 0.204959 0.000000
0.140719 0.178592 0.140322
0.145388 0.178683 0.140200
0.151278 0.178958 0.140017
0.163455 0.179324 0.139925
0.180209 0.179721 0.139498
0.203281 0.182650 0.138430
0.228061 0.184451 0.137453
0.255161 0.186496 0.136141
0.286809 0.189914 0.134493
0.320623 0.193423 0.132540
0.356939 0.197238 0.129976
0.396277 0.201572 0.126894
0.438361 0.205875 0.123049
0.483040 0.210269 0.118105
0.529168 0.214420 0.112337
0.576410 0.218784 0.104799
0.623743 0.222263 0.095918
0.670130 0.225315 0.085664
0.714626 0.227207 0.073701
0.756741 0.228702 0.059510
0.796414 0.229587 0.025086
0.833707 0.230838 0.000000
0.869261 0.230991 0.000000
0.903532 0.231296 0.000000
0.936614 0.230930 0.000000
0.968231 0.230686 0.000000
0.998230 0.230381 0.000000
1.000000 0.229557 0.000000
1.000000 0.228855 0.000000
1.000000 0.227543 0.000000
1.000000 0.225528 0.000000
1.000000 0.223575 0.000000
0.139010 0.205814 0.138247
0.144900 0.205844 0.137911
0.152132 0.205722 0.137911
0.166476 0.205753 0.137453
0.185367 0.205600 0.137148
0.206973 0.205936 0.136385
0.232120 0.207767 0.135317
0.257694 0.208896 0.134279
0.283513 0.209537 0.133333
0.315404 0.212833 0.131502
0.351385 0.217563 0.128939
0.390539 0.222324 0.125612
0.432227 0.227543 0.121614
0.476539 0.232883 0.116457
0.522484 0.237888 0.110262
0.569818 0.242741 0.102419
0.617182 0.247074 0.093599
0.663783 0.250553 0.082551
0.708492 0.253178 0.069734
0.751217 0.254978 0.049897
0.791531 0.256138 0.010407
0.829496 0.256779 0.000000
0.865415 0.257145 0.000000
0.900114 0.257237 0.000000
0.933623 0.257145 0.000000
0.965606 0.256199 0.000000
0.996063 0.255528 0.000000
1.000000 0.254368 0.000000
1.000000 0.253178 0.000000
1.000000 0.251194 0.000000
1.000000 0.248936 0.000000
1.000000 0.246128 0.000000
0.137362 0.235203 0.135195
0.143923 0.234989 0.135225
0.152102 0.234989 0.135164
0.167880 0.234867 0.134859
0.188571 0.234684 0.134463
0.211673 0.234470 0.133669
0.236240 0.234562 0.132815
0.263340 0.236088 0.131746
0.289799 0.236576 0.130678
0.316747 0.237064 0.129366
0.344610 0.237919 0.127657
0.383032 0.243717 0.124147
0.424262 0.250065 0.119966
0.468330 0.256199 0.114565
0.514183 0.262425 0.107759
0.561486 0.267765 0.100099
0.608942 0.273106 0.090181
0.655543 0.277134 0.079072
0.700710 0.280644 0.064546
0.744289 0.282902 0.035279
0.785245 0.284642 0.000000
0.824063 0.285191 0.000000
0.860502 0.285649 0.000000
0.895872 0.285466 0.000000
0.929839 0.284886 0.000000
0.962371 0.283757 0.000000
0.993286 0.283391 0.000000
1.000000 0.281437 0.000000
1.000000 0.279911 0.000000
1.000000 0.277684 0.000000
1.000000 0.274876 0.000000
1.000000 0.271519 0.000000
0.135927 0.266667 0.132174
0.142763 0.266575 0.132021
0.151553 0.266514 0.131930
0.168765 0.266087 0.131624
0.191135 0.266178 0.130922
0.215549 0.265873 0.130434
0.241337 0.265568 0.129671
0.267796 0.265690 0.128817
0.297307 0.267796 0.127321
0.324987 0.267704 0.125582
0.352972 0.267826 0.124056
0.381292 0.268223 0.121798
0.415198 0.271611 0.118288
0.458686 0.278874 0.112642
0.504295 0.286137 0.105898
0.551324 0.292973 0.096986
0.598901 0.299016 0.086976
0.645716 0.304234 0.074495
0.691279 0.308354 0.057862
0.735714 0.311498 0.017639
0.777890 0.313451 0.000000
0.817502 0.314702 0.000000
0.854612 0.315343 0.000000
0.890593 0.315099 0.000000
0.925200 0.314519 0.000000
0.958373 0.313725 0.000000
0.989899 0.312627 0.000000
1.000000 0.310826 0.000000
1.000000 0.308690 0.000000
1.000000 0.305974 0.000000
1.000000 0.302739 0.000000
1.000000 0.298955 0.000000
0.133303 0.300633 0.128206
0.141909 0.300450 0.127993
0.150729 0.300603 0.127871
0.169284 0.300206 0.127504
0.192935 0.300206 0.126925
0.218784 0.300053 0.126101
0.246159 0.299901 0.125216
0.274113 0.299687 0.124056
0.302342 0.299718 0.123140
0.333684 0.302159 0.120912
0.363653 0.302831 0.118532
0.392676 0.302525 0.115908
0.422004 0.302617 0.113405
0.451331 0.302403 0.110170
0.492714 0.308904 0.103456
0.539269 0.316899 0.094453
0.586725 0.324041 0.083497
0.633845 0.330510 0.069245
0.680110 0.335637 0.045045
0.725673 0.339818 0.000000
0.768765 0.342809 0.000000
0.809537 0.344244 0.000000
0.847654 0.345129 0.000000
0.884337 0.345251 0.000000
0.919707 0.344854 0.000000
0.953613 0.343999 0.000000
0.985931 0.342748 0.000000
1.000000 0.341161 0.000000
1.000000 0.338720 0.000000
1.000000 0.335729 0.000000
1.000000 0.332219 0.000000
1.000000 0.327855 0.000000
0.131167 0.337713 0.122683
0.139559 0.337499 0.122469
0.150088 0.337469 0.122164
0.169589 0.337469 0.121645
0.194736 0.337194 0.121218
0.222202 0.337285 0.120211
0.251011 0.337255 0.119295
0.280247 0.337194 0.118074
0.310277 0.337285 0.116701
0.340429 0.337316 0.114992
0.373236 0.339696 0.112551
0.406043 0.341405 0.108766
0.436164 0.340917 0.105531
0.465949 0.340063 0.101503
0.495277 0.339086 0.097047
0.525872 0.338903 0.092103
0.572992 0.347601 0.079561
0.620447 0.355077 0.064088
0.667323 0.361639 0.029328
0.713741 0.367132 0.000000
0.758267 0.371099 0.000000
0.800229 0.373602 0.000000
0.839445 0.374945 0.000000
0.877043 0.375402 0.000000
0.913237 0.375494 0.000000
0.948058 0.374731 0.000000
0.981170 0.373754 0.000000
1.000000 0.371923 0.000000
1.000000 0.369604 0.000000
1.000000 0.366278 0.000000
1.000000 0.362280 0.000000
1.000000 0.357519 0.000000
0.127596 0.378210 0.115297
0.136355 0.378241 0.115023
0.148714 0.378088 0.114656
0.169528 0.377935 0.114321
0.195834 0.377874 0.113741
0.225406 0.377996 0.112490
0.256046 0.378210 0.111269
0.287053 0.378515 0.109865
0.318425 0.378485 0.108156
0.350439 0.378637 0.106172
0.382330 0.378912 0.103731
0.416388 0.380835 0.100526
0.452308 0.383948 0.094575
0.482490 0.382177 0.089570
0.512016 0.380224 0.084565
0.540948 0.377905 0.078645
0.568688 0.375341 0.072145
0.605402 0.377844 0.059693
0.652674 0.385779 0.015015
0.700130 0.392859 0.000000
0.746120 0.398383 0.000000
0.789456 0.402014 0.000000
0.830076 0.404303 0.000000
0.868650 0.405371 0.000000
0.905821 0.405829 0.000000
0.941619 0.405493 0.000000
0.975738 0.404608 0.000000
1.000000 0.403113 0.000000
1.000000 0.400702 0.000000
1.000000 0.397406 0.000000
1.000000 0.393256 0.000000
1.000000 0.387976 0.000000
0.122988 0.422309 0.105013
0.132601 0.422400 0.105318
0.145266 0.422339 0.105135
0.167971 0.422187 0.104250
0.196994 0.422309 0.103395
0.228397 0.422370 0.101869
0.260594 0.422583 0.100557
0.293736 0.423255 0.098482
0.326940 0.423316 0.096498
0.360357 0.423468 0.093355
0.394018 0.423560 0.090669
0.427405 0.423621 0.087709
0.462135 0.424750 0.082826
0.501030 0.429297 0.072511
0.530877 0.425879 0.064790
0.559655 0.422187 0.055848
0.587640 0.418433 0.036744
0.614343 0.414099 0.017731
0.640620 0.410315 0.000000
0.684810 0.416602 0.000000
0.732357 0.423926 0.000000
0.777096 0.429206 0.000000
0.819211 0.432563 0.000000
0.858976 0.434546 0.000000
0.897398 0.435676 0.000000
0.934264 0.436103 0.000000
0.969543 0.435554 0.000000
1.000000 0.434363 0.000000
1.000000 0.432197 0.000000
1.000000 0.428809 0.000000
1.000000 0.424414 0.000000
1.000000 0.418860 0.000000
0.115511 0.469795 0.091066
0.127382 0.469703 0.090700
0.141238 0.469612 0.090181
0.166415 0.469581 0.089754
0.197757 0.469612 0.088075
0.230747 0.469825 0.086275
0.264775 0.470130 0.084962
0.299626 0.470375 0.082368
0.335027 0.470985 0.078737
0.369909 0.470741 0.075288
0.404822 0.470832 0.071290
0.439734 0.470771 0.067109
0.474861 0.470832 0.060670
0.509880 0.470985 0.051209
0.551507 0.476356 0.010742
0.580407 0.471229 0.000000
0.608026 0.465583 0.000000
0.634485 0.459724 0.000000
0.660273 0.454292 0.000000
0.686610 0.449592 0.000000
0.716640 0.447425 0.000000
0.763272 0.454444 0.000000
0.807034 0.459419 0.000000
0.848203 0.462501 0.000000
0.887846 0.464637 0.000000
0.926055 0.465766 0.000000
0.962554 0.465980 0.000000
0.996918 0.465278 0.000000
1.000000 0.463325 0.000000
1.000000 0.460151 0.000000
1.000000 0.455818 0.000000
1.000000 0.449928 0.000000
0.106905 0.519280 0.070344
0.120729 0.519188 0.069734
0.136049 0.519127 0.068940
0.163149 0.519158 0.068238
0.196780 0.519066 0.065888
0.232212 0.519127 0.063966
0.268284 0.519280 0.061341
0.304875 0.519402 0.056275
0.341558 0.519829 0.048035
0.378454 0.520104 0.035309
0.414710 0.519646 0.021027
0.450965 0.519463 0.007813
0.487221 0.519432 0.000000
0.523430 0.519249 0.000000
0.559686 0.519097 0.000000
0.602594 0.524620 0.000000
0.629908 0.517021 0.000000
0.655909 0.509300 0.000000
0.681025 0.501671 0.000000
0.706477 0.495064 0.000000
0.732052 0.489235 0.000000
0.757839 0.483955 0.000000
0.793271 0.484565 0.000000
0.836088 0.489204 0.000000
0.877195 0.492500 0.000000
0.916777 0.494606 0.000000
0.954711 0.495796 0.000000
0.990417 0.495888 0.000000
1.000000 0.494453 0.000000
1.000000 0.491524 0.000000
1.000000 0.487190 0.000000
1.000000 0.481178 0.000000
0.096742 0.569329 0.013031
0.112001 0.569360 0.011078
0.128481 0.569238 0.012299
0.158785 0.569268 0.006775
0.194919 0.569085 0.002258
0.232486 0.569116 0.000000
0.270695 0.569085 0.000000
0.308568 0.569207 0.000000
0.346868 0.569360 0.000000
0.385199 0.569635 0.000000
0.422919 0.569543 0.000000
0.460456 0.569055 0.000000
0.497719 0.568658 0.000000
0.535027 0.568292 0.000000
0.572259 0.567834 0.000000
0.609247 0.567407 0.000000
0.652918 0.572564 0.000000
0.678126 0.562371 0.000000
0.702480 0.552422 0.000000
0.726680 0.543450 0.000000
0.750973 0.535363 0.000000
0.775387 0.528008 0.000000
0.800107 0.521660 0.000000
0.825437 0.516014 0.000000
0.865202 0.519066 0.000000
0.906432 0.522545 0.000000
0.945953 0.524834 0.000000
0.983307 0.525628 0.000000
1.000000 0.525017 0.000000
1.000000 0.522789 0.000000
1.000000 0.518578 0.000000
1.000000 0.512566 0.000000
0.081331 0.619104 0.000000
0.099367 0.619104 0.000000
0.119539 0.619043 0.000000
0.152132 0.618952 0.000000
0.191440 0.618799 0.000000
0.231083 0.618616 0.000000
0.270695 0.618585 0.000000
0.310491 0.618708 0.000000
0.350286 0.618616 0.000000
0.389776 0.618677 0.000000
0.429053 0.618799 0.000000
0.467689 0.618158 0.000000
0.505730 0.617365 0.000000
0.543938 0.616541 0.000000
0.581842 0.615839 0.000000
0.619623 0.614984 0.000000
0.657069 0.614130 0.000000
0.699062 0.617304 0.000000
0.723842 0.605890 0.000000
0.746914 0.594293 0.000000
0.769863 0.583856 0.000000
0.792966 0.574365 0.000000
0.816373 0.565881 0.000000
0.840360 0.558465 0.000000
0.865537 0.552422 0.000000
0.894926 0.549218 0.000000
0.936278 0.552819 0.000000
0.975372 0.554925 0.000000
1.000000 0.555291 0.000000
1.000000 0.553613 0.000000
1.000000 0.549798 0.000000
1.000000 0.543847 0.000000
0.054932 0.667262 0.000000
0.083040 0.667292 0.000000
0.107454 0.667170 0.000000
0.144411 0.666957 0.000000
0.186404 0.666804 0.000000
0.227848 0.666590 0.000000
0.269566 0.666407 0.000000
0.310948 0.666194 0.000000
0.351629 0.666011 0.000000
0.392004 0.665736 0.000000
0.432166 0.665644 0.000000
0.471931 0.665217 0.000000
0.510796 0.664240 0.000000
0.549523 0.662898 0.000000
0.587823 0.661707 0.000000
0.625818 0.660456 0.000000
0.663600 0.658991 0.000000
0.701289 0.657710 0.000000
0.740841 0.658259 0.000000
0.766720 0.647364 0.000000
0.788449 0.634302 0.000000
0.810269 0.622400 0.000000
0.832486 0.611841 0.000000
0.855558 0.602747 0.000000
0.879545 0.595056 0.000000
0.904936 0.588617 0.000000
0.931945 0.583520 0.000000
0.966552 0.583307 0.000000
1.000000 0.584955 0.000000
1.000000 0.584039 0.000000
1.000000 0.580835 0.000000
1.000000 0.575036 0.000000
0.000000 0.711971 0.000000
0.060761 0.711879 0.000000
0.092470 0.711788 0.000000
0.135225 0.711574 0.000000
0.179904 0.711269 0.000000
0.223575 0.710842 0.000000
0.266697 0.710536 0.000000
0.308598 0.710109 0.000000
0.350561 0.709651 0.000000
0.391699 0.709224 0.000000
0.432349 0.708797 0.000000
0.472755 0.708278 0.000000
0.512352 0.707271 0.000000
0.551507 0.705928 0.000000
0.590173 0.704494 0.000000
0.628534 0.702968 0.000000
0.666773 0.701472 0.000000
0.704555 0.699825 0.000000
0.741970 0.698207 0.000000
0.779843 0.696956 0.000000
0.806577 0.686458 0.000000
0.827329 0.672267 0.000000
0.848600 0.659541 0.000000
0.870634 0.648585 0.000000
0.893492 0.639063 0.000000
0.917662 0.631098 0.000000
0.943236 0.624445 0.000000
0.970184 0.619013 0.000000
0.998047 0.614527 0.000000
1.000000 0.614130 0.000000
1.000000 0.611658 0.000000
1.000000 0.606195 0.000000
0.000000 0.753017 0.000000
0.004669 0.752956 0.000000
0.075044 0.752804 0.000000
0.124971 0.752590 0.000000
0.172244 0.752255 0.000000
0.218265 0.751858 0.000000
0.262058 0.751522 0.000000
0.305394 0.750912 0.000000
0.347509 0.750454 0.000000
0.389166 0.749844 0.000000
0.430304 0.749203 0.000000
0.471138 0.748501 0.000000
0.511559 0.747829 0.000000
0.551049 0.746304 0.000000
0.589990 0.744778 0.000000
0.628687 0.743160 0.000000
0.666896 0.741360 0.000000
0.704799 0.739620 0.000000
0.742458 0.737758 0.000000
0.779812 0.735775 0.000000
0.816312 0.733303 0.000000
0.844144 0.723720 0.000000
0.864469 0.708827 0.000000
0.885466 0.695796 0.000000
0.907225 0.684199 0.000000
0.930144 0.674556 0.000000
0.954345 0.666163 0.000000
0.979644 0.659144 0.000000
1.000000 0.653040 0.000000
1.000000 0.647303 0.000000
1.000000 0.642176 0.000000
1.000000 0.637354 0.000000
0.000000 0.791348 0.000000
0.000000 0.791257 0.000000
0.047333 0.791196 0.000000
0.112581 0.790982 0.000000
0.164309 0.790585 0.000000
0.211398 0.790158 0.000000
0.256901 0.789578 0.000000
0.300359 0.789059 0.000000
0.343389 0.788418 0.000000
0.385382 0.787655 0.000000
0.427131 0.786923 0.000000
0.467964 0.786221 0.000000
0.508324 0.785306 0.000000
0.548486 0.784268 0.000000
0.587610 0.782589 0.000000
0.626307 0.780850 0.000000
0.664881 0.778988 0.000000
0.702907 0.777188 0.000000
0.740597 0.775265 0.000000
0.778042 0.773220 0.000000
0.815122 0.771145 0.000000
0.851041 0.768307 0.000000
0.879942 0.759579 0.000000
0.899901 0.744228 0.000000
0.920592 0.730678 0.000000
0.942260 0.718929 0.000000
0.964996 0.708644 0.000000
0.988769 0.699916 0.000000
1.000000 0.692103 0.000000
1.000000 0.684749 0.000000
1.000000 0.677302 0.000000
1.000000 0.669123 0.000000
0.000000 0.827268 0.000000
0.000000 0.827207 0.000000
0.000000 0.827085 0.000000
0.099672 0.826841 0.000000
0.155184 0.826505 0.000000
0.204410 0.826108 0.000000
0.251041 0.825559 0.000000
0.294926 0.825040 0.000000
0.338354 0.824308 0.000000
0.380896 0.823575 0.000000
0.422705 0.822812 0.000000
0.463752 0.821958 0.000000
0.504204 0.821073 0.000000
0.544488 0.820127 0.000000
0.583978 0.818692 0.000000
0.622797 0.817014 0.000000
0.661372 0.815152 0.000000
0.699550 0.813230 0.000000
0.737331 0.811276 0.000000
0.774807 0.809232 0.000000
0.811978 0.807156 0.000000
0.848783 0.804959 0.000000
0.884337 0.801724 0.000000
0.913725 0.793606 0.000000
0.933288 0.777920 0.000000
0.953765 0.764096 0.000000
0.975128 0.751919 0.000000
0.997314 0.741299 0.000000
1.000000 0.731472 0.000000
1.000000 0.722438 0.000000
1.000000 0.713375 0.000000
1.000000 0.703609 0.000000
0.000000 0.861662 0.000000
0.000000 0.861570 0.000000
0.000000 0.861479 0.000000
0.083192 0.861234 0.000000
0.144594 0.860929 0.000000
0.197055 0.860441 0.000000
0.244297 0.859953 0.000000
0.288823 0.859403 0.000000
0.332891 0.858640 0.000000
0.375555 0.857877 0.000000
0.417456 0.857084 0.000000
0.458717 0.856229 0.000000
0.499275 0.855283 0.000000
0.539330 0.854307 0.000000
0.579217 0.853239 0.000000
0.618311 0.851438 0.000000
0.656703 0.849607 0.000000
0.695003 0.847654 0.000000
0.732784 0.845670 0.000000
0.770230 0.843656 0.000000
0.807401 0.841520 0.000000
0.844175 0.839261 0.000000
0.880644 0.837034 0.000000
0.915740 0.833677 0.000000
0.945281 0.825711 0.000000
0.964538 0.809812 0.000000
0.984588 0.795590 0.000000
1.000000 0.782864 0.000000
1.000000 0.771206 0.000000
1.000000 0.760250 0.000000
1.000000 0.749447 0.000000
1.000000 0.737942 0.000000
0.000000 0.894285 0.000000
0.000000 0.894224 0.000000
0.000000 0.894133 0.000000
0.061250 0.893858 0.000000
0.134890 0.893553 0.000000
0.188663 0.893126 0.000000
0.236820 0.892607 0.000000
0.282444 0.891966 0.000000
0.326818 0.891264 0.000000
0.369726 0.890440 0.000000
0.411597 0.889647 0.000000
0.452857 0.888670 0.000000
0.493416 0.887694 0.000000
0.533684 0.886564 0.000000
0.573144 0.885466 0.000000
0.612543 0.884092 0.000000
0.650965 0.882231 0.000000
0.689082 0.880308 0.000000
0.726864 0.878264 0.000000
0.764218 0.876188 0.000000
0.801205 0.873991 0.000000
0.837980 0.871702 0.000000
0.874327 0.869444 0.000000
0.910430 0.867063 0.000000
0.945281 0.863798 0.000000
0.973846 0.855283 0.000000
0.993164 0.839475 0.000000
1.000000 0.824674 0.000000
1.000000 0.811063 0.000000
1.000000 0.798123 0.000000
1.000000 0.785489 0.000000
1.000000 0.772183 0.000000
0.000000 0.924987 0.000000
0.000000 0.924865 0.000000
0.000000 0.924773 0.000000
0.007172 0.924559 0.000000
0.123018 0.924254 0.000000
0.179629 0.923796 0.000000
0.229313 0.923247 0.000000
0.275883 0.922606 0.000000
0.320073 0.921843 0.000000
0.363226 0.921019 0.000000
0.405188 0.920134 0.000000
0.446204 0.919127 0.000000
0.486824 0.918059 0.000000
0.526879 0.916930 0.000000
0.566308 0.915740 0.000000
0.605554 0.914458 0.000000
0.644129 0.912749 0.000000
0.682094 0.910826 0.000000
0.719631 0.908843 0.000000
0.756832 0.906737 0.000000
0.793698 0.904570 0.000000
0.830289 0.902251 0.000000
0.866484 0.899992 0.000000
0.902434 0.897520 0.000000
0.938079 0.895048 0.000000
0.972900 0.892119 0.000000
0.999329 0.882017 0.000000
1.000000 0.866484 0.000000
1.000000 0.850828 0.000000
1.000000 0.835966 0.000000
1.000000 0.821408 0.000000
1.000000 0.806332 0.000000
0.000000 0.953491 0.000000
0.000000 0.953429 0.000000
0.000000 0.953338 0.000000
0.000000 0.953094 0.000000
0.110628 0.952758 0.000000
0.170962 0.952300 0.000000
0.221653 0.951781 0.000000
0.268467 0.951110 0.000000
0.313146 0.950347 0.000000
0.356298 0.949493 0.000000
0.398077 0.948608 0.000000
0.439460 0.947539 0.000000
0.479774 0.946441 0.000000
0.519524 0.945251 0.000000
0.558770 0.943999 0.000000
0.597681 0.942657 0.000000
0.636164 0.941222 0.000000
0.673854 0.939300 0.000000
0.711238 0.937255 0.000000
0.748196 0.935149 0.000000
0.784878 0.932921 0.000000
0.821256 0.930602 0.000000
0.857176 0.928222 0.000000
0.892821 0.925811 0.000000
0.928191 0.923247 0.000000
0.963226 0.920653 0.000000
0.997986 0.917998 0.000000
1.000000 0.906249 0.000000
1.000000 0.890440 0.000000
1.000000 0.873686 0.000000
1.000000 0.857023 0.000000
1.000000 0.840208 0.000000
0.000000 0.979858 0.000000
0.000000 0.979828 0.000000
0.000000 0.979706 0.000000
0.000000 0.979492 0.000000
0.095247 0.979126 0.000000
0.161593 0.978668 0.000000
0.213138 0.978119 0.000000
0.260960 0.977417 0.000000
0.305791 0.976654 0.000000
0.348608 0.975799 0.000000
0.390661 0.974792 0.000000
0.431556 0.973724 0.000000
0.471748 0.972564 0.000000
0.511376 0.971313 0.000000
0.550378 0.969970 0.000000
0.588769 0.968566 0.000000
0.626978 0.967010 0.000000
0.664607 0.965301 0.000000
0.701717 0.963226 0.000000
0.738308 0.961089 0.000000
0.774655 0.958831 0.000000
0.810666 0.956481 0.000000
0.846250 0.954070 0.000000
0.881559 0.951568 0.000000
0.916503 0.948974 0.000000
0.951171 0.946258 0.000000
0.985534 0.943511 0.000000
1.000000 0.940673 0.000000
1.000000 0.927855 0.000000
1.000000 0.910857 0.000000
1.000000 0.892363 0.000000
1.000000 0.873960 0.000000
0.000000 1.000000 0.000000
0.000000 1.000000 0.000000
0.000000 1.000000 0.000000
0.000000 1.000000 0.000000
0.080507 1.000000 0.000000
0.151766 1.000000 0.000000
0.204898 1.000000 0.000000
0.252995 1.000000 0.000000
0.297734 1.000000 0.000000
0.340795 0.999512 0.000000
0.382452 0.998505 0.000000
0.423133 0.997375 0.000000
0.463081 0.996155 0.000000
0.502342 0.994812 0.000000
0.540948 0.993408 0.000000
0.579065 0.991882 0.000000
0.616846 0.990234 0.000000
0.654078 0.988525 0.000000
0.690761 0.986542 0.000000
0.727047 0.984344 0.000000
0.762936 0.982055 0.000000
0.798520 0.979644 0.000000
0.833738 0.977142 0.000000
0.868559 0.974548 0.000000
0.903105 0.971832 0.000000
0.937255 0.969085 0.000000
0.971130 0.966217 0.000000
1.000000 0.963226 0.000000
1.000000 0.960021 0.000000
1.000000 0.945892 0.000000
1.000000 0.927306 0.000000
1.000000 0.907286 0.000000
0.000000 1.000000 0.000000
0.000000 1.000000 0.000000
0.000000 1.000000 0.000000
0.000000 1.000000 0.000000
0.059266 1.000000 0.000000
0.140963 1.000000 0.000000
0.196048 1.000000 0.000000
0.244419 1.000000 0.000000
0.289311 1.000000 0.000000
0.332433 1.000000 0.000000
0.373602 1.000000 0.000000
0.414130 1.000000 0.000000
0.453529 1.000000 0.000000
0.492287 1.000000 0.000000
0.530571 1.000000 0.000000
