其他预设/【232】美食博客调色预设124款/1.3D LUT预设（视频调色-PR-AE-PS-FCPX-达芬奇用）/0 Black As Night_ Sweet As Sin.cube
# Created by Adobe Lightroom plugin Export LUT (1.17.0)
# www.johnrellis.com/lightroom/exportlut.htm
# Preset: 0 Black As Night, Sweet As Sin
# Color profile: /Library/Application Support/Adobe/Color/Profiles/Recommended/AdobeRGB1998.icc
LUT_3D_SIZE 8
DOMAIN_MIN 0.000000 0.000000 0.000000
DOMAIN_MAX 0.903226 0.903226 0.903226
0.142458 0.142458 0.142458
0.176913 0.142336 0.141756
0.295415 0.146273 0.137209
0.448676 0.157626 0.125795
0.634485 0.168490 0.100862
0.803799 0.176425 0.047700
0.941161 0.180941 0.000000
1.000000 0.181979 0.000000
0.140719 0.178592 0.140322
0.180209 0.179721 0.139498
0.286809 0.189914 0.134493
0.438361 0.205875 0.123049
0.623743 0.222263 0.095918
0.796414 0.229587 0.025086
0.936614 0.230930 0.000000
1.000000 0.228855 0.000000
0.133303 0.300633 0.128206
0.192935 0.300206 0.126925
0.302342 0.299718 0.123140
0.422004 0.302617 0.113405
0.586725 0.324041 0.083497
0.768765 0.342809 0.000000
0.919707 0.344854 0.000000
1.000000 0.338720 0.000000
0.115511 0.469795 0.091066
0.197757 0.469612 0.088075
0.335027 0.470985 0.078737
0.474861 0.470832 0.060670
0.608026 0.465583 0.000000
0.716640 0.447425 0.000000
0.887846 0.464637 0.000000
1.000000 0.463325 0.000000
0.054932 0.667262 0.000000
0.186404 0.666804 0.000000
0.351629 0.666011 0.000000
0.510796 0.664240 0.000000
0.663600 0.658991 0.000000
0.788449 0.634302 0.000000
0.879545 0.595056 0.000000
1.000000 0.584955 0.000000
0.000000 0.827268 0.000000
0.155184 0.826505 0.000000
0.338354 0.824308 0.000000
0.504204 0.821073 0.000000
0.661372 0.815152 0.000000
0.811978 0.807156 0.000000
0.933288 0.777920 0.000000
1.000000 0.731472 0.000000
0.000000 0.953491 0.000000
0.110628 0.952758 0.000000
0.313146 0.950347 0.000000
0.479774 0.946441 0.000000
0.636164 0.941222 0.000000
0.784878 0.932921 0.000000
0.928191 0.923247 0.000000
1.000000 0.890440 0.000000
0.000000 1.000000 0.000000
0.005859 1.000000 0.000000
0.280278 1.000000 0.000000
0.443275 1.000000 0.000000
0.593042 1.000000 0.000000
0.735225 1.000000 0.000000
0.870512 1.000000 0.000000
0.999634 0.994598 0.000000
0.142519 0.141512 0.181399
0.181155 0.138155 0.181064
0.302831 0.120241 0.184421
0.464240 0.107454 0.172610
0.649470 0.110048 0.157107
0.813382 0.121218 0.135317
0.946777 0.133669 0.107546
1.000000 0.142489 0.064393
0.135439 0.181125 0.180728
0.180056 0.180056 0.180056
0.298589 0.179934 0.176761
0.453803 0.185275 0.168704
0.639002 0.192721 0.152743
0.805905 0.198337 0.130007
0.942168 0.201358 0.100587
1.000000 0.201205 0.044739
0.116243 0.301488 0.184512
0.177127 0.301488 0.175326
0.301823 0.300389 0.172854
0.423926 0.297154 0.158419
0.601587 0.318791 0.139101
0.778927 0.331060 0.110964
0.925475 0.330724 0.070100
1.000000 0.323949 0.000000
0.051514 0.470985 0.171237
0.166384 0.471382 0.157351
0.326329 0.471992 0.152407
0.474586 0.471473 0.143435
0.608118 0.461372 0.116762
0.727535 0.446540 0.073548
0.893767 0.458686 0.000000
1.000000 0.455116 0.000000
0.000000 0.669001 0.104738
0.133730 0.668513 0.101595
0.335851 0.667170 0.092927
0.505699 0.665095 0.071839
0.663600 0.659480 0.003723
0.787900 0.631128 0.000000
0.878721 0.589807 0.000000
1.000000 0.580591 0.000000
0.000000 0.828428 0.000000
0.086183 0.827573 0.000000
0.321355 0.825162 0.000000
0.496712 0.821714 0.000000
0.658473 0.815702 0.000000
0.811734 0.807309 0.000000
0.932708 0.775814 0.000000
1.000000 0.728206 0.000000
0.000000 0.954223 0.000000
0.000000 0.953460 0.000000
0.297551 0.950958 0.000000
0.472358 0.946929 0.000000
0.632319 0.941527 0.000000
0.783261 0.933135 0.000000
0.927916 0.923278 0.000000
1.000000 0.889220 0.000000
0.000000 1.000000 0.000000
0.000000 1.000000 0.000000
0.268070 1.000000 0.000000
0.437232 1.000000 0.000000
0.589746 1.000000 0.000000
0.733272 1.000000 0.000000
0.869505 1.000000 0.000000
0.999298 0.994537 0.000000
0.149660 0.134798 0.307713
0.199588 0.128573 0.307195
0.306065 0.116762 0.305303
0.472786 0.059510 0.326238
0.674281 0.000000 0.326177
0.843046 0.000000 0.291325
0.964752 0.000000 0.272038
1.000000 0.000000 0.253422
0.117830 0.183627 0.306584
0.183536 0.178561 0.305943
0.304601 0.175265 0.304234
0.473884 0.147341 0.319280
0.675441 0.000000 0.311528
0.836759 0.000000 0.284306
0.960296 0.000000 0.267094
1.000000 0.080232 0.249027
0.108858 0.305028 0.303380
0.170779 0.303716 0.302983
0.301396 0.301396 0.301396
0.466377 0.294682 0.292638
0.650141 0.289494 0.279515
0.811307 0.285954 0.265049
0.944305 0.282383 0.249577
1.000000 0.277470 0.232364
0.000000 0.471901 0.321996
0.130953 0.473060 0.315892
0.293217 0.475532 0.292363
0.474556 0.473335 0.286687
0.606104 0.444404 0.252995
0.762387 0.440894 0.231388
0.913634 0.438849 0.215793
1.000000 0.429297 0.197910
0.000000 0.669551 0.323522
0.000000 0.670283 0.311040
0.277134 0.671077 0.272587
0.487892 0.668330 0.267399
0.663325 0.660700 0.258305
0.784817 0.619471 0.224308
0.874723 0.570886 0.166964
1.000000 0.566308 0.132082
0.000000 0.829221 0.295933
0.000000 0.829252 0.281590
0.263981 0.827695 0.254520
0.474067 0.823514 0.250126
0.649958 0.817197 0.242893
0.810849 0.807767 0.230381
0.929808 0.768765 0.191043
1.000000 0.716487 0.075502
0.000000 0.954986 0.260777
0.000000 0.954589 0.250523
0.254612 0.952209 0.240269
0.453407 0.947906 0.235966
0.622705 0.942168 0.230289
0.778866 0.933623 0.218143
0.926757 0.923217 0.201205
1.000000 0.885161 0.155093
0.000000 1.000000 0.232181
0.000000 1.000000 0.230930
0.245884 1.000000 0.228305
0.426703 1.000000 0.223941
0.583581 1.000000 0.217807
0.729702 1.000000 0.208042
0.867094 1.000000 0.187076
0.997925 0.994141 0.153933
0.165072 0.114504 0.485786
0.221195 0.104829 0.485298
0.343389 0.077760 0.483833
0.482948 0.000000 0.481819
0.675685 0.000000 0.507286
0.839078 0.000000 0.493874
0.970184 0.000000 0.469123
1.000000 0.000000 0.453834
0.113924 0.174502 0.484932
0.194705 0.170382 0.484657
0.334905 0.157565 0.483284
0.482582 0.134890 0.481605
0.675959 0.000000 0.503044
0.839017 0.000000 0.488746
0.969696 0.000000 0.466407
1.000000 0.144594 0.456672
0.000000 0.328649 0.482856
0.128756 0.320745 0.482948
0.302251 0.298924 0.482582
0.480812 0.289158 0.480232
0.676722 0.265599 0.488075
0.838132 0.258885 0.474037
0.966918 0.283879 0.464942
1.000000 0.294652 0.446357
0.000000 0.482155 0.479652
0.086061 0.481361 0.479316
0.280613 0.479072 0.478248
0.475563 0.475563 0.475563
0.660609 0.460700 0.459663
0.813474 0.447395 0.443458
0.942443 0.434485 0.426703
1.000000 0.421790 0.408942
0.000000 0.670253 0.496925
0.000000 0.670771 0.493385
0.250736 0.671778 0.481300
0.467597 0.670008 0.467231
0.662898 0.662257 0.460945
0.774380 0.598627 0.399695
0.897917 0.564385 0.360388
1.000000 0.552514 0.349920
0.000000 0.829068 0.482490
0.000000 0.828946 0.477821
0.238926 0.827756 0.465461
0.462409 0.823545 0.461067
0.645563 0.817990 0.458167
0.809415 0.807919 0.448310
0.921080 0.756771 0.390906
1.000000 0.694942 0.295048
0.000000 0.954376 0.455451
0.000000 0.953857 0.452735
0.246616 0.951507 0.448768
0.458961 0.946380 0.456764
0.624567 0.940795 0.453803
0.778592 0.932952 0.446845
0.924590 0.922637 0.435157
1.000000 0.879271 0.385931
0.000000 1.000000 0.426032
0.000000 1.000000 0.426398
0.270329 1.000000 0.435615
0.454322 1.000000 0.451087
0.598291 1.000000 0.447852
0.736934 1.000000 0.444007
0.868284 1.000000 0.431312
0.995270 0.992950 0.413336
0.180453 0.069032 0.683589
0.238956 0.043183 0.683253
0.370397 0.000000 0.682277
0.520531 0.000000 0.680446
0.678828 0.000000 0.677638
0.834958 0.000000 0.666621
0.964294 0.000000 0.640436
1.000000 0.000000 0.612329
0.126711 0.158145 0.682948
0.207248 0.152193 0.682765
0.356817 0.129549 0.681758
0.515404 0.076204 0.680385
0.678187 0.000000 0.677028
0.834745 0.000000 0.664576
0.963684 0.000000 0.639063
1.000000 0.158785 0.613672
0.000000 0.319982 0.681514
0.000000 0.306035 0.681544
0.306126 0.292576 0.680751
0.497444 0.278569 0.678492
0.675776 0.262028 0.675227
0.833036 0.259861 0.659022
0.960815 0.287968 0.638087
1.000000 0.345251 0.622095
0.000000 0.504204 0.676753
0.000000 0.499916 0.676753
0.259556 0.486122 0.675807
0.475685 0.474037 0.673884
0.670649 0.470710 0.670497
0.827268 0.476875 0.656153
0.953307 0.494911 0.647211
1.000000 0.525078 0.645930
0.000000 0.672999 0.670344
0.000000 0.672511 0.670100
0.240238 0.670466 0.669001
0.467689 0.667323 0.666896
0.663874 0.663874 0.663874
0.807248 0.644800 0.644465
0.931579 0.624964 0.623804
1.000000 0.606226 0.603357
0.000000 0.828580 0.655238
0.000000 0.828275 0.653895
0.237552 0.826474 0.650233
0.469551 0.821530 0.650111
0.658412 0.814786 0.658289
0.808103 0.807797 0.651667
0.902434 0.738155 0.563256
1.000000 0.687434 0.500298
0.000000 0.953124 0.626215
0.000000 0.952483 0.625574
0.257694 0.949767 0.625483
0.477058 0.943633 0.634943
0.653590 0.935882 0.653376
0.790097 0.930388 0.650172
0.922057 0.921355 0.639765
1.000000 0.872618 0.572473
0.000000 1.000000 0.590021
0.000000 1.000000 0.590967
0.291691 1.000000 0.597925
0.489876 1.000000 0.620447
0.649744 1.000000 0.649226
0.765255 1.000000 0.647089
0.879026 1.000000 0.639460
0.991730 0.990692 0.626123
0.192508 0.000000 0.833860
0.245487 0.000000 0.833646
0.370397 0.000000 0.833005
0.516228 0.000000 0.831693
0.669673 0.000000 0.829374
0.827726 0.000000 0.826383
0.957214 0.000000 0.798428
1.000000 0.031434 0.758297
0.150668 0.142763 0.833555
0.217838 0.137270 0.833371
0.357061 0.115084 0.832822
0.509880 0.059480 0.831205
0.667018 0.000000 0.828916
0.827176 0.000000 0.825956
0.956573 0.000000 0.797543
1.000000 0.176577 0.758816
0.000000 0.297459 0.832425
0.074434 0.295262 0.832151
0.312383 0.288457 0.831205
0.490517 0.278447 0.829557
0.659419 0.269078 0.827237
0.824949 0.264225 0.824094
0.953674 0.294255 0.796048
1.000000 0.353246 0.762631
0.000000 0.485298 0.828275
0.000000 0.481788 0.828122
0.276677 0.474800 0.827329
0.479133 0.474586 0.825498
0.655146 0.475502 0.823056
0.820279 0.479591 0.819913
0.946868 0.498177 0.797238
1.000000 0.529442 0.773800
0.000000 0.656184 0.822873
0.000000 0.654871 0.822721
0.267308 0.652247 0.821958
0.485145 0.655085 0.819821
0.664088 0.663508 0.817044
0.814572 0.663691 0.814420
0.938079 0.669306 0.801877
1.000000 0.684077 0.791196
0.000000 0.818936 0.816464
0.000000 0.818509 0.816281
0.259831 0.817014 0.815457
0.482582 0.814511 0.813840
0.662715 0.811856 0.811765
0.809476 0.809415 0.809445
0.921111 0.789944 0.789822
1.000000 0.772915 0.772488
0.000000 0.951110 0.789120
0.000000 0.950347 0.788907
0.282811 0.947173 0.788724
0.491615 0.941039 0.791135
0.663478 0.933471 0.796902
0.805356 0.926757 0.805325
0.920653 0.920562 0.799557
1.000000 0.860105 0.717159
0.000000 1.000000 0.743801
0.101869 1.000000 0.744656
0.325200 1.000000 0.748836
0.509728 1.000000 0.760525
0.671595 1.000000 0.780240
0.804135 1.000000 0.804074
0.896483 0.997009 0.801511
0.988434 0.988128 0.792081
0.203128 0.000000 0.949035
0.249210 0.000000 0.949645
0.362768 0.000000 0.948943
0.499367 0.000000 0.947784
0.643885 0.000000 0.946166
0.792172 0.000000 0.943725
0.941680 0.000000 0.940520
1.000000 0.092439 0.894591
0.173831 0.132509 0.946136
0.227665 0.128298 0.946654
0.350622 0.112093 0.946136
0.492287 0.077089 0.944915
0.639002 0.000000 0.942962
0.788052 0.000000 0.940032
0.937560 0.000000 0.936461
1.000000 0.168093 0.891844
0.000000 0.292271 0.946868
0.155489 0.290929 0.946593
0.319280 0.286687 0.945403
0.477638 0.282109 0.943969
0.632776 0.278447 0.941344
0.785885 0.282170 0.938537
0.936797 0.297765 0.935912
1.000000 0.354711 0.893462
0.000000 0.468696 0.944762
0.123995 0.469032 0.944152
0.321386 0.473304 0.942443
0.483436 0.475715 0.941222
0.638575 0.479408 0.938811
0.789334 0.488411 0.936492
0.934661 0.502434 0.934173
1.000000 0.532830 0.896269
0.000000 0.627619 0.937896
0.090761 0.627466 0.937072
0.318791 0.630701 0.935332
0.508110 0.646143 0.933196
0.658930 0.657374 0.930907
0.793576 0.659907 0.928679
0.926818 0.664424 0.926574
1.000000 0.682490 0.898924
0.000000 0.779599 0.931518
0.072358 0.779751 0.931273
0.319768 0.781247 0.930388
0.508873 0.787411 0.929076
0.670863 0.796719 0.927031
0.807095 0.806882 0.925566
0.924193 0.808408 0.924132
1.000000 0.817136 0.907469
0.000000 0.928649 0.926574
0.103182 0.928679 0.926787
0.329412 0.927611 0.926146
0.513237 0.926085 0.925200
0.670314 0.923552 0.923186
0.807248 0.921355 0.921263
0.920287 0.920226 0.920256
0.992432 0.905241 0.905211
0.077974 1.000000 0.888334
0.188907 1.000000 0.888273
0.365240 1.000000 0.889891
0.533440 1.000000 0.892302
0.683772 1.000000 0.896422
0.815763 1.000000 0.904814
0.920073 0.990936 0.920073
0.985718 0.985687 0.915679
0.212222 0.000000 1.000000
0.249821 0.000000 1.000000
0.347295 0.000000 1.000000
0.469978 0.000000 1.000000
0.601312 0.000000 1.000000
0.736507 0.000000 1.000000
0.873533 0.000000 1.000000
1.000000 0.083070 1.000000
0.193271 0.130190 1.000000
0.234989 0.128176 1.000000
0.338811 0.118105 1.000000
0.465034 0.101900 1.000000
0.598596 0.086366 1.000000
0.735012 0.085084 1.000000
0.872282 0.119203 1.000000
1.000000 0.171633 1.000000
0.135958 0.281254 1.000000
0.195315 0.280735 1.000000
0.317876 0.278233 1.000000
0.456245 0.279820 1.000000
0.595239 0.282475 1.000000
0.733944 0.290379 1.000000
0.871427 0.309453 1.000000
1.000000 0.338079 1.000000
0.174380 0.454047 1.000000
0.224552 0.454994 1.000000
0.337591 0.455604 1.000000
0.471199 0.460029 1.000000
0.607446 0.467140 1.000000
0.742031 0.476967 1.000000
0.874083 0.492531 1.000000
1.000000 0.512352 1.000000
0.174624 0.595392 1.000000
0.237949 0.598718 1.000000
0.374975 0.610529 1.000000
0.531273 0.637476 1.000000
0.643580 0.640803 1.000000
0.761257 0.646265 0.999542
0.880125 0.655726 0.997589
0.996094 0.670008 0.995819
0.169192 0.730282 1.000000
0.229679 0.731411 1.000000
0.367346 0.736934 1.000000
0.523644 0.750851 0.997864
0.672328 0.773220 0.995148
0.791836 0.791165 0.993378
0.893828 0.800565 0.992523
0.991669 0.812833 0.991547
0.187686 0.863584 0.996612
0.244266 0.864012 0.996277
0.377722 0.866178 0.995239
0.532769 0.872160 0.993622
0.678553 0.881712 0.991516
0.810636 0.896574 0.989197
0.915557 0.915435 0.987518
0.986206 0.918669 0.986206
0.234531 0.993225 0.991455
0.281926 0.992859 0.991180
0.405768 0.991760 0.990448
0.552789 0.990204 0.989380
0.692317 0.988312 0.987915
0.818936 0.986297 0.986175
0.921019 0.984588 0.984588
0.983429 0.983429 0.983429
