其他预设/【232】美食博客调色预设124款/1.3D LUT预设（视频调色-PR-AE-PS-FCPX-达芬奇用）/0 Black As Night_ Sweet As Sin.cube
# Created by Adobe Lightroom plugin Export LUT (1.17.0)
# www.johnrellis.com/lightroom/exportlut.htm
# Preset: 0 Black As Night, Sweet As Sin
# Color profile: /Library/Application Support/Adobe/Color/Profiles/Recommended/AdobeRGB1998.icc
LUT_3D_SIZE 5
DOMAIN_MIN 0.000000 0.000000 0.000000
DOMAIN_MAX 0.903226 0.903226 0.903226
0.142458 0.142458 0.142458
0.263249 0.144564 0.138491
0.540124 0.163180 0.115694
0.840421 0.177371 0.011322
1.000000 0.181979 0.000000
0.135927 0.266667 0.132174
0.267796 0.265690 0.128817
0.504295 0.286137 0.105898
0.817502 0.314702 0.000000
1.000000 0.308690 0.000000
0.096742 0.569329 0.013031
0.308568 0.569207 0.000000
0.572259 0.567834 0.000000
0.775387 0.528008 0.000000
1.000000 0.525017 0.000000
0.000000 0.861662 0.000000
0.288823 0.859403 0.000000
0.579217 0.853239 0.000000
0.844175 0.839261 0.000000
1.000000 0.771206 0.000000
0.000000 1.000000 0.000000
0.235264 1.000000 0.000000
0.519280 1.000000 0.000000
0.769741 1.000000 0.000000
0.999634 0.994598 0.000000
0.147280 0.137240 0.272251
0.270970 0.122713 0.270237
0.572320 0.000000 0.286473
0.867185 0.000000 0.241306
1.000000 0.000000 0.208316
0.115999 0.269841 0.268406
0.266697 0.266697 0.266697
0.554894 0.259556 0.251072
0.845182 0.256840 0.224155
1.000000 0.252354 0.191867
0.000000 0.571405 0.285435
0.247562 0.573693 0.243534
0.571984 0.569696 0.230961
0.772396 0.508415 0.167025
1.000000 0.505394 0.113008
0.000000 0.863615 0.230014
0.215366 0.861967 0.199069
0.563226 0.854704 0.188144
0.843290 0.839658 0.161898
1.000000 0.762173 0.000000
0.000000 1.000000 0.168215
0.193637 1.000000 0.164065
0.507927 1.000000 0.152834
0.765286 1.000000 0.124025
0.998352 0.994293 0.000000
0.173404 0.094942 0.587915
0.325719 0.039368 0.586664
0.584466 0.000000 0.583337
0.872251 0.000000 0.576287
1.000000 0.000000 0.535149
0.000000 0.282963 0.586084
0.271275 0.258762 0.585626
0.582422 0.228641 0.581842
0.871122 0.201419 0.566949
1.000000 0.295079 0.544060
0.000000 0.581537 0.578851
0.201480 0.579431 0.577966
0.573480 0.573480 0.573480
0.844205 0.542870 0.541192
1.000000 0.513115 0.507164
0.000000 0.862974 0.563500
0.165499 0.861601 0.556085
0.564294 0.852567 0.563745
0.840269 0.839384 0.551720
1.000000 0.731563 0.397223
0.000000 1.000000 0.509667
0.221500 1.000000 0.515099
0.556054 1.000000 0.554437
0.780209 1.000000 0.549004
0.993561 0.991943 0.523461
0.194461 0.000000 0.866270
0.335302 0.000000 0.865721
0.588067 0.000000 0.863096
0.859739 0.000000 0.858518
1.000000 0.064210 0.793423
0.000000 0.255406 0.865232
0.284092 0.247135 0.864469
0.574884 0.225345 0.861570
0.857786 0.211185 0.856809
1.000000 0.311192 0.795377
0.000000 0.566491 0.858488
0.223239 0.562432 0.857359
0.574456 0.572412 0.853056
0.846281 0.574456 0.845975
1.000000 0.609461 0.810758
0.000000 0.850309 0.847868
0.209598 0.848905 0.847135
0.581140 0.844938 0.844480
0.840879 0.840818 0.840848
1.000000 0.809476 0.809171
0.000000 1.000000 0.781155
0.287907 1.000000 0.783871
0.598383 1.000000 0.801480
0.837156 1.000000 0.837125
0.987701 0.987518 0.827329
0.212222 0.000000 1.000000
0.319493 0.000000 1.000000
0.534966 0.000000 1.000000
0.770779 0.000000 1.000000
1.000000 0.083070 1.000000
0.152987 0.242710 1.000000
0.291875 0.239994 1.000000
0.526635 0.236790 1.000000
0.768612 0.248722 1.000000
1.000000 0.298528 1.000000
0.179782 0.526757 1.000000
0.337987 0.540337 1.000000
0.557183 0.551568 1.000000
0.780240 0.563195 1.000000
0.998596 0.593103 0.998199
0.182437 0.765042 1.000000
0.338293 0.769284 0.999786
0.604669 0.791653 0.995972
0.825223 0.824826 0.991516
0.990295 0.842802 0.990234
0.234531 0.993225 0.991455
0.370428 0.992096 0.990692
0.623804 0.989288 0.988708
0.847379 0.985840 0.985748
0.983429 0.983429 0.983429
