其他预设/【232】美食博客调色预设124款/1.3D LUT预设（视频调色-PR-AE-PS-FCPX-达芬奇用）/0 Candy Is My Religion.cube
# Created by Adobe Lightroom plugin Export LUT (1.17.0)
# www.johnrellis.com/lightroom/exportlut.htm
# Preset: 0 Candy Is My Religion
# Color profile: /Library/Application Support/Adobe/Color/Profiles/Recommended/AdobeRGB1998.icc
LUT_3D_SIZE 32
0.156039 0.156039 0.156039
0.156039 0.156039 0.156039
0.156039 0.156039 0.156039
0.156039 0.156039 0.156039
0.179812 0.155489 0.155398
0.231022 0.153658 0.153658
0.276005 0.151492 0.151675
0.316136 0.149386 0.149477
0.353155 0.146883 0.147127
0.388220 0.144503 0.144503
0.422461 0.141360 0.141634
0.455970 0.138125 0.138460
0.489052 0.134737 0.134920
0.521874 0.130831 0.130953
0.554498 0.126925 0.126528
0.587396 0.121736 0.121614
0.620417 0.116213 0.115999
0.652003 0.113375 0.113497
0.682094 0.120241 0.120272
0.726589 0.130770 0.130251
0.767514 0.140963 0.141207
0.803098 0.151339 0.151247
0.833677 0.160678 0.160800
0.860777 0.169589 0.169406
0.885405 0.177279 0.177523
0.908721 0.185153 0.185214
0.931945 0.193423 0.193088
0.955535 0.202152 0.201877
0.979919 0.211704 0.211398
1.000000 0.222721 0.222354
1.000000 0.235233 0.234989
1.000000 0.249912 0.249760
0.156039 0.156039 0.156039
0.156039 0.156039 0.156039
0.156039 0.156039 0.156039
0.156039 0.156039 0.156039
0.179232 0.157900 0.155215
0.229313 0.159182 0.153262
0.273594 0.158358 0.151217
0.313207 0.156710 0.149050
0.349828 0.154543 0.146731
0.384802 0.152193 0.144137
0.418524 0.149416 0.141329
0.451820 0.146609 0.138186
0.484474 0.142947 0.134768
0.516899 0.138827 0.130953
0.549065 0.134829 0.126711
0.581598 0.130739 0.121828
0.614343 0.125368 0.116365
0.646052 0.122286 0.112734
0.676204 0.127932 0.119509
0.720089 0.136904 0.129274
0.759945 0.146242 0.138857
0.795010 0.155245 0.148623
0.825528 0.163790 0.157595
0.852873 0.171511 0.166140
0.877806 0.179202 0.173892
0.901610 0.186374 0.181338
0.925383 0.193973 0.189242
0.949462 0.202518 0.198337
0.974304 0.211826 0.207919
1.000000 0.222324 0.218601
1.000000 0.234623 0.231327
1.000000 0.248753 0.245792
0.156039 0.156039 0.156039
0.156039 0.156039 0.156039
0.156039 0.156039 0.156039
0.156039 0.156039 0.156039
0.178714 0.160861 0.154971
0.227481 0.165988 0.152743
0.270970 0.166842 0.150607
0.310277 0.166140 0.148409
0.346807 0.164279 0.146059
0.381567 0.161776 0.143557
0.415381 0.158968 0.140780
0.448493 0.156161 0.137667
0.481086 0.152377 0.134310
0.513451 0.149294 0.130465
0.545525 0.145052 0.126284
0.577844 0.140658 0.121553
0.610529 0.136080 0.116091
0.642267 0.133333 0.112490
0.672663 0.137850 0.119326
0.716548 0.146731 0.128573
0.755825 0.155032 0.138247
0.790677 0.162600 0.147585
0.821225 0.170382 0.156435
0.848631 0.177340 0.164553
0.873686 0.184146 0.172335
0.897642 0.190799 0.179751
0.921660 0.198093 0.187503
0.946044 0.206119 0.196475
0.971221 0.214847 0.205844
0.997131 0.225010 0.216831
1.000000 0.236790 0.229221
1.000000 0.250431 0.243442
0.156039 0.156039 0.156039
0.156039 0.156039 0.156039
0.156039 0.156039 0.156039
0.156039 0.156039 0.156039
0.181216 0.169253 0.154147
0.226749 0.180240 0.151431
0.269139 0.183658 0.149050
0.307866 0.183780 0.146761
0.343999 0.182162 0.144472
0.378515 0.179782 0.142000
0.411994 0.177066 0.139254
0.444770 0.174258 0.136233
0.476967 0.171054 0.132906
0.509056 0.167605 0.129152
0.541009 0.163943 0.125002
0.573114 0.159976 0.120302
0.605615 0.155520 0.114931
0.637263 0.153658 0.112795
0.670039 0.158114 0.119478
0.711177 0.164920 0.128145
0.748806 0.171389 0.136843
0.782834 0.177615 0.145815
0.813718 0.184146 0.154391
0.842222 0.190341 0.162661
0.868864 0.196445 0.170413
0.894438 0.202670 0.178500
0.919677 0.209323 0.186954
0.944793 0.216892 0.196262
0.970245 0.225101 0.205692
0.996094 0.234318 0.216495
1.000000 0.245060 0.228641
1.000000 0.257359 0.241978
0.156069 0.180117 0.153872
0.159365 0.181216 0.153658
0.164034 0.182376 0.153414
0.174563 0.185000 0.152834
0.191043 0.189334 0.151858
0.226261 0.200626 0.149233
0.265995 0.205692 0.146700
0.302831 0.206546 0.144442
0.338537 0.205539 0.142123
0.372686 0.203250 0.139712
0.405951 0.200778 0.137026
0.438605 0.197848 0.134066
0.470771 0.194644 0.130800
0.502861 0.191592 0.127077
0.535027 0.187839 0.122927
0.567559 0.184573 0.118105
0.600763 0.181155 0.112520
0.633051 0.180453 0.113527
0.669612 0.184939 0.120699
0.708858 0.190097 0.128847
0.745083 0.195315 0.137148
0.778317 0.200381 0.145541
0.808957 0.204929 0.153658
0.837552 0.209812 0.161624
0.864561 0.214664 0.169741
0.890623 0.219760 0.177737
0.916136 0.225711 0.185977
0.941497 0.231785 0.194858
0.967041 0.239017 0.204318
0.992950 0.247379 0.214908
1.000000 0.256748 0.226780
1.000000 0.268070 0.240330
0.156161 0.225193 0.148623
0.162356 0.225711 0.148379
0.170748 0.225834 0.148104
0.187320 0.225956 0.147555
0.208286 0.227390 0.146578
0.233402 0.229984 0.145113
0.266941 0.234714 0.142733
0.302220 0.234928 0.140566
0.335637 0.232944 0.138521
0.369024 0.230594 0.136172
0.402075 0.227970 0.133516
0.434546 0.224949 0.130617
0.466651 0.221866 0.127352
0.498665 0.218509 0.123659
0.530999 0.215396 0.119417
0.563714 0.212253 0.114473
0.597131 0.208927 0.108980
0.629633 0.210666 0.114473
0.670253 0.215091 0.122621
0.708431 0.219577 0.130434
0.744289 0.223789 0.138582
0.777737 0.227573 0.146792
0.855985 0.251255 0.174075
0.882536 0.255406 0.183383
0.906767 0.259251 0.192172
0.929656 0.263066 0.200259
0.951873 0.267216 0.208469
0.974060 0.271946 0.217197
0.996643 0.277806 0.226505
1.000000 0.284794 0.236820
1.000000 0.293004 0.248356
1.000000 0.302739 0.261357
0.156130 0.273808 0.140993
0.164645 0.273564 0.140780
0.175021 0.273228 0.140505
0.195071 0.272740 0.139864
0.222843 0.271794 0.138857
0.249180 0.272923 0.137331
0.279026 0.274205 0.135348
0.312322 0.275151 0.132937
0.345434 0.271183 0.131106
0.377691 0.266819 0.129091
0.409430 0.262516 0.126741
0.442420 0.259098 0.123659
0.474739 0.255528 0.120241
0.506767 0.251957 0.116365
0.538567 0.248142 0.112001
0.570550 0.244602 0.107149
0.603052 0.244541 0.111482
0.641657 0.247715 0.118410
0.682551 0.251957 0.127230
0.722011 0.256474 0.135714
0.760433 0.261021 0.145022
0.797635 0.265751 0.155337
0.832731 0.270970 0.165774
0.865110 0.275669 0.176669
0.894347 0.280339 0.187228
0.920409 0.284154 0.196475
0.944366 0.287816 0.205264
0.967407 0.291722 0.214084
0.990570 0.296239 0.223301
1.000000 0.301823 0.233371
1.000000 0.308629 0.244450
1.000000 0.317144 0.257267
0.156710 0.307927 0.134127
0.164553 0.307744 0.133913
0.174960 0.307164 0.133669
0.195438 0.306157 0.133120
0.222721 0.304753 0.132204
0.252171 0.303807 0.130831
0.280369 0.304295 0.128969
0.311254 0.305241 0.126558
0.343816 0.305699 0.123751
0.375738 0.300420 0.121981
0.407202 0.295171 0.119875
0.437934 0.290227 0.117403
0.468849 0.285771 0.114321
0.500664 0.282078 0.110445
0.532372 0.278355 0.105989
0.563989 0.276310 0.107393
0.599664 0.277653 0.113191
0.640589 0.281437 0.120516
0.678645 0.284428 0.128054
0.716213 0.287541 0.136385
0.753475 0.291081 0.145083
0.789914 0.294865 0.154360
0.824491 0.298772 0.164736
0.856748 0.302220 0.174685
0.886137 0.305577 0.184604
0.912505 0.308476 0.193759
0.936919 0.310918 0.202426
0.960540 0.313512 0.210880
0.984192 0.317174 0.220188
1.000000 0.321538 0.230198
1.000000 0.327367 0.241276
1.000000 0.334539 0.253635
0.156680 0.339757 0.126375
0.164218 0.339513 0.126162
0.174502 0.339055 0.125917
0.194553 0.337957 0.125368
0.221622 0.336645 0.124422
0.252354 0.334600 0.123232
0.281376 0.334051 0.121431
0.310735 0.334600 0.119020
0.342412 0.335637 0.115908
0.374975 0.335882 0.112459
0.406836 0.330846 0.110262
0.437476 0.324956 0.107973
0.467475 0.319371 0.105257
0.496925 0.313848 0.102113
0.527611 0.310521 0.103792
0.561547 0.310491 0.109438
0.601953 0.313787 0.116152
0.639826 0.316106 0.123110
0.675990 0.317937 0.130129
0.712367 0.320104 0.137545
0.748653 0.322789 0.145846
0.784421 0.325505 0.154940
0.818631 0.328405 0.164309
0.850614 0.331151 0.174044
0.879973 0.333440 0.183597
0.906493 0.335027 0.192294
0.931243 0.336461 0.200748
0.955108 0.338262 0.209232
0.979004 0.340673 0.218082
1.000000 0.343969 0.227909
1.000000 0.348547 0.238651
1.000000 0.354620 0.250828
0.157259 0.370031 0.117433
0.164462 0.369665 0.117281
0.174472 0.369116 0.117037
0.194003 0.368109 0.116487
0.220066 0.366613 0.115602
0.250034 0.364721 0.114382
0.282475 0.362463 0.112795
0.310277 0.362676 0.110353
0.340307 0.363531 0.107149
0.372290 0.364630 0.103120
0.404486 0.364569 0.098909
0.436347 0.360143 0.095827
0.466377 0.353826 0.093263
0.495918 0.348333 0.095186
0.529168 0.347143 0.104097
0.565362 0.348302 0.112367
0.604242 0.350622 0.118868
0.641169 0.352178 0.125368
0.676448 0.353094 0.132418
0.711543 0.354253 0.139620
0.746120 0.355688 0.147402
0.779782 0.357183 0.155306
0.812100 0.358465 0.163668
0.842527 0.359472 0.172457
0.871092 0.360449 0.181186
0.897765 0.361151 0.189517
0.923186 0.361975 0.197879
0.948180 0.363134 0.206332
0.973114 0.365118 0.215732
0.998199 0.368109 0.225895
1.000000 0.372168 0.237003
1.000000 0.377600 0.249607
0.156924 0.397650 0.107607
0.164126 0.397345 0.107424
0.173648 0.397009 0.107149
0.192294 0.396185 0.106538
0.217960 0.394965 0.105531
0.247257 0.393530 0.104128
0.279149 0.391760 0.102266
0.310430 0.390692 0.099763
0.339574 0.391516 0.096193
0.370397 0.392706 0.091676
0.402533 0.394141 0.086091
0.434272 0.393683 0.080598
0.468208 0.391852 0.078614
0.502220 0.389593 0.092042
0.536034 0.388037 0.103182
0.570031 0.386938 0.112398
0.604089 0.386236 0.119844
0.637812 0.385870 0.127260
0.672023 0.385962 0.133761
0.706477 0.386481 0.140200
0.740627 0.387304 0.147768
0.774166 0.388190 0.155245
0.806455 0.389075 0.163607
0.836973 0.389624 0.172366
0.865629 0.389807 0.180667
0.892302 0.389715 0.188724
0.917723 0.389563 0.196597
0.942657 0.389837 0.204898
0.967620 0.390936 0.213809
0.992859 0.392859 0.223484
1.000000 0.396155 0.234592
1.000000 0.400732 0.247135
0.161379 0.425879 0.103609
0.168063 0.425666 0.103151
0.177096 0.425360 0.102144
0.193881 0.424750 0.100801
0.217899 0.423865 0.097749
0.245792 0.422705 0.094148
0.276555 0.421332 0.089082
0.309422 0.419776 0.085939
0.339971 0.419867 0.081849
0.369940 0.421241 0.076905
0.401495 0.423041 0.076753
0.438880 0.429480 0.076814
0.502251 0.458228 0.084291
0.543633 0.461891 0.092744
0.580072 0.459419 0.107149
0.614954 0.456245 0.118410
0.647456 0.452308 0.128115
0.677821 0.448035 0.136843
0.707179 0.443824 0.145113
0.738582 0.441382 0.152895
0.769772 0.439643 0.160250
0.799924 0.437842 0.168185
0.828489 0.435981 0.175998
0.855894 0.434180 0.184146
0.881926 0.432288 0.191684
0.906645 0.430396 0.199405
0.930388 0.428717 0.207095
0.953643 0.427466 0.214694
0.976989 0.427008 0.222934
1.000000 0.427588 0.232273
1.000000 0.429450 0.242741
1.000000 0.432746 0.254826
0.177890 0.463416 0.115816
0.183444 0.463172 0.115694
0.191012 0.462409 0.114626
0.206271 0.461158 0.113161
0.227726 0.459419 0.109926
0.253239 0.457404 0.105989
0.281956 0.455451 0.101564
0.312840 0.453742 0.095155
0.346014 0.452644 0.086824
0.379553 0.459449 0.087098
0.415839 0.467353 0.088808
0.454963 0.476265 0.089418
0.496132 0.485512 0.090730
0.535821 0.491737 0.093019
0.579400 0.498512 0.098085
0.614252 0.494850 0.112154
0.645930 0.489601 0.123934
0.675319 0.483711 0.133577
0.703792 0.478279 0.142977
0.731899 0.473487 0.151308
0.760372 0.469734 0.159182
0.790402 0.467536 0.166384
0.818936 0.465064 0.173831
0.846433 0.462593 0.181247
0.872587 0.460090 0.188937
0.897581 0.457618 0.195956
0.921630 0.455360 0.203433
0.945342 0.453529 0.211002
0.969238 0.452399 0.219242
0.993713 0.452613 0.228550
1.000000 0.453925 0.238804
1.000000 0.456703 0.251347
0.189090 0.490211 0.125124
0.194278 0.490059 0.124605
0.200931 0.489387 0.124025
0.214664 0.488350 0.122103
0.233921 0.486641 0.119448
0.258549 0.486244 0.116884
0.286931 0.487129 0.113161
0.318151 0.488258 0.108125
0.351934 0.489906 0.101656
0.386603 0.493141 0.095430
0.420325 0.499855 0.096773
0.456886 0.507622 0.097444
0.495369 0.515831 0.098573
0.535088 0.523674 0.098451
0.574182 0.529503 0.099153
0.612909 0.532891 0.102113
0.643458 0.526024 0.117617
0.672053 0.518914 0.129305
0.700008 0.512383 0.139132
0.727749 0.506737 0.147799
0.755489 0.501976 0.156649
0.782956 0.497810 0.164553
0.810513 0.494331 0.172152
0.838376 0.491707 0.179629
0.864927 0.488869 0.186801
0.890288 0.486000 0.193942
0.914794 0.483192 0.201205
0.938933 0.480964 0.208469
0.963287 0.479500 0.216831
0.988251 0.479255 0.226047
1.000000 0.480171 0.236881
1.000000 0.482521 0.249332
0.204257 0.527520 0.135592
0.209140 0.527764 0.135286
0.215183 0.527337 0.134676
0.228031 0.526757 0.133272
0.246799 0.525841 0.131289
0.269474 0.524895 0.128054
0.295811 0.524285 0.124300
0.325200 0.524163 0.119295
0.356939 0.524865 0.113710
0.391424 0.526604 0.106508
0.425116 0.531426 0.103151
0.459724 0.538781 0.103731
0.496284 0.546288 0.104219
0.533715 0.553246 0.104952
0.571160 0.558892 0.104921
0.607630 0.562585 0.104311
0.642420 0.563775 0.107515
0.670283 0.555077 0.121828
0.697505 0.547356 0.133761
0.724605 0.540551 0.144045
0.751736 0.534722 0.152956
0.778592 0.529686 0.161624
0.804715 0.524773 0.169406
0.830442 0.520378 0.177127
0.857206 0.517205 0.184482
0.883421 0.514397 0.191775
0.909148 0.511864 0.199374
0.934691 0.509972 0.207858
0.960571 0.508934 0.216861
0.986908 0.509026 0.227268
1.000000 0.510277 0.239017
1.000000 0.512902 0.253056
0.219181 0.566766 0.145418
0.223850 0.567102 0.145083
0.229221 0.566888 0.144778
0.241459 0.566430 0.143465
0.259251 0.565576 0.140993
0.281193 0.564843 0.138247
0.306432 0.564477 0.134768
0.334844 0.564508 0.130678
0.365850 0.565026 0.125185
0.398779 0.565942 0.118837
0.433600 0.567102 0.109987
0.465461 0.571771 0.110109
0.498360 0.576532 0.110475
0.532036 0.580896 0.110719
0.566094 0.584527 0.110658
0.600092 0.587182 0.110689
0.634150 0.589349 0.110140
0.667140 0.589868 0.112917
0.695644 0.582666 0.126375
0.723262 0.575769 0.139010
0.750881 0.569635 0.149538
0.778042 0.564111 0.159274
0.804410 0.558862 0.168032
0.830289 0.554009 0.176425
0.855497 0.549523 0.184298
0.880735 0.545617 0.192050
0.906950 0.542901 0.200076
0.932952 0.540826 0.208560
0.959045 0.539422 0.217807
0.985290 0.538842 0.228153
1.000000 0.539361 0.239872
1.000000 0.541100 0.253117
0.232151 0.600488 0.153292
0.235904 0.600366 0.152743
0.241032 0.599939 0.152712
0.252445 0.599298 0.151125
0.268742 0.598383 0.149172
0.289372 0.597375 0.146639
0.313146 0.596674 0.143740
0.340215 0.596246 0.139467
0.369451 0.596155 0.134615
0.400855 0.596612 0.128969
0.434272 0.597314 0.121340
0.467475 0.599145 0.115572
0.498726 0.603449 0.116274
0.530632 0.607263 0.116548
0.563012 0.610315 0.117037
0.594995 0.612329 0.117006
0.627161 0.613703 0.117128
0.659876 0.615229 0.116060
0.691432 0.615106 0.119417
0.720455 0.609735 0.130983
0.747524 0.602564 0.143648
0.774380 0.596277 0.153964
0.800595 0.590387 0.163607
0.826413 0.585077 0.172702
0.851804 0.580102 0.181155
0.876921 0.575647 0.189792
0.902037 0.571923 0.197940
0.928069 0.569451 0.206882
0.954833 0.568048 0.216526
0.981750 0.567529 0.227512
1.000000 0.568017 0.239445
1.000000 0.569696 0.253483
0.244327 0.633082 0.161654
0.248569 0.633692 0.161624
0.265660 0.661585 0.169863
0.276371 0.660792 0.168826
0.292210 0.659419 0.167056
0.312016 0.657618 0.164096
0.335180 0.655665 0.160983
0.360937 0.653834 0.157015
0.389624 0.652491 0.152132
0.420111 0.651637 0.146609
0.452308 0.650996 0.140078
0.485817 0.650202 0.131746
0.516991 0.651026 0.128237
0.547021 0.652918 0.128786
0.577386 0.654261 0.129305
0.607965 0.654994 0.129274
0.638666 0.655177 0.129061
0.669429 0.655146 0.128634
0.700679 0.655207 0.127932
0.729824 0.653010 0.131624
0.757900 0.647395 0.141390
0.783139 0.638727 0.153719
0.808072 0.630854 0.164584
0.832334 0.623651 0.174319
0.855802 0.616510 0.182681
0.878935 0.610163 0.190585
0.902159 0.604456 0.198276
0.926055 0.600000 0.206149
0.951019 0.596979 0.215152
0.977935 0.596002 0.226169
1.000000 0.596246 0.238468
1.000000 0.597559 0.252689
0.259251 0.670863 0.171664
0.264134 0.674464 0.172732
0.270726 0.677974 0.173342
0.282017 0.680659 0.173587
0.297704 0.682155 0.172702
0.316838 0.681849 0.170932
0.339055 0.680568 0.168032
0.363622 0.678950 0.164523
0.390784 0.677699 0.159854
0.419654 0.676600 0.154910
0.450477 0.675715 0.149294
0.482429 0.674830 0.142031
0.515038 0.673274 0.133242
0.543694 0.674434 0.132815
0.572381 0.675288 0.133120
0.601373 0.675624 0.133272
0.630640 0.675624 0.133150
0.660243 0.675532 0.132357
0.690425 0.675654 0.132631
0.721553 0.676417 0.132570
0.750210 0.674464 0.136751
0.779599 0.671260 0.145510
0.804715 0.663020 0.158145
0.829313 0.655329 0.169436
0.853086 0.648035 0.178866
0.876585 0.641260 0.187655
0.900084 0.635309 0.196201
0.924102 0.630549 0.204959
0.949126 0.627161 0.214572
0.975219 0.625208 0.225284
1.000000 0.624781 0.237644
1.000000 0.625910 0.252232
0.268620 0.696559 0.177676
0.273533 0.699733 0.178683
0.279393 0.702968 0.179232
0.289891 0.705379 0.179416
0.304723 0.706722 0.178622
0.322606 0.706477 0.176944
0.343450 0.705318 0.174441
0.366705 0.703853 0.170993
0.392523 0.702663 0.167391
0.420264 0.701564 0.162722
0.449805 0.700710 0.157382
0.480507 0.699763 0.151369
0.511955 0.698177 0.143160
0.542473 0.697017 0.136660
0.569879 0.697627 0.136965
0.597589 0.697719 0.137270
0.625696 0.697627 0.137087
0.654200 0.697414 0.136812
0.683436 0.697566 0.136446
0.713466 0.698268 0.136843
0.744411 0.699428 0.137148
0.772793 0.697841 0.142672
0.802731 0.696315 0.150668
0.827298 0.688075 0.163607
0.851102 0.680018 0.174533
0.874479 0.672755 0.184054
0.897826 0.666133 0.193179
0.921660 0.660731 0.202548
0.946532 0.656825 0.212558
0.972412 0.654353 0.223911
0.999207 0.653346 0.236393
1.000000 0.653681 0.250553
0.277989 0.721736 0.183047
0.282506 0.724758 0.183810
0.287999 0.727687 0.184787
0.297978 0.729976 0.185000
0.311772 0.731167 0.184512
0.328527 0.730983 0.183047
0.348241 0.729854 0.180667
0.370306 0.728420 0.177554
0.394873 0.727047 0.173831
0.421180 0.725765 0.169924
0.449195 0.724697 0.164981
0.478706 0.723507 0.159030
0.508873 0.721950 0.152071
0.539818 0.720058 0.143984
0.568231 0.719661 0.140536
0.595422 0.720363 0.141238
0.623621 0.721340 0.141573
0.652583 0.722621 0.142489
0.682490 0.724300 0.143526
0.713405 0.726558 0.145510
0.745235 0.729366 0.147311
0.777829 0.732357 0.149599
0.806485 0.731350 0.156435
0.837034 0.731136 0.164797
0.861357 0.722866 0.178653
0.885008 0.714992 0.190341
0.908507 0.707759 0.201144
0.932341 0.701778 0.211673
0.956970 0.697230 0.222934
0.982361 0.694057 0.234958
1.000000 0.692256 0.248539
1.000000 0.691890 0.263890
0.293126 0.758755 0.193973
0.296757 0.760006 0.194491
0.301030 0.760983 0.194553
0.309514 0.761379 0.194247
0.321996 0.761227 0.193393
0.337652 0.760372 0.191623
0.356146 0.759243 0.189212
0.377356 0.758114 0.186770
0.401068 0.757229 0.183444
0.426917 0.756558 0.179904
0.454505 0.755978 0.175723
0.483284 0.755154 0.170962
0.512810 0.753811 0.164767
0.542931 0.751949 0.157656
0.573571 0.749660 0.148714
0.600092 0.749813 0.148959
0.627039 0.750240 0.149691
0.654810 0.750942 0.150240
0.683314 0.751919 0.151461
0.712581 0.753201 0.152773
0.742458 0.754757 0.154726
0.773007 0.756497 0.156466
0.803830 0.758267 0.158694
0.830198 0.755703 0.165316
0.859617 0.755550 0.172274
0.883085 0.746944 0.185794
0.906615 0.739254 0.197574
0.930510 0.732815 0.209384
0.955047 0.727718 0.221469
0.980316 0.723995 0.233921
1.000000 0.721675 0.248020
1.000000 0.720974 0.263920
0.302373 0.782681 0.199954
0.305608 0.783932 0.200534
0.309789 0.785000 0.200748
0.317876 0.785489 0.200504
0.329442 0.785367 0.199802
0.344182 0.784421 0.197665
0.361639 0.783139 0.195468
0.381476 0.781796 0.192935
0.404120 0.780636 0.189700
0.428626 0.779721 0.186618
0.454994 0.778988 0.182803
0.482582 0.778073 0.178317
0.511070 0.776822 0.172885
0.540520 0.775235 0.166567
0.570367 0.773404 0.158694
0.599573 0.772030 0.152590
0.625910 0.772763 0.153780
0.653010 0.773678 0.154849
0.680934 0.774899 0.156435
0.709590 0.776486 0.158602
0.739101 0.778378 0.161013
0.769192 0.780484 0.163882
0.799741 0.782742 0.166720
0.830594 0.784939 0.169741
0.849302 0.775631 0.170504
0.878233 0.775937 0.177462
0.902098 0.768368 0.190921
0.925963 0.761440 0.203342
0.950408 0.755856 0.216220
0.975677 0.751736 0.229496
1.000000 0.749233 0.244480
1.000000 0.748592 0.261631
0.316960 0.815732 0.211765
0.320134 0.817166 0.212436
0.324041 0.817899 0.212833
0.331365 0.817838 0.212253
0.341894 0.817044 0.210819
0.355444 0.815671 0.208743
0.371557 0.813840 0.206546
0.390265 0.811704 0.203128
0.411383 0.809537 0.199771
0.434089 0.807614 0.196262
0.458747 0.805570 0.191806
0.484688 0.803799 0.187076
0.511711 0.801846 0.181857
0.539544 0.799435 0.175509
0.567773 0.796536 0.167910
0.596490 0.793454 0.159426
0.622889 0.791897 0.155398
0.648310 0.791867 0.156252
0.674983 0.792782 0.157748
0.702907 0.794522 0.160067
0.731746 0.796719 0.162966
0.761166 0.799008 0.165866
0.790585 0.800961 0.169009
0.819852 0.802426 0.171908
0.848783 0.803342 0.174258
0.872770 0.799557 0.179721
0.900725 0.799405 0.187869
0.924681 0.792874 0.199924
0.948486 0.786313 0.213169
0.973297 0.781369 0.226993
0.999359 0.778378 0.242588
1.000000 0.777401 0.260777
0.325170 0.837125 0.217227
0.328344 0.838468 0.217868
0.331945 0.839200 0.217990
0.338781 0.839170 0.217685
0.348669 0.838499 0.216464
0.361578 0.837339 0.214694
0.377081 0.835813 0.212497
0.394965 0.834165 0.209751
0.415259 0.832517 0.206851
0.437507 0.831113 0.203403
0.461311 0.829679 0.200107
0.486854 0.828428 0.195895
0.513359 0.827024 0.191287
0.540673 0.825254 0.185946
0.568536 0.823056 0.179202
0.596948 0.820554 0.171908
0.625940 0.818051 0.163577
0.651179 0.818021 0.163699
0.677211 0.818875 0.165225
0.704311 0.820340 0.168032
0.732265 0.822232 0.170748
0.760800 0.824247 0.174350
0.789425 0.826047 0.177615
0.818082 0.827543 0.180789
0.846555 0.828611 0.184146
0.874907 0.829343 0.186801
0.898863 0.825956 0.192447
0.926116 0.825528 0.202274
0.951110 0.820890 0.215457
0.975708 0.815396 0.230503
1.000000 0.812009 0.247807
1.000000 0.810483 0.267002
0.335698 0.861784 0.225071
0.338445 0.862669 0.225864
0.341680 0.862913 0.225711
0.347906 0.862455 0.224979
0.356878 0.861448 0.223697
0.368750 0.859983 0.221714
0.383062 0.858335 0.219333
0.400122 0.856596 0.216587
0.419440 0.855039 0.213748
0.440742 0.853727 0.210636
0.463783 0.852506 0.207126
0.488563 0.851560 0.203738
0.514458 0.850492 0.199680
0.541161 0.849058 0.194858
0.568292 0.847135 0.189242
0.596002 0.844846 0.182345
0.624323 0.842466 0.174563
0.652125 0.840848 0.168887
0.677241 0.841459 0.170321
0.703456 0.842741 0.172976
0.730526 0.844419 0.176089
0.758175 0.846250 0.179751
0.786069 0.847929 0.183291
0.814023 0.849393 0.186801
0.841886 0.850523 0.190341
0.869688 0.851316 0.193606
0.897551 0.852049 0.196994
0.922606 0.850034 0.202274
0.948150 0.848447 0.213657
0.974243 0.845914 0.228489
0.999908 0.841794 0.246403
1.000000 0.839506 0.266209
0.344457 0.883482 0.231540
0.346929 0.884001 0.231876
0.350103 0.884184 0.231754
0.355779 0.883940 0.231052
0.364630 0.883452 0.230228
0.376562 0.882994 0.228977
0.391333 0.882994 0.227970
0.408820 0.883268 0.226871
0.428717 0.883909 0.226261
0.450782 0.884825 0.225132
0.474708 0.885801 0.224063
0.499916 0.886717 0.222843
0.526360 0.887266 0.220401
0.553399 0.887266 0.217563
0.580896 0.886473 0.213291
0.608606 0.884855 0.207950
0.636744 0.882933 0.201846
0.665583 0.881102 0.194766
0.692409 0.880797 0.193454
0.717983 0.881682 0.196109
0.744320 0.882902 0.199924
0.771176 0.884276 0.203799
0.798245 0.885435 0.207919
0.825498 0.886473 0.212009
0.852689 0.887236 0.215946
0.879942 0.887755 0.219608
0.907225 0.888212 0.223758
0.934600 0.888640 0.228061
0.960937 0.888090 0.233890
0.984527 0.885161 0.248997
1.000000 0.883726 0.266667
1.000000 0.880003 0.287907
0.363684 0.918029 0.250156
0.365850 0.918303 0.250462
0.368322 0.918151 0.250156
0.373541 0.917601 0.249424
0.381598 0.916747 0.247868
0.392279 0.915801 0.246616
0.405768 0.914916 0.244663
0.421576 0.914244 0.242924
0.439826 0.913756 0.241154
0.460212 0.913420 0.239384
0.482124 0.913054 0.237552
0.505577 0.912779 0.235233
0.530297 0.912261 0.232364
0.555901 0.911437 0.228977
0.582147 0.910246 0.224765
