其他预设/【232】美食博客调色预设124款/1.3D LUT预设（视频调色-PR-AE-PS-FCPX-达芬奇用）/0 Candy Is My Religion.cube
# Created by Adobe Lightroom plugin Export LUT (1.17.0)
# www.johnrellis.com/lightroom/exportlut.htm
# Preset: 0 Candy Is My Religion
# Color profile: /Library/Application Support/Adobe/Color/Profiles/Recommended/AdobeRGB1998.icc
LUT_3D_SIZE 5
DOMAIN_MIN 0.000000 0.000000 0.000000
DOMAIN_MAX 0.903226 0.903226 0.903226
0.156039 0.156039 0.156039
0.316136 0.149386 0.149477
0.554498 0.126925 0.126528
0.803098 0.151339 0.151247
0.979919 0.211704 0.211398
0.156710 0.307927 0.134127
0.311254 0.305241 0.126558
0.532372 0.278355 0.105989
0.789914 0.294865 0.154360
0.984192 0.317174 0.220188
0.204257 0.527520 0.135592
0.325200 0.524163 0.119295
0.571160 0.558892 0.104921
0.778592 0.529686 0.161624
0.960571 0.508934 0.216861
0.293126 0.758755 0.193973
0.377356 0.758114 0.186770
0.573571 0.749660 0.148714
0.773007 0.756497 0.156466
0.955047 0.727718 0.221469
0.374029 0.940398 0.259037
0.429694 0.937835 0.252964
0.572992 0.920409 0.220432
0.764920 0.922820 0.210819
0.950805 0.931029 0.248753
0.148959 0.149294 0.295537
0.292210 0.103853 0.292241
0.515160 0.144289 0.281804
0.755917 0.149416 0.282658
0.953399 0.198337 0.297948
0.123598 0.289097 0.289036
0.294713 0.294713 0.294713
0.506432 0.268803 0.268772
0.749752 0.279454 0.279210
0.951293 0.297704 0.297612
0.174807 0.511986 0.273198
0.305180 0.505821 0.280186
0.524559 0.515496 0.253574
0.738613 0.499428 0.269841
0.946777 0.497597 0.297124
0.242954 0.749935 0.275822
0.359380 0.747250 0.298131
0.554742 0.739528 0.266148
0.760739 0.745663 0.261204
0.946990 0.719356 0.296880
0.362158 0.936309 0.335302
0.417762 0.933776 0.328954
0.573114 0.930571 0.312016
0.765621 0.926726 0.290990
0.952483 0.933501 0.321843
0.125063 0.124361 0.517113
0.282444 0.152651 0.510002
0.496223 0.199802 0.496193
0.734676 0.229892 0.513909
0.938231 0.212406 0.497139
0.198428 0.299077 0.503227
0.302892 0.302861 0.497780
0.497353 0.311528 0.497414
0.725856 0.308324 0.505272
0.938842 0.286992 0.489998
0.223178 0.498238 0.498207
0.315648 0.495094 0.495094
0.505882 0.505882 0.505882
0.723354 0.470741 0.470863
0.934386 0.470954 0.470802
0.241215 0.724269 0.499794
0.315740 0.717037 0.491096
0.501884 0.717189 0.478401
0.738003 0.727413 0.454810
0.927733 0.693690 0.458045
0.280156 0.921935 0.476387
0.345312 0.923308 0.473701
0.540520 0.920653 0.491951
0.739437 0.913909 0.444770
0.937255 0.921233 0.470039
0.180331 0.179965 0.727718
0.296513 0.195010 0.724880
0.506004 0.226108 0.723476
0.710109 0.246677 0.710079
0.915343 0.301671 0.709987
0.225315 0.312230 0.717983
0.315129 0.314916 0.717556
0.502983 0.321019 0.712917
0.699855 0.323766 0.699916
0.907103 0.360479 0.703944
0.244175 0.498329 0.704524
0.323064 0.497536 0.701595
0.496193 0.496101 0.696498
0.691310 0.494575 0.691310
0.904814 0.505180 0.699092
0.263554 0.700465 0.700496
0.331975 0.695430 0.695491
0.498695 0.692378 0.692409
0.701320 0.701259 0.701289
0.909422 0.673579 0.673610
0.315435 0.905089 0.700282
0.373571 0.904295 0.699336
0.520500 0.905974 0.696803
0.708827 0.906462 0.688991
0.921202 0.911345 0.677852
0.245304 0.245182 0.925963
0.327459 0.251865 0.924590
0.506981 0.268193 0.919951
0.706294 0.286809 0.913603
0.907256 0.308812 0.907286
0.270695 0.340215 0.923186
0.342565 0.342351 0.922026
0.511742 0.348608 0.918059
0.707362 0.359014 0.912627
0.906798 0.375738 0.906828
0.304753 0.519554 0.916655
0.373022 0.523674 0.915862
0.527428 0.527367 0.913176
0.712093 0.530663 0.909331
0.904631 0.535851 0.904662
0.326513 0.709773 0.909117
0.388647 0.711360 0.908782
0.539788 0.714778 0.907408
0.718624 0.718563 0.905119
0.902220 0.718379 0.902220
0.367163 0.905241 0.905303
0.418036 0.905211 0.905303
0.554650 0.904295 0.904326
0.723995 0.903960 0.903960
0.909758 0.909728 0.909758
