其他预设/【232】美食博客调色预设124款/1.3D LUT预设（视频调色-PR-AE-PS-FCPX-达芬奇用）/0 Candy Is My Religion.cube
# Created by Adobe Lightroom plugin Export LUT (1.17.0)
# www.johnrellis.com/lightroom/exportlut.htm
# Preset: 0 Candy Is My Religion
# Color profile: /Library/Application Support/Adobe/Color/Profiles/Recommended/AdobeRGB1998.icc
LUT_3D_SIZE 8
DOMAIN_MIN 0.000000 0.000000 0.000000
DOMAIN_MAX 0.903226 0.903226 0.903226
0.156039 0.156039 0.156039
0.179812 0.155489 0.155398
0.353155 0.146883 0.147127
0.489052 0.134737 0.134920
0.620417 0.116213 0.115999
0.767514 0.140963 0.141207
0.885405 0.177279 0.177523
0.979919 0.211704 0.211398
0.156069 0.180117 0.153872
0.191043 0.189334 0.151858
0.338537 0.205539 0.142123
0.470771 0.194644 0.130800
0.600763 0.181155 0.112520
0.745083 0.195315 0.137148
0.864561 0.214664 0.169741
0.967041 0.239017 0.204318
0.156680 0.339757 0.126375
0.221622 0.336645 0.124422
0.342412 0.335637 0.115908
0.467475 0.319371 0.105257
0.601953 0.313787 0.116152
0.748653 0.322789 0.145846
0.879973 0.333440 0.183597
0.979004 0.340673 0.218082
0.177890 0.463416 0.115816
0.227726 0.459419 0.109926
0.346014 0.452644 0.086824
0.496132 0.485512 0.090730
0.645930 0.489601 0.123934
0.760372 0.469734 0.159182
0.872587 0.460090 0.188937
0.969238 0.452399 0.219242
0.232151 0.600488 0.153292
0.268742 0.598383 0.149172
0.369451 0.596155 0.134615
0.498726 0.603449 0.116274
0.627161 0.613703 0.117128
0.747524 0.602564 0.143648
0.851804 0.580102 0.181155
0.954833 0.568048 0.216526
0.277989 0.721736 0.183047
0.311772 0.731167 0.184512
0.394873 0.727047 0.173831
0.508873 0.721950 0.152071
0.623621 0.721340 0.141573
0.745235 0.729366 0.147311
0.861357 0.722866 0.178653
0.956970 0.697230 0.222934
0.325170 0.837125 0.217227
0.348669 0.838499 0.216464
0.415259 0.832517 0.206851
0.513359 0.827024 0.191287
0.625940 0.818051 0.163577
0.732265 0.822232 0.170748
0.846555 0.828611 0.184146
0.951110 0.820890 0.215457
0.374029 0.940398 0.259037
0.391089 0.939300 0.256931
0.447272 0.937652 0.252049
0.535912 0.938170 0.246128
0.627161 0.919219 0.212528
0.738705 0.920714 0.205356
0.845335 0.928588 0.228397
0.950805 0.931029 0.248753
0.155306 0.155306 0.177676
0.178378 0.151064 0.178408
0.330968 0.088808 0.179446
0.461372 0.098390 0.175875
0.589471 0.119966 0.182437
0.730678 0.143435 0.196994
0.852689 0.170779 0.214237
0.956481 0.200900 0.235080
0.147036 0.178714 0.178775
0.183505 0.183505 0.183505
0.327367 0.171939 0.171878
0.455329 0.173220 0.173342
0.581170 0.180514 0.180423
0.719814 0.194064 0.193912
0.837247 0.207919 0.207736
0.943023 0.227237 0.227268
0.100771 0.327916 0.169924
0.194553 0.324498 0.178256
0.329992 0.324224 0.157748
0.449805 0.305943 0.169650
0.579187 0.304173 0.181064
0.717098 0.310155 0.194736
0.841276 0.316014 0.212039
0.950988 0.324987 0.234775
0.153140 0.446845 0.171389
0.219821 0.443641 0.186099
0.333654 0.442634 0.165896
0.465034 0.455848 0.161959
0.593408 0.449439 0.177584
0.710933 0.438117 0.194125
0.831846 0.435554 0.210086
0.941802 0.434943 0.232334
0.226902 0.588037 0.209842
0.261021 0.584344 0.205356
0.355596 0.579004 0.190951
0.475563 0.576959 0.170047
0.595972 0.583703 0.167117
0.719112 0.578729 0.182681
0.829587 0.563378 0.207675
0.937560 0.555138 0.233280
0.267491 0.704860 0.220798
0.295506 0.704433 0.218448
0.376562 0.701686 0.208774
0.490028 0.700618 0.190829
0.608179 0.704982 0.180758
0.734554 0.719173 0.186099
0.850645 0.713039 0.208621
0.944884 0.686793 0.240116
0.309972 0.817868 0.239017
0.330694 0.814450 0.235172
0.398138 0.811276 0.227237
0.498695 0.810788 0.215274
0.613947 0.806516 0.192233
0.720363 0.810025 0.195010
0.831601 0.814115 0.201694
0.935424 0.806149 0.223789
0.361883 0.929595 0.273686
0.380407 0.930083 0.273320
0.437751 0.929381 0.268925
0.527428 0.930907 0.263890
0.632197 0.927886 0.249271
0.740200 0.923491 0.234348
0.841520 0.925139 0.246921
0.944427 0.924926 0.260319
0.146395 0.146334 0.334203
0.199527 0.135286 0.332403
0.325078 0.121492 0.325170
0.452705 0.163210 0.321874
0.581994 0.156649 0.316014
0.731777 0.145113 0.316197
0.856077 0.172488 0.321386
0.961242 0.204227 0.328954
0.119203 0.189212 0.325505
0.194797 0.194766 0.322942
0.319005 0.201846 0.319036
0.443915 0.210575 0.317174
0.575525 0.196445 0.309697
0.720638 0.192447 0.309972
0.844877 0.208591 0.314733
0.953948 0.231815 0.323552
0.142275 0.319799 0.319860
0.208164 0.319188 0.319249
0.325811 0.325811 0.325811
0.443702 0.303197 0.303319
0.584070 0.305516 0.305394
0.719203 0.307988 0.307866
0.840696 0.312230 0.312200
0.949432 0.320928 0.320775
0.171359 0.442573 0.311986
0.217899 0.441688 0.312322
0.324926 0.445228 0.312078
0.460975 0.454627 0.294591
0.590387 0.444770 0.300328
0.715846 0.437812 0.303502
0.837491 0.435340 0.309392
0.946044 0.434424 0.319127
0.191287 0.581170 0.306798
0.228763 0.580285 0.304906
0.342107 0.576349 0.312352
0.467903 0.576074 0.287388
0.596643 0.586114 0.283970
0.716823 0.574121 0.289982
0.826200 0.557977 0.299779
0.937804 0.552087 0.313237
0.206149 0.702144 0.288884
0.239078 0.701534 0.286473
0.359533 0.694789 0.310826
0.470436 0.691127 0.292851
0.592401 0.691920 0.276127
0.720119 0.706294 0.279423
0.839719 0.701564 0.294285
0.942992 0.683192 0.316411
0.260685 0.820951 0.297856
0.302861 0.817350 0.311131
0.384710 0.810452 0.316533
0.483497 0.806058 0.302129
0.598810 0.800595 0.279789
0.713161 0.805570 0.277531
0.832822 0.816373 0.287938
0.942657 0.811612 0.309606
0.338293 0.928435 0.336553
0.365667 0.925597 0.344732
0.422156 0.923369 0.338109
0.516197 0.928344 0.336675
0.620844 0.924834 0.320745
0.735042 0.921752 0.303288
0.839780 0.925383 0.316197
0.946227 0.927550 0.330846
0.133852 0.133791 0.454078
0.185885 0.122469 0.454749
0.315099 0.148409 0.447608
0.439338 0.179538 0.439246
0.570001 0.214450 0.446998
0.709590 0.204990 0.450965
0.831907 0.189853 0.441321
0.943877 0.182498 0.430304
0.156374 0.205661 0.451209
0.209140 0.208927 0.449989
0.320317 0.217716 0.444068
0.437537 0.229526 0.437568
0.569238 0.252750 0.447974
0.703792 0.234745 0.446235
0.826169 0.215244 0.434760
0.940856 0.205417 0.424109
0.184543 0.319860 0.439460
0.230472 0.322179 0.437537
0.326116 0.325994 0.433814
0.434577 0.329473 0.434455
0.570916 0.334813 0.447730
0.711513 0.315740 0.442390
0.842710 0.304143 0.434058
0.949615 0.309087 0.428840
0.203372 0.438270 0.438270
0.242344 0.438056 0.438025
0.335485 0.439704 0.439796
0.451270 0.451270 0.451270
0.574701 0.426368 0.426551
0.702388 0.417700 0.417762
0.827451 0.416724 0.416724
0.942290 0.421271 0.421302
0.224094 0.574914 0.449378
0.255406 0.571466 0.446693
0.335332 0.568658 0.441199
0.446815 0.575402 0.433783
0.588739 0.581811 0.414160
0.708705 0.561425 0.411414
0.825254 0.549401 0.411200
0.937469 0.544091 0.415656
0.228122 0.702113 0.437415
0.260258 0.708797 0.440650
0.334661 0.702266 0.429480
0.454719 0.697902 0.426520
0.584924 0.694575 0.396338
0.717006 0.705592 0.398352
0.834409 0.692927 0.406226
0.938445 0.674922 0.415503
0.242771 0.816495 0.419593
0.268193 0.816983 0.418189
0.338323 0.816617 0.409857
0.470008 0.812772 0.425360
0.586603 0.808499 0.401953
0.709316 0.808286 0.387304
0.830228 0.815579 0.394720
0.940002 0.806943 0.410712
0.286687 0.933471 0.417975
0.307713 0.933776 0.416938
0.379675 0.931304 0.419348
0.502312 0.926879 0.443519
0.605097 0.923552 0.424933
0.722805 0.920134 0.401129
0.834684 0.924071 0.410285
0.945464 0.928374 0.428809
0.139986 0.139437 0.580224
0.199191 0.148562 0.579675
0.317052 0.170840 0.572473
0.439643 0.195468 0.564721
0.567010 0.217868 0.566949
0.695766 0.242557 0.572168
0.817441 0.247074 0.569848
0.932464 0.241489 0.561913
0.176425 0.217502 0.574731
0.222049 0.221683 0.576349
0.324956 0.229679 0.570642
0.439277 0.239475 0.561212
0.564538 0.254154 0.564630
0.693843 0.272831 0.571191
0.816403 0.271916 0.568872
0.931456 0.263432 0.560021
0.212528 0.330663 0.564080
0.248875 0.332891 0.562646
0.333043 0.332921 0.557397
0.442664 0.337346 0.559350
0.555657 0.339483 0.555657
0.680293 0.348394 0.561364
0.807797 0.335180 0.559472
0.924590 0.319097 0.548150
0.224002 0.443244 0.562310
0.256596 0.443091 0.560632
0.341161 0.444038 0.559045
0.445594 0.445441 0.558892
0.556237 0.444282 0.556237
0.680232 0.443244 0.558984
0.808225 0.421393 0.548211
0.927428 0.405035 0.534417
0.236881 0.558526 0.558526
0.266117 0.558160 0.558099
0.344030 0.555474 0.555505
0.445197 0.556146 0.556115
0.563012 0.563012 0.563012
0.682704 0.533227 0.533257
0.806271 0.521813 0.521813
0.924498 0.520378 0.520378
0.250614 0.672419 0.554833
0.274998 0.671321 0.553765
0.341314 0.665888 0.547417
0.429908 0.664668 0.539940
0.539391 0.667475 0.526787
0.690181 0.683101 0.516869
0.813779 0.669001 0.520806
0.926635 0.657771 0.522118
0.257267 0.801419 0.550561
0.278752 0.799496 0.548363
0.342962 0.796506 0.542443
0.432868 0.796262 0.532677
0.555291 0.795377 0.529137
0.684352 0.793454 0.495644
0.813993 0.802396 0.504845
0.925109 0.788876 0.512200
0.284947 0.916442 0.540978
0.303380 0.915526 0.539208
0.360723 0.913573 0.533501
0.458259 0.920409 0.535119
0.583673 0.915923 0.544335
0.697566 0.913176 0.517815
0.819608 0.914977 0.510918
0.934722 0.920073 0.528435
0.175967 0.175753 0.708980
0.221775 0.181430 0.707759
0.325719 0.195285 0.700221
0.447822 0.215091 0.699001
0.571069 0.232273 0.696132
0.687800 0.244083 0.687892
0.808072 0.269810 0.686763
0.923064 0.301579 0.686641
0.197269 0.232273 0.696773
0.234592 0.234379 0.695338
0.328679 0.240726 0.690883
0.445563 0.252140 0.691341
0.564599 0.262364 0.687556
0.680964 0.270420 0.680995
0.803342 0.291936 0.682856
0.919890 0.318090 0.683894
0.232395 0.342443 0.694697
0.261997 0.342626 0.693965
0.344457 0.344274 0.692805
0.451392 0.346563 0.690517
0.563745 0.347478 0.684260
0.677668 0.348547 0.677699
0.800656 0.365301 0.681544
0.918090 0.379522 0.682887
0.245304 0.454658 0.694850
0.273259 0.453498 0.691981
0.352392 0.453712 0.688563
0.458778 0.458717 0.691707
0.571313 0.459663 0.689906
0.683986 0.458106 0.684077
0.803464 0.474434 0.687739
0.920256 0.469947 0.684901
0.249088 0.560662 0.679896
0.275639 0.560418 0.679225
0.350225 0.559442 0.677089
0.450782 0.559838 0.675776
0.560082 0.559991 0.673915
0.669978 0.557061 0.670039
0.790524 0.560571 0.673487
0.912902 0.543755 0.664759
0.254978 0.667750 0.667781
0.280797 0.669734 0.669825
0.350683 0.668391 0.668452
0.446540 0.666560 0.666590
0.552972 0.665126 0.665156
0.675807 0.675776 0.675807
0.797421 0.656428 0.656489
0.917754 0.650904 0.650874
0.286351 0.794919 0.677882
0.310063 0.796017 0.679225
0.375525 0.793362 0.677760
0.464698 0.790860 0.675013
0.559289 0.789609 0.668025
0.669337 0.790158 0.657954
0.803738 0.797055 0.646387
0.917357 0.781765 0.644984
0.309239 0.908476 0.670222
0.326268 0.907347 0.668971
0.381231 0.905028 0.665675
0.465309 0.905913 0.663783
0.559106 0.906279 0.656062
0.678492 0.905394 0.655024
0.804196 0.906645 0.631006
0.925261 0.914366 0.649439
0.204105 0.203555 0.810422
0.239414 0.207126 0.810086
0.331243 0.218051 0.808927
0.443305 0.231540 0.806760
0.558465 0.243046 0.800809
0.673671 0.252781 0.794217
0.788357 0.261295 0.788327
0.906706 0.294377 0.789090
0.220584 0.249760 0.810117
0.251987 0.251743 0.809598
0.337102 0.257298 0.808042
0.444862 0.264897 0.804685
0.558831 0.272709 0.799863
0.674098 0.279973 0.794308
0.788785 0.286412 0.788846
0.907439 0.317815 0.790097
0.245396 0.345769 0.804929
0.271916 0.346166 0.804501
0.347723 0.347478 0.803006
0.448402 0.349310 0.799985
0.558862 0.351446 0.795956
0.672328 0.353643 0.791196
0.786099 0.356176 0.786069
0.904967 0.382818 0.788785
0.259373 0.450385 0.799130
0.283757 0.450141 0.797787
0.355596 0.451209 0.796201
0.451118 0.450935 0.793576
0.558190 0.450935 0.790463
0.669673 0.451087 0.786526
0.782254 0.451850 0.782223
0.902068 0.474647 0.787900
0.265415 0.558526 0.792935
0.289158 0.558709 0.792599
0.359442 0.559167 0.791257
0.456733 0.560845 0.788907
0.561120 0.560998 0.786526
0.669612 0.559991 0.783597
0.780514 0.559442 0.780545
0.899962 0.578882 0.788540
0.273716 0.670008 0.787137
0.295872 0.669856 0.786740
0.363104 0.669368 0.785489
0.456977 0.669123 0.783597
0.561486 0.669337 0.781979
0.671015 0.670893 0.780667
0.778622 0.670130 0.778653
0.898741 0.679835 0.787503
0.284764 0.781430 0.781460
0.305455 0.781003 0.781094
0.369421 0.780117 0.780148
0.459052 0.778836 0.778866
0.562127 0.778073 0.778103
0.671565 0.778653 0.778683
0.784909 0.784878 0.784909
0.904234 0.771695 0.771725
0.328679 0.898680 0.785580
0.347631 0.898466 0.785641
0.403662 0.897246 0.785275
0.486030 0.896452 0.785672
0.582177 0.896391 0.786130
0.678859 0.898283 0.782834
0.786709 0.900999 0.776181
0.915221 0.909148 0.776089
0.245304 0.245182 0.925963
0.272587 0.247166 0.925444
0.350134 0.253727 0.924163
0.452064 0.263096 0.921569
0.563256 0.273503 0.918273
0.677577 0.284184 0.914611
0.792447 0.295140 0.910704
0.907256 0.308812 0.907286
0.255680 0.279545 0.925292
0.281071 0.280766 0.924804
0.355138 0.285039 0.923491
0.454719 0.291661 0.921141
0.564569 0.299535 0.917998
0.678218 0.308232 0.914458
0.792874 0.317906 0.910826
0.907530 0.330602 0.907561
0.276371 0.363989 0.922515
0.298833 0.364538 0.922179
0.366583 0.366400 0.921202
0.460639 0.368780 0.918761
0.567498 0.372869 0.916136
0.679469 0.378271 0.913146
0.793057 0.385412 0.909819
0.906737 0.396155 0.906798
0.299382 0.467720 0.918578
0.319219 0.467811 0.918212
0.381140 0.468605 0.917388
0.470130 0.469947 0.915587
0.572930 0.472236 0.913207
0.682185 0.476204 0.910552
0.793423 0.480751 0.907713
0.905211 0.485634 0.905241
0.309636 0.572656 0.914580
0.330480 0.573388 0.914244
0.396063 0.577020 0.913512
0.485939 0.581598 0.912352
0.582208 0.582086 0.910582
0.686610 0.583276 0.908507
0.794522 0.585046 0.906096
0.903838 0.587884 0.903838
0.323125 0.682429 0.910521
0.343389 0.683101 0.910430
0.405188 0.685115 0.910033
0.490822 0.687282 0.909239
0.590570 0.690761 0.907988
0.691951 0.691890 0.906035
0.795315 0.691218 0.903655
0.901976 0.691768 0.901976
0.342473 0.793820 0.906950
0.360662 0.794064 0.906920
0.416327 0.794644 0.906706
0.497719 0.795254 0.906035
0.594079 0.796384 0.905211
0.695033 0.797360 0.904326
0.797574 0.797513 0.903685
0.903685 0.798367 0.903716
0.367163 0.905241 0.905303
0.383154 0.905303 0.905364
0.433509 0.905180 0.905211
0.510246 0.904570 0.904631
0.601617 0.904051 0.904112
0.699092 0.903868 0.903929
0.800320 0.904692 0.904723
0.909758 0.909728 0.909758
