其他预设/【232】美食博客调色预设124款/1.3D LUT预设（视频调色-PR-AE-PS-FCPX-达芬奇用）/0 Dining Is An Art.cube
# Created by Adobe Lightroom plugin Export LUT (1.17.0)
# www.johnrellis.com/lightroom/exportlut.htm
# Preset: 0 Dining Is An Art
# Color profile: /Library/Application Support/Adobe/Color/Profiles/Recommended/AdobeRGB1998.icc
LUT_3D_SIZE 8
DOMAIN_MIN 0.000000 0.000000 0.000000
DOMAIN_MAX 0.903226 0.903226 0.903226
0.181338 0.173953 0.184756
0.247135 0.173281 0.184848
0.398077 0.174105 0.188235
0.533501 0.184939 0.199924
0.660334 0.205844 0.220096
0.789029 0.238041 0.249149
0.886625 0.275029 0.281743
0.964202 0.311528 0.313634
0.182986 0.234409 0.186252
0.241917 0.233036 0.187137
0.383185 0.236118 0.189212
0.517449 0.238956 0.202121
0.644892 0.250523 0.221530
0.774990 0.272618 0.248173
0.875608 0.298863 0.278538
0.957671 0.328954 0.310582
0.191135 0.367864 0.193851
0.246403 0.364263 0.194705
0.364477 0.354620 0.197360
0.497475 0.353216 0.210452
0.632013 0.358831 0.230167
0.767330 0.371984 0.255589
0.876249 0.385565 0.286961
0.958740 0.399634 0.317754
0.217960 0.488350 0.218326
0.258518 0.484932 0.218631
0.359350 0.477424 0.220493
0.489662 0.482124 0.227726
0.629694 0.490211 0.245151
0.758663 0.493050 0.266361
0.863188 0.490394 0.291630
0.948119 0.489265 0.319432
0.251835 0.614984 0.248661
0.283696 0.612970 0.248722
0.371557 0.608820 0.249943
0.485023 0.605798 0.253086
0.601129 0.597070 0.256199
0.725948 0.597681 0.268742
0.839536 0.594446 0.291264
0.933776 0.588220 0.319677
0.282658 0.732204 0.274327
0.310826 0.736355 0.276371
0.385687 0.731960 0.276524
0.486915 0.725856 0.277134
0.596612 0.716945 0.278050
0.709865 0.709255 0.280064
0.824521 0.704311 0.295232
0.922942 0.693935 0.323400
0.317296 0.834043 0.302770
0.338140 0.834195 0.303380
0.398871 0.829801 0.302556
0.487129 0.824552 0.302342
0.587152 0.816861 0.301915
0.693812 0.810391 0.303441
0.803006 0.804257 0.306188
0.907469 0.795102 0.322271
0.357794 0.920836 0.336095
0.372992 0.920073 0.335882
0.422675 0.918303 0.336095
0.499855 0.916747 0.338109
0.583948 0.906249 0.331670
0.684474 0.903441 0.335180
0.790097 0.901427 0.341314
0.895750 0.897368 0.346166
0.182040 0.174472 0.245426
0.239597 0.174899 0.241642
0.366949 0.187289 0.248753
0.497658 0.213199 0.264805
0.627924 0.233433 0.278599
0.760952 0.258396 0.296300
0.866575 0.287785 0.316106
0.951263 0.319890 0.338659
0.184726 0.228458 0.239078
0.239872 0.230777 0.241642
0.357946 0.238926 0.250401
0.491127 0.252323 0.263767
0.620356 0.267613 0.277562
0.753231 0.287602 0.294743
0.858183 0.308995 0.312810
0.944671 0.334997 0.334722
0.199344 0.351873 0.246983
0.250950 0.345647 0.251438
0.351446 0.341558 0.251255
0.478065 0.348028 0.263554
0.610010 0.359014 0.279118
0.743954 0.372595 0.295903
0.854459 0.384649 0.315099
0.944244 0.399878 0.338628
0.229740 0.471717 0.263188
0.268925 0.467628 0.267002
0.357977 0.464576 0.267643
0.470710 0.462623 0.270207
0.597681 0.469123 0.282322
0.728298 0.478004 0.296635
0.841215 0.481575 0.314580
0.934295 0.485267 0.337499
0.266209 0.601434 0.288212
0.293584 0.598749 0.287663
0.371954 0.593317 0.287236
0.474464 0.586694 0.287266
0.582208 0.577356 0.287175
0.708217 0.584314 0.296605
0.826902 0.587366 0.314580
0.924559 0.584375 0.338293
0.289891 0.719295 0.303166
0.313664 0.718441 0.303166
0.383856 0.714992 0.302892
0.481422 0.711299 0.303288
0.589349 0.705745 0.303868
0.702724 0.701686 0.305516
0.817502 0.699001 0.317876
0.916258 0.689845 0.341100
0.319280 0.822934 0.322515
0.337591 0.820920 0.321630
0.396918 0.817899 0.321050
0.484321 0.815091 0.321843
0.583917 0.809781 0.321965
0.688655 0.803311 0.322087
0.795163 0.796201 0.322515
0.899016 0.787716 0.335363
0.359594 0.914946 0.351629
0.375128 0.914855 0.352026
0.424201 0.913542 0.352422
0.500359 0.912474 0.354589
0.589990 0.908965 0.355383
0.686885 0.903868 0.355718
0.788876 0.899229 0.357641
0.892454 0.893919 0.359716
0.190524 0.177279 0.379889
0.249821 0.178927 0.373419
0.363073 0.190646 0.355962
0.488045 0.223972 0.358953
0.609949 0.260563 0.370672
0.743771 0.297978 0.390845
0.855619 0.328313 0.403937
0.945006 0.360937 0.418067
0.205753 0.240726 0.359960
0.253971 0.242252 0.355200
0.354192 0.242985 0.347784
0.477119 0.266758 0.356725
0.601343 0.294041 0.370977
0.736172 0.319707 0.387701
0.849393 0.344213 0.400031
0.941100 0.373510 0.414954
0.212192 0.343420 0.346929
0.257816 0.341009 0.344884
0.365301 0.354101 0.356634
0.466621 0.355901 0.358099
0.596368 0.374182 0.373541
0.729519 0.389349 0.385382
0.843076 0.405005 0.397498
0.936156 0.423957 0.412543
0.240085 0.463172 0.349187
0.279057 0.459358 0.350805
0.369421 0.457649 0.358953
0.466255 0.457099 0.359380
0.587488 0.469612 0.370336
0.718135 0.483345 0.381323
0.834257 0.492805 0.394293
0.929503 0.501427 0.410224
0.273930 0.590784 0.362097
0.305821 0.586969 0.364660
0.384222 0.579370 0.370031
0.475776 0.576440 0.369238
0.576562 0.570794 0.367193
0.699794 0.581353 0.374060
0.819089 0.588952 0.387457
0.919188 0.591455 0.405493
0.299901 0.710384 0.371435
0.326421 0.707668 0.373693
0.394873 0.701076 0.376623
0.482521 0.696742 0.375128
0.582910 0.691829 0.373449
0.691005 0.688960 0.372992
0.807492 0.692500 0.383276
0.911681 0.691829 0.404395
0.333593 0.818601 0.385412
0.354681 0.816037 0.387274
0.410925 0.811032 0.387732
0.490547 0.806851 0.386145
0.584527 0.801633 0.384375
0.686732 0.797177 0.383948
0.793668 0.793942 0.385016
0.899657 0.790280 0.398566
0.377722 0.910674 0.407935
0.394354 0.908995 0.409796
0.438209 0.907134 0.408942
0.511681 0.907744 0.412451
0.596246 0.904356 0.411902
0.690455 0.900664 0.412024
0.790433 0.897368 0.413794
0.893065 0.893797 0.415991
0.215702 0.191318 0.493660
0.264378 0.196384 0.489418
0.370733 0.210605 0.474403
0.478645 0.226902 0.457465
0.601770 0.260990 0.461921
0.730739 0.294591 0.473396
0.838743 0.334966 0.481849
0.929839 0.389044 0.498207
0.240269 0.257816 0.478065
0.278202 0.259281 0.475074
0.370611 0.262852 0.465126
0.473182 0.268162 0.452430
0.597284 0.294652 0.460700
0.724208 0.320928 0.471565
0.833646 0.355352 0.480812
0.926848 0.405921 0.499031
0.254643 0.354406 0.459449
0.290715 0.355383 0.455482
0.372168 0.357702 0.448890
0.465095 0.357305 0.444587
0.587549 0.377447 0.458747
0.717464 0.397986 0.473365
0.832944 0.430488 0.490455
0.926757 0.460670 0.504967
0.260624 0.456580 0.446326
0.292699 0.454780 0.444678
0.374060 0.454078 0.444007
0.483711 0.472572 0.459419
0.580133 0.471290 0.457740
0.702083 0.483833 0.467323
0.819669 0.501579 0.481178
0.919524 0.522789 0.498451
0.286381 0.579858 0.451514
0.313970 0.575769 0.450446
0.387671 0.569146 0.450416
0.482368 0.571435 0.456672
0.575311 0.567834 0.453986
0.693660 0.580011 0.461433
0.811093 0.592584 0.475319
0.911894 0.603479 0.492561
0.309850 0.704494 0.457679
0.336126 0.705928 0.460365
0.403265 0.697200 0.460426
0.491402 0.691066 0.462348
0.585473 0.687282 0.459785
0.686915 0.683345 0.457130
0.800900 0.689754 0.467994
0.905150 0.695705 0.488594
0.339178 0.812406 0.461799
0.360296 0.811307 0.463233
0.422614 0.807065 0.467597
0.505791 0.802274 0.472511
0.593103 0.798184 0.470039
0.689174 0.793545 0.467597
0.790463 0.789364 0.465980
0.895048 0.789029 0.479988
0.386755 0.909331 0.476814
0.404761 0.908629 0.479286
0.459754 0.905150 0.486915
0.532616 0.901732 0.494087
0.609339 0.898772 0.492439
0.697353 0.895872 0.491646
0.792996 0.893797 0.493202
0.892668 0.892119 0.496101
0.250492 0.214817 0.608606
0.289158 0.219669 0.605005
0.383978 0.232883 0.591485
0.490272 0.248539 0.574151
0.597803 0.264469 0.561975
0.720485 0.293309 0.566735
0.829892 0.331609 0.568109
0.923796 0.384558 0.573663
0.271550 0.273686 0.594690
0.303960 0.275944 0.593133
0.387823 0.280491 0.582788
0.487221 0.286229 0.567163
0.592859 0.296178 0.557458
0.716640 0.319646 0.564630
0.827390 0.353552 0.567651
0.921874 0.402869 0.574487
0.296452 0.371832 0.571344
0.324956 0.373816 0.567590
0.392523 0.372839 0.560113
0.484230 0.373999 0.554925
0.579644 0.373480 0.545098
0.701686 0.388556 0.555505
0.816983 0.415198 0.564263
0.914092 0.456184 0.575372
0.299748 0.469398 0.558343
0.325841 0.468696 0.555474
0.396735 0.468421 0.549493
0.484749 0.470344 0.545800
0.574823 0.467170 0.539849
0.692714 0.479438 0.551141
0.807675 0.503380 0.564416
0.906981 0.541894 0.584863
0.303502 0.567559 0.542229
0.327092 0.565820 0.540673
0.392615 0.560998 0.536217
0.479713 0.561517 0.536309
0.589044 0.579309 0.551293
0.686732 0.575830 0.547417
0.797574 0.592340 0.561028
0.899809 0.615991 0.581384
0.315221 0.681910 0.541222
0.336400 0.680018 0.540429
0.397040 0.673426 0.537316
0.480171 0.669612 0.536248
0.576928 0.672053 0.539025
0.678462 0.672694 0.539513
0.791592 0.685115 0.555566
0.895598 0.700313 0.578058
0.343084 0.800778 0.546929
0.361486 0.798856 0.546532
0.418433 0.794125 0.546380
0.500969 0.789548 0.548516
0.595789 0.786191 0.554284
0.686366 0.783139 0.552117
0.782467 0.779629 0.549584
0.885649 0.784176 0.565362
0.384924 0.899413 0.551751
0.401007 0.898314 0.552514
0.452735 0.895048 0.555840
0.538598 0.894224 0.569512
0.624018 0.890074 0.578882
0.704005 0.887785 0.577234
0.793118 0.886381 0.577539
0.887602 0.885618 0.579156
0.287114 0.246677 0.717800
0.317235 0.250706 0.715297
0.398474 0.260258 0.705684
0.502770 0.274052 0.696437
0.610681 0.286656 0.684718
0.713100 0.295720 0.668788
0.821439 0.329961 0.664118
0.917845 0.382452 0.661707
0.302281 0.293095 0.705623
0.328099 0.294469 0.703395
0.401923 0.298589 0.696162
0.501488 0.306584 0.689113
0.605859 0.313725 0.677546
0.707332 0.319249 0.663203
0.817685 0.349554 0.661433
0.915312 0.398596 0.660731
0.331487 0.390417 0.690181
0.352117 0.390448 0.688960
0.415320 0.390784 0.685145
0.503868 0.391119 0.678218
0.600671 0.390021 0.667262
0.699062 0.388495 0.654963
0.811368 0.412726 0.657893
0.910643 0.455543 0.661646
0.337774 0.487037 0.679866
0.359106 0.486702 0.676814
0.422675 0.487739 0.670161
0.506950 0.489448 0.666529
0.599054 0.486397 0.659876
0.694789 0.481086 0.650355
0.805936 0.503471 0.656794
0.905180 0.541863 0.666957
0.334020 0.582086 0.660578
0.354345 0.581384 0.658930
0.414649 0.579248 0.653956
0.497688 0.578119 0.649134
0.590539 0.578271 0.646143
0.684291 0.573022 0.639765
0.792935 0.593194 0.649348
0.894194 0.625177 0.666987
0.330510 0.677607 0.641413
0.350134 0.677668 0.641413
0.406744 0.674098 0.637964
0.485878 0.670436 0.634272
0.579980 0.670497 0.633875
0.695644 0.688228 0.649836
0.788602 0.690913 0.651850
0.888792 0.711086 0.670680
0.350439 0.792416 0.642481
0.368719 0.792172 0.642756
0.422736 0.788602 0.640986
0.501457 0.784329 0.639460
0.595941 0.780484 0.640833
0.694514 0.780026 0.648005
0.781735 0.777188 0.645228
0.882658 0.788785 0.662806
0.390356 0.893034 0.641688
0.405310 0.891905 0.641657
0.454292 0.888945 0.642359
0.532158 0.886107 0.647211
0.622156 0.882414 0.655024
0.712398 0.879973 0.664881
0.795163 0.880156 0.665888
0.883848 0.880644 0.667323
0.318914 0.281010 0.806577
0.341588 0.283574 0.805081
0.409766 0.292180 0.801480
0.502281 0.303014 0.795285
0.602838 0.313085 0.785550
0.705196 0.321935 0.774502
0.807156 0.328923 0.763302
0.907317 0.374182 0.756008
0.333959 0.320195 0.804929
0.354437 0.321416 0.803494
0.417426 0.326207 0.799924
0.505821 0.332921 0.793545
0.604639 0.340154 0.784909
0.706569 0.346899 0.775082
0.808408 0.352392 0.764614
0.908843 0.397101 0.758450
0.360906 0.405890 0.792996
0.378088 0.406226 0.792172
0.432593 0.407416 0.789425
0.512383 0.408911 0.784085
0.605402 0.410803 0.777096
0.703426 0.412055 0.768429
0.802487 0.411780 0.758328
0.903349 0.449409 0.755215
0.377264 0.497566 0.780148
0.395422 0.499092 0.778775
0.449561 0.503197 0.775662
0.520012 0.501671 0.771084
0.605585 0.500145 0.765408
0.698085 0.497261 0.757961
0.793881 0.492927 0.749325
0.896513 0.528496 0.752407
0.375494 0.589532 0.770352
0.393500 0.590478 0.769711
0.448951 0.593164 0.766842
0.528405 0.597894 0.761959
0.612360 0.599786 0.757107
0.698390 0.596185 0.751431
0.789517 0.591699 0.744717
0.890990 0.621576 0.753079
0.372198 0.686397 0.758602
0.388800 0.686152 0.757717
0.441199 0.685573 0.754971
0.517784 0.685054 0.750729
0.608484 0.687282 0.746731
0.698817 0.690517 0.743404
0.783474 0.686519 0.738308
0.884611 0.710719 0.753384
0.366247 0.783566 0.744930
0.381567 0.782620 0.743923
0.431495 0.780545 0.741695
0.505852 0.777462 0.738399
0.597711 0.775387 0.735988
0.693843 0.776028 0.736324
0.792782 0.787625 0.748013
0.882200 0.795010 0.755550
0.396124 0.887297 0.741543
0.411261 0.886809 0.741543
0.456489 0.883482 0.739620
0.531090 0.880308 0.739834
0.620294 0.877592 0.742550
0.711421 0.875944 0.747555
0.798428 0.877287 0.754177
0.882536 0.878843 0.755978
0.362005 0.333837 0.906859
0.379156 0.335454 0.905852
0.434119 0.342168 0.903685
0.513817 0.351171 0.899046
0.606531 0.362036 0.893156
0.704707 0.373510 0.886381
0.804501 0.384588 0.878782
0.905303 0.397009 0.871946
0.374304 0.363775 0.905699
0.390204 0.364843 0.904753
0.441962 0.369482 0.902556
0.519066 0.376623 0.898405
0.609613 0.385351 0.892729
0.706447 0.395178 0.886198
0.805600 0.405341 0.879179
0.905821 0.416999 0.872648
0.404852 0.441505 0.900145
0.418524 0.441962 0.899474
0.464179 0.444739 0.897978
0.532799 0.446906 0.893339
0.617609 0.451911 0.888609
0.710475 0.458381 0.883207
0.806424 0.464973 0.876860
0.904021 0.473243 0.870787
0.447089 0.540459 0.891691
0.457954 0.540307 0.891020
0.496040 0.541466 0.889616
0.555993 0.542351 0.886381
0.631708 0.543969 0.882139
0.717128 0.546746 0.877317
0.807187 0.549493 0.871855
0.900175 0.552453 0.866758
0.449287 0.619684 0.884855
0.464332 0.621668 0.884001
0.515557 0.630915 0.882261
0.587457 0.644160 0.879454
0.652216 0.643488 0.876371
0.727718 0.642847 0.872526
0.809812 0.641688 0.867857
0.896513 0.641047 0.863035
0.448371 0.706081 0.877409
0.464088 0.707759 0.877256
0.513909 0.713191 0.876280
0.584161 0.720607 0.874235
0.664027 0.729702 0.871183
0.736873 0.731350 0.866758
0.810147 0.726864 0.861509
0.891386 0.724361 0.857633
0.447913 0.797574 0.869688
0.462806 0.798276 0.869596
0.509911 0.800259 0.868986
0.577996 0.802640 0.867216
0.657588 0.805997 0.864988
0.737301 0.809110 0.862730
0.814237 0.810666 0.860990
0.891966 0.809018 0.859068
0.453101 0.893584 0.864561
0.467323 0.893645 0.864622
0.510826 0.893095 0.863981
0.575402 0.891264 0.861906
0.652583 0.889342 0.859678
0.731746 0.887938 0.858061
0.811643 0.888334 0.858610
0.900114 0.897581 0.869718
