其他预设/【232】美食博客调色预设124款/1.3D LUT预设（视频调色-PR-AE-PS-FCPX-达芬奇用）/0 Dining Is An Art.cube
# Created by Adobe Lightroom plugin Export LUT (1.17.0)
# www.johnrellis.com/lightroom/exportlut.htm
# Preset: 0 Dining Is An Art
# Color profile: /Library/Application Support/Adobe/Color/Profiles/Recommended/AdobeRGB1998.icc
LUT_3D_SIZE 32
0.181338 0.173953 0.184756
0.181338 0.173953 0.184756
0.189059 0.173678 0.184573
0.214237 0.172793 0.183932
0.247135 0.173281 0.184848
0.284001 0.174502 0.186770
0.323278 0.174319 0.187228
0.361395 0.173831 0.187503
0.398077 0.174105 0.188235
0.433234 0.175692 0.190158
0.467475 0.177920 0.193088
0.500847 0.181125 0.196262
0.533501 0.184939 0.199924
0.565637 0.189456 0.204532
0.597253 0.194736 0.209506
0.628779 0.200137 0.214542
0.660334 0.205844 0.220096
0.691371 0.212222 0.225742
0.720302 0.218936 0.231876
0.756100 0.228275 0.240330
0.789029 0.238041 0.249149
0.817960 0.247776 0.257725
0.843168 0.257176 0.266148
0.865751 0.266484 0.274144
0.886625 0.275029 0.281743
0.906401 0.283513 0.289311
0.925719 0.292393 0.297002
0.944915 0.301640 0.305028
0.964202 0.311528 0.313634
0.983764 0.322240 0.322942
1.000000 0.334020 0.333196
1.000000 0.347234 0.344640
0.181338 0.173953 0.184756
0.181338 0.173953 0.184756
0.189334 0.177005 0.184329
0.213931 0.179049 0.183444
0.246128 0.180972 0.185000
0.282414 0.182589 0.186893
0.321263 0.182498 0.187381
0.359045 0.182132 0.187564
0.395453 0.181949 0.188235
0.430640 0.183322 0.190097
0.464668 0.185275 0.193057
0.497902 0.187900 0.196292
0.530327 0.191318 0.200107
0.562280 0.195529 0.204654
0.593835 0.200229 0.209415
0.625086 0.205447 0.214694
0.656489 0.210758 0.220005
0.687678 0.216617 0.225498
0.716823 0.223026 0.231632
0.752499 0.231876 0.239750
0.784939 0.241062 0.248173
0.813840 0.250004 0.256504
0.839170 0.259007 0.264683
0.861997 0.267704 0.272557
0.883085 0.276097 0.280125
0.903105 0.284459 0.287663
0.922789 0.292943 0.295293
0.942199 0.302129 0.303471
0.961730 0.311803 0.312016
0.981476 0.322362 0.321294
1.000000 0.333867 0.331395
1.000000 0.346777 0.342718
0.180667 0.182284 0.184146
0.184878 0.183108 0.183963
0.191379 0.183688 0.183749
0.213565 0.187411 0.182773
0.244724 0.190433 0.185428
0.280613 0.192355 0.187198
0.318791 0.192691 0.187594
0.356390 0.192264 0.187686
0.392798 0.192111 0.188388
0.427863 0.192844 0.190311
0.461952 0.194644 0.193179
0.495247 0.196841 0.196353
0.527672 0.199710 0.200320
0.559594 0.203525 0.204898
0.591028 0.207828 0.209751
0.622431 0.212406 0.214786
0.653742 0.217563 0.220096
0.684993 0.222965 0.225559
0.714443 0.228763 0.231601
0.750301 0.237308 0.239719
0.782498 0.245975 0.247868
0.811398 0.254429 0.255985
0.836851 0.263005 0.264073
0.859831 0.271092 0.271855
0.881010 0.279210 0.279454
0.901183 0.287114 0.286839
0.920989 0.295445 0.294530
0.940581 0.304295 0.302617
0.960327 0.313695 0.311131
0.980163 0.324071 0.320470
1.000000 0.335363 0.330510
1.000000 0.348058 0.341772
0.178714 0.205936 0.182101
0.186007 0.206119 0.182254
0.195651 0.206088 0.182589
0.214450 0.206088 0.183444
0.243168 0.208682 0.185946
0.278141 0.211124 0.187350
0.315618 0.212009 0.187839
0.352941 0.211856 0.188083
0.389197 0.211246 0.188632
0.424201 0.211398 0.190616
0.458198 0.212558 0.193545
0.491341 0.214206 0.196994
0.523583 0.216526 0.200992
0.555413 0.219638 0.205631
0.587060 0.222812 0.210239
0.618372 0.226810 0.215396
0.649653 0.231083 0.220706
0.680964 0.235904 0.225956
0.712093 0.241459 0.232120
0.746670 0.248875 0.239811
0.778164 0.256382 0.247623
0.806882 0.263951 0.255528
0.832700 0.271641 0.263340
0.856291 0.279179 0.271183
0.878355 0.286687 0.278752
0.899321 0.294469 0.286412
0.919707 0.302434 0.294285
0.939696 0.310979 0.302525
0.959564 0.320043 0.311162
0.979431 0.329808 0.320287
0.999451 0.340459 0.330175
1.000000 0.352392 0.341100
0.182986 0.234409 0.186252
0.190036 0.234287 0.186313
0.199252 0.234104 0.186404
0.217258 0.233616 0.186740
0.241917 0.233036 0.187137
0.273991 0.234684 0.187655
0.310430 0.236393 0.188388
0.347173 0.236667 0.188510
0.383185 0.236118 0.189212
0.418006 0.236057 0.191287
0.452003 0.236423 0.194186
0.485084 0.237430 0.197818
0.517449 0.238956 0.202121
0.549493 0.241184 0.206485
0.581323 0.243748 0.211215
0.613092 0.246952 0.216190
0.644892 0.250523 0.221530
0.676661 0.254582 0.226810
0.710323 0.259800 0.233310
0.744106 0.266300 0.240635
0.774990 0.272618 0.248173
0.803525 0.279179 0.255711
0.829404 0.285618 0.263310
0.853239 0.292210 0.270939
0.875608 0.298863 0.278538
0.896880 0.305699 0.286168
0.917479 0.313024 0.294072
0.937713 0.320623 0.302098
0.957671 0.328954 0.310582
0.977661 0.338018 0.319646
0.997803 0.347936 0.329503
1.000000 0.359289 0.340398
0.184878 0.266728 0.188083
0.191989 0.266606 0.188022
0.201175 0.266300 0.188022
0.219089 0.265537 0.188174
0.243870 0.264256 0.188388
0.272404 0.262943 0.188479
0.305791 0.263615 0.188998
0.341833 0.264408 0.189364
0.377386 0.264012 0.190341
0.412177 0.263706 0.192355
0.446143 0.263859 0.195621
0.479286 0.264225 0.199313
0.511681 0.265171 0.203647
0.543969 0.266453 0.208042
0.576043 0.268315 0.212528
0.607996 0.270817 0.217685
0.640070 0.273716 0.222843
0.672206 0.277073 0.228092
0.708614 0.282628 0.234928
0.741970 0.287968 0.242069
0.772854 0.293431 0.249393
0.801663 0.298924 0.256962
0.849851 0.315587 0.273808
0.872374 0.321355 0.281895
0.893217 0.327123 0.289586
0.912963 0.332738 0.297185
0.932006 0.338872 0.304753
0.950683 0.345434 0.312718
0.969360 0.352697 0.320958
0.988220 0.360693 0.329900
1.000000 0.369757 0.339452
1.000000 0.380011 0.349981
0.185946 0.304967 0.188815
0.193332 0.304540 0.188907
0.202853 0.304021 0.188937
0.221500 0.302983 0.189090
0.246983 0.301579 0.189334
0.276127 0.299535 0.189761
0.307164 0.297307 0.190066
0.340887 0.296544 0.190524
0.376379 0.296300 0.191928
0.411566 0.296025 0.194461
0.445899 0.295811 0.197940
0.479438 0.295872 0.201785
0.512078 0.296025 0.206210
0.544427 0.296605 0.210605
0.576349 0.297642 0.215305
0.607965 0.299290 0.220188
0.639887 0.301366 0.225284
0.676112 0.305455 0.231205
0.712551 0.310582 0.238132
0.746395 0.315557 0.245548
0.778714 0.320867 0.253361
0.809262 0.326238 0.261845
0.837278 0.332036 0.270420
0.862913 0.337652 0.279118
0.886290 0.343328 0.287602
0.907622 0.348608 0.295720
0.927611 0.354070 0.303624
0.946838 0.359716 0.311589
0.965942 0.365942 0.319677
0.984924 0.373083 0.328496
1.000000 0.381079 0.337804
1.000000 0.390387 0.348211
0.187716 0.337011 0.190494
0.194766 0.336645 0.190494
0.203586 0.336126 0.190677
0.221622 0.334997 0.190768
0.246250 0.333349 0.191104
0.274510 0.331151 0.191592
0.304784 0.328649 0.192264
0.336065 0.326116 0.193027
0.368902 0.324559 0.194247
0.403784 0.324620 0.196536
0.438087 0.324559 0.200229
0.471687 0.324407 0.203983
0.504417 0.324407 0.208225
0.536797 0.324681 0.212558
0.568780 0.325292 0.217258
0.600549 0.326360 0.221988
0.634516 0.328801 0.227268
0.672389 0.333349 0.233341
0.707515 0.337316 0.239750
0.740688 0.341283 0.246860
0.772641 0.345495 0.254307
0.803189 0.349828 0.262211
0.831357 0.354376 0.270420
0.857237 0.358862 0.278782
0.880949 0.363104 0.286900
0.902647 0.367437 0.294926
0.923033 0.371679 0.302586
0.942718 0.376257 0.310399
0.962158 0.381598 0.318517
0.981506 0.387671 0.327092
1.000000 0.394812 0.336492
1.000000 0.403143 0.346715
0.191135 0.367864 0.193851
0.197696 0.367468 0.193881
0.206119 0.366949 0.194064
0.223148 0.365789 0.194308
0.246403 0.364263 0.194705
0.273411 0.362158 0.195132
0.302678 0.359747 0.195743
0.333288 0.357244 0.196384
0.364477 0.354620 0.197360
0.396796 0.353124 0.198947
0.430976 0.353429 0.202487
0.464576 0.353277 0.206332
0.497475 0.353216 0.210452
0.529870 0.353277 0.214878
0.561791 0.353704 0.219425
0.595209 0.355230 0.224399
0.632013 0.358831 0.230167
0.668360 0.362524 0.235752
0.702693 0.365545 0.241917
0.735531 0.368658 0.248508
0.767330 0.371984 0.255589
0.797940 0.375311 0.263035
0.826261 0.378820 0.270939
0.852323 0.382269 0.278935
0.876249 0.385565 0.286961
0.898314 0.388586 0.294713
0.919036 0.391882 0.302159
0.939025 0.395422 0.309789
0.958740 0.399634 0.317754
0.978302 0.404700 0.326238
0.998016 0.410742 0.335454
1.000000 0.418067 0.345495
0.196689 0.397772 0.198764
0.202640 0.397375 0.198917
0.210269 0.396857 0.198917
0.226047 0.395850 0.199069
0.247715 0.394293 0.199496
0.273442 0.392370 0.199893
0.301457 0.390082 0.200534
0.331029 0.387610 0.201144
0.361395 0.385077 0.202060
0.392096 0.382666 0.202976
0.423621 0.380804 0.204929
0.457008 0.381079 0.208621
0.489845 0.381109 0.212924
0.522393 0.381262 0.217227
0.557122 0.383337 0.222171
0.593194 0.386481 0.227604
0.629236 0.389532 0.232975
0.665034 0.392584 0.238590
0.699062 0.395239 0.244480
0.731563 0.397528 0.250797
0.762844 0.399878 0.257328
0.792752 0.402197 0.264286
0.820584 0.404303 0.271366
0.846250 0.406317 0.278813
0.870176 0.408392 0.286320
0.892515 0.410498 0.293706
0.913848 0.412787 0.301183
0.934508 0.415595 0.308843
0.954833 0.419165 0.317021
0.975036 0.423468 0.325536
0.995300 0.428870 0.334874
1.000000 0.435431 0.345129
0.202823 0.426062 0.204501
0.208042 0.425788 0.204532
0.215183 0.425391 0.204623
0.229648 0.424506 0.204898
0.249943 0.423224 0.205112
0.274144 0.421576 0.205600
0.301183 0.419745 0.206149
0.329686 0.417548 0.206851
0.359197 0.415229 0.207584
0.389349 0.412879 0.208560
0.419562 0.410468 0.209567
0.450172 0.408423 0.211124
0.483803 0.409522 0.215427
0.518975 0.411841 0.220371
0.553979 0.414252 0.225254
0.588800 0.416571 0.230625
0.623865 0.418921 0.235630
0.658808 0.421485 0.240970
0.692653 0.423651 0.246494
0.725185 0.425513 0.252323
0.756497 0.427466 0.258579
0.786770 0.429145 0.265171
0.815000 0.430762 0.272160
0.841123 0.432105 0.279301
0.865354 0.433326 0.286687
0.887999 0.434363 0.293797
0.909514 0.435737 0.301030
0.930419 0.437598 0.308476
0.950988 0.440101 0.316320
0.971435 0.443458 0.324743
0.991943 0.447913 0.333959
1.000000 0.453620 0.344121
0.209537 0.454627 0.210727
0.214420 0.454414 0.210849
0.220951 0.454017 0.211063
0.234134 0.453223 0.211215
0.253208 0.452155 0.211460
0.276066 0.450782 0.211826
0.301793 0.449134 0.212284
0.329351 0.447242 0.212985
0.358038 0.445258 0.213718
0.387549 0.443122 0.214389
0.417365 0.440925 0.215488
0.449897 0.441444 0.217014
0.495216 0.453468 0.221958
0.531334 0.456123 0.227298
0.567193 0.458381 0.232700
0.602930 0.460609 0.237980
0.638514 0.462745 0.243015
0.673396 0.464607 0.248264
0.705959 0.465278 0.253758
0.737270 0.465827 0.259617
0.767330 0.466133 0.265721
0.795834 0.466346 0.272160
0.822263 0.466041 0.278721
0.846952 0.465766 0.285557
0.870115 0.465461 0.292363
0.891997 0.465309 0.299351
0.912932 0.465400 0.306188
0.933196 0.465980 0.313298
0.953216 0.467292 0.320836
0.973236 0.469490 0.328862
0.993317 0.472755 0.337835
1.000000 0.477363 0.347662
0.217960 0.488350 0.218326
0.222416 0.488075 0.218448
0.228458 0.487495 0.218509
0.240665 0.486458 0.218570
0.258518 0.484932 0.218631
0.280095 0.483070 0.218875
0.304601 0.481178 0.219242
0.331121 0.479164 0.219791
0.359350 0.477424 0.220493
0.390509 0.478614 0.222019
0.422919 0.479866 0.223728
0.456153 0.481117 0.225681
0.489662 0.482124 0.227726
0.522911 0.482521 0.229709
0.558953 0.485603 0.234928
0.594537 0.488106 0.240208
0.629694 0.490211 0.245151
0.664332 0.491951 0.249851
0.696986 0.492683 0.255161
0.728389 0.492927 0.260533
0.758663 0.493050 0.266361
0.787655 0.492836 0.272313
0.814450 0.492226 0.278630
0.839597 0.491310 0.285069
0.863188 0.490394 0.291630
0.885527 0.489479 0.298253
0.906889 0.488899 0.305028
0.927642 0.488777 0.312047
0.948119 0.489265 0.319432
0.968627 0.490822 0.327489
0.989197 0.493324 0.336278
1.000000 0.497230 0.346258
0.225223 0.515892 0.225223
0.229526 0.515618 0.225284
0.235019 0.515129 0.225223
0.246342 0.514183 0.225315
0.262791 0.512749 0.225315
0.283696 0.511894 0.225803
0.307652 0.511742 0.226444
0.334142 0.511559 0.227176
0.362463 0.511498 0.228214
0.392309 0.511681 0.229465
0.423346 0.512169 0.231052
0.455360 0.512779 0.232670
0.487648 0.513268 0.234379
0.519860 0.513176 0.236057
0.551385 0.512322 0.237675
0.585809 0.514305 0.242069
0.620294 0.516258 0.246921
0.654597 0.518151 0.251499
0.687648 0.519066 0.256260
0.719356 0.519493 0.261448
0.750088 0.519554 0.266972
0.779599 0.519371 0.272679
0.807034 0.518517 0.278782
0.832792 0.517357 0.284977
0.856870 0.516014 0.291386
0.879728 0.514580 0.297887
0.901579 0.513329 0.304540
0.922759 0.512657 0.311315
0.943694 0.512566 0.318700
0.964599 0.513420 0.326665
0.985565 0.515404 0.335576
1.000000 0.518608 0.345464
0.234501 0.549401 0.233280
0.238376 0.549371 0.233463
0.243503 0.549065 0.233402
0.254337 0.548486 0.233463
0.270207 0.547539 0.233738
0.289982 0.546471 0.233860
0.312749 0.545373 0.234379
0.337957 0.544427 0.234928
0.365057 0.543877 0.235721
0.393835 0.543603 0.236790
0.423835 0.543755 0.237949
0.454810 0.544030 0.239353
0.486244 0.544213 0.240787
0.517662 0.543969 0.242252
0.548608 0.542840 0.243687
0.578515 0.540734 0.244846
0.611597 0.541863 0.248692
0.645533 0.543816 0.252903
0.678706 0.545129 0.257511
0.710689 0.545708 0.262333
0.741634 0.545800 0.267460
0.771481 0.545586 0.272953
0.799435 0.544701 0.278599
0.825711 0.543236 0.284703
0.850431 0.541619 0.291081
0.873960 0.540002 0.297459
0.896635 0.538567 0.304234
0.918700 0.537774 0.311406
0.940520 0.537499 0.319066
0.962188 0.538170 0.327428
0.983917 0.539940 0.336767
1.000000 0.542931 0.347234
0.243473 0.583490 0.241367
0.247471 0.583520 0.241489
0.252110 0.583368 0.241489
0.262455 0.582788 0.241611
0.277531 0.581872 0.241794
0.296544 0.580896 0.241917
0.318395 0.579950 0.242283
0.342901 0.579095 0.242832
0.369329 0.578332 0.243503
0.397131 0.577691 0.244327
0.426154 0.577111 0.245212
0.455848 0.576471 0.246189
0.485725 0.575555 0.247318
0.515892 0.574273 0.248325
0.545678 0.572381 0.249241
0.575006 0.570062 0.250095
0.603723 0.567285 0.251041
0.636164 0.568292 0.254246
0.670008 0.570459 0.258701
0.702785 0.571832 0.263371
0.734432 0.572564 0.268315
0.765011 0.572686 0.273747
0.793729 0.571954 0.279423
0.820645 0.570550 0.285344
0.845914 0.568750 0.291691
0.869963 0.566888 0.298222
0.893126 0.565148 0.304936
0.915618 0.563958 0.312139
0.937713 0.563256 0.319951
0.959625 0.563287 0.328130
0.981445 0.564233 0.337316
1.000000 0.566430 0.347539
0.251835 0.614984 0.248661
0.255100 0.614893 0.248508
0.259739 0.614496 0.248722
0.269413 0.613855 0.248692
0.283696 0.612970 0.248722
0.301671 0.611902 0.248875
0.322667 0.610834 0.249149
0.346105 0.609766 0.249424
0.371557 0.608820 0.249943
0.398383 0.608026 0.250553
0.426612 0.607355 0.251408
0.455604 0.606653 0.252171
0.485023 0.605798 0.253086
0.514580 0.604486 0.254032
0.543938 0.602564 0.254765
0.572717 0.600061 0.255375
0.601129 0.597070 0.256199
0.629297 0.594171 0.256779
0.661097 0.594842 0.259525
0.693996 0.596612 0.263951
0.725948 0.597681 0.268742
0.756832 0.598016 0.273777
0.786160 0.597528 0.279149
0.813626 0.596277 0.285100
0.839536 0.594446 0.291264
0.864225 0.592493 0.297795
0.887999 0.590661 0.304631
0.911101 0.589197 0.311925
0.933776 0.588220 0.319677
0.956146 0.587976 0.328191
0.978515 0.588586 0.337377
1.000000 0.590417 0.347936
0.259678 0.646723 0.255344
0.263188 0.646937 0.255436
0.272404 0.661891 0.259586
0.281804 0.661189 0.259464
0.295720 0.660060 0.259586
0.313115 0.658564 0.259495
0.333745 0.656855 0.259586
0.356451 0.655146 0.259648
0.381476 0.653498 0.259922
0.407996 0.652003 0.260380
0.435615 0.650629 0.260807
0.464027 0.649042 0.261387
0.492775 0.647120 0.261997
0.521752 0.644892 0.262455
0.550500 0.642267 0.262913
0.579034 0.639185 0.263249
0.607263 0.635767 0.263706
0.635065 0.632166 0.264012
0.662776 0.628656 0.264225
0.692958 0.627741 0.266850
0.724300 0.628168 0.271336
0.754849 0.628138 0.276188
0.783963 0.627253 0.281407
0.811154 0.625422 0.286992
0.836606 0.622797 0.292882
0.860777 0.619989 0.298955
0.884154 0.617243 0.305241
0.907073 0.614984 0.312078
0.929839 0.613428 0.319524
0.952544 0.612726 0.327916
0.975250 0.612970 0.337255
0.998108 0.614282 0.347692
0.268803 0.680262 0.262943
0.272496 0.682063 0.263584
0.277348 0.683772 0.264164
0.286748 0.684932 0.264652
0.300298 0.685328 0.265080
0.317174 0.684657 0.265385
0.336706 0.683406 0.265263
0.358709 0.681849 0.265415
0.382727 0.680323 0.265599
0.408118 0.678828 0.265904
0.434821 0.677394 0.266239
0.462440 0.675807 0.266728
0.490425 0.673854 0.267155
0.518669 0.671626 0.267460
0.546868 0.669001 0.267704
0.574884 0.665949 0.267948
0.602777 0.662684 0.268132
0.630426 0.659236 0.268254
0.658076 0.655940 0.268620
0.685878 0.652918 0.268864
0.715511 0.651850 0.271275
0.746578 0.652491 0.275975
0.776425 0.652155 0.281071
0.804318 0.650690 0.286625
0.830442 0.648341 0.292515
0.855314 0.645624 0.298497
0.879301 0.642908 0.304906
0.902678 0.640528 0.311803
0.925902 0.638788 0.319432
0.948974 0.637781 0.327855
0.972076 0.637690 0.337163
0.995331 0.638666 0.347784
0.275761 0.706569 0.268772
0.279332 0.708125 0.269444
0.284001 0.709712 0.269871
0.292607 0.710719 0.270390
0.305547 0.711086 0.270726
0.321355 0.710536 0.270970
0.340185 0.709316 0.271031
0.361151 0.707942 0.271000
0.384100 0.706538 0.271061
0.408667 0.705104 0.271244
0.434577 0.703731 0.271702
0.461402 0.702266 0.272038
0.488655 0.700404 0.272221
0.516320 0.698268 0.272557
0.544060 0.695705 0.272770
0.571679 0.692805 0.272801
0.599207 0.689693 0.272831
0.626673 0.686427 0.272892
0.654200 0.683314 0.273045
0.681941 0.680476 0.273289
0.709712 0.677882 0.273655
0.739071 0.676905 0.275944
0.769467 0.677150 0.280858
0.797879 0.676051 0.286351
0.824552 0.673915 0.292180
0.849882 0.671138 0.298131
0.874205 0.668299 0.304448
0.897978 0.665766 0.311284
0.921538 0.663783 0.318883
0.944976 0.662531 0.327306
0.968414 0.662135 0.336645
0.992065 0.662776 0.347234
0.282658 0.732204 0.274327
0.285832 0.733669 0.274907
0.290288 0.735103 0.275517
0.298619 0.736049 0.276036
0.310826 0.736355 0.276371
0.325811 0.735836 0.276555
0.343664 0.734737 0.276463
0.363653 0.733394 0.276493
0.385687 0.731960 0.276524
0.409400 0.730556 0.276677
0.434333 0.729152 0.276799
0.460365 0.727626 0.277073
0.486915 0.725856 0.277134
0.514000 0.723842 0.277379
0.541375 0.721614 0.277623
0.568872 0.719295 0.277775
0.596612 0.716945 0.278050
0.624567 0.714717 0.278294
0.652766 0.712673 0.278660
0.681209 0.710842 0.279301
0.709865 0.709255 0.280064
0.738735 0.707790 0.280766
0.768093 0.706905 0.283116
0.797238 0.706233 0.289006
0.824521 0.704311 0.295232
0.850278 0.701747 0.301579
0.875029 0.698848 0.308385
0.899138 0.696132 0.315526
0.922942 0.693935 0.323400
0.946532 0.692378 0.332097
0.970092 0.691615 0.341863
0.993866 0.692042 0.352911
0.292485 0.763241 0.282414
0.295262 0.763821 0.282750
0.298894 0.764187 0.282902
0.306310 0.764248 0.283085
0.317693 0.763851 0.283207
0.331823 0.763058 0.283207
0.348760 0.762020 0.283207
0.368078 0.760891 0.283177
0.389410 0.759792 0.283238
0.412512 0.758724 0.283391
0.436896 0.757656 0.283757
0.462379 0.756313 0.284001
0.488441 0.754726 0.284184
0.514916 0.752804 0.284306
0.541711 0.750637 0.284428
0.568872 0.748318 0.284489
0.596094 0.745968 0.284611
0.623651 0.743618 0.284733
0.651301 0.741390 0.285008
0.679194 0.739223 0.285344
0.707118 0.737179 0.285832
0.735195 0.735195 0.286381
0.763241 0.733211 0.286961
0.791257 0.731350 0.288792
0.818723 0.729427 0.294774
0.844877 0.726955 0.301122
0.870115 0.724178 0.307866
0.894682 0.721553 0.315160
0.918883 0.719234 0.323125
0.942809 0.717494 0.331823
0.966705 0.716518 0.341680
0.990906 0.716701 0.352789
0.299565 0.786648 0.288273
0.302312 0.787167 0.288670
0.305821 0.787625 0.288853
0.313024 0.787655 0.289128
0.323522 0.787320 0.289158
0.336828 0.786526 0.289128
0.352819 0.785489 0.289006
0.371069 0.784298 0.288853
0.391516 0.783108 0.288914
0.413642 0.781979 0.289036
0.437171 0.780850 0.289250
0.461738 0.779599 0.289433
0.487037 0.778134 0.289586
0.512993 0.776394 0.289708
0.539269 0.774533 0.289799
0.565942 0.772549 0.289830
0.592920 0.770535 0.289982
0.620111 0.768490 0.290288
0.647608 0.766537 0.290654
0.675288 0.764736 0.291142
0.703212 0.763027 0.291691
0.731197 0.761379 0.292393
0.759304 0.759823 0.293156
0.787320 0.758236 0.293980
0.811643 0.752987 0.293370
0.838163 0.750668 0.299596
0.863890 0.748104 0.306401
0.888914 0.745510 0.313603
0.913512 0.743221 0.321508
0.937896 0.741451 0.330205
0.962371 0.740444 0.340124
0.987182 0.740688 0.351659
0.310155 0.813413 0.296910
0.312810 0.814023 0.297398
0.316106 0.814298 0.297551
0.322515 0.814115 0.297612
0.332158 0.813535 0.297490
0.344610 0.812528 0.297276
0.359533 0.811276 0.297002
0.376654 0.809781 0.296635
0.395941 0.808194 0.296361
0.416785 0.806638 0.296056
0.439033 0.804959 0.295933
0.462440 0.803403 0.295811
0.486793 0.801633 0.295781
0.511711 0.799619 0.295537
0.536950 0.797360 0.295384
0.562554 0.794919 0.295079
0.588617 0.792477 0.294896
0.614984 0.790219 0.294865
0.641871 0.788327 0.295079
0.669215 0.786740 0.295506
0.696834 0.785367 0.296269
0.724575 0.783993 0.297002
0.752255 0.782406 0.297765
0.779690 0.780606 0.298436
0.806851 0.778561 0.298833
0.833829 0.776333 0.299474
0.859586 0.773526 0.306126
0.884672 0.770718 0.313115
0.909422 0.768215 0.320867
0.933989 0.766232 0.329534
0.958770 0.765133 0.339574
0.984100 0.765316 0.351232
0.317296 0.834043 0.302770
0.319829 0.834592 0.303197
0.323003 0.834867 0.303502
0.329046 0.834714 0.303471
0.338140 0.834195 0.303380
0.349859 0.833341 0.303227
0.364080 0.832273 0.303014
0.380407 0.831083 0.302739
0.398871 0.829801 0.302556
0.419074 0.828550 0.302403
0.440558 0.827268 0.302342
0.463478 0.825956 0.302312
0.487129 0.824552 0.302342
0.511467 0.822904 0.302281
0.536278 0.821042 0.302251
0.561517 0.818997 0.302037
0.587152 0.816861 0.301915
0.613184 0.814939 0.301946
0.639643 0.813199 0.302220
0.666590 0.811704 0.302708
0.693812 0.810391 0.303441
0.721218 0.809049 0.304204
0.748592 0.807645 0.304875
0.775875 0.806058 0.305516
0.803006 0.804257 0.306188
0.829953 0.802304 0.306706
0.856870 0.800351 0.307195
0.882414 0.797604 0.314336
0.907469 0.795102 0.322271
0.932403 0.793118 0.331243
0.957580 0.792050 0.341711
0.983276 0.792172 0.353826
0.326085 0.855680 0.309972
0.328435 0.856016 0.310307
0.331151 0.856077 0.310338
0.336767 0.855741 0.310399
0.345037 0.855070 0.310094
0.355901 0.854185 0.309758
0.369207 0.853117 0.309331
0.384680 0.851896 0.309026
0.402319 0.850706 0.308782
0.421485 0.849577 0.308629
0.442329 0.848417 0.308598
0.464393 0.847349 0.308721
0.487404 0.846189 0.308721
0.511162 0.844755 0.308812
0.535271 0.843107 0.308659
0.559930 0.841245 0.308507
0.585016 0.839292 0.308354
0.610468 0.837430 0.308324
0.636500 0.835813 0.308568
0.662898 0.834409 0.309026
0.689693 0.833188 0.309636
0.716701 0.831998 0.310460
0.743740 0.830686 0.311284
0.770748 0.829282 0.312016
0.797665 0.827756 0.312596
0.824491 0.826017 0.313268
0.851316 0.824277 0.313848
0.878080 0.822507 0.314488
0.903655 0.820127 0.321782
0.928954 0.818173 0.330938
0.954467 0.817014 0.341314
0.980407 0.817014 0.353674
0.334081 0.875669 0.316472
0.336095 0.875853 0.316655
0.338689 0.875883 0.316777
0.343908 0.875669 0.316686
0.351965 0.875273 0.316625
0.362585 0.874815 0.316594
0.375708 0.874510 0.316777
0.391150 0.874235 0.317113
0.408728 0.874083 0.317723
0.427985 0.874022 0.318303
0.448737 0.873869 0.319188
0.470588 0.873716 0.319860
0.493416 0.873350 0.320623
0.516899 0.872648 0.321111
0.540917 0.871550 0.321538
0.565148 0.870115 0.321538
0.589776 0.868467 0.321538
0.614832 0.866850 0.321660
0.640436 0.865385 0.321996
0.666438 0.864103 0.322423
0.692805 0.862913 0.323217
0.719448 0.861753 0.324071
0.746120 0.860502 0.324895
0.772854 0.859159 0.325750
0.799527 0.857694 0.326543
0.826200 0.856138 0.327337
0.852903 0.854612 0.328038
0.879667 0.853025 0.328893
0.906584 0.851591 0.330083
0.932280 0.849638 0.338201
0.957794 0.848203 0.349371
0.983764 0.847990 0.362371
0.348394 0.900999 0.328374
0.350225 0.901091 0.328496
0.352453 0.900969 0.328527
0.357122 0.900633 0.328283
0.364477 0.900084 0.328099
0.374151 0.899443 0.327886
0.386175 0.898802 0.327733
0.400275 0.898192 0.327611
0.416480 0.897581 0.327703
0.434424 0.897002 0.327977
0.453742 0.896361 0.328191
0.474342 0.895720 0.328496
0.495949 0.894896 0.328801
0.518364 0.893950 0.329076
0.541375 0.892790 0.329198
