其他预设/【232】美食博客调色预设124款/1.3D LUT预设（视频调色-PR-AE-PS-FCPX-达芬奇用）/0 Dining Is An Art.cube
# Created by Adobe Lightroom plugin Export LUT (1.17.0)
# www.johnrellis.com/lightroom/exportlut.htm
# Preset: 0 Dining Is An Art
# Color profile: /Library/Application Support/Adobe/Color/Profiles/Recommended/AdobeRGB1998.icc
LUT_3D_SIZE 5
DOMAIN_MIN 0.000000 0.000000 0.000000
DOMAIN_MAX 0.903226 0.903226 0.903226
0.181338 0.173953 0.184756
0.361395 0.173831 0.187503
0.597253 0.194736 0.209506
0.817960 0.247776 0.257725
0.964202 0.311528 0.313634
0.187716 0.337011 0.190494
0.336065 0.326116 0.193027
0.568780 0.325292 0.217258
0.803189 0.349828 0.262211
0.962158 0.381598 0.318517
0.234501 0.549401 0.233280
0.337957 0.544427 0.234928
0.548608 0.542840 0.243687
0.771481 0.545586 0.272953
0.940520 0.537499 0.319066
0.292485 0.763241 0.282414
0.368078 0.760891 0.283177
0.541711 0.750637 0.284428
0.735195 0.735195 0.286381
0.918883 0.719234 0.323125
0.357794 0.920836 0.336095
0.407172 0.918730 0.335821
0.536828 0.907958 0.330846
0.710628 0.903014 0.336706
0.895750 0.897368 0.346166
0.187076 0.176089 0.345769
0.331762 0.184543 0.327672
0.548577 0.242313 0.340826
0.774228 0.293553 0.368231
0.944121 0.346014 0.393408
0.203433 0.314763 0.320775
0.334997 0.324132 0.329686
0.530938 0.337377 0.341375
0.765316 0.367041 0.365423
0.940093 0.400824 0.392462
0.255131 0.529259 0.333623
0.351263 0.518669 0.341619
0.519463 0.512169 0.340337
0.741543 0.533165 0.358373
0.928283 0.543999 0.389990
0.310399 0.749477 0.360235
0.382696 0.745083 0.364599
0.540673 0.736812 0.362432
0.724941 0.724056 0.359106
0.911528 0.717556 0.386419
0.380346 0.915038 0.397467
0.424659 0.913054 0.396612
0.551293 0.908873 0.396765
0.715846 0.902373 0.397772
0.896300 0.897215 0.404089
0.232761 0.202213 0.550927
0.349248 0.217319 0.535790
0.534386 0.245487 0.506004
0.755276 0.302800 0.520745
0.926879 0.386816 0.534295
0.276280 0.340185 0.518608
0.360052 0.341955 0.509545
0.525475 0.343725 0.497444
0.741482 0.377417 0.516075
0.921691 0.447639 0.540581
0.283726 0.512505 0.494484
0.362127 0.506767 0.489387
0.535973 0.525383 0.504601
0.721645 0.532769 0.509300
0.909636 0.570977 0.540917
0.319890 0.726345 0.502373
0.385473 0.717922 0.500542
0.538872 0.711513 0.504051
0.710353 0.706600 0.500145
0.895933 0.716670 0.527001
0.383520 0.903166 0.511284
0.439734 0.901183 0.517784
0.578058 0.895476 0.535882
0.721584 0.890410 0.532219
0.888579 0.887358 0.534234
0.293553 0.253391 0.737270
0.377173 0.263767 0.730648
0.555596 0.286442 0.716609
0.736416 0.301946 0.691524
0.913787 0.377539 0.682765
0.329686 0.366674 0.718074
0.395422 0.368200 0.714900
0.552453 0.371130 0.702327
0.725277 0.370642 0.680354
0.906889 0.429969 0.679988
0.341283 0.531731 0.692836
0.403357 0.531548 0.687373
0.546288 0.530907 0.676814
0.711360 0.523552 0.666133
0.895659 0.575189 0.683162
0.339025 0.707118 0.669306
0.393927 0.701930 0.664210
0.532158 0.696071 0.658167
0.719783 0.712917 0.673365
0.883940 0.728756 0.688014
0.390570 0.890776 0.664942
0.440314 0.888609 0.665827
0.577996 0.883818 0.673610
0.735775 0.879606 0.688533
0.882200 0.878782 0.687709
0.362005 0.333837 0.906859
0.417426 0.340185 0.904479
0.559075 0.356390 0.896178
0.729549 0.376349 0.884459
0.905303 0.397009 0.871946
0.395483 0.418647 0.901427
0.442329 0.421271 0.899443
0.570275 0.428656 0.892302
0.733028 0.440833 0.882383
0.904112 0.454841 0.870817
0.450050 0.579767 0.888365
0.502068 0.590936 0.886473
0.606928 0.596094 0.881712
0.744869 0.597620 0.874846
0.898650 0.596918 0.865232
0.445777 0.727230 0.874327
0.495338 0.731563 0.873503
0.619715 0.742489 0.869963
0.756466 0.751492 0.864714
0.891447 0.746120 0.857847
0.453101 0.893584 0.864561
0.497627 0.893339 0.864286
0.613062 0.890227 0.860685
0.751522 0.887755 0.857847
0.900114 0.897581 0.869718
