其他预设/【232】美食博客调色预设124款/1.3D LUT预设（视频调色-PR-AE-PS-FCPX-达芬奇用）/0 Food Eases Every Trouble.cube
# Created by Adobe Lightroom plugin Export LUT (1.17.0)
# www.johnrellis.com/lightroom/exportlut.htm
# Preset: 0 Food Eases Every Trouble
# Color profile: /Library/Application Support/Adobe/Color/Profiles/Recommended/AdobeRGB1998.icc
LUT_3D_SIZE 5
DOMAIN_MIN 0.000000 0.000000 0.000000
DOMAIN_MAX 0.903226 0.903226 0.903226
0.000000 0.000000 0.000000
0.238071 0.000000 0.000000
0.510399 0.000000 0.000000
0.792172 0.000000 0.000000
1.000000 0.000000 0.000000
0.000000 0.224857 0.000000
0.237034 0.221988 0.000000
0.508782 0.214755 0.000000
0.790799 0.159518 0.000000
1.000000 0.000000 0.000000
0.000000 0.488167 0.000000
0.238895 0.487404 0.000000
0.512230 0.485389 0.000000
0.786191 0.488899 0.000000
1.000000 0.454414 0.000000
0.000000 0.763241 0.000000
0.208560 0.762173 0.000000
0.509972 0.758480 0.000000
0.774624 0.752651 0.000000
0.993378 0.726101 0.000000
0.000000 0.978210 0.000000
0.147921 0.976806 0.000000
0.468605 0.971862 0.000000
0.723690 0.963561 0.000000
0.953918 0.952758 0.000000
0.000000 0.000000 0.267185
0.240024 0.000000 0.265690
0.508873 0.000000 0.283696
0.791897 0.000000 0.278141
1.000000 0.000000 0.256352
0.000000 0.227359 0.265232
0.232364 0.221164 0.264408
0.511284 0.181399 0.262821
0.792050 0.060548 0.258824
1.000000 0.000000 0.253788
0.000000 0.488136 0.272770
0.212802 0.488777 0.260838
0.510307 0.485634 0.255253
0.786801 0.482704 0.247715
1.000000 0.444617 0.243076
0.000000 0.763241 0.261143
0.168338 0.763180 0.243168
0.502068 0.759060 0.238865
0.773495 0.752712 0.231296
0.991974 0.724147 0.221866
0.000000 0.978180 0.217685
0.142031 0.976562 0.220676
0.467628 0.971618 0.215000
0.723262 0.963256 0.203769
0.953307 0.952453 0.183688
0.005554 0.000000 0.534508
0.262272 0.000000 0.533623
0.525902 0.000000 0.531365
0.791348 0.000000 0.531579
0.999420 0.000000 0.530144
0.000000 0.225437 0.533135
0.238102 0.214511 0.532464
0.522576 0.186984 0.530571
0.790555 0.137362 0.530846
0.997589 0.166384 0.532616
0.000000 0.496284 0.528618
0.210391 0.493629 0.528222
0.512261 0.484840 0.526452
0.787778 0.465553 0.523644
0.994629 0.454353 0.518669
0.000000 0.762844 0.520104
0.177279 0.762295 0.517540
0.505943 0.757992 0.515496
0.774655 0.751705 0.513573
0.985077 0.728023 0.507561
0.000000 0.976989 0.481636
0.159670 0.975433 0.480751
0.511620 0.967193 0.503868
0.739284 0.960021 0.498634
0.953979 0.950835 0.490394
0.123476 0.000000 0.775357
0.283207 0.000000 0.774929
0.531975 0.000000 0.773617
0.784085 0.000000 0.771420
0.994476 0.000000 0.741421
0.006348 0.210330 0.774533
0.264256 0.203494 0.774166
0.526299 0.179934 0.772915
0.782345 0.144564 0.770565
0.992828 0.177249 0.740993
0.000000 0.484688 0.771420
0.241550 0.482338 0.771054
0.525292 0.483131 0.769284
0.779355 0.481483 0.766842
0.985504 0.495155 0.744320
0.000000 0.748836 0.765255
0.223636 0.747982 0.764858
0.523125 0.746853 0.763241
0.780697 0.749722 0.760250
0.972686 0.748562 0.757198
0.000000 0.974273 0.727199
0.224308 0.972442 0.726650
0.522087 0.965148 0.728389
0.780331 0.952972 0.747890
0.956329 0.947906 0.750057
0.147005 0.000000 0.970703
0.276738 0.000000 0.970489
0.499947 0.000000 0.969635
0.729671 0.000000 0.968109
0.950835 0.000000 0.965759
0.148836 0.206180 0.970062
0.278599 0.203677 0.969787
0.502037 0.197574 0.968902
0.731228 0.198337 0.967254
0.950500 0.225925 0.964813
0.228794 0.473518 0.966949
0.345312 0.483619 0.966217
0.535058 0.486122 0.965240
0.745785 0.493324 0.963470
0.950225 0.510094 0.960998
0.225803 0.700282 0.962829
0.343572 0.704555 0.962219
0.572900 0.722530 0.959899
0.784024 0.750576 0.956695
0.951385 0.758968 0.954833
0.202121 0.934081 0.956023
0.327367 0.934356 0.955596
0.565576 0.936095 0.954009
0.787320 0.940429 0.951598
0.955474 0.947143 0.949371
