其他预设/【232】美食博客调色预设124款/1.3D LUT预设（视频调色-PR-AE-PS-FCPX-达芬奇用）/0 Food Eases Every Trouble.cube
# Created by Adobe Lightroom plugin Export LUT (1.17.0)
# www.johnrellis.com/lightroom/exportlut.htm
# Preset: 0 Food Eases Every Trouble
# Color profile: /Library/Application Support/Adobe/Color/Profiles/Recommended/AdobeRGB1998.icc
LUT_3D_SIZE 32
0.000000 0.000000 0.000000
0.011994 0.000000 0.000946
0.056031 0.000000 0.002502
0.092256 0.000000 0.000000
0.128115 0.000000 0.000000
0.164675 0.000000 0.000000
0.201328 0.000000 0.000000
0.238071 0.000000 0.000000
0.275029 0.000000 0.000000
0.312383 0.000000 0.000000
0.350652 0.000000 0.000000
0.389502 0.000000 0.000000
0.429023 0.000000 0.000000
0.469551 0.000000 0.000000
0.510399 0.000000 0.000000
0.551934 0.000000 0.000000
0.594110 0.000000 0.000000
0.636011 0.000000 0.000000
0.676020 0.000000 0.000000
0.715450 0.000000 0.000000
0.754452 0.000000 0.000000
0.792172 0.000000 0.000000
0.828122 0.000000 0.000000
0.862394 0.000000 0.000000
0.894896 0.000000 0.000000
0.925933 0.000000 0.000000
0.955322 0.000000 0.000000
0.983032 0.000000 0.000000
1.000000 0.000000 0.000000
1.000000 0.000000 0.000000
1.000000 0.000000 0.000000
1.000000 0.000000 0.000000
0.000000 0.012024 0.000000
0.012451 0.015595 0.000000
0.057221 0.012360 0.000000
0.092409 0.007263 0.000000
0.127962 0.000000 0.000000
0.164523 0.000000 0.000000
0.201236 0.000000 0.000000
0.237858 0.000000 0.000000
0.274907 0.000000 0.000000
0.312261 0.000000 0.000000
0.350683 0.000000 0.000000
0.389380 0.000000 0.000000
0.429084 0.000000 0.000000
0.469398 0.000000 0.000000
0.510399 0.000000 0.000000
0.551934 0.000000 0.000000
0.594018 0.000000 0.000000
0.635889 0.000000 0.000000
0.675959 0.000000 0.000000
0.715358 0.000000 0.000000
0.754421 0.000000 0.000000
0.792081 0.000000 0.000000
0.828092 0.000000 0.000000
0.862364 0.000000 0.000000
0.894896 0.000000 0.000000
0.925841 0.000000 0.000000
0.955261 0.000000 0.000000
0.983001 0.000000 0.000000
1.000000 0.000000 0.000000
1.000000 0.000000 0.000000
1.000000 0.000000 0.000000
1.000000 0.000000 0.000000
0.000000 0.053223 0.000000
0.013275 0.055055 0.000000
0.057710 0.053529 0.000000
0.091859 0.050965 0.000000
0.127962 0.044984 0.000000
0.164492 0.032166 0.000000
0.200870 0.014771 0.000000
0.237613 0.000000 0.000000
0.274846 0.000000 0.000000
0.312169 0.000000 0.000000
0.350439 0.000000 0.000000
0.389380 0.000000 0.000000
0.428992 0.000000 0.000000
0.469337 0.000000 0.000000
0.510277 0.000000 0.000000
0.551965 0.000000 0.000000
0.594079 0.000000 0.000000
0.635859 0.000000 0.000000
0.675868 0.000000 0.000000
0.715236 0.000000 0.000000
0.754299 0.000000 0.000000
0.792081 0.000000 0.000000
0.828061 0.000000 0.000000
0.862272 0.000000 0.000000
0.894835 0.000000 0.000000
0.925841 0.000000 0.000000
0.955200 0.000000 0.000000
0.982940 0.000000 0.000000
1.000000 0.000000 0.000000
1.000000 0.000000 0.000000
1.000000 0.000000 0.000000
1.000000 0.000000 0.000000
0.000000 0.087678 0.000000
0.012421 0.087465 0.000000
0.057954 0.087190 0.000000
0.092256 0.086549 0.000000
0.127474 0.085725 0.000000
0.164034 0.085145 0.000000
0.200504 0.081209 0.000000
0.237430 0.074342 0.000000
0.274357 0.065278 0.000000
0.311894 0.047944 0.000000
0.350103 0.010040 0.000000
0.389014 0.000000 0.000000
0.428748 0.000000 0.000000
0.469123 0.000000 0.000000
0.510246 0.000000 0.000000
0.551751 0.000000 0.000000
0.593835 0.000000 0.000000
0.635798 0.000000 0.000000
0.675776 0.000000 0.000000
0.715114 0.000000 0.000000
0.754238 0.000000 0.000000
0.791958 0.000000 0.000000
0.827970 0.000000 0.000000
0.862181 0.000000 0.000000
0.894713 0.000000 0.000000
0.925689 0.000000 0.000000
0.955047 0.000000 0.000000
0.982818 0.000000 0.000000
1.000000 0.000000 0.000000
1.000000 0.000000 0.000000
1.000000 0.000000 0.000000
1.000000 0.000000 0.000000
0.000000 0.121401 0.000000
0.011139 0.121340 0.000000
0.058167 0.120912 0.000000
0.092836 0.120394 0.000000
0.128145 0.119753 0.000000
0.163302 0.118807 0.000000
0.199832 0.118624 0.000000
0.236637 0.116945 0.000000
0.273899 0.112734 0.000000
0.311345 0.107301 0.000000
0.349767 0.100008 0.000000
0.388739 0.090486 0.000000
0.428443 0.077302 0.000000
0.468910 0.053590 0.000000
0.509819 0.000000 0.000000
0.551507 0.000000 0.000000
0.593683 0.000000 0.000000
0.635492 0.000000 0.000000
0.675563 0.000000 0.000000
0.714992 0.000000 0.000000
0.753994 0.000000 0.000000
0.791775 0.000000 0.000000
0.827787 0.000000 0.000000
0.861997 0.000000 0.000000
0.894499 0.000000 0.000000
0.925505 0.000000 0.000000
0.954833 0.000000 0.000000
0.982635 0.000000 0.000000
1.000000 0.000000 0.000000
1.000000 0.000000 0.000000
1.000000 0.000000 0.000000
1.000000 0.000000 0.000000
0.000000 0.155642 0.000000
0.004791 0.155581 0.000000
0.055024 0.155489 0.000000
0.092897 0.154879 0.000000
0.129091 0.154269 0.000000
0.164096 0.153536 0.000000
0.199313 0.152407 0.000000
0.236027 0.152651 0.000000
0.273106 0.152132 0.000000
0.310704 0.149691 0.000000
0.349126 0.145937 0.000000
0.388312 0.140749 0.000000
0.428107 0.133974 0.000000
0.468574 0.125643 0.000000
0.509545 0.115755 0.000000
0.551293 0.101808 0.000000
0.593469 0.083711 0.000000
0.635218 0.053254 0.000000
0.675227 0.000000 0.000000
0.714687 0.000000 0.000000
0.753719 0.000000 0.000000
0.791531 0.000000 0.000000
0.827481 0.000000 0.000000
0.861753 0.000000 0.000000
0.894255 0.000000 0.000000
0.925231 0.000000 0.000000
0.954589 0.000000 0.000000
0.982361 0.000000 0.000000
1.000000 0.000000 0.000000
1.000000 0.000000 0.000000
1.000000 0.000000 0.000000
1.000000 0.000000 0.000000
0.000000 0.190219 0.000000
0.000000 0.190311 0.000000
0.050568 0.190066 0.000000
0.092622 0.189731 0.000000
0.129671 0.189059 0.000000
0.165347 0.188388 0.000000
0.200534 0.187564 0.000000
0.235203 0.186282 0.000000
0.272526 0.186740 0.000000
0.310277 0.186709 0.000000
0.348455 0.186465 0.000000
0.387701 0.183536 0.000000
0.427558 0.179721 0.000000
0.468147 0.175021 0.000000
0.509270 0.169039 0.000000
0.550958 0.161685 0.000000
0.593164 0.152956 0.000000
0.634913 0.142336 0.000000
0.674922 0.129458 0.000000
0.714412 0.113008 0.000000
0.753445 0.092378 0.000000
0.791226 0.061067 0.000000
0.827115 0.000000 0.000000
0.861418 0.000000 0.000000
0.893950 0.000000 0.000000
0.924895 0.000000 0.000000
0.954253 0.000000 0.000000
0.982025 0.000000 0.000000
1.000000 0.000000 0.000000
1.000000 0.000000 0.000000
1.000000 0.000000 0.000000
1.000000 0.000000 0.000000
0.000000 0.224857 0.000000
0.000000 0.224857 0.000000
0.043366 0.224674 0.000000
0.091218 0.224460 0.000000
0.129305 0.224094 0.000000
0.165743 0.223453 0.000000
0.201663 0.222660 0.000000
0.237034 0.221988 0.000000
0.271794 0.220371 0.000000
0.309545 0.221103 0.000000
0.348089 0.221653 0.000000
0.387121 0.221897 0.000000
0.427008 0.221164 0.000000
0.467536 0.218204 0.000000
0.508782 0.214755 0.000000
0.550500 0.210178 0.000000
0.592645 0.205081 0.000000
0.634485 0.198306 0.000000
0.674495 0.190677 0.000000
0.713954 0.181643 0.000000
0.753109 0.170901 0.000000
0.790799 0.159518 0.000000
0.826719 0.145571 0.000000
0.861021 0.129152 0.000000
0.893523 0.110201 0.000000
0.924468 0.086671 0.000000
0.953796 0.042847 0.000000
0.981598 0.000000 0.000000
1.000000 0.000000 0.000000
1.000000 0.000000 0.000000
1.000000 0.000000 0.000000
1.000000 0.000000 0.000000
0.000000 0.260105 0.000000
0.000000 0.259953 0.000000
0.031983 0.259831 0.000000
0.088655 0.259648 0.000000
0.128573 0.259342 0.000000
0.165499 0.258762 0.000000
0.202060 0.258305 0.000000
0.238163 0.257511 0.000000
0.274052 0.256718 0.000000
0.308843 0.255314 0.000000
0.347478 0.256382 0.000000
0.386664 0.257237 0.000000
0.426490 0.258091 0.000000
0.467109 0.258610 0.000000
0.508171 0.257359 0.000000
0.549981 0.254612 0.000000
0.592218 0.251438 0.000000
0.633997 0.247044 0.000000
0.673976 0.241733 0.000000
0.713497 0.235172 0.000000
0.752621 0.228519 0.000000
0.790372 0.220157 0.000000
0.826322 0.210910 0.000000
0.860502 0.201266 0.000000
0.893004 0.190433 0.000000
0.923980 0.178073 0.000000
0.953338 0.165011 0.000000
0.981109 0.150301 0.000000
1.000000 0.134127 0.000000
1.000000 0.115206 0.000000
1.000000 0.091554 0.000000
1.000000 0.054780 0.000000
0.000000 0.295811 0.000000
0.000000 0.295720 0.000000
0.012665 0.295720 0.000000
0.084108 0.295598 0.000000
0.126345 0.295323 0.000000
0.165377 0.294926 0.000000
0.202396 0.294408 0.000000
0.238987 0.293950 0.000000
0.275517 0.293370 0.000000
0.311681 0.292546 0.000000
0.346868 0.290776 0.000000
0.386175 0.292424 0.000000
0.426001 0.293736 0.000000
0.466621 0.294987 0.000000
0.507836 0.295964 0.000000
0.549340 0.296818 0.000000
0.591730 0.295018 0.000000
0.633417 0.292180 0.000000
0.673335 0.288243 0.000000
0.712886 0.283604 0.000000
0.752102 0.278294 0.000000
0.789761 0.272282 0.000000
0.825711 0.265110 0.000000
0.859953 0.257511 0.000000
0.892424 0.248875 0.000000
0.923400 0.239933 0.000000
0.952758 0.230350 0.000000
0.980529 0.220066 0.000000
1.000000 0.209049 0.000000
1.000000 0.197391 0.000000
1.000000 0.184634 0.000000
1.000000 0.170504 0.000000
0.000000 0.332586 0.000000
0.000000 0.332586 0.000000
0.000000 0.332464 0.000000
0.078279 0.332341 0.000000
0.123903 0.331975 0.000000
0.163882 0.331762 0.000000
0.202457 0.331426 0.000000
0.239658 0.331029 0.000000
0.276707 0.330388 0.000000
0.313603 0.329900 0.000000
0.350256 0.329229 0.000000
0.385931 0.327550 0.000000
0.425544 0.329198 0.000000
0.466224 0.331029 0.000000
0.507317 0.332769 0.000000
0.549004 0.334264 0.000000
0.591180 0.335576 0.000000
0.632654 0.335363 0.000000
0.672694 0.332311 0.000000
0.712276 0.328710 0.000000
0.751461 0.324712 0.000000
0.789090 0.320043 0.000000
0.825071 0.314244 0.000000
0.859251 0.307774 0.000000
0.891783 0.300694 0.000000
0.922728 0.292912 0.000000
0.952087 0.284855 0.000000
0.979858 0.276219 0.000000
1.000000 0.267124 0.000000
1.000000 0.257420 0.000000
1.000000 0.247166 0.000000
1.000000 0.236332 0.000000
0.000000 0.370092 0.000000
0.000000 0.370123 0.000000
0.000000 0.370062 0.000000
0.069520 0.369940 0.000000
0.119661 0.369665 0.000000
0.162051 0.369574 0.000000
0.201816 0.369360 0.000000
0.240238 0.368780 0.000000
0.277958 0.368444 0.000000
0.315373 0.367956 0.000000
0.352636 0.367376 0.000000
0.389624 0.366796 0.000000
0.426215 0.365759 0.000000
0.465644 0.367041 0.000000
0.506828 0.369268 0.000000
0.548577 0.371221 0.000000
0.590814 0.373205 0.000000
0.632074 0.374273 0.000000
0.671931 0.374273 0.000000
0.711513 0.372473 0.000000
0.750820 0.369360 0.000000
0.788388 0.365270 0.000000
0.824308 0.360510 0.000000
0.858518 0.354681 0.000000
0.891051 0.348455 0.000000
0.921965 0.341711 0.000000
0.951324 0.334234 0.000000
0.979095 0.326482 0.000000
1.000000 0.318303 0.000000
1.000000 0.309545 0.000000
1.000000 0.300450 0.000000
1.000000 0.290562 0.000000
0.000000 0.408606 0.000000
0.000000 0.408576 0.000000
0.000000 0.408453 0.000000
0.057221 0.408423 0.000000
0.115114 0.408179 0.000000
0.159762 0.408087 0.000000
0.200687 0.407843 0.000000
0.240208 0.407599 0.000000
0.278813 0.407233 0.000000
0.316899 0.406867 0.000000
0.354772 0.406470 0.000000
0.392279 0.405859 0.000000
0.429847 0.405432 0.000000
0.467323 0.404883 0.000000
0.506371 0.405676 0.000000
0.548058 0.408301 0.000000
0.590265 0.410651 0.000000
0.631525 0.412146 0.000000
0.671382 0.412482 0.000000
0.710933 0.412726 0.000000
0.749935 0.412543 0.000000
0.787594 0.409094 0.000000
0.823514 0.404822 0.000000
0.857694 0.399634 0.000000
0.890196 0.393927 0.000000
0.921141 0.387610 0.000000
0.950500 0.380804 0.000000
0.978241 0.373510 0.000000
1.000000 0.365667 0.000000
1.000000 0.357549 0.000000
1.000000 0.348821 0.000000
1.000000 0.339544 0.000000
0.000000 0.448005 0.000000
0.000000 0.447883 0.000000
0.000000 0.447883 0.000000
0.023285 0.447791 0.000000
0.108461 0.447608 0.000000
0.156222 0.447517 0.000000
0.199222 0.447303 0.000000
0.239872 0.447120 0.000000
0.279271 0.446845 0.000000
0.318212 0.446571 0.000000
0.356695 0.446143 0.000000
0.394934 0.445777 0.000000
0.432868 0.445319 0.000000
0.470771 0.444892 0.000000
0.508446 0.444434 0.000000
0.547570 0.445136 0.000000
0.589746 0.447944 0.000000
0.630854 0.449805 0.000000
0.670802 0.450477 0.000000
0.710414 0.450965 0.000000
0.749355 0.451118 0.000000
0.786801 0.450385 0.000000
0.822568 0.448096 0.000000
0.856748 0.443336 0.000000
0.889281 0.437842 0.000000
0.920226 0.431922 0.000000
0.949554 0.425391 0.000000
0.977295 0.418280 0.000000
1.000000 0.410864 0.000000
1.000000 0.402869 0.000000
1.000000 0.394446 0.000000
1.000000 0.385382 0.000000
0.000000 0.488167 0.000000
0.000000 0.488075 0.000000
0.000000 0.488045 0.000000
0.000000 0.488014 0.000000
0.099367 0.487922 0.000000
0.151827 0.487831 0.000000
0.196719 0.487678 0.000000
0.238895 0.487404 0.000000
0.279210 0.487251 0.000000
0.319036 0.486976 0.000000
0.358160 0.486732 0.000000
0.397040 0.486427 0.000000
0.435492 0.486091 0.000000
0.473976 0.485695 0.000000
0.512230 0.485389 0.000000
0.550347 0.484993 0.000000
0.589197 0.485237 0.000000
0.630060 0.487312 0.000000
0.670069 0.488350 0.000000
0.709773 0.489235 0.000000
0.748745 0.489509 0.000000
0.786191 0.488899 0.000000
0.821836 0.487434 0.000000
0.855833 0.485237 0.000000
0.888212 0.480903 0.000000
0.919158 0.475074 0.000000
0.948486 0.468727 0.000000
0.976257 0.461769 0.000000
1.000000 0.454414 0.000000
1.000000 0.446540 0.000000
1.000000 0.438178 0.000000
1.000000 0.429114 0.000000
0.000000 0.529168 0.000000
0.000000 0.529198 0.000000
0.000000 0.529107 0.000000
0.000000 0.529015 0.000000
0.088777 0.528923 0.000000
0.146578 0.528862 0.000000
0.193301 0.528771 0.000000
0.236851 0.528649 0.000000
0.278874 0.528435 0.000000
0.319524 0.528191 0.000000
0.359350 0.527947 0.000000
0.398749 0.527733 0.000000
0.437903 0.527398 0.000000
0.476722 0.527001 0.000000
0.515312 0.526574 0.000000
0.553735 0.526207 0.000000
0.591821 0.525658 0.000000
0.629267 0.524773 0.000000
0.669398 0.526177 0.000000
0.709041 0.527276 0.000000
0.748043 0.527825 0.000000
0.785336 0.527276 0.000000
0.821042 0.525841 0.000000
0.854948 0.523674 0.000000
0.887266 0.520714 0.000000
0.918029 0.517327 0.000000
0.947356 0.511131 0.000000
0.975097 0.504265 0.000000
1.000000 0.496895 0.000000
1.000000 0.489021 0.000000
1.000000 0.480507 0.000000
1.000000 0.471473 0.000000
0.000000 0.570397 0.000000
0.000000 0.570459 0.000000
0.000000 0.570367 0.000000
0.000000 0.570245 0.000000
0.071839 0.570184 0.000000
0.139345 0.570123 0.000000
0.189212 0.569909 0.000000
0.234592 0.569696 0.000000
0.277623 0.569360 0.000000
0.318791 0.569055 0.000000
0.359472 0.568750 0.000000
0.399298 0.568322 0.000000
0.438758 0.567926 0.000000
0.477790 0.567315 0.000000
0.516625 0.566735 0.000000
0.554955 0.566186 0.000000
0.593133 0.565515 0.000000
0.631250 0.564996 0.000000
0.668482 0.563989 0.000000
0.708309 0.565393 0.000000
0.747250 0.566125 0.000000
0.784482 0.565637 0.000000
0.820096 0.564172 0.000000
0.853971 0.562005 0.000000
0.886351 0.558923 0.000000
0.917052 0.555383 0.000000
0.946227 0.551171 0.000000
0.973877 0.545983 0.000000
1.000000 0.538506 0.000000
1.000000 0.530541 0.000000
1.000000 0.521996 0.000000
1.000000 0.512810 0.000000
0.000000 0.610101 0.000000
0.000000 0.610101 0.000000
0.000000 0.610101 0.000000
0.000000 0.609949 0.000000
0.042267 0.609857 0.000000
0.130465 0.609705 0.000000
0.184054 0.609461 0.000000
0.230869 0.609216 0.000000
0.274815 0.608881 0.000000
0.316991 0.608515 0.000000
0.357946 0.608240 0.000000
0.398535 0.607691 0.000000
0.438300 0.607263 0.000000
0.477821 0.606806 0.000000
0.516777 0.606287 0.000000
0.555535 0.605798 0.000000
0.593957 0.605249 0.000000
0.632166 0.604669 0.000000
0.670008 0.604211 0.000000
0.707485 0.603388 0.000000
0.746304 0.604303 0.000000
0.783566 0.603876 0.000000
0.819089 0.602350 0.000000
0.853025 0.600092 0.000000
0.885313 0.596918 0.000000
0.915984 0.593194 0.000000
0.945129 0.588891 0.000000
0.972717 0.584009 0.000000
0.998749 0.578637 0.000000
1.000000 0.571435 0.000000
1.000000 0.562707 0.000000
1.000000 0.553246 0.000000
0.000000 0.649317 0.000000
0.000000 0.649378 0.000000
0.000000 0.649317 0.000000
0.000000 0.649256 0.000000
0.000000 0.649165 0.000000
0.119478 0.648951 0.000000
0.177798 0.648737 0.000000
0.226322 0.648524 0.000000
0.271794 0.648249 0.000000
0.314336 0.647944 0.000000
0.356237 0.647639 0.000000
0.397345 0.647211 0.000000
0.437568 0.646815 0.000000
0.477363 0.646326 0.000000
0.516594 0.645899 0.000000
0.555535 0.645411 0.000000
0.594171 0.644923 0.000000
0.632441 0.644343 0.000000
0.670466 0.643793 0.000000
0.708125 0.643275 0.000000
0.745418 0.642603 0.000000
0.782559 0.642145 0.000000
0.818082 0.640650 0.000000
0.851926 0.638178 0.000000
0.884154 0.634913 0.000000
0.914885 0.630945 0.000000
0.943969 0.626429 0.000000
0.971557 0.621271 0.000000
0.997559 0.615656 0.000000
1.000000 0.609430 0.000000
1.000000 0.602625 0.000000
1.000000 0.593164 0.000000
0.000000 0.688563 0.000000
0.000000 0.688533 0.000000
0.000000 0.688502 0.000000
0.000000 0.688472 0.000000
0.000000 0.688380 0.000000
0.107362 0.688167 0.000000
0.170474 0.687984 0.000000
0.221225 0.687770 0.000000
0.267674 0.687495 0.000000
0.311528 0.687160 0.000000
0.353948 0.686824 0.000000
0.395514 0.686305 0.000000
0.436011 0.685817 0.000000
0.475929 0.685389 0.000000
0.515587 0.684779 0.000000
0.554559 0.684199 0.000000
0.593286 0.683589 0.000000
0.631586 0.682918 0.000000
0.669551 0.682307 0.000000
0.707149 0.681636 0.000000
0.744320 0.680903 0.000000
0.781430 0.680507 0.000000
0.816861 0.678889 0.000000
0.850675 0.676295 0.000000
0.882933 0.672908 0.000000
0.913634 0.668696 0.000000
0.942718 0.663905 0.000000
0.970275 0.658503 0.000000
0.996277 0.652522 0.000000
1.000000 0.645960 0.000000
1.000000 0.638758 0.000000
1.000000 0.630915 0.000000
0.000000 0.726650 0.000000
0.000000 0.726650 0.000000
0.000000 0.726558 0.000000
0.000000 0.726528 0.000000
0.000000 0.726345 0.000000
0.092378 0.726223 0.000000
0.161929 0.725948 0.000000
0.215091 0.725704 0.000000
0.263127 0.725338 0.000000
0.307805 0.725002 0.000000
0.350652 0.724575 0.000000
0.392493 0.724086 0.000000
0.433387 0.723537 0.000000
0.473610 0.722988 0.000000
0.513207 0.722347 0.000000
0.552361 0.721675 0.000000
0.591089 0.720974 0.000000
0.629297 0.720272 0.000000
0.667262 0.719509 0.000000
0.704707 0.718715 0.000000
0.741756 0.717891 0.000000
0.778470 0.717098 0.000000
0.815427 0.716884 0.000000
0.849393 0.714412 0.000000
0.881621 0.710842 0.000000
0.912291 0.706416 0.000000
0.941375 0.701320 0.000000
0.968872 0.695674 0.000000
0.994903 0.689296 0.000000
1.000000 0.682460 0.000000
1.000000 0.674830 0.000000
1.000000 0.666529 0.000000
0.000000 0.763241 0.000000
0.000000 0.763241 0.000000
0.000000 0.763180 0.000000
0.000000 0.763088 0.000000
0.000000 0.762966 0.000000
0.071107 0.762753 0.000000
0.152224 0.762539 0.000000
0.208560 0.762173 0.000000
0.257664 0.761868 0.000000
0.303227 0.761349 0.000000
0.346624 0.760952 0.000000
0.388922 0.760433 0.000000
0.429999 0.759823 0.000000
0.470253 0.759182 0.000000
0.509972 0.758480 0.000000
0.549187 0.757778 0.000000
0.587793 0.756985 0.000000
0.626062 0.756161 0.000000
0.663874 0.755337 0.000000
0.701137 0.754482 0.000000
0.738094 0.753628 0.000000
0.774624 0.752651 0.000000
0.810697 0.751827 0.000000
0.847044 0.751644 0.000000
0.880217 0.748775 0.000000
0.910857 0.744167 0.000000
0.939910 0.738827 0.000000
0.967437 0.732753 0.000000
0.993378 0.726101 0.000000
1.000000 0.718807 0.000000
1.000000 0.710811 0.000000
1.000000 0.702052 0.000000
0.000000 0.798337 0.000000
0.000000 0.798306 0.000000
0.000000 0.798276 0.000000
0.000000 0.798154 0.000000
0.000000 0.797971 0.000000
0.027253 0.797757 0.000000
0.142458 0.797513 0.000000
0.201358 0.797208 0.000000
0.251896 0.796811 0.000000
0.298161 0.796323 0.000000
0.342077 0.795865 0.000000
0.384436 0.795285 0.000000
0.425635 0.794644 0.000000
0.466194 0.793942 0.000000
0.505882 0.793210 0.000000
0.545068 0.792477 0.000000
0.583642 0.791623 0.000000
0.621729 0.790738 0.000000
0.659419 0.789853 0.000000
0.696681 0.788968 0.000000
0.733394 0.787991 0.000000
0.769741 0.787015 0.000000
0.805600 0.786069 0.000000
0.841032 0.785092 0.000000
0.876616 0.784726 0.000000
0.909270 0.781918 0.000000
0.938293 0.776211 0.000000
0.965850 0.769894 0.000000
0.991791 0.762905 0.000000
1.000000 0.755154 0.000000
1.000000 0.746731 0.000000
1.000000 0.737514 0.000000
0.000000 0.831968 0.000000
0.000000 0.831968 0.000000
0.000000 0.831907 0.000000
0.000000 0.831785 0.000000
0.000000 0.831632 0.000000
0.000000 0.831388 0.000000
0.131228 0.831144 0.000000
0.193576 0.830777 0.000000
0.245670 0.830381 0.000000
0.292821 0.829862 0.000000
0.337041 0.829374 0.000000
0.379583 0.828733 0.000000
0.420935 0.828092 0.000000
0.461402 0.827390 0.000000
0.500908 0.826627 0.000000
0.540093 0.825803 0.000000
0.578637 0.824949 0.000000
0.616663 0.824002 0.000000
0.654231 0.823087 0.000000
0.691249 0.822080 0.000000
0.727810 0.821073 0.000000
0.763943 0.820035 0.000000
0.799588 0.818997 0.000000
0.834897 0.817899 0.000000
0.869566 0.816831 0.000000
0.904143 0.816159 0.000000
0.936614 0.813718 0.000000
0.964141 0.807034 0.000000
0.990082 0.799588 0.000000
1.000000 0.791501 0.000000
1.000000 0.782650 0.000000
1.000000 0.772946 0.000000
0.000000 0.864195 0.000000
0.000000 0.864134 0.000000
0.000000 0.864134 0.000000
0.000000 0.864012 0.000000
0.000000 0.863828 0.000000
0.000000 0.863615 0.000000
0.119722 0.863310 0.000000
0.186099 0.862943 0.000000
0.238956 0.862547 0.000000
0.286687 0.862028 0.000000
0.331212 0.861509 0.000000
0.374090 0.860838 0.000000
0.415564 0.860166 0.000000
0.456001 0.859434 0.000000
0.495735 0.858610 0.000000
0.534600 0.857786 0.000000
0.572992 0.856870 0.000000
0.610834 0.855894 0.000000
0.648249 0.854887 0.000000
0.685145 0.853849 0.000000
0.721401 0.852750 0.000000
0.757290 0.851652 0.000000
0.792813 0.850523 0.000000
0.827726 0.849393 0.000000
0.862272 0.848264 0.000000
0.896269 0.847135 0.000000
0.929839 0.845945 0.000000
0.962310 0.844175 0.000000
0.988251 0.836393 0.000000
1.000000 0.827848 0.000000
1.000000 0.818509 0.000000
1.000000 0.808347 0.000000
0.000000 0.894957 0.000000
0.000000 0.894896 0.000000
0.000000 0.894865 0.000000
0.000000 0.894774 0.000000
0.000000 0.894560 0.000000
0.000000 0.894347 0.000000
0.105806 0.894011 0.000000
0.177554 0.893645 0.000000
0.232181 0.893187 0.000000
0.280491 0.892699 0.000000
0.325261 0.892119 0.000000
0.368322 0.891478 0.000000
0.409766 0.890806 0.000000
0.450263 0.889982 0.000000
0.489723 0.889158 0.000000
0.528496 0.888304 0.000000
0.566735 0.887327 0.000000
0.604364 0.886320 0.000000
0.641505 0.885283 0.000000
0.678126 0.884215 0.000000
0.714351 0.883055 0.000000
0.749996 0.881895 0.000000
0.785214 0.880674 0.000000
0.819913 0.879484 0.000000
0.854215 0.878233 0.000000
0.887907 0.877043 0.000000
0.921202 0.875792 0.000000
0.954009 0.874540 0.000000
0.986297 0.873167 0.000000
1.000000 0.864195 0.000000
1.000000 0.854368 0.000000
1.000000 0.843748 0.000000
0.000000 0.924254 0.000000
0.000000 0.924193 0.000000
0.000000 0.924132 0.000000
0.000000 0.924010 0.000000
0.000000 0.923827 0.000000
0.000000 0.923583 0.000000
0.090944 0.923278 0.000000
0.168460 0.922911 0.000000
0.224887 0.922423 0.000000
0.273899 0.921904 0.000000
0.318944 0.921324 0.000000
0.361975 0.920684 0.000000
0.403418 0.919951 0.000000
0.443824 0.919158 0.000000
0.483223 0.918273 0.000000
0.521813 0.917327 0.000000
0.559899 0.916381 0.000000
0.597375 0.915312 0.000000
0.634302 0.914244 0.000000
0.670649 0.913115 0.000000
0.706538 0.911894 0.000000
0.741970 0.910674 0.000000
0.776944 0.909422 0.000000
0.811337 0.908141 0.000000
0.845335 0.906828 0.000000
0.878782 0.905486 0.000000
0.911803 0.904143 0.000000
0.944366 0.902770 0.000000
0.976349 0.901427 0.000000
1.000000 0.900542 0.000000
1.000000 0.890318 0.000000
1.000000 0.879118 0.000000
0.000000 0.951995 0.000000
0.000000 0.951995 0.000000
0.000000 0.951904 0.000000
0.000000 0.951812 0.000000
0.000000 0.951598 0.000000
0.000000 0.951354 0.000000
0.070741 0.951019 0.000000
0.158694 0.950652 0.000000
0.216770 0.950195 0.000000
0.266606 0.949645 0.000000
0.312078 0.949035 0.000000
0.355261 0.948363 0.000000
0.396704 0.947601 0.000000
0.437018 0.946777 0.000000
0.476265 0.945892 0.000000
