其他预设/【232】美食博客调色预设124款/1.3D LUT预设（视频调色-PR-AE-PS-FCPX-达芬奇用）/0 Food Eases Every Trouble.cube
# Created by Adobe Lightroom plugin Export LUT (1.17.0)
# www.johnrellis.com/lightroom/exportlut.htm
# Preset: 0 Food Eases Every Trouble
# Color profile: /Library/Application Support/Adobe/Color/Profiles/Recommended/AdobeRGB1998.icc
LUT_3D_SIZE 8
DOMAIN_MIN 0.000000 0.000000 0.000000
DOMAIN_MAX 0.903226 0.903226 0.903226
0.000000 0.000000 0.000000
0.128115 0.000000 0.000000
0.275029 0.000000 0.000000
0.429023 0.000000 0.000000
0.594110 0.000000 0.000000
0.754452 0.000000 0.000000
0.894896 0.000000 0.000000
1.000000 0.000000 0.000000
0.000000 0.121401 0.000000
0.128145 0.119753 0.000000
0.273899 0.112734 0.000000
0.428443 0.077302 0.000000
0.593683 0.000000 0.000000
0.753994 0.000000 0.000000
0.894499 0.000000 0.000000
1.000000 0.000000 0.000000
0.000000 0.260105 0.000000
0.128573 0.259342 0.000000
0.274052 0.256718 0.000000
0.426490 0.258091 0.000000
0.592218 0.251438 0.000000
0.752621 0.228519 0.000000
0.893004 0.190433 0.000000
1.000000 0.134127 0.000000
0.000000 0.408606 0.000000
0.115114 0.408179 0.000000
0.278813 0.407233 0.000000
0.429847 0.405432 0.000000
0.590265 0.410651 0.000000
0.749935 0.412543 0.000000
0.890196 0.393927 0.000000
1.000000 0.365667 0.000000
0.000000 0.570397 0.000000
0.071839 0.570184 0.000000
0.277623 0.569360 0.000000
0.438758 0.567926 0.000000
0.593133 0.565515 0.000000
0.747250 0.566125 0.000000
0.886351 0.558923 0.000000
1.000000 0.538506 0.000000
0.000000 0.726650 0.000000
0.000000 0.726345 0.000000
0.263127 0.725338 0.000000
0.433387 0.723537 0.000000
0.591089 0.720974 0.000000
0.741756 0.717891 0.000000
0.881621 0.710842 0.000000
0.994903 0.689296 0.000000
0.000000 0.864195 0.000000
0.000000 0.863828 0.000000
0.238956 0.862547 0.000000
0.415564 0.860166 0.000000
0.572992 0.856870 0.000000
0.721401 0.852750 0.000000
0.862272 0.848264 0.000000
0.988251 0.836393 0.000000
0.000000 0.978210 0.000000
0.000000 0.977783 0.000000
0.208347 0.976318 0.000000
0.389410 0.973663 0.000000
0.544427 0.969818 0.000000
0.688930 0.964904 0.000000
0.825284 0.959167 0.000000
0.953918 0.952758 0.000000
0.000000 0.000000 0.146304
0.129244 0.000000 0.145907
0.273167 0.000000 0.155856
0.428687 0.000000 0.156741
0.595056 0.000000 0.144594
0.755001 0.000000 0.141756
0.895109 0.000000 0.138613
1.000000 0.000000 0.135622
0.000000 0.122927 0.146059
0.124849 0.119356 0.145815
0.274052 0.097566 0.145663
0.429236 0.000000 0.145602
0.594568 0.000000 0.143679
0.754604 0.000000 0.140902
0.894713 0.000000 0.137118
1.000000 0.000000 0.133944
0.000000 0.259739 0.151400
0.115755 0.259709 0.147219
0.272374 0.256718 0.145296
0.427100 0.255222 0.143221
0.593133 0.242039 0.139712
0.753140 0.214878 0.135927
0.893187 0.173556 0.132204
1.000000 0.114076 0.128054
0.000000 0.408423 0.155795
0.090211 0.408789 0.144045
0.273381 0.407599 0.142824
0.429053 0.405432 0.139834
0.590967 0.409430 0.133272
0.750484 0.407935 0.124758
0.890227 0.388495 0.120333
1.000000 0.360754 0.116335
0.000000 0.570489 0.148287
0.000000 0.570764 0.132479
0.268956 0.569909 0.130526
0.435676 0.568170 0.126650
0.592737 0.565667 0.119875
0.747494 0.565301 0.109346
0.886259 0.557305 0.099428
0.999786 0.535973 0.091737
0.000000 0.727016 0.117281
0.000000 0.726802 0.112917
0.253727 0.725734 0.109133
0.429358 0.723842 0.104463
0.589410 0.721126 0.096101
0.741390 0.717952 0.081727
0.881498 0.710262 0.064271
0.994507 0.688502 0.033692
0.000000 0.864408 0.086580
0.000000 0.864073 0.085847
0.231266 0.862699 0.081727
0.412238 0.860349 0.072511
0.571405 0.856931 0.059022
0.720638 0.852781 0.011536
0.861997 0.848203 0.000000
0.987823 0.835935 0.000000
0.000000 0.978210 0.002899
0.000000 0.977783 0.000000
0.204898 0.976318 0.000000
0.387976 0.973632 0.000000
0.543694 0.969787 0.000000
0.688441 0.964874 0.000000
0.825010 0.959106 0.000000
0.953704 0.952667 0.000000
0.000000 0.000000 0.305852
0.129946 0.000000 0.305394
0.277501 0.000000 0.303990
0.428626 0.000000 0.308568
0.593103 0.000000 0.325658
0.751553 0.000000 0.338903
0.893675 0.000000 0.314580
1.000000 0.000000 0.295628
0.000000 0.120485 0.304967
0.117617 0.115938 0.304509
0.274968 0.103883 0.303502
0.428260 0.067628 0.308934
0.593103 0.000000 0.324437
0.751888 0.000000 0.334661
0.894804 0.000000 0.298253
1.000000 0.000000 0.294896
0.000000 0.262882 0.303502
0.106630 0.260960 0.303105
0.269322 0.256016 0.302708
0.429053 0.238590 0.301762
0.595758 0.209628 0.300420
0.754726 0.168338 0.297917
0.893217 0.115999 0.295476
1.000000 0.003632 0.292607
0.000000 0.408423 0.307530
0.080110 0.408453 0.306584
0.262699 0.408026 0.301823
0.427222 0.405432 0.298619
0.592889 0.404883 0.295445
0.751888 0.393133 0.292760
0.890196 0.372992 0.290410
1.000000 0.349004 0.287816
0.000000 0.570489 0.311284
0.000000 0.570672 0.308751
0.245853 0.571008 0.295964
0.427100 0.568933 0.292363
0.591302 0.565759 0.289738
0.748287 0.562921 0.285985
0.885801 0.553124 0.282383
0.998474 0.529534 0.279606
0.000000 0.726650 0.304784
0.000000 0.726680 0.301457
0.225772 0.726711 0.286107
0.418677 0.724514 0.284123
0.585077 0.721492 0.280949
0.740383 0.717891 0.277287
0.880827 0.708705 0.273167
0.992920 0.686763 0.268803
0.000000 0.864134 0.287572
0.000000 0.863920 0.284611
0.214786 0.862974 0.276890
0.405829 0.860472 0.274784
0.568200 0.856992 0.271641
0.719203 0.852659 0.267674
0.861326 0.847990 0.262699
0.986206 0.834531 0.253971
0.000000 0.978149 0.259709
0.000000 0.977722 0.258854
0.208469 0.975891 0.264500
0.389715 0.973175 0.262058
0.544579 0.969360 0.257939
0.688930 0.964446 0.252628
0.825010 0.958679 0.245060
0.953185 0.952361 0.235050
0.000000 0.000000 0.458289
0.138277 0.000000 0.457923
0.290013 0.000000 0.457008
0.439338 0.000000 0.455726
0.597528 0.000000 0.459876
0.753567 0.000000 0.467445
0.889586 0.000000 0.471717
1.000000 0.000000 0.474189
0.000000 0.112062 0.457527
0.121736 0.107637 0.457191
0.285191 0.089082 0.456550
0.438117 0.012207 0.455329
0.597467 0.000000 0.459266
0.753414 0.000000 0.466835
0.889250 0.000000 0.471290
0.999725 0.000000 0.474983
0.000000 0.266911 0.456153
0.086488 0.263493 0.455940
0.270848 0.253483 0.455512
0.434333 0.243717 0.454414
0.596979 0.226383 0.456947
0.752712 0.205020 0.465400
0.887968 0.198459 0.471382
0.999451 0.185245 0.467292
0.000000 0.414710 0.453773
0.050172 0.413733 0.453803
0.261814 0.410498 0.453315
0.428107 0.404791 0.452247
0.595087 0.396918 0.456306
0.753658 0.372625 0.449195
0.889189 0.359716 0.446754
0.999695 0.350042 0.443732
0.000000 0.570581 0.456001
0.000000 0.570520 0.455482
0.248203 0.570550 0.453437
0.421729 0.569177 0.449470
0.591485 0.565423 0.446021
0.749111 0.560266 0.443580
0.884581 0.546807 0.441199
0.995239 0.528405 0.438453
0.000000 0.726589 0.452247
0.000000 0.726497 0.451087
0.231724 0.726101 0.447272
0.414710 0.724483 0.442298
0.584009 0.721248 0.440040
0.740627 0.717525 0.437537
0.879179 0.707362 0.434668
0.989349 0.688350 0.430915
0.000000 0.863737 0.436805
0.000000 0.863493 0.435554
0.219821 0.862364 0.432685
0.414740 0.859373 0.435157
0.573480 0.855924 0.433448
0.721645 0.851804 0.430854
0.861570 0.847379 0.427497
0.982818 0.833066 0.421942
0.000000 0.977478 0.411719
0.000000 0.977050 0.411017
0.209476 0.975433 0.410346
0.416571 0.971008 0.426612
0.560082 0.967376 0.423987
0.697505 0.962768 0.420600
0.828824 0.957427 0.415839
0.953368 0.951507 0.409827
0.070710 0.000000 0.607904
0.163272 0.000000 0.607630
0.308324 0.000000 0.606928
0.457984 0.000000 0.605676
0.608820 0.000000 0.604242
0.756619 0.000000 0.600793
0.889982 0.000000 0.593072
0.998535 0.000000 0.587152
0.000000 0.096315 0.607294
0.146304 0.089418 0.607050
0.301793 0.057404 0.606561
0.455177 0.000000 0.605432
0.607752 0.000000 0.603906
0.756466 0.000000 0.600275
0.889677 0.000000 0.593011
0.998047 0.000000 0.587488
0.000000 0.260685 0.606195
0.068879 0.255741 0.605951
0.280827 0.248875 0.605463
0.446296 0.236973 0.604242
0.604547 0.219944 0.602808
0.755673 0.201907 0.598810
0.888273 0.199161 0.593469
0.996033 0.224949 0.590051
0.000000 0.420478 0.603449
0.000000 0.418524 0.603449
0.263188 0.411719 0.602960
0.433875 0.402808 0.602014
0.599542 0.396674 0.600458
0.753658 0.391760 0.596338
0.884916 0.395392 0.596521
0.991699 0.409674 0.597467
0.000000 0.574334 0.599695
0.000000 0.573693 0.599512
0.253056 0.571405 0.599084
0.428321 0.567651 0.598199
0.595544 0.564355 0.596521
0.749081 0.562615 0.598779
0.881743 0.550958 0.592523
0.989014 0.547692 0.589471
0.000000 0.726284 0.593591
0.000000 0.726131 0.593347
0.240299 0.725429 0.592157
0.422919 0.723568 0.590570
0.591852 0.719936 0.589288
0.743679 0.716518 0.589258
0.876188 0.709712 0.586786
0.983490 0.696529 0.583795
0.000000 0.862974 0.577203
0.000000 0.862699 0.576776
0.234531 0.861479 0.575372
0.420996 0.858518 0.574945
0.592065 0.853422 0.581476
0.733211 0.849516 0.583795
0.863737 0.846189 0.581262
0.977325 0.833799 0.577203
0.000000 0.976410 0.550317
0.000000 0.975952 0.550134
0.232639 0.974151 0.550011
0.418189 0.970459 0.553277
0.600061 0.962860 0.578546
0.720699 0.959106 0.576196
0.839750 0.954742 0.573236
0.954803 0.950042 0.569177
0.116060 0.000000 0.743526
0.184512 0.000000 0.743404
0.317052 0.000000 0.742916
0.461067 0.000000 0.742123
0.607233 0.000000 0.741054
0.752926 0.000000 0.739620
0.888426 0.000000 0.730800
0.995880 0.000000 0.706966
0.091341 0.074067 0.743191
0.171847 0.065492 0.743099
0.311345 0.000000 0.742733
0.458259 0.000000 0.741909
0.605951 0.000000 0.740780
0.752346 0.000000 0.739376
0.888151 0.000000 0.730526
0.995422 0.000000 0.706844
0.000000 0.251194 0.742397
0.127169 0.249577 0.742306
0.294560 0.243931 0.741817
0.449928 0.233768 0.741054
0.601862 0.220066 0.739956
0.750332 0.204746 0.738460
0.886870 0.200015 0.729519
0.993500 0.230045 0.707607
0.000000 0.410773 0.740597
0.087068 0.409125 0.740475
0.279362 0.404791 0.740078
0.443030 0.401221 0.739193
0.598352 0.397070 0.737972
0.747799 0.393957 0.736385
0.883970 0.396582 0.727749
0.989288 0.412268 0.711635
0.000000 0.564965 0.737728
0.035370 0.564202 0.737606
0.272618 0.562127 0.737179
0.442634 0.561242 0.736202
0.602014 0.563378 0.734798
0.746731 0.562158 0.733211
0.879454 0.564355 0.725399
0.982574 0.574975 0.720150
0.000000 0.716854 0.733730
0.000000 0.716518 0.733577
0.262699 0.715389 0.733181
0.438300 0.714076 0.732296
0.599786 0.713802 0.730892
0.747829 0.715358 0.729122
0.872282 0.717891 0.730953
0.975952 0.712581 0.725307
0.000000 0.861845 0.722652
0.000000 0.861479 0.722347
0.254856 0.860044 0.721309
0.434607 0.856901 0.719783
0.597528 0.852293 0.718532
0.745327 0.847257 0.720974
0.866331 0.844907 0.723171
0.970184 0.838865 0.720790
0.000000 0.974792 0.690700
0.000000 0.974273 0.690547
0.262943 0.972320 0.690272
0.436286 0.968475 0.691493
0.597833 0.962493 0.697261
0.748074 0.954772 0.715358
0.855344 0.951202 0.718257
0.956176 0.948302 0.716030
0.138705 0.000000 0.865507
0.194980 0.000000 0.865415
0.315953 0.000000 0.865110
0.451820 0.000000 0.864591
0.591028 0.000000 0.863828
0.730037 0.000000 0.862730
0.866300 0.000000 0.861479
0.988891 0.000000 0.848814
0.127596 0.051118 0.865324
0.188052 0.034455 0.865232
0.312566 0.000000 0.864927
0.450050 0.000000 0.864408
0.590204 0.000000 0.863645
0.729580 0.000000 0.862577
0.866026 0.000000 0.861204
0.988434 0.000000 0.848508
0.096254 0.246738 0.864652
0.171145 0.245335 0.864561
0.304936 0.241672 0.864256
0.446632 0.235111 0.863676
0.588617 0.227390 0.862852
0.728847 0.221195 0.861753
0.865080 0.220829 0.860319
0.986664 0.236454 0.847379
0.090700 0.401221 0.863188
0.172274 0.401526 0.863066
0.310430 0.402472 0.862669
0.450904 0.401190 0.862028
0.591943 0.400336 0.861082
0.730465 0.401404 0.859861
0.864225 0.405859 0.858396
0.983124 0.415381 0.845579
0.074250 0.547631 0.861021
0.165774 0.547906 0.860868
0.312993 0.549950 0.860410
0.468238 0.557916 0.859281
0.607568 0.563622 0.858061
0.737545 0.565209 0.856901
0.864347 0.569238 0.855497
0.977630 0.577264 0.843687
0.015625 0.692012 0.858122
0.154574 0.692103 0.858000
0.308934 0.693019 0.857542
0.465003 0.696559 0.856535
0.615900 0.704402 0.855009
0.751156 0.715297 0.853178
0.865476 0.717281 0.851957
0.970916 0.721706 0.842771
0.000000 0.835874 0.854337
0.136110 0.835813 0.854185
0.302251 0.835660 0.853788
0.459785 0.835996 0.852964
0.612665 0.837308 0.851682
0.749935 0.839963 0.850187
0.867399 0.843992 0.848600
0.962676 0.847929 0.850004
0.000000 0.972503 0.841520
0.107942 0.971923 0.841184
0.293736 0.969787 0.839872
0.454994 0.965881 0.837980
0.610376 0.960021 0.836698
0.747738 0.953918 0.836790
0.866209 0.948608 0.841520
0.956115 0.946899 0.845029
0.147005 0.000000 0.970703
0.196201 0.000000 0.970642
0.307134 0.000000 0.970397
0.434485 0.000000 0.969940
0.565850 0.000000 0.969268
0.697108 0.000000 0.968383
0.826108 0.000000 0.967224
0.950835 0.000000 0.965759
0.145693 0.051514 0.970520
0.195377 0.043763 0.970459
0.306767 0.005768 0.970214
0.434546 0.000000 0.969757
0.566094 0.000000 0.969085
0.697444 0.000000 0.968139
0.826261 0.000000 0.966949
0.950713 0.056245 0.965515
0.153841 0.246098 0.969787
0.201144 0.245579 0.969726
0.311040 0.244022 0.969451
0.438056 0.241886 0.968963
0.569146 0.240543 0.968231
0.699763 0.242771 0.967224
0.827451 0.251286 0.965972
0.950378 0.269169 0.964446
0.207919 0.402502 0.968048
0.243809 0.402564 0.967956
0.338170 0.402899 0.967651
0.456367 0.403845 0.967102
0.581842 0.406165 0.966308
0.708095 0.411353 0.965209
0.831571 0.419989 0.963897
0.950225 0.431525 0.962402
0.228519 0.537926 0.965972
0.268772 0.540093 0.965789
0.376165 0.549187 0.964996
0.501488 0.563165 0.963806
0.611139 0.565484 0.963043
0.725734 0.569940 0.962005
0.839872 0.576928 0.960723
0.950378 0.586755 0.959289
0.226535 0.667689 0.963561
0.267277 0.669062 0.963348
0.374792 0.674464 0.962676
0.504784 0.684901 0.961425
0.640528 0.703700 0.959472
0.752773 0.716396 0.957946
0.852598 0.720638 0.956909
0.951110 0.726833 0.955718
0.220493 0.798917 0.960357
0.262577 0.799588 0.960174
0.369848 0.802090 0.959625
0.501610 0.807523 0.958526
0.637995 0.817288 0.956878
0.762478 0.830533 0.954986
0.868132 0.844785 0.953124
0.952453 0.848966 0.952178
0.202121 0.934081 0.956023
0.246921 0.934142 0.955901
0.358984 0.934478 0.955444
0.495674 0.935363 0.954559
0.633234 0.937011 0.953368
0.758480 0.939635 0.951965
0.868315 0.943084 0.950561
0.955474 0.947143 0.949371
