其他预设/【232】美食博客调色预设124款/1.3D LUT预设（视频调色-PR-AE-PS-FCPX-达芬奇用）/0 His Way Of Eating Jellybeans.cube
# Created by Adobe Lightroom plugin Export LUT (1.17.0)
# www.johnrellis.com/lightroom/exportlut.htm
# Preset: 0 His Way Of Eating Jellybeans
# Color profile: /Library/Application Support/Adobe/Color/Profiles/Recommended/AdobeRGB1998.icc
LUT_3D_SIZE 5
DOMAIN_MIN 0.000000 0.000000 0.000000
DOMAIN_MAX 0.903226 0.903226 0.903226
0.000000 0.000000 0.000000
0.182254 0.000000 0.000000
0.603235 0.000000 0.000000
0.857359 0.000000 0.000000
1.000000 0.000000 0.000000
0.000000 0.201389 0.000000
0.176638 0.204410 0.000000
0.570062 0.248997 0.000000
0.845945 0.191409 0.000000
1.000000 0.139986 0.000000
0.000000 0.600397 0.000000
0.130098 0.594965 0.000000
0.564874 0.594965 0.000000
0.838468 0.540856 0.000000
1.000000 0.488228 0.015686
0.000000 0.838285 0.000000
0.000000 0.839719 0.000000
0.463844 0.830014 0.000000
0.782223 0.813046 0.000000
1.000000 0.763058 0.104463
0.000000 1.000000 0.080964
0.000000 1.000000 0.092500
0.394049 1.000000 0.107576
0.692073 0.992950 0.138186
0.940490 0.977966 0.166476
0.000000 0.000000 0.377752
0.217807 0.000000 0.363622
0.590387 0.000000 0.385840
0.848936 0.000000 0.351751
1.000000 0.000000 0.345373
0.000000 0.248631 0.362829
0.068910 0.186587 0.368536
0.581933 0.101839 0.360510
0.841733 0.042176 0.346136
1.000000 0.169375 0.348058
0.000000 0.598566 0.377600
0.000000 0.602716 0.356481
0.548272 0.593866 0.324102
0.826139 0.532433 0.354345
1.000000 0.499886 0.355993
0.000000 0.834775 0.344457
0.000000 0.835996 0.332219
0.452033 0.827024 0.326635
0.778347 0.809781 0.330632
1.000000 0.762814 0.339818
0.000000 1.000000 0.291447
0.000000 1.000000 0.307378
0.427161 1.000000 0.326970
0.704219 0.990295 0.327825
0.942412 0.976043 0.328405
0.000000 0.000000 0.653925
0.278264 0.000000 0.649653
0.589258 0.000000 0.644587
0.846921 0.000000 0.604059
1.000000 0.000000 0.554681
0.000000 0.151522 0.657130
0.134218 0.128939 0.650355
0.565270 0.000000 0.641962
0.841794 0.094514 0.604486
1.000000 0.268498 0.559564
0.000000 0.570764 0.631983
0.000000 0.560296 0.630762
0.545434 0.559106 0.627070
0.822049 0.568811 0.607324
1.000000 0.609430 0.596643
0.000000 0.835416 0.581567
0.000000 0.833860 0.583124
0.520195 0.820920 0.586267
0.798337 0.805692 0.589227
0.989715 0.792355 0.586755
0.000000 1.000000 0.508690
0.000000 1.000000 0.508904
0.502403 0.996796 0.521416
0.763790 0.983429 0.549401
0.957122 0.973358 0.541436
0.000000 0.000000 0.857237
0.224094 0.000000 0.856168
0.491951 0.000000 0.851438
0.756893 0.000000 0.844053
1.000000 0.000000 0.834714
0.000000 0.111299 0.855314
0.142947 0.100587 0.852354
0.479927 0.084962 0.846067
0.754452 0.144411 0.840665
1.000000 0.229007 0.832151
0.000000 0.480842 0.842771
0.207492 0.493355 0.840238
0.531853 0.526604 0.837247
0.767514 0.536645 0.833066
1.000000 0.544305 0.814725
0.000000 0.748531 0.831907
0.229068 0.751888 0.831418
0.547265 0.763760 0.827115
0.791531 0.784451 0.820493
0.983764 0.795926 0.791958
0.000000 1.000000 0.815702
0.201877 1.000000 0.811307
0.518120 0.992584 0.791135
0.772152 0.980621 0.759426
0.965576 0.969024 0.778195
0.000000 0.000000 1.000000
0.000000 0.000000 1.000000
0.391760 0.000000 1.000000
0.640101 0.000000 1.000000
0.866117 0.136294 1.000000
0.000000 0.116884 1.000000
0.000000 0.122286 1.000000
0.402472 0.151034 1.000000
0.650507 0.220829 1.000000
0.871336 0.308568 1.000000
0.324254 0.521508 1.000000
0.349401 0.506676 1.000000
0.508293 0.512169 1.000000
0.700526 0.528862 1.000000
0.889067 0.551537 1.000000
0.340612 0.700252 1.000000
0.422400 0.710231 1.000000
0.597345 0.736965 1.000000
0.766140 0.760922 1.000000
0.916350 0.769436 1.000000
0.344396 0.884367 1.000000
0.415930 0.887938 1.000000
0.587457 0.900450 1.000000
0.781216 0.923552 1.000000
0.957671 0.961181 1.000000
