其他预设/【232】美食博客调色预设124款/1.3D LUT预设（视频调色-PR-AE-PS-FCPX-达芬奇用）/0 His Way Of Eating Jellybeans.cube
# Created by Adobe Lightroom plugin Export LUT (1.17.0)
# www.johnrellis.com/lightroom/exportlut.htm
# Preset: 0 His Way Of Eating Jellybeans
# Color profile: /Library/Application Support/Adobe/Color/Profiles/Recommended/AdobeRGB1998.icc
LUT_3D_SIZE 32
0.000000 0.000000 0.000000
0.000000 0.000000 0.000000
0.000000 0.000000 0.000000
0.000000 0.000000 0.000000
0.013581 0.000000 0.000000
0.065583 0.000000 0.000000
0.121553 0.000000 0.000000
0.182254 0.000000 0.000000
0.243870 0.000000 0.000000
0.306645 0.000000 0.000000
0.370336 0.000000 0.000000
0.433448 0.000000 0.000000
0.495125 0.000000 0.000000
0.551781 0.000000 0.000000
0.603235 0.000000 0.000000
0.650416 0.000000 0.000000
0.692866 0.000000 0.000000
0.730709 0.000000 0.000000
0.764706 0.000000 0.000000
0.796872 0.000000 0.000000
0.827665 0.000000 0.000000
0.857359 0.000000 0.000000
0.885924 0.000000 0.000000
0.913512 0.000000 0.000000
0.940002 0.000000 0.000000
0.965911 0.000000 0.000000
0.990814 0.000000 0.000000
1.000000 0.000000 0.000000
1.000000 0.000000 0.000000
1.000000 0.000000 0.000000
1.000000 0.000000 0.000000
1.000000 0.000000 0.000000
0.000000 0.000000 0.000000
0.000000 0.000000 0.000000
0.000000 0.000000 0.000000
0.000000 0.000000 0.000000
0.013581 0.000000 0.000000
0.063478 0.000000 0.000000
0.118624 0.000000 0.000000
0.179690 0.000000 0.000000
0.242344 0.000000 0.000000
0.305241 0.000000 0.000000
0.369024 0.000000 0.000000
0.432258 0.000000 0.000000
0.493843 0.000000 0.000000
0.550378 0.000000 0.000000
0.601953 0.000000 0.000000
0.649348 0.000000 0.000000
0.691798 0.000000 0.000000
0.729824 0.000000 0.000000
0.763790 0.000000 0.000000
0.795956 0.000000 0.000000
0.826841 0.000000 0.000000
0.856565 0.000000 0.000000
0.885191 0.000000 0.000000
0.912871 0.000000 0.000000
0.939422 0.000000 0.000000
0.965393 0.000000 0.000000
0.990356 0.000000 0.000000
1.000000 0.000000 0.000000
1.000000 0.000000 0.000000
1.000000 0.000000 0.000000
1.000000 0.000000 0.000000
1.000000 0.000000 0.000000
0.000000 0.000000 0.000000
0.000000 0.000000 0.000000
0.000000 0.000000 0.000000
0.000000 0.000000 0.000000
0.013581 0.000000 0.000000
0.062928 0.000000 0.000000
0.117098 0.000000 0.000000
0.178073 0.000000 0.000000
0.241001 0.000000 0.000000
0.303807 0.000000 0.000000
0.367407 0.000000 0.000000
0.430701 0.000000 0.000000
0.492287 0.000000 0.000000
0.548760 0.000000 0.000000
0.600397 0.000000 0.000000
0.648005 0.000000 0.000000
0.690669 0.000000 0.000000
0.728542 0.000000 0.000000
0.762661 0.000000 0.000000
0.794827 0.000000 0.000000
0.825803 0.000000 0.000000
0.855619 0.000000 0.000000
0.884367 0.000000 0.000000
0.912047 0.000000 0.000000
0.938689 0.000000 0.000000
0.964721 0.000000 0.000000
0.989776 0.000000 0.000000
1.000000 0.000000 0.000000
1.000000 0.000000 0.000000
1.000000 0.000000 0.000000
1.000000 0.000000 0.000000
1.000000 0.000000 0.000000
0.000000 0.001190 0.000000
0.000000 0.001190 0.000000
0.000000 0.001190 0.000000
0.001038 0.002197 0.000000
0.013062 0.001373 0.000000
0.061463 0.000000 0.000000
0.115389 0.000000 0.000000
0.175875 0.000000 0.000000
0.238804 0.000000 0.000000
0.301854 0.000000 0.000000
0.365362 0.000000 0.000000
0.428626 0.000000 0.000000
0.490028 0.000000 0.000000
0.546654 0.000000 0.000000
0.598718 0.000000 0.000000
0.646509 0.000000 0.000000
0.689509 0.000000 0.000000
0.727810 0.000000 0.000000
0.762051 0.000000 0.000000
0.794400 0.000000 0.000000
0.825589 0.000000 0.000000
0.855467 0.000000 0.000000
0.884306 0.000000 0.000000
0.912078 0.000000 0.000000
0.938811 0.000000 0.000000
0.964996 0.000000 0.000000
0.990112 0.000000 0.000000
1.000000 0.000000 0.000000
1.000000 0.000000 0.000000
1.000000 0.000000 0.000000
1.000000 0.000000 0.000000
1.000000 0.000000 0.000000
0.000000 0.018036 0.000000
0.000000 0.019257 0.000000
0.000000 0.020447 0.000000
0.000000 0.023835 0.000000
0.011994 0.028595 0.000000
0.060090 0.030243 0.000000
0.113222 0.035004 0.000000
0.172763 0.023163 0.000000
0.235203 0.000000 0.000000
0.297673 0.000000 0.000000
0.361120 0.000000 0.000000
0.424353 0.000000 0.000000
0.485206 0.000000 0.000000
0.542077 0.000000 0.000000
0.594659 0.000000 0.000000
0.642939 0.000000 0.000000
0.686336 0.000000 0.000000
0.724849 0.000000 0.000000
0.759457 0.000000 0.000000
0.792142 0.000000 0.000000
0.823667 0.000000 0.000000
0.853788 0.000000 0.000000
0.882780 0.000000 0.000000
0.910674 0.000000 0.000000
0.937530 0.000000 0.000000
0.963836 0.000000 0.000000
0.989075 0.000000 0.000000
1.000000 0.000000 0.000000
1.000000 0.000000 0.000000
1.000000 0.000000 0.000000
1.000000 0.000000 0.000000
1.000000 0.000000 0.000000
0.000000 0.072084 0.000000
0.000000 0.074067 0.000000
0.000000 0.076356 0.000000
0.000000 0.080995 0.000000
0.005097 0.086213 0.000000
0.066651 0.089357 0.000000
0.110536 0.092988 0.000000
0.169711 0.106172 0.000000
0.231998 0.114931 0.000000
0.294591 0.120455 0.000000
0.357733 0.124910 0.000000
0.420661 0.127687 0.000000
0.481453 0.129305 0.000000
0.538903 0.127596 0.000000
0.591608 0.123751 0.000000
0.640345 0.117433 0.000000
0.684047 0.106844 0.000000
0.723140 0.092226 0.000000
0.758480 0.068299 0.000000
0.791897 0.002777 0.000000
0.823941 0.000000 0.000000
0.855528 0.000000 0.000000
0.887114 0.000000 0.000000
0.915129 0.000000 0.000000
0.942016 0.000000 0.000000
0.967834 0.000000 0.000000
0.992645 0.000000 0.000000
1.000000 0.000000 0.000000
1.000000 0.000000 0.000000
1.000000 0.000000 0.000000
1.000000 0.000000 0.000000
1.000000 0.000000 0.000000
0.000000 0.136629 0.000000
0.000000 0.135317 0.000000
0.000000 0.134737 0.000000
0.000000 0.135958 0.000000
0.000000 0.137881 0.000000
0.065827 0.140200 0.000000
0.116152 0.141573 0.000000
0.157321 0.142733 0.000000
0.216922 0.158297 0.000000
0.277379 0.170047 0.000000
0.338628 0.178836 0.000000
0.400000 0.185611 0.000000
0.460121 0.189914 0.000000
0.517632 0.191440 0.000000
0.571313 0.190066 0.000000
0.622126 0.187472 0.000000
0.667750 0.181643 0.000000
0.708034 0.173587 0.000000
0.744320 0.162051 0.000000
0.780697 0.149050 0.000000
0.814969 0.133089 0.000000
0.847379 0.115358 0.000000
0.878111 0.095491 0.000000
0.908171 0.073396 0.000000
0.936797 0.035401 0.000000
0.964111 0.000000 0.000000
0.990173 0.000000 0.000000
1.000000 0.000000 0.000000
1.000000 0.000000 0.000000
1.000000 0.000000 0.000000
1.000000 0.000000 0.000000
1.000000 0.043397 0.000000
0.000000 0.201389 0.000000
0.000000 0.200443 0.000000
0.000000 0.199710 0.000000
0.000000 0.199863 0.000000
0.000000 0.201083 0.000000
0.064973 0.202396 0.000000
0.128634 0.203037 0.000000
0.176638 0.204410 0.000000
0.216587 0.202823 0.000000
0.276768 0.218448 0.000000
0.337682 0.230472 0.000000
0.399084 0.239780 0.000000
0.458991 0.245975 0.000000
0.516442 0.249119 0.000000
0.570062 0.248997 0.000000
0.620752 0.247074 0.000000
0.666011 0.241917 0.000000
0.706447 0.234073 0.000000
0.742824 0.225071 0.000000
0.779232 0.214359 0.000000
0.813535 0.202945 0.000000
0.845945 0.191409 0.000000
0.876829 0.180636 0.000000
0.906889 0.169955 0.000000
0.935546 0.160433 0.000000
0.962829 0.152529 0.000000
0.988830 0.146242 0.000000
1.000000 0.141604 0.000000
1.000000 0.139986 0.000000
1.000000 0.141268 0.000000
1.000000 0.144778 0.000000
1.000000 0.150454 0.000000
0.000000 0.267185 0.000000
0.000000 0.265934 0.000000
0.000000 0.265293 0.000000
0.000000 0.264805 0.000000
0.000000 0.265476 0.000000
0.060151 0.265629 0.000000
0.136751 0.265934 0.000000
0.190066 0.266117 0.000000
0.237034 0.266453 0.000000
0.277440 0.263554 0.000000
0.336828 0.277104 0.000000
0.397986 0.288304 0.000000
0.457954 0.296361 0.000000
0.515251 0.300603 0.000000
0.568505 0.301305 0.000000
0.618738 0.299809 0.000000
0.664057 0.294987 0.000000
0.704494 0.288151 0.000000
0.740993 0.278813 0.000000
0.777554 0.269535 0.000000
0.811887 0.260319 0.000000
0.844511 0.250828 0.000000
0.875517 0.241611 0.000000
0.905577 0.233494 0.000000
0.934234 0.225925 0.000000
0.961486 0.219272 0.000000
0.987518 0.214298 0.000000
1.000000 0.210117 0.000000
1.000000 0.208042 0.000000
1.000000 0.207126 0.000000
1.000000 0.207858 0.000000
1.000000 0.210300 0.018647
0.000000 0.332433 0.000000
0.000000 0.331426 0.000000
0.000000 0.330816 0.000000
0.000000 0.330022 0.000000
0.000000 0.330114 0.000000
0.034119 0.329900 0.000000
0.141787 0.329381 0.000000
0.200778 0.329564 0.000000
0.251987 0.329931 0.000000
0.300053 0.330419 0.000000
0.344305 0.328832 0.000000
0.401068 0.337713 0.000000
0.460822 0.346715 0.000000
0.517693 0.351629 0.000000
0.570611 0.352575 0.000000
0.620661 0.350896 0.000000
0.665614 0.346349 0.000000
0.705959 0.338994 0.000000
0.742458 0.330175 0.000000
0.778836 0.321843 0.000000
0.813199 0.312963 0.000000
0.845853 0.304570 0.000000
0.876951 0.296574 0.000000
0.906706 0.289036 0.000000
0.935088 0.282200 0.000000
0.962158 0.276158 0.000000
0.987976 0.270909 0.000000
1.000000 0.266789 0.000000
1.000000 0.263767 0.000000
1.000000 0.262089 0.000000
1.000000 0.261326 0.000000
1.000000 0.261631 0.053162
0.000000 0.392798 0.000000
0.000000 0.392126 0.000000
0.000000 0.391791 0.000000
0.000000 0.391333 0.000000
0.000000 0.390814 0.000000
0.000000 0.390356 0.000000
0.138735 0.389837 0.000000
0.203922 0.389471 0.000000
0.259068 0.389624 0.000000
0.310124 0.390021 0.000000
0.359319 0.390173 0.000000
0.406531 0.389075 0.000000
0.459327 0.393042 0.000000
0.516014 0.398566 0.000000
0.568658 0.399908 0.000000
0.618372 0.398718 0.000000
0.663264 0.393866 0.000000
0.703517 0.386755 0.000000
0.740169 0.378119 0.000000
0.776547 0.370245 0.000000
0.811063 0.362036 0.000000
0.843809 0.354192 0.000000
0.875029 0.346258 0.000000
0.904753 0.339117 0.000000
0.933104 0.332311 0.000000
0.960174 0.326299 0.000000
0.986053 0.320897 0.000000
1.000000 0.316442 0.000000
1.000000 0.312810 0.000000
1.000000 0.310124 0.000000
1.000000 0.308232 0.000000
1.000000 0.307317 0.065034
0.000000 0.453346 0.000000
0.000000 0.452705 0.000000
0.000000 0.452338 0.000000
0.000000 0.452003 0.000000
0.000000 0.451240 0.000000
0.000000 0.450355 0.000000
0.127382 0.449836 0.000000
0.202060 0.449744 0.000000
0.261784 0.449683 0.000000
0.316594 0.449805 0.000000
0.368475 0.449958 0.000000
0.419989 0.450752 0.000000
0.481910 0.460945 0.000000
0.531548 0.459449 0.000000
0.583917 0.459724 0.000000
0.631800 0.456153 0.000000
0.674830 0.449683 0.000000
0.714137 0.441688 0.000000
0.750240 0.432410 0.000000
0.784848 0.423346 0.000000
0.817838 0.414374 0.000000
0.849058 0.405768 0.000000
0.879088 0.397314 0.000000
0.907805 0.389502 0.000000
0.935393 0.382391 0.000000
0.961120 0.375433 0.000000
0.986267 0.369360 0.000000
1.000000 0.364172 0.000000
1.000000 0.360021 0.000000
1.000000 0.356176 0.000000
1.000000 0.353429 0.036347
1.000000 0.351232 0.079652
0.000000 0.497536 0.000000
0.000000 0.496498 0.000000
0.000000 0.495399 0.000000
0.000000 0.495430 0.000000
0.000000 0.494240 0.000000
0.000000 0.494423 0.000000
0.094789 0.494575 0.000000
0.185153 0.494606 0.000000
0.250065 0.494484 0.000000
0.308751 0.496895 0.000000
0.364233 0.498878 0.000000
0.418311 0.500664 0.000000
0.471412 0.502159 0.000000
0.524346 0.503227 0.000000
0.573205 0.500786 0.000000
0.623590 0.499886 0.000000
0.668849 0.494972 0.000000
0.708888 0.487251 0.000000
0.745876 0.478462 0.000000
0.780911 0.469520 0.000000
0.814206 0.460639 0.000000
0.845701 0.451606 0.000000
0.875822 0.443275 0.000000
0.904692 0.435248 0.000000
0.932372 0.427863 0.000000
0.958526 0.420691 0.000000
0.983886 0.414405 0.000000
1.000000 0.408911 0.000000
1.000000 0.403937 0.000000
1.000000 0.399573 0.000000
1.000000 0.395880 0.062501
1.000000 0.392981 0.089845
0.000000 0.552026 0.000000
0.000000 0.550713 0.000000
0.000000 0.549676 0.000000
0.000000 0.549645 0.000000
0.000000 0.548333 0.000000
0.000000 0.548028 0.000000
0.000000 0.547601 0.000000
0.164523 0.547143 0.000000
0.238102 0.546563 0.000000
0.300603 0.548058 0.000000
0.358526 0.549310 0.000000
0.413977 0.550469 0.000000
0.467811 0.550896 0.000000
0.520806 0.551354 0.000000
0.573236 0.551293 0.000000
0.619837 0.546777 0.000000
0.665034 0.541558 0.000000
0.705440 0.533776 0.000000
0.742336 0.524437 0.000000
0.777249 0.514946 0.000000
0.810513 0.505760 0.000000
0.842008 0.496590 0.000000
0.872190 0.487892 0.000000
0.901183 0.479683 0.000000
0.929137 0.471992 0.000000
0.955535 0.464515 0.000000
0.981018 0.457801 0.000000
1.000000 0.451728 0.000000
1.000000 0.446326 0.000000
1.000000 0.441260 0.032074
1.000000 0.437049 0.076967
1.000000 0.433356 0.099336
0.000000 0.600397 0.000000
0.000000 0.599207 0.000000
0.000000 0.598108 0.000000
0.000000 0.597711 0.000000
0.000000 0.597131 0.000000
0.000000 0.596582 0.000000
0.000000 0.595850 0.000000
0.130098 0.594965 0.000000
0.218814 0.593988 0.000000
0.286870 0.594965 0.000000
0.347601 0.595514 0.000000
0.404517 0.595789 0.000000
0.459144 0.595636 0.000000
0.512657 0.595514 0.000000
0.564874 0.594965 0.000000
0.616052 0.594171 0.000000
0.661494 0.588678 0.000000
0.701717 0.580041 0.000000
0.738857 0.570214 0.000000
0.773861 0.560204 0.000000
0.806912 0.550347 0.000000
0.838468 0.540856 0.000000
0.868650 0.531762 0.000000
0.897795 0.523369 0.000000
0.925994 0.515251 0.000000
0.952667 0.507591 0.000000
0.978424 0.500511 0.000000
1.000000 0.494087 0.000000
1.000000 0.488228 0.015686
1.000000 0.482948 0.069062
1.000000 0.478370 0.094820
1.000000 0.474189 0.114961
0.000000 0.646265 0.000000
0.000000 0.645441 0.000000
0.000000 0.644648 0.000000
0.000000 0.644526 0.000000
0.000000 0.644373 0.000000
0.000000 0.643732 0.000000
0.000000 0.643000 0.000000
0.071443 0.642084 0.000000
0.194827 0.641077 0.000000
0.270756 0.641352 0.000000
0.335241 0.641321 0.000000
0.394202 0.641138 0.000000
0.449897 0.640650 0.000000
0.503838 0.639704 0.000000
0.555993 0.638483 0.000000
0.606989 0.636927 0.000000
0.656580 0.635035 0.000000
0.700465 0.628748 0.000000
0.737179 0.617609 0.000000
0.771969 0.606653 0.000000
0.804837 0.595819 0.000000
0.836088 0.585412 0.000000
0.866239 0.575708 0.000000
0.895262 0.566552 0.000000
0.923064 0.558099 0.000000
0.949676 0.550011 0.000000
0.975402 0.542321 0.000000
1.000000 0.535271 0.000000
1.000000 0.528710 0.058076
1.000000 0.523125 0.085573
1.000000 0.517876 0.106294
1.000000 0.512963 0.123049
0.000000 0.683772 0.000000
0.000000 0.683040 0.000000
0.000000 0.682429 0.000000
0.000000 0.682307 0.000000
0.000000 0.682460 0.000000
0.000000 0.681788 0.000000
0.000000 0.680934 0.000000
0.000000 0.679896 0.000000
0.162722 0.678645 0.000000
0.248569 0.678645 0.000000
0.316930 0.678431 0.000000
0.377630 0.677943 0.000000
0.434455 0.677150 0.000000
0.488563 0.675868 0.000000
0.540826 0.674464 0.000000
0.591394 0.672602 0.000000
0.640681 0.670527 0.000000
0.688045 0.667597 0.000000
0.731960 0.662440 0.000000
0.767422 0.651148 0.000000
0.800626 0.639765 0.000000
0.832517 0.628901 0.000000
0.862730 0.618463 0.000000
0.891630 0.608789 0.000000
0.919493 0.599603 0.000000
0.946105 0.590997 0.000000
0.971862 0.583001 0.000000
0.996735 0.575525 0.036652
1.000000 0.568811 0.078706
1.000000 0.562615 0.100008
1.000000 0.556817 0.116091
1.000000 0.551080 0.130678
0.000000 0.719234 0.000000
0.000000 0.719387 0.000000
0.000000 0.717922 0.000000
0.000000 0.718685 0.000000
0.000000 0.719844 0.000000
0.000000 0.719814 0.000000
0.000000 0.719326 0.000000
0.000000 0.719173 0.000000
0.123049 0.718868 0.000000
0.226230 0.718288 0.000000
0.299596 0.717464 0.000000
0.362463 0.716121 0.000000
0.420142 0.714656 0.000000
0.474708 0.712917 0.000000
0.526909 0.711025 0.000000
0.576684 0.708064 0.000000
0.625025 0.705043 0.000000
0.672023 0.701900 0.000000
0.717830 0.698726 0.000000
0.761288 0.694179 0.000000
0.796201 0.683589 0.000000
0.827878 0.671778 0.000000
0.858305 0.660487 0.000000
0.887083 0.649805 0.000000
0.914733 0.639826 0.000000
0.941466 0.630640 0.000000
0.967376 0.622126 0.000000
0.992645 0.614527 0.051148
1.000000 0.607385 0.085939
1.000000 0.600580 0.105379
1.000000 0.593927 0.119570
1.000000 0.587579 0.132448
0.000000 0.744442 0.000000
0.000000 0.745083 0.000000
0.000000 0.745724 0.000000
0.000000 0.747005 0.000000
0.000000 0.748501 0.000000
0.000000 0.749294 0.000000
0.000000 0.749477 0.000000
0.000000 0.749477 0.000000
0.047883 0.749294 0.000000
0.198520 0.748898 0.000000
0.278264 0.748196 0.000000
0.343542 0.747036 0.000000
0.402502 0.745663 0.000000
0.457588 0.744076 0.000000
0.510094 0.742275 0.000000
0.559991 0.739559 0.000000
0.608270 0.736782 0.000000
0.655329 0.734005 0.000000
0.701167 0.731136 0.000000
0.745418 0.727840 0.000000
0.788418 0.724117 0.000000
0.823758 0.714839 0.000000
0.854368 0.703029 0.000000
0.883513 0.691615 0.000000
0.911528 0.680934 0.000000
0.938384 0.671229 0.000000
0.964569 0.662287 0.000000
0.989868 0.654017 0.063752
1.000000 0.646387 0.093782
1.000000 0.639063 0.113588
1.000000 0.632166 0.128939
1.000000 0.625269 0.141085
0.000000 0.775875 0.000000
0.000000 0.776303 0.000000
0.000000 0.776852 0.000000
0.000000 0.777798 0.000000
0.000000 0.778988 0.000000
0.000000 0.779629 0.000000
0.000000 0.779629 0.000000
0.000000 0.779477 0.000000
0.000000 0.779141 0.000000
0.168856 0.778561 0.000000
0.256596 0.777798 0.000000
0.324865 0.776608 0.000000
0.385168 0.775235 0.000000
0.440803 0.773709 0.000000
0.493507 0.772000 0.000000
0.543694 0.769650 0.000000
0.591943 0.767208 0.000000
0.638788 0.764584 0.000000
0.684443 0.761776 0.000000
0.728511 0.758633 0.000000
0.771420 0.755306 0.000000
0.813596 0.752285 0.000000
0.849607 0.744747 0.000000
0.879057 0.732784 0.000000
0.907561 0.721706 0.000000
0.934997 0.711238 0.000000
0.961212 0.701686 0.000000
0.986572 0.692927 0.063661
1.000000 0.684657 0.095247
1.000000 0.676783 0.115480
1.000000 0.669368 0.131594
1.000000 0.662165 0.145418
0.000000 0.805722 0.000000
0.000000 0.806088 0.000000
0.000000 0.806516 0.000000
0.000000 0.807279 0.000000
0.000000 0.808133 0.000000
0.000000 0.808713 0.000000
0.000000 0.808682 0.000000
0.000000 0.808347 0.000000
0.000000 0.807858 0.000000
0.136538 0.807156 0.000000
0.235325 0.806394 0.000000
0.306920 0.805356 0.000000
0.368688 0.804166 0.000000
0.425086 0.802670 0.000000
0.477882 0.801083 0.000000
0.528191 0.799069 0.000000
0.576776 0.796872 0.000000
0.623560 0.794614 0.000000
0.669123 0.792172 0.000000
0.713313 0.789578 0.000000
0.756497 0.786862 0.000000
0.798459 0.784085 0.000000
0.840269 0.781918 0.000000
0.877562 0.776547 0.000000
0.906340 0.764950 0.000000
0.933989 0.754086 0.000000
0.960601 0.743771 0.009094
0.986053 0.734188 0.079805
1.000000 0.725246 0.108583
1.000000 0.717037 0.129397
1.000000 0.709102 0.146029
1.000000 0.701198 0.158999
0.000000 0.838285 0.000000
0.000000 0.838743 0.000000
0.000000 0.839200 0.000000
0.000000 0.839750 0.000000
0.000000 0.840330 0.000000
0.000000 0.840696 0.000000
0.000000 0.840421 0.000000
0.000000 0.839719 0.000000
0.000000 0.838865 0.000000
0.102174 0.837827 0.000000
0.217014 0.836728 0.000000
0.291997 0.835264 0.000000
0.354620 0.833677 0.000000
0.411170 0.831907 0.000000
0.463844 0.830014 0.000000
0.514000 0.827878 0.000000
0.562005 0.825559 0.000000
0.608576 0.823117 0.000000
0.653468 0.820584 0.000000
0.697444 0.817990 0.000000
0.740352 0.815579 0.000000
0.782223 0.813046 0.000000
0.823026 0.810452 0.000000
0.863279 0.808164 0.000000
0.901610 0.804990 0.000000
0.929442 0.793454 0.000000
0.956176 0.782589 0.050111
0.982055 0.772427 0.081361
1.000000 0.763058 0.104463
1.000000 0.754269 0.127565
1.000000 0.745663 0.144320
1.000000 0.737026 0.157504
0.000000 0.865507 0.000000
0.000000 0.865904 0.000000
0.000000 0.866331 0.000000
0.000000 0.866728 0.000000
0.000000 0.867155 0.000000
0.000000 0.867369 0.000000
0.000000 0.867124 0.000000
0.000000 0.866361 0.000000
0.000000 0.865507 0.000000
0.037079 0.864408 0.000000
0.198001 0.863279 0.000000
0.275944 0.861875 0.000000
0.339940 0.860288 0.000000
0.397101 0.858549 0.000000
0.449866 0.856657 0.000000
0.499916 0.854612 0.000000
0.547662 0.852415 0.000000
0.593835 0.850126 0.000000
0.638727 0.847837 0.000000
0.682551 0.845731 0.000000
0.725185 0.843442 0.000000
0.766690 0.840970 0.000000
0.807065 0.838437 0.000000
0.846464 0.835752 0.000000
0.882780 0.830869 0.000000
0.922393 0.830167 0.000000
0.949859 0.819303 0.057099
0.976318 0.809018 0.082490
1.000000 0.799191 0.100801
1.000000 0.789853 0.116152
1.000000 0.780941 0.135531
1.000000 0.772030 0.151186
0.000000 0.891997 0.000000
0.000000 0.892424 0.000000
0.000000 0.892851 0.000000
0.000000 0.893339 0.000000
0.000000 0.893828 0.000000
0.000000 0.893675 0.000000
0.000000 0.893126 0.000000
0.000000 0.892363 0.000000
0.000000 0.891600 0.000000
0.000000 0.890318 0.000000
0.179599 0.888914 0.000000
0.261570 0.887449 0.000000
0.326757 0.885863 0.000000
0.383886 0.884001 0.000000
0.436561 0.882109 0.000000
0.486427 0.880095 0.000000
0.533928 0.878050 0.000000
0.579889 0.875914 0.000000
0.624262 0.873686 0.000000
0.667414 0.871305 0.000000
0.709316 0.868833 0.000000
0.750301 0.866361 0.000000
0.790280 0.863737 0.000000
0.829129 0.860990 0.024231
0.867094 0.858335 0.060548
0.904692 0.856077 0.075166
0.945800 0.858091 0.075288
0.972259 0.847044 0.093935
0.997559 0.836515 0.107729
1.000000 0.826658 0.120607
1.000000 0.817166 0.132265
1.000000 0.807736 0.146914
0.000000 0.916960 0.000000
0.000000 0.917357 0.000000
0.000000 0.917754 0.000000
0.000000 0.918212 0.000000
0.000000 0.918608 0.000000
0.000000 0.918425 0.000000
0.000000 0.917906 0.000000
0.000000 0.917266 0.000000
0.000000 0.916564 0.000000
0.000000 0.915373 0.000000
0.163394 0.914183 0.000000
0.249638 0.912840 0.000000
0.315557 0.911406 0.000000
0.372961 0.909789 0.000000
0.425605 0.908019 0.000000
0.475074 0.906157 0.000000
0.522393 0.904143 0.000000
0.567926 0.902098 0.000000
0.611841 0.899962 0.000000
0.654536 0.897673 0.000000
0.696132 0.895262 0.015167
0.736751 0.892851 0.047364
0.776455 0.890532 0.066468
0.815152 0.888121 0.079683
0.852873 0.885557 0.090333
0.889738 0.883055 0.100252
0.925628 0.880400 0.108492
0.966430 0.883268 0.104891
0.993561 0.873869 0.114809
1.000000 0.863828 0.127443
1.000000 0.853849 0.138186
1.000000 0.843626 0.146487
0.000000 0.941680 0.000000
0.000000 0.941985 0.000000
0.000000 0.942290 0.000000
0.000000 0.942565 0.000000
0.000000 0.942840 0.000000
0.000000 0.942565 0.000000
0.000000 0.942077 0.000000
0.000000 0.941497 0.000000
0.000000 0.940795 0.000000
0.000000 0.939757 0.000000
0.149935 0.938537 0.000000
0.238895 0.937255 0.000000
0.305333 0.935851 0.000000
0.362982 0.934295 0.000000
0.415320 0.932616 0.000000
0.464515 0.930816 0.000000
0.511284 0.928893 0.000000
0.556329 0.926940 0.018494
0.599908 0.924895 0.040742
0.642237 0.922789 0.060090
0.683558 0.920653 0.071809
0.723812 0.918486 0.082918
0.763058 0.916197 0.091829
0.801358 0.913756 0.099825
0.838560 0.911223 0.106661
0.875029 0.908659 0.113313
0.910613 0.906096 0.120241
0.945556 0.903746 0.127352
0.985595 0.907103 0.122866
1.000000 0.900145 0.129305
1.000000 0.889555 0.137881
1.000000 0.878843 0.145174
0.000000 0.965667 0.000000
0.000000 0.965911 0.000000
0.000000 0.966186 0.000000
0.000000 0.966430 0.000000
0.000000 0.966644 0.000000
0.000000 0.966522 0.000000
0.000000 0.966278 0.000000
0.000000 0.965911 0.000000
0.000000 0.965484 0.000000
0.000000 0.964843 0.008911
0.143648 0.964050 0.026734
0.233829 0.963165 0.042725
0.300328 0.962158 0.059297
0.357305 0.960845 0.066163
0.409400 0.959319 0.072419
0.457954 0.957733 0.078798
0.504479 0.956146 0.086213
0.549248 0.954498 0.093629
0.592432 0.952728 0.100313
0.634363 0.950835 0.106569
0.675105 0.948821 0.112978
0.715053 0.946807 0.119112
0.753902 0.944610 0.125063
0.791714 0.942290 0.130037
0.828672 0.939818 0.135286
0.865049 0.937713 0.141817
0.900511 0.935485 0.147158
0.935119 0.933104 0.152773
0.968780 0.930602 0.157137
1.000000 0.934234 0.153811
1.000000 0.929473 0.158846
1.000000 0.918364 0.168246
0.000000 0.992218 0.067353
0.000000 0.992126 0.066712
0.000000 0.992035 0.065980
0.000000 0.991882 0.065034
0.000000 0.991638 0.067323
0.000000 0.991119 0.067964
0.000000 0.990570 0.069886
0.000000 0.989868 0.070832
0.000000 0.989105 0.072511
0.000000 0.988251 0.077058
0.137728 0.987243 0.079500
0.227695 0.986236 0.083040
0.293828 0.985077 0.087037
0.350286 0.983856 0.091707
0.401617 0.982483 0.095918
