其他预设/【232】美食博客调色预设124款/1.3D LUT预设（视频调色-PR-AE-PS-FCPX-达芬奇用）/0 His Way Of Eating Jellybeans.cube
# Created by Adobe Lightroom plugin Export LUT (1.17.0)
# www.johnrellis.com/lightroom/exportlut.htm
# Preset: 0 His Way Of Eating Jellybeans
# Color profile: /Library/Application Support/Adobe/Color/Profiles/Recommended/AdobeRGB1998.icc
LUT_3D_SIZE 8
DOMAIN_MIN 0.000000 0.000000 0.000000
DOMAIN_MAX 0.903226 0.903226 0.903226
0.000000 0.000000 0.000000
0.013581 0.000000 0.000000
0.243870 0.000000 0.000000
0.495125 0.000000 0.000000
0.692866 0.000000 0.000000
0.827665 0.000000 0.000000
0.940002 0.000000 0.000000
1.000000 0.000000 0.000000
0.000000 0.018036 0.000000
0.011994 0.028595 0.000000
0.235203 0.000000 0.000000
0.485206 0.000000 0.000000
0.686336 0.000000 0.000000
0.823667 0.000000 0.000000
0.937530 0.000000 0.000000
1.000000 0.000000 0.000000
0.000000 0.267185 0.000000
0.000000 0.265476 0.000000
0.237034 0.266453 0.000000
0.457954 0.296361 0.000000
0.664057 0.294987 0.000000
0.811887 0.260319 0.000000
0.934234 0.225925 0.000000
1.000000 0.208042 0.000000
0.000000 0.497536 0.000000
0.000000 0.494240 0.000000
0.250065 0.494484 0.000000
0.471412 0.502159 0.000000
0.668849 0.494972 0.000000
0.814206 0.460639 0.000000
0.932372 0.427863 0.000000
1.000000 0.403937 0.000000
0.000000 0.683772 0.000000
0.000000 0.682460 0.000000
0.162722 0.678645 0.000000
0.434455 0.677150 0.000000
0.640681 0.670527 0.000000
0.800626 0.639765 0.000000
0.919493 0.599603 0.000000
1.000000 0.568811 0.078706
0.000000 0.805722 0.000000
0.000000 0.808133 0.000000
0.000000 0.807858 0.000000
0.368688 0.804166 0.000000
0.576776 0.796872 0.000000
0.756497 0.786862 0.000000
0.906340 0.764950 0.000000
1.000000 0.725246 0.108583
0.000000 0.916960 0.000000
0.000000 0.918608 0.000000
0.000000 0.916564 0.000000
0.315557 0.911406 0.000000
0.522393 0.904143 0.000000
0.696132 0.895262 0.015167
0.852873 0.885557 0.090333
0.993561 0.873869 0.114809
0.000000 1.000000 0.080964
0.000000 1.000000 0.090303
0.000000 1.000000 0.095094
0.288792 1.000000 0.105592
0.486854 1.000000 0.115297
0.653132 0.994751 0.132540
0.803250 0.986755 0.150271
0.940490 0.977966 0.166476
0.000000 0.000000 0.110567
0.005127 0.000000 0.102510
0.223270 0.000000 0.146670
0.476387 0.000000 0.181765
0.683314 0.000000 0.087495
0.820554 0.000000 0.096773
0.934478 0.000000 0.122957
1.000000 0.000000 0.155612
0.000000 0.027192 0.093904
0.000000 0.020905 0.100465
0.228519 0.000000 0.134279
0.479591 0.000000 0.093477
0.681025 0.000000 0.085542
0.818723 0.000000 0.098238
0.933165 0.000000 0.125826
1.000000 0.000000 0.158968
0.000000 0.249332 0.159945
0.000000 0.258701 0.161624
0.228580 0.266636 0.082582
0.465827 0.271977 0.084443
0.667597 0.249790 0.078065
0.810758 0.213718 0.104555
0.928466 0.190311 0.137270
1.000000 0.189181 0.170535
0.000000 0.494728 0.231052
0.000000 0.498756 0.193088
0.185763 0.504173 0.000000
0.463508 0.501915 0.000000
0.663447 0.481117 0.060304
0.805203 0.444709 0.133150
0.924315 0.416052 0.164584
1.000000 0.398657 0.192966
0.000000 0.678767 0.234653
0.000000 0.680568 0.192966
0.000000 0.681819 0.000000
0.412818 0.675166 0.021057
0.630793 0.664698 0.073304
0.794369 0.632136 0.116823
0.913024 0.593561 0.181338
1.000000 0.566705 0.213443
0.000000 0.803738 0.217166
0.000000 0.805295 0.188968
0.000000 0.806058 0.110384
0.350072 0.801541 0.123781
0.568231 0.794186 0.141421
0.752163 0.784298 0.159884
0.902678 0.761776 0.182132
1.000000 0.723354 0.218051
0.000000 0.916228 0.201541
0.000000 0.917296 0.190341
0.000000 0.916197 0.174990
0.310307 0.911345 0.180117
0.521080 0.904265 0.187869
0.696132 0.895628 0.198062
0.853422 0.886259 0.210086
0.993408 0.874388 0.216831
0.000000 1.000000 0.187045
0.000000 1.000000 0.192813
0.000000 1.000000 0.206210
0.296269 1.000000 0.209628
0.491737 1.000000 0.214237
0.655970 0.994293 0.220676
0.804562 0.986175 0.226993
0.940703 0.977386 0.234134
0.000000 0.000000 0.436408
0.000000 0.000000 0.430640
0.287083 0.000000 0.423163
0.480354 0.000000 0.424628
0.678370 0.000000 0.423102
0.814755 0.000000 0.406897
0.928649 0.000000 0.389715
1.000000 0.000000 0.393286
0.000000 0.002075 0.423529
0.000000 0.000000 0.427131
0.268467 0.000000 0.424537
0.479377 0.000000 0.423926
0.676692 0.000000 0.419928
0.812833 0.000000 0.403326
0.926574 0.000000 0.391119
1.000000 0.000000 0.392737
0.000000 0.310338 0.420813
0.000000 0.297185 0.422675
0.150851 0.242161 0.422766
0.467933 0.221775 0.416327
0.664881 0.196231 0.406806
0.804196 0.203952 0.400336
0.920897 0.230838 0.397467
1.000000 0.261418 0.394171
0.000000 0.496651 0.414740
0.000000 0.499672 0.414588
0.000000 0.506249 0.412055
0.443946 0.500237 0.395850
0.655329 0.472908 0.406226
0.798276 0.448920 0.404211
0.916625 0.436927 0.401312
1.000000 0.434089 0.397803
0.000000 0.677546 0.406958
0.000000 0.679316 0.404028
0.000000 0.681514 0.394324
0.380804 0.676814 0.379156
0.625818 0.664393 0.378729
0.790311 0.628748 0.381689
0.905241 0.604181 0.400092
1.000000 0.585901 0.396460
0.000000 0.803098 0.383825
0.000000 0.804685 0.382208
0.000000 0.805173 0.375738
0.347723 0.801297 0.373449
0.569726 0.793210 0.374060
0.752651 0.783139 0.374945
0.899229 0.760769 0.375006
1.000000 0.731167 0.387121
0.000000 0.915587 0.359594
0.000000 0.916197 0.359014
0.000000 0.914672 0.359045
0.348455 0.909087 0.371069
0.539879 0.902281 0.370611
0.706111 0.894133 0.370489
0.856962 0.885527 0.370886
0.990906 0.873777 0.367254
0.000000 1.000000 0.324804
0.000000 1.000000 0.324468
0.000000 1.000000 0.341833
0.363561 1.000000 0.365179
0.526787 0.998535 0.364294
0.676661 0.992187 0.363958
0.815915 0.984771 0.363439
0.944915 0.976623 0.362310
0.000000 0.000000 0.590478
0.000000 0.000000 0.589929
0.330053 0.000000 0.585626
0.518456 0.000000 0.583795
0.687831 0.000000 0.568750
0.818570 0.000000 0.541558
0.929503 0.000000 0.518608
1.000000 0.000000 0.500084
0.000000 0.000000 0.587823
0.000000 0.000000 0.589990
0.302129 0.000000 0.586877
0.506554 0.000000 0.583551
0.686610 0.000000 0.569421
0.816373 0.000000 0.541070
0.926726 0.000000 0.518761
1.000000 0.000000 0.500725
0.000000 0.282017 0.586297
0.000000 0.259281 0.586511
0.174777 0.211673 0.583917
0.470222 0.181552 0.579553
0.674586 0.153628 0.566522
0.807065 0.215854 0.540703
0.919829 0.273350 0.523552
1.000000 0.339727 0.513695
0.000000 0.504387 0.572320
0.000000 0.497871 0.571649
0.000000 0.482277 0.572290
0.437110 0.469276 0.570397
0.665126 0.464576 0.566217
0.797421 0.481880 0.547906
0.910704 0.503258 0.541344
1.000000 0.530449 0.539452
0.000000 0.681392 0.550683
0.000000 0.681270 0.551324
0.000000 0.680140 0.553399
0.419074 0.672053 0.555230
0.636133 0.656184 0.548425
0.781216 0.645411 0.548852
0.898833 0.640711 0.542779
1.000000 0.637781 0.533745
0.000000 0.803037 0.513237
0.000000 0.803891 0.513756
0.000000 0.803037 0.515496
0.396368 0.797147 0.520684
0.609552 0.787167 0.528618
0.765133 0.780117 0.525933
0.896605 0.764096 0.518883
0.994354 0.755001 0.527489
0.000000 0.913878 0.481270
0.000000 0.914488 0.481819
0.000000 0.912383 0.483528
0.390021 0.905852 0.491096
0.597040 0.895995 0.510155
0.734585 0.889464 0.507103
0.866728 0.882719 0.503990
0.987762 0.872831 0.495216
0.000000 1.000000 0.445563
0.000000 1.000000 0.445502
0.000000 1.000000 0.445716
0.394720 1.000000 0.462348
0.591913 0.991547 0.490669
0.714961 0.986389 0.488167
0.835996 0.980346 0.484962
0.952270 0.973785 0.481025
0.000000 0.000000 0.713771
0.121706 0.000000 0.712612
0.313634 0.000000 0.709102
0.477272 0.000000 0.706569
0.646540 0.000000 0.702937
0.809323 0.000000 0.693599
0.927214 0.000000 0.654658
1.000000 0.000000 0.618494
0.000000 0.000000 0.708431
0.000000 0.000000 0.709773
0.283848 0.000000 0.707851
0.463325 0.000000 0.704067
0.639673 0.000000 0.700557
0.806455 0.000000 0.692775
0.925078 0.000000 0.653895
1.000000 0.000000 0.618189
0.000000 0.198550 0.710018
0.000000 0.200473 0.708614
0.199130 0.192111 0.704860
0.433692 0.176974 0.700862
0.624872 0.161685 0.696071
0.799466 0.168612 0.691249
0.920470 0.246983 0.654749
1.000000 0.309209 0.621271
0.000000 0.440162 0.699458
0.000000 0.435920 0.698238
0.153170 0.432563 0.697261
0.436713 0.444770 0.695705
0.624384 0.448707 0.692683
0.793637 0.452430 0.689937
0.914153 0.477699 0.657160
1.000000 0.492836 0.624872
0.000000 0.625818 0.688258
0.000000 0.624445 0.688228
0.130556 0.621759 0.687465
0.437934 0.624811 0.685756
0.629908 0.632563 0.681239
0.783810 0.630549 0.676936
0.899840 0.643641 0.654536
0.996399 0.664607 0.645869
0.000000 0.793057 0.674891
0.000000 0.793362 0.676051
0.109346 0.791623 0.677577
0.429114 0.788327 0.677852
0.620020 0.785306 0.671901
0.772427 0.774197 0.663478
0.889158 0.774502 0.660853
0.988952 0.776272 0.651820
0.000000 0.913146 0.630243
0.000000 0.913329 0.631159
0.153079 0.910460 0.631769
0.420294 0.904051 0.630365
0.600885 0.895872 0.624659
0.760555 0.885557 0.638148
0.876555 0.881102 0.633967
0.985595 0.873381 0.620783
0.000000 1.000000 0.580743
0.000000 1.000000 0.580743
0.171115 1.000000 0.580499
0.403296 1.000000 0.577203
0.589746 0.992218 0.581781
0.753292 0.982147 0.613519
0.857206 0.977264 0.608911
0.960784 0.972259 0.603967
0.000000 0.000000 0.830564
0.108309 0.000000 0.831327
0.275792 0.000000 0.829557
0.429389 0.000000 0.826383
0.584375 0.000000 0.822080
0.737728 0.000000 0.816495
0.896147 0.000000 0.822568
1.000000 0.000000 0.783688
0.000000 0.000000 0.825254
0.000000 0.000000 0.827024
0.251102 0.000000 0.825254
0.418341 0.000000 0.821683
0.578729 0.000000 0.817746
0.734371 0.000000 0.813382
0.893950 0.000000 0.820249
1.000000 0.000000 0.781735
0.000000 0.192477 0.827329
0.000000 0.190890 0.825956
0.205997 0.186862 0.822751
0.401404 0.178775 0.815152
0.571374 0.183688 0.811704
0.730587 0.205509 0.808865
0.891630 0.227817 0.818418
1.000000 0.286381 0.780026
0.000000 0.399451 0.816892
0.000000 0.401007 0.814694
0.246952 0.419074 0.813077
0.432471 0.429877 0.812619
0.591211 0.438453 0.810605
0.738674 0.448524 0.807156
0.891630 0.453590 0.816037
1.000000 0.472694 0.775143
0.000000 0.568475 0.808530
0.000000 0.570123 0.808194
0.248875 0.578637 0.806912
0.463813 0.598230 0.804837
0.619867 0.613397 0.802121
0.748592 0.614496 0.799008
0.889891 0.610742 0.802945
0.998505 0.620966 0.760037
0.000000 0.722194 0.799039
0.000000 0.723720 0.800076
0.252842 0.726955 0.799557
0.460304 0.733944 0.797971
0.620661 0.743526 0.795346
0.762295 0.755520 0.791409
0.889158 0.756588 0.788022
0.986969 0.771328 0.760800
0.000000 0.880766 0.802579
0.000000 0.881682 0.803861
0.241367 0.881834 0.803525
0.443793 0.882200 0.800381
0.603479 0.884520 0.793271
0.749722 0.883604 0.777066
0.877104 0.874693 0.770443
0.974792 0.878874 0.766934
0.000000 1.000000 0.761074
0.000000 1.000000 0.760220
0.247318 1.000000 0.756558
0.434333 0.996338 0.747677
0.590295 0.990326 0.732631
0.739193 0.982971 0.720729
0.875273 0.973205 0.747524
0.965454 0.969940 0.742184
0.000000 0.000000 0.945647
0.000000 0.000000 0.946014
0.216556 0.000000 0.944396
0.375677 0.000000 0.942718
0.525505 0.000000 0.939605
0.671473 0.000000 0.935668
0.811490 0.000000 0.931273
0.961730 0.000000 0.954437
0.000000 0.000000 0.942290
0.000000 0.000000 0.943297
0.197940 0.000000 0.942168
0.370214 0.000000 0.940459
0.523796 0.000000 0.937285
0.671290 0.000000 0.933959
0.811337 0.000000 0.929686
0.961273 0.000000 0.952728
0.000000 0.186465 0.943694
0.000000 0.186831 0.943175
0.187839 0.188022 0.940520
0.371740 0.193240 0.936675
0.528466 0.207553 0.933074
0.676143 0.236210 0.930266
0.814939 0.277043 0.927947
0.962310 0.296330 0.951263
0.010224 0.413214 0.935698
0.138033 0.412573 0.934173
0.279301 0.414832 0.933135
0.423957 0.423713 0.932555
0.563409 0.434791 0.930816
0.697414 0.448341 0.928435
0.824887 0.464393 0.925811
0.965393 0.464790 0.947723
0.078584 0.551080 0.930419
0.182193 0.555413 0.929656
0.342565 0.571344 0.927886
0.497505 0.597314 0.925780
0.607538 0.600824 0.924407
0.721523 0.604425 0.921965
0.835752 0.609461 0.919188
0.968750 0.604425 0.937469
0.099092 0.682673 0.923064
0.193393 0.685878 0.923461
0.345556 0.695094 0.922545
0.493690 0.709529 0.920958
0.629908 0.726925 0.918883
0.750332 0.742031 0.916686
0.852049 0.744717 0.914397
0.975036 0.740078 0.925048
0.138430 0.812863 0.917906
0.212467 0.814725 0.918578
0.349676 0.818814 0.917632
0.487648 0.825101 0.915160
0.621088 0.834104 0.912016
0.748959 0.846738 0.908568
0.867277 0.862913 0.903868
0.972320 0.867063 0.895750
0.089693 0.956390 0.932219
0.178805 0.956878 0.932097
0.320043 0.958556 0.930632
0.461311 0.962615 0.928374
0.598108 0.968750 0.923827
0.730251 0.977295 0.915068
0.859037 0.972717 0.882475
0.963745 0.966155 0.886473
0.000000 0.000000 1.000000
0.000000 0.000000 1.000000
0.120882 0.000000 1.000000
0.314885 0.000000 1.000000
0.465095 0.000000 1.000000
0.605921 0.000000 1.000000
0.739956 0.000000 1.000000
0.866117 0.136294 1.000000
0.000000 0.000000 1.000000
0.000000 0.000000 1.000000
0.108553 0.000000 1.000000
0.314641 0.000000 1.000000
0.466865 0.000000 1.000000
0.608453 0.000000 1.000000
0.742214 0.105989 1.000000
0.867247 0.202396 1.000000
0.000000 0.190921 1.000000
0.000000 0.191897 1.000000
0.151308 0.196201 1.000000
0.335088 0.209110 1.000000
0.483650 0.231022 1.000000
0.621881 0.262791 1.000000
0.752346 0.303563 1.000000
0.873045 0.343877 1.000000
0.133181 0.405005 1.000000
0.177127 0.404822 1.000000
0.285893 0.410040 1.000000
0.409613 0.420752 1.000000
0.533532 0.434119 1.000000
0.654810 0.449744 1.000000
0.771756 0.467353 1.000000
0.882902 0.484627 1.000000
0.327367 0.570489 1.000000
0.356817 0.575769 1.000000
0.439704 0.592493 1.000000
0.498543 0.585992 1.000000
0.592035 0.591089 1.000000
0.691585 0.596399 1.000000
0.793851 0.604028 1.000000
0.895293 0.613977 1.000000
0.332860 0.672328 1.000000
0.362585 0.676417 1.000000
0.441962 0.687678 1.000000
0.543542 0.704463 1.000000
0.653956 0.727260 1.000000
0.734707 0.729519 1.000000
0.822843 0.734524 1.000000
0.912291 0.740719 1.000000
0.343786 0.778622 1.000000
0.370794 0.781064 1.000000
0.443061 0.787503 1.000000
0.539879 0.797879 1.000000
0.647669 0.812772 1.000000
0.758572 0.833555 1.000000
0.855039 0.851926 1.000000
0.931701 0.856840 1.000000
0.344396 0.884367 1.000000
0.367559 0.885435 1.000000
0.436866 0.889158 1.000000
0.534051 0.895933 1.000000
0.642603 0.905882 1.000000
0.753750 0.919524 1.000000
0.861875 0.937652 1.000000
0.957671 0.961181 1.000000
