其他预设/【232】美食博客调色预设124款/1.3D LUT预设（视频调色-PR-AE-PS-FCPX-达芬奇用）/0 Only In Small Doses.cube
# Created by Adobe Lightroom plugin Export LUT (1.17.0)
# www.johnrellis.com/lightroom/exportlut.htm
# Preset: 0 Only In Small Doses
# Color profile: /Library/Application Support/Adobe/Color/Profiles/Recommended/AdobeRGB1998.icc
LUT_3D_SIZE 8
DOMAIN_MIN 0.000000 0.000000 0.000000
DOMAIN_MAX 0.903226 0.903226 0.903226
0.142458 0.142458 0.142458
0.166720 0.145266 0.146059
0.228916 0.152255 0.150332
0.305699 0.158511 0.151461
0.405463 0.168338 0.153353
0.531365 0.183688 0.158999
0.720668 0.200137 0.157321
0.922545 0.216800 0.154330
0.145907 0.172122 0.145937
0.172396 0.172793 0.146181
0.238773 0.177676 0.150393
0.323949 0.184421 0.151400
0.431373 0.197024 0.155184
0.569970 0.214359 0.159731
0.757839 0.233799 0.156649
0.941253 0.251530 0.155398
0.151431 0.236515 0.152132
0.176516 0.237766 0.152255
0.239872 0.240391 0.153140
0.310765 0.240116 0.153811
0.411963 0.254551 0.156802
0.539727 0.274449 0.158663
0.696162 0.295415 0.151888
0.902190 0.324437 0.140505
0.156741 0.321233 0.158511
0.183383 0.325963 0.158663
0.250980 0.330327 0.159030
0.318090 0.318853 0.159091
0.393500 0.317632 0.158602
0.479866 0.322820 0.156832
0.660914 0.370275 0.144656
0.890745 0.423377 0.119600
0.159762 0.456397 0.163973
0.192111 0.459358 0.163821
0.271550 0.461463 0.163180
0.358740 0.454017 0.162142
0.453559 0.455207 0.160189
0.567895 0.470161 0.152560
0.693721 0.485359 0.128023
0.875792 0.526238 0.070680
0.144106 0.628046 0.152651
0.187503 0.609339 0.153140
0.283177 0.614801 0.150820
0.394293 0.620874 0.146456
0.514031 0.631312 0.139040
0.631678 0.634668 0.128237
0.767514 0.651148 0.097230
0.906462 0.663447 0.000000
0.091005 0.814389 0.112245
0.164248 0.811032 0.110384
0.293584 0.819791 0.106386
0.428351 0.825681 0.098970
0.566613 0.835691 0.088319
0.699184 0.835843 0.065339
0.828428 0.833036 0.000000
0.963806 0.836728 0.000000
0.071107 0.967651 0.100252
0.158846 0.968353 0.101228
0.293370 0.968139 0.100191
0.427314 0.963806 0.088106
0.573602 0.978851 0.126711
0.702388 0.972290 0.112612
0.826108 0.962707 0.077363
0.951873 0.957519 0.043091
0.148104 0.148074 0.180850
0.177920 0.147372 0.179385
0.249424 0.158694 0.186038
0.333257 0.166964 0.190768
0.447517 0.174960 0.194980
0.599054 0.184421 0.198520
0.787655 0.192874 0.197238
0.962554 0.209354 0.201877
0.146853 0.180362 0.181277
0.178439 0.179263 0.180636
0.247532 0.186648 0.187716
0.335821 0.192660 0.191165
0.455360 0.203281 0.195987
0.613153 0.216373 0.199496
0.811124 0.231022 0.198734
0.978790 0.249393 0.206119
0.155642 0.249424 0.185550
0.183902 0.246159 0.187228
0.244877 0.246006 0.187655
0.321019 0.248325 0.187228
0.440742 0.268193 0.192538
0.587732 0.288701 0.193942
0.775021 0.312627 0.188327
0.952941 0.331884 0.188388
0.161227 0.344945 0.194705
0.189151 0.343420 0.193973
0.259190 0.343816 0.193942
0.343145 0.344701 0.193576
0.437324 0.350042 0.191501
0.542840 0.357580 0.184665
0.743313 0.405219 0.174197
0.942290 0.440223 0.167269
0.157504 0.466438 0.198978
0.189120 0.471199 0.197177
0.275853 0.478218 0.197299
0.377722 0.482887 0.196139
0.487190 0.489601 0.194034
0.605707 0.499367 0.184085
0.729671 0.506432 0.157809
0.911650 0.542535 0.124178
0.117128 0.653346 0.189120
0.174899 0.653559 0.188266
0.288945 0.656916 0.186496
0.409644 0.655818 0.182681
0.531426 0.656428 0.176791
0.645441 0.648951 0.167819
0.784360 0.664424 0.144808
0.925383 0.674891 0.093874
0.000000 0.846372 0.168338
0.145968 0.851438 0.169375
0.294835 0.854337 0.167788
0.435431 0.851102 0.162112
0.574823 0.852384 0.156802
0.711757 0.852842 0.147951
0.847959 0.853239 0.136538
0.982086 0.852689 0.142306
0.061311 0.979767 0.177127
0.154208 0.978607 0.175143
0.293095 0.977142 0.173922
0.428412 0.971679 0.165469
0.564019 0.969757 0.163607
0.698451 0.969177 0.165896
0.828122 0.965515 0.161624
0.956573 0.962524 0.163058
0.157046 0.151858 0.259678
0.185061 0.152468 0.256626
0.248142 0.160464 0.252354
0.329534 0.169741 0.258824
0.442756 0.174014 0.273106
0.599115 0.157961 0.284215
0.785153 0.120729 0.285130
0.958404 0.141848 0.294621
0.160983 0.186679 0.255314
0.187930 0.187839 0.254643
0.249729 0.189822 0.254459
0.338201 0.196902 0.264897
0.459785 0.200839 0.279423
0.617395 0.187594 0.285527
0.801297 0.176425 0.288762
0.965942 0.197238 0.297307
0.162417 0.250675 0.253300
0.187930 0.248875 0.252049
0.252232 0.254307 0.258213
0.332616 0.257725 0.261753
0.443427 0.265782 0.268925
0.592126 0.275303 0.274907
0.783871 0.285832 0.278080
0.959625 0.303746 0.286992
0.164004 0.339147 0.263035
0.189761 0.335698 0.261387
0.255009 0.337591 0.263157
0.334661 0.337560 0.262364
0.416663 0.334203 0.256138
0.547478 0.353674 0.257725
0.742885 0.388403 0.257511
0.940764 0.418585 0.263310
0.155917 0.472114 0.283574
0.186618 0.470100 0.281529
0.261753 0.467750 0.274022
0.361395 0.466835 0.272404
0.465858 0.469612 0.271336
0.583459 0.478981 0.262058
0.711147 0.485084 0.235966
0.918242 0.531975 0.228031
0.101747 0.655451 0.300969
0.152743 0.653346 0.295567
0.259678 0.654932 0.279210
0.397498 0.660395 0.278172
0.531151 0.665064 0.275242
0.654200 0.659388 0.266758
0.789792 0.665431 0.248631
0.919036 0.662104 0.209873
0.000000 0.840055 0.298344
0.068482 0.842557 0.291997
0.256260 0.849058 0.280583
0.418555 0.852842 0.281376
0.568322 0.856474 0.281987
0.707668 0.853208 0.276280
0.838499 0.844694 0.263951
0.967712 0.838254 0.259373
0.000000 0.980529 0.301549
0.120180 0.981903 0.301701
0.285649 0.981750 0.305425
0.419745 0.972961 0.292271
0.560601 0.971710 0.294591
0.695888 0.969085 0.296361
0.825193 0.963836 0.291966
0.952514 0.959106 0.291142
0.170230 0.152590 0.382269
0.200473 0.155398 0.372168
0.271824 0.163302 0.364782
0.350652 0.171145 0.358190
0.467781 0.173587 0.380438
0.633875 0.148653 0.414282
0.830442 0.069001 0.439857
0.985870 0.149264 0.454749
0.171450 0.193057 0.358251
0.198489 0.193118 0.356420
0.266361 0.195285 0.356115
0.345861 0.197726 0.353826
0.468666 0.200839 0.380652
0.641596 0.183078 0.416541
0.839109 0.145235 0.441413
0.988708 0.209384 0.457801
0.170626 0.269871 0.360754
0.197208 0.268528 0.359197
0.265660 0.267460 0.359197
0.350072 0.267430 0.359533
0.465553 0.271794 0.376867
0.619684 0.266911 0.396490
0.802243 0.247990 0.406744
0.970459 0.289281 0.432319
0.167697 0.349462 0.354284
0.193576 0.349737 0.354986
0.261967 0.351110 0.357427
0.358862 0.363317 0.371130
0.469520 0.366857 0.375799
0.616297 0.374060 0.383124
0.797330 0.385229 0.391577
0.960143 0.408057 0.408850
0.155673 0.468452 0.376654
0.185580 0.470985 0.378241
0.262028 0.472328 0.377722
0.357244 0.470741 0.372686
0.464820 0.470344 0.370611
0.566278 0.459480 0.351476
0.733303 0.481025 0.344121
0.935363 0.520531 0.362860
0.084352 0.643366 0.413367
0.143496 0.628229 0.402838
0.245396 0.635676 0.399237
0.363806 0.639948 0.385718
0.505547 0.645441 0.385504
0.640528 0.647333 0.381781
0.775784 0.647059 0.360418
0.910613 0.639033 0.318303
0.000000 0.843137 0.440436
0.000000 0.840940 0.436011
0.227634 0.837949 0.422919
0.382116 0.835386 0.406500
0.542901 0.838926 0.409369
0.691646 0.840970 0.410712
0.831357 0.838804 0.406378
0.960937 0.830442 0.399634
0.000000 0.975769 0.439551
0.067659 0.974762 0.436713
0.259892 0.974151 0.433478
0.422797 0.971069 0.441627
0.564691 0.970153 0.447547
0.698848 0.967651 0.452247
0.825284 0.962188 0.449012
0.949096 0.956237 0.445502
0.193881 0.162051 0.536553
0.225223 0.163546 0.528679
0.306401 0.166720 0.525322
0.398596 0.168185 0.514855
0.496254 0.167330 0.508385
0.655238 0.137758 0.549676
0.844083 0.071046 0.590143
0.987762 0.180362 0.602380
0.187442 0.204013 0.521386
0.217350 0.202274 0.510552
0.296452 0.201572 0.510002
0.395026 0.200351 0.512108
0.496590 0.197848 0.509392
0.654475 0.177005 0.548333
0.843381 0.144991 0.587976
0.987762 0.227115 0.602533
0.166171 0.287510 0.508385
0.196994 0.283543 0.504723
0.284367 0.282994 0.510307
0.390204 0.281407 0.513909
0.501518 0.279118 0.516045
0.669276 0.275731 0.557702
0.851835 0.280064 0.589929
0.991150 0.358648 0.612604
0.154330 0.396765 0.514672
0.187808 0.396063 0.515709
0.272007 0.389685 0.513298
0.379370 0.384192 0.513390
0.498726 0.384070 0.515831
0.664363 0.394049 0.548974
0.846525 0.416754 0.579828
0.982879 0.489296 0.616419
0.137301 0.506310 0.514946
0.174777 0.504234 0.513085
0.263798 0.502617 0.512444
0.375189 0.504234 0.515831
0.519097 0.526757 0.540429
0.673793 0.535149 0.549493
0.832273 0.547021 0.558984
0.969482 0.580957 0.588128
0.000000 0.682979 0.564294
0.112367 0.683345 0.563958
0.250980 0.690272 0.567193
0.392828 0.695247 0.567376
0.545251 0.703090 0.569055
0.678248 0.686671 0.551873
0.778744 0.637720 0.489326
0.932769 0.639460 0.479500
0.000000 0.858610 0.590875
0.000000 0.860472 0.591150
0.244236 0.862028 0.589136
0.404425 0.859068 0.583307
0.565728 0.854582 0.586816
0.708797 0.854063 0.589746
0.843412 0.851286 0.587823
0.961608 0.834897 0.570336
0.091310 0.988830 0.595789
0.174258 0.988861 0.596735
0.319890 0.987610 0.601129
0.448066 0.976593 0.595850
0.613367 0.970214 0.627619
0.730922 0.968414 0.635462
0.843076 0.964660 0.637690
0.953338 0.960082 0.637537
0.213779 0.166873 0.697810
0.245823 0.166720 0.696101
0.334966 0.164645 0.704463
0.444068 0.157443 0.703883
0.563592 0.142611 0.705592
0.687892 0.117586 0.706081
0.851591 0.077668 0.735714
0.985565 0.205783 0.740352
0.205570 0.211765 0.720760
0.241886 0.210727 0.721248
0.335546 0.206821 0.722225
0.449897 0.198398 0.720516
0.571313 0.185977 0.717983
0.696040 0.167880 0.714870
0.856870 0.157198 0.739895
0.987488 0.256840 0.743343
0.146670 0.298405 0.698512
0.195285 0.298741 0.702327
0.305608 0.296818 0.707240
0.429572 0.291234 0.707973
0.559564 0.284977 0.710689
0.690517 0.276677 0.710536
0.853941 0.284520 0.736172
0.984741 0.365301 0.743740
0.093965 0.426154 0.699855
0.152865 0.425147 0.702998
0.268467 0.415381 0.702144
0.397620 0.400305 0.689479
0.531212 0.394110 0.686183
0.668208 0.391699 0.689631
0.839719 0.411200 0.720851
0.975738 0.488869 0.740932
0.000000 0.570031 0.717037
0.123537 0.567803 0.715785
0.259953 0.561639 0.713008
0.396887 0.552880 0.709133
0.544060 0.551293 0.712673
0.693385 0.554620 0.716335
0.853910 0.586877 0.737667
0.973846 0.655909 0.766567
0.000000 0.712459 0.725582
0.061433 0.706966 0.720180
0.245121 0.703761 0.717861
0.394842 0.702205 0.717128
0.553246 0.708949 0.724239
0.716518 0.724025 0.737697
0.844877 0.726741 0.737575
0.957153 0.744198 0.751369
0.000000 0.858244 0.731746
0.000000 0.855528 0.729030
0.235264 0.856413 0.729000
0.403967 0.856596 0.728725
0.570947 0.856748 0.732479
0.730037 0.857206 0.747066
0.848722 0.855344 0.749111
0.943267 0.818082 0.693477
0.164462 0.990173 0.737087
0.224277 0.990234 0.738521
0.357214 0.988739 0.742855
0.499062 0.982361 0.747799
0.646906 0.974731 0.763241
0.783505 0.965911 0.793484
0.868864 0.963561 0.795010
0.955901 0.961089 0.794522
0.252384 0.198550 0.902312
0.283482 0.197848 0.900999
0.371374 0.196201 0.900145
0.484596 0.189761 0.897398
0.609674 0.183322 0.896788
0.739834 0.179202 0.895933
0.872007 0.181216 0.894224
0.992309 0.286870 0.884947
0.245457 0.241367 0.904173
0.277928 0.240299 0.903166
0.368048 0.237613 0.902373
0.484413 0.233433 0.901366
0.611048 0.230045 0.900359
0.742611 0.230045 0.899443
0.875731 0.237400 0.898192
0.994476 0.336980 0.888457
0.214145 0.339605 0.898192
0.252537 0.339147 0.898131
0.352392 0.338323 0.898344
0.475166 0.337285 0.897826
0.606378 0.338262 0.897581
0.739376 0.341833 0.896513
0.871397 0.348211 0.893950
0.989014 0.427253 0.885374
0.188388 0.467323 0.892088
0.235996 0.468727 0.893034
0.346471 0.471107 0.892821
0.471931 0.471534 0.891875
0.603967 0.474830 0.891539
0.735714 0.478920 0.889860
0.865232 0.484504 0.887327
0.981872 0.551537 0.883604
0.190616 0.607263 0.894285
0.238285 0.608057 0.894499
0.355138 0.611078 0.893919
0.494850 0.620111 0.891203
0.624659 0.628748 0.889555
0.746639 0.633143 0.888823
0.867430 0.638483 0.887327
0.975097 0.690333 0.887663
0.187442 0.742458 0.893065
0.234928 0.742367 0.892638
0.353216 0.742794 0.891173
0.493111 0.745418 0.888334
0.634089 0.753445 0.885649
0.761501 0.766171 0.883299
0.866239 0.768978 0.882475
0.967254 0.805722 0.892576
0.174075 0.873350 0.888304
0.223514 0.872465 0.887419
0.346136 0.871122 0.886015
0.487678 0.869322 0.883787
0.633661 0.869688 0.882628
0.767636 0.872801 0.883268
0.879698 0.883726 0.891112
0.960693 0.891783 0.896696
0.279545 0.994751 0.880949
0.317540 0.993866 0.880949
0.411444 0.988983 0.878782
0.541527 0.983062 0.879026
0.680659 0.975830 0.883299
0.799893 0.969085 0.890654
0.894926 0.965148 0.902281
0.961151 0.964477 0.904356
0.311498 0.274815 1.000000
0.334569 0.275578 1.000000
0.405432 0.280735 1.000000
0.504234 0.288273 0.999908
0.616815 0.302159 0.998657
0.735256 0.323766 0.997070
0.854337 0.353552 0.994781
0.971527 0.396704 0.992554
0.317235 0.311650 1.000000
0.339513 0.312169 1.000000
0.409491 0.316442 1.000000
0.508049 0.324773 1.000000
0.620203 0.338231 0.998871
0.738064 0.360082 0.997253
0.856596 0.390448 0.995117
0.972259 0.432929 0.992920
0.343542 0.413764 0.999786
0.364172 0.414557 0.999603
0.431159 0.420356 0.999603
0.523003 0.425422 0.997894
0.632288 0.439429 0.996796
0.747402 0.461341 0.995453
0.861448 0.488533 0.993256
0.971527 0.522454 0.991058
0.420996 0.555993 0.995026
0.436194 0.556329 0.994751
0.490578 0.561578 0.994507
0.569848 0.568566 0.993469
0.665095 0.579431 0.992187
0.767330 0.595026 0.990784
0.869688 0.612238 0.988983
0.969848 0.633082 0.987274
0.449348 0.663020 0.992737
0.472053 0.667201 0.992035
0.546532 0.685145 0.990509
0.642451 0.710994 0.987854
0.716854 0.718410 0.987182
0.799496 0.727810 0.986267
0.884428 0.737728 0.984894
0.969177 0.749142 0.983398
0.465187 0.765927 0.990326
0.489845 0.769589 0.990112
0.562554 0.781399 0.989105
0.659632 0.800076 0.986938
0.758267 0.823026 0.983886
0.832395 0.834409 0.981292
0.897765 0.836271 0.979675
0.967895 0.841825 0.978790
0.477455 0.868833 0.986816
0.500603 0.870512 0.986664
0.569818 0.875944 0.985992
0.664393 0.884672 0.984283
0.762509 0.896269 0.982177
0.848600 0.908476 0.980011
0.916594 0.918425 0.978393
0.970520 0.920623 0.977905
0.491707 0.973602 0.983185
0.513817 0.973754 0.983154
0.578759 0.973632 0.982544
0.667475 0.972961 0.980926
0.761746 0.972442 0.979126
0.846952 0.972442 0.977630
0.918273 0.972961 0.976776
0.974304 0.975921 0.978485
