其他预设/【232】美食博客调色预设124款/1.3D LUT预设（视频调色-PR-AE-PS-FCPX-达芬奇用）/0 Only In Small Doses.cube
# Created by Adobe Lightroom plugin Export LUT (1.17.0)
# www.johnrellis.com/lightroom/exportlut.htm
# Preset: 0 Only In Small Doses
# Color profile: /Library/Application Support/Adobe/Color/Profiles/Recommended/AdobeRGB1998.icc
LUT_3D_SIZE 32
0.142458 0.142458 0.142458
0.142580 0.142580 0.142580
0.145907 0.142702 0.143130
0.155184 0.143435 0.144533
0.166720 0.145266 0.146059
0.180606 0.147250 0.147616
0.196231 0.148867 0.148623
0.212314 0.150515 0.149355
0.228916 0.152255 0.150332
0.246616 0.153933 0.151186
0.265415 0.155276 0.151461
0.285008 0.156924 0.151614
0.305699 0.158511 0.151461
0.327672 0.160342 0.151522
0.351568 0.162295 0.151797
0.377417 0.164981 0.152102
0.405463 0.168338 0.153353
0.434913 0.172030 0.155093
0.465126 0.175906 0.156619
0.496895 0.179843 0.158022
0.531365 0.183688 0.158999
0.570062 0.187472 0.159426
0.615106 0.191592 0.159579
0.665949 0.196109 0.158450
0.720668 0.200137 0.157321
0.775937 0.204349 0.155947
0.829587 0.208652 0.154726
0.878721 0.212955 0.153750
0.922545 0.216800 0.154330
0.961120 0.221225 0.156069
0.994934 0.225834 0.158602
1.000000 0.230838 0.162753
0.142489 0.143282 0.142550
0.143221 0.143526 0.142672
0.146792 0.144259 0.143130
0.155673 0.146059 0.144472
0.167483 0.147951 0.146151
0.181888 0.150088 0.147494
0.198032 0.151705 0.148470
0.214511 0.153323 0.149660
0.231815 0.155123 0.150423
0.250095 0.156649 0.151095
0.269657 0.158083 0.151308
0.289982 0.159792 0.151369
0.311437 0.161227 0.151461
0.334325 0.163210 0.151583
0.359228 0.165347 0.151827
0.386206 0.168490 0.152285
0.415381 0.172122 0.153750
0.445869 0.176120 0.155428
0.477150 0.180209 0.157168
0.510094 0.183993 0.158602
0.545586 0.187930 0.159487
0.585351 0.191714 0.159915
0.631250 0.196262 0.159304
0.682612 0.200504 0.158450
0.736538 0.204807 0.157443
0.790951 0.209293 0.156069
0.843137 0.213413 0.155215
0.890349 0.217899 0.155001
0.932494 0.221927 0.155795
0.969543 0.226474 0.157992
1.000000 0.231205 0.161074
1.000000 0.236027 0.166262
0.142855 0.147585 0.143130
0.144411 0.147677 0.143069
0.147585 0.147829 0.143130
0.156558 0.149691 0.144442
0.168307 0.151553 0.145968
0.183383 0.153475 0.147311
0.199710 0.155581 0.148379
0.216464 0.157198 0.149691
0.234348 0.159030 0.150423
0.252903 0.160250 0.151217
0.272770 0.161776 0.151278
0.293431 0.163394 0.151308
0.315160 0.164736 0.151492
0.338323 0.166873 0.151553
0.363500 0.169406 0.151736
0.391241 0.172366 0.152682
0.421088 0.176577 0.153994
0.452247 0.180453 0.155703
0.484077 0.184604 0.157717
0.517235 0.188388 0.158663
0.553124 0.192508 0.159670
0.593225 0.196292 0.159823
0.639338 0.200717 0.159640
0.690822 0.205173 0.158389
0.744503 0.209751 0.157534
0.798611 0.214176 0.156374
0.849851 0.218784 0.155367
0.896208 0.223117 0.155398
0.937407 0.227390 0.156405
0.973724 0.231724 0.158907
1.000000 0.236210 0.162600
1.000000 0.241459 0.167605
0.143618 0.157748 0.144411
0.146334 0.157656 0.144350
0.149996 0.157687 0.144411
0.157565 0.157992 0.144472
0.169223 0.159152 0.145571
0.183719 0.161227 0.147066
0.200290 0.162844 0.148318
0.217350 0.164584 0.149447
0.235416 0.166262 0.150454
0.254582 0.167636 0.150912
0.274907 0.169192 0.151217
0.296178 0.170901 0.151186
0.318486 0.172702 0.151278
0.342321 0.174807 0.151278
0.368261 0.177279 0.151797
0.396643 0.180819 0.152895
0.427161 0.184939 0.154665
0.459388 0.189181 0.156435
0.492744 0.193393 0.157931
0.527672 0.197910 0.158938
0.565423 0.201877 0.159609
0.606683 0.206180 0.159945
0.652796 0.210636 0.159182
0.701961 0.215152 0.158297
0.752438 0.219821 0.157107
0.803220 0.224277 0.155856
0.852049 0.228550 0.154696
0.896971 0.232486 0.155032
0.937774 0.236606 0.155978
0.974334 0.241154 0.158206
1.000000 0.245762 0.162173
1.000000 0.250736 0.167910
0.145907 0.172122 0.145937
0.148745 0.172030 0.145724
0.152743 0.172000 0.145754
0.160800 0.172183 0.145968
0.172396 0.172793 0.146181
0.187350 0.174014 0.147097
0.203311 0.175143 0.148684
0.219821 0.176272 0.149722
0.238773 0.177676 0.150393
0.258427 0.179416 0.151095
0.279301 0.181003 0.151003
0.301213 0.182773 0.151064
0.323949 0.184421 0.151400
0.347967 0.186770 0.151583
0.373724 0.189578 0.152041
0.401678 0.193057 0.153384
0.431373 0.197024 0.155184
0.462806 0.201419 0.156649
0.495949 0.205509 0.158267
0.531304 0.210147 0.159121
0.569970 0.214359 0.159731
0.612299 0.219211 0.159792
0.658900 0.224186 0.158907
0.707942 0.229343 0.157748
0.757839 0.233799 0.156649
0.807950 0.238499 0.155367
0.856077 0.243229 0.154330
0.900694 0.247257 0.154513
0.941253 0.251530 0.155398
0.977600 0.255863 0.157900
1.000000 0.259953 0.162478
1.000000 0.264805 0.168124
0.147311 0.189029 0.147494
0.150484 0.188754 0.147616
0.154391 0.188876 0.147646
0.163027 0.189181 0.147677
0.174960 0.189425 0.147890
0.189639 0.189944 0.147799
0.205783 0.190524 0.148806
0.222354 0.191104 0.149722
0.239139 0.191257 0.150301
0.258213 0.192630 0.151034
0.279393 0.194461 0.151217
0.301396 0.196414 0.151369
0.324254 0.198367 0.151644
0.348760 0.200565 0.151949
0.374578 0.203647 0.152316
0.402197 0.207156 0.154086
0.431708 0.211337 0.155550
0.462501 0.215488 0.157046
0.495003 0.219730 0.158236
0.529747 0.224094 0.159457
0.567498 0.228611 0.159823
0.608667 0.233463 0.159487
0.561273 0.219852 0.158022
0.607385 0.225406 0.157443
0.659632 0.231876 0.155428
0.715602 0.238254 0.153017
0.772213 0.244388 0.150729
0.828183 0.250156 0.147921
0.880034 0.255619 0.145846
0.927001 0.260258 0.145144
0.968902 0.264744 0.146578
1.000000 0.269444 0.149905
0.148562 0.198032 0.148592
0.151217 0.197940 0.148989
0.154452 0.198154 0.148714
0.161715 0.198276 0.149111
0.172274 0.198459 0.149081
0.184726 0.198856 0.149386
0.199039 0.199374 0.149416
0.214755 0.200107 0.149905
0.230900 0.200717 0.150820
0.246830 0.201114 0.151522
0.263096 0.201175 0.152041
0.283360 0.203372 0.152193
0.305119 0.205631 0.152743
0.328679 0.208530 0.152529
0.354376 0.211856 0.152712
0.382330 0.216098 0.153750
0.411597 0.220615 0.155276
0.442206 0.225101 0.156619
0.472847 0.229313 0.157992
0.503807 0.233158 0.158724
0.534600 0.236820 0.158968
0.566339 0.239994 0.159060
0.599908 0.243381 0.158175
0.637781 0.247532 0.156588
0.681514 0.252384 0.154726
0.731014 0.258396 0.151980
0.784207 0.264591 0.149386
0.838468 0.270665 0.146883
0.889006 0.276432 0.144625
0.935332 0.281437 0.144442
0.976501 0.285954 0.146212
1.000000 0.290715 0.150332
0.149844 0.216556 0.150515
0.152682 0.216770 0.150423
0.156161 0.217014 0.150454
0.163851 0.217258 0.150484
0.174472 0.217716 0.150698
0.187900 0.218235 0.150668
0.203006 0.218814 0.151064
0.218997 0.219394 0.151278
0.236210 0.220096 0.151766
0.253056 0.220096 0.152468
0.269780 0.220066 0.152956
0.286839 0.220035 0.152773
0.306065 0.221103 0.152834
0.329961 0.224338 0.152834
0.356023 0.228244 0.153445
0.384375 0.232822 0.154635
0.414130 0.237888 0.156405
0.445167 0.242832 0.157412
0.476326 0.247410 0.158480
0.508019 0.251774 0.158968
0.540215 0.255650 0.159213
0.573144 0.259342 0.158572
0.608362 0.263279 0.157717
0.647578 0.268193 0.155673
0.692042 0.273686 0.153231
0.741665 0.280247 0.150698
0.794491 0.287266 0.147585
0.847959 0.293950 0.144839
0.897276 0.299962 0.143008
0.942565 0.304906 0.143160
0.982788 0.309483 0.145480
1.000000 0.313817 0.150668
0.151431 0.236515 0.152132
0.154086 0.236637 0.152041
0.157809 0.236820 0.152346
0.165621 0.237125 0.152102
0.176516 0.237766 0.152255
0.190219 0.238529 0.152438
0.205844 0.239445 0.152621
0.222507 0.239994 0.152621
0.239872 0.240391 0.153140
0.257511 0.240452 0.153628
0.275425 0.240513 0.153872
0.292699 0.239963 0.154025
0.310765 0.240116 0.153811
0.329503 0.240452 0.153597
0.353735 0.243809 0.153964
0.381994 0.249088 0.155581
0.411963 0.254551 0.156802
0.443122 0.260075 0.157809
0.474678 0.265141 0.158450
0.506889 0.269718 0.159091
0.539727 0.274449 0.158663
0.573907 0.278660 0.158022
0.610224 0.283421 0.156680
0.650904 0.288975 0.154788
0.696162 0.295415 0.151888
0.746334 0.302739 0.148928
0.799527 0.310552 0.145510
0.852811 0.317937 0.142550
0.902190 0.324437 0.140505
0.947265 0.329839 0.140780
0.987366 0.334447 0.143313
1.000000 0.338598 0.149630
0.152956 0.258396 0.154025
0.155673 0.258640 0.154055
0.159548 0.259068 0.153872
0.167422 0.259556 0.154147
0.179080 0.260410 0.153964
0.193027 0.261357 0.154391
0.209323 0.262394 0.154635
0.226719 0.263218 0.154696
0.244846 0.263737 0.154849
0.263188 0.263645 0.155001
0.281437 0.263462 0.155673
0.301030 0.264012 0.155642
0.319371 0.263462 0.155489
0.338048 0.263249 0.155337
0.357275 0.263432 0.155398
0.377264 0.264195 0.156100
0.405768 0.269566 0.157168
0.435584 0.274968 0.158022
0.466468 0.280247 0.158694
0.499092 0.285832 0.158846
0.533928 0.291630 0.158602
0.571069 0.297734 0.157412
0.611536 0.304387 0.155856
0.656184 0.311864 0.153170
0.704494 0.319951 0.150271
0.755520 0.328313 0.146792
0.808316 0.336858 0.142550
0.859800 0.344579 0.139223
0.907530 0.350713 0.137575
0.950835 0.355962 0.137301
0.989624 0.360235 0.139895
1.000000 0.363806 0.145907
0.154391 0.285161 0.155734
0.157321 0.285374 0.155612
0.161471 0.285649 0.155612
0.169955 0.285893 0.155734
0.182040 0.286351 0.155734
0.196506 0.286809 0.156039
0.212924 0.287327 0.156222
0.230747 0.287602 0.156435
0.249058 0.287846 0.156741
0.267918 0.287755 0.157137
0.286961 0.287663 0.157015
0.306065 0.287266 0.157565
0.327886 0.289006 0.157229
0.347265 0.288640 0.156741
0.367163 0.288670 0.156741
0.387243 0.288823 0.157626
0.407202 0.288945 0.157717
0.430945 0.291203 0.158267
0.462013 0.297276 0.158755
0.495338 0.303593 0.158297
0.530632 0.310216 0.157931
0.568322 0.317113 0.156619
0.609247 0.324834 0.154391
0.654536 0.333349 0.151736
0.703700 0.342687 0.148135
0.755917 0.352453 0.143862
0.809934 0.362158 0.139132
0.862516 0.370855 0.135622
0.910948 0.377783 0.133486
0.954559 0.383490 0.133516
0.993347 0.387640 0.136751
1.000000 0.391241 0.142702
0.156191 0.311620 0.157534
0.159213 0.311742 0.157717
0.163149 0.311864 0.157870
0.171969 0.311986 0.157595
0.184298 0.312291 0.157717
0.199161 0.312535 0.157900
0.216007 0.312840 0.157931
0.234012 0.313054 0.157870
0.252689 0.312779 0.158358
0.271855 0.312169 0.158389
0.290990 0.311589 0.158480
0.310460 0.311192 0.158572
0.299657 0.283085 0.157778
0.320134 0.285710 0.157839
0.339086 0.286656 0.157198
0.358679 0.287694 0.156954
0.378759 0.289097 0.157382
0.398871 0.290562 0.157412
0.418952 0.291691 0.157687
0.446815 0.296971 0.157565
0.480262 0.304509 0.157534
0.516991 0.313024 0.156527
0.558221 0.322667 0.154635
0.604242 0.333562 0.151858
0.656123 0.345708 0.147738
0.712093 0.358648 0.142580
0.770047 0.371496 0.136690
0.828824 0.383703 0.130922
0.883848 0.394049 0.125612
0.933501 0.401862 0.123751
0.977539 0.408087 0.124483
1.000000 0.412665 0.129854
0.156741 0.321233 0.158511
0.159701 0.321569 0.158511
0.163302 0.322576 0.158785
0.171359 0.323857 0.158724
0.183383 0.325963 0.158663
0.197879 0.328222 0.158877
0.214481 0.329870 0.158938
0.232486 0.330602 0.159213
0.250980 0.330327 0.159030
0.268772 0.328618 0.159213
0.285893 0.325841 0.158999
0.302251 0.322148 0.158816
0.318090 0.318853 0.159091
0.334691 0.316411 0.158785
0.354803 0.317388 0.158816
0.373419 0.316930 0.158419
0.393500 0.317632 0.158602
0.414069 0.318578 0.158724
0.434821 0.319463 0.158755
0.456703 0.320958 0.157900
0.479866 0.322820 0.156832
0.517601 0.332464 0.155520
0.560082 0.343603 0.153262
0.607538 0.356085 0.149996
0.660914 0.370275 0.144656
0.717983 0.384802 0.138521
0.776974 0.399115 0.132021
0.836088 0.412451 0.125032
0.890745 0.423377 0.119600
0.939757 0.431678 0.117067
0.982940 0.437903 0.118227
1.000000 0.442084 0.124697
0.157351 0.352667 0.160128
0.160922 0.352789 0.159854
0.164858 0.353643 0.160006
0.173098 0.355230 0.160128
0.185733 0.357397 0.160098
0.201328 0.359777 0.160464
0.218997 0.361517 0.160128
0.237888 0.362432 0.160433
0.257145 0.362158 0.160464
0.276341 0.360510 0.160464
0.294469 0.357275 0.160189
0.311742 0.353491 0.160037
0.328710 0.349828 0.159945
0.346105 0.347051 0.159792
0.364660 0.345617 0.159945
0.389105 0.349340 0.160159
0.409949 0.349767 0.159823
0.431434 0.350500 0.159670
0.452979 0.351202 0.159426
0.475715 0.352392 0.158145
0.499306 0.354040 0.156802
0.524376 0.356237 0.154726
0.558129 0.363134 0.151614
0.606256 0.377111 0.147677
0.660456 0.392828 0.141909
0.718379 0.409064 0.134340
0.778164 0.425025 0.126619
0.837858 0.439796 0.117769
0.892973 0.451759 0.111147
0.942107 0.460578 0.107973
0.985199 0.466926 0.110048
1.000000 0.471046 0.116793
0.158785 0.384588 0.161685
0.162020 0.384558 0.161624
0.165988 0.385595 0.161685
0.175113 0.387304 0.161715
0.188449 0.389899 0.161929
0.204990 0.392798 0.161807
0.223239 0.394720 0.162173
0.242924 0.395819 0.162203
0.263157 0.395544 0.162203
0.283482 0.393896 0.161990
0.302556 0.390753 0.161868
0.320806 0.386481 0.161532
0.338872 0.382422 0.161227
0.357336 0.379492 0.160952
0.376867 0.377874 0.160922
0.398138 0.378149 0.161196
0.425544 0.383612 0.161013
0.448920 0.385107 0.160708
0.471839 0.385931 0.159487
0.495888 0.387396 0.158145
0.521050 0.389258 0.155856
0.547662 0.391821 0.153140
0.576867 0.395727 0.149630
0.608820 0.400488 0.145144
0.658320 0.414801 0.138308
0.716304 0.432471 0.129335
0.775357 0.449317 0.120150
0.833921 0.464668 0.109926
0.887907 0.476905 0.100771
0.936309 0.486000 0.095827
0.979034 0.492287 0.095277
1.000000 0.496315 0.100343
0.159670 0.418311 0.163027
0.162997 0.418006 0.163027
0.167239 0.418280 0.163119
0.176699 0.419318 0.162997
0.190158 0.420813 0.162875
0.206546 0.422339 0.162905
0.224979 0.423133 0.163241
0.244816 0.423529 0.162875
0.265354 0.422980 0.162783
0.286107 0.421820 0.162722
0.306889 0.420233 0.162417
0.327367 0.418036 0.162325
0.347936 0.415991 0.162112
0.369024 0.414740 0.161929
0.390906 0.414374 0.161410
0.413947 0.415229 0.161166
0.437690 0.416510 0.161044
0.466255 0.421973 0.160616
0.492317 0.424384 0.159396
0.516197 0.424872 0.157473
0.541222 0.425971 0.154757
0.567773 0.427924 0.151705
0.597223 0.431464 0.146883
0.629328 0.436133 0.141482
0.664912 0.442481 0.134279
0.704067 0.450111 0.125246
0.763668 0.468727 0.113680
0.823453 0.486091 0.100679
0.879515 0.500389 0.088106
0.930327 0.511345 0.078584
0.975525 0.519188 0.076814
1.000000 0.524346 0.082765
0.159762 0.456397 0.163973
0.163210 0.456611 0.163668
0.167788 0.457069 0.163973
0.177920 0.458106 0.163790
0.192111 0.459358 0.163821
0.209598 0.460700 0.163516
0.228855 0.461341 0.163851
0.249821 0.461799 0.163272
0.271550 0.461463 0.163180
0.293339 0.460212 0.162966
0.315587 0.458564 0.162478
0.337285 0.456397 0.162173
0.358740 0.454017 0.162142
0.380774 0.452461 0.161715
0.403662 0.451972 0.161593
0.428107 0.453162 0.160800
0.453559 0.455207 0.160189
0.479683 0.457465 0.159701
0.510460 0.463447 0.158724
0.541375 0.468910 0.156161
0.567895 0.470161 0.152560
0.595819 0.472206 0.148226
0.626154 0.475624 0.142641
0.658869 0.480018 0.136202
0.693721 0.485359 0.128023
0.730770 0.491615 0.117739
0.770352 0.498726 0.105379
0.818967 0.510460 0.088991
0.875792 0.526238 0.070680
0.927428 0.538323 0.051911
0.973114 0.546868 0.037415
1.000000 0.552270 0.051575
0.158785 0.493019 0.163485
0.162264 0.491859 0.163760
0.166751 0.452552 0.162966
0.175143 0.453498 0.163149
0.187594 0.455177 0.163119
0.202914 0.457313 0.163088
0.221225 0.459663 0.162722
0.240940 0.461677 0.162600
0.261479 0.462928 0.162539
0.282963 0.463478 0.162173
0.304631 0.463600 0.161929
0.326604 0.463722 0.161563
0.349218 0.464302 0.161196
0.372259 0.465095 0.160739
0.396277 0.466835 0.160525
0.421546 0.469551 0.159762
0.448157 0.473274 0.159243
0.475715 0.477455 0.158175
0.503990 0.481727 0.157076
0.536767 0.489479 0.155093
0.574090 0.500206 0.150881
0.603998 0.503563 0.146059
0.635981 0.508049 0.140017
0.670558 0.514031 0.132021
0.707881 0.521111 0.122621
0.747585 0.529229 0.110872
0.789731 0.537926 0.095644
0.832883 0.546593 0.075685
0.875334 0.554192 0.033387
0.924651 0.565454 0.000000
0.971679 0.575128 0.000000
1.000000 0.581384 0.000000
0.156863 0.521996 0.162142
0.160250 0.516350 0.162295
0.166079 0.510887 0.161990
0.175631 0.506584 0.162295
0.189364 0.504021 0.162142
0.206241 0.504082 0.162264
0.225681 0.505608 0.161746
0.246738 0.507378 0.161532
0.269139 0.508843 0.160983
0.291966 0.509667 0.160800
0.315435 0.509972 0.160067
0.339117 0.510399 0.159701
0.363745 0.511650 0.159152
0.389044 0.513298 0.158419
0.414984 0.515709 0.157504
0.442451 0.519188 0.156191
0.471046 0.523400 0.154879
0.500511 0.528161 0.153445
0.530541 0.532677 0.151919
0.560449 0.536614 0.149783
0.594598 0.543877 0.146975
0.636683 0.557031 0.140505
0.668116 0.559991 0.133181
0.701106 0.563745 0.124636
0.736721 0.569207 0.113710
0.774502 0.575494 0.100496
0.814389 0.582544 0.082643
0.854215 0.589044 0.058839
0.893523 0.594629 0.000000
0.931884 0.599176 0.000000
0.969451 0.603113 0.000000
1.000000 0.610193 0.000000
0.151858 0.572717 0.158968
0.156527 0.567010 0.159182
0.162783 0.561486 0.158999
0.173373 0.557061 0.159365
0.189456 0.554467 0.159121
0.207980 0.554467 0.158755
0.229129 0.555779 0.158602
0.252110 0.557671 0.157870
0.276280 0.559045 0.157321
0.301091 0.560143 0.156558
0.326238 0.560784 0.156069
0.351934 0.561364 0.155306
0.378393 0.562921 0.154330
0.405951 0.565393 0.152895
0.433722 0.568231 0.152132
0.463203 0.572107 0.150393
0.493660 0.577020 0.148318
0.525048 0.582116 0.146365
0.556817 0.586969 0.143801
0.588312 0.590967 0.140963
0.619593 0.594171 0.138186
0.653315 0.599420 0.134066
0.698634 0.613886 0.125093
0.730312 0.615686 0.116274
0.764645 0.619318 0.104402
0.801175 0.624079 0.089052
0.838560 0.629114 0.068116
0.875883 0.633570 0.021759
0.912322 0.637140 0.000000
0.947753 0.639765 0.000000
0.982238 0.641688 0.000000
1.000000 0.642908 0.000000
0.144106 0.628046 0.152651
0.149447 0.622278 0.152865
0.156802 0.616480 0.153170
0.169558 0.611933 0.153475
0.187503 0.609339 0.153140
0.208591 0.609339 0.152682
0.231724 0.610773 0.152285
0.256840 0.612909 0.151675
0.283177 0.614801 0.150820
0.310216 0.616388 0.149996
0.337682 0.617670 0.148959
0.365698 0.618891 0.147860
0.394293 0.620874 0.146456
0.423651 0.623346 0.144503
0.453620 0.626246 0.142794
0.483803 0.628962 0.140566
0.514031 0.631312 0.139040
0.544274 0.633387 0.136324
0.574090 0.634699 0.133730
0.603143 0.635004 0.131106
0.631678 0.634668 0.128237
0.659602 0.633783 0.125032
0.689998 0.635187 0.120333
0.736110 0.649928 0.109773
0.767514 0.651148 0.097230
0.801450 0.654078 0.080262
0.836393 0.657527 0.055177
0.871580 0.660761 0.000000
0.906462 0.663447 0.000000
0.940856 0.665675 0.000000
0.974640 0.667323 0.000000
1.000000 0.668544 0.000000
0.135317 0.661402 0.145663
0.142550 0.658747 0.145571
0.148562 0.656672 0.146151
0.163607 0.655634 0.145602
0.183200 0.655573 0.145327
0.206058 0.656855 0.144778
0.231510 0.658503 0.144106
0.257816 0.659968 0.143465
0.285588 0.661036 0.142611
0.313664 0.661433 0.141726
0.342077 0.661738 0.140322
0.370977 0.662348 0.138827
0.400519 0.663905 0.137179
0.430640 0.666346 0.135348
0.461646 0.669551 0.133364
0.492958 0.672724 0.130861
0.524498 0.675563 0.127962
0.556176 0.678187 0.124941
0.587610 0.680446 0.121950
0.618860 0.682094 0.118318
0.650111 0.683497 0.114137
0.680995 0.684413 0.110262
0.712215 0.685542 0.105287
0.745296 0.688228 0.098268
0.793179 0.703578 0.083772
0.827268 0.705837 0.064668
0.859312 0.706264 0.017090
0.891508 0.706813 0.000000
0.923430 0.706905 0.000000
0.955047 0.706813 0.000000
0.986267 0.706477 0.000000
1.000000 0.705745 0.000000
0.123232 0.718654 0.135409
0.129458 0.716091 0.135805
0.138613 0.713985 0.135500
0.155520 0.712612 0.135317
0.177981 0.712520 0.135134
0.203830 0.713954 0.134096
0.231510 0.716060 0.133211
0.260502 0.718074 0.132631
0.290501 0.719509 0.131594
0.320958 0.720485 0.129824
0.351415 0.721035 0.128939
0.382269 0.721736 0.126711
0.413519 0.723140 0.124727
0.445136 0.724941 0.122652
0.477241 0.727413 0.120424
0.509972 0.730068 0.117159
0.542138 0.731930 0.113863
0.574365 0.733455 0.110079
0.606317 0.734615 0.106294
0.637934 0.735256 0.102388
0.669154 0.735317 0.097261
0.700008 0.734951 0.091524
0.730678 0.734493 0.084962
0.761471 0.734188 0.077546
0.808408 0.748714 0.064088
0.852384 0.759426 0.041016
0.885435 0.759945 0.000000
0.914611 0.757198 0.000000
0.943511 0.754330 0.000000
0.971984 0.751339 0.000000
0.999817 0.748074 0.000000
1.000000 0.744686 0.000000
0.109438 0.756039 0.124575
0.117586 0.753170 0.124361
0.127382 0.751339 0.124849
0.146670 0.751308 0.124117
0.170718 0.752560 0.123690
0.198581 0.754971 0.122469
0.227939 0.758206 0.121889
0.259037 0.761807 0.120821
0.291020 0.765377 0.118807
0.323339 0.768460 0.117372
0.356176 0.771572 0.115846
0.389105 0.774044 0.113649
0.422339 0.776730 0.111147
0.456123 0.780026 0.108461
0.490639 0.784207 0.106142
0.525750 0.788602 0.102876
0.560845 0.792508 0.099916
0.595148 0.794949 0.096407
0.628534 0.795987 0.091493
0.660761 0.795499 0.085756
0.692409 0.794247 0.079133
0.723659 0.792935 0.071656
0.755520 0.792264 0.062593
0.788083 0.792447 0.045045
0.821653 0.793545 0.021820
0.856687 0.795834 0.000000
0.897704 0.803372 0.000000
0.930327 0.803128 0.000000
0.957458 0.798337 0.000000
0.983886 0.793179 0.000000
1.000000 0.787839 0.000000
1.000000 0.782284 0.000000
0.091005 0.814389 0.112245
0.100710 0.811765 0.111788
0.114351 0.810269 0.110842
0.135958 0.810086 0.110567
0.164248 0.811032 0.110384
0.194797 0.812863 0.109468
0.227054 0.815091 0.108858
0.260197 0.817594 0.107576
0.293584 0.819791 0.106386
0.327337 0.821530 0.104921
0.360693 0.823239 0.103761
0.394690 0.824338 0.101747
0.428351 0.825681 0.098970
0.462165 0.827512 0.096864
0.496834 0.830076 0.094179
0.531701 0.832944 0.091524
0.566613 0.835691 0.088319
0.601038 0.837400 0.084565
0.634485 0.837797 0.079713
0.667140 0.837217 0.072389
0.699184 0.835843 0.065339
0.730922 0.834440 0.053315
0.762966 0.833433 0.027131
0.795377 0.832944 0.002594
0.828428 0.833036 0.000000
0.861936 0.833799 0.000000
0.895567 0.834440 0.000000
0.933532 0.838987 0.000000
0.963806 0.836728 0.000000
0.988342 0.829587 0.000000
1.000000 0.822446 0.000000
1.000000 0.815366 0.000000
0.074952 0.861173 0.101747
0.088380 0.859525 0.101289
0.102815 0.858976 0.100557
0.127871 0.859525 0.100923
0.159091 0.860960 0.100526
0.192050 0.863096 0.100649
0.226322 0.865385 0.099641
0.261021 0.867674 0.099367
0.295842 0.869474 0.098909
0.330236 0.870756 0.097841
0.364874 0.871733 0.096345
0.399054 0.872160 0.094972
0.433448 0.872709 0.091859
0.467689 0.873686 0.090242
0.502403 0.875395 0.088716
0.537530 0.877440 0.086885
0.572564 0.879454 0.085512
0.607446 0.880980 0.082704
0.641230 0.881132 0.078492
0.674311 0.880308 0.071839
0.706661 0.878965 0.064515
0.738888 0.877348 0.050355
0.771054 0.875975 0.025757
0.803372 0.874907 0.000336
0.836057 0.874327 0.000000
0.869108 0.874174 0.000000
0.902190 0.874022 0.000000
0.935363 0.873991 0.000000
0.969818 0.875242 0.000000
0.997192 0.870481 0.000000
1.000000 0.861326 0.000000
1.000000 0.852537 0.000000
0.069398 0.907683 0.100038
0.082918 0.906798 0.099336
0.098939 0.906401 0.098939
0.126009 0.906554 0.098665
0.158419 0.906950 0.097627
0.192325 0.907195 0.097536
0.225895 0.906676 0.096986
0.259983 0.905608 0.094514
0.294041 0.903838 0.091310
0.327306 0.901640 0.088685
0.360388 0.899107 0.084718
0.393133 0.896666 0.080140
0.425940 0.894652 0.074952
0.458991 0.893492 0.070741
0.492470 0.893370 0.066590
0.526513 0.894438 0.062135
0.560662 0.895872 0.059236
0.594781 0.897032 0.052155
0.628229 0.897337 0.041901
0.660945 0.896757 0.022400
0.693111 0.895628 0.000000
0.725093 0.894408 0.000000
0.757168 0.893370 0.000000
0.789212 0.892576 0.000000
0.821530 0.892119 0.000000
0.854093 0.891905 0.000000
0.886656 0.891722 0.000000
0.919219 0.891569 0.000000
0.951324 0.891112 0.000000
0.984710 0.891814 0.000000
1.000000 0.887236 0.000000
1.000000 0.878416 0.000000
0.047822 0.930510 0.086976
0.068544 0.930022 0.087037
0.087770 0.930175 0.086702
0.117372 0.930785 0.087495
0.152041 0.931701 0.087556
0.186862 0.932677 0.088472
0.221866 0.933379 0.087800
0.256626 0.933745 0.087404
0.290990 0.933684 0.086793
0.325414 0.933318 0.084932
0.359655 0.932891 0.082795
0.393408 0.932311 0.080354
0.427314 0.931914 0.077089
0.461158 0.931823 0.075349
0.495277 0.932128 0.072694
