其他预设/【232】美食博客调色预设124款/1.3D LUT预设（视频调色-PR-AE-PS-FCPX-达芬奇用）/0 Only In Small Doses.cube
# Created by Adobe Lightroom plugin Export LUT (1.17.0)
# www.johnrellis.com/lightroom/exportlut.htm
# Preset: 0 Only In Small Doses
# Color profile: /Library/Application Support/Adobe/Color/Profiles/Recommended/AdobeRGB1998.icc
LUT_3D_SIZE 5
DOMAIN_MIN 0.000000 0.000000 0.000000
DOMAIN_MAX 0.903226 0.903226 0.903226
0.142458 0.142458 0.142458
0.212314 0.150515 0.149355
0.351568 0.162295 0.151797
0.570062 0.187472 0.159426
0.922545 0.216800 0.154330
0.149844 0.216556 0.150515
0.218997 0.219394 0.151278
0.356023 0.228244 0.153445
0.573144 0.259342 0.158572
0.897276 0.299962 0.143008
0.158785 0.384588 0.161685
0.242924 0.395819 0.162203
0.376867 0.377874 0.160922
0.547662 0.391821 0.153140
0.887907 0.476905 0.100771
0.135317 0.661402 0.145663
0.257816 0.659968 0.143465
0.461646 0.669551 0.133364
0.680995 0.684413 0.110262
0.923430 0.706905 0.000000
0.071107 0.967651 0.100252
0.259770 0.968658 0.100801
0.507408 0.980591 0.129061
0.733425 0.969726 0.105531
0.951873 0.957519 0.043091
0.155428 0.151400 0.244144
0.231083 0.156435 0.234501
0.389105 0.173281 0.249638
0.661707 0.156527 0.263188
0.968994 0.171481 0.273320
0.158663 0.230838 0.233097
0.231174 0.233005 0.236210
0.386053 0.244083 0.246616
0.645655 0.261143 0.255894
0.959319 0.284703 0.261692
0.161685 0.403662 0.254154
0.242710 0.405432 0.251957
0.405066 0.408087 0.250889
0.579126 0.406500 0.230625
0.919982 0.476173 0.216739
0.090394 0.670527 0.262669
0.224765 0.665888 0.243076
0.454780 0.676417 0.239231
0.687739 0.692622 0.230381
0.928801 0.704860 0.185000
0.000000 0.970977 0.252598
0.231968 0.971679 0.253056
0.488746 0.968780 0.251865
0.725490 0.964416 0.251164
0.947784 0.954101 0.237400
0.181643 0.157748 0.453132
0.269139 0.164279 0.443977
0.418647 0.172671 0.428443
0.691859 0.127840 0.490639
0.987060 0.164462 0.529625
0.172763 0.256443 0.427131
0.255467 0.254337 0.427558
0.416571 0.252781 0.427771
0.698909 0.242283 0.489265
0.983215 0.290288 0.525383
0.161105 0.425910 0.432532
0.245335 0.425299 0.433021
0.435584 0.441566 0.452216
0.686061 0.448646 0.460700
0.965301 0.485695 0.490974
0.000000 0.702449 0.489754
0.206760 0.710933 0.489570
0.444404 0.708949 0.468391
0.699428 0.707332 0.461250
0.933959 0.686427 0.404761
0.000000 0.985931 0.521904
0.247837 0.981964 0.518181
0.519615 0.972015 0.536095
0.746273 0.969360 0.552361
0.953704 0.960784 0.552667
0.226017 0.173434 0.781979
0.325170 0.169833 0.775784
0.523491 0.151369 0.768032
0.747036 0.106355 0.766903
0.990448 0.237125 0.780667
0.176364 0.287083 0.776669
0.298955 0.283268 0.776913
0.517723 0.270573 0.773404
0.753353 0.256901 0.774533
0.992859 0.372107 0.788113
0.071504 0.522820 0.781582
0.251652 0.516838 0.780148
0.504234 0.509483 0.777646
0.757504 0.513329 0.780392
0.981689 0.607385 0.798734
0.000000 0.752316 0.766049
0.212802 0.755337 0.769802
0.488350 0.753414 0.768765
0.766415 0.773037 0.785122
0.960082 0.795438 0.801877
0.191318 0.991333 0.773373
0.328893 0.988708 0.774777
0.573205 0.977234 0.782223
0.810269 0.963165 0.819730
0.957916 0.962585 0.828702
0.311498 0.274815 1.000000
0.384283 0.279088 1.000000
0.559289 0.294163 0.999237
0.765072 0.330297 0.996490
0.971527 0.396704 0.992554
0.331914 0.382147 1.000000
0.400885 0.386023 0.999725
0.570947 0.400732 0.997955
0.772824 0.436378 0.995453
0.971283 0.493416 0.991272
0.441901 0.612757 0.993683
0.520287 0.634211 0.992065
0.648676 0.649348 0.990692
0.808255 0.670619 0.988983
0.969665 0.693812 0.985534
0.462287 0.789548 0.988769
0.537133 0.799283 0.987945
0.706935 0.828214 0.984283
0.855985 0.858030 0.980224
0.968627 0.864164 0.978607
0.491707 0.973602 0.983185
0.559289 0.973693 0.982818
0.714809 0.972595 0.979980
0.865934 0.972503 0.977325
0.974304 0.975921 0.978485
