其他预设/【232】美食博客调色预设124款/1.3D LUT预设（视频调色-PR-AE-PS-FCPX-达芬奇用）/0 Satisfied With The Best.cube
# Created by Adobe Lightroom plugin Export LUT (1.17.0)
# www.johnrellis.com/lightroom/exportlut.htm
# Preset: 0 Satisfied With The Best
# Color profile: /Library/Application Support/Adobe/Color/Profiles/Recommended/AdobeRGB1998.icc
LUT_3D_SIZE 32
0.000000 0.000000 0.000000
0.007752 0.000000 0.000885
0.018280 0.000488 0.000580
0.045899 0.000580 0.000916
0.073304 0.001801 0.001495
0.098817 0.002533 0.002197
0.127535 0.000366 0.001770
0.158663 0.000000 0.000000
0.192325 0.000000 0.000000
0.228489 0.000000 0.000000
0.267338 0.000000 0.000000
0.308446 0.000000 0.000000
0.351537 0.000000 0.000000
0.396124 0.000000 0.000000
0.441230 0.000000 0.000000
0.486671 0.000000 0.000000
0.531731 0.000000 0.000000
0.575494 0.000000 0.000000
0.617884 0.000000 0.000000
0.665797 0.000000 0.000000
0.713985 0.000000 0.000000
0.760830 0.000000 0.000000
0.804746 0.000000 0.000000
0.845609 0.000000 0.000000
0.883604 0.000000 0.000000
0.919219 0.000000 0.000000
0.952514 0.000000 0.000000
0.983368 0.000000 0.000000
1.000000 0.000000 0.000000
1.000000 0.000000 0.000000
1.000000 0.034180 0.029236
1.000000 0.092134 0.090791
0.001343 0.007965 0.000397
0.007752 0.008057 0.001312
0.019623 0.008453 0.000946
0.047028 0.009766 0.001221
0.073640 0.012177 0.001709
0.099306 0.013916 0.002319
0.127626 0.015564 0.000519
0.158511 0.015869 0.000000
0.192081 0.013397 0.000000
0.228031 0.011444 0.000000
0.266636 0.005005 0.000000
0.307683 0.000000 0.000000
0.350469 0.000000 0.000000
0.394873 0.000000 0.000000
0.440040 0.000000 0.000000
0.485328 0.000000 0.000000
0.530175 0.000000 0.000000
0.573877 0.000000 0.000000
0.616205 0.000000 0.000000
0.663661 0.000000 0.000000
0.711452 0.000000 0.000000
0.758053 0.000000 0.000000
0.801938 0.000000 0.000000
0.842954 0.000000 0.000000
0.881163 0.000000 0.000000
0.916991 0.000000 0.000000
0.950561 0.000000 0.000000
0.981689 0.000000 0.000000
1.000000 0.000000 0.000000
1.000000 0.000000 0.000000
1.000000 0.061189 0.020752
1.000000 0.100465 0.087984
0.000610 0.019776 0.001617
0.008576 0.019623 0.001404
0.020264 0.020020 0.002167
0.047395 0.022553 0.002319
0.074189 0.025940 0.002716
0.099672 0.030060 0.002014
0.127779 0.034119 0.001129
0.158633 0.036866 0.000000
0.192111 0.037995 0.000000
0.227909 0.038666 0.000000
0.266423 0.036072 0.000000
0.307164 0.033753 0.000000
0.349920 0.026398 0.000000
0.394293 0.019440 0.000000
0.439185 0.009644 0.000000
0.484504 0.000000 0.000000
0.529351 0.000000 0.000000
0.572992 0.000000 0.000000
0.615381 0.000000 0.000000
0.662776 0.000000 0.000000
0.710201 0.000000 0.000000
0.756710 0.000000 0.000000
0.800565 0.000000 0.000000
0.841581 0.000000 0.000000
0.879881 0.000000 0.000000
0.915801 0.000000 0.000000
0.949493 0.000000 0.000000
0.980774 0.000000 0.000000
1.000000 0.000000 0.000000
1.000000 0.032074 0.000000
1.000000 0.080812 0.017182
1.000000 0.111330 0.087404
0.002625 0.048249 0.002441
0.011780 0.048890 0.002136
0.023438 0.049195 0.002869
0.050813 0.050904 0.003021
0.075441 0.057069 0.003021
0.100984 0.061219 0.001953
0.128878 0.064668 0.000641
0.159548 0.067750 0.000000
0.192630 0.070405 0.000000
0.228489 0.072053 0.000000
0.266758 0.074037 0.000000
0.307378 0.074861 0.000000
0.349981 0.076020 0.000000
0.393927 0.075776 0.000000
0.438819 0.074647 0.000000
0.483894 0.072206 0.000000
0.528588 0.070192 0.000000
0.572076 0.067170 0.000000
0.615076 0.062989 0.000000
0.661372 0.056825 0.000000
0.708248 0.045747 0.000000
0.754391 0.038941 0.000000
0.798306 0.025025 0.000000
0.839719 0.015869 0.000000
0.878538 0.017609 0.000000
0.914946 0.018952 0.000000
0.949035 0.034180 0.000000
0.980499 0.057954 0.000000
1.000000 0.073548 0.000000
1.000000 0.091768 0.000000
1.000000 0.111330 0.019165
1.000000 0.132998 0.087831
0.002594 0.075319 0.002960
0.012970 0.075898 0.002533
0.028534 0.076173 0.003143
0.058442 0.077333 0.003021
0.078706 0.078706 0.003326
0.102632 0.082368 0.001984
0.130434 0.086610 0.000000
0.160616 0.091005 0.000000
0.193637 0.094789 0.000000
0.228946 0.098604 0.000000
0.267033 0.102113 0.000000
0.307347 0.105348 0.000000
0.349767 0.107698 0.000000
0.393561 0.110079 0.000000
0.438270 0.111421 0.000000
0.483406 0.112520 0.000000
0.528161 0.112642 0.000000
0.571832 0.112001 0.000000
0.615747 0.111482 0.000000
0.661494 0.111177 0.000000
0.707729 0.109438 0.000000
0.753536 0.108736 0.000000
0.797238 0.107546 0.000000
0.838682 0.106722 0.000000
0.877501 0.106691 0.000000
0.914031 0.108003 0.000000
0.948150 0.110384 0.000000
0.979736 0.115328 0.000000
1.000000 0.122469 0.000000
1.000000 0.132296 0.000000
1.000000 0.145113 0.022278
1.000000 0.161105 0.088716
0.001495 0.102388 0.000946
0.014588 0.102693 0.000488
0.031189 0.103365 0.000885
0.062409 0.103944 0.000000
0.084138 0.105104 0.000000
0.106752 0.106722 0.000000
0.133028 0.110689 0.000000
0.162997 0.115694 0.000000
0.195499 0.120485 0.000000
0.230655 0.125551 0.000000
0.268406 0.130343 0.000000
0.308568 0.134981 0.000000
0.350622 0.139345 0.000000
0.394385 0.142947 0.000000
0.438941 0.146334 0.000000
0.483955 0.148806 0.000000
0.528618 0.150576 0.000000
0.572107 0.151492 0.000000
0.616968 0.152499 0.000000
0.662409 0.153597 0.000000
0.708492 0.153933 0.000000
0.754269 0.154696 0.000000
0.814878 0.158907 0.000000
0.854978 0.158907 0.000000
0.892180 0.159396 0.000000
0.926970 0.160281 0.000000
0.959197 0.162448 0.000000
0.988861 0.164920 0.000000
1.000000 0.169863 0.000000
1.000000 0.176883 0.000000
1.000000 0.186282 0.065126
1.000000 0.198672 0.104952
0.000000 0.133913 0.000000
0.010620 0.134218 0.000000
0.032654 0.134585 0.000000
0.065858 0.135348 0.000000
0.089631 0.136446 0.000000
0.114321 0.137758 0.000000
0.139651 0.139528 0.000000
0.167758 0.143282 0.000000
0.200473 0.149050 0.000000
0.235721 0.155093 0.000000
0.273716 0.161227 0.000000
0.314061 0.166934 0.000000
0.355993 0.172457 0.000000
0.399634 0.177279 0.000000
0.443977 0.181643 0.000000
0.488380 0.185000 0.000000
0.532464 0.187900 0.000000
0.577356 0.190249 0.000000
0.622431 0.192233 0.000000
0.668421 0.194369 0.000000
0.715602 0.196506 0.000000
0.762509 0.198123 0.000000
0.807431 0.199191 0.000000
0.849577 0.200565 0.000000
0.888579 0.201266 0.000000
0.924376 0.202090 0.000000
0.957183 0.203433 0.000000
0.987152 0.205173 0.000000
1.000000 0.208286 0.000000
1.000000 0.213260 0.000000
1.000000 0.219821 0.065888
1.000000 0.229129 0.106264
0.000000 0.166354 0.000000
0.005402 0.166537 0.000000
0.028840 0.166903 0.000000
0.067353 0.167514 0.000000
0.093629 0.168399 0.000000
0.119661 0.169711 0.000000
0.145968 0.171237 0.000000
0.173129 0.173037 0.000000
0.202853 0.176883 0.000000
0.237980 0.183566 0.000000
0.275761 0.190524 0.000000
0.315770 0.197360 0.000000
0.357519 0.203922 0.000000
0.400671 0.209842 0.000000
0.444739 0.214969 0.000000
0.488869 0.219455 0.000000
0.533593 0.223423 0.000000
0.578729 0.226719 0.000000
0.622858 0.229587 0.000000
0.668177 0.232273 0.000000
0.714687 0.234897 0.000000
0.761196 0.237278 0.000000
0.805722 0.239231 0.000000
0.847623 0.240299 0.000000
0.886534 0.241276 0.000000
0.922393 0.241855 0.000000
0.955322 0.242741 0.000000
0.985473 0.243870 0.000000
1.000000 0.245884 0.000000
1.000000 0.249180 0.000000
1.000000 0.254398 0.069276
1.000000 0.261357 0.108370
0.000000 0.201358 0.000000
0.000000 0.201389 0.000000
0.023896 0.201724 0.000000
0.067750 0.202426 0.000000
0.096742 0.203189 0.000000
0.124544 0.204227 0.000000
0.152346 0.205722 0.000000
0.180514 0.207431 0.000000
0.209537 0.209445 0.000000
0.241062 0.213504 0.000000
0.278508 0.221164 0.000000
0.318303 0.228733 0.000000
0.359838 0.236088 0.000000
0.402777 0.242985 0.000000
0.446448 0.248966 0.000000
0.490913 0.254429 0.000000
0.536645 0.259770 0.000000
0.580682 0.263615 0.000000
0.624170 0.266545 0.000000
0.668849 0.269780 0.000000
0.714870 0.273136 0.000000
0.760891 0.276005 0.000000
0.804990 0.278050 0.000000
0.846555 0.279667 0.000000
0.885313 0.280766 0.000000
0.921111 0.281102 0.000000
0.954009 0.281437 0.000000
0.984192 0.282170 0.000000
1.000000 0.283268 0.000000
1.000000 0.285374 0.000000
1.000000 0.288762 0.073213
1.000000 0.294316 0.111482
0.000000 0.238743 0.000000
0.000000 0.238926 0.000000
0.015259 0.239170 0.000000
0.067567 0.239628 0.000000
0.099001 0.240391 0.000000
0.129061 0.241398 0.000000
0.158175 0.242466 0.000000
0.187839 0.244144 0.000000
0.217838 0.246128 0.000000
0.248325 0.248478 0.000000
0.281346 0.252293 0.000000
0.320867 0.260685 0.000000
0.362219 0.268772 0.000000
0.404883 0.276249 0.000000
0.449592 0.283879 0.000000
0.495155 0.290959 0.000000
0.540185 0.296452 0.000000
0.583520 0.300511 0.000000
0.626612 0.304051 0.000000
0.670771 0.307500 0.000000
0.716182 0.311070 0.000000
0.761074 0.314092 0.000000
0.804196 0.316472 0.000000
0.844999 0.317998 0.000000
0.883330 0.318700 0.000000
0.919036 0.318975 0.000000
0.952087 0.319280 0.000000
0.982513 0.319463 0.000000
1.000000 0.320073 0.000000
1.000000 0.321447 0.000000
1.000000 0.323980 0.079164
1.000000 0.328038 0.117403
0.000000 0.278019 0.000000
0.000000 0.278294 0.000000
0.002533 0.278447 0.000000
0.065888 0.278904 0.000000
0.101137 0.279606 0.000000
0.132662 0.280613 0.000000
0.164096 0.281956 0.000000
0.194888 0.283482 0.000000
0.226078 0.285374 0.000000
0.257816 0.287602 0.000000
0.290135 0.290074 0.000000
0.324163 0.293797 0.000000
0.365667 0.302739 0.000000
0.409369 0.311894 0.000000
0.453925 0.320134 0.000000
0.498512 0.327245 0.000000
0.542657 0.332860 0.000000
0.585290 0.337133 0.000000
0.627802 0.340734 0.000000
0.671687 0.344488 0.000000
0.716579 0.348638 0.000000
0.761074 0.352026 0.000000
0.803983 0.354528 0.000000
0.844480 0.356176 0.000000
0.882597 0.357092 0.000000
0.918059 0.357183 0.000000
0.950958 0.357092 0.000000
0.981292 0.356786 0.000000
1.000000 0.356817 0.000000
1.000000 0.357244 0.009766
1.000000 0.358862 0.085115
1.000000 0.361730 0.122560
0.000000 0.319982 0.000000
0.000000 0.320165 0.000000
0.000000 0.320317 0.000000
0.062287 0.320714 0.000000
0.101625 0.321477 0.000000
0.135897 0.322484 0.000000
0.169131 0.323674 0.000000
0.201541 0.325261 0.000000
0.234012 0.327062 0.000000
0.267033 0.329198 0.000000
0.300328 0.331670 0.000000
0.335637 0.335485 0.000000
0.380713 0.347875 0.000000
0.425147 0.357549 0.000000
0.469917 0.366094 0.000000
0.514397 0.372961 0.000000
0.557977 0.378363 0.000000
0.600000 0.382238 0.000000
0.642145 0.385565 0.000000
0.685542 0.389319 0.000000
0.729427 0.392920 0.000000
0.772305 0.395666 0.000000
0.813382 0.397375 0.000000
0.852323 0.398322 0.000000
0.889006 0.398566 0.000000
0.923339 0.398169 0.000000
0.955138 0.397406 0.000000
0.984436 0.396490 0.000000
1.000000 0.395636 0.000000
1.000000 0.395239 0.056275
1.000000 0.395727 0.100221
1.000000 0.397528 0.134615
0.000000 0.366979 0.000000
0.000000 0.367163 0.000000
0.000000 0.367102 0.000000
0.055482 0.367346 0.000000
0.101564 0.367559 0.000000
0.139254 0.368139 0.000000
0.174228 0.368994 0.000000
0.208194 0.370245 0.000000
0.242466 0.371984 0.000000
0.277775 0.375616 0.000000
0.313970 0.379828 0.000000
0.351049 0.384314 0.000000
0.388800 0.388891 0.000000
0.427283 0.393378 0.000000
0.472023 0.402472 0.000000
0.516167 0.409827 0.000000
0.559106 0.415229 0.000000
0.600702 0.419135 0.000000
0.642390 0.422614 0.000000
0.685389 0.426368 0.000000
0.728786 0.430213 0.000000
0.771237 0.433082 0.000000
0.811917 0.434882 0.000000
0.850645 0.435737 0.000000
0.887144 0.435828 0.000000
0.921294 0.435279 0.000000
0.953124 0.434272 0.000000
0.982422 0.432959 0.000000
1.000000 0.431525 0.000000
1.000000 0.430640 0.065919
1.000000 0.430365 0.106600
1.000000 0.431220 0.140841
0.000000 0.411536 0.000000
0.000000 0.411505 0.000000
0.000000 0.411566 0.000000
0.038819 0.411688 0.000000
0.100160 0.411933 0.000000
0.140047 0.412787 0.000000
0.177859 0.414282 0.000000
0.214206 0.416236 0.000000
0.249851 0.418494 0.000000
0.285985 0.421485 0.000000
0.322850 0.425025 0.000000
0.360235 0.428717 0.000000
0.398169 0.432746 0.000000
0.436530 0.436591 0.000000
0.475074 0.440070 0.000000
0.517906 0.446815 0.000000
0.559991 0.451942 0.000000
0.601312 0.455940 0.000000
0.642786 0.459510 0.000000
0.685267 0.463447 0.000000
0.728481 0.467353 0.000000
0.770626 0.470436 0.000000
0.811002 0.472328 0.000000
0.849516 0.473152 0.000000
0.885832 0.473304 0.000000
0.919951 0.472450 0.000000
0.951690 0.471077 0.000000
0.980987 0.469490 0.000000
1.000000 0.467750 0.000000
1.000000 0.466224 0.077302
1.000000 0.465309 0.115358
1.000000 0.465400 0.149020
0.000000 0.459297 0.000000
0.000000 0.459480 0.000000
0.000000 0.459510 0.000000
0.015137 0.459724 0.000000
0.097993 0.460060 0.000000
0.141939 0.460609 0.000000
0.181003 0.461585 0.000000
0.218540 0.462776 0.000000
0.255467 0.464607 0.000000
0.292607 0.467079 0.000000
0.329931 0.469917 0.000000
0.367651 0.473121 0.000000
0.405951 0.476692 0.000000
0.444404 0.479896 0.000000
0.482765 0.482765 0.000000
0.520958 0.485176 0.000000
0.561456 0.489326 0.000000
0.602197 0.493111 0.000000
0.643427 0.496803 0.000000
0.685756 0.500786 0.000000
0.728450 0.504753 0.000000
0.770108 0.507805 0.000000
0.810178 0.509728 0.000000
0.848417 0.510582 0.000000
0.884611 0.510369 0.000000
0.918730 0.509697 0.000000
0.950622 0.508141 0.000000
0.980102 0.506340 0.000000
1.000000 0.504295 0.023896
1.000000 0.502403 0.091493
1.000000 0.501030 0.127108
1.000000 0.500450 0.161440
0.000000 0.506920 0.000000
0.000000 0.507073 0.000000
0.000000 0.507164 0.000000
0.000000 0.507378 0.000000
0.093324 0.507652 0.000000
0.141726 0.508171 0.000000
0.183230 0.508965 0.000000
0.222110 0.510155 0.000000
0.260624 0.511620 0.000000
0.298589 0.513390 0.000000
0.336278 0.515496 0.000000
0.374243 0.517815 0.000000
0.411994 0.520012 0.000000
0.449928 0.522087 0.000000
0.487892 0.524010 0.000000
0.525689 0.525658 0.000000
0.563348 0.527153 0.000000
0.603174 0.530358 0.000000
0.644465 0.534325 0.000000
0.686885 0.538720 0.000000
0.729458 0.542992 0.000000
0.770962 0.546044 0.000000
0.810819 0.547967 0.000000
0.848844 0.548638 0.000000
0.884855 0.548486 0.000000
0.918853 0.547417 0.000000
0.950500 0.545586 0.000000
0.979767 0.543450 0.000000
1.000000 0.540948 0.062837
1.000000 0.538445 0.105104
1.000000 0.536248 0.139620
1.000000 0.534905 0.172396
0.000000 0.551568 0.000000
0.000000 0.551598 0.000000
0.000000 0.551598 0.000000
0.000000 0.551781 0.000000
0.089357 0.551843 0.000000
0.140200 0.552239 0.000000
0.183352 0.552697 0.000000
0.224155 0.553521 0.000000
0.262974 0.554589 0.000000
0.301366 0.555901 0.000000
0.339666 0.557641 0.000000
0.377722 0.559533 0.000000
0.415961 0.561456 0.000000
0.454017 0.563378 0.000000
0.492012 0.564904 0.000000
0.529686 0.566278 0.000000
0.567468 0.567498 0.000000
0.605341 0.568750 0.000000
0.645289 0.571893 0.000000
0.687434 0.576379 0.000000
0.729549 0.580499 0.000000
0.770626 0.583551 0.000000
0.810208 0.585351 0.000000
0.848051 0.585962 0.000000
0.883940 0.585626 0.000000
0.917784 0.584436 0.000000
0.949401 0.582391 0.000000
0.978637 0.579919 0.000000
1.000000 0.576959 0.079927
1.000000 0.574060 0.118227
1.000000 0.571313 0.151217
1.000000 0.569268 0.184421
0.000000 0.595331 0.000000
0.000000 0.595422 0.000000
0.000000 0.604944 0.000000
0.000000 0.604944 0.000000
0.088106 0.604852 0.000000
0.141939 0.604852 0.000000
0.186740 0.604913 0.000000
0.228733 0.605188 0.000000
0.268711 0.605829 0.000000
0.308232 0.606714 0.000000
0.347173 0.607843 0.000000
0.385870 0.609125 0.000000
0.424292 0.610315 0.000000
0.462898 0.611536 0.000000
0.501061 0.612604 0.000000
0.539178 0.613519 0.000000
0.577173 0.614343 0.000000
0.615137 0.615106 0.000000
0.653132 0.615991 0.000000
0.693233 0.618708 0.000000
0.734371 0.621973 0.000000
0.774594 0.624384 0.000000
0.813413 0.625513 0.000000
0.850370 0.625544 0.000000
0.885313 0.624384 0.000000
0.918303 0.622370 0.000000
0.949126 0.619654 0.000000
0.977752 0.616480 0.044007
1.000000 0.612970 0.096956
1.000000 0.609430 0.131868
1.000000 0.606073 0.163882
1.000000 0.603296 0.196750
0.000000 0.641535 0.000000
0.000000 0.642878 0.000000
0.000000 0.644129 0.000000
0.000000 0.645350 0.000000
0.081331 0.646174 0.000000
0.140200 0.646601 0.000000
0.186465 0.646967 0.000000
0.229129 0.647211 0.000000
0.269627 0.647822 0.000000
0.309789 0.648524 0.000000
0.349035 0.649561 0.000000
0.388159 0.650660 0.000000
0.426917 0.651759 0.000000
0.465644 0.652705 0.000000
0.503929 0.653651 0.000000
0.542168 0.654353 0.000000
0.580377 0.655085 0.000000
0.618311 0.655726 0.000000
0.656519 0.656580 0.000000
0.694820 0.657557 0.000000
0.734340 0.659480 0.000000
0.774380 0.661860 0.000000
0.812985 0.662989 0.000000
0.849790 0.662806 0.000000
0.884581 0.661555 0.000000
0.917479 0.659297 0.000000
0.948180 0.656275 0.000000
0.976654 0.652705 0.074830
1.000000 0.648707 0.112520
1.000000 0.644587 0.145602
1.000000 0.640711 0.177768
1.000000 0.637232 0.209659
0.000000 0.684688 0.000000
0.000000 0.685969 0.000000
0.000000 0.687221 0.000000
0.000000 0.688228 0.000000
0.076875 0.689113 0.000000
0.137850 0.689509 0.000000
0.186038 0.689723 0.000000
0.229679 0.689937 0.000000
0.271031 0.690425 0.000000
0.311406 0.691096 0.000000
0.351202 0.691890 0.000000
0.390478 0.692836 0.000000
0.429541 0.693629 0.000000
0.468360 0.694453 0.000000
0.506859 0.695003 0.000000
0.545068 0.695491 0.000000
0.583185 0.695918 0.000000
0.621210 0.696254 0.000000
0.659236 0.696712 0.000000
0.697444 0.697505 0.000000
0.735744 0.698329 0.000000
0.774563 0.699733 0.000000
0.812924 0.700679 0.000000
0.849424 0.700252 0.000000
0.884031 0.698695 0.000000
0.916655 0.696101 0.000000
0.947082 0.692592 0.043305
0.975372 0.688533 0.093935
1.000000 0.684108 0.128084
1.000000 0.679377 0.160098
1.000000 0.674861 0.191135
1.000000 0.670710 0.223423
0.000000 0.727413 0.000000
0.000000 0.728481 0.000000
0.000000 0.729580 0.000000
0.000000 0.730526 0.000000
0.073152 0.731228 0.000000
0.137087 0.731594 0.000000
0.185824 0.731716 0.000000
0.229953 0.731868 0.000000
0.272068 0.732082 0.000000
0.312688 0.732387 0.000000
0.352422 0.732998 0.000000
0.391974 0.733577 0.000000
0.430976 0.734157 0.000000
0.470039 0.734585 0.000000
0.508476 0.735073 0.000000
0.547082 0.735500 0.000000
0.585412 0.736080 0.000000
0.623835 0.736690 0.000000
0.662226 0.737453 0.000000
0.700801 0.738369 0.000000
0.739406 0.739437 0.000000
0.778103 0.740566 0.000000
0.816342 0.741390 0.000000
0.852720 0.740719 0.000000
0.887083 0.738735 0.000000
0.919280 0.735714 0.026429
0.949279 0.731624 0.087495
0.977050 0.726864 0.121035
1.000000 0.721706 0.151705
1.000000 0.716274 0.181552
1.000000 0.710964 0.212558
1.000000 0.706020 0.244846
0.000000 0.772457 0.000000
0.000000 0.772946 0.000000
0.000000 0.773281 0.000000
0.000000 0.773678 0.000000
0.073793 0.773770 0.000000
0.137911 0.773800 0.000000
0.187503 0.773800 0.000000
0.231357 0.773831 0.000000
0.273747 0.774075 0.000000
0.314794 0.774411 0.000000
0.355016 0.774990 0.000000
0.394812 0.775387 0.000000
0.434028 0.775723 0.000000
0.472786 0.776059 0.000000
0.511437 0.776089 0.000000
0.549645 0.776242 0.000000
0.587884 0.776364 0.000000
0.626062 0.776486 0.000000
0.664057 0.776822 0.000000
0.702083 0.777096 0.000000
0.740017 0.777462 0.000000
0.777890 0.777890 0.000000
0.815579 0.778286 0.000000
0.852506 0.778073 0.000000
0.886442 0.775631 0.000000
0.918364 0.772122 0.073060
0.948150 0.767575 0.108339
0.975677 0.762417 0.138399
1.000000 0.756649 0.168368
1.000000 0.750668 0.197391
1.000000 0.744564 0.227817
1.000000 0.738949 0.260014
0.000000 0.811124 0.000000
0.000000 0.811521 0.000000
0.000000 0.811917 0.000000
0.000000 0.812192 0.000000
0.078309 0.812314 0.000000
0.140963 0.812161 0.000000
0.189334 0.812070 0.000000
0.233219 0.811887 0.000000
0.275303 0.811948 0.000000
0.315984 0.812009 0.000000
0.355993 0.812253 0.000000
0.395361 0.812467 0.000000
0.434363 0.812619 0.000000
0.473121 0.812680 0.000000
0.511589 0.812650 0.000000
0.549676 0.812711 0.000000
0.587793 0.812680 0.000000
0.625544 0.812741 0.000000
0.663416 0.812833 0.000000
0.701167 0.812985 0.000000
0.738796 0.813199 0.000000
0.776333 0.813474 0.000000
0.813687 0.813748 0.000000
0.850889 0.813870 0.011749
0.885008 0.811429 0.054871
0.916594 0.807523 0.095216
0.946197 0.802579 0.125643
0.973571 0.796963 0.154757
0.998657 0.790677 0.182834
1.000000 0.784085 0.212406
1.000000 0.777462 0.242496
1.000000 0.771206 0.274907
0.000000 0.850370 0.000000
0.000000 0.850858 0.000000
0.000000 0.851072 0.000000
0.000000 0.851164 0.000000
0.093843 0.850980 0.000000
0.148653 0.850736 0.000000
0.195163 0.850278 0.000000
0.237583 0.849821 0.000000
0.278965 0.849363 0.000000
0.318761 0.849027 0.000000
0.357977 0.848692 0.000000
0.396918 0.848417 0.000000
0.435279 0.848142 0.000000
0.473426 0.847745 0.000000
0.511254 0.847196 0.000000
0.548699 0.846647 0.000000
0.586145 0.846098 0.000000
0.623407 0.845670 0.000000
0.660578 0.845457 0.000000
0.697932 0.845457 0.000000
0.735164 0.845548 0.000000
0.772122 0.845579 0.028595
0.808835 0.845457 0.067872
0.845151 0.845151 0.086244
0.880949 0.844663 0.103120
0.916136 0.843778 0.118044
0.945220 0.838102 0.145663
0.972198 0.831724 0.172244
0.996887 0.824765 0.199649
1.000000 0.817472 0.228580
1.000000 0.810178 0.259007
1.000000 0.803220 0.291844
0.000000 0.883757 0.000000
0.000000 0.884154 0.000000
0.000000 0.884367 0.000000
0.027710 0.884398 0.000000
0.110353 0.884215 0.000000
0.158602 0.883940 0.000000
0.201816 0.883574 0.000000
0.242802 0.883116 0.000000
0.282780 0.882750 0.000000
0.321904 0.882414 0.000000
0.360296 0.882109 0.000000
0.398688 0.881865 0.000000
0.436652 0.881559 0.000000
0.474311 0.881132 0.000000
0.511711 0.880613 0.000000
0.548760 0.879973 0.000000
0.585748 0.879332 0.000000
0.622522 0.878752 0.000000
0.659266 0.878325 0.041474
0.695888 0.878019 0.068940
0.732418 0.877714 0.086915
0.768734 0.877440 0.102632
0.804807 0.877012 0.115755
0.840513 0.876432 0.129397
0.875700 0.875700 0.142275
0.910491 0.874846 0.154879
0.944884 0.873869 0.167086
0.971557 0.866941 0.193484
0.995911 0.859312 0.220462
1.000000 0.851286 0.248539
1.000000 0.843229 0.279057
1.000000 0.835477 0.312169
0.000000 0.915557 0.000000
0.000000 0.915801 0.000000
0.007141 0.915862 0.000000
0.087282 0.915740 0.000000
0.131624 0.915435 0.000000
0.172549 0.915038 0.000000
0.211734 0.914549 0.000000
0.250401 0.914031 0.000000
0.288518 0.913573 0.000000
0.326085 0.913176 0.000000
0.363684 0.912749 0.000000
0.401099 0.912444 0.000000
0.438209 0.912047 0.008240
0.475166 0.911559 0.038361
0.511772 0.910887 0.060853
0.548119 0.910124 0.073701
0.584405 0.909300 0.084901
0.620508 0.908507 0.096468
0.656550 0.907836 0.107057
0.692500 0.907195 0.118990
0.728237 0.906676 0.131106
0.763912 0.906065 0.142489
0.799100 0.905364 0.154696
0.834043 0.904540 0.166049
0.868467 0.903593 0.177646
0.902464 0.902495 0.189059
0.936034 0.901335 0.201175
0.969116 0.900084 0.213138
0.993988 0.892454 0.238499
1.000000 0.883757 0.266667
1.000000 0.874937 0.297093
1.000000 0.866361 0.330053
0.061006 0.943908 0.055756
0.077852 0.943969 0.058991
0.095552 0.944030 0.059937
0.123110 0.943938 0.060883
0.156924 0.943725 0.062867
0.191196 0.943572 0.067201
0.226474 0.943420 0.072297
0.262364 0.943359 0.077150
0.298558 0.943328 0.084321
0.334874 0.943328 0.091524
0.371344 0.943297 0.099092
0.407630 0.943267 0.107576
0.443946 0.943084 0.114992
0.480110 0.942687 0.122255
0.515862 0.942077 0.130434
0.551476 0.941283 0.137697
0.586938 0.940337 0.145235
0.622187 0.939361 0.153506
0.657374 0.938415 0.161929
0.692470 0.937499 0.170932
0.727321 0.936614 0.180606
0.761959 0.935637 0.191165
0.796292 0.934569 0.201450
0.830167 0.933410 0.212009
0.863676 0.932128 0.222599
0.896635 0.930724 0.233982
0.929198 0.929229 0.245121
0.961303 0.927703 0.256687
0.992889 0.926177 0.268772
1.000000 0.917967 0.294347
1.000000 0.908080 0.324559
1.000000 0.898405 0.357397
0.131472 0.972229 0.129976
0.138735 0.972290 0.130617
0.148013 0.972198 0.130953
0.165438 0.972045 0.131777
0.189548 0.971740 0.132387
0.217716 0.971374 0.133364
0.247684 0.971008 0.136263
0.279454 0.970611 0.138735
0.312352 0.970245 0.142458
0.346105 0.969818 0.146700
0.380133 0.969360 0.151095
0.414527 0.968872 0.155917
0.448951 0.968292 0.161990
0.483497 0.967559 0.167514
0.517967 0.966705 0.173861
