其他预设/【232】美食博客调色预设124款/1.3D LUT预设（视频调色-PR-AE-PS-FCPX-达芬奇用）/0 Satisfied With The Best.cube
# Created by Adobe Lightroom plugin Export LUT (1.17.0)
# www.johnrellis.com/lightroom/exportlut.htm
# Preset: 0 Satisfied With The Best
# Color profile: /Library/Application Support/Adobe/Color/Profiles/Recommended/AdobeRGB1998.icc
LUT_3D_SIZE 8
DOMAIN_MIN 0.000000 0.000000 0.000000
DOMAIN_MAX 0.903226 0.903226 0.903226
0.000000 0.000000 0.000000
0.073304 0.001801 0.001495
0.192325 0.000000 0.000000
0.351537 0.000000 0.000000
0.531731 0.000000 0.000000
0.713985 0.000000 0.000000
0.883604 0.000000 0.000000
1.000000 0.000000 0.000000
0.002594 0.075319 0.002960
0.078706 0.078706 0.003326
0.193637 0.094789 0.000000
0.349767 0.107698 0.000000
0.528161 0.112642 0.000000
0.707729 0.109438 0.000000
0.877501 0.106691 0.000000
1.000000 0.122469 0.000000
0.000000 0.201358 0.000000
0.096742 0.203189 0.000000
0.209537 0.209445 0.000000
0.359838 0.236088 0.000000
0.536645 0.259770 0.000000
0.714870 0.273136 0.000000
0.885313 0.280766 0.000000
1.000000 0.283268 0.000000
0.000000 0.366979 0.000000
0.101564 0.367559 0.000000
0.242466 0.371984 0.000000
0.388800 0.388891 0.000000
0.559106 0.415229 0.000000
0.728786 0.430213 0.000000
0.887144 0.435828 0.000000
1.000000 0.431525 0.000000
0.000000 0.551568 0.000000
0.089357 0.551843 0.000000
0.262974 0.554589 0.000000
0.415961 0.561456 0.000000
0.567468 0.567498 0.000000
0.729549 0.580499 0.000000
0.883940 0.585626 0.000000
1.000000 0.576959 0.079927
0.000000 0.727413 0.000000
0.073152 0.731228 0.000000
0.272068 0.732082 0.000000
0.430976 0.734157 0.000000
0.585412 0.736080 0.000000
0.739406 0.739437 0.000000
0.887083 0.738735 0.000000
1.000000 0.721706 0.151705
0.000000 0.883757 0.000000
0.110353 0.884215 0.000000
0.282780 0.882750 0.000000
0.436652 0.881559 0.000000
0.585748 0.879332 0.000000
0.732418 0.877714 0.086915
0.875700 0.875700 0.142275
0.995911 0.859312 0.220462
0.177005 0.994812 0.175845
0.221103 0.994293 0.177920
0.328405 0.992828 0.187472
0.456550 0.990753 0.206149
0.584924 0.984314 0.219577
0.717494 0.979919 0.253361
0.846311 0.974548 0.295384
0.967285 0.967315 0.340978
0.000000 0.000214 0.072023
0.074159 0.000000 0.074037
0.191653 0.000000 0.085267
0.349584 0.000000 0.080049
0.527581 0.000000 0.070680
0.704829 0.000000 0.055177
0.874815 0.000000 0.041840
1.000000 0.000000 0.090730
0.000000 0.076020 0.076173
0.077974 0.077974 0.077974
0.195468 0.080720 0.080842
0.350469 0.078767 0.078828
0.527153 0.068757 0.068330
0.702632 0.049836 0.048463
0.870603 0.035035 0.030457
1.000000 0.089052 0.088014
0.000000 0.199344 0.089509
0.082002 0.202213 0.081697
0.207889 0.207858 0.082979
0.358801 0.229435 0.076539
0.533227 0.248234 0.060517
0.706996 0.258183 0.030488
0.874418 0.265293 0.029969
1.000000 0.272251 0.099306
0.000000 0.363073 0.081209
0.070253 0.364721 0.069368
0.235111 0.370275 0.069856
0.380560 0.380591 0.070130
0.545892 0.402197 0.046052
0.713863 0.416358 0.006012
0.875456 0.424475 0.034119
1.000000 0.424445 0.115785
0.000000 0.549584 0.000000
0.000000 0.549310 0.000000
0.251865 0.550591 0.000031
0.407477 0.554314 0.005615
0.558587 0.558648 0.018738
0.721675 0.572564 0.009094
0.878202 0.579522 0.071168
1.000000 0.573114 0.148531
0.000000 0.722835 0.000000
0.000000 0.723323 0.000000
0.259007 0.724453 0.000000
0.423285 0.727687 0.000000
0.580194 0.731411 0.014405
0.736568 0.736568 0.073518
0.884306 0.735927 0.123476
0.999695 0.719387 0.198093
0.000000 0.878599 0.074525
0.078798 0.877714 0.076417
0.273564 0.877073 0.084962
0.431373 0.877317 0.105318
0.582483 0.876402 0.127993
0.729488 0.874693 0.156344
0.872129 0.872099 0.190158
0.992340 0.856138 0.251011
0.175387 0.992584 0.216983
0.220432 0.992370 0.219455
0.328283 0.991119 0.227329
0.456703 0.989258 0.243565
0.588647 0.985473 0.264012
0.719173 0.980133 0.289982
0.846250 0.973816 0.323735
0.966278 0.966308 0.363531
0.000000 0.000000 0.189914
0.090608 0.000000 0.192142
0.197818 0.000000 0.197848
0.354528 0.000000 0.223789
0.533440 0.000000 0.230594
0.713954 0.000000 0.221439
0.880766 0.000000 0.229496
1.000000 0.000000 0.249454
0.000000 0.081575 0.194553
0.076967 0.076631 0.196170
0.200381 0.070710 0.200504
0.356085 0.000000 0.219455
0.534478 0.000000 0.221714
0.711360 0.000000 0.219303
0.877775 0.000000 0.227909
1.000000 0.000000 0.248997
0.000000 0.203525 0.203464
0.068147 0.204837 0.205051
0.208103 0.208103 0.208103
0.366155 0.211765 0.211856
0.543297 0.217227 0.217136
0.715084 0.222019 0.222171
0.878233 0.231388 0.231296
1.000000 0.254917 0.254643
0.000000 0.364416 0.230137
0.000000 0.366888 0.227176
0.216312 0.374640 0.215946
0.382757 0.382666 0.220615
0.552880 0.396887 0.223331
0.721096 0.406256 0.227695
0.880034 0.413855 0.239475
1.000000 0.419867 0.267124
0.000000 0.548486 0.244266
0.000000 0.549889 0.237461
0.222141 0.553491 0.221958
0.400488 0.557488 0.226139
0.561639 0.561517 0.231662
0.725826 0.571313 0.236728
0.879667 0.575738 0.252110
1.000000 0.572351 0.287419
0.000000 0.722499 0.246159
0.000000 0.723445 0.240330
0.231724 0.724727 0.231479
0.411719 0.726436 0.235874
0.574731 0.729152 0.242893
0.733608 0.733577 0.254673
0.881987 0.733059 0.276768
0.997803 0.720089 0.321721
0.000000 0.879484 0.264317
0.000000 0.878965 0.262272
0.263554 0.877562 0.262791
0.426764 0.876432 0.269139
0.580072 0.874998 0.279576
0.728817 0.873838 0.295659
0.872770 0.872740 0.318608
0.991608 0.857664 0.363134
0.196048 0.991455 0.331151
0.238834 0.990631 0.334173
0.339269 0.989075 0.338689
0.465705 0.987732 0.352148
0.594476 0.983886 0.366369
0.723293 0.978943 0.386297
0.848356 0.973083 0.412940
0.966217 0.966186 0.445167
0.000000 0.000000 0.347112
0.099336 0.000000 0.349279
0.227268 0.000000 0.353704
0.359930 0.000000 0.359899
0.534112 0.000000 0.387335
0.710231 0.000000 0.397498
0.875578 0.000000 0.398505
1.000000 0.000000 0.404242
0.000000 0.070680 0.353094
0.064302 0.064576 0.354131
0.223117 0.015747 0.357336
0.362615 0.000000 0.362707
0.536797 0.000000 0.386419
0.710323 0.000000 0.394324
0.874510 0.000000 0.395850
1.000000 0.000000 0.404791
0.000000 0.222080 0.359228
0.000000 0.217350 0.360723
0.206149 0.205905 0.364111
0.369299 0.205081 0.369177
0.544793 0.196963 0.384527
0.718349 0.190158 0.391577
0.881163 0.204410 0.399451
1.000000 0.257786 0.414557
0.000000 0.371740 0.371862
0.000000 0.372686 0.372717
0.207340 0.375860 0.375891
0.380926 0.380926 0.380926
0.552026 0.385931 0.385779
0.720882 0.392401 0.392248
0.878294 0.403265 0.403204
1.000000 0.423468 0.423255
0.000000 0.549432 0.398444
0.000000 0.549828 0.396765
0.209903 0.552697 0.392584
0.393164 0.557885 0.392920
0.561944 0.562005 0.398474
0.728389 0.570001 0.404547
0.879698 0.574334 0.416663
0.997101 0.577234 0.439704
0.000000 0.724422 0.412299
0.000000 0.727596 0.412207
0.222660 0.727932 0.407233
0.406592 0.729793 0.406439
0.574853 0.731930 0.412024
0.734585 0.734615 0.419837
0.880583 0.732753 0.435157
0.993378 0.723140 0.464363
0.000000 0.878355 0.423163
0.000000 0.878599 0.423072
0.265202 0.878569 0.424903
0.431617 0.877928 0.431495
0.584466 0.876432 0.438392
0.731441 0.874571 0.448188
0.872587 0.872557 0.462470
0.987243 0.857664 0.493568
0.210513 0.991150 0.457649
0.253391 0.990661 0.460822
0.361181 0.988434 0.471199
0.484413 0.985382 0.484260
0.606897 0.981598 0.494057
0.730922 0.976898 0.508354
0.851987 0.971496 0.529198
0.965484 0.965484 0.555688
0.000000 0.000000 0.522332
0.093996 0.000000 0.523522
0.245060 0.000000 0.525841
0.387243 0.000000 0.529900
0.537682 0.000000 0.537713
0.709804 0.000000 0.556023
0.872068 0.000000 0.560845
0.998444 0.000000 0.556420
0.000000 0.019257 0.525414
0.000000 0.000000 0.526940
0.235355 0.000000 0.528649
0.385168 0.000000 0.531456
0.538872 0.000000 0.539025
0.711086 0.000000 0.555810
0.872496 0.000000 0.560388
0.997986 0.000000 0.557000
0.000000 0.216617 0.531029
0.000000 0.208194 0.532128
0.201511 0.201511 0.533135
0.379797 0.196750 0.537285
0.541588 0.192203 0.541711
0.711818 0.182071 0.553521
0.871733 0.193393 0.558587
0.995361 0.254276 0.559228
0.000000 0.385992 0.538140
0.000000 0.384039 0.538781
0.185794 0.379339 0.541405
0.378149 0.377874 0.544762
0.548241 0.382635 0.548272
0.717769 0.386114 0.556847
0.873045 0.396979 0.561608
0.993072 0.428138 0.568841
0.000000 0.547845 0.547906
0.000000 0.548516 0.548455
0.198672 0.549767 0.549859
0.388373 0.552361 0.552514
0.555230 0.555230 0.555230
0.722988 0.559289 0.559350
0.873075 0.567254 0.567254
0.989105 0.582330 0.582208
0.000000 0.717128 0.562921
0.000000 0.717556 0.562646
0.208682 0.718105 0.561303
0.396216 0.720027 0.561975
0.561578 0.723323 0.561395
0.728725 0.728725 0.570245
0.875029 0.729274 0.583459
0.985504 0.727352 0.603540
0.000000 0.874754 0.573816
0.000000 0.874357 0.573480
0.259953 0.873533 0.573907
0.426764 0.873075 0.576623
0.583856 0.872099 0.583703
0.730617 0.870878 0.591791
0.869261 0.869291 0.602411
0.979126 0.856413 0.624537
0.213138 0.987366 0.584863
0.254246 0.986694 0.586236
0.358801 0.984588 0.591363
0.493507 0.982238 0.606409
0.625330 0.977203 0.625116
0.741939 0.972930 0.635492
0.856229 0.968261 0.650233
0.963317 0.963317 0.668727
0.000000 0.000000 0.699580
0.066651 0.000000 0.700038
0.251286 0.000000 0.700252
0.403326 0.000000 0.703914
0.556176 0.000000 0.708217
0.711879 0.000000 0.712032
0.868894 0.000000 0.715511
0.992615 0.000000 0.702174
0.000000 0.000000 0.698512
0.000000 0.000000 0.698726
0.237675 0.000000 0.699580
0.397742 0.000000 0.703090
0.553429 0.000000 0.706935
0.710811 0.000000 0.710994
0.868193 0.000000 0.714412
0.991730 0.000000 0.701991
0.000000 0.201266 0.704768
0.000000 0.199680 0.704952
0.194736 0.194797 0.706081
0.386053 0.187228 0.708278
0.552117 0.179995 0.710414
0.713497 0.178286 0.713619
0.869047 0.196414 0.715053
0.990265 0.263798 0.703944
0.000000 0.388159 0.710536
0.000000 0.384955 0.710414
0.155673 0.377874 0.711666
0.378607 0.378393 0.715450
0.555810 0.382635 0.718105
0.720302 0.387945 0.720485
0.871550 0.400275 0.718563
0.988190 0.434607 0.709590
0.000000 0.555871 0.713191
0.000000 0.555474 0.713558
0.174136 0.554559 0.714687
0.382025 0.554711 0.716762
0.553063 0.553063 0.718685
0.720851 0.556786 0.720912
0.868467 0.568536 0.719387
0.980957 0.595758 0.720974
0.000000 0.718013 0.718227
0.000000 0.719142 0.719265
0.204349 0.719997 0.719997
0.395422 0.721218 0.721309
0.561303 0.722621 0.722744
0.726528 0.726467 0.726497
0.867796 0.732784 0.732815
0.974914 0.742733 0.742702
0.000000 0.873594 0.724056
0.000000 0.873960 0.724666
0.265202 0.873289 0.724697
0.428321 0.872343 0.725154
0.587884 0.870207 0.728511
0.738552 0.867887 0.738491
0.867948 0.867948 0.744808
0.970825 0.861601 0.757900
0.230259 0.984924 0.717586
0.267216 0.984283 0.718044
0.366644 0.982208 0.720089
0.495155 0.979034 0.726619
0.633082 0.973663 0.740536
0.760647 0.967864 0.760555
0.864256 0.964721 0.770077
0.961486 0.961486 0.781643
0.000000 0.000000 0.853361
0.000000 0.000000 0.854032
0.245121 0.000000 0.854673
0.401892 0.000000 0.855924
0.553857 0.000000 0.856809
0.706233 0.000000 0.857786
0.858824 0.000000 0.858885
0.982849 0.000000 0.839658
0.000000 0.000000 0.852628
0.000000 0.000000 0.853147
0.230503 0.000000 0.853758
0.395300 0.000000 0.854520
0.550469 0.000000 0.855436
0.704128 0.000000 0.856168
0.856931 0.000000 0.857023
0.981079 0.000000 0.838132
0.000000 0.190616 0.855650
0.000000 0.188968 0.855772
0.184573 0.183749 0.855741
0.380285 0.176913 0.856168
0.545556 0.171511 0.856443
0.703670 0.174655 0.857084
0.858274 0.193423 0.858396
0.980804 0.262913 0.839414
0.000000 0.374151 0.858030
0.000000 0.371771 0.857786
0.134859 0.368170 0.857725
0.370794 0.370520 0.858030
0.544610 0.374792 0.858183
0.705653 0.382940 0.858976
0.860136 0.394537 0.860227
0.978882 0.430915 0.840787
0.000000 0.546685 0.857389
0.000000 0.545861 0.857176
0.164981 0.544671 0.856962
0.375128 0.544182 0.857298
0.545678 0.545617 0.857633
0.706691 0.552239 0.858152
0.859098 0.563806 0.859159
0.973388 0.594598 0.844266
0.000000 0.707332 0.858152
0.000000 0.707362 0.858244
0.214694 0.707759 0.858396
0.397131 0.708553 0.858885
0.564599 0.712367 0.859068
0.722469 0.722408 0.859556
0.861051 0.730282 0.861143
0.966735 0.746975 0.854368
0.000000 0.860624 0.860655
0.076753 0.860838 0.860960
0.272801 0.861051 0.861173
0.430854 0.861570 0.861631
0.589563 0.861662 0.861692
0.737392 0.862303 0.862364
0.864530 0.864469 0.864500
0.961425 0.869261 0.869291
0.240909 0.981048 0.847868
0.276799 0.980560 0.847929
0.376562 0.979309 0.848997
0.503380 0.976043 0.850645
0.638758 0.970855 0.854673
0.766354 0.965118 0.862608
0.875456 0.960693 0.875425
0.959777 0.959777 0.881315
0.000000 0.000000 0.966613
0.000000 0.000000 0.966766
0.229099 0.000000 0.966583
0.384894 0.000000 0.966674
0.532586 0.000000 0.966613
0.678614 0.000000 0.966278
0.823514 0.000000 0.965850
0.964691 0.000000 0.964813
0.000000 0.000000 0.966278
0.000000 0.000000 0.966430
0.216281 0.000000 0.966339
0.379767 0.000000 0.966247
0.530236 0.000000 0.966125
0.677699 0.000000 0.965728
0.822873 0.000000 0.965118
0.963958 0.065858 0.964080
0.000000 0.180728 0.966308
0.000000 0.180301 0.966308
0.177890 0.177279 0.965911
0.367681 0.177310 0.966217
0.526299 0.181552 0.965759
0.676844 0.197604 0.964935
0.822873 0.228275 0.964141
0.963012 0.271092 0.963165
0.000000 0.357488 0.965789
0.000000 0.358312 0.965850
0.157748 0.359991 0.965484
0.365270 0.365057 0.965209
0.528496 0.373724 0.964660
0.679774 0.386725 0.963806
0.824216 0.405188 0.962951
0.961913 0.430793 0.962036
0.000000 0.527153 0.963775
0.000000 0.527733 0.963836
0.201572 0.529259 0.963409
0.382238 0.532464 0.962890
0.539239 0.539147 0.962127
0.687098 0.550225 0.961181
0.828000 0.568078 0.960327
0.959564 0.593591 0.959655
0.000000 0.681697 0.961456
0.038819 0.681971 0.961242
0.258335 0.683101 0.960693
0.413428 0.686183 0.959991
0.572229 0.698634 0.958587
0.715267 0.715236 0.957671
0.841489 0.729641 0.957641
0.957733 0.747127 0.957824
0.177279 0.825986 0.959564
0.221530 0.826139 0.959442
0.329564 0.826963 0.958984
0.464302 0.829831 0.958343
0.608453 0.836576 0.957244
0.744930 0.847654 0.955993
0.862058 0.861997 0.955505
0.956054 0.869902 0.956085
0.311254 0.958221 0.958343
0.337285 0.958129 0.958221
0.416571 0.957855 0.957946
0.530114 0.957549 0.957641
0.653986 0.957092 0.957183
0.773068 0.956756 0.956817
0.877714 0.956909 0.956939
0.958282 0.958282 0.958282
