其他预设/【232】美食博客调色预设124款/1.3D LUT预设（视频调色-PR-AE-PS-FCPX-达芬奇用）/0 Satisfied With The Best.cube
# Created by Adobe Lightroom plugin Export LUT (1.17.0)
# www.johnrellis.com/lightroom/exportlut.htm
# Preset: 0 Satisfied With The Best
# Color profile: /Library/Application Support/Adobe/Color/Profiles/Recommended/AdobeRGB1998.icc
LUT_3D_SIZE 5
DOMAIN_MIN 0.000000 0.000000 0.000000
DOMAIN_MAX 0.903226 0.903226 0.903226
0.000000 0.000000 0.000000
0.158663 0.000000 0.000000
0.441230 0.000000 0.000000
0.760830 0.000000 0.000000
1.000000 0.000000 0.000000
0.000000 0.166354 0.000000
0.173129 0.173037 0.000000
0.444739 0.214969 0.000000
0.761196 0.237278 0.000000
1.000000 0.245884 0.000000
0.000000 0.459297 0.000000
0.218540 0.462776 0.000000
0.482765 0.482765 0.000000
0.770108 0.507805 0.000000
1.000000 0.504295 0.023896
0.000000 0.772457 0.000000
0.231357 0.773831 0.000000
0.511437 0.776089 0.000000
0.777890 0.777890 0.000000
1.000000 0.756649 0.168368
0.177005 0.994812 0.175845
0.298466 0.993225 0.183963
0.518303 0.986236 0.206577
0.750271 0.978698 0.263340
0.967285 0.967315 0.340978
0.000000 0.000000 0.155215
0.162356 0.000000 0.162264
0.441444 0.000000 0.190768
0.753475 0.000000 0.181491
1.000000 0.000000 0.208316
0.000000 0.167697 0.167575
0.171450 0.171450 0.171450
0.448463 0.176516 0.176486
0.755093 0.182925 0.182315
1.000000 0.214664 0.214389
0.000000 0.456886 0.202396
0.179568 0.461769 0.178836
0.472328 0.472419 0.184817
0.762722 0.493019 0.190951
1.000000 0.498268 0.240146
0.000000 0.770932 0.204593
0.197665 0.772671 0.196963
0.503471 0.774258 0.207401
0.775387 0.775448 0.228916
0.997803 0.755734 0.299382
0.199039 0.993194 0.305364
0.310582 0.991608 0.310124
0.528191 0.986969 0.330144
0.754696 0.978485 0.367041
0.967163 0.967193 0.425483
0.000000 0.000000 0.435370
0.204471 0.000000 0.438849
0.448646 0.000000 0.448768
0.753964 0.000000 0.480171
1.000000 0.000000 0.481483
0.000000 0.180514 0.444709
0.165835 0.165499 0.447059
0.456184 0.150423 0.456184
0.755947 0.109529 0.475837
1.000000 0.209598 0.486580
0.000000 0.461860 0.461952
0.147036 0.463691 0.463691
0.470069 0.470069 0.470069
0.762753 0.479896 0.479835
0.995361 0.504509 0.504417
0.000000 0.764828 0.492836
0.167697 0.764523 0.489509
0.491127 0.768215 0.490944
0.771420 0.771481 0.503593
0.987610 0.757321 0.537011
0.208347 0.988739 0.519554
0.329992 0.987213 0.527794
0.553948 0.981476 0.553796
0.764828 0.973541 0.573816
0.964050 0.964019 0.609888
0.000000 0.000000 0.738918
0.210422 0.000000 0.740352
0.480354 0.000000 0.745815
0.750912 0.000000 0.751217
0.989776 0.000000 0.736446
0.000000 0.154696 0.742397
0.145693 0.145052 0.743587
0.471138 0.116152 0.747066
0.750851 0.091493 0.751034
0.987335 0.210880 0.736172
0.000000 0.469551 0.747860
0.000000 0.465095 0.748592
0.462226 0.462196 0.750576
0.753079 0.467109 0.753140
0.981872 0.509483 0.743435
0.000000 0.758907 0.758968
0.152468 0.758450 0.758480
0.481727 0.760159 0.760311
0.764523 0.764431 0.764462
0.970489 0.775906 0.775845
0.233433 0.984100 0.750393
0.341344 0.982391 0.752102
0.567346 0.976226 0.763333
0.792905 0.966094 0.792813
0.960845 0.960845 0.807614
0.000000 0.000000 0.966613
0.185367 0.000000 0.966583
0.459083 0.000000 0.966705
0.715053 0.000000 0.966217
0.964691 0.000000 0.964813
0.000000 0.130953 0.966522
0.125856 0.125124 0.966430
0.450233 0.115724 0.966186
0.713863 0.144686 0.965118
0.963500 0.230259 0.963653
0.000000 0.444862 0.964843
0.089754 0.445563 0.964477
0.453681 0.453590 0.963531
0.717525 0.470283 0.962005
0.960723 0.511345 0.960876
0.000000 0.719448 0.961334
0.240665 0.720424 0.960815
0.504051 0.728511 0.959289
0.755550 0.755489 0.956695
0.957183 0.780819 0.957244
0.311254 0.958221 0.958343
0.392401 0.957946 0.958007
0.591852 0.957336 0.957427
0.801022 0.956695 0.956756
0.958282 0.958282 0.958282
