其他预设/【232】美食博客调色预设124款/1.3D LUT预设（视频调色-PR-AE-PS-FCPX-达芬奇用）/0 Six Impossible Things Before Breakfast.cube
# Created by Adobe Lightroom plugin Export LUT (1.17.0)
# www.johnrellis.com/lightroom/exportlut.htm
# Preset: 0 Six Impossible Things Before Breakfast
# Color profile: /Library/Application Support/Adobe/Color/Profiles/Recommended/AdobeRGB1998.icc
LUT_3D_SIZE 8
DOMAIN_MIN 0.000000 0.000000 0.000000
DOMAIN_MAX 0.903226 0.903226 0.903226
0.136751 0.172702 0.300664
0.132021 0.182437 0.305699
0.221134 0.194034 0.314458
0.361120 0.206760 0.332738
0.534356 0.226108 0.359167
0.750881 0.249180 0.387579
0.905394 0.302007 0.424598
0.985809 0.395575 0.479591
0.125460 0.207126 0.306371
0.122103 0.213413 0.308965
0.220676 0.221988 0.318700
0.358801 0.235386 0.337438
0.531365 0.256596 0.362341
0.746181 0.282231 0.389044
0.901610 0.328069 0.425238
0.984039 0.412543 0.480415
0.077943 0.288945 0.320836
0.091859 0.291783 0.322789
0.222904 0.296239 0.333318
0.361486 0.313970 0.352270
0.539849 0.343938 0.373816
0.752895 0.378363 0.397772
0.904723 0.414923 0.434791
0.982879 0.479042 0.492866
0.034760 0.393805 0.345342
0.120638 0.394324 0.346471
0.233677 0.397223 0.350622
0.372869 0.419013 0.367285
0.554833 0.462287 0.388586
0.765286 0.507164 0.410895
0.903532 0.529534 0.448432
0.977905 0.570520 0.510918
0.098909 0.533623 0.366918
0.152560 0.534447 0.367712
0.261967 0.538384 0.370275
0.393622 0.551019 0.376867
0.559319 0.584466 0.394507
0.753445 0.630701 0.419867
0.896361 0.650599 0.463539
0.970550 0.675166 0.538750
0.124666 0.708003 0.381811
0.178470 0.711452 0.382788
0.293126 0.713680 0.384619
0.426337 0.717830 0.387945
0.578607 0.732235 0.400275
0.744717 0.755550 0.427375
0.887572 0.770352 0.482216
0.960662 0.776455 0.573327
0.210178 0.855772 0.407568
0.244968 0.856107 0.408484
0.336736 0.855314 0.410834
0.455421 0.854520 0.415564
0.583734 0.852720 0.422919
0.727474 0.858061 0.454414
0.859922 0.863279 0.507378
0.949645 0.864195 0.608057
0.368200 0.945037 0.469947
0.385412 0.944579 0.471015
0.441077 0.943145 0.475380
0.526299 0.940795 0.484504
0.621637 0.935546 0.494209
0.730892 0.930938 0.520226
0.844663 0.925933 0.588922
0.926879 0.921996 0.664302
0.117586 0.176272 0.331762
0.114717 0.181918 0.333806
0.207950 0.199985 0.344274
0.346746 0.221164 0.365850
0.520867 0.237552 0.387152
0.737636 0.255497 0.410864
0.897612 0.309178 0.443946
0.981476 0.408728 0.496834
0.105196 0.208225 0.335821
0.100496 0.215152 0.338476
0.209140 0.228428 0.350866
0.347692 0.244785 0.368200
0.520989 0.264073 0.388830
0.736385 0.286564 0.411933
0.895018 0.334051 0.444343
0.979706 0.424170 0.497292
0.019257 0.287572 0.347845
0.097108 0.289067 0.351843
0.216770 0.293919 0.359167
0.353826 0.314611 0.376562
0.529778 0.344091 0.395941
0.741817 0.377020 0.417548
0.896300 0.415991 0.451392
0.978332 0.486915 0.508232
0.062531 0.390356 0.367132
0.125490 0.390692 0.368139
0.233127 0.394751 0.371466
0.364385 0.412055 0.385168
0.539422 0.453132 0.405341
0.750118 0.499092 0.426612
0.895354 0.527245 0.462470
0.973693 0.575280 0.524926
0.107271 0.530755 0.385779
0.151797 0.531060 0.384863
0.259770 0.534142 0.386908
0.386847 0.543084 0.391791
0.549248 0.575189 0.408881
0.745876 0.624781 0.434058
0.892180 0.649653 0.478462
0.967285 0.679408 0.553613
0.119112 0.703517 0.397009
0.171359 0.704402 0.397131
0.287633 0.707057 0.398688
0.421485 0.712215 0.401923
0.574060 0.727199 0.413184
0.742306 0.752712 0.441077
0.885252 0.769223 0.497047
0.958160 0.778683 0.587915
0.207401 0.851926 0.420050
0.241215 0.851438 0.420539
0.334081 0.851133 0.422797
0.453956 0.851347 0.427741
0.582910 0.850462 0.435431
0.726406 0.855619 0.466163
0.858335 0.861051 0.519158
0.947448 0.863157 0.618128
0.375219 0.943145 0.481453
0.392523 0.942870 0.482856
0.447486 0.941558 0.487373
0.531762 0.939330 0.496773
0.629938 0.935485 0.510277
0.735164 0.930388 0.533867
0.846403 0.925109 0.600336
0.926726 0.921416 0.672450
0.006683 0.181247 0.397955
0.001373 0.187228 0.398688
0.203372 0.198062 0.400519
0.330449 0.213016 0.409247
0.502983 0.235904 0.434791
0.729915 0.257389 0.466102
0.893767 0.338781 0.502281
0.974426 0.469703 0.559594
0.000000 0.216556 0.398474
0.065827 0.221408 0.399054
0.204593 0.226505 0.401678
0.332494 0.239322 0.412177
0.506981 0.263798 0.437842
0.731960 0.286717 0.466743
0.891966 0.360601 0.502342
0.973266 0.483040 0.560632
0.000000 0.289769 0.403815
0.096315 0.290593 0.404639
0.217868 0.296574 0.409705
0.347845 0.315496 0.424170
0.524865 0.343877 0.446143
0.737819 0.375860 0.470680
0.891783 0.435615 0.507774
0.970703 0.534508 0.569390
0.066346 0.390021 0.415351
0.129824 0.390936 0.416632
0.236332 0.396674 0.420813
0.362310 0.410010 0.430304
0.540032 0.452857 0.452949
0.746975 0.497475 0.477760
0.891722 0.542473 0.518975
0.966308 0.614374 0.587213
0.110292 0.529503 0.432624
0.157931 0.530236 0.433265
0.257633 0.534203 0.433295
0.383795 0.541527 0.435950
0.547082 0.572107 0.452796
0.745968 0.624353 0.483070
0.889158 0.659876 0.535088
0.959899 0.705440 0.613062
0.130434 0.702480 0.447272
0.176333 0.703182 0.446906
0.277623 0.705623 0.443305
0.416144 0.709987 0.446021
0.567041 0.720424 0.454383
0.739162 0.747707 0.486091
0.881132 0.770321 0.550011
0.952422 0.792233 0.641749
0.220340 0.851713 0.465461
0.252873 0.851225 0.465797
0.342931 0.850004 0.467872
0.460639 0.849393 0.472541
0.588067 0.848264 0.479927
0.729824 0.852659 0.509575
0.860624 0.860075 0.570153
0.943999 0.866636 0.665217
0.392584 0.941711 0.516808
0.415045 0.940612 0.520775
0.480873 0.937835 0.532982
0.560357 0.935882 0.543542
0.651575 0.932128 0.557031
0.747768 0.927581 0.576410
0.853330 0.923308 0.639216
0.927764 0.920928 0.704585
0.000000 0.189090 0.471962
0.049470 0.192905 0.472419
0.213718 0.202579 0.473182
0.337255 0.212314 0.475319
0.477729 0.217960 0.486793
0.690944 0.222477 0.520073
0.876249 0.303471 0.553246
0.964782 0.496254 0.616632
0.000000 0.225101 0.472084
0.086336 0.226658 0.472358
0.217960 0.231083 0.473579
0.338720 0.236820 0.476112
0.479835 0.242435 0.487984
0.694148 0.253941 0.521508
0.876402 0.337560 0.556634
0.962737 0.525261 0.625879
0.000000 0.297063 0.474342
0.112520 0.298161 0.474647
0.226413 0.300969 0.476387
0.346014 0.305821 0.480293
0.490791 0.315312 0.493141
0.714260 0.350866 0.530632
0.882475 0.455482 0.579187
0.957610 0.609888 0.657588
0.083742 0.396582 0.481239
0.138491 0.397284 0.481758
0.242924 0.401038 0.484474
0.366827 0.411505 0.492073
0.531334 0.442817 0.513634
0.736416 0.492042 0.547967
0.881071 0.573663 0.601404
0.954070 0.668360 0.669520
0.122255 0.529900 0.497169
0.165621 0.530205 0.497444
0.264256 0.534264 0.499275
0.387091 0.545434 0.503166
0.544305 0.566430 0.516258
0.746181 0.625605 0.558587
0.881163 0.680751 0.619745
0.949706 0.739559 0.688258
0.140749 0.703914 0.517815
0.185000 0.706538 0.518456
0.287541 0.708186 0.517571
0.416938 0.713130 0.517082
0.565789 0.717983 0.521538
0.739620 0.743771 0.558770
0.876310 0.776761 0.632349
0.945006 0.810391 0.710079
0.234073 0.850645 0.532250
0.266209 0.850645 0.532982
0.357855 0.850034 0.536187
0.487709 0.847898 0.547967
0.608972 0.846738 0.556451
0.739254 0.848447 0.580529
0.863188 0.858061 0.642115
0.939178 0.870390 0.722621
0.413062 0.940581 0.571649
0.435370 0.939696 0.575341
0.506065 0.936156 0.588861
0.610895 0.929870 0.617639
0.687831 0.926848 0.628687
0.770535 0.923400 0.644251
0.861631 0.920714 0.690944
0.928771 0.920195 0.746456
0.000000 0.197055 0.564569
0.113039 0.199557 0.564874
0.242039 0.205509 0.565393
0.368170 0.211032 0.567254
0.502800 0.213199 0.573480
0.671138 0.200626 0.593713
0.848325 0.222599 0.614893
0.959808 0.412909 0.647150
0.018585 0.230320 0.564294
0.124422 0.231449 0.564996
0.244694 0.234165 0.565911
0.368994 0.236973 0.567712
0.503746 0.238895 0.573999
0.672633 0.229557 0.594415
0.850034 0.258640 0.616419
0.958648 0.444038 0.652522
0.064240 0.306065 0.565850
0.130892 0.306065 0.566217
0.247074 0.307744 0.567773
0.373602 0.310552 0.571832
0.507713 0.312810 0.576654
0.676112 0.310887 0.595300
0.854734 0.364752 0.622797
0.953613 0.540490 0.673732
0.098695 0.414099 0.573236
0.150271 0.414191 0.573510
0.255375 0.414801 0.575616
0.379889 0.415991 0.580285
0.520653 0.420081 0.585321
0.688808 0.427375 0.600244
0.863035 0.529290 0.647761
0.946319 0.671107 0.716487
0.129671 0.541314 0.582910
0.172244 0.541863 0.583368
0.271244 0.543664 0.584955
0.394812 0.549279 0.590021
0.543999 0.561364 0.600275
0.731044 0.614130 0.636652
0.869383 0.694820 0.695766
0.940551 0.763973 0.751644
0.151034 0.698695 0.603143
0.191470 0.699397 0.603357
0.291081 0.701472 0.603845
0.419471 0.706752 0.606012
0.570672 0.714199 0.611902
0.735073 0.733516 0.640925
0.871397 0.783261 0.710475
0.938567 0.823941 0.768399
0.250797 0.847868 0.618433
0.280858 0.847471 0.618677
0.368475 0.846372 0.620356
0.493294 0.844602 0.626917
0.633600 0.841428 0.644190
0.746334 0.841001 0.657527
0.863371 0.854276 0.709834
0.934844 0.873594 0.775387
0.432013 0.937163 0.641444
0.452705 0.936187 0.643915
0.519432 0.932799 0.653620
0.616602 0.928069 0.672663
0.721492 0.920928 0.702144
0.791226 0.918791 0.713069
0.866667 0.917601 0.740200
0.929046 0.919036 0.787350
0.099855 0.201450 0.697108
0.160769 0.202609 0.697261
0.278691 0.204379 0.697139
0.410285 0.204868 0.700649
0.548760 0.201236 0.704311
0.691615 0.195193 0.707942
0.843015 0.206912 0.716945
0.949676 0.306798 0.709133
0.102419 0.233402 0.695277
0.161379 0.233555 0.695308
0.277348 0.233829 0.696010
0.408881 0.233463 0.699763
0.547204 0.230838 0.703273
0.690608 0.226474 0.707362
0.842466 0.239322 0.716487
0.948791 0.332494 0.709499
0.078126 0.313268 0.698573
0.148684 0.313329 0.698909
0.272587 0.313848 0.700313
0.407080 0.314092 0.702724
0.547570 0.313634 0.705623
0.692866 0.313207 0.709529
0.843503 0.333043 0.717372
0.946899 0.425879 0.715358
0.090303 0.431495 0.704555
0.149660 0.430274 0.704402
0.265232 0.426734 0.705257
0.404913 0.427283 0.708705
0.552392 0.430762 0.712032
0.700771 0.435706 0.715602
0.845975 0.463661 0.720607
0.942687 0.577264 0.736934
0.128511 0.564172 0.709255
0.175753 0.563989 0.709560
0.283391 0.563409 0.710414
0.415167 0.563989 0.712734
0.563134 0.569451 0.715999
0.710170 0.579095 0.719600
0.844450 0.607446 0.724880
0.936065 0.724514 0.773007
0.174289 0.704128 0.715785
0.213291 0.704829 0.716518
0.312963 0.705715 0.717311
0.441505 0.707973 0.719142
0.588647 0.713680 0.722469
0.735164 0.728084 0.731319
0.863340 0.781064 0.772030
0.933227 0.833921 0.818265
0.273655 0.846525 0.725338
0.303136 0.846586 0.725704
0.389166 0.845487 0.726284
0.511437 0.843198 0.728481
0.642267 0.840330 0.733852
0.762417 0.839445 0.745785
0.862669 0.850523 0.774441
0.932494 0.879637 0.827604
0.462654 0.933867 0.728939
0.481636 0.932921 0.730343
0.542351 0.929686 0.735561
0.628504 0.925109 0.745205
0.720577 0.919829 0.758663
0.807919 0.914977 0.778744
0.870115 0.914305 0.790982
0.929290 0.918242 0.829496
0.138399 0.211795 0.822812
0.186709 0.212222 0.822629
0.294865 0.214176 0.823178
0.420966 0.215915 0.824033
0.553979 0.218173 0.824582
0.689998 0.224186 0.825467
0.825650 0.240238 0.826810
0.943175 0.322515 0.819059
0.141939 0.242283 0.824125
0.188388 0.242588 0.823941
0.295720 0.243656 0.824308
0.421576 0.245426 0.824887
0.555016 0.248478 0.825772
0.691646 0.255375 0.826993
0.827359 0.272648 0.828397
0.943725 0.353429 0.820462
0.138216 0.322423 0.823423
0.186038 0.322759 0.823575
0.294987 0.324254 0.824094
0.421790 0.326818 0.824765
0.556146 0.331640 0.825803
0.693019 0.341070 0.826841
0.827390 0.359625 0.827695
0.940764 0.432258 0.820066
0.151949 0.434791 0.823575
0.195224 0.434882 0.823575
0.301396 0.436652 0.823972
0.428840 0.441016 0.824308
0.563287 0.448859 0.825162
0.698421 0.461189 0.825803
0.828672 0.481788 0.826413
0.936004 0.547082 0.820981
0.206332 0.565179 0.825956
0.241642 0.566003 0.826139
0.337438 0.569268 0.826200
0.463874 0.577966 0.825528
0.595392 0.591760 0.825284
0.719448 0.606195 0.826047
0.835691 0.624964 0.827146
0.930694 0.670405 0.825345
0.272740 0.697444 0.827970
0.300694 0.698024 0.827939
0.385168 0.700801 0.827634
0.504021 0.707576 0.826810
0.633967 0.720760 0.825864
0.750790 0.737850 0.825742
0.844266 0.748440 0.827909
0.925902 0.774746 0.831998
0.351080 0.824674 0.829343
0.374182 0.824704 0.829160
0.448829 0.825467 0.828916
0.553674 0.827207 0.828580
0.668330 0.830777 0.829068
0.772976 0.836423 0.830869
0.859525 0.845670 0.836057
0.929900 0.882902 0.868589
0.499092 0.930388 0.829709
0.516350 0.929595 0.829953
0.567590 0.926482 0.829953
0.645106 0.922332 0.831357
0.731075 0.917876 0.834775
0.809995 0.914427 0.840055
0.877195 0.912932 0.848905
0.929259 0.917693 0.869749
0.185489 0.242527 0.917266
0.219608 0.243931 0.917113
0.309941 0.249271 0.917082
0.423224 0.258549 0.916655
0.545464 0.273747 0.916075
0.670710 0.298100 0.915251
0.794095 0.336522 0.914000
0.909392 0.395087 0.912474
0.194614 0.270329 0.917388
0.227268 0.271458 0.917235
0.314885 0.276219 0.917144
0.426825 0.285222 0.916747
0.548272 0.299992 0.916167
0.673121 0.324193 0.915312
0.795895 0.362737 0.914061
0.909972 0.420539 0.912474
0.223056 0.349096 0.916655
0.251438 0.350439 0.916594
0.332799 0.355261 0.916594
0.439643 0.363378 0.915801
0.558923 0.378790 0.915190
0.681971 0.403723 0.914336
0.801633 0.441260 0.912871
0.910826 0.495827 0.911070
0.286473 0.463416 0.914580
0.308812 0.464668 0.914427
0.378210 0.470100 0.914244
0.475776 0.479927 0.913603
0.587549 0.496376 0.912688
0.703426 0.522057 0.911437
0.814023 0.556817 0.909850
0.912230 0.597803 0.908354
0.358404 0.584039 0.912749
0.381048 0.586999 0.912352
0.454627 0.599908 0.911284
0.553887 0.620478 0.909331
0.645747 0.635126 0.908507
0.741604 0.654719 0.907500
0.832914 0.677821 0.906432
0.914794 0.703975 0.905608
0.436347 0.701900 0.910582
0.457099 0.704829 0.910369
0.521050 0.714778 0.909422
0.609277 0.730617 0.907683
0.704555 0.751705 0.905211
0.783505 0.767514 0.903532
0.852781 0.779110 0.903075
0.917815 0.793668 0.903288
0.524773 0.811887 0.908019
0.540673 0.813413 0.907836
0.589990 0.818296 0.907256
0.660609 0.826078 0.906065
0.738827 0.836332 0.904631
0.812284 0.847959 0.903319
0.874479 0.859648 0.902708
0.923003 0.867277 0.903868
0.612818 0.906126 0.906371
0.624292 0.906371 0.906310
0.659724 0.907012 0.906035
0.712337 0.907958 0.905364
0.772976 0.909422 0.904814
0.832822 0.911498 0.904570
0.887022 0.914275 0.905089
0.929992 0.918517 0.907286
