其他预设/【232】美食博客调色预设124款/1.3D LUT预设（视频调色-PR-AE-PS-FCPX-达芬奇用）/0 Six Impossible Things Before Breakfast.cube
# Created by Adobe Lightroom plugin Export LUT (1.17.0)
# www.johnrellis.com/lightroom/exportlut.htm
# Preset: 0 Six Impossible Things Before Breakfast
# Color profile: /Library/Application Support/Adobe/Color/Profiles/Recommended/AdobeRGB1998.icc
LUT_3D_SIZE 5
DOMAIN_MIN 0.000000 0.000000 0.000000
DOMAIN_MAX 0.903226 0.903226 0.903226
0.136751 0.172702 0.300664
0.188357 0.192081 0.311833
0.442084 0.216281 0.345800
0.799191 0.258976 0.395697
0.985809 0.395575 0.479591
0.096590 0.266880 0.315404
0.191226 0.273808 0.325628
0.443000 0.303838 0.358984
0.799588 0.359380 0.403265
0.984070 0.460945 0.490394
0.078828 0.458350 0.356970
0.218235 0.461830 0.360143
0.462501 0.497749 0.382147
0.802640 0.576043 0.423346
0.974365 0.621698 0.523095
0.139162 0.752285 0.386572
0.270939 0.754513 0.388525
0.503349 0.759396 0.395422
0.779873 0.788510 0.441505
0.957855 0.799496 0.581720
0.368200 0.945037 0.469947
0.423682 0.943603 0.473762
0.570153 0.937591 0.486824
0.761563 0.929717 0.535607
0.926879 0.921996 0.664302
0.067994 0.180026 0.380499
0.171756 0.193790 0.383520
0.415320 0.229465 0.409918
0.781247 0.268284 0.457221
0.976287 0.447761 0.538994
0.000000 0.268284 0.386542
0.184054 0.273991 0.391608
0.426490 0.307866 0.419379
0.784115 0.360601 0.460945
0.974029 0.502373 0.547631
0.091981 0.455085 0.410315
0.218296 0.458137 0.412634
0.448310 0.484749 0.428656
0.793057 0.571710 0.474708
0.965972 0.650416 0.581781
0.144717 0.749508 0.437171
0.261601 0.751705 0.434455
0.500267 0.756497 0.440314
0.778012 0.784634 0.487800
0.952056 0.809018 0.633326
0.394598 0.942657 0.509087
0.457710 0.940246 0.519158
0.597589 0.935515 0.535729
0.773922 0.927489 0.579370
0.927977 0.921477 0.697139
0.000000 0.193210 0.514977
0.193454 0.202396 0.515373
0.413886 0.215244 0.519432
0.724056 0.204929 0.558526
0.962860 0.458839 0.628840
0.014313 0.280735 0.515770
0.204623 0.282994 0.516716
0.420996 0.289677 0.523674
0.736355 0.305150 0.563897
0.957519 0.557122 0.656825
0.111696 0.464546 0.527916
0.230076 0.466468 0.529381
0.450904 0.481636 0.541314
0.777096 0.575921 0.606531
0.946471 0.721523 0.713954
0.160800 0.744991 0.563470
0.272282 0.745510 0.562768
0.506157 0.751980 0.567742
0.777035 0.775143 0.617670
0.940246 0.831144 0.742489
0.420050 0.938689 0.603693
0.490913 0.935668 0.615259
0.668421 0.925139 0.659998
0.799649 0.920226 0.681971
0.928710 0.919402 0.765927
0.110964 0.202792 0.729549
0.253056 0.204868 0.730129
0.483589 0.203861 0.735225
0.730404 0.196780 0.740078
0.947875 0.308385 0.734676
0.098817 0.291081 0.730282
0.247929 0.291386 0.731655
0.481209 0.291264 0.735348
0.730159 0.291051 0.740078
0.945220 0.390295 0.736049
0.114443 0.496437 0.736538
0.247013 0.494575 0.737179
0.483436 0.495338 0.740169
0.740078 0.511315 0.746242
0.937163 0.621088 0.758389
0.208377 0.739773 0.748104
0.308507 0.739681 0.747951
0.532769 0.743984 0.750088
0.772274 0.762020 0.760159
0.931731 0.846921 0.831357
0.470222 0.932860 0.752651
0.530907 0.929900 0.756802
0.678859 0.922026 0.771145
0.827359 0.914214 0.797574
0.929198 0.917967 0.839506
0.185489 0.242527 0.917266
0.284337 0.247440 0.917144
0.483589 0.265324 0.916381
0.701930 0.306188 0.914977
0.909392 0.395087 0.912474
0.213107 0.325353 0.916777
0.302098 0.329625 0.916625
0.494118 0.346136 0.915801
0.709438 0.387274 0.914305
0.910369 0.471778 0.911376
0.326360 0.525475 0.913542
0.404852 0.538170 0.912627
0.561852 0.557702 0.911498
0.748470 0.597864 0.909514
0.913481 0.652277 0.906981
0.455726 0.729732 0.909636
0.517510 0.738186 0.908843
0.666041 0.763333 0.905882
0.810056 0.793942 0.902861
0.919036 0.814054 0.903258
0.612818 0.906126 0.906371
0.648829 0.906859 0.906126
0.742214 0.908568 0.905058
0.846952 0.912108 0.904601
0.929992 0.918517 0.907286
