其他预设/【232】美食博客调色预设124款/1.3D LUT预设（视频调色-PR-AE-PS-FCPX-达芬奇用）/0 Six Impossible Things Before Breakfast.cube
# Created by Adobe Lightroom plugin Export LUT (1.17.0)
# www.johnrellis.com/lightroom/exportlut.htm
# Preset: 0 Six Impossible Things Before Breakfast
# Color profile: /Library/Application Support/Adobe/Color/Profiles/Recommended/AdobeRGB1998.icc
LUT_3D_SIZE 32
0.136751 0.172702 0.300664
0.136263 0.173678 0.301213
0.135714 0.174929 0.301823
0.134218 0.177798 0.303502
0.132021 0.182437 0.305699
0.129732 0.187869 0.307561
0.154757 0.190433 0.309636
0.188357 0.192081 0.311833
0.221134 0.194034 0.314458
0.253910 0.196536 0.317876
0.288182 0.199405 0.322210
0.323766 0.202701 0.327153
0.361120 0.206760 0.332738
0.400519 0.211398 0.339147
0.442084 0.216281 0.345800
0.486824 0.221134 0.352483
0.534356 0.226108 0.359167
0.584894 0.230991 0.365789
0.637385 0.235721 0.372412
0.696407 0.241611 0.379675
0.750881 0.249180 0.387579
0.799191 0.258976 0.395697
0.840543 0.270970 0.404669
0.875547 0.285588 0.414191
0.905394 0.302007 0.424598
0.930755 0.321111 0.435981
0.952331 0.342809 0.448615
0.970581 0.367620 0.463111
0.985809 0.395575 0.479591
0.998108 0.427924 0.498756
1.000000 0.464363 0.521019
1.000000 0.506401 0.547692
0.135805 0.175753 0.301335
0.135531 0.176303 0.301640
0.134981 0.177371 0.302220
0.133425 0.180484 0.303929
0.131106 0.185702 0.306004
0.128725 0.191012 0.308019
0.154726 0.193545 0.309941
0.188174 0.195193 0.312139
0.220706 0.197024 0.314916
0.253635 0.199374 0.318181
0.287663 0.202365 0.322423
0.323308 0.205631 0.327398
0.360479 0.209903 0.333135
0.399451 0.214420 0.339483
0.441108 0.219425 0.346105
0.485603 0.224369 0.352819
0.532982 0.229282 0.359380
0.583307 0.234165 0.366064
0.635828 0.239078 0.372564
0.694606 0.245090 0.379706
0.748867 0.252781 0.387335
0.797147 0.261936 0.395514
0.838651 0.273777 0.404303
0.873991 0.287724 0.413794
0.903990 0.304021 0.424079
0.929564 0.322820 0.435554
0.951385 0.344121 0.448249
0.969848 0.368505 0.462623
0.985229 0.396307 0.479011
0.997681 0.428199 0.498054
1.000000 0.464454 0.520378
1.000000 0.506004 0.546868
0.134493 0.179934 0.302129
0.134218 0.180484 0.302434
0.133791 0.181155 0.302922
0.132204 0.184421 0.304601
0.129824 0.189761 0.306584
0.127443 0.195163 0.308446
0.154940 0.197513 0.310399
0.188052 0.199039 0.312688
0.220493 0.201083 0.315343
0.253147 0.203525 0.318914
0.287205 0.206363 0.323095
0.322789 0.209903 0.328008
0.359899 0.213993 0.333837
0.398962 0.218631 0.340246
0.440406 0.223636 0.346654
0.484993 0.228458 0.353307
0.532250 0.233616 0.359930
0.582544 0.238743 0.366247
0.635248 0.243870 0.372808
0.693874 0.249760 0.379980
0.747951 0.257267 0.387549
0.796170 0.266392 0.395605
0.837736 0.278019 0.404303
0.873106 0.291508 0.413855
0.903258 0.307561 0.424109
0.928923 0.325841 0.435462
0.950866 0.346868 0.448157
0.969390 0.370855 0.462470
0.984894 0.398322 0.478950
0.997375 0.429999 0.498085
1.000000 0.465766 0.520256
1.000000 0.507225 0.546868
0.131136 0.189914 0.304143
0.130831 0.190646 0.304387
0.130373 0.191653 0.304784
0.129244 0.193606 0.305974
0.126955 0.198886 0.307652
0.124392 0.204379 0.309483
0.155673 0.206119 0.311406
0.188418 0.207584 0.313817
0.220645 0.209537 0.316594
0.253208 0.211978 0.320287
0.286961 0.214939 0.324529
0.322484 0.218357 0.329534
0.359442 0.222629 0.335241
0.398413 0.227481 0.341436
0.439887 0.232364 0.347723
0.484413 0.237491 0.354314
0.531670 0.242832 0.360906
0.581720 0.248234 0.367254
0.635218 0.253544 0.373693
0.692866 0.259800 0.380682
0.746426 0.267155 0.388067
0.794400 0.276188 0.396033
0.836149 0.287297 0.404578
0.871824 0.300298 0.414191
0.902373 0.315618 0.424384
0.928344 0.333196 0.435889
0.950500 0.353613 0.448615
0.969116 0.377203 0.463081
0.984619 0.404059 0.479622
0.997101 0.435096 0.498787
1.000000 0.470222 0.521019
1.000000 0.510796 0.547478
0.125460 0.207126 0.306371
0.125185 0.207797 0.306523
0.124727 0.208804 0.306798
0.123751 0.210697 0.307530
0.122103 0.213413 0.308965
0.121340 0.217166 0.311040
0.156283 0.218662 0.313085
0.188815 0.220249 0.315679
0.220676 0.221988 0.318700
0.252873 0.224430 0.322545
0.286656 0.227298 0.326787
0.321965 0.231022 0.331731
0.358801 0.235386 0.337438
0.397803 0.240116 0.343542
0.439277 0.245365 0.349737
0.483833 0.250889 0.356023
0.531365 0.256596 0.362341
0.581415 0.262181 0.368566
0.636347 0.268101 0.375067
0.693233 0.274876 0.381933
0.746181 0.282231 0.389044
0.793790 0.291051 0.396979
0.835386 0.301274 0.405432
0.871092 0.313725 0.414862
0.901610 0.328069 0.425238
0.927703 0.344854 0.436683
0.949859 0.364385 0.449500
0.968536 0.386603 0.463905
0.984039 0.412543 0.480415
0.996521 0.442634 0.499733
1.000000 0.476783 0.521965
1.000000 0.516594 0.548577
0.118349 0.225956 0.308629
0.118105 0.226444 0.308751
0.117739 0.227146 0.308965
0.116884 0.228672 0.309514
0.115175 0.231144 0.310826
0.124300 0.233738 0.312779
0.156771 0.234195 0.315679
0.188876 0.235691 0.318364
0.220890 0.237552 0.321813
0.253208 0.240024 0.325658
0.286870 0.243259 0.329808
0.321965 0.247013 0.334783
0.358801 0.251438 0.340459
0.397894 0.256504 0.346258
0.439399 0.262028 0.352148
0.484077 0.267826 0.358404
0.531548 0.273838 0.364569
0.581750 0.279789 0.370581
0.638056 0.286778 0.377081
0.694484 0.294041 0.383612
0.747036 0.301701 0.390631
0.794369 0.310185 0.398444
0.847013 0.325017 0.410101
0.880797 0.337102 0.419715
0.909483 0.350896 0.430304
0.933837 0.366857 0.442237
0.954528 0.385443 0.455238
0.971923 0.406867 0.470039
0.986328 0.431983 0.487007
0.997955 0.461067 0.506523
1.000000 0.494667 0.529412
1.000000 0.533593 0.556512
0.109010 0.246281 0.311467
0.108736 0.246738 0.311559
0.108339 0.247379 0.311772
0.107240 0.248753 0.312505
0.105776 0.250828 0.313298
0.125399 0.252415 0.315526
0.159670 0.253330 0.318425
0.190249 0.253880 0.322271
0.221927 0.255924 0.325750
0.254856 0.258762 0.329686
0.289250 0.262425 0.334234
0.324865 0.266484 0.338872
0.361761 0.271183 0.344366
0.400916 0.276493 0.350011
0.442573 0.282322 0.355688
0.487343 0.288518 0.361547
0.534722 0.294865 0.367376
0.587701 0.302220 0.373480
0.644068 0.309819 0.379736
0.700282 0.317693 0.386206
0.752926 0.325872 0.393378
0.800565 0.334844 0.401343
0.842008 0.344823 0.410315
0.877409 0.356023 0.420233
0.907256 0.369085 0.431159
0.932250 0.384009 0.443061
0.953216 0.401373 0.456397
0.970733 0.421576 0.471443
0.985260 0.445258 0.488472
0.996918 0.472938 0.508171
1.000000 0.504906 0.530907
1.000000 0.542748 0.558373
0.096590 0.266880 0.315404
0.096223 0.267308 0.315557
0.095674 0.267796 0.315923
0.094667 0.268956 0.316381
0.092866 0.270756 0.317388
0.124880 0.271397 0.318975
0.159213 0.272313 0.321965
0.191226 0.273808 0.325628
0.221286 0.274784 0.329839
0.253910 0.277836 0.333806
0.288304 0.281926 0.338140
0.324407 0.286717 0.343023
0.362158 0.292180 0.348211
0.401312 0.297734 0.353643
0.443000 0.303838 0.358984
0.487587 0.310552 0.364599
0.536309 0.318029 0.370336
0.589899 0.326207 0.376196
0.645350 0.334447 0.382116
0.700557 0.342657 0.388373
0.752468 0.350896 0.395453
0.799588 0.359380 0.403265
0.840757 0.368719 0.411902
0.875975 0.378912 0.421912
0.905730 0.390570 0.432746
0.930816 0.404303 0.444831
0.951843 0.420020 0.458137
0.969512 0.438605 0.473060
0.984070 0.460945 0.490394
0.995758 0.487007 0.510124
1.000000 0.517784 0.533318
1.000000 0.554070 0.560906
0.077943 0.288945 0.320836
0.077363 0.289311 0.321111
0.076753 0.289830 0.321324
0.075349 0.290745 0.321996
0.091859 0.291783 0.322789
0.126314 0.292088 0.324010
0.159182 0.292912 0.326055
0.191470 0.294347 0.329229
0.222904 0.296239 0.333318
0.253208 0.298222 0.337957
0.287358 0.302647 0.342443
0.323430 0.307897 0.347112
0.361486 0.313970 0.352270
0.401862 0.320714 0.357610
0.444007 0.327672 0.362829
0.489876 0.335302 0.368231
0.539849 0.343938 0.373816
0.592706 0.352697 0.379400
0.647303 0.361486 0.384924
0.701717 0.369970 0.390936
0.752895 0.378363 0.397772
0.799405 0.386542 0.405341
0.840208 0.395087 0.414069
0.875059 0.404486 0.423804
0.904723 0.414923 0.434791
0.929686 0.426947 0.446937
0.950744 0.441321 0.460334
0.968322 0.458473 0.475532
0.982879 0.479042 0.492866
0.994568 0.503563 0.512932
1.000000 0.532738 0.536431
1.000000 0.567407 0.564202
0.035340 0.312657 0.326726
0.034028 0.312932 0.326879
0.031739 0.313359 0.327214
0.059724 0.313939 0.327703
0.097505 0.314275 0.328313
0.129915 0.314580 0.329351
0.160800 0.315038 0.330755
0.192508 0.316533 0.333410
0.224155 0.318700 0.337011
0.255741 0.321263 0.341283
0.286534 0.323735 0.346166
0.322332 0.329747 0.351324
0.360174 0.336217 0.356207
0.400519 0.343725 0.361242
0.445319 0.352605 0.366674
0.494240 0.362585 0.372198
0.543969 0.371801 0.377478
0.596582 0.381292 0.382666
0.650599 0.390600 0.388037
0.704005 0.399298 0.393957
0.754269 0.407691 0.400397
0.799649 0.415503 0.407935
0.839506 0.423224 0.416388
0.873808 0.431373 0.426154
0.903197 0.440558 0.436988
0.928130 0.451270 0.449012
0.949218 0.464118 0.462654
0.966949 0.479744 0.478065
0.981537 0.499031 0.496040
0.993256 0.521935 0.516411
1.000000 0.549828 0.540337
1.000000 0.583124 0.568750
0.000000 0.337804 0.332799
0.000000 0.337835 0.332860
0.019104 0.337957 0.333043
0.071626 0.338170 0.333471
0.104311 0.338415 0.334142
0.134768 0.338903 0.335149
0.164584 0.339513 0.336370
0.194278 0.340337 0.337865
0.226047 0.342718 0.341131
0.258000 0.345647 0.345068
0.290196 0.349004 0.349615
0.322057 0.352209 0.354467
0.360052 0.359838 0.360357
0.401495 0.368780 0.365362
0.446357 0.378576 0.370611
0.494545 0.389258 0.375769
0.545922 0.400000 0.380987
0.599329 0.410834 0.386084
0.652857 0.420569 0.391150
0.705562 0.429755 0.396643
0.754910 0.437995 0.403174
0.799741 0.445624 0.410559
0.839231 0.452888 0.419104
0.873198 0.460182 0.428870
0.902312 0.468208 0.439734
0.927062 0.477607 0.452155
0.947967 0.488991 0.465827
0.965576 0.503105 0.481453
0.980102 0.520592 0.499550
0.991760 0.541924 0.520317
1.000000 0.568139 0.544732
1.000000 0.599908 0.573724
0.000000 0.364080 0.338903
0.018769 0.364172 0.339086
0.054505 0.364233 0.339361
0.082979 0.364477 0.339696
0.112032 0.364904 0.340307
0.140841 0.365270 0.341100
0.169619 0.366003 0.342107
0.198703 0.366796 0.343511
0.228885 0.368383 0.345495
0.260838 0.371588 0.349096
0.293614 0.375402 0.353399
0.328222 0.380743 0.358282
0.368872 0.390448 0.364721
0.410071 0.399847 0.370794
0.455634 0.410834 0.375799
0.504723 0.422492 0.380652
0.556664 0.434485 0.385657
0.611353 0.446509 0.390631
0.666560 0.457923 0.395850
0.718257 0.467353 0.401556
0.765438 0.474891 0.408118
0.807919 0.481575 0.415534
0.845121 0.487556 0.424292
0.877409 0.493690 0.434028
0.905180 0.500420 0.445167
0.928862 0.508446 0.457740
0.948943 0.518456 0.471992
0.965789 0.531121 0.488197
0.979767 0.546929 0.506523
0.990936 0.566705 0.527672
0.999237 0.591455 0.552911
1.000000 0.621393 0.582422
0.034760 0.393805 0.345342
0.058289 0.393927 0.345342
0.072328 0.393957 0.345556
0.094728 0.394079 0.345830
0.120638 0.394324 0.346471
0.147768 0.394659 0.347143
0.176028 0.395148 0.348089
0.204501 0.395911 0.349187
0.233677 0.397223 0.350622
0.265904 0.401129 0.353521
0.300206 0.406348 0.357763
0.335912 0.412360 0.362249
0.372869 0.419013 0.367285
0.411109 0.426276 0.372808
0.454414 0.436652 0.379156
0.503166 0.449378 0.383886
0.554833 0.462287 0.388586
0.609033 0.475227 0.393286
0.663905 0.487495 0.398260
0.716609 0.498177 0.404120
0.765286 0.507164 0.410895
0.807248 0.513359 0.418433
0.844022 0.518761 0.427253
0.876005 0.523919 0.437140
0.903532 0.529534 0.448432
0.927123 0.536370 0.461067
0.947173 0.545037 0.475593
0.963989 0.556298 0.492195
0.977905 0.570520 0.510918
0.989044 0.588861 0.532769
0.997345 0.611780 0.558282
1.000000 0.639887 0.588403
0.064027 0.423743 0.351080
0.074006 0.423835 0.351141
0.085115 0.423865 0.351293
0.104616 0.424018 0.351568
0.128634 0.424323 0.352117
0.155215 0.425238 0.352819
0.182681 0.426337 0.353796
0.211154 0.427741 0.354925
0.240330 0.429480 0.356176
0.270665 0.431434 0.357549
0.304784 0.436713 0.361273
0.340642 0.442847 0.365515
0.377722 0.449714 0.370153
0.416358 0.457069 0.375128
0.456519 0.464973 0.380560
0.501457 0.476051 0.386755
0.552636 0.489937 0.391455
0.606287 0.503838 0.395941
0.660914 0.517082 0.400702
0.713497 0.528466 0.406256
0.762142 0.537682 0.413214
0.805753 0.545129 0.421149
0.843259 0.550683 0.430396
0.874937 0.555169 0.440528
0.902220 0.559777 0.452094
0.925658 0.565423 0.465156
0.945525 0.572839 0.480079
0.962249 0.582635 0.497108
0.976104 0.595392 0.516258
0.987121 0.612146 0.538720
0.995270 0.633600 0.565118
1.000000 0.659754 0.595575
0.078828 0.458350 0.356970
0.087434 0.458534 0.357000
0.096834 0.458534 0.357122
0.114626 0.458900 0.357336
0.137850 0.459174 0.357824
0.162936 0.459846 0.358465
0.190097 0.460700 0.359167
0.218235 0.461830 0.360143
0.247318 0.463294 0.361151
0.277531 0.465339 0.362554
0.309361 0.468544 0.364508
0.345525 0.474983 0.368353
0.383124 0.482124 0.372564
0.422187 0.489723 0.377203
0.462501 0.497749 0.382147
0.504051 0.506035 0.387579
0.550439 0.517388 0.393652
0.603937 0.532647 0.398383
0.658198 0.546868 0.403113
0.710567 0.558923 0.408576
0.759030 0.568536 0.415320
0.802640 0.576043 0.423346
0.840574 0.581628 0.432990
0.873411 0.586358 0.444068
0.900877 0.590417 0.456245
0.924193 0.595056 0.469703
0.943999 0.601373 0.485176
0.960662 0.610010 0.502770
0.974365 0.621698 0.523095
0.985229 0.637232 0.546441
0.993194 0.657374 0.573968
0.998444 0.681636 0.605035
0.090150 0.495491 0.362127
0.097444 0.495613 0.362402
0.105928 0.495766 0.362493
0.123171 0.496010 0.362707
0.145327 0.496437 0.363104
0.170840 0.497108 0.363592
0.197513 0.498024 0.364172
0.225864 0.499306 0.364965
0.255192 0.500725 0.366033
0.285344 0.502556 0.367224
0.316808 0.504479 0.368261
0.351110 0.509209 0.371008
0.388434 0.515984 0.374853
0.427527 0.523491 0.379126
0.467933 0.531487 0.383673
0.509880 0.540032 0.388556
0.553246 0.548913 0.393927
0.600549 0.560449 0.399939
0.655604 0.576562 0.405432
0.708125 0.589715 0.410925
0.756619 0.599939 0.417731
0.800229 0.607507 0.425879
0.838346 0.612940 0.435706
0.871153 0.617121 0.447120
0.899321 0.621057 0.460273
0.923186 0.625727 0.475319
0.942748 0.630884 0.491493
0.959167 0.638270 0.509697
0.972595 0.648615 0.530846
0.983185 0.662654 0.555016
0.990906 0.680995 0.583215
0.996094 0.702785 0.614160
0.098909 0.533623 0.366918
0.105318 0.533745 0.367010
0.113954 0.533806 0.367102
0.130831 0.534081 0.367254
0.152560 0.534447 0.367712
0.177310 0.535058 0.368200
0.204227 0.535912 0.368719
0.232517 0.537072 0.369390
0.261967 0.538384 0.370275
0.292485 0.540124 0.371099
0.323949 0.542199 0.372351
0.356298 0.544457 0.373480
0.393622 0.551019 0.376867
0.433051 0.558801 0.380743
0.473823 0.566949 0.384924
0.515770 0.575463 0.389593
0.559319 0.584466 0.394507
0.604242 0.594018 0.399847
0.651820 0.605127 0.406012
0.704982 0.619989 0.413001
0.753445 0.630701 0.419867
0.797024 0.638392 0.428107
0.835111 0.643549 0.438209
0.868101 0.647333 0.449958
0.896361 0.650599 0.463539
0.920378 0.654292 0.479316
0.940642 0.659297 0.496925
0.957275 0.666163 0.516930
0.970550 0.675166 0.538750
0.980896 0.687861 0.564050
0.988464 0.704372 0.592737
0.993652 0.723873 0.623713
0.105470 0.574334 0.371160
0.112703 0.574487 0.371252
0.122225 0.581476 0.372045
0.138705 0.581720 0.372168
0.160800 0.582025 0.372442
0.185946 0.582391 0.372900
0.213596 0.583001 0.373358
0.242161 0.583856 0.373938
0.272374 0.584985 0.374701
0.303624 0.586542 0.375555
0.335729 0.588373 0.376440
0.368688 0.590417 0.377539
0.403326 0.593530 0.379095
0.443153 0.601160 0.382696
0.484352 0.609186 0.386694
0.526543 0.617456 0.391058
0.570001 0.625879 0.395880
0.614069 0.634363 0.401160
0.658900 0.642969 0.406867
0.704952 0.652308 0.413825
0.753750 0.664179 0.422766
0.796597 0.671504 0.431373
0.834195 0.676081 0.441840
0.866758 0.679011 0.454078
0.894591 0.681178 0.468025
0.918303 0.683680 0.484169
0.938262 0.687221 0.502403
0.954894 0.692836 0.523003
0.968231 0.701411 0.547051
0.978485 0.712917 0.573663
0.985962 0.727352 0.602625
0.991058 0.744533 0.633478
0.111269 0.619776 0.375097
0.117678 0.620874 0.375219
0.126864 0.621973 0.375402
0.143435 0.623102 0.375616
0.165438 0.624140 0.375952
0.191562 0.624933 0.376226
0.219364 0.625605 0.376684
0.248539 0.626551 0.377295
0.279393 0.627802 0.377874
0.310826 0.629206 0.378668
0.343572 0.630945 0.379370
0.376989 0.632837 0.380316
0.411139 0.634730 0.381506
0.448524 0.639338 0.383764
0.489235 0.646693 0.387640
0.530999 0.654139 0.392004
0.573602 0.661769 0.396643
0.616724 0.669337 0.401892
0.660517 0.677089 0.407813
0.704585 0.684871 0.414221
0.748867 0.692958 0.422004
0.793210 0.702022 0.433600
0.830961 0.706538 0.444343
0.863615 0.709041 0.457160
0.891630 0.710536 0.471962
0.915465 0.712062 0.488655
0.935546 0.714595 0.507622
0.952209 0.718990 0.529320
0.965576 0.726162 0.554223
0.975860 0.736599 0.582605
0.983368 0.749905 0.613001
0.988464 0.764950 0.643793
0.116670 0.664393 0.378302
0.123507 0.665339 0.378454
0.132357 0.666438 0.378607
0.148775 0.667445 0.378790
0.171267 0.668360 0.379126
0.197269 0.669032 0.379492
0.225467 0.669642 0.380011
0.255161 0.670405 0.380468
0.286076 0.671473 0.380957
0.318364 0.672572 0.381720
0.351293 0.674037 0.382513
0.384955 0.675624 0.383459
0.419287 0.677089 0.384436
0.454139 0.678614 0.385534
0.493721 0.684291 0.388983
0.534783 0.690791 0.393347
0.576562 0.697414 0.397986
0.618738 0.704067 0.403449
0.661280 0.710658 0.409400
0.703975 0.717342 0.416114
0.746365 0.723995 0.423529
0.788602 0.730953 0.432258
0.827817 0.736873 0.447181
0.860563 0.738918 0.460578
0.888670 0.739681 0.476081
0.912596 0.740230 0.493324
0.932738 0.741573 0.513024
0.949371 0.744778 0.535851
0.962737 0.750454 0.561852
0.973083 0.758999 0.590570
0.980743 0.770230 0.621088
0.985931 0.783841 0.652857
0.124666 0.708003 0.381811
0.131685 0.708858 0.381933
0.140352 0.709773 0.382147
0.156313 0.710658 0.382452
0.178470 0.711452 0.382788
0.204501 0.711940 0.383093
0.232242 0.712490 0.383490
0.262089 0.712947 0.383978
0.293126 0.713680 0.384619
0.325322 0.714534 0.385260
0.358343 0.715572 0.386084
0.392065 0.716701 0.386999
0.426337 0.717830 0.387945
0.461158 0.718898 0.389044
0.496895 0.720638 0.390753
0.537530 0.726467 0.395148
0.578607 0.732235 0.400275
0.620233 0.738125 0.405798
0.661891 0.743984 0.412146
0.703578 0.749783 0.419318
0.744717 0.755550 0.427375
0.785245 0.761135 0.436500
0.825376 0.767117 0.446906
0.859464 0.770169 0.465034
0.887572 0.770352 0.482216
0.911315 0.769955 0.500755
0.931212 0.770230 0.521965
0.947570 0.772152 0.546166
0.960662 0.776455 0.573327
0.970825 0.783200 0.602625
0.978332 0.792386 0.633173
0.983459 0.803769 0.664576
0.139162 0.752285 0.386572
0.145541 0.752621 0.386603
0.153109 0.752987 0.386816
0.168185 0.753292 0.386938
0.189487 0.753597 0.387243
0.214176 0.753872 0.387610
0.241825 0.754116 0.387945
0.270939 0.754513 0.388525
0.301640 0.755062 0.389197
0.333715 0.755734 0.389960
0.366461 0.756558 0.390906
0.400214 0.757382 0.391821
0.434150 0.758145 0.392950
0.468727 0.758785 0.394049
0.503349 0.759396 0.395422
0.540673 0.761746 0.398322
0.580682 0.766384 0.403723
0.621057 0.770932 0.409583
0.661372 0.775540 0.416114
0.701503 0.779934 0.423590
0.741054 0.784298 0.432105
0.779873 0.788510 0.441505
0.817502 0.792599 0.452216
0.854337 0.797055 0.464485
0.884367 0.798245 0.485145
0.908324 0.797238 0.506218
0.928283 0.796292 0.528527
0.944732 0.796841 0.553643
0.957855 0.799496 0.581720
0.968078 0.804379 0.611109
0.975708 0.811551 0.641749
0.980957 0.820829 0.672999
0.157687 0.789883 0.391821
0.162966 0.790219 0.391943
0.169802 0.790585 0.392065
0.183841 0.790829 0.392279
0.203250 0.791043 0.392645
0.226749 0.791135 0.392950
0.252750 0.791196 0.393408
0.280766 0.791318 0.393927
0.310643 0.791592 0.394720
0.341863 0.791897 0.395422
0.373968 0.792386 0.396399
0.406592 0.792844 0.397589
0.440040 0.793179 0.398657
0.474006 0.793484 0.399969
0.508141 0.793820 0.401465
0.542565 0.794064 0.402930
0.580682 0.796872 0.407660
0.620050 0.800473 0.413916
0.659266 0.804013 0.421088
0.698116 0.807523 0.429114
0.736446 0.810910 0.437995
0.774044 0.814176 0.448035
0.810422 0.817319 0.459510
0.845396 0.820340 0.472023
0.877867 0.822599 0.485054
0.904845 0.822965 0.508629
0.925048 0.821317 0.534722
0.941588 0.820462 0.560876
0.954894 0.821469 0.589288
0.965270 0.824521 0.619226
0.973083 0.829740 0.649683
0.978515 0.837095 0.680903
0.182681 0.825895 0.399298
0.187381 0.826261 0.399390
0.193790 0.826383 0.399481
0.205509 0.826474 0.399756
0.222934 0.826474 0.399908
0.244022 0.826322 0.400305
0.268193 0.826139 0.400763
0.294530 0.825956 0.401404
0.322759 0.825803 0.402045
0.352422 0.825650 0.402747
0.383307 0.825528 0.403754
0.414740 0.825528 0.404852
0.446998 0.825437 0.406104
0.479774 0.825284 0.407477
0.512810 0.825040 0.408911
0.546136 0.824735 0.410742
0.580011 0.824613 0.412818
0.618189 0.827115 0.419440
0.656031 0.829679 0.426917
0.693751 0.832303 0.435309
0.730983 0.834806 0.444800
0.767361 0.837186 0.455543
0.802548 0.839384 0.467353
0.836240 0.841428 0.480446
0.868101 0.843320 0.494697
0.898161 0.845457 0.510918
0.922271 0.845640 0.538140
0.938750 0.843748 0.569177
0.952117 0.842985 0.597925
0.962615 0.844236 0.627832
0.970520 0.847562 0.658320
0.976165 0.852903 0.689113
0.210178 0.855772 0.407568
0.214115 0.856046 0.407752
0.219303 0.856199 0.407965
0.229892 0.856199 0.408148
0.244968 0.856107 0.408484
0.263706 0.855955 0.408911
0.285710 0.855772 0.409491
0.310124 0.855528 0.410071
0.336736 0.855314 0.410834
0.364782 0.855100 0.411688
0.393988 0.854948 0.412818
0.424353 0.854765 0.414099
0.455421 0.854520 0.415564
0.486976 0.854215 0.417182
0.518914 0.853788 0.418891
0.551141 0.853300 0.420813
0.583734 0.852720 0.422919
0.617945 0.853117 0.427192
0.654902 0.854795 0.435187
0.691432 0.856474 0.444221
0.727474 0.858061 0.454414
0.762661 0.859556 0.465888
0.796597 0.860899 0.478401
0.829099 0.862150 0.492164
0.859922 0.863279 0.507378
0.888670 0.864408 0.524315
0.915129 0.865599 0.542931
0.936492 0.866087 0.573693
0.949645 0.864195 0.608057
0.960204 0.863645 0.637934
0.968170 0.865171 0.668391
0.973877 0.868589 0.698848
0.242344 0.882841 0.418402
0.245823 0.882994 0.418555
0.249912 0.883024 0.418799
0.258824 0.882963 0.418952
0.271672 0.882719 0.419226
0.288243 0.882475 0.419715
0.307805 0.882170 0.420172
0.329870 0.881834 0.420874
0.354253 0.881498 0.421729
0.380072 0.881163 0.422827
0.407691 0.880827 0.424018
0.436255 0.880522 0.425513
0.465736 0.880125 0.427192
0.495918 0.879667 0.428931
0.526329 0.879088 0.430854
0.557122 0.878416 0.433173
0.588281 0.877653 0.435401
0.619623 0.876890 0.438117
0.654139 0.877287 0.445197
0.689601 0.878172 0.454963
0.724483 0.878996 0.465797
0.758450 0.879698 0.477760
0.791287 0.880278 0.491096
0.822721 0.880797 0.505791
0.852476 0.881224 0.521996
0.880217 0.881651 0.539666
0.905730 0.882139 0.559106
0.928710 0.882811 0.579278
0.947417 0.883513 0.610803
0.957702 0.881682 0.646845
0.965850 0.881376 0.676936
0.971679 0.883024 0.707027
0.277775 0.906218 0.431434
0.280613 0.906249 0.431617
0.284337 0.906249 0.431739
0.291661 0.906188 0.431922
0.302861 0.906004 0.432319
0.317510 0.905852 0.433021
0.334966 0.905730 0.433783
0.355169 0.905577 0.434821
0.377722 0.905455 0.436072
0.402075 0.905333 0.437629
0.427741 0.905150 0.439338
0.454719 0.904936 0.441352
0.482551 0.904570 0.443488
0.511040 0.904112 0.445869
0.539940 0.903471 0.448341
0.569207 0.902647 0.450874
0.598749 0.901732 0.453864
0.628412 0.900786 0.456977
0.658473 0.899870 0.460792
0.692653 0.899931 0.471290
0.726192 0.899901 0.483070
0.758938 0.899809 0.496101
0.790524 0.899596 0.510613
0.820645 0.899321 0.526574
0.849027 0.899016 0.543999
0.875456 0.898741 0.562768
0.899565 0.898619 0.582452
0.921324 0.898589 0.602625
0.940642 0.898802 0.622889
0.956481 0.899687 0.653376
0.963958 0.897917 0.689113
0.969726 0.897795 0.718807
0.322576 0.928038 0.449622
0.324987 0.928008 0.449805
0.327703 0.927977 0.449928
0.333806 0.927855 0.450080
0.343023 0.927611 0.450507
0.355230 0.927306 0.451148
0.370184 0.927001 0.451942
0.387518 0.926665 0.452827
0.407202 0.926268 0.454139
0.428748 0.925841 0.455726
0.451759 0.925322 0.457557
0.476204 0.924773 0.459724
0.501610 0.924163 0.461891
0.527794 0.923400 0.464424
0.554589 0.922545 0.467170
