其他预设/【232】美食博客调色预设124款/1.3D LUT预设（视频调色-PR-AE-PS-FCPX-达芬奇用）/0 So Endlessly Delicious.cube
# Created by Adobe Lightroom plugin Export LUT (1.17.0)
# www.johnrellis.com/lightroom/exportlut.htm
# Preset: 0 So Endlessly Delicious
# Color profile: /Library/Application Support/Adobe/Color/Profiles/Recommended/AdobeRGB1998.icc
LUT_3D_SIZE 8
DOMAIN_MIN 0.000000 0.000000 0.000000
DOMAIN_MAX 0.903226 0.903226 0.903226
0.000000 0.000000 0.000000
0.108919 0.000000 0.000153
0.225498 0.000000 0.000000
0.351263 0.000000 0.000000
0.488075 0.000000 0.000000
0.636469 0.000000 0.000000
0.790799 0.000000 0.000000
0.930114 0.000000 0.000000
0.000000 0.109102 0.000000
0.109316 0.109407 0.000000
0.225742 0.112001 0.000000
0.351629 0.114382 0.000000
0.488350 0.114931 0.000000
0.636774 0.111727 0.000000
0.790982 0.102571 0.000000
0.930114 0.088624 0.000000
0.000000 0.226383 0.000000
0.111666 0.226719 0.000000
0.227543 0.227573 0.000000
0.352667 0.233738 0.000000
0.489448 0.241032 0.000000
0.637903 0.247807 0.000000
0.791562 0.251286 0.000000
0.930205 0.248264 0.000000
0.000000 0.353796 0.000000
0.110719 0.354131 0.000000
0.234440 0.355077 0.000000
0.356786 0.356756 0.000000
0.491371 0.366400 0.000000
0.639948 0.378973 0.000000
0.792569 0.387701 0.000000
0.930297 0.387091 0.000000
0.000000 0.492897 0.000000
0.101198 0.493172 0.000000
0.239353 0.494209 0.000000
0.368841 0.496071 0.000000
0.498604 0.498604 0.000000
0.642786 0.511284 0.000000
0.793881 0.523125 0.000000
0.930297 0.523003 0.000000
0.000000 0.644587 0.000000
0.071473 0.644831 0.000000
0.240208 0.645899 0.000000
0.379553 0.647761 0.000000
0.516045 0.650141 0.000000
0.652766 0.652827 0.000000
0.795193 0.659174 0.000000
0.930083 0.658289 0.000000
0.000000 0.795590 0.000000
0.000000 0.795621 0.000000
0.233188 0.795804 0.000000
0.381292 0.796139 0.000000
0.521599 0.796475 0.000000
0.659571 0.796658 0.000000
0.796506 0.796567 0.000000
0.929534 0.793454 0.000000
0.000000 0.928985 0.000000
0.000000 0.928893 0.000000
0.221225 0.928618 0.000000
0.374426 0.928069 0.000000
0.515801 0.927184 0.000000
0.653223 0.925902 0.000000
0.788357 0.924102 0.000000
0.921660 0.921752 0.000000
0.000244 0.000000 0.109224
0.109255 0.000000 0.109255
0.226108 0.000000 0.110475
0.352270 0.000000 0.108309
0.489082 0.000000 0.104463
0.637537 0.000000 0.095552
0.791653 0.000000 0.078767
0.930663 0.000000 0.056336
0.000000 0.109316 0.109529
0.109529 0.109529 0.109529
0.226383 0.109285 0.109194
0.352544 0.107607 0.107668
0.489326 0.103609 0.103548
0.637781 0.093904 0.093965
0.791806 0.076295 0.076478
0.930632 0.051545 0.050446
0.000000 0.226596 0.110750
0.108431 0.226993 0.108644
0.227512 0.227604 0.108095
0.353399 0.232334 0.105623
0.490333 0.237919 0.099733
0.638941 0.242496 0.087953
0.792355 0.244358 0.066529
0.930694 0.241032 0.022553
0.000000 0.354162 0.106111
0.103365 0.354467 0.103517
0.232731 0.355413 0.102449
0.356847 0.356878 0.100496
0.492164 0.365667 0.092317
0.640864 0.376898 0.074708
0.793271 0.384497 0.028016
0.930755 0.383612 0.000000
0.000000 0.493416 0.087953
0.087190 0.493690 0.087221
0.235721 0.494575 0.085603
0.367651 0.496315 0.081239
0.498756 0.498756 0.074525
0.643549 0.510857 0.036500
0.794461 0.521721 0.000000
0.930663 0.521111 0.000000
0.000000 0.645045 0.015869
0.013550 0.645319 0.014191
0.234409 0.646326 0.002655
0.377050 0.648096 0.000000
0.515129 0.650416 0.000000
0.652918 0.652918 0.000000
0.795621 0.658808 0.000000
0.930388 0.657374 0.000000
0.000000 0.795926 0.000000
0.000000 0.795987 0.000000
0.225986 0.796170 0.000000
0.377996 0.796445 0.000000
0.520073 0.796689 0.000000
0.659022 0.796780 0.000000
0.796536 0.796597 0.000000
0.929747 0.793149 0.000000
0.000000 0.929198 0.000000
0.000000 0.929107 0.000000
0.214572 0.928832 0.000000
0.371283 0.928252 0.000000
0.514183 0.927337 0.000000
0.652338 0.926024 0.000000
0.788022 0.924193 0.000000
0.921691 0.921752 0.000000
0.000000 0.000000 0.226932
0.112245 0.000000 0.226993
0.227298 0.000000 0.227329
0.353552 0.000000 0.232090
0.491157 0.000000 0.233188
0.640833 0.000000 0.226230
0.794278 0.000000 0.221988
0.932280 0.000000 0.218051
0.000000 0.110262 0.227207
0.108888 0.109010 0.227298
0.227512 0.107240 0.227451
0.354131 0.097963 0.230900
0.491859 0.065126 0.230198
0.641108 0.000000 0.225376
0.794400 0.000000 0.221347
0.932250 0.000000 0.217502
0.000000 0.227634 0.227665
0.105989 0.227634 0.227726
0.227756 0.227756 0.227756
0.355535 0.227543 0.227543
0.493111 0.226444 0.226474
0.642054 0.223667 0.223697
0.794797 0.219242 0.219303
0.932219 0.215488 0.215396
0.000000 0.354528 0.232090
0.095674 0.355016 0.230900
0.227054 0.356237 0.226932
0.357153 0.357183 0.226566
0.494545 0.362860 0.224552
0.643671 0.369574 0.220645
0.795468 0.373419 0.215274
0.932067 0.371618 0.211643
0.000000 0.493782 0.233524
0.061921 0.494331 0.230838
0.222995 0.495827 0.222995
0.363561 0.497139 0.222141
0.499092 0.499123 0.220676
0.646052 0.509270 0.215640
0.796323 0.516808 0.209445
0.931762 0.514946 0.206210
0.000000 0.645716 0.227970
0.000000 0.646265 0.223117
0.213413 0.647700 0.213382
0.368383 0.649226 0.211917
0.512016 0.651209 0.209567
0.653193 0.653223 0.206424
0.797086 0.657527 0.201205
0.931212 0.654414 0.199039
0.000000 0.796658 0.212558
0.000000 0.796902 0.206455
0.199924 0.797269 0.199924
0.366918 0.797360 0.198611
0.514702 0.797391 0.196658
0.657008 0.797238 0.194278
0.796689 0.796750 0.191379
0.930266 0.792172 0.190463
0.000000 0.929808 0.196078
0.000000 0.929870 0.191623
0.191226 0.929534 0.191135
0.361364 0.928862 0.190616
0.508843 0.927825 0.189517
0.649683 0.926360 0.188479
0.786954 0.924346 0.187381
0.921691 0.921752 0.186557
0.000000 0.000000 0.355169
0.113954 0.000000 0.355322
0.234653 0.000000 0.355596
0.356023 0.000000 0.355993
0.493050 0.000000 0.364843
0.642786 0.000000 0.371099
0.795987 0.000000 0.369421
0.933684 0.000000 0.360143
0.000000 0.107942 0.355535
0.107149 0.106874 0.355596
0.233036 0.102358 0.355840
0.356329 0.093965 0.356298
0.493629 0.056062 0.364141
0.643397 0.000000 0.369238
0.796445 0.000000 0.366705
0.933898 0.000000 0.357794
0.000000 0.232395 0.356207
0.092287 0.230961 0.356329
0.227481 0.227359 0.356695
0.356909 0.225681 0.356909
0.495399 0.218601 0.361395
0.645624 0.201083 0.362524
0.798032 0.173220 0.357305
0.933989 0.170047 0.354833
0.000000 0.356970 0.356970
0.083742 0.357061 0.357031
0.224521 0.357214 0.357244
0.357366 0.357366 0.357366
0.497536 0.357092 0.357122
0.647913 0.356054 0.356115
0.798520 0.354528 0.354559
0.933623 0.353552 0.353552
0.000000 0.494514 0.364660
0.011933 0.495003 0.363989
0.216709 0.496498 0.361395
0.356512 0.498421 0.356573
0.499519 0.499550 0.356085
0.649714 0.505852 0.354314
0.798795 0.508507 0.352392
0.932982 0.505821 0.351873
0.000000 0.646479 0.371221
0.000000 0.646998 0.369451
0.198459 0.648798 0.363043
0.352911 0.651057 0.352941
0.506584 0.652369 0.352117
0.653620 0.653651 0.351019
0.798917 0.655116 0.349615
0.931975 0.650080 0.349828
0.000000 0.797024 0.369329
0.000000 0.797299 0.366827
0.176028 0.798093 0.358404
0.348730 0.798734 0.348730
0.506279 0.798428 0.348150
0.653864 0.797848 0.347539
0.796841 0.796841 0.346807
0.930541 0.790585 0.347753
0.000000 0.929900 0.361151
0.000000 0.929931 0.359075
0.166995 0.930022 0.352453
0.347814 0.929564 0.347845
0.502007 0.928344 0.347814
0.646265 0.926665 0.347784
0.785641 0.924437 0.348028
0.921599 0.921630 0.348547
0.000000 0.000000 0.495552
0.113222 0.000000 0.495613
0.242039 0.000000 0.495979
0.368597 0.000000 0.496437
0.497230 0.000000 0.497200
0.645624 0.000000 0.510124
0.796658 0.000000 0.515618
0.932860 0.000000 0.509850
0.000000 0.102449 0.495949
0.100984 0.100343 0.496010
0.238437 0.092439 0.496315
0.367559 0.075288 0.496773
0.497444 0.020325 0.497444
0.646174 0.000000 0.509636
0.797055 0.000000 0.514397
0.933043 0.000000 0.508598
0.000000 0.231785 0.496895
0.023499 0.228672 0.497047
0.225834 0.225711 0.497322
0.363867 0.221866 0.497719
0.498238 0.216068 0.498238
0.648005 0.197421 0.507927
0.798306 0.170413 0.510338
0.933532 0.155642 0.504723
0.000000 0.366094 0.497780
0.000000 0.365179 0.497932
0.214267 0.361608 0.498360
0.357000 0.356939 0.498970
0.499245 0.355230 0.499245
0.650782 0.348730 0.504417
0.799985 0.341070 0.503563
0.933745 0.340917 0.500175
0.000000 0.499001 0.499031
0.000000 0.499092 0.499123
0.208743 0.499275 0.499306
0.353918 0.499611 0.499611
0.499763 0.499763 0.499763
0.653254 0.499519 0.499550
0.800534 0.499245 0.499336
0.932830 0.499672 0.499702
0.000000 0.647517 0.509728
0.000000 0.648005 0.509361
0.187747 0.649592 0.507713
0.346838 0.651881 0.504326
0.498970 0.653742 0.498970
0.653986 0.653986 0.498756
0.799863 0.652186 0.498787
0.931395 0.647333 0.499855
0.000000 0.797482 0.513939
0.000000 0.797726 0.512902
0.163272 0.798459 0.509148
0.340978 0.799222 0.503166
0.498573 0.799222 0.498573
0.651179 0.798215 0.498695
0.796780 0.796811 0.498878
0.929473 0.789242 0.500572
0.000000 0.929961 0.507713
0.000000 0.929992 0.506676
0.158877 0.929992 0.503502
0.343389 0.929564 0.500114
0.500908 0.928191 0.500877
0.646174 0.926360 0.501488
0.785763 0.924071 0.502281
0.921263 0.921294 0.503410
0.000000 0.000000 0.648737
0.106752 0.000000 0.648829
0.247837 0.000000 0.649134
0.381323 0.000000 0.649622
0.515160 0.000000 0.650294
0.651148 0.000000 0.651148
0.797238 0.000000 0.657496
0.931640 0.000000 0.652277
0.000000 0.089265 0.649134
0.086213 0.085756 0.649165
0.242222 0.070466 0.649470
0.378973 0.004852 0.649958
0.514427 0.000000 0.650568
0.651362 0.000000 0.651331
0.797543 0.000000 0.657130
0.931762 0.000000 0.651728
0.000000 0.225956 0.650233
0.000000 0.225071 0.650324
0.221805 0.221592 0.650538
0.370642 0.215152 0.650935
0.511650 0.205295 0.651514
0.652155 0.191196 0.652125
0.798398 0.166720 0.655848
0.932036 0.155398 0.649836
0.000000 0.370764 0.651209
0.000000 0.368627 0.651362
0.190494 0.361334 0.651911
0.355535 0.355413 0.652399
0.506645 0.351690 0.652735
0.653162 0.346715 0.653162
0.799496 0.340246 0.653681
0.931975 0.341619 0.647700
0.000000 0.512413 0.652247
0.000000 0.511681 0.652399
0.180819 0.509087 0.652735
0.345068 0.504448 0.653315
0.499428 0.499367 0.653864
0.653986 0.497932 0.653986
0.799771 0.497993 0.651820
0.930419 0.503929 0.649195
0.000000 0.653285 0.653346
0.000000 0.653376 0.653407
0.166567 0.653559 0.653590
0.340673 0.653803 0.653834
0.497108 0.653986 0.653986
0.654047 0.653986 0.654017
0.798154 0.654139 0.654170
0.927611 0.654841 0.654841
0.000000 0.798093 0.656245
0.000000 0.798276 0.655909
0.145541 0.798795 0.654810
0.336797 0.799313 0.652888
0.498390 0.799008 0.651514
0.654536 0.797421 0.654536
0.796475 0.796445 0.654902
0.925902 0.791287 0.656123
0.000000 0.929961 0.649622
0.000000 0.929961 0.649195
0.149538 0.929808 0.647730
0.342992 0.929198 0.646387
0.505486 0.927367 0.648768
0.656825 0.924559 0.656825
0.790249 0.922789 0.657527
0.920623 0.920653 0.658381
0.000000 0.000000 0.795865
0.092714 0.000000 0.795926
0.247593 0.000000 0.796048
0.385290 0.000000 0.796262
0.521538 0.000000 0.796597
0.658595 0.000000 0.796902
0.797238 0.000000 0.797238
0.929839 0.000000 0.791196
0.000000 0.067567 0.796078
0.063844 0.061860 0.796109
0.240879 0.014862 0.796231
0.382177 0.000000 0.796445
0.520073 0.000000 0.796719
0.658076 0.000000 0.797024
0.797299 0.000000 0.797330
0.929900 0.000000 0.790951
0.000000 0.221714 0.796719
0.000000 0.220493 0.796750
0.216983 0.216587 0.796872
0.371466 0.209323 0.797024
0.515007 0.198184 0.797208
0.656275 0.182986 0.797421
0.797604 0.163577 0.797574
0.929961 0.155917 0.790219
0.000000 0.364660 0.797299
0.000000 0.362310 0.797391
0.171511 0.356390 0.797665
0.353979 0.353796 0.797696
0.507012 0.349950 0.797787
0.653498 0.345251 0.797848
0.797818 0.340124 0.797818
0.929656 0.342748 0.789242
0.000000 0.512139 0.797299
0.000000 0.511040 0.797360
0.155978 0.507347 0.797635
0.339544 0.501884 0.797940
0.499306 0.499214 0.798001
0.651026 0.498634 0.797848
0.797604 0.498756 0.797604
0.928038 0.505455 0.789395
0.000000 0.655177 0.797177
0.000000 0.654749 0.797208
0.143557 0.653407 0.797360
0.337194 0.651545 0.797482
0.499184 0.650904 0.797452
0.654292 0.654170 0.796963
0.796750 0.655360 0.796719
0.924895 0.659602 0.792325
0.000000 0.796719 0.796780
0.000000 0.796750 0.796811
0.128969 0.796780 0.796841
0.335241 0.796780 0.796841
0.501030 0.796628 0.796689
0.656367 0.796384 0.796384
0.796292 0.796262 0.796292
0.922179 0.796475 0.796475
0.000000 0.929839 0.790005
0.000000 0.929808 0.789822
0.142031 0.929534 0.789242
0.344366 0.928649 0.788632
0.510185 0.926513 0.789456
0.661036 0.923705 0.792294
0.796963 0.921233 0.796963
0.920073 0.920073 0.797330
0.000000 0.000000 0.924987
0.075196 0.000000 0.925017
0.241917 0.000000 0.925048
0.380835 0.000000 0.925078
0.516564 0.000000 0.925139
0.652064 0.000000 0.925139
0.788113 0.000000 0.925048
0.924865 0.000000 0.924865
0.000000 0.028168 0.925078
0.020417 0.013825 0.925078
0.235569 0.000000 0.925139
0.377813 0.000000 0.925170
0.514977 0.000000 0.925200
0.651270 0.000000 0.925170
0.787839 0.000000 0.925078
0.924865 0.000000 0.924834
0.000000 0.217685 0.925383
0.000000 0.216770 0.925383
0.213687 0.213169 0.925383
0.367681 0.206912 0.925383
0.509789 0.197879 0.925322
0.648798 0.186435 0.925231
0.786923 0.173495 0.925048
0.924743 0.161410 0.924743
0.000000 0.356573 0.925566
0.000000 0.356329 0.925566
0.178439 0.355138 0.925536
0.353521 0.353277 0.925475
0.502831 0.350744 0.925353
0.645624 0.348119 0.925139
0.785824 0.346197 0.924804
0.924376 0.346105 0.924346
0.000000 0.503929 0.925017
0.000000 0.503166 0.925048
0.159518 0.501030 0.925078
0.345769 0.499672 0.925017
0.500145 0.500008 0.924773
0.645319 0.501091 0.924437
0.786007 0.503563 0.923919
0.923278 0.508415 0.923278
0.000000 0.645686 0.924193
0.000000 0.645380 0.924193
0.157107 0.644526 0.924193
0.347234 0.644526 0.924041
0.509361 0.649256 0.923430
0.655268 0.655146 0.922728
0.790097 0.657801 0.922240
0.921721 0.661128 0.921721
0.000000 0.784573 0.923033
0.000000 0.784482 0.923003
0.157687 0.784268 0.922942
0.350591 0.784604 0.922759
0.513787 0.787106 0.922179
0.662593 0.791653 0.921386
0.796597 0.796506 0.920714
0.920378 0.797971 0.920378
0.000000 0.921477 0.921508
0.000000 0.921447 0.921508
0.164218 0.921355 0.921416
0.357153 0.921141 0.921172
0.519524 0.920745 0.920806
0.665736 0.920317 0.920348
0.799130 0.919921 0.919982
0.919829 0.919799 0.919829
