其他预设/【232】美食博客调色预设124款/1.3D LUT预设（视频调色-PR-AE-PS-FCPX-达芬奇用）/0 So Endlessly Delicious.cube
# Created by Adobe Lightroom plugin Export LUT (1.17.0)
# www.johnrellis.com/lightroom/exportlut.htm
# Preset: 0 So Endlessly Delicious
# Color profile: /Library/Application Support/Adobe/Color/Profiles/Recommended/AdobeRGB1998.icc
LUT_3D_SIZE 32
0.000000 0.000000 0.000000
0.023713 0.000000 0.000488
0.053162 0.000244 0.000702
0.081209 0.000000 0.000000
0.108919 0.000000 0.000153
0.137331 0.000000 0.000214
0.166171 0.000000 0.000000
0.195468 0.000000 0.000000
0.225498 0.000000 0.000000
0.255863 0.000000 0.000000
0.287083 0.000000 0.000000
0.318914 0.000000 0.000000
0.351263 0.000000 0.000000
0.384436 0.000000 0.000000
0.418219 0.000000 0.000000
0.452766 0.000000 0.000000
0.488075 0.000000 0.000000
0.524041 0.000000 0.000000
0.560693 0.000000 0.000000
0.598260 0.000000 0.000000
0.636469 0.000000 0.000000
0.675502 0.000000 0.000000
0.714961 0.000000 0.000000
0.753384 0.000000 0.000000
0.790799 0.000000 0.000000
0.827176 0.000000 0.000000
0.862516 0.000000 0.000000
0.896818 0.000000 0.000000
0.930114 0.000000 0.000000
0.962341 0.000000 0.000000
0.993591 0.000000 0.000000
1.000000 0.000000 0.000000
0.000336 0.023377 0.000244
0.022705 0.023194 0.000763
0.053590 0.023621 0.000000
0.081300 0.023346 0.000153
0.109010 0.024140 0.000000
0.137179 0.024506 0.000000
0.166171 0.023407 0.000000
0.195499 0.024201 0.000000
0.225406 0.023346 0.000000
0.255955 0.022339 0.000000
0.287144 0.020325 0.000000
0.318914 0.019043 0.000000
0.351324 0.016144 0.000000
0.384527 0.012482 0.000000
0.418280 0.008057 0.000000
0.452796 0.002045 0.000000
0.488045 0.000000 0.000000
0.524071 0.000000 0.000000
0.560754 0.000000 0.000000
0.598260 0.000000 0.000000
0.636500 0.000000 0.000000
0.675532 0.000000 0.000000
0.714961 0.000000 0.000000
0.753414 0.000000 0.000000
0.790799 0.000000 0.000000
0.827207 0.000000 0.000000
0.862547 0.000000 0.000000
0.896818 0.000000 0.000000
0.930083 0.000000 0.000000
0.962341 0.000000 0.000000
0.993591 0.000000 0.000000
1.000000 0.000000 0.000000
0.000000 0.054017 0.000000
0.024262 0.054444 0.000122
0.053681 0.054017 0.000427
0.081025 0.053986 0.000000
0.109041 0.054414 0.000000
0.137392 0.055451 0.000000
0.166171 0.055695 0.000000
0.195499 0.055360 0.000000
0.225498 0.056367 0.000000
0.255924 0.055787 0.000000
0.287114 0.055177 0.000000
0.318944 0.054932 0.000000
0.351354 0.052766 0.000000
0.384558 0.050019 0.000000
0.418280 0.047578 0.000000
0.452918 0.042573 0.000000
0.488136 0.037720 0.000000
0.524102 0.030243 0.000000
0.560845 0.020264 0.000000
0.598291 0.011231 0.000000
0.636561 0.000000 0.000000
0.675563 0.000000 0.000000
0.715023 0.000000 0.000000
0.753445 0.000000 0.000000
0.790860 0.000000 0.000000
0.827237 0.000000 0.000000
0.862547 0.000000 0.000000
0.896818 0.000000 0.000000
0.930114 0.000000 0.000000
0.962341 0.000000 0.000000
0.993591 0.000000 0.000000
1.000000 0.000000 0.000000
0.000000 0.081453 0.000275
0.023926 0.081331 0.000000
0.054353 0.081453 0.000000
0.081575 0.081392 0.000153
0.109194 0.081605 0.000000
0.137514 0.082338 0.000000
0.166262 0.082765 0.000000
0.195651 0.083253 0.000000
0.225528 0.083711 0.000000
0.256016 0.084108 0.000000
0.287175 0.084565 0.000000
0.319066 0.084413 0.000000
0.351446 0.084596 0.000000
0.384619 0.083894 0.000000
0.418402 0.083284 0.000000
0.453010 0.082460 0.000000
0.488258 0.081361 0.000000
0.524193 0.080262 0.000000
0.560906 0.078340 0.000000
0.598352 0.075593 0.000000
0.636652 0.072358 0.000000
0.675685 0.067964 0.000000
0.715114 0.063020 0.000000
0.753506 0.055146 0.000000
0.790890 0.043519 0.000000
0.827268 0.027008 0.000000
0.862577 0.011322 0.000000
0.896880 0.000000 0.000000
0.930114 0.000000 0.000000
0.962341 0.000000 0.000000
0.993561 0.000000 0.000000
1.000000 0.000000 0.000000
0.000000 0.109102 0.000000
0.023316 0.109285 0.000000
0.054902 0.109316 0.000000
0.081788 0.109255 0.000000
0.109316 0.109407 0.000000
0.137606 0.109957 0.000000
0.166445 0.110689 0.000000
0.195773 0.111269 0.000000
0.225742 0.112001 0.000000
0.256168 0.112978 0.000000
0.287297 0.113527 0.000000
0.319158 0.114107 0.000000
0.351629 0.114382 0.000000
0.384771 0.114839 0.000000
0.418585 0.114839 0.000000
0.453071 0.115023 0.000000
0.488350 0.114931 0.000000
0.524315 0.114595 0.000000
0.561059 0.113802 0.000000
0.598566 0.112917 0.000000
0.636774 0.111727 0.000000
0.675837 0.110048 0.000000
0.715206 0.108156 0.000000
0.753628 0.105592 0.000000
0.790982 0.102571 0.000000
0.827329 0.099458 0.000000
0.862608 0.096223 0.000000
0.896880 0.092256 0.000000
0.930114 0.088624 0.000000
0.962341 0.085084 0.000000
0.993561 0.080446 0.000000
1.000000 0.076661 0.000000
0.000000 0.137606 0.000000
0.023499 0.137697 0.000000
0.055055 0.137728 0.000000
0.082246 0.137850 0.000000
0.110201 0.137881 0.000000
0.138094 0.137942 0.000000
0.166476 0.138582 0.000000
0.195895 0.139742 0.000000
0.225772 0.140658 0.000000
0.256321 0.141543 0.000000
0.287572 0.142611 0.000000
0.319402 0.143526 0.000000
0.351781 0.144320 0.000000
0.384955 0.145144 0.000000
0.418769 0.145785 0.000000
0.453285 0.146426 0.000000
0.488563 0.147005 0.000000
0.524498 0.147433 0.000000
0.561212 0.147494 0.000000
0.598718 0.147494 0.000000
0.636988 0.147250 0.000000
0.676051 0.146700 0.000000
0.715419 0.145876 0.000000
0.753780 0.144839 0.000000
0.791073 0.143343 0.000000
0.827390 0.141512 0.000000
0.862669 0.139712 0.000000
0.896910 0.137301 0.000000
0.930144 0.135103 0.000000
0.962371 0.132570 0.000000
0.993530 0.130037 0.000000
1.000000 0.127749 0.000000
0.000000 0.166659 0.000000
0.021576 0.166720 0.000000
0.054627 0.166720 0.000000
0.082734 0.166751 0.000000
0.110811 0.166903 0.000000
0.138949 0.167056 0.000000
0.167208 0.167269 0.000000
0.196017 0.167849 0.000000
0.226078 0.169131 0.000000
0.256596 0.170382 0.000000
0.287785 0.171664 0.000000
0.319585 0.172976 0.000000
0.352026 0.174105 0.000000
0.385168 0.175418 0.000000
0.419043 0.176425 0.000000
0.453529 0.177615 0.000000
0.488808 0.178592 0.000000
0.524773 0.179416 0.000000
0.561517 0.180117 0.000000
0.598993 0.180758 0.000000
0.637263 0.181338 0.000000
0.676295 0.181552 0.000000
0.715633 0.181704 0.000000
0.753964 0.181308 0.000000
0.791226 0.180606 0.000000
0.827481 0.179385 0.000000
0.862760 0.178195 0.000000
0.896971 0.176669 0.000000
0.930175 0.174807 0.000000
0.962341 0.173159 0.000000
0.993530 0.171023 0.000000
1.000000 0.169314 0.000000
0.000000 0.196109 0.000000
0.020478 0.196170 0.000000
0.052827 0.196292 0.000000
0.082887 0.196292 0.000000
0.111360 0.196475 0.000000
0.139956 0.196658 0.000000
0.168521 0.196750 0.000000
0.196994 0.197024 0.000000
0.226261 0.197726 0.000000
0.256809 0.199222 0.000000
0.288060 0.200839 0.000000
0.319890 0.202365 0.000000
0.352331 0.203861 0.000000
0.385473 0.205386 0.000000
0.419348 0.206882 0.000000
0.453864 0.208377 0.000000
0.489113 0.209720 0.000000
0.525078 0.211063 0.000000
0.561822 0.212467 0.000000
0.599329 0.213596 0.000000
0.637537 0.214725 0.000000
0.676600 0.215610 0.000000
0.715877 0.216403 0.000000
0.754177 0.216403 0.000000
0.791379 0.216159 0.000000
0.827634 0.215732 0.000000
0.862821 0.214817 0.000000
0.897032 0.213626 0.000000
0.930175 0.212314 0.000000
0.962341 0.210697 0.000000
0.993469 0.209171 0.000000
1.000000 0.207370 0.000000
0.000000 0.226383 0.000000
0.016968 0.226413 0.000000
0.052033 0.226505 0.000000
0.082582 0.226474 0.000000
0.111666 0.226719 0.000000
0.140627 0.226810 0.000000
0.169650 0.227024 0.000000
0.198459 0.227298 0.000000
0.227543 0.227573 0.000000
0.257206 0.228397 0.000000
0.288365 0.230137 0.000000
0.320195 0.231846 0.000000
0.352667 0.233738 0.000000
0.385870 0.235599 0.000000
0.419654 0.237430 0.000000
0.454139 0.239261 0.000000
0.489448 0.241032 0.000000
0.525444 0.242863 0.000000
0.562188 0.244480 0.000000
0.599695 0.246159 0.000000
0.637903 0.247807 0.000000
0.676997 0.249149 0.000000
0.716213 0.250340 0.000000
0.754421 0.251102 0.000000
0.791562 0.251286 0.000000
0.827756 0.250858 0.000000
0.862913 0.250370 0.000000
0.897063 0.249424 0.000000
0.930205 0.248264 0.000000
0.962341 0.246952 0.000000
0.993439 0.245426 0.000000
1.000000 0.243809 0.000000
0.000000 0.257237 0.000000
0.012818 0.257267 0.000000
0.048920 0.257328 0.000000
0.082124 0.257389 0.000000
0.111940 0.257542 0.000000
0.141573 0.257664 0.000000
0.170748 0.257816 0.000000
0.199985 0.258030 0.000000
0.229282 0.258396 0.000000
0.258640 0.258762 0.000000
0.288701 0.259525 0.000000
0.320562 0.261570 0.000000
0.353033 0.263615 0.000000
0.386145 0.265721 0.000000
0.420020 0.267948 0.000000
0.454566 0.270146 0.000000
0.489906 0.272282 0.000000
0.525872 0.274327 0.000000
0.562585 0.276524 0.000000
0.600061 0.278508 0.000000
0.638361 0.280552 0.000000
0.677424 0.282506 0.000000
0.716548 0.284154 0.000000
0.754696 0.285130 0.000000
0.791806 0.285618 0.000000
0.827909 0.285649 0.000000
0.863005 0.285283 0.000000
0.897124 0.284550 0.000000
0.930236 0.283574 0.000000
0.962341 0.282261 0.000000
0.993408 0.280919 0.000000
1.000000 0.279332 0.000000
0.000000 0.288731 0.000000
0.006012 0.288731 0.000000
0.045350 0.288853 0.000000
0.081331 0.288853 0.000000
0.111910 0.288975 0.000000
0.141939 0.289128 0.000000
0.171756 0.289433 0.000000
0.201358 0.289647 0.000000
0.231083 0.289921 0.000000
0.260868 0.290318 0.000000
0.290623 0.290684 0.000000
0.320989 0.291386 0.000000
0.353399 0.293706 0.000000
0.386603 0.296086 0.000000
0.420478 0.298619 0.000000
0.454994 0.301091 0.000000
0.490333 0.303532 0.000000
0.526268 0.306035 0.000000
0.563073 0.308446 0.000000
0.600580 0.310918 0.000000
0.638819 0.313329 0.000000
0.677913 0.315679 0.000000
0.716976 0.317723 0.000000
0.754971 0.319097 0.000000
0.792020 0.319799 0.000000
0.828092 0.320043 0.000000
0.863127 0.319829 0.000000
0.897185 0.319280 0.000000
0.930236 0.318395 0.000000
0.962310 0.317144 0.000000
0.993378 0.315770 0.000000
1.000000 0.314214 0.000000
0.000000 0.320958 0.000000
0.000000 0.320958 0.000000
0.039002 0.320958 0.000000
0.079805 0.321050 0.000000
0.111604 0.321172 0.000000
0.142306 0.321324 0.000000
0.172549 0.321630 0.000000
0.202731 0.321874 0.000000
0.232792 0.322148 0.000000
0.262882 0.322515 0.000000
0.293065 0.322881 0.000000
0.323308 0.323339 0.000000
0.353918 0.323949 0.000000
0.387091 0.326696 0.000000
0.420935 0.329381 0.000000
0.455512 0.332067 0.000000
0.490822 0.334905 0.000000
0.526848 0.337713 0.000000
0.563592 0.340551 0.000000
0.601099 0.343328 0.000000
0.639338 0.346136 0.000000
0.678401 0.348913 0.000000
0.717372 0.351171 0.000000
0.755337 0.352850 0.000000
0.792294 0.353796 0.000000
0.828275 0.354223 0.000000
0.863249 0.354162 0.000000
0.897276 0.353704 0.000000
0.930266 0.352880 0.000000
0.962310 0.351659 0.000000
0.993286 0.350286 0.000000
1.000000 0.348699 0.000000
0.000000 0.353796 0.000000
0.000000 0.353918 0.000000
0.029175 0.353918 0.000000
0.077241 0.353979 0.000000
0.110719 0.354131 0.000000
0.142184 0.354284 0.000000
0.173190 0.354559 0.000000
0.203799 0.354772 0.000000
0.234440 0.355077 0.000000
0.264866 0.355474 0.000000
0.295445 0.355871 0.000000
0.326085 0.356237 0.000000
0.356786 0.356756 0.000000
0.387640 0.357305 0.000000
0.421454 0.360266 0.000000
0.456031 0.363317 0.000000
0.491371 0.366400 0.000000
0.527367 0.369512 0.000000
0.564141 0.372656 0.000000
0.601709 0.375769 0.000000
0.639948 0.378973 0.000000
0.679011 0.382025 0.000000
0.717830 0.384741 0.000000
0.755703 0.386511 0.000000
0.792569 0.387701 0.000000
0.828489 0.388281 0.000000
0.863401 0.388342 0.000000
0.897337 0.387915 0.000000
0.930297 0.387091 0.000000
0.962280 0.385931 0.000000
0.993194 0.384558 0.000000
1.000000 0.382849 0.000000
0.000000 0.387488 0.000000
0.000000 0.387488 0.000000
0.016571 0.387549 0.000000
0.074098 0.387640 0.000000
0.109285 0.387732 0.000000
0.141909 0.387915 0.000000
0.173770 0.388128 0.000000
0.204990 0.388403 0.000000
0.235843 0.388708 0.000000
0.266819 0.389105 0.000000
0.297795 0.389502 0.000000
0.328801 0.389990 0.000000
0.359777 0.390448 0.000000
0.390997 0.391028 0.000000
0.422278 0.391577 0.000000
0.456641 0.394659 0.000000
0.491951 0.398016 0.000000
0.527977 0.401465 0.000000
0.564782 0.404883 0.000000
0.602289 0.408362 0.000000
0.640589 0.411780 0.000000
0.679652 0.415320 0.000000
0.718349 0.418189 0.000000
0.756100 0.420264 0.000000
0.792874 0.421576 0.000000
0.828702 0.422217 0.000000
0.863523 0.422339 0.000000
0.897429 0.421973 0.000000
0.930327 0.421210 0.000000
0.962219 0.420050 0.000000
0.993133 0.418585 0.000000
1.000000 0.416846 0.000000
0.000000 0.421851 0.000000
0.000000 0.421881 0.000000
0.000610 0.421881 0.000000
0.070100 0.421973 0.000000
0.107576 0.422095 0.000000
0.141421 0.422309 0.000000
0.173831 0.422553 0.000000
0.205692 0.422766 0.000000
0.237278 0.423102 0.000000
0.268742 0.423529 0.000000
0.300023 0.423896 0.000000
0.331426 0.424384 0.000000
0.362829 0.424872 0.000000
0.394385 0.425513 0.000000
0.426093 0.426062 0.000000
0.457832 0.426703 0.000000
0.492561 0.429755 0.000000
0.528618 0.433509 0.000000
0.565393 0.437293 0.000000
0.602991 0.441047 0.000000
0.641260 0.444831 0.000000
0.680323 0.448646 0.000000
0.718868 0.451759 0.000000
0.756527 0.453925 0.000000
0.793210 0.455360 0.000000
0.828916 0.456153 0.000000
0.863676 0.456306 0.000000
0.897490 0.456001 0.000000
0.930327 0.455207 0.000000
0.962188 0.454047 0.000000
0.993011 0.452522 0.000000
1.000000 0.450629 0.000000
0.000000 0.457008 0.000000
0.000000 0.457038 0.000000
0.000000 0.457069 0.000000
0.063752 0.457160 0.000000
0.104768 0.457252 0.000000
0.140230 0.457435 0.000000
0.173678 0.457649 0.000000
0.206271 0.457984 0.000000
0.238499 0.458259 0.000000
0.270359 0.458656 0.000000
0.302220 0.459052 0.000000
0.334112 0.459602 0.000000
0.365820 0.460060 0.000000
0.397803 0.460670 0.000000
0.429786 0.461280 0.000000
0.461982 0.461952 0.000000
0.494118 0.462593 0.000000
0.529290 0.465736 0.000000
0.566155 0.469764 0.000000
0.603723 0.473854 0.000000
0.642023 0.477974 0.000000
0.680995 0.482063 0.000000
0.719448 0.485359 0.000000
0.756954 0.487709 0.000000
0.793515 0.489265 0.000000
0.829160 0.490059 0.000000
0.863828 0.490272 0.000000
0.897551 0.489967 0.000000
0.930327 0.489174 0.000000
0.962097 0.487892 0.000000
0.992920 0.486275 0.000000
1.000000 0.484382 0.000000
0.000000 0.492897 0.000000
0.000000 0.492958 0.000000
0.000000 0.492988 0.000000
0.053956 0.493080 0.000000
0.101198 0.493172 0.000000
0.138521 0.493385 0.000000
0.173098 0.493599 0.000000
0.206546 0.493874 0.000000
0.239353 0.494209 0.000000
0.271916 0.494575 0.000000
0.304265 0.495033 0.000000
0.336553 0.495491 0.000000
0.368841 0.496071 0.000000
0.401129 0.496620 0.000000
0.433570 0.497261 0.000000
0.465980 0.497932 0.000000
0.498604 0.498604 0.000000
0.531365 0.499397 0.000000
0.566888 0.502464 0.000000
0.604456 0.506828 0.000000
0.642786 0.511284 0.000000
0.681727 0.515648 0.000000
0.719997 0.519036 0.000000
0.757412 0.521538 0.000000
0.793881 0.523125 0.000000
0.829374 0.523980 0.000000
0.863981 0.524193 0.000000
0.897612 0.523888 0.000000
0.930297 0.523003 0.000000
0.962036 0.521691 0.000000
0.992767 0.520012 0.000000
1.000000 0.517967 0.000000
0.000000 0.529595 0.000000
0.000000 0.529595 0.000000
0.000000 0.529656 0.000000
0.033021 0.529747 0.000000
0.096712 0.529870 0.000000
0.135958 0.530053 0.000000
0.172030 0.530297 0.000000
0.206455 0.530571 0.000000
0.240085 0.530877 0.000000
0.273320 0.531273 0.000000
0.306188 0.531731 0.000000
0.338933 0.532219 0.000000
0.371740 0.532738 0.000000
0.404486 0.533349 0.000000
0.437232 0.533989 0.000000
0.470100 0.534661 0.000000
0.503105 0.535424 0.000000
0.536156 0.536187 0.000000
0.569360 0.537011 0.000000
0.605219 0.540032 0.000000
0.643580 0.544793 0.000000
0.682460 0.549310 0.000000
0.720607 0.552850 0.000000
0.757870 0.555413 0.000000
0.794186 0.557031 0.000000
0.829618 0.557977 0.000000
0.864073 0.558160 0.000000
0.897673 0.557763 0.000000
0.930266 0.556878 0.000000
0.961944 0.555474 0.000000
0.992584 0.553674 0.000000
1.000000 0.551446 0.000000
0.000000 0.567102 0.000000
0.000000 0.567163 0.000000
0.000000 0.567163 0.000000
0.003845 0.567254 0.000000
0.090303 0.567376 0.000000
0.132998 0.567590 0.000000
0.170474 0.567834 0.000000
0.206058 0.568078 0.000000
0.240574 0.568444 0.000000
0.274357 0.568811 0.000000
0.307927 0.569268 0.000000
0.341222 0.569726 0.000000
0.374487 0.570275 0.000000
0.407721 0.570886 0.000000
0.440894 0.571557 0.000000
0.474159 0.572229 0.000000
0.507500 0.572961 0.000000
0.540948 0.573754 0.000000
0.574578 0.574609 0.000000
0.608331 0.575525 0.000000
0.644465 0.578393 0.000000
0.683223 0.583185 0.000000
0.721218 0.586755 0.000000
0.758328 0.589349 0.000000
0.794522 0.591058 0.000000
0.829831 0.591913 0.000000
0.864256 0.592096 0.000000
0.897704 0.591669 0.000000
0.930236 0.590692 0.000000
0.961822 0.589166 0.000000
0.992432 0.587243 0.000000
1.000000 0.584924 0.000000
0.000000 0.605432 0.000000
0.000000 0.605432 0.000000
0.000000 0.605493 0.000000
0.000000 0.605615 0.000000
0.082094 0.605737 0.000000
0.128878 0.605951 0.000000
0.168551 0.606134 0.000000
0.205142 0.606409 0.000000
0.240543 0.606775 0.000000
0.275212 0.607111 0.000000
0.309422 0.607599 0.000000
0.343359 0.608087 0.000000
0.377111 0.608637 0.000000
0.410803 0.609247 0.000000
0.444526 0.609918 0.000000
0.478187 0.610590 0.000000
0.511986 0.611353 0.000000
0.545830 0.612177 0.000000
0.579797 0.613031 0.000000
0.613916 0.613916 0.000000
0.648066 0.614801 0.000000
0.683955 0.617151 0.000000
0.721828 0.620844 0.000000
0.758755 0.623438 0.000000
0.794858 0.625116 0.000000
0.830076 0.625940 0.000000
0.864347 0.626062 0.000000
0.897765 0.625574 0.000000
0.930175 0.624506 0.000000
0.961669 0.622889 0.000000
0.992218 0.620844 0.000000
1.000000 0.618341 0.000000
0.000000 0.644587 0.000000
0.000000 0.644617 0.000000
0.000000 0.644648 0.000000
0.000000 0.644739 0.000000
0.071473 0.644831 0.000000
0.123934 0.645045 0.000000
0.165621 0.645289 0.000000
0.203708 0.645594 0.000000
0.240208 0.645899 0.000000
0.275761 0.646265 0.000000
0.310582 0.646754 0.000000
0.345251 0.647242 0.000000
0.379553 0.647761 0.000000
0.413733 0.648310 0.000000
0.447852 0.648920 0.000000
0.481971 0.649531 0.000000
0.516045 0.650141 0.000000
0.550164 0.650813 0.000000
0.584283 0.651484 0.000000
0.618494 0.652125 0.000000
0.652766 0.652827 0.000000
0.687068 0.653468 0.000000
0.722408 0.654932 0.000000
0.759243 0.657527 0.000000
0.795193 0.659174 0.000000
0.830259 0.659998 0.000000
0.864439 0.660060 0.000000
0.897734 0.659480 0.000000
0.930083 0.658289 0.000000
0.961517 0.656580 0.000000
0.992004 0.654353 0.000000
1.000000 0.651728 0.000000
0.000000 0.683986 0.000000
0.000000 0.684047 0.000000
0.000000 0.684016 0.000000
0.000000 0.684108 0.000000
0.052186 0.684230 0.000000
0.117494 0.684352 0.000000
0.161990 0.684565 0.000000
0.201694 0.684749 0.000000
0.239322 0.685023 0.000000
0.275669 0.685298 0.000000
0.311223 0.685664 0.000000
0.346441 0.686000 0.000000
0.381231 0.686397 0.000000
0.415808 0.686824 0.000000
0.450233 0.687221 0.000000
0.484627 0.687648 0.000000
0.518914 0.688106 0.000000
0.553246 0.688594 0.000000
0.587488 0.689113 0.000000
0.621820 0.689570 0.000000
0.656123 0.690059 0.000000
0.690425 0.690517 0.000000
0.724849 0.690974 0.000000
0.759670 0.691798 0.000000
0.795499 0.693385 0.000000
0.830472 0.694148 0.000000
0.864561 0.694118 0.000000
0.897734 0.693416 0.000000
0.929992 0.692103 0.000000
0.961334 0.690211 0.000000
0.991730 0.687892 0.000000
1.000000 0.685084 0.000000
0.000000 0.722286 0.000000
0.000000 0.722316 0.000000
0.000000 0.722347 0.000000
0.000000 0.722347 0.000000
0.012757 0.722438 0.000000
0.110079 0.722560 0.000000
0.157778 0.722683 0.000000
0.198917 0.722866 0.000000
0.237797 0.723049 0.000000
0.274968 0.723232 0.000000
0.311101 0.723476 0.000000
0.346685 0.723720 0.000000
0.381903 0.723995 0.000000
0.416876 0.724269 0.000000
0.451606 0.724575 0.000000
0.486213 0.724910 0.000000
0.520714 0.725216 0.000000
0.555138 0.725521 0.000000
0.589563 0.725826 0.000000
0.623957 0.726162 0.000000
0.658320 0.726467 0.000000
0.692653 0.726741 0.000000
0.726986 0.727016 0.000000
0.761349 0.727321 0.000000
0.795773 0.727657 0.000000
0.830655 0.728298 0.000000
0.864591 0.728145 0.000000
0.897704 0.727321 0.000000
0.929870 0.725917 0.000000
0.961120 0.723873 0.000000
0.991455 0.721340 0.000000
1.000000 0.718349 0.000000
0.000000 0.759487 0.000000
0.000000 0.759518 0.000000
0.000000 0.759518 0.000000
0.000000 0.759548 0.000000
0.000000 0.759609 0.000000
0.101656 0.759670 0.000000
0.152895 0.759762 0.000000
0.195895 0.759854 0.000000
0.235752 0.759976 0.000000
0.273594 0.760098 0.000000
0.310338 0.760250 0.000000
0.346258 0.760403 0.000000
0.381903 0.760586 0.000000
0.417121 0.760739 0.000000
0.452094 0.760952 0.000000
0.486915 0.761135 0.000000
0.521538 0.761318 0.000000
0.556115 0.761471 0.000000
0.590631 0.761685 0.000000
0.625055 0.761837 0.000000
0.659419 0.762020 0.000000
0.693721 0.762142 0.000000
0.728054 0.762264 0.000000
0.762325 0.762356 0.000000
0.796536 0.762448 0.000000
0.830808 0.762509 0.000000
0.864622 0.762234 0.000000
0.897642 0.761288 0.000000
0.929717 0.759670 0.000000
0.960906 0.757473 0.000000
0.991119 0.754788 0.000000
1.000000 0.751614 0.000000
0.000000 0.795590 0.000000
0.000000 0.795560 0.000000
0.000000 0.795590 0.000000
0.000000 0.795621 0.000000
0.000000 0.795621 0.000000
0.092287 0.795682 0.000000
0.147890 0.795712 0.000000
0.192416 0.795773 0.000000
0.233188 0.795804 0.000000
0.271672 0.795895 0.000000
0.308873 0.795987 0.000000
0.345403 0.796048 0.000000
0.381292 0.796139 0.000000
0.416724 0.796231 0.000000
0.451881 0.796323 0.000000
0.486824 0.796384 0.000000
0.521599 0.796475 0.000000
0.556268 0.796536 0.000000
0.590814 0.796597 0.000000
0.625238 0.796658 0.000000
0.659571 0.796658 0.000000
0.693904 0.796658 0.000000
0.728176 0.796658 0.000000
0.762356 0.796628 0.000000
0.796506 0.796567 0.000000
0.830594 0.796475 0.000000
0.864652 0.796353 0.000000
0.897551 0.795193 0.000000
0.929534 0.793454 0.000000
0.960601 0.791073 0.000000
0.990784 0.788174 0.000000
1.000000 0.784787 0.000000
0.000000 0.830564 0.000000
0.000000 0.830564 0.000000
0.000000 0.830564 0.000000
0.000000 0.830564 0.000000
0.000000 0.830564 0.000000
0.081605 0.830625 0.000000
0.142214 0.830594 0.000000
0.188754 0.830625 0.000000
0.230411 0.830625 0.000000
0.269413 0.830655 0.000000
0.307195 0.830655 0.000000
0.343938 0.830655 0.000000
0.380072 0.830686 0.000000
0.415778 0.830686 0.000000
0.451026 0.830686 0.000000
0.486122 0.830686 0.000000
0.520989 0.830625 0.000000
0.555627 0.830625 0.000000
0.590204 0.830564 0.000000
0.624659 0.830472 0.000000
0.658991 0.830411 0.000000
0.693263 0.830289 0.000000
0.727443 0.830167 0.000000
0.761532 0.830014 0.000000
0.795560 0.829831 0.000000
0.829526 0.829587 0.000000
0.863432 0.829343 0.000000
0.897276 0.829068 0.000000
0.929320 0.827237 0.000000
0.960327 0.824674 0.000000
0.990387 0.821592 0.000000
1.000000 0.817990 0.000000
0.000000 0.864469 0.000000
0.000000 0.864469 0.000000
0.000000 0.864439 0.000000
0.000000 0.864439 0.000000
0.000000 0.864408 0.000000
0.070192 0.864439 0.000000
0.136721 0.864408 0.000000
0.184909 0.864378 0.000000
0.227451 0.864347 0.000000
0.267063 0.864347 0.000000
0.305119 0.864286 0.000000
0.342168 0.864256 0.000000
0.378454 0.864195 0.000000
0.414252 0.864134 0.000000
0.449714 0.864042 0.000000
0.484810 0.863951 0.000000
0.519768 0.863828 0.000000
0.554437 0.863706 0.000000
0.589014 0.863584 0.000000
0.623377 0.863401 0.000000
0.657649 0.863218 0.000000
0.691829 0.863005 0.000000
0.725948 0.862760 0.000000
0.759945 0.862486 0.000000
0.793851 0.862181 0.000000
0.827665 0.861845 0.000000
0.861418 0.861448 0.000000
0.895079 0.861051 0.000000
0.928649 0.860624 0.000000
0.959991 0.858244 0.000000
0.989960 0.854917 0.000000
1.000000 0.851102 0.000000
0.000000 0.897246 0.000000
0.000000 0.897246 0.000000
0.000000 0.897246 0.000000
0.000000 0.897215 0.000000
0.000000 0.897185 0.000000
0.055146 0.897185 0.000000
0.131350 0.897154 0.000000
0.180972 0.897093 0.000000
0.224186 0.897032 0.000000
0.264500 0.896971 0.000000
0.302892 0.896849 0.000000
0.340124 0.896788 0.000000
0.376532 0.896666 0.000000
0.412482 0.896544 0.000000
0.447944 0.896391 0.000000
