其他预设/【232】美食博客调色预设124款/1.3D LUT预设（视频调色-PR-AE-PS-FCPX-达芬奇用）/0 So Endlessly Delicious.cube
# Created by Adobe Lightroom plugin Export LUT (1.17.0)
# www.johnrellis.com/lightroom/exportlut.htm
# Preset: 0 So Endlessly Delicious
# Color profile: /Library/Application Support/Adobe/Color/Profiles/Recommended/AdobeRGB1998.icc
LUT_3D_SIZE 5
DOMAIN_MIN 0.000000 0.000000 0.000000
DOMAIN_MAX 0.903226 0.903226 0.903226
0.000000 0.000000 0.000000
0.195468 0.000000 0.000000
0.418219 0.000000 0.000000
0.675502 0.000000 0.000000
0.930114 0.000000 0.000000
0.000000 0.196109 0.000000
0.196994 0.197024 0.000000
0.419348 0.206882 0.000000
0.676600 0.215610 0.000000
0.930175 0.212314 0.000000
0.000000 0.421851 0.000000
0.205692 0.422766 0.000000
0.426093 0.426062 0.000000
0.680323 0.448646 0.000000
0.930327 0.455207 0.000000
0.000000 0.683986 0.000000
0.201694 0.684749 0.000000
0.450233 0.687221 0.000000
0.690425 0.690517 0.000000
0.929992 0.692103 0.000000
0.000000 0.928985 0.000000
0.177401 0.928710 0.000000
0.445838 0.927672 0.000000
0.687221 0.925536 0.000000
0.921660 0.921752 0.000000
0.000000 0.000000 0.196536
0.196841 0.000000 0.196872
0.420539 0.000000 0.201114
0.678889 0.000000 0.192599
0.931762 0.000000 0.183322
0.000000 0.197147 0.197116
0.197177 0.197177 0.197177
0.422004 0.196292 0.196262
0.679866 0.190372 0.190341
0.931762 0.180758 0.180697
0.000000 0.422492 0.201511
0.193881 0.423987 0.193759
0.426368 0.426398 0.192172
0.683009 0.443763 0.182010
0.931609 0.446723 0.171267
0.000000 0.684993 0.184207
0.172976 0.686122 0.172976
0.444099 0.688167 0.169223
0.690730 0.690791 0.162203
0.930816 0.689723 0.154177
0.000000 0.929747 0.146090
0.145480 0.929412 0.145571
0.438544 0.928222 0.143465
0.684932 0.925811 0.140200
0.921691 0.921752 0.137209
0.000000 0.000000 0.423774
0.207584 0.000000 0.424079
0.424903 0.000000 0.424933
0.683345 0.000000 0.442786
0.933318 0.000000 0.436347
0.000000 0.200137 0.424720
0.195712 0.195712 0.425086
0.425757 0.188724 0.425788
0.685328 0.147494 0.438331
0.933928 0.079652 0.430854
0.000000 0.426307 0.426307
0.183352 0.426551 0.426551
0.426886 0.426886 0.426886
0.689631 0.426062 0.426093
0.933654 0.425299 0.425299
0.000000 0.686213 0.442390
0.138125 0.687648 0.438056
0.424109 0.690852 0.424109
0.691310 0.691341 0.423194
0.931609 0.683894 0.423926
0.000000 0.929931 0.435370
0.093690 0.930022 0.430732
0.423713 0.929107 0.423682
0.680751 0.926146 0.424231
0.921477 0.921508 0.425574
0.000000 0.000000 0.687251
0.214237 0.000000 0.687495
0.450721 0.000000 0.688258
0.689418 0.000000 0.689448
0.931243 0.000000 0.687343
0.000000 0.191867 0.688289
0.187472 0.187289 0.688502
0.444953 0.170108 0.689113
0.690059 0.133883 0.690028
0.931548 0.077150 0.685756
0.000000 0.442481 0.689754
0.124697 0.437476 0.690181
0.425757 0.425635 0.691066
0.691432 0.420569 0.691432
0.930968 0.423377 0.683375
0.000000 0.690974 0.691005
0.077699 0.691096 0.691127
0.417578 0.691371 0.691432
0.691371 0.691341 0.691371
0.926116 0.691981 0.691981
0.000000 0.929931 0.684840
0.036225 0.929839 0.683619
0.425666 0.928344 0.682612
0.693538 0.923613 0.693507
0.920470 0.920470 0.694697
0.000000 0.000000 0.924987
0.205447 0.000000 0.925017
0.448829 0.000000 0.925109
0.686030 0.000000 0.925139
0.924865 0.000000 0.924865
0.000000 0.181979 0.925292
0.178195 0.177554 0.925322
0.441596 0.161227 0.925322
0.683986 0.131380 0.925200
0.924804 0.088472 0.924804
0.000000 0.431037 0.925353
0.087221 0.427649 0.925444
0.425513 0.425391 0.925261
0.680201 0.424414 0.924804
0.923949 0.427619 0.923919
0.000000 0.680629 0.923919
0.072724 0.679896 0.923919
0.429938 0.681147 0.923522
0.692317 0.692226 0.922148
0.921355 0.696742 0.921355
0.000000 0.921477 0.921508
0.083375 0.921386 0.921447
0.440558 0.920958 0.921019
0.700282 0.920195 0.920256
0.919829 0.919799 0.919829
