其他预设/【232】美食博客调色预设124款/1.3D LUT预设（视频调色-PR-AE-PS-FCPX-达芬奇用）/0 Sweeter Than Any I Know Of.cube
# Created by Adobe Lightroom plugin Export LUT (1.17.0)
# www.johnrellis.com/lightroom/exportlut.htm
# Preset: 0 Sweeter Than Any I Know Of
# Color profile: /Library/Application Support/Adobe/Color/Profiles/Recommended/AdobeRGB1998.icc
LUT_3D_SIZE 5
DOMAIN_MIN 0.000000 0.000000 0.000000
DOMAIN_MAX 0.903226 0.903226 0.903226
0.139101 0.151827 0.167544
0.329870 0.136934 0.160891
0.668879 0.133730 0.158633
0.878355 0.152590 0.187716
0.967773 0.206912 0.239139
0.121736 0.327642 0.159457
0.322240 0.334203 0.161410
0.668208 0.347936 0.160494
0.875303 0.319402 0.196262
0.966339 0.313176 0.253300
0.089174 0.618158 0.160586
0.311131 0.616632 0.160464
0.647517 0.644221 0.167391
0.867185 0.585382 0.229435
0.955352 0.514916 0.286198
0.134188 0.815793 0.199832
0.294926 0.813718 0.202274
0.547845 0.803952 0.208530
0.807218 0.798154 0.251713
0.937987 0.720516 0.328710
0.252049 0.914977 0.283360
0.327398 0.912566 0.284367
0.497169 0.902800 0.282597
0.696925 0.890043 0.306432
0.882567 0.872374 0.358831
0.111116 0.144808 0.330785
0.304936 0.145083 0.335058
0.637079 0.100771 0.344152
0.857939 0.216770 0.357733
0.954437 0.300816 0.378851
0.110506 0.322667 0.338506
0.318700 0.332708 0.347143
0.650477 0.332647 0.348119
0.856809 0.347478 0.362768
0.952178 0.374548 0.385565
0.011383 0.615656 0.333349
0.301701 0.618830 0.330388
0.633265 0.630060 0.342870
0.852689 0.592309 0.383581
0.944182 0.548791 0.410803
0.174228 0.812558 0.332555
0.324956 0.810086 0.343816
0.557641 0.800473 0.346014
0.805631 0.795254 0.381018
0.929503 0.731746 0.437812
0.329137 0.910307 0.385016
0.384771 0.908019 0.385199
0.532860 0.900725 0.389532
0.711574 0.887877 0.403418
0.883391 0.871458 0.450172
0.141604 0.142794 0.559045
0.308782 0.136080 0.561151
0.595239 0.091371 0.565820
0.820523 0.182895 0.534539
0.934356 0.407416 0.546777
0.096681 0.304814 0.567193
0.301488 0.302495 0.569421
0.608270 0.303655 0.574548
0.821408 0.355962 0.545892
0.927337 0.507469 0.575738
0.094972 0.603449 0.574121
0.319677 0.608667 0.578332
0.646937 0.633692 0.599847
0.824704 0.639918 0.605341
0.916533 0.649165 0.613153
0.226719 0.804685 0.530571
0.368200 0.799496 0.537285
0.621851 0.789212 0.574945
0.806821 0.790097 0.598077
0.907774 0.767147 0.629114
0.368170 0.904295 0.513054
0.459815 0.899382 0.533410
0.629572 0.887144 0.578210
0.749996 0.878141 0.578332
0.883391 0.867308 0.612634
0.176669 0.146853 0.731930
0.301213 0.143496 0.732235
0.538659 0.138460 0.734066
0.790951 0.168429 0.731991
0.921782 0.308476 0.665400
0.172702 0.285801 0.732113
0.302556 0.287541 0.732296
0.541772 0.296330 0.732113
0.788602 0.321111 0.729213
0.916564 0.399695 0.668910
0.215854 0.530358 0.728878
0.347021 0.538201 0.728206
0.586847 0.570184 0.727779
0.787045 0.582574 0.726070
0.903227 0.618921 0.697993
0.296696 0.773190 0.729519
0.407477 0.772091 0.728573
0.627222 0.773159 0.730220
0.808042 0.788113 0.745907
0.890715 0.790890 0.748745
0.431067 0.896513 0.674739
0.500999 0.892119 0.681147
0.656916 0.880400 0.701869
0.793515 0.868406 0.730312
0.881956 0.863981 0.743557
0.198184 0.168917 0.849241
0.289525 0.172519 0.848814
0.481941 0.192294 0.847410
0.693385 0.241520 0.844297
0.893278 0.320806 0.839536
0.227512 0.288640 0.847318
0.310613 0.293095 0.846799
0.495094 0.311101 0.845182
0.699062 0.347295 0.841764
0.891112 0.407172 0.837186
0.344762 0.513054 0.840787
0.425635 0.530907 0.839261
0.564691 0.546899 0.837095
0.725582 0.564050 0.834165
0.885405 0.592828 0.831144
0.398199 0.693874 0.834806
0.465675 0.700618 0.833494
0.622553 0.722072 0.829892
0.770932 0.750576 0.826139
0.879789 0.761593 0.825437
0.480446 0.864805 0.828000
0.532097 0.864103 0.827390
0.665217 0.862333 0.825925
0.793515 0.860594 0.824399
0.880156 0.862608 0.826810
