其他预设/【232】美食博客调色预设124款/1.3D LUT预设（视频调色-PR-AE-PS-FCPX-达芬奇用）/0 Sweeter Than Any I Know Of.cube
# Created by Adobe Lightroom plugin Export LUT (1.17.0)
# www.johnrellis.com/lightroom/exportlut.htm
# Preset: 0 Sweeter Than Any I Know Of
# Color profile: /Library/Application Support/Adobe/Color/Profiles/Recommended/AdobeRGB1998.icc
LUT_3D_SIZE 8
DOMAIN_MIN 0.000000 0.000000 0.000000
DOMAIN_MAX 0.903226 0.903226 0.903226
0.139101 0.151827 0.167544
0.208499 0.138979 0.166537
0.376684 0.137545 0.157656
0.576349 0.135958 0.156222
0.743130 0.132631 0.162539
0.856870 0.146151 0.180972
0.925292 0.174319 0.208835
0.967773 0.206912 0.239139
0.125734 0.217014 0.161685
0.204685 0.218173 0.159426
0.372900 0.222019 0.155306
0.568872 0.224796 0.158053
0.736477 0.218143 0.163272
0.850065 0.214817 0.181064
0.920165 0.222019 0.207980
0.965179 0.239292 0.238499
0.120943 0.367437 0.161868
0.201663 0.367224 0.162417
0.365759 0.376654 0.162539
0.575860 0.395209 0.159426
0.744594 0.383032 0.167178
0.853147 0.360693 0.191012
0.922698 0.345678 0.224338
0.964874 0.338811 0.255528
0.102907 0.537041 0.162081
0.194949 0.535454 0.162081
0.356115 0.533989 0.161685
0.567773 0.568780 0.160098
0.754177 0.565667 0.177890
0.858152 0.524376 0.215335
0.918486 0.483772 0.246708
0.959380 0.454902 0.274784
0.084840 0.688746 0.164279
0.184421 0.687556 0.164370
0.345953 0.685573 0.164981
0.519921 0.689174 0.169467
0.703792 0.697963 0.184207
0.835813 0.667933 0.221775
0.906798 0.617792 0.265751
0.951171 0.575952 0.300938
0.117647 0.792050 0.188663
0.193027 0.794827 0.191501
0.331579 0.791562 0.193027
0.481727 0.786252 0.195895
0.636927 0.783383 0.209445
0.790768 0.782101 0.236423
0.893400 0.746792 0.282536
0.941161 0.692958 0.325353
0.180819 0.866300 0.231754
0.224674 0.866026 0.233066
0.328771 0.862425 0.233524
0.454932 0.857115 0.236393
0.585260 0.849088 0.240085
0.719753 0.843565 0.264530
0.846128 0.836454 0.296391
0.928161 0.801450 0.337682
0.252049 0.914977 0.283360
0.276585 0.914214 0.283513
0.349157 0.911864 0.285222
0.449500 0.907988 0.290593
0.553307 0.899535 0.285588
0.667933 0.892058 0.299290
0.780728 0.883268 0.328893
0.882567 0.872374 0.358831
0.118349 0.151461 0.232090
0.199985 0.139712 0.233036
0.358038 0.142153 0.235966
0.558862 0.123995 0.236332
0.729641 0.125368 0.237797
0.843687 0.156405 0.248569
0.915526 0.194766 0.266178
0.961456 0.231052 0.286748
0.120546 0.213840 0.232914
0.200778 0.216373 0.235080
0.363287 0.217777 0.236118
0.558984 0.215457 0.236057
0.727901 0.212406 0.237613
0.840696 0.220371 0.248600
0.911803 0.236118 0.264591
0.958892 0.257603 0.284611
0.116213 0.362707 0.235477
0.194919 0.366339 0.233433
0.362066 0.373877 0.235111
0.568658 0.388403 0.237552
0.733577 0.377264 0.241642
0.841611 0.360784 0.255802
0.911833 0.350805 0.275212
0.958099 0.349523 0.297551
0.081392 0.530694 0.230198
0.181918 0.531884 0.227146
0.351537 0.532799 0.226902
0.552514 0.554559 0.232364
0.733089 0.550622 0.246494
0.841703 0.517052 0.269902
0.907652 0.483345 0.290318
0.953002 0.460395 0.311894
0.060578 0.686427 0.227573
0.176242 0.684443 0.227146
0.340887 0.680720 0.227054
0.511528 0.679377 0.229770
0.692897 0.687404 0.243351
0.826749 0.661982 0.273686
0.900603 0.617945 0.309514
0.946441 0.580163 0.336950
0.122499 0.786923 0.240360
0.192294 0.786282 0.240726
0.329046 0.783474 0.241550
0.478523 0.779568 0.244297
0.633692 0.778378 0.256992
0.788296 0.779416 0.283574
0.889616 0.745663 0.323796
0.937469 0.694911 0.358648
0.190768 0.860960 0.268711
0.229404 0.859525 0.267979
0.330999 0.856657 0.268711
0.456092 0.852689 0.272679
0.585779 0.845884 0.277104
0.718746 0.840452 0.298589
0.843290 0.833341 0.326268
0.924468 0.799496 0.362371
0.266972 0.912261 0.312078
0.290684 0.911772 0.312932
0.359899 0.909606 0.314946
0.457069 0.905943 0.320287
0.563256 0.899840 0.324712
0.672908 0.891630 0.333196
0.782284 0.882261 0.356878
0.882017 0.871427 0.382971
0.112490 0.141024 0.367498
0.193362 0.142367 0.368719
0.346838 0.142794 0.371801
0.528222 0.116091 0.375830
0.713558 0.114137 0.378149
0.836606 0.229068 0.394720
0.907225 0.294347 0.406317
0.952117 0.338231 0.416846
0.113619 0.212619 0.371008
0.193027 0.211856 0.372534
0.350072 0.210086 0.374456
0.533898 0.198001 0.376379
0.716213 0.208865 0.380407
0.833646 0.272862 0.394141
0.904692 0.317662 0.404059
0.950683 0.354009 0.415473
0.101320 0.363378 0.374945
0.188083 0.366735 0.377874
0.365759 0.377050 0.386389
0.561273 0.377813 0.387304
0.729183 0.384253 0.393439
0.834501 0.392523 0.400671
0.902708 0.403815 0.410071
0.948058 0.417212 0.420813
0.054475 0.533898 0.373877
0.173129 0.537102 0.373663
0.355810 0.547173 0.375830
0.560204 0.560479 0.384771
0.735256 0.558648 0.402777
0.834897 0.536156 0.413184
0.899626 0.519341 0.422797
0.943725 0.509606 0.432898
0.056214 0.685084 0.363043
0.176638 0.685817 0.363500
0.351202 0.686091 0.368750
0.518120 0.682002 0.369574
0.698573 0.691310 0.387488
0.823239 0.669032 0.412482
0.892973 0.638819 0.436988
0.936980 0.611688 0.449073
0.146212 0.785794 0.354498
0.217777 0.785214 0.358770
0.355657 0.781888 0.368780
0.492134 0.776913 0.369299
0.638148 0.773739 0.377173
0.786557 0.776028 0.402808
0.881712 0.748867 0.436805
0.929015 0.712428 0.465278
0.239017 0.859678 0.367132
0.283940 0.857939 0.374029
0.375402 0.853880 0.380804
0.482338 0.849119 0.381445
0.600153 0.842435 0.382910
0.726253 0.837583 0.401221
0.844694 0.832944 0.430579
0.918883 0.804440 0.464668
0.331243 0.908507 0.399023
0.360143 0.906859 0.406256
0.412390 0.904631 0.406439
0.497047 0.901610 0.412848
0.589471 0.895903 0.415076
0.688746 0.888487 0.420691
0.791196 0.880034 0.444038
0.882933 0.870512 0.469795
0.127687 0.142702 0.497230
0.200778 0.142824 0.499489
0.346929 0.135744 0.502129
0.516167 0.112734 0.505455
0.670130 0.084840 0.492531
0.809018 0.181735 0.488502
0.891386 0.308598 0.494820
0.936614 0.426886 0.523552
0.116243 0.206119 0.504417
0.195224 0.204990 0.505119
0.347601 0.200107 0.506279
0.520989 0.190585 0.508751
0.673335 0.179873 0.493751
0.808896 0.248539 0.491707
0.889097 0.351202 0.501335
0.934020 0.456550 0.532616
0.087434 0.353063 0.506188
0.178805 0.352544 0.508324
0.348791 0.353887 0.514275
0.535241 0.355962 0.517784
0.693416 0.361913 0.507866
0.815427 0.417487 0.516838
0.886839 0.493263 0.543206
0.930968 0.524285 0.552117
0.066804 0.530205 0.513695
0.178897 0.533043 0.515892
0.362005 0.543084 0.523857
0.569421 0.562707 0.539788
0.716732 0.565820 0.542443
0.815396 0.570825 0.546502
0.881987 0.578302 0.552453
0.927092 0.585840 0.558556
0.103548 0.686549 0.501762
0.197604 0.685786 0.501701
0.369574 0.685664 0.505913
0.555505 0.687312 0.525444
0.705562 0.692958 0.537865
0.815640 0.687831 0.558831
0.879057 0.675410 0.568292
0.921904 0.662745 0.570947
0.186160 0.786618 0.476539
0.251987 0.788144 0.480995
0.392432 0.783200 0.491737
0.547112 0.776883 0.515709
0.661646 0.771450 0.516075
0.790585 0.775875 0.540887
0.871763 0.760403 0.567193
0.915923 0.741512 0.584710
0.268070 0.857359 0.464607
0.310857 0.856229 0.469764
0.425696 0.851347 0.489265
0.549371 0.844358 0.514763
0.641352 0.839017 0.515068
0.745174 0.834226 0.525689
0.846494 0.831357 0.550744
0.908995 0.810880 0.576257
0.361883 0.906889 0.475654
0.392615 0.905394 0.482887
0.480659 0.899809 0.507317
0.568322 0.893736 0.527764
0.638697 0.889006 0.528344
0.718044 0.883024 0.529808
0.805661 0.876158 0.548791
0.883909 0.868833 0.571344
0.153933 0.143252 0.613642
0.212955 0.141573 0.614679
0.343725 0.133272 0.615412
0.497536 0.114443 0.617060
0.665980 0.092256 0.621912
0.783017 0.138308 0.591760
0.875273 0.250034 0.572564
0.931670 0.383764 0.574548
0.142275 0.199466 0.616449
0.206180 0.198581 0.617884
0.342016 0.193973 0.618219
0.498085 0.186252 0.618250
0.667384 0.182650 0.622766
0.783047 0.208835 0.592279
0.874662 0.298131 0.575799
0.929686 0.416510 0.580652
0.116487 0.335393 0.619806
0.193515 0.336095 0.621332
0.341436 0.336736 0.621363
0.505241 0.340520 0.623713
0.671473 0.346441 0.624903
0.779721 0.354101 0.593164
0.870481 0.423987 0.588861
0.922576 0.506493 0.600580
0.124392 0.496529 0.621729
0.201389 0.497566 0.622431
0.359808 0.504814 0.625940
0.535393 0.524804 0.632013
0.684260 0.533165 0.633112
0.785672 0.536156 0.613764
0.865690 0.581262 0.623285
0.912871 0.624781 0.639429
0.154147 0.662623 0.625238
0.226230 0.663813 0.626246
0.382025 0.667109 0.629175
0.559533 0.674891 0.636286
0.707179 0.689998 0.650263
0.799039 0.691981 0.652155
0.862882 0.695247 0.655146
0.907378 0.698116 0.657649
0.222477 0.777829 0.596307
0.274418 0.776913 0.597131
0.403418 0.772549 0.600305
0.555566 0.767086 0.611658
0.683864 0.764462 0.628138
0.789120 0.771054 0.644160
0.861784 0.771115 0.665980
0.903563 0.763607 0.672114
0.302678 0.852384 0.568322
0.338537 0.850736 0.570581
0.441779 0.845518 0.580621
0.568750 0.837919 0.600458
0.678035 0.831022 0.621424
0.757748 0.826963 0.622644
0.845548 0.827848 0.645533
0.898680 0.815915 0.664210
0.383337 0.902220 0.556329
0.410101 0.900664 0.560510
0.489815 0.895445 0.575647
0.597620 0.888487 0.604273
0.684749 0.880949 0.626093
0.746700 0.876463 0.626246
0.817502 0.871458 0.636744
0.883360 0.866392 0.655787
0.174014 0.145815 0.713405
0.221622 0.144839 0.713497
0.335576 0.140047 0.712398
0.474617 0.133761 0.713771
0.623102 0.134371 0.714687
0.771633 0.152590 0.713649
0.863249 0.223880 0.674952
0.924712 0.324987 0.644984
0.167330 0.196933 0.711055
0.216281 0.196231 0.710903
0.332830 0.194217 0.710597
0.473396 0.193576 0.712001
0.621668 0.197971 0.712398
0.769833 0.214328 0.711818
0.861387 0.266514 0.674342
0.922972 0.356146 0.646784
0.173526 0.325994 0.714015
0.222934 0.326482 0.713924
0.341253 0.328801 0.713924
0.481666 0.333776 0.714046
0.627039 0.342016 0.713008
0.770504 0.357183 0.711818
0.858091 0.385107 0.676539
0.917998 0.455848 0.657343
0.196750 0.470802 0.714260
0.247684 0.472999 0.713832
0.377905 0.486122 0.714321
0.517144 0.502831 0.716243
0.648188 0.513207 0.716121
0.775021 0.525322 0.714931
0.853544 0.530236 0.684871
0.910277 0.581964 0.678981
0.222507 0.612848 0.711482
0.270512 0.614313 0.711574
0.394293 0.620691 0.711666
0.544335 0.636439 0.712306
0.673304 0.654780 0.714809
0.776394 0.659876 0.715023
0.847257 0.658686 0.697475
0.899687 0.694728 0.706783
0.264897 0.753140 0.709590
0.309545 0.754025 0.710475
0.425849 0.754482 0.711055
0.564202 0.755703 0.712581
0.688106 0.759518 0.716640
0.792844 0.772915 0.730343
0.852506 0.776150 0.733639
0.893736 0.777859 0.735317
0.349126 0.848325 0.682368
0.383062 0.847318 0.683742
0.475532 0.842557 0.687129
0.586908 0.835660 0.693172
0.691402 0.828672 0.702205
0.778866 0.824338 0.715785
0.845884 0.826841 0.726589
0.890959 0.824735 0.739895
0.422370 0.897856 0.650568
0.445136 0.896361 0.652735
0.513481 0.891630 0.660395
0.605615 0.884886 0.674159
0.697963 0.876860 0.692409
0.774319 0.870115 0.710811
0.827756 0.867063 0.713161
0.882414 0.864500 0.728603
0.186191 0.153384 0.789853
0.224857 0.153536 0.790158
0.324041 0.153750 0.790066
0.447517 0.157076 0.789883
0.579614 0.167819 0.788540
0.713283 0.191623 0.786526
0.842985 0.229984 0.784085
0.914672 0.310430 0.740902
0.185733 0.199313 0.788785
0.224857 0.199832 0.788998
0.324468 0.201358 0.788815
0.447974 0.205692 0.788144
0.579797 0.216190 0.786831
0.712673 0.236149 0.784787
0.841245 0.267918 0.782223
0.912779 0.335637 0.740047
0.209445 0.319249 0.788479
0.244968 0.320012 0.788327
0.339330 0.323064 0.787686
0.459236 0.329442 0.786770
0.587396 0.339849 0.785061
0.716213 0.356420 0.783078
0.840208 0.381537 0.780972
0.909331 0.429541 0.742702
0.263981 0.457252 0.786343
0.299626 0.461311 0.785702
0.393011 0.473640 0.784482
0.495857 0.479835 0.783597
0.610132 0.488930 0.782040
0.726589 0.502495 0.780331
0.838285 0.519219 0.778683
0.903197 0.542565 0.746822
0.284306 0.577813 0.782498
0.317510 0.580133 0.781918
0.413428 0.589868 0.780331
0.538628 0.610834 0.778439
0.643915 0.624720 0.777066
0.739712 0.630945 0.775937
0.835019 0.639857 0.774899
0.895048 0.650080 0.752346
0.322667 0.700954 0.779599
0.353399 0.702205 0.779294
0.443793 0.707118 0.778256
0.556786 0.715633 0.776822
0.667292 0.727291 0.775235
0.763272 0.742794 0.775509
0.836027 0.747494 0.775784
0.887541 0.750118 0.765042
0.376562 0.819059 0.777218
0.404150 0.818967 0.777188
0.482795 0.818326 0.776699
0.583429 0.817563 0.776211
0.685786 0.816892 0.775845
0.775540 0.818204 0.777523
0.845975 0.826719 0.786801
0.884581 0.828214 0.788479
0.449653 0.892271 0.748287
0.470039 0.891081 0.748806
0.533593 0.887358 0.751339
0.617762 0.881285 0.755184
0.705165 0.874022 0.761196
0.779782 0.867735 0.768826
0.837858 0.863706 0.777829
0.881041 0.863096 0.785122
0.198184 0.168917 0.849241
0.229435 0.169955 0.849241
0.313817 0.174166 0.848661
0.423194 0.184176 0.847929
0.542016 0.202945 0.846677
0.663233 0.232242 0.844816
0.781949 0.272648 0.842496
0.893278 0.320806 0.839536
0.203983 0.209812 0.848478
0.234684 0.211185 0.848447
0.318059 0.215427 0.847959
0.426490 0.225101 0.847074
0.544518 0.242252 0.845792
0.664759 0.268223 0.843900
0.782254 0.303593 0.841489
0.892393 0.346899 0.838560
0.241032 0.320104 0.846464
0.267185 0.321477 0.846372
0.341985 0.325597 0.845670
0.444984 0.335790 0.845090
0.557702 0.349889 0.843595
0.672724 0.369604 0.841489
0.785214 0.396857 0.839109
0.890318 0.430945 0.836332
0.330022 0.461341 0.842466
0.348608 0.462776 0.842374
0.405219 0.466194 0.841733
0.490242 0.473854 0.840848
0.588769 0.485176 0.839414
0.691402 0.500267 0.837522
0.792203 0.518425 0.835416
0.887297 0.538781 0.833158
0.354467 0.562982 0.839139
0.380255 0.567498 0.838804
0.456519 0.582788 0.837247
0.556634 0.607538 0.834897
0.632349 0.613184 0.833707
0.715846 0.621057 0.832212
0.801236 0.632105 0.830686
0.883543 0.646479 0.829191
0.385595 0.667018 0.835477
0.407965 0.669368 0.835019
0.475563 0.677485 0.833616
0.567010 0.690974 0.831510
0.666651 0.711421 0.828916
0.747463 0.727047 0.827359
0.814969 0.734218 0.826780
0.880491 0.742184 0.826139
0.429847 0.769772 0.831693
0.449134 0.770748 0.831357
0.508202 0.774044 0.830350
0.592401 0.780179 0.828855
0.683375 0.789029 0.826932
0.764584 0.799374 0.825040
0.828672 0.809232 0.824277
0.878202 0.812070 0.823941
0.480446 0.864805 0.828000
0.496529 0.864591 0.827787
0.548028 0.863920 0.827237
0.623926 0.862913 0.826413
0.705684 0.861753 0.825406
0.777646 0.860777 0.824552
0.836362 0.860410 0.824247
0.880156 0.862608 0.826810
