其他预设/【232】美食博客调色预设124款/1.3D LUT预设（视频调色-PR-AE-PS-FCPX-达芬奇用）/0 Sweeter Than Any I Know Of.cube
# Created by Adobe Lightroom plugin Export LUT (1.17.0)
# www.johnrellis.com/lightroom/exportlut.htm
# Preset: 0 Sweeter Than Any I Know Of
# Color profile: /Library/Application Support/Adobe/Color/Profiles/Recommended/AdobeRGB1998.icc
LUT_3D_SIZE 32
0.139101 0.151827 0.167544
0.139101 0.151827 0.167544
0.145693 0.150820 0.167483
0.174960 0.145510 0.167117
0.208499 0.138979 0.166537
0.245090 0.137942 0.165194
0.285924 0.136843 0.163363
0.329870 0.136934 0.160891
0.376684 0.137545 0.157656
0.425452 0.138460 0.154940
0.475715 0.137270 0.154879
0.526207 0.136416 0.155459
0.576349 0.135958 0.156222
0.624903 0.134432 0.157351
0.668879 0.133730 0.158633
0.708125 0.132967 0.160250
0.743130 0.132631 0.162539
0.774166 0.134218 0.165652
0.801480 0.136690 0.169314
0.831205 0.140566 0.174716
0.856870 0.146151 0.180972
0.878355 0.152590 0.187716
0.896330 0.159762 0.194705
0.911803 0.167086 0.201907
0.925292 0.174319 0.208835
0.937346 0.181827 0.216037
0.948363 0.189792 0.223423
0.958495 0.198184 0.231083
0.967773 0.206912 0.239139
0.976165 0.216159 0.247623
0.983551 0.226108 0.256535
0.989715 0.236820 0.266056
0.139101 0.151827 0.167544
0.139101 0.151827 0.167544
0.146853 0.150637 0.167453
0.175265 0.149599 0.166812
0.208225 0.149142 0.165835
0.244541 0.148440 0.164492
0.285161 0.147860 0.162661
0.328801 0.148287 0.160159
0.375219 0.149294 0.156924
0.423835 0.149813 0.154940
0.473640 0.149172 0.154940
0.523857 0.148623 0.155673
0.573663 0.148013 0.156558
0.622156 0.146761 0.157687
0.666102 0.145693 0.158755
0.705470 0.144900 0.160372
0.740566 0.144533 0.162692
0.771786 0.145052 0.165469
0.799283 0.146700 0.169284
0.828916 0.150027 0.174472
0.854398 0.154482 0.180362
0.875944 0.159487 0.186862
0.894133 0.165591 0.193698
0.909758 0.171908 0.200748
0.923491 0.178653 0.207614
0.935760 0.185611 0.214755
0.947051 0.192569 0.221836
0.957336 0.200748 0.229740
0.966827 0.209049 0.237644
0.975402 0.217807 0.246128
0.982940 0.227268 0.254887
0.989288 0.237461 0.264347
0.137850 0.159609 0.166995
0.137575 0.161440 0.166842
0.147189 0.162325 0.166567
0.174990 0.163088 0.165805
0.207797 0.162264 0.164858
0.244175 0.161807 0.163485
0.284520 0.161410 0.161624
0.327825 0.161959 0.159121
0.374182 0.163272 0.155856
0.422431 0.163485 0.155093
0.472175 0.163485 0.155062
0.522393 0.163272 0.155917
0.572137 0.162448 0.156863
0.620569 0.161624 0.157870
0.664515 0.160494 0.159091
0.704036 0.159030 0.160372
0.739162 0.158572 0.162661
0.770382 0.158480 0.165652
0.798123 0.159030 0.169375
0.827787 0.161776 0.174441
0.853147 0.165042 0.180331
0.874662 0.169345 0.186618
0.892943 0.174411 0.193484
0.908659 0.179660 0.200259
0.922484 0.185489 0.207309
0.934874 0.191440 0.214206
0.946227 0.198184 0.221469
0.956695 0.205417 0.229252
0.966278 0.213169 0.237095
0.974914 0.221592 0.245609
0.982574 0.230472 0.254398
0.988983 0.240085 0.263645
0.132815 0.186893 0.164736
0.133639 0.188052 0.164614
0.147311 0.188052 0.164309
0.174105 0.188235 0.163607
0.207309 0.187625 0.162631
0.244419 0.187106 0.161227
0.284764 0.187228 0.159304
0.328130 0.188052 0.156710
0.373968 0.189029 0.155276
0.422034 0.189517 0.155215
0.471504 0.189944 0.155612
0.521386 0.190311 0.156619
0.570855 0.190127 0.157534
0.619043 0.189334 0.158297
0.663081 0.187564 0.159060
0.702480 0.186007 0.160800
0.737575 0.184482 0.162966
0.768795 0.183719 0.165866
0.797391 0.183413 0.169650
0.826108 0.184451 0.174777
0.850980 0.186313 0.180423
0.872404 0.188724 0.186526
0.890867 0.191989 0.193240
0.907012 0.195956 0.200259
0.921294 0.200320 0.207187
0.934081 0.205356 0.214450
0.945708 0.210880 0.221927
0.956329 0.217350 0.229831
0.965942 0.224094 0.237888
0.974609 0.231266 0.246159
0.982208 0.239139 0.254826
0.988617 0.247471 0.263676
0.125734 0.217014 0.161685
0.133089 0.217319 0.161532
0.146273 0.217380 0.161227
0.171267 0.217380 0.160586
0.204685 0.218173 0.159426
0.242069 0.218479 0.157900
0.283360 0.219821 0.155886
0.327367 0.221134 0.155276
0.372900 0.222019 0.155306
0.420569 0.223423 0.156039
0.469764 0.224338 0.156680
0.519463 0.225040 0.157534
0.568872 0.224796 0.158053
0.617090 0.224247 0.158694
0.661250 0.222538 0.159487
0.700984 0.220523 0.160891
0.736477 0.218143 0.163272
0.767910 0.216251 0.166293
0.797818 0.214969 0.170321
0.825742 0.214664 0.175418
0.850065 0.214817 0.181064
0.871214 0.215671 0.187289
0.889586 0.217105 0.193912
0.905821 0.219242 0.200900
0.920165 0.222019 0.207980
0.933104 0.225193 0.215213
0.944823 0.229404 0.222690
0.955505 0.233982 0.230411
0.965179 0.239292 0.238499
0.973907 0.245274 0.246738
0.981567 0.251774 0.255192
0.988037 0.259098 0.264134
0.123018 0.249851 0.157534
0.133150 0.249973 0.157290
0.145968 0.249973 0.157015
0.170077 0.249882 0.156527
0.202029 0.250492 0.156527
0.239292 0.252293 0.156222
0.280400 0.254459 0.156222
0.324987 0.257053 0.156374
0.372900 0.259892 0.156802
0.421210 0.261875 0.157473
0.470314 0.263279 0.157870
0.519890 0.263890 0.158297
0.569055 0.263981 0.158663
0.617151 0.263127 0.158968
0.661128 0.261479 0.159518
0.700832 0.258762 0.161501
0.736263 0.255894 0.163882
0.767697 0.252873 0.166934
0.798825 0.251011 0.171511
0.826139 0.249302 0.176730
0.850187 0.248020 0.182650
0.871275 0.247105 0.188998
0.902434 0.254429 0.204318
0.916960 0.255467 0.212284
0.929717 0.257115 0.220157
0.941100 0.259068 0.227817
0.951385 0.261723 0.235447
0.960754 0.264958 0.243351
0.969299 0.268925 0.251194
0.976989 0.273594 0.259373
0.983642 0.278721 0.267674
0.989197 0.284459 0.276097
0.121889 0.289677 0.156832
0.132509 0.289769 0.156893
0.145663 0.289738 0.157015
0.170413 0.289738 0.157504
0.202548 0.289708 0.157748
0.240269 0.291661 0.158175
0.281559 0.294285 0.158419
0.326665 0.297765 0.158602
0.375280 0.301762 0.158938
0.427039 0.305760 0.158877
0.480049 0.309026 0.158572
0.529992 0.309545 0.158419
0.579004 0.309300 0.158724
0.626123 0.308019 0.158846
0.668666 0.305119 0.159945
0.706752 0.301457 0.162051
0.740993 0.297337 0.164828
0.774136 0.293858 0.168643
0.804654 0.290959 0.173800
0.831693 0.288060 0.179873
0.855894 0.286015 0.186557
0.877379 0.284306 0.194339
0.896178 0.283574 0.202579
0.912535 0.283391 0.211276
0.926665 0.283879 0.219974
0.938842 0.284550 0.228214
0.949554 0.285863 0.236301
0.959167 0.287602 0.244175
0.967895 0.289830 0.252018
0.975677 0.292821 0.260014
0.982513 0.296391 0.268009
0.988220 0.300725 0.276371
0.121736 0.327642 0.159457
0.131960 0.327672 0.159518
0.145235 0.327581 0.159518
0.169955 0.327459 0.159884
0.201907 0.327398 0.160281
0.238102 0.327977 0.160708
0.278538 0.330755 0.161227
0.322240 0.334203 0.161410
0.369757 0.338842 0.161227
0.421118 0.343908 0.160525
0.474372 0.348394 0.159945
0.528130 0.351720 0.159121
0.579400 0.352758 0.158907
0.626093 0.351232 0.159182
0.668208 0.347936 0.160494
0.706081 0.343481 0.162509
0.741451 0.338964 0.165682
0.775113 0.334936 0.169955
0.804257 0.330510 0.175265
0.830442 0.326238 0.181460
0.854154 0.322484 0.188602
0.875303 0.319402 0.196262
0.893980 0.316869 0.204379
0.910277 0.315068 0.213046
0.924468 0.313664 0.221592
0.936767 0.312871 0.229892
0.947692 0.312352 0.237766
0.957458 0.312413 0.245457
0.966339 0.313176 0.253300
0.974304 0.314580 0.261082
0.981262 0.316838 0.269261
0.987121 0.319585 0.277470
0.120943 0.367437 0.161868
0.131716 0.367407 0.161959
0.144717 0.367437 0.162051
0.169436 0.367254 0.162295
0.201663 0.367224 0.162417
0.237156 0.366979 0.162753
0.276493 0.368780 0.163027
0.319585 0.372473 0.162600
0.365759 0.376654 0.162539
0.415808 0.382208 0.162020
0.468910 0.388006 0.160952
0.522576 0.392187 0.159884
0.575860 0.395209 0.159426
0.626764 0.395911 0.159518
0.669184 0.392401 0.161074
0.707790 0.387701 0.163546
0.744594 0.383032 0.167178
0.776516 0.377508 0.171817
0.804501 0.371405 0.177584
0.829984 0.365728 0.183932
0.853147 0.360693 0.191012
0.873960 0.355932 0.198856
0.892393 0.351934 0.207187
0.908537 0.348547 0.215793
0.922698 0.345678 0.224338
0.935058 0.343053 0.232547
0.946044 0.341039 0.240299
0.955901 0.339605 0.247929
0.964874 0.338811 0.255528
0.972900 0.338750 0.263279
0.979980 0.339391 0.271092
0.985901 0.340703 0.279057
0.118807 0.408484 0.162997
0.129580 0.408392 0.163088
0.142947 0.408301 0.163088
0.168154 0.408148 0.163058
0.200626 0.407965 0.163333
0.236698 0.407691 0.163394
0.274907 0.407416 0.163638
0.317266 0.410803 0.163394
0.362615 0.415015 0.163119
0.410742 0.419928 0.162539
0.462196 0.425727 0.162081
0.515862 0.431342 0.160769
0.569268 0.435279 0.160037
0.620478 0.436988 0.160037
0.669093 0.436896 0.161593
0.712825 0.434455 0.164858
0.748104 0.428290 0.169039
0.778927 0.421057 0.174472
0.806027 0.413703 0.180697
0.830625 0.406439 0.187381
0.852903 0.399786 0.194583
0.872831 0.393408 0.202457
0.890593 0.387610 0.210300
0.906310 0.382544 0.218601
0.920287 0.377905 0.226841
0.932708 0.373907 0.234806
0.943877 0.370397 0.242527
0.953979 0.367681 0.250217
0.963195 0.365698 0.258091
0.971435 0.364355 0.265965
0.978668 0.363928 0.273991
0.984741 0.364019 0.282048
0.114717 0.448768 0.163394
0.125856 0.448798 0.163455
0.140230 0.448768 0.163302
0.165866 0.448737 0.163363
0.198947 0.448554 0.163516
0.235355 0.448524 0.163516
0.274174 0.448493 0.163699
0.315007 0.449622 0.163516
0.359838 0.453803 0.163210
0.407172 0.458686 0.162692
0.456916 0.463966 0.162173
0.509239 0.469795 0.161410
0.563958 0.475837 0.160250
0.618067 0.480232 0.160189
0.666896 0.480507 0.161898
0.710079 0.477577 0.165743
0.748013 0.472236 0.170993
0.779477 0.464607 0.177340
0.805814 0.455543 0.183810
0.829831 0.446937 0.190646
0.851682 0.438819 0.198398
0.871366 0.431128 0.206149
0.888975 0.424140 0.214420
0.904631 0.417578 0.222782
0.918547 0.411688 0.230961
0.930938 0.406134 0.238804
0.942077 0.401312 0.246311
0.952209 0.397131 0.253849
0.961456 0.393744 0.261357
0.969787 0.390997 0.268925
0.977081 0.389227 0.276799
0.983276 0.388098 0.284886
0.110231 0.489967 0.163149
0.121828 0.490028 0.163180
0.136690 0.489906 0.163333
0.162875 0.489876 0.163119
0.196780 0.489845 0.163241
0.233921 0.489754 0.163119
0.273075 0.489784 0.163119
0.313603 0.489876 0.163119
0.357183 0.492592 0.162844
0.403876 0.497414 0.162142
0.452888 0.502800 0.161776
0.506889 0.511345 0.160952
0.581567 0.535393 0.159396
0.635889 0.539422 0.160769
0.683436 0.537957 0.164248
0.725093 0.532982 0.169894
0.761196 0.525536 0.177005
0.792203 0.516442 0.185245
0.818997 0.506676 0.194400
0.841123 0.495827 0.202518
0.860746 0.485267 0.210513
0.878386 0.475502 0.218814
0.894194 0.466285 0.226780
0.908446 0.457923 0.234836
0.921294 0.450202 0.242557
0.932860 0.443183 0.250156
0.943328 0.436835 0.257420
0.952911 0.431220 0.264317
0.961669 0.426337 0.271366
0.969543 0.422278 0.278599
0.976471 0.419074 0.286046
0.982361 0.416480 0.293523
0.102907 0.537041 0.162081
0.115755 0.537011 0.162020
0.131930 0.536645 0.161990
0.160006 0.536095 0.162051
0.194949 0.535454 0.162081
0.232975 0.534661 0.161929
0.272862 0.534112 0.161837
0.313817 0.533806 0.161929
0.356115 0.533989 0.161685
0.404791 0.541650 0.161105
0.456672 0.550439 0.160433
0.511223 0.559686 0.160128
0.567773 0.568780 0.160098
0.625513 0.577111 0.160433
0.675196 0.577844 0.164187
0.717556 0.573358 0.170291
0.754177 0.565667 0.177890
0.785519 0.556023 0.186282
0.812802 0.545495 0.195895
0.837064 0.534905 0.205600
0.858152 0.524376 0.215335
0.875669 0.513054 0.223331
0.891386 0.502586 0.231388
0.905638 0.492836 0.239261
0.918486 0.483772 0.246708
0.930175 0.475441 0.254002
0.940764 0.467872 0.260929
0.950500 0.461036 0.267979
0.959380 0.454902 0.274784
0.967437 0.449805 0.282017
0.974548 0.445319 0.289158
0.980560 0.441718 0.296757
0.095888 0.576226 0.161196
0.110780 0.576196 0.161135
0.126802 0.575891 0.161105
0.155612 0.575402 0.161166
0.191501 0.574640 0.160983
0.230320 0.574731 0.161074
0.271061 0.575586 0.160983
0.313054 0.576562 0.160708
0.356420 0.577874 0.160647
0.401862 0.580957 0.160281
0.451484 0.587945 0.160159
0.503258 0.595422 0.160372
0.556573 0.602686 0.161013
0.610803 0.609461 0.162112
0.665003 0.615229 0.164157
0.709285 0.612238 0.170169
0.746181 0.604395 0.178317
0.778042 0.594446 0.187442
0.806027 0.583398 0.197116
0.830900 0.572229 0.207004
0.852964 0.561059 0.217533
0.872374 0.550164 0.227939
0.888792 0.539055 0.236851
0.903075 0.528099 0.244572
0.915984 0.517845 0.252049
0.927703 0.508324 0.259190
0.938415 0.499519 0.265995
0.948211 0.491585 0.272709
0.957214 0.484474 0.279515
0.965393 0.478157 0.286534
0.972564 0.472755 0.293797
0.978759 0.468025 0.301244
0.089174 0.618158 0.160586
0.104341 0.618280 0.160739
0.121828 0.618067 0.160525
0.152346 0.617792 0.160525
0.189059 0.617334 0.160525
0.228458 0.616876 0.160403
0.269291 0.616632 0.160464
0.311131 0.616632 0.160464
0.353887 0.617060 0.160494
0.397833 0.617914 0.160403
0.444404 0.621881 0.160678
0.493965 0.627955 0.161593
0.544671 0.634028 0.162966
0.596063 0.639582 0.164767
0.647517 0.644221 0.167391
0.698238 0.647761 0.170657
0.738277 0.642329 0.178683
0.770657 0.632136 0.187991
0.799222 0.620783 0.198062
0.824704 0.609003 0.208377
0.847257 0.597131 0.218997
0.867185 0.585382 0.229435
0.884672 0.573938 0.239780
0.900206 0.563043 0.250034
0.913359 0.551843 0.257725
0.925231 0.541314 0.264866
0.936126 0.531609 0.271885
0.946166 0.522881 0.279088
0.955352 0.514916 0.286198
0.963653 0.507927 0.293523
0.970947 0.501701 0.301213
0.977081 0.496223 0.309148
0.084688 0.656367 0.161410
0.100923 0.656519 0.161532
0.118563 0.656397 0.161593
0.149477 0.656184 0.161593
0.186770 0.655695 0.161593
0.226413 0.655238 0.161624
0.267002 0.654963 0.161624
0.308751 0.654841 0.161837
0.351415 0.654810 0.161929
0.394354 0.654994 0.162234
0.437964 0.655085 0.162478
0.484871 0.659113 0.163882
0.532647 0.663233 0.165713
0.581109 0.666957 0.168185
0.629450 0.670222 0.171084
0.677607 0.672847 0.174624
0.725246 0.674922 0.178805
0.762509 0.668482 0.187961
0.792172 0.657252 0.198795
0.818662 0.645411 0.209842
0.842069 0.633173 0.220798
0.862638 0.620844 0.232151
0.880705 0.608698 0.243015
0.896696 0.596979 0.253422
0.910857 0.585840 0.263584
0.923400 0.575158 0.272923
0.934325 0.564416 0.279759
0.944335 0.554711 0.286870
0.953491 0.545800 0.294072
0.961730 0.537682 0.300999
0.968963 0.530358 0.308385
0.975067 0.523705 0.315740
0.084840 0.688746 0.164279
0.100343 0.688624 0.164126
0.117678 0.688441 0.164187
0.148013 0.688106 0.164279
0.184421 0.687556 0.164370
0.223270 0.686976 0.164523
0.263432 0.686427 0.164675
0.304448 0.685939 0.164706
0.345953 0.685573 0.164981
0.388006 0.685267 0.165438
0.430488 0.685084 0.166079
0.474037 0.685817 0.166995
0.519921 0.689174 0.169467
0.566186 0.692195 0.172396
0.612482 0.694667 0.175875
0.658289 0.696529 0.179568
0.703792 0.697963 0.184207
0.748928 0.699153 0.189120
0.784482 0.692500 0.198581
0.811765 0.680537 0.210239
0.835813 0.667933 0.221775
0.856992 0.655024 0.233127
0.875639 0.642176 0.244358
0.892149 0.629755 0.255314
0.906798 0.617792 0.265751
0.919860 0.606531 0.275944
0.931579 0.595972 0.285679
0.941924 0.585779 0.293889
0.951171 0.575952 0.300938
0.959503 0.567041 0.308232
0.966796 0.558770 0.315343
0.972961 0.551293 0.322972
0.088716 0.718135 0.168795
0.103914 0.718349 0.168734
0.124361 0.729854 0.172183
0.153323 0.729397 0.172061
0.188663 0.728664 0.172244
0.226383 0.727657 0.172366
0.265751 0.726558 0.172671
0.305852 0.725399 0.172671
0.346807 0.724331 0.173159
0.388067 0.723354 0.173831
0.429541 0.722408 0.174380
0.471168 0.721248 0.175357
0.514275 0.721798 0.177523
0.558679 0.723415 0.180819
0.602838 0.724697 0.184634
0.646693 0.725582 0.188693
0.690272 0.726040 0.193484
0.733272 0.726284 0.198520
0.775723 0.726314 0.204135
0.809262 0.719081 0.214054
0.833310 0.705531 0.226200
0.854398 0.691585 0.238163
0.873045 0.677668 0.249638
0.889494 0.664179 0.260655
0.904021 0.651026 0.270939
0.916991 0.638605 0.280766
0.928649 0.626825 0.290043
0.939239 0.615930 0.299168
0.948730 0.605982 0.308171
0.957092 0.596124 0.315465
0.964446 0.586969 0.322545
0.970642 0.578515 0.329808
0.098939 0.747555 0.175540
0.111574 0.748928 0.176059
0.127565 0.750210 0.176699
0.154604 0.751156 0.177310
0.188357 0.751522 0.177768
0.224826 0.751125 0.178256
0.262669 0.750301 0.178408
0.301396 0.749203 0.178744
0.340948 0.748196 0.179171
0.380682 0.747127 0.179812
0.420935 0.746059 0.180423
0.461311 0.744808 0.181247
0.501549 0.743252 0.182345
0.543938 0.744167 0.185336
0.586389 0.744930 0.189303
0.628595 0.745357 0.193423
0.670405 0.745480 0.198001
0.711849 0.745418 0.203098
0.752895 0.745235 0.208988
0.793423 0.744991 0.215396
0.826047 0.738369 0.225467
0.848234 0.724483 0.238499
0.867613 0.710201 0.250553
0.884672 0.696162 0.262119
0.899748 0.682429 0.273136
0.913207 0.669276 0.283268
0.925261 0.656794 0.292973
0.936126 0.645197 0.302525
0.945892 0.634424 0.312016
0.954528 0.624475 0.321447
0.961975 0.615106 0.330236
0.968200 0.605768 0.337377
0.107393 0.770596 0.181735
0.119387 0.771756 0.182437
0.133577 0.772854 0.183108
0.158206 0.773617 0.183658
0.189883 0.773922 0.184298
0.224399 0.773526 0.184604
0.260624 0.772702 0.185061
0.297734 0.771695 0.185306
0.335729 0.770687 0.185611
0.374395 0.769619 0.186221
0.413367 0.768490 0.187106
0.452430 0.767269 0.188052
0.491463 0.765652 0.188907
0.530877 0.764431 0.190646
0.571771 0.764828 0.194491
0.612421 0.764858 0.198703
0.652735 0.764675 0.203128
0.692714 0.764248 0.208377
0.732265 0.763790 0.214145
0.771511 0.763241 0.220523
0.810056 0.762692 0.227787
0.841886 0.756802 0.238071
0.862242 0.742458 0.251560
0.879850 0.727901 0.263767
0.895415 0.713527 0.275242
0.909270 0.699641 0.285679
0.921660 0.686458 0.295689
0.932830 0.674037 0.305455
0.942840 0.662470 0.315160
0.951690 0.651728 0.324712
0.959319 0.641657 0.334173
0.965637 0.632258 0.343511
0.117647 0.792050 0.188663
0.128054 0.793027 0.189425
0.140902 0.794003 0.190219
0.163668 0.794644 0.190951
0.193027 0.794827 0.191501
0.225406 0.794430 0.192081
0.259495 0.793668 0.192233
0.295018 0.792660 0.192569
0.331579 0.791562 0.193027
0.368688 0.790402 0.193545
0.406195 0.789212 0.194247
0.443977 0.787869 0.195132
0.481727 0.786252 0.195895
0.519463 0.784421 0.196902
0.558221 0.783627 0.199863
0.597589 0.783566 0.204318
0.636927 0.783383 0.209445
0.675929 0.783169 0.215122
0.714687 0.782864 0.221378
0.753017 0.782498 0.228611
0.790768 0.782101 0.236423
0.827848 0.781552 0.245029
0.859098 0.776455 0.255833
0.877501 0.761654 0.270115
0.893400 0.746792 0.282536
0.907469 0.732326 0.294102
0.919982 0.718410 0.304967
0.931182 0.705287 0.315282
0.941161 0.692958 0.325353
0.949889 0.681422 0.335210
0.957366 0.670588 0.345098
0.963470 0.660304 0.354559
0.134188 0.815793 0.199832
0.142824 0.816129 0.200259
0.152865 0.816373 0.200504
0.172793 0.816373 0.200839
0.198947 0.816068 0.201175
0.228885 0.815427 0.201572
0.261082 0.814633 0.201816
0.294926 0.813718 0.202274
0.329900 0.812772 0.202792
0.365576 0.811795 0.203403
0.401892 0.810727 0.204532
0.438514 0.809445 0.205600
0.475135 0.807858 0.206516
0.511528 0.806027 0.207553
0.547845 0.803952 0.208530
0.585840 0.803311 0.212985
0.623621 0.802670 0.218082
0.661280 0.801938 0.223575
0.698482 0.801144 0.229801
0.735348 0.800229 0.236454
0.771603 0.799252 0.243870
0.807218 0.798154 0.251713
0.842039 0.796902 0.260227
0.872282 0.792233 0.270359
0.888823 0.776974 0.284154
0.903288 0.761868 0.296147
0.916197 0.747372 0.307500
0.927733 0.733577 0.318212
0.937987 0.720516 0.328710
0.946960 0.708186 0.338659
0.954589 0.696529 0.348638
0.960876 0.685451 0.358282
0.147707 0.833433 0.208621
0.155093 0.833768 0.209262
0.163821 0.834012 0.209689
0.181613 0.833982 0.210147
0.205356 0.833677 0.210422
0.232792 0.833036 0.210544
0.262669 0.832212 0.210727
0.294347 0.831235 0.211063
0.327581 0.830228 0.211612
0.361761 0.829160 0.212222
0.396521 0.828031 0.213138
0.431586 0.826749 0.214389
0.466804 0.825223 0.215335
0.502220 0.823453 0.216403
0.537438 0.821530 0.217533
0.573022 0.819791 0.219455
0.609705 0.818997 0.224704
0.646174 0.818143 0.230442
0.682307 0.817197 0.236790
0.718044 0.816190 0.243565
0.753323 0.815091 0.250950
0.787991 0.813901 0.259007
0.821927 0.812589 0.267460
0.854978 0.811124 0.276371
0.883299 0.805875 0.282689
0.898497 0.790463 0.296147
0.911864 0.775387 0.308141
0.923827 0.760983 0.319219
0.934417 0.747219 0.329931
0.943694 0.734127 0.340337
0.951659 0.721706 0.350378
0.958160 0.709957 0.360723
0.166964 0.852201 0.222019
0.173220 0.852506 0.222629
0.180941 0.852628 0.222995
0.195743 0.852415 0.223301
0.216342 0.851957 0.223301
0.240787 0.851225 0.223209
0.268040 0.850248 0.223239
0.297429 0.849088 0.223239
0.328466 0.847807 0.223209
0.360418 0.846464 0.223636
0.393317 0.844999 0.224094
0.426581 0.843473 0.224674
0.460243 0.841764 0.225376
0.494026 0.839872 0.226169
0.527764 0.837705 0.226780
0.561425 0.835355 0.227451
0.596002 0.833585 0.230594
0.631037 0.832334 0.235813
0.665949 0.831174 0.241611
0.700710 0.830014 0.248386
0.735012 0.828855 0.255833
0.768704 0.827573 0.263706
0.801724 0.826047 0.271946
0.833860 0.824308 0.280156
0.864988 0.822354 0.288487
0.894255 0.819394 0.297185
0.908080 0.803769 0.310277
0.920226 0.788632 0.321752
0.931060 0.774105 0.332433
0.940551 0.760250 0.342870
0.948699 0.747097 0.353307
0.955413 0.734554 0.363867
0.180819 0.866300 0.231754
0.186252 0.866575 0.232425
0.193210 0.866667 0.232761
0.206241 0.866484 0.233066
0.224674 0.866026 0.233066
0.247013 0.865354 0.233097
0.272190 0.864530 0.233219
0.299626 0.863523 0.233219
0.328771 0.862425 0.233524
0.359319 0.861265 0.234043
0.390478 0.859983 0.234592
0.422583 0.858610 0.235416
0.454932 0.857115 0.236393
0.487465 0.855406 0.237278
0.520073 0.853452 0.238132
0.552667 0.851316 0.239017
0.585260 0.849088 0.240085
0.619104 0.847623 0.244877
0.652918 0.846281 0.250797
0.686488 0.844968 0.257359
0.719753 0.843565 0.264530
0.752438 0.842039 0.272282
0.784482 0.840360 0.280003
0.815732 0.838499 0.288090
0.846128 0.836454 0.296391
0.875639 0.834257 0.304631
0.904295 0.831968 0.313207
0.917144 0.816587 0.326085
0.928161 0.801450 0.337682
0.937774 0.786893 0.348425
0.946014 0.773068 0.359564
0.952758 0.759731 0.370428
0.197330 0.880064 0.243442
0.202121 0.880186 0.243961
0.207736 0.880186 0.244205
0.218845 0.879911 0.244205
0.234806 0.879393 0.244114
0.254795 0.878691 0.243931
0.277653 0.877836 0.243778
0.302983 0.876890 0.243717
0.330297 0.875822 0.243992
0.358831 0.874723 0.244358
0.388556 0.873503 0.245029
0.419074 0.872282 0.246036
0.450141 0.870878 0.247013
0.481483 0.869291 0.248051
0.512779 0.867460 0.248875
0.544152 0.865446 0.249790
0.575586 0.863279 0.250828
0.607355 0.861234 0.253025
0.640040 0.859739 0.258488
0.672572 0.858213 0.264744
0.704799 0.856687 0.271641
0.736568 0.854978 0.279088
0.767666 0.853178 0.286717
0.798093 0.851225 0.294499
0.827756 0.849058 0.302373
0.856596 0.846799 0.310369
0.884581 0.844419 0.318761
0.911772 0.841947 0.327092
0.924681 0.827695 0.339361
0.934569 0.812528 0.351202
0.943023 0.797879 0.362280
0.949889 0.783780 0.373388
0.212039 0.892058 0.254063
0.216098 0.892088 0.254429
0.221073 0.892058 0.254582
0.230716 0.891844 0.254612
0.245426 0.891478 0.254795
0.263767 0.890990 0.255100
0.285435 0.890532 0.255680
0.309545 0.890013 0.256687
0.335790 0.889433 0.258030
0.363317 0.888792 0.259556
0.391974 0.888060 0.261357
0.421363 0.887236 0.263279
0.451179 0.886168 0.265232
0.481270 0.884886 0.266941
0.511437 0.883299 0.268437
0.541466 0.881468 0.269535
0.571649 0.879454 0.270848
0.601740 0.877348 0.272190
0.632715 0.875456 0.276188
0.663996 0.873686 0.282170
0.694972 0.871885 0.288884
0.725521 0.869963 0.296025
0.755459 0.867857 0.303258
0.784756 0.865660 0.310704
0.813382 0.863310 0.318395
0.841215 0.860838 0.326146
0.868315 0.858305 0.334051
0.894591 0.855650 0.342229
0.920043 0.853056 0.350835
0.932555 0.839689 0.362951
0.940673 0.824277 0.375128
0.947234 0.809262 0.386206
0.236637 0.905333 0.271977
0.239719 0.905333 0.272221
0.243809 0.905211 0.272313
0.251835 0.904936 0.272129
0.264134 0.904509 0.272038
0.279942 0.903960 0.272129
0.298650 0.903349 0.272190
0.319860 0.902617 0.272587
0.343236 0.901854 0.273106
0.368414 0.900969 0.274174
0.394598 0.899992 0.275151
0.421790 0.898894 0.276341
0.449622 0.897673 0.277562
0.477913 0.896239 0.278813
0.506462 0.894621 0.279942
