其他预设/【232】美食博客调色预设124款/1.3D LUT预设（视频调色-PR-AE-PS-FCPX-达芬奇用）/0 The Cheesecake Factory .cube
# Created by Adobe Lightroom plugin Export LUT (1.17.0)
# www.johnrellis.com/lightroom/exportlut.htm
# Preset: 0 The Cheesecake Factory 
# Color profile: /Library/Application Support/Adobe/Color/Profiles/Recommended/AdobeRGB1998.icc
LUT_3D_SIZE 8
DOMAIN_MIN 0.000000 0.000000 0.000000
DOMAIN_MAX 0.903226 0.903226 0.903226
0.192538 0.183352 0.176150
0.267521 0.178134 0.181674
0.425788 0.172671 0.179385
0.576837 0.198184 0.176913
0.718807 0.236271 0.204288
0.832273 0.279728 0.241245
0.924956 0.324041 0.281498
0.998688 0.368872 0.324224
0.193576 0.254093 0.182071
0.263828 0.256229 0.176455
0.424201 0.248783 0.166567
0.573297 0.258793 0.176822
0.715419 0.282353 0.204623
0.829099 0.312383 0.240482
0.922454 0.347265 0.280217
0.997345 0.385657 0.322942
0.194675 0.391150 0.184970
0.256840 0.387915 0.186221
0.400488 0.390570 0.186801
0.562066 0.395972 0.189670
0.707210 0.401068 0.211795
0.824826 0.408606 0.243717
0.921721 0.422339 0.280217
0.996826 0.443458 0.322759
0.235477 0.519982 0.224430
0.277623 0.517571 0.225132
0.382849 0.510246 0.227604
0.536217 0.530327 0.230625
0.700710 0.546227 0.230472
0.815091 0.533196 0.252903
0.913512 0.530144 0.288426
0.991638 0.532341 0.327092
0.271733 0.651545 0.265507
0.303532 0.649714 0.265629
0.391760 0.643885 0.266514
0.510094 0.643000 0.269078
0.658137 0.659937 0.274662
0.802640 0.668208 0.281315
0.902525 0.649928 0.299901
0.983337 0.636988 0.334752
0.309392 0.763912 0.309239
0.333776 0.763821 0.309880
0.404730 0.759609 0.310063
0.502678 0.752529 0.310338
0.623011 0.757137 0.315465
0.760342 0.770352 0.326024
0.890654 0.776547 0.342657
0.975433 0.753597 0.358679
0.357031 0.864775 0.362615
0.374640 0.864256 0.362829
0.429480 0.861326 0.362768
0.511467 0.856687 0.363043
0.607538 0.850126 0.363165
0.724880 0.857481 0.374823
0.847196 0.864958 0.390753
0.960967 0.867674 0.416938
0.422187 0.951141 0.431312
0.434272 0.950683 0.431403
0.474769 0.949218 0.432013
0.539574 0.946929 0.433600
0.618463 0.942138 0.433051
0.711818 0.940337 0.439368
0.816068 0.942748 0.455818
0.919432 0.943603 0.474434
0.194247 0.200961 0.239322
0.270359 0.177432 0.240970
0.413581 0.204898 0.245121
0.560052 0.248295 0.269047
0.706966 0.277440 0.285374
0.822995 0.312657 0.307164
0.917967 0.351263 0.334752
0.993500 0.392889 0.368414
0.189425 0.255070 0.240604
0.272465 0.256535 0.243168
0.411261 0.269871 0.253239
0.559258 0.288304 0.266331
0.705348 0.311620 0.283146
0.821225 0.339147 0.305364
0.916136 0.370825 0.332860
0.992248 0.407233 0.366552
0.230411 0.386725 0.255253
0.285008 0.383490 0.258427
0.399695 0.386053 0.259312
0.552850 0.397742 0.262211
0.699763 0.410010 0.279210
0.818021 0.420630 0.301488
0.914733 0.436408 0.329747
0.991638 0.458991 0.364691
0.277806 0.515404 0.289128
0.302220 0.514275 0.280644
0.393622 0.508415 0.280369
0.532738 0.524590 0.283726
0.691371 0.541955 0.284947
0.807523 0.534264 0.301122
0.907469 0.535149 0.330541
0.987243 0.540703 0.364355
0.316350 0.647913 0.326574
0.320958 0.647822 0.307500
0.401740 0.641779 0.306950
0.511986 0.638331 0.307408
0.655299 0.655573 0.313970
0.797940 0.665919 0.321263
0.898436 0.650904 0.337560
0.980102 0.641352 0.369329
0.343542 0.760403 0.356878
0.347906 0.760555 0.342473
0.414099 0.756588 0.341894
0.507652 0.750027 0.341283
0.624140 0.754238 0.346258
0.759640 0.768673 0.358434
0.888121 0.775906 0.375341
0.972686 0.755032 0.389899
0.384222 0.861265 0.400244
0.387579 0.861204 0.389288
0.439277 0.858610 0.388922
0.517998 0.854520 0.388861
0.611322 0.848508 0.388556
0.725948 0.855467 0.400153
0.846250 0.863188 0.416358
0.958434 0.866697 0.441871
0.444617 0.948608 0.461372
0.447822 0.948943 0.454231
0.486152 0.947601 0.454688
0.548211 0.945464 0.455970
0.625971 0.942107 0.457160
0.715908 0.939696 0.461769
0.817746 0.941955 0.477028
0.919280 0.942901 0.494667
0.187381 0.208652 0.372869
0.267033 0.196963 0.370916
0.407294 0.215091 0.368170
0.547570 0.261753 0.378058
0.695003 0.302007 0.397894
0.811490 0.374884 0.435767
0.907164 0.421851 0.460700
0.982849 0.465766 0.486976
0.245762 0.284337 0.368536
0.287968 0.276158 0.367254
0.404913 0.277531 0.366674
0.545739 0.306706 0.382025
0.693446 0.338842 0.402441
0.809689 0.395727 0.435615
0.905943 0.434913 0.458167
0.982177 0.475776 0.485023
0.260563 0.387427 0.369635
0.309728 0.386572 0.369543
0.413123 0.392554 0.377111
0.547692 0.407752 0.389532
0.691402 0.430762 0.408453
0.808072 0.455238 0.429084
0.904509 0.482582 0.453010
0.981201 0.512963 0.480842
0.293034 0.520226 0.388678
0.332219 0.517906 0.390265
0.418158 0.515251 0.387976
0.536065 0.523400 0.391394
0.683803 0.541100 0.399390
0.801541 0.548486 0.419776
0.900694 0.560754 0.445777
0.979400 0.575799 0.473945
0.330053 0.650996 0.411444
0.361395 0.648890 0.414069
0.428962 0.644434 0.407050
0.522789 0.635248 0.402869
0.656947 0.653834 0.414801
0.792508 0.666896 0.426001
0.891508 0.659724 0.440986
0.973083 0.661494 0.472206
0.375463 0.760678 0.440650
0.401068 0.758907 0.444709
0.447364 0.755917 0.433753
0.528069 0.749294 0.430396
0.631067 0.749447 0.432563
0.759457 0.765682 0.449348
0.882170 0.776455 0.468605
0.966125 0.763638 0.483864
0.433356 0.859281 0.484779
0.454139 0.857694 0.490028
0.478096 0.856657 0.472358
0.544671 0.852445 0.470039
0.627283 0.846647 0.466835
0.732845 0.852354 0.478248
0.847410 0.862181 0.497688
0.954192 0.868437 0.522057
0.504936 0.944121 0.544213
0.518791 0.943145 0.547631
0.524163 0.944305 0.524437
0.577935 0.942687 0.524926
0.646418 0.939666 0.523980
0.727321 0.936950 0.524956
0.823850 0.940185 0.540215
0.920348 0.942260 0.557488
0.217319 0.231235 0.508721
0.278630 0.236393 0.506218
0.406592 0.246860 0.497536
0.538476 0.265171 0.500511
0.676967 0.312963 0.512932
0.798520 0.369848 0.526970
0.895506 0.445960 0.555138
0.969635 0.526390 0.596033
0.261906 0.302312 0.506218
0.304997 0.302434 0.504265
0.412024 0.300328 0.497169
0.537377 0.307042 0.500206
0.676081 0.347601 0.515496
0.797024 0.398932 0.531273
0.893797 0.469825 0.561456
0.967681 0.547326 0.604547
0.311406 0.423438 0.507317
0.346899 0.425544 0.506340
0.422400 0.408637 0.502586
0.537713 0.405371 0.502586
0.676112 0.439612 0.524346
0.794980 0.486488 0.549645
0.890806 0.547234 0.587793
0.965637 0.590753 0.614923
0.320043 0.525994 0.510430
0.352422 0.525353 0.510033
0.438514 0.525231 0.510735
0.550439 0.532403 0.519310
0.677394 0.553155 0.537072
0.790768 0.579736 0.560296
0.887419 0.606806 0.583978
0.964935 0.632593 0.606561
0.346868 0.658930 0.530144
0.376196 0.656855 0.529870
0.457801 0.651575 0.530205
0.554192 0.646326 0.529351
0.661280 0.653620 0.535668
0.783810 0.670069 0.549981
0.882444 0.680751 0.571527
0.962463 0.694636 0.596857
0.393378 0.765866 0.539788
0.418555 0.764981 0.542565
0.490059 0.759426 0.549920
0.567254 0.753353 0.549401
0.644984 0.744961 0.541650
0.761807 0.764309 0.562005
0.875395 0.779599 0.579919
0.957092 0.775967 0.593286
0.450904 0.861051 0.564752
0.471351 0.859800 0.568688
0.530999 0.855680 0.580407
0.587549 0.852140 0.576410
0.654902 0.846769 0.570733
0.743435 0.848753 0.575006
0.849149 0.860838 0.594507
0.948333 0.870146 0.614984
0.520409 0.944610 0.605829
0.535424 0.943725 0.609644
0.581170 0.940703 0.621027
0.617975 0.939696 0.612268
0.675013 0.937102 0.609400
0.743893 0.934051 0.606104
0.831998 0.937652 0.619013
0.921965 0.941314 0.635889
0.254063 0.277836 0.640040
0.299992 0.281346 0.638270
0.410712 0.288487 0.631739
0.535790 0.290135 0.620996
0.664973 0.310796 0.630610
0.781582 0.375341 0.631250
0.882719 0.453376 0.644465
0.961486 0.532006 0.666407
0.286992 0.332372 0.638483
0.323033 0.332799 0.637201
0.419013 0.332189 0.631434
0.536950 0.327123 0.620966
0.663874 0.343206 0.630030
0.780606 0.403204 0.633173
0.881621 0.476204 0.648280
0.960388 0.548852 0.670558
0.358526 0.456092 0.638087
0.385718 0.455085 0.636622
0.436652 0.432746 0.632685
0.541741 0.423011 0.623621
0.661463 0.431250 0.629145
0.776944 0.484840 0.640070
0.878202 0.542199 0.659907
0.956909 0.599756 0.683253
0.371099 0.555596 0.640864
0.398047 0.556847 0.640223
0.475471 0.561761 0.638849
0.558984 0.548180 0.633875
0.662104 0.545830 0.632624
0.776211 0.587274 0.653712
0.875975 0.628901 0.677668
0.953521 0.671138 0.702510
0.381659 0.657374 0.641840
0.407019 0.656977 0.641505
0.481544 0.655695 0.640650
0.577813 0.655451 0.641047
0.671168 0.659022 0.645228
0.779232 0.681239 0.663661
0.874601 0.706508 0.684901
0.951598 0.729305 0.703883
0.418799 0.770779 0.653193
0.441871 0.769406 0.653437
0.509880 0.764645 0.654231
0.594965 0.758938 0.655695
0.671168 0.753628 0.650202
0.764523 0.762875 0.658228
0.869322 0.780697 0.674342
0.949218 0.789731 0.691890
0.476661 0.863249 0.659815
0.494697 0.861997 0.661433
0.548943 0.858305 0.666590
0.620935 0.853422 0.673152
0.683711 0.849119 0.667903
0.750759 0.843168 0.659998
0.850919 0.859129 0.681025
0.943236 0.871214 0.698177
0.539300 0.944091 0.679866
0.552850 0.943206 0.682033
0.595056 0.940581 0.688838
0.655360 0.937530 0.698695
0.705074 0.935454 0.693507
0.763180 0.932586 0.688411
0.839292 0.934417 0.694148
0.923583 0.940002 0.711238
0.297612 0.327581 0.748379
0.330632 0.329870 0.747280
0.420203 0.334722 0.743038
0.533501 0.337896 0.736477
0.651728 0.337530 0.728084
0.771817 0.370794 0.737758
0.870176 0.453773 0.733791
0.951934 0.540124 0.743343
0.322087 0.368505 0.746609
0.349737 0.369055 0.745541
0.429908 0.369970 0.741848
0.536858 0.369268 0.735561
0.651728 0.364996 0.726528
0.770382 0.396368 0.736751
0.868925 0.475074 0.734920
0.950927 0.555352 0.745418
0.395819 0.479774 0.745357
0.400732 0.469581 0.745052
0.457984 0.462898 0.742061
0.550164 0.457923 0.736019
0.654566 0.447852 0.726314
0.767910 0.474128 0.735592
0.866270 0.539635 0.739895
0.948394 0.603754 0.752895
0.440467 0.593622 0.748043
0.461097 0.593805 0.746944
0.522362 0.594415 0.743801
0.578820 0.575463 0.739742
0.664485 0.562097 0.730556
0.766415 0.574517 0.736233
0.864317 0.625025 0.748714
0.945800 0.671473 0.764309
0.452888 0.676143 0.747402
0.473793 0.677607 0.747066
0.535332 0.682246 0.745998
0.614954 0.689204 0.745022
0.679896 0.673854 0.739895
0.765866 0.669673 0.738186
0.863981 0.709926 0.758480
0.943450 0.745754 0.777798
0.467292 0.767453 0.747189
0.486610 0.767483 0.747250
0.543114 0.766842 0.746761
0.618006 0.766171 0.746395
0.695155 0.766079 0.746517
0.773434 0.767819 0.748470
0.867674 0.791928 0.768246
0.942870 0.813565 0.785977
0.510369 0.866392 0.756954
0.526604 0.865873 0.757809
0.575616 0.863920 0.760098
0.641657 0.860685 0.761349
0.711635 0.856657 0.760922
0.775540 0.851774 0.754604
0.855100 0.859648 0.762112
0.939635 0.873960 0.776944
0.565789 0.944823 0.762203
0.577813 0.944060 0.763149
0.615747 0.941863 0.766110
0.670649 0.939025 0.770352
0.733547 0.935668 0.775021
0.788418 0.933257 0.771145
0.846525 0.930938 0.765774
0.926207 0.939361 0.783993
0.348791 0.381231 0.838590
0.372442 0.383062 0.838163
0.442603 0.387640 0.835966
0.539452 0.392432 0.832273
0.647211 0.394598 0.826596
0.756588 0.403235 0.822629
0.863615 0.447120 0.828275
0.943572 0.534997 0.819394
0.368658 0.413306 0.837156
0.389532 0.414221 0.836728
0.453468 0.416541 0.834745
0.545037 0.418799 0.831022
0.649042 0.418952 0.825437
0.756344 0.424506 0.821164
0.861967 0.466102 0.826993
0.942168 0.548547 0.819425
0.422156 0.500694 0.835874
0.437934 0.500603 0.835325
0.488838 0.500359 0.833371
0.566461 0.499245 0.829831
0.658961 0.495277 0.824369
0.758450 0.492866 0.819089
0.859983 0.527672 0.826078
0.940368 0.597162 0.822904
0.512108 0.625879 0.833951
0.527062 0.627131 0.833219
0.560662 0.622187 0.831662
0.601740 0.604944 0.829526
0.676265 0.596521 0.824399
0.761990 0.582483 0.817258
0.857664 0.608911 0.825406
0.937896 0.664088 0.827909
0.531060 0.708492 0.834257
0.545739 0.710567 0.833860
0.591730 0.717464 0.832853
0.650263 0.717159 0.830655
0.696010 0.696071 0.827054
0.766629 0.679591 0.819394
0.854887 0.691951 0.824674
0.935302 0.738888 0.834501
0.542565 0.781247 0.833951
0.556298 0.782193 0.833768
0.599268 0.785275 0.833280
0.659663 0.789731 0.832883
0.727077 0.795193 0.832700
0.782162 0.781735 0.828824
0.855467 0.778195 0.827634
0.934966 0.815640 0.844511
0.556298 0.861326 0.834562
0.568933 0.861357 0.834623
0.608270 0.861204 0.834501
0.664820 0.861173 0.834531
0.730251 0.861295 0.834714
0.796963 0.861814 0.835294
0.861021 0.861997 0.835569
0.937377 0.884306 0.853880
0.593561 0.943847 0.840055
0.604242 0.943420 0.840452
0.639063 0.942473 0.842130
0.690761 0.940948 0.844602
0.751553 0.939086 0.847135
0.812253 0.936828 0.847776
0.865812 0.934478 0.843595
0.929625 0.939635 0.850553
0.414679 0.445930 0.913664
0.431037 0.447395 0.913451
0.482948 0.451728 0.912291
0.561181 0.458106 0.910521
0.653681 0.464637 0.907958
0.752560 0.468818 0.904692
0.850156 0.488899 0.903502
0.941405 0.531395 0.905180
0.431952 0.471901 0.912627
0.446906 0.472969 0.912413
0.495064 0.476112 0.911376
0.569116 0.481025 0.909636
0.658137 0.485969 0.907164
0.754269 0.488258 0.903960
0.850217 0.504845 0.902708
0.940551 0.544854 0.904570
0.483528 0.547936 0.910155
0.495125 0.548363 0.909941
0.533471 0.549218 0.908934
0.595941 0.550988 0.907652
0.673487 0.551049 0.905394
0.760403 0.547967 0.902403
0.851347 0.555566 0.901091
0.938598 0.588952 0.903471
0.576745 0.664271 0.905913
0.578851 0.659907 0.906096
0.585290 0.643305 0.906493
0.631983 0.640650 0.905364
0.695125 0.636683 0.903532
0.769711 0.629145 0.900969
0.853056 0.625574 0.899229
0.936156 0.652155 0.902373
0.602228 0.741848 0.904784
0.612238 0.742763 0.904631
0.643244 0.744656 0.903899
0.687831 0.744808 0.902892
0.717952 0.723537 0.902495
0.780056 0.714076 0.900084
0.854246 0.700710 0.897093
0.933379 0.725154 0.901396
0.614832 0.805051 0.904265
0.624537 0.806332 0.904082
0.655787 0.810513 0.903532
0.703029 0.816953 0.902892
0.756405 0.818875 0.902220
0.797330 0.802090 0.901366
0.858274 0.789029 0.898314
0.931670 0.801541 0.901762
0.625879 0.868956 0.904417
0.634791 0.869505 0.904326
0.663813 0.871275 0.904021
0.709407 0.874449 0.903746
0.765042 0.878996 0.903685
0.823880 0.884825 0.904021
0.870603 0.876158 0.903166
0.930694 0.874083 0.903044
0.639033 0.937804 0.905211
0.647150 0.937774 0.905180
0.674311 0.937713 0.905119
0.718135 0.937804 0.905241
0.771633 0.938140 0.905608
0.828489 0.938933 0.906310
0.884184 0.940276 0.907561
0.933684 0.940978 0.908202
