其他预设/【232】美食博客调色预设124款/1.3D LUT预设（视频调色-PR-AE-PS-FCPX-达芬奇用）/0 They'Re Made Of Marzipan.cube
# Created by Adobe Lightroom plugin Export LUT (1.17.0)
# www.johnrellis.com/lightroom/exportlut.htm
# Preset: 0 They'Re Made Of Marzipan
# Color profile: /Library/Application Support/Adobe/Color/Profiles/Recommended/AdobeRGB1998.icc
LUT_3D_SIZE 32
0.000000 0.000000 0.000000
0.000000 0.000000 0.000000
0.000000 0.000000 0.000000
0.010254 0.000000 0.001953
0.084718 0.000000 0.017670
0.151308 0.000000 0.034607
0.216922 0.000000 0.037171
0.276493 0.000000 0.027161
0.332555 0.000000 0.013062
0.388006 0.000000 0.000000
0.443610 0.000000 0.000000
0.499397 0.000000 0.000000
0.555505 0.000000 0.000000
0.609735 0.000000 0.000000
0.659937 0.000000 0.000000
0.706233 0.000000 0.000000
0.748684 0.000000 0.000000
0.786984 0.000000 0.000000
0.821500 0.000000 0.000000
0.853941 0.000000 0.000000
0.884825 0.000000 0.000000
0.914000 0.000000 0.000000
0.941588 0.000000 0.000000
0.967620 0.000000 0.000000
0.992126 0.000000 0.000000
1.000000 0.000000 0.000000
1.000000 0.000000 0.000000
1.000000 0.000000 0.067933
1.000000 0.000000 0.107210
1.000000 0.000000 0.140291
1.000000 0.037171 0.169680
1.000000 0.101747 0.196689
0.000000 0.000000 0.000000
0.000000 0.000000 0.000000
0.000000 0.000000 0.000000
0.011627 0.000000 0.001923
0.084718 0.000000 0.017670
0.149081 0.000000 0.034821
0.214359 0.000000 0.037537
0.274418 0.000000 0.026978
0.331487 0.000000 0.011872
0.387121 0.000000 0.000000
0.442451 0.000000 0.000000
0.498207 0.000000 0.000000
0.554498 0.000000 0.000000
0.608545 0.000000 0.000000
0.658747 0.000000 0.000000
0.705165 0.000000 0.000000
0.747707 0.000000 0.000000
0.786099 0.000000 0.000000
0.820554 0.000000 0.000000
0.852995 0.000000 0.000000
0.883909 0.000000 0.000000
0.913237 0.000000 0.000000
0.940917 0.000000 0.000000
0.967041 0.000000 0.000000
0.991608 0.000000 0.000000
1.000000 0.000000 0.000000
1.000000 0.000000 0.000000
1.000000 0.000000 0.068727
1.000000 0.000000 0.107424
1.000000 0.000000 0.140444
1.000000 0.065217 0.169100
1.000000 0.110201 0.196292
0.000000 0.000000 0.000000
0.000000 0.000000 0.000000
0.000000 0.000000 0.000000
0.013947 0.000000 0.002899
0.085084 0.000000 0.017670
0.148867 0.000000 0.034760
0.213291 0.000000 0.037018
0.273503 0.000000 0.025513
0.330724 0.000000 0.009461
0.385931 0.000000 0.000000
0.441413 0.000000 0.000000
0.497017 0.000000 0.000000
0.553155 0.000000 0.000000
0.607202 0.000000 0.000000
0.657313 0.000000 0.000000
0.703914 0.000000 0.000000
0.746487 0.000000 0.000000
0.784909 0.000000 0.000000
0.819425 0.000000 0.000000
0.851926 0.000000 0.000000
0.882994 0.000000 0.000000
0.912322 0.000000 0.000000
0.940093 0.000000 0.000000
0.966339 0.000000 0.000000
0.990936 0.000000 0.000000
1.000000 0.000000 0.000000
1.000000 0.000000 0.000000
1.000000 0.000000 0.068238
1.000000 0.000000 0.107607
1.000000 0.000000 0.140414
1.000000 0.083467 0.169375
1.000000 0.120638 0.196750
0.000000 0.009400 0.001404
0.000000 0.011810 0.001221
0.000000 0.015167 0.002014
0.016022 0.021912 0.002106
0.086458 0.018524 0.016266
0.148836 0.000000 0.031495
0.212284 0.000000 0.032349
0.272465 0.000000 0.019165
0.329198 0.000000 0.001190
0.384741 0.000000 0.000000
0.440009 0.000000 0.000000
0.495613 0.000000 0.000000
0.551354 0.000000 0.000000
0.605371 0.000000 0.000000
0.656031 0.000000 0.000000
0.702632 0.000000 0.000000
0.745602 0.000000 0.000000
0.784146 0.000000 0.000000
0.818845 0.000000 0.000000
0.851469 0.000000 0.000000
0.882750 0.000000 0.000000
0.912169 0.000000 0.000000
0.940032 0.000000 0.000000
0.966278 0.000000 0.000000
0.991058 0.000000 0.000000
1.000000 0.000000 0.000000
1.000000 0.000000 0.000000
1.000000 0.000000 0.072267
1.000000 0.036683 0.111086
1.000000 0.086091 0.143679
1.000000 0.116335 0.172610
1.000000 0.143801 0.199802
0.000000 0.077211 0.007050
0.000000 0.078950 0.008728
0.000000 0.081422 0.008087
0.009308 0.085542 0.008576
0.083070 0.087831 0.008942
0.148836 0.087953 0.018128
0.211521 0.079591 0.016602
0.270329 0.061372 0.001312
0.326879 0.008392 0.000000
0.381872 0.000000 0.000000
0.436713 0.000000 0.000000
0.492348 0.000000 0.000000
0.547326 0.000000 0.000000
0.601556 0.000000 0.000000
0.652430 0.000000 0.000000
0.699275 0.000000 0.000000
0.742458 0.000000 0.000000
0.781277 0.000000 0.000000
0.816281 0.000000 0.000000
0.849363 0.000000 0.000000
0.880797 0.000000 0.000000
0.910552 0.000000 0.000000
0.938598 0.007019 0.000000
0.964996 0.027222 0.000000
0.989837 0.051362 0.000000
1.000000 0.066957 0.000000
1.000000 0.081239 0.000000
1.000000 0.095277 0.075227
1.000000 0.111574 0.113375
1.000000 0.129915 0.145388
1.000000 0.149294 0.173800
1.000000 0.169833 0.200961
0.000000 0.132876 0.008942
0.000000 0.135500 0.008698
0.000000 0.138430 0.008240
0.000000 0.143099 0.006165
0.079500 0.147341 0.002380
0.144656 0.147707 0.000000
0.210269 0.153750 0.000000
0.268589 0.151766 0.000000
0.324956 0.147585 0.000000
0.379797 0.143587 0.000000
0.434882 0.141115 0.000000
0.489998 0.139223 0.000000
0.544610 0.139101 0.000000
0.599023 0.138949 0.000000
0.650080 0.138460 0.000000
0.697139 0.138705 0.000000
0.740444 0.138338 0.000000
0.779751 0.137881 0.000000
0.815396 0.137179 0.000000
0.849210 0.136141 0.000000
0.881163 0.136049 0.000000
0.912230 0.135958 0.000000
0.942687 0.138125 0.000000
0.969116 0.138918 0.000000
0.993896 0.141329 0.000000
1.000000 0.144350 0.000000
1.000000 0.148775 0.029053
1.000000 0.155764 0.093721
1.000000 0.164523 0.127016
1.000000 0.175753 0.156344
1.000000 0.188754 0.183108
1.000000 0.203738 0.208316
0.000000 0.199130 0.000000
0.000000 0.198062 0.000000
0.000000 0.197482 0.000000
0.000000 0.198337 0.000000
0.069856 0.199344 0.000000
0.140871 0.198489 0.000000
0.197635 0.197391 0.000000
0.258396 0.203830 0.000000
0.312444 0.203342 0.000000
0.365911 0.202518 0.000000
0.418982 0.201999 0.000000
0.472511 0.202029 0.000000
0.525750 0.202640 0.000000
0.579370 0.203220 0.000000
0.630762 0.203128 0.000000
0.679622 0.203037 0.000000
0.724331 0.201999 0.000000
0.764645 0.200076 0.000000
0.801266 0.197635 0.000000
0.837980 0.196292 0.000000
0.872282 0.195224 0.000000
0.904356 0.193759 0.000000
0.934203 0.192752 0.000000
0.962707 0.192325 0.000000
0.989227 0.192508 0.000000
1.000000 0.193484 0.000000
1.000000 0.196048 0.035798
1.000000 0.200015 0.096437
1.000000 0.205234 0.129519
1.000000 0.213016 0.158785
1.000000 0.222263 0.184970
1.000000 0.233677 0.210300
0.000000 0.256443 0.000000
0.000000 0.255680 0.000000
0.000000 0.254917 0.000000
0.000000 0.254612 0.000000
0.067201 0.254704 0.000000
0.144991 0.253635 0.000000
0.203891 0.252018 0.000000
0.255497 0.250950 0.000000
0.313756 0.257328 0.000000
0.366552 0.258000 0.000000
0.419257 0.258793 0.000000
0.472389 0.259953 0.000000
0.525597 0.261082 0.000000
0.578882 0.261906 0.000000
0.629969 0.262150 0.000000
0.678767 0.261479 0.000000
0.723049 0.259739 0.000000
0.763302 0.256779 0.000000
0.799954 0.253422 0.000000
0.836667 0.250889 0.000000
0.870939 0.248753 0.000000
0.903044 0.245884 0.000000
0.933074 0.243656 0.000000
0.961547 0.241611 0.000000
0.988037 0.240330 0.000000
1.000000 0.239994 0.000000
1.000000 0.240421 0.057343
1.000000 0.241855 0.102480
1.000000 0.245029 0.134524
1.000000 0.249973 0.162112
1.000000 0.256504 0.187533
1.000000 0.264744 0.212467
0.000000 0.310918 0.000000
0.000000 0.309850 0.000000
0.000000 0.309117 0.000000
0.000000 0.308019 0.000000
0.074159 0.307347 0.000000
0.152499 0.305852 0.000000
0.210819 0.304356 0.000000
0.262089 0.302831 0.000000
0.310460 0.301061 0.000000
0.367254 0.307469 0.000000
0.419379 0.309270 0.000000
0.472328 0.311009 0.000000
0.525414 0.312963 0.000000
0.578485 0.314427 0.000000
0.629145 0.314336 0.000000
0.677241 0.313664 0.000000
0.721523 0.311009 0.000000
0.761776 0.307774 0.000000
0.798398 0.303532 0.000000
0.835172 0.300450 0.000000
0.869566 0.297185 0.000000
0.901823 0.293706 0.000000
0.931914 0.290196 0.000000
0.960418 0.287724 0.000000
0.986877 0.285374 0.000000
1.000000 0.283452 0.000000
1.000000 0.282658 0.071046
1.000000 0.282536 0.109255
1.000000 0.283940 0.139528
1.000000 0.286687 0.166354
1.000000 0.290898 0.191226
1.000000 0.296757 0.215305
0.000000 0.363348 0.000000
0.000000 0.362158 0.000000
0.000000 0.361120 0.000000
0.000000 0.359991 0.000000
0.091615 0.358862 0.000000
0.163607 0.357183 0.000000
0.219974 0.355596 0.000000
0.270909 0.354070 0.000000
0.319280 0.352636 0.000000
0.366308 0.351263 0.000000
0.422858 0.358251 0.000000
0.475807 0.360845 0.000000
0.528679 0.363043 0.000000
0.581567 0.364996 0.000000
0.631861 0.364843 0.000000
0.679591 0.363836 0.000000
0.723507 0.361242 0.000000
0.763699 0.357092 0.000000
0.800229 0.352483 0.000000
0.836759 0.348486 0.000000
0.871061 0.344579 0.000000
0.903319 0.340490 0.000000
0.933440 0.336339 0.000000
0.961547 0.332708 0.000000
0.987732 0.329320 0.000000
1.000000 0.326513 0.013947
1.000000 0.324529 0.088045
1.000000 0.323369 0.121309
1.000000 0.323308 0.149233
1.000000 0.324254 0.173770
1.000000 0.326726 0.197513
1.000000 0.330236 0.220188
0.000000 0.411200 0.000000
0.000000 0.410071 0.000000
0.000000 0.409339 0.000000
0.000000 0.407874 0.000000
0.110750 0.406439 0.000000
0.174533 0.404944 0.000000
0.228397 0.403632 0.000000
0.277928 0.402380 0.000000
0.325994 0.400885 0.000000
0.372930 0.399573 0.000000
0.419104 0.398199 0.000000
0.475624 0.405463 0.000000
0.528191 0.408240 0.000000
0.580621 0.410651 0.000000
0.630549 0.410742 0.000000
0.677974 0.409705 0.000000
0.721736 0.406897 0.000000
0.761624 0.402533 0.000000
0.798306 0.397375 0.000000
0.834897 0.393011 0.000000
0.869383 0.388525 0.000000
0.901640 0.383825 0.000000
0.931792 0.379309 0.000000
0.959869 0.374792 0.000000
0.986023 0.370764 0.000000
1.000000 0.367193 0.051545
1.000000 0.364233 0.098390
1.000000 0.362005 0.128725
1.000000 0.360723 0.154818
1.000000 0.360143 0.178470
1.000000 0.360815 0.201175
1.000000 0.362768 0.223087
0.000000 0.459998 0.000000
0.000000 0.458900 0.000000
0.000000 0.458015 0.000000
0.028504 0.456397 0.000000
0.129030 0.454932 0.000000
0.186404 0.453498 0.000000
0.237766 0.452369 0.000000
0.286839 0.451484 0.000000
0.334813 0.450355 0.000000
0.381781 0.449287 0.000000
0.428260 0.448188 0.000000
0.475227 0.447700 0.000000
0.543816 0.464698 0.000000
0.596582 0.466926 0.000000
0.645930 0.466682 0.000000
0.691646 0.463966 0.000000
0.733883 0.459785 0.000000
0.773037 0.454536 0.000000
0.809171 0.448402 0.000000
0.843809 0.442451 0.000000
0.876493 0.436408 0.000000
0.907103 0.430396 0.000000
0.935851 0.424567 0.000000
0.962890 0.418982 0.000000
0.988159 0.413916 0.008911
1.000000 0.408911 0.083040
1.000000 0.404791 0.114260
1.000000 0.401434 0.140383
1.000000 0.398749 0.164340
1.000000 0.396704 0.185824
1.000000 0.395819 0.207095
1.000000 0.396155 0.228122
0.000000 0.497169 0.000000
0.000000 0.495735 0.000000
0.000000 0.494148 0.000000
0.068605 0.492470 0.000000
0.136019 0.491066 0.000000
0.190249 0.490700 0.000000
0.240085 0.490394 0.000000
0.287724 0.489693 0.000000
0.334417 0.488838 0.000000
0.382513 0.490242 0.000000
0.430579 0.491402 0.000000
0.478614 0.492226 0.000000
0.526574 0.492897 0.000000
0.585168 0.501854 0.000000
0.636713 0.504112 0.000000
0.684504 0.503655 0.000000
0.728603 0.500816 0.000000
0.768399 0.495857 0.000000
0.805386 0.489998 0.000000
0.840482 0.484047 0.000000
0.873564 0.477790 0.000000
0.904295 0.471412 0.000000
0.933135 0.465217 0.000000
0.960296 0.459052 0.000000
0.985657 0.453376 0.050965
1.000000 0.447852 0.094484
1.000000 0.442969 0.123171
1.000000 0.438819 0.148104
1.000000 0.435096 0.170474
1.000000 0.432136 0.191257
1.000000 0.429969 0.211215
1.000000 0.429175 0.232425
0.000000 0.546471 0.000000
0.000000 0.544823 0.000000
0.000000 0.543114 0.000000
0.095705 0.541466 0.000000
0.150851 0.539666 0.000000
0.201511 0.539025 0.000000
0.249516 0.538476 0.000000
0.296117 0.537560 0.000000
0.342168 0.536645 0.000000
0.389715 0.537896 0.000000
0.437263 0.538628 0.000000
0.484840 0.539178 0.000000
0.532189 0.539422 0.000000
0.579767 0.539696 0.000000
0.634180 0.545373 0.000000
0.682155 0.545251 0.000000
0.725887 0.542351 0.000000
0.765682 0.537407 0.000000
0.802548 0.531273 0.000000
0.837461 0.524895 0.000000
0.870451 0.518303 0.000000
0.901274 0.511589 0.000000
0.930205 0.504875 0.000000
0.957397 0.498421 0.000000
0.983001 0.492317 0.071870
1.000000 0.486152 0.105745
1.000000 0.480476 0.131930
1.000000 0.475441 0.154726
1.000000 0.470985 0.175906
1.000000 0.467048 0.195956
1.000000 0.463874 0.215824
1.000000 0.462013 0.236454
0.000000 0.592737 0.000000
0.000000 0.591180 0.000000
0.059297 0.589471 0.000000
0.114137 0.587823 0.000000
0.163394 0.586145 0.000000
0.210910 0.585382 0.000000
0.257176 0.584466 0.000000
0.302800 0.583490 0.000000
0.348150 0.582361 0.000000
0.394965 0.582971 0.000000
0.441566 0.583490 0.000000
0.488411 0.583551 0.000000
0.535058 0.583398 0.000000
0.581964 0.583398 0.000000
0.628717 0.582940 0.000000
0.679408 0.585992 0.000000
0.723781 0.583825 0.000000
0.763180 0.578424 0.000000
0.799802 0.571954 0.000000
0.834623 0.565332 0.000000
0.867491 0.558373 0.000000
0.898375 0.551263 0.000000
0.927337 0.544182 0.000000
0.954772 0.537224 0.028168
0.980529 0.530571 0.088106
1.000000 0.524041 0.116915
1.000000 0.517876 0.140658
1.000000 0.512230 0.162753
1.000000 0.507042 0.182986
1.000000 0.502434 0.202823
1.000000 0.498848 0.222904
1.000000 0.496040 0.243565
0.000000 0.638483 0.000000
0.057801 0.637201 0.000000
0.087587 0.635920 0.000000
0.130220 0.634577 0.000000
0.175174 0.633173 0.000000
0.220645 0.632441 0.000000
0.265171 0.631617 0.000000
0.310094 0.630610 0.000000
0.355138 0.629389 0.000000
0.401160 0.629755 0.000000
0.447395 0.629725 0.000000
0.493538 0.629541 0.000000
0.539605 0.629084 0.000000
0.585779 0.628443 0.000000
0.631556 0.627344 0.000000
0.677058 0.626307 0.000000
0.723720 0.626429 0.000000
0.763607 0.621271 0.000000
0.799588 0.614008 0.000000
0.833738 0.606592 0.000000
0.866117 0.598993 0.000000
0.896605 0.591150 0.000000
0.925536 0.583642 0.000000
0.952758 0.576104 0.068269
0.978241 0.568750 0.102235
1.000000 0.561578 0.127443
1.000000 0.554589 0.148745
1.000000 0.548180 0.169131
1.000000 0.542138 0.188479
1.000000 0.536980 0.208255
1.000000 0.532494 0.227787
1.000000 0.528618 0.247471
0.059571 0.677211 0.000000
0.081849 0.676173 0.000000
0.104128 0.675013 0.000000
0.140902 0.673793 0.000000
0.182498 0.672541 0.000000
0.225528 0.671809 0.000000
0.268956 0.670802 0.000000
0.312779 0.669764 0.000000
0.356725 0.668513 0.000000
0.401862 0.668452 0.000000
0.447089 0.668269 0.000000
0.492531 0.667933 0.000000
0.537926 0.667262 0.000000
0.583001 0.666346 0.000000
0.627924 0.665095 0.000000
0.672328 0.663661 0.000000
0.716457 0.661982 0.000000
0.759243 0.659724 0.000000
0.796567 0.653468 0.000000
0.830655 0.645716 0.000000
0.863005 0.637842 0.000000
0.893767 0.629908 0.000000
0.922667 0.621820 0.027893
0.949798 0.613855 0.085054
0.975311 0.605951 0.112612
0.999084 0.598199 0.135775
1.000000 0.590661 0.155886
1.000000 0.583612 0.175051
1.000000 0.577111 0.194339
1.000000 0.571252 0.213291
1.000000 0.565728 0.232090
1.000000 0.560876 0.251377
0.085176 0.714626 0.000000
0.102785 0.714443 0.000000
0.120241 0.712490 0.000000
0.152865 0.712490 0.000000
0.191409 0.712367 0.000000
0.232547 0.712062 0.000000
0.274723 0.711635 0.000000
0.317967 0.711421 0.000000
0.361852 0.711116 0.000000
0.405951 0.710628 0.000000
0.450294 0.709834 0.000000
0.494423 0.708614 0.000000
0.538537 0.707210 0.000000
0.582696 0.705684 0.000000
0.626459 0.704036 0.000000
0.669062 0.701350 0.000000
0.711452 0.698665 0.000000
0.753353 0.695888 0.000000
0.793301 0.692073 0.000000
0.828092 0.684657 0.000000
0.860136 0.676295 0.000000
0.890471 0.667659 0.000000
0.919158 0.659052 0.063569
0.946044 0.650324 0.096010
0.971374 0.641840 0.120333
0.995270 0.633539 0.141604
1.000000 0.625574 0.160952
1.000000 0.618158 0.179721
1.000000 0.610956 0.197757
1.000000 0.604120 0.215671
1.000000 0.597803 0.233738
1.000000 0.592004 0.252415
0.102052 0.741726 0.000000
0.115358 0.742092 0.000000
0.131685 0.742519 0.000000
0.161501 0.743099 0.000000
0.197330 0.743587 0.000000
0.236484 0.743893 0.000000
0.277134 0.744198 0.000000
0.319188 0.744137 0.000000
0.361975 0.744015 0.000000
0.404883 0.743679 0.000000
0.448157 0.743069 0.000000
0.491402 0.741970 0.000000
0.534844 0.740658 0.000000
0.578088 0.739193 0.000000
0.621118 0.737636 0.000000
0.663203 0.735134 0.000000
0.705013 0.732631 0.000000
0.746487 0.730220 0.000000
0.787533 0.727687 0.000000
0.824918 0.722683 0.000000
0.857542 0.714382 0.000000
0.887816 0.705470 0.028534
0.916503 0.696559 0.081147
0.943389 0.687465 0.107973
0.968780 0.678462 0.130495
0.992798 0.669764 0.150240
1.000000 0.661433 0.168521
1.000000 0.653315 0.186709
1.000000 0.645563 0.203830
1.000000 0.638056 0.221134
1.000000 0.630945 0.238499
1.000000 0.624353 0.257023
0.121828 0.775540 0.000000
0.133364 0.775784 0.000000
0.147585 0.776059 0.000000
0.172824 0.776486 0.000000
0.205844 0.776761 0.000000
0.242649 0.776944 0.000000
0.281682 0.776883 0.000000
0.321813 0.776761 0.000000
0.362737 0.776425 0.000000
0.404517 0.775875 0.000000
0.446693 0.775143 0.000000
0.488808 0.774014 0.000000
0.531151 0.772671 0.000000
0.573388 0.771267 0.000000
0.615686 0.769650 0.000000
0.657160 0.767514 0.000000
0.698512 0.765286 0.000000
0.739284 0.762875 0.000000
0.779568 0.760464 0.000000
0.819089 0.757565 0.000000
0.854459 0.751644 0.000000
0.884642 0.742428 0.064668
0.913329 0.733120 0.095521
0.940276 0.723629 0.118318
0.965942 0.714473 0.138949
0.990112 0.705379 0.157595
1.000000 0.696498 0.175174
1.000000 0.687831 0.192233
1.000000 0.679500 0.208988
1.000000 0.671351 0.225681
1.000000 0.663630 0.242771
1.000000 0.656336 0.260960
0.140475 0.807736 0.000000
0.149844 0.807919 0.000000
0.162509 0.808103 0.000000
0.184909 0.808408 0.000000
0.215061 0.808530 0.000000
0.249271 0.808530 0.000000
0.286290 0.808408 0.000000
0.324590 0.808103 0.000000
0.364294 0.807614 0.000000
0.404486 0.806882 0.000000
0.445319 0.806088 0.000000
0.486671 0.805081 0.000000
0.527977 0.803830 0.000000
0.569390 0.802487 0.000000
0.610712 0.800992 0.000000
0.651667 0.799069 0.000000
0.692348 0.797055 0.013642
0.732662 0.794919 0.026490
0.772580 0.792721 0.044526
0.811826 0.790402 0.058686
0.850645 0.787961 0.066285
0.884611 0.781704 0.086183
0.912779 0.771664 0.112490
0.940093 0.762112 0.133639
0.965759 0.752560 0.152346
0.989899 0.743038 0.170413
1.000000 0.733639 0.187045
1.000000 0.724483 0.203342
1.000000 0.715419 0.219272
1.000000 0.706844 0.236149
1.000000 0.698421 0.253056
1.000000 0.690242 0.270756
0.162631 0.842496 0.032959
0.170535 0.842832 0.037324
0.180880 0.843107 0.041169
0.200687 0.843198 0.045533
0.228000 0.843137 0.048249
0.259861 0.842954 0.054566
0.294530 0.842618 0.059419
0.330938 0.841794 0.061219
0.368536 0.840909 0.064118
0.407385 0.839811 0.065583
0.446876 0.838651 0.068971
0.486549 0.837125 0.072114
0.526665 0.835508 0.075227
0.566613 0.833738 0.077455
0.606653 0.831815 0.081086
0.646632 0.829679 0.084535
0.686152 0.827451 0.087190
0.725551 0.825040 0.090822
0.764370 0.822660 0.094209
0.803037 0.820249 0.097780
0.841337 0.818021 0.102144
0.879088 0.815702 0.106538
0.911437 0.809171 0.120119
0.936889 0.797513 0.141360
0.962554 0.787472 0.159304
0.986694 0.777584 0.175845
1.000000 0.767697 0.191684
1.000000 0.758083 0.207706
1.000000 0.748806 0.223850
1.000000 0.739559 0.239933
1.000000 0.730434 0.256504
1.000000 0.721431 0.273655
0.179507 0.871153 0.095338
0.186618 0.871458 0.096162
0.195407 0.871733 0.097078
0.213657 0.871733 0.098421
0.238224 0.871611 0.099519
0.267918 0.871336 0.100862
0.300481 0.871031 0.102358
0.334844 0.870176 0.102815
0.371160 0.869200 0.104585
0.408270 0.868040 0.105715
0.446357 0.866850 0.107301
0.484810 0.865293 0.108553
0.523491 0.863645 0.110201
0.562646 0.861814 0.111940
0.601709 0.859892 0.113191
0.640681 0.857816 0.115602
0.679347 0.855650 0.117342
0.717922 0.853361 0.119417
0.756344 0.851102 0.122805
0.794491 0.849058 0.126192
0.832120 0.846830 0.129610
0.869230 0.844511 0.132937
0.905669 0.842130 0.136141
0.936461 0.835172 0.146181
0.957000 0.819760 0.159823
0.981384 0.809689 0.176394
1.000000 0.799771 0.192782
1.000000 0.790066 0.208774
1.000000 0.780362 0.224643
1.000000 0.770840 0.240787
1.000000 0.761257 0.257359
1.000000 0.751797 0.274754
0.196628 0.898619 0.127230
0.202914 0.898924 0.128481
0.211002 0.899229 0.129122
0.227176 0.899382 0.130312
0.250065 0.899443 0.131167
0.276951 0.898894 0.131563
0.307256 0.898192 0.132174
0.339788 0.897429 0.133089
0.374426 0.896483 0.133669
0.409827 0.895109 0.133974
0.446265 0.893614 0.134920
0.483436 0.892027 0.135286
0.520958 0.890318 0.136110
0.558801 0.888365 0.136995
0.596674 0.886320 0.138003
0.634699 0.884306 0.139498
0.672572 0.882139 0.141146
0.710323 0.879973 0.143160
0.747738 0.877714 0.144839
0.784848 0.875364 0.146548
0.821530 0.872862 0.149020
0.857755 0.870420 0.151278
0.893431 0.867887 0.153719
0.928466 0.865202 0.156100
0.958007 0.858061 0.164797
0.978851 0.844022 0.182284
1.000000 0.833646 0.197848
1.000000 0.823239 0.213107
1.000000 0.812863 0.228000
1.000000 0.802731 0.243656
1.000000 0.792752 0.260410
1.000000 0.782650 0.277867
0.212345 0.923980 0.152041
0.218143 0.924285 0.152621
0.225437 0.924590 0.153414
0.239841 0.924773 0.154421
0.261021 0.924804 0.155428
0.285679 0.924315 0.156069
0.314366 0.923735 0.156558
0.345190 0.923003 0.157076
0.378180 0.922118 0.157717
0.412116 0.920836 0.158297
0.447150 0.919493 0.158694
0.483223 0.917998 0.159365
0.519585 0.916472 0.160098
0.556268 0.914702 0.160647
0.593225 0.912779 0.161959
0.630121 0.910796 0.162722
0.667170 0.908690 0.164279
0.704005 0.906584 0.165499
0.740627 0.904356 0.166751
0.776913 0.901976 0.168551
0.812863 0.899535 0.170230
0.848417 0.897093 0.172030
0.883665 0.894743 0.173983
0.918303 0.892271 0.176150
0.952300 0.889738 0.178164
0.980835 0.882658 0.185885
0.999115 0.867094 0.202213
1.000000 0.856046 0.216770
1.000000 0.845243 0.231388
1.000000 0.834867 0.247684
1.000000 0.824216 0.264256
1.000000 0.813291 0.281193
0.229343 0.948608 0.174624
0.234379 0.948821 0.175174
0.240848 0.949004 0.175937
0.254124 0.949096 0.176608
0.272984 0.949004 0.177462
0.295842 0.948577 0.177768
0.322118 0.948028 0.178103
0.351293 0.947295 0.178622
0.382666 0.946471 0.179232
0.414954 0.945281 0.179446
0.448585 0.943938 0.179873
0.483101 0.942535 0.180056
0.518212 0.940948 0.180758
0.553857 0.939239 0.181338
0.589563 0.937407 0.181918
0.625544 0.935485 0.182589
0.661616 0.933410 0.183658
0.697536 0.931304 0.184939
0.733303 0.929107 0.186069
0.768917 0.926848 0.187350
0.804227 0.924651 0.188785
0.839200 0.922393 0.190585
0.873747 0.919982 0.192355
0.907591 0.917479 0.193881
0.940917 0.914855 0.195315
0.973693 0.912230 0.196902
1.000000 0.905150 0.203281
1.000000 0.888792 0.219242
1.000000 0.877104 0.234104
1.000000 0.866117 0.249943
1.000000 0.854826 0.265751
1.000000 0.843290 0.282689
0.246494 0.971893 0.195102
0.251011 0.972076 0.195712
0.256962 0.972259 0.196475
0.268589 0.972351 0.196872
0.286046 0.972290 0.197818
0.307286 0.972076 0.198428
0.332097 0.971679 0.199222
0.359564 0.971221 0.199985
0.389380 0.970611 0.200992
0.420447 0.969787 0.201663
0.452857 0.968841 0.202945
0.486213 0.967803 0.203525
0.520226 0.966644 0.204623
0.554681 0.965087 0.205447
0.589471 0.963439 0.206180
0.624323 0.961669 0.206912
0.659480 0.959869 0.208133
0.694697 0.958038 0.209628
0.729793 0.956085 0.211124
0.764584 0.954009 0.212375
0.799100 0.951781 0.213901
0.833341 0.949615 0.215579
0.867124 0.947265 0.216953
0.900328 0.944793 0.218448
0.933043 0.942199 0.219944
0.965515 0.939910 0.222141
0.997314 0.937499 0.224002
1.000000 0.930724 0.229648
1.000000 0.912963 0.244633
1.000000 0.900206 0.259983
1.000000 0.888518 0.277287
1.000000 0.876341 0.295384
0.270115 0.996887 0.220737
0.273686 0.996765 0.220706
0.278325 0.996612 0.220890
0.288273 0.996399 0.220737
0.303349 0.996063 0.220829
0.322179 0.995483 0.220645
0.344457 0.994812 0.220859
0.369451 0.994018 0.220768
0.396765 0.993103 0.220951
0.426001 0.992096 0.221439
0.456550 0.990936 0.221592
0.488197 0.989746 0.222110
0.520623 0.988434 0.222721
0.553826 0.986969 0.223423
0.587396 0.985412 0.224186
