其他预设/【232】美食博客调色预设124款/1.3D LUT预设（视频调色-PR-AE-PS-FCPX-达芬奇用）/0 They'Re Made Of Marzipan.cube
# Created by Adobe Lightroom plugin Export LUT (1.17.0)
# www.johnrellis.com/lightroom/exportlut.htm
# Preset: 0 They'Re Made Of Marzipan
# Color profile: /Library/Application Support/Adobe/Color/Profiles/Recommended/AdobeRGB1998.icc
LUT_3D_SIZE 8
DOMAIN_MIN 0.000000 0.000000 0.000000
DOMAIN_MAX 0.903226 0.903226 0.903226
0.000000 0.000000 0.000000
0.084718 0.000000 0.017670
0.332555 0.000000 0.013062
0.555505 0.000000 0.000000
0.748684 0.000000 0.000000
0.884825 0.000000 0.000000
0.992126 0.000000 0.000000
1.000000 0.000000 0.107210
0.000000 0.077211 0.007050
0.083070 0.087831 0.008942
0.326879 0.008392 0.000000
0.547326 0.000000 0.000000
0.742458 0.000000 0.000000
0.880797 0.000000 0.000000
0.989837 0.051362 0.000000
1.000000 0.111574 0.113375
0.000000 0.310918 0.000000
0.074159 0.307347 0.000000
0.310460 0.301061 0.000000
0.525414 0.312963 0.000000
0.721523 0.311009 0.000000
0.869566 0.297185 0.000000
0.986877 0.285374 0.000000
1.000000 0.283940 0.139528
0.000000 0.497169 0.000000
0.136019 0.491066 0.000000
0.334417 0.488838 0.000000
0.526574 0.492897 0.000000
0.728603 0.500816 0.000000
0.873564 0.477790 0.000000
0.985657 0.453376 0.050965
1.000000 0.435096 0.170474
0.059571 0.677211 0.000000
0.182498 0.672541 0.000000
0.356725 0.668513 0.000000
0.537926 0.667262 0.000000
0.716457 0.661982 0.000000
0.863005 0.637842 0.000000
0.975311 0.605951 0.112612
1.000000 0.577111 0.194339
0.140475 0.807736 0.000000
0.215061 0.808530 0.000000
0.364294 0.807614 0.000000
0.527977 0.803830 0.000000
0.692348 0.797055 0.013642
0.850645 0.787961 0.066285
0.965759 0.752560 0.152346
1.000000 0.715419 0.219272
0.212345 0.923980 0.152041
0.261021 0.924804 0.155428
0.378180 0.922118 0.157717
0.519585 0.916472 0.160098
0.667170 0.908690 0.164279
0.812863 0.899535 0.170230
0.952300 0.889738 0.178164
1.000000 0.845243 0.231388
0.287999 1.000000 0.238346
0.317906 1.000000 0.238499
0.404547 1.000000 0.238865
0.522271 1.000000 0.240696
0.650996 1.000000 0.242313
0.782925 0.994507 0.247379
0.911009 0.985473 0.253513
1.000000 0.975616 0.260624
0.000000 0.009308 0.094423
0.079683 0.000000 0.090120
0.310246 0.000000 0.096468
0.527794 0.000000 0.087495
0.726406 0.000000 0.081819
0.870298 0.000000 0.107027
0.983520 0.000000 0.153017
1.000000 0.000000 0.207736
0.000000 0.069734 0.085878
0.084169 0.079652 0.089448
0.308476 0.085328 0.091279
0.525170 0.076448 0.081392
0.724910 0.039490 0.080110
0.868925 0.011078 0.109529
0.982452 0.075441 0.155703
1.000000 0.135744 0.210178
0.000000 0.293828 0.086702
0.111788 0.292149 0.084871
0.304479 0.290715 0.077760
0.518029 0.308843 0.066926
0.714687 0.307683 0.075074
0.862699 0.294469 0.116152
0.978851 0.285893 0.164828
1.000000 0.289403 0.218845
0.000000 0.489235 0.060395
0.137270 0.486458 0.081605
0.332189 0.484932 0.080293
0.517693 0.483955 0.079591
0.715145 0.490028 0.094850
0.860990 0.470405 0.137606
0.976593 0.451026 0.184543
1.000000 0.437293 0.234745
0.000000 0.668269 0.113130
0.173190 0.667201 0.112856
0.352056 0.664271 0.114290
0.530541 0.659419 0.116701
0.705379 0.651850 0.120882
0.853758 0.631006 0.156771
0.968505 0.602808 0.200381
1.000000 0.577813 0.247990
0.143618 0.803983 0.162936
0.215946 0.803952 0.164187
0.362615 0.801999 0.165988
0.524681 0.798093 0.169619
0.688045 0.791806 0.174289
0.846220 0.783597 0.179446
0.961669 0.750027 0.218326
1.000000 0.715236 0.262791
0.223941 0.922423 0.220706
0.269352 0.922759 0.222293
0.383093 0.920348 0.223239
0.522393 0.915190 0.224247
0.668727 0.907866 0.225834
0.813474 0.899199 0.228428
0.952361 0.889982 0.232578
1.000000 0.846403 0.272007
0.300572 1.000000 0.274846
0.329351 1.000000 0.275181
0.413184 1.000000 0.275731
0.527916 1.000000 0.276982
0.655177 1.000000 0.278752
0.785031 0.993988 0.281621
0.911559 0.984955 0.285008
1.000000 0.975219 0.289799
0.000000 0.020752 0.337224
0.000000 0.000000 0.332036
0.303929 0.000000 0.330663
0.523339 0.000000 0.335851
0.718257 0.000000 0.328252
0.860868 0.000000 0.333318
0.975525 0.046113 0.342962
1.000000 0.174258 0.358709
0.000000 0.088899 0.323064
0.059632 0.081300 0.323247
0.300847 0.043244 0.322576
0.517144 0.000000 0.328069
0.714504 0.000000 0.324437
0.858885 0.097627 0.332860
0.974121 0.159854 0.342260
1.000000 0.218601 0.358160
0.000000 0.289708 0.317510
0.050752 0.288579 0.314824
0.302770 0.290593 0.314336
0.508385 0.296178 0.318456
0.704402 0.298283 0.322484
0.853056 0.301244 0.329808
0.971069 0.310246 0.341772
1.000000 0.329870 0.359350
0.000000 0.483528 0.321569
0.082399 0.480049 0.317266
0.322240 0.477394 0.316716
0.511711 0.477760 0.315740
0.706447 0.483070 0.321752
0.852964 0.471992 0.331243
0.969543 0.463020 0.344335
1.000000 0.460822 0.362768
0.000000 0.662470 0.315496
0.139986 0.660761 0.313787
0.349554 0.656764 0.320348
0.526848 0.652644 0.319127
0.700191 0.645808 0.317418
0.846738 0.628260 0.327733
0.962219 0.607324 0.342077
1.000000 0.590723 0.361852
0.141817 0.799802 0.316716
0.226169 0.799741 0.321324
0.375921 0.797147 0.327855
0.530541 0.793210 0.327398
0.688716 0.787198 0.326299
0.842832 0.779690 0.325261
0.956970 0.750301 0.342077
1.000000 0.722438 0.363531
0.269291 0.918883 0.340398
0.310033 0.918853 0.342535
0.410559 0.916350 0.343297
0.538476 0.911528 0.342351
0.676967 0.904845 0.340887
0.816434 0.896941 0.339788
0.951202 0.888640 0.339330
1.000000 0.849027 0.362188
0.361639 1.000000 0.367010
0.380285 1.000000 0.364965
0.451026 1.000000 0.364752
0.555230 1.000000 0.365881
0.672328 0.999512 0.365393
0.794827 0.992432 0.365850
0.915740 0.984131 0.366766
1.000000 0.975006 0.368078
0.000000 0.000000 0.482918
0.059297 0.000000 0.482307
0.332464 0.000000 0.475624
0.530388 0.000000 0.473487
0.722469 0.000000 0.468025
0.862272 0.000000 0.455268
0.972717 0.188602 0.457191
1.000000 0.338720 0.478859
0.000000 0.083040 0.477028
0.116793 0.076295 0.477729
0.330327 0.038117 0.471229
0.526970 0.000000 0.469276
0.719295 0.000000 0.465003
0.859373 0.127626 0.454963
0.969726 0.250706 0.459236
1.000000 0.351751 0.475776
0.000000 0.309972 0.468513
0.112245 0.306615 0.465919
0.327672 0.300725 0.460029
0.521599 0.295018 0.459266
0.705959 0.297795 0.455238
0.849882 0.332738 0.456001
0.964569 0.378912 0.464820
1.000000 0.416510 0.473671
0.000000 0.480903 0.454353
0.125978 0.477974 0.452064
0.332616 0.479774 0.451331
0.530877 0.484962 0.452064
0.708186 0.488411 0.453773
0.849485 0.493904 0.457740
0.964141 0.503441 0.464485
1.000000 0.518242 0.474464
0.000000 0.662379 0.447700
0.177096 0.659907 0.446387
0.360876 0.655177 0.444465
0.542596 0.650294 0.446601
0.704829 0.644373 0.444587
0.844144 0.634730 0.450080
0.957580 0.627497 0.457862
1.000000 0.625299 0.469825
0.190707 0.797604 0.432288
0.257939 0.796933 0.433906
0.408698 0.792416 0.440986
0.557794 0.787716 0.445899
0.700771 0.783108 0.444312
0.843351 0.777157 0.442298
0.953002 0.756893 0.453132
1.000000 0.740871 0.467018
0.316625 0.915038 0.434668
0.362127 0.914427 0.439643
0.478584 0.909087 0.455177
0.578332 0.905394 0.451545
0.698970 0.899718 0.449348
0.825010 0.893095 0.447089
0.949859 0.886168 0.445106
1.000000 0.854826 0.461158
0.445014 1.000000 0.460975
0.474464 1.000000 0.467048
0.538109 1.000000 0.474434
0.602045 0.999176 0.463966
0.702296 0.994171 0.462745
0.811398 0.988190 0.462074
0.921721 0.981170 0.461433
1.000000 0.973510 0.461158
0.000000 0.000000 0.598627
0.185916 0.000000 0.596857
0.368872 0.000000 0.590753
0.546624 0.000000 0.582757
0.724544 0.000000 0.574945
0.863279 0.000000 0.554772
0.972473 0.201724 0.543236
1.000000 0.350011 0.549584
0.075624 0.081849 0.589746
0.192599 0.078950 0.590112
0.366003 0.058564 0.585382
0.542443 0.000000 0.577417
0.719905 0.000000 0.570581
0.860227 0.140841 0.553063
0.969909 0.260685 0.543999
1.000000 0.382483 0.552300
0.100221 0.314549 0.581506
0.201053 0.313085 0.579126
0.367987 0.309697 0.574060
0.540734 0.303471 0.567956
0.713039 0.302403 0.561547
0.853758 0.339086 0.551019
0.964446 0.403632 0.551568
1.000000 0.481880 0.566186
0.127291 0.490974 0.569116
0.213016 0.488655 0.566705
0.377783 0.487404 0.563195
0.554742 0.492836 0.561059
0.716152 0.498299 0.557763
0.849943 0.520073 0.557824
0.958648 0.554955 0.568231
1.000000 0.593408 0.584649
0.167819 0.655055 0.555444
0.238682 0.654017 0.554498
0.392798 0.651453 0.552209
0.568414 0.650782 0.552575
0.717250 0.650233 0.553643
0.844633 0.650446 0.556207
0.953216 0.655787 0.562921
1.000000 0.665980 0.573693
0.258854 0.796933 0.537896
0.310796 0.796231 0.538628
0.443366 0.791501 0.541680
0.594446 0.785245 0.550195
0.719539 0.782010 0.551476
0.845304 0.776944 0.550652
0.950896 0.769345 0.559899
1.000000 0.764920 0.572320
0.367041 0.913451 0.530816
0.406165 0.912688 0.534447
0.509056 0.907622 0.544640
0.631006 0.899931 0.560327
0.724575 0.896300 0.555535
0.835996 0.891264 0.553338
0.949462 0.886107 0.551781
1.000000 0.864652 0.566278
0.479347 1.000000 0.543267
0.504631 1.000000 0.547631
0.579248 0.997925 0.562066
0.674159 0.991211 0.582879
0.734554 0.990143 0.567559
0.830106 0.985443 0.567254
0.928588 0.979583 0.565911
1.000000 0.973480 0.565393
0.165347 0.000000 0.718532
0.237278 0.000000 0.718746
0.385382 0.000000 0.714473
0.551446 0.000000 0.707240
0.717922 0.000000 0.698177
0.866575 0.000000 0.678920
0.972290 0.224186 0.650141
1.000000 0.365179 0.640406
0.174441 0.110109 0.709682
0.241520 0.112642 0.710933
0.386175 0.111391 0.707027
0.549035 0.109071 0.699977
0.714015 0.111696 0.691859
0.862455 0.161105 0.674739
0.969329 0.275761 0.649287
1.000000 0.394659 0.641901
0.222934 0.329503 0.704128
0.274083 0.328557 0.702296
0.402136 0.327062 0.697688
0.551781 0.321355 0.687617
0.710903 0.322911 0.681361
0.855833 0.345342 0.667872
0.964141 0.411719 0.652979
1.000000 0.489235 0.652461
0.246921 0.490639 0.689631
0.297337 0.490517 0.686458
0.432898 0.500008 0.682704
0.577722 0.507744 0.680842
0.721736 0.510491 0.677424
0.853208 0.523125 0.666896
0.958556 0.558404 0.663081
1.000000 0.603662 0.669856
0.276036 0.645319 0.678706
0.323583 0.645624 0.677699
0.450813 0.648157 0.674739
0.598444 0.655085 0.671901
0.727291 0.657130 0.670130
0.847288 0.660761 0.665034
0.949248 0.678859 0.670497
1.000000 0.708858 0.687160
0.313420 0.793393 0.666255
0.357855 0.793698 0.666957
0.472816 0.790616 0.665492
0.608576 0.785214 0.663539
0.734646 0.782254 0.665187
0.847471 0.781613 0.668605
0.946227 0.783291 0.675288
1.000000 0.789731 0.687098
0.410895 0.908507 0.646601
0.444434 0.908141 0.649042
0.532830 0.903685 0.653346
0.641596 0.896880 0.659724
0.749325 0.890806 0.669154
0.842100 0.888182 0.668299
0.942718 0.883360 0.668177
1.000000 0.875364 0.681666
0.509941 1.000000 0.645197
0.531731 0.999268 0.648066
0.596918 0.995300 0.657221
0.684230 0.989654 0.671443
0.776852 0.983368 0.690455
0.845640 0.981872 0.683925
0.932799 0.977661 0.683253
1.000000 0.973114 0.682734
0.198245 0.000000 0.845884
0.253635 0.000000 0.845884
0.384771 0.000000 0.842588
0.538445 0.034424 0.838376
0.695613 0.101839 0.831998
0.847959 0.154971 0.824430
0.969940 0.248356 0.793271
1.000000 0.385199 0.757595
0.213901 0.155550 0.840085
0.265812 0.159487 0.840879
0.391058 0.166262 0.838376
0.541375 0.178653 0.834440
0.696132 0.197360 0.828275
0.847074 0.227604 0.821683
0.967773 0.297124 0.791562
1.000000 0.413306 0.758328
0.277379 0.348791 0.837156
0.316136 0.349371 0.836362
0.421332 0.350652 0.832456
0.557183 0.354162 0.826627
0.702632 0.362768 0.820645
0.846708 0.380835 0.815335
0.963409 0.426062 0.790188
1.000000 0.502861 0.765255
0.343572 0.509819 0.825406
0.381292 0.513756 0.822934
0.480995 0.525658 0.820157
0.596033 0.530907 0.818692
0.722896 0.536797 0.815671
0.850645 0.543969 0.811734
0.957733 0.565667 0.790921
1.000000 0.611627 0.776394
0.373419 0.646601 0.818112
0.409155 0.649134 0.816861
0.509483 0.658473 0.813779
0.631525 0.672847 0.810330
0.737697 0.674342 0.807889
0.849180 0.674006 0.804410
0.949004 0.684260 0.789639
1.000000 0.714015 0.787076
0.406226 0.779873 0.808255
0.438849 0.781247 0.808499
0.528435 0.783658 0.806851
0.639490 0.786770 0.804501
0.749752 0.790341 0.802518
0.849729 0.791165 0.801633
0.943114 0.796048 0.795621
1.000000 0.814664 0.805509
0.446967 0.910735 0.801358
0.474739 0.910643 0.802121
0.550958 0.907500 0.800778
0.648249 0.902037 0.797940
0.752163 0.894530 0.794217
0.850980 0.889647 0.794949
0.937469 0.888304 0.798917
1.000000 0.890715 0.809049
0.534844 0.997314 0.772213
0.553704 0.996277 0.773465
0.609949 0.992584 0.776730
0.690181 0.987518 0.783352
0.778531 0.981720 0.793271
0.863981 0.977020 0.807767
0.932280 0.975372 0.807614
1.000000 0.971038 0.807767
0.212833 0.138521 0.975006
0.259770 0.144198 0.974975
0.376837 0.161044 0.973236
0.518395 0.188144 0.970642
0.664637 0.222507 0.966125
0.807706 0.266087 0.961120
0.941680 0.318639 0.955383
1.000000 0.403113 0.910979
0.234562 0.216678 0.971405
0.277592 0.220890 0.971801
0.387610 0.231052 0.970245
0.524529 0.249180 0.967529
0.668055 0.275639 0.963622
0.809445 0.312779 0.959533
0.941588 0.358648 0.954345
1.000000 0.430182 0.910521
0.314336 0.380346 0.969390
0.343908 0.381231 0.968475
0.431312 0.384833 0.965667
0.552026 0.395087 0.962737
0.684413 0.411994 0.959167
0.816678 0.436713 0.955322
0.941680 0.466896 0.952056
1.000000 0.515343 0.912139
0.426154 0.547723 0.959686
0.444404 0.547387 0.958587
0.508782 0.550988 0.957733
0.605646 0.559045 0.957000
0.716030 0.568444 0.955047
0.829892 0.579431 0.952300
0.941222 0.591608 0.949126
1.000000 0.618524 0.914244
0.453285 0.660121 0.956023
0.479927 0.664240 0.955352
0.557244 0.677455 0.953155
0.654108 0.694179 0.951019
0.742519 0.696742 0.949401
0.838804 0.699184 0.946654
0.937865 0.703273 0.943786
1.000000 0.720485 0.916197
0.482826 0.774960 0.950835
0.507469 0.777615 0.950958
0.576593 0.784207 0.949645
0.668086 0.793484 0.947478
0.765469 0.805447 0.944945
0.849088 0.808194 0.943542
0.935576 0.809323 0.941466
1.000000 0.819089 0.922179
0.518730 0.890379 0.947295
0.539361 0.891203 0.947509
0.597986 0.892241 0.946258
0.679591 0.893431 0.943816
0.769375 0.895201 0.940887
0.856199 0.898253 0.938750
0.931243 0.898100 0.937041
1.000000 0.903197 0.928344
0.549706 1.000000 0.942321
0.565667 0.999817 0.942016
0.616602 0.997406 0.941161
0.691768 0.993469 0.939849
0.776028 0.988434 0.938354
0.858824 0.982452 0.936187
0.934203 0.976471 0.935058
0.994873 0.974395 0.939208
