其他预设/【232】美食博客调色预设124款/1.3D LUT预设（视频调色-PR-AE-PS-FCPX-达芬奇用）/0 They'Re Made Of Marzipan.cube
# Created by Adobe Lightroom plugin Export LUT (1.17.0)
# www.johnrellis.com/lightroom/exportlut.htm
# Preset: 0 They'Re Made Of Marzipan
# Color profile: /Library/Application Support/Adobe/Color/Profiles/Recommended/AdobeRGB1998.icc
LUT_3D_SIZE 5
DOMAIN_MIN 0.000000 0.000000 0.000000
DOMAIN_MAX 0.903226 0.903226 0.903226
0.000000 0.000000 0.000000
0.276493 0.000000 0.027161
0.659937 0.000000 0.000000
0.914000 0.000000 0.000000
1.000000 0.000000 0.107210
0.000000 0.256443 0.000000
0.255497 0.250950 0.000000
0.629969 0.262150 0.000000
0.903044 0.245884 0.000000
1.000000 0.245029 0.134524
0.000000 0.592737 0.000000
0.302800 0.583490 0.000000
0.628717 0.582940 0.000000
0.898375 0.551263 0.000000
1.000000 0.507042 0.182986
0.162631 0.842496 0.032959
0.330938 0.841794 0.061219
0.606653 0.831815 0.081086
0.879088 0.815702 0.106538
1.000000 0.748806 0.223850
0.287999 1.000000 0.238346
0.378943 1.000000 0.238560
0.585443 1.000000 0.240635
0.815579 0.992462 0.249119
1.000000 0.975616 0.260624
0.000000 0.025422 0.286046
0.249943 0.000000 0.282200
0.631189 0.000000 0.283330
0.896727 0.000000 0.294194
1.000000 0.141878 0.325811
0.000000 0.240330 0.270634
0.252873 0.244114 0.269139
0.619501 0.251896 0.277531
0.891020 0.254551 0.292576
1.000000 0.285710 0.327672
0.000000 0.581567 0.274449
0.289403 0.573968 0.275364
0.614221 0.569299 0.273869
0.883909 0.546349 0.295293
1.000000 0.520043 0.333715
0.177371 0.835080 0.290990
0.342901 0.832822 0.298070
0.606470 0.823636 0.296757
0.872709 0.809384 0.295689
1.000000 0.751583 0.336797
0.337407 1.000000 0.340124
0.414832 1.000000 0.340246
0.603449 1.000000 0.340032
0.821439 0.990143 0.341131
1.000000 0.974334 0.343908
0.000000 0.000000 0.541833
0.306035 0.000000 0.535760
0.634516 0.000000 0.525353
0.892119 0.000000 0.501183
1.000000 0.344182 0.512139
0.000000 0.268254 0.532647
0.303929 0.259586 0.524041
0.627832 0.243412 0.515526
0.885832 0.305638 0.502403
1.000000 0.452979 0.527428
0.033356 0.573297 0.505730
0.310887 0.569299 0.502007
0.633173 0.573449 0.503136
0.876310 0.579583 0.509087
1.000000 0.598810 0.524956
0.259159 0.832212 0.483101
0.406867 0.827237 0.488960
0.648310 0.816098 0.500450
0.873594 0.806241 0.496803
1.000000 0.779171 0.517266
0.462074 1.000000 0.499733
0.545251 1.000000 0.516472
0.672084 0.994842 0.515251
0.847684 0.985687 0.513848
1.000000 0.973754 0.512230
0.176333 0.000000 0.747280
0.345739 0.000000 0.744076
0.629633 0.000000 0.732815
0.894621 0.093141 0.705562
1.000000 0.369177 0.666865
0.220615 0.283543 0.737118
0.363958 0.282536 0.732692
0.631373 0.284001 0.721950
0.888975 0.321813 0.699886
1.000000 0.468696 0.676387
0.284428 0.568872 0.717433
0.419379 0.574640 0.712734
0.661616 0.591791 0.707332
0.878691 0.601556 0.695399
1.000000 0.659266 0.702327
0.355688 0.828580 0.702083
0.467628 0.825406 0.700679
0.680873 0.814725 0.696101
0.874174 0.811398 0.701167
1.000000 0.816648 0.716609
0.517266 0.999786 0.674617
0.582696 0.996002 0.682551
0.732509 0.986297 0.705440
0.869841 0.980163 0.714656
1.000000 0.972869 0.713008
0.212833 0.138521 0.975006
0.344060 0.155795 0.973724
0.591577 0.204440 0.968597
0.842252 0.278233 0.959655
1.000000 0.403113 0.910979
0.289586 0.337194 0.970367
0.389197 0.341985 0.967803
0.609400 0.361700 0.961456
0.846891 0.409644 0.955291
1.000000 0.491829 0.911955
0.440864 0.604242 0.958709
0.523308 0.619532 0.954833
0.679164 0.632471 0.952575
0.860960 0.642786 0.948699
1.000000 0.671168 0.915740
0.495094 0.805447 0.951263
0.564111 0.810697 0.950103
0.718959 0.822782 0.945403
0.871336 0.832059 0.941619
1.000000 0.840299 0.922789
0.549706 1.000000 0.942321
0.600793 0.998169 0.941405
0.733547 0.991028 0.939055
0.878630 0.980652 0.935393
0.994873 0.974395 0.939208
