其他预设/【232】美食博客调色预设124款/1.3D LUT预设（视频调色-PR-AE-PS-FCPX-达芬奇用）/0 The Cheesecake Factory .cube
# Created by Adobe Lightroom plugin Export LUT (1.17.0)
# www.johnrellis.com/lightroom/exportlut.htm
# Preset: 0 The Cheesecake Factory 
# Color profile: /Library/Application Support/Adobe/Color/Profiles/Recommended/AdobeRGB1998.icc
LUT_3D_SIZE 5
DOMAIN_MIN 0.000000 0.000000 0.000000
DOMAIN_MAX 0.903226 0.903226 0.903226
0.192538 0.183352 0.176150
0.388281 0.170871 0.182132
0.651759 0.216892 0.189487
0.857725 0.290867 0.251133
0.998688 0.368872 0.324224
0.186770 0.359930 0.178103
0.368627 0.358465 0.178134
0.641108 0.363592 0.195865
0.853605 0.384497 0.250492
0.997620 0.426490 0.323766
0.253941 0.587732 0.244694
0.359899 0.581323 0.246281
0.601923 0.599756 0.252079
0.835874 0.596948 0.269047
0.987610 0.583459 0.330846
0.320378 0.791165 0.321843
0.389593 0.787839 0.322301
0.555993 0.776211 0.322759
0.783566 0.795590 0.340826
0.973083 0.782956 0.366583
0.422187 0.951141 0.431312
0.462013 0.949645 0.431708
0.576501 0.943938 0.432013
0.737758 0.941039 0.443275
0.919432 0.943603 0.474434
0.183108 0.207553 0.339483
0.375097 0.201846 0.336797
0.627832 0.277195 0.359380
0.839780 0.368902 0.407538
0.985840 0.442695 0.452308
0.243381 0.355077 0.337346
0.379553 0.359350 0.343664
0.624811 0.388739 0.367102
0.837705 0.430701 0.401617
0.984894 0.483192 0.448890
0.307164 0.586725 0.372808
0.392828 0.581353 0.368017
0.598535 0.591852 0.372869
0.824521 0.600916 0.390295
0.979217 0.608667 0.442908
0.386908 0.787625 0.432471
0.427832 0.785702 0.418158
0.571954 0.774594 0.413581
0.783474 0.792813 0.435309
0.966369 0.788693 0.463691
0.497871 0.945281 0.528740
0.503624 0.946319 0.505455
0.603418 0.942260 0.505119
0.748592 0.938903 0.510735
0.920470 0.942931 0.540459
0.234775 0.254002 0.578210
0.376654 0.265110 0.570397
0.604669 0.286503 0.568750
0.817288 0.391577 0.583429
0.965789 0.529015 0.630030
0.330541 0.414618 0.575891
0.399695 0.393256 0.571221
0.603235 0.389929 0.569085
0.813626 0.475868 0.596307
0.962249 0.584070 0.647181
0.347448 0.595666 0.580682
0.433021 0.594049 0.579675
0.614649 0.599451 0.586664
0.809628 0.640375 0.621576
0.957641 0.683925 0.658747
0.418585 0.793179 0.598322
0.488655 0.787930 0.603540
0.624933 0.777981 0.607050
0.786099 0.789029 0.618799
0.951202 0.803342 0.644221
0.528557 0.944060 0.641138
0.574151 0.941436 0.650782
0.661921 0.937316 0.653285
0.770260 0.932250 0.645655
0.922484 0.940398 0.673091
0.309056 0.340093 0.771786
0.399512 0.345647 0.768582
0.591516 0.350591 0.757961
0.795865 0.387854 0.761532
0.949371 0.540154 0.762081
0.369055 0.446143 0.769772
0.435218 0.445136 0.767025
0.599725 0.438697 0.756893
0.792538 0.464332 0.759457
0.946227 0.589014 0.768002
0.465248 0.642481 0.770260
0.527153 0.650874 0.768826
0.634760 0.631128 0.761227
0.787472 0.626246 0.757931
0.941802 0.705715 0.784573
0.490974 0.793027 0.771115
0.543816 0.792111 0.770382
0.665614 0.791348 0.769955
0.796506 0.792569 0.771481
0.940948 0.831907 0.803616
0.573083 0.945006 0.783108
0.610620 0.942992 0.785458
0.706447 0.938201 0.791318
0.808774 0.933410 0.790097
0.926879 0.939269 0.801114
0.414679 0.445930 0.913664
0.466987 0.450385 0.912627
0.606226 0.461524 0.909361
0.777859 0.469245 0.903777
0.941405 0.531395 0.905180
0.468421 0.525750 0.910979
0.509422 0.527581 0.910094
0.627008 0.531518 0.907225
0.781949 0.529137 0.902068
0.939300 0.575921 0.903899
0.592004 0.703700 0.905180
0.624628 0.706905 0.904326
0.676356 0.683131 0.903593
0.792905 0.667567 0.899413
0.934691 0.687648 0.901762
0.618006 0.820798 0.904479
0.648737 0.824308 0.903960
0.732601 0.834653 0.903044
0.816159 0.821012 0.901457
0.931243 0.820066 0.901946
0.639033 0.937804 0.905211
0.665675 0.937713 0.905150
0.744137 0.937957 0.905394
0.842710 0.939208 0.906584
0.933684 0.940978 0.908202
