其他预设/【232】美食博客调色预设124款/1.3D LUT预设（视频调色-PR-AE-PS-FCPX-达芬奇用）/0 The Cheesecake Factory .cube
# Created by Adobe Lightroom plugin Export LUT (1.17.0)
# www.johnrellis.com/lightroom/exportlut.htm
# Preset: 0 The Cheesecake Factory 
# Color profile: /Library/Application Support/Adobe/Color/Profiles/Recommended/AdobeRGB1998.icc
LUT_3D_SIZE 32
0.192538 0.183352 0.176150
0.192538 0.183352 0.176150
0.192538 0.183352 0.176150
0.224033 0.181674 0.178347
0.267521 0.178134 0.181674
0.309422 0.171786 0.183932
0.349798 0.169467 0.183963
0.388281 0.170871 0.182132
0.425788 0.172671 0.179385
0.463111 0.176059 0.176455
0.500877 0.181613 0.174380
0.539025 0.189517 0.172854
0.576837 0.198184 0.176913
0.614954 0.207462 0.182925
0.651759 0.216892 0.189487
0.686397 0.226413 0.196597
0.718807 0.236271 0.204288
0.748989 0.246586 0.212802
0.777035 0.257145 0.221714
0.805264 0.268406 0.231357
0.832273 0.279728 0.241245
0.857725 0.290867 0.251133
0.881529 0.302129 0.261326
0.903868 0.313298 0.271427
0.924956 0.324041 0.281498
0.944884 0.335027 0.291783
0.963775 0.346044 0.302220
0.981720 0.357397 0.312932
0.998688 0.368872 0.324224
1.000000 0.380774 0.335912
1.000000 0.393164 0.348150
1.000000 0.405982 0.361028
0.192538 0.183352 0.176150
0.192538 0.183352 0.176150
0.192538 0.183352 0.176150
0.225589 0.181582 0.178439
0.268498 0.178134 0.181765
0.309850 0.178408 0.182803
0.350042 0.179049 0.182284
0.388220 0.180087 0.180453
0.425635 0.181582 0.177829
0.462928 0.184512 0.174990
0.500542 0.189761 0.172946
0.538506 0.196780 0.171847
0.576135 0.205295 0.176791
0.614191 0.213840 0.182986
0.651057 0.222660 0.189364
0.685603 0.231968 0.196689
0.718013 0.241398 0.204410
0.748196 0.251316 0.212741
0.776303 0.261387 0.221561
0.804471 0.272099 0.231174
0.831418 0.282902 0.240787
0.856840 0.293675 0.250706
0.880674 0.304662 0.260807
0.903075 0.315373 0.270939
0.924224 0.326116 0.281041
0.944213 0.336889 0.291264
0.963195 0.347631 0.301610
0.981170 0.358953 0.312657
0.998230 0.370245 0.323735
1.000000 0.381994 0.335424
1.000000 0.394141 0.347539
1.000000 0.406867 0.360449
0.192538 0.183352 0.176150
0.192538 0.183352 0.176150
0.192508 0.184237 0.176333
0.227695 0.188235 0.177554
0.269749 0.190555 0.179599
0.310796 0.191440 0.180484
0.350408 0.191684 0.179995
0.388403 0.192111 0.178317
0.425544 0.193118 0.175723
0.462684 0.195193 0.172915
0.500237 0.199924 0.170993
0.538018 0.206699 0.171176
0.575525 0.214389 0.176822
0.613581 0.222477 0.182986
0.650355 0.230747 0.189517
0.685084 0.239078 0.196689
0.717433 0.248234 0.204410
0.747646 0.257450 0.212589
0.775784 0.266941 0.221622
0.803952 0.277256 0.230991
0.830869 0.287510 0.240726
0.856291 0.297887 0.250492
0.880156 0.308415 0.260563
0.902617 0.318822 0.270665
0.923766 0.329290 0.280766
0.943816 0.339635 0.290959
0.962799 0.350378 0.301457
0.980865 0.361334 0.312322
0.997955 0.372412 0.323430
1.000000 0.384070 0.335149
1.000000 0.396002 0.347295
1.000000 0.408484 0.360143
0.193149 0.216251 0.178775
0.193210 0.218021 0.178958
0.193759 0.220035 0.177768
0.226139 0.220310 0.176822
0.270115 0.221042 0.176120
0.310979 0.219608 0.176669
0.350652 0.217838 0.175753
0.388769 0.216587 0.173678
0.425879 0.216007 0.171023
0.462867 0.217166 0.168215
0.500175 0.220706 0.166445
0.537377 0.226444 0.170504
0.574640 0.233127 0.176730
0.612604 0.239963 0.183108
0.649470 0.246738 0.189364
0.684108 0.254337 0.196780
0.716548 0.262272 0.204654
0.746761 0.270359 0.212680
0.775143 0.278874 0.221592
0.803067 0.288090 0.230930
0.829892 0.297398 0.240513
0.855283 0.306920 0.250340
0.879210 0.316777 0.260288
0.901793 0.326482 0.270420
0.923156 0.336309 0.280491
0.943328 0.346288 0.290776
0.962493 0.356420 0.301213
0.980652 0.367010 0.312108
0.997772 0.377691 0.323278
1.000000 0.388769 0.334936
1.000000 0.400336 0.347051
1.000000 0.412329 0.359747
0.193576 0.254093 0.182071
0.193454 0.255222 0.182162
0.196567 0.256382 0.179080
0.224369 0.255497 0.178653
0.263828 0.256229 0.176455
0.309667 0.257359 0.173007
0.349187 0.253666 0.171359
0.386938 0.250767 0.169375
0.424201 0.248783 0.166567
0.461311 0.248539 0.163577
0.498360 0.250431 0.165316
0.535607 0.254276 0.170840
0.573297 0.258793 0.176822
0.611231 0.264195 0.183047
0.648096 0.269871 0.189487
0.682856 0.276005 0.196658
0.715419 0.282353 0.204623
0.745693 0.289250 0.212924
0.774472 0.296422 0.221836
0.802335 0.304326 0.231022
0.829099 0.312383 0.240482
0.854459 0.320958 0.250156
0.878386 0.329534 0.260105
0.901061 0.338323 0.270085
0.922454 0.347265 0.280217
0.942748 0.356359 0.290471
0.961975 0.365850 0.300969
0.980163 0.375555 0.311803
0.997345 0.385657 0.322942
1.000000 0.396185 0.334569
1.000000 0.406989 0.346593
1.000000 0.418494 0.359319
0.191440 0.290806 0.184115
0.191684 0.291600 0.183078
0.198276 0.291905 0.178775
0.223636 0.290959 0.178225
0.258518 0.290410 0.176852
0.300450 0.291569 0.173648
0.346715 0.293431 0.168856
0.385748 0.289647 0.163912
0.422034 0.285893 0.161715
0.458350 0.284306 0.163851
0.495277 0.285008 0.168521
0.532616 0.287083 0.174014
0.570459 0.290105 0.179263
0.608972 0.293828 0.184573
0.646448 0.297826 0.190158
0.681605 0.302342 0.196841
0.714260 0.307256 0.204715
0.744594 0.312657 0.212924
0.773709 0.318517 0.221988
0.801633 0.324804 0.231083
0.828397 0.331731 0.240543
0.853880 0.338750 0.250370
0.882506 0.348913 0.262547
0.904875 0.356603 0.272709
0.925963 0.364508 0.282872
0.945861 0.372564 0.293126
0.964691 0.381018 0.303532
0.982452 0.389776 0.314397
0.999268 0.398871 0.325444
1.000000 0.408545 0.336980
1.000000 0.418647 0.349065
1.000000 0.429206 0.361639
0.187411 0.327031 0.182589
0.188876 0.327398 0.177066
0.200778 0.326970 0.176791
0.224552 0.325841 0.176333
0.256077 0.324285 0.175509
0.293980 0.325109 0.172671
0.336400 0.326543 0.170474
0.382116 0.329107 0.168368
0.421027 0.326177 0.165347
0.456825 0.323033 0.168185
0.492958 0.321752 0.172488
0.530663 0.322606 0.177127
0.568688 0.324590 0.182376
0.607416 0.327306 0.187320
0.644923 0.330297 0.193088
0.680079 0.333440 0.199588
0.713100 0.336767 0.206455
0.744503 0.340337 0.213962
0.774136 0.344457 0.222141
0.802182 0.349401 0.231510
0.829282 0.355108 0.241154
0.855192 0.360998 0.251133
0.879637 0.367468 0.261204
0.902678 0.374060 0.271519
0.924315 0.381079 0.281804
0.944610 0.388067 0.292210
0.963653 0.395575 0.302831
0.981567 0.403449 0.313634
0.998505 0.411627 0.324743
1.000000 0.420325 0.336278
1.000000 0.429419 0.348119
1.000000 0.439185 0.360723
0.186770 0.359930 0.178103
0.194247 0.359625 0.177432
0.204990 0.359228 0.177584
0.226474 0.358129 0.177798
0.255406 0.356451 0.178622
0.288731 0.355230 0.179080
0.327153 0.356695 0.178714
0.368627 0.358465 0.178134
0.414343 0.362615 0.177462
0.453468 0.361334 0.174685
0.490486 0.359472 0.177066
0.527062 0.358465 0.180667
0.564630 0.359075 0.185183
0.603418 0.361273 0.190188
0.641108 0.363592 0.195865
0.676570 0.365698 0.202152
0.710079 0.368078 0.209049
0.741878 0.370581 0.216556
0.771481 0.373327 0.224399
0.799924 0.376623 0.232914
0.827359 0.380377 0.241672
0.853605 0.384497 0.250492
0.878111 0.389563 0.260472
0.901244 0.394873 0.270787
0.923003 0.400458 0.280919
0.943359 0.406409 0.291508
0.962524 0.412696 0.301976
0.980591 0.419287 0.312688
0.997620 0.426490 0.323766
1.000000 0.434058 0.335241
1.000000 0.442329 0.347234
1.000000 0.451148 0.359838
0.194675 0.391150 0.184970
0.201846 0.390845 0.184939
0.211521 0.390387 0.185214
0.230655 0.389349 0.185733
0.256840 0.387915 0.186221
0.286931 0.385992 0.187106
0.321172 0.386175 0.187411
0.359442 0.388251 0.187015
0.400488 0.390570 0.186801
0.446876 0.396551 0.186496
0.486458 0.396918 0.185275
0.524987 0.396368 0.185855
0.562066 0.395972 0.189670
0.599603 0.396307 0.193240
0.637140 0.397894 0.198825
0.672999 0.399451 0.205051
0.707210 0.401068 0.211795
0.738979 0.402564 0.219120
0.768582 0.403967 0.227085
0.797238 0.405951 0.235294
0.824826 0.408606 0.243717
0.851194 0.411505 0.252415
0.876158 0.414710 0.261540
0.899626 0.418433 0.270756
0.921721 0.422339 0.280217
0.942229 0.426917 0.290593
0.961486 0.432044 0.301091
0.979675 0.437507 0.311772
0.996826 0.443458 0.322759
1.000000 0.450050 0.334295
1.000000 0.457191 0.346288
1.000000 0.464942 0.358801
0.204074 0.422309 0.193515
0.210575 0.422004 0.193606
0.218875 0.421607 0.193759
0.236149 0.420722 0.194064
0.259953 0.419471 0.194797
0.288029 0.417670 0.195499
0.318578 0.415534 0.196628
0.353918 0.417487 0.196750
0.392096 0.420233 0.196872
0.432654 0.423224 0.197024
0.479805 0.430793 0.196811
0.519982 0.432563 0.196262
0.559838 0.433631 0.195468
0.597467 0.433692 0.198764
0.634485 0.433967 0.202579
0.669795 0.433936 0.207614
0.704097 0.434760 0.214206
0.735958 0.435340 0.221775
0.765743 0.435859 0.229587
0.794491 0.436774 0.237736
0.822232 0.438239 0.246067
0.848600 0.439979 0.254673
0.873594 0.442023 0.263401
0.897093 0.444434 0.272557
0.919310 0.447089 0.281712
0.940246 0.450111 0.291173
0.959960 0.453498 0.300664
0.978515 0.457435 0.310521
0.995850 0.462257 0.321630
1.000000 0.467720 0.333104
1.000000 0.473823 0.345129
1.000000 0.480507 0.357702
0.214511 0.453742 0.203464
0.220188 0.453529 0.203677
0.227848 0.453193 0.203708
0.243229 0.452430 0.204013
0.265049 0.451209 0.204562
0.290929 0.449714 0.205264
0.319829 0.447791 0.206271
0.350927 0.446937 0.207034
0.386786 0.449836 0.207309
0.425147 0.453162 0.207736
0.465522 0.456916 0.208042
0.512291 0.464881 0.207797
0.554314 0.469154 0.207919
0.595483 0.471626 0.205936
0.633173 0.471931 0.208255
0.667964 0.471046 0.212802
0.700801 0.469429 0.217533
0.732082 0.468452 0.224002
0.762142 0.468086 0.231846
0.791165 0.468055 0.239719
0.819059 0.468605 0.248173
0.845670 0.469306 0.256596
0.870878 0.470436 0.265446
0.894652 0.471748 0.274418
0.917021 0.473457 0.283604
0.938109 0.475349 0.292973
0.957977 0.477699 0.302464
0.976745 0.480537 0.312291
0.994415 0.483772 0.322393
1.000000 0.487587 0.332799
1.000000 0.491951 0.343877
1.000000 0.497536 0.356420
0.225132 0.485939 0.213809
0.230137 0.485756 0.214023
0.237247 0.485359 0.214206
0.250950 0.484688 0.214420
0.271031 0.483619 0.214939
0.295109 0.482216 0.215427
0.322179 0.480507 0.216281
0.351232 0.478523 0.217136
0.383856 0.479469 0.217807
0.420020 0.483070 0.217960
0.458503 0.487098 0.218479
0.499519 0.492012 0.218967
0.547936 0.502281 0.220249
0.594537 0.510918 0.220340
0.634333 0.512749 0.218631
0.670619 0.511864 0.219883
0.703243 0.509514 0.224582
0.733700 0.506645 0.229740
0.762417 0.503655 0.235447
0.791287 0.502556 0.243259
0.819120 0.502007 0.251530
0.845579 0.501732 0.260166
0.870603 0.501549 0.268864
0.894224 0.501793 0.277806
0.916533 0.502281 0.286992
0.937530 0.503197 0.296330
0.957397 0.504417 0.305821
0.976074 0.506065 0.315526
0.993683 0.508263 0.325536
1.000000 0.510948 0.336004
1.000000 0.514275 0.346960
1.000000 0.518151 0.358526
0.235477 0.519982 0.224430
0.240146 0.519799 0.224613
0.246311 0.519432 0.224704
0.259037 0.518700 0.224826
0.277623 0.517571 0.225132
0.300206 0.516106 0.225589
0.325872 0.514397 0.226169
0.353582 0.512444 0.226871
0.382849 0.510246 0.227604
0.417395 0.514153 0.228244
0.454749 0.519036 0.229038
0.494453 0.524407 0.229862
0.536217 0.530327 0.230625
0.580102 0.536584 0.231266
0.628229 0.547204 0.231907
0.665858 0.547845 0.230686
0.700710 0.546227 0.230472
0.731136 0.542657 0.235294
0.759884 0.538964 0.240787
0.787869 0.535729 0.246403
0.815091 0.533196 0.252903
0.841794 0.532067 0.261479
0.867063 0.531212 0.270237
0.890959 0.530541 0.279301
0.913512 0.530144 0.288426
0.934783 0.530053 0.297673
0.954864 0.530388 0.307225
0.973785 0.531151 0.317082
0.991638 0.532341 0.327092
1.000000 0.534142 0.337682
1.000000 0.536461 0.348577
1.000000 0.539330 0.360204
0.244816 0.553246 0.234592
0.249210 0.553002 0.234623
0.254704 0.552728 0.234775
0.266575 0.552056 0.234928
0.283879 0.550927 0.235080
0.305303 0.549706 0.235569
0.329808 0.548363 0.236088
0.356664 0.546777 0.236667
0.385046 0.544915 0.237339
0.415595 0.544671 0.238071
0.451240 0.549523 0.238773
0.489113 0.554833 0.239536
0.528801 0.560388 0.240421
0.570153 0.566155 0.241215
0.613001 0.571801 0.242222
0.659846 0.581689 0.243870
0.695064 0.580926 0.242893
0.727932 0.578363 0.242466
0.757259 0.574212 0.246433
0.785306 0.570397 0.251835
0.812375 0.566796 0.257755
0.838285 0.563531 0.263828
0.863432 0.561273 0.271641
0.887663 0.559869 0.280613
0.910460 0.558679 0.289799
0.932036 0.557763 0.299260
0.952361 0.557214 0.308782
0.971527 0.557092 0.318608
0.989563 0.557427 0.328832
1.000000 0.558312 0.339422
1.000000 0.559747 0.350561
1.000000 0.561669 0.362219
0.253941 0.587732 0.244694
0.257725 0.587579 0.244877
0.262943 0.587274 0.244816
0.274144 0.586694 0.244938
0.290440 0.585718 0.245182
0.310674 0.584558 0.245426
0.334203 0.583001 0.245823
0.359899 0.581323 0.246281
0.387366 0.579461 0.246860
0.416144 0.577478 0.247440
0.448371 0.579278 0.248173
0.484321 0.584100 0.248997
0.521996 0.589227 0.250004
0.561303 0.594476 0.251072
0.601923 0.599756 0.252079
0.643549 0.604852 0.253300
0.689143 0.614160 0.256168
0.722164 0.612238 0.255344
0.753475 0.609064 0.255131
0.782742 0.605127 0.257664
0.809842 0.600946 0.263218
0.835874 0.596948 0.269047
0.860624 0.593194 0.275303
0.884215 0.589593 0.281987
0.907286 0.587579 0.291020
0.929137 0.585992 0.300481
0.949798 0.584680 0.310307
0.969268 0.583886 0.320470
0.987610 0.583459 0.330846
1.000000 0.583581 0.341680
1.000000 0.584161 0.353063
1.000000 0.585229 0.364965
0.262669 0.620813 0.255070
0.266606 0.620630 0.255161
0.271244 0.620386 0.255100
0.281682 0.619837 0.255253
0.296941 0.618891 0.255406
0.316289 0.617762 0.255589
0.338506 0.616388 0.255833
0.363226 0.614832 0.256199
0.389868 0.612970 0.256718
0.417609 0.610925 0.257115
0.446357 0.608637 0.257572
0.480171 0.612390 0.258610
0.515801 0.616846 0.259586
0.553063 0.621424 0.260685
0.591455 0.626123 0.261936
0.631037 0.630793 0.263127
0.671443 0.635401 0.264561
0.716030 0.644404 0.267796
0.747982 0.642206 0.268040
0.778561 0.639124 0.268132
0.807553 0.635309 0.269139
0.833646 0.630762 0.274968
0.858549 0.626398 0.281102
0.882261 0.622156 0.287449
0.904814 0.618189 0.294316
0.926482 0.614862 0.302159
0.947387 0.612879 0.311986
0.967102 0.611322 0.322271
0.985626 0.610163 0.333043
1.000000 0.609369 0.343938
1.000000 0.609064 0.355444
1.000000 0.609247 0.367437
0.271733 0.651545 0.265507
0.274998 0.651392 0.265354
0.279637 0.651087 0.265537
0.289250 0.650568 0.265537
0.303532 0.649714 0.265629
0.321569 0.648615 0.265843
0.342748 0.647272 0.266026
0.366247 0.645686 0.266209
0.391760 0.643885 0.266514
0.418616 0.641871 0.266880
0.446448 0.639673 0.267369
0.476112 0.638941 0.267857
0.510094 0.643000 0.269078
0.545464 0.647150 0.270268
0.582116 0.651423 0.271611
0.619593 0.655695 0.272984
0.658137 0.659937 0.274662
0.697566 0.664240 0.276310
0.741787 0.673487 0.279301
0.773129 0.671595 0.281071
0.802640 0.668208 0.281315
0.830716 0.664149 0.281804
0.856016 0.659266 0.286900
0.879820 0.654536 0.293278
0.902525 0.649928 0.299901
0.924163 0.645655 0.307073
0.944762 0.641688 0.314488
0.964569 0.638911 0.323796
0.983337 0.636988 0.334752
1.000000 0.635523 0.346014
1.000000 0.634394 0.357580
1.000000 0.633722 0.369909
0.280705 0.680751 0.275975
0.284001 0.680629 0.275975
0.289311 0.683467 0.277317
0.298344 0.682918 0.277256
0.311742 0.682094 0.277440
0.328618 0.680964 0.277470
0.348669 0.679591 0.277623
0.370977 0.677974 0.277653
0.395544 0.676143 0.277836
0.421393 0.674159 0.278172
0.448341 0.671992 0.278325
0.476051 0.669581 0.278721
0.506828 0.670619 0.279576
0.540673 0.674342 0.280858
0.575647 0.678187 0.282261
0.611536 0.682063 0.283665
0.648463 0.685969 0.285466
0.686091 0.689937 0.287266
0.724422 0.693874 0.289158
0.768338 0.703426 0.292210
0.798611 0.701289 0.295415
0.826841 0.697383 0.295811
0.853605 0.692836 0.296544
0.878202 0.687678 0.300175
0.900755 0.682338 0.306706
0.922301 0.677302 0.313664
0.942809 0.672541 0.320836
0.962402 0.668238 0.328466
0.981018 0.664271 0.336461
0.998657 0.661982 0.347753
1.000000 0.660060 0.359686
1.000000 0.658564 0.372168
0.290440 0.709743 0.286992
0.293400 0.710018 0.287175
0.297490 0.710170 0.287388
0.305943 0.710109 0.287572
0.318425 0.709621 0.287755
0.334447 0.708797 0.287999
0.353368 0.707607 0.287938
0.374548 0.706142 0.288121
0.397986 0.704555 0.288182
0.422705 0.702724 0.288457
0.448798 0.700710 0.288548
0.475654 0.698512 0.288731
0.503166 0.696071 0.289097
0.535149 0.699001 0.290196
0.568627 0.702541 0.291661
0.603052 0.706111 0.293248
0.638392 0.709743 0.295018
0.674434 0.713405 0.297002
0.711269 0.717159 0.299260
0.748653 0.720912 0.301457
0.792233 0.730709 0.304570
0.821622 0.728481 0.309483
0.848692 0.724300 0.310246
0.874327 0.719509 0.311223
0.898344 0.714076 0.313268
0.920012 0.708522 0.320043
0.940642 0.703182 0.327214
0.960296 0.698299 0.334874
0.978973 0.693751 0.342992
0.996551 0.689570 0.351720
1.000000 0.686091 0.361700
1.000000 0.683833 0.374426
0.299657 0.737148 0.297917
0.302525 0.737392 0.298100
0.306310 0.737575 0.298283
0.314092 0.737484 0.298497
0.325780 0.737057 0.298589
0.340856 0.736294 0.298711
0.358618 0.735195 0.298802
0.378790 0.733913 0.298833
0.400977 0.732448 0.298833
0.424842 0.730770 0.298985
0.449897 0.729000 0.299229
0.475990 0.726986 0.299321
0.502678 0.724727 0.299382
0.530877 0.723659 0.299992
0.563012 0.726864 0.301518
0.596063 0.730129 0.303197
0.629969 0.733486 0.304906
0.664607 0.736843 0.307073
0.699916 0.740261 0.309300
0.735866 0.743771 0.311772
0.772244 0.747250 0.314611
0.815366 0.757351 0.317632
0.843778 0.754910 0.324407
0.869627 0.750423 0.325505
0.894133 0.745266 0.326757
0.917388 0.739681 0.327977
0.938354 0.733822 0.334051
0.958068 0.728359 0.341711
0.976776 0.723171 0.349828
0.994415 0.718379 0.358434
1.000000 0.713893 0.367651
1.000000 0.709682 0.377569
0.309392 0.763912 0.309239
0.311894 0.764126 0.309422
0.315496 0.764279 0.309606
0.322789 0.764218 0.309728
0.333776 0.763821 0.309880
0.347814 0.763119 0.310033
0.364538 0.762142 0.310002
0.383551 0.760983 0.310033
0.404730 0.759609 0.310063
0.427527 0.758114 0.310124
0.451575 0.756466 0.310124
0.476783 0.754574 0.310338
0.502678 0.752529 0.310338
0.529168 0.750271 0.310521
0.558495 0.750973 0.311528
0.590326 0.753994 0.313329
0.623011 0.757137 0.315465
0.656458 0.760372 0.317601
0.690547 0.763668 0.320104
0.725246 0.766964 0.323003
0.760342 0.770352 0.326024
0.795865 0.773678 0.329320
0.836820 0.782315 0.333043
0.865904 0.781338 0.341222
0.890654 0.776547 0.342657
0.914092 0.771206 0.344121
0.936309 0.765377 0.345800
0.956725 0.759365 0.350622
0.975433 0.753597 0.358679
0.993011 0.748165 0.367315
1.000000 0.742977 0.376684
1.000000 0.738064 0.386633
0.320378 0.791165 0.321843
0.322759 0.791226 0.321965
0.325872 0.791165 0.322026
0.332494 0.790951 0.322057
0.342687 0.790494 0.322148
0.355749 0.789792 0.322240
0.371527 0.788907 0.322271
0.389593 0.787839 0.322301
0.409705 0.786679 0.322271
0.431464 0.785367 0.322393
0.454627 0.783932 0.322484
0.478981 0.782284 0.322606
0.504051 0.780453 0.322667
0.529778 0.778439 0.322728
0.555993 0.776211 0.322759
0.586328 0.778408 0.324468
0.617700 0.781155 0.326665
0.649836 0.783963 0.328954
0.682582 0.786893 0.331518
0.715846 0.789792 0.334325
0.749569 0.792721 0.337499
0.783566 0.795590 0.340826
0.817807 0.798428 0.344549
0.855833 0.804959 0.348669
0.886015 0.805753 0.358038
0.909606 0.800717 0.359625
0.932006 0.795102 0.361486
0.953277 0.789181 0.363348
0.973083 0.782956 0.366583
0.990692 0.776913 0.375189
1.000000 0.771115 0.384466
1.000000 0.765499 0.394385
0.331518 0.816281 0.334386
0.333684 0.816312 0.334569
0.336614 0.816312 0.334600
0.342840 0.816098 0.334722
0.352178 0.815702 0.334783
0.364385 0.815061 0.334752
0.379095 0.814298 0.334722
0.395972 0.813321 0.334722
0.415106 0.812222 0.334813
0.435767 0.811032 0.334844
0.457954 0.809689 0.334966
0.481239 0.808225 0.335058
0.505394 0.806577 0.335088
0.530449 0.804776 0.335210
0.555901 0.802823 0.335271
0.582696 0.801846 0.335698
0.613001 0.804257 0.337896
0.643977 0.806790 0.340368
0.675532 0.809384 0.343145
0.707607 0.811978 0.346136
0.740078 0.814633 0.349340
0.772854 0.817258 0.352941
0.805814 0.819821 0.356725
0.838956 0.822324 0.360723
0.873625 0.826322 0.364538
0.904814 0.828855 0.374640
0.927428 0.823667 0.377234
0.948852 0.817990 0.379309
0.969055 0.811856 0.381567
0.988006 0.805325 0.384009
1.000000 0.798917 0.392279
1.000000 0.792721 0.402350
0.344305 0.841550 0.348608
0.346319 0.841611 0.348760
0.349004 0.841581 0.348791
0.354681 0.841337 0.348821
0.363317 0.840940 0.348791
0.374487 0.840330 0.348730
0.388220 0.839506 0.348669
0.403998 0.838590 0.348638
0.421942 0.837491 0.348486
0.441505 0.836301 0.348486
0.462531 0.834989 0.348516
0.484688 0.833585 0.348516
0.507897 0.832059 0.348516
0.531914 0.830350 0.348516
0.556481 0.828489 0.348486
0.581628 0.826535 0.348425
0.609216 0.826780 0.349767
0.638972 0.828885 0.352209
0.669306 0.831113 0.354894
0.700160 0.833463 0.357855
0.731441 0.835813 0.361334
0.763058 0.838132 0.364904
0.794797 0.840391 0.368811
0.826658 0.842496 0.372839
0.858427 0.844511 0.377111
0.891081 0.847349 0.381598
0.923003 0.851316 0.391943
0.944610 0.846036 0.396216
0.964904 0.840116 0.398627
0.983917 0.833646 0.401221
1.000000 0.826810 0.404089
1.000000 0.819883 0.410986
0.357031 0.864775 0.362615
0.358923 0.864866 0.362768
0.361456 0.864836 0.362799
0.366644 0.864652 0.362860
0.374640 0.864256 0.362829
0.385046 0.863737 0.362768
0.397772 0.863066 0.362768
0.412665 0.862242 0.362737
0.429480 0.861326 0.362768
0.448066 0.860319 0.362829
0.467933 0.859220 0.362799
0.489204 0.858030 0.362921
0.511467 0.856687 0.363043
0.534539 0.855222 0.363012
0.558343 0.853635 0.363043
0.582635 0.851926 0.363043
0.607538 0.850126 0.363165
0.635859 0.851591 0.365454
0.665034 0.853483 0.368261
0.694759 0.855497 0.371435
0.724880 0.857481 0.374823
0.755306 0.859464 0.378485
0.785855 0.861418 0.382330
0.816526 0.863249 0.386389
0.847196 0.864958 0.390753
0.877806 0.866575 0.395270
0.908293 0.868101 0.400031
0.940551 0.873167 0.410559
0.960967 0.867674 0.416938
0.980072 0.861448 0.419837
0.997742 0.854704 0.423102
1.000000 0.847440 0.426551
0.371252 0.887602 0.377966
0.372992 0.887633 0.378058
0.375280 0.887572 0.378119
0.380011 0.887358 0.378149
0.387213 0.886992 0.378119
0.396826 0.886503 0.378027
0.408545 0.885863 0.377905
0.422461 0.885161 0.377905
0.438209 0.884337 0.377874
0.455512 0.883482 0.377874
0.474525 0.882475 0.377996
0.494697 0.881437 0.378180
0.515923 0.880308 0.378271
0.538140 0.879026 0.378393
0.560967 0.877684 0.378515
0.584466 0.876188 0.378576
0.608515 0.874601 0.378729
0.633722 0.873686 0.379400
0.661799 0.875273 0.382238
0.690394 0.876921 0.385321
0.719356 0.878599 0.388800
0.748623 0.880278 0.392493
0.778103 0.881865 0.396368
0.807614 0.883421 0.400519
0.837156 0.884855 0.404822
0.866636 0.886168 0.409369
0.896025 0.887388 0.414191
0.925231 0.888518 0.419257
0.956786 0.893675 0.429786
0.975891 0.887877 0.438300
0.993622 0.881315 0.441718
1.000000 0.874113 0.445594
0.386267 0.909331 0.393957
0.387884 0.909331 0.394110
0.389960 0.909270 0.394110
0.394232 0.909117 0.394110
0.400977 0.908812 0.394079
0.409918 0.908476 0.394141
0.420966 0.908049 0.394293
0.433967 0.907622 0.394507
0.448951 0.907073 0.394812
0.465431 0.906523 0.395148
0.483467 0.905852 0.395544
0.502708 0.905119 0.395941
0.523033 0.904295 0.396277
0.544244 0.903349 0.396643
0.566278 0.902220 0.396948
0.588861 0.900969 0.397131
0.612055 0.899626 0.397406
0.635706 0.898222 0.397681
0.661463 0.898314 0.399512
0.688869 0.899626 0.402655
0.716670 0.900908 0.406134
0.744778 0.902220 0.409857
0.773068 0.903441 0.413733
0.801389 0.904601 0.417823
0.829740 0.905699 0.422309
0.858061 0.906676 0.426825
0.886259 0.907561 0.431617
0.914305 0.908354 0.436713
0.942107 0.909056 0.442115
0.972747 0.914031 0.452644
0.990082 0.907744 0.463386
1.000000 0.900542 0.467384
0.404303 0.931304 0.412757
0.405737 0.931273 0.412818
0.407568 0.931212 0.412909
0.411414 0.931029 0.412848
0.417578 0.930755 0.412848
0.425696 0.930419 0.412818
0.435737 0.929992 0.412848
0.447578 0.929503 0.412940
0.461311 0.928954 0.413092
0.476722 0.928374 0.413367
0.493355 0.927703 0.413581
0.511406 0.926970 0.413886
0.530449 0.926177 0.414252
0.550561 0.925231 0.414557
0.571466 0.924224 0.414862
