其他预设/【232】美食博客调色预设124款/1.3D LUT预设（视频调色-PR-AE-PS-FCPX-达芬奇用）/Food Art #54.cube
# Created by Adobe Lightroom plugin Export LUT (1.17.0)
# www.johnrellis.com/lightroom/exportlut.htm
# Preset: Food Art #54
# Color profile: /Library/Application Support/Adobe/Color/Profiles/Recommended/AdobeRGB1998.icc
LUT_3D_SIZE 5
DOMAIN_MIN 0.000000 0.000000 0.000000
DOMAIN_MAX 0.903226 0.903226 0.903226
0.116976 0.130434 0.108705
0.272740 0.163272 0.131533
0.465858 0.219333 0.176455
0.672786 0.287388 0.238621
0.865507 0.370855 0.319005
0.162203 0.303502 0.148379
0.289433 0.311864 0.164553
0.472023 0.319951 0.201358
0.675654 0.358831 0.254368
0.868925 0.424933 0.334478
0.257725 0.498329 0.230259
0.329747 0.501640 0.238224
0.509789 0.519799 0.266636
0.692073 0.525200 0.302861
0.868772 0.558923 0.377173
0.361395 0.691615 0.316686
0.410132 0.693294 0.322606
0.544030 0.697292 0.342046
0.712062 0.703761 0.376593
0.874937 0.721614 0.455512
0.521416 0.861692 0.458381
0.550286 0.861662 0.464057
0.635218 0.859861 0.480293
0.761105 0.864683 0.520500
0.890043 0.873350 0.576471
0.129122 0.139742 0.235142
0.270573 0.179629 0.248417
0.460914 0.252323 0.270909
0.662715 0.310277 0.309239
0.857603 0.383337 0.367529
0.183139 0.299779 0.256779
0.290684 0.310399 0.264866
0.469032 0.335210 0.285588
0.667048 0.370947 0.318853
0.859037 0.431800 0.378424
0.270207 0.495247 0.296056
0.340948 0.498360 0.305638
0.502129 0.511131 0.323705
0.683406 0.523613 0.352544
0.864439 0.563684 0.417884
0.371160 0.689021 0.363378
0.420844 0.690608 0.371283
0.548394 0.694697 0.387549
0.710658 0.701564 0.417334
0.872557 0.722927 0.487984
0.531640 0.859709 0.489815
0.559075 0.859739 0.494606
0.645502 0.861509 0.513756
0.765347 0.865354 0.547814
0.890929 0.874113 0.597955
0.165194 0.171786 0.396643
0.269047 0.201175 0.402594
0.462562 0.259831 0.418708
0.663630 0.319341 0.441169
0.855283 0.399145 0.481758
0.222690 0.303471 0.409064
0.300816 0.314763 0.413092
0.474281 0.342229 0.428260
0.667109 0.381415 0.448798
0.856291 0.448707 0.491676
0.287816 0.493263 0.437263
0.351873 0.497230 0.441047
0.505608 0.510277 0.453895
0.682002 0.531334 0.475746
0.860288 0.573907 0.520134
0.381170 0.683864 0.476265
0.428992 0.683497 0.480385
0.558312 0.688167 0.498665
0.710018 0.698634 0.520928
0.868894 0.724361 0.568658
0.535424 0.855406 0.562219
0.566705 0.855924 0.569085
0.651362 0.858061 0.585107
0.765866 0.862364 0.609430
0.889006 0.871855 0.647791
0.205325 0.208103 0.575586
0.288151 0.226993 0.578759
0.466835 0.272831 0.589868
0.663630 0.326024 0.604089
0.854368 0.406165 0.628199
0.248508 0.314763 0.582208
0.315496 0.322728 0.584924
0.477607 0.347570 0.593713
0.666529 0.384588 0.606500
0.853483 0.450629 0.631037
0.309911 0.489754 0.598077
0.365972 0.494392 0.600122
0.507958 0.507652 0.606622
0.679469 0.528496 0.617945
0.857420 0.568170 0.644160
0.399329 0.678645 0.626123
0.443153 0.679255 0.626825
0.560204 0.684016 0.632563
0.707912 0.694270 0.644648
0.868009 0.717067 0.670314
0.544518 0.852445 0.676081
0.571740 0.852750 0.678737
0.650172 0.855589 0.686763
0.760555 0.861387 0.698390
0.888334 0.871183 0.725277
0.237522 0.242039 0.783291
0.310643 0.255314 0.784085
0.478676 0.293156 0.787259
0.669306 0.347875 0.792691
0.852537 0.420844 0.800656
0.264347 0.326024 0.784512
0.329076 0.333593 0.785306
0.487617 0.358648 0.788357
0.673213 0.400671 0.793454
0.853239 0.462928 0.801511
0.322789 0.494270 0.789761
0.370153 0.495033 0.789944
0.511589 0.508049 0.792294
0.685817 0.533776 0.797208
0.857328 0.573114 0.806394
0.437598 0.685573 0.802090
0.471107 0.686366 0.802243
0.566247 0.687068 0.803220
0.705562 0.690974 0.806851
0.867399 0.715846 0.818692
0.567254 0.855070 0.822904
0.588464 0.855375 0.823453
0.656397 0.857298 0.826139
0.759243 0.861448 0.831693
0.887266 0.871611 0.844144
