其他预设/【232】美食博客调色预设124款/1.3D LUT预设（视频调色-PR-AE-PS-FCPX-达芬奇用）/Food Art #71.cube
# Created by Adobe Lightroom plugin Export LUT (1.17.0)
# www.johnrellis.com/lightroom/exportlut.htm
# Preset: Food Art #71
# Color profile: /Library/Application Support/Adobe/Color/Profiles/Recommended/AdobeRGB1998.icc
LUT_3D_SIZE 8
DOMAIN_MIN 0.000000 0.000000 0.000000
DOMAIN_MAX 0.903226 0.903226 0.903226
0.000000 0.000000 0.000000
0.138857 0.000000 0.010468
0.293095 0.000000 0.000000
0.435828 0.000000 0.000000
0.571771 0.000000 0.000000
0.712612 0.000000 0.005463
0.845548 0.000000 0.050935
0.963897 0.000000 0.089235
0.024689 0.102815 0.002319
0.143954 0.095918 0.000183
0.291051 0.072602 0.000000
0.431861 0.000000 0.000000
0.567468 0.000000 0.000000
0.706813 0.000000 0.004242
0.839933 0.000000 0.045991
0.960510 0.008850 0.086671
0.088289 0.224643 0.008301
0.166293 0.221683 0.005463
0.295781 0.212955 0.000000
0.432136 0.208591 0.000000
0.568597 0.209445 0.000000
0.708614 0.216953 0.003784
0.844572 0.228000 0.047425
0.963653 0.241337 0.088533
0.131411 0.355413 0.006073
0.191714 0.353491 0.003265
0.311650 0.349187 0.000000
0.441840 0.351507 0.000000
0.577874 0.361852 0.000000
0.713222 0.371771 0.000000
0.843046 0.379278 0.029297
0.960937 0.385046 0.083009
0.175662 0.500694 0.000000
0.223545 0.499763 0.000000
0.333165 0.498390 0.000000
0.455695 0.499245 0.000000
0.576867 0.499001 0.000000
0.706294 0.508141 0.000000
0.836484 0.517418 0.000000
0.956756 0.522148 0.069551
0.212497 0.650141 0.000000
0.253208 0.652796 0.000000
0.352087 0.651423 0.000000
0.468544 0.650507 0.000000
0.587976 0.649622 0.000000
0.709316 0.650813 0.000000
0.835172 0.656580 0.000000
0.954742 0.658930 0.038453
0.247593 0.795377 0.000000
0.280125 0.795651 0.000000
0.366827 0.793698 0.000000
0.476204 0.792264 0.000000
0.591821 0.790494 0.000000
0.710719 0.790524 0.000000
0.831174 0.791562 0.000000
0.949554 0.791562 0.000000
0.287327 0.926970 0.000000
0.312627 0.926574 0.000000
0.386633 0.925811 0.000000
0.487068 0.925597 0.000000
0.594293 0.920562 0.000000
0.709499 0.920562 0.000000
0.826658 0.921202 0.036744
0.942687 0.920684 0.068330
0.026764 0.005859 0.108095
0.142824 0.000000 0.107729
0.285893 0.000000 0.112825
0.425483 0.000000 0.116701
0.562341 0.000000 0.120912
0.701534 0.000000 0.125948
0.835935 0.000000 0.133242
0.957397 0.000000 0.147433
0.059266 0.100069 0.107912
0.147524 0.093751 0.108156
0.285863 0.072389 0.113741
0.424903 0.000000 0.116457
0.560845 0.000000 0.120363
0.698970 0.000000 0.124880
0.831968 0.000000 0.131289
0.954009 0.008759 0.144961
0.099519 0.219333 0.114992
0.170535 0.215793 0.115602
0.292882 0.208347 0.114992
0.426337 0.205295 0.116609
0.561578 0.206790 0.119783
0.699306 0.213077 0.123445
0.833555 0.223148 0.129763
0.956085 0.238224 0.144991
0.139681 0.349004 0.117983
0.196231 0.346929 0.118563
0.311040 0.344182 0.117403
0.434089 0.342535 0.116274
0.564752 0.350683 0.116915
0.699397 0.361761 0.118471
0.831693 0.371710 0.124178
0.953704 0.380835 0.140352
0.181125 0.495644 0.118288
0.226413 0.494270 0.117433
0.332158 0.491951 0.115694
0.450721 0.490547 0.112917
0.568994 0.489540 0.109377
0.698665 0.500725 0.107546
0.830503 0.512352 0.113832
0.952270 0.518944 0.133730
0.214084 0.644160 0.107240
0.252567 0.643885 0.106874
0.349493 0.642939 0.104555
0.465095 0.643244 0.101289
0.584405 0.644099 0.097505
0.706477 0.647120 0.092531
0.832181 0.653407 0.099123
0.951629 0.656275 0.125673
0.247501 0.789120 0.098054
0.278965 0.788022 0.096712
0.364904 0.786923 0.094606
0.474128 0.786984 0.092836
0.589899 0.786618 0.090089
0.708186 0.786618 0.087068
0.827420 0.786984 0.083772
0.945556 0.787350 0.105959
0.288975 0.923705 0.116243
0.314244 0.923735 0.116793
0.387518 0.923247 0.116945
0.487404 0.923339 0.119448
0.597101 0.922454 0.120943
0.710719 0.921050 0.122957
0.826322 0.920165 0.127779
0.941405 0.919036 0.134554
0.099336 0.000000 0.226566
0.171420 0.000000 0.225345
0.294957 0.000000 0.221592
0.428717 0.000000 0.227298
0.561791 0.000000 0.234134
0.700954 0.000000 0.241154
0.835996 0.000000 0.247929
0.957824 0.000000 0.257847
0.109041 0.102510 0.222171
0.174990 0.095674 0.221195
0.294285 0.069123 0.219699
0.426459 0.000000 0.226139
0.559869 0.000000 0.233036
0.698268 0.000000 0.239597
0.833127 0.000000 0.246006
0.955993 0.078828 0.256229
0.129885 0.217380 0.220676
0.187381 0.214481 0.220188
0.305791 0.212284 0.224308
0.428443 0.205875 0.226291
0.562554 0.207797 0.233097
0.699123 0.212619 0.238346
0.832578 0.223667 0.244419
0.954894 0.244572 0.254704
0.161837 0.346960 0.225895
0.211032 0.345129 0.225864
0.318944 0.343114 0.226932
0.436805 0.341741 0.227237
0.565850 0.350408 0.231388
0.700069 0.361364 0.235538
0.832425 0.372625 0.241672
0.953979 0.384924 0.252750
0.196231 0.492622 0.231113
0.237278 0.491310 0.230838
0.336706 0.488624 0.229770
0.452491 0.488655 0.229007
0.570001 0.488808 0.227573
0.698878 0.499825 0.229526
0.829801 0.511589 0.235904
0.951598 0.520562 0.248783
0.224399 0.641596 0.229984
0.260014 0.640772 0.229404
0.352239 0.638605 0.227756
0.464607 0.638209 0.226474
0.582177 0.638819 0.225010
0.702968 0.641810 0.223972
0.829404 0.650172 0.229648
0.950835 0.656825 0.246006
0.257298 0.788296 0.229160
0.287480 0.787106 0.228977
0.370123 0.784970 0.228031
0.476112 0.783932 0.227024
0.590082 0.783383 0.225834
0.707912 0.784298 0.225834
0.828000 0.786709 0.226902
0.947051 0.789181 0.239811
0.302403 0.922057 0.240421
0.327245 0.921172 0.241672
0.396307 0.920348 0.241428
0.493812 0.921416 0.244388
0.600855 0.920500 0.245121
0.713191 0.919768 0.247105
0.827787 0.919554 0.250889
0.942229 0.919219 0.256016
0.152895 0.000000 0.342016
0.206638 0.000000 0.341436
0.318914 0.000000 0.338323
0.435706 0.000000 0.334905
0.565423 0.000000 0.344274
0.700496 0.000000 0.353979
0.831754 0.000000 0.360723
0.953124 0.000000 0.370764
0.161135 0.098390 0.338842
0.210971 0.091218 0.338354
0.319554 0.064454 0.336248
0.435248 0.000000 0.333867
0.565118 0.000000 0.343786
0.698817 0.000000 0.352636
0.829953 0.000000 0.359472
0.951965 0.117830 0.370886
0.175937 0.223575 0.335302
0.220951 0.221073 0.334203
0.322759 0.214298 0.332921
0.436469 0.206210 0.332799
0.565881 0.207004 0.343206
0.700496 0.211643 0.352514
0.833341 0.230747 0.362707
0.953704 0.264073 0.374365
0.194491 0.347387 0.334081
0.234318 0.345861 0.333562
0.331212 0.343542 0.333837
0.451057 0.350042 0.341650
0.569085 0.350011 0.342840
0.698878 0.358556 0.349432
0.829770 0.373022 0.358862
0.951843 0.393988 0.372381
0.219883 0.490730 0.342809
0.255131 0.489021 0.341985
0.346044 0.486671 0.341009
0.458412 0.489357 0.342840
0.574182 0.489784 0.342718
0.701228 0.500084 0.347753
0.829862 0.512688 0.357183
0.950317 0.526177 0.371130
0.242985 0.641627 0.348486
0.275975 0.643000 0.349279
0.361639 0.639826 0.347417
0.470222 0.638697 0.346654
0.585840 0.639460 0.346349
0.704433 0.641199 0.346258
0.829221 0.649744 0.354559
0.949248 0.659327 0.371099
0.271031 0.786526 0.350378
0.299626 0.786252 0.350561
0.380194 0.784909 0.351415
0.485206 0.783719 0.353857
0.595911 0.783536 0.353735
0.711055 0.783963 0.354070
0.828367 0.785458 0.355444
0.945892 0.789364 0.368750
0.316045 0.922240 0.359228
0.340551 0.921965 0.360662
0.413245 0.920256 0.365820
0.509117 0.918822 0.372412
0.610681 0.918090 0.373266
0.719020 0.917723 0.375067
0.830747 0.918120 0.379034
0.942809 0.918761 0.384405
0.207950 0.000000 0.468299
0.248417 0.000000 0.467842
0.346654 0.000000 0.465217
0.458747 0.000000 0.462165
0.573632 0.000000 0.461280
0.703334 0.000000 0.472023
0.832334 0.000000 0.479652
0.952911 0.000000 0.486641
0.212711 0.090364 0.465339
0.251713 0.083406 0.465553
0.347448 0.053651 0.463600
0.458106 0.000000 0.460517
0.572656 0.000000 0.460121
0.702724 0.000000 0.471321
0.831876 0.000000 0.479316
0.952331 0.125643 0.486946
0.221683 0.228855 0.460822
0.257328 0.226688 0.459998
0.348180 0.220096 0.458412
0.457954 0.212772 0.458167
0.570520 0.205722 0.456977
0.699336 0.207614 0.467781
0.828977 0.224552 0.477302
0.949401 0.265934 0.487404
0.233249 0.358862 0.459815
0.265995 0.357458 0.458991
0.352972 0.354040 0.457771
0.460792 0.351629 0.458320
0.573541 0.349584 0.458106
0.700252 0.357275 0.467353
0.827756 0.375372 0.478065
0.947570 0.406439 0.492805
0.246189 0.489601 0.457984
0.276432 0.488746 0.457618
0.358434 0.486488 0.456489
0.463966 0.487098 0.457923
0.584253 0.496529 0.466285
0.702235 0.498726 0.467384
0.826322 0.512535 0.477668
0.945922 0.533501 0.493507
0.260960 0.633265 0.464118
0.289128 0.632624 0.463752
0.367315 0.630335 0.462135
0.470558 0.630091 0.461952
0.584955 0.633295 0.464027
0.703609 0.637385 0.466773
0.827329 0.648524 0.478370
0.945800 0.662654 0.495583
0.285710 0.782223 0.472053
0.311345 0.781399 0.471656
0.386236 0.779538 0.471229
0.488960 0.778317 0.473121
0.599878 0.778470 0.476417
0.711971 0.779690 0.477607
0.826383 0.781399 0.479103
0.942229 0.787533 0.492714
0.325902 0.917662 0.478157
0.348516 0.917082 0.478706
0.417517 0.915496 0.481331
0.517357 0.915587 0.490272
0.621271 0.914061 0.497230
0.724666 0.914031 0.498878
0.832517 0.914855 0.502220
0.941344 0.916045 0.506859
0.254185 0.000000 0.608698
0.286412 0.000000 0.608209
0.372442 0.000000 0.605676
0.480110 0.000000 0.604486
0.593652 0.000000 0.602899
0.708522 0.000000 0.600122
0.833402 0.000000 0.606592
0.952728 0.003693 0.611200
0.256474 0.081697 0.604395
0.287633 0.074952 0.603876
0.371984 0.041108 0.602380
0.478798 0.000000 0.601648
0.591638 0.000000 0.600000
0.706569 0.000000 0.597894
0.832059 0.000000 0.605280
0.951659 0.134585 0.610773
0.260960 0.233219 0.601740
0.290837 0.231510 0.601465
0.373419 0.226658 0.600824
0.478645 0.220310 0.599969
0.590539 0.214145 0.598108
0.705379 0.209781 0.596277
0.830869 0.227909 0.604425
0.950195 0.273350 0.611780
0.268101 0.369909 0.601434
0.296147 0.368383 0.600336
0.375494 0.365362 0.598688
0.480171 0.364019 0.599451
0.592340 0.362707 0.599084
0.707210 0.361883 0.597742
0.830961 0.380194 0.605921
0.948791 0.412268 0.615534
0.274937 0.503166 0.597498
0.301457 0.502464 0.597070
0.377844 0.500542 0.595850
0.479683 0.499519 0.595300
0.591180 0.500053 0.595819
0.705623 0.500114 0.595361
0.827207 0.515740 0.603601
0.944152 0.542718 0.617639
0.281712 0.636194 0.593927
0.307317 0.636408 0.594293
0.380591 0.635126 0.593378
0.480171 0.634272 0.592767
0.590692 0.635737 0.593957
0.713558 0.646662 0.603601
0.827665 0.653285 0.608484
0.942596 0.670954 0.623560
0.301671 0.780484 0.601099
0.325811 0.780575 0.601404
0.396704 0.779263 0.600916
0.495247 0.777951 0.601160
0.604028 0.777676 0.602686
0.717922 0.779568 0.608270
0.827451 0.781582 0.609766
0.940764 0.791470 0.624018
0.339727 0.915496 0.605982
0.360784 0.914916 0.606165
0.426673 0.913390 0.607355
0.519097 0.912383 0.610681
0.624750 0.910979 0.616754
0.731777 0.910552 0.624689
0.835142 0.912261 0.628260
0.939849 0.914305 0.632471
0.285618 0.000000 0.747860
0.312383 0.000000 0.748043
0.388830 0.000000 0.747341
0.489906 0.000000 0.746456
0.600183 0.000000 0.744564
0.714290 0.000000 0.742397
0.830167 0.000000 0.740322
0.948028 0.018769 0.742214
0.287846 0.085603 0.745663
0.314000 0.081453 0.745815
0.389166 0.066346 0.745266
0.489204 0.018738 0.744045
0.598993 0.000000 0.742336
0.712795 0.000000 0.740230
0.828367 0.000000 0.738125
0.946319 0.132326 0.740536
0.292729 0.238773 0.744137
0.317754 0.237705 0.743954
0.390967 0.234409 0.743130
0.489662 0.230533 0.742123
0.598627 0.227054 0.740444
0.712093 0.226139 0.738857
0.827817 0.229587 0.737667
0.945983 0.273320 0.741726
0.299901 0.375921 0.742672
0.324132 0.375341 0.741878
0.395666 0.374548 0.740566
0.492226 0.373602 0.739956
0.599725 0.373083 0.738796
0.712337 0.374701 0.737942
0.827237 0.378882 0.737301
0.944549 0.409918 0.742947
0.304601 0.509422 0.740078
0.328038 0.508995 0.739437
0.398230 0.508446 0.738033
0.496223 0.510155 0.736721
0.601709 0.511101 0.735897
0.711788 0.512139 0.735256
0.824765 0.515099 0.734920
0.941466 0.542870 0.743954
0.310307 0.643214 0.738308
0.332952 0.643000 0.738003
0.401770 0.642664 0.737179
0.497871 0.643183 0.736294
0.604913 0.645136 0.735744
0.716457 0.650294 0.736629
0.825589 0.652888 0.737057
0.939086 0.672511 0.747646
0.317723 0.777523 0.737789
0.339879 0.777462 0.737789
0.406989 0.776822 0.737179
0.500084 0.776303 0.736599
0.606531 0.776059 0.735927
0.717128 0.777859 0.737087
0.830442 0.786313 0.744961
0.937346 0.795560 0.753262
0.347631 0.911589 0.740505
0.368078 0.911315 0.740597
0.431708 0.911162 0.741634
0.521050 0.910277 0.742641
0.625025 0.909117 0.744930
0.731533 0.908965 0.748928
0.837186 0.910491 0.756069
0.937316 0.913237 0.759945
0.306401 0.000000 0.890013
0.329320 0.000000 0.890043
0.397528 0.000000 0.889372
0.492256 0.000000 0.888853
0.598962 0.000000 0.888060
0.711025 0.000000 0.887083
0.825589 0.000488 0.886351
0.940459 0.094514 0.885313
0.309178 0.116579 0.888945
0.331579 0.115511 0.889006
0.398779 0.111147 0.888518
0.492775 0.106996 0.887877
0.599084 0.107027 0.887175
0.710811 0.114443 0.886229
0.825040 0.131807 0.885374
0.939666 0.158389 0.884398
0.316930 0.253574 0.887388
0.338354 0.253269 0.887358
0.403265 0.252079 0.886687
0.495796 0.252445 0.886778
0.600702 0.253941 0.886015
0.711330 0.258244 0.884916
0.824735 0.267765 0.884184
0.938567 0.282933 0.883513
0.333745 0.390234 0.885679
0.353765 0.390417 0.885771
0.414801 0.390265 0.885283
0.503319 0.391455 0.885008
0.605615 0.394110 0.884520
0.714076 0.398749 0.883787
0.825345 0.405615 0.883299
0.937316 0.413825 0.883055
0.340307 0.518639 0.884672
0.361669 0.519615 0.884642
0.426490 0.523003 0.883818
0.516930 0.528679 0.882994
0.613184 0.530053 0.882444
0.717464 0.532799 0.881956
0.825803 0.538170 0.881865
0.935424 0.546075 0.882414
0.347143 0.647913 0.883970
0.367315 0.648249 0.883635
0.429694 0.649775 0.882780
0.517662 0.652583 0.881865
0.620905 0.659083 0.881071
0.724636 0.665187 0.881376
0.828733 0.669886 0.882475
0.934478 0.675807 0.883818
0.357794 0.778134 0.884550
0.376898 0.778256 0.884337
0.435798 0.778622 0.883757
0.522545 0.780056 0.883177
0.624048 0.783108 0.882597
0.728603 0.787564 0.882597
0.832731 0.794217 0.884031
0.932921 0.797879 0.885069
0.371191 0.908080 0.886687
0.388922 0.907927 0.886534
0.445350 0.907683 0.886229
0.530999 0.907652 0.886015
0.629694 0.907805 0.885832
0.731930 0.908385 0.885893
0.834867 0.910216 0.887083
0.935210 0.916014 0.892821
