其他预设/【232】美食博客调色预设124款/1.3D LUT预设（视频调色-PR-AE-PS-FCPX-达芬奇用）/Food Art #29.cube
# Created by Adobe Lightroom plugin Export LUT (1.17.0)
# www.johnrellis.com/lightroom/exportlut.htm
# Preset: Food Art #29
# Color profile: /Library/Application Support/Adobe/Color/Profiles/Recommended/AdobeRGB1998.icc
LUT_3D_SIZE 5
DOMAIN_MIN 0.000000 0.000000 0.000000
DOMAIN_MAX 0.903226 0.903226 0.903226
0.098024 0.075105 0.025086
0.276799 0.042847 0.003113
0.540551 0.011017 0.000000
0.814420 0.107637 0.000000
1.000000 0.238224 0.135348
0.137636 0.247959 0.000000
0.301335 0.249790 0.000000
0.549279 0.249790 0.000000
0.817197 0.277623 0.000000
1.000000 0.342199 0.154574
0.243565 0.505272 0.000000
0.356176 0.507134 0.000000
0.592645 0.523735 0.000000
0.831662 0.536278 0.078309
1.000000 0.553033 0.208347
0.354253 0.784176 0.079469
0.435065 0.785214 0.092500
0.626947 0.787381 0.129854
0.841520 0.791653 0.188144
1.000000 0.780362 0.313664
0.520439 0.977783 0.318242
0.563165 0.976440 0.326604
0.682399 0.970855 0.351995
0.839719 0.966766 0.415473
0.987121 0.963043 0.508385
0.127504 0.062684 0.148074
0.288884 0.068116 0.154971
0.542931 0.081910 0.168551
0.807919 0.125154 0.189334
1.000000 0.256321 0.245975
0.176791 0.244755 0.158999
0.312627 0.247745 0.163424
0.552941 0.255344 0.173709
0.811704 0.280003 0.194797
1.000000 0.351385 0.257206
0.263066 0.502007 0.178897
0.366888 0.504173 0.182681
0.587182 0.514214 0.196536
0.825101 0.531243 0.220951
1.000000 0.559167 0.300755
0.364782 0.781735 0.227634
0.444007 0.782742 0.235142
0.630457 0.784848 0.253788
0.840665 0.789364 0.290837
1.000000 0.782803 0.388983
0.541527 0.975067 0.392920
0.581292 0.973816 0.399603
0.698177 0.970581 0.428382
0.846494 0.966064 0.481636
0.986664 0.963073 0.560143
0.203250 0.061524 0.372839
0.324041 0.063600 0.379034
0.555322 0.084230 0.395819
0.811734 0.129183 0.426551
1.000000 0.286748 0.454963
0.231266 0.246311 0.386755
0.341283 0.247166 0.390723
0.566674 0.256291 0.405982
0.814755 0.279973 0.431098
1.000000 0.382574 0.467567
0.295476 0.501244 0.415290
0.386419 0.503441 0.418891
0.594873 0.512963 0.431617
0.825467 0.533318 0.453620
1.000000 0.584771 0.506004
0.381598 0.775875 0.457832
0.454780 0.775021 0.460151
0.639673 0.778012 0.479042
0.839292 0.785977 0.506645
0.996277 0.792142 0.568444
0.552941 0.970550 0.537102
0.604273 0.968597 0.552728
0.727291 0.964050 0.591638
0.856626 0.961395 0.623651
0.982940 0.960784 0.674281
0.254490 0.024445 0.665278
0.357275 0.018830 0.668605
0.574517 0.060792 0.679713
0.808499 0.139834 0.694026
0.999878 0.301793 0.688624
0.264500 0.243687 0.672724
0.364599 0.244083 0.675319
0.578637 0.252262 0.683833
0.810025 0.283055 0.696315
0.997375 0.388434 0.691951
0.312474 0.501335 0.688319
0.396643 0.501946 0.690150
0.595300 0.508141 0.696223
0.816068 0.528313 0.705531
0.990784 0.594751 0.712642
0.400214 0.767117 0.715450
0.467353 0.767117 0.715908
0.641108 0.770809 0.720974
0.832670 0.780972 0.732082
0.982238 0.804105 0.756863
0.571496 0.965698 0.733944
0.616052 0.963928 0.739071
0.732509 0.960174 0.756069
0.866148 0.957000 0.785733
0.977569 0.959289 0.812131
0.268620 0.059510 0.924132
0.358495 0.070405 0.924437
0.555871 0.118746 0.926055
0.770687 0.204929 0.928222
0.973327 0.324376 0.930907
0.279423 0.241215 0.924224
0.366308 0.244785 0.924437
0.560479 0.264042 0.925811
0.772488 0.312993 0.927367
0.972107 0.403021 0.930205
0.335241 0.486336 0.925414
0.406195 0.488258 0.925109
0.583032 0.501640 0.925444
0.783078 0.534081 0.926329
0.969268 0.597009 0.930083
0.452949 0.734401 0.929076
0.505364 0.736782 0.928435
0.648615 0.747921 0.927428
0.817227 0.772183 0.927642
0.967254 0.806363 0.934447
0.605402 0.947387 0.936858
0.639033 0.947387 0.936828
0.738827 0.948516 0.937743
0.862303 0.951263 0.939940
0.969635 0.957763 0.946227
