其他预设/【232】美食博客调色预设124款/1.3D LUT预设（视频调色-PR-AE-PS-FCPX-达芬奇用）/Food Art #60.cube
# Created by Adobe Lightroom plugin Export LUT (1.17.0)
# www.johnrellis.com/lightroom/exportlut.htm
# Preset: Food Art #60
# Color profile: /Library/Application Support/Adobe/Color/Profiles/Recommended/AdobeRGB1998.icc
LUT_3D_SIZE 5
DOMAIN_MIN 0.000000 0.000000 0.000000
DOMAIN_MAX 0.903226 0.903226 0.903226
0.000000 0.000000 0.000000
0.255467 0.000000 0.050202
0.499550 0.000000 0.099580
0.704463 0.000000 0.173404
0.910307 0.246799 0.270634
0.152071 0.155856 0.077607
0.300725 0.142702 0.090608
0.511254 0.118502 0.128389
0.709224 0.193515 0.189822
0.914153 0.331701 0.286656
0.319524 0.368658 0.161288
0.396551 0.369177 0.168338
0.559319 0.388952 0.195926
0.729824 0.430335 0.237491
0.916289 0.514153 0.332586
0.457679 0.629816 0.248325
0.501183 0.633173 0.254368
0.615015 0.644739 0.275456
0.759823 0.665980 0.314702
0.923980 0.719539 0.421729
0.612879 0.875120 0.424170
0.637354 0.876249 0.431220
0.711299 0.878325 0.453010
0.823819 0.890654 0.504631
0.943816 0.908995 0.575952
0.101991 0.000000 0.150393
0.268498 0.000000 0.162631
0.499062 0.000000 0.197787
0.697047 0.008331 0.245762
0.903716 0.261479 0.322515
0.188296 0.149477 0.174777
0.317082 0.142245 0.186587
0.512261 0.139345 0.212558
0.702968 0.206332 0.255619
0.905852 0.338170 0.334020
0.337194 0.364477 0.226474
0.409827 0.365484 0.234562
0.554833 0.380468 0.252750
0.723507 0.427008 0.289311
0.912688 0.519677 0.377539
0.465797 0.627161 0.298894
0.508629 0.630396 0.306096
0.617762 0.642084 0.324224
0.758694 0.663661 0.358923
0.921965 0.721523 0.458198
0.621302 0.873075 0.459266
0.644739 0.874266 0.465553
0.719844 0.880278 0.490608
0.827359 0.891508 0.535119
0.944396 0.909911 0.599725
0.212833 0.000000 0.314885
0.325322 0.000000 0.319799
0.512474 0.000000 0.336278
0.702480 0.074464 0.381323
0.903380 0.284672 0.447364
0.276280 0.150942 0.326360
0.362310 0.144442 0.330541
0.526757 0.149874 0.347478
0.707607 0.219669 0.388830
0.904631 0.359869 0.457527
0.373968 0.364538 0.358526
0.433143 0.367620 0.363439
0.571588 0.394720 0.387335
0.727810 0.437018 0.417823
0.909575 0.532891 0.490455
0.478614 0.622797 0.419867
0.517479 0.624262 0.424048
0.625452 0.638605 0.444160
0.759640 0.663142 0.473152
0.919066 0.725551 0.550500
0.625086 0.869261 0.541497
0.651759 0.870787 0.550134
0.725093 0.876921 0.571160
0.827756 0.888701 0.604456
0.942290 0.907988 0.656001
0.328618 0.000000 0.516258
0.401678 0.000000 0.519615
0.552667 0.000000 0.532799
0.711971 0.105501 0.552972
0.905547 0.305150 0.611872
0.360479 0.153445 0.523033
0.422187 0.151247 0.526390
0.560632 0.170016 0.537926
0.715633 0.230686 0.557214
0.904906 0.371557 0.615381
0.421942 0.387030 0.545342
0.468116 0.389837 0.548028
0.584741 0.404120 0.558312
0.730678 0.439521 0.575921
0.908629 0.532280 0.632013
0.499306 0.626520 0.584741
0.533440 0.628412 0.586419
0.629969 0.640375 0.596368
0.766262 0.672053 0.623316
0.919280 0.722133 0.668330
0.632288 0.867735 0.670832
0.655512 0.869017 0.674586
0.723659 0.875731 0.686519
0.822873 0.888853 0.705776
0.940978 0.908659 0.744442
0.408118 0.000000 0.786709
0.458717 0.000000 0.788022
0.586236 0.045563 0.793149
0.742580 0.206271 0.801938
0.905882 0.344152 0.814542
0.419837 0.176883 0.788388
0.467567 0.184085 0.789639
0.591150 0.221286 0.794553
0.745083 0.296544 0.802884
0.906188 0.403113 0.815763
0.458137 0.421271 0.796262
0.493935 0.421363 0.796292
0.607324 0.441535 0.800168
0.754330 0.484413 0.808286
0.909148 0.549859 0.823056
0.547234 0.669825 0.816190
0.573663 0.671321 0.816251
0.651820 0.675074 0.817502
0.771511 0.686946 0.823423
0.918242 0.728328 0.842588
0.653742 0.878996 0.848631
0.671504 0.879881 0.849393
0.729549 0.884215 0.853483
0.820310 0.893187 0.862516
0.939605 0.914458 0.886107
