其他预设/【232】美食博客调色预设124款/1.3D LUT预设（视频调色-PR-AE-PS-FCPX-达芬奇用）/Food Art #43.cube
# Created by Adobe Lightroom plugin Export LUT (1.17.0)
# www.johnrellis.com/lightroom/exportlut.htm
# Preset: Food Art #43
# Color profile: /Library/Application Support/Adobe/Color/Profiles/Recommended/AdobeRGB1998.icc
LUT_3D_SIZE 32
0.271855 0.189883 0.200412
0.282872 0.190158 0.201419
0.296910 0.190402 0.202731
0.324651 0.190951 0.205325
0.357000 0.191989 0.209171
0.388586 0.192599 0.212467
0.418982 0.192569 0.214878
0.447822 0.193057 0.217746
0.476081 0.193301 0.220462
0.504143 0.194461 0.223178
0.532647 0.196048 0.226810
0.561120 0.199680 0.231662
0.589837 0.204379 0.236667
0.618647 0.210178 0.242527
0.647456 0.217227 0.248478
0.676478 0.224155 0.254734
0.705135 0.231846 0.261051
0.732479 0.239811 0.267491
0.758419 0.248508 0.274235
0.787442 0.258579 0.281621
0.815213 0.268956 0.289525
0.841489 0.279423 0.297520
0.866270 0.289952 0.305211
0.889860 0.300786 0.313390
0.912535 0.311437 0.321386
0.934478 0.322484 0.329870
0.955840 0.334386 0.339147
0.976776 0.346929 0.348943
0.997314 0.360479 0.359930
1.000000 0.375463 0.372320
1.000000 0.391791 0.385901
1.000000 0.409857 0.401282
0.274296 0.200443 0.201999
0.284092 0.200229 0.202152
0.297734 0.200198 0.203189
0.325170 0.200992 0.206149
0.357336 0.201450 0.209842
0.388556 0.201144 0.213016
0.418585 0.200443 0.215488
0.447364 0.200046 0.218021
0.475441 0.200259 0.220951
0.503532 0.200809 0.223697
0.531701 0.202274 0.227359
0.560174 0.205509 0.231846
0.588739 0.209842 0.236881
0.617426 0.215366 0.242832
0.646143 0.221897 0.248905
0.674983 0.228824 0.255314
0.703670 0.235966 0.261326
0.731075 0.243534 0.267491
0.757046 0.251896 0.274388
0.785794 0.261692 0.281590
0.813352 0.271641 0.289372
0.839445 0.281712 0.297002
0.864225 0.292027 0.304662
0.887877 0.302434 0.312840
0.910613 0.312993 0.320623
0.932616 0.324041 0.329381
0.954223 0.335424 0.338354
0.975280 0.347906 0.348302
0.995972 0.361364 0.359289
1.000000 0.376196 0.371557
1.000000 0.392309 0.385077
1.000000 0.410101 0.400336
0.277073 0.214054 0.203769
0.287053 0.213748 0.204135
0.299779 0.213199 0.204715
0.326055 0.213687 0.207309
0.357702 0.213291 0.210880
0.388617 0.212009 0.213931
0.418341 0.210605 0.216251
0.446906 0.209689 0.218845
0.474922 0.208865 0.221561
0.502800 0.209171 0.224430
0.530999 0.210269 0.227848
0.559442 0.213046 0.232334
0.587945 0.217044 0.237827
0.616602 0.222171 0.243503
0.645258 0.228275 0.249638
0.674159 0.234684 0.255741
0.702785 0.241672 0.261662
0.730129 0.248997 0.268009
0.756161 0.256901 0.274693
0.784939 0.266300 0.282048
0.812345 0.276036 0.289464
0.838407 0.285588 0.297002
0.863127 0.295659 0.304692
0.886778 0.305669 0.312688
0.909545 0.316014 0.320775
0.931640 0.326604 0.329076
0.953246 0.337987 0.338231
0.974456 0.350286 0.348058
0.995239 0.363470 0.359075
1.000000 0.378088 0.371252
1.000000 0.394079 0.384833
1.000000 0.411658 0.400122
0.284428 0.240055 0.207950
0.293553 0.239628 0.208469
0.305455 0.238956 0.209140
0.328832 0.238163 0.210330
0.359258 0.236301 0.212924
0.389471 0.233463 0.215366
0.418555 0.230777 0.218021
0.446784 0.228397 0.220554
0.474525 0.226780 0.223239
0.502342 0.225895 0.226169
0.530327 0.226322 0.229618
0.558648 0.228458 0.234134
0.586999 0.232059 0.239567
0.615564 0.236515 0.245335
0.644282 0.241520 0.250828
0.672999 0.247379 0.257084
0.701625 0.253666 0.263066
0.728939 0.260380 0.269078
0.755489 0.267704 0.275639
0.783566 0.276249 0.282841
0.810605 0.285069 0.289921
0.836393 0.294194 0.297551
0.861204 0.303471 0.305119
0.885161 0.313054 0.312840
0.908324 0.323003 0.320958
0.930785 0.333379 0.329595
0.952728 0.344396 0.338598
0.974090 0.356603 0.348760
0.994934 0.369451 0.359777
1.000000 0.383520 0.371679
1.000000 0.398962 0.385168
1.000000 0.416175 0.400458
0.292729 0.269474 0.213077
0.300542 0.269139 0.213504
0.311040 0.268650 0.213931
0.331762 0.267430 0.214817
0.360418 0.265812 0.215915
0.390143 0.262058 0.218051
0.418708 0.257572 0.220279
0.446448 0.253849 0.222843
0.473884 0.250889 0.225315
0.501335 0.249393 0.228489
0.529198 0.248936 0.231876
0.557275 0.250187 0.236698
0.585595 0.252873 0.241947
0.614099 0.256443 0.247684
0.642847 0.260624 0.253391
0.671778 0.265690 0.258976
0.700557 0.271061 0.265019
0.727993 0.277195 0.271061
0.755398 0.283909 0.277623
0.783047 0.291478 0.284367
0.809689 0.299382 0.291264
0.835294 0.307683 0.298650
0.860014 0.316075 0.306035
0.883970 0.324987 0.313695
0.907164 0.334112 0.321752
0.929778 0.343877 0.330205
0.951751 0.354406 0.339574
0.973205 0.365637 0.349371
0.994079 0.378027 0.360418
1.000000 0.391638 0.372381
1.000000 0.406409 0.385809
1.000000 0.423011 0.400977
0.300664 0.298497 0.217899
0.307561 0.298161 0.218235
0.316472 0.297612 0.218540
0.334569 0.296544 0.219028
0.360143 0.294926 0.220157
0.390387 0.292882 0.221439
0.419776 0.288701 0.223392
0.446784 0.283604 0.225986
0.473793 0.279545 0.228611
0.500999 0.276890 0.232029
0.528649 0.275792 0.235630
0.556603 0.276341 0.240574
0.584863 0.277928 0.245335
0.613336 0.280552 0.250980
0.641993 0.284062 0.256229
0.671015 0.288243 0.261753
0.699825 0.292851 0.267521
0.727230 0.297978 0.273411
0.755520 0.304295 0.279973
0.782986 0.310887 0.286564
0.809476 0.317906 0.293431
0.835172 0.325170 0.300725
0.871885 0.339635 0.312810
0.895323 0.347875 0.320714
0.917815 0.356390 0.329015
0.939483 0.365423 0.337530
0.960449 0.375128 0.346746
0.980835 0.385626 0.356909
1.000000 0.397131 0.367864
1.000000 0.409888 0.379950
1.000000 0.423987 0.393561
1.000000 0.439582 0.408453
0.308843 0.328344 0.222904
0.315007 0.328008 0.223178
0.322850 0.327581 0.223484
0.339361 0.326574 0.224125
0.362432 0.325139 0.225132
0.390112 0.323308 0.226566
0.420600 0.321324 0.228061
0.449592 0.317205 0.230411
0.476204 0.312200 0.233585
0.503502 0.308812 0.236881
0.531060 0.307073 0.240726
0.559167 0.306767 0.245182
0.587335 0.307652 0.250462
0.615808 0.309239 0.255375
0.644404 0.311742 0.260533
0.672999 0.315099 0.266026
0.701503 0.319036 0.271275
0.730251 0.323674 0.277287
0.758602 0.329320 0.283604
0.786313 0.335210 0.290257
0.813443 0.341802 0.297429
0.840024 0.348791 0.304784
0.865843 0.356390 0.312718
0.890745 0.364294 0.320867
0.914488 0.372656 0.329564
0.936950 0.381109 0.338506
0.958373 0.390204 0.347723
0.979034 0.399939 0.357824
0.999084 0.410559 0.368719
1.000000 0.422492 0.380896
1.000000 0.435645 0.394263
1.000000 0.450446 0.409155
0.317723 0.355383 0.228641
0.322881 0.355077 0.229038
0.329870 0.354742 0.229252
0.344182 0.353765 0.229862
0.364813 0.352575 0.230808
0.389868 0.351019 0.231998
0.417792 0.349096 0.233921
0.447578 0.347448 0.235996
0.476234 0.344213 0.238804
0.503044 0.340276 0.241978
0.530419 0.337865 0.245945
0.558251 0.337011 0.250462
0.586358 0.337224 0.254826
0.614679 0.338262 0.259556
0.643183 0.340032 0.264652
0.671778 0.342718 0.269413
0.700984 0.346258 0.274784
0.730068 0.350561 0.280797
0.757687 0.355016 0.286687
0.784970 0.359869 0.293156
0.811734 0.365393 0.299992
0.838102 0.371344 0.307164
0.863737 0.377966 0.314733
0.888518 0.384833 0.322820
0.912261 0.392126 0.331090
0.934783 0.399786 0.340032
0.956359 0.407813 0.349157
0.977142 0.416632 0.359075
0.997314 0.426490 0.370092
1.000000 0.437415 0.382116
1.000000 0.449775 0.395544
1.000000 0.463722 0.410681
0.327947 0.382330 0.235843
0.332616 0.382086 0.236118
0.338476 0.381811 0.236454
0.351171 0.380926 0.237095
0.369848 0.379980 0.237797
0.392126 0.378698 0.239292
0.417975 0.377295 0.240848
0.445624 0.375799 0.242649
0.474556 0.374517 0.245121
0.503288 0.372625 0.247959
0.530419 0.369818 0.251743
0.558038 0.368444 0.255772
0.585992 0.368261 0.260075
0.614252 0.368811 0.264500
0.642542 0.370123 0.269108
0.671656 0.372534 0.274022
0.701747 0.376135 0.279240
0.730159 0.379492 0.284581
0.757259 0.382727 0.290288
0.784085 0.386694 0.296513
0.810605 0.391302 0.302953
0.836759 0.396307 0.309880
0.862242 0.401831 0.317205
0.886870 0.407874 0.325261
0.910582 0.414191 0.333288
0.933104 0.420783 0.342016
0.954711 0.427924 0.351324
0.975555 0.435859 0.361151
0.995819 0.444709 0.371954
1.000000 0.454749 0.384100
1.000000 0.466072 0.397406
1.000000 0.478981 0.412421
0.339025 0.409766 0.243503
0.342992 0.409552 0.243809
0.348180 0.409308 0.243961
0.359503 0.408759 0.244419
0.375952 0.407996 0.245335
0.396490 0.406867 0.246403
0.420142 0.405707 0.248081
0.446052 0.404517 0.249790
0.473518 0.403571 0.252049
0.501976 0.402838 0.254368
0.530449 0.401678 0.257603
0.557824 0.400122 0.261418
0.585626 0.399573 0.265446
0.613672 0.399847 0.269749
0.643091 0.401770 0.274083
0.673304 0.404639 0.278935
0.702785 0.407416 0.283879
0.730739 0.409827 0.288945
0.757504 0.412482 0.294621
0.784024 0.415412 0.300237
0.810056 0.419074 0.306554
0.835599 0.422980 0.313176
0.860533 0.427314 0.320165
0.884733 0.432136 0.327703
0.908171 0.437385 0.335729
0.930724 0.443122 0.344244
0.952514 0.449439 0.353307
0.973602 0.456519 0.363226
0.994110 0.464576 0.374243
1.000000 0.473823 0.386358
1.000000 0.484535 0.400092
1.000000 0.496590 0.415137
0.350042 0.437781 0.251591
0.353582 0.437720 0.251713
0.358404 0.437537 0.252110
0.368597 0.437140 0.252476
0.383520 0.436469 0.253391
0.402411 0.435798 0.254337
0.424353 0.435035 0.255802
0.448646 0.434241 0.257542
0.474708 0.433509 0.259403
0.501854 0.432929 0.261845
0.529870 0.432532 0.264378
0.558190 0.432227 0.267033
0.586053 0.431800 0.271031
0.615076 0.432990 0.275090
0.644465 0.434699 0.279545
0.674037 0.437018 0.284092
0.702876 0.439002 0.288426
0.730312 0.440833 0.293278
0.756710 0.442420 0.298619
0.782956 0.444739 0.304021
0.808835 0.447486 0.310063
0.834226 0.450538 0.316533
0.859098 0.454261 0.323552
0.883238 0.458289 0.330938
0.906645 0.462715 0.338750
0.929137 0.467506 0.347082
0.950896 0.472847 0.356115
0.971954 0.479042 0.366186
0.992462 0.486122 0.376867
1.000000 0.494484 0.389044
1.000000 0.504143 0.402747
1.000000 0.515312 0.418067
0.361517 0.467292 0.260014
0.364721 0.467262 0.260288
0.369238 0.467048 0.260441
0.378332 0.466712 0.260990
0.391974 0.466377 0.261631
0.409277 0.465919 0.262699
0.429786 0.465370 0.264073
0.452735 0.464820 0.265232
0.477516 0.464363 0.267124
0.503716 0.464057 0.269108
0.530816 0.463905 0.271519
0.559655 0.465248 0.274296
0.595758 0.473762 0.279393
0.625269 0.475135 0.283421
0.654963 0.476783 0.287480
0.684535 0.478492 0.291569
0.712795 0.479622 0.295995
0.739528 0.480293 0.300877
0.765377 0.480781 0.305943
0.790921 0.481849 0.311376
0.816037 0.483314 0.317052
0.840543 0.485267 0.323583
0.864439 0.487526 0.330297
0.887785 0.490303 0.337560
0.910460 0.493538 0.345373
0.932341 0.497200 0.353796
0.953521 0.501518 0.362768
0.974090 0.506554 0.372656
0.994079 0.512535 0.383459
1.000000 0.519738 0.395544
1.000000 0.528283 0.409216
1.000000 0.538354 0.424445
0.373541 0.500816 0.269047
0.376471 0.500694 0.269230
0.380407 0.500450 0.269261
0.388861 0.499977 0.269535
0.401495 0.499428 0.270207
0.417548 0.498787 0.270970
0.436896 0.498177 0.272038
0.458503 0.497719 0.273289
0.482246 0.497444 0.274968
0.508507 0.498939 0.277134
0.536248 0.500664 0.279606
0.565148 0.502739 0.282567
0.594781 0.505119 0.285496
0.624689 0.507408 0.288701
0.654505 0.509453 0.292454
0.683772 0.511192 0.296391
0.711604 0.511803 0.300572
0.738125 0.511772 0.304906
0.763668 0.511772 0.309911
0.788937 0.512078 0.315221
0.813809 0.512902 0.320836
0.838193 0.514031 0.327092
0.861967 0.515618 0.333715
0.885252 0.517601 0.340887
0.907897 0.520073 0.348455
0.929808 0.523003 0.356664
0.951110 0.526421 0.365576
0.971740 0.530724 0.375525
0.991852 0.535912 0.386358
1.000000 0.542321 0.398657
1.000000 0.550011 0.412238
1.000000 0.559228 0.427863
0.384039 0.531945 0.276799
0.386908 0.531853 0.276921
0.390417 0.531670 0.277104
0.398230 0.531334 0.277501
0.409949 0.530755 0.277684
0.425299 0.530602 0.278630
0.443763 0.530877 0.279820
0.464790 0.531304 0.281041
0.487984 0.532006 0.282719
0.513054 0.533135 0.284489
0.539757 0.534600 0.286717
0.567437 0.536492 0.289128
0.596094 0.538628 0.291844
0.625147 0.540642 0.294621
0.654383 0.542504 0.297429
0.683070 0.543694 0.300999
0.710353 0.543877 0.305150
0.736446 0.543297 0.309606
0.761898 0.542718 0.314000
0.786984 0.542596 0.319127
0.811765 0.542779 0.324834
0.836088 0.543511 0.330999
0.859800 0.544427 0.337499
0.883116 0.545800 0.344579
0.905760 0.547631 0.352087
0.927703 0.549828 0.360449
0.949035 0.552667 0.369512
0.969787 0.556115 0.379248
0.989960 0.560662 0.390356
1.000000 0.566247 0.402594
1.000000 0.573175 0.416480
1.000000 0.581537 0.432166
0.395026 0.566888 0.284794
0.397498 0.566979 0.284977
0.400916 0.566735 0.285161
0.408392 0.566552 0.285496
0.419532 0.566308 0.285801
0.434058 0.566094 0.286534
0.451453 0.565942 0.287572
0.471351 0.566125 0.288670
0.493446 0.566613 0.290043
0.517540 0.567529 0.291630
0.543206 0.568902 0.293553
0.570062 0.570611 0.295872
0.597803 0.572381 0.298283
0.626062 0.574060 0.300664
0.654383 0.575525 0.303380
0.682460 0.576440 0.306065
0.709499 0.576165 0.309728
0.735225 0.575158 0.313970
0.760372 0.574090 0.318578
0.785275 0.573419 0.323369
0.809812 0.573083 0.328862
0.834012 0.573175 0.334997
0.857694 0.573571 0.341375
0.880949 0.574426 0.348425
0.903624 0.575586 0.356085
0.925719 0.577295 0.364355
0.947265 0.579614 0.373693
0.968261 0.582757 0.383978
0.988769 0.586725 0.395056
1.000000 0.591913 0.407965
1.000000 0.598322 0.422370
1.000000 0.606134 0.438727
0.405219 0.602502 0.292821
0.407782 0.602533 0.293065
0.410925 0.602502 0.293004
0.417975 0.602319 0.293217
0.428717 0.602075 0.293706
0.442573 0.601923 0.294377
0.459174 0.601862 0.295171
0.478401 0.602045 0.296208
0.499733 0.602350 0.297368
0.522698 0.602869 0.299016
0.547326 0.603571 0.300847
0.572930 0.604456 0.302770
0.599268 0.605341 0.304936
0.626246 0.606165 0.307042
0.653407 0.606806 0.309575
0.680690 0.607385 0.311986
0.707912 0.607691 0.314702
0.733791 0.606744 0.318395
0.758968 0.605493 0.323033
0.783963 0.604639 0.328038
0.808560 0.604120 0.333379
0.832853 0.603815 0.339422
0.856565 0.603784 0.345983
0.879850 0.604181 0.353185
0.902556 0.604944 0.361120
0.924712 0.606134 0.369665
0.946288 0.607813 0.378943
0.967315 0.610407 0.389227
0.987762 0.613764 0.400946
1.000000 0.618128 0.413733
1.000000 0.623621 0.428412
1.000000 0.630457 0.444800
0.414984 0.635248 0.300450
0.417304 0.635248 0.300420
0.420294 0.635065 0.300664
0.426947 0.634882 0.300755
0.436957 0.634638 0.301305
0.450019 0.634302 0.301946
0.465705 0.634150 0.302586
0.483925 0.634089 0.303593
0.504326 0.634211 0.304662
0.526299 0.634546 0.306065
0.549798 0.635004 0.307866
0.574548 0.635676 0.309575
0.600031 0.636347 0.311559
0.626001 0.636927 0.313725
0.652369 0.637263 0.316228
0.678798 0.637385 0.318486
0.705318 0.637476 0.321111
0.732021 0.637690 0.323674
0.757595 0.636774 0.327337
0.782284 0.635462 0.332555
0.806729 0.634424 0.338048
0.830838 0.633722 0.343969
0.854520 0.633265 0.350500
0.877867 0.633234 0.357580
0.900603 0.633539 0.365576
0.922820 0.634302 0.374273
0.944488 0.635554 0.383886
0.965637 0.637629 0.394415
0.986145 0.640436 0.406409
1.000000 0.644282 0.419684
1.000000 0.649073 0.434302
1.000000 0.655238 0.451240
0.424781 0.666682 0.308080
0.426825 0.666835 0.308354
0.432593 0.674922 0.310765
0.438849 0.674739 0.311131
0.448371 0.674311 0.311467
0.460792 0.673823 0.311925
0.475898 0.673182 0.312657
0.493202 0.672755 0.313420
0.512535 0.672480 0.314672
0.533776 0.672389 0.315892
0.556420 0.672419 0.317357
0.580102 0.672541 0.319066
0.604639 0.672511 0.321050
0.629786 0.672572 0.323064
0.655299 0.672419 0.325139
0.681025 0.672175 0.327214
0.706996 0.671870 0.329503
0.732998 0.671565 0.331945
0.759152 0.671382 0.334569
0.784146 0.670039 0.338811
0.808103 0.668208 0.344182
0.831785 0.666651 0.350378
0.855192 0.665553 0.356756
0.878080 0.664698 0.364111
0.900359 0.664118 0.371923
0.922118 0.663905 0.380499
0.943389 0.664271 0.389746
0.964202 0.665400 0.400275
0.984588 0.667414 0.412085
1.000000 0.670558 0.425574
1.000000 0.674708 0.440803
1.000000 0.680110 0.457984
0.435035 0.699153 0.316899
0.437354 0.700160 0.317479
0.440436 0.701198 0.317845
0.446601 0.701961 0.318608
0.455818 0.702358 0.319127
0.467628 0.702235 0.319646
0.481910 0.701900 0.320256
0.498360 0.701472 0.321141
0.516808 0.701228 0.322271
0.536919 0.701045 0.323400
0.558556 0.700954 0.324834
0.581323 0.700984 0.326329
0.605005 0.700893 0.328313
0.629236 0.700710 0.330205
0.653895 0.700526 0.332219
0.678981 0.700069 0.334356
0.704158 0.699641 0.336645
0.729519 0.699306 0.338964
0.755215 0.699092 0.341741
0.781186 0.699031 0.344549
0.806180 0.698146 0.348821
0.829831 0.696437 0.355138
0.853239 0.695003 0.361730
0.876188 0.693904 0.369177
0.898528 0.692958 0.377264
0.920409 0.692409 0.385992
0.941741 0.692348 0.395422
0.962615 0.693019 0.406226
0.983001 0.694606 0.418372
1.000000 0.697139 0.432258
1.000000 0.700679 0.447822
1.000000 0.705318 0.465370
0.444251 0.727596 0.325109
0.446448 0.728481 0.325658
0.449317 0.729458 0.326116
0.455116 0.730068 0.326757
0.463874 0.730465 0.327245
0.474861 0.730404 0.327825
0.488411 0.730068 0.328618
0.503960 0.729641 0.329381
0.521447 0.729397 0.330297
0.540703 0.729183 0.331548
0.561425 0.729091 0.332982
0.583246 0.729030 0.334661
0.605951 0.728878 0.336248
0.629389 0.728695 0.338354
0.653315 0.728328 0.340276
0.677607 0.727901 0.342351
0.702235 0.727443 0.344396
0.727047 0.727016 0.346838
0.752193 0.726711 0.349645
0.777615 0.726680 0.352544
0.803281 0.726802 0.355566
0.828214 0.726314 0.360327
0.851621 0.724636 0.367193
0.874540 0.723232 0.374640
0.896880 0.721950 0.382910
0.918700 0.720912 0.391791
0.940002 0.720424 0.401556
0.960876 0.720577 0.412543
0.981201 0.721584 0.425086
1.000000 0.723507 0.439094
1.000000 0.726375 0.454871
1.000000 0.730312 0.472633
0.453681 0.755428 0.333989
0.455787 0.756252 0.334356
0.458625 0.757046 0.334813
0.464027 0.757687 0.335363
0.472145 0.757992 0.336065
0.482551 0.757961 0.336645
0.495186 0.757656 0.337194
0.509880 0.757259 0.337957
0.526543 0.756893 0.339055
0.544854 0.756619 0.340276
0.564538 0.756435 0.341558
0.585534 0.756283 0.343114
0.607324 0.756039 0.344732
0.629969 0.755825 0.346593
0.653193 0.755520 0.348821
0.676905 0.755306 0.351049
0.701137 0.755154 0.353491
0.725704 0.755123 0.356115
0.750668 0.755306 0.359106
0.775998 0.755673 0.362371
0.801572 0.756283 0.365942
0.827420 0.756954 0.369726
0.852598 0.756954 0.374853
0.875639 0.755306 0.382910
0.898070 0.753811 0.391608
0.919890 0.752529 0.401007
0.941161 0.751583 0.411505
0.961883 0.751278 0.423041
0.982086 0.751736 0.435828
1.000000 0.753079 0.450477
1.000000 0.755245 0.466926
1.000000 0.758511 0.485542
0.465187 0.785946 0.344945
0.467048 0.786313 0.345312
0.469398 0.786587 0.345434
0.474220 0.786709 0.345830
0.481758 0.786618 0.346441
0.491524 0.786374 0.347082
0.503410 0.786069 0.347448
0.517357 0.785702 0.348363
0.533104 0.785550 0.349523
0.550713 0.785397 0.350713
0.569696 0.785336 0.352117
0.589837 0.785245 0.353857
0.610864 0.785092 0.355627
0.632746 0.784756 0.357549
0.655207 0.784451 0.359594
0.678279 0.784115 0.361852
0.701717 0.783841 0.364263
0.725612 0.783658 0.366766
0.749874 0.783627 0.369848
0.774472 0.783719 0.372930
0.799344 0.783932 0.376440
0.824369 0.784207 0.380224
0.849577 0.784604 0.384131
0.874144 0.784390 0.389441
0.896422 0.782345 0.398260
0.918212 0.780667 0.407874
0.939483 0.779385 0.418402
0.960174 0.778714 0.430365
0.980346 0.778683 0.443610
0.999695 0.779416 0.458564
1.000000 0.780972 0.475410
1.000000 0.783536 0.494392
0.475563 0.812345 0.355444
0.477272 0.812680 0.355810
0.479561 0.813016 0.355993
0.484260 0.813107 0.356481
0.491279 0.813046 0.357061
0.500328 0.812741 0.357519
0.511498 0.812406 0.358007
0.524529 0.812039 0.358801
0.539574 0.811734 0.359930
0.556146 0.811490 0.361059
0.574182 0.811398 0.362615
0.593439 0.811246 0.364233
0.613581 0.811063 0.365972
0.634760 0.810788 0.367956
0.656489 0.810544 0.370153
0.678859 0.810300 0.372503
0.701625 0.810086 0.375006
0.724971 0.809995 0.377722
0.748714 0.809995 0.380774
0.772763 0.810147 0.384314
0.797177 0.810422 0.387915
0.821775 0.810788 0.391974
0.846494 0.811276 0.396155
0.871397 0.811765 0.400671
0.894194 0.809873 0.404242
0.915862 0.807797 0.414191
0.937163 0.806210 0.425055
0.957916 0.805081 0.437232
0.978027 0.804623 0.450813
0.997406 0.804837 0.466041
1.000000 0.805875 0.483345
1.000000 0.807889 0.502770
0.488411 0.840665 0.368688
0.490059 0.841062 0.369146
0.492103 0.841215 0.369451
0.496376 0.841215 0.369665
0.502770 0.840970 0.370123
0.511131 0.840574 0.370459
0.521538 0.840055 0.370794
0.533715 0.839475 0.371649
0.547753 0.838865 0.372534
0.563287 0.838346 0.373541
0.580285 0.837827 0.374762
0.598383 0.837430 0.376226
0.617639 0.836973 0.377966
0.637659 0.836484 0.379797
0.658412 0.835904 0.381598
0.679744 0.835294 0.383795
0.701656 0.834745 0.386267
0.724117 0.834379 0.388861
0.747127 0.834287 0.391974
0.770565 0.834440 0.395453
0.794369 0.834745 0.399329
0.818418 0.835142 0.403479
0.842527 0.835477 0.407996
0.866728 0.835721 0.412390
0.890837 0.835843 0.417151
0.914702 0.835782 0.422248
0.935760 0.833616 0.433265
0.956329 0.831937 0.445624
0.976257 0.830869 0.459327
0.995514 0.830533 0.474891
1.000000 0.830991 0.492531
1.000000 0.832303 0.512200
0.500023 0.865019 0.381170
0.501579 0.865354 0.381598
0.503532 0.865537 0.381964
0.507469 0.865537 0.382269
0.513451 0.865324 0.382574
0.521324 0.864988 0.382879
0.531151 0.864561 0.383612
0.542596 0.864073 0.384161
0.555810 0.863615 0.385168
0.570642 0.863249 0.386419
0.586725 0.862882 0.387701
0.604211 0.862577 0.389380
0.622614 0.862303 0.391180
0.641901 0.861906 0.393164
0.661982 0.861448 0.395300
0.682612 0.860960 0.397650
0.703792 0.860502 0.400244
0.725612 0.860197 0.402930
0.747890 0.860075 0.406165
0.770687 0.860166 0.410010
0.793820 0.860349 0.413886
0.817197 0.860624 0.418372
0.840757 0.860899 0.422858
0.864347 0.861112 0.427680
0.887968 0.861265 0.432593
0.911498 0.861326 0.437812
0.935058 0.861448 0.443061
0.955596 0.859434 0.455787
0.975433 0.857877 0.470130
0.994507 0.856992 0.486183
1.000000 0.856901 0.504204
1.000000 0.857481 0.524132
0.513207 0.889494 0.395789
0.514641 0.889708 0.396155
0.516381 0.889738 0.396429
0.520012 0.889647 0.396643
0.525505 0.889311 0.396887
0.532677 0.888914 0.397223
0.541711 0.888457 0.397528
0.552422 0.887968 0.398444
0.564904 0.887510 0.399237
0.578790 0.887144 0.400610
0.594079 0.886839 0.401984
0.610681 0.886564 0.403845
0.628382 0.886351 0.405615
0.646876 0.886015 0.407904
0.666041 0.885588 0.410071
0.685878 0.885130 0.412512
0.706386 0.884642 0.415076
0.727321 0.884306 0.417884
0.748928 0.884123 0.421210
0.770932 0.884154 0.425086
0.793362 0.884245 0.429206
0.816098 0.884459 0.433814
0.838956 0.884642 0.438575
0.861936 0.884794 0.443610
0.884886 0.884916 0.448798
0.907866 0.884977 0.454261
0.930785 0.885069 0.460029
0.953765 0.885130 0.465858
0.973785 0.883391 0.479805
0.992828 0.882017 0.496254
1.000000 0.881254 0.514244
1.000000 0.881102 0.534203
0.526848 0.912352 0.411139
0.528191 0.912474 0.411444
0.529808 0.912505 0.411780
0.533074 0.912474 0.412024
0.538354 0.912291 0.412268
0.545281 0.912139 0.412970
0.553979 0.912078 0.413825
0.564508 0.912108 0.415198
0.576654 0.912230 0.416724
0.590234 0.912383 0.418799
0.605158 0.912596 0.420935
0.621210 0.912810 0.423316
0.638300 0.912932 0.425910
0.656184 0.912932 0.428473
0.674800 0.912749 0.431342
0.693843 0.912383 0.433906
0.713527 0.911986 0.436774
0.733761 0.911620 0.440131
0.754513 0.911376 0.443641
0.775753 0.911284 0.447578
0.797391 0.911254 0.452033
0.819303 0.911345 0.456977
0.841367 0.911345 0.462013
0.863554 0.911376 0.467353
0.885740 0.911315 0.473030
0.907897 0.911284 0.478798
0.930114 0.911223 0.484810
0.952270 0.911192 0.491035
0.974426 0.911345 0.497658
0.993713 0.909728 0.512627
1.000000 0.908110 0.530816
1.000000 0.906920 0.550652
0.545281 0.937407 0.432471
0.546410 0.937469 0.432685
0.547906 0.937407 0.432837
0.550866 0.937255 0.433021
0.555505 0.937041 0.433448
0.561852 0.936736 0.433875
0.569696 0.936492 0.434638
0.579156 0.936248 0.435615
0.590204 0.936065 0.436896
0.602716 0.935912 0.438575
0.616419 0.935760 0.440375
0.631342 0.935607 0.442603
0.647211 0.935454 0.444892
0.663966 0.935180 0.447272
0.681544 0.934874 0.450050
0.699733 0.934478 0.452888
