其他预设/【232】美食博客调色预设124款/1.3D LUT预设（视频调色-PR-AE-PS-FCPX-达芬奇用）/Food Art #58.cube
# Created by Adobe Lightroom plugin Export LUT (1.17.0)
# www.johnrellis.com/lightroom/exportlut.htm
# Preset: Food Art #58
# Color profile: /Library/Application Support/Adobe/Color/Profiles/Recommended/AdobeRGB1998.icc
LUT_3D_SIZE 8
DOMAIN_MIN 0.000000 0.000000 0.000000
DOMAIN_MAX 0.903226 0.903226 0.903226
0.000000 0.000000 0.000000
0.041169 0.014038 0.041047
0.113863 0.070100 0.099886
0.207706 0.119600 0.159762
0.320958 0.173159 0.242222
0.473732 0.228244 0.334905
0.670985 0.284520 0.433875
0.854887 0.373388 0.536492
0.003388 0.076295 0.075746
0.052674 0.088563 0.092622
0.123354 0.110994 0.123415
0.212955 0.149935 0.180850
0.324163 0.196139 0.256718
0.471931 0.245731 0.343084
0.664607 0.299382 0.436805
0.851316 0.385595 0.538598
0.018891 0.185061 0.160372
0.076417 0.191867 0.171756
0.156100 0.214542 0.211124
0.244877 0.238163 0.256504
0.357153 0.271000 0.316991
0.507836 0.312322 0.390326
0.702724 0.367163 0.477302
0.870115 0.452033 0.567803
0.097230 0.306401 0.280125
0.124300 0.309850 0.286961
0.196170 0.323705 0.312688
0.308019 0.357305 0.366125
0.432227 0.385412 0.413977
0.574212 0.416022 0.463569
0.740749 0.462409 0.526757
0.884184 0.539727 0.602045
0.188724 0.439399 0.401038
0.209323 0.442023 0.405676
0.274235 0.453193 0.423377
0.376471 0.475166 0.454963
0.500999 0.500481 0.491981
0.633234 0.526085 0.528069
0.775906 0.568994 0.576806
0.900389 0.640528 0.643702
0.313359 0.586114 0.505730
0.335607 0.593133 0.511864
0.391974 0.600397 0.522271
0.482094 0.614130 0.540490
0.592218 0.631342 0.564477
0.710689 0.654017 0.594507
0.823697 0.686671 0.634394
0.921386 0.744656 0.697108
0.504631 0.738643 0.602625
0.518547 0.740719 0.605280
0.557855 0.743008 0.611444
0.624079 0.749508 0.624231
0.704189 0.758602 0.642512
0.789700 0.773648 0.668421
0.867613 0.794034 0.699611
0.937652 0.829557 0.748165
0.724544 0.862852 0.709682
0.730770 0.863279 0.711299
0.752987 0.865721 0.717830
0.791318 0.871672 0.731136
0.828672 0.873564 0.741817
0.879026 0.885588 0.765835
0.926207 0.901640 0.795315
0.964538 0.918669 0.825803
0.000000 0.000000 0.079042
0.022705 0.014984 0.091615
0.110628 0.081086 0.139101
0.205142 0.133333 0.205722
0.317266 0.183444 0.276402
0.462501 0.232090 0.355322
0.654078 0.283330 0.442908
0.843442 0.367620 0.538628
0.000000 0.075380 0.107301
0.034852 0.089448 0.125704
0.120455 0.120363 0.166232
0.211734 0.160922 0.223026
0.322850 0.204807 0.289525
0.465980 0.249790 0.364385
0.651514 0.298497 0.447028
0.839628 0.379217 0.540215
0.000000 0.183902 0.191867
0.070039 0.192050 0.206943
0.148989 0.213596 0.240452
0.239597 0.240085 0.283604
0.351934 0.272740 0.338811
0.496040 0.310704 0.403845
0.680812 0.359625 0.479591
0.856779 0.441749 0.566033
0.091737 0.303044 0.300114
0.121462 0.307439 0.308446
0.193393 0.322362 0.332830
0.295109 0.348577 0.375463
0.410254 0.373327 0.416754
0.548974 0.403967 0.463722
0.718074 0.449958 0.524224
0.872099 0.528222 0.598871
0.188235 0.437385 0.415351
0.207767 0.439307 0.419074
0.270481 0.448554 0.433936
0.366400 0.466346 0.460365
0.485512 0.489540 0.493965
0.618677 0.516991 0.529839
0.765621 0.561822 0.577569
0.893950 0.633539 0.642725
0.309758 0.580041 0.511162
0.326787 0.582391 0.514305
0.382300 0.589960 0.524285
0.473121 0.605158 0.542626
0.585077 0.624933 0.567193
0.706355 0.650263 0.597559
0.819608 0.683162 0.636347
0.917662 0.740078 0.696620
0.495125 0.730526 0.602380
0.505486 0.730434 0.603418
0.546746 0.734035 0.610193
0.616327 0.742794 0.624140
0.699397 0.753964 0.643275
0.784787 0.768765 0.668299
0.862058 0.787991 0.697658
0.933349 0.823423 0.744808
0.719051 0.858793 0.708675
0.726284 0.859861 0.710872
0.749355 0.862669 0.717678
0.788357 0.869017 0.731167
0.833860 0.876768 0.748470
0.880674 0.886778 0.769680
0.925444 0.900572 0.796078
0.963287 0.916655 0.825010
0.000000 0.004059 0.161563
0.000000 0.021759 0.172427
0.095125 0.088289 0.222171
0.199710 0.141512 0.281590
0.319585 0.193820 0.346868
0.476478 0.243656 0.420264
0.668940 0.291356 0.492592
0.850889 0.379095 0.570520
0.000000 0.084779 0.194736
0.000000 0.096498 0.209110
0.105226 0.127443 0.245823
0.207248 0.169894 0.297734
0.326970 0.215549 0.359045
0.479103 0.260472 0.426551
0.668513 0.307042 0.496010
0.850278 0.393133 0.573358
0.000000 0.188388 0.268864
0.000000 0.196048 0.279393
0.134890 0.216892 0.307530
0.236179 0.246464 0.349096
0.359930 0.282902 0.402136
0.508843 0.319860 0.457557
0.690822 0.366278 0.519280
0.859678 0.450050 0.591058
0.067628 0.306950 0.359258
0.107240 0.311711 0.366827
0.190036 0.327947 0.390753
0.294621 0.352697 0.426062
0.416358 0.380163 0.464057
0.560632 0.411780 0.505760
0.729091 0.458900 0.557153
0.876890 0.538323 0.621393
0.183444 0.437995 0.455909
0.206485 0.441596 0.460945
0.274083 0.452796 0.475868
0.372473 0.471351 0.499062
0.493202 0.494820 0.527520
0.625818 0.522362 0.558251
0.770260 0.567803 0.600336
0.895781 0.639887 0.660304
0.313970 0.580865 0.538598
0.332525 0.583490 0.541833
0.389136 0.590936 0.550988
0.476692 0.603998 0.565881
0.585718 0.622461 0.586847
0.704036 0.647028 0.613489
0.818143 0.682734 0.650996
0.918669 0.743709 0.710109
0.507012 0.732265 0.620264
0.519188 0.732570 0.622156
0.558251 0.734920 0.628138
0.623041 0.741695 0.639673
0.702968 0.752224 0.657191
0.787167 0.768307 0.681361
0.864958 0.790341 0.711269
0.936736 0.829191 0.759091
0.723262 0.858274 0.719234
0.728725 0.858244 0.720363
0.750179 0.860533 0.726162
0.790494 0.868193 0.740414
0.834623 0.875822 0.756527
0.881621 0.886687 0.777676
0.926299 0.901305 0.803738
0.964141 0.918273 0.832578
0.000000 0.025147 0.269932
0.000000 0.053742 0.283268
0.032319 0.095796 0.319677
0.185458 0.148287 0.369512
0.315068 0.198459 0.424659
0.472450 0.244846 0.484047
0.665400 0.289189 0.542718
0.847257 0.373754 0.601892
0.000000 0.098390 0.304631
0.000000 0.107118 0.313329
0.062806 0.134524 0.341283
0.195834 0.176425 0.384558
0.325109 0.220798 0.436011
0.479500 0.262882 0.490791
0.669093 0.305516 0.546136
0.848508 0.388830 0.604578
0.000000 0.194156 0.359045
0.000000 0.201450 0.367468
0.108553 0.221714 0.390723
0.228367 0.251225 0.426307
0.359808 0.287266 0.471351
0.517876 0.324193 0.518883
0.704677 0.369940 0.568719
0.864134 0.453712 0.623133
0.000000 0.311772 0.435889
0.076478 0.316472 0.441413
0.179416 0.331273 0.459510
0.290501 0.354376 0.486946
0.416297 0.381170 0.517906
0.564721 0.412909 0.552270
0.732296 0.460426 0.594202
0.878538 0.541314 0.648066
0.183322 0.442603 0.514000
0.206363 0.444923 0.516716
0.275334 0.455116 0.527733
0.378149 0.475074 0.547356
0.500145 0.498268 0.569909
0.635431 0.528527 0.596490
0.777188 0.574029 0.632136
0.898100 0.645075 0.684749
0.327153 0.586206 0.579553
0.349248 0.592065 0.584009
0.405310 0.598047 0.590814
0.493904 0.610803 0.603693
0.600153 0.628595 0.620752
0.711849 0.650782 0.642847
0.822263 0.687373 0.677302
0.920073 0.747066 0.729824
0.516747 0.732479 0.645747
0.530724 0.733974 0.648188
0.574548 0.738216 0.655665
0.640772 0.745632 0.668055
0.716457 0.756497 0.684016
0.794888 0.771817 0.704891
0.867796 0.792325 0.730861
0.938323 0.832181 0.775753
0.731472 0.860319 0.738552
0.738308 0.861143 0.740475
0.758755 0.863157 0.745724
0.792660 0.868040 0.755581
0.835843 0.875700 0.770413
0.882231 0.886839 0.790280
0.926848 0.901946 0.815213
0.964843 0.919768 0.843229
0.000000 0.063966 0.391547
0.000000 0.074983 0.400061
0.000000 0.108003 0.424353
0.170474 0.154513 0.460151
0.315709 0.205447 0.505028
0.478248 0.248997 0.551537
0.673091 0.292760 0.599054
0.852232 0.381445 0.646632
0.000000 0.112032 0.413672
0.000000 0.119997 0.420966
0.000000 0.144350 0.440772
0.182437 0.181613 0.471321
0.325841 0.226871 0.512932
0.487861 0.267308 0.557488
0.679988 0.310460 0.602686
0.854612 0.397406 0.649226
0.000000 0.206577 0.457649
0.000000 0.213107 0.464179
0.069673 0.229038 0.478706
0.223514 0.256413 0.504967
0.358679 0.289891 0.536553
0.515160 0.323186 0.573144
0.698482 0.365576 0.613001
0.860410 0.446021 0.656733
0.000000 0.315831 0.510155
0.000000 0.320195 0.514366
0.171237 0.334966 0.528496
0.290959 0.356847 0.549157
0.419318 0.382452 0.572473
0.569116 0.412451 0.600702
0.733516 0.455085 0.633265
0.875669 0.527062 0.674372
0.185061 0.442084 0.567834
0.209567 0.445411 0.570672
0.279820 0.455726 0.579156
0.380041 0.473030 0.593439
0.498482 0.493965 0.610254
0.633204 0.521569 0.631342
0.773556 0.564385 0.661067
0.895293 0.632837 0.705531
0.332586 0.580316 0.618860
0.349706 0.582452 0.620569
0.403113 0.588312 0.625635
0.488136 0.600824 0.635767
0.590600 0.618891 0.649195
0.709316 0.645563 0.672084
0.822446 0.685664 0.704005
0.919554 0.742550 0.749294
0.525414 0.729946 0.678157
0.536858 0.730404 0.679408
0.576349 0.733455 0.684474
0.640009 0.740719 0.694575
0.713375 0.752346 0.707698
0.793301 0.768887 0.727199
0.866575 0.789883 0.750851
0.937804 0.830320 0.791775
0.729488 0.856229 0.758755
0.735195 0.856626 0.759884
0.754726 0.858579 0.764096
0.790890 0.866239 0.774594
0.830625 0.873655 0.785245
0.878660 0.884977 0.803677
0.924651 0.900389 0.826993
0.963867 0.918608 0.853544
0.000000 0.087098 0.512322
0.000000 0.096040 0.517174
0.000000 0.123201 0.531090
0.180636 0.164126 0.555688
0.338262 0.209049 0.584955
0.497261 0.254032 0.615137
0.688960 0.299748 0.656214
0.861234 0.394842 0.699458
0.000000 0.128267 0.522484
0.000000 0.134585 0.526177
0.000000 0.155886 0.538811
0.192569 0.189761 0.561517
0.345647 0.229282 0.588495
0.503166 0.271122 0.617762
0.692805 0.315862 0.658045
0.862272 0.408759 0.700832
0.000000 0.220706 0.555444
0.000000 0.224949 0.558221
0.049744 0.239597 0.568475
0.239048 0.263523 0.585718
0.383001 0.293584 0.607416
0.534936 0.328771 0.632105
0.713863 0.373388 0.668269
0.870359 0.459846 0.708705
0.000000 0.331762 0.592035
0.000000 0.334600 0.594263
0.179904 0.345464 0.603601
0.309972 0.364965 0.619074
0.447700 0.389929 0.636805
0.591882 0.420874 0.656916
0.749660 0.465095 0.687007
0.884672 0.540337 0.724178
0.199985 0.453712 0.629053
0.223880 0.456580 0.631159
0.294713 0.465797 0.638025
0.395178 0.480262 0.649012
0.512627 0.497139 0.661952
0.645655 0.523796 0.680018
0.779965 0.564538 0.705501
0.897276 0.625147 0.740749
0.357794 0.587884 0.669551
0.375860 0.591150 0.671870
0.429419 0.598199 0.676967
0.509819 0.609552 0.685420
0.605921 0.624079 0.696559
0.716579 0.647089 0.713741
0.824094 0.681209 0.738338
0.919432 0.731655 0.774136
0.545617 0.732143 0.722103
0.558465 0.733883 0.723995
0.595911 0.737087 0.728054
0.653071 0.743679 0.735470
0.720607 0.754086 0.745693
0.794858 0.769772 0.760128
0.869657 0.792020 0.781827
0.940887 0.832670 0.817960
0.736263 0.856413 0.790860
0.741390 0.856779 0.791623
0.759304 0.858732 0.794827
0.790127 0.864225 0.801633
0.828428 0.872068 0.810452
0.872862 0.883391 0.822873
0.922423 0.900023 0.845243
0.963653 0.919127 0.870176
0.000000 0.105379 0.624384
0.000000 0.112673 0.627436
0.000000 0.135561 0.636683
0.237339 0.169284 0.651545
0.392889 0.208255 0.670192
0.549920 0.251469 0.692317
0.705226 0.305058 0.716579
0.865873 0.404120 0.757595
0.000000 0.142794 0.630579
0.000000 0.148318 0.633265
0.000000 0.166384 0.641505
0.245853 0.194522 0.654932
0.399268 0.229435 0.672938
0.555016 0.269627 0.694453
0.708278 0.321172 0.718013
0.866361 0.416846 0.758206
0.000000 0.229892 0.649592
0.000000 0.233494 0.651575
0.111086 0.245914 0.658076
0.279179 0.266819 0.669825
0.427375 0.294316 0.685786
0.579065 0.329381 0.705409
0.726894 0.378241 0.727443
0.874846 0.467750 0.765621
0.000000 0.342412 0.675013
0.000000 0.343114 0.676234
0.187411 0.347967 0.681575
0.329290 0.364446 0.691798
0.472145 0.387579 0.705592
0.618250 0.420264 0.722652
0.755459 0.465309 0.742397
0.886870 0.543603 0.777401
0.227787 0.472999 0.704768
0.249058 0.474128 0.705898
0.313115 0.478065 0.710018
0.404608 0.483070 0.716640
0.526268 0.496773 0.726680
0.662928 0.525933 0.741817
0.786831 0.566918 0.760128
0.901183 0.630701 0.793027
0.402350 0.608942 0.739010
0.416907 0.610346 0.740017
0.463691 0.614832 0.743465
0.534905 0.621820 0.749020
0.622858 0.631128 0.756374
0.724025 0.647883 0.767849
0.826841 0.679896 0.786282
0.919280 0.725795 0.815305
0.573022 0.736721 0.775906
0.583337 0.737819 0.776944
0.616052 0.741115 0.779904
0.666011 0.747097 0.785214
0.727932 0.756100 0.792905
0.797543 0.769955 0.804227
0.870451 0.791592 0.821225
0.940368 0.825956 0.847593
0.740749 0.855406 0.828855
0.746059 0.856138 0.829740
0.764584 0.859403 0.833310
0.793332 0.864714 0.838773
0.830442 0.872679 0.846586
0.873014 0.884123 0.857237
0.918791 0.899626 0.871611
0.963500 0.920317 0.894438
0.000000 0.120211 0.752926
0.000000 0.126162 0.754726
0.176120 0.145449 0.760159
0.327214 0.175967 0.769924
0.473854 0.216556 0.782864
0.621332 0.268681 0.798276
0.761563 0.339879 0.815488
0.879728 0.431739 0.833310
0.000000 0.155764 0.756069
0.000000 0.160372 0.757748
0.180667 0.175998 0.762966
0.331151 0.202243 0.772213
0.477485 0.238682 0.784726
0.624598 0.287572 0.799741
0.763882 0.356115 0.816464
0.880766 0.444587 0.834134
0.000000 0.239536 0.766354
0.000000 0.242924 0.767697
0.195743 0.254063 0.772122
0.345617 0.274937 0.780941
0.492073 0.304723 0.792264
0.637812 0.347692 0.805875
0.774075 0.410529 0.821500
0.886137 0.490028 0.838529
0.000000 0.341436 0.781186
0.000000 0.344152 0.782498
0.220493 0.353460 0.786343
0.369757 0.370703 0.793637
0.517449 0.397314 0.803708
0.661738 0.436835 0.815885
0.791287 0.491218 0.830289
0.895506 0.559747 0.846525
0.261204 0.490852 0.803647
0.278691 0.490455 0.804318
0.330724 0.487465 0.805631
0.404517 0.478340 0.807523
0.551873 0.502556 0.816281
0.691615 0.537682 0.827512
0.813016 0.586023 0.841428
0.907774 0.642206 0.858091
0.468208 0.637049 0.829709
0.478309 0.637232 0.829984
0.511742 0.637568 0.830961
0.564324 0.636896 0.832578
0.633509 0.635554 0.834897
0.734859 0.651209 0.842954
0.841428 0.689723 0.857847
0.923827 0.734340 0.875273
0.647456 0.767849 0.858213
0.653712 0.768307 0.858488
0.674342 0.769619 0.859617
0.708675 0.772061 0.861906
0.754421 0.775845 0.865415
0.808743 0.781247 0.870481
0.874266 0.795315 0.879911
0.941833 0.829007 0.897948
0.774746 0.871397 0.889067
0.778408 0.871824 0.889433
0.790951 0.873533 0.890929
0.812985 0.877043 0.893950
0.842832 0.882597 0.898558
0.878965 0.890867 0.905272
0.920348 0.903502 0.915373
0.963470 0.923125 0.930968
