其他预设/【232】美食博客调色预设124款/1.3D LUT预设（视频调色-PR-AE-PS-FCPX-达芬奇用）/Food Art #27.cube
# Created by Adobe Lightroom plugin Export LUT (1.17.0)
# www.johnrellis.com/lightroom/exportlut.htm
# Preset: Food Art #27
# Color profile: /Library/Application Support/Adobe/Color/Profiles/Recommended/AdobeRGB1998.icc
LUT_3D_SIZE 8
DOMAIN_MIN 0.000000 0.000000 0.000000
DOMAIN_MAX 0.903226 0.903226 0.903226
0.269749 0.157443 0.289677
0.315496 0.152895 0.294652
0.406592 0.141482 0.305791
0.529717 0.122652 0.323003
0.675380 0.108827 0.345373
0.814267 0.138643 0.372015
0.922454 0.198642 0.407111
1.000000 0.279057 0.456611
0.281193 0.199130 0.300298
0.324010 0.195956 0.304387
0.410559 0.181064 0.313573
0.531090 0.170291 0.329808
0.674525 0.169131 0.350378
0.810819 0.192752 0.375280
0.918669 0.237278 0.409216
1.000000 0.305394 0.458625
0.309483 0.284123 0.327031
0.340917 0.283238 0.329992
0.429816 0.281041 0.340337
0.548486 0.282506 0.352544
0.688106 0.297032 0.368536
0.817929 0.319768 0.390936
0.923491 0.349310 0.426062
1.000000 0.395392 0.475502
0.348058 0.417884 0.362036
0.376898 0.417823 0.363897
0.461769 0.420417 0.370642
0.583398 0.437507 0.384436
0.715602 0.460792 0.398138
0.829404 0.472786 0.417975
0.923949 0.485084 0.451179
0.999908 0.511681 0.498878
0.388556 0.598962 0.396094
0.416754 0.599237 0.397436
0.499184 0.602411 0.403052
0.609644 0.611719 0.413947
0.725551 0.623316 0.429389
0.831601 0.626612 0.449165
0.920745 0.625788 0.481544
0.994812 0.639094 0.529656
0.438697 0.757687 0.438056
0.462715 0.760494 0.440864
0.530724 0.760555 0.446021
0.624201 0.762417 0.455970
0.725795 0.765713 0.470558
0.829831 0.772122 0.490303
0.920623 0.768124 0.521355
0.990112 0.767453 0.570367
0.516930 0.877775 0.499092
0.532372 0.878080 0.500786
0.579644 0.876829 0.505455
0.650935 0.876310 0.515007
0.733913 0.876066 0.528832
0.822293 0.877745 0.548699
0.910552 0.880949 0.573632
0.984314 0.878264 0.614191
0.630701 0.962890 0.581903
0.639277 0.962615 0.583276
0.668849 0.962005 0.588586
0.717586 0.961639 0.599268
0.773922 0.958679 0.609613
0.841855 0.958740 0.630396
0.910857 0.959716 0.656733
0.975463 0.960937 0.685298
0.269810 0.156497 0.330236
0.313024 0.151919 0.334722
0.402838 0.151858 0.344396
0.526024 0.136446 0.361578
0.670893 0.114107 0.378485
0.806912 0.133913 0.399542
0.915618 0.196719 0.429603
0.999542 0.282231 0.473884
0.280522 0.196841 0.339452
0.322789 0.194491 0.343603
0.408423 0.188602 0.353063
0.529564 0.177920 0.366125
0.672480 0.170901 0.382025
0.806180 0.189487 0.402411
0.913085 0.235874 0.431464
0.997253 0.307439 0.475135
0.313756 0.281071 0.359106
0.345861 0.280247 0.364508
0.427741 0.279423 0.372320
0.545647 0.282261 0.382208
0.684138 0.294499 0.395697
0.811582 0.314885 0.414984
0.915496 0.345098 0.444800
0.997803 0.395148 0.489693
0.348608 0.413703 0.388983
0.376226 0.414557 0.390478
0.460243 0.418402 0.396307
0.575738 0.429114 0.407416
0.703914 0.448890 0.418952
0.818967 0.463081 0.436347
0.915831 0.478981 0.465980
0.994873 0.510124 0.510338
0.385260 0.596612 0.418799
0.413306 0.596368 0.420020
0.495735 0.598169 0.424781
0.604456 0.604364 0.433875
0.718898 0.614649 0.447089
0.825925 0.620325 0.465278
0.916411 0.622766 0.495491
0.991485 0.638911 0.540459
0.438056 0.753536 0.455879
0.460395 0.753689 0.457282
0.528222 0.754116 0.461982
0.621790 0.756954 0.471534
0.723720 0.761776 0.485481
0.828183 0.769772 0.504662
0.918334 0.766567 0.533959
0.987762 0.767147 0.579614
0.518883 0.873198 0.510796
0.532982 0.872465 0.511620
0.580011 0.871916 0.516350
0.651545 0.872496 0.526146
0.734432 0.873350 0.540032
0.821714 0.875090 0.558679
0.908507 0.877989 0.581476
0.981811 0.875822 0.619867
0.634363 0.960510 0.590051
0.643244 0.960510 0.591638
0.672389 0.960082 0.596979
0.720485 0.959960 0.607630
0.779660 0.959350 0.621912
0.844724 0.958740 0.640497
0.911315 0.959075 0.663813
0.974823 0.960052 0.690333
0.273808 0.155154 0.408759
0.308354 0.152926 0.411963
0.403082 0.151553 0.422065
0.527672 0.134401 0.440284
0.673426 0.088991 0.457282
0.810239 0.101015 0.472450
0.915679 0.206546 0.497292
0.997375 0.313939 0.531701
0.293309 0.193637 0.416693
0.325170 0.193454 0.419501
0.409277 0.188876 0.427222
0.531579 0.174258 0.443000
0.676234 0.149813 0.457557
0.809201 0.171664 0.473823
0.913878 0.244755 0.498299
0.996033 0.337713 0.533104
0.319646 0.279545 0.433631
0.348486 0.279332 0.436042
0.428229 0.278538 0.442573
0.548577 0.277714 0.452674
0.689815 0.286503 0.466865
0.813779 0.310613 0.483772
0.914305 0.353063 0.507561
0.994537 0.417609 0.542321
0.350652 0.414191 0.461189
0.376532 0.415808 0.462165
0.457313 0.421790 0.464607
0.576989 0.431403 0.474342
0.706722 0.449409 0.485176
0.820279 0.465309 0.500298
0.915251 0.488838 0.524163
0.992248 0.530510 0.559747
0.386297 0.595331 0.487892
0.411658 0.596735 0.487861
0.491432 0.600549 0.488411
0.603967 0.607294 0.496132
0.720455 0.617853 0.506737
0.825620 0.622644 0.521477
0.914427 0.629725 0.546166
0.988251 0.653773 0.583978
0.442725 0.752560 0.510582
0.465675 0.752804 0.512078
0.534081 0.752926 0.516991
0.625330 0.754849 0.524193
0.724941 0.759274 0.535149
0.826749 0.767239 0.550866
0.914977 0.767544 0.576684
0.984955 0.775296 0.616968
0.534936 0.872374 0.551995
0.552880 0.871397 0.555535
0.599725 0.869993 0.561852
0.665278 0.869993 0.569390
0.743038 0.870909 0.580743
0.826291 0.873747 0.596948
0.909850 0.878477 0.618097
0.980804 0.879576 0.654292
0.652888 0.958190 0.621454
0.663661 0.957397 0.624842
0.689631 0.956939 0.629084
0.735134 0.957549 0.639612
0.789853 0.957244 0.652094
0.851072 0.957488 0.668574
0.914366 0.958556 0.689601
0.975341 0.960296 0.713893
0.288487 0.151247 0.508385
0.322698 0.149996 0.511559
0.415045 0.143160 0.518944
0.531975 0.128603 0.529625
0.674342 0.083162 0.550500
0.805966 0.103273 0.562005
0.910369 0.213840 0.572076
0.990967 0.351171 0.596460
0.305394 0.191714 0.516411
0.335515 0.189517 0.518303
0.422126 0.181643 0.523919
0.537407 0.169680 0.533501
0.678523 0.147921 0.552331
0.806668 0.169711 0.562463
0.909545 0.255680 0.573419
0.989685 0.380163 0.599817
0.325780 0.283207 0.528313
0.352148 0.281682 0.530083
0.434119 0.276066 0.535393
0.553155 0.274907 0.543786
0.691279 0.280003 0.558160
0.813748 0.311742 0.568750
0.912230 0.382635 0.586786
0.989288 0.463783 0.611414
0.358068 0.417334 0.546838
0.382940 0.418494 0.548302
0.461952 0.422248 0.552789
0.579156 0.430426 0.559869
0.706264 0.445228 0.568261
0.817380 0.470680 0.579614
0.910338 0.509575 0.597192
0.986542 0.563561 0.623651
0.396643 0.596185 0.569604
0.420661 0.596521 0.569696
0.496803 0.599878 0.570733
0.608423 0.607752 0.576715
0.722683 0.619013 0.584802
0.824613 0.628595 0.596429
0.911223 0.645472 0.614771
0.983581 0.676143 0.642786
0.456458 0.753445 0.581201
0.480110 0.755489 0.583062
0.548180 0.754574 0.587121
0.643610 0.755428 0.598260
0.735378 0.760494 0.606500
0.829129 0.768246 0.618067
0.912352 0.772915 0.638025
0.980926 0.786709 0.669703
0.547662 0.870817 0.604303
0.565576 0.870481 0.607324
0.620264 0.869169 0.617853
0.690883 0.868650 0.632136
0.760067 0.870451 0.641291
0.835080 0.873594 0.654017
0.911162 0.878508 0.670344
0.978241 0.882322 0.699550
0.663294 0.957794 0.659236
0.674586 0.957336 0.662928
0.709071 0.955627 0.673945
0.753750 0.954742 0.685939
0.802640 0.955016 0.695705
0.858701 0.955901 0.709133
0.917815 0.957733 0.726802
0.975586 0.960357 0.747860
0.326909 0.141512 0.613001
0.357702 0.138064 0.614771
0.444709 0.124056 0.619074
0.557977 0.098146 0.626276
0.682216 0.074311 0.637140
0.806577 0.111910 0.646265
0.908659 0.222934 0.648005
0.989044 0.360296 0.658350
0.333989 0.182925 0.617700
0.363745 0.179660 0.619257
0.448524 0.168032 0.622889
0.560662 0.151339 0.628809
0.685176 0.145693 0.639063
0.808072 0.176150 0.647150
0.908782 0.265263 0.649195
0.988159 0.389502 0.660945
0.339330 0.281682 0.626795
0.365087 0.277623 0.628321
0.452613 0.271885 0.631006
0.570092 0.270329 0.636927
0.693690 0.279576 0.644404
0.810513 0.310857 0.649165
0.907378 0.379156 0.654200
0.984527 0.472663 0.669276
0.370336 0.424933 0.637964
0.395087 0.424384 0.638880
0.473396 0.423835 0.642390
0.587366 0.429175 0.647425
0.707759 0.445655 0.653162
0.815610 0.477089 0.657740
0.905943 0.525231 0.667231
0.980346 0.586511 0.686091
0.414252 0.590936 0.650965
0.437354 0.592004 0.651759
0.509575 0.595117 0.653925
0.615137 0.602350 0.657618
0.722683 0.613947 0.662562
0.820096 0.631708 0.670222
0.905119 0.657008 0.682704
0.977569 0.691310 0.702388
0.471901 0.746914 0.657435
0.492164 0.746975 0.657954
0.556023 0.746395 0.659815
0.647578 0.747616 0.665949
0.740352 0.752438 0.675563
0.828122 0.764096 0.685969
0.908476 0.775906 0.701686
0.976593 0.793545 0.724025
0.563012 0.867277 0.669886
0.578637 0.866606 0.671504
0.628107 0.865110 0.677760
0.698543 0.864408 0.689418
0.770535 0.866026 0.702296
0.839506 0.870603 0.712123
0.910460 0.876524 0.724544
0.974914 0.882567 0.746883
0.669947 0.954620 0.707393
0.680018 0.954070 0.709804
0.711696 0.952636 0.717556
0.760006 0.952575 0.731197
0.810575 0.952361 0.743130
0.863096 0.953796 0.753841
0.919219 0.956207 0.768124
0.974731 0.959380 0.785428
0.373999 0.123476 0.717800
0.400092 0.118654 0.718563
0.475868 0.101015 0.720546
0.578973 0.071748 0.725734
0.691463 0.066438 0.732387
0.807156 0.127413 0.739162
0.907408 0.237919 0.735012
0.986786 0.375128 0.733669
0.374548 0.169619 0.718593
0.400000 0.165988 0.719173
0.475532 0.153780 0.721340
0.578882 0.140200 0.726375
0.691493 0.145083 0.732357
0.807126 0.185702 0.739132
0.906767 0.276463 0.735164
0.985657 0.401434 0.734981
0.370428 0.273411 0.726406
0.397467 0.272160 0.726894
0.477272 0.269017 0.728847
0.583581 0.270451 0.732479
0.696620 0.285161 0.736812
0.810910 0.319677 0.742336
0.906493 0.389624 0.738552
0.983001 0.484443 0.741390
0.398352 0.422705 0.734188
0.421454 0.421820 0.734432
0.495491 0.422705 0.736294
0.600793 0.433875 0.740200
0.710292 0.454688 0.744015
0.817258 0.486091 0.748409
0.906188 0.533989 0.746914
0.979278 0.595026 0.753475
0.442176 0.581109 0.740261
0.463478 0.581964 0.740719
0.531121 0.586023 0.742184
0.628687 0.598230 0.744320
0.726406 0.615229 0.746853
0.820249 0.634760 0.751492
0.903288 0.662959 0.755276
0.974212 0.699519 0.766140
0.498146 0.738643 0.748043
0.517662 0.739834 0.748836
0.577234 0.742031 0.749996
0.659724 0.746242 0.752102
0.745754 0.752865 0.755001
0.828824 0.763912 0.761013
0.905333 0.779171 0.770474
0.972442 0.799222 0.784695
0.582910 0.865629 0.753109
0.597742 0.865629 0.754238
0.642512 0.864683 0.757107
0.706386 0.864225 0.762356
0.774746 0.865599 0.769223
0.843809 0.869566 0.778653
0.910491 0.876677 0.787991
0.972656 0.885435 0.804501
0.681147 0.952789 0.772244
0.689906 0.952331 0.773556
0.718410 0.951232 0.778103
0.761501 0.950713 0.785702
0.812253 0.950683 0.795193
0.866453 0.951843 0.806760
0.920348 0.955138 0.818326
0.973754 0.959014 0.832181
0.405982 0.109285 0.820035
0.427283 0.105409 0.820737
0.492042 0.092195 0.822324
0.582849 0.080201 0.825040
0.684443 0.104250 0.828153
0.790524 0.169131 0.831815
0.898222 0.254520 0.835843
0.980835 0.386175 0.823606
0.405371 0.158785 0.820645
0.426581 0.156100 0.821256
0.491371 0.148653 0.822660
0.582544 0.145541 0.824918
0.684565 0.165103 0.827878
0.790555 0.214847 0.831327
0.897490 0.289616 0.835172
0.979553 0.409552 0.823484
0.404486 0.267887 0.824796
0.426459 0.267369 0.825040
0.493416 0.267704 0.825895
0.586389 0.274632 0.827604
0.688869 0.295842 0.829831
0.793881 0.336858 0.832822
0.898131 0.398169 0.836423
0.977722 0.490883 0.827146
0.430457 0.414099 0.828977
0.450996 0.414771 0.828824
0.515496 0.420294 0.829252
0.604608 0.432807 0.830564
0.702754 0.456306 0.832242
0.802060 0.491554 0.834806
0.898650 0.534966 0.838376
0.974426 0.596643 0.832883
0.477821 0.569024 0.832059
0.496010 0.570581 0.831998
0.555138 0.578271 0.831998
0.639033 0.594659 0.832181
0.725246 0.613581 0.833310
0.812375 0.636347 0.836088
0.898650 0.663294 0.840116
0.970764 0.701564 0.840208
0.538170 0.719692 0.836698
0.553887 0.721126 0.836759
0.603479 0.726528 0.837003
0.673732 0.735927 0.837613
0.750668 0.748409 0.838651
0.827054 0.763149 0.841276
0.901823 0.778744 0.846494
0.968444 0.800290 0.851316
0.605158 0.853758 0.843900
0.617395 0.854276 0.844175
0.656397 0.855589 0.844816
0.712337 0.858244 0.846067
0.776089 0.862028 0.848051
0.842649 0.867582 0.851469
0.908171 0.875486 0.857267
0.968536 0.886809 0.866880
0.688685 0.950195 0.849577
0.696712 0.950011 0.850156
0.723537 0.949859 0.852506
0.763699 0.949615 0.855802
0.812863 0.949859 0.860594
0.866484 0.951202 0.867399
0.920836 0.954009 0.876982
0.972015 0.958862 0.887327
0.423713 0.110811 0.920623
0.441474 0.109194 0.920897
0.496803 0.106996 0.921324
0.577661 0.117128 0.922454
0.671199 0.157046 0.923857
0.770169 0.223850 0.925414
0.870909 0.311467 0.926970
0.967926 0.411261 0.928252
0.423865 0.158419 0.920745
0.441535 0.157870 0.921019
0.497108 0.157961 0.921477
0.578485 0.168612 0.922423
0.672236 0.201816 0.923735
0.771145 0.260624 0.925139
0.871305 0.341070 0.926543
0.967376 0.433783 0.927764
0.428351 0.267796 0.921782
0.446235 0.268681 0.921935
0.502556 0.273075 0.922118
0.584894 0.287755 0.923125
0.678492 0.317296 0.924010
0.776242 0.366033 0.924865
0.873930 0.433173 0.925963
0.966186 0.506035 0.927337
0.459846 0.411994 0.922484
0.476753 0.414191 0.922637
0.529320 0.421546 0.922667
0.607019 0.438239 0.923125
0.696223 0.467140 0.923613
0.788296 0.506554 0.924315
0.878904 0.553796 0.925475
0.964660 0.604486 0.927337
0.514458 0.565606 0.923308
0.530114 0.568658 0.923247
0.578180 0.578912 0.922637
0.646876 0.595605 0.921782
0.722927 0.615534 0.922301
0.803983 0.641840 0.923278
0.885100 0.672480 0.925170
0.963226 0.705867 0.928130
0.578851 0.711421 0.924804
0.590723 0.713344 0.924620
0.628779 0.719905 0.924102
0.685847 0.730831 0.923430
0.752682 0.745296 0.922881
0.822751 0.762264 0.924071
0.893797 0.781704 0.927276
0.963165 0.803037 0.931456
0.646479 0.839445 0.928283
0.655360 0.840421 0.928222
0.684047 0.843442 0.928038
0.728695 0.848631 0.928130
0.783536 0.855680 0.928527
0.843595 0.864530 0.929473
0.905058 0.875792 0.932036
0.964477 0.888121 0.937041
0.709773 0.942351 0.934783
0.716030 0.942535 0.934813
0.737209 0.943206 0.935119
0.772091 0.944610 0.935882
0.816556 0.946715 0.937163
0.866758 0.949584 0.939208
0.919341 0.953521 0.942535
0.969421 0.959106 0.948058
