其他预设/【232】美食博客调色预设124款/1.3D LUT预设（视频调色-PR-AE-PS-FCPX-达芬奇用）/Food Art #18.cube
# Created by Adobe Lightroom plugin Export LUT (1.17.0)
# www.johnrellis.com/lightroom/exportlut.htm
# Preset: Food Art #18
# Color profile: /Library/Application Support/Adobe/Color/Profiles/Recommended/AdobeRGB1998.icc
LUT_3D_SIZE 32
0.164675 0.153323 0.136110
0.172366 0.153628 0.136324
0.182773 0.153628 0.136446
0.203616 0.154269 0.137240
0.229404 0.154910 0.138003
0.255772 0.155978 0.138857
0.282719 0.156985 0.139986
0.310460 0.158450 0.141299
0.339635 0.159915 0.142611
0.370855 0.161135 0.144045
0.404852 0.162234 0.145541
0.440925 0.163607 0.146853
0.479072 0.164889 0.148013
0.518975 0.166293 0.149477
0.560113 0.167880 0.150759
0.602228 0.169284 0.152346
0.644984 0.170260 0.153384
0.686458 0.172122 0.154757
0.725551 0.174350 0.156161
0.766629 0.176913 0.158145
0.805631 0.180301 0.160372
0.841733 0.184207 0.163607
0.874815 0.189242 0.167025
0.904997 0.195102 0.171542
0.932708 0.201541 0.176608
0.958373 0.208804 0.182803
0.982269 0.217472 0.189914
1.000000 0.227207 0.198093
1.000000 0.238285 0.207553
1.000000 0.250950 0.218448
1.000000 0.265537 0.231632
1.000000 0.282567 0.247135
0.164370 0.161654 0.135470
0.172244 0.160861 0.135775
0.182986 0.160952 0.135378
0.204562 0.161135 0.135500
0.230045 0.161318 0.136355
0.256291 0.161624 0.137301
0.282902 0.162509 0.138796
0.310613 0.163638 0.140322
0.339635 0.164797 0.141848
0.370764 0.166018 0.143099
0.404517 0.167361 0.144625
0.440589 0.168704 0.145937
0.478492 0.169924 0.147433
0.518242 0.171542 0.149050
0.559228 0.172946 0.150240
0.601312 0.174380 0.151827
0.643946 0.175753 0.152712
0.685298 0.177432 0.153841
0.724544 0.179416 0.155550
0.765377 0.182162 0.157595
0.804135 0.185214 0.159640
0.840177 0.188937 0.162631
0.873259 0.193606 0.166232
0.903532 0.198947 0.170687
0.931395 0.205173 0.175540
0.957183 0.212436 0.181491
0.981231 0.220401 0.188693
1.000000 0.229892 0.197024
1.000000 0.240513 0.206363
1.000000 0.252903 0.217319
1.000000 0.267155 0.230167
1.000000 0.283696 0.245701
0.163455 0.172488 0.134707
0.172152 0.172366 0.134249
0.182132 0.170626 0.135256
0.204074 0.171298 0.134646
0.231022 0.170077 0.134035
0.256962 0.169680 0.135592
0.283482 0.169680 0.137209
0.310765 0.170474 0.139132
0.339696 0.171572 0.140505
0.370794 0.172488 0.142123
0.404395 0.173678 0.143679
0.440436 0.175387 0.145113
0.478370 0.176547 0.146792
0.517998 0.178317 0.148104
0.558862 0.179873 0.149752
0.600977 0.181125 0.150912
0.643519 0.182925 0.152071
0.684749 0.184512 0.153079
0.723964 0.186313 0.154971
0.764797 0.189090 0.156435
0.803494 0.191775 0.158938
0.839414 0.195224 0.161746
0.872526 0.199863 0.165072
0.902892 0.204623 0.169467
0.930755 0.210452 0.174746
0.956603 0.217136 0.180545
0.980682 0.224704 0.187778
1.000000 0.233921 0.195743
1.000000 0.244205 0.205142
1.000000 0.255985 0.216312
1.000000 0.269780 0.229404
1.000000 0.285893 0.244511
0.162234 0.194614 0.132265
0.171176 0.194339 0.131991
0.182437 0.193637 0.131655
0.202396 0.190402 0.133852
0.228214 0.189090 0.134005
0.258396 0.187076 0.131411
0.284703 0.185458 0.133639
0.311894 0.184970 0.135927
0.340612 0.185275 0.138094
0.371496 0.185885 0.139956
0.404944 0.187259 0.141543
0.440864 0.188724 0.143313
0.478614 0.190219 0.144991
0.518029 0.192325 0.146609
0.558831 0.193759 0.147951
0.600885 0.195407 0.149111
0.643305 0.197147 0.150271
0.684413 0.198581 0.151614
0.723995 0.200656 0.152987
0.764218 0.202823 0.154635
0.802457 0.205570 0.156680
0.838224 0.208499 0.159701
0.871336 0.212222 0.163180
0.901884 0.216648 0.167605
0.930083 0.221592 0.172824
0.956176 0.227695 0.178775
0.980529 0.234653 0.185611
1.000000 0.242893 0.194064
1.000000 0.252445 0.203494
1.000000 0.263310 0.214420
1.000000 0.276097 0.227359
1.000000 0.291417 0.242496
0.160800 0.220523 0.129671
0.169223 0.220066 0.129458
0.180179 0.219608 0.128939
0.201114 0.217594 0.129641
0.225376 0.212833 0.133211
0.251438 0.210178 0.134646
0.283055 0.208682 0.131563
0.313268 0.206485 0.130617
0.341680 0.205570 0.133944
0.372320 0.205814 0.136446
0.405768 0.206668 0.138430
0.441321 0.208286 0.140383
0.479011 0.209842 0.142092
0.518242 0.211856 0.143893
0.559106 0.213779 0.145022
0.600916 0.215579 0.146334
0.643519 0.217227 0.147341
0.684596 0.219028 0.148379
0.724758 0.220768 0.150271
0.764492 0.222995 0.151522
0.802396 0.225132 0.153750
0.837888 0.227604 0.156924
0.870909 0.230747 0.160098
0.901427 0.234226 0.164584
0.929595 0.238376 0.169680
0.955779 0.243229 0.175723
0.980133 0.249302 0.182742
1.000000 0.256291 0.191196
1.000000 0.264530 0.200534
1.000000 0.274296 0.211612
1.000000 0.285863 0.224338
1.000000 0.299718 0.239628
0.159396 0.246891 0.127108
0.167544 0.246616 0.126864
0.177707 0.246159 0.126558
0.197757 0.245182 0.126070
0.223789 0.241550 0.128389
0.249516 0.236057 0.132906
0.275120 0.232670 0.136538
0.308019 0.232700 0.133181
0.341924 0.231571 0.129854
0.374090 0.230777 0.131228
0.407385 0.231113 0.133730
0.442817 0.232425 0.136141
0.480201 0.234043 0.138338
0.519402 0.235874 0.139864
0.560143 0.237858 0.140993
0.601953 0.240024 0.142275
0.644434 0.241947 0.143221
0.685328 0.243534 0.144472
0.726070 0.245518 0.145785
0.765469 0.247288 0.147341
0.803128 0.249027 0.149813
0.838529 0.250980 0.152712
0.880949 0.256260 0.157656
0.910521 0.259068 0.162478
0.937682 0.262303 0.168276
0.962768 0.266270 0.174716
0.986206 0.271000 0.182162
1.000000 0.276890 0.190585
1.000000 0.283879 0.200473
1.000000 0.292332 0.211521
1.000000 0.302525 0.224521
1.000000 0.314977 0.239689
0.159030 0.275151 0.124910
0.166629 0.274723 0.124544
0.176333 0.274418 0.124605
0.195499 0.273564 0.124147
0.221286 0.272313 0.123354
0.249393 0.267155 0.128206
0.275731 0.261448 0.133669
0.300877 0.257237 0.138857
0.335851 0.258915 0.135225
0.372808 0.259770 0.131411
0.411597 0.260563 0.127626
0.447089 0.261479 0.130159
0.484627 0.262791 0.132448
0.523827 0.264561 0.134127
0.564416 0.266331 0.135622
0.605890 0.268498 0.136538
0.647883 0.270512 0.137392
0.689693 0.272343 0.138552
0.730282 0.274144 0.140047
0.769772 0.275761 0.141756
0.807706 0.277440 0.144228
0.843626 0.279088 0.147250
0.877012 0.281041 0.151217
0.907774 0.283116 0.156008
0.935882 0.285649 0.161807
0.961578 0.288579 0.168673
0.985260 0.292088 0.176608
1.000000 0.296605 0.185458
1.000000 0.302068 0.195010
1.000000 0.308995 0.206332
1.000000 0.317388 0.219242
1.000000 0.328008 0.234165
0.159854 0.302983 0.123476
0.167056 0.302708 0.123293
0.175998 0.302373 0.123384
0.194217 0.301671 0.122988
0.219028 0.300633 0.122408
0.247471 0.298192 0.123476
0.275822 0.292943 0.128939
0.302312 0.287236 0.135012
0.326940 0.282383 0.142428
0.364080 0.286015 0.138064
0.403845 0.289128 0.133150
0.445624 0.291539 0.127596
0.486519 0.293217 0.125063
0.525566 0.294926 0.126436
0.565850 0.296757 0.128359
0.607111 0.298680 0.129000
0.649531 0.300938 0.129885
0.691463 0.302953 0.130831
0.731319 0.304417 0.132235
0.770230 0.305608 0.134401
0.807645 0.306798 0.136690
0.843168 0.308080 0.139712
0.876341 0.309148 0.143954
0.906950 0.310216 0.149081
0.934966 0.311772 0.154940
0.960693 0.313451 0.161898
0.984436 0.315709 0.169467
1.000000 0.318547 0.178317
1.000000 0.322759 0.188418
1.000000 0.327916 0.199619
1.000000 0.334874 0.212558
1.000000 0.343542 0.227420
0.161593 0.332647 0.122866
0.168399 0.332403 0.122499
0.176730 0.332219 0.122805
0.194369 0.331579 0.122408
0.218326 0.330724 0.121645
0.246036 0.329686 0.121126
0.275639 0.326055 0.124361
0.304204 0.320684 0.129915
0.331029 0.315068 0.136294
0.356512 0.310521 0.144076
0.395178 0.315496 0.139925
0.437140 0.320226 0.133883
0.481086 0.324315 0.126986
0.526726 0.327550 0.118898
0.568078 0.329564 0.118105
0.609827 0.331731 0.118959
0.652705 0.334173 0.119844
0.693812 0.335973 0.120394
0.732845 0.336767 0.122438
0.771267 0.337682 0.123995
0.808286 0.338476 0.126497
0.843412 0.338903 0.129732
0.876280 0.339208 0.134432
0.906676 0.339666 0.139467
0.934539 0.339940 0.145937
0.960174 0.340459 0.153506
0.983948 0.341558 0.161288
1.000000 0.343145 0.170352
1.000000 0.345647 0.180270
1.000000 0.349340 0.191653
1.000000 0.354406 0.204685
1.000000 0.361273 0.219303
0.162692 0.364813 0.120668
0.169192 0.364721 0.120638
0.177768 0.364416 0.120180
0.194522 0.363989 0.120363
0.218204 0.363287 0.119570
0.245640 0.362402 0.118868
0.275669 0.361303 0.117952
0.306065 0.356542 0.123323
0.335088 0.351141 0.129335
0.362371 0.345678 0.135927
0.388739 0.340978 0.143923
0.427893 0.346410 0.141421
0.472114 0.352880 0.133852
0.517906 0.358312 0.125124
0.565698 0.363195 0.115236
0.614130 0.367376 0.104738
0.656367 0.369635 0.105135
0.696742 0.370672 0.106569
0.735378 0.371221 0.108797
0.773190 0.371649 0.110658
0.809567 0.371771 0.113222
0.843961 0.371374 0.117525
0.876249 0.370886 0.121859
0.906126 0.370306 0.127413
0.933745 0.369543 0.134401
0.959289 0.368994 0.142336
0.983124 0.368750 0.150546
1.000000 0.369177 0.159823
1.000000 0.370367 0.170291
1.000000 0.372564 0.182010
1.000000 0.376104 0.195224
1.000000 0.381109 0.209995
0.162692 0.399329 0.117128
0.168917 0.399207 0.116915
0.177798 0.399023 0.116396
0.194827 0.398718 0.116152
0.218173 0.398169 0.115724
0.245487 0.397528 0.114717
0.275822 0.396826 0.113893
0.307530 0.394720 0.114595
0.338567 0.389624 0.120424
0.368383 0.384314 0.127291
0.396399 0.378698 0.134585
0.423316 0.373816 0.142519
0.462867 0.379522 0.141756
0.509911 0.388037 0.132418
0.558221 0.395148 0.121675
0.607233 0.401251 0.109285
0.655848 0.405432 0.094514
0.699031 0.406928 0.086366
0.737118 0.406714 0.088899
0.774441 0.406500 0.091920
0.810361 0.406104 0.095186
0.844480 0.405035 0.099886
0.876524 0.403906 0.105440
0.906157 0.402350 0.112428
0.933654 0.400671 0.119875
0.959075 0.399054 0.128206
0.982757 0.397620 0.137484
1.000000 0.396826 0.147494
1.000000 0.396674 0.158267
1.000000 0.397314 0.170169
1.000000 0.399145 0.183536
1.000000 0.402441 0.198825
0.161471 0.436347 0.110903
0.167849 0.436378 0.110628
0.176608 0.436164 0.110750
0.193942 0.435859 0.110048
0.217746 0.435492 0.109102
0.245487 0.434974 0.108186
0.276188 0.434455 0.106538
0.308721 0.433692 0.105104
0.341711 0.430457 0.108431
0.373602 0.425330 0.115236
0.404059 0.419959 0.123018
0.433661 0.415076 0.130770
0.467231 0.415106 0.139254
0.508324 0.421149 0.140414
0.557671 0.430976 0.128603
0.607752 0.439094 0.115084
0.656855 0.444923 0.099489
0.703029 0.447761 0.081300
0.746456 0.448493 0.058747
0.783932 0.447211 0.058900
0.818601 0.445411 0.065126
0.851408 0.443305 0.073487
0.882139 0.440589 0.081880
0.910796 0.437842 0.091035
0.937346 0.434882 0.101198
0.962127 0.431952 0.111604
0.985290 0.429450 0.122042
1.000000 0.427192 0.133364
1.000000 0.425544 0.145327
1.000000 0.424689 0.157595
1.000000 0.424994 0.171633
1.000000 0.426398 0.186984
0.158053 0.477821 0.100771
0.165133 0.477790 0.100465
0.174075 0.477577 0.100404
0.192142 0.477150 0.099641
0.216709 0.476661 0.098848
0.245182 0.475990 0.097658
0.276768 0.475288 0.095827
0.309972 0.474586 0.093629
0.344640 0.473976 0.090913
0.379309 0.470436 0.097749
0.413123 0.466407 0.106233
0.445838 0.462135 0.115023
0.476997 0.457618 0.124544
0.506340 0.452613 0.134524
0.546868 0.457832 0.138247
0.597253 0.468605 0.124300
0.646998 0.476722 0.108797
0.693812 0.481239 0.090700
0.737881 0.483314 0.069520
0.780148 0.483589 0.021515
0.818814 0.481849 0.000000
0.851316 0.478828 0.000000
0.881743 0.475441 0.018860
0.910155 0.471687 0.051637
0.936614 0.467842 0.070466
0.961334 0.463874 0.084932
0.984497 0.460121 0.099092
1.000000 0.456764 0.112093
1.000000 0.453925 0.125734
1.000000 0.451789 0.139345
1.000000 0.450507 0.153933
1.000000 0.450233 0.169955
0.152865 0.518608 0.086824
0.160952 0.518486 0.086183
0.170260 0.518395 0.086030
0.188754 0.517998 0.085420
0.214481 0.517388 0.083955
0.243931 0.517174 0.082704
0.276524 0.517052 0.079683
0.310826 0.517052 0.075929
0.346471 0.517021 0.072084
0.383062 0.516136 0.071595
0.418708 0.511986 0.082460
0.453254 0.507774 0.093080
0.486488 0.503105 0.104219
0.518151 0.498054 0.115572
0.547814 0.492592 0.126925
0.586206 0.495583 0.135348
0.636347 0.506126 0.119387
0.683711 0.512871 0.101961
0.728695 0.516533 0.081727
0.771817 0.518242 0.049805
0.812100 0.517723 0.000000
0.849332 0.515312 0.000000
0.881682 0.511192 0.000000
0.909911 0.506523 0.000000
0.936248 0.501640 0.000000
0.960876 0.496742 0.014893
0.984009 0.491981 0.059815
1.000000 0.487526 0.081636
1.000000 0.483528 0.098970
1.000000 0.480018 0.115480
1.000000 0.477394 0.132418
1.000000 0.475593 0.149416
0.145968 0.562890 0.062928
0.154391 0.562860 0.062318
0.164584 0.562646 0.061280
0.184268 0.562463 0.060151
0.211246 0.562097 0.058595
0.242069 0.561730 0.053773
0.275853 0.561303 0.046082
0.311131 0.561089 0.033967
0.347662 0.560937 0.019867
0.385351 0.561028 0.003174
0.422858 0.558618 0.017060
0.459113 0.554528 0.054292
0.494270 0.549889 0.073091
0.527977 0.545006 0.088777
0.559930 0.539330 0.102907
0.589715 0.533196 0.117098
0.625238 0.533440 0.131014
0.673365 0.542504 0.113710
0.719051 0.548272 0.094423
0.763119 0.551568 0.069825
0.804196 0.552453 0.012512
0.842313 0.550927 0.000000
0.877165 0.547478 0.000000
0.909117 0.542107 0.000000
0.935882 0.536278 0.000000
0.960510 0.530449 0.000000
0.983703 0.524681 0.000000
1.000000 0.519280 0.000000
1.000000 0.514244 0.048096
1.000000 0.509636 0.080079
1.000000 0.505760 0.102358
1.000000 0.502464 0.122866
0.136446 0.607996 0.000000
0.145693 0.608057 0.000000
0.156527 0.607904 0.000000
0.178317 0.607691 0.000000
0.206638 0.607355 0.000000
0.239628 0.606897 0.000000
0.274235 0.606622 0.000000
0.310582 0.606348 0.000000
0.348241 0.606134 0.000000
0.386389 0.605859 0.000000
0.425513 0.605707 0.000000
0.463172 0.601556 0.000000
0.499611 0.596735 0.000000
0.534844 0.591394 0.022950
0.568383 0.585626 0.065400
0.600305 0.579461 0.086244
0.630335 0.572992 0.104128
0.663416 0.570825 0.123781
0.709194 0.578149 0.107973
0.754208 0.583673 0.086305
0.796384 0.586206 0.054200
0.835447 0.585931 0.000000
0.871244 0.583337 0.000000
0.903899 0.578698 0.000000
0.933806 0.572595 0.000000
0.960815 0.565301 0.000000
0.983917 0.558465 0.000000
1.000000 0.552056 0.000000
1.000000 0.545861 0.000000
1.000000 0.540124 0.000000
1.000000 0.534752 0.037324
1.000000 0.530053 0.081666
0.125338 0.650416 0.000000
0.135592 0.650324 0.000000
0.148104 0.650141 0.000000
0.170748 0.649897 0.000000
0.201053 0.649470 0.000000
0.234867 0.649073 0.000000
0.270817 0.648585 0.000000
0.308110 0.648096 0.000000
0.346380 0.647608 0.000000
0.385046 0.647211 0.000000
0.424445 0.646784 0.000000
0.463508 0.645228 0.000000
0.501427 0.640711 0.000000
0.537926 0.635676 0.000000
0.573114 0.630121 0.000000
0.606592 0.624109 0.006744
0.638514 0.617700 0.065064
0.668879 0.611261 0.089570
0.701320 0.608179 0.112612
0.744442 0.613703 0.102113
0.787625 0.618067 0.076692
0.827543 0.619287 0.024109
0.864164 0.617731 0.000000
0.897673 0.613886 0.000000
0.928252 0.608331 0.000000
0.956390 0.601312 0.000000
0.982452 0.593256 0.000000
1.000000 0.585229 0.000000
1.000000 0.577996 0.000000
1.000000 0.571130 0.000000
1.000000 0.564599 0.000000
1.000000 0.558495 0.000000
0.113222 0.690700 0.000000
0.124056 0.690761 0.000000
0.136538 0.696956 0.000000
0.161990 0.696681 0.000000
0.194675 0.696162 0.000000
0.230259 0.695552 0.000000
0.267857 0.694697 0.000000
0.306249 0.693874 0.000000
0.345464 0.693050 0.000000
0.384894 0.692348 0.000000
0.424598 0.691585 0.000000
0.464515 0.690700 0.000000
0.503838 0.687373 0.000000
0.541680 0.682399 0.000000
0.578149 0.676936 0.000000
0.613214 0.671077 0.000000
0.646967 0.664973 0.000000
0.679103 0.658595 0.000000
0.709834 0.652186 0.067048
0.741726 0.648096 0.099458
0.781216 0.650813 0.095705
0.821683 0.653285 0.068330
0.858915 0.652644 0.000763
0.892851 0.649500 0.000000
0.923705 0.644251 0.000000
0.952026 0.637476 0.000000
0.978271 0.629450 0.000000
1.000000 0.620661 0.000000
1.000000 0.611109 0.000000
1.000000 0.602838 0.000000
1.000000 0.595148 0.000000
1.000000 0.587732 0.000000
0.096712 0.730983 0.000000
0.108766 0.731746 0.000000
0.125154 0.732448 0.000000
0.152255 0.732876 0.000000
0.186496 0.732998 0.000000
0.223850 0.732631 0.000000
0.261967 0.732021 0.000000
0.300969 0.731228 0.000000
0.340612 0.730465 0.000000
0.380255 0.729641 0.000000
0.420203 0.728756 0.000000
0.460151 0.727840 0.000000
0.500237 0.726741 0.000000
0.539086 0.722225 0.000000
0.576684 0.717128 0.000000
0.612970 0.711757 0.000000
0.648035 0.705989 0.000000
0.681727 0.700099 0.000000
0.714260 0.694087 0.000000
0.745541 0.688228 0.011536
0.776761 0.683558 0.083314
0.812924 0.683833 0.091676
0.851133 0.684779 0.061860
0.885954 0.682826 0.000000
0.917632 0.678431 0.000000
0.946685 0.672236 0.000000
0.973510 0.664698 0.000000
0.998505 0.656184 0.000000
1.000000 0.646906 0.000000
1.000000 0.636774 0.000000
1.000000 0.626429 0.000000
1.000000 0.617853 0.000000
0.075471 0.766964 0.000000
0.091554 0.767544 0.000000
0.111147 0.768185 0.000000
0.140902 0.768551 0.000000
0.177462 0.768643 0.000000
0.216068 0.768276 0.000000
0.255528 0.767636 0.000000
0.294682 0.766873 0.000000
0.334844 0.766110 0.000000
0.374823 0.765225 0.000000
0.414893 0.764309 0.000000
0.454994 0.763333 0.000000
0.494972 0.762142 0.000000
0.534569 0.759945 0.000000
0.573144 0.755306 0.000000
0.610376 0.750301 0.000000
0.646571 0.745052 0.000000
0.681483 0.739620 0.000000
0.715328 0.734035 0.000000
0.748074 0.728511 0.000000
0.779599 0.723018 0.000000
0.810300 0.718044 0.063600
0.843259 0.715724 0.089876
0.878935 0.715114 0.061463
0.911376 0.711696 0.000000
0.941039 0.706233 0.000000
0.968383 0.699184 0.000000
0.993866 0.691035 0.000000
1.000000 0.681941 0.000000
1.000000 0.672114 0.000000
1.000000 0.661463 0.000000
1.000000 0.649744 0.000000
0.028321 0.800992 0.000000
0.068391 0.801480 0.000000
0.091951 0.802060 0.000000
0.127687 0.802365 0.000000
0.166995 0.802365 0.000000
0.207309 0.801968 0.000000
0.247501 0.801389 0.000000
0.287755 0.800534 0.000000
0.328130 0.799680 0.000000
0.368292 0.798795 0.000000
0.408453 0.797848 0.000000
0.448585 0.796719 0.000000
0.488441 0.795529 0.000000
0.528069 0.794064 0.000000
0.567285 0.790890 0.000000
0.605524 0.786465 0.000000
0.642725 0.781827 0.000000
0.678889 0.777096 0.000000
0.713985 0.772335 0.000000
0.748226 0.767453 0.000000
0.781430 0.762661 0.000000
0.813535 0.757900 0.000000
0.843992 0.752712 0.022889
0.873716 0.748135 0.093721
0.906950 0.745846 0.068574
0.937224 0.741054 0.005188
0.965026 0.734524 0.000000
0.990875 0.726711 0.000000
1.000000 0.717861 0.000000
1.000000 0.708156 0.000000
1.000000 0.697536 0.000000
1.000000 0.685939 0.000000
0.000000 0.835233 0.000000
0.000000 0.835447 0.000000
0.064973 0.835508 0.000000
0.111177 0.835477 0.000000
0.155062 0.835172 0.000000
0.197574 0.834653 0.000000
0.238804 0.834043 0.000000
0.279911 0.833280 0.000000
0.320867 0.832517 0.000000
0.361456 0.831632 0.000000
0.401831 0.830716 0.000000
0.441993 0.829679 0.000000
0.481849 0.828367 0.000000
0.521386 0.826932 0.000000
0.560601 0.825315 0.000000
0.599512 0.821317 0.000000
0.637293 0.816983 0.000000
0.674159 0.812528 0.000000
0.710018 0.807980 0.000000
0.744961 0.803342 0.000000
0.778866 0.798672 0.000000
0.811765 0.793912 0.000000
0.843534 0.789212 0.000000
0.873472 0.783841 0.000000
0.900114 0.777005 0.100862
0.931029 0.773251 0.079164
0.959503 0.767422 0.036072
0.985870 0.760159 0.000000
1.000000 0.751766 0.000000
1.000000 0.742397 0.000000
1.000000 0.732021 0.000000
1.000000 0.720699 0.000000
0.000000 0.864714 0.000000
0.000000 0.864897 0.000000
0.000000 0.865019 0.000000
0.091310 0.864927 0.000000
0.141817 0.864652 0.000000
0.186709 0.864103 0.000000
0.229435 0.863462 0.000000
0.271000 0.862669 0.000000
0.312474 0.861784 0.000000
0.353033 0.860899 0.000000
0.393469 0.859922 0.000000
0.433387 0.858824 0.000000
0.473182 0.857511 0.000000
0.512718 0.856107 0.000000
0.551629 0.854551 0.000000
0.590600 0.852293 0.000000
0.628992 0.848386 0.000000
0.666468 0.844297 0.000000
0.702968 0.840116 0.000000
0.738582 0.835904 0.000000
0.773281 0.831632 0.000000
0.807004 0.827268 0.000000
0.839719 0.822965 0.000000
0.871458 0.818601 0.000000
0.900053 0.812284 0.000000
0.924498 0.804074 0.106508
0.953216 0.798917 0.092500
0.980133 0.792447 0.067018
1.000000 0.784543 0.000000
1.000000 0.775570 0.000000
1.000000 0.765652 0.000000
1.000000 0.754696 0.000000
0.000000 0.893858 0.000000
0.000000 0.894041 0.000000
0.000000 0.894072 0.000000
0.061311 0.893919 0.000000
0.125368 0.893523 0.000000
0.174014 0.892912 0.000000
0.218753 0.892149 0.000000
0.261387 0.891234 0.000000
0.303349 0.890196 0.000000
0.344244 0.889097 0.000000
0.384710 0.887877 0.000000
0.424475 0.886625 0.000000
0.464027 0.885222 0.000000
0.503166 0.883665 0.000000
0.541955 0.881926 0.000000
0.580316 0.880034 0.000000
0.618738 0.876921 0.000000
0.656489 0.873045 0.000000
0.693385 0.869169 0.000000
0.729427 0.865263 0.000000
0.764706 0.861326 0.000000
0.799039 0.857298 0.000000
0.832364 0.853147 0.000000
0.864652 0.848905 0.000000
0.895842 0.844541 0.000000
0.925536 0.839841 0.000000
0.948516 0.830625 0.109926
0.974670 0.824063 0.110414
1.000000 0.816831 0.089723
1.000000 0.808316 0.053620
1.000000 0.798825 0.000000
1.000000 0.788205 0.000000
0.000000 0.919188 0.000000
0.000000 0.919371 0.000000
0.000000 0.919402 0.000000
0.000000 0.919219 0.000000
0.104036 0.918822 0.000000
0.159365 0.918273 0.000000
0.206394 0.917571 0.000000
0.250523 0.916747 0.000000
0.292912 0.915831 0.000000
0.334234 0.914824 0.000000
0.374792 0.913725 0.000000
0.414832 0.912535 0.000000
0.454200 0.911284 0.000000
0.493172 0.909789 0.000000
0.531792 0.908171 0.000000
0.570153 0.906432 0.000000
0.608026 0.904540 0.000000
0.646113 0.901091 0.000000
0.683375 0.897490 0.000000
0.719814 0.893858 0.000000
0.755489 0.890105 0.000000
0.790280 0.886320 0.000000
0.824186 0.882383 0.000000
0.857023 0.878416 0.000000
0.888945 0.874327 0.000000
0.919738 0.870176 0.000000
0.949523 0.866087 0.000000
0.971405 0.856321 0.116732
0.995361 0.848722 0.131106
1.000000 0.840787 0.113558
1.000000 0.831724 0.088045
1.000000 0.821530 0.022339
0.000000 0.943572 0.000000
0.000000 0.943633 0.000000
0.000000 0.943603 0.000000
0.000000 0.943389 0.000000
0.072663 0.942931 0.000000
0.140780 0.942382 0.000000
0.192264 0.941680 0.000000
0.238254 0.940826 0.000000
0.281468 0.939910 0.000000
0.322942 0.938994 0.000000
0.363897 0.937926 0.000000
0.403876 0.936828 0.000000
0.443397 0.935576 0.000000
0.482368 0.934203 0.000000
0.520714 0.932647 0.000000
0.558831 0.930938 0.000000
0.596521 0.929107 0.000000
0.634119 0.926848 0.000000
0.671748 0.923461 0.000000
0.708522 0.920012 0.000000
0.744472 0.916533 0.000000
0.779690 0.912963 0.000000
0.813931 0.909270 0.000000
0.847257 0.905547 0.000000
0.879667 0.901671 0.000000
0.911101 0.897734 0.000000
0.941558 0.893797 0.000000
0.970947 0.889891 0.000000
0.992370 0.880217 0.125032
1.000000 0.871763 0.152712
1.000000 0.863310 0.136782
1.000000 0.853666 0.114900
0.000000 0.966186 0.000000
0.000000 0.966186 0.000000
0.000000 0.966125 0.000000
0.000000 0.965942 0.000000
0.000000 0.965576 0.000000
0.117281 0.965179 0.000000
0.175418 0.964721 0.000000
0.223789 0.964233 0.000000
0.268803 0.963684 0.000000
0.311406 0.963073 0.000000
0.352728 0.962341 0.000000
0.393072 0.961517 0.000000
0.432685 0.960571 0.000000
0.471717 0.959411 0.000000
0.510216 0.958038 0.000000
0.548180 0.956451 0.000000
0.585809 0.954711 0.000000
0.622980 0.952911 0.000000
0.660517 0.950225 0.000000
0.697719 0.946990 0.000000
0.734066 0.943664 0.000000
0.769589 0.940246 0.000000
0.804288 0.936736 0.000000
0.838102 0.933104 0.000000
0.870970 0.929381 0.000000
0.902922 0.925628 0.000000
0.933928 0.921843 0.000000
0.963897 0.918059 0.000000
0.992889 0.914397 0.000000
1.000000 0.904875 0.139803
1.000000 0.895537 0.181613
1.000000 0.886259 0.167636
0.000000 0.989410 0.000000
0.000000 0.989410 0.000000
0.000000 0.989288 0.000000
0.000000 0.989044 0.000000
0.000000 0.988678 0.000000
0.081239 0.988190 0.000000
0.153567 0.987671 0.000000
0.206638 0.987030 0.000000
0.253849 0.986297 0.000000
0.297551 0.985534 0.000000
0.339635 0.984619 0.000000
0.380316 0.983673 0.000000
0.420050 0.982544 0.000000
0.458961 0.981292 0.000000
0.497475 0.979889 0.000000
0.535363 0.978363 0.000000
