其他预设/【232】美食博客调色预设124款/1.3D LUT预设（视频调色-PR-AE-PS-FCPX-达芬奇用）/Food Art #57.cube
# Created by Adobe Lightroom plugin Export LUT (1.17.0)
# www.johnrellis.com/lightroom/exportlut.htm
# Preset: Food Art #57
# Color profile: /Library/Application Support/Adobe/Color/Profiles/Recommended/AdobeRGB1998.icc
LUT_3D_SIZE 5
DOMAIN_MIN 0.000000 0.000000 0.000000
DOMAIN_MAX 0.903226 0.903226 0.903226
0.000000 0.000000 0.000000
0.097169 0.087098 0.123995
0.266178 0.175814 0.257939
0.506035 0.272740 0.394812
0.803799 0.407568 0.482643
0.000000 0.185367 0.186954
0.121248 0.212467 0.233890
0.289799 0.256809 0.320714
0.528710 0.331884 0.419867
0.818997 0.461311 0.491951
0.132815 0.393652 0.381567
0.209598 0.404974 0.396246
0.399817 0.449042 0.438605
0.610407 0.493111 0.470466
0.847868 0.596185 0.518791
0.372717 0.627314 0.477760
0.418647 0.634058 0.481453
0.550958 0.653620 0.493446
0.718959 0.684474 0.516197
0.893492 0.756130 0.581994
0.693172 0.846677 0.581353
0.713436 0.848997 0.586694
0.772580 0.854856 0.603326
0.864408 0.875608 0.644648
0.951354 0.905699 0.705989
0.000000 0.014496 0.182498
0.046174 0.101106 0.242466
0.259892 0.199313 0.345373
0.502220 0.286961 0.433356
0.797757 0.411444 0.493812
0.000000 0.188327 0.285252
0.087160 0.214328 0.317815
0.286961 0.269627 0.383795
0.525200 0.339818 0.448585
0.809415 0.460426 0.501030
0.135988 0.393652 0.417304
0.216159 0.405097 0.429572
0.390143 0.440681 0.456275
0.603021 0.490425 0.482185
0.845823 0.597620 0.528893
0.383520 0.626337 0.488838
0.430671 0.632990 0.492958
0.557000 0.652064 0.504143
0.718868 0.682612 0.526268
0.893065 0.756497 0.591852
0.696193 0.845609 0.590845
0.715969 0.847929 0.596033
0.780117 0.858335 0.616815
0.867308 0.877409 0.655512
0.952422 0.907164 0.715053
0.000000 0.081025 0.378363
0.000000 0.122499 0.401984
0.256565 0.210300 0.449378
0.517174 0.296452 0.489326
0.806332 0.419806 0.527306
0.000000 0.205173 0.424384
0.000000 0.226139 0.436896
0.295811 0.280858 0.467170
0.541588 0.349584 0.496284
0.816617 0.464881 0.533318
0.160098 0.398901 0.480079
0.235477 0.410224 0.484901
0.405249 0.444465 0.497719
0.616785 0.497536 0.515984
0.848447 0.596704 0.559930
0.403052 0.624292 0.519463
0.445624 0.628382 0.522515
0.568444 0.648493 0.534844
0.723903 0.681788 0.558862
0.894041 0.755947 0.620722
0.698085 0.842374 0.619532
0.718410 0.845579 0.625055
0.777371 0.856229 0.641657
0.864530 0.875334 0.677333
0.950958 0.905547 0.733516
0.000000 0.129091 0.501335
0.000000 0.156771 0.506889
0.299962 0.225711 0.522545
0.547051 0.307195 0.544152
0.822751 0.435492 0.592981
0.000000 0.229221 0.513298
0.113863 0.244724 0.517235
0.336370 0.291203 0.529839
0.567803 0.358038 0.549584
0.828367 0.474372 0.597620
0.216526 0.410986 0.536736
0.277501 0.420691 0.540063
0.432227 0.448371 0.550530
0.632074 0.497780 0.569482
0.853483 0.586908 0.618006
0.441993 0.628992 0.578790
0.478309 0.633082 0.581384
0.584100 0.649622 0.592157
0.730556 0.680751 0.614740
0.896269 0.742397 0.665705
0.707668 0.842374 0.678645
0.724849 0.845029 0.682521
0.777768 0.855802 0.695949
0.856870 0.875364 0.719234
0.951049 0.906859 0.772885
0.095735 0.174411 0.633417
0.209049 0.193668 0.638117
0.411200 0.250248 0.653895
0.638422 0.337987 0.679530
0.846067 0.464729 0.713497
0.143618 0.254337 0.642267
0.235996 0.267552 0.646448
0.428779 0.311315 0.660914
0.650324 0.387304 0.684871
0.851469 0.501274 0.718227
0.264927 0.434180 0.668025
0.307836 0.431861 0.669551
0.478523 0.459541 0.680873
0.686519 0.517845 0.702480
0.870268 0.603571 0.736690
0.523583 0.671748 0.717983
0.547387 0.672724 0.719142
0.618311 0.673426 0.723323
0.742885 0.683772 0.736202
0.903349 0.745602 0.777005
0.739528 0.859678 0.790738
0.751400 0.861234 0.792752
0.792111 0.867765 0.801450
0.859098 0.881407 0.819455
0.950195 0.910887 0.858854
