其他预设/【232】美食博客调色预设124款/1.3D LUT预设（视频调色-PR-AE-PS-FCPX-达芬奇用）/Food Art #1 ().cube
# Created by Adobe Lightroom plugin Export LUT (1.17.0)
# www.johnrellis.com/lightroom/exportlut.htm
# Preset: Food Art #1 (素锦印象)
# Color profile: /Library/Application Support/Adobe/Color/Profiles/Recommended/AdobeRGB1998.icc
LUT_3D_SIZE 32
0.000000 0.000000 0.000000
0.000000 0.000000 0.000000
0.000000 0.000000 0.000000
0.054475 0.000000 0.000000
0.092653 0.000000 0.000000
0.135134 0.000000 0.000000
0.181979 0.000000 0.000000
0.227451 0.000000 0.000000
0.271641 0.000000 0.000000
0.314855 0.000000 0.000000
0.358831 0.000000 0.000000
0.403540 0.000000 0.000000
0.448890 0.000000 0.000000
0.492256 0.000000 0.000000
0.532372 0.000000 0.000000
0.569940 0.000000 0.000000
0.607294 0.000000 0.000000
0.644099 0.000000 0.000000
0.679408 0.000000 0.000000
0.713741 0.000000 0.000000
0.747433 0.000000 0.000000
0.780545 0.000000 0.000000
0.813199 0.000000 0.000000
0.845029 0.000000 0.000000
0.875975 0.000000 0.000000
0.905699 0.000000 0.000000
0.933806 0.000000 0.000000
0.960479 0.000000 0.000000
0.985779 0.000000 0.000000
1.000000 0.000000 0.000000
1.000000 0.000000 0.000000
1.000000 0.000000 0.020233
0.000000 0.000000 0.000000
0.000000 0.000000 0.000000
0.000000 0.000000 0.000000
0.057557 0.000000 0.000000
0.093629 0.000000 0.000000
0.136049 0.000000 0.000000
0.183200 0.000000 0.000000
0.228763 0.000000 0.000000
0.272923 0.000000 0.000000
0.316503 0.000000 0.000000
0.360632 0.000000 0.000000
0.405524 0.000000 0.000000
0.451118 0.000000 0.000000
0.494514 0.000000 0.000000
0.534600 0.000000 0.000000
0.572229 0.000000 0.000000
0.609674 0.000000 0.000000
0.646509 0.000000 0.000000
0.681788 0.000000 0.000000
0.716091 0.000000 0.000000
0.749630 0.000000 0.000000
0.782681 0.000000 0.000000
0.815183 0.000000 0.000000
0.846921 0.000000 0.000000
0.877653 0.000000 0.000000
0.907164 0.000000 0.000000
0.935119 0.000000 0.000000
0.961639 0.000000 0.000000
0.986786 0.000000 0.000000
1.000000 0.000000 0.000000
1.000000 0.000000 0.000000
1.000000 0.000000 0.027802
0.000000 0.000000 0.000000
0.000000 0.000000 0.000000
0.000000 0.000000 0.000000
0.059480 0.002289 0.000000
0.094636 0.000000 0.000000
0.137453 0.000000 0.000000
0.184176 0.000000 0.000000
0.229892 0.000000 0.000000
0.274113 0.000000 0.000000
0.317723 0.000000 0.000000
0.361944 0.000000 0.000000
0.406989 0.000000 0.000000
0.452583 0.000000 0.000000
0.495857 0.000000 0.000000
0.535790 0.000000 0.000000
0.573571 0.000000 0.000000
0.611048 0.000000 0.000000
0.647913 0.000000 0.000000
0.683192 0.000000 0.000000
0.717311 0.000000 0.000000
0.750851 0.000000 0.000000
0.783780 0.000000 0.000000
0.816159 0.000000 0.000000
0.847807 0.000000 0.000000
0.878508 0.000000 0.000000
0.907897 0.000000 0.000000
0.935760 0.000000 0.000000
0.962219 0.000000 0.000000
0.987274 0.000000 0.000000
1.000000 0.000000 0.000000
1.000000 0.008209 0.000000
1.000000 0.055268 0.034058
0.000000 0.062989 0.000000
0.000000 0.064424 0.000000
0.000000 0.066621 0.000000
0.057923 0.066529 0.000000
0.094850 0.065003 0.000000
0.138247 0.068177 0.000000
0.185031 0.070741 0.000000
0.230716 0.072084 0.000000
0.274876 0.073365 0.000000
0.318730 0.075746 0.000000
0.363134 0.079866 0.000000
0.408453 0.079530 0.000000
0.454078 0.078279 0.000000
0.497261 0.074525 0.000000
0.537255 0.068482 0.000000
0.575036 0.060945 0.000000
0.612604 0.047211 0.000000
0.649561 0.025696 0.000000
0.684871 0.006897 0.000000
0.719112 0.000000 0.000000
0.752712 0.000000 0.000000
0.785580 0.000000 0.000000
0.817746 0.000000 0.000000
0.849027 0.000000 0.000000
0.879301 0.000000 0.000000
0.908354 0.000000 0.000000
0.935973 0.005768 0.000000
0.962219 0.034699 0.000000
0.987243 0.059419 0.000000
1.000000 0.072297 0.000000
1.000000 0.084627 0.000000
1.000000 0.096620 0.038361
0.000000 0.101564 0.000000
0.000000 0.102876 0.000000
0.000000 0.104311 0.000000
0.056001 0.105287 0.000000
0.099184 0.106630 0.000000
0.140047 0.110567 0.000000
0.187015 0.117372 0.000000
0.232639 0.121828 0.000000
0.276951 0.124941 0.000000
0.320775 0.128603 0.000000
0.365393 0.130129 0.000000
0.410834 0.131197 0.000000
0.456550 0.131380 0.000000
0.499397 0.129702 0.000000
0.538964 0.126925 0.000000
0.576471 0.123232 0.000000
0.613794 0.119051 0.000000
0.650477 0.114809 0.000000
0.685634 0.110597 0.000000
0.719875 0.106966 0.000000
0.753445 0.103853 0.000000
0.786374 0.101900 0.000000
0.818540 0.100618 0.000000
0.849729 0.100618 0.000000
0.879850 0.101534 0.000000
0.908782 0.103487 0.000000
0.936248 0.106935 0.000000
0.962493 0.110903 0.000000
0.987488 0.116274 0.000000
1.000000 0.121981 0.000000
1.000000 0.127810 0.000000
1.000000 0.134859 0.048096
0.000000 0.149813 0.000000
0.000000 0.150790 0.000000
0.000000 0.151553 0.000000
0.058289 0.152682 0.000000
0.106630 0.154116 0.000000
0.147860 0.155764 0.000000
0.187900 0.158175 0.000000
0.233371 0.164523 0.000000
0.277592 0.168704 0.000000
0.321538 0.171695 0.000000
0.366217 0.174350 0.000000
0.411902 0.176272 0.000000
0.457465 0.177218 0.000000
0.500267 0.176425 0.000000
0.539574 0.174350 0.000000
0.577081 0.171450 0.000000
0.614221 0.168429 0.000000
0.650690 0.165682 0.000000
0.685664 0.162722 0.000000
0.719783 0.160128 0.000000
0.753201 0.157900 0.000000
0.786007 0.155825 0.000000
0.806241 0.150210 0.000000
0.838285 0.149630 0.000000
0.869444 0.149660 0.000000
0.899443 0.149935 0.000000
0.928130 0.151278 0.000000
0.955352 0.153017 0.000000
0.981292 0.155642 0.000000
1.000000 0.158694 0.000000
1.000000 0.162234 0.000000
1.000000 0.166506 0.018647
0.000000 0.194827 0.000000
0.000000 0.195285 0.000000
0.000000 0.195682 0.000000
0.057893 0.196414 0.000000
0.109560 0.197360 0.000000
0.151827 0.198489 0.000000
0.191409 0.199954 0.000000
0.229038 0.200259 0.000000
0.272923 0.205478 0.000000
0.316594 0.209476 0.000000
0.360754 0.212680 0.000000
0.405921 0.215396 0.000000
0.451484 0.217502 0.000000
0.494728 0.217899 0.000000
0.534722 0.216495 0.000000
0.572595 0.214359 0.000000
0.610132 0.212161 0.000000
0.646845 0.209873 0.000000
0.681819 0.207462 0.000000
0.715602 0.204929 0.000000
0.748409 0.202823 0.000000
0.780362 0.200473 0.000000
0.811460 0.198703 0.000000
0.841917 0.197238 0.000000
0.871733 0.196292 0.000000
0.900938 0.195834 0.000000
0.929137 0.196048 0.000000
0.956176 0.196811 0.000000
0.981903 0.197757 0.000000
1.000000 0.199435 0.000000
1.000000 0.201450 0.000000
1.000000 0.204105 0.035706
0.000000 0.241703 0.000000
0.000000 0.241978 0.000000
0.000000 0.242283 0.000000
0.054932 0.242832 0.000000
0.111238 0.243565 0.000000
0.155306 0.244572 0.000000
0.196445 0.245487 0.000000
0.236484 0.246647 0.000000
0.273960 0.245731 0.000000
0.317754 0.250126 0.000000
0.362219 0.254002 0.000000
0.407538 0.257481 0.000000
0.453071 0.260136 0.000000
0.495979 0.260746 0.000000
0.535790 0.259648 0.000000
0.573693 0.257633 0.000000
0.611231 0.255741 0.000000
0.647913 0.253788 0.000000
0.682826 0.251530 0.000000
0.716640 0.249119 0.000000
0.749508 0.246830 0.000000
0.781460 0.244480 0.000000
0.812589 0.242649 0.000000
0.843046 0.240818 0.000000
0.872831 0.239353 0.000000
0.901915 0.238560 0.000000
0.929931 0.238010 0.000000
0.956847 0.237858 0.000000
0.982483 0.238041 0.000000
1.000000 0.238529 0.000000
1.000000 0.239536 0.003662
1.000000 0.240848 0.052552
0.000000 0.287358 0.000000
0.000000 0.287510 0.000000
0.000000 0.287877 0.000000
0.028199 0.288151 0.000000
0.108186 0.288975 0.000000
0.154910 0.289799 0.000000
0.198123 0.290745 0.000000
0.239506 0.291661 0.000000
0.280430 0.292515 0.000000
0.318212 0.290929 0.000000
0.362676 0.295232 0.000000
0.408148 0.299077 0.000000
0.453559 0.302281 0.000000
0.496284 0.303075 0.000000
0.535790 0.302037 0.000000
0.573785 0.300237 0.000000
0.611322 0.298405 0.000000
0.648066 0.296574 0.000000
0.682887 0.294133 0.000000
0.716793 0.291722 0.000000
0.749722 0.289372 0.000000
0.781765 0.286839 0.000000
0.812955 0.284611 0.000000
0.843442 0.282658 0.000000
0.873228 0.280980 0.000000
0.902281 0.279332 0.000000
0.930266 0.278386 0.000000
0.957092 0.277501 0.000000
0.982696 0.277012 0.000000
1.000000 0.276646 0.000000
1.000000 0.276707 0.020752
1.000000 0.277073 0.063508
0.000000 0.333501 0.000000
0.000000 0.333654 0.000000
0.000000 0.333989 0.000000
0.000000 0.334386 0.000000
0.100008 0.335119 0.000000
0.152224 0.335973 0.000000
0.197940 0.336828 0.000000
0.241245 0.337774 0.000000
0.283604 0.338689 0.000000
0.325200 0.339361 0.000000
0.364721 0.338201 0.000000
0.409186 0.341497 0.000000
0.454322 0.344823 0.000000
0.496468 0.345434 0.000000
0.535576 0.344091 0.000000
0.573236 0.342107 0.000000
0.610529 0.340246 0.000000
0.646998 0.338048 0.000000
0.681758 0.335637 0.000000
0.715785 0.332982 0.000000
0.749081 0.330632 0.000000
0.781613 0.328222 0.000000
0.813291 0.325902 0.000000
0.844083 0.323766 0.000000
0.874052 0.321660 0.000000
0.903044 0.319829 0.000000
0.930877 0.318151 0.000000
0.957488 0.316686 0.000000
0.982910 0.315282 0.000000
1.000000 0.314122 0.000000
1.000000 0.313298 0.039490
1.000000 0.312718 0.070161
0.000000 0.381720 0.000000
0.000000 0.381903 0.000000
0.000000 0.382116 0.000000
0.000000 0.382391 0.000000
0.085969 0.382879 0.000000
0.146700 0.383459 0.000000
0.195956 0.384222 0.000000
0.241337 0.384924 0.000000
0.285252 0.385565 0.000000
0.328283 0.386206 0.000000
0.370733 0.386816 0.000000
0.411902 0.386389 0.000000
0.454383 0.387427 0.000000
0.496345 0.387884 0.000000
0.535180 0.386206 0.000000
0.572900 0.384131 0.000000
0.610163 0.381964 0.000000
0.646601 0.379797 0.000000
0.681514 0.377050 0.000000
0.715633 0.374365 0.000000
0.748959 0.371710 0.000000
0.781491 0.368994 0.000000
0.813169 0.366400 0.000000
0.843992 0.363897 0.000000
0.873960 0.361547 0.000000
0.902983 0.359197 0.000000
0.930846 0.357061 0.000000
0.957488 0.355047 0.000000
0.982879 0.353155 0.000000
1.000000 0.351324 0.011261
1.000000 0.349798 0.057984
1.000000 0.348486 0.078401
0.000000 0.429969 0.000000
0.000000 0.430091 0.000000
0.000000 0.430182 0.000000
0.000000 0.430335 0.000000
0.062867 0.430640 0.000000
0.138155 0.431006 0.000000
0.191836 0.431434 0.000000
0.239719 0.431708 0.000000
0.285069 0.431861 0.000000
0.328923 0.431983 0.000000
0.371832 0.432013 0.000000
0.414069 0.431983 0.000000
0.446052 0.422400 0.000000
0.485359 0.421149 0.000000
0.524437 0.419989 0.000000
0.562036 0.418006 0.000000
0.599451 0.416297 0.000000
0.636194 0.414466 0.000000
0.671626 0.412146 0.000000
0.706416 0.409888 0.000000
0.740566 0.407477 0.000000
0.773922 0.405158 0.000000
0.806516 0.402777 0.000000
0.838224 0.400488 0.000000
0.868956 0.398108 0.000000
0.898558 0.395789 0.000000
0.926940 0.393378 0.000000
0.954101 0.391089 0.000000
0.979980 0.388830 0.000000
1.000000 0.386542 0.012970
1.000000 0.384619 0.060914
1.000000 0.382605 0.080354
0.000000 0.469703 0.000000
0.000000 0.469856 0.000000
0.000000 0.470192 0.000000
0.000000 0.470649 0.000000
0.000000 0.471290 0.000000
0.125826 0.471992 0.000000
0.184115 0.472511 0.000000
0.233982 0.472602 0.000000
0.280339 0.472389 0.000000
0.324346 0.471778 0.000000
0.366888 0.470863 0.000000
0.408301 0.469459 0.000000
0.448951 0.468208 0.000000
0.489235 0.466987 0.000000
0.525414 0.462684 0.000000
0.562615 0.460151 0.000000
0.599878 0.457954 0.000000
0.636500 0.455818 0.000000
0.671962 0.453223 0.000000
0.706874 0.450721 0.000000
0.741054 0.448188 0.000000
0.774441 0.445563 0.000000
0.807065 0.442969 0.000000
0.838773 0.440253 0.000000
0.869505 0.437568 0.000000
0.899077 0.434791 0.000000
0.927398 0.432013 0.000000
0.954437 0.429206 0.000000
0.980224 0.426337 0.000000
1.000000 0.423590 0.042420
1.000000 0.420874 0.071443
1.000000 0.418250 0.089265
0.000000 0.511986 0.000000
0.000000 0.511986 0.000000
0.000000 0.512200 0.000000
0.000000 0.512566 0.000000
0.000000 0.512932 0.000000
0.113619 0.513329 0.000000
0.176913 0.513512 0.000000
0.228550 0.513451 0.000000
0.275853 0.512932 0.000000
0.320439 0.512200 0.000000
0.363378 0.510979 0.000000
0.405127 0.509575 0.000000
0.445899 0.508049 0.000000
0.486183 0.506767 0.000000
0.526238 0.505730 0.000000
0.562768 0.501946 0.000000
0.600061 0.499550 0.000000
0.636652 0.497169 0.000000
0.672114 0.494240 0.000000
0.707027 0.491432 0.000000
0.741207 0.488533 0.000000
0.774594 0.485634 0.000000
0.807218 0.482704 0.000000
0.838895 0.479683 0.000000
0.869566 0.476600 0.000000
0.899046 0.473396 0.000000
0.927276 0.470130 0.000000
0.954284 0.466773 0.000000
0.979980 0.463447 0.017121
1.000000 0.460090 0.061677
1.000000 0.456825 0.081331
1.000000 0.453559 0.097566
0.000000 0.550713 0.000000
0.000000 0.550683 0.000000
0.000000 0.550835 0.000000
0.000000 0.551202 0.000000
0.000000 0.551629 0.000000
0.099825 0.552117 0.000000
0.168673 0.552239 0.000000
0.222324 0.552148 0.000000
0.270542 0.551781 0.000000
0.315862 0.550988 0.000000
0.359136 0.549828 0.000000
0.401160 0.548455 0.000000
0.442176 0.547021 0.000000
0.482704 0.545861 0.000000
0.522911 0.544823 0.000000
0.563043 0.544182 0.000000
0.599603 0.540673 0.000000
0.636225 0.537957 0.000000
0.671748 0.534844 0.000000
0.706844 0.531792 0.000000
0.741085 0.528679 0.000000
0.774594 0.525536 0.000000
0.807218 0.522271 0.000000
0.838895 0.518914 0.000000
0.869474 0.515343 0.000000
0.898802 0.511711 0.000000
0.926818 0.507866 0.000000
0.953582 0.503960 0.000000
0.979065 0.499977 0.040528
1.000000 0.496010 0.070222
1.000000 0.491981 0.087831
1.000000 0.488045 0.102968
0.000000 0.588861 0.000000
0.000000 0.588739 0.000000
0.000000 0.588800 0.000000
0.000000 0.588891 0.000000
0.000000 0.589014 0.000000
0.084077 0.589136 0.000000
0.159823 0.589136 0.000000
0.215244 0.588922 0.000000
0.264561 0.588434 0.000000
0.310185 0.587793 0.000000
0.354101 0.586938 0.000000
0.396582 0.586084 0.000000
0.437995 0.585138 0.000000
0.479042 0.584253 0.000000
0.519493 0.583490 0.000000
0.559716 0.582879 0.000000
0.599481 0.582238 0.000000
0.635676 0.578729 0.000000
0.671229 0.575189 0.000000
0.706142 0.571771 0.000000
0.740291 0.568261 0.000000
0.773678 0.564660 0.000000
0.806241 0.561059 0.000000
0.837827 0.557305 0.000000
0.868345 0.553368 0.000000
0.897612 0.549248 0.000000
0.925597 0.544945 0.000000
0.952331 0.540612 0.011170
0.977844 0.536187 0.060029
1.000000 0.531731 0.079316
1.000000 0.527245 0.095979
1.000000 0.522850 0.110597
0.000000 0.626520 0.000000
0.000000 0.626520 0.000000
0.000000 0.626551 0.000000
0.000000 0.626642 0.000000
0.000000 0.626734 0.000000
0.065034 0.626795 0.000000
0.151492 0.626612 0.000000
0.209232 0.626337 0.000000
0.259251 0.625849 0.000000
0.305547 0.625116 0.000000
0.349615 0.624262 0.000000
0.392187 0.623194 0.000000
0.433631 0.622156 0.000000
0.474372 0.621149 0.000000
0.514794 0.620233 0.000000
0.554803 0.619562 0.000000
0.594476 0.618891 0.000000
0.633875 0.618280 0.000000
0.670619 0.615564 0.000000
0.705684 0.611902 0.000000
0.739986 0.608148 0.000000
0.773373 0.604273 0.000000
0.805966 0.600275 0.000000
0.837522 0.596155 0.000000
0.867948 0.591791 0.000000
0.897093 0.587213 0.000000
0.924987 0.582391 0.000000
0.951598 0.577539 0.043000
0.977020 0.572595 0.071992
1.000000 0.567590 0.089601
1.000000 0.562554 0.104280
1.000000 0.557549 0.118624
0.000000 0.661585 0.000000
0.000000 0.661341 0.000000
0.000000 0.654597 0.000000
0.000000 0.654688 0.000000
0.000000 0.654841 0.000000
0.011994 0.654994 0.000000
0.139986 0.655116 0.000000
0.199771 0.655085 0.000000
0.250492 0.654871 0.000000
0.297063 0.654444 0.000000
0.341039 0.653925 0.000000
0.383581 0.653285 0.000000
0.425147 0.652644 0.000000
0.466041 0.652094 0.000000
0.506279 0.651637 0.000000
0.546136 0.651209 0.000000
0.585840 0.650935 0.000000
0.625177 0.650629 0.000000
0.664149 0.650233 0.000000
0.701717 0.648768 0.000000
0.736568 0.645319 0.000000
0.770321 0.641444 0.000000
0.803220 0.637385 0.000000
0.835080 0.633204 0.000000
0.865873 0.628809 0.000000
0.895445 0.624201 0.000000
0.923644 0.619257 0.019409
0.950530 0.614130 0.063874
0.976043 0.608850 0.082948
1.000000 0.603357 0.099123
1.000000 0.597833 0.113497
1.000000 0.592248 0.127321
0.000000 0.693996 0.000000
0.000000 0.693141 0.000000
0.000000 0.692256 0.000000
0.000000 0.691524 0.000000
0.000000 0.690974 0.000000
0.000000 0.690761 0.000000
0.132418 0.690700 0.000000
0.194400 0.690608 0.000000
0.245823 0.690394 0.000000
0.292515 0.690028 0.000000
0.336797 0.689479 0.000000
0.379431 0.688869 0.000000
0.421088 0.688350 0.000000
0.461799 0.687831 0.000000
0.502068 0.687404 0.000000
0.541924 0.687037 0.000000
0.581445 0.686702 0.000000
0.620600 0.686366 0.000000
0.659419 0.685969 0.000000
0.697810 0.685359 0.000000
0.735622 0.684443 0.000000
0.769986 0.680812 0.000000
0.802762 0.676326 0.000000
0.834531 0.671687 0.000000
0.865171 0.666835 0.000000
0.894591 0.661677 0.000000
0.922759 0.656306 0.051118
0.949554 0.650690 0.076631
0.975036 0.644892 0.094240
0.999207 0.638941 0.109071
1.000000 0.632898 0.122805
1.000000 0.626856 0.135958
0.000000 0.728328 0.000000
0.000000 0.727535 0.000000
0.000000 0.726802 0.000000
0.000000 0.726131 0.000000
0.000000 0.725612 0.000000
0.000000 0.725399 0.000000
0.125887 0.725246 0.000000
0.189242 0.725154 0.000000
0.241154 0.724910 0.000000
0.288273 0.724514 0.000000
0.332616 0.724025 0.000000
0.375280 0.723445 0.000000
0.416785 0.722927 0.000000
0.457527 0.722438 0.000000
0.497658 0.721981 0.000000
0.537285 0.721614 0.000000
0.576562 0.721279 0.000000
0.615534 0.720912 0.000000
0.654139 0.720455 0.000000
0.692287 0.719814 0.000000
0.730068 0.719020 0.000000
0.767666 0.718349 0.000000
0.801999 0.714992 0.000000
0.833677 0.709926 0.000000
0.864317 0.704646 0.000000
0.893706 0.699062 0.033509
0.921813 0.693233 0.070039
0.948638 0.687221 0.089326
0.974090 0.680995 0.105531
0.998199 0.674556 0.119905
1.000000 0.668025 0.132845
1.000000 0.661402 0.145724
0.000000 0.761654 0.000000
0.000000 0.760952 0.000000
0.000000 0.760281 0.000000
0.000000 0.759640 0.000000
0.000000 0.759152 0.000000
0.000000 0.758907 0.000000
0.119387 0.758785 0.000000
0.184634 0.758694 0.000000
0.237308 0.758419 0.000000
0.284459 0.758114 0.000000
0.328679 0.757717 0.000000
0.371344 0.757168 0.000000
0.412696 0.756680 0.000000
0.453193 0.756130 0.000000
0.493111 0.755612 0.000000
0.532433 0.755062 0.000000
0.571283 0.754391 0.000000
0.609674 0.753719 0.000000
0.647639 0.752804 0.000000
0.685115 0.751736 0.000000
0.722225 0.750576 0.000000
0.758907 0.749294 0.000000
0.795926 0.748531 0.000000
0.830350 0.745663 0.000000
0.860868 0.739986 0.000000
0.890196 0.734066 0.050202
0.918334 0.727840 0.076783
0.945220 0.721462 0.094636
0.970825 0.714870 0.110079
0.995117 0.708125 0.123842
1.000000 0.701259 0.137240
1.000000 0.694209 0.149874
0.000000 0.791257 0.000000
0.000000 0.790951 0.000000
0.000000 0.790677 0.000000
0.000000 0.790463 0.000000
0.000000 0.790311 0.000000
0.000000 0.790188 0.000000
0.113832 0.790097 0.000000
0.180331 0.789883 0.000000
0.232914 0.789578 0.000000
0.280064 0.789090 0.000000
0.324132 0.788602 0.000000
0.366522 0.787991 0.000000
0.407599 0.787472 0.000000
0.447791 0.786954 0.000000
0.487312 0.786435 0.000000
0.526421 0.785916 0.000000
0.564996 0.785306 0.000000
0.603113 0.784604 0.000000
0.640833 0.783841 0.000000
0.678157 0.782925 0.000000
0.715175 0.781979 0.000000
0.751736 0.780850 0.000000
0.788052 0.779782 0.000000
0.824765 0.779232 0.011933
0.859892 0.777432 0.039490
0.889220 0.771084 0.071992
0.917266 0.764431 0.090822
0.944121 0.757565 0.107179
0.969696 0.750546 0.121553
0.993927 0.743343 0.135012
1.000000 0.735988 0.147860
1.000000 0.728481 0.160250
0.000000 0.822385 0.000000
0.000000 0.822110 0.000000
0.000000 0.821836 0.000000
0.000000 0.821561 0.000000
0.000000 0.821408 0.000000
0.000000 0.821347 0.000000
0.111330 0.821256 0.000000
0.177646 0.821134 0.000000
0.230442 0.820859 0.000000
0.277256 0.820462 0.000000
0.321111 0.819974 0.000000
0.363073 0.819394 0.000000
0.403784 0.818845 0.000000
0.443732 0.818235 0.000000
0.482918 0.817655 0.000000
0.521538 0.817044 0.000000
0.559716 0.816281 0.000000
0.597436 0.815488 0.000000
0.634760 0.814572 0.000000
0.671656 0.813535 0.011048
0.708156 0.812406 0.028199
0.744320 0.811154 0.047791
0.780087 0.809873 0.061677
0.815549 0.808530 0.069947
0.852842 0.809110 0.081971
0.888701 0.808469 0.089570
0.916655 0.801328 0.106325
0.943450 0.794003 0.120912
0.968933 0.786496 0.134890
0.993133 0.778744 0.147646
1.000000 0.770840 0.159854
1.000000 0.762783 0.172000
0.000000 0.850278 0.000000
0.000000 0.849943 0.000000
0.000000 0.849699 0.000000
0.000000 0.849607 0.000000
0.000000 0.849577 0.000000
0.000000 0.849607 0.000000
0.109621 0.849638 0.000000
0.175875 0.849638 0.000000
0.228122 0.849546 0.000000
0.274571 0.849363 0.000000
0.318090 0.849149 0.000000
0.359625 0.848753 0.000000
0.400092 0.848325 0.000000
0.439704 0.847898 0.000397
0.478584 0.847471 0.015290
0.517021 0.847044 0.032166
0.554955 0.846494 0.050294
0.592401 0.845792 0.062165
0.629358 0.844877 0.068727
0.665797 0.843748 0.075257
0.701839 0.842496 0.081331
0.737514 0.841154 0.087251
0.773007 0.839841 0.094240
0.808225 0.838560 0.100618
0.843229 0.837339 0.107546
0.878355 0.836484 0.114168
0.915282 0.837339 0.118868
0.942168 0.829709 0.133547
0.967742 0.821836 0.146853
0.991913 0.813657 0.159548
1.000000 0.805295 0.171725
1.000000 0.796658 0.183658
0.000000 0.879026 0.006928
0.000000 0.878721 0.005188
0.000000 0.878538 0.003449
0.000000 0.878416 0.006012
0.000000 0.878325 0.008453
0.000000 0.878294 0.013123
0.114107 0.878233 0.021149
0.177340 0.878141 0.028412
0.228061 0.877928 0.036194
0.273503 0.877653 0.045502
0.316106 0.877287 0.053040
0.357183 0.876768 0.059724
0.396857 0.876280 0.064668
0.435798 0.875700 0.069520
0.474128 0.875151 0.074952
0.511894 0.874601 0.080262
0.549279 0.873930 0.086061
0.586175 0.873136 0.091615
0.622583 0.872190 0.096712
0.658595 0.871061 0.101656
0.694179 0.869780 0.106752
0.729458 0.868437 0.111757
0.764462 0.867124 0.116945
0.799191 0.865843 0.122225
0.833768 0.864561 0.128267
0.868101 0.863310 0.134493
0.902098 0.862028 0.141054
0.940124 0.864469 0.144015
0.965667 0.856138 0.157259
0.989899 0.847562 0.169467
1.000000 0.838743 0.181643
1.000000 0.829648 0.193179
0.000000 0.905638 0.073579
0.000000 0.905425 0.073213
0.000000 0.905333 0.073213
0.000000 0.905303 0.073945
0.000000 0.905303 0.075380
0.000000 0.905303 0.077455
0.121736 0.905272 0.079591
0.181064 0.905180 0.082094
0.229831 0.904967 0.084993
0.273686 0.904662 0.087617
0.315526 0.904234 0.090578
0.355566 0.903685 0.093324
0.394476 0.903105 0.096284
0.432776 0.902495 0.100069
0.470405 0.901915 0.104128
0.507591 0.901305 0.108186
0.544396 0.900603 0.113008
0.580774 0.899809 0.117464
0.616663 0.898863 0.121859
0.652155 0.897765 0.126040
0.687251 0.896513 0.130159
0.722072 0.895201 0.134890
0.756619 0.893858 0.139620
0.790860 0.892515 0.144625
0.824918 0.891173 0.149722
0.858732 0.889860 0.155612
0.892271 0.888548 0.161715
0.925536 0.887175 0.167819
0.964294 0.890929 0.169924
0.988464 0.881926 0.182193
1.000000 0.872618 0.193881
1.000000 0.863096 0.205722
0.000000 0.931487 0.104738
0.000000 0.931334 0.104646
0.000000 0.931243 0.104677
0.000000 0.931182 0.104738
0.000000 0.931060 0.105592
0.032746 0.930907 0.106813
0.132296 0.930571 0.107546
0.186038 0.930114 0.108675
0.231876 0.929534 0.109957
0.273930 0.928832 0.110964
0.313970 0.928038 0.112276
0.352758 0.927184 0.113619
0.390600 0.926329 0.115389
0.427955 0.925505 0.117678
0.464759 0.924712 0.120821
0.501213 0.924010 0.124178
0.537346 0.923278 0.128298
0.573022 0.922484 0.132204
0.608423 0.921508 0.136568
0.643366 0.920439 0.140230
0.677913 0.919249 0.144381
0.712276 0.917998 0.148867
0.746334 0.916686 0.153109
0.780148 0.915404 0.157778
0.813748 0.914092 0.163119
0.847044 0.912779 0.168551
0.880095 0.911437 0.174075
0.912902 0.910033 0.180026
0.945342 0.908629 0.186313
0.983246 0.912261 0.188235
1.000000 0.904265 0.199252
1.000000 0.894469 0.211002
0.000000 0.953796 0.124056
0.000000 0.953735 0.123934
0.000000 0.953674 0.124300
0.000000 0.953674 0.124666
0.000000 0.953643 0.125704
0.073610 0.953552 0.126986
0.141970 0.953399 0.128389
0.191440 0.953124 0.129580
0.234928 0.952758 0.130831
0.275853 0.952270 0.132906
0.314824 0.951720 0.134524
0.352728 0.951110 0.136355
0.389746 0.950469 0.138521
0.426307 0.949767 0.141176
0.462379 0.949065 0.144076
