其他预设/【232】美食博客调色预设124款/1.3D LUT预设（视频调色-PR-AE-PS-FCPX-达芬奇用）/Food Art #71.cube
# Created by Adobe Lightroom plugin Export LUT (1.17.0)
# www.johnrellis.com/lightroom/exportlut.htm
# Preset: Food Art #71
# Color profile: /Library/Application Support/Adobe/Color/Profiles/Recommended/AdobeRGB1998.icc
LUT_3D_SIZE 32
0.000000 0.000000 0.000000
0.001343 0.000000 0.000000
0.055665 0.000000 0.002228
0.099458 0.000000 0.007446
0.138857 0.000000 0.010468
0.178195 0.000000 0.010803
0.217319 0.000000 0.007080
0.255650 0.000000 0.000519
0.293095 0.000000 0.000000
0.329625 0.000000 0.000000
0.365606 0.000000 0.000000
0.401007 0.000000 0.000000
0.435828 0.000000 0.000000
0.470222 0.000000 0.000000
0.504143 0.000000 0.000000
0.537926 0.000000 0.000000
0.571771 0.000000 0.000000
0.605768 0.000000 0.000000
0.639277 0.000000 0.000000
0.676051 0.000000 0.000000
0.712612 0.000000 0.005463
0.748257 0.000000 0.013733
0.782132 0.000000 0.024475
0.814450 0.000000 0.037720
0.845548 0.000000 0.050935
0.875883 0.000000 0.062348
0.905669 0.000000 0.070466
0.935027 0.000000 0.079500
0.963897 0.000000 0.089235
0.992187 0.000000 0.099825
1.000000 0.000000 0.111421
1.000000 0.000000 0.124361
0.000824 0.002167 0.000885
0.005737 0.004883 0.000519
0.059236 0.002289 0.001373
0.100374 0.000000 0.005768
0.139406 0.000000 0.009674
0.178134 0.000000 0.008911
0.217105 0.000000 0.005097
0.255161 0.000000 0.000855
0.292454 0.000000 0.000000
0.328954 0.000000 0.000000
0.364843 0.000000 0.000000
0.400092 0.000000 0.000000
0.434791 0.000000 0.000000
0.469062 0.000000 0.000000
0.502953 0.000000 0.000000
0.536675 0.000000 0.000000
0.570367 0.000000 0.000000
0.604334 0.000000 0.000000
0.637812 0.000000 0.000000
0.674403 0.000000 0.000000
0.710567 0.000000 0.005035
0.746029 0.000000 0.011627
0.779904 0.000000 0.022522
0.812284 0.000000 0.035920
0.843412 0.000000 0.049622
0.873869 0.000000 0.061158
0.903899 0.000000 0.069001
0.933379 0.000000 0.078859
0.962402 0.000000 0.088106
0.990875 0.000000 0.098817
1.000000 0.000000 0.110109
1.000000 0.000000 0.123201
0.002655 0.032319 0.001617
0.014374 0.033936 0.001190
0.062776 0.031312 0.000946
0.101198 0.025330 0.004395
0.139590 0.014588 0.007263
0.178378 0.000000 0.006287
0.216953 0.000000 0.002502
0.254673 0.000000 0.000305
0.291875 0.000000 0.000000
0.328222 0.000000 0.000000
0.364111 0.000000 0.000000
0.399390 0.000000 0.000000
0.434058 0.000000 0.000000
0.468330 0.000000 0.000000
0.502098 0.000000 0.000000
0.535882 0.000000 0.000000
0.569543 0.000000 0.000000
0.603388 0.000000 0.000000
0.636988 0.000000 0.000000
0.673487 0.000000 0.000000
0.709468 0.000000 0.004486
0.744900 0.000000 0.011231
0.778744 0.000000 0.021241
0.811124 0.000000 0.033539
0.842313 0.000000 0.048554
0.872801 0.000000 0.060243
0.902861 0.000000 0.068910
0.932464 0.000000 0.078157
0.961608 0.000000 0.087465
0.990143 0.000000 0.098207
1.000000 0.000000 0.109621
1.000000 0.000000 0.122560
0.008515 0.073854 0.003174
0.039033 0.073335 0.003601
0.071412 0.072175 0.002380
0.104067 0.069184 0.000916
0.141238 0.065064 0.001740
0.179416 0.059388 0.001587
0.217166 0.042359 0.002045
0.254734 0.014405 0.000763
0.291630 0.000000 0.000000
0.327855 0.000000 0.000000
0.363531 0.000000 0.000000
0.398688 0.000000 0.000000
0.433173 0.000000 0.000000
0.467323 0.000000 0.000000
0.501213 0.000000 0.000000
0.534844 0.000000 0.000000
0.568505 0.000000 0.000000
0.602289 0.000000 0.000000
0.636316 0.000000 0.000000
0.672175 0.000000 0.000000
0.707698 0.000000 0.004639
0.742824 0.000000 0.011627
0.776730 0.000000 0.020478
0.809384 0.000000 0.032563
0.841032 0.000000 0.046418
0.871946 0.000000 0.059754
0.902342 0.000000 0.067964
0.932158 0.000000 0.077516
0.961364 0.000000 0.087434
0.989868 0.000000 0.097749
1.000000 0.000000 0.109285
1.000000 0.071992 0.121950
0.024689 0.102815 0.002319
0.060121 0.102083 0.001526
0.080385 0.101259 0.000305
0.110475 0.099184 0.000977
0.143954 0.095918 0.000183
0.180087 0.092714 0.001343
0.217411 0.088136 0.002655
0.254490 0.081697 0.001160
0.291051 0.072602 0.000000
0.326879 0.060212 0.000000
0.362402 0.028962 0.000000
0.397406 0.000000 0.000000
0.431861 0.000000 0.000000
0.466011 0.000000 0.000000
0.499916 0.000000 0.000000
0.533654 0.000000 0.000000
0.567468 0.000000 0.000000
0.601404 0.000000 0.000000
0.636286 0.000000 0.000000
0.671687 0.000000 0.000000
0.706813 0.000000 0.004242
0.741756 0.000000 0.011200
0.775509 0.000000 0.019165
0.808225 0.000000 0.032044
0.839933 0.000000 0.045991
0.870970 0.000000 0.059052
0.901396 0.000000 0.067628
0.931304 0.000000 0.076692
0.960510 0.008850 0.086671
0.989075 0.064515 0.097108
1.000000 0.090181 0.108461
1.000000 0.113100 0.121309
0.052125 0.132082 0.005982
0.071870 0.131685 0.005035
0.089021 0.131044 0.004883
0.117098 0.129488 0.004456
0.149386 0.127016 0.004669
0.182834 0.123903 0.003326
0.218357 0.120943 0.002747
0.254826 0.117494 0.001038
0.290990 0.112490 0.000000
0.326665 0.106783 0.000000
0.361883 0.099916 0.000000
0.396796 0.092409 0.000000
0.431098 0.085115 0.000000
0.465278 0.077150 0.000000
0.499184 0.069062 0.000000
0.532921 0.062257 0.000000
0.566766 0.052461 0.000000
0.600732 0.041840 0.000000
0.636469 0.034577 0.000000
0.671656 0.033570 0.000000
0.706691 0.035401 0.005280
0.741726 0.040162 0.010895
0.788815 0.068025 0.028626
0.820920 0.074037 0.043275
0.851804 0.081666 0.056947
0.881956 0.088899 0.065766
0.911376 0.098390 0.074739
0.940154 0.108309 0.083711
0.968353 0.119081 0.093172
0.995941 0.131167 0.103517
1.000000 0.144411 0.114809
1.000000 0.158724 0.127321
0.067842 0.163638 0.008423
0.082643 0.163088 0.008637
0.098268 0.162570 0.007355
0.124819 0.161379 0.007843
0.156313 0.159640 0.006714
0.189303 0.157107 0.005249
0.222965 0.153811 0.003357
0.257755 0.151064 0.001007
0.293584 0.148348 0.000000
0.329229 0.144991 0.000000
0.364446 0.141421 0.000000
0.399207 0.137606 0.000000
0.433509 0.133974 0.000000
0.467659 0.130556 0.000000
0.501274 0.127291 0.000000
0.534813 0.124880 0.000000
0.568475 0.123140 0.000000
0.603876 0.122530 0.000000
0.639765 0.122835 0.000000
0.675349 0.123995 0.000305
0.711269 0.126284 0.006378
0.747372 0.128756 0.012696
0.782345 0.132448 0.023682
0.816098 0.136141 0.037049
0.848417 0.140352 0.053162
0.879393 0.145113 0.064118
0.909331 0.150515 0.072724
0.938323 0.156741 0.082216
0.966735 0.163821 0.091768
0.994354 0.172061 0.102358
1.000000 0.181155 0.113436
1.000000 0.191989 0.125765
0.078157 0.193790 0.008331
0.090974 0.193484 0.008423
0.104829 0.193057 0.008270
0.130526 0.192020 0.006531
0.161074 0.190585 0.005371
0.193515 0.188327 0.005035
0.226535 0.185794 0.003021
0.259678 0.182986 0.001556
0.293584 0.180301 0.000000
0.328801 0.178592 0.000000
0.363745 0.176730 0.000000
0.398413 0.174472 0.000000
0.432563 0.172702 0.000000
0.466529 0.171023 0.000000
0.500084 0.169741 0.000000
0.533562 0.168856 0.000000
0.567926 0.168643 0.000000
0.603784 0.169711 0.000000
0.638941 0.170840 0.000000
0.674037 0.172580 0.000000
0.709621 0.174624 0.005615
0.745418 0.177249 0.011810
0.780301 0.180117 0.021759
0.813901 0.183322 0.035004
0.846189 0.186404 0.050080
0.877256 0.190097 0.062379
0.907286 0.193912 0.071351
0.936492 0.198184 0.080415
0.965026 0.203525 0.090425
0.992798 0.209628 0.100740
1.000000 0.216892 0.112184
1.000000 0.225254 0.124727
0.088289 0.224643 0.008301
0.099336 0.224308 0.008545
0.112764 0.223911 0.008331
0.136538 0.223056 0.006592
0.166293 0.221683 0.005463
0.197848 0.219883 0.005005
0.230350 0.217868 0.003998
0.263035 0.215518 0.000305
0.295781 0.212955 0.000000
0.328985 0.210971 0.000000
0.363592 0.210208 0.000000
0.398016 0.209354 0.000000
0.432136 0.208591 0.000000
0.465949 0.208255 0.000000
0.499367 0.207980 0.000000
0.533349 0.208133 0.000000
0.568597 0.209445 0.000000
0.603876 0.211154 0.000000
0.638483 0.212650 0.000000
0.673304 0.214633 0.000000
0.708614 0.216953 0.003784
0.744228 0.219669 0.008515
0.778866 0.222538 0.018280
0.812375 0.225254 0.030488
0.844572 0.228000 0.047425
0.875639 0.230747 0.060639
0.905760 0.233860 0.069825
0.935058 0.237308 0.079072
0.963653 0.241337 0.088533
0.991485 0.246159 0.099336
1.000000 0.251743 0.110842
1.000000 0.258579 0.123384
0.098970 0.255772 0.007263
0.108705 0.255467 0.007477
0.120974 0.255131 0.006165
0.143496 0.254368 0.006592
0.171664 0.253208 0.005463
0.202518 0.251743 0.003815
0.234257 0.249943 0.002869
0.266545 0.247929 0.001343
0.298894 0.246006 0.000000
0.330938 0.243809 0.000000
0.363317 0.242252 0.000000
0.397467 0.242344 0.000000
0.431434 0.242618 0.000000
0.465156 0.243015 0.000000
0.499641 0.244205 0.000000
0.534508 0.246128 0.000000
0.569482 0.247990 0.000000
0.604486 0.250004 0.000000
0.638911 0.252018 0.000000
0.673426 0.253971 0.000000
0.708309 0.256535 0.001587
0.743221 0.259159 0.006775
0.777310 0.261631 0.013977
0.810300 0.264103 0.026764
0.842252 0.266331 0.042267
0.873320 0.268711 0.057618
0.903624 0.271336 0.067109
0.933165 0.274235 0.076661
0.962066 0.277623 0.086885
0.990204 0.281682 0.097841
1.000000 0.286442 0.109468
1.000000 0.292058 0.122530
0.108736 0.287175 0.006134
0.117800 0.286900 0.006317
0.129458 0.286656 0.004913
0.150118 0.286015 0.005341
0.177188 0.285069 0.004120
0.207156 0.283940 0.003357
0.238560 0.282536 0.000977
0.270298 0.281102 0.000000
0.302434 0.279271 0.000000
0.334234 0.277653 0.000000
0.365820 0.276036 0.000000
0.397375 0.274846 0.000000
0.431464 0.276036 0.000000
0.466102 0.277958 0.000000
0.500572 0.280034 0.000000
0.534936 0.282139 0.000000
0.569421 0.284337 0.000000
0.603967 0.286778 0.000000
0.638148 0.288884 0.000000
0.672450 0.291173 0.000000
0.707149 0.293919 0.000000
0.742000 0.296574 0.002045
0.775998 0.299321 0.009644
0.808988 0.301671 0.021118
0.840940 0.303838 0.036408
0.871946 0.305852 0.053315
0.902190 0.307988 0.064790
0.931731 0.310369 0.074708
0.960632 0.313176 0.084749
0.988769 0.316472 0.095766
1.000000 0.320317 0.107973
1.000000 0.325078 0.121279
0.119326 0.319615 0.005463
0.127535 0.319402 0.004578
0.138155 0.319158 0.005310
0.157839 0.318608 0.004639
0.183841 0.317937 0.003082
0.212802 0.316991 0.002197
0.243412 0.315923 0.000702
0.274723 0.314672 0.000000
0.306401 0.313390 0.000000
0.338048 0.312139 0.000000
0.369543 0.310826 0.000000
0.401648 0.310796 0.000000
0.440192 0.316777 0.000000
0.475135 0.319646 0.000000
0.509850 0.322179 0.000000
0.544427 0.324804 0.000000
0.579126 0.327398 0.000000
0.613672 0.329992 0.000000
0.647333 0.331884 0.000000
0.681209 0.334112 0.000000
0.715389 0.336522 0.000000
0.749294 0.338933 0.002380
0.782254 0.340856 0.010498
0.814328 0.342596 0.023285
0.845548 0.344121 0.038788
0.875975 0.345617 0.055848
0.905669 0.347173 0.066773
0.934630 0.348913 0.076204
0.962982 0.350958 0.086641
0.990692 0.353429 0.097749
1.000000 0.356481 0.109773
1.000000 0.360174 0.122896
0.131411 0.355413 0.006073
0.138735 0.355322 0.005005
0.148287 0.355016 0.004852
0.166964 0.354376 0.004364
0.191714 0.353491 0.003265
0.219760 0.352392 0.002716
0.249485 0.351354 0.001282
0.280369 0.350195 0.000000
0.311650 0.349187 0.000000
0.344121 0.349523 0.000000
0.376745 0.350042 0.000000
0.409369 0.350652 0.000000
0.441840 0.351507 0.000000
0.474037 0.352209 0.000000
0.508812 0.355627 0.000000
0.543328 0.358862 0.000000
0.577874 0.361852 0.000000
0.612055 0.364630 0.000000
0.645533 0.366735 0.000000
0.679194 0.369116 0.000000
0.713222 0.371771 0.000000
0.747005 0.374121 0.000000
0.779873 0.376165 0.003082
0.811856 0.377813 0.014893
0.843046 0.379278 0.029297
0.873533 0.380591 0.047181
0.903319 0.381933 0.061982
0.932433 0.383398 0.072541
0.960937 0.385046 0.083009
0.988769 0.387152 0.094881
1.000000 0.389654 0.107332
1.000000 0.392706 0.120821
0.142367 0.389197 0.005402
0.149630 0.388952 0.005554
0.158206 0.388769 0.005341
0.175631 0.388220 0.004730
0.198886 0.387396 0.002686
0.226108 0.386847 0.002411
0.255467 0.386481 0.000824
0.286015 0.386206 0.000000
0.317327 0.386023 0.000000
0.349126 0.386175 0.000000
0.381079 0.386542 0.000000
0.413306 0.387213 0.000000
0.445258 0.387884 0.000000
0.476967 0.388586 0.000000
0.508293 0.389014 0.000000
0.542229 0.392157 0.000000
0.576349 0.395392 0.000000
0.610285 0.398474 0.000000
0.643641 0.400885 0.000000
0.677211 0.403388 0.000000
0.711238 0.406256 0.000000
0.744961 0.408850 0.000000
0.777829 0.411048 0.000000
0.809842 0.412787 0.003632
0.841062 0.414160 0.017975
0.871641 0.415412 0.036957
0.901488 0.416510 0.056489
0.930694 0.417762 0.068330
0.959319 0.419165 0.079835
0.987274 0.420935 0.091981
1.000000 0.423072 0.105287
1.000000 0.425605 0.119326
0.154208 0.425879 0.003693
0.160616 0.425849 0.003601
0.168704 0.425666 0.003357
0.185031 0.425330 0.002472
0.207584 0.424720 0.002106
0.233677 0.424109 0.000000
0.262119 0.423560 0.000000
0.291905 0.423041 0.000000
0.322606 0.422797 0.000000
0.353857 0.422889 0.000000
0.385412 0.423255 0.000000
0.417121 0.423926 0.000000
0.448737 0.424689 0.000000
0.480262 0.425391 0.000000
0.511376 0.425849 0.000000
0.541955 0.425879 0.000000
0.575158 0.428779 0.000000
0.608789 0.431983 0.000000
0.641962 0.434668 0.000000
0.675471 0.437446 0.000000
0.709316 0.440406 0.000000
0.742947 0.443183 0.000000
0.775753 0.445380 0.000000
0.807797 0.447089 0.000000
0.839078 0.448524 0.006195
0.869841 0.449775 0.023621
0.899992 0.451026 0.046479
0.929534 0.452338 0.064424
0.958495 0.453712 0.076997
0.986755 0.455360 0.090028
1.000000 0.457282 0.104250
1.000000 0.459480 0.119417
0.165255 0.463569 0.000000
0.171298 0.463569 0.000000
0.178775 0.463478 0.000000
0.194247 0.463203 0.000000
0.215763 0.462715 0.000000
0.241184 0.462196 0.000000
0.268956 0.461830 0.000000
0.298222 0.461494 0.000000
0.328588 0.461280 0.000000
0.359167 0.461372 0.000000
0.390295 0.461494 0.000000
0.421485 0.461769 0.000000
0.452491 0.462074 0.000000
0.483436 0.462318 0.000000
0.514061 0.462501 0.000000
0.544488 0.462562 0.000000
0.574609 0.462440 0.000000
0.607141 0.464942 0.000000
0.640497 0.468025 0.000000
0.674159 0.471351 0.000000
0.708186 0.474800 0.000000
0.741909 0.477852 0.000000
0.774777 0.480232 0.000000
0.806912 0.482002 0.000000
0.838285 0.483497 0.000000
0.869139 0.484779 0.011994
0.899382 0.485939 0.034791
0.929015 0.487098 0.059724
0.957977 0.488258 0.074403
0.986175 0.489601 0.087770
1.000000 0.491005 0.102846
1.000000 0.492714 0.118227
0.175662 0.500694 0.000000
0.181216 0.500664 0.000000
0.188113 0.500481 0.000000
0.203006 0.500175 0.000000
0.223545 0.499763 0.000000
0.248020 0.499275 0.000000
0.274876 0.498848 0.000000
0.303471 0.498543 0.000000
0.333165 0.498390 0.000000
0.363470 0.498360 0.000000
0.394141 0.498543 0.000000
0.424964 0.498878 0.000000
0.455695 0.499245 0.000000
0.486397 0.499428 0.000000
0.516838 0.499489 0.000000
0.546929 0.499306 0.000000
0.576867 0.499001 0.000000
0.606775 0.498848 0.000000
0.638849 0.500969 0.000000
0.672358 0.504509 0.000000
0.706294 0.508141 0.000000
0.739925 0.511406 0.000000
0.772824 0.513878 0.000000
0.804990 0.515862 0.000000
0.836484 0.517418 0.000000
0.867460 0.518730 0.000000
0.897856 0.519890 0.019715
0.927642 0.521050 0.049897
0.956756 0.522148 0.069551
0.985077 0.523278 0.085054
1.000000 0.524437 0.100404
1.000000 0.525750 0.117067
0.185428 0.538262 0.000000
0.191073 0.538354 0.000000
0.200107 0.546197 0.000000
0.214328 0.545830 0.000000
0.234165 0.545342 0.000000
0.257816 0.544671 0.000000
0.284154 0.543877 0.000000
0.312078 0.543236 0.000000
0.341436 0.542718 0.000000
0.371374 0.542351 0.000000
0.401648 0.542229 0.000000
0.432105 0.542107 0.000000
0.462501 0.541924 0.000000
0.493019 0.541741 0.000000
0.523217 0.541436 0.000000
0.553246 0.540978 0.000000
0.583154 0.540459 0.000000
0.612940 0.539971 0.000000
0.642695 0.539574 0.000000
0.674495 0.541344 0.000000
0.708034 0.544762 0.000000
0.741268 0.547753 0.000000
0.773800 0.549981 0.000000
0.805631 0.551629 0.000000
0.836667 0.552728 0.000000
0.867155 0.553674 0.000000
0.897124 0.554406 0.004639
0.926604 0.555108 0.035126
0.955566 0.555840 0.063813
0.983917 0.556756 0.080781
1.000000 0.557671 0.097780
1.000000 0.558587 0.115297
0.195682 0.577325 0.000000
0.200778 0.578332 0.000000
0.207828 0.579278 0.000000
0.221256 0.579980 0.000000
0.240391 0.580285 0.000000
0.263401 0.580072 0.000000
0.288975 0.579614 0.000000
0.316289 0.579034 0.000000
0.344945 0.578637 0.000000
0.374212 0.578271 0.000000
0.404242 0.578058 0.000000
0.434333 0.577966 0.000000
0.464454 0.577813 0.000000
0.494636 0.577569 0.000000
0.524620 0.577264 0.000000
0.554559 0.576806 0.000000
0.584436 0.576379 0.000000
0.614191 0.575891 0.000000
0.644099 0.575647 0.000000
0.674128 0.575677 0.000000
0.705959 0.577478 0.000000
0.739254 0.580743 0.000000
0.771878 0.583276 0.000000
0.803799 0.585138 0.000000
0.834989 0.586358 0.000000
0.865629 0.587396 0.000000
0.895781 0.588128 0.000000
0.925353 0.588830 0.016968
0.954406 0.589532 0.055421
0.982757 0.590204 0.076417
1.000000 0.590845 0.094759
1.000000 0.591424 0.113436
0.204257 0.613550 0.000000
0.209323 0.614466 0.000000
0.215793 0.615381 0.000000
0.228641 0.616052 0.000000
0.246891 0.616388 0.000000
0.269169 0.616236 0.000000
0.293980 0.615747 0.000000
0.320562 0.615320 0.000000
0.348516 0.614954 0.000000
0.377447 0.614679 0.000000
0.406928 0.614588 0.000000
0.436713 0.614496 0.000000
0.466682 0.614343 0.000000
0.496681 0.614130 0.000000
0.526574 0.613825 0.000000
0.556420 0.613428 0.000000
0.586206 0.613001 0.000000
0.615961 0.612573 0.000000
0.645838 0.612299 0.000000
0.675959 0.612268 0.000000
0.706111 0.612360 0.000000
0.737606 0.613947 0.000000
0.770260 0.616663 0.000000
0.802182 0.618585 0.000000
0.833463 0.619959 0.000000
0.864164 0.620935 0.000000
0.894316 0.621668 0.000000
0.923919 0.622248 0.000000
0.952972 0.622827 0.040040
0.981353 0.623285 0.070710
1.000000 0.623713 0.091127
1.000000 0.624018 0.111116
0.212497 0.650141 0.000000
0.217227 0.650996 0.000000
0.223545 0.651881 0.000000
0.235660 0.652522 0.000000
0.253208 0.652796 0.000000
0.274601 0.652705 0.000000
0.298619 0.652308 0.000000
0.324529 0.651881 0.000000
0.352087 0.651423 0.000000
0.380438 0.651087 0.000000
0.409369 0.650935 0.000000
0.438911 0.650721 0.000000
0.468544 0.650507 0.000000
0.498299 0.650233 0.000000
0.528099 0.650019 0.000000
0.557977 0.649805 0.000000
0.587976 0.649622 0.000000
0.618036 0.649653 0.000000
0.648310 0.649805 0.000000
0.678706 0.650202 0.000000
0.709316 0.650813 0.000000
0.740139 0.651484 0.000000
0.771542 0.652796 0.000000
0.803677 0.654994 0.000000
0.835172 0.656580 0.000000
0.865995 0.657649 0.000000
0.896208 0.658228 0.000000
0.925780 0.658686 0.000000
0.954742 0.658930 0.038453
0.982940 0.659144 0.072297
1.000000 0.659113 0.093874
1.000000 0.658900 0.114534
0.221958 0.689815 0.000000
0.226352 0.690211 0.000000
0.231815 0.690425 0.000000
0.243229 0.690547 0.000000
0.260166 0.690455 0.000000
0.280674 0.690120 0.000000
0.303990 0.689723 0.000000
0.329320 0.689296 0.000000
0.356237 0.689052 0.000000
0.384253 0.688838 0.000000
0.412940 0.688808 0.000000
0.442176 0.688685 0.000000
0.471565 0.688441 0.000000
0.501091 0.688197 0.000000
0.530724 0.687861 0.000000
0.560510 0.687495 0.000000
0.590326 0.687190 0.000000
0.620264 0.687007 0.000000
0.650263 0.686976 0.000000
0.680446 0.687037 0.000000
0.710719 0.687190 0.000000
0.741085 0.687465 0.000000
0.771542 0.687800 0.000000
0.802274 0.688411 0.000000
0.833616 0.689876 0.000000
0.864469 0.690974 0.000000
0.894743 0.691615 0.000000
0.924407 0.692012 0.000000
0.953399 0.692226 0.019684
0.981598 0.692195 0.066072
1.000000 0.691920 0.089937
1.000000 0.691463 0.112306
0.229953 0.724910 0.000000
0.234073 0.725277 0.000000
0.239384 0.725582 0.000000
0.250370 0.725673 0.000000
0.266331 0.725582 0.000000
0.286168 0.725246 0.000000
0.308537 0.724819 0.000000
0.333013 0.724361 0.000000
0.359380 0.723995 0.000000
0.386786 0.723720 0.000000
0.415106 0.723537 0.000000
0.443732 0.723354 0.000000
0.472786 0.723140 0.000000
0.502190 0.722866 0.000000
0.531609 0.722621 0.000000
0.561212 0.722347 0.000000
0.590967 0.722164 0.000000
0.620813 0.722042 0.000000
0.650813 0.722042 0.000000
0.680964 0.722225 0.000000
0.711238 0.722469 0.000000
0.741665 0.722835 0.000000
0.772122 0.723323 0.000000
0.802701 0.723812 0.000000
0.831357 0.722286 0.000000
0.862181 0.723384 0.000000
0.892515 0.724147 0.000000
0.922240 0.724514 0.000000
0.951324 0.724636 0.000000
0.979614 0.724483 0.054658
1.000000 0.724117 0.084199
1.000000 0.723537 0.109133
0.239567 0.762112 0.000000
0.243320 0.762509 0.000000
0.248539 0.762692 0.000000
0.258885 0.762631 0.000000
0.273808 0.762417 0.000000
0.292546 0.761898 0.000000
0.314183 0.761288 0.000000
0.337987 0.760616 0.000000
0.363439 0.759945 0.000000
0.390173 0.759335 0.000000
0.417700 0.758785 0.000000
0.445808 0.758328 0.000000
0.474403 0.757870 0.000000
0.503288 0.757351 0.000000
0.532250 0.756771 0.000000
0.561425 0.756130 0.000000
0.590753 0.755550 0.000000
0.620233 0.755215 0.000000
0.650019 0.755154 0.000000
0.680079 0.755337 0.000000
0.710262 0.755734 0.000000
0.740536 0.756130 0.000000
0.770840 0.756497 0.000000
0.801083 0.756741 0.000000
0.831113 0.756863 0.000000
0.861173 0.757015 0.000000
0.891325 0.757504 0.000000
0.920928 0.757656 0.000000
0.949889 0.757595 0.000000
0.978119 0.757198 0.035767
1.000000 0.756619 0.079255
1.000000 0.755795 0.106477
0.247593 0.795377 0.000000
0.251194 0.795743 0.000000
0.256046 0.795956 0.000000
0.265843 0.795926 0.000000
0.280125 0.795651 0.000000
0.298131 0.795254 0.000000
0.318975 0.794766 0.000000
0.342016 0.794217 0.000000
0.366827 0.793698 0.000000
0.393042 0.793271 0.000000
0.420020 0.792905 0.000000
0.447944 0.792569 0.000000
0.476204 0.792264 0.000000
0.504784 0.791867 0.000000
0.533562 0.791409 0.000000
0.562615 0.790951 0.000000
0.591821 0.790494 0.000000
0.621241 0.790219 0.000000
0.650813 0.790127 0.000000
0.680720 0.790280 0.000000
0.710719 0.790524 0.000000
0.740871 0.790860 0.000000
0.771023 0.791165 0.000000
0.801144 0.791409 0.000000
0.831174 0.791562 0.000000
0.861082 0.791653 0.000000
0.890990 0.791775 0.000000
0.920623 0.791836 0.000000
0.949554 0.791562 0.000000
0.977722 0.790951 0.024506
1.000000 0.790188 0.078462
1.000000 0.789029 0.107424
0.256474 0.829099 0.000000
0.259953 0.829313 0.000000
0.264317 0.829404 0.000000
0.273564 0.829252 0.000000
0.286961 0.828885 0.000000
0.304051 0.828428 0.000000
0.324041 0.827878 0.000000
0.346288 0.827329 0.000000
0.370550 0.826810 0.000000
0.395880 0.826413 0.000000
0.422431 0.826047 0.000000
0.449744 0.825834 0.000000
0.477699 0.825589 0.000000
0.506004 0.825284 0.000000
0.534508 0.824857 0.000000
0.563226 0.824399 0.000000
0.592218 0.823911 0.000000
0.621393 0.823575 0.000000
0.650813 0.823423 0.000000
0.680415 0.823514 0.000000
0.710262 0.823728 0.000000
0.740169 0.823972 0.000000
0.770108 0.824216 0.000000
0.800046 0.824430 0.000000
0.829923 0.824552 0.000000
0.859709 0.824613 0.000000
0.889494 0.824674 0.000000
0.919158 0.824735 0.000000
0.948150 0.824399 0.000000
0.976379 0.823697 0.004700
1.000000 0.822629 0.073030
1.000000 0.821164 0.105135
0.265141 0.861326 0.000000
0.268315 0.861448 0.000000
0.272618 0.861479 0.000000
0.281163 0.861387 0.000000
0.294072 0.861204 0.000000
0.310552 0.861021 0.000000
0.329900 0.860960 0.000000
0.351720 0.860960 0.000000
0.375494 0.861082 0.000000
0.400671 0.861326 0.000000
0.426917 0.861570 0.000000
0.454047 0.861845 0.000000
0.481758 0.862028 0.000000
0.509850 0.862058 0.000000
0.538323 0.861906 0.000000
0.566857 0.861570 0.000000
0.595697 0.861204 0.000000
0.624659 0.860868 0.000000
0.653925 0.860655 0.000000
0.683375 0.860624 0.000000
0.712917 0.860685 0.000000
0.742702 0.860777 0.000000
0.772396 0.860868 0.000000
0.802121 0.860899 0.000000
0.831815 0.860899 0.000000
0.861387 0.860838 0.000000
0.890990 0.860807 0.000000
0.920500 0.860746 0.000000
0.950042 0.860838 0.000000
0.978241 0.859892 0.022400
1.000000 0.858213 0.082551
1.000000 0.856016 0.113893
0.277226 0.896330 0.000000
0.280095 0.896422 0.000000
0.283879 0.896361 0.000000
0.291875 0.896178 0.000000
0.304143 0.895872 0.000000
0.319493 0.895537 0.000000
0.337957 0.895232 0.000000
0.358556 0.894987 0.000000
0.381201 0.894774 0.000000
0.405493 0.894621 0.000000
0.430854 0.894469 0.000000
0.457130 0.894347 0.000000
0.484077 0.894194 0.000000
0.511650 0.893950 0.000000
0.539513 0.893675 0.000000
0.567651 0.893309 0.000000
