其他预设/【232】美食博客调色预设124款/1.3D LUT预设（视频调色-PR-AE-PS-FCPX-达芬奇用）/Food Art #44.cube
# Created by Adobe Lightroom plugin Export LUT (1.17.0)
# www.johnrellis.com/lightroom/exportlut.htm
# Preset: Food Art #44
# Color profile: /Library/Application Support/Adobe/Color/Profiles/Recommended/AdobeRGB1998.icc
LUT_3D_SIZE 32
0.180789 0.139742 0.113741
0.180789 0.139742 0.113741
0.180789 0.139742 0.113741
0.180789 0.139742 0.113741
0.199222 0.139681 0.116152
0.222599 0.140291 0.120424
0.242100 0.141451 0.124392
0.262486 0.141726 0.128267
0.284459 0.139712 0.131502
0.308385 0.138369 0.133944
0.334081 0.139803 0.136690
0.360845 0.141878 0.139193
0.388617 0.144747 0.141451
0.416907 0.148928 0.143923
0.445319 0.154665 0.146609
0.473823 0.161379 0.150088
0.502190 0.169558 0.155001
0.530236 0.177798 0.162020
0.557977 0.187106 0.169558
0.589319 0.198123 0.179110
0.621332 0.210361 0.189212
0.653193 0.223667 0.200809
0.683497 0.237827 0.212924
0.712245 0.253117 0.226658
0.739895 0.269688 0.241093
0.767544 0.287449 0.257206
0.795377 0.306920 0.275456
0.823392 0.328466 0.295567
0.851438 0.352270 0.318730
0.879118 0.379126 0.345190
0.905974 0.409277 0.375525
0.931456 0.443732 0.410803
0.180789 0.139742 0.113741
0.180789 0.139742 0.113741
0.180789 0.139742 0.113741
0.180789 0.139742 0.113741
0.199802 0.139712 0.116518
0.222599 0.140475 0.120424
0.242069 0.141634 0.124544
0.262455 0.141909 0.128267
0.284367 0.140291 0.131289
0.308324 0.141360 0.134218
0.333867 0.143191 0.136904
0.360662 0.145388 0.139406
0.388281 0.148409 0.141482
0.416419 0.152590 0.144137
0.444709 0.157931 0.146670
0.473060 0.164584 0.150484
0.501396 0.172396 0.155123
0.529351 0.180667 0.162234
0.556970 0.189914 0.169772
0.588159 0.200565 0.178988
0.619715 0.212406 0.189425
0.651301 0.225376 0.200412
0.681605 0.239353 0.212497
0.710445 0.254337 0.226017
0.738155 0.270573 0.240574
0.765805 0.288151 0.256687
0.793820 0.307408 0.274449
0.821897 0.328862 0.294804
0.850065 0.352544 0.317723
0.877897 0.379126 0.344182
0.904845 0.409247 0.374517
0.930449 0.443427 0.409613
0.180789 0.139742 0.113741
0.180789 0.139742 0.113741
0.180789 0.139742 0.113741
0.180789 0.139742 0.113741
0.200473 0.139712 0.116304
0.223178 0.140291 0.120394
0.242283 0.141573 0.124544
0.262455 0.142092 0.128420
0.284764 0.143923 0.131807
0.308568 0.145693 0.134676
0.334173 0.147768 0.137148
0.360784 0.150271 0.139620
0.388281 0.153231 0.142031
0.416327 0.157443 0.144320
0.444556 0.162509 0.147036
0.472938 0.169070 0.150668
0.501061 0.176761 0.155612
0.528954 0.184726 0.162722
0.556634 0.193606 0.170230
0.587640 0.204135 0.179690
0.619074 0.215854 0.189517
0.650629 0.228336 0.200626
0.680812 0.242161 0.212619
0.709621 0.257023 0.225925
0.737270 0.272984 0.240635
0.764950 0.290257 0.256504
0.792966 0.309483 0.274418
0.821164 0.330602 0.294896
0.849363 0.354101 0.317815
0.877256 0.380560 0.343969
0.904234 0.410376 0.374365
0.929900 0.444404 0.409369
0.180789 0.139742 0.113741
0.180789 0.139742 0.113741
0.180880 0.139895 0.113924
0.181643 0.141970 0.114076
0.203525 0.144106 0.117281
0.224826 0.145968 0.121492
0.243809 0.148989 0.125948
0.264195 0.151919 0.129702
0.286259 0.153658 0.132692
0.309941 0.155612 0.135500
0.335271 0.157748 0.137789
0.361761 0.160220 0.140230
0.389075 0.163455 0.142428
0.416846 0.167361 0.144747
0.444984 0.172335 0.147585
0.473182 0.178714 0.151034
0.501091 0.185611 0.157168
0.528801 0.193484 0.164034
0.556878 0.202029 0.171572
0.587213 0.211917 0.180667
0.618128 0.222934 0.190494
0.649348 0.234989 0.201602
0.679561 0.248356 0.213321
0.708522 0.262882 0.226658
0.736538 0.278569 0.241520
0.764523 0.295903 0.257572
0.792782 0.314794 0.275669
0.821103 0.335760 0.295995
0.849363 0.358984 0.319249
0.877134 0.385077 0.345403
0.903960 0.414466 0.375555
0.929534 0.447791 0.410346
0.187472 0.162905 0.118135
0.187778 0.163577 0.118257
0.188205 0.164523 0.118318
0.189151 0.166476 0.118837
0.208591 0.167025 0.121157
0.228305 0.166018 0.125002
0.246738 0.166262 0.128695
0.266880 0.167147 0.131655
0.288518 0.168490 0.134310
0.311864 0.170138 0.136599
0.336858 0.172122 0.139193
0.363104 0.174685 0.141238
0.390173 0.177951 0.143404
0.417823 0.181857 0.145815
0.445747 0.186313 0.148653
0.473823 0.192264 0.152804
0.501610 0.198886 0.158968
0.529381 0.206088 0.166140
0.557977 0.214298 0.173983
0.587915 0.223911 0.182681
0.618402 0.234348 0.192660
0.649287 0.246036 0.203433
0.679286 0.258793 0.215244
0.708125 0.272831 0.228611
0.736110 0.287968 0.243320
0.764157 0.304631 0.259403
0.792325 0.323156 0.277623
0.820645 0.343328 0.297765
0.848875 0.366125 0.320775
0.876585 0.391760 0.347265
0.903471 0.420478 0.377081
0.928954 0.453346 0.412024
0.197513 0.183139 0.124605
0.197604 0.183505 0.124758
0.198001 0.184054 0.125032
0.198917 0.185397 0.125551
0.213596 0.186007 0.127169
0.232578 0.186679 0.129183
0.251896 0.186374 0.131533
0.271183 0.186282 0.133883
0.292363 0.186862 0.136019
0.315404 0.188083 0.138308
0.339940 0.190158 0.140536
0.365881 0.192782 0.142672
0.392432 0.195682 0.144533
0.419837 0.199435 0.147219
0.447425 0.204074 0.150088
0.475288 0.209354 0.155673
0.502953 0.215427 0.162234
0.530510 0.222202 0.168978
0.559747 0.230503 0.177127
0.589380 0.239445 0.186007
0.619806 0.249363 0.195743
0.650507 0.260685 0.206577
0.692073 0.280003 0.224582
0.720333 0.293736 0.238346
0.747646 0.308629 0.253635
0.775021 0.324865 0.270115
0.802426 0.342809 0.288579
0.829770 0.362646 0.309331
0.856901 0.384894 0.332525
0.883635 0.409918 0.359075
0.909300 0.438117 0.389471
0.933654 0.470192 0.424445
0.205722 0.204135 0.130312
0.205661 0.204501 0.130282
0.205936 0.204990 0.130373
0.208408 0.205814 0.130678
0.221103 0.206577 0.131716
0.238132 0.207431 0.133181
0.257969 0.208499 0.135012
0.278233 0.208835 0.136965
0.299107 0.208957 0.138613
0.321813 0.210056 0.140658
0.346288 0.211948 0.142641
0.371923 0.214511 0.144686
0.398199 0.217411 0.146761
0.425116 0.220951 0.149508
0.452216 0.224887 0.154147
0.479469 0.229953 0.159792
0.506828 0.235416 0.166293
0.535271 0.242405 0.173648
0.564538 0.250278 0.181918
0.594507 0.259190 0.191287
0.625574 0.269352 0.201144
0.657099 0.280705 0.212894
0.687739 0.293431 0.225650
0.717189 0.307134 0.239963
0.745510 0.321996 0.255863
0.773465 0.337957 0.272709
0.801175 0.355352 0.291356
0.828611 0.374640 0.312169
0.855894 0.396094 0.335332
0.882536 0.420142 0.361791
0.908171 0.447547 0.392035
0.932494 0.478828 0.426886
0.211398 0.225406 0.133730
0.211460 0.225681 0.134035
0.211490 0.226291 0.133944
0.216709 0.226841 0.134310
0.228428 0.227512 0.135348
0.244083 0.228305 0.136294
0.262638 0.229313 0.137942
0.283299 0.230808 0.139620
0.304845 0.231815 0.141360
0.327031 0.232639 0.143069
0.350835 0.234470 0.144839
0.375921 0.236881 0.146700
0.401587 0.239536 0.149783
0.427863 0.242679 0.153841
0.454536 0.246647 0.158694
0.481453 0.251255 0.164309
0.509178 0.256870 0.170962
0.537804 0.263493 0.178622
0.566369 0.270787 0.186557
0.595605 0.279118 0.195712
0.626246 0.288670 0.205814
0.657282 0.299474 0.217075
0.687465 0.311467 0.229862
0.716548 0.324376 0.243961
0.744686 0.338293 0.259617
0.772610 0.353643 0.276616
0.800198 0.370184 0.295079
0.827634 0.388647 0.315557
0.854887 0.409369 0.339055
0.881498 0.432563 0.365332
0.907134 0.459236 0.395758
0.931518 0.489479 0.430457
0.216434 0.248569 0.137087
0.216709 0.248875 0.137179
0.219547 0.249180 0.137331
0.226352 0.249607 0.137606
0.237400 0.250309 0.138430
0.251896 0.251011 0.139559
0.269383 0.252079 0.140841
0.289006 0.253452 0.142184
0.310674 0.255161 0.143862
0.333227 0.256962 0.145937
0.356268 0.258549 0.148287
0.380499 0.260563 0.151644
0.405798 0.263310 0.155154
0.431647 0.266331 0.159426
0.457862 0.270085 0.164187
0.484962 0.274815 0.170108
0.513054 0.280552 0.177096
0.541039 0.286778 0.184115
0.568811 0.293370 0.192294
0.597742 0.301244 0.200870
0.627955 0.310338 0.211093
0.658350 0.320592 0.222049
0.688045 0.331762 0.234958
0.716793 0.343938 0.249058
0.744686 0.357275 0.264622
0.772335 0.371618 0.281285
0.799832 0.387518 0.300053
0.827176 0.405158 0.320562
0.854307 0.424872 0.344030
0.880827 0.447333 0.370214
0.906310 0.472877 0.400549
0.930571 0.502190 0.435248
0.224887 0.273411 0.139925
0.227207 0.273320 0.140322
0.230198 0.273625 0.140444
0.237003 0.273899 0.140719
0.247593 0.274571 0.141360
0.261204 0.275425 0.142245
0.277531 0.276341 0.143862
0.296361 0.277653 0.145785
0.316838 0.279240 0.148196
0.338872 0.281224 0.151186
0.362097 0.283330 0.154574
0.385687 0.285313 0.157626
0.410407 0.287999 0.161349
0.435737 0.290990 0.165682
0.462531 0.295323 0.170657
0.490089 0.300389 0.177127
0.517723 0.305760 0.183658
0.545159 0.311498 0.191073
0.572534 0.317754 0.198856
0.600855 0.325109 0.207767
0.630457 0.333806 0.217472
0.659937 0.343267 0.228489
0.688838 0.353521 0.240665
0.716762 0.364752 0.254551
0.744198 0.376989 0.269718
0.771664 0.390723 0.286656
0.799100 0.405737 0.305211
0.826474 0.422858 0.326116
0.853696 0.441962 0.349462
0.880247 0.463783 0.376379
0.905791 0.488685 0.406897
0.930022 0.517205 0.441840
0.236179 0.298711 0.145113
0.238346 0.298863 0.145296
0.241398 0.299046 0.145418
0.247776 0.299351 0.146151
0.257725 0.299962 0.146914
0.270665 0.300786 0.148379
0.286381 0.301762 0.150301
0.304234 0.303075 0.152132
0.324071 0.304631 0.154696
0.345586 0.306615 0.157504
0.368200 0.308812 0.160983
0.391821 0.311315 0.164645
0.416114 0.314183 0.168521
0.442023 0.317754 0.173037
0.468482 0.322087 0.178439
0.495125 0.326848 0.184787
0.521935 0.331670 0.191073
0.548730 0.337011 0.198276
0.575586 0.342779 0.206088
0.603540 0.349706 0.214603
0.632593 0.357916 0.224338
0.661616 0.367010 0.235233
0.690028 0.376806 0.247807
0.717586 0.387396 0.261540
0.744808 0.399023 0.276921
0.772000 0.411933 0.293431
0.799161 0.426215 0.312139
0.826322 0.442359 0.332708
0.853300 0.460609 0.356207
0.879667 0.481575 0.382940
0.905058 0.505516 0.413611
0.929137 0.533043 0.448707
0.247807 0.325597 0.152224
0.249912 0.325780 0.152682
0.252934 0.325811 0.152682
0.258915 0.326268 0.153475
0.268437 0.326757 0.154482
0.280797 0.327550 0.155703
0.295933 0.328557 0.157504
0.313176 0.329870 0.159640
0.332341 0.331456 0.162020
0.353063 0.333471 0.165164
0.375311 0.335668 0.168399
0.399329 0.339147 0.172641
0.430182 0.348241 0.179324
0.456092 0.352148 0.184482
0.482246 0.356298 0.190311
0.508598 0.360662 0.196353
0.535058 0.365270 0.202945
0.561334 0.370123 0.210239
0.587823 0.375433 0.217868
0.615229 0.381994 0.226719
0.643244 0.389532 0.236393
0.670954 0.397681 0.247379
0.698085 0.406378 0.259831
0.724483 0.415961 0.273747
0.750881 0.426734 0.288975
0.777493 0.438758 0.305669
0.803952 0.452216 0.324163
0.830411 0.467506 0.344915
0.856626 0.484840 0.368444
0.882261 0.504631 0.395178
0.906889 0.527428 0.425727
0.930358 0.553948 0.460945
0.260929 0.355505 0.161318
0.263096 0.355779 0.161410
0.265843 0.355749 0.161715
0.271641 0.355871 0.162234
0.280674 0.356359 0.163027
0.292515 0.356847 0.164340
0.306920 0.357702 0.166079
0.323491 0.358923 0.168185
0.342321 0.360479 0.170504
0.363317 0.363500 0.174166
0.386145 0.367010 0.178073
0.410407 0.370916 0.182498
0.435615 0.375189 0.187808
0.461616 0.379797 0.193271
0.487556 0.384039 0.198886
0.513329 0.388342 0.205325
0.539178 0.392523 0.211826
0.564813 0.396979 0.218692
0.590753 0.401862 0.226291
0.617670 0.408118 0.234928
0.645075 0.415106 0.244572
0.672206 0.422614 0.255375
0.698787 0.430793 0.267857
0.724819 0.439765 0.281468
0.750942 0.449866 0.296635
0.777188 0.461280 0.313481
0.803525 0.474067 0.331853
0.829770 0.488563 0.352758
0.855833 0.505089 0.376287
0.881346 0.524224 0.403052
0.905913 0.546136 0.433753
0.929290 0.571649 0.469123
0.274022 0.384192 0.170474
0.275883 0.384344 0.170871
0.278477 0.384314 0.171145
0.284306 0.384527 0.171572
0.292790 0.384771 0.172641
0.304295 0.385657 0.173892
0.318456 0.387030 0.175723
0.334752 0.388830 0.178012
0.353338 0.390906 0.180850
0.373541 0.393500 0.184329
0.395392 0.396704 0.188083
0.418830 0.400275 0.192599
0.443061 0.404242 0.197513
0.467994 0.408331 0.203220
0.493263 0.412451 0.208713
0.518456 0.416419 0.214908
0.543450 0.420203 0.221225
0.568475 0.424262 0.227970
0.593927 0.428840 0.235386
0.620478 0.434730 0.243809
0.647303 0.441199 0.253605
0.673915 0.448402 0.264469
0.699977 0.456031 0.276616
0.725673 0.464454 0.290379
0.751553 0.473976 0.305608
0.777554 0.484840 0.322393
0.803677 0.497017 0.340978
0.829740 0.510887 0.361822
0.855589 0.526848 0.385290
0.880949 0.545098 0.412390
0.905272 0.566247 0.443458
0.928496 0.590875 0.479072
0.289067 0.415564 0.181918
0.290898 0.415717 0.182162
0.293248 0.415869 0.182376
0.298833 0.416205 0.182986
0.307103 0.416541 0.184054
0.317906 0.417243 0.185580
0.331365 0.418189 0.187106
0.346899 0.419532 0.189517
0.364630 0.421515 0.192172
0.383917 0.423835 0.195407
0.405005 0.426673 0.199283
0.427375 0.430091 0.203708
0.450813 0.433783 0.208408
0.475013 0.437568 0.213687
0.499458 0.441444 0.219333
0.523949 0.444923 0.225071
0.548425 0.448432 0.231235
0.572839 0.452125 0.237949
0.597742 0.456458 0.245182
0.623713 0.461891 0.253513
0.649836 0.467964 0.263096
0.675807 0.474556 0.273869
0.701320 0.481636 0.286168
0.726680 0.489570 0.300084
0.752316 0.498604 0.315312
0.778225 0.509056 0.332097
0.804288 0.520897 0.350896
0.830381 0.534508 0.372412
0.856199 0.550072 0.396643
0.881468 0.567956 0.424170
0.905699 0.588617 0.455909
0.928801 0.612482 0.491859
0.304479 0.447608 0.194644
0.306432 0.447852 0.194827
0.308690 0.447944 0.195041
0.313939 0.448219 0.195621
0.321813 0.448615 0.196658
0.332403 0.449348 0.197818
0.345006 0.450385 0.199557
0.359930 0.451698 0.202090
0.376837 0.453407 0.204654
0.395453 0.455543 0.207980
0.415564 0.457923 0.211521
0.436835 0.460700 0.215854
0.459205 0.463691 0.220066
0.482094 0.466865 0.225223
0.505547 0.470008 0.230411
0.529259 0.473335 0.235904
0.553277 0.476722 0.241825
0.577203 0.480049 0.248569
0.601984 0.484382 0.255863
0.627558 0.489693 0.264134
0.653254 0.495460 0.273808
0.678706 0.501701 0.285008
0.703822 0.508385 0.297276
0.728878 0.515923 0.311345
0.754330 0.524651 0.326635
0.780056 0.534752 0.343908
0.805844 0.546136 0.362890
0.831662 0.559167 0.384344
0.857176 0.574090 0.408820
0.882017 0.591180 0.436774
0.905791 0.610864 0.468482
0.928557 0.633295 0.503716
0.319921 0.478767 0.207645
0.321416 0.478889 0.207645
0.323857 0.478950 0.207950
0.328588 0.479133 0.208713
0.336034 0.479591 0.209659
0.345983 0.480201 0.210971
0.358068 0.481086 0.212650
0.372198 0.482277 0.214725
0.388373 0.483772 0.217350
0.406043 0.485664 0.220554
0.425452 0.487922 0.223880
0.445869 0.490425 0.228031
0.467292 0.493263 0.232639
0.489509 0.496223 0.237217
0.512200 0.499123 0.242374
0.535180 0.502068 0.247776
0.558465 0.505119 0.253727
0.582147 0.508568 0.259648
0.606287 0.512535 0.266697
0.631159 0.517266 0.275090
0.656123 0.522545 0.284794
0.680995 0.528191 0.295842
0.705562 0.534417 0.308476
0.730434 0.541680 0.322515
0.755581 0.550011 0.337896
0.781094 0.559686 0.355322
0.806729 0.570703 0.374640
0.832303 0.583368 0.396368
0.857572 0.597711 0.421241
0.882139 0.614191 0.449439
0.905730 0.633082 0.481209
0.928344 0.654322 0.516258
0.335607 0.510155 0.221592
0.337224 0.510460 0.221836
0.342931 0.517357 0.225345
0.347570 0.517479 0.226017
0.354559 0.517815 0.226932
0.363928 0.518151 0.228244
0.375525 0.518730 0.229557
0.388800 0.519524 0.231601
0.404303 0.520745 0.234195
0.421424 0.522240 0.237095
0.439765 0.524163 0.240665
0.459510 0.526299 0.244297
0.480110 0.528527 0.248600
0.501518 0.531090 0.253452
0.523491 0.533623 0.258335
0.545800 0.536187 0.263554
0.568597 0.538964 0.269169
0.591485 0.541772 0.275120
0.614649 0.544793 0.281529
0.638270 0.548394 0.289342
0.662165 0.552758 0.298955
0.686122 0.557641 0.310094
0.710048 0.563165 0.322484
0.734310 0.569757 0.336522
0.758755 0.577356 0.351934
0.783536 0.586145 0.368902
0.808408 0.596277 0.388006
0.833341 0.607935 0.409613
0.858091 0.621515 0.434363
0.882261 0.637293 0.462715
0.905516 0.655177 0.494392
0.927947 0.675105 0.528710
0.352422 0.543938 0.237369
0.354406 0.544945 0.238102
0.357000 0.545922 0.238895
0.361791 0.547021 0.239811
0.368719 0.547967 0.241093
0.377813 0.548699 0.242466
0.388739 0.549401 0.244266
0.401587 0.550195 0.246128
0.416419 0.551476 0.248447
0.432593 0.552789 0.251438
0.450263 0.554559 0.254856
0.469184 0.556542 0.258732
0.489143 0.558648 0.262913
0.509728 0.560815 0.267216
0.530877 0.563073 0.272160
0.552514 0.565301 0.277470
0.574426 0.567651 0.283177
0.596674 0.570123 0.288945
0.619196 0.572900 0.295476
0.642054 0.575952 0.302434
0.665187 0.579522 0.311223
0.688624 0.584070 0.322393
0.712184 0.589227 0.335149
0.736202 0.595575 0.349248
0.760494 0.602899 0.364630
0.784939 0.611322 0.382055
0.809628 0.621118 0.401434
0.834287 0.632349 0.423255
0.858671 0.645411 0.448310
0.882506 0.660395 0.476783
0.905516 0.677241 0.507897
0.927733 0.695979 0.541711
0.368597 0.575677 0.253117
0.370550 0.576562 0.253971
0.372900 0.577569 0.254765
0.377386 0.578546 0.255711
0.384009 0.579400 0.256901
0.392584 0.580041 0.258335
0.403052 0.580682 0.260075
0.415198 0.581415 0.262058
0.429145 0.582452 0.264408
0.444648 0.583703 0.267399
0.461677 0.585229 0.270542
0.479713 0.586999 0.274479
0.498787 0.588739 0.278660
0.518639 0.590631 0.283360
0.539025 0.592554 0.288212
0.559838 0.594476 0.293309
0.580987 0.596521 0.298772
0.602564 0.598718 0.304936
0.624414 0.601099 0.311284
0.646540 0.603876 0.318425
0.668879 0.606867 0.325902
0.691554 0.610529 0.335454
0.714748 0.615503 0.348516
0.738521 0.621454 0.362585
0.762448 0.628412 0.378454
0.786618 0.636500 0.395727
0.810880 0.645747 0.415229
0.835172 0.656489 0.437293
0.859159 0.668879 0.462501
0.882628 0.683009 0.490791
0.905394 0.698756 0.521324
0.927428 0.716335 0.554376
0.385595 0.606897 0.270512
0.387457 0.607752 0.271275
0.389685 0.608637 0.272099
0.393957 0.609522 0.273198
0.400305 0.610315 0.274418
0.408301 0.610895 0.275853
0.418036 0.611414 0.277714
0.429511 0.611994 0.279637
0.442847 0.612818 0.281926
0.457527 0.613794 0.284886
0.473579 0.615106 0.288273
0.490822 0.616541 0.291966
0.508965 0.618067 0.296178
0.528069 0.619684 0.300786
0.547662 0.621393 0.305852
0.567895 0.623346 0.311101
0.588556 0.625391 0.316991
0.609644 0.627680 0.323308
0.631128 0.630274 0.330419
0.652979 0.633112 0.337896
0.674952 0.636378 0.346075
0.697261 0.639857 0.354681
0.719936 0.644068 0.365179
0.743526 0.650019 0.379828
0.767330 0.656855 0.396216
0.791257 0.664698 0.414221
0.815183 0.673640 0.434302
0.839017 0.683894 0.456855
0.862486 0.695674 0.482307
0.885405 0.708797 0.509972
0.907652 0.723415 0.539910
0.929290 0.739773 0.572076
0.405768 0.640375 0.292485
0.407263 0.640803 0.292943
0.409064 0.641138 0.293523
0.412940 0.641474 0.294194
0.418616 0.641871 0.295140
0.426001 0.642237 0.296483
0.435126 0.642634 0.298344
0.446082 0.643214 0.300328
0.458503 0.644007 0.302800
0.472602 0.644984 0.305760
0.487953 0.646174 0.309331
0.504326 0.647517 0.313359
0.521752 0.648920 0.317540
0.539879 0.650294 0.322271
0.558679 0.651820 0.327214
0.578088 0.653468 0.332616
0.597955 0.655268 0.338445
0.618311 0.657404 0.344854
0.639033 0.659724 0.351629
0.660060 0.662287 0.358984
0.681392 0.665126 0.366888
0.702846 0.668177 0.375433
0.724361 0.671473 0.384161
0.746242 0.675380 0.394995
0.769558 0.681788 0.411170
0.793088 0.689235 0.429267
0.816648 0.697749 0.449683
0.840116 0.707515 0.472358
0.863249 0.718502 0.497475
0.885832 0.730678 0.524468
0.907805 0.744289 0.553796
0.929229 0.759640 0.585382
0.425055 0.669825 0.314092
0.426551 0.670222 0.314702
0.428229 0.670649 0.315160
0.431830 0.670985 0.315892
0.437110 0.671290 0.317205
0.444007 0.671595 0.318273
0.452491 0.671931 0.320043
0.462562 0.672358 0.321904
0.474281 0.673060 0.324498
0.487434 0.673854 0.327398
0.501976 0.675013 0.330877
0.517510 0.676234 0.334783
0.533989 0.677546 0.339147
0.551385 0.678920 0.343786
0.569512 0.680476 0.348730
0.588190 0.682124 0.354284
0.607385 0.683986 0.360266
0.627131 0.686030 0.366796
0.647272 0.688350 0.373877
0.667750 0.690913 0.381567
0.688502 0.693690 0.389532
0.709468 0.696742 0.398322
0.730556 0.700038 0.407446
0.751644 0.703456 0.417090
0.771267 0.705531 0.425788
0.794369 0.712490 0.444007
0.817624 0.720577 0.464515
0.840665 0.729763 0.487160
0.863554 0.740017 0.511467
0.885863 0.751400 0.537987
0.907683 0.764157 0.566674
0.928985 0.778775 0.598291
0.447669 0.701930 0.340459
0.449012 0.702358 0.340948
0.450660 0.702632 0.341314
0.453834 0.702876 0.342168
0.458564 0.703029 0.342962
0.464790 0.703151 0.344244
0.472694 0.703334 0.345525
0.481880 0.703487 0.347326
0.492622 0.703883 0.349676
0.504784 0.704372 0.352422
0.518181 0.705043 0.355566
0.532708 0.706020 0.359197
0.548211 0.706996 0.363378
0.564569 0.708095 0.367773
0.581598 0.709255 0.372534
0.599207 0.710506 0.377630
0.617426 0.711910 0.383581
0.636194 0.713649 0.389685
0.655604 0.715755 0.396765
0.675441 0.718227 0.404517
0.695583 0.720974 0.412848
0.715999 0.723934 0.421546
0.736385 0.726925 0.430854
0.756649 0.730007 0.440467
0.776730 0.733028 0.450233
0.796902 0.736446 0.460914
0.819547 0.743832 0.481056
0.842130 0.752285 0.502892
0.864530 0.761654 0.526543
0.886442 0.772183 0.552392
0.908019 0.784054 0.580407
0.929046 0.797879 0.611963
0.469306 0.731106 0.366094
0.470588 0.731533 0.366674
0.472084 0.731807 0.367224
0.475044 0.732021 0.367803
0.479469 0.732204 0.368719
0.485267 0.732357 0.369909
0.492561 0.732509 0.371496
0.501244 0.732815 0.373388
0.511376 0.733211 0.375677
0.522850 0.733822 0.378820
0.535515 0.734615 0.382055
0.549310 0.735592 0.385901
0.564172 0.736660 0.390173
0.579706 0.737758 0.394781
0.596033 0.738888 0.399756
0.612970 0.740200 0.405188
0.630457 0.741634 0.411048
0.648585 0.743252 0.417365
0.667140 0.745266 0.424659
0.686183 0.747524 0.432502
0.705623 0.750027 0.440772
0.725277 0.752773 0.449775
0.744900 0.755550 0.459297
0.764462 0.758450 0.468940
0.783963 0.761379 0.478737
0.803250 0.764309 0.488716
0.822416 0.767391 0.498939
0.844602 0.775113 0.520165
0.866575 0.783841 0.543236
0.888121 0.793576 0.568444
0.909361 0.804715 0.596429
0.930053 0.817746 0.627985
0.493294 0.761044 0.395300
0.494484 0.761379 0.395819
0.495796 0.761532 0.396307
0.498390 0.761624 0.396948
0.502312 0.761624 0.397833
0.507652 0.761685 0.398962
0.514214 0.761807 0.400214
0.522332 0.762020 0.402167
0.531701 0.762356 0.404456
0.542412 0.762875 0.407355
0.554253 0.763638 0.410590
0.567346 0.764584 0.414649
0.581353 0.765621 0.419104
0.596216 0.766690 0.423987
0.611688 0.767819 0.428962
0.627771 0.768948 0.434333
0.644434 0.770230 0.440345
0.661646 0.771695 0.446815
0.679408 0.773495 0.454108
0.697688 0.775540 0.461921
0.716243 0.777859 0.470436
0.735012 0.780362 0.479286
0.753841 0.782895 0.488289
0.772641 0.785580 0.497780
0.791318 0.788266 0.507225
0.809903 0.790982 0.516960
0.828367 0.793820 0.526787
0.846708 0.796750 0.536889
0.867887 0.804288 0.558282
0.889158 0.813321 0.583093
0.910002 0.823728 0.610895
0.930358 0.835843 0.642054
0.518456 0.789822 0.426703
0.519493 0.790005 0.427192
0.520653 0.790127 0.427649
0.523186 0.790249 0.428321
0.526909 0.790372 0.429297
0.532006 0.790646 0.430610
0.538537 0.791135 0.432746
0.546441 0.791775 0.435248
0.555810 0.792630 0.438453
0.566339 0.793698 0.442176
0.577966 0.794888 0.446387
0.590692 0.796170 0.451057
0.604211 0.797482 0.456214
0.618494 0.798795 0.461463
0.633295 0.799985 0.467048
0.648463 0.801114 0.472663
0.664271 0.802335 0.478767
0.680507 0.803677 0.485237
0.697261 0.805295 0.492287
0.714443 0.807126 0.499794
0.731930 0.809110 0.507774
0.749630 0.811307 0.516258
0.767391 0.813504 0.525017
0.785214 0.815793 0.533806
0.802914 0.818143 0.542870
0.820615 0.820554 0.552087
0.838163 0.823056 0.561456
0.855589 0.825681 0.571130
0.872984 0.828489 0.581140
0.892912 0.835813 0.603449
0.913146 0.845274 0.631037
0.932891 0.856352 0.661799
0.549798 0.820890 0.466468
0.550622 0.820981 0.466804
0.551659 0.821012 0.467079
0.553796 0.821042 0.467506
0.557061 0.821103 0.468330
0.561547 0.821164 0.469520
0.567376 0.821378 0.471412
0.574273 0.821744 0.473487
0.582452 0.822232 0.476143
0.591882 0.822843 0.479438
0.602289 0.823575 0.482979
0.613672 0.824460 0.487129
0.625879 0.825345 0.491707
0.638880 0.826322 0.496559
0.652430 0.827268 0.501518
0.666651 0.828275 0.506981
