其他预设/【232】美食博客调色预设124款/1.3D LUT预设（视频调色-PR-AE-PS-FCPX-达芬奇用）/Food Art #38.cube
# Created by Adobe Lightroom plugin Export LUT (1.17.0)
# www.johnrellis.com/lightroom/exportlut.htm
# Preset: Food Art #38
# Color profile: /Library/Application Support/Adobe/Color/Profiles/Recommended/AdobeRGB1998.icc
LUT_3D_SIZE 32
0.156039 0.156039 0.156039
0.160006 0.157473 0.157382
0.165408 0.159091 0.159060
0.175631 0.162661 0.162753
0.188785 0.166873 0.166812
0.204623 0.169955 0.169986
0.223575 0.172396 0.172580
0.246128 0.174868 0.174777
0.272709 0.176761 0.176974
0.303655 0.178927 0.178775
0.338384 0.180941 0.181003
0.375738 0.183566 0.183810
0.415290 0.187350 0.187411
0.456367 0.192844 0.192630
0.497414 0.199039 0.199222
0.538109 0.206546 0.206363
0.577874 0.214664 0.214786
0.616419 0.224399 0.224399
0.653040 0.235416 0.235477
0.693721 0.250431 0.250767
0.730220 0.267765 0.268101
0.762478 0.286717 0.286687
0.790829 0.306859 0.306767
0.816556 0.328252 0.328222
0.840085 0.350622 0.350774
0.861845 0.374701 0.374823
0.882200 0.401129 0.401190
0.901213 0.430030 0.430030
0.918761 0.462043 0.462104
0.934813 0.497505 0.497444
0.949248 0.536645 0.536675
0.962066 0.578729 0.578759
0.157809 0.160250 0.157778
0.160861 0.160769 0.158206
0.165957 0.162387 0.159609
0.175937 0.165896 0.163546
0.189029 0.169619 0.167361
0.204746 0.172671 0.170260
0.223453 0.175143 0.172854
0.245609 0.177646 0.175082
0.272068 0.179843 0.177127
0.302434 0.182040 0.179171
0.336584 0.184482 0.181277
0.373907 0.187289 0.183719
0.413031 0.191104 0.187716
0.453681 0.196445 0.193088
0.494606 0.202914 0.199222
0.535119 0.210056 0.206516
0.574762 0.218235 0.214572
0.613214 0.227543 0.224216
0.649897 0.238224 0.235111
0.690333 0.252781 0.249668
0.726589 0.269322 0.266423
0.758694 0.287449 0.284947
0.787137 0.306767 0.304662
0.813107 0.327489 0.325505
0.836912 0.349523 0.347784
0.859037 0.373266 0.371588
0.879789 0.399084 0.397742
0.899077 0.427985 0.426764
0.916991 0.459785 0.458808
0.933379 0.494972 0.494057
0.948058 0.533806 0.533074
0.961089 0.575860 0.575280
0.159854 0.166140 0.159854
0.163027 0.166629 0.160433
0.167056 0.167086 0.161105
0.176425 0.169772 0.164431
0.189242 0.173281 0.167971
0.204837 0.176150 0.170871
0.223301 0.178866 0.173312
0.245274 0.181369 0.175387
0.271275 0.183749 0.177554
0.301488 0.186221 0.179599
0.335515 0.188937 0.181552
0.372381 0.191989 0.184360
0.411414 0.196048 0.188205
0.452094 0.201724 0.193301
0.492744 0.208011 0.199680
0.533379 0.214847 0.206668
0.572900 0.223239 0.215091
0.611353 0.232425 0.224430
0.648157 0.242741 0.235477
0.688685 0.257023 0.249760
0.724666 0.272831 0.266117
0.756741 0.290196 0.284306
0.785275 0.309300 0.303777
0.811246 0.329442 0.324773
0.835203 0.351080 0.346654
0.857481 0.374212 0.370397
0.878325 0.399939 0.396643
0.897887 0.428260 0.425452
0.916014 0.459754 0.457313
0.932525 0.494820 0.492653
0.947387 0.533318 0.531579
0.960510 0.575097 0.573693
0.164950 0.176638 0.164950
0.167544 0.177035 0.165225
0.171145 0.177371 0.165896
0.178256 0.178317 0.166934
0.190372 0.181003 0.169467
0.205783 0.183871 0.171939
0.223911 0.186526 0.174380
0.245548 0.189334 0.176547
0.271244 0.192020 0.178561
0.301396 0.195102 0.180392
0.334813 0.198215 0.182559
0.371283 0.201816 0.185428
0.410040 0.206577 0.189303
0.450385 0.212314 0.194675
0.491005 0.218723 0.200778
0.531273 0.225925 0.207889
0.570794 0.233738 0.216190
0.609094 0.242710 0.225589
0.646815 0.252811 0.236454
0.685908 0.265965 0.250614
0.721309 0.280735 0.266514
0.753170 0.297185 0.283879
0.781949 0.315160 0.303410
0.808560 0.334691 0.324010
0.833219 0.355871 0.346441
0.856107 0.379126 0.370886
0.877531 0.404608 0.397436
0.897368 0.432929 0.426581
0.915526 0.464088 0.458625
0.932006 0.498543 0.493996
0.946838 0.536034 0.532189
0.959899 0.576806 0.573602
0.169314 0.190005 0.169375
0.171878 0.190372 0.169528
0.175265 0.190707 0.169924
0.182101 0.191348 0.170718
0.192630 0.192508 0.171817
0.206943 0.194888 0.173800
0.224765 0.197635 0.175814
0.245762 0.200717 0.177951
0.271092 0.203983 0.179873
0.300267 0.207858 0.182010
0.333288 0.211765 0.184207
0.369543 0.216159 0.186954
0.407691 0.221225 0.191104
0.447944 0.227451 0.196475
0.488624 0.234104 0.202640
0.529137 0.241672 0.209720
0.569024 0.249424 0.218051
0.607477 0.257877 0.227695
0.646723 0.268406 0.239017
0.685084 0.280735 0.252750
0.719753 0.294347 0.268467
0.751308 0.309483 0.285740
0.779904 0.326238 0.304784
0.806516 0.344823 0.325475
0.831388 0.365026 0.347814
0.854582 0.387243 0.371984
0.876127 0.411994 0.398535
0.896086 0.439216 0.427466
0.914305 0.469612 0.459541
0.930877 0.503136 0.494545
0.945769 0.539971 0.532799
0.958984 0.579858 0.573877
0.173342 0.206394 0.173159
0.175662 0.206729 0.173434
0.178836 0.206943 0.173709
0.185885 0.207492 0.174228
0.196323 0.208408 0.175204
0.209751 0.209720 0.176364
0.226566 0.212161 0.178134
0.247440 0.215518 0.180056
0.272129 0.219333 0.182010
0.301091 0.223728 0.184146
0.333532 0.228611 0.186557
0.369238 0.234012 0.189487
0.407202 0.239902 0.193698
0.447211 0.246555 0.199191
0.487739 0.253727 0.205386
0.528496 0.261204 0.212558
0.568353 0.268956 0.221073
0.606775 0.277592 0.230747
0.647364 0.288182 0.242618
0.685298 0.299779 0.256443
0.719722 0.312505 0.272160
0.751217 0.326818 0.289738
0.801144 0.360754 0.327550
0.826047 0.379583 0.349920
0.848753 0.399725 0.373358
0.869596 0.421607 0.398413
0.888762 0.445472 0.425269
0.906432 0.471717 0.454078
0.922637 0.500847 0.485603
0.937407 0.533165 0.520256
0.950713 0.568109 0.557244
0.962615 0.605097 0.596033
0.177218 0.227939 0.177127
0.179812 0.228214 0.177279
0.183291 0.228550 0.177615
0.190677 0.228946 0.178225
0.201724 0.229831 0.179019
0.215915 0.231113 0.180240
0.232578 0.232547 0.181674
0.252903 0.235477 0.183322
0.277958 0.239933 0.185550
0.307164 0.245304 0.187778
0.340246 0.251286 0.190341
0.376257 0.257633 0.193729
0.414710 0.264591 0.198093
0.454536 0.271824 0.203677
0.494667 0.278965 0.210178
0.534173 0.286381 0.217807
0.573327 0.294041 0.226322
0.614221 0.303258 0.236912
0.654871 0.314061 0.249882
0.692744 0.325505 0.264866
0.727993 0.338842 0.282048
0.760647 0.354101 0.301793
0.790860 0.371252 0.323491
0.818570 0.390051 0.347265
0.843595 0.410620 0.372625
0.865812 0.432074 0.398352
0.885801 0.455390 0.425696
0.903838 0.480720 0.454963
0.920378 0.508659 0.486458
0.935332 0.539513 0.520500
0.948852 0.573144 0.557031
0.960998 0.608881 0.595422
0.181186 0.250858 0.181125
0.183749 0.250919 0.181308
0.187259 0.251286 0.181643
0.194919 0.251591 0.181979
0.206180 0.252415 0.182864
0.220493 0.253605 0.183902
0.237583 0.254948 0.185489
0.256870 0.256870 0.187198
0.279820 0.260288 0.189181
0.308415 0.266300 0.191470
0.340826 0.273106 0.194247
0.376532 0.280247 0.197543
0.414496 0.287846 0.202274
0.453681 0.295598 0.208042
0.493355 0.303197 0.214694
0.532799 0.310796 0.222202
0.573083 0.319097 0.231266
0.614588 0.328710 0.242161
0.653681 0.338598 0.254551
0.690608 0.349096 0.269291
0.725246 0.361212 0.286198
0.757626 0.374792 0.305455
0.787411 0.390265 0.327031
0.815030 0.407477 0.350256
0.840085 0.426215 0.374975
0.862577 0.446265 0.400641
0.882750 0.468025 0.427832
0.901152 0.491798 0.456580
0.917967 0.518303 0.487709
0.933165 0.547784 0.521599
0.946899 0.580407 0.558251
0.959289 0.614862 0.596277
0.185672 0.277653 0.185733
0.188266 0.277836 0.185855
0.192172 0.277958 0.186099
0.199771 0.278355 0.186648
0.211582 0.279240 0.187320
0.226291 0.280095 0.188449
0.243809 0.281529 0.189822
0.263645 0.283330 0.191440
0.285527 0.285527 0.193729
0.311254 0.289647 0.196109
0.343175 0.297215 0.198734
0.378271 0.305119 0.202396
0.415930 0.313634 0.207187
0.454810 0.321843 0.213138
0.493874 0.329808 0.219852
0.533989 0.338048 0.227970
0.575738 0.347448 0.237675
0.615595 0.356390 0.248569
0.653498 0.365454 0.261051
0.689754 0.375158 0.275212
0.723690 0.386053 0.292058
0.755581 0.398352 0.311101
0.785122 0.412329 0.332280
0.812528 0.428077 0.355230
0.837522 0.445106 0.379706
0.860044 0.463478 0.404852
0.880339 0.483650 0.431678
0.898894 0.505882 0.460121
0.915801 0.530877 0.491096
0.931151 0.558801 0.524590
0.945006 0.589776 0.560754
0.957549 0.622736 0.598291
0.190829 0.307927 0.190860
0.193606 0.308080 0.190982
0.197360 0.308263 0.191196
0.205509 0.308659 0.191684
0.217502 0.309422 0.192447
0.232609 0.310277 0.193484
0.250767 0.311559 0.194888
0.271061 0.313115 0.196628
0.293492 0.315312 0.198764
0.318059 0.318181 0.200992
0.345678 0.322423 0.204105
0.380224 0.331182 0.207919
0.417487 0.340154 0.212894
0.455879 0.349004 0.219059
0.496773 0.358770 0.226444
0.538384 0.368505 0.235142
0.579187 0.377630 0.245060
0.618280 0.386297 0.256352
0.655482 0.394812 0.268925
0.690608 0.403601 0.283116
0.723537 0.413184 0.299626
0.754177 0.423835 0.317845
0.782712 0.435706 0.337987
0.809293 0.449317 0.360174
0.833921 0.464332 0.383520
0.856443 0.481056 0.408515
0.877043 0.499794 0.435340
0.896056 0.520806 0.463813
0.913359 0.544854 0.495247
0.929076 0.571679 0.528740
0.943267 0.601587 0.565026
0.956085 0.633356 0.602594
0.196445 0.340856 0.196597
0.199496 0.341070 0.196689
0.203372 0.341222 0.196994
0.211795 0.341650 0.197574
0.224033 0.342321 0.198489
0.239841 0.343420 0.199435
0.258518 0.344854 0.200992
0.279576 0.346593 0.202579
0.302678 0.348730 0.204929
0.327733 0.351354 0.207523
0.354437 0.354437 0.210513
0.383642 0.358862 0.214176
0.420844 0.369024 0.219821
0.460761 0.379644 0.226627
0.501274 0.389837 0.234318
0.541375 0.399207 0.243412
0.580957 0.407813 0.252995
0.618860 0.415900 0.264195
0.655238 0.423713 0.276555
0.689662 0.431617 0.290654
0.722042 0.440223 0.306889
0.752316 0.449897 0.325170
0.780697 0.460761 0.345495
0.807187 0.472938 0.367254
0.831632 0.486763 0.390753
0.854124 0.501823 0.415015
0.874693 0.518914 0.441291
0.893645 0.538293 0.469551
0.910979 0.560479 0.500237
0.926848 0.585534 0.533349
0.941131 0.613825 0.569268
0.954192 0.643946 0.606226
0.203891 0.377203 0.203952
0.206943 0.377447 0.204044
0.211124 0.377569 0.204318
0.219425 0.378058 0.204746
0.232181 0.378759 0.205966
0.248386 0.379919 0.207126
0.267765 0.381445 0.208621
0.289220 0.383246 0.210636
0.313115 0.385473 0.213077
0.338720 0.388220 0.215885
0.366094 0.391363 0.219181
0.396704 0.396796 0.223697
0.445350 0.417670 0.234043
0.486366 0.429084 0.242069
0.527031 0.439002 0.251286
0.567010 0.447913 0.261143
0.605432 0.455665 0.272007
0.641718 0.462409 0.284062
0.675410 0.468421 0.296880
0.707057 0.474556 0.311894
0.736751 0.481361 0.328679
0.764462 0.489204 0.346990
0.790555 0.498085 0.366827
0.815122 0.508537 0.388098
0.837980 0.520317 0.410834
0.859037 0.533867 0.434943
0.878477 0.549126 0.460365
0.896330 0.566644 0.487800
0.912688 0.586816 0.517632
0.927764 0.609766 0.549676
0.941527 0.635401 0.583825
0.954223 0.662867 0.618891
0.214755 0.422400 0.214694
0.217716 0.422614 0.214878
0.222080 0.422431 0.215183
0.230838 0.422339 0.215640
0.243748 0.422522 0.216587
0.260227 0.422827 0.217624
0.279667 0.423682 0.219303
0.301823 0.425238 0.221134
0.326177 0.427405 0.223880
0.354406 0.432563 0.227817
0.385016 0.438453 0.232456
0.417823 0.445106 0.237766
0.452125 0.452155 0.244144
0.487373 0.458869 0.250614
0.528099 0.469825 0.260105
0.567529 0.478798 0.270298
0.605249 0.486275 0.281346
0.640620 0.492287 0.292973
0.673457 0.497505 0.305974
0.704494 0.502739 0.320104
0.733700 0.508598 0.336614
0.761196 0.515251 0.354406
0.786954 0.522942 0.374121
0.811429 0.531975 0.394965
0.834257 0.542412 0.416999
0.855375 0.554437 0.440864
0.874937 0.568292 0.466102
0.893004 0.584314 0.493172
0.909636 0.602838 0.522515
0.924926 0.624475 0.554528
0.938994 0.648493 0.588159
0.952087 0.674311 0.622705
0.225681 0.461707 0.226047
0.229068 0.461860 0.226047
0.233158 0.461769 0.226322
0.241581 0.461707 0.226993
0.254734 0.461646 0.227726
0.271427 0.462562 0.229007
0.291356 0.464515 0.231022
0.314092 0.466987 0.233555
0.339391 0.470039 0.236698
0.367224 0.474128 0.240604
0.397192 0.479042 0.245335
0.429145 0.484749 0.250675
0.462348 0.490639 0.256992
0.496407 0.496376 0.263554
0.530571 0.501488 0.270146
0.568231 0.509545 0.279911
0.604822 0.516442 0.290623
0.639307 0.521996 0.302190
0.671504 0.526452 0.315068
0.702052 0.531029 0.329381
0.731044 0.536004 0.345403
0.758297 0.541772 0.363165
0.784085 0.548455 0.382422
0.808469 0.556512 0.403204
0.831266 0.565789 0.425208
0.852415 0.576562 0.448829
0.872068 0.589075 0.473671
0.890227 0.603723 0.500572
0.906981 0.621027 0.529778
0.922515 0.640925 0.561151
0.936797 0.663416 0.594476
0.950103 0.687709 0.628504
0.240574 0.505791 0.240452
0.243565 0.506065 0.240909
0.247410 0.505943 0.241184
0.256199 0.506065 0.241672
0.269017 0.506188 0.242618
0.285557 0.506615 0.243809
0.305028 0.507530 0.245884
0.327337 0.509087 0.248020
0.352178 0.511437 0.251255
0.379370 0.514855 0.255222
0.408606 0.519005 0.259831
0.439704 0.523980 0.265263
0.472084 0.529046 0.271366
0.505150 0.533928 0.278019
0.538201 0.538201 0.284672
0.570672 0.541588 0.291386
0.605310 0.547021 0.301305
0.638972 0.551904 0.312322
0.670405 0.555688 0.325109
0.700404 0.559503 0.339086
0.728786 0.563531 0.355047
0.755703 0.568353 0.372534
0.781216 0.574090 0.391394
0.805509 0.580987 0.411994
0.828305 0.589349 0.433936
0.849699 0.599237 0.457465
0.869627 0.610956 0.482918
0.888121 0.624964 0.510277
0.905272 0.641413 0.539940
0.921019 0.660609 0.571954
0.935668 0.681819 0.604913
0.949248 0.704860 0.638697
0.257328 0.549187 0.257511
0.260410 0.549615 0.257816
0.264286 0.549645 0.257939
0.272740 0.549828 0.258518
0.285069 0.549920 0.259800
0.301366 0.550469 0.261204
0.320500 0.551354 0.263005
0.342596 0.552850 0.265599
0.366979 0.554833 0.268803
0.393439 0.557397 0.272496
0.421698 0.560327 0.277104
0.451423 0.563684 0.282109
0.481819 0.566918 0.287816
0.512993 0.570092 0.293675
0.544213 0.572961 0.299718
0.575372 0.575372 0.306218
0.606409 0.577600 0.312718
0.638636 0.581292 0.322911
0.669764 0.584741 0.335882
0.699550 0.588220 0.350317
0.727901 0.591974 0.366522
0.754726 0.596185 0.384253
0.780148 0.601343 0.403357
0.804349 0.607568 0.423865
0.827085 0.615076 0.446052
0.848447 0.624018 0.469520
0.868376 0.634760 0.494850
0.886778 0.647608 0.522362
0.903807 0.662715 0.551659
0.919524 0.680140 0.582727
0.934112 0.699336 0.614496
0.947723 0.720302 0.646937
0.275303 0.588708 0.275395
0.277989 0.588891 0.275273
0.281651 0.588678 0.275853
0.289647 0.588739 0.276280
0.301244 0.588739 0.277470
0.316533 0.589014 0.278874
0.334905 0.589746 0.280858
0.356023 0.590723 0.283116
0.379400 0.592218 0.286412
0.404822 0.594202 0.289921
0.432044 0.596551 0.294285
0.460517 0.599237 0.299565
0.490181 0.602045 0.304875
0.520043 0.604547 0.310826
0.550072 0.606622 0.316869
0.579950 0.608240 0.323064
0.609552 0.609583 0.329259
0.639277 0.610986 0.335882
0.669093 0.613275 0.346746
0.698177 0.615961 0.361151
0.725978 0.618952 0.377234
0.752468 0.622339 0.394781
0.777707 0.626642 0.413672
0.801816 0.632166 0.434119
0.824582 0.638788 0.456123
0.845945 0.646937 0.479957
0.865995 0.656733 0.505180
0.884550 0.668605 0.532586
0.901701 0.682612 0.561822
0.917601 0.698604 0.592340
0.932464 0.716335 0.623499
0.946288 0.735866 0.655390
0.295262 0.626551 0.295293
0.298039 0.627008 0.295781
0.311101 0.642023 0.305547
0.318486 0.641901 0.306096
0.329381 0.641657 0.307042
0.343816 0.641321 0.308263
0.360967 0.641077 0.309911
0.380652 0.641138 0.311955
0.402960 0.641444 0.314763
0.427222 0.642329 0.318486
0.453010 0.643519 0.322515
0.479957 0.644617 0.327489
0.507622 0.645747 0.332464
0.535760 0.646723 0.338048
0.564141 0.647456 0.343511
0.592279 0.647974 0.349432
0.620539 0.648280 0.355352
0.648463 0.648493 0.361456
0.676295 0.648951 0.368231
0.703853 0.649744 0.379431
0.730037 0.651118 0.395056
0.755489 0.653254 0.412146
0.779904 0.656397 0.430854
0.803159 0.660609 0.450782
0.824918 0.665644 0.471901
0.845365 0.672053 0.494362
0.864683 0.680079 0.518151
0.882719 0.690089 0.544396
0.899687 0.702419 0.572473
0.915709 0.716732 0.601831
0.930663 0.732998 0.632258
0.944640 0.750942 0.663325
0.319707 0.664454 0.319677
0.323461 0.666285 0.321447
0.327947 0.668177 0.323217
0.336034 0.669764 0.324834
0.346960 0.670802 0.326940
0.360754 0.671077 0.328771
0.376684 0.671199 0.330419
0.395148 0.671077 0.332586
0.415900 0.671321 0.335393
0.438544 0.671809 0.338933
0.462623 0.672450 0.342901
0.488075 0.673304 0.347509
0.514153 0.673945 0.352392
0.540795 0.674434 0.357580
0.567651 0.674769 0.362829
0.594507 0.674861 0.368475
0.621424 0.674830 0.374334
0.648188 0.674861 0.380621
0.675044 0.675013 0.387121
0.701930 0.675624 0.394415
0.728176 0.676478 0.406073
0.753506 0.678218 0.423499
0.777829 0.680873 0.442298
0.801022 0.684474 0.462257
0.822812 0.688930 0.483467
0.843351 0.694636 0.505913
0.862699 0.701869 0.529808
0.880766 0.710903 0.555749
0.897795 0.721981 0.583398
0.913939 0.734920 0.611902
0.929015 0.749752 0.641535
0.943145 0.766232 0.671809
0.342290 0.693782 0.342351
0.345739 0.695369 0.343969
0.350072 0.696925 0.345739
0.357366 0.698207 0.347662
0.367437 0.699153 0.349615
0.379736 0.699397 0.351446
0.394598 0.699245 0.353216
0.411383 0.699123 0.355413
0.430610 0.699245 0.358099
0.451545 0.699489 0.361456
0.474128 0.699977 0.365393
0.498024 0.700496 0.369818
0.522484 0.700801 0.374640
0.547570 0.701106 0.379767
0.572992 0.701106 0.384833
0.598444 0.701045 0.390234
0.623987 0.700771 0.395850
0.649561 0.700618 0.401678
0.675227 0.700679 0.408362
0.701106 0.701076 0.415473
0.726802 0.701808 0.423682
0.752224 0.703059 0.435767
0.776364 0.705196 0.454780
0.799374 0.708125 0.474586
0.821073 0.711879 0.495796
0.841489 0.716762 0.517906
0.860685 0.723018 0.541558
0.878752 0.730953 0.566857
0.895872 0.740688 0.593530
0.911986 0.752316 0.621393
0.927245 0.765682 0.649989
0.941558 0.780911 0.679774
0.366705 0.721004 0.366888
0.370092 0.722377 0.368505
0.373999 0.723720 0.370214
0.380774 0.724849 0.372320
0.389960 0.725521 0.374243
0.401190 0.725704 0.375982
0.414282 0.725582 0.377661
0.429633 0.725338 0.379736
0.447089 0.725277 0.382116
0.466285 0.725277 0.385382
0.487068 0.725460 0.389319
0.509178 0.725704 0.393622
0.532067 0.725856 0.397986
0.555688 0.725948 0.403021
0.579675 0.726070 0.408179
0.604059 0.726131 0.413916
0.628840 0.726375 0.420172
0.653895 0.726802 0.426825
0.679133 0.727535 0.434272
0.704494 0.728511 0.442634
0.729793 0.729854 0.451606
0.754971 0.731411 0.461036
0.779355 0.733242 0.474342
0.802335 0.735866 0.494911
0.823850 0.739284 0.516533
0.843992 0.743648 0.539300
0.862852 0.749172 0.562951
0.880613 0.756191 0.587640
0.897459 0.764767 0.613245
0.913329 0.775051 0.639857
0.928344 0.786954 0.667262
0.942321 0.800839 0.696132
0.399664 0.751583 0.399481
0.401923 0.752163 0.400641
0.404761 0.752621 0.401373
0.409949 0.752926 0.402441
0.417578 0.753017 0.403693
0.427131 0.752865 0.405341
0.438941 0.752590 0.406897
0.452827 0.752468 0.409003
0.468818 0.752499 0.411719
0.486671 0.752590 0.415198
0.505943 0.752956 0.419104
0.526543 0.753231 0.423529
0.547753 0.753353 0.428138
0.569665 0.753292 0.432990
0.592035 0.753231 0.437903
0.614893 0.753140 0.443580
0.637995 0.753140 0.449409
0.661402 0.753231 0.455848
0.685054 0.753567 0.462928
0.708736 0.754086 0.470436
0.732296 0.754818 0.478645
0.755703 0.755795 0.487465
0.778866 0.756802 0.496590
0.801266 0.758145 0.508507
0.822416 0.760616 0.529442
0.842344 0.764218 0.551934
0.861204 0.768917 0.575097
0.879057 0.775021 0.598962
0.895903 0.782589 0.623926
0.911864 0.791653 0.649622
0.926909 0.802426 0.676387
0.940917 0.814969 0.704433
0.427955 0.775326 0.428077
0.430182 0.775845 0.428992
0.432868 0.776303 0.430152
0.437507 0.776608 0.431098
0.444312 0.776638 0.432319
0.452705 0.776455 0.433448
0.463142 0.776120 0.435126
0.475319 0.775814 0.436957
0.489601 0.775662 0.439368
0.505577 0.775692 0.442573
0.523247 0.775814 0.446479
0.542016 0.775967 0.450599
0.561578 0.775998 0.454994
0.582025 0.776028 0.459754
0.602899 0.775967 0.465064
0.624353 0.775967 0.470588
0.646143 0.776028 0.476509
0.668299 0.776242 0.482887
0.690669 0.776638 0.490272
0.713222 0.777218 0.497810
0.735714 0.778042 0.506279
0.758083 0.778988 0.515221
0.780148 0.780148 0.524590
0.801785 0.781460 0.534295
0.820188 0.780026 0.540703
0.840055 0.782864 0.562249
0.858915 0.786831 0.584894
0.876799 0.792020 0.608240
0.893767 0.798611 0.632380
0.909880 0.806729 0.657496
0.925139 0.816617 0.683925
0.939239 0.828031 0.711543
0.464149 0.801358 0.464210
0.466316 0.801907 0.465217
0.468605 0.802182 0.466255
0.472419 0.802243 0.467079
0.477913 0.802029 0.467781
0.484962 0.801633 0.468666
0.493599 0.801083 0.469581
0.503960 0.800443 0.470802
0.516075 0.799863 0.472663
0.529778 0.799405 0.475044
0.544945 0.798947 0.477699
0.561425 0.798703 0.481086
0.578882 0.798398 0.484962
0.597131 0.798001 0.488991
0.615839 0.797452 0.493263
0.635065 0.796933 0.497719
0.654780 0.796506 0.502800
0.675074 0.796323 0.508476
0.695918 0.796536 0.515282
0.717189 0.797147 0.522820
0.738521 0.798001 0.531456
0.759762 0.799008 0.540154
0.780575 0.799924 0.549218
0.800778 0.800809 0.558160
0.820432 0.801663 0.566705
0.839567 0.802579 0.575982
0.858091 0.805539 0.597436
0.875731 0.809720 0.619501
0.892546 0.815244 0.642756
0.908629 0.822293 0.666926
0.923796 0.831052 0.692683
0.937926 0.841306 0.719539
0.494728 0.821500 0.494789
0.496712 0.821988 0.495888
0.498817 0.822293 0.496712
0.502190 0.822293 0.497536
0.506981 0.822110 0.498207
0.513176 0.821744 0.499031
0.520958 0.821347 0.500206
0.530266 0.820859 0.501762
0.541222 0.820493 0.503593
0.553765 0.820157 0.506249
0.567529 0.819913 0.509270
0.582635 0.819730 0.512718
0.598749 0.819608 0.516747
0.615473 0.819394 0.520928
0.632746 0.819028 0.525261
0.650507 0.818662 0.529839
0.668788 0.818357 0.534936
0.687556 0.818235 0.540856
0.706905 0.818418 0.547295
0.726589 0.818906 0.554803
0.746365 0.819608 0.562676
0.766079 0.820432 0.571038
0.785458 0.821286 0.579339
0.804440 0.822141 0.587701
0.822934 0.822965 0.595789
0.840940 0.823789 0.604028
0.858518 0.824735 0.612299
0.876036 0.828153 0.633539
0.892790 0.832914 0.655970
0.908751 0.839170 0.679744
0.923674 0.846738 0.704463
0.937743 0.855985 0.730739
0.528985 0.841489 0.529076
0.530632 0.841794 0.529870
0.532158 0.841886 0.530449
0.534783 0.841794 0.530785
0.538659 0.841459 0.531243
0.543786 0.841062 0.531792
0.550317 0.840574 0.532647
0.558404 0.840055 0.533928
0.567987 0.839658 0.535729
0.579004 0.839384 0.538018
0.591455 0.839139 0.541131
0.605127 0.839048 0.544671
0.619684 0.838956 0.548608
0.634974 0.838773 0.552819
0.650629 0.838499 0.557031
0.666712 0.838193 0.561334
0.683314 0.837827 0.566033
0.700374 0.837675 0.571313
0.718044 0.837827 0.577325
0.736080 0.838193 0.584100
0.754360 0.838804 0.591424
0.772610 0.839536 0.599145
0.790677 0.840299 0.606897
0.808408 0.841123 0.614649
0.825742 0.841917 0.622492
0.842679 0.842710 0.630182
0.859281 0.843626 0.638025
0.875517 0.844663 0.645930
0.892058 0.848417 0.666438
0.907836 0.853666 0.689204
0.922698 0.860258 0.713252
0.936706 0.868467 0.738857
0.561975 0.859190 0.562005
0.563256 0.859312 0.562676
0.564630 0.859403 0.563226
0.566949 0.859373 0.563531
0.570672 0.859220 0.564355
0.575708 0.859129 0.565515
0.582483 0.859159 0.567468
0.590661 0.859342 0.569909
0.600427 0.859586 0.573205
0.611475 0.859983 0.577020
0.623590 0.860441 0.581231
0.636652 0.860868 0.585901
0.650263 0.861295 0.590661
0.664271 0.861509 0.595270
0.678584 0.861570 0.599756
0.692988 0.861448 0.604028
0.707698 0.861265 0.608484
0.722927 0.861173 0.613367
0.738674 0.861265 0.618952
0.754788 0.861570 0.624964
0.771115 0.862058 0.631495
0.787472 0.862669 0.638209
0.803738 0.863279 0.645167
0.819791 0.863981 0.652216
0.835538 0.864683 0.659205
0.851011 0.865415 0.666407
0.866209 0.866270 0.673610
0.881132 0.867216 0.681086
0.895628 0.868254 0.688655
0.910582 0.872007 0.707790
0.924926 0.877592 0.730861
0.938415 0.884581 0.755215
0.604028 0.879454 0.604120
0.604944 0.879545 0.604486
0.605890 0.879484 0.604761
0.607599 0.879362 0.604822
0.610407 0.879149 0.605127
0.614313 0.878874 0.605951
0.619471 0.878691 0.606958
0.625879 0.878569 0.608576
0.633509 0.878477 0.610651
0.642329 0.878477 0.613306
0.652064 0.878477 0.616083
0.662776 0.878569 0.619440
0.674250 0.878569 0.623072
0.686244 0.878538 0.626825
0.698634 0.878477 0.630549
0.711482 0.878355 0.634424
