其他预设/【232】美食博客调色预设124款/1.3D LUT预设（视频调色-PR-AE-PS-FCPX-达芬奇用）/Food Art #16.cube
# Created by Adobe Lightroom plugin Export LUT (1.17.0)
# www.johnrellis.com/lightroom/exportlut.htm
# Preset: Food Art #16
# Color profile: /Library/Application Support/Adobe/Color/Profiles/Recommended/AdobeRGB1998.icc
LUT_3D_SIZE 5
DOMAIN_MIN 0.000000 0.000000 0.000000
DOMAIN_MAX 0.903226 0.903226 0.903226
0.307195 0.242130 0.272740
0.330175 0.229831 0.265812
0.535424 0.204532 0.259586
0.736873 0.227726 0.272251
0.927428 0.349157 0.303014
0.292363 0.277623 0.262181
0.344854 0.282780 0.260899
0.536584 0.292546 0.260349
0.735042 0.317876 0.275578
0.929168 0.423255 0.306859
0.310674 0.505547 0.259525
0.377417 0.508293 0.260899
0.561700 0.525078 0.266728
0.737728 0.523644 0.284672
0.922118 0.594171 0.314580
0.397009 0.722621 0.281407
0.445441 0.724147 0.283330
0.580743 0.727687 0.289555
0.748806 0.735439 0.301061
0.922057 0.780972 0.334478
0.550408 0.921904 0.333562
0.583246 0.921172 0.335546
0.678889 0.916411 0.340520
0.816159 0.917571 0.356847
0.942260 0.922545 0.385901
0.300206 0.233127 0.285985
0.334661 0.221103 0.289677
0.527306 0.211643 0.300725
0.721401 0.267308 0.315709
0.917144 0.375616 0.338506
0.292119 0.276280 0.292210
0.351324 0.284276 0.296422
0.532067 0.298375 0.303197
0.722133 0.340490 0.317174
0.916960 0.437354 0.340093
0.323033 0.498634 0.300023
0.390356 0.500511 0.303471
0.554681 0.511223 0.306950
0.726833 0.522850 0.321263
0.917235 0.601465 0.346715
0.418402 0.716854 0.315740
0.469215 0.717708 0.320867
0.591211 0.722042 0.325414
0.747951 0.731197 0.334142
0.920531 0.780789 0.360266
0.558984 0.919738 0.358434
0.590112 0.919097 0.359960
0.687984 0.918578 0.366613
0.819913 0.918425 0.380865
0.943420 0.923217 0.409064
0.312810 0.220127 0.391913
0.368719 0.214145 0.392187
0.538567 0.214237 0.392981
0.724208 0.286503 0.394293
0.915862 0.409186 0.417273
0.319036 0.288212 0.392218
0.380163 0.291814 0.392065
0.547265 0.305364 0.394079
0.722805 0.369635 0.396460
0.915923 0.464881 0.418677
0.355444 0.494118 0.392096
0.416938 0.497475 0.392187
0.576257 0.519097 0.397375
0.728481 0.544427 0.402899
0.916899 0.604700 0.418158
0.443580 0.707362 0.389776
0.493233 0.705287 0.393011
0.611353 0.712001 0.401343
0.751308 0.726741 0.405524
0.920378 0.777218 0.425025
0.566217 0.914214 0.426123
0.596887 0.914611 0.427802
0.687251 0.915435 0.430426
0.818051 0.915312 0.442725
0.941192 0.920592 0.468727
0.351141 0.220951 0.503990
0.404395 0.223484 0.503685
0.555444 0.242802 0.503838
0.732723 0.297520 0.502068
0.919951 0.415900 0.531365
0.375982 0.303624 0.501457
0.425818 0.309148 0.501396
0.565423 0.330602 0.500877
0.731624 0.375097 0.499245
0.917662 0.464729 0.530053
0.424231 0.492226 0.497810
0.474647 0.501244 0.496590
0.596674 0.523247 0.495399
0.736568 0.540887 0.497017
0.919280 0.589593 0.528313
0.486427 0.703853 0.498360
0.525322 0.703639 0.497566
0.621363 0.709377 0.499428
0.762844 0.729397 0.510277
0.924559 0.765103 0.531579
0.579919 0.910002 0.544060
0.606470 0.910124 0.544945
0.688136 0.912047 0.547753
0.811002 0.914702 0.552148
0.939239 0.919463 0.578058
0.410498 0.241337 0.714107
0.461921 0.247715 0.713924
0.605524 0.275822 0.713832
0.778103 0.339757 0.714626
0.923400 0.431647 0.719173
0.433112 0.329931 0.712581
0.480934 0.336339 0.712398
0.615961 0.361425 0.712551
0.780606 0.411688 0.713527
0.922545 0.477272 0.719478
0.482368 0.534112 0.711208
0.519829 0.536004 0.710719
0.632441 0.544335 0.711635
0.781247 0.560723 0.714992
0.921630 0.597162 0.724178
0.529351 0.749813 0.719387
0.556725 0.748653 0.719326
0.640833 0.742885 0.720516
0.777127 0.740047 0.725277
0.922118 0.766506 0.739315
0.597131 0.917296 0.745174
0.619684 0.916838 0.745815
0.694057 0.915709 0.749538
0.807797 0.915068 0.758022
0.932250 0.921782 0.781735
