其他预设/【232】美食博客调色预设124款/1.3D LUT预设（视频调色-PR-AE-PS-FCPX-达芬奇用）/Food Art #69.cube
# Created by Adobe Lightroom plugin Export LUT (1.17.0)
# www.johnrellis.com/lightroom/exportlut.htm
# Preset: Food Art #69
# Color profile: /Library/Application Support/Adobe/Color/Profiles/Recommended/AdobeRGB1998.icc
LUT_3D_SIZE 32
0.000000 0.000000 0.000000
0.000000 0.000000 0.000000
0.000000 0.012757 0.009796
0.000000 0.042847 0.032288
0.000000 0.075685 0.062562
0.011109 0.093874 0.075013
0.050172 0.109926 0.085054
0.080110 0.125643 0.094911
0.107698 0.140841 0.106294
0.136538 0.156466 0.117250
0.166629 0.171847 0.129427
0.197665 0.187747 0.141634
0.229374 0.203952 0.154299
0.261936 0.219821 0.167453
0.295445 0.235966 0.180850
0.329900 0.251347 0.193515
0.365026 0.266056 0.205173
0.400855 0.279820 0.216373
0.437507 0.293034 0.226963
0.480262 0.306950 0.238102
0.525200 0.320378 0.248783
0.570489 0.333379 0.259403
0.615045 0.346471 0.270237
0.658961 0.359808 0.281498
0.702205 0.373877 0.293370
0.743801 0.389593 0.306645
0.783810 0.407446 0.321996
0.822293 0.428260 0.339940
0.858885 0.452522 0.361089
0.893370 0.481270 0.386664
0.925353 0.514275 0.416541
0.954650 0.550896 0.450446
0.000000 0.006012 0.002808
0.000000 0.013001 0.005463
0.000000 0.031983 0.015930
0.000000 0.066804 0.045411
0.000000 0.086610 0.067170
0.009277 0.102235 0.077455
0.050690 0.117098 0.087098
0.080232 0.131624 0.097292
0.107790 0.146273 0.108095
0.136629 0.160952 0.119142
0.166720 0.176425 0.130495
0.197543 0.191501 0.143282
0.229252 0.207065 0.155703
0.261692 0.222873 0.168551
0.295079 0.238376 0.181552
0.329320 0.253727 0.193942
0.364202 0.268009 0.205844
0.400122 0.281651 0.216770
0.436591 0.294560 0.227207
0.478950 0.308415 0.238102
0.523278 0.321477 0.248722
0.568231 0.334356 0.259281
0.612573 0.347173 0.269902
0.656519 0.360296 0.280858
0.699825 0.374365 0.292882
0.741573 0.389868 0.306218
0.781765 0.407630 0.321416
0.820371 0.428260 0.339239
0.857237 0.452430 0.360388
0.891966 0.481025 0.385687
0.924132 0.513848 0.415503
0.953552 0.550347 0.449439
0.000000 0.058442 0.021210
0.000000 0.062287 0.024781
0.000000 0.068849 0.034211
0.000000 0.084047 0.059602
0.000000 0.098817 0.071839
0.006867 0.112642 0.081392
0.050202 0.126009 0.089998
0.080323 0.139406 0.100313
0.108492 0.153109 0.110353
0.137301 0.167361 0.121279
0.167208 0.181918 0.132815
0.197971 0.196872 0.144839
0.229587 0.211856 0.157259
0.262181 0.227024 0.170260
0.295262 0.242252 0.182986
0.329595 0.256962 0.195193
0.364508 0.271275 0.206760
0.400153 0.284428 0.217502
0.436744 0.297246 0.227817
0.478859 0.310674 0.238712
0.523003 0.323613 0.249149
0.567651 0.336187 0.259525
0.611841 0.348943 0.270207
0.655665 0.362005 0.281132
0.698909 0.375952 0.293065
0.740658 0.391333 0.306249
0.780911 0.408942 0.321386
0.819608 0.429419 0.339178
0.856565 0.453529 0.360357
0.891325 0.481971 0.385779
0.923552 0.514672 0.415381
0.953063 0.551019 0.449348
0.000000 0.097719 0.060182
0.000000 0.100160 0.062867
0.000000 0.103944 0.066468
0.000000 0.111910 0.073213
0.000000 0.122530 0.081025
0.001831 0.133364 0.088838
0.050324 0.144228 0.097169
0.082338 0.155947 0.106142
0.110536 0.167727 0.115602
0.139467 0.180789 0.126711
0.169100 0.194156 0.137697
0.199924 0.207767 0.149447
0.231327 0.222049 0.161257
0.263584 0.236301 0.173922
0.296788 0.250614 0.186038
0.330968 0.264622 0.197940
0.365759 0.278080 0.208957
0.401282 0.290776 0.219577
0.438178 0.303014 0.229526
0.479408 0.315923 0.240055
0.522850 0.328283 0.250248
0.566949 0.340520 0.260472
0.610986 0.353124 0.270970
0.654963 0.365972 0.281895
0.698573 0.379919 0.293767
0.740719 0.395270 0.307134
0.781277 0.412848 0.322545
0.820066 0.433478 0.340551
0.856962 0.457404 0.361730
0.891569 0.485664 0.387243
0.923583 0.518029 0.416876
0.952850 0.553857 0.450385
0.000000 0.133486 0.078462
0.000000 0.135470 0.080415
0.000000 0.138674 0.082094
0.000000 0.144503 0.086793
0.000000 0.153475 0.093904
0.000000 0.161563 0.100557
0.051637 0.169589 0.107637
0.084657 0.178622 0.115541
0.113619 0.188846 0.124300
0.142672 0.200076 0.134371
0.172305 0.211582 0.145022
0.202701 0.224033 0.155947
0.234012 0.236851 0.167544
0.266209 0.249943 0.179324
0.299290 0.263096 0.190829
0.333471 0.275975 0.201999
0.368322 0.288457 0.212802
0.403784 0.300298 0.222843
0.441535 0.312108 0.232822
0.482277 0.324346 0.242649
0.525017 0.336095 0.252537
0.568597 0.347967 0.262364
0.612146 0.360052 0.272679
0.655970 0.372747 0.283574
0.699275 0.386481 0.295384
0.741268 0.401648 0.308904
0.781674 0.419196 0.324315
0.820340 0.439307 0.342290
0.857053 0.463111 0.363653
0.891478 0.491066 0.389105
0.923400 0.522972 0.418647
0.952605 0.558434 0.452399
0.000000 0.169253 0.094942
0.000000 0.170993 0.096193
0.000000 0.173220 0.097810
0.000000 0.177676 0.101442
0.000000 0.184726 0.107362
0.000000 0.193362 0.114565
0.056947 0.200534 0.121889
0.089601 0.206821 0.128328
0.118746 0.214420 0.136080
0.147585 0.223453 0.144961
0.177188 0.233585 0.154543
0.207523 0.244358 0.164920
0.238499 0.255467 0.175570
0.270726 0.267216 0.186191
0.303960 0.278843 0.196933
0.337774 0.290562 0.207431
0.372625 0.301946 0.217380
0.407996 0.312779 0.227054
0.446601 0.324315 0.236698
0.487098 0.335546 0.246220
0.529473 0.346868 0.255772
0.572686 0.358282 0.265446
0.633936 0.376287 0.280369
0.677180 0.388952 0.291630
0.718898 0.402838 0.304021
0.758907 0.418189 0.317967
0.797147 0.435859 0.333959
0.833707 0.456306 0.352636
0.868345 0.480262 0.374670
0.900877 0.508202 0.400793
0.931029 0.539513 0.430610
0.958495 0.574121 0.464271
0.000000 0.206149 0.112306
0.000000 0.207492 0.113558
0.000000 0.209110 0.114687
0.000000 0.212680 0.118074
0.000000 0.218173 0.123018
0.000000 0.225010 0.129397
0.063661 0.233341 0.137179
0.099153 0.239750 0.144289
0.128420 0.245060 0.150729
0.157504 0.251957 0.158541
0.186984 0.259953 0.167300
0.217105 0.269108 0.176516
0.248203 0.278538 0.186069
0.280186 0.288518 0.195834
0.312902 0.298528 0.205539
0.346471 0.308690 0.214908
0.380835 0.318700 0.224033
0.417670 0.329229 0.233127
0.456489 0.339879 0.242374
0.497322 0.350652 0.251530
0.540856 0.361761 0.261143
0.585321 0.373266 0.271092
0.630030 0.385534 0.281865
0.674739 0.398352 0.293400
0.717922 0.412543 0.306096
0.758602 0.428016 0.320378
0.797147 0.445533 0.336614
0.833616 0.465766 0.355474
0.868162 0.489296 0.377752
0.900450 0.516777 0.403906
0.930480 0.547234 0.433570
0.957855 0.581201 0.467109
0.000000 0.239811 0.129763
0.000000 0.240818 0.130617
0.000000 0.242039 0.131777
0.000000 0.244968 0.134646
0.000000 0.249088 0.139132
0.000000 0.254582 0.144350
0.066255 0.261112 0.151034
0.105653 0.268620 0.158694
0.137667 0.274723 0.166140
0.166293 0.279606 0.172549
0.195438 0.285893 0.179965
0.225162 0.293278 0.187747
0.255741 0.301183 0.196384
0.287541 0.309758 0.204807
0.320012 0.318395 0.213657
0.353155 0.327306 0.221927
0.387945 0.336431 0.230442
0.425177 0.346075 0.239292
0.463050 0.355718 0.247654
0.503136 0.365698 0.256260
0.545525 0.376165 0.265324
0.589044 0.387121 0.275151
0.632990 0.398749 0.285557
0.676967 0.411322 0.297002
0.719387 0.425025 0.309575
0.759640 0.440253 0.323827
0.797696 0.457374 0.340215
0.833982 0.477119 0.359289
0.868284 0.500328 0.381811
0.900359 0.527092 0.407996
0.930236 0.557031 0.437629
0.957488 0.590234 0.471290
0.000000 0.272709 0.148135
0.000000 0.273381 0.148898
0.000000 0.274479 0.150332
0.000000 0.276524 0.152377
0.000000 0.280003 0.156252
0.000000 0.284245 0.160494
0.075319 0.289433 0.166293
0.112947 0.295354 0.172519
0.146548 0.302251 0.179965
0.177859 0.308263 0.186923
0.206363 0.312993 0.193240
0.235630 0.318608 0.199985
0.265812 0.325353 0.207340
0.297215 0.332464 0.214817
0.329259 0.339940 0.222324
0.362615 0.347814 0.230045
0.398169 0.356512 0.238010
0.434363 0.364935 0.245884
0.471351 0.373510 0.253819
0.510765 0.382696 0.261875
0.552239 0.392554 0.270542
0.594751 0.402930 0.279820
0.637842 0.414252 0.290318
0.680873 0.426368 0.301488
0.722499 0.439765 0.314275
0.761990 0.454566 0.328679
0.799557 0.471351 0.345159
0.835264 0.490730 0.364202
0.869108 0.513481 0.386969
0.900908 0.539544 0.413275
0.930388 0.568688 0.443061
0.957366 0.601068 0.476661
0.000000 0.303838 0.166445
0.000000 0.304479 0.167361
0.000000 0.305180 0.168093
0.000000 0.306950 0.170016
0.000000 0.309514 0.172854
0.035401 0.313115 0.176852
0.089601 0.317144 0.181399
0.124392 0.322026 0.186831
0.156435 0.327611 0.192935
0.188296 0.333867 0.199588
0.219181 0.339818 0.206332
0.247776 0.344305 0.212131
0.277592 0.349767 0.218204
0.308385 0.355749 0.224765
0.341070 0.362829 0.231693
0.375311 0.370336 0.239017
0.410132 0.377844 0.246098
0.445502 0.385382 0.253208
0.481971 0.393164 0.260594
0.520592 0.401648 0.268284
0.560784 0.410834 0.276524
0.601770 0.420600 0.285557
0.643366 0.431159 0.295445
0.684962 0.442847 0.306645
0.725307 0.455695 0.319188
0.764004 0.469978 0.333654
0.801114 0.486488 0.350286
0.836515 0.505608 0.370031
0.870146 0.528130 0.393256
0.901732 0.553613 0.419715
0.931060 0.582238 0.449744
0.957855 0.614038 0.483742
0.000000 0.333471 0.184085
0.000000 0.333928 0.184421
0.000000 0.334661 0.185183
0.000000 0.336004 0.186801
0.005707 0.338170 0.189334
0.074891 0.341100 0.192508
0.108949 0.344732 0.196506
0.139620 0.348913 0.201114
0.170016 0.353613 0.206241
0.200473 0.358892 0.211978
0.231388 0.364660 0.217868
0.262425 0.370428 0.223941
0.291875 0.375128 0.229465
0.323369 0.380896 0.235447
0.355535 0.386999 0.241581
0.388525 0.393378 0.247990
0.422400 0.399817 0.254276
0.456947 0.406592 0.260868
0.492561 0.413581 0.267643
0.530358 0.421424 0.274968
0.569360 0.430030 0.282994
0.609430 0.439399 0.291814
0.650202 0.449805 0.301732
0.690791 0.461097 0.312810
0.730068 0.473701 0.325536
0.767849 0.487678 0.340307
0.804074 0.503716 0.357061
0.838712 0.522484 0.377081
0.871702 0.544305 0.400366
0.902739 0.568994 0.426917
0.931640 0.596796 0.457099
0.958068 0.627710 0.491096
0.000000 0.362585 0.200565
0.000000 0.363012 0.200870
0.000000 0.363561 0.201450
0.025574 0.364691 0.202823
0.074067 0.366583 0.204990
0.103243 0.368994 0.207492
0.130892 0.372107 0.210941
0.158785 0.375708 0.214725
0.186954 0.379919 0.218967
0.215976 0.384527 0.223850
0.245853 0.389715 0.229282
0.278019 0.396033 0.235203
0.319310 0.407843 0.244022
0.350378 0.412726 0.249546
0.382300 0.417945 0.254917
0.414954 0.423499 0.260563
0.448371 0.429175 0.266361
0.482460 0.435065 0.272313
0.517388 0.441413 0.278569
0.553674 0.448554 0.285618
0.591150 0.456306 0.293584
0.629358 0.465156 0.302434
0.668055 0.474800 0.312291
0.706233 0.485603 0.323644
0.743343 0.497627 0.336584
0.779141 0.511345 0.351629
0.813626 0.527031 0.369085
0.846586 0.545342 0.389593
0.878019 0.566308 0.413031
0.907713 0.589990 0.439521
0.935332 0.616693 0.469764
0.960754 0.646296 0.503532
0.063966 0.393439 0.216739
0.070863 0.393713 0.217227
0.078462 0.394141 0.217655
0.093111 0.394995 0.218631
0.111971 0.396338 0.220310
0.133455 0.398169 0.222354
0.156710 0.400732 0.224918
0.181491 0.403723 0.228153
0.207919 0.407355 0.231937
0.236912 0.412543 0.236606
0.267155 0.418402 0.241947
0.299199 0.424598 0.247532
0.332128 0.431189 0.253391
0.366155 0.437842 0.259251
0.397681 0.442695 0.264500
0.429633 0.447761 0.269718
0.462287 0.452827 0.275029
0.495216 0.458137 0.280583
0.529046 0.463874 0.286473
0.564080 0.470375 0.293339
0.600214 0.477790 0.301030
0.637293 0.486061 0.309850
0.674800 0.495491 0.319738
0.711666 0.505791 0.331121
0.747677 0.517510 0.344244
0.782620 0.530785 0.359442
0.816220 0.546197 0.377295
0.848508 0.563928 0.398077
0.879393 0.584100 0.421607
0.908629 0.607111 0.448341
0.935912 0.632959 0.478523
0.961028 0.661494 0.512261
0.109712 0.421393 0.230808
0.113497 0.421698 0.231174
0.118776 0.422065 0.231510
0.129000 0.422736 0.232334
0.143191 0.423896 0.233616
0.161654 0.425696 0.235477
0.182559 0.428443 0.238010
0.205936 0.431708 0.240940
0.230808 0.435431 0.244541
0.257908 0.439857 0.248478
0.286748 0.444892 0.253056
0.317113 0.450355 0.257908
0.348577 0.456184 0.262974
0.381231 0.462226 0.268467
0.414282 0.468269 0.274174
0.445533 0.472724 0.279057
0.476814 0.477211 0.284001
0.508873 0.482002 0.289097
0.541314 0.487160 0.294957
0.575067 0.493172 0.301701
0.610254 0.500175 0.309270
0.646265 0.508263 0.318151
0.682643 0.517235 0.328161
0.718227 0.527306 0.339605
0.753201 0.538689 0.353124
0.787106 0.551690 0.368780
0.819883 0.566674 0.386938
0.851438 0.583856 0.407904
0.881651 0.603449 0.431525
0.910277 0.625635 0.458503
0.937011 0.650721 0.489052
0.961791 0.678126 0.522515
0.148898 0.451240 0.244633
0.151736 0.451545 0.244816
0.155764 0.451820 0.245029
0.164218 0.452583 0.245853
0.176608 0.453681 0.247013
0.191989 0.455207 0.248692
0.210544 0.457343 0.250797
0.231601 0.459937 0.253269
0.254612 0.463233 0.256352
0.279973 0.467109 0.259770
0.307195 0.471595 0.263737
0.336126 0.476631 0.268132
0.366491 0.482002 0.272953
0.397894 0.487556 0.277989
0.429908 0.493080 0.283268
0.462196 0.498543 0.288670
0.493080 0.502861 0.293431
0.523583 0.506889 0.298344
0.554772 0.511467 0.304112
0.587182 0.517021 0.310613
0.621057 0.523613 0.318273
0.656001 0.531304 0.327123
0.690822 0.539940 0.337255
0.725246 0.549645 0.349187
0.759091 0.560723 0.363012
0.792111 0.573541 0.379095
0.824247 0.588251 0.397894
0.855283 0.605127 0.419318
0.885008 0.624323 0.443519
0.913176 0.646204 0.471077
0.939483 0.670649 0.502007
0.963806 0.697108 0.535546
0.184451 0.481331 0.257694
0.187198 0.481697 0.257816
0.190463 0.481971 0.258091
0.197818 0.482612 0.258946
0.208408 0.483619 0.259953
0.222568 0.485084 0.261326
0.239261 0.487068 0.263157
0.258854 0.489540 0.265507
0.280522 0.492439 0.268254
0.304417 0.495949 0.271427
0.330053 0.499886 0.274907
0.357427 0.504204 0.278874
0.385901 0.508751 0.283207
0.415564 0.513603 0.287877
0.446143 0.518547 0.292607
0.477333 0.523491 0.297734
0.508873 0.528527 0.303105
0.538598 0.532433 0.308263
0.568841 0.536584 0.313848
0.600458 0.541894 0.320684
0.633478 0.548302 0.328496
0.667323 0.555901 0.337560
0.700923 0.564202 0.348211
0.734096 0.573602 0.360357
0.766812 0.584466 0.374884
0.798825 0.597040 0.391638
0.830014 0.611292 0.410620
0.860136 0.627619 0.432288
0.888914 0.646174 0.456733
0.916167 0.667170 0.484474
0.941650 0.690364 0.515099
0.965209 0.715389 0.548119
0.217655 0.510826 0.269932
0.219852 0.511101 0.270054
0.222751 0.511345 0.270390
0.229099 0.511864 0.270909
0.238834 0.512902 0.271916
0.251469 0.514122 0.273167
0.266850 0.515862 0.274968
0.284886 0.518059 0.276982
0.305211 0.520745 0.279362
0.327733 0.523888 0.282322
0.352239 0.527520 0.285618
0.378241 0.531670 0.289433
0.405676 0.535882 0.293492
0.434180 0.540215 0.297917
0.463447 0.544610 0.302586
0.493019 0.549004 0.307561
0.522972 0.553399 0.312810
0.553613 0.558129 0.318639
0.583246 0.562219 0.324407
0.613611 0.567041 0.331212
0.645380 0.573083 0.339117
0.677699 0.580133 0.348425
0.709957 0.588098 0.359228
0.741878 0.597314 0.372137
0.773526 0.607782 0.386908
0.804562 0.619928 0.403967
0.834897 0.633722 0.423224
0.864225 0.649531 0.445136
0.892241 0.667506 0.470039
0.918791 0.687800 0.498085
0.943725 0.709957 0.528374
0.966766 0.733883 0.561273
0.250034 0.541283 0.282139
0.252232 0.541619 0.282353
0.262089 0.548455 0.285313
0.267948 0.548943 0.285985
0.276799 0.549676 0.286809
0.288182 0.550652 0.287968
0.302342 0.551995 0.289464
0.319005 0.553674 0.291356
0.338079 0.555840 0.293675
0.359319 0.558465 0.296513
0.382361 0.561578 0.299535
0.407080 0.564813 0.303258
0.432868 0.568231 0.307103
0.459937 0.571893 0.311498
0.487587 0.575677 0.315953
0.515831 0.579370 0.320928
0.544579 0.583307 0.326177
0.573663 0.587396 0.331975
0.602869 0.591669 0.337957
0.632197 0.596185 0.344884
0.662135 0.601495 0.352911
0.692470 0.607752 0.362585
0.722835 0.615045 0.373816
0.753048 0.623560 0.386969
0.782834 0.633234 0.401801
0.812192 0.644404 0.418555
0.840848 0.657191 0.437751
0.868803 0.672023 0.459510
0.895750 0.689052 0.484321
0.921508 0.708339 0.511955
0.945769 0.729366 0.542107
0.968170 0.752132 0.574609
0.284581 0.573693 0.295598
0.287449 0.574762 0.296239
0.290837 0.575891 0.296818
0.297032 0.577142 0.297795
0.305791 0.578393 0.298924
0.316991 0.579644 0.300298
0.330236 0.580957 0.301823
0.345922 0.582513 0.303655
0.363958 0.584466 0.306004
0.383795 0.586816 0.308659
0.405585 0.589471 0.311742
0.429114 0.592462 0.315221
0.453712 0.595636 0.319280
0.479408 0.598932 0.323522
0.505943 0.602319 0.328130
0.532921 0.605798 0.333104
0.560571 0.609430 0.338323
0.588464 0.613245 0.344244
0.616907 0.617426 0.350500
0.645411 0.621851 0.357427
0.674098 0.626734 0.365423
0.703090 0.632624 0.375586
0.732265 0.639521 0.387213
0.761379 0.647578 0.400519
0.790097 0.656886 0.415656
0.818509 0.667567 0.432776
0.846311 0.679957 0.452216
0.873320 0.694270 0.474311
0.899443 0.710597 0.499245
0.924437 0.728817 0.526574
0.947997 0.748836 0.556390
0.969818 0.770474 0.588556
0.317357 0.603967 0.309117
0.319921 0.604974 0.309789
0.323247 0.606043 0.310369
0.328985 0.607233 0.311192
0.337072 0.608392 0.312352
0.347478 0.609522 0.313725
0.359991 0.610681 0.315221
0.374548 0.612116 0.317144
0.391333 0.613916 0.319554
0.410224 0.615961 0.322271
0.431037 0.618463 0.325414
0.453285 0.621271 0.328954
0.476661 0.624109 0.332982
0.501183 0.627222 0.337377
0.526604 0.630304 0.342046
0.552453 0.633448 0.347173
0.578790 0.636744 0.352605
0.605493 0.640284 0.358709
0.632410 0.643946 0.365209
0.659632 0.648127 0.372442
0.686732 0.652522 0.380407
0.714137 0.657679 0.389807
0.742092 0.664088 0.401770
0.769986 0.671717 0.415229
0.797696 0.680568 0.430518
0.825010 0.690700 0.447700
0.851743 0.702510 0.467262
0.877775 0.716152 0.489601
0.903075 0.731594 0.514183
0.927276 0.748867 0.541253
0.950103 0.767880 0.570764
0.971283 0.788418 0.602655
0.351568 0.634943 0.324102
0.353979 0.635859 0.324743
0.357031 0.636927 0.325414
0.362585 0.638025 0.326360
0.370123 0.639124 0.327581
0.379675 0.640192 0.328954
0.391363 0.641199 0.330449
0.404974 0.642512 0.332403
0.420722 0.644007 0.334752
0.438453 0.645838 0.337560
0.458045 0.648066 0.340795
0.479011 0.650446 0.344518
0.501152 0.652979 0.348577
0.524376 0.655665 0.353094
0.548638 0.658473 0.358038
0.573419 0.661494 0.363531
0.598718 0.664759 0.369512
0.624598 0.668208 0.376104
0.650721 0.672084 0.383490
0.677028 0.676234 0.391394
0.703273 0.680720 0.399817
0.729274 0.685542 0.408820
0.755306 0.691035 0.419379
0.782284 0.698482 0.433661
0.808927 0.707088 0.449531
0.835142 0.716976 0.467384
0.860746 0.728359 0.487617
0.885710 0.741329 0.509850
0.909911 0.755978 0.534264
0.933013 0.772305 0.561151
0.954742 0.790158 0.590265
0.974884 0.809445 0.621637
0.391791 0.669398 0.343114
0.393561 0.669886 0.343694
0.395880 0.670344 0.344030
0.400275 0.670924 0.344884
0.407050 0.671595 0.345830
0.415930 0.672236 0.347234
0.426581 0.673182 0.348882
0.439399 0.674250 0.350866
0.454383 0.675654 0.353368
0.471107 0.677424 0.356390
0.489631 0.679469 0.360021
0.509575 0.681575 0.363989
0.530541 0.683772 0.368322
0.552361 0.686152 0.373083
0.574975 0.688533 0.378332
0.598291 0.691157 0.384070
0.621942 0.693965 0.390295
0.646143 0.697017 0.397040
0.670527 0.700435 0.404242
0.694942 0.704067 0.411994
0.719356 0.708034 0.420417
0.743557 0.712276 0.429389
0.767361 0.716793 0.438819
0.791135 0.722011 0.449897
0.816556 0.729976 0.465858
0.841642 0.739345 0.483925
0.866331 0.750088 0.503960
0.890440 0.762387 0.525994
0.913756 0.776333 0.550317
0.936095 0.791714 0.576806
0.957122 0.808560 0.605463
0.976562 0.826871 0.636561
0.430304 0.699855 0.363134
0.432136 0.700313 0.363714
0.434302 0.700801 0.364263
0.438666 0.701320 0.365057
0.444831 0.701839 0.366155
0.452827 0.702388 0.367498
0.462562 0.703120 0.369207
0.474372 0.703975 0.371344
0.488136 0.705135 0.373907
0.503624 0.706508 0.376989
0.520806 0.708248 0.380682
0.539208 0.710109 0.384894
0.558679 0.712093 0.389441
0.579187 0.714168 0.394354
0.600336 0.716457 0.399786
0.622156 0.718898 0.405585
0.644434 0.721553 0.411994
0.667109 0.724514 0.418830
0.690089 0.727687 0.426337
0.713130 0.731228 0.434394
0.736202 0.735012 0.443030
0.759060 0.739101 0.452308
0.781582 0.743557 0.462226
0.803586 0.748165 0.472602
0.823331 0.751553 0.482002
0.847440 0.760311 0.499825
0.871244 0.770504 0.519615
0.894499 0.782193 0.541405
0.917082 0.795315 0.565423
0.938689 0.809934 0.591608
0.959075 0.825986 0.620142
0.978058 0.843473 0.651118
0.475593 0.732174 0.388708
0.477394 0.732662 0.389288
0.479286 0.732998 0.389929
0.482948 0.733303 0.390570
0.488289 0.733639 0.391516
0.495338 0.733944 0.392920
0.503929 0.734432 0.394446
0.514275 0.734951 0.396399
0.526390 0.735653 0.398901
0.540154 0.736629 0.401770
0.555261 0.737758 0.405219
0.571771 0.739193 0.409155
0.589410 0.740780 0.413611
0.607965 0.742458 0.418341
0.627008 0.744228 0.423529
0.646845 0.746120 0.429114
0.667140 0.748257 0.435096
0.688014 0.750759 0.441932
0.709316 0.753719 0.449500
0.730922 0.756985 0.457801
0.752621 0.760678 0.466773
0.774075 0.764614 0.476234
0.795071 0.768673 0.486152
0.815457 0.772854 0.496223
0.835203 0.777157 0.506462
0.854582 0.781888 0.517479
0.877226 0.791348 0.536828
0.899474 0.802213 0.558190
0.921080 0.814511 0.581781
0.941833 0.828244 0.607507
0.961486 0.843412 0.635706
0.979828 0.859983 0.666468
0.517662 0.760952 0.414679
0.519280 0.761410 0.415290
0.521141 0.761715 0.415869
0.524437 0.761990 0.416541
0.529229 0.762234 0.417517
0.535485 0.762600 0.418921
0.543359 0.763027 0.420600
0.552850 0.763516 0.422644
0.563867 0.764279 0.425238
0.576410 0.765255 0.428351
0.590387 0.766384 0.431830
0.605615 0.767727 0.435981
0.621912 0.769314 0.440589
0.639002 0.770901 0.445533
0.656733 0.772610 0.450965
0.674983 0.774502 0.456855
0.693812 0.776516 0.463203
0.713039 0.778897 0.470161
0.732753 0.781613 0.477852
0.752651 0.784695 0.486305
0.772610 0.788052 0.495186
0.792416 0.791714 0.504479
0.811765 0.795590 0.514214
0.830747 0.799557 0.524132
0.849088 0.803677 0.534386
0.866911 0.807950 0.544793
0.884154 0.812467 0.555535
0.905364 0.822629 0.576684
0.926085 0.834257 0.600031
0.945953 0.847227 0.625544
0.964843 0.861631 0.653498
0.982391 0.877226 0.683894
0.562310 0.790005 0.444434
0.563653 0.790311 0.444892
0.565087 0.790494 0.445289
0.567895 0.790646 0.445991
0.571893 0.790799 0.446845
0.577325 0.790982 0.448066
0.584283 0.791257 0.449714
0.592645 0.791684 0.451789
0.602502 0.792325 0.454383
0.613825 0.793149 0.457496
0.626459 0.794217 0.461158
0.640345 0.795529 0.465370
0.655207 0.796933 0.470130
0.670893 0.798489 0.475319
0.687007 0.800046 0.480842
0.703578 0.801785 0.486702
0.720668 0.803647 0.493019
0.738155 0.805814 0.499947
0.756008 0.808347 0.507408
0.774136 0.811185 0.515618
0.792386 0.814389 0.524376
0.810544 0.817807 0.533562
0.828367 0.821408 0.543023
0.845853 0.825193 0.552880
0.862852 0.829129 0.562982
0.879362 0.833158 0.573297
0.895323 0.837430 0.583886
0.910857 0.841886 0.594842
0.930205 0.852262 0.616693
0.949310 0.864561 0.641993
0.967468 0.878080 0.669673
0.984222 0.892729 0.699611
0.606683 0.817563 0.476478
0.607721 0.817746 0.476936
0.609064 0.817929 0.477363
0.611505 0.818112 0.478035
0.615290 0.818326 0.479194
0.620508 0.818723 0.480781
0.627283 0.819333 0.482795
0.635462 0.820188 0.485573
0.645045 0.821256 0.488869
0.655970 0.822568 0.492744
0.667903 0.824033 0.497047
0.680964 0.825681 0.501946
0.694667 0.827390 0.507286
0.708919 0.829129 0.512810
0.723568 0.830869 0.518517
0.738430 0.832578 0.524437
0.753689 0.834440 0.530724
0.769314 0.836484 0.537530
0.785275 0.838804 0.544915
0.801511 0.841489 0.552880
0.817777 0.844388 0.561425
0.834043 0.847562 0.570428
0.850065 0.850889 0.579675
0.865751 0.854368 0.589288
0.881132 0.858000 0.599176
0.896025 0.861784 0.609216
0.910552 0.865751 0.619715
0.924590 0.869902 0.630457
0.938231 0.874327 0.641566
0.955291 0.884611 0.664210
0.972259 0.897124 0.691341
0.987884 0.910552 0.720516
0.656184 0.847532 0.515679
0.657069 0.847654 0.516106
0.658045 0.847715 0.516411
0.659998 0.847807 0.516899
0.663142 0.847929 0.517937
0.667384 0.848142 0.519158
0.672816 0.848539 0.520989
0.679500 0.849088 0.523156
0.687465 0.849790 0.526116
0.696498 0.850706 0.529412
0.706508 0.851774 0.533257
0.717433 0.852995 0.537560
0.729122 0.854307 0.542290
0.741451 0.855741 0.547387
0.754208 0.857237 0.552789
0.767453 0.858854 0.558587
