其他预设/【232】美食博客调色预设124款/1.3D LUT预设（视频调色-PR-AE-PS-FCPX-达芬奇用）/Food Art #60.cube
# Created by Adobe Lightroom plugin Export LUT (1.17.0)
# www.johnrellis.com/lightroom/exportlut.htm
# Preset: Food Art #60
# Color profile: /Library/Application Support/Adobe/Color/Profiles/Recommended/AdobeRGB1998.icc
LUT_3D_SIZE 8
DOMAIN_MIN 0.000000 0.000000 0.000000
DOMAIN_MAX 0.903226 0.903226 0.903226
0.000000 0.000000 0.000000
0.141146 0.000000 0.023407
0.293767 0.000000 0.057710
0.436866 0.000000 0.081147
0.557122 0.000000 0.119814
0.673640 0.000000 0.162234
0.794461 0.115969 0.208774
0.910307 0.246799 0.270634
0.090364 0.078309 0.043427
0.167300 0.068391 0.054108
0.303929 0.000000 0.068971
0.439521 0.000000 0.091798
0.557122 0.000000 0.126467
0.671107 0.000000 0.165896
0.790616 0.160464 0.210666
0.907744 0.269841 0.272221
0.174411 0.183230 0.088380
0.225315 0.180301 0.091798
0.342046 0.170871 0.104555
0.459937 0.160220 0.123568
0.569787 0.172671 0.151583
0.680873 0.213199 0.185000
0.800381 0.274784 0.228428
0.913634 0.353399 0.290379
0.271672 0.302708 0.136629
0.303044 0.301579 0.138857
0.388678 0.300206 0.147860
0.495399 0.310765 0.166415
0.596612 0.328649 0.188357
0.698390 0.356268 0.214359
0.807889 0.398627 0.253544
0.915679 0.458015 0.316136
0.363439 0.439612 0.185061
0.384131 0.439765 0.186893
0.445899 0.442481 0.193210
0.528679 0.452155 0.205844
0.616541 0.466285 0.223270
0.710323 0.487984 0.246342
0.813565 0.522362 0.285374
0.917876 0.572686 0.353277
0.438392 0.588647 0.232914
0.454658 0.592584 0.235752
0.500359 0.595300 0.241581
0.567102 0.602045 0.252384
0.645289 0.612207 0.268833
0.731624 0.627253 0.291844
0.826047 0.651270 0.332036
0.923217 0.691768 0.407507
0.513787 0.739742 0.303502
0.524620 0.740993 0.305821
0.558556 0.742123 0.311681
0.613123 0.746151 0.323949
0.681270 0.752102 0.342229
0.758968 0.762020 0.369055
0.841062 0.775113 0.404059
0.927092 0.799435 0.467750
0.612879 0.875120 0.424170
0.620142 0.875364 0.426062
0.645563 0.876829 0.433936
0.689113 0.880583 0.449653
0.740932 0.881041 0.465126
0.806546 0.888334 0.495583
0.876127 0.898253 0.533776
0.943816 0.908995 0.575952
0.047211 0.000000 0.085054
0.147768 0.000000 0.090089
0.294408 0.000000 0.108553
0.434333 0.000000 0.132784
0.553246 0.000000 0.159823
0.666712 0.000000 0.191043
0.786648 0.124453 0.229679
0.904265 0.248264 0.285527
0.102235 0.075654 0.096925
0.174746 0.065553 0.103182
0.307103 0.000000 0.118685
0.439124 0.000000 0.138705
0.555138 0.000000 0.164248
0.666743 0.057038 0.194247
0.784390 0.166049 0.231388
0.901640 0.270176 0.286412
0.187900 0.179355 0.127169
0.238529 0.176333 0.133455
0.343420 0.168856 0.142580
0.458289 0.163241 0.158541
0.566674 0.177981 0.180941
0.674861 0.215030 0.208225
0.791012 0.271824 0.244755
0.906523 0.350286 0.302190
0.281559 0.297826 0.164675
0.312993 0.297002 0.168704
0.392706 0.297307 0.175631
0.490517 0.303807 0.189273
0.587335 0.319524 0.207462
0.687953 0.347753 0.230533
0.798123 0.391272 0.266270
0.908873 0.453315 0.325505
0.370031 0.436439 0.207095
0.389319 0.436194 0.208316
0.447364 0.438148 0.213718
0.526055 0.445228 0.223758
0.611048 0.458045 0.238560
0.704677 0.481666 0.260472
0.808652 0.518212 0.297887
0.913756 0.569940 0.362829
0.440284 0.583795 0.249271
0.454566 0.584619 0.250675
0.499092 0.587701 0.256046
0.565270 0.595666 0.266636
0.643183 0.607538 0.282658
0.729824 0.624353 0.305333
0.823697 0.649012 0.344060
0.920439 0.689540 0.416144
0.513359 0.733791 0.314458
0.523125 0.733547 0.315465
0.556970 0.735592 0.321599
0.611963 0.741115 0.334264
0.680293 0.748531 0.352941
0.757076 0.758389 0.378607
0.837888 0.770809 0.411048
0.923674 0.795377 0.471962
0.612726 0.871855 0.431434
0.620325 0.872557 0.433783
0.645808 0.874327 0.441779
0.689235 0.878386 0.457465
0.744839 0.883055 0.478767
0.808225 0.888975 0.506065
0.875761 0.897368 0.540368
0.942626 0.907439 0.579919
0.118135 0.000000 0.174044
0.180117 0.000000 0.176822
0.309026 0.000000 0.187381
0.441413 0.000000 0.204990
0.557061 0.000000 0.228214
0.671046 0.000000 0.257420
0.789792 0.154177 0.290623
0.905882 0.270207 0.339940
0.154055 0.072297 0.181765
0.206973 0.061036 0.184695
0.320867 0.000000 0.193271
0.445991 0.000000 0.209689
0.559442 0.000000 0.232273
0.670893 0.103944 0.259159
0.788540 0.188785 0.291691
0.904753 0.291722 0.341772
0.217227 0.176638 0.200229
0.259525 0.174533 0.202792
0.360845 0.172824 0.213779
0.466133 0.171664 0.225742
0.572473 0.192203 0.245945
0.678767 0.228672 0.269413
0.792813 0.283665 0.301640
0.906279 0.363470 0.352911
0.299687 0.297093 0.226596
0.329473 0.296910 0.229191
0.406989 0.299931 0.238285
0.497383 0.307347 0.249241
0.591821 0.325872 0.265873
0.691829 0.355840 0.287266
0.800870 0.400641 0.320256
0.909758 0.465309 0.375280
0.379828 0.435126 0.260044
0.400305 0.435828 0.262455
0.457740 0.439368 0.269566
0.532372 0.447944 0.278660
0.615076 0.461860 0.291600
0.707118 0.485786 0.311833
0.809506 0.523247 0.347112
0.913329 0.578027 0.408698
0.447486 0.583062 0.297948
0.462470 0.583917 0.300298
0.506218 0.586786 0.306645
0.568933 0.593805 0.315587
0.644282 0.605219 0.329442
0.728634 0.621912 0.349859
0.822049 0.649226 0.387640
0.919829 0.694179 0.455848
0.521141 0.734188 0.358587
0.532189 0.734035 0.361364
0.565484 0.735103 0.367773
0.617639 0.739528 0.378576
0.683650 0.746609 0.395117
0.758968 0.757504 0.418708
0.839139 0.772061 0.449805
0.925139 0.799954 0.509239
0.620020 0.870695 0.465644
0.627741 0.870481 0.468299
0.651728 0.871885 0.474678
0.694820 0.876921 0.490517
0.748501 0.881651 0.509453
0.810636 0.888365 0.534691
0.877073 0.897490 0.566583
0.943206 0.908446 0.603967
0.179294 0.000000 0.266606
0.226291 0.000000 0.268803
0.335790 0.000000 0.274846
0.451484 0.000000 0.284916
0.561913 0.000000 0.304784
0.672023 0.000000 0.331365
0.788083 0.160525 0.363104
0.902739 0.280583 0.407813
0.210025 0.060029 0.272068
0.249729 0.032929 0.273655
0.348028 0.000000 0.278874
0.457282 0.000000 0.288487
0.565362 0.000000 0.308415
0.673182 0.111940 0.333684
0.787961 0.196201 0.364721
0.902312 0.303532 0.410254
0.262119 0.177249 0.283513
0.295506 0.176150 0.285222
0.379217 0.173404 0.291112
0.475990 0.174563 0.301091
0.577661 0.198459 0.320623
0.683131 0.238071 0.345373
0.796475 0.296818 0.377966
0.906432 0.380407 0.424720
0.327123 0.297459 0.303532
0.351568 0.297795 0.305211
0.420600 0.301457 0.312078
0.511131 0.317021 0.327703
0.597253 0.331884 0.339971
0.693965 0.361334 0.360357
0.800778 0.407721 0.392096
0.908690 0.477272 0.443030
0.396277 0.435981 0.333471
0.413977 0.436042 0.334936
0.467262 0.439948 0.340368
0.541344 0.453071 0.352483
0.621088 0.467323 0.364416
0.711269 0.492287 0.384649
0.811093 0.531365 0.418463
0.912993 0.587335 0.472206
0.458198 0.585351 0.369451
0.473152 0.588403 0.372442
0.515404 0.590814 0.377752
0.578424 0.598352 0.388739
0.651148 0.609644 0.401617
0.731899 0.624964 0.419501
0.823056 0.653620 0.453620
0.919249 0.699886 0.512840
0.527214 0.733822 0.420996
0.538506 0.734554 0.423774
0.574884 0.736751 0.432868
0.628290 0.741543 0.445960
0.691463 0.749050 0.460151
0.763516 0.759457 0.479866
0.840238 0.773159 0.505699
0.925322 0.802945 0.558282
0.625635 0.871855 0.514916
0.633967 0.872190 0.517967
0.660395 0.872984 0.526818
0.701015 0.875914 0.539300
0.752590 0.880797 0.555108
0.812894 0.887846 0.576776
0.878080 0.897551 0.605188
0.943572 0.909300 0.639002
0.246921 0.000000 0.364691
0.281315 0.000000 0.366217
0.370794 0.000000 0.370489
0.472511 0.000000 0.378454
0.570336 0.000000 0.392218
0.676356 0.019684 0.418738
0.790524 0.169314 0.450629
0.904173 0.289647 0.490639
0.268528 0.012787 0.368261
0.299504 0.000000 0.370062
0.381262 0.000000 0.373968
0.477394 0.000000 0.380987
0.573144 0.000000 0.394629
0.678340 0.121859 0.421210
0.791592 0.204898 0.452705
0.904295 0.313237 0.492958
0.313390 0.181949 0.377630
0.339544 0.181735 0.379065
0.407355 0.179294 0.382757
0.493874 0.183749 0.391333
0.582544 0.201663 0.403235
0.683406 0.238315 0.427619
0.793851 0.294865 0.458595
0.903838 0.380621 0.499702
0.361639 0.303685 0.393957
0.382238 0.304295 0.395148
0.441718 0.308629 0.400519
0.519524 0.319249 0.410590
0.601923 0.334691 0.422156
0.696559 0.364446 0.443580
0.800656 0.410834 0.472938
0.906615 0.476112 0.513939
0.414374 0.435401 0.417090
0.430182 0.436500 0.418311
0.477913 0.441047 0.423255
0.546532 0.452827 0.433509
0.628779 0.474922 0.450904
0.713222 0.494331 0.464973
0.809567 0.530510 0.492592
0.910826 0.585901 0.537407
0.466896 0.579980 0.449439
0.479316 0.580896 0.450538
0.518456 0.583703 0.454353
0.579004 0.591974 0.463294
0.651240 0.606439 0.476387
0.732296 0.624323 0.493599
0.822995 0.654932 0.524773
0.918273 0.700191 0.573114
0.533623 0.731350 0.497719
0.543786 0.731502 0.499001
0.577356 0.733059 0.504479
0.629236 0.738033 0.514488
0.692348 0.746548 0.527367
0.763668 0.757778 0.544366
0.839261 0.771725 0.565667
0.924437 0.802670 0.610620
0.626856 0.868437 0.574121
0.634394 0.868559 0.575891
0.659358 0.869413 0.581964
0.701137 0.874296 0.594263
0.750820 0.879149 0.605707
0.811124 0.886412 0.624140
0.876402 0.896300 0.648524
0.942260 0.908324 0.678126
0.314275 0.000000 0.484718
0.340673 0.000000 0.485817
0.412146 0.000000 0.488502
0.501610 0.000000 0.496101
0.592554 0.000000 0.506706
0.684230 0.069856 0.519432
0.794308 0.183108 0.550530
0.906371 0.304204 0.587488
0.326970 0.000000 0.485115
0.350744 0.000000 0.485939
0.418372 0.000000 0.489265
0.504479 0.000000 0.496773
0.593622 0.049836 0.506889
0.684688 0.133211 0.519890
0.794400 0.215030 0.551263
0.905943 0.325505 0.588556
0.359625 0.188418 0.494606
0.379400 0.187747 0.495460
0.438697 0.187686 0.498970
0.517266 0.195132 0.505699
0.602045 0.214755 0.514794
0.691035 0.247044 0.527184
0.797848 0.304143 0.557092
0.906828 0.393103 0.594659
0.397284 0.319738 0.509422
0.413916 0.320165 0.509911
0.465064 0.323461 0.513420
0.536950 0.333104 0.521538
0.617853 0.349371 0.531273
0.704311 0.373510 0.543023
0.805417 0.419959 0.569848
0.909758 0.486458 0.606104
0.438178 0.451453 0.525872
0.451881 0.452644 0.526970
0.495003 0.456764 0.530419
0.558679 0.465888 0.537377
0.633783 0.479225 0.547021
0.717006 0.498268 0.558648
0.811704 0.533745 0.582177
0.911498 0.585290 0.617884
0.481483 0.586664 0.548089
0.493385 0.588342 0.549676
0.530236 0.592065 0.553002
0.587549 0.599329 0.559075
0.656184 0.611627 0.569055
0.739986 0.634699 0.588464
0.825010 0.657527 0.607538
0.918395 0.697139 0.643000
0.542992 0.732204 0.588556
0.553033 0.733303 0.590051
0.584619 0.735378 0.593530
0.633417 0.740078 0.599939
0.694514 0.748104 0.609369
0.765377 0.760678 0.623346
0.841062 0.774899 0.640681
0.926543 0.805753 0.678096
0.631617 0.868070 0.650324
0.638575 0.868162 0.651362
0.661891 0.869169 0.655146
0.699916 0.872679 0.662135
0.748653 0.877958 0.671015
0.806943 0.885679 0.683162
0.874144 0.896269 0.704433
0.941466 0.908782 0.730007
0.369726 0.000000 0.626947
0.390051 0.000000 0.628138
0.448859 0.000000 0.630823
0.527489 0.000000 0.635706
0.613123 0.000000 0.642084
0.703243 0.114900 0.650355
0.796811 0.198642 0.660822
0.905150 0.315862 0.692470
0.376745 0.000000 0.627253
0.396002 0.000000 0.628290
0.452430 0.000000 0.630854
0.529107 0.000000 0.635248
0.613825 0.093874 0.641688
0.703273 0.161135 0.649836
0.796201 0.227054 0.660060
0.904051 0.333867 0.691676
0.395544 0.194522 0.633234
0.412543 0.194675 0.633875
0.464424 0.197726 0.635981
0.537163 0.209110 0.640101
0.619379 0.231968 0.646021
0.707546 0.266941 0.654200
0.799710 0.313115 0.664820
0.905852 0.400763 0.697078
0.423133 0.333623 0.642969
0.437049 0.333623 0.642969
0.481788 0.335576 0.644343
0.550103 0.345373 0.648554
0.629419 0.362463 0.654414
0.715785 0.389075 0.662745
0.805570 0.423835 0.673335
0.908385 0.490517 0.704860
0.460395 0.471168 0.654627
0.472206 0.471748 0.654841
0.510521 0.474250 0.656031
0.569024 0.479774 0.658747
0.641657 0.490394 0.664027
0.724910 0.510246 0.672206
0.811917 0.536736 0.683070
0.911284 0.589899 0.714809
0.504387 0.607324 0.671199
0.514702 0.608209 0.671656
0.548699 0.611414 0.673182
0.600366 0.616907 0.676417
0.664973 0.624689 0.681300
0.741512 0.638300 0.689998
0.824460 0.658412 0.702174
0.917174 0.695491 0.730800
0.556207 0.737423 0.692836
0.564935 0.738216 0.693477
0.593408 0.740322 0.695308
0.638361 0.744503 0.698939
0.696193 0.750973 0.704494
0.764584 0.761746 0.714137
0.843717 0.780789 0.732357
0.926329 0.804349 0.755764
0.633143 0.866423 0.735805
0.639857 0.866850 0.736538
0.662867 0.869200 0.740108
0.699275 0.872801 0.745052
0.747311 0.878172 0.752163
0.804685 0.886168 0.761868
0.870420 0.897093 0.775814
0.940398 0.910155 0.796963
0.408118 0.000000 0.786709
0.424231 0.000000 0.787289
0.473640 0.000000 0.788479
0.545525 0.000000 0.791287
0.629114 0.107118 0.795224
0.719356 0.187045 0.800351
0.813046 0.263981 0.807034
0.905882 0.344152 0.814542
0.412055 0.000000 0.786740
0.427619 0.004791 0.787320
0.476295 0.056519 0.788602
0.547173 0.104219 0.791196
0.630121 0.158938 0.795132
0.719875 0.219821 0.800259
0.813199 0.287755 0.806699
0.905516 0.361669 0.814298
0.423072 0.212253 0.788693
0.437781 0.214298 0.789151
0.483986 0.221195 0.790097
0.553185 0.239200 0.793393
0.634577 0.268101 0.797055
0.723201 0.308598 0.801755
0.815244 0.361517 0.808164
0.906157 0.420111 0.816007
0.439368 0.347692 0.792721
0.453193 0.349462 0.793210
0.496864 0.355535 0.794278
0.563165 0.368688 0.796933
0.642908 0.390753 0.800656
0.729702 0.421668 0.805478
0.819272 0.459693 0.812039
0.908019 0.503441 0.820340
0.480507 0.494453 0.800717
0.491035 0.495155 0.801022
0.524773 0.496559 0.801053
0.575921 0.496345 0.801450
0.652399 0.512444 0.805051
0.736599 0.535180 0.810147
0.824125 0.564538 0.817319
0.910857 0.599023 0.826963
0.532464 0.635401 0.811978
0.540917 0.635828 0.811917
0.568841 0.637263 0.811887
0.613214 0.638819 0.812406
0.672023 0.641444 0.813657
0.747524 0.653010 0.818662
0.832578 0.675837 0.827817
0.916655 0.702480 0.839139
0.591333 0.765194 0.827787
0.598260 0.765591 0.827878
0.621210 0.766842 0.828275
0.659297 0.769253 0.829557
0.710109 0.772702 0.831815
0.771420 0.777584 0.835630
0.844694 0.787869 0.843351
0.924468 0.807218 0.855711
0.653742 0.878996 0.848631
0.658991 0.879179 0.848814
0.677424 0.880278 0.849729
0.709224 0.882567 0.851926
0.752499 0.886137 0.855406
0.805509 0.891447 0.860716
0.868406 0.899840 0.869566
0.939605 0.914458 0.886107
