其他预设/【232】美食博客调色预设124款/1.3D LUT预设（视频调色-PR-AE-PS-FCPX-达芬奇用）/Food Art #1 ().cube
# Created by Adobe Lightroom plugin Export LUT (1.17.0)
# www.johnrellis.com/lightroom/exportlut.htm
# Preset: Food Art #1 (素锦印象)
# Color profile: /Library/Application Support/Adobe/Color/Profiles/Recommended/AdobeRGB1998.icc
LUT_3D_SIZE 5
DOMAIN_MIN 0.000000 0.000000 0.000000
DOMAIN_MAX 0.903226 0.903226 0.903226
0.000000 0.000000 0.000000
0.227451 0.000000 0.000000
0.532372 0.000000 0.000000
0.780545 0.000000 0.000000
0.985779 0.000000 0.000000
0.000000 0.241703 0.000000
0.236484 0.246647 0.000000
0.535790 0.259648 0.000000
0.781460 0.244480 0.000000
0.982483 0.238041 0.000000
0.000000 0.550713 0.000000
0.222324 0.552148 0.000000
0.522911 0.544823 0.000000
0.774594 0.525536 0.000000
0.979065 0.499977 0.040528
0.000000 0.791257 0.000000
0.180331 0.789883 0.000000
0.487312 0.786435 0.000000
0.751736 0.780850 0.000000
0.969696 0.750546 0.121553
0.000000 0.977020 0.148104
0.201572 0.976104 0.152804
0.463478 0.974029 0.173739
0.699794 0.966094 0.195377
0.924285 0.955657 0.228122
0.000000 0.000000 0.264530
0.246555 0.000000 0.263554
0.542016 0.000000 0.269230
0.787625 0.000000 0.267979
0.985840 0.111940 0.280735
0.000000 0.253819 0.264042
0.235172 0.251499 0.264286
0.541283 0.248631 0.264866
0.786007 0.253452 0.269718
0.983886 0.271977 0.283696
0.000000 0.554833 0.271244
0.212345 0.555718 0.267033
0.528313 0.552239 0.266484
0.778531 0.532494 0.276066
0.977081 0.513054 0.294591
0.000000 0.791470 0.272313
0.206119 0.789731 0.279881
0.494270 0.786648 0.284855
0.752834 0.781796 0.295171
0.966735 0.754818 0.318608
0.000000 0.976226 0.301549
0.268711 0.973907 0.329747
0.485267 0.970184 0.335515
0.708248 0.963775 0.346258
0.924620 0.954589 0.361852
0.000000 0.000000 0.577813
0.246036 0.000000 0.576654
0.538506 0.000000 0.573754
0.782132 0.000000 0.552148
0.976196 0.238346 0.545556
0.000000 0.252140 0.574517
0.226566 0.250156 0.574640
0.534844 0.252537 0.573571
0.779019 0.292882 0.559045
0.972808 0.351751 0.553429
0.000000 0.552422 0.572168
0.217807 0.552361 0.572412
0.527001 0.551720 0.571466
0.769619 0.554742 0.571557
0.964385 0.563867 0.574578
0.000000 0.792752 0.548211
0.244785 0.791531 0.555016
0.523552 0.785885 0.568231
0.755734 0.781918 0.573297
0.957641 0.768154 0.581506
0.140597 0.976257 0.532372
0.294438 0.973754 0.540581
0.548211 0.965118 0.581933
0.737057 0.960571 0.589319
0.929229 0.954162 0.597162
0.000000 0.000000 0.812802
0.221469 0.000000 0.811643
0.501915 0.000000 0.809201
0.762112 0.112612 0.806485
0.967620 0.257359 0.776425
0.000000 0.253574 0.811124
0.232273 0.257267 0.810636
0.507134 0.273808 0.808530
0.761837 0.311223 0.806088
0.965942 0.367071 0.779232
0.059632 0.529747 0.807492
0.287449 0.538506 0.806668
0.535607 0.555810 0.804715
0.761868 0.564599 0.804196
0.958190 0.582116 0.785550
0.115450 0.777310 0.800961
0.290593 0.778103 0.801297
0.537102 0.779660 0.800595
0.764340 0.783749 0.799680
0.946899 0.792081 0.801297
0.222904 0.974395 0.768521
0.336095 0.972412 0.770260
0.552911 0.965698 0.776242
0.772763 0.956054 0.796323
0.936431 0.953002 0.808011
0.000000 0.000000 0.979706
0.220371 0.051820 0.979248
0.469184 0.135561 0.977447
0.706416 0.231174 0.974548
0.927428 0.316381 0.971405
0.131289 0.276463 0.978088
0.267247 0.284459 0.977600
0.490913 0.313878 0.975769
0.715236 0.359716 0.973266
0.928130 0.409094 0.970520
0.314977 0.542168 0.972442
0.401770 0.556481 0.971527
0.557488 0.569116 0.970336
0.741695 0.585260 0.968963
0.930632 0.606897 0.967010
0.336095 0.740261 0.968139
0.416815 0.746609 0.967651
0.597681 0.765713 0.965698
0.784115 0.793729 0.962951
0.936584 0.803372 0.962585
0.367224 0.945800 0.963867
0.438117 0.946441 0.963745
0.609033 0.948089 0.962615
0.794766 0.951537 0.961669
0.949767 0.956939 0.962463
