其他预设/【232】美食博客调色预设124款/1.3D LUT预设（视频调色-PR-AE-PS-FCPX-达芬奇用）/Food Art #70.cube
# Created by Adobe Lightroom plugin Export LUT (1.17.0)
# www.johnrellis.com/lightroom/exportlut.htm
# Preset: Food Art #70
# Color profile: /Library/Application Support/Adobe/Color/Profiles/Recommended/AdobeRGB1998.icc
LUT_3D_SIZE 8
DOMAIN_MIN 0.000000 0.000000 0.000000
DOMAIN_MAX 0.903226 0.903226 0.903226
0.094484 0.183810 0.195804
0.140047 0.201602 0.212131
0.209720 0.228122 0.236606
0.302617 0.259770 0.266087
0.409949 0.297093 0.303258
0.528588 0.338811 0.346044
0.644953 0.388098 0.395300
0.757321 0.452216 0.453895
0.109133 0.237613 0.223911
0.146670 0.246311 0.232792
0.216098 0.258122 0.248875
0.306645 0.283635 0.275853
0.412085 0.316197 0.310735
0.527703 0.353674 0.350713
0.642451 0.399237 0.398108
0.755581 0.461128 0.456153
0.136080 0.323949 0.265934
0.163760 0.328649 0.271122
0.240543 0.343664 0.288548
0.330205 0.357519 0.309789
0.431983 0.378729 0.338109
0.543664 0.407263 0.373266
0.655360 0.446632 0.418463
0.764858 0.501732 0.474067
0.185916 0.426093 0.320012
0.207309 0.428351 0.323339
0.272007 0.437537 0.335515
0.370947 0.457832 0.359197
0.472541 0.471809 0.382483
0.570764 0.486671 0.409430
0.669276 0.513329 0.447547
0.772885 0.558892 0.498878
0.257176 0.530083 0.377295
0.273625 0.531487 0.379706
0.326696 0.537469 0.388373
0.408759 0.548699 0.404425
0.504692 0.560845 0.424750
0.593866 0.568597 0.448005
0.684565 0.586969 0.481880
0.784329 0.625299 0.530144
0.345495 0.623377 0.434424
0.359899 0.625879 0.437720
0.399969 0.628412 0.444190
0.463508 0.633143 0.456245
0.540887 0.639612 0.472847
0.624628 0.649042 0.494514
0.709895 0.664210 0.523980
0.802884 0.694911 0.565881
0.460822 0.709529 0.501335
0.469886 0.710475 0.503166
0.497719 0.711696 0.508141
0.544732 0.715023 0.517784
0.604273 0.719875 0.530938
0.672267 0.727810 0.548272
0.743160 0.738552 0.568811
0.821897 0.760311 0.602167
0.586542 0.800107 0.574853
0.592157 0.800443 0.576043
0.612421 0.802152 0.580499
0.648005 0.806027 0.589532
0.689754 0.807919 0.598627
0.745113 0.815763 0.615839
0.804440 0.826413 0.637690
0.862058 0.838590 0.662593
0.085298 0.187411 0.235935
0.132357 0.204562 0.244480
0.206455 0.237736 0.265324
0.300938 0.272923 0.295323
0.407599 0.307439 0.326635
0.522667 0.345251 0.362341
0.638148 0.391363 0.405402
0.751522 0.453101 0.459541
0.103792 0.237583 0.252720
0.142031 0.246983 0.260777
0.213809 0.267124 0.278569
0.306279 0.293980 0.302953
0.411292 0.325048 0.332586
0.524315 0.359716 0.366857
0.637049 0.402533 0.408270
0.749691 0.461616 0.461555
0.137942 0.323339 0.287663
0.167758 0.328466 0.295445
0.237980 0.342992 0.309850
0.327672 0.359991 0.329442
0.429023 0.382055 0.354559
0.538140 0.409247 0.385351
0.646845 0.445991 0.425086
0.757870 0.500023 0.477424
0.189395 0.423987 0.335546
0.211398 0.426795 0.340063
0.273472 0.436500 0.351110
0.364996 0.453071 0.370184
0.462104 0.466407 0.390600
0.560571 0.482643 0.415290
0.660060 0.509758 0.451118
0.766171 0.555962 0.500847
0.261631 0.528740 0.388952
0.277073 0.529931 0.390875
0.327794 0.535027 0.398505
0.405829 0.544549 0.412268
0.498726 0.556146 0.430579
0.588403 0.565423 0.452979
0.679957 0.584924 0.485817
0.780423 0.623255 0.532311
0.347448 0.620783 0.441230
0.359289 0.621637 0.443183
0.398627 0.624384 0.449378
0.461799 0.629725 0.461097
0.539025 0.637079 0.477699
0.623011 0.647517 0.499306
0.707790 0.662928 0.527642
0.800320 0.693172 0.567742
0.459632 0.705898 0.504295
0.467170 0.705959 0.505333
0.495186 0.707729 0.510399
0.542870 0.711971 0.520378
0.602899 0.717739 0.533898
0.670069 0.725582 0.550439
0.739864 0.735775 0.569848
0.818448 0.757382 0.602319
0.584588 0.797879 0.576257
0.590661 0.798520 0.577630
0.611078 0.800443 0.582238
0.646845 0.804532 0.591272
0.693050 0.809720 0.603479
0.746426 0.816434 0.619318
0.803861 0.825772 0.639429
0.860746 0.837339 0.663264
0.075837 0.199313 0.293706
0.116243 0.211185 0.299992
0.202182 0.242832 0.320714
0.301091 0.278965 0.344182
0.410346 0.317693 0.371893
0.528283 0.360632 0.405158
0.641627 0.406683 0.440742
0.754055 0.466194 0.486397
0.104433 0.243168 0.309300
0.135714 0.251743 0.315221
0.210910 0.272435 0.330632
0.306859 0.301762 0.351537
0.414710 0.336156 0.377752
0.529625 0.374060 0.408331
0.641352 0.417365 0.443000
0.753780 0.475105 0.488746
0.136812 0.325505 0.339696
0.165927 0.330663 0.344030
0.236484 0.345068 0.356085
0.328832 0.365881 0.373907
0.433967 0.391760 0.397009
0.542687 0.420264 0.422858
0.648920 0.457130 0.455940
0.758541 0.509483 0.500786
0.191836 0.425910 0.376562
0.214878 0.429023 0.380133
0.279149 0.439094 0.391211
0.367529 0.455085 0.406989
0.465461 0.471199 0.425147
0.564294 0.489998 0.447150
0.663142 0.518853 0.478492
0.768338 0.563836 0.521996
0.265354 0.528679 0.418738
0.283391 0.530571 0.421851
0.336919 0.536400 0.430823
0.412482 0.546319 0.442573
0.502708 0.558221 0.458503
0.590204 0.568505 0.478309
0.681270 0.589899 0.507958
0.781765 0.627161 0.548608
0.354192 0.620569 0.463630
0.368292 0.621393 0.466407
0.409583 0.623713 0.473915
0.468910 0.628443 0.483772
0.542351 0.635645 0.498268
0.622522 0.646113 0.517174
0.707149 0.663233 0.542840
0.801663 0.695064 0.580560
0.468605 0.706172 0.521386
0.477852 0.706264 0.523278
0.504997 0.707485 0.528161
0.549004 0.711055 0.536278
0.606134 0.716762 0.547845
0.671931 0.725277 0.563195
0.742000 0.736843 0.582361
0.822019 0.760433 0.614801
0.587549 0.797543 0.587091
0.592859 0.797635 0.588006
0.612451 0.799252 0.592096
0.648615 0.804044 0.601282
0.694026 0.809140 0.612726
0.747463 0.816434 0.628260
0.804959 0.826200 0.648066
0.862181 0.838376 0.671626
0.062531 0.213748 0.364660
0.107210 0.223178 0.370245
0.195407 0.249271 0.384558
0.299931 0.283940 0.404639
0.411139 0.321355 0.424903
0.527672 0.362615 0.448981
0.639765 0.411810 0.477974
0.751766 0.472084 0.516899
0.098665 0.253239 0.378485
0.129915 0.259098 0.382116
0.207248 0.277562 0.393042
0.307683 0.306249 0.410681
0.416907 0.340032 0.429755
0.530724 0.377905 0.452522
0.640711 0.424140 0.480903
0.752316 0.481788 0.519463
0.138521 0.328038 0.399969
0.166171 0.333410 0.403326
0.236973 0.348333 0.412940
0.330602 0.369329 0.427344
0.436347 0.396643 0.445380
0.546197 0.428565 0.467506
0.652277 0.469795 0.496193
0.760342 0.517571 0.531640
0.197482 0.427710 0.430854
0.219303 0.430793 0.433265
0.282750 0.440589 0.440986
0.369970 0.456031 0.453254
0.466499 0.474189 0.468360
0.564904 0.496254 0.487160
0.663142 0.526879 0.513146
0.769406 0.568078 0.548241
0.274083 0.530480 0.463508
0.290990 0.531731 0.465217
0.343542 0.537102 0.471717
0.420905 0.547356 0.483314
0.506981 0.559380 0.496559
0.592645 0.572778 0.514122
0.683803 0.595544 0.538262
0.784176 0.629541 0.571069
0.364599 0.621973 0.498268
0.379828 0.623835 0.501213
0.421729 0.625483 0.507652
0.484016 0.629725 0.518883
0.552056 0.637201 0.530602
0.626490 0.647364 0.545220
0.709895 0.665461 0.566583
0.803983 0.696529 0.599817
0.475166 0.705989 0.545281
0.484718 0.706600 0.547234
0.514458 0.708522 0.553094
0.558465 0.712520 0.561120
0.613123 0.718532 0.571038
0.676600 0.726802 0.584344
0.744472 0.737758 0.601251
0.824826 0.762203 0.631891
0.592676 0.798703 0.606378
0.598505 0.799222 0.607599
0.617121 0.800748 0.610925
0.649500 0.804105 0.617365
0.694606 0.809232 0.627955
0.748013 0.816587 0.642542
0.805814 0.826688 0.661372
0.863706 0.839384 0.684352
0.062501 0.230289 0.438911
0.108217 0.237491 0.442206
0.196750 0.258946 0.451484
0.299687 0.289952 0.465553
0.414923 0.327245 0.483742
0.531212 0.367132 0.501701
0.642420 0.415900 0.522972
0.755245 0.476295 0.555383
0.098360 0.263188 0.447364
0.131014 0.268559 0.450141
0.209354 0.285069 0.457801
0.307744 0.311376 0.469886
0.420478 0.345251 0.487190
0.535088 0.382544 0.504631
0.644556 0.428870 0.525628
0.756313 0.486213 0.557641
0.150301 0.336461 0.464179
0.176638 0.341650 0.466590
0.242618 0.353552 0.472602
0.333623 0.373632 0.483406
0.438422 0.399329 0.497566
0.545892 0.429358 0.513146
0.650507 0.468910 0.533867
0.759426 0.516442 0.564202
0.208316 0.427039 0.485298
0.229129 0.430396 0.487098
0.290654 0.441352 0.493446
0.375097 0.457740 0.503197
0.469673 0.475868 0.515343
0.566674 0.499031 0.529290
0.663508 0.529015 0.549279
0.769009 0.561730 0.575036
0.284703 0.528435 0.512505
0.300877 0.530327 0.514000
0.351385 0.536248 0.518669
0.425391 0.545830 0.526421
0.508019 0.557488 0.536187
0.591730 0.572534 0.549187
0.682734 0.593011 0.567193
0.783993 0.622614 0.593469
0.372839 0.619043 0.538140
0.385290 0.619745 0.539361
0.425055 0.621515 0.543267
0.485359 0.625696 0.550927
0.551812 0.633112 0.560418
0.626398 0.645319 0.573541
0.711360 0.664485 0.592523
0.805417 0.693385 0.621149
0.482338 0.704585 0.576562
0.490517 0.704829 0.577691
0.517632 0.706386 0.581598
0.559411 0.710353 0.587762
0.611383 0.716793 0.595148
0.676051 0.725582 0.607507
0.744686 0.736721 0.622889
0.826413 0.761318 0.651148
0.593683 0.796475 0.630213
0.598871 0.796780 0.631006
0.616571 0.798276 0.633661
0.648371 0.803250 0.639612
0.689143 0.808469 0.645899
0.744320 0.815885 0.659571
0.803952 0.826017 0.677302
0.863554 0.838834 0.699062
0.087343 0.247471 0.514275
0.125978 0.253178 0.516258
0.209934 0.271183 0.522087
0.311467 0.299413 0.532494
0.423194 0.334478 0.545434
0.537926 0.373907 0.559411
0.647944 0.422400 0.575219
0.761135 0.482979 0.602930
0.114290 0.275212 0.518242
0.144717 0.279606 0.519768
0.220829 0.294560 0.525139
0.318486 0.319310 0.534813
0.427436 0.351263 0.546990
0.540337 0.388067 0.560571
0.649134 0.434272 0.576501
0.761715 0.491890 0.604211
0.169070 0.346960 0.531914
0.191012 0.350072 0.533104
0.255528 0.361151 0.537621
0.344854 0.379889 0.545403
0.446754 0.404852 0.555444
0.552911 0.434943 0.567376
0.656641 0.474434 0.582971
0.766384 0.522148 0.610040
0.230228 0.435187 0.548028
0.248875 0.437873 0.548974
0.306462 0.447822 0.553094
0.387457 0.462959 0.560449
0.479652 0.481758 0.569238
0.574792 0.504601 0.579339
0.671107 0.533745 0.594934
0.776211 0.566125 0.619257
0.304417 0.528801 0.565545
0.319432 0.530724 0.566552
0.366949 0.537072 0.569879
0.437110 0.547448 0.575219
0.514855 0.559197 0.581781
0.597040 0.574060 0.591363
0.687037 0.592370 0.606622
0.787289 0.616754 0.628443
0.391516 0.619074 0.586114
0.403967 0.620417 0.587243
0.441810 0.623407 0.589929
0.497078 0.628321 0.594476
0.558740 0.635187 0.600885
0.630701 0.645991 0.610956
0.713924 0.661616 0.625849
0.807584 0.685481 0.648585
0.494057 0.705287 0.616632
0.502281 0.706111 0.617762
0.527306 0.707912 0.620600
0.565881 0.711696 0.625147
0.615290 0.717617 0.631281
0.676417 0.726192 0.639857
0.748043 0.737758 0.654108
0.831724 0.761685 0.679469
0.598993 0.796658 0.663874
0.603784 0.796963 0.664485
0.620447 0.798428 0.666590
0.649104 0.802274 0.670741
0.687770 0.807797 0.675929
0.737697 0.815549 0.683497
0.801663 0.826169 0.700557
0.864683 0.839353 0.721309
0.124758 0.264408 0.593408
0.155703 0.269291 0.594842
0.233036 0.285374 0.598291
0.330388 0.311681 0.604334
0.437324 0.345586 0.611994
0.547051 0.385229 0.621363
0.653010 0.429114 0.632288
0.765133 0.487984 0.656245
0.142336 0.288151 0.594751
0.169528 0.292302 0.596002
0.241611 0.306310 0.599298
0.335760 0.329747 0.604822
0.440406 0.360845 0.612177
0.548211 0.397620 0.621118
0.652522 0.439002 0.631769
0.763668 0.494514 0.655512
0.188602 0.354711 0.602655
0.209689 0.357702 0.603418
0.271977 0.368200 0.605982
0.358740 0.386633 0.610773
0.457527 0.411383 0.617273
0.560510 0.441962 0.625879
0.661036 0.478065 0.636652
0.770169 0.524987 0.661250
0.252689 0.442115 0.613275
0.268772 0.444007 0.613611
0.319371 0.451026 0.615503
0.396521 0.464668 0.619989
0.486671 0.483345 0.626062
0.582086 0.507439 0.634424
0.675196 0.534661 0.645136
0.779873 0.567285 0.669123
0.329778 0.534386 0.625666
0.342229 0.535698 0.625910
0.382971 0.540368 0.627405
0.444160 0.547753 0.630304
0.519280 0.558160 0.635370
0.604425 0.573907 0.643671
0.690669 0.591974 0.654627
0.791592 0.617945 0.678309
0.419837 0.625238 0.642756
0.429664 0.626184 0.643244
0.461402 0.629328 0.645045
0.508446 0.633814 0.648310
0.564569 0.638270 0.652827
0.634577 0.645563 0.660182
0.716793 0.660334 0.672023
0.809598 0.680690 0.692836
0.508415 0.708431 0.665187
0.515373 0.709163 0.665980
0.537316 0.710964 0.667842
0.572412 0.714321 0.671382
0.619348 0.718837 0.676326
0.678309 0.725856 0.683803
0.749569 0.736965 0.695583
0.833555 0.755337 0.714748
0.601984 0.795407 0.703395
0.606744 0.795926 0.704036
0.624140 0.798703 0.707118
0.651728 0.802548 0.711208
0.689815 0.808011 0.716854
0.737942 0.815732 0.724208
0.796750 0.826139 0.734066
0.865965 0.839902 0.753597
0.166506 0.283726 0.681971
0.192264 0.288090 0.682826
0.262547 0.302892 0.684901
0.357153 0.328313 0.689204
0.462837 0.362219 0.694972
0.571984 0.402747 0.702235
0.678309 0.448829 0.711238
0.774533 0.497169 0.721492
0.177676 0.304082 0.682643
0.201816 0.308110 0.683467
0.269505 0.321538 0.685573
0.362005 0.344701 0.689570
0.466255 0.376349 0.695247
0.574090 0.414649 0.702358
0.679103 0.458381 0.711086
0.774502 0.504204 0.721370
0.210300 0.363104 0.686397
0.230869 0.366217 0.687037
0.292027 0.376654 0.688655
0.380163 0.396185 0.693172
0.479988 0.422156 0.698299
0.583795 0.454231 0.704829
0.685451 0.492134 0.713466
0.778256 0.530022 0.724056
0.256504 0.442267 0.692622
0.274144 0.444770 0.693324
0.327886 0.452583 0.694942
0.408423 0.467140 0.698543
0.502464 0.487556 0.703700
0.600855 0.513054 0.710201
0.696559 0.541009 0.719020
0.786221 0.569085 0.730068
0.346349 0.542351 0.703304
0.357061 0.543084 0.703731
0.389807 0.543938 0.704219
0.439155 0.543053 0.705104
0.525597 0.557305 0.709957
0.616938 0.574578 0.716884
0.708675 0.594720 0.726467
0.797482 0.618952 0.738979
0.446754 0.639796 0.718379
0.453620 0.639887 0.718379
0.476356 0.639979 0.718746
0.512200 0.639063 0.719753
0.560174 0.636347 0.721798
0.635645 0.642298 0.728206
0.727565 0.660365 0.739834
0.815396 0.682094 0.753994
0.537743 0.727779 0.739193
0.542565 0.727840 0.739315
0.558862 0.728054 0.740078
0.587457 0.728756 0.741970
0.628077 0.729641 0.744961
0.680934 0.730800 0.749477
0.751553 0.736110 0.758022
0.835813 0.753475 0.772457
0.622705 0.808164 0.765499
0.626276 0.808347 0.765743
0.639338 0.809293 0.766934
0.663020 0.811460 0.769650
0.696925 0.814755 0.773709
0.741054 0.819577 0.779538
0.796780 0.826963 0.788418
0.865812 0.839322 0.802762
