其他预设/【232】美食博客调色预设124款/1.3D LUT预设（视频调色-PR-AE-PS-FCPX-达芬奇用）/Food Art #4 ().cube
# Created by Adobe Lightroom plugin Export LUT (1.17.0)
# www.johnrellis.com/lightroom/exportlut.htm
# Preset: Food Art #4 (素锦印象)
# Color profile: /Library/Application Support/Adobe/Color/Profiles/Recommended/AdobeRGB1998.icc
LUT_3D_SIZE 8
DOMAIN_MIN 0.000000 0.000000 0.000000
DOMAIN_MAX 0.903226 0.903226 0.903226
0.000000 0.000000 0.000000
0.151003 0.000000 0.000000
0.390784 0.000000 0.000000
0.612665 0.000000 0.000000
0.789975 0.000000 0.000000
0.913024 0.000000 0.000000
1.000000 0.074067 0.076692
1.000000 0.156374 0.157595
0.000000 0.164279 0.000000
0.170352 0.170352 0.000000
0.410071 0.193576 0.000000
0.633417 0.188205 0.000000
0.805051 0.173983 0.000000
0.923613 0.171328 0.000000
1.000000 0.189120 0.098665
1.000000 0.221378 0.170809
0.000000 0.404303 0.000000
0.183841 0.407263 0.000000
0.413245 0.413306 0.000000
0.630335 0.411872 0.000000
0.802884 0.392065 0.000000
0.918334 0.365179 0.000000
1.000000 0.345983 0.112795
1.000000 0.343420 0.180392
0.000000 0.622980 0.000000
0.172641 0.626307 0.000000
0.408972 0.627588 0.000000
0.615747 0.615869 0.000000
0.784054 0.584955 0.000000
0.905425 0.544579 0.066041
0.996826 0.510735 0.151400
1.000000 0.488930 0.215152
0.000000 0.792386 0.000000
0.185428 0.792447 0.000000
0.391241 0.789242 0.000000
0.583948 0.779660 0.000000
0.770047 0.770138 0.065827
0.904814 0.727535 0.145937
0.993713 0.676112 0.208835
1.000000 0.636072 0.262974
0.162387 0.900908 0.163088
0.230137 0.896513 0.158297
0.382361 0.893858 0.166506
0.547295 0.888365 0.179171
0.712154 0.880980 0.198978
0.870054 0.870176 0.220615
0.982177 0.828183 0.259770
1.000000 0.775448 0.311345
0.264988 0.978119 0.265202
0.300847 0.976867 0.265202
0.404700 0.975219 0.273350
0.535149 0.970886 0.284184
0.674464 0.964874 0.300908
0.812009 0.955840 0.318273
0.944762 0.944823 0.338415
1.000000 0.908965 0.376440
0.360510 1.000000 0.360693
0.382361 1.000000 0.362615
0.448463 1.000000 0.367254
0.542779 1.000000 0.372717
0.659968 1.000000 0.398871
0.773068 1.000000 0.412238
0.884916 1.000000 0.425513
0.993927 0.993988 0.445716
0.000000 0.000000 0.174289
0.175601 0.000000 0.175601
0.423621 0.000000 0.182406
0.641474 0.000000 0.175296
0.809720 0.000000 0.182315
0.926696 0.093233 0.202762
1.000000 0.171023 0.232242
1.000000 0.231235 0.269261
0.000000 0.181094 0.181125
0.180484 0.180484 0.180484
0.427008 0.178805 0.178927
0.646754 0.177310 0.177646
0.814511 0.186709 0.187167
0.930053 0.209323 0.210025
1.000000 0.241642 0.242161
1.000000 0.279789 0.280186
0.000000 0.423224 0.182162
0.174868 0.423194 0.175051
0.423621 0.423865 0.174380
0.644953 0.420294 0.177798
0.814267 0.404089 0.195254
0.926329 0.385107 0.220493
1.000000 0.376867 0.250828
1.000000 0.380743 0.286900
0.000000 0.642573 0.177890
0.179171 0.642145 0.179355
0.417975 0.639704 0.180758
0.635187 0.635248 0.184573
0.805142 0.604456 0.205966
0.919524 0.563561 0.239414
1.000000 0.532891 0.274449
1.000000 0.514458 0.312474
0.076234 0.796384 0.209018
0.211460 0.797116 0.211673
0.404456 0.795193 0.217655
0.595789 0.789242 0.225620
0.780880 0.780941 0.238865
0.910582 0.736873 0.269139
0.995941 0.687617 0.305394
1.000000 0.651209 0.344091
0.220554 0.904204 0.274296
0.275364 0.903258 0.275547
0.408179 0.900237 0.280034
0.562615 0.893553 0.286351
0.720363 0.884733 0.296941
0.872496 0.872557 0.308232
0.981903 0.832212 0.336858
1.000000 0.783536 0.379339
0.318120 0.980713 0.347173
0.350164 0.980682 0.350317
0.438270 0.978363 0.355077
0.555779 0.972992 0.360632
0.686305 0.966094 0.371344
0.818631 0.957549 0.385901
0.947601 0.947662 0.404456
1.000000 0.913329 0.438422
0.402411 1.000000 0.419684
0.419898 1.000000 0.419989
0.477882 1.000000 0.423224
0.563592 1.000000 0.426886
0.667720 1.000000 0.437049
0.778805 1.000000 0.453529
0.888426 1.000000 0.469856
0.994232 0.994293 0.490211
0.000000 0.000000 0.419715
0.192966 0.000000 0.419135
0.420783 0.000000 0.420813
0.636378 0.000000 0.414130
0.800168 0.088380 0.405005
0.912078 0.260044 0.426734
0.996826 0.321752 0.439307
1.000000 0.372045 0.457374
0.000000 0.179965 0.423499
0.176516 0.176577 0.424353
0.426123 0.174075 0.426184
0.643763 0.182193 0.420661
0.805142 0.242802 0.418708
0.914794 0.318212 0.434913
0.998657 0.360815 0.446418
1.000000 0.400122 0.463508
0.000000 0.424781 0.424720
0.171664 0.424323 0.424445
0.425208 0.425208 0.425208
0.639185 0.425910 0.426001
0.799191 0.430152 0.430182
0.911223 0.439429 0.439490
0.995850 0.453040 0.453132
1.000000 0.471565 0.471656
0.000000 0.639704 0.417304
0.183078 0.637629 0.417243
0.427283 0.635645 0.427253
0.631525 0.631586 0.428229
0.792355 0.609186 0.435096
0.904875 0.587701 0.448066
0.990021 0.574762 0.463111
1.000000 0.571527 0.483589
0.125643 0.797452 0.409461
0.248569 0.795529 0.417578
0.443061 0.789761 0.443183
0.608118 0.783200 0.445045
0.775845 0.775875 0.450416
0.898833 0.742824 0.465156
0.983917 0.709712 0.483070
1.000000 0.686732 0.503655
0.273289 0.902159 0.429908
0.339574 0.899779 0.444404
0.473762 0.894957 0.473854
0.599817 0.890410 0.478065
0.737148 0.883665 0.483772
0.873808 0.873869 0.488563
0.973999 0.839750 0.502007
1.000000 0.800931 0.522759
0.381750 0.975799 0.474556
0.426520 0.974090 0.491554
0.510826 0.971374 0.510857
0.605310 0.967803 0.515984
0.715663 0.962402 0.522911
0.830777 0.954803 0.529870
0.945342 0.945403 0.536828
1.000000 0.915160 0.555474
0.479072 1.000000 0.535546
0.508171 1.000000 0.549310
0.552514 1.000000 0.552544
0.617212 1.000000 0.551537
0.704463 1.000000 0.558770
0.800198 1.000000 0.568688
0.897063 1.000000 0.577905
0.992554 0.992645 0.589868
0.000000 0.000000 0.643946
0.185824 0.000000 0.639918
0.416846 0.000000 0.638849
0.637659 0.000000 0.637629
0.800656 0.129824 0.604700
0.910552 0.283299 0.584192
0.989776 0.403357 0.594812
1.000000 0.504021 0.627161
0.000000 0.176944 0.635950
0.176944 0.176761 0.635431
0.415747 0.179599 0.636439
0.636164 0.188907 0.636164
0.799588 0.255039 0.608026
0.909270 0.352972 0.593683
0.988037 0.449104 0.607385
1.000000 0.534630 0.639063
0.000000 0.418860 0.639155
0.194705 0.420844 0.638972
0.430823 0.430671 0.639124
0.638605 0.436744 0.638544
0.792264 0.459480 0.619104
0.897002 0.500328 0.615534
0.975006 0.548119 0.630243
1.000000 0.581964 0.644495
0.000000 0.634211 0.634333
0.207614 0.635126 0.635187
0.440314 0.636042 0.636133
0.635492 0.635492 0.635492
0.783993 0.636988 0.637018
0.890623 0.640314 0.640375
0.972808 0.644923 0.644953
1.000000 0.652369 0.652399
0.176242 0.794491 0.604303
0.277745 0.793698 0.608026
0.466285 0.788083 0.619715
0.636225 0.778042 0.636255
0.773312 0.773342 0.637079
0.883818 0.756619 0.642786
0.967041 0.743282 0.650111
1.000000 0.736263 0.660945
0.307347 0.897490 0.584131
0.360662 0.893126 0.588373
0.504356 0.887877 0.614893
0.646235 0.880095 0.646265
0.755337 0.875914 0.648585
0.870634 0.870726 0.651606
0.960571 0.848783 0.658534
1.000000 0.826352 0.669825
0.413275 0.973510 0.593194
0.451148 0.971283 0.602441
0.554833 0.964843 0.632746
0.663172 0.957610 0.663203
0.749660 0.953887 0.666712
0.845090 0.949065 0.671199
0.943236 0.943236 0.676234
1.000000 0.920958 0.688350
0.498543 1.000000 0.617792
0.525078 1.000000 0.627283
0.604273 1.000000 0.659052
0.683742 1.000000 0.683803
0.751980 1.000000 0.688655
0.829343 1.000000 0.694911
0.909422 0.998016 0.699062
0.990600 0.990661 0.704463
0.000000 0.000000 0.794186
0.176211 0.000000 0.792355
0.391882 0.000000 0.792020
0.593530 0.087221 0.789151
0.786587 0.172122 0.786587
0.903075 0.304967 0.741176
0.983368 0.419196 0.717678
1.000000 0.515740 0.718563
0.000000 0.191226 0.791470
0.192813 0.192966 0.788540
0.397650 0.206729 0.788296
0.596765 0.235294 0.788388
0.786404 0.277653 0.786435
0.900877 0.367224 0.743648
0.980896 0.459236 0.723140
1.000000 0.543359 0.725521
0.175509 0.416327 0.787472
0.274662 0.425971 0.786313
0.438483 0.438422 0.787167
0.613794 0.453468 0.787015
0.785946 0.474372 0.785946
0.896056 0.519066 0.755520
0.974212 0.570184 0.743252
1.000000 0.625910 0.749691
0.218021 0.603082 0.785916
0.303838 0.607904 0.786007
0.478950 0.623163 0.784329
0.641688 0.641688 0.781979
0.781308 0.648463 0.781308
0.885191 0.665858 0.768338
0.963012 0.689479 0.767697
1.000000 0.718074 0.776883
0.268833 0.781460 0.781552
0.337865 0.781094 0.781155
0.495216 0.780697 0.780728
0.652674 0.779751 0.779782
0.780179 0.780179 0.780179
0.878813 0.781582 0.781582
0.956451 0.783352 0.783383
1.000000 0.787015 0.787045
0.371649 0.899779 0.748714
0.419074 0.897948 0.751064
0.542382 0.892912 0.760189
0.676326 0.885313 0.773526
0.786282 0.879484 0.786313
0.874601 0.874601 0.783383
0.951659 0.862303 0.783383
1.000000 0.853361 0.788540
0.459266 0.971771 0.723842
0.492988 0.970275 0.729366
0.585473 0.964965 0.746090
0.694484 0.957061 0.769100
0.788113 0.950500 0.788113
0.863310 0.947417 0.789578
0.944091 0.944091 0.792172
1.000000 0.929747 0.800443
0.541100 1.000000 0.723629
0.565148 1.000000 0.730190
0.635248 1.000000 0.750576
0.717678 1.000000 0.774075
0.796750 1.000000 0.796750
0.858091 0.999847 0.800687
0.922881 0.995209 0.802884
0.989868 0.989899 0.805875
0.006226 0.009461 0.889921
0.184390 0.059510 0.889525
0.368322 0.119356 0.890593
0.548882 0.184298 0.889403
0.723384 0.257206 0.887816
0.885252 0.333867 0.885222
0.974243 0.435920 0.842161
1.000000 0.527703 0.816159
0.141207 0.219821 0.893584
0.226047 0.226139 0.893523
0.388647 0.247868 0.893065
0.561089 0.284916 0.891447
0.729458 0.335607 0.888975
0.885801 0.393652 0.885801
0.973022 0.476265 0.844877
1.000000 0.555901 0.820706
0.294011 0.435706 0.886870
0.337285 0.439796 0.887327
0.451881 0.451881 0.887358
0.594232 0.471077 0.886107
0.741878 0.498390 0.884642
0.882444 0.529534 0.882414
0.966583 0.577722 0.850187
1.000000 0.630732 0.832334
0.351019 0.591394 0.883696
0.402106 0.600549 0.883665
0.528283 0.627619 0.881651
0.642969 0.642908 0.878019
0.757443 0.652522 0.876249
0.875364 0.666285 0.875364
0.956542 0.689998 0.856138
1.000000 0.719326 0.846708
0.394995 0.739528 0.882475
0.437171 0.742824 0.881926
0.549279 0.753719 0.880247
0.675959 0.769497 0.877653
0.782376 0.782345 0.876280
0.876219 0.786221 0.876188
0.951415 0.795163 0.868132
1.000000 0.810056 0.866697
0.440803 0.879301 0.879362
0.474525 0.878325 0.878386
0.572198 0.877562 0.877592
0.687922 0.876738 0.876768
0.790188 0.876738 0.876707
0.875761 0.875731 0.875761
0.945983 0.875303 0.875303
1.000000 0.877226 0.877226
0.502190 0.967224 0.847440
0.528191 0.965393 0.848264
0.607752 0.960784 0.852995
0.705592 0.954559 0.859983
0.797238 0.949035 0.867979
0.876921 0.945068 0.876921
0.943664 0.943664 0.878111
0.997864 0.936278 0.882017
0.578943 1.000000 0.825345
0.599634 1.000000 0.828763
0.660609 1.000000 0.839200
0.736660 1.000000 0.852445
0.815305 1.000000 0.868620
0.884092 0.995789 0.884123
0.935119 0.992584 0.884733
0.989044 0.989014 0.886259
0.155367 0.155825 0.970886
0.225284 0.168917 0.971008
0.369024 0.206516 0.970031
0.525841 0.261112 0.967926
0.681605 0.329076 0.965423
0.827298 0.400793 0.961944
0.957946 0.468299 0.957977
1.000000 0.549584 0.917266
0.214725 0.259342 0.968292
0.266880 0.266941 0.968383
0.392004 0.290806 0.967498
0.539239 0.330755 0.965667
0.687770 0.382788 0.962829
0.828000 0.439704 0.959197
0.955291 0.495979 0.955322
1.000000 0.566613 0.916381
0.364660 0.460151 0.964508
0.392493 0.463478 0.964233
0.475532 0.475441 0.963043
0.590295 0.496864 0.961273
0.714504 0.524407 0.958618
0.837461 0.557122 0.955718
0.953124 0.592950 0.953094
1.000000 0.642329 0.920867
0.473243 0.619898 0.959258
0.504601 0.629358 0.958526
0.581476 0.650477 0.956329
0.660243 0.660182 0.955291
0.753414 0.672480 0.953552
0.852537 0.688380 0.951873
0.950378 0.706020 0.950408
1.000000 0.731746 0.926268
0.496437 0.727352 0.954803
0.523491 0.732143 0.953948
0.603174 0.748440 0.951751
0.703273 0.772427 0.949187
0.785183 0.785122 0.947601
0.863462 0.790585 0.946593
0.945830 0.797665 0.945830
1.000000 0.813321 0.931029
0.526299 0.838590 0.950347
0.550744 0.840726 0.949950
0.622766 0.847745 0.948699
0.713832 0.857908 0.947234
0.800961 0.868223 0.945739
0.877562 0.877531 0.945006
0.944976 0.880491 0.944976
0.996002 0.887724 0.938293
0.563775 0.946899 0.946960
0.585229 0.946899 0.946960
0.647486 0.946349 0.946380
0.727565 0.945739 0.945769
0.808103 0.944793 0.944793
0.881926 0.944244 0.944274
0.944701 0.944701 0.944701
0.991638 0.945922 0.945953
0.616388 1.000000 0.922148
0.632807 1.000000 0.922759
0.685084 1.000000 0.925658
0.753292 1.000000 0.929229
0.825589 1.000000 0.933898
0.891722 0.994415 0.939605
0.946960 0.990265 0.946960
0.988403 0.988403 0.947417
0.213413 0.213779 1.000000
0.257969 0.223301 1.000000
0.368719 0.252995 1.000000
0.503441 0.302342 1.000000
0.641474 0.363836 1.000000
0.773434 0.429664 1.000000
0.894469 0.494850 1.000000
1.000000 0.553429 1.000000
0.262577 0.291386 1.000000
0.298558 0.298558 1.000000
0.395422 0.320714 1.000000
0.520256 0.359319 1.000000
0.651514 0.409827 1.000000
0.778317 0.465339 1.000000
0.895537 0.521019 1.000000
1.000000 0.572839 1.000000
0.393744 0.465003 1.000000
0.415259 0.468879 1.000000
0.480507 0.480415 1.000000
0.578759 0.504906 1.000000
0.686854 0.533928 1.000000
0.796078 0.566918 1.000000
0.901183 0.603174 1.000000
0.998108 0.639216 0.998108
0.534966 0.636164 1.000000
0.547997 0.638361 1.000000
0.588373 0.643580 1.000000
0.654597 0.654536 1.000000
0.735409 0.669123 1.000000
0.822385 0.686091 0.998871
0.910216 0.705379 0.996887
0.994995 0.725185 0.994965
0.560479 0.723293 1.000000
0.581262 0.729458 1.000000
0.641016 0.747494 0.998413
0.719936 0.772793 0.995972
0.778378 0.778317 0.994934
0.846098 0.785763 0.993713
0.918791 0.795895 0.992554
0.991730 0.809049 0.991730
0.583795 0.812680 0.996918
0.600885 0.815640 0.996399
0.654017 0.825498 0.994903
0.726680 0.840146 0.992920
0.804623 0.857969 0.990814
0.870603 0.870573 0.989837
0.930236 0.877867 0.989746
0.989868 0.886870 0.989868
0.615473 0.903960 0.993408
0.630457 0.905180 0.993103
0.676692 0.909087 0.992096
0.743282 0.915526 0.990845
0.815885 0.923644 0.989410
0.884825 0.933074 0.988251
0.942870 0.942870 0.987976
0.987549 0.945129 0.987549
0.655146 0.990631 0.990661
0.667384 0.990448 0.990448
0.706905 0.989929 0.989960
0.766018 0.989227 0.989258
0.831266 0.988434 0.988464
0.893431 0.987640 0.987671
0.947051 0.987060 0.987060
0.986725 0.986694 0.986725
