其他预设/【232】美食博客调色预设124款/1.3D LUT预设（视频调色-PR-AE-PS-FCPX-达芬奇用）/Food Art #38.cube
# Created by Adobe Lightroom plugin Export LUT (1.17.0)
# www.johnrellis.com/lightroom/exportlut.htm
# Preset: Food Art #38
# Color profile: /Library/Application Support/Adobe/Color/Profiles/Recommended/AdobeRGB1998.icc
LUT_3D_SIZE 5
DOMAIN_MIN 0.000000 0.000000 0.000000
DOMAIN_MAX 0.903226 0.903226 0.903226
0.156039 0.156039 0.156039
0.246128 0.174868 0.174777
0.497414 0.199039 0.199222
0.762478 0.286717 0.286687
0.918761 0.462043 0.462104
0.181186 0.250858 0.181125
0.256870 0.256870 0.187198
0.493355 0.303197 0.214694
0.757626 0.374792 0.305455
0.917967 0.518303 0.487709
0.240574 0.505791 0.240452
0.327337 0.509087 0.248020
0.538201 0.538201 0.284672
0.755703 0.568353 0.372534
0.905272 0.641413 0.539940
0.399664 0.751583 0.399481
0.452827 0.752468 0.409003
0.592035 0.753231 0.437903
0.755703 0.755795 0.487465
0.895903 0.782589 0.623926
0.636011 0.895018 0.636042
0.655482 0.894499 0.640742
0.711879 0.890806 0.651453
0.805722 0.893797 0.689448
0.899138 0.899168 0.735988
0.170413 0.170535 0.237766
0.240665 0.180392 0.240696
0.470192 0.215213 0.294743
0.730617 0.322301 0.381750
0.900755 0.497688 0.525505
0.187839 0.246830 0.246860
0.267704 0.267704 0.267704
0.474952 0.307622 0.307683
0.730526 0.393530 0.393622
0.898924 0.540002 0.540032
0.247562 0.493874 0.321752
0.333135 0.495857 0.333165
0.515282 0.515190 0.358038
0.733974 0.564416 0.438849
0.894255 0.655879 0.588312
0.419379 0.743679 0.460121
0.476143 0.743099 0.476204
0.599786 0.745327 0.499123
0.750210 0.750240 0.538506
0.890440 0.784970 0.654475
0.650141 0.891142 0.663966
0.667750 0.890776 0.667811
0.726864 0.891508 0.684657
0.811215 0.893828 0.713832
0.899657 0.899657 0.753658
0.179965 0.179812 0.476173
0.283207 0.190402 0.473121
0.477424 0.224033 0.477455
0.722927 0.347112 0.540398
0.885496 0.553216 0.643610
0.207279 0.290043 0.468971
0.296666 0.296666 0.469764
0.485267 0.322423 0.485237
0.718013 0.427405 0.551202
0.881956 0.597620 0.659510
0.265385 0.496681 0.496742
0.347570 0.501305 0.501335
0.555749 0.555749 0.555749
0.721462 0.595789 0.595850
0.878996 0.686946 0.686946
0.429633 0.732876 0.577447
0.486336 0.728878 0.585687
0.622553 0.732815 0.622522
0.745296 0.745327 0.647364
0.880888 0.790219 0.721889
0.650477 0.885374 0.709651
0.676173 0.884825 0.718898
0.739376 0.884825 0.739376
0.813474 0.888457 0.758358
0.895872 0.895872 0.786679
0.225193 0.225040 0.719722
0.322545 0.241123 0.718471
0.519432 0.292424 0.717189
0.716579 0.371435 0.716548
0.880858 0.566979 0.753353
0.279545 0.346380 0.711177
0.355718 0.355505 0.710780
0.529931 0.388617 0.711025
0.713008 0.443732 0.712886
0.876341 0.601984 0.756283
0.364904 0.539239 0.709865
0.431708 0.548363 0.707881
0.575555 0.575463 0.708614
0.713710 0.596948 0.713710
0.872129 0.691981 0.770291
0.471748 0.726528 0.726558
0.517510 0.725460 0.725460
0.629236 0.731136 0.731136
0.761746 0.761715 0.761715
0.876890 0.796811 0.796841
0.658412 0.880888 0.785977
0.679683 0.880278 0.789212
0.739986 0.881132 0.800137
0.816800 0.885557 0.816770
0.893980 0.893950 0.834287
0.335729 0.335485 0.877775
0.397955 0.352514 0.876707
0.552941 0.409094 0.874540
0.723415 0.491920 0.871061
0.869078 0.577142 0.869078
0.392248 0.430274 0.871977
0.441932 0.441810 0.871183
0.575677 0.482521 0.869596
0.728542 0.541619 0.866361
0.866423 0.606928 0.866423
0.505760 0.605890 0.863706
0.543755 0.615473 0.861814
0.630945 0.630884 0.860441
0.743893 0.652308 0.859861
0.865568 0.689448 0.865568
0.589685 0.751675 0.866056
0.612146 0.752956 0.864439
0.678462 0.758572 0.862394
0.771145 0.771115 0.863951
0.875822 0.797879 0.875853
0.685023 0.879026 0.879026
0.699123 0.878599 0.878630
0.747097 0.879759 0.879789
0.814115 0.882536 0.882567
0.894835 0.894835 0.894835
