其他预设/【232】美食博客调色预设124款/1.3D LUT预设（视频调色-PR-AE-PS-FCPX-达芬奇用）/Food Art #33.cube
# Created by Adobe Lightroom plugin Export LUT (1.17.0)
# www.johnrellis.com/lightroom/exportlut.htm
# Preset: Food Art #33
# Color profile: /Library/Application Support/Adobe/Color/Profiles/Recommended/AdobeRGB1998.icc
LUT_3D_SIZE 5
DOMAIN_MIN 0.000000 0.000000 0.000000
DOMAIN_MAX 0.903226 0.903226 0.903226
0.112520 0.228611 0.327947
0.205936 0.256016 0.361578
0.391974 0.306767 0.420935
0.670192 0.379187 0.486641
0.909056 0.525475 0.539269
0.158297 0.322606 0.389410
0.244816 0.340520 0.410407
0.427466 0.373754 0.450507
0.692592 0.438575 0.499580
0.917082 0.575189 0.548241
0.294163 0.518059 0.480110
0.361364 0.529290 0.487282
0.561181 0.571374 0.507897
0.762173 0.604608 0.527764
0.932036 0.697078 0.581415
0.540459 0.741238 0.533715
0.582238 0.745205 0.537377
0.699611 0.757534 0.550958
0.837186 0.779477 0.580377
0.955291 0.829862 0.652644
0.808865 0.901366 0.652064
0.823148 0.902892 0.657588
0.865141 0.907256 0.675044
0.926848 0.921386 0.713954
0.983215 0.942077 0.768765
0.091768 0.235874 0.390143
0.196384 0.265324 0.417365
0.397101 0.323003 0.466621
0.669978 0.394232 0.510307
0.904997 0.537407 0.550805
0.158145 0.323644 0.437110
0.240818 0.341344 0.452705
0.433326 0.384497 0.485756
0.691951 0.449012 0.517815
0.911284 0.581476 0.558892
0.305089 0.517571 0.501701
0.372930 0.528985 0.507683
0.555230 0.563958 0.520928
0.757534 0.605127 0.539055
0.930205 0.701320 0.593652
0.554467 0.739467 0.544945
0.597589 0.743282 0.549767
0.707027 0.755703 0.563531
0.837369 0.778134 0.592279
0.954589 0.830655 0.663081
0.812039 0.900481 0.662013
0.825803 0.902037 0.667323
0.869749 0.909056 0.687617
0.928374 0.922332 0.723934
0.983459 0.942901 0.776944
0.088563 0.255436 0.489448
0.196872 0.276860 0.501854
0.410925 0.329992 0.526909
0.685145 0.404395 0.548669
0.907897 0.555322 0.586023
0.178897 0.334112 0.513664
0.256199 0.348821 0.520195
0.454597 0.392615 0.536217
0.706935 0.462776 0.553857
0.912902 0.597528 0.595148
0.336919 0.520836 0.543023
0.400000 0.532311 0.546136
0.573205 0.566033 0.556054
0.765957 0.617304 0.575830
0.929686 0.706661 0.628290
0.573846 0.736568 0.578759
0.613916 0.738766 0.583185
0.721859 0.751705 0.600671
0.840330 0.777310 0.628840
0.953948 0.831296 0.692714
0.813748 0.898375 0.689876
0.828214 0.900420 0.695766
0.869108 0.907530 0.712764
0.926818 0.921141 0.745937
0.982086 0.942260 0.795499
0.188968 0.278904 0.567407
0.267155 0.293706 0.572015
0.463172 0.338720 0.586786
0.708217 0.416876 0.610773
0.914611 0.570520 0.655146
0.247105 0.349248 0.578027
0.313909 0.360845 0.581750
0.496925 0.400549 0.594659
0.725734 0.473152 0.617121
0.917327 0.606806 0.661830
0.388434 0.527367 0.602808
0.444160 0.537438 0.606683
0.597375 0.568841 0.618128
0.774807 0.619684 0.639124
0.930266 0.702571 0.686397
0.609583 0.735958 0.649592
0.643030 0.739071 0.652430
0.733150 0.751644 0.663966
0.843534 0.776699 0.687892
0.953216 0.824247 0.737270
0.819242 0.898192 0.746029
0.831540 0.899962 0.749996
0.868467 0.907256 0.763088
0.921904 0.921111 0.786313
0.980713 0.943420 0.832578
0.295109 0.304265 0.707088
0.359106 0.317449 0.711482
0.533257 0.366125 0.725887
0.747616 0.463111 0.748135
0.920287 0.598108 0.777554
0.323247 0.368078 0.715602
0.385138 0.380163 0.719387
0.555108 0.425177 0.732235
0.761196 0.514092 0.752621
0.923308 0.630365 0.781949
0.446113 0.543847 0.738338
0.485664 0.547082 0.739498
0.628565 0.579583 0.749081
0.798795 0.639826 0.768032
0.933837 0.715572 0.798856
0.678950 0.758206 0.781827
0.698604 0.760128 0.782986
0.755245 0.764309 0.787015
0.846860 0.779019 0.799466
0.952361 0.827726 0.835691
0.836240 0.907469 0.846555
0.844907 0.908721 0.848447
0.873808 0.913878 0.856260
0.920134 0.924743 0.872435
0.976959 0.946471 0.905241
