其他预设/【232】美食博客调色预设124款/1.3D LUT预设（视频调色-PR-AE-PS-FCPX-达芬奇用）/Food Art #76.cube
# Created by Adobe Lightroom plugin Export LUT (1.17.0)
# www.johnrellis.com/lightroom/exportlut.htm
# Preset: Food Art #76
# Color profile: /Library/Application Support/Adobe/Color/Profiles/Recommended/AdobeRGB1998.icc
LUT_3D_SIZE 32
0.157504 0.194888 0.212833
0.157504 0.194888 0.212833
0.157504 0.194888 0.212833
0.148653 0.193332 0.210727
0.141512 0.188785 0.206149
0.138796 0.185977 0.203525
0.140841 0.183444 0.201266
0.147189 0.181033 0.199527
0.157473 0.179049 0.198001
0.170657 0.177676 0.196628
0.187381 0.177035 0.195529
0.208774 0.177279 0.194827
0.235508 0.178408 0.194247
0.267765 0.180758 0.193912
0.305333 0.183932 0.194095
0.347417 0.188296 0.194766
0.392065 0.193942 0.195621
0.441993 0.200839 0.196933
0.493416 0.207065 0.198947
0.548180 0.211185 0.201297
0.608179 0.212009 0.204135
0.667567 0.212161 0.208225
0.720638 0.214786 0.213840
0.766354 0.221469 0.221653
0.805722 0.232212 0.231785
0.839872 0.246952 0.244511
0.870970 0.264958 0.260624
0.900664 0.285740 0.280735
0.929717 0.308812 0.305760
0.957733 0.334386 0.335973
0.982605 0.361700 0.368750
1.000000 0.390295 0.401373
0.157504 0.194888 0.212833
0.157504 0.194888 0.212833
0.157504 0.194888 0.212833
0.148165 0.193179 0.210544
0.141390 0.188693 0.206058
0.138796 0.185977 0.203525
0.140810 0.183291 0.201389
0.147341 0.181155 0.199649
0.157595 0.179294 0.197971
0.170748 0.178195 0.196597
0.187289 0.177737 0.195468
0.208469 0.178012 0.194675
0.234867 0.179355 0.194217
0.266880 0.181918 0.193759
0.303960 0.185245 0.194034
0.345739 0.189731 0.194522
0.390143 0.195499 0.195407
0.439612 0.202426 0.196750
0.489754 0.208865 0.198642
0.543267 0.213077 0.200809
0.602319 0.214359 0.203677
0.661707 0.214481 0.207523
0.715419 0.216648 0.212985
0.761807 0.222782 0.220493
0.801907 0.233066 0.230289
0.836667 0.247318 0.242832
0.868223 0.264958 0.258549
0.898192 0.285466 0.278477
0.927520 0.308293 0.303197
0.955871 0.333562 0.333410
0.981170 0.360662 0.366186
1.000000 0.389136 0.399054
0.157504 0.194888 0.212833
0.157504 0.194888 0.212833
0.157504 0.194888 0.212833
0.147738 0.192874 0.210391
0.141085 0.188113 0.206119
0.138705 0.185367 0.203555
0.141054 0.183017 0.201511
0.147677 0.181247 0.199619
0.157839 0.179782 0.198032
0.170962 0.178805 0.196536
0.187472 0.178500 0.195407
0.208591 0.179171 0.194583
0.234958 0.180758 0.194095
0.266819 0.183444 0.193637
0.303777 0.186801 0.193942
0.345464 0.191653 0.194491
0.389532 0.197726 0.195254
0.438911 0.204959 0.196567
0.488411 0.211337 0.198337
0.541100 0.215976 0.200412
0.599908 0.217288 0.203250
0.659205 0.217441 0.207034
0.713069 0.219730 0.212406
0.759792 0.225437 0.219730
0.800137 0.235508 0.229496
0.835142 0.249332 0.241825
0.866850 0.266728 0.257603
0.897002 0.286961 0.277256
0.926513 0.309331 0.301946
0.955016 0.334264 0.331945
0.980407 0.361212 0.364965
1.000000 0.389349 0.397925
0.155581 0.185977 0.210452
0.155367 0.185519 0.210300
0.155032 0.185092 0.209934
0.147555 0.184573 0.209293
0.140261 0.184665 0.206668
0.138796 0.183688 0.203799
0.141878 0.182528 0.201633
0.148745 0.181491 0.199680
0.158877 0.180697 0.198062
0.171969 0.180362 0.196506
0.188571 0.180667 0.195346
0.209781 0.181552 0.194369
0.236149 0.183841 0.193729
0.267887 0.186831 0.193454
0.304784 0.190829 0.193576
0.346197 0.196292 0.194064
0.389960 0.202853 0.194888
0.439246 0.210636 0.196048
0.487282 0.217227 0.197787
0.538598 0.221958 0.199893
0.596155 0.223850 0.202487
0.655055 0.224063 0.206180
0.709499 0.226291 0.211368
0.757137 0.231846 0.218631
0.798581 0.241367 0.228367
0.834409 0.255192 0.241001
0.866636 0.272282 0.256992
0.897032 0.292119 0.276799
0.926574 0.314061 0.301732
0.954986 0.338140 0.331548
0.980285 0.364172 0.364385
1.000000 0.391485 0.397070
0.151400 0.179171 0.205936
0.151308 0.179080 0.205753
0.150820 0.178897 0.205661
0.147585 0.178805 0.205417
0.141848 0.178775 0.204929
0.139590 0.180545 0.203372
0.143069 0.182101 0.201846
0.150332 0.182437 0.199802
0.160433 0.182528 0.198001
0.173556 0.182956 0.196384
0.190188 0.183841 0.195163
0.211490 0.185672 0.194003
0.238010 0.188449 0.193301
0.269871 0.192111 0.192935
0.306767 0.197055 0.193088
0.348028 0.203555 0.193484
0.393286 0.211398 0.194278
0.441535 0.219547 0.195499
0.489021 0.226444 0.197116
0.539849 0.231357 0.199100
0.596612 0.233524 0.201633
0.654810 0.234104 0.205264
0.708827 0.236271 0.210330
0.756466 0.241794 0.217624
0.797879 0.251011 0.227390
0.833860 0.264286 0.239902
0.866117 0.280735 0.255894
0.896513 0.299565 0.275761
0.926055 0.320500 0.300511
0.954467 0.343633 0.330449
0.979858 0.368566 0.363134
1.000000 0.394965 0.395850
0.148898 0.176608 0.203067
0.148714 0.176638 0.202976
0.148196 0.176699 0.202884
0.146670 0.176913 0.202792
0.144045 0.177279 0.202487
0.141573 0.177859 0.201968
0.144564 0.181216 0.200626
0.152377 0.183841 0.199344
0.163058 0.185702 0.197818
0.176303 0.186954 0.196139
0.193362 0.188815 0.194705
0.215152 0.191409 0.193454
0.241886 0.195010 0.192752
0.273991 0.199710 0.192386
0.310948 0.206058 0.192447
0.352270 0.213626 0.192782
0.398749 0.222873 0.193423
0.445930 0.231846 0.194430
0.492805 0.238834 0.196109
0.543847 0.243900 0.198001
0.600671 0.246128 0.200687
0.658747 0.247135 0.204288
0.744472 0.255863 0.214481
0.786496 0.263951 0.223484
0.822507 0.274937 0.234958
0.854185 0.288853 0.249271
0.883574 0.304784 0.266850
0.911833 0.322515 0.288457
0.939483 0.342168 0.314855
0.965484 0.363592 0.345129
0.988037 0.386633 0.376776
1.000000 0.411231 0.407324
0.145998 0.179080 0.200443
0.145998 0.179202 0.200320
0.145785 0.179385 0.200320
0.145541 0.179812 0.200198
0.145266 0.180484 0.200046
0.145449 0.181277 0.199557
0.146731 0.182284 0.199039
0.154757 0.186587 0.197696
0.166354 0.190127 0.196536
0.181674 0.193362 0.195193
0.200839 0.196597 0.193668
0.224033 0.200473 0.192538
0.252018 0.205478 0.191806
0.284916 0.211795 0.191531
0.322271 0.219486 0.191562
0.365454 0.229252 0.191775
0.412299 0.239811 0.192264
0.459052 0.248875 0.193454
0.506401 0.255802 0.195010
0.559869 0.260533 0.197116
0.619379 0.262943 0.199954
0.679255 0.264927 0.204288
0.732967 0.269627 0.210941
0.779416 0.277470 0.219913
0.818570 0.288609 0.231815
0.851835 0.302129 0.246494
0.881926 0.317235 0.264378
0.910430 0.333715 0.285954
0.938262 0.351812 0.312383
0.964355 0.371588 0.342687
0.987091 0.392981 0.374395
1.000000 0.416480 0.405066
0.144045 0.185580 0.198093
0.144259 0.185672 0.197971
0.144411 0.185916 0.197940
0.144900 0.186343 0.197910
0.146090 0.187198 0.197726
0.148074 0.188083 0.197391
0.151247 0.189181 0.196933
0.156130 0.190555 0.196292
0.167971 0.195590 0.194980
0.183536 0.200259 0.193790
0.204013 0.205325 0.192599
0.229862 0.211185 0.191409
0.258396 0.217624 0.190677
0.291325 0.225315 0.190280
0.329870 0.235019 0.190158
0.373754 0.246464 0.190249
0.418524 0.257237 0.190677
0.463691 0.266361 0.191623
0.510002 0.273106 0.193240
0.562768 0.277592 0.195346
0.621332 0.280400 0.198123
0.679896 0.282841 0.202335
0.732723 0.287755 0.208774
0.778561 0.295476 0.217685
0.817441 0.305943 0.229496
0.850614 0.318456 0.244114
0.880674 0.332158 0.261784
0.909270 0.347021 0.283391
0.937255 0.363439 0.309850
0.963500 0.381384 0.340124
0.986358 0.401373 0.372137
1.000000 0.423560 0.403204
0.142763 0.195651 0.195712
0.143099 0.195865 0.195682
0.143465 0.196170 0.195529
0.144717 0.196628 0.195468
0.146883 0.197421 0.195254
0.149844 0.198611 0.195010
0.154696 0.199771 0.194705
0.161227 0.201144 0.194217
0.169436 0.202823 0.193790
0.185977 0.209537 0.192813
0.206790 0.216434 0.191836
0.233066 0.224308 0.190829
0.264622 0.233127 0.189700
0.301518 0.243442 0.188693
0.341497 0.255344 0.188327
0.383581 0.267216 0.188235
0.426703 0.277867 0.188602
0.470710 0.286503 0.189548
0.516442 0.292760 0.191012
0.569024 0.297154 0.193088
0.626520 0.300053 0.195895
0.683558 0.303227 0.200137
0.735012 0.308385 0.206516
0.779812 0.316136 0.215579
0.817960 0.326085 0.227451
0.850767 0.337224 0.242008
0.880674 0.349554 0.259831
0.909178 0.362829 0.281590
0.937011 0.377264 0.308019
0.963226 0.393256 0.338445
0.986053 0.411536 0.370428
1.000000 0.432288 0.401526
0.142061 0.209476 0.193637
0.142580 0.209751 0.193606
0.143313 0.209995 0.193576
0.145113 0.210575 0.193484
0.148135 0.211429 0.193362
0.152041 0.212711 0.193271
0.157931 0.214206 0.193027
0.165957 0.215671 0.192813
0.175723 0.217807 0.192630
0.187503 0.220279 0.192325
0.209659 0.229801 0.191684
0.236393 0.239780 0.190677
0.270115 0.251865 0.189548
0.309056 0.265049 0.187991
0.352453 0.278904 0.186038
0.394903 0.291112 0.185489
0.437446 0.301488 0.185824
0.480964 0.309422 0.186954
0.526909 0.315282 0.188327
0.579095 0.319249 0.190463
0.634760 0.322393 0.193210
0.688960 0.325811 0.197604
0.737728 0.331090 0.203830
0.780606 0.338323 0.212741
0.817716 0.347173 0.224521
0.850095 0.357275 0.239109
0.880003 0.368048 0.257053
0.908721 0.379644 0.278996
0.936889 0.392340 0.306035
0.963287 0.406775 0.336919
0.986267 0.423560 0.369451
1.000000 0.443244 0.400855
0.142489 0.227817 0.192660
0.143191 0.228061 0.192752
0.144289 0.228336 0.192691
0.146578 0.229099 0.192569
0.150210 0.230106 0.192508
0.155398 0.231724 0.192264
0.162081 0.233799 0.192111
0.171603 0.235782 0.192050
0.182895 0.238224 0.191958
0.196475 0.241245 0.191836
0.212894 0.245579 0.191684
0.242588 0.259892 0.191104
0.276402 0.273777 0.189700
0.315190 0.288609 0.187930
0.358007 0.303685 0.185946
0.402533 0.316716 0.183871
0.447456 0.326635 0.182589
0.490028 0.333715 0.183627
0.535943 0.339025 0.185061
0.587671 0.342931 0.187045
0.642115 0.346258 0.189944
0.694606 0.350225 0.194400
0.741939 0.355932 0.200961
0.783566 0.362860 0.209995
0.819669 0.370855 0.222080
0.851438 0.379431 0.236820
0.880888 0.388464 0.255070
0.909300 0.398199 0.277317
0.937255 0.408911 0.304387
0.963470 0.421363 0.335210
0.986297 0.436591 0.367803
1.000000 0.454963 0.399481
0.144198 0.252537 0.192447
0.145083 0.252811 0.192386
0.146456 0.253239 0.192447
0.149416 0.254002 0.192294
0.153780 0.255344 0.192172
0.160037 0.257176 0.192050
0.167971 0.259525 0.191836
0.178225 0.262242 0.191714
0.192111 0.265934 0.191714
0.208316 0.270420 0.191592
0.226963 0.275456 0.191409
0.247807 0.280949 0.191348
0.299840 0.313420 0.189883
0.342107 0.331212 0.187411
0.386450 0.346563 0.184909
0.431373 0.358495 0.182864
0.477180 0.366827 0.181399
0.525048 0.372045 0.180087
0.574609 0.375158 0.180667
0.625238 0.377966 0.183108
0.675380 0.380896 0.186984
0.721645 0.384924 0.192630
0.763149 0.389746 0.200473
0.800015 0.395453 0.210849
0.832456 0.401587 0.223972
0.861967 0.408148 0.240208
0.889952 0.414862 0.259495
0.917174 0.422187 0.282689
0.943877 0.430823 0.310430
0.968597 0.441566 0.341222
0.989837 0.455360 0.373083
1.000000 0.472328 0.403540
0.147494 0.288121 0.192447
0.148470 0.288487 0.192508
0.150057 0.288731 0.192447
0.153841 0.289342 0.192386
0.159243 0.290532 0.192111
0.166934 0.293034 0.191958
0.176699 0.296300 0.191714
0.188754 0.300389 0.191409
0.204868 0.304875 0.191226
0.224063 0.310369 0.190982
0.246311 0.316930 0.190707
0.271153 0.324315 0.190463
0.298589 0.332616 0.190127
0.343877 0.355352 0.188388
0.388983 0.372717 0.185458
0.434241 0.385992 0.183047
0.479866 0.394903 0.181430
0.527367 0.400671 0.180148
0.579187 0.404120 0.179019
0.633204 0.406256 0.178012
0.681544 0.409064 0.181979
0.726040 0.412512 0.187808
0.766049 0.416602 0.196017
0.801755 0.421057 0.206851
0.833433 0.425818 0.220340
0.862455 0.430640 0.236698
0.890196 0.435767 0.256352
0.917296 0.441535 0.279911
0.943938 0.448585 0.307774
0.968566 0.458015 0.338903
0.989837 0.470436 0.370977
1.000000 0.486397 0.401953
0.151522 0.329808 0.192355
0.153017 0.330205 0.192264
0.155215 0.330510 0.192172
0.159579 0.331334 0.192050
0.166293 0.332555 0.191836
0.175357 0.334508 0.191653
0.186618 0.337255 0.191287
0.200137 0.340887 0.190890
0.216434 0.345464 0.190311
0.237827 0.350866 0.190066
0.261662 0.357183 0.189700
0.288029 0.364569 0.189242
0.316320 0.372381 0.188785
0.346227 0.379919 0.188113
0.392432 0.400549 0.186587
0.437781 0.414923 0.183932
0.482765 0.424262 0.181949
0.530205 0.430457 0.180575
0.581689 0.434272 0.179538
0.634974 0.436896 0.178775
0.686366 0.438880 0.179019
0.731685 0.441230 0.182650
0.770230 0.444221 0.191318
0.804746 0.447425 0.202792
0.835630 0.450752 0.216861
0.864256 0.454108 0.233768
0.891661 0.457740 0.253849
0.918608 0.462165 0.277867
0.945037 0.468025 0.306157
0.969421 0.476265 0.337621
0.990356 0.487587 0.369970
1.000000 0.502617 0.401190
0.157687 0.376745 0.191592
0.159518 0.377234 0.191592
0.161898 0.377264 0.191409
0.166903 0.377874 0.191318
0.174899 0.378698 0.191073
0.185183 0.379980 0.190707
0.197818 0.382208 0.190402
0.212833 0.385229 0.189853
0.230289 0.389502 0.189151
0.251774 0.394629 0.188632
0.276829 0.400458 0.188205
0.303929 0.407202 0.187808
0.332677 0.414313 0.187289
0.363134 0.421332 0.186740
0.394903 0.427649 0.186191
0.441047 0.444556 0.185397
0.487068 0.455146 0.183444
0.534691 0.461250 0.181796
0.585748 0.465064 0.180789
0.638087 0.467628 0.180575
0.688136 0.469520 0.181277
0.733639 0.471107 0.183413
0.774289 0.472053 0.187442
0.808255 0.473762 0.198367
0.838346 0.475776 0.213321
0.866606 0.478187 0.231052
0.894041 0.480842 0.251926
0.921141 0.484474 0.277165
0.947662 0.489509 0.306462
0.971801 0.497169 0.338872
0.992401 0.508049 0.371710
1.000000 0.522393 0.403265
0.165164 0.424964 0.190707
0.167361 0.425452 0.190646
0.170108 0.425727 0.190524
0.175906 0.426276 0.190402
0.184726 0.427253 0.190188
0.196567 0.428717 0.189670
0.210483 0.430915 0.189364
0.226810 0.433997 0.188754
0.245365 0.437812 0.188174
0.265843 0.442512 0.187228
0.291203 0.447211 0.186923
0.318364 0.452308 0.186618
0.346929 0.457557 0.186313
0.376776 0.462715 0.185977
0.408270 0.467384 0.185702
0.441474 0.471595 0.185428
0.489113 0.484016 0.185733
0.539574 0.491768 0.184787
0.590997 0.495583 0.183505
0.643000 0.498177 0.183566
0.692226 0.500008 0.185000
0.736843 0.501549 0.188052
0.776669 0.502464 0.193057
0.811978 0.502800 0.199924
0.843412 0.502831 0.210544
0.871153 0.504173 0.229313
0.898222 0.505882 0.251255
0.925048 0.508537 0.277256
0.950927 0.512779 0.307683
0.974212 0.519554 0.340002
0.993896 0.529290 0.372808
1.000000 0.542199 0.403876
0.173831 0.471260 0.190372
0.175906 0.471473 0.190280
0.178805 0.471595 0.190311
0.184939 0.472084 0.190249
0.194583 0.472847 0.189944
0.206638 0.474006 0.189548
0.221286 0.475959 0.189181
0.238224 0.478370 0.188571
0.256931 0.481514 0.188022
0.277531 0.485389 0.187228
0.301061 0.489601 0.186740
0.328588 0.493782 0.186709
0.357580 0.498146 0.186862
0.387854 0.502129 0.186862
0.419837 0.505699 0.186893
0.453651 0.508629 0.186862
0.490394 0.510948 0.186893
0.542321 0.519615 0.188174
0.596429 0.524895 0.188540
0.647395 0.527245 0.188449
0.695125 0.529107 0.190036
0.738399 0.530724 0.193668
0.777279 0.531792 0.199283
0.811917 0.532433 0.207156
0.843442 0.532280 0.216800
0.873381 0.531365 0.229343
0.901183 0.531609 0.249180
0.927855 0.533501 0.276188
0.953368 0.536980 0.307225
0.976135 0.542840 0.340337
0.995300 0.551476 0.373388
1.000000 0.563104 0.404791
0.184237 0.515618 0.192020
0.186496 0.516167 0.191928
0.194247 0.531212 0.193179
0.200900 0.531395 0.192966
0.210880 0.531731 0.192813
0.223575 0.532280 0.192386
0.238621 0.533074 0.192020
0.255833 0.534325 0.191501
0.274998 0.536278 0.191104
0.296086 0.538750 0.190524
0.318853 0.541711 0.189944
0.346166 0.544457 0.190036
0.376074 0.546838 0.190463
0.407630 0.549126 0.190860
0.441047 0.550988 0.191409
0.476905 0.552422 0.191775
0.515831 0.553094 0.192172
0.557671 0.553124 0.192538
0.611078 0.558221 0.194949
0.662226 0.561975 0.197604
0.706569 0.563592 0.199283
0.747127 0.565026 0.203067
0.783688 0.566003 0.209537
0.816312 0.566308 0.218021
0.846250 0.565637 0.228855
0.874937 0.564355 0.241642
0.903197 0.562402 0.257053
0.931395 0.560479 0.275822
0.956023 0.562646 0.307042
0.978058 0.567163 0.340551
0.996582 0.574395 0.373816
1.000000 0.584375 0.405219
0.198703 0.560479 0.196445
0.201633 0.562402 0.196780
0.205509 0.564355 0.196841
0.212680 0.566339 0.197055
0.222782 0.567926 0.197055
0.235447 0.569024 0.197086
0.250462 0.569970 0.196628
0.267399 0.571069 0.196353
0.286625 0.572656 0.195987
0.307378 0.574640 0.195590
0.330083 0.577081 0.195193
0.354955 0.579614 0.194705
0.385321 0.581537 0.195560
0.417334 0.583246 0.196231
0.451545 0.584588 0.196963
0.488197 0.585443 0.197543
0.528008 0.585687 0.198306
0.570184 0.585565 0.199008
0.613458 0.585290 0.199680
0.663630 0.590204 0.203616
0.709133 0.594537 0.209171
0.748714 0.596735 0.212894
0.784421 0.598169 0.219059
0.816495 0.598749 0.228550
0.846098 0.598230 0.240391
0.874601 0.596826 0.254459
0.902770 0.594873 0.271183
0.930846 0.592737 0.290623
0.957549 0.591180 0.312810
0.980194 0.592432 0.341039
0.997986 0.598138 0.374578
1.000000 0.606134 0.405890
0.213901 0.597650 0.203067
0.216831 0.599390 0.203403
0.220462 0.601221 0.203769
0.227207 0.602930 0.204196
0.237186 0.604425 0.204288
0.249516 0.605432 0.204105
0.264012 0.606256 0.203952
0.280674 0.607294 0.203677
0.299382 0.608698 0.203403
0.320134 0.610437 0.203128
0.342718 0.612665 0.202853
0.366979 0.615106 0.202518
0.395392 0.617029 0.202823
0.428077 0.618585 0.203891
0.463081 0.619715 0.204837
0.500786 0.620325 0.205783
0.541253 0.620569 0.206699
0.583215 0.620478 0.207645
0.625666 0.620447 0.208927
0.667201 0.621057 0.210575
0.711330 0.626123 0.216220
0.750973 0.630213 0.225528
0.785733 0.631800 0.232486
0.817075 0.632105 0.241825
0.846220 0.631342 0.254459
0.874357 0.629603 0.269596
0.902251 0.627192 0.286992
0.930114 0.624598 0.306859
0.956420 0.622492 0.328771
0.979675 0.621546 0.352270
0.998993 0.622309 0.376379
1.000000 0.627771 0.406287
0.230350 0.635279 0.212314
0.233005 0.636988 0.212985
0.236545 0.638727 0.213352
0.243076 0.640467 0.213901
0.252567 0.641871 0.214054
0.264378 0.642817 0.214054
0.278447 0.643702 0.213870
0.294591 0.644617 0.213596
0.313054 0.645899 0.213443
0.333318 0.647395 0.213169
0.355566 0.649409 0.213077
0.379797 0.651637 0.212924
0.405829 0.653834 0.212589
0.438575 0.655299 0.213718
0.474678 0.656397 0.215030
0.513603 0.657221 0.216403
0.554986 0.657832 0.218204
0.597467 0.658503 0.220066
0.639765 0.659358 0.222568
0.680293 0.660670 0.225528
0.718959 0.662623 0.229496
0.758389 0.667445 0.238773
0.791928 0.669581 0.253788
0.822507 0.669459 0.264958
0.851377 0.668055 0.278233
0.879362 0.665614 0.294347
0.907134 0.662409 0.312474
0.934478 0.659113 0.332219
0.959808 0.656306 0.353307
0.981781 0.654627 0.375158
0.999695 0.654322 0.397192
1.000000 0.655726 0.418647
0.250797 0.681056 0.227573
0.253147 0.681910 0.227756
0.255833 0.682643 0.228092
0.261692 0.683375 0.228244
0.270420 0.684077 0.228397
0.281621 0.684627 0.228214
0.295262 0.685267 0.228183
0.311254 0.686183 0.228214
0.329290 0.687587 0.228244
0.349798 0.689204 0.228428
0.372259 0.691188 0.228702
0.396887 0.693172 0.228702
0.423407 0.695003 0.228977
0.453681 0.696468 0.229404
0.490791 0.696956 0.231357
0.530358 0.697108 0.233433
0.571191 0.697047 0.235813
0.612268 0.696986 0.238651
0.652125 0.697169 0.242069
0.690120 0.697627 0.246006
0.726284 0.698421 0.251041
0.760922 0.699489 0.256687
0.795071 0.701900 0.268528
0.823453 0.700740 0.287114
0.851713 0.698543 0.299870
0.879484 0.695491 0.314733
0.907225 0.691768 0.331334
0.934325 0.688045 0.350561
0.959258 0.684688 0.370336
0.980804 0.682429 0.390875
0.998138 0.681422 0.411078
1.000000 0.682460 0.431586
0.270237 0.719265 0.245151
0.272282 0.719997 0.245609
0.275242 0.720699 0.245975
0.280797 0.721370 0.246189
0.289128 0.721920 0.246525
0.299687 0.722286 0.246403
0.312688 0.722683 0.246403
0.327886 0.723232 0.246525
0.345647 0.724086 0.246677
0.365667 0.725246 0.246921
0.387945 0.726589 0.247532
0.412451 0.727993 0.248173
0.439094 0.729183 0.248692
0.468299 0.730251 0.249271
0.503502 0.730526 0.251194
0.542718 0.730282 0.254246
0.582666 0.729793 0.257603
0.622187 0.729366 0.261631
0.660182 0.729122 0.266270
0.696437 0.729274 0.271733
0.731075 0.729671 0.277684
0.764309 0.730343 0.284642
0.796384 0.731289 0.292363
0.828305 0.732601 0.304997
0.851164 0.726650 0.321080
0.878721 0.723262 0.334783
0.906462 0.719234 0.350072
0.933440 0.715023 0.366796
0.958038 0.711360 0.385412
0.979156 0.708644 0.404456
0.996216 0.707393 0.423804
1.000000 0.708492 0.444129
0.296941 0.757748 0.273381
0.299351 0.758450 0.274113
0.301946 0.758846 0.274601
0.306981 0.759121 0.274937
0.314580 0.759213 0.274907
0.324437 0.759152 0.274632
0.336522 0.759060 0.274479
0.351019 0.758999 0.274266
0.367864 0.758999 0.274174
0.386999 0.759182 0.274479
0.408423 0.759457 0.274907
0.432288 0.759823 0.275273
0.458473 0.760098 0.276005
0.486976 0.760189 0.276707
0.516960 0.759976 0.277104
0.554345 0.758785 0.280125
0.591943 0.757473 0.283452
0.628931 0.756466 0.287541
0.664790 0.755947 0.292332
0.699306 0.755856 0.298192
0.732509 0.756191 0.305119
0.764248 0.756802 0.312261
0.794980 0.757412 0.319707
0.825528 0.757870 0.327276
0.856596 0.757870 0.338659
0.880186 0.752041 0.357427
0.907530 0.747402 0.370825
0.933898 0.742763 0.385565
0.957824 0.738582 0.401434
0.978149 0.735378 0.418982
0.994598 0.734005 0.437659
1.000000 0.735134 0.457832
0.323705 0.786069 0.303197
0.326055 0.786648 0.303929
0.328649 0.787015 0.304417
0.333379 0.787198 0.304814
0.340429 0.787198 0.304784
0.349737 0.787106 0.304784
0.361395 0.787045 0.304631
0.375250 0.786954 0.304753
0.391608 0.786954 0.304967
0.410437 0.787106 0.305516
0.431586 0.787228 0.306218
0.455390 0.787411 0.307225
0.481300 0.787533 0.308415
0.508873 0.787472 0.309361
0.537743 0.787228 0.310399
0.569574 0.786557 0.312261
0.605158 0.785367 0.316014
0.639673 0.784390 0.320409
0.673091 0.783871 0.325292
0.705501 0.783719 0.331029
0.736660 0.783932 0.337469
0.766720 0.784421 0.344335
0.795987 0.785031 0.351293
0.825559 0.785550 0.358190
0.856321 0.785763 0.365301
0.888365 0.785031 0.374975
0.910338 0.777157 0.392401
0.935973 0.772122 0.405798
0.958801 0.767453 0.420233
0.978180 0.764034 0.436316
0.993713 0.762539 0.454536
1.000000 0.763760 0.474586
0.356085 0.812802 0.336736
0.358282 0.813169 0.337377
0.360418 0.813291 0.337560
0.364660 0.813291 0.337621
0.370916 0.813107 0.337469
0.379553 0.812863 0.337285
0.390326 0.812619 0.337163
0.403418 0.812375 0.337102
0.419104 0.812192 0.337346
0.437324 0.812192 0.337957
0.457801 0.812161 0.338628
0.480781 0.812253 0.339849
0.505425 0.812253 0.340917
0.531518 0.812161 0.342321
0.558282 0.811887 0.343328
0.585626 0.811551 0.344579
0.616815 0.810666 0.347417
0.648737 0.809812 0.351415
0.679835 0.809323 0.355932
0.710048 0.809293 0.361028
0.739376 0.809598 0.366918
0.767849 0.810117 0.373114
0.795834 0.810788 0.379461
0.824308 0.811368 0.385840
0.853971 0.811673 0.392126
0.885832 0.811460 0.398535
0.918334 0.810330 0.407019
0.937041 0.800961 0.422705
0.958434 0.795682 0.436744
0.977081 0.791989 0.452277
0.991913 0.790219 0.469734
1.000000 0.791135 0.489265
0.390875 0.836698 0.368078
0.392645 0.836881 0.368353
0.394659 0.836973 0.368536
0.398718 0.837003 0.368566
0.405127 0.837003 0.368841
0.413703 0.837034 0.369116
0.424994 0.837217 0.369848
0.438575 0.837552 0.370794
0.454932 0.838010 0.372168
0.473487 0.838560 0.373907
0.494118 0.839170 0.375647
0.516258 0.839719 0.377722
0.539849 0.840208 0.379675
0.563928 0.840513 0.381506
0.588312 0.840635 0.383124
0.612512 0.840604 0.384466
0.637079 0.840543 0.386145
0.665766 0.839933 0.389593
0.694057 0.839597 0.393774
0.721584 0.839597 0.398291
0.748531 0.839841 0.403479
0.774990 0.840269 0.408850
0.801541 0.840635 0.414435
0.828885 0.840879 0.420294
0.857572 0.840604 0.426123
0.888212 0.839872 0.432013
0.919829 0.838865 0.438209
0.949218 0.837522 0.446174
0.963165 0.827817 0.461189
0.978790 0.822904 0.476570
0.991821 0.820645 0.493782
1.000000 0.820981 0.513207
0.439155 0.863310 0.403449
0.440681 0.863401 0.403662
0.442420 0.863401 0.403693
0.445869 0.863249 0.403540
0.451484 0.863096 0.403540
0.458991 0.862882 0.403449
0.468757 0.862760 0.403754
0.480629 0.862669 0.404181
0.494697 0.862669 0.404822
0.510735 0.862699 0.405615
0.528466 0.862760 0.406653
0.547539 0.862852 0.407874
0.567712 0.862943 0.409125
0.588525 0.862943 0.410590
0.609735 0.862943 0.411872
0.631067 0.862943 0.413275
