其他预设/【232】美食博客调色预设124款/1.3D LUT预设（视频调色-PR-AE-PS-FCPX-达芬奇用）/Food Art #21.cube
# Created by Adobe Lightroom plugin Export LUT (1.17.0)
# www.johnrellis.com/lightroom/exportlut.htm
# Preset: Food Art #21
# Color profile: /Library/Application Support/Adobe/Color/Profiles/Recommended/AdobeRGB1998.icc
LUT_3D_SIZE 8
DOMAIN_MIN 0.000000 0.000000 0.000000
DOMAIN_MAX 0.903226 0.903226 0.903226
0.000000 0.000000 0.000000
0.062715 0.000000 0.000000
0.188144 0.000000 0.000000
0.373877 0.046571 0.000000
0.610010 0.000000 0.000000
0.821530 0.000000 0.000000
0.968200 0.000000 0.000000
1.000000 0.000000 0.000000
0.000000 0.080934 0.000000
0.061982 0.087343 0.000000
0.188510 0.113527 0.000000
0.373693 0.149050 0.000000
0.608667 0.151980 0.000000
0.817441 0.115663 0.000000
0.965179 0.062043 0.000000
1.000000 0.045869 0.000000
0.000000 0.232944 0.000000
0.066102 0.236637 0.000000
0.198032 0.248295 0.000000
0.386206 0.286809 0.000000
0.622004 0.307225 0.000000
0.822965 0.296178 0.000000
0.969146 0.276219 0.000000
1.000000 0.262181 0.000000
0.000000 0.421973 0.000000
0.007568 0.423865 0.000000
0.237888 0.432532 0.000000
0.418799 0.445991 0.000000
0.646754 0.468482 0.000000
0.833402 0.458473 0.000000
0.970153 0.436591 0.000000
1.000000 0.414893 0.000000
0.000000 0.621942 0.000000
0.000000 0.622492 0.000000
0.267063 0.624933 0.000000
0.462257 0.628016 0.000000
0.658259 0.626520 0.000000
0.837491 0.615320 0.000000
0.968536 0.589166 0.000000
1.000000 0.560571 0.000000
0.000000 0.784695 0.000000
0.000000 0.786526 0.000000
0.273747 0.785855 0.000000
0.469673 0.783658 0.000000
0.658564 0.778378 0.000000
0.837430 0.771786 0.000000
0.969207 0.743893 0.000000
1.000000 0.705226 0.000000
0.000000 0.915038 0.000000
0.000000 0.914977 0.000000
0.274083 0.912932 0.000000
0.460243 0.909270 0.000000
0.637690 0.902831 0.000000
0.805356 0.895048 0.000000
0.954467 0.887572 0.000000
1.000000 0.849638 0.000000
0.000000 1.000000 0.000000
0.131838 1.000000 0.000000
0.297490 1.000000 0.000000
0.458717 1.000000 0.000000
0.615808 0.998535 0.000000
0.768582 0.990326 0.000000
0.907469 0.981262 0.000000
1.000000 0.972381 0.000000
0.000000 0.000000 0.068849
0.061006 0.000000 0.071809
0.189242 0.000000 0.076234
0.376135 0.000000 0.055665
0.610407 0.000000 0.000000
0.816892 0.000000 0.000000
0.964630 0.000000 0.000000
1.000000 0.000000 0.000000
0.000000 0.080140 0.071473
0.062348 0.087861 0.072297
0.191409 0.108736 0.069551
0.377874 0.128145 0.039673
0.611994 0.116976 0.000000
0.815610 0.051026 0.000000
0.962585 0.000000 0.000000
1.000000 0.000000 0.000000
0.000000 0.233555 0.070222
0.033265 0.238376 0.053101
0.199863 0.248997 0.044312
0.388159 0.280674 0.000000
0.620600 0.295842 0.000000
0.819547 0.283330 0.000000
0.964477 0.263493 0.000000
1.000000 0.252537 0.000000
0.000000 0.421912 0.000000
0.000000 0.424384 0.000000
0.231205 0.432380 0.000000
0.414466 0.441260 0.000000
0.638087 0.459480 0.000000
0.825772 0.449714 0.000000
0.965057 0.429145 0.000000
1.000000 0.409766 0.000000
0.000000 0.622065 0.000000
0.000000 0.622339 0.000000
0.255406 0.623743 0.000000
0.456123 0.624720 0.000000
0.653742 0.622095 0.000000
0.834195 0.610651 0.000000
0.966186 0.585290 0.000000
1.000000 0.557977 0.000000
0.000000 0.783230 0.000000
0.000000 0.783322 0.000000
0.261326 0.782895 0.000000
0.463661 0.781247 0.000000
0.655848 0.776608 0.000000
0.837064 0.770596 0.000000
0.968353 0.742031 0.000000
1.000000 0.703822 0.000000
0.000000 0.912840 0.000000
0.000000 0.912078 0.000000
0.265995 0.910460 0.000000
0.456428 0.907439 0.000000
0.635950 0.901549 0.000000
0.804227 0.893675 0.000000
0.953246 0.885801 0.000000
1.000000 0.847837 0.000000
0.000000 1.000000 0.000000
0.133852 1.000000 0.000000
0.298833 1.000000 0.000000
0.459998 1.000000 0.000000
0.618982 0.999145 0.000000
0.770382 0.990387 0.000000
0.908080 0.980835 0.000000
1.000000 0.971832 0.000000
0.000000 0.000000 0.181094
0.055116 0.000000 0.186282
0.191379 0.000000 0.201266
0.386511 0.000000 0.217685
0.624720 0.000000 0.202914
0.826230 0.000000 0.180209
0.969482 0.000000 0.172763
1.000000 0.000000 0.175570
0.000000 0.086580 0.184573
0.026642 0.084199 0.190097
0.196506 0.088106 0.201602
0.389624 0.000000 0.208164
0.626215 0.000000 0.186038
0.824643 0.000000 0.177768
0.967895 0.000000 0.170169
1.000000 0.000000 0.174014
0.000000 0.231296 0.195621
0.000000 0.238407 0.197971
0.202487 0.249363 0.195529
0.400122 0.261631 0.193912
0.634180 0.260197 0.182956
0.827634 0.243931 0.171115
0.967956 0.231235 0.165286
1.000000 0.235355 0.172396
0.000000 0.426246 0.208316
0.000000 0.430549 0.199252
0.208621 0.438392 0.179782
0.423957 0.444282 0.175601
0.648493 0.450752 0.168185
0.832700 0.437140 0.159823
0.968505 0.418402 0.158175
1.000000 0.405005 0.171206
0.000000 0.624414 0.182040
0.000000 0.626551 0.164004
0.217411 0.629023 0.148013
0.451240 0.629297 0.142061
0.662776 0.625055 0.130709
0.839536 0.606561 0.125582
0.967803 0.581537 0.146883
1.000000 0.557397 0.170321
0.000000 0.785733 0.121798
0.000000 0.786496 0.101045
0.230838 0.785306 0.111269
0.454627 0.782437 0.105196
0.654810 0.776669 0.094606
0.839261 0.769711 0.082185
0.968688 0.739315 0.109163
1.000000 0.704585 0.167544
0.000000 0.914611 0.091157
0.000000 0.913878 0.094697
0.258701 0.911620 0.095796
0.455299 0.907744 0.093172
0.637354 0.901335 0.090211
0.806668 0.893523 0.089815
0.955688 0.886381 0.097719
1.000000 0.848631 0.156008
0.111818 1.000000 0.141695
0.174899 1.000000 0.137026
0.317998 1.000000 0.138766
0.474067 1.000000 0.145266
0.628992 0.997955 0.150942
0.777493 0.989471 0.160830
0.912169 0.980285 0.176028
1.000000 0.971832 0.197421
0.000000 0.000000 0.298131
0.070069 0.000000 0.303441
0.223331 0.000000 0.319432
0.400763 0.000000 0.331884
0.635828 0.000000 0.342596
0.830289 0.000000 0.327947
0.970001 0.000000 0.311620
1.000000 0.000000 0.314183
0.000000 0.076692 0.302831
0.004608 0.075349 0.307042
0.220371 0.063600 0.321080
0.406470 0.000000 0.332189
0.638880 0.000000 0.338689
0.830533 0.000000 0.323461
0.969207 0.000000 0.310124
1.000000 0.000000 0.312230
0.000000 0.234226 0.301946
0.000000 0.230625 0.304204
0.198489 0.232975 0.318853
0.419654 0.239017 0.329259
0.647517 0.213870 0.325719
0.835233 0.197757 0.314305
0.971221 0.226719 0.312016
1.000000 0.258732 0.311437
0.000000 0.416632 0.318669
0.000000 0.422034 0.320287
0.197360 0.436439 0.322881
0.435767 0.440436 0.317571
0.656184 0.437476 0.315007
0.836942 0.427131 0.309819
0.969329 0.418982 0.307561
1.000000 0.419898 0.310857
0.000000 0.627466 0.325811
0.000000 0.628626 0.321965
0.188083 0.631952 0.309026
0.450446 0.631464 0.300206
0.675441 0.625391 0.295567
0.844694 0.603906 0.299290
0.969238 0.584985 0.304936
1.000000 0.569482 0.312261
0.000000 0.787747 0.299443
0.000000 0.789456 0.296269
0.218540 0.789059 0.286656
0.460945 0.785245 0.285130
0.664576 0.778561 0.282292
0.847410 0.770535 0.279545
0.970123 0.739467 0.288029
1.000000 0.713039 0.315343
0.000000 0.914214 0.275700
0.000000 0.914000 0.275669
0.293950 0.911986 0.280735
0.478004 0.908141 0.281224
0.653620 0.901610 0.281224
0.816739 0.893584 0.282017
0.959503 0.886503 0.285649
1.000000 0.850523 0.308141
0.218479 1.000000 0.286870
0.273320 1.000000 0.291966
0.412116 1.000000 0.313024
0.516320 1.000000 0.301946
0.657038 0.995117 0.305486
0.794675 0.987121 0.311772
0.920439 0.978790 0.321599
1.000000 0.971527 0.335973
0.000000 0.000000 0.406622
0.117922 0.000000 0.411109
0.261295 0.000000 0.426123
0.449134 0.000000 0.449592
0.652796 0.000000 0.457404
0.838956 0.000000 0.448035
0.972900 0.000000 0.427863
1.000000 0.000000 0.416938
0.000000 0.061585 0.409094
0.085359 0.050263 0.413489
0.252689 0.000000 0.427558
0.449958 0.000000 0.451331
0.655756 0.000000 0.457008
0.840055 0.000000 0.446113
0.972808 0.000000 0.427161
1.000000 0.103243 0.418982
0.000000 0.222690 0.405524
0.000000 0.214206 0.411841
0.213687 0.215396 0.426642
0.445808 0.220066 0.451453
0.663508 0.192569 0.453773
0.841032 0.182559 0.439460
0.970916 0.228946 0.427558
1.000000 0.316167 0.429114
0.000000 0.402808 0.411597
0.000000 0.402045 0.413184
0.171481 0.399512 0.418311
0.432074 0.415747 0.441016
0.672847 0.425879 0.446967
0.842344 0.432105 0.439124
0.967102 0.454108 0.441505
1.000000 0.483284 0.449622
0.000000 0.604822 0.435828
0.000000 0.608392 0.437171
0.210727 0.617578 0.440345
0.464332 0.625940 0.443519
0.683680 0.617670 0.439094
0.844205 0.607691 0.441779
0.966125 0.600702 0.442664
1.000000 0.598657 0.446235
0.000000 0.785153 0.432563
0.000000 0.785336 0.431189
0.254185 0.784207 0.427008
0.484901 0.779324 0.427710
0.677577 0.772732 0.428443
0.852842 0.767147 0.429511
0.967071 0.745174 0.441749
1.000000 0.730556 0.456092
0.000000 0.912352 0.409003
0.124453 0.911650 0.409186
0.330755 0.908843 0.412818
0.527581 0.902525 0.428046
0.680049 0.897276 0.429603
0.829679 0.890593 0.431861
0.961547 0.884947 0.435554
1.000000 0.853910 0.448615
0.269444 1.000000 0.404425
0.314702 1.000000 0.407965
0.438087 1.000000 0.422156
0.591424 0.994415 0.451484
0.695186 0.990112 0.447547
0.816403 0.983185 0.452705
0.929137 0.976257 0.460700
1.000000 0.970459 0.471717
0.098116 0.000000 0.535271
0.160586 0.000000 0.539361
0.292943 0.000000 0.552636
0.467414 0.000000 0.577874
0.667414 0.000000 0.599207
0.847929 0.000000 0.593042
0.974853 0.000000 0.561334
1.000000 0.000000 0.534874
0.000000 0.000000 0.534997
0.130495 0.000000 0.538750
0.280369 0.000000 0.552148
0.461555 0.000000 0.576654
0.666651 0.000000 0.598718
0.847929 0.000000 0.591638
0.974304 0.000000 0.560479
1.000000 0.119844 0.536156
0.000000 0.196170 0.535393
0.000000 0.196811 0.538994
0.232883 0.196994 0.552087
0.445350 0.192813 0.575860
0.669062 0.180270 0.600946
0.850736 0.162478 0.589807
0.973236 0.226993 0.561089
1.000000 0.321782 0.544427
0.000000 0.380041 0.519585
0.000000 0.375097 0.520500
0.144930 0.371252 0.539879
0.419745 0.385534 0.568688
0.677211 0.416602 0.603479
0.853727 0.423041 0.589288
0.970123 0.452461 0.570336
1.000000 0.495308 0.564599
0.000000 0.568597 0.544793
0.000000 0.568383 0.545830
0.160708 0.567132 0.549096
0.405615 0.565270 0.553796
0.665095 0.591699 0.583276
0.850492 0.611749 0.589166
0.962707 0.624842 0.587396
1.000000 0.648157 0.596155
0.000000 0.768246 0.577478
0.000000 0.769955 0.578790
0.257725 0.772091 0.580529
0.492714 0.771908 0.583520
0.699245 0.769955 0.591669
0.853391 0.763272 0.593652
0.960021 0.758083 0.600855
1.000000 0.755520 0.605493
0.128237 0.911162 0.562249
0.212192 0.910613 0.562799
0.376715 0.907256 0.565576
0.553185 0.900725 0.573327
0.717342 0.892302 0.588342
0.844236 0.887480 0.594324
0.960540 0.884367 0.597406
1.000000 0.865049 0.611109
0.326268 1.000000 0.540581
0.363928 1.000000 0.542992
0.470893 0.998505 0.552422
0.608240 0.991577 0.571160
0.744350 0.982818 0.599756
0.839963 0.978332 0.604547
0.936736 0.973449 0.610803
1.000000 0.969665 0.618891
0.101869 0.000000 0.692439
0.167483 0.000000 0.695583
0.301183 0.000000 0.705043
0.462867 0.000000 0.722194
0.647059 0.000000 0.745785
0.828885 0.000000 0.756588
0.971923 0.000000 0.732662
1.000000 0.000000 0.678401
0.000000 0.000000 0.691279
0.134371 0.000000 0.694209
0.286442 0.000000 0.703761
0.455390 0.000000 0.720455
0.643885 0.000000 0.744076
0.827909 0.000000 0.755459
0.970764 0.000000 0.730892
1.000000 0.118532 0.678218
0.000000 0.180148 0.690089
0.000000 0.178958 0.692805
0.231968 0.174166 0.701961
0.432837 0.164370 0.718746
0.636927 0.160372 0.742306
0.828885 0.165805 0.756466
0.969970 0.210849 0.730953
1.000000 0.319646 0.684108
0.000000 0.355840 0.678798
0.000000 0.350561 0.682033
0.066163 0.340795 0.693965
0.396307 0.353582 0.711788
0.629114 0.377935 0.736660
0.832395 0.412757 0.757717
0.966796 0.438331 0.732937
1.000000 0.489418 0.696559
0.000000 0.532433 0.677485
0.000000 0.529381 0.677302
0.000000 0.518425 0.677089
0.338323 0.512169 0.688746
0.613458 0.544335 0.720058
0.835904 0.598260 0.756252
0.960143 0.613611 0.736843
1.000000 0.643671 0.717403
0.000000 0.714290 0.704860
0.000000 0.713680 0.705104
0.142397 0.711574 0.705715
0.397589 0.707515 0.706203
0.603998 0.701747 0.705348
0.823667 0.735073 0.737881
0.953918 0.763607 0.748318
1.000000 0.779049 0.748501
0.000000 0.899443 0.737301
0.098207 0.899535 0.737972
0.325872 0.898833 0.739712
0.518303 0.893828 0.739956
0.699245 0.886381 0.742336
0.849241 0.883268 0.753811
0.950622 0.881285 0.760861
1.000000 0.878691 0.768490
0.366674 0.999969 0.701015
0.400214 0.998901 0.702419
0.497108 0.995209 0.707820
0.623590 0.988647 0.717861
0.750881 0.980529 0.733700
0.861662 0.973144 0.757046
0.940276 0.970275 0.768551
1.000000 0.968963 0.774502
0.000000 0.000000 0.869749
0.093233 0.000000 0.871214
0.270909 0.000000 0.875486
0.435004 0.000000 0.883665
0.605676 0.000000 0.894957
0.778775 0.000000 0.908782
0.932555 0.000000 0.911009
1.000000 0.000000 0.867033
0.000000 0.000000 0.869017
0.000000 0.000000 0.870512
0.254246 0.000000 0.874907
0.427375 0.000000 0.882902
0.602380 0.000000 0.894194
0.777829 0.000000 0.907988
0.932067 0.000000 0.910399
1.000000 0.125551 0.866667
0.000000 0.162081 0.867613
0.000000 0.160159 0.868956
0.187564 0.152590 0.873075
0.401923 0.141756 0.881743
0.592767 0.139437 0.892882
0.776150 0.186679 0.906340
0.931212 0.230930 0.909941
1.000000 0.313756 0.867338
0.000000 0.317967 0.863371
0.000000 0.318181 0.864927
0.000000 0.321965 0.869383
0.359686 0.330571 0.877745
0.580865 0.349493 0.889311
0.776730 0.394293 0.903258
0.930571 0.435920 0.909483
1.000000 0.479988 0.870451
0.000000 0.495644 0.851835
0.000000 0.492683 0.853483
0.000000 0.483711 0.858549
0.274998 0.479133 0.868132
0.563348 0.508659 0.880583
0.776425 0.554986 0.896330
0.929686 0.605402 0.908476
1.000000 0.635370 0.876738
0.000000 0.669825 0.865202
0.000000 0.667903 0.864866
0.000000 0.660975 0.863828
0.256565 0.648096 0.861662
0.513268 0.642634 0.863188
0.768673 0.690913 0.884154
0.930571 0.754482 0.909483
1.000000 0.772854 0.887266
0.000000 0.839200 0.883360
0.000000 0.838590 0.883238
0.172244 0.836484 0.882750
0.406744 0.833005 0.881865
0.597375 0.828733 0.879911
0.760861 0.824155 0.876036
0.918486 0.855009 0.895384
1.000000 0.886656 0.901457
0.243870 0.998535 0.901030
0.288914 0.997803 0.901061
0.407599 0.995300 0.901335
0.557275 0.990387 0.902159
0.704677 0.983307 0.903136
0.834501 0.973236 0.901610
0.935241 0.967529 0.908354
0.993439 0.967895 0.921508
