其他预设/【232】美食博客调色预设124款/1.3D LUT预设（视频调色-PR-AE-PS-FCPX-达芬奇用）/Food Art #39.cube
# Created by Adobe Lightroom plugin Export LUT (1.17.0)
# www.johnrellis.com/lightroom/exportlut.htm
# Preset: Food Art #39
# Color profile: /Library/Application Support/Adobe/Color/Profiles/Recommended/AdobeRGB1998.icc
LUT_3D_SIZE 5
DOMAIN_MIN 0.000000 0.000000 0.000000
DOMAIN_MAX 0.903226 0.903226 0.903226
0.155550 0.143252 0.228092
0.290806 0.149447 0.233951
0.481086 0.195651 0.256779
0.689601 0.279179 0.292393
0.899779 0.401709 0.362066
0.205722 0.269383 0.241703
0.313359 0.274174 0.248295
0.490303 0.291051 0.268559
0.694514 0.352392 0.300969
0.902220 0.457740 0.375128
0.320745 0.463722 0.281498
0.379583 0.468299 0.285588
0.531395 0.489998 0.300298
0.713832 0.529931 0.330755
0.905150 0.604547 0.421790
0.433722 0.703944 0.339391
0.475349 0.707149 0.344366
0.591730 0.717830 0.363012
0.743557 0.736446 0.401495
0.912291 0.779782 0.519341
0.606256 0.914672 0.525444
0.629511 0.915648 0.533684
0.701350 0.918456 0.560845
0.810056 0.926818 0.616083
0.930724 0.938170 0.691676
0.169680 0.143526 0.280583
0.295842 0.167941 0.284825
0.479286 0.234287 0.304570
0.684260 0.304387 0.338170
0.894499 0.423133 0.408362
0.234501 0.266972 0.289189
0.328191 0.280278 0.296910
0.490425 0.309789 0.313848
0.690211 0.366827 0.344884
0.896056 0.474159 0.420356
0.335760 0.461769 0.318761
0.394202 0.466651 0.325566
0.530663 0.486610 0.338659
0.710109 0.531884 0.371832
0.901335 0.615045 0.467323
0.444312 0.702144 0.379187
0.486793 0.704982 0.386877
0.597162 0.715999 0.405859
0.743008 0.735164 0.444007
0.909667 0.783200 0.558526
0.616663 0.912779 0.562432
0.638514 0.913848 0.569787
0.708827 0.918456 0.597498
0.812863 0.926726 0.646662
0.930571 0.938445 0.715785
0.233280 0.171664 0.391058
0.323980 0.195682 0.393469
0.491768 0.243870 0.405280
0.689937 0.316655 0.448035
0.891478 0.455299 0.527794
0.298100 0.286198 0.396063
0.359533 0.295506 0.399542
0.503777 0.320317 0.414099
0.694636 0.382483 0.457130
0.891417 0.507561 0.542473
0.360815 0.465675 0.423407
0.412451 0.472023 0.428656
0.553246 0.507103 0.458106
0.712978 0.548730 0.493751
0.894987 0.637263 0.585779
0.456519 0.700618 0.490333
0.498695 0.702541 0.497566
0.610712 0.715206 0.525628
0.743709 0.736507 0.560723
0.904967 0.790372 0.657771
0.620294 0.911009 0.645624
0.645808 0.911742 0.656306
0.716030 0.915831 0.683101
0.814420 0.924956 0.721187
0.928649 0.937835 0.774777
0.302434 0.214847 0.597009
0.371374 0.229831 0.600000
0.524773 0.270054 0.611627
0.695521 0.332036 0.633448
0.890227 0.473335 0.700069
0.341802 0.314275 0.601587
0.396002 0.320836 0.604883
0.534051 0.346319 0.617121
0.698848 0.395758 0.639216
0.889433 0.521355 0.707698
0.395392 0.495399 0.626093
0.442298 0.501396 0.628992
0.564630 0.523308 0.641077
0.712642 0.556573 0.662623
0.891234 0.644556 0.733761
0.473945 0.705592 0.673274
0.511498 0.708034 0.676020
0.613123 0.719875 0.689357
0.750790 0.750820 0.726619
0.902159 0.794095 0.781949
0.623499 0.910521 0.777584
0.646479 0.911406 0.782315
0.713863 0.915892 0.796933
0.812375 0.925200 0.821256
0.928069 0.938903 0.856962
0.333837 0.272587 0.882017
0.392432 0.285222 0.882933
0.536675 0.328710 0.886717
0.707637 0.404944 0.893462
0.884031 0.504387 0.903075
0.361212 0.355779 0.882170
0.412757 0.364752 0.883116
0.547509 0.399359 0.887022
0.712795 0.463935 0.893400
0.884184 0.547478 0.903685
0.431373 0.540734 0.887144
0.471290 0.546624 0.886809
0.582849 0.568566 0.889921
0.729305 0.607416 0.896727
0.888304 0.659388 0.909178
0.532647 0.743832 0.903868
0.560266 0.746487 0.903685
0.639307 0.753567 0.904387
0.757321 0.768643 0.909392
0.902312 0.801877 0.924834
0.647639 0.917632 0.928740
0.665431 0.918334 0.929229
0.723995 0.921691 0.932006
0.815854 0.928496 0.938231
0.933532 0.943999 0.953338
