其他预设/【232】美食博客调色预设124款/1.3D LUT预设（视频调色-PR-AE-PS-FCPX-达芬奇用）/Food Art #29.cube
# Created by Adobe Lightroom plugin Export LUT (1.17.0)
# www.johnrellis.com/lightroom/exportlut.htm
# Preset: Food Art #29
# Color profile: /Library/Application Support/Adobe/Color/Profiles/Recommended/AdobeRGB1998.icc
LUT_3D_SIZE 32
0.098024 0.075105 0.025086
0.098024 0.075105 0.025086
0.106844 0.073701 0.024384
0.137179 0.065553 0.022889
0.172549 0.057282 0.020752
0.206760 0.052857 0.015900
0.241611 0.047242 0.011261
0.276799 0.042847 0.003113
0.313237 0.037751 0.000000
0.350469 0.030610 0.000000
0.388281 0.020813 0.000000
0.426123 0.014435 0.000000
0.464210 0.008789 0.000000
0.502464 0.005982 0.000000
0.540551 0.011017 0.000000
0.578637 0.016938 0.000000
0.616571 0.030243 0.000000
0.654292 0.047547 0.000000
0.691707 0.065126 0.000000
0.733761 0.077058 0.000000
0.775540 0.092378 0.000000
0.814420 0.107637 0.000000
0.850675 0.123781 0.000000
0.884428 0.141085 0.000000
0.915679 0.158236 0.034516
0.944701 0.176638 0.069520
0.971710 0.196078 0.091188
0.996887 0.216434 0.113191
1.000000 0.238224 0.135348
1.000000 0.261997 0.159518
1.000000 0.287877 0.185824
1.000000 0.316625 0.215213
0.098024 0.075105 0.025086
0.097963 0.075502 0.024994
0.108125 0.074495 0.023987
0.138827 0.074617 0.021546
0.173861 0.072908 0.019318
0.207797 0.071382 0.014374
0.242100 0.068666 0.008820
0.277195 0.067048 0.001770
0.313512 0.064363 0.000000
0.350378 0.061952 0.000000
0.387854 0.057618 0.000000
0.425605 0.054078 0.000000
0.463569 0.050477 0.000000
0.501701 0.048157 0.000000
0.539666 0.050965 0.000000
0.577600 0.056275 0.000000
0.615351 0.062928 0.000000
0.653071 0.070924 0.000000
0.690364 0.079347 0.000000
0.732174 0.089845 0.000000
0.773404 0.102083 0.000000
0.812131 0.115663 0.000000
0.848356 0.130678 0.000000
0.882292 0.146609 0.000000
0.913725 0.162997 0.031495
0.942901 0.180575 0.068055
0.970184 0.199069 0.089357
0.995575 0.219150 0.112093
1.000000 0.240635 0.134096
1.000000 0.263828 0.158511
1.000000 0.289220 0.185000
1.000000 0.317540 0.214145
0.098604 0.085908 0.023041
0.099001 0.087709 0.022461
0.111269 0.088319 0.021851
0.141390 0.090425 0.018677
0.175509 0.089235 0.016510
0.208988 0.088075 0.011597
0.243015 0.085725 0.006104
0.277989 0.083833 0.000000
0.313878 0.082368 0.000000
0.350683 0.079957 0.000000
0.387976 0.077577 0.000000
0.425666 0.076234 0.000000
0.463355 0.075074 0.000000
0.501335 0.073945 0.000000
0.539391 0.076905 0.000000
0.577234 0.078218 0.000000
0.614923 0.082429 0.000000
0.652461 0.088472 0.000000
0.689845 0.094972 0.000000
0.731411 0.104097 0.000000
0.772488 0.114656 0.000000
0.811215 0.126955 0.000000
0.847318 0.140627 0.000000
0.881224 0.154818 0.000000
0.912779 0.170596 0.030091
0.941985 0.186984 0.067659
0.969329 0.204746 0.089052
0.994812 0.223972 0.111696
1.000000 0.244663 0.134310
1.000000 0.267491 0.158236
1.000000 0.292210 0.184421
1.000000 0.320073 0.213901
0.099489 0.116701 0.015900
0.105135 0.117647 0.014801
0.119539 0.118013 0.014893
0.147097 0.118379 0.012360
0.179690 0.117342 0.009247
0.212467 0.115389 0.005859
0.245823 0.113527 0.000000
0.280278 0.111971 0.000000
0.315648 0.110384 0.000000
0.352056 0.108797 0.000000
0.389166 0.107454 0.000000
0.426398 0.106050 0.000000
0.463966 0.106355 0.000000
0.501701 0.106569 0.000000
0.539391 0.107424 0.000000
0.577203 0.109529 0.000000
0.614801 0.112520 0.000000
0.652094 0.116823 0.000000
0.689876 0.122133 0.000000
0.730587 0.130007 0.000000
0.771176 0.138064 0.000000
0.809415 0.147982 0.000000
0.845670 0.159487 0.000000
0.879850 0.172030 0.000000
0.911742 0.186160 0.031312
0.941375 0.201083 0.068238
0.968994 0.217441 0.091005
0.994629 0.235691 0.112886
1.000000 0.255039 0.135103
1.000000 0.276524 0.159548
1.000000 0.300237 0.185550
1.000000 0.326940 0.214908
0.102419 0.149172 0.005432
0.113527 0.149233 0.005066
0.127291 0.149447 0.004028
0.152346 0.149538 0.001770
0.184421 0.149599 0.000153
0.217075 0.147951 0.000000
0.249729 0.145724 0.000000
0.283360 0.143862 0.000000
0.318273 0.142153 0.000000
0.354131 0.141299 0.000000
0.390478 0.140261 0.000000
0.427497 0.140169 0.000000
0.464790 0.140139 0.000000
0.502281 0.140963 0.000000
0.539940 0.142061 0.000000
0.577539 0.143893 0.000000
0.615167 0.146670 0.000000
0.652430 0.149996 0.000000
0.691005 0.154421 0.000000
0.731197 0.160891 0.000000
0.771054 0.167666 0.000000
0.809110 0.175967 0.000000
0.845090 0.185336 0.000000
0.879210 0.196170 0.000000
0.911070 0.208316 0.034791
0.940795 0.221317 0.069886
0.968414 0.235874 0.092500
0.994018 0.252110 0.114534
1.000000 0.270024 0.136965
1.000000 0.289891 0.160983
1.000000 0.312139 0.187137
1.000000 0.337407 0.216373
0.113497 0.180789 0.000000
0.123171 0.180850 0.000000
0.135195 0.180972 0.000000
0.158358 0.181216 0.000000
0.188724 0.181247 0.000000
0.222354 0.181643 0.000000
0.255619 0.180209 0.000000
0.288151 0.177890 0.000000
0.322332 0.176364 0.000000
0.357549 0.175235 0.000000
0.393591 0.174929 0.000000
0.430060 0.174594 0.000000
0.466957 0.175021 0.000000
0.504173 0.175967 0.000000
0.541619 0.177127 0.000000
0.578943 0.178775 0.000000
0.616510 0.181003 0.000000
0.653742 0.184451 0.000000
0.692836 0.189029 0.000000
0.732845 0.194095 0.000000
0.772366 0.200534 0.000000
0.810239 0.207279 0.000000
0.860044 0.222660 0.000000
0.892943 0.232151 0.023529
0.923278 0.242588 0.063447
0.951354 0.254124 0.084504
0.977417 0.267002 0.105653
1.000000 0.281010 0.126528
1.000000 0.297154 0.148775
1.000000 0.315282 0.172824
1.000000 0.335882 0.198825
1.000000 0.359503 0.227848
0.125185 0.214969 0.000000
0.134310 0.214908 0.000000
0.145602 0.215061 0.000000
0.167147 0.215152 0.000000
0.195560 0.215549 0.000000
0.228000 0.215854 0.000000
0.262669 0.216098 0.000000
0.296849 0.215122 0.000000
0.330388 0.213046 0.000000
0.365118 0.212100 0.000000
0.400641 0.211734 0.000000
0.436805 0.211643 0.000000
0.473396 0.212070 0.000000
0.510155 0.212772 0.000000
0.547051 0.213809 0.000000
0.583917 0.215579 0.000000
0.620966 0.217960 0.000000
0.659327 0.221073 0.000000
0.698695 0.225467 0.000000
0.738979 0.230777 0.000000
0.779019 0.237034 0.000000
0.817624 0.243809 0.000000
0.854368 0.251560 0.000000
0.888914 0.260380 0.021332
0.920592 0.270115 0.064118
0.949493 0.280186 0.086122
0.975921 0.291600 0.107729
1.000000 0.304112 0.129458
1.000000 0.318364 0.151583
1.000000 0.334874 0.175082
1.000000 0.353491 0.201144
1.000000 0.375372 0.230167
0.137636 0.247959 0.000000
0.145571 0.248081 0.000000
0.155398 0.248173 0.000000
0.175509 0.248264 0.000000
0.202365 0.248447 0.000000
0.233219 0.248783 0.000000
0.266453 0.249119 0.000000
0.301335 0.249790 0.000000
0.335943 0.249271 0.000000
0.369970 0.247959 0.000000
0.404852 0.247288 0.000000
0.440528 0.247379 0.000000
0.476509 0.247745 0.000000
0.512810 0.248661 0.000000
0.549279 0.249790 0.000000
0.585901 0.251286 0.000000
0.623133 0.253819 0.000000
0.661830 0.257206 0.000000
0.700221 0.261051 0.000000
0.739925 0.265629 0.000000
0.779232 0.271397 0.000000
0.817197 0.277623 0.000000
0.853513 0.284642 0.000000
0.887785 0.292058 0.031830
0.919310 0.300175 0.067842
0.948119 0.309117 0.089998
0.974548 0.318761 0.111299
0.998962 0.329656 0.131930
1.000000 0.342199 0.154574
1.000000 0.356878 0.178347
1.000000 0.373938 0.204349
1.000000 0.393957 0.233402
0.151339 0.282109 0.000000
0.158541 0.282200 0.000000
0.167758 0.282353 0.000000
0.186007 0.282444 0.000000
0.210971 0.282689 0.000000
0.239963 0.282841 0.000000
0.272038 0.283238 0.000000
0.305608 0.283909 0.000000
0.340795 0.284428 0.000000
0.375952 0.284764 0.000000
0.410101 0.284215 0.000000
0.445167 0.283787 0.000000
0.480720 0.284337 0.000000
0.516533 0.285069 0.000000
0.552544 0.286168 0.000000
0.589349 0.288090 0.000000
0.627253 0.290898 0.000000
0.665095 0.294011 0.000000
0.702693 0.297276 0.000000
0.741726 0.301946 0.000000
0.780331 0.307012 0.000000
0.817777 0.312535 0.000000
0.853574 0.318791 0.000000
0.887388 0.325505 0.042725
0.918700 0.332433 0.074037
0.947356 0.339788 0.095033
0.973724 0.348119 0.115206
0.997986 0.357641 0.136416
1.000000 0.368566 0.158724
1.000000 0.381445 0.182925
1.000000 0.396765 0.208743
1.000000 0.415076 0.237949
0.166018 0.317052 0.000000
0.172152 0.317052 0.000000
0.180270 0.317174 0.000000
0.197238 0.317327 0.000000
0.220676 0.317357 0.000000
0.248173 0.317754 0.000000
0.278935 0.317998 0.000000
0.311437 0.318395 0.000000
0.345312 0.319188 0.000000
0.380438 0.320134 0.000000
0.415869 0.320836 0.000000
0.450141 0.320684 0.000000
0.485115 0.320989 0.000000
0.520562 0.321752 0.000000
0.557214 0.323705 0.000000
0.594720 0.326085 0.000000
0.632074 0.328618 0.000000
0.669337 0.331487 0.000000
0.706508 0.334936 0.000000
0.744808 0.338994 0.000000
0.782467 0.343572 0.000000
0.818845 0.348516 0.000000
0.853696 0.353491 0.012268
0.886717 0.359045 0.056550
0.917510 0.364874 0.079133
0.945983 0.371283 0.100008
0.972381 0.378424 0.120089
0.996765 0.386633 0.140993
1.000000 0.396338 0.163699
1.000000 0.407904 0.187991
1.000000 0.421881 0.214511
1.000000 0.438666 0.244175
0.180362 0.352209 0.000000
0.186252 0.352178 0.000000
0.193942 0.352270 0.000000
0.209262 0.352361 0.000000
0.231327 0.352453 0.000000
0.257542 0.352911 0.000000
0.286717 0.353399 0.000000
0.318303 0.354070 0.000000
0.351385 0.354803 0.000000
0.385657 0.355566 0.000000
0.420539 0.357000 0.000000
0.455940 0.357977 0.000000
0.490639 0.358587 0.000000
0.526635 0.360143 0.000000
0.563165 0.362036 0.000000
0.599573 0.364263 0.000000
0.636194 0.366339 0.000000
0.672602 0.369024 0.000000
0.709285 0.372045 0.000000
0.747036 0.375891 0.000000
0.783993 0.380163 0.000000
0.819821 0.384314 0.000000
0.854307 0.389197 0.029847
0.886961 0.393835 0.065034
0.917357 0.399023 0.086152
0.945525 0.404242 0.106661
0.971679 0.410193 0.126680
0.995850 0.417182 0.147616
1.000000 0.425605 0.169924
1.000000 0.435706 0.194217
1.000000 0.448127 0.220706
1.000000 0.463325 0.250645
0.195560 0.388312 0.000000
0.201175 0.388342 0.000000
0.207919 0.388342 0.000000
0.222080 0.388556 0.000000
0.242863 0.388769 0.000000
0.267735 0.389197 0.000000
0.295720 0.389654 0.000000
0.326238 0.390356 0.000000
0.358495 0.391089 0.000000
0.391913 0.392157 0.000000
0.426276 0.393561 0.000000
0.462348 0.395941 0.000000
0.506645 0.405341 0.000000
0.542748 0.407111 0.000000
0.579034 0.408911 0.000000
0.615442 0.410742 0.000000
0.651850 0.412818 0.000000
0.687892 0.414954 0.000000
0.723995 0.417395 0.000000
0.760525 0.420569 0.000000
0.795865 0.423713 0.000000
0.830045 0.426947 0.028840
0.862852 0.430365 0.062806
0.893858 0.434028 0.082063
0.922972 0.437659 0.100465
0.950011 0.441871 0.119570
0.975158 0.446479 0.139345
0.998505 0.452155 0.160098
1.000000 0.459022 0.181704
1.000000 0.467750 0.205783
1.000000 0.478584 0.232639
1.000000 0.492226 0.262364
0.212100 0.427955 0.000000
0.216648 0.428138 0.000000
0.223331 0.427924 0.000000
0.236545 0.427893 0.000000
0.255985 0.427802 0.000000
0.279454 0.427955 0.000000
0.306249 0.428321 0.000000
0.335943 0.428809 0.000000
0.367132 0.429664 0.000000
0.401099 0.432013 0.000000
0.436378 0.435004 0.000000
0.472816 0.438087 0.000000
0.509819 0.441627 0.000000
0.547295 0.444953 0.000000
0.583520 0.447059 0.000000
0.619409 0.449165 0.000000
0.655177 0.450904 0.000000
0.690700 0.452796 0.000000
0.726314 0.455055 0.000000
0.761898 0.457740 0.000000
0.796628 0.460487 0.013764
0.830198 0.463203 0.048615
0.862547 0.466072 0.072511
0.893187 0.468818 0.090150
0.921935 0.471778 0.108339
0.948760 0.475105 0.127260
0.973816 0.478828 0.146487
0.996979 0.483558 0.166751
1.000000 0.489357 0.189212
1.000000 0.496895 0.213596
1.000000 0.506432 0.240055
1.000000 0.518791 0.270512
0.227207 0.465095 0.000000
0.232090 0.465217 0.000000
0.237613 0.465187 0.000000
0.249851 0.465187 0.000000
0.268070 0.465156 0.000000
0.290776 0.465492 0.000000
0.316808 0.466499 0.000000
0.345861 0.467628 0.000000
0.376654 0.469154 0.000000
0.409400 0.471199 0.000000
0.443702 0.473548 0.000000
0.479164 0.476478 0.000000
0.515221 0.479622 0.000000
0.551659 0.482704 0.000000
0.588190 0.485634 0.000000
0.623621 0.487434 0.000000
0.658686 0.488991 0.000000
0.693477 0.490700 0.000000
0.728756 0.492683 0.000000
0.763607 0.495064 0.010376
0.797696 0.497353 0.039277
0.830808 0.499672 0.066346
0.862730 0.501915 0.083009
0.892973 0.504356 0.099641
0.921416 0.506554 0.117647
0.948028 0.509087 0.135653
0.972839 0.512078 0.155306
0.995911 0.515770 0.175723
1.000000 0.520684 0.197971
1.000000 0.527062 0.222080
1.000000 0.535576 0.249485
1.000000 0.546624 0.280125
0.243565 0.505272 0.000000
0.247410 0.505486 0.000000
0.253056 0.505425 0.000000
0.264775 0.505547 0.000000
0.282017 0.505669 0.000000
0.303288 0.505913 0.000000
0.328588 0.506462 0.000000
0.356176 0.507134 0.000000
0.386114 0.508568 0.000000
0.417975 0.510307 0.000000
0.451148 0.512505 0.000000
0.485725 0.515160 0.000000
0.521019 0.518120 0.000000
0.556756 0.520989 0.000000
0.592645 0.523735 0.000000
0.628168 0.526085 0.000000
0.662654 0.527581 0.000000
0.696956 0.528954 0.003967
0.731594 0.530724 0.017151
0.765652 0.532616 0.038148
0.799100 0.534386 0.062379
0.831662 0.536278 0.078309
0.863005 0.538109 0.092897
0.892882 0.539666 0.109987
0.921019 0.541436 0.127047
0.947417 0.543389 0.145296
0.972198 0.545678 0.164706
0.995239 0.548791 0.185977
1.000000 0.553033 0.208347
1.000000 0.558709 0.233524
1.000000 0.566308 0.261692
1.000000 0.576501 0.293431
0.259220 0.546197 0.000000
0.263401 0.546319 0.000000
0.268345 0.546502 0.000000
0.279606 0.546502 0.000000
0.295903 0.546654 0.000000
0.316564 0.546960 0.000000
0.340368 0.547631 0.000000
0.367224 0.548425 0.000000
0.396521 0.549676 0.000000
0.427375 0.551110 0.000000
0.459632 0.552880 0.000000
0.493172 0.554955 0.000000
0.527153 0.557122 0.000000
0.561883 0.559319 0.000000
0.596704 0.561486 0.000000
0.631525 0.563622 0.000000
0.666285 0.565759 0.017975
0.700404 0.567285 0.032197
0.734554 0.568994 0.047517
0.768276 0.570520 0.064485
0.801389 0.572168 0.076143
0.833524 0.573663 0.090639
0.864469 0.574945 0.105623
0.893889 0.576165 0.122042
0.921691 0.577203 0.138979
0.947845 0.578546 0.157137
0.972259 0.580194 0.176699
0.995026 0.582605 0.197848
1.000000 0.585901 0.220798
1.000000 0.590539 0.245853
1.000000 0.597040 0.274357
1.000000 0.605921 0.306218
0.274632 0.586114 0.000000
0.278080 0.586206 0.000000
0.282902 0.586175 0.000000
0.293492 0.586175 0.000000
0.308904 0.586358 0.000000
0.328527 0.586572 0.000000
0.351415 0.587152 0.000000
0.377386 0.587701 0.000000
0.405646 0.588800 0.000000
0.435523 0.590082 0.000000
0.466987 0.591791 0.000000
0.499794 0.593713 0.000000
0.533165 0.595666 0.000000
0.567010 0.597803 0.000000
0.601190 0.599756 0.000000
0.635309 0.601587 0.015320
0.669581 0.603449 0.039857
0.703944 0.605524 0.059419
0.737575 0.606989 0.068544
0.770535 0.608087 0.078706
0.802914 0.609216 0.090150
0.834470 0.610193 0.102815
0.864988 0.611078 0.117281
0.894011 0.611749 0.133700
0.921508 0.612268 0.150454
0.947326 0.612940 0.168826
0.971557 0.614069 0.188418
0.994202 0.615656 0.209476
1.000000 0.618280 0.233188
1.000000 0.622095 0.258762
1.000000 0.627619 0.287419
1.000000 0.635523 0.320043
0.289555 0.626459 0.000000
0.293248 0.626642 0.000000
0.301366 0.635431 0.000000
0.311589 0.635370 0.000000
0.326390 0.635401 0.000000
0.344976 0.635370 0.000000
0.367224 0.635615 0.000000
0.392157 0.635828 0.000000
0.419715 0.636500 0.000000
0.449134 0.637415 0.000000
0.479713 0.638697 0.000000
0.511711 0.639979 0.000000
0.544305 0.641352 0.000000
0.577417 0.642725 0.013428
0.610834 0.644129 0.032044
0.644190 0.645289 0.054353
0.677790 0.646540 0.067048
0.711147 0.647700 0.076722
0.744594 0.649073 0.086000
0.777005 0.649775 0.095857
0.808194 0.649744 0.106844
0.838865 0.649836 0.118898
0.868376 0.649775 0.133211
0.896544 0.649500 0.148470
0.923003 0.648981 0.165011
0.947997 0.648585 0.182681
0.971527 0.648493 0.201694
0.993500 0.649134 0.223117
1.000000 0.650660 0.246159
1.000000 0.653529 0.272251
1.000000 0.658137 0.301457
1.000000 0.664942 0.334539
0.305638 0.669368 0.000000
0.309209 0.670588 0.000000
0.314336 0.671778 0.000000
0.323857 0.672847 0.000000
0.338354 0.673610 0.000000
0.356695 0.674037 0.000000
0.378058 0.674220 0.000000
0.402167 0.674434 0.000000
0.428565 0.674983 0.000000
0.456794 0.675685 0.000000
0.486549 0.676600 0.000000
0.517632 0.677607 0.009888
0.549371 0.678614 0.030671
0.581628 0.679683 0.049073
0.614191 0.680568 0.063142
0.646876 0.681483 0.072419
0.679591 0.682399 0.082033
0.712306 0.683284 0.091005
0.745083 0.684443 0.100984
0.777859 0.685817 0.110140
0.809659 0.686458 0.119966
0.839811 0.686213 0.132143
0.868986 0.685664 0.146334
0.896727 0.684901 0.161410
0.922942 0.683864 0.178012
0.947692 0.682856 0.195651
0.970947 0.682155 0.215213
0.992615 0.682155 0.236637
1.000000 0.682979 0.260319
1.000000 0.684962 0.286748
1.000000 0.688655 0.316533
1.000000 0.694575 0.350469
0.320378 0.707820 0.000000
0.323919 0.708858 0.000000
0.328588 0.709895 0.000000
0.337804 0.710811 0.000000
0.351385 0.711513 0.000000
0.368536 0.711818 0.000000
0.389105 0.711971 0.000000
0.412116 0.712123 0.004486
0.437598 0.712520 0.016449
0.465034 0.712917 0.026947
0.493812 0.713710 0.044099
0.523796 0.714473 0.059724
0.554742 0.715236 0.067353
0.586023 0.716030 0.076112
0.617731 0.716701 0.084443
0.649683 0.717220 0.092500
0.681727 0.717861 0.099733
0.713649 0.718563 0.108766
0.745815 0.719417 0.117494
0.778073 0.720577 0.125978
0.810147 0.721981 0.135439
0.841215 0.722683 0.146792
0.869871 0.721645 0.160220
0.897124 0.720241 0.175998
0.923003 0.718624 0.192111
0.947326 0.716976 0.210361
0.970214 0.715633 0.229526
0.991608 0.714839 0.251225
1.000000 0.714809 0.274968
1.000000 0.716030 0.301762
1.000000 0.718776 0.332219
1.000000 0.723629 0.366552
0.335790 0.744900 0.022675
0.339178 0.745815 0.028107
0.343694 0.746822 0.032532
0.352483 0.747585 0.034516
0.365148 0.748196 0.042634
0.381445 0.748409 0.048310
0.400671 0.748440 0.054170
0.422644 0.748531 0.061799
0.447089 0.748653 0.066865
0.473365 0.748959 0.071504
0.501213 0.749416 0.077790
0.530144 0.749905 0.084688
0.560021 0.750454 0.090486
0.590539 0.751003 0.097383
0.621546 0.751553 0.104799
0.652735 0.752193 0.112673
0.684230 0.752895 0.120607
0.715877 0.753841 0.128878
0.747738 0.754910 0.137453
0.779599 0.756222 0.146822
0.811368 0.757717 0.156588
0.843137 0.759426 0.166629
0.873381 0.760067 0.178744
0.900298 0.758175 0.194247
0.925689 0.755917 0.211429
0.949584 0.753689 0.229862
0.971893 0.751614 0.250004
0.992737 0.749996 0.271977
1.000000 0.749142 0.296330
1.000000 0.749508 0.324010
1.000000 0.751308 0.354894
1.000000 0.755276 0.390570
0.354253 0.784176 0.079469
0.357244 0.784573 0.080415
0.360967 0.784878 0.080385
0.368994 0.785122 0.081575
0.380804 0.785245 0.083558
0.395911 0.785214 0.086427
0.414130 0.785214 0.089174
0.435065 0.785214 0.092500
0.458320 0.785397 0.096468
0.483803 0.785641 0.100313
0.510552 0.786099 0.105592
0.538567 0.786496 0.111635
0.567529 0.786862 0.117098
0.597040 0.787167 0.123812
0.626947 0.787381 0.129854
0.657343 0.787655 0.136995
0.687892 0.787961 0.144167
0.718624 0.788418 0.152041
0.749447 0.789059 0.160769
0.780331 0.789792 0.169436
0.811002 0.790677 0.178408
0.841520 0.791653 0.188144
0.871855 0.792752 0.198276
0.900694 0.792905 0.210452
0.925566 0.789883 0.227481
0.949004 0.786984 0.246220
0.971069 0.784207 0.266087
0.991577 0.781979 0.288487
1.000000 0.780362 0.313664
1.000000 0.779812 0.341405
1.000000 0.780667 0.373022
1.000000 0.783719 0.409674
0.371923 0.817838 0.108278
0.374487 0.818204 0.109194
0.378119 0.818570 0.109957
0.385565 0.818753 0.110903
0.396674 0.818814 0.112734
0.410590 0.818692 0.115114
0.427741 0.818540 0.117220
0.447395 0.818387 0.119265
0.469368 0.818326 0.123415
0.493538 0.818387 0.127077
0.518914 0.818601 0.132052
0.545830 0.818784 0.137118
0.573571 0.818936 0.141848
0.602106 0.819028 0.148074
0.631128 0.819181 0.154391
0.660548 0.819333 0.161105
0.690181 0.819547 0.168154
0.720027 0.819883 0.176028
0.750088 0.820249 0.184085
0.780087 0.820859 0.193362
0.810025 0.821530 0.202426
0.839780 0.822324 0.212711
0.869261 0.823270 0.223178
0.898405 0.824216 0.233860
0.924834 0.822690 0.243046
0.947906 0.819120 0.261784
0.969635 0.815702 0.282414
0.989868 0.812711 0.304753
1.000000 0.810391 0.330358
1.000000 0.808957 0.358709
1.000000 0.809079 0.390997
1.000000 0.811185 0.428626
0.392920 0.851987 0.141207
0.395483 0.852354 0.141848
0.398657 0.852567 0.142824
0.405341 0.852567 0.143343
0.415351 0.852415 0.144564
0.428321 0.852140 0.145876
0.444160 0.851682 0.148013
0.462348 0.851286 0.149935
0.482856 0.850858 0.152712
0.505211 0.850492 0.156497
0.529290 0.850187 0.159976
0.554559 0.849973 0.164645
0.580896 0.849790 0.169772
0.608087 0.849485 0.174411
0.635615 0.849119 0.180423
0.663752 0.848783 0.186740
0.692134 0.848508 0.192935
0.720882 0.848325 0.200443
0.749752 0.848539 0.208103
0.778866 0.848875 0.217136
0.807919 0.849424 0.226688
0.836820 0.850004 0.236759
0.865354 0.850584 0.247105
0.893492 0.851072 0.257664
0.920989 0.851530 0.268376
0.947753 0.851652 0.280003
0.968902 0.847379 0.300755
0.988617 0.843503 0.323522
1.000000 0.840269 0.348852
1.000000 0.837949 0.377691
1.000000 0.837095 0.410834
1.000000 0.838193 0.449165
0.413153 0.880766 0.170413
0.415351 0.881102 0.171084
0.418402 0.881315 0.172396
0.424475 0.881315 0.173190
0.433722 0.881163 0.174197
0.445655 0.880888 0.175265
0.460243 0.880522 0.177371
0.477272 0.880125 0.179232
0.496559 0.879759 0.182071
0.517693 0.879454 0.185641
0.540246 0.879179 0.189548
0.564477 0.878965 0.193790
0.589624 0.878721 0.198764
0.615503 0.878416 0.203861
0.642023 0.878050 0.209628
0.668910 0.877684 0.215732
0.696284 0.877317 0.222599
0.723934 0.877073 0.229709
0.751736 0.877012 0.238010
0.779812 0.877134 0.246738
0.807767 0.877317 0.255924
0.835599 0.877623 0.265873
0.863127 0.877958 0.276249
0.890288 0.878202 0.287022
0.916899 0.878416 0.298161
0.943023 0.878630 0.309728
0.968536 0.878935 0.321935
0.987945 0.874357 0.345006
1.000000 0.870298 0.371038
1.000000 0.867124 0.400732
1.000000 0.865263 0.434791
1.000000 0.865446 0.474495
0.435828 0.908354 0.203067
0.438148 0.908598 0.203616
0.440620 0.908629 0.204257
0.446052 0.908507 0.204990
0.454231 0.908232 0.205722
0.464973 0.907866 0.207004
0.478431 0.907408 0.208713
0.493996 0.906981 0.210910
0.511803 0.906523 0.213535
0.531487 0.906188 0.216403
0.552758 0.905821 0.220523
0.575463 0.905577 0.224857
0.599207 0.905272 0.229953
0.623896 0.904906 0.234958
0.649012 0.904479 0.241001
0.674708 0.903990 0.246891
0.700862 0.903441 0.253452
0.727199 0.903014 0.260380
0.753933 0.902739 0.268376
0.780728 0.902647 0.277226
0.807553 0.902617 0.286595
0.834318 0.902617 0.296910
0.860746 0.902678 0.307378
0.886809 0.902739 0.318151
0.912413 0.902739 0.329534
0.937530 0.902678 0.341344
0.962036 0.902770 0.353765
0.985931 0.902892 0.366827
1.000000 0.898528 0.392157
1.000000 0.894469 0.422492
1.000000 0.891600 0.457008
1.000000 0.890593 0.496773
0.459846 0.933074 0.236393
0.461769 0.933165 0.236942
0.464210 0.933196 0.237644
0.469001 0.933074 0.238285
0.476661 0.932921 0.239353
0.486732 0.932769 0.241001
0.499214 0.932647 0.242924
0.514061 0.932555 0.245762
0.531060 0.932525 0.249454
0.549645 0.932586 0.253605
0.569909 0.932586 0.258152
0.591485 0.932586 0.263676
0.614069 0.932494 0.269139
0.637568 0.932219 0.275334
0.661494 0.931823 0.281224
0.685817 0.931304 0.287602
0.710536 0.930694 0.294316
0.735531 0.930114 0.301793
0.760830 0.929656 0.310063
0.786252 0.929290 0.318822
0.811734 0.928954 0.328649
0.837125 0.928679 0.338903
0.862150 0.928405 0.349584
0.886900 0.928130 0.360754
0.911162 0.927855 0.372564
0.934905 0.927581 0.384619
0.958129 0.927367 0.397650
0.980682 0.927184 0.411139
1.000000 0.927153 0.425147
1.000000 0.923033 0.453407
1.000000 0.919036 0.488533
1.000000 0.916625 0.527794
0.490700 0.957946 0.278264
0.492287 0.957946 0.278752
0.494240 0.957885 0.278965
0.498543 0.957702 0.279637
0.505180 0.957458 0.280522
0.514061 0.957153 0.281987
0.525048 0.956817 0.283818
0.538079 0.956512 0.285985
0.553216 0.956176 0.289220
0.570031 0.955840 0.292668
0.588312 0.955474 0.296910
0.607996 0.955138 0.301488
0.628748 0.954681 0.307073
0.650294 0.954162 0.312474
0.672511 0.953552 0.318425
0.695308 0.952911 0.325048
