其他预设/【232】美食博客调色预设124款/1.3D LUT预设（视频调色-PR-AE-PS-FCPX-达芬奇用）/Food Art #24.cube
# Created by Adobe Lightroom plugin Export LUT (1.17.0)
# www.johnrellis.com/lightroom/exportlut.htm
# Preset: Food Art #24
# Color profile: /Library/Application Support/Adobe/Color/Profiles/Recommended/AdobeRGB1998.icc
LUT_3D_SIZE 5
DOMAIN_MIN 0.000000 0.000000 0.000000
DOMAIN_MAX 0.903226 0.903226 0.903226
0.125093 0.125093 0.125093
0.222934 0.097505 0.123232
0.433875 0.092103 0.103822
0.730037 0.068605 0.085695
0.986908 0.000000 0.017487
0.102022 0.224765 0.112703
0.224460 0.225345 0.107424
0.442237 0.233127 0.104768
0.736416 0.248203 0.075074
0.984405 0.237919 0.000000
0.099916 0.447272 0.101472
0.236912 0.452003 0.099214
0.452461 0.452796 0.091157
0.741939 0.492103 0.000000
0.985260 0.485664 0.000000
0.000000 0.748653 0.000000
0.230747 0.748989 0.000000
0.493782 0.752010 0.000000
0.754910 0.755367 0.000000
0.981018 0.730983 0.000000
0.000000 0.974945 0.000000
0.200443 0.974121 0.000000
0.471534 0.972625 0.000000
0.717433 0.964599 0.000000
0.951293 0.951720 0.000000
0.087190 0.124697 0.228763
0.228183 0.107851 0.228244
0.448432 0.085542 0.232944
0.750637 0.000000 0.220462
0.993378 0.000000 0.211124
0.113527 0.228183 0.228214
0.228275 0.228275 0.228275
0.453407 0.226688 0.227146
0.752865 0.215152 0.217197
0.992401 0.203769 0.207950
0.079408 0.454475 0.234257
0.223148 0.458717 0.223209
0.463355 0.463539 0.219913
0.756466 0.490852 0.202670
0.988495 0.475929 0.196170
0.000000 0.752712 0.204746
0.184543 0.753597 0.185153
0.485298 0.755947 0.179019
0.757717 0.758114 0.168368
0.982330 0.728420 0.177829
0.000000 0.976318 0.170016
0.169009 0.975402 0.170932
0.462379 0.971191 0.172396
0.714656 0.963897 0.179049
0.950652 0.951049 0.185824
0.089845 0.101198 0.460945
0.240726 0.101472 0.460639
0.461006 0.057221 0.461036
0.758419 0.000000 0.489967
0.992645 0.000000 0.467201
0.054139 0.233341 0.460273
0.226139 0.226780 0.461677
0.463478 0.213718 0.463569
0.762997 0.134585 0.482795
0.991608 0.132204 0.463966
0.000000 0.464973 0.465126
0.202670 0.466102 0.466163
0.466407 0.466407 0.466407
0.767422 0.464637 0.464759
0.987091 0.465614 0.466224
0.000000 0.760311 0.487587
0.116976 0.763973 0.480903
0.461372 0.765499 0.461433
0.761563 0.761654 0.459785
0.979736 0.727993 0.472389
0.000000 0.978546 0.464057
0.158816 0.977020 0.462501
0.474952 0.971008 0.475196
0.722896 0.963592 0.484108
0.951293 0.951507 0.491829
0.020752 0.069123 0.766384
0.250706 0.008698 0.765866
0.502617 0.000000 0.765682
0.766781 0.000000 0.766903
0.984619 0.000000 0.728725
0.000000 0.222812 0.768215
0.213199 0.215732 0.768399
0.494362 0.186862 0.768429
0.769375 0.119387 0.769406
0.984466 0.167910 0.729274
0.000000 0.491310 0.770321
0.102083 0.483314 0.770474
0.469245 0.469429 0.770138
0.766903 0.462470 0.766903
0.976226 0.500175 0.736385
0.000000 0.766354 0.766567
0.000000 0.767422 0.767605
0.465736 0.767483 0.767575
0.766537 0.766506 0.766537
0.960510 0.769955 0.770047
0.000000 0.978515 0.725521
0.192508 0.976867 0.726040
0.511925 0.968688 0.736629
0.774624 0.955261 0.774655
0.949737 0.949767 0.778683
0.000000 0.012970 0.960693
0.229221 0.000000 0.960449
0.469825 0.000000 0.960143
0.711879 0.000000 0.959014
0.957000 0.000000 0.957061
0.000000 0.209445 0.959594
0.199588 0.204471 0.959350
0.460578 0.187289 0.958923
0.708370 0.159670 0.957214
0.955352 0.159030 0.955413
0.000000 0.451667 0.956939
0.148623 0.451728 0.956451
0.452918 0.453651 0.955138
0.707515 0.458503 0.952850
0.951690 0.488045 0.951720
0.000000 0.704982 0.952544
0.169314 0.705409 0.951751
0.491615 0.717983 0.949523
0.753811 0.753841 0.946227
0.948241 0.775784 0.948272
0.000000 0.949310 0.949554
0.258122 0.948791 0.949004
0.543084 0.947784 0.947936
0.782834 0.946136 0.946197
0.945220 0.945220 0.945220
