其他预设/【232】美食博客调色预设124款/1.3D LUT预设（视频调色-PR-AE-PS-FCPX-达芬奇用）/Food Art #2 ().cube
# Created by Adobe Lightroom plugin Export LUT (1.17.0)
# www.johnrellis.com/lightroom/exportlut.htm
# Preset: Food Art #2 (素锦印象)
# Color profile: /Library/Application Support/Adobe/Color/Profiles/Recommended/AdobeRGB1998.icc
LUT_3D_SIZE 5
DOMAIN_MIN 0.000000 0.000000 0.000000
DOMAIN_MAX 0.903226 0.903226 0.903226
0.000000 0.000000 0.000000
0.223514 0.000000 0.000000
0.700038 0.000000 0.000000
0.973663 0.000000 0.000000
1.000000 0.000000 0.000000
0.000000 0.241276 0.000000
0.261997 0.257328 0.000000
0.663935 0.302770 0.000000
0.961791 0.267582 0.000000
1.000000 0.196414 0.000000
0.107790 0.783932 0.000000
0.437354 0.795438 0.000000
0.835050 0.814908 0.000000
0.957916 0.616510 0.000000
1.000000 0.491829 0.000000
0.197848 0.971344 0.000000
0.390539 0.970306 0.000000
0.713008 0.960632 0.000000
0.950774 0.928191 0.000000
1.000000 0.769314 0.000000
0.265385 1.000000 0.000000
0.370245 1.000000 0.000000
0.590051 1.000000 0.000000
0.819577 1.000000 0.000000
1.000000 0.979950 0.000000
0.000000 0.081544 0.168551
0.206943 0.000000 0.207187
0.659571 0.000000 0.243961
0.946746 0.000000 0.146761
1.000000 0.000000 0.100069
0.000000 0.196658 0.192203
0.204227 0.204227 0.204227
0.650294 0.165072 0.167697
0.939025 0.113985 0.126619
1.000000 0.037751 0.083131
0.000000 0.734432 0.202914
0.240513 0.746822 0.029358
0.776547 0.758968 0.000000
0.921782 0.570245 0.000000
1.000000 0.468910 0.000000
0.000000 0.964019 0.000000
0.339910 0.959991 0.172641
0.695796 0.951507 0.232853
0.942016 0.921416 0.189975
1.000000 0.760678 0.000000
0.275578 1.000000 0.210330
0.377234 1.000000 0.215793
0.602777 1.000000 0.253727
0.826963 1.000000 0.289067
1.000000 0.979889 0.267460
0.000000 0.063783 0.512779
0.214664 0.000000 0.566766
0.648127 0.000000 0.648341
0.924132 0.000000 0.567803
1.000000 0.000000 0.475410
0.000000 0.264591 0.500847
0.000000 0.185824 0.555535
0.656519 0.000000 0.656672
0.915465 0.000000 0.555016
1.000000 0.210788 0.500603
0.000000 0.593774 0.579461
0.000000 0.602441 0.589441
0.618311 0.618311 0.618311
0.881590 0.589715 0.590021
1.000000 0.524559 0.525536
0.000000 0.921965 0.541375
0.000000 0.918090 0.530236
0.668727 0.903685 0.642786
0.908751 0.898497 0.664515
0.998840 0.754421 0.516014
0.000000 1.000000 0.416541
0.252781 1.000000 0.451057
0.666896 0.997742 0.627344
0.856870 0.987854 0.666773
0.986603 0.972839 0.637537
0.000000 0.105135 0.805722
0.000000 0.000000 0.818845
0.525475 0.000000 0.859648
0.867765 0.000000 0.868009
1.000000 0.000000 0.734096
0.000000 0.248631 0.795315
0.000000 0.206455 0.808896
0.495155 0.000000 0.848814
0.860349 0.000000 0.860533
1.000000 0.000000 0.729488
0.000000 0.529747 0.743465
0.000000 0.522087 0.742214
0.443977 0.490517 0.804654
0.837339 0.476631 0.837339
0.983185 0.524620 0.749355
0.000000 0.819883 0.800961
0.000000 0.816953 0.799374
0.487984 0.813230 0.802274
0.812284 0.812253 0.812284
0.950896 0.786557 0.786648
0.000000 0.993225 0.704341
0.000000 0.991119 0.704646
0.535454 0.978851 0.740047
0.838193 0.966125 0.825681
0.970489 0.964416 0.838651
0.000000 0.207584 0.932830
0.000000 0.182162 0.935058
0.392432 0.000000 0.944457
0.688533 0.000000 0.959747
0.952728 0.000000 0.952941
0.000000 0.280888 0.925078
0.000000 0.263523 0.927672
0.371771 0.182376 0.938048
0.675654 0.000000 0.954101
0.949310 0.000000 0.949493
0.000000 0.529351 0.895506
0.187411 0.517998 0.900298
0.335485 0.432319 0.916228
0.647059 0.354803 0.937407
0.941466 0.306584 0.941588
0.000000 0.703273 0.879515
0.080140 0.698146 0.876768
0.398596 0.688228 0.869902
0.669001 0.693904 0.900725
0.928283 0.724849 0.928313
0.000000 0.918822 0.898436
0.000000 0.917418 0.897795
0.374853 0.913878 0.898192
0.705776 0.906676 0.899016
0.913695 0.913664 0.913695
