其他预设/【232】美食博客调色预设124款/1.3D LUT预设（视频调色-PR-AE-PS-FCPX-达芬奇用）/Food Art #36.cube
# Created by Adobe Lightroom plugin Export LUT (1.17.0)
# www.johnrellis.com/lightroom/exportlut.htm
# Preset: Food Art #36
# Color profile: /Library/Application Support/Adobe/Color/Profiles/Recommended/AdobeRGB1998.icc
LUT_3D_SIZE 8
DOMAIN_MIN 0.000000 0.000000 0.000000
DOMAIN_MAX 0.903226 0.903226 0.903226
0.129671 0.171054 0.214817
0.177401 0.174472 0.217929
0.254246 0.182956 0.226352
0.346868 0.193729 0.238132
0.462104 0.206241 0.253208
0.607111 0.216190 0.269078
0.762448 0.223178 0.285679
0.906310 0.233890 0.306981
0.130465 0.216342 0.221592
0.175601 0.217685 0.224826
0.252750 0.215061 0.231113
0.344671 0.221622 0.242924
0.459297 0.232181 0.256901
0.601892 0.242496 0.271214
0.756527 0.250248 0.286778
0.902770 0.260075 0.307836
0.135531 0.293278 0.239811
0.169650 0.293828 0.241855
0.252110 0.296117 0.248203
0.347356 0.297704 0.258000
0.464515 0.306615 0.269200
0.608209 0.318791 0.281041
0.765438 0.329595 0.295903
0.908598 0.338811 0.316564
0.142184 0.388220 0.263279
0.172854 0.388495 0.264652
0.252110 0.390723 0.269017
0.358099 0.400122 0.277897
0.482155 0.411414 0.286381
0.621118 0.423041 0.296574
0.769375 0.433478 0.308568
0.908904 0.441505 0.328496
0.142123 0.507897 0.285618
0.175906 0.508415 0.286198
0.261326 0.511254 0.289464
0.370367 0.517571 0.295262
0.490364 0.523095 0.302647
0.625330 0.533501 0.309148
0.769772 0.545312 0.322850
0.908965 0.554864 0.344915
0.135195 0.643641 0.304723
0.175692 0.646998 0.305791
0.270390 0.648432 0.308263
0.385412 0.651423 0.312627
0.509575 0.654536 0.318914
0.640406 0.659174 0.327581
0.778927 0.667567 0.339422
0.913329 0.675227 0.364843
0.138247 0.785061 0.328527
0.180972 0.785885 0.329381
0.280125 0.785641 0.331456
0.398322 0.786587 0.335943
0.523857 0.787289 0.342443
0.653986 0.789578 0.352056
0.785489 0.792538 0.364782
0.914733 0.796353 0.387243
0.184054 0.918151 0.368353
0.218112 0.918029 0.369116
0.307500 0.918242 0.372259
0.421607 0.919463 0.378637
0.540764 0.915770 0.383978
0.667994 0.917235 0.396918
0.795682 0.919371 0.414679
0.918608 0.920531 0.435889
0.119692 0.171633 0.264286
0.168032 0.175326 0.266575
0.246220 0.191775 0.269444
0.339879 0.204776 0.279911
0.456001 0.212131 0.288701
0.597864 0.216617 0.298924
0.752804 0.219089 0.310826
0.899443 0.227207 0.327886
0.121706 0.214847 0.268620
0.168215 0.217014 0.270481
0.245487 0.222446 0.275547
0.339788 0.229129 0.282261
0.455543 0.236423 0.290715
0.596063 0.242283 0.300206
0.748928 0.246189 0.311315
0.895781 0.253758 0.328069
0.134157 0.291478 0.275822
0.169558 0.292302 0.280369
0.247715 0.295171 0.284459
0.342321 0.298711 0.291447
0.459419 0.306737 0.298711
0.600183 0.315862 0.307164
0.753811 0.323949 0.317845
0.900298 0.332616 0.335241
0.139651 0.385443 0.292363
0.170779 0.386358 0.293889
0.249638 0.389410 0.297276
0.351324 0.395209 0.303532
0.470069 0.403998 0.309789
0.607141 0.415320 0.318456
0.756954 0.426246 0.327947
0.900877 0.435645 0.345159
0.133883 0.506279 0.309361
0.169406 0.506310 0.309911
0.256535 0.508171 0.312108
0.364294 0.512200 0.316564
0.482612 0.516747 0.322667
0.617975 0.527764 0.328099
0.763546 0.540551 0.341131
0.904112 0.550683 0.361120
0.120851 0.639948 0.324254
0.163699 0.640620 0.325017
0.262242 0.642359 0.327001
0.379187 0.646235 0.331182
0.504784 0.650813 0.337072
0.637568 0.656886 0.345464
0.776150 0.665064 0.356207
0.910063 0.672267 0.379614
0.120089 0.780056 0.344823
0.167422 0.779507 0.345006
0.271275 0.780056 0.347204
0.392279 0.782467 0.351751
0.519677 0.784421 0.358373
0.650233 0.786496 0.366979
0.781216 0.788663 0.378241
0.910369 0.792386 0.398718
0.172610 0.915435 0.381933
0.209079 0.915740 0.383032
0.301946 0.916228 0.386023
0.417975 0.917662 0.392432
0.541924 0.918181 0.400671
0.668330 0.918120 0.411933
0.794766 0.918547 0.427192
0.917082 0.918975 0.446723
0.098116 0.174929 0.346380
0.143893 0.179171 0.347906
0.236515 0.193118 0.352331
0.335485 0.206363 0.357092
0.454963 0.210971 0.365759
0.602014 0.200443 0.371710
0.757565 0.193881 0.379736
0.903075 0.201266 0.391943
0.114015 0.213901 0.349706
0.152712 0.216922 0.350927
0.236881 0.223331 0.354223
0.334997 0.231327 0.358648
0.454994 0.233616 0.365667
0.600092 0.228672 0.371649
0.754788 0.225498 0.379706
0.901244 0.232486 0.392218
0.120089 0.290837 0.356817
0.157168 0.291936 0.357824
0.238437 0.294285 0.359625
0.337743 0.298985 0.364111
0.461280 0.304692 0.370275
0.604120 0.308141 0.376104
0.756741 0.311131 0.383673
0.901610 0.318578 0.396307
0.123629 0.386114 0.366308
0.157504 0.387243 0.367010
0.239658 0.391089 0.367132
0.348211 0.396490 0.371832
0.470741 0.404059 0.378729
0.611048 0.412665 0.384161
0.761227 0.420569 0.391516
0.903593 0.428656 0.405005
0.112551 0.505669 0.381384
0.149813 0.506920 0.380255
0.240116 0.510399 0.376623
0.358038 0.514977 0.380224
0.483284 0.519432 0.384924
0.620752 0.527764 0.389380
0.764981 0.537987 0.401465
0.905211 0.547204 0.417060
0.083070 0.640101 0.393439
0.133242 0.641108 0.391119
0.240452 0.643214 0.386511
0.367285 0.645960 0.389654
0.498421 0.649592 0.394079
0.634241 0.654902 0.400977
0.775021 0.662562 0.409918
0.910521 0.670985 0.432227
0.066621 0.781704 0.407080
0.129305 0.781704 0.404273
0.249668 0.781704 0.402350
0.380285 0.782650 0.405493
0.512963 0.783993 0.410559
0.647486 0.786465 0.418158
0.782254 0.790005 0.428870
0.913359 0.794491 0.447822
0.147280 0.915679 0.432258
0.185245 0.915435 0.431037
0.287907 0.915404 0.433204
0.411139 0.917632 0.439643
0.538140 0.917784 0.446662
0.667231 0.918090 0.456733
0.795163 0.918853 0.470985
0.918181 0.919829 0.488685
0.063691 0.180636 0.439551
0.122499 0.184970 0.441291
0.222324 0.194949 0.444556
0.329259 0.204898 0.449165
0.452399 0.208042 0.459663
0.598077 0.196689 0.470985
0.752956 0.170687 0.476814
0.900298 0.150607 0.479011
0.084901 0.216159 0.443671
0.131472 0.217838 0.444404
0.224704 0.222660 0.446845
0.330816 0.228611 0.450874
0.454292 0.230838 0.460426
0.598230 0.221500 0.469947
0.752407 0.200626 0.474739
0.899992 0.186648 0.477272
0.090303 0.289952 0.448219
0.133059 0.290532 0.449042
0.223941 0.291325 0.451270
0.334264 0.295140 0.455024
0.460090 0.298863 0.462745
0.605982 0.294896 0.469825
0.761410 0.286534 0.473701
0.904356 0.291966 0.480598
0.093446 0.387488 0.457008
0.135286 0.388403 0.457679
0.226474 0.390967 0.459846
0.339818 0.393652 0.461860
0.466804 0.397894 0.465980
0.610315 0.401465 0.470222
0.761440 0.405585 0.476143
0.904662 0.414252 0.486122
0.073701 0.506950 0.471687
0.125490 0.507439 0.471260
0.225010 0.510399 0.470008
0.344305 0.515709 0.467933
0.481514 0.519738 0.471351
0.622004 0.525383 0.477424
0.767453 0.532952 0.485023
0.906737 0.541344 0.495735
0.000000 0.642390 0.484504
0.104829 0.645319 0.484565
0.222202 0.646876 0.480018
0.350042 0.650294 0.474128
0.493568 0.653162 0.477607
0.635401 0.656397 0.482246
0.777249 0.661189 0.488808
0.910887 0.669520 0.509117
0.000000 0.781399 0.494148
0.106813 0.782284 0.492897
0.231113 0.784298 0.488777
0.364721 0.786587 0.485176
0.507317 0.787594 0.489143
0.646937 0.788815 0.494697
0.783474 0.790768 0.502739
0.914427 0.794369 0.517662
0.144686 0.916838 0.510460
0.184512 0.917205 0.510033
0.281346 0.917571 0.508537
0.404242 0.918029 0.509880
0.535332 0.917906 0.515221
0.666804 0.917998 0.522972
0.796017 0.918853 0.534203
0.919615 0.920287 0.548516
0.000000 0.187045 0.540429
0.108675 0.189670 0.541375
0.219760 0.195560 0.543420
0.333593 0.201053 0.546960
0.456062 0.202640 0.553124
0.600214 0.190219 0.566155
0.753811 0.163180 0.575463
0.900420 0.143465 0.579248
0.020111 0.217594 0.542962
0.112886 0.218692 0.544091
0.220829 0.221530 0.545647
0.334203 0.224399 0.548241
0.457343 0.225284 0.554101
0.601709 0.215366 0.566247
0.754788 0.194491 0.574853
0.900786 0.181674 0.578424
0.000000 0.289952 0.547448
0.094362 0.288762 0.548302
0.214115 0.289036 0.549401
0.334844 0.290959 0.552819
0.461006 0.291966 0.556573
0.603632 0.287816 0.565209
0.756039 0.278141 0.572076
0.900633 0.275059 0.575250
0.000000 0.391943 0.553216
0.093507 0.391669 0.553704
0.208499 0.390417 0.555840
0.332250 0.388464 0.558526
0.468421 0.390661 0.561364
0.611444 0.392004 0.566125
0.761074 0.391272 0.570428
0.903716 0.394934 0.574090
0.000000 0.507103 0.560754
0.096559 0.507774 0.561273
0.213687 0.509483 0.562280
0.337438 0.511955 0.564050
0.474311 0.512627 0.564446
0.618158 0.515953 0.567437
0.765377 0.520623 0.571801
0.905730 0.529259 0.578882
0.000000 0.637354 0.571466
0.074342 0.638087 0.571221
0.210391 0.639643 0.570001
0.339055 0.643000 0.568078
0.478370 0.646326 0.565270
0.631556 0.651362 0.570153
0.775448 0.656458 0.578820
0.910338 0.664912 0.590143
0.000000 0.779202 0.581933
0.086275 0.779324 0.581109
0.223331 0.780453 0.578851
0.356573 0.782864 0.576043
0.495369 0.785336 0.573327
0.642451 0.786648 0.577386
0.782589 0.788113 0.582818
0.914031 0.790433 0.592554
0.139101 0.913268 0.591638
0.180026 0.913298 0.591272
0.278325 0.913542 0.590173
0.399847 0.916411 0.590478
0.528405 0.916808 0.590570
0.663752 0.916625 0.596246
0.795193 0.917235 0.604517
0.919738 0.918608 0.615320
0.030243 0.189425 0.647883
0.120790 0.190433 0.648432
0.233646 0.192752 0.649042
0.353277 0.193027 0.651942
0.478828 0.188571 0.655573
0.610010 0.178531 0.658991
0.759091 0.152163 0.669429
0.903746 0.135561 0.674800
0.008179 0.217044 0.647608
0.115541 0.217319 0.647822
0.230686 0.217929 0.648798
0.351141 0.217014 0.651728
0.477302 0.213016 0.655024
0.609522 0.204562 0.658564
0.758785 0.184970 0.668696
0.903410 0.174319 0.673945
0.000000 0.286503 0.652461
0.064668 0.286534 0.652674
0.216800 0.286412 0.653834
0.346471 0.285710 0.655818
0.477882 0.283299 0.658015
0.613642 0.279026 0.660883
0.761990 0.271305 0.668666
0.905028 0.271672 0.672847
0.000000 0.396094 0.657008
0.000000 0.394079 0.657099
0.190280 0.387823 0.658503
0.335302 0.385199 0.661677
0.479713 0.385626 0.663996
0.622858 0.385229 0.666011
0.768765 0.387091 0.669917
0.908446 0.392920 0.672602
0.000000 0.515892 0.659510
0.000000 0.515557 0.659968
0.195163 0.514000 0.661189
0.330266 0.510796 0.663111
0.473854 0.506676 0.664607
0.625818 0.508110 0.666255
0.770169 0.513359 0.667872
0.908293 0.521721 0.671473
0.000000 0.641352 0.663630
0.017029 0.642451 0.664485
0.207065 0.643732 0.665217
0.342229 0.645319 0.666346
0.482185 0.646357 0.667018
0.632776 0.647547 0.668177
0.775845 0.652735 0.672450
0.911559 0.660304 0.678309
0.000000 0.779873 0.673701
0.090913 0.780728 0.673915
0.229252 0.781827 0.673365
0.362219 0.783413 0.672694
0.499306 0.784909 0.671626
0.643366 0.785733 0.671992
0.785946 0.787381 0.675624
0.916045 0.790799 0.685176
0.152193 0.912505 0.681025
0.190311 0.912474 0.680751
0.285252 0.912566 0.680110
0.401038 0.913909 0.679438
0.528954 0.914672 0.679408
0.662104 0.915160 0.681239
0.795956 0.916106 0.687587
0.921355 0.917662 0.695766
0.088472 0.187167 0.757839
0.144350 0.187411 0.758541
0.252781 0.186496 0.759396
0.372473 0.182284 0.761074
0.498054 0.172763 0.762783
0.628565 0.156283 0.764828
0.762875 0.133516 0.767300
0.904082 0.116670 0.773983
0.068391 0.213199 0.757382
0.134554 0.212955 0.757992
0.247135 0.211490 0.758785
0.368719 0.207248 0.760098
0.495308 0.199069 0.761776
0.626490 0.185824 0.763638
0.761135 0.168612 0.765927
0.902312 0.157443 0.772335
0.000000 0.282231 0.760830
0.068116 0.281834 0.761013
0.225162 0.280522 0.761379
0.357885 0.277806 0.762448
0.490791 0.272770 0.763577
0.626307 0.265660 0.765408
0.764492 0.258396 0.768063
0.905394 0.260410 0.773312
0.000000 0.387701 0.764492
0.000000 0.384588 0.764431
0.171237 0.377081 0.764981
0.336645 0.376501 0.765927
0.482795 0.374823 0.766995
0.626612 0.373175 0.768856
0.769589 0.373205 0.771328
0.908629 0.381781 0.773892
0.000000 0.515892 0.765621
0.000000 0.514305 0.765530
0.168978 0.509209 0.766079
0.317113 0.500328 0.767483
0.470466 0.495613 0.768673
0.624170 0.497047 0.770016
0.772122 0.500450 0.772091
0.910185 0.513207 0.773831
0.000000 0.645533 0.768551
0.000000 0.645197 0.768795
0.190311 0.643885 0.769528
0.334722 0.641840 0.770718
0.478248 0.638880 0.771908
0.630152 0.639002 0.773342
0.778897 0.643183 0.775601
0.912535 0.652247 0.776852
0.000000 0.777768 0.773587
0.080537 0.778195 0.773953
0.228885 0.778866 0.774472
0.361883 0.779904 0.775509
0.500908 0.780606 0.776211
0.644068 0.781308 0.777188
0.785000 0.782162 0.778347
0.915160 0.787655 0.783322
0.158236 0.909850 0.780148
0.195956 0.910033 0.780179
0.290776 0.911437 0.780911
0.405554 0.912505 0.781155
0.533104 0.913054 0.781643
0.664698 0.913573 0.782864
0.796048 0.914305 0.785489
0.922423 0.916320 0.791318
0.103822 0.181888 0.879484
0.155703 0.181216 0.879850
0.262669 0.177951 0.880003
0.382910 0.170993 0.881010
0.508965 0.158206 0.882322
0.639002 0.138399 0.883909
0.771664 0.114046 0.886046
0.904173 0.094850 0.888121
0.079561 0.206943 0.879271
0.142153 0.206485 0.879606
0.255833 0.203311 0.879881
0.378637 0.197086 0.880735
0.506310 0.186252 0.882017
0.637385 0.171298 0.883543
0.770657 0.154116 0.885466
0.903563 0.143404 0.887510
0.000000 0.275273 0.880430
0.054444 0.274907 0.880583
0.227054 0.272770 0.880613
0.363714 0.269261 0.882109
0.498177 0.263157 0.883085
0.633356 0.255070 0.884184
0.769467 0.248234 0.886015
0.904204 0.247807 0.888121
0.000000 0.369116 0.882902
0.000000 0.369146 0.883116
0.159274 0.368139 0.883238
0.334874 0.366949 0.884062
0.483803 0.364874 0.885100
0.627344 0.362768 0.886259
0.768673 0.363073 0.887877
0.906218 0.368444 0.889891
0.000000 0.506310 0.884245
0.000000 0.504356 0.884611
0.105806 0.496712 0.885069
0.291203 0.482979 0.886046
0.464454 0.483803 0.886656
0.619806 0.485634 0.887541
0.767575 0.490425 0.889220
0.908354 0.500755 0.891722
0.000000 0.641657 0.886534
0.000000 0.640620 0.886473
0.154696 0.636957 0.886534
0.314824 0.630976 0.887114
0.463416 0.624537 0.888029
0.619989 0.625269 0.889738
0.771786 0.632471 0.892393
0.912383 0.642512 0.895567
0.000000 0.775998 0.890745
0.061158 0.775692 0.890715
0.221225 0.774533 0.890837
0.355230 0.773068 0.891447
0.494667 0.771908 0.892271
0.636408 0.771450 0.893431
0.779080 0.773953 0.895628
0.914977 0.779965 0.898192
0.179171 0.908354 0.896880
0.211276 0.908324 0.896880
0.296910 0.908507 0.897124
0.410468 0.908965 0.897826
0.534905 0.909483 0.898772
0.664240 0.910094 0.899962
0.794461 0.911131 0.901549
0.919860 0.913024 0.903716
