其他预设/【232】美食博客调色预设124款/1.3D LUT预设（视频调色-PR-AE-PS-FCPX-达芬奇用）/Food Art #22.cube
# Created by Adobe Lightroom plugin Export LUT (1.17.0)
# www.johnrellis.com/lightroom/exportlut.htm
# Preset: Food Art #22
# Color profile: /Library/Application Support/Adobe/Color/Profiles/Recommended/AdobeRGB1998.icc
LUT_3D_SIZE 8
DOMAIN_MIN 0.000000 0.000000 0.000000
DOMAIN_MAX 0.903226 0.903226 0.903226
0.295903 0.199130 0.079316
0.331853 0.201511 0.082124
0.403357 0.206760 0.088655
0.501488 0.215000 0.099306
0.634455 0.228275 0.113680
0.787900 0.257969 0.137118
0.912840 0.315435 0.189578
0.997253 0.410346 0.291539
0.311559 0.236179 0.083955
0.344335 0.237613 0.086885
0.410529 0.234714 0.092927
0.505852 0.241398 0.103609
0.636103 0.255924 0.117250
0.785183 0.285557 0.139712
0.908843 0.337407 0.191653
0.994812 0.426337 0.294621
0.347723 0.309728 0.099916
0.370275 0.310826 0.102388
0.439063 0.315679 0.110964
0.534447 0.322850 0.120119
0.662928 0.342992 0.132326
0.803067 0.375921 0.158572
0.919066 0.423346 0.221958
0.997406 0.499001 0.334417
0.396735 0.422675 0.124544
0.416327 0.423926 0.126467
0.480507 0.431373 0.133364
0.589471 0.457557 0.149538
0.715175 0.485817 0.167697
0.830655 0.508476 0.202304
0.925231 0.538323 0.273503
0.994751 0.595972 0.392828
0.454719 0.590417 0.157198
0.474769 0.591943 0.159335
0.539025 0.599420 0.168887
0.635981 0.615595 0.189731
0.745083 0.634638 0.221958
0.845304 0.646448 0.267277
0.926970 0.661189 0.346685
0.989654 0.703731 0.473701
0.529107 0.748623 0.236942
0.547936 0.752804 0.243900
0.600031 0.754940 0.257115
0.677546 0.759854 0.282780
0.765988 0.766781 0.321019
0.856138 0.777493 0.375219
0.930846 0.784939 0.456123
0.984680 0.808133 0.573816
0.639063 0.862425 0.396277
0.650111 0.863066 0.401770
0.682795 0.862760 0.414313
0.735653 0.863828 0.439918
0.798703 0.865782 0.475868
0.865599 0.870665 0.524712
0.928618 0.878202 0.581415
0.979889 0.889220 0.659449
0.766323 0.940276 0.600580
0.771450 0.940215 0.603326
0.789731 0.940520 0.614099
0.820829 0.941894 0.634974
0.855070 0.940795 0.652552
0.898528 0.944305 0.687343
0.941497 0.949523 0.727077
0.979828 0.955230 0.765957
0.301549 0.199649 0.106722
0.334447 0.201816 0.109865
0.404791 0.215396 0.116487
0.502647 0.226627 0.130220
0.633112 0.234470 0.144076
0.780697 0.258030 0.165805
0.905272 0.314061 0.212833
0.992004 0.410620 0.307683
0.316625 0.234836 0.112337
0.347967 0.237125 0.115572
0.413489 0.242374 0.123049
0.508751 0.249668 0.133791
0.637293 0.260349 0.147036
0.781674 0.285588 0.168948
0.902831 0.336584 0.215213
0.989563 0.425696 0.309941
0.354528 0.307591 0.125490
0.378302 0.308995 0.130739
0.440101 0.314427 0.138216
0.534173 0.323705 0.146944
0.660639 0.342687 0.160189
0.796201 0.372564 0.184848
0.909819 0.418006 0.240146
0.991424 0.495521 0.345190
0.400183 0.418677 0.149630
0.419532 0.420966 0.152071
0.482094 0.429694 0.158846
0.581811 0.448493 0.173556
0.700954 0.472663 0.189517
0.817441 0.497169 0.220371
0.915740 0.530144 0.284733
0.989258 0.591180 0.399451
0.455512 0.588128 0.184451
0.474952 0.588830 0.186160
0.537530 0.594598 0.195102
0.630854 0.606958 0.212680
0.736965 0.624201 0.241306
0.838590 0.639185 0.283879
0.922148 0.657374 0.360082
0.986145 0.701472 0.481636
0.529381 0.743709 0.258885
0.545586 0.744564 0.262181
0.597101 0.747127 0.274601
0.674708 0.753475 0.299809
0.763577 0.762264 0.338048
0.854124 0.774838 0.392462
0.928252 0.783078 0.469490
0.982269 0.806485 0.579980
0.638178 0.857206 0.406897
0.647211 0.856718 0.409186
0.680476 0.857145 0.422339
0.734279 0.859556 0.449256
0.797910 0.862791 0.486122
0.863951 0.867735 0.532250
0.926055 0.874815 0.584741
0.977539 0.886015 0.659571
0.765530 0.937865 0.604822
0.771145 0.938140 0.608392
0.789517 0.938659 0.619257
0.820584 0.940276 0.639887
0.858549 0.942077 0.665705
0.899718 0.944671 0.695827
0.941131 0.948913 0.730953
0.979034 0.954223 0.767453
0.315679 0.202243 0.159609
0.340185 0.205325 0.163119
0.413062 0.217777 0.174075
0.511223 0.229191 0.191196
0.643244 0.232761 0.214664
0.792233 0.252506 0.244327
0.909575 0.326604 0.295567
0.990753 0.440009 0.386206
0.336553 0.235416 0.167727
0.359014 0.238743 0.170596
0.421759 0.245243 0.179568
0.517693 0.252567 0.195743
0.648981 0.257206 0.217075
0.792477 0.282322 0.246738
0.908019 0.349432 0.298039
0.989349 0.456184 0.390448
0.367895 0.307561 0.185489
0.388617 0.309545 0.188418
0.447272 0.315282 0.196872
0.543175 0.324559 0.210666
0.674189 0.343053 0.233249
0.804898 0.374914 0.265110
0.911406 0.429664 0.320165
0.988159 0.518486 0.417670
0.409583 0.420844 0.216709
0.427832 0.423774 0.219425
0.488258 0.434852 0.227146
0.588769 0.452247 0.244938
0.709041 0.476692 0.267552
0.823148 0.503624 0.302464
0.916808 0.543877 0.365576
0.986206 0.612116 0.469306
0.461707 0.587823 0.264469
0.480110 0.590478 0.266361
0.541405 0.598322 0.273442
0.635981 0.611383 0.292515
0.741909 0.628901 0.321294
0.839780 0.643641 0.362341
0.920012 0.666712 0.432715
0.982330 0.714260 0.537865
0.535943 0.743343 0.331731
0.553338 0.744198 0.336584
0.606165 0.746334 0.351141
0.680446 0.751369 0.372961
0.765621 0.759609 0.406928
0.851926 0.772305 0.453925
0.924071 0.784176 0.522637
0.979217 0.812253 0.620233
0.650752 0.856748 0.463294
0.662837 0.856077 0.470130
0.695430 0.855619 0.484230
0.743893 0.857298 0.505028
0.803098 0.860624 0.535912
0.865873 0.866667 0.576898
0.925811 0.875792 0.623896
0.976684 0.889616 0.691432
0.772610 0.936522 0.635370
0.778347 0.936095 0.638972
0.794949 0.936461 0.647364
0.825345 0.938903 0.667353
0.861173 0.940917 0.689326
0.901152 0.944152 0.716945
0.941558 0.948943 0.749050
0.978790 0.954864 0.783078
0.337285 0.206638 0.237400
0.359564 0.210208 0.242130
0.425727 0.219272 0.255619
0.521447 0.229862 0.277409
0.651148 0.233219 0.316167
0.791958 0.254063 0.356054
0.905394 0.330816 0.397192
0.983764 0.462562 0.475837
0.356909 0.239200 0.250340
0.375952 0.240787 0.253788
0.436439 0.245457 0.264927
0.529473 0.252903 0.285100
0.658473 0.258396 0.322423
0.794430 0.282963 0.358801
0.905028 0.356878 0.401587
0.982513 0.482582 0.483131
0.382818 0.310460 0.272465
0.400702 0.312261 0.276677
0.458412 0.315801 0.288457
0.553735 0.325078 0.308507
0.681666 0.341680 0.343145
0.809628 0.378027 0.379431
0.911009 0.454749 0.436011
0.982422 0.551202 0.515557
0.421576 0.425635 0.314092
0.438819 0.428351 0.317906
0.497505 0.437354 0.330449
0.594568 0.452796 0.351019
0.711543 0.475105 0.377478
0.822141 0.509392 0.414710
0.911711 0.561669 0.471748
0.979706 0.635248 0.555047
0.472206 0.591089 0.377417
0.489540 0.592462 0.379156
0.548180 0.599451 0.387182
0.642145 0.613550 0.407935
0.744930 0.631495 0.436011
0.838834 0.650935 0.473976
0.915831 0.681239 0.531090
0.976837 0.729885 0.610559
0.546899 0.745754 0.438209
0.565972 0.748775 0.444556
0.619257 0.749477 0.457771
0.696193 0.753506 0.484840
0.774044 0.762081 0.511986
0.852110 0.774075 0.547662
0.919921 0.789425 0.600855
0.975280 0.818753 0.672633
0.657435 0.855741 0.533837
0.670008 0.855833 0.540093
0.708919 0.855772 0.560510
0.760952 0.857176 0.588373
0.813565 0.861295 0.611658
0.869749 0.867613 0.640742
0.924834 0.876432 0.675074
0.974395 0.891722 0.729732
0.777005 0.936919 0.675441
0.783352 0.936950 0.679500
0.802579 0.936706 0.691096
0.830686 0.937652 0.706722
0.864286 0.939971 0.724453
0.902403 0.943572 0.747463
0.941558 0.948882 0.775082
0.978180 0.955383 0.805142
0.367010 0.210452 0.361089
0.387396 0.212284 0.366155
0.450782 0.216861 0.380499
0.544915 0.222568 0.404578
0.662837 0.233219 0.442695
0.794217 0.258946 0.487221
0.902831 0.339025 0.518303
0.980133 0.472297 0.569879
0.378698 0.239811 0.374548
0.397833 0.240726 0.379339
0.458564 0.242802 0.391760
0.550744 0.246921 0.412909
0.668513 0.259129 0.450141
0.797604 0.288334 0.492042
0.903563 0.366796 0.522881
0.979309 0.492897 0.576013
0.395453 0.314611 0.404120
0.412543 0.314305 0.408637
0.473579 0.316045 0.419501
0.570275 0.324254 0.442451
0.685298 0.342596 0.471717
0.805295 0.377569 0.504814
0.903777 0.451148 0.538628
0.975860 0.554253 0.595178
0.428229 0.434546 0.447272
0.445533 0.435920 0.451118
0.504723 0.441444 0.464515
0.600763 0.453468 0.484779
0.712154 0.476326 0.508690
0.818936 0.513909 0.536492
0.905272 0.571588 0.574578
0.972381 0.644068 0.631586
0.480110 0.588525 0.503929
0.497414 0.590723 0.506828
0.554406 0.597253 0.516014
0.643885 0.609522 0.531823
0.740993 0.626703 0.551995
0.831327 0.651637 0.579828
0.907439 0.686702 0.619104
0.970581 0.733211 0.672450
0.552178 0.739437 0.553491
0.567926 0.739986 0.555749
0.618524 0.741115 0.562951
0.693141 0.745388 0.579034
0.772244 0.753811 0.603174
0.847349 0.770077 0.632502
0.914580 0.790555 0.671748
0.971008 0.820127 0.722408
0.663111 0.852781 0.619409
0.674037 0.852384 0.622461
0.709621 0.851987 0.634272
0.761227 0.853330 0.654536
0.814878 0.857633 0.676356
0.868650 0.865171 0.698604
0.921782 0.874693 0.724666
0.971283 0.891051 0.767208
0.775998 0.934142 0.720272
0.781582 0.933989 0.722683
0.799802 0.933867 0.730861
0.830076 0.936156 0.746853
0.863188 0.938262 0.761257
0.900755 0.942199 0.779904
0.939666 0.947784 0.802792
0.976471 0.954589 0.828275
0.397345 0.207736 0.540215
0.417151 0.208225 0.543938
0.478920 0.209506 0.554070
0.571649 0.212985 0.576226
0.680812 0.227237 0.604089
0.795743 0.266880 0.632380
0.899107 0.353002 0.651057
0.975311 0.488075 0.677455
0.401373 0.236606 0.546471
0.420478 0.236576 0.549432
0.481300 0.236637 0.559533
0.573693 0.240024 0.580865
0.682216 0.255467 0.606500
0.796780 0.295201 0.634058
0.898863 0.378119 0.652705
0.974273 0.506218 0.680476
0.405005 0.314092 0.576349
0.425269 0.314488 0.579034
0.489845 0.316655 0.588525
0.584802 0.325170 0.604669
0.693294 0.346349 0.624598
0.805051 0.387121 0.647730
0.900267 0.463416 0.663935
0.971984 0.568414 0.694728
0.436164 0.442817 0.611505
0.453864 0.442817 0.613428
0.514061 0.445899 0.621851
0.609918 0.460517 0.636805
0.715785 0.486946 0.653376
0.818692 0.525414 0.671443
0.902953 0.583062 0.687129
0.969390 0.654505 0.719020
0.491157 0.588739 0.644831
0.508324 0.590265 0.646845
0.564660 0.596368 0.652949
0.650690 0.610315 0.662715
0.741207 0.629664 0.674220
0.828397 0.655756 0.690455
0.903319 0.691157 0.710079
0.966308 0.735195 0.741939
0.567773 0.735256 0.681392
0.583703 0.737057 0.683711
0.631617 0.740566 0.688075
0.700740 0.746853 0.695552
0.774014 0.755886 0.705501
0.844938 0.770718 0.721798
0.909819 0.791226 0.744778
0.966979 0.818997 0.776608
0.673640 0.852232 0.719722
0.684718 0.852598 0.722072
0.717617 0.852628 0.727779
0.764096 0.854124 0.737057
0.815122 0.857969 0.748989
0.867857 0.864927 0.764675
0.919829 0.875425 0.783810
0.969512 0.892760 0.814817
0.778866 0.933288 0.780789
0.783871 0.933196 0.782162
0.800717 0.933196 0.786954
0.827726 0.934630 0.795621
0.860624 0.937011 0.806271
0.897520 0.941039 0.819455
0.937316 0.947265 0.838285
0.974823 0.954528 0.859098
0.417823 0.203128 0.722316
0.436347 0.203494 0.724117
0.495094 0.205356 0.730678
0.581323 0.212863 0.741054
0.680751 0.236728 0.753201
0.785519 0.288548 0.767086
0.888640 0.368872 0.781979
0.967346 0.501488 0.787900
0.418708 0.232700 0.728817
0.437232 0.232761 0.730190
0.496071 0.234257 0.735866
0.582696 0.242191 0.744900
0.682887 0.267185 0.756771
0.787930 0.318669 0.770352
0.890105 0.396948 0.784878
0.967437 0.523369 0.791318
0.418555 0.313298 0.740932
0.437995 0.313939 0.742245
0.499397 0.318212 0.746792
0.588617 0.330541 0.754299
0.690211 0.358587 0.764523
0.793820 0.407660 0.776455
0.891569 0.477333 0.789120
0.965393 0.580407 0.797391
0.446479 0.439887 0.756466
0.463935 0.440406 0.757259
0.522240 0.445869 0.760769
0.610163 0.461830 0.766476
0.708522 0.491554 0.774624
0.805386 0.534264 0.784512
0.893858 0.586023 0.795926
0.963134 0.658381 0.807919
0.515557 0.587579 0.775326
0.531548 0.589776 0.776181
0.583612 0.597925 0.778683
0.658381 0.612726 0.781643
0.740475 0.634150 0.787289
0.822843 0.663569 0.796597
0.898711 0.696590 0.808103
0.962280 0.740810 0.823087
0.603326 0.729732 0.795956
0.615930 0.731289 0.796414
0.656153 0.736965 0.798184
0.714382 0.746181 0.800870
0.777890 0.757809 0.805020
0.842039 0.772274 0.811704
0.905333 0.791775 0.823789
0.962860 0.818692 0.841337
0.690669 0.847135 0.817899
0.699245 0.847532 0.818296
0.726894 0.849241 0.820096
0.766995 0.852445 0.823270
0.814725 0.857694 0.828641
0.865568 0.865171 0.836545
0.916838 0.875761 0.848020
0.966400 0.891722 0.866026
0.781491 0.932830 0.848966
0.786435 0.932952 0.849760
0.801724 0.933135 0.851713
0.826871 0.934478 0.856107
0.859190 0.937163 0.862760
0.895537 0.941314 0.871305
0.934234 0.947082 0.882444
0.972992 0.955047 0.898436
0.431861 0.212039 0.877165
0.448890 0.213321 0.877623
0.502800 0.220340 0.879942
0.583185 0.238529 0.883360
0.677607 0.278691 0.887907
0.777127 0.346777 0.893156
0.873960 0.439948 0.898344
0.958679 0.542565 0.903990
0.432837 0.240635 0.879057
0.449683 0.242069 0.879454
0.504051 0.248753 0.881498
0.585107 0.267552 0.884855
0.680049 0.307469 0.889128
0.779507 0.373602 0.894102
0.875547 0.463783 0.899138
0.958801 0.560754 0.904784
0.438331 0.323491 0.883268
0.455818 0.325505 0.883696
0.511986 0.334722 0.885496
0.594324 0.355261 0.887785
0.689754 0.394690 0.891508
0.788083 0.456519 0.895842
0.880003 0.533684 0.900511
0.958465 0.613336 0.906157
0.471870 0.448127 0.887724
0.488716 0.450904 0.887938
0.542840 0.461952 0.889250
0.622492 0.484413 0.891234
0.713344 0.521386 0.893980
0.803952 0.570825 0.897765
0.887022 0.627436 0.902373
0.958251 0.682094 0.908537
0.559197 0.602411 0.894652
0.571588 0.604608 0.894530
0.612085 0.612818 0.894530
0.670436 0.624445 0.894163
0.747127 0.651453 0.897032
0.824063 0.684443 0.901122
0.895506 0.720027 0.906401
0.958892 0.756344 0.913176
0.655818 0.744137 0.903105
0.665187 0.746120 0.903227
0.694484 0.752163 0.903502
0.736446 0.759823 0.903746
0.786343 0.768460 0.903960
0.844053 0.782681 0.906462
0.904631 0.804257 0.912261
0.960540 0.828092 0.919951
0.739925 0.856229 0.913817
0.745632 0.857053 0.914031
0.763973 0.859525 0.914641
0.792660 0.863096 0.915557
0.829252 0.867826 0.916991
0.870787 0.873442 0.919066
0.916838 0.881956 0.923033
0.964935 0.897398 0.931823
0.804471 0.937377 0.927611
0.808133 0.937652 0.927916
0.820218 0.938537 0.928710
0.840177 0.939971 0.929931
0.866880 0.942290 0.932036
0.898863 0.945708 0.935363
0.934874 0.950744 0.940459
0.972290 0.958404 0.948760
