其他预设/【232】美食博客调色预设124款/1.3D LUT预设（视频调色-PR-AE-PS-FCPX-达芬奇用）/Food Art #36.cube
# Created by Adobe Lightroom plugin Export LUT (1.17.0)
# www.johnrellis.com/lightroom/exportlut.htm
# Preset: Food Art #36
# Color profile: /Library/Application Support/Adobe/Color/Profiles/Recommended/AdobeRGB1998.icc
LUT_3D_SIZE 32
0.129671 0.171054 0.214817
0.135439 0.171450 0.215000
0.142763 0.171878 0.215518
0.158389 0.173037 0.216556
0.177401 0.174472 0.217929
0.196048 0.176303 0.219760
0.214939 0.178195 0.221469
0.234226 0.180453 0.223789
0.254246 0.182956 0.226352
0.275303 0.185336 0.228824
0.297826 0.187716 0.231571
0.321630 0.190768 0.234989
0.346868 0.193729 0.238132
0.373541 0.197024 0.241825
0.401617 0.200168 0.245670
0.431037 0.203281 0.249607
0.462104 0.206241 0.253208
0.494759 0.208957 0.257145
0.528649 0.211337 0.260838
0.567437 0.213901 0.265141
0.607111 0.216190 0.269078
0.647364 0.218082 0.273075
0.686732 0.219730 0.277287
0.725063 0.221530 0.281285
0.762448 0.223178 0.285679
0.799161 0.225132 0.290196
0.835264 0.227451 0.295354
0.871061 0.230289 0.300786
0.906310 0.233890 0.306981
0.941070 0.238499 0.314122
0.975189 0.244541 0.322606
1.000000 0.252598 0.332738
0.129732 0.176303 0.215640
0.135225 0.176699 0.216007
0.142916 0.177218 0.216068
0.158541 0.178500 0.216953
0.177371 0.179629 0.218448
0.195926 0.181033 0.220432
0.214603 0.182528 0.222324
0.233860 0.184482 0.224552
0.253880 0.186435 0.226963
0.274998 0.188754 0.229160
0.297368 0.191135 0.231907
0.321141 0.193820 0.235080
0.346197 0.196780 0.238468
0.372808 0.199832 0.242252
0.400671 0.203128 0.246036
0.430060 0.206119 0.249821
0.460975 0.209018 0.253574
0.493446 0.211582 0.257450
0.527245 0.214145 0.261204
0.565759 0.216587 0.265232
0.604974 0.218845 0.269200
0.644892 0.220676 0.273167
0.684169 0.222477 0.277165
0.722469 0.224399 0.281132
0.759976 0.225834 0.285588
0.796780 0.227878 0.289891
0.833158 0.230076 0.294835
0.869108 0.232822 0.300450
0.904540 0.236423 0.306767
0.939483 0.240970 0.313939
0.973724 0.246830 0.322271
1.000000 0.254704 0.332006
0.129763 0.183566 0.216434
0.135683 0.184024 0.216678
0.143038 0.184298 0.217136
0.158450 0.185672 0.218021
0.177096 0.186252 0.219425
0.195712 0.186984 0.221073
0.214328 0.188083 0.223087
0.233433 0.189517 0.225437
0.253605 0.191165 0.227298
0.274540 0.193088 0.229770
0.296910 0.195438 0.232517
0.320623 0.198062 0.235599
0.345708 0.200839 0.239078
0.372168 0.203983 0.242863
0.400092 0.206973 0.246708
0.429480 0.209751 0.250340
0.460334 0.212711 0.254246
0.492744 0.215396 0.257633
0.526574 0.217777 0.261601
0.564904 0.220310 0.265446
0.604028 0.222599 0.269261
0.643702 0.224521 0.273381
0.682948 0.226230 0.277379
0.721218 0.228122 0.281193
0.758755 0.229740 0.285588
0.795560 0.231601 0.290105
0.832059 0.233799 0.294987
0.868070 0.236606 0.300511
0.903655 0.239933 0.306706
0.938659 0.244480 0.313878
0.972961 0.250309 0.322057
1.000000 0.257908 0.332067
0.130098 0.198611 0.218540
0.135927 0.198825 0.218631
0.143313 0.199252 0.219333
0.158450 0.199954 0.220249
0.176974 0.199741 0.221530
0.195499 0.199496 0.223117
0.214023 0.199374 0.225071
0.233249 0.200015 0.226902
0.253178 0.200931 0.228916
0.274296 0.202396 0.231388
0.296544 0.204318 0.234043
0.320287 0.206668 0.237278
0.345342 0.209354 0.240757
0.371679 0.212192 0.244236
0.399573 0.215091 0.247654
0.428901 0.217960 0.251499
0.459724 0.220645 0.255070
0.492012 0.223270 0.258793
0.526299 0.225895 0.262242
0.563836 0.228428 0.266178
0.602350 0.230503 0.270024
0.641688 0.232578 0.273869
0.680903 0.234440 0.277867
0.719539 0.236179 0.281926
0.757473 0.237827 0.285954
0.794827 0.239841 0.290593
0.831662 0.241917 0.295354
0.867887 0.244724 0.300999
0.903471 0.248264 0.307286
0.938445 0.252415 0.314336
0.972625 0.258061 0.322515
1.000000 0.265263 0.332403
0.130465 0.216342 0.221592
0.136080 0.216464 0.221714
0.142977 0.216709 0.222324
0.156832 0.216953 0.223301
0.175601 0.217685 0.224826
0.195041 0.216648 0.225986
0.213687 0.215396 0.227390
0.232731 0.214847 0.229374
0.252750 0.215061 0.231113
0.273564 0.215946 0.233799
0.295872 0.217502 0.236606
0.319585 0.219425 0.239567
0.344671 0.221622 0.242924
0.371069 0.224277 0.246311
0.398962 0.227024 0.249607
0.428351 0.229709 0.253330
0.459297 0.232181 0.256901
0.491737 0.235050 0.260227
0.526818 0.237522 0.263890
0.563897 0.240208 0.267521
0.601892 0.242496 0.271214
0.641016 0.244602 0.274876
0.680018 0.246586 0.278660
0.718563 0.248295 0.282811
0.756527 0.250248 0.286778
0.794034 0.251987 0.291417
0.830808 0.254246 0.296208
0.867094 0.256626 0.301884
0.902770 0.260075 0.307836
0.937682 0.264195 0.314916
0.971923 0.269474 0.323095
1.000000 0.276402 0.333043
0.131319 0.234348 0.225315
0.136385 0.234562 0.225589
0.142428 0.234592 0.225956
0.155245 0.234958 0.226352
0.172824 0.235203 0.227665
0.193301 0.235874 0.229099
0.213565 0.234714 0.230442
0.232639 0.233280 0.232486
0.252445 0.232547 0.234623
0.273472 0.232853 0.237034
0.295781 0.233799 0.239750
0.319554 0.235386 0.242496
0.344488 0.237339 0.245762
0.370977 0.239475 0.249027
0.399054 0.242069 0.252201
0.428382 0.244480 0.255711
0.459388 0.247227 0.258976
0.491829 0.249760 0.262425
0.527825 0.252689 0.265873
0.564691 0.255314 0.269383
0.602625 0.257786 0.272892
0.641718 0.259892 0.276738
0.696407 0.264683 0.282444
0.734493 0.266758 0.286717
0.771542 0.268406 0.290959
0.807889 0.270451 0.295445
0.843442 0.272709 0.300481
0.878416 0.275029 0.306157
0.912779 0.278325 0.312261
0.946563 0.282414 0.319524
0.979522 0.287602 0.327825
1.000000 0.294285 0.337682
0.132235 0.253941 0.229374
0.136721 0.253910 0.229557
0.142550 0.254124 0.229740
0.154574 0.254368 0.230594
0.171206 0.254612 0.231632
0.190860 0.255161 0.233310
0.212619 0.255650 0.234989
0.233829 0.254826 0.236637
0.253910 0.253422 0.238712
0.275242 0.253086 0.241184
0.297612 0.253452 0.244144
0.321630 0.254734 0.246677
0.346838 0.256413 0.249851
0.373510 0.258274 0.252720
0.401587 0.260410 0.255680
0.430976 0.262730 0.258824
0.461891 0.265293 0.262089
0.495888 0.268070 0.265446
0.532158 0.271183 0.268803
0.569604 0.273930 0.272313
0.608606 0.276951 0.275761
0.649134 0.279484 0.279454
0.689693 0.282139 0.283330
0.729458 0.284489 0.287449
0.768154 0.286625 0.291936
0.805386 0.288701 0.296513
0.841520 0.290806 0.301671
0.876646 0.293370 0.307134
0.911192 0.296269 0.313451
0.945006 0.300084 0.320439
0.978027 0.304784 0.328893
1.000000 0.311101 0.338781
0.133822 0.273198 0.234073
0.137636 0.273259 0.234287
0.143252 0.273289 0.234531
0.154208 0.273442 0.235233
0.169711 0.273747 0.236423
0.188571 0.274144 0.237675
0.209384 0.274571 0.239414
0.231662 0.275212 0.241489
0.253727 0.274998 0.243442
0.275090 0.273991 0.245335
0.297642 0.274083 0.248081
0.321599 0.274846 0.250858
0.346777 0.276219 0.253727
0.373388 0.277958 0.256565
0.401465 0.279911 0.259495
0.430884 0.282200 0.262181
0.462470 0.284764 0.265324
0.496895 0.287968 0.268559
0.532586 0.290837 0.271672
0.569482 0.293889 0.274693
0.607965 0.296788 0.278202
0.648035 0.299687 0.281682
0.688228 0.302464 0.285466
0.727810 0.304906 0.289281
0.766323 0.307103 0.293645
0.803586 0.309331 0.298131
0.839750 0.311437 0.303197
0.875029 0.313664 0.308537
0.909667 0.316503 0.314702
0.943542 0.320073 0.321782
0.976684 0.324590 0.330144
1.000000 0.330419 0.339940
0.135531 0.293278 0.239811
0.139498 0.293278 0.239994
0.144381 0.293370 0.240360
0.154757 0.293614 0.240848
0.169650 0.293828 0.241855
0.187472 0.294194 0.242832
0.207523 0.294713 0.244450
0.229038 0.295415 0.246311
0.252110 0.296117 0.248203
0.275395 0.296361 0.250462
0.298222 0.296117 0.252445
0.322148 0.296513 0.255192
0.347356 0.297704 0.258000
0.373907 0.299290 0.260929
0.401892 0.301244 0.263615
0.431800 0.303685 0.266423
0.464515 0.306615 0.269200
0.498482 0.309789 0.271916
0.533532 0.312718 0.274968
0.570062 0.315679 0.277745
0.608209 0.318791 0.281041
0.648035 0.321813 0.284276
0.687831 0.324651 0.287877
0.727077 0.327306 0.291569
0.765438 0.329595 0.295903
0.802670 0.331731 0.300298
0.838773 0.333867 0.304967
0.874022 0.336034 0.310399
0.908598 0.338811 0.316564
0.942504 0.342077 0.323583
0.975586 0.346288 0.331975
1.000000 0.351720 0.341711
0.137575 0.314580 0.245640
0.141329 0.314611 0.245670
0.146151 0.314702 0.246006
0.155917 0.314824 0.246433
0.170108 0.315068 0.247166
0.187076 0.315557 0.248356
0.206607 0.315953 0.249821
0.227817 0.316564 0.251469
0.250492 0.317418 0.253300
0.274205 0.318212 0.255344
0.298528 0.319158 0.257572
0.322789 0.319341 0.259434
0.348150 0.320256 0.261906
0.374609 0.321782 0.264836
0.403449 0.324163 0.267765
0.434241 0.327031 0.270787
0.466773 0.330083 0.273167
0.500725 0.333196 0.275853
0.535546 0.336217 0.278630
0.571740 0.339117 0.281376
0.609491 0.342321 0.284092
0.648463 0.345495 0.287175
0.687465 0.348211 0.290654
0.725978 0.350835 0.294072
0.763851 0.353185 0.298039
0.800900 0.355322 0.302312
0.837095 0.357488 0.307012
0.872618 0.359777 0.312291
0.907439 0.362463 0.318639
0.941558 0.365728 0.325689
0.974853 0.369787 0.334112
1.000000 0.374823 0.344091
0.139071 0.337041 0.251469
0.142794 0.337072 0.251499
0.147463 0.337163 0.251591
0.157015 0.337346 0.252232
0.170626 0.337591 0.252964
0.187320 0.337987 0.253971
0.206699 0.338567 0.255131
0.227695 0.339239 0.256565
0.250095 0.340032 0.258305
0.273747 0.341039 0.260197
0.298222 0.342046 0.262455
0.323552 0.343145 0.264622
0.349462 0.344335 0.266545
0.377142 0.346197 0.268956
0.406073 0.348547 0.271855
0.436500 0.351293 0.274968
0.468482 0.354192 0.277592
0.502068 0.357427 0.280003
0.536584 0.360327 0.282536
0.572564 0.363409 0.284825
0.609979 0.366674 0.287633
0.648737 0.369940 0.290349
0.687556 0.373114 0.293584
0.725917 0.375738 0.297032
0.763607 0.378180 0.300999
0.800412 0.380346 0.305119
0.836423 0.382513 0.309758
0.871763 0.384710 0.315007
0.906554 0.387304 0.321080
0.940581 0.390387 0.328099
0.973877 0.394202 0.336584
1.000000 0.399115 0.346807
0.140444 0.360906 0.257359
0.144045 0.361059 0.257450
0.148623 0.361059 0.257694
0.158236 0.361242 0.257939
0.171542 0.361486 0.258701
0.188235 0.362005 0.259678
0.207279 0.362676 0.260563
0.228183 0.363348 0.262119
0.250431 0.364233 0.263706
0.274205 0.365209 0.265385
0.298894 0.366369 0.267308
0.325139 0.368444 0.269749
0.357733 0.375128 0.273472
0.386572 0.377264 0.275395
0.416785 0.379797 0.277226
0.447974 0.382483 0.279942
0.480659 0.385412 0.282902
0.514458 0.388495 0.285405
0.548638 0.391089 0.288090
0.584314 0.393957 0.290440
0.621363 0.396979 0.292943
0.659144 0.400092 0.295537
0.696742 0.402564 0.298589
0.734035 0.405035 0.301793
0.770718 0.407080 0.305638
0.806638 0.409094 0.309789
0.841855 0.410956 0.314275
0.876432 0.412970 0.319341
0.910369 0.415198 0.325628
0.943755 0.418006 0.332738
0.976349 0.421485 0.341283
1.000000 0.426123 0.351415
0.142184 0.388220 0.263279
0.145327 0.388251 0.263554
0.150057 0.388312 0.263706
0.159182 0.388373 0.264195
0.172854 0.388495 0.264652
0.189517 0.388708 0.265476
0.208652 0.389136 0.266270
0.229618 0.389746 0.267704
0.252110 0.390723 0.269017
0.276768 0.392706 0.270848
0.302525 0.394995 0.273075
0.329839 0.397467 0.275395
0.358099 0.400122 0.277897
0.387304 0.402686 0.280522
0.417853 0.405463 0.281987
0.449561 0.408545 0.283787
0.482155 0.411414 0.286381
0.515526 0.414313 0.288914
0.549340 0.416999 0.291569
0.584527 0.419867 0.294194
0.621118 0.423041 0.296574
0.658625 0.426215 0.299199
0.695888 0.428901 0.302068
0.732906 0.431342 0.305089
0.769375 0.433478 0.308568
0.805234 0.435370 0.312535
0.840391 0.437354 0.317205
0.874907 0.439338 0.322393
0.908904 0.441505 0.328496
0.942351 0.444251 0.335576
0.975036 0.447669 0.344152
1.000000 0.452003 0.354467
0.142702 0.414740 0.269200
0.146365 0.414740 0.269169
0.151095 0.414801 0.269230
0.160342 0.414862 0.269627
0.173922 0.414893 0.270085
0.190616 0.415442 0.270909
0.209812 0.416419 0.271977
0.231357 0.417456 0.273167
0.254307 0.418952 0.274601
0.279026 0.420661 0.276005
0.304997 0.422705 0.277928
0.332128 0.425116 0.280125
0.360449 0.427619 0.282353
0.389563 0.429908 0.284611
0.419226 0.432136 0.287327
0.450752 0.435004 0.288762
0.483528 0.438056 0.290227
0.516716 0.440894 0.292088
0.550256 0.443427 0.294713
0.585077 0.446326 0.297246
0.621546 0.449683 0.299962
0.658564 0.452949 0.302770
0.695644 0.455818 0.305608
0.732448 0.458412 0.308568
0.768826 0.460609 0.311986
0.804471 0.462623 0.316136
0.839628 0.464546 0.320623
0.874144 0.466499 0.325566
0.908110 0.468849 0.331609
0.941527 0.471443 0.338933
0.974243 0.474739 0.347662
1.000000 0.478950 0.358282
0.143130 0.444495 0.274876
0.146853 0.444648 0.274876
0.151461 0.444617 0.274907
0.160891 0.444831 0.275395
0.174960 0.445014 0.275822
0.192081 0.445411 0.276432
0.211460 0.446021 0.277501
0.233371 0.446845 0.278294
0.256596 0.448066 0.279515
0.281407 0.449744 0.281193
0.307561 0.451667 0.282872
0.334966 0.454017 0.284703
0.363409 0.456275 0.286809
0.392767 0.458686 0.288762
0.422614 0.460761 0.291020
0.452796 0.462531 0.293400
0.484993 0.465339 0.294713
0.518151 0.468177 0.295872
0.551690 0.470649 0.297642
0.586328 0.473640 0.300298
0.622339 0.476905 0.302983
0.659052 0.480232 0.305852
0.695644 0.483192 0.308995
0.732082 0.485817 0.312474
0.768368 0.488167 0.315679
0.804074 0.490364 0.319585
0.839353 0.492470 0.324193
0.874083 0.494667 0.329595
0.908324 0.497017 0.335912
0.941985 0.499855 0.343389
0.974884 0.503227 0.352331
1.000000 0.507469 0.363287
0.143069 0.475929 0.280247
0.146822 0.476143 0.280522
0.151400 0.476143 0.280552
0.161196 0.476326 0.280949
0.175540 0.476570 0.281285
0.193393 0.477028 0.281773
0.213474 0.477668 0.282719
0.235508 0.478584 0.283604
0.259312 0.479805 0.284855
0.284520 0.481331 0.286076
0.310979 0.482948 0.287480
0.338598 0.484779 0.289311
0.366979 0.486702 0.291142
0.396155 0.488533 0.293034
0.426062 0.490333 0.294804
0.456367 0.491951 0.297063
0.486915 0.493355 0.299077
0.519249 0.495644 0.300603
0.553033 0.498451 0.301946
0.588128 0.501671 0.303349
0.624201 0.505241 0.306096
0.660792 0.508629 0.309178
0.697200 0.511711 0.312200
0.733516 0.514397 0.315862
0.769497 0.516899 0.319615
0.805142 0.519188 0.324102
0.840330 0.521386 0.328588
0.874968 0.523613 0.333989
0.909026 0.525963 0.340307
0.942412 0.528710 0.347906
0.975006 0.531823 0.357122
1.000000 0.535790 0.368322
0.142123 0.507897 0.285618
0.145998 0.507958 0.285405
0.151034 0.507988 0.285618
0.161135 0.508110 0.285893
0.175906 0.508415 0.286198
0.194095 0.508782 0.286748
0.214481 0.509361 0.287602
0.237034 0.510185 0.288457
0.261326 0.511254 0.289464
0.286900 0.512505 0.290532
0.313848 0.514092 0.291905
0.341650 0.515770 0.293492
0.370367 0.517571 0.295262
0.399695 0.519219 0.296849
0.429572 0.520714 0.298802
0.459724 0.521935 0.300786
0.490364 0.523095 0.302647
0.521355 0.524254 0.304692
0.554253 0.526543 0.306279
0.589136 0.529808 0.307713
0.625330 0.533501 0.309148
0.661677 0.536797 0.311803
0.697810 0.539879 0.315129
0.733913 0.542748 0.318700
0.769772 0.545312 0.322850
0.805264 0.547723 0.327489
0.840299 0.550072 0.332586
0.874876 0.552392 0.338384
0.908965 0.554864 0.344915
0.942351 0.557488 0.352880
0.974914 0.560754 0.362097
1.000000 0.564630 0.373510
0.140810 0.540887 0.290410
0.144808 0.541070 0.290684
0.150179 0.548241 0.291875
0.161044 0.548272 0.292119
0.176791 0.548394 0.292515
0.195865 0.548486 0.293004
0.217563 0.548699 0.293523
0.241001 0.549065 0.294224
0.266087 0.549737 0.295201
0.292515 0.550713 0.296269
0.319921 0.551843 0.297429
0.348089 0.553002 0.299077
0.377203 0.554131 0.300420
0.407050 0.555352 0.301976
0.437201 0.556420 0.303655
0.467689 0.557305 0.305364
0.498573 0.558160 0.307195
0.529686 0.558953 0.309270
0.561212 0.559808 0.311070
0.594873 0.561944 0.312779
0.630426 0.565179 0.314092
0.666285 0.568261 0.316014
0.702205 0.571008 0.318486
0.737545 0.573510 0.322576
0.772549 0.575647 0.326757
0.807218 0.577661 0.331304
0.841459 0.579583 0.336614
0.875395 0.581628 0.342687
0.908995 0.584009 0.349767
0.942199 0.586664 0.357702
0.974640 0.589776 0.367437
1.000000 0.593530 0.379095
0.139681 0.576013 0.295476
0.143435 0.576989 0.295720
0.149172 0.578119 0.296025
0.160250 0.579065 0.296391
0.176211 0.579828 0.296971
0.195865 0.580285 0.297581
0.218082 0.580682 0.297978
0.242069 0.581018 0.298772
0.267430 0.581750 0.299413
0.294194 0.582452 0.300450
0.321874 0.583429 0.301732
0.350591 0.584558 0.302861
0.379767 0.585687 0.304356
0.409674 0.586664 0.305791
0.439979 0.587579 0.307561
0.470680 0.588373 0.309117
0.501671 0.589227 0.310826
0.533135 0.589960 0.312718
0.564996 0.590875 0.314519
0.597223 0.591943 0.316747
0.631189 0.594079 0.318547
0.667018 0.597284 0.320348
0.702846 0.600153 0.322515
0.738430 0.602716 0.325414
0.773281 0.604913 0.329870
0.807828 0.606897 0.334752
0.842008 0.608881 0.340185
0.875792 0.611017 0.346715
0.909270 0.613336 0.354040
0.942260 0.616022 0.362737
0.974487 0.619165 0.373053
1.000000 0.622766 0.385046
0.137179 0.609277 0.300053
0.141482 0.610285 0.300420
0.147860 0.611231 0.300481
0.159060 0.612238 0.301061
0.175814 0.613001 0.301366
0.196109 0.613428 0.301762
0.218540 0.613764 0.302617
0.242832 0.614130 0.303105
0.268772 0.614801 0.303899
0.295995 0.615503 0.304845
0.324254 0.616419 0.305852
0.353094 0.617517 0.307012
0.382757 0.618463 0.308385
0.412848 0.619379 0.309789
0.443519 0.620203 0.311223
0.474372 0.620874 0.312840
0.505577 0.621576 0.314611
0.537133 0.622187 0.316411
0.569055 0.622889 0.318425
0.601465 0.623835 0.320378
0.634119 0.624842 0.322759
0.668208 0.626886 0.324895
0.703883 0.629847 0.327184
0.739284 0.632410 0.329870
0.774228 0.634638 0.333379
0.808652 0.636530 0.338109
0.842527 0.638422 0.343755
0.876127 0.640528 0.350439
0.909331 0.642756 0.358373
0.942107 0.645319 0.367224
0.974151 0.648371 0.377905
1.000000 0.651972 0.390936
0.135195 0.643641 0.304723
0.139956 0.644556 0.304723
0.145663 0.645472 0.305119
0.157900 0.646296 0.305455
0.175692 0.646998 0.305791
0.195926 0.647456 0.306371
0.219211 0.647669 0.306889
0.243961 0.648066 0.307561
0.270390 0.648432 0.308263
0.297826 0.649042 0.309117
0.326238 0.649805 0.310094
0.355535 0.650599 0.311406
0.385412 0.651423 0.312627
0.415839 0.652216 0.313939
0.446632 0.652949 0.315587
0.477882 0.653742 0.317266
0.509575 0.654536 0.318914
0.541650 0.655543 0.320806
0.574212 0.656580 0.322728
0.607172 0.657771 0.325078
0.640406 0.659174 0.327581
0.674067 0.660670 0.330114
0.708431 0.662562 0.332738
0.743923 0.665339 0.335760
0.778927 0.667567 0.339422
0.813382 0.669551 0.343603
0.847196 0.671260 0.349279
0.880461 0.673121 0.356542
0.913329 0.675227 0.364843
0.945586 0.677607 0.374517
0.977142 0.680385 0.385809
1.000000 0.683742 0.399329
0.134218 0.681331 0.310094
0.138674 0.681849 0.310307
0.145052 0.682185 0.310491
0.157443 0.682490 0.310765
0.175631 0.682826 0.310918
0.196445 0.682918 0.311589
0.220249 0.683223 0.311955
0.245640 0.683436 0.312627
0.272648 0.683955 0.313451
0.300511 0.684565 0.314458
0.329686 0.685359 0.315312
0.359411 0.686122 0.316564
0.389624 0.686824 0.317815
0.420142 0.687434 0.319432
0.451270 0.688014 0.320775
0.482795 0.688594 0.322484
0.514519 0.689204 0.324224
0.546777 0.689876 0.326024
0.579156 0.690700 0.328038
0.611902 0.691524 0.330327
0.644953 0.692470 0.332555
0.678126 0.693477 0.335210
0.711482 0.694514 0.338018
0.745144 0.695827 0.340856
0.779782 0.697871 0.344427
0.813962 0.699763 0.348943
0.847715 0.701472 0.354009
0.881010 0.703243 0.360479
0.913664 0.705226 0.369299
0.945708 0.707424 0.379400
0.976959 0.710048 0.391211
1.000000 0.713222 0.405249
0.133181 0.715450 0.315373
0.138277 0.715908 0.315648
0.144503 0.716274 0.315740
0.158022 0.716579 0.315892
0.176150 0.716854 0.316411
0.197574 0.716915 0.316777
0.221530 0.717037 0.317174
0.247227 0.717128 0.317815
0.274388 0.717494 0.318578
0.302708 0.717922 0.319402
0.331792 0.718563 0.320623
0.361669 0.719173 0.321813
0.392035 0.719753 0.323064
0.422858 0.720333 0.324590
0.454108 0.720912 0.326085
0.485756 0.721462 0.327642
0.517723 0.722011 0.329381
0.549981 0.722744 0.331395
0.582605 0.723476 0.333593
0.615534 0.724331 0.335821
0.648554 0.725277 0.338537
0.681819 0.726284 0.341100
0.715206 0.727413 0.344030
0.748653 0.728511 0.347051
0.779751 0.727657 0.349432
0.813748 0.729458 0.353765
0.847349 0.731136 0.359228
0.880491 0.732876 0.365637
0.913146 0.734676 0.373236
0.945098 0.736751 0.383612
0.976257 0.739284 0.396002
1.000000 0.742458 0.410956
0.135012 0.752102 0.322057
0.140017 0.752560 0.322240
0.146426 0.752865 0.322606
0.159609 0.752987 0.322728
0.178256 0.753017 0.323033
0.199802 0.752926 0.323308
0.224155 0.752743 0.323674
0.249729 0.752651 0.324285
0.277195 0.752560 0.324956
0.305608 0.752590 0.325750
0.334752 0.752682 0.326818
0.364660 0.752987 0.327794
0.395087 0.753201 0.329015
0.425757 0.753445 0.330480
0.456947 0.753567 0.331731
0.488319 0.753658 0.333349
0.520073 0.753780 0.335149
0.552056 0.754116 0.337011
0.584497 0.754696 0.339147
0.617273 0.755520 0.341711
0.650355 0.756497 0.344305
0.683497 0.757504 0.347173
0.716701 0.758389 0.350072
0.749691 0.759182 0.353155
0.782406 0.759823 0.356390
0.815091 0.760494 0.359777
0.848203 0.761898 0.365240
0.881010 0.763302 0.371740
0.913298 0.764920 0.379522
0.945006 0.766751 0.389105
0.976013 0.768978 0.401465
1.000000 0.771969 0.417029
0.138247 0.785061 0.328527
0.142916 0.785489 0.328801
0.149447 0.785794 0.328954
0.162814 0.785916 0.329076
0.180972 0.785885 0.329381
0.202426 0.785855 0.329839
0.226719 0.785733 0.330297
0.252598 0.785672 0.330846
0.280125 0.785641 0.331456
0.308385 0.785824 0.332586
0.337774 0.785977 0.333562
0.367712 0.786282 0.334722
0.398322 0.786587 0.335943
0.429175 0.786862 0.337530
0.460456 0.787015 0.338994
0.491981 0.787167 0.340703
0.523857 0.787289 0.342443
0.555871 0.787625 0.344579
0.588251 0.788113 0.346685
0.621027 0.788815 0.349279
0.653986 0.789578 0.352056
0.686976 0.790433 0.354864
0.719997 0.791196 0.358068
0.752834 0.791928 0.361273
0.785489 0.792538 0.364782
0.817929 0.793088 0.368200
0.850156 0.793668 0.371923
0.882689 0.794949 0.378759
0.914733 0.796353 0.387243
0.946197 0.798001 0.397070
0.976989 0.800046 0.409308
1.000000 0.802609 0.424811
0.143893 0.818692 0.336187
0.149081 0.818997 0.336339
0.155123 0.819120 0.336492
0.167880 0.819120 0.336736
0.185580 0.818967 0.337011
0.206699 0.818814 0.337438
0.230320 0.818601 0.337865
0.256443 0.818387 0.338293
0.283665 0.818357 0.338994
0.311925 0.818448 0.340032
0.341253 0.818601 0.341100
0.371313 0.818936 0.342168
0.401770 0.819181 0.343664
0.432715 0.819455 0.345251
0.463905 0.819577 0.346807
0.495277 0.819669 0.348669
0.527001 0.819730 0.350378
0.559045 0.819883 0.352453
0.591363 0.820249 0.354864
0.623865 0.820798 0.357488
0.656611 0.821469 0.360235
0.689387 0.822202 0.363531
0.722194 0.822873 0.366705
0.754788 0.823514 0.370153
0.787289 0.824094 0.373816
0.819486 0.824582 0.377600
0.851469 0.825101 0.381628
0.883238 0.825620 0.385718
0.914946 0.826780 0.394049
0.946197 0.828275 0.404425
0.976745 0.830076 0.416968
1.000000 0.832364 0.432654
0.152529 0.851041 0.344701
0.157107 0.851225 0.344915
0.163027 0.851347 0.344945
0.174899 0.851347 0.345251
0.192386 0.851347 0.345495
0.213260 0.851438 0.345892
0.236820 0.851682 0.346654
0.262486 0.852049 0.347448
0.289647 0.852598 0.348669
0.318303 0.853208 0.349859
0.347662 0.853910 0.351354
0.377874 0.854673 0.352972
0.408515 0.855344 0.354650
0.439734 0.855833 0.356420
0.471107 0.856168 0.358434
0.502525 0.856321 0.360418
0.534356 0.856382 0.362341
0.566247 0.856504 0.364813
0.598535 0.856718 0.367254
0.630915 0.857084 0.370092
0.663447 0.857572 0.373205
0.696040 0.858091 0.376684
0.728573 0.858579 0.380224
0.760952 0.859007 0.383825
0.793149 0.859403 0.387701
0.825040 0.859770 0.391852
0.856718 0.860166 0.396124
0.888151 0.860563 0.400732
0.919310 0.861143 0.405737
0.950011 0.862119 0.415686
0.979858 0.863371 0.429175
1.000000 0.864988 0.445655
0.167453 0.886656 0.356634
0.171817 0.886778 0.356786
0.177157 0.886778 0.357031
0.188388 0.886687 0.356970
0.204471 0.886534 0.357336
0.224155 0.886412 0.357702
0.246952 0.886381 0.358251
0.271611 0.886412 0.358984
0.297978 0.886564 0.359991
0.325841 0.886778 0.361151
0.354559 0.887022 0.362432
0.384131 0.887297 0.363897
0.414252 0.887541 0.365759
0.444831 0.887755 0.367437
0.475776 0.887877 0.369421
0.507042 0.887907 0.371405
