其他预设/【232】美食博客调色预设124款/1.3D LUT预设（视频调色-PR-AE-PS-FCPX-达芬奇用）/Food Art #28.cube
# Created by Adobe Lightroom plugin Export LUT (1.17.0)
# www.johnrellis.com/lightroom/exportlut.htm
# Preset: Food Art #28
# Color profile: /Library/Application Support/Adobe/Color/Profiles/Recommended/AdobeRGB1998.icc
LUT_3D_SIZE 8
DOMAIN_MIN 0.000000 0.000000 0.000000
DOMAIN_MAX 0.903226 0.903226 0.903226
0.000000 0.000000 0.000000
0.098024 0.018158 0.007507
0.273442 0.000000 0.009461
0.455787 0.000000 0.000000
0.623560 0.000000 0.000000
0.757778 0.100221 0.000000
0.876890 0.208042 0.110567
0.980865 0.311223 0.221469
0.063416 0.081605 0.003693
0.108156 0.086336 0.005554
0.275334 0.082124 0.000000
0.453407 0.061616 0.000000
0.621180 0.105592 0.000000
0.751034 0.166476 0.000000
0.871427 0.240665 0.110140
0.977905 0.331304 0.222354
0.088014 0.234379 0.000000
0.157137 0.235019 0.000000
0.292363 0.235782 0.000000
0.463508 0.255802 0.000000
0.624567 0.275517 0.000000
0.751736 0.298253 0.000000
0.875639 0.343633 0.135683
0.979553 0.407538 0.245731
0.179019 0.396582 0.000000
0.226413 0.396643 0.000000
0.341802 0.398016 0.000000
0.479652 0.405310 0.000000
0.635279 0.428931 0.000000
0.755764 0.437476 0.061677
0.874266 0.463600 0.168856
0.976074 0.505577 0.275425
0.272618 0.555566 0.000000
0.304143 0.555108 0.000000
0.393408 0.555108 0.000000
0.510185 0.557336 0.000000
0.631769 0.558740 0.000000
0.751400 0.564874 0.116396
0.869169 0.583673 0.209140
0.971313 0.613825 0.317296
0.360632 0.686427 0.093202
0.383734 0.688899 0.100191
0.448310 0.688350 0.111208
0.541131 0.688441 0.130709
0.646326 0.689113 0.156100
0.756832 0.692683 0.188968
0.870268 0.705745 0.267979
0.968627 0.725490 0.376074
0.455573 0.818387 0.239567
0.470588 0.818906 0.242771
0.516960 0.817990 0.249302
0.590265 0.817960 0.263279
0.678889 0.818143 0.283513
0.776394 0.820584 0.312871
0.876829 0.824918 0.351141
0.964599 0.828153 0.435645
0.564172 0.930449 0.401495
0.573663 0.930266 0.403265
0.606348 0.930053 0.410529
0.661128 0.930571 0.425391
0.726223 0.927398 0.437232
0.805325 0.928344 0.463386
0.889036 0.930205 0.495338
0.972473 0.931792 0.530968
0.037263 0.022400 0.020996
0.104494 0.023377 0.022553
0.267491 0.000000 0.027466
0.442451 0.000000 0.006439
0.610101 0.018799 0.015900
0.742641 0.143130 0.087190
0.865232 0.229374 0.157931
0.973663 0.324987 0.251164
0.060822 0.080049 0.020539
0.116060 0.085969 0.023011
0.269474 0.105013 0.023499
0.442847 0.109957 0.000000
0.608972 0.140475 0.009644
0.739834 0.191501 0.087831
0.861448 0.258000 0.158236
0.970703 0.342870 0.251011
0.112123 0.226261 0.000000
0.175265 0.223636 0.003784
0.286290 0.226658 0.000000
0.450660 0.252415 0.000000
0.610651 0.277531 0.003693
0.740017 0.304448 0.098604
0.863005 0.348638 0.174044
0.971710 0.413062 0.269932
0.192203 0.382971 0.000000
0.238437 0.382605 0.000000
0.340887 0.385382 0.000000
0.465949 0.390082 0.000000
0.617731 0.416785 0.034760
0.740932 0.431556 0.121584
0.861814 0.461158 0.198642
0.968750 0.506981 0.295781
0.286137 0.546685 0.011933
0.314061 0.545922 0.014954
0.396307 0.545403 0.033234
0.505699 0.546471 0.064912
0.622644 0.548302 0.090272
0.742702 0.558801 0.158480
0.862089 0.581506 0.236942
0.966400 0.614527 0.336980
0.369268 0.679042 0.144900
0.388952 0.679042 0.147127
0.450355 0.679011 0.154452
0.540337 0.680415 0.169131
0.643671 0.682918 0.190646
0.753109 0.688502 0.220279
0.866270 0.703700 0.292424
0.964996 0.725216 0.393286
0.459968 0.811246 0.263005
0.473121 0.810575 0.263890
0.518456 0.810544 0.270481
0.590845 0.812070 0.284550
0.678523 0.813748 0.304875
0.774136 0.816434 0.331945
0.872618 0.820554 0.366064
0.960784 0.825284 0.445686
0.567193 0.927153 0.415564
0.576837 0.927306 0.417884
0.609064 0.927398 0.425147
0.662989 0.928222 0.439399
0.730648 0.928313 0.456947
0.807004 0.928405 0.479042
0.888548 0.929229 0.506432
0.970947 0.930480 0.539605
0.080659 0.071962 0.115877
0.136721 0.056123 0.118532
0.278386 0.000000 0.128969
0.440040 0.000000 0.143374
0.599664 0.115572 0.171328
0.732601 0.214694 0.216495
0.857939 0.291783 0.272251
0.967834 0.379400 0.349096
0.107881 0.102052 0.112490
0.157412 0.104158 0.112673
0.276127 0.107759 0.123690
0.435309 0.127016 0.142916
0.596368 0.178256 0.173922
0.730190 0.244846 0.216617
0.855375 0.312230 0.271794
0.966247 0.394263 0.349584
0.144076 0.217533 0.119692
0.191928 0.219303 0.120851
0.299657 0.230625 0.129732
0.444526 0.257572 0.151705
0.601740 0.293431 0.183078
0.731624 0.332464 0.224460
0.855344 0.383001 0.281498
0.964904 0.449592 0.360754
0.214420 0.377569 0.142123
0.256596 0.375402 0.145235
0.352728 0.376410 0.154818
0.463813 0.383673 0.162295
0.611261 0.418189 0.195407
0.734401 0.444251 0.240421
0.856352 0.482429 0.300816
0.963378 0.533806 0.383093
0.299535 0.537041 0.177127
0.331548 0.534691 0.183047
0.412146 0.534936 0.194705
0.510735 0.538903 0.203586
0.620050 0.543481 0.216434
0.737057 0.560876 0.263615
0.856077 0.591089 0.327611
0.960906 0.630457 0.414069
0.390265 0.670649 0.242985
0.411475 0.670375 0.247837
0.469764 0.669734 0.258244
0.549493 0.671260 0.267674
0.644068 0.674586 0.282567
0.746578 0.681453 0.304906
0.859403 0.704036 0.368780
0.960540 0.732753 0.456855
0.485451 0.805753 0.344060
0.498451 0.805234 0.346136
0.538842 0.804746 0.351507
0.603326 0.805844 0.361547
0.684260 0.808042 0.377417
0.774960 0.812528 0.399969
0.870390 0.819455 0.429816
0.959228 0.829221 0.498939
0.585107 0.923308 0.471046
0.591791 0.923217 0.470466
0.621027 0.923186 0.475441
0.672236 0.925109 0.488350
0.735836 0.925566 0.502251
0.809537 0.926604 0.521508
0.889006 0.928313 0.547051
0.969482 0.930571 0.578271
0.109621 0.043336 0.233127
0.180331 0.000000 0.238834
0.306340 0.000000 0.244724
0.446204 0.000000 0.256291
0.601068 0.124483 0.285771
0.726375 0.229068 0.318547
0.844633 0.338170 0.381598
0.954192 0.439216 0.461372
0.150912 0.110933 0.223819
0.196231 0.111879 0.226230
0.307439 0.117739 0.235813
0.444953 0.134340 0.254002
0.598657 0.186191 0.286717
0.723323 0.267033 0.322545
0.841611 0.364111 0.387915
0.953796 0.449439 0.461067
0.183871 0.223514 0.216648
0.222293 0.225315 0.215854
0.325139 0.243626 0.233005
0.453376 0.265965 0.259464
0.598260 0.306798 0.296391
0.722133 0.366064 0.343572
0.846036 0.430488 0.404730
0.955749 0.495857 0.471656
0.239780 0.366491 0.248478
0.274601 0.367742 0.250217
0.369879 0.379889 0.264500
0.481514 0.396735 0.282963
0.606622 0.425422 0.313024
0.723629 0.462043 0.357397
0.844938 0.509361 0.415259
0.954467 0.563989 0.484565
0.319219 0.533959 0.295323
0.347234 0.531579 0.296574
0.426337 0.530266 0.306188
0.522332 0.535729 0.321233
0.620356 0.542657 0.333379
0.731106 0.568139 0.379370
0.848569 0.606928 0.437720
0.954070 0.648524 0.505364
0.407355 0.668757 0.344335
0.431312 0.669062 0.351720
0.495857 0.664454 0.370184
0.567895 0.666407 0.381506
0.650996 0.671229 0.394018
0.742855 0.678767 0.410895
0.853574 0.708858 0.465888
0.955230 0.740902 0.533898
0.505150 0.800656 0.430793
0.522087 0.799771 0.437873
0.567163 0.798642 0.453346
0.621729 0.801694 0.459632
0.694118 0.805203 0.470710
0.777127 0.810361 0.485939
0.866850 0.817624 0.505943
0.955352 0.832212 0.566247
0.607263 0.920104 0.544335
0.618128 0.919615 0.549493
0.642756 0.919829 0.553368
0.681575 0.921691 0.554314
0.741726 0.922576 0.565942
0.812192 0.924224 0.582727
0.888792 0.926879 0.605402
0.966613 0.930327 0.633661
0.176333 0.000000 0.366979
0.221073 0.000000 0.369451
0.332036 0.003296 0.377935
0.463783 0.079316 0.389990
0.602319 0.139773 0.410132
0.726009 0.239750 0.431464
0.844358 0.346258 0.477760
0.950347 0.460761 0.548760
0.196475 0.125887 0.355200
0.235294 0.127993 0.358801
0.337194 0.137057 0.370001
0.464485 0.158572 0.386053
0.600488 0.196078 0.408270
0.724300 0.276799 0.433570
0.842741 0.373144 0.482765
0.949035 0.477729 0.553491
0.233463 0.241672 0.336339
0.268254 0.247959 0.340490
0.354314 0.261051 0.355993
0.471870 0.282933 0.381567
0.599054 0.310704 0.407568
0.718471 0.370550 0.440925
0.836698 0.447761 0.498604
0.944640 0.526238 0.565942
0.270420 0.360723 0.350561
0.298466 0.362097 0.350683
0.378668 0.372442 0.357885
0.499794 0.412024 0.399329
0.612085 0.439033 0.425971
0.718471 0.486091 0.467536
0.834623 0.536400 0.521935
0.944945 0.584131 0.576440
0.332799 0.514946 0.397955
0.358312 0.516503 0.400183
0.434363 0.524559 0.410895
0.537957 0.542443 0.435126
0.628534 0.553185 0.451453
0.725582 0.576867 0.483925
0.840177 0.613458 0.529595
0.946838 0.655940 0.586389
0.418830 0.660426 0.445655
0.439033 0.659266 0.447822
0.499153 0.656153 0.456947
0.580621 0.657893 0.479255
0.651545 0.664393 0.488594
0.737636 0.675715 0.504112
0.848539 0.710414 0.550683
0.949432 0.746029 0.611902
0.513878 0.796048 0.516014
0.528588 0.794858 0.519463
0.573053 0.792630 0.531060
0.633509 0.793118 0.547753
0.692683 0.799374 0.549523
0.773342 0.805844 0.562402
0.860990 0.813901 0.579644
0.949950 0.833646 0.637659
0.608209 0.916594 0.604669
0.618128 0.915984 0.607904
0.650904 0.914427 0.619593
0.702510 0.914794 0.641413
0.743252 0.918822 0.635035
0.811551 0.920989 0.649378
0.885985 0.924254 0.668818
0.961608 0.928618 0.693111
0.220157 0.068269 0.511864
0.257298 0.071778 0.514183
0.356420 0.088258 0.522148
0.485298 0.131014 0.540978
0.610437 0.179355 0.547631
0.726528 0.254459 0.553063
0.844602 0.358648 0.586236
0.949554 0.470832 0.638148
0.236301 0.146792 0.501183
0.269535 0.149325 0.503716
0.362158 0.160800 0.513878
0.485847 0.188876 0.533684
0.608850 0.224735 0.543114
0.723964 0.287938 0.551171
0.842374 0.383093 0.587640
0.948058 0.486122 0.640436
0.276860 0.267124 0.483803
0.302831 0.269780 0.486946
0.381476 0.280766 0.499367
0.494392 0.305119 0.522942
0.611597 0.333318 0.539452
0.721462 0.381079 0.552850
0.838682 0.456855 0.597009
0.945190 0.534997 0.650233
0.299718 0.370153 0.471443
0.322942 0.371099 0.470008
0.400824 0.387640 0.483070
0.510369 0.421759 0.516381
0.624231 0.458137 0.546624
0.724147 0.495460 0.566308
0.838193 0.545495 0.613519
0.942412 0.606226 0.668116
0.348974 0.504601 0.501854
0.370367 0.505608 0.502159
0.434974 0.510643 0.505211
0.527184 0.526146 0.518151
0.641016 0.570520 0.562707
0.731777 0.592187 0.584863
0.838346 0.629725 0.629206
0.937804 0.685328 0.690394
0.425422 0.649928 0.545373
0.445411 0.650904 0.547478
0.505303 0.653285 0.554131
0.586786 0.662470 0.571008
0.665400 0.677150 0.592004
0.746609 0.689265 0.607874
0.847135 0.716213 0.644831
0.943603 0.754604 0.699611
0.525566 0.794156 0.611353
0.539239 0.794125 0.613703
0.579339 0.793027 0.619440
0.635554 0.794156 0.629084
0.704067 0.799313 0.646052
0.772854 0.806973 0.653376
0.858122 0.815366 0.669215
0.946136 0.840635 0.723751
0.612940 0.915251 0.680140
0.622248 0.914702 0.682094
0.653040 0.913329 0.689509
0.701808 0.912749 0.703853
0.762112 0.912902 0.725277
0.811551 0.918120 0.725887
0.883635 0.922484 0.742611
0.956268 0.927977 0.762692
0.258640 0.119539 0.654627
0.290074 0.124910 0.657740
0.378149 0.142489 0.664576
0.495979 0.178927 0.678706
0.627375 0.239170 0.700343
0.741115 0.286473 0.699214
0.844175 0.368688 0.699550
0.945403 0.476600 0.730159
0.270665 0.175204 0.644312
0.299718 0.179202 0.647425
0.382666 0.192081 0.655177
0.496376 0.220951 0.669673
0.624689 0.272007 0.691890
0.736080 0.311559 0.691585
0.838285 0.385199 0.693629
0.941131 0.484382 0.726406
0.305974 0.288212 0.631952
0.329778 0.290990 0.634241
0.402533 0.301915 0.642237
0.507286 0.326177 0.658686
0.628412 0.367987 0.683070
0.735988 0.399512 0.688930
0.837186 0.458747 0.698207
0.941192 0.536858 0.735897
0.330602 0.391699 0.614343
0.353796 0.395361 0.615747
0.425727 0.411627 0.624201
0.521935 0.436774 0.644709
0.635737 0.477699 0.674372
0.739956 0.507836 0.691890
0.838285 0.546288 0.707637
0.939757 0.608423 0.748867
0.361151 0.504540 0.616724
0.378454 0.504082 0.614801
0.432380 0.504662 0.610773
0.517662 0.517998 0.617700
0.630701 0.561028 0.657954
0.740078 0.596796 0.694453
0.836210 0.627680 0.714046
0.936278 0.688075 0.764614
0.424353 0.642329 0.649622
0.440467 0.642451 0.649470
0.491005 0.643488 0.649378
0.560449 0.646937 0.652430
0.635950 0.653620 0.661982
0.751766 0.699855 0.715541
0.846647 0.730617 0.742733
0.935576 0.777249 0.792569
0.514153 0.786252 0.699977
0.527428 0.786862 0.701442
0.566613 0.787747 0.704891
0.624201 0.791653 0.712978
0.699031 0.799954 0.728450
0.781857 0.812253 0.751431
0.858793 0.823545 0.770108
0.940642 0.847745 0.808164
0.613336 0.911711 0.758663
0.622248 0.911467 0.759884
0.653895 0.912016 0.766293
0.701472 0.911894 0.775601
0.761196 0.912169 0.789944
0.826444 0.915007 0.811032
0.881895 0.921630 0.819608
0.950500 0.928191 0.834989
0.294652 0.173495 0.809934
0.321721 0.177981 0.811765
0.400153 0.192782 0.814939
0.509545 0.225895 0.823545
0.632532 0.279850 0.835813
0.756985 0.349859 0.848142
0.864775 0.400000 0.847257
0.944274 0.481117 0.829984
0.303166 0.214694 0.804288
0.329076 0.218357 0.806241
0.404974 0.231174 0.810239
0.511589 0.259556 0.818753
0.632837 0.308141 0.831693
0.756344 0.373693 0.845182
0.862272 0.417426 0.844175
0.942260 0.492348 0.828611
0.327214 0.312261 0.792752
0.350042 0.315465 0.794400
0.419013 0.325261 0.798276
0.521752 0.351446 0.810544
0.637964 0.391760 0.824399
0.758358 0.449165 0.840818
0.859525 0.477852 0.841276
0.939971 0.536919 0.830259
0.343908 0.414038 0.777279
0.371893 0.421332 0.778775
0.435889 0.431586 0.784237
0.531731 0.454261 0.796567
0.643458 0.490639 0.814023
0.759396 0.537194 0.836210
0.857664 0.556481 0.841520
0.938384 0.606287 0.836545
0.345251 0.510735 0.760494
0.363104 0.511040 0.760372
0.425727 0.518181 0.764553
0.519463 0.536248 0.776272
0.632288 0.569085 0.797604
0.749416 0.610468 0.826169
0.854337 0.641444 0.842771
0.936675 0.690333 0.847135
0.411261 0.651209 0.784054
0.424811 0.650233 0.782498
0.467231 0.647150 0.778286
0.527581 0.641108 0.772824
0.602411 0.636347 0.772396
0.734554 0.686152 0.815335
0.858518 0.744259 0.854398
0.935302 0.777920 0.861845
0.497383 0.795560 0.819730
0.507622 0.794980 0.819272
0.540337 0.793149 0.818235
0.592767 0.791073 0.818265
0.661738 0.788998 0.819120
0.739712 0.786526 0.820340
0.854032 0.824674 0.856962
0.936522 0.858640 0.881254
0.589837 0.917845 0.849729
0.598108 0.917205 0.849699
0.627375 0.915831 0.850523
0.677790 0.914427 0.853696
0.743221 0.913451 0.859861
0.816098 0.915160 0.871427
0.886992 0.921874 0.889464
0.946014 0.931518 0.908568
