其他预设/【232】美食博客调色预设124款/1.3D LUT预设（视频调色-PR-AE-PS-FCPX-达芬奇用）/Food Art #24.cube
# Created by Adobe Lightroom plugin Export LUT (1.17.0)
# www.johnrellis.com/lightroom/exportlut.htm
# Preset: Food Art #24
# Color profile: /Library/Application Support/Adobe/Color/Profiles/Recommended/AdobeRGB1998.icc
LUT_3D_SIZE 32
0.125093 0.125093 0.125093
0.125093 0.125093 0.125093
0.125093 0.125093 0.125093
0.125582 0.125032 0.125093
0.150820 0.120241 0.124758
0.175265 0.114260 0.124300
0.198734 0.106996 0.123812
0.222934 0.097505 0.123232
0.248447 0.089937 0.122225
0.274968 0.087373 0.120638
0.303227 0.085847 0.118593
0.332799 0.085603 0.116060
0.364141 0.086458 0.112886
0.397772 0.088563 0.108888
0.433875 0.092103 0.103822
0.472206 0.092164 0.101869
0.512566 0.090394 0.100710
0.554040 0.089113 0.099519
0.596277 0.086488 0.098238
0.640009 0.082551 0.095003
0.685054 0.076356 0.090974
0.730037 0.068605 0.085695
0.774563 0.056855 0.079347
0.817685 0.033845 0.071565
0.858244 0.006317 0.063050
0.895415 0.000000 0.052033
0.928893 0.000000 0.037812
0.959319 0.000000 0.025605
0.986908 0.000000 0.017487
1.000000 0.000000 0.011597
1.000000 0.000000 0.009155
1.000000 0.000000 0.009430
0.125093 0.125093 0.125093
0.125093 0.125093 0.125093
0.125093 0.125093 0.125093
0.126253 0.124910 0.125093
0.151919 0.119997 0.124727
0.176181 0.113985 0.124300
0.199802 0.106630 0.123812
0.224002 0.098909 0.123079
0.249363 0.096071 0.121798
0.276188 0.094606 0.120119
0.304631 0.093568 0.118013
0.334478 0.093324 0.115419
0.366125 0.094270 0.112184
0.400031 0.096864 0.108034
0.436561 0.099672 0.103090
0.475196 0.099611 0.101991
0.515770 0.098482 0.100710
0.557458 0.097749 0.099397
0.599878 0.095552 0.097963
0.643824 0.091859 0.094636
0.688808 0.087160 0.090455
0.733577 0.080598 0.085115
0.777890 0.072450 0.078645
0.820737 0.063264 0.070802
0.860899 0.048341 0.062196
0.897612 0.028290 0.051484
0.930816 0.009613 0.036500
0.960906 0.000000 0.025849
0.988220 0.000000 0.017914
1.000000 0.000000 0.012482
1.000000 0.000000 0.010254
1.000000 0.000000 0.010803
0.125093 0.125093 0.125093
0.125093 0.125093 0.125093
0.125093 0.125093 0.125093
0.127657 0.124697 0.125063
0.153414 0.119661 0.124697
0.177432 0.113649 0.124269
0.200778 0.109407 0.123568
0.224796 0.107027 0.122499
0.250278 0.104829 0.121187
0.277165 0.103700 0.119448
0.305699 0.102876 0.117311
0.335698 0.102998 0.114656
0.367498 0.104158 0.111330
0.401617 0.106630 0.107088
0.438117 0.109224 0.102998
0.477089 0.109224 0.101564
0.517723 0.108888 0.100679
0.559564 0.108370 0.099275
0.602106 0.106508 0.097780
0.645991 0.104372 0.094301
0.690852 0.100313 0.089815
0.735500 0.095003 0.084413
0.779660 0.089204 0.077790
0.822324 0.082094 0.069886
0.862272 0.075135 0.061982
0.898802 0.067506 0.049805
0.931792 0.061433 0.035340
0.961700 0.052949 0.025025
0.988952 0.043580 0.016266
1.000000 0.036835 0.012085
1.000000 0.029206 0.010285
1.000000 0.027832 0.012055
0.124514 0.129366 0.124758
0.124392 0.130159 0.124697
0.124208 0.131319 0.124605
0.129274 0.133547 0.124269
0.154330 0.132296 0.123598
0.177890 0.129030 0.123018
0.201114 0.126253 0.122225
0.225315 0.123934 0.121187
0.251011 0.122225 0.119814
0.278111 0.121126 0.118044
0.306859 0.120729 0.115846
0.337041 0.121492 0.113039
0.369024 0.123049 0.109560
0.403326 0.125887 0.105104
0.440284 0.127169 0.102571
0.479316 0.127871 0.101503
0.520195 0.128206 0.100710
0.562341 0.128206 0.099153
0.605066 0.127474 0.097230
0.649287 0.126070 0.093782
0.694362 0.123507 0.089082
0.738857 0.120333 0.083406
0.782620 0.116518 0.076387
0.824582 0.111940 0.068849
0.863828 0.107485 0.060273
0.899687 0.103029 0.047211
0.932250 0.098329 0.031922
0.961913 0.095216 0.021851
0.989044 0.091890 0.013489
1.000000 0.088930 0.009674
1.000000 0.087404 0.007660
1.000000 0.086061 0.010620
0.120272 0.155062 0.122377
0.120180 0.155550 0.122347
0.119966 0.156649 0.122225
0.127626 0.157687 0.121920
0.153445 0.157351 0.121126
0.178408 0.153841 0.120577
0.202121 0.150027 0.119905
0.226719 0.147341 0.118898
0.252689 0.145480 0.117494
0.279973 0.144961 0.115633
0.308904 0.144656 0.113344
0.339330 0.145724 0.110353
0.371618 0.147555 0.106630
0.406043 0.149783 0.103670
0.442847 0.150820 0.102724
0.481758 0.152132 0.101778
0.522423 0.153353 0.100832
0.564263 0.154238 0.099428
0.606867 0.154269 0.096651
0.651179 0.153719 0.093050
0.696223 0.152529 0.088106
0.740871 0.150942 0.081819
0.784451 0.148409 0.074556
0.826230 0.145785 0.066651
0.865110 0.142458 0.056672
0.900694 0.139284 0.040986
0.933013 0.136202 0.026886
0.962554 0.133364 0.016327
0.989593 0.130892 0.009277
1.000000 0.128756 0.005768
1.000000 0.126253 0.005615
1.000000 0.124910 0.007813
0.115389 0.178500 0.119692
0.115267 0.179019 0.119631
0.115084 0.179690 0.119539
0.125002 0.180392 0.119203
0.149203 0.179873 0.118502
0.176516 0.179416 0.117525
0.202365 0.176669 0.116701
0.227237 0.173587 0.115755
0.253269 0.171756 0.114351
0.280949 0.171054 0.112398
0.309941 0.171450 0.109926
0.340581 0.172610 0.106752
0.372930 0.174258 0.104219
0.407538 0.175784 0.103517
0.444434 0.177432 0.102907
0.483375 0.179355 0.102022
0.523919 0.181216 0.101167
0.565606 0.182620 0.098939
0.607874 0.183322 0.096101
0.652125 0.183749 0.091737
0.696864 0.183780 0.086580
0.741176 0.182864 0.080232
0.765438 0.178744 0.074708
0.808927 0.177218 0.066011
0.849973 0.175265 0.053590
0.887785 0.172854 0.033387
0.922210 0.170474 0.014527
0.953460 0.167727 0.002075
0.981964 0.165438 0.000000
1.000000 0.162600 0.000000
1.000000 0.160311 0.000000
1.000000 0.158419 0.000000
0.109926 0.199771 0.116793
0.109804 0.200229 0.116701
0.109621 0.200839 0.116609
0.123262 0.200931 0.116243
0.145632 0.200931 0.115541
0.171115 0.200534 0.114626
0.198306 0.200137 0.113436
0.224521 0.198611 0.112215
0.250401 0.196811 0.110842
0.277623 0.196323 0.108888
0.306218 0.196719 0.106325
0.336278 0.197635 0.104768
0.368231 0.199222 0.104616
0.402747 0.201144 0.104341
0.439765 0.203525 0.103853
0.478950 0.206332 0.103029
0.519677 0.208927 0.101534
0.561364 0.210849 0.099001
0.603388 0.212406 0.095827
0.646784 0.213657 0.091341
0.690425 0.214389 0.085603
0.733181 0.214237 0.078706
0.774990 0.213748 0.070710
0.815640 0.212528 0.060792
0.854307 0.211063 0.043305
0.890623 0.208865 0.022034
0.924193 0.206821 0.004517
0.955016 0.204379 0.000000
0.983215 0.201663 0.000000
1.000000 0.199283 0.000000
1.000000 0.196780 0.000000
1.000000 0.194644 0.000000
0.102022 0.224765 0.112703
0.102174 0.225162 0.112612
0.108553 0.225345 0.112428
0.124178 0.225467 0.111971
0.145998 0.225528 0.111238
0.170565 0.225467 0.110292
0.197147 0.225406 0.108980
0.224460 0.225345 0.107424
0.251621 0.224765 0.105653
0.279057 0.224247 0.104982
0.307805 0.224674 0.105287
0.338018 0.225650 0.105257
0.370275 0.227543 0.105379
0.405005 0.230014 0.105104
0.442237 0.233127 0.104768
0.481727 0.236362 0.103243
0.522545 0.239445 0.101015
0.564233 0.242069 0.098146
0.606409 0.244388 0.094331
0.649989 0.246311 0.089143
0.693629 0.247745 0.082856
0.736416 0.248203 0.075074
0.778164 0.248325 0.065797
0.818601 0.247776 0.052827
0.856901 0.246494 0.029450
0.892851 0.244999 0.010437
0.925994 0.243015 0.000000
0.956512 0.240635 0.000000
0.984405 0.237919 0.000000
1.000000 0.235172 0.000000
1.000000 0.232547 0.000000
1.000000 0.229923 0.000000
0.099855 0.251072 0.107332
0.105348 0.251102 0.107179
0.113069 0.251255 0.106935
0.128054 0.251377 0.106447
0.148775 0.251621 0.105653
0.172335 0.251804 0.105043
0.197787 0.252110 0.105043
0.224491 0.252293 0.104982
0.251987 0.252384 0.105318
0.279759 0.252445 0.105867
0.308629 0.252964 0.106355
0.338964 0.254276 0.106661
0.371557 0.256565 0.106783
0.406531 0.259525 0.106477
0.443977 0.263127 0.105196
0.483467 0.267033 0.102907
0.524376 0.270634 0.100374
0.566217 0.273960 0.096651
0.608423 0.276768 0.092470
0.652125 0.279423 0.086366
0.695735 0.281590 0.079133
0.738582 0.282658 0.070497
0.780240 0.283238 0.060029
0.820615 0.283207 0.038453
0.858701 0.282506 0.013886
0.894316 0.280919 0.000000
0.927245 0.279057 0.000000
0.957488 0.276585 0.000000
0.985199 0.273747 0.000000
1.000000 0.270817 0.000000
1.000000 0.267765 0.000000
1.000000 0.264866 0.000000
0.103456 0.278904 0.105165
0.109133 0.279088 0.105196
0.116243 0.279301 0.105165
0.130892 0.279454 0.105348
0.150790 0.279850 0.105409
0.173861 0.280247 0.105684
0.199039 0.280613 0.106111
0.225711 0.281041 0.106661
0.253208 0.281407 0.106905
0.281193 0.281621 0.107790
0.309819 0.282017 0.108522
0.340612 0.283726 0.108583
0.373327 0.286351 0.108095
0.408301 0.289738 0.106935
0.445624 0.293736 0.104921
0.484718 0.297887 0.102449
0.525200 0.302007 0.098939
0.566735 0.305730 0.094667
0.608881 0.309178 0.089723
0.652735 0.312474 0.082979
0.696864 0.315496 0.074281
0.740230 0.317510 0.064363
0.782528 0.318730 0.046998
0.823148 0.319219 0.020264
0.861265 0.318700 0.000000
0.896574 0.317327 0.000000
0.929015 0.315221 0.000000
0.958801 0.312596 0.000000
0.986084 0.309514 0.000000
1.000000 0.306188 0.000000
1.000000 0.302739 0.000000
1.000000 0.299413 0.000000
0.105409 0.309575 0.107027
0.111055 0.309636 0.106874
0.118532 0.309819 0.106813
0.133059 0.309941 0.107210
0.152987 0.310185 0.107515
0.176028 0.310582 0.107515
0.201236 0.311009 0.108095
0.227695 0.311376 0.108644
0.255131 0.311681 0.108888
0.283421 0.312078 0.109224
0.312108 0.312566 0.109407
0.341741 0.313329 0.109377
0.374701 0.316442 0.108614
0.410010 0.320317 0.106874
0.447364 0.324865 0.104097
0.486488 0.329686 0.101167
0.527001 0.334295 0.096956
0.568505 0.338659 0.092134
0.610895 0.342626 0.085969
0.654932 0.346777 0.078096
0.698939 0.350195 0.068177
0.742184 0.352697 0.054139
0.784360 0.354376 0.026795
0.824704 0.355200 0.000000
0.862577 0.354772 0.000000
0.897673 0.353368 0.000000
0.929931 0.351232 0.000000
0.959594 0.348455 0.000000
0.986725 0.345190 0.000000
1.000000 0.341527 0.000000
1.000000 0.337713 0.000000
1.000000 0.333989 0.000000
0.107027 0.341588 0.108461
0.113039 0.341711 0.108492
0.120363 0.341741 0.108705
0.134890 0.341955 0.108614
0.154910 0.342229 0.108675
0.178103 0.342596 0.108858
0.203403 0.342992 0.108766
0.230137 0.343450 0.108980
0.257816 0.343786 0.109163
0.286320 0.344244 0.108980
0.315282 0.344732 0.109133
0.344823 0.345159 0.108919
0.365850 0.337530 0.109102
0.400031 0.341924 0.107149
0.436530 0.346960 0.104372
0.474922 0.352422 0.100893
0.515038 0.358038 0.096468
0.556329 0.363348 0.091035
0.598596 0.368475 0.084413
0.643061 0.373785 0.075746
0.687953 0.378607 0.063783
0.732296 0.382513 0.042359
0.775784 0.385504 0.009094
0.817563 0.387304 0.000000
0.856657 0.387701 0.000000
0.892668 0.386908 0.000000
0.925719 0.385016 0.000000
0.956054 0.382330 0.000000
0.983825 0.379095 0.000000
1.000000 0.375280 0.000000
1.000000 0.371405 0.000000
1.000000 0.367285 0.000000
0.106996 0.370764 0.108461
0.112734 0.370947 0.108492
0.120180 0.371283 0.108370
0.135134 0.371862 0.108339
0.155245 0.372747 0.108156
0.178592 0.373724 0.108125
0.204166 0.374609 0.108003
0.231296 0.375250 0.107912
0.259312 0.375647 0.107820
0.287694 0.375830 0.107485
0.316411 0.375647 0.107179
0.345403 0.375250 0.106874
0.374731 0.375067 0.106569
0.404639 0.375189 0.105715
0.440436 0.379980 0.102358
0.478462 0.385565 0.098268
0.518364 0.391455 0.092988
0.559655 0.397314 0.086427
0.602106 0.402960 0.078553
0.646784 0.409064 0.067475
0.691615 0.414405 0.049012
0.735836 0.418708 0.014893
0.779110 0.422034 0.000000
0.820523 0.423987 0.000000
0.859251 0.424445 0.000000
0.894865 0.423560 0.000000
0.927520 0.421515 0.000000
0.957488 0.418585 0.000000
0.984924 0.414832 0.000000
1.000000 0.410712 0.000000
1.000000 0.406317 0.000000
1.000000 0.401740 0.000000
0.104463 0.408240 0.106233
0.110658 0.408362 0.106020
0.118959 0.408698 0.106081
0.134218 0.409369 0.106020
0.155337 0.410163 0.105776
0.179995 0.411139 0.105379
0.206455 0.412024 0.105196
0.234287 0.412818 0.104677
0.263066 0.413214 0.104250
0.292332 0.413428 0.103761
0.321965 0.413214 0.103334
0.351843 0.413031 0.102510
0.381872 0.412818 0.101808
0.412543 0.412909 0.100526
0.443915 0.413458 0.099458
0.481697 0.419165 0.094362
0.521721 0.425544 0.088167
0.563043 0.431952 0.080720
0.605676 0.438148 0.070802
0.650294 0.444862 0.056184
0.694942 0.450599 0.021485
0.738949 0.455238 0.000000
0.781918 0.458747 0.000000
0.822934 0.460761 0.000000
0.861143 0.461219 0.000000
0.896330 0.460121 0.000000
0.928649 0.457740 0.000000
0.958312 0.454444 0.000000
0.985534 0.450446 0.000000
1.000000 0.445930 0.000000
1.000000 0.441047 0.000000
1.000000 0.436103 0.000000
0.099916 0.447272 0.101472
0.106416 0.447364 0.101503
0.115175 0.447608 0.101137
0.132174 0.448310 0.100923
0.154574 0.449256 0.100557
0.180423 0.450355 0.100221
0.207919 0.451301 0.099611
0.236912 0.452003 0.099214
0.266514 0.452491 0.098573
0.296849 0.452674 0.097658
0.327153 0.452583 0.096773
0.357885 0.452277 0.095796
0.388830 0.452064 0.094575
0.420325 0.452247 0.092866
0.452461 0.452796 0.091157
0.485451 0.453956 0.089235
0.524468 0.459907 0.082612
0.565850 0.466804 0.073213
0.608728 0.473732 0.060853
0.653498 0.480995 0.028321
0.698024 0.487129 0.000000
0.741939 0.492103 0.000000
0.784665 0.495888 0.000000
0.825315 0.497871 0.000000
0.863005 0.498054 0.000000
0.897612 0.496712 0.000000
0.929351 0.493935 0.000000
0.958495 0.490211 0.000000
0.985260 0.485664 0.000000
1.000000 0.480629 0.000000
1.000000 0.475196 0.000000
1.000000 0.469764 0.000000
0.091615 0.487922 0.093965
0.099825 0.487861 0.094057
0.109529 0.488014 0.093935
0.128267 0.488411 0.093568
0.152438 0.489021 0.092988
0.179538 0.489754 0.092439
0.208133 0.490364 0.091859
0.237858 0.490974 0.091096
0.268559 0.491310 0.090059
0.299626 0.491646 0.089113
0.331121 0.491890 0.087709
0.362982 0.492164 0.086305
0.395087 0.492470 0.084627
0.427832 0.493111 0.082612
0.461067 0.494026 0.079652
0.494942 0.495308 0.076814
0.529290 0.496712 0.072847
0.568811 0.502342 0.063294
0.611719 0.509728 0.036133
0.656092 0.517205 0.000000
0.700191 0.523522 0.000000
0.743648 0.528557 0.000000
0.786007 0.532311 0.000000
0.826108 0.534264 0.000000
0.863371 0.534386 0.000000
0.897642 0.532647 0.000000
0.929076 0.529595 0.000000
0.958007 0.525566 0.000000
0.984710 0.520684 0.000000
1.000000 0.515282 0.000000
1.000000 0.509545 0.000000
1.000000 0.503777 0.000000
0.079896 0.530327 0.083192
0.089967 0.530388 0.082856
0.101259 0.530632 0.082948
0.122469 0.531060 0.082124
0.148836 0.531579 0.081697
0.177798 0.532250 0.080995
0.208072 0.532738 0.080262
0.239200 0.533318 0.078889
0.271122 0.533684 0.077729
0.303258 0.533959 0.076112
0.335729 0.534112 0.074586
0.368414 0.534325 0.072328
0.401404 0.534569 0.069581
0.434760 0.535058 0.066804
0.468666 0.535943 0.063386
0.503258 0.537224 0.057740
0.538384 0.538781 0.048615
0.573999 0.540520 0.034699
0.614923 0.546441 0.000610
0.659327 0.554437 0.000000
0.703334 0.561059 0.000000
0.746548 0.566278 0.000000
0.788540 0.569970 0.000000
0.828122 0.571740 0.000000
0.864866 0.571496 0.000000
0.898589 0.569421 0.000000
0.929656 0.565942 0.000000
0.958282 0.561395 0.000000
0.984649 0.556054 0.000000
1.000000 0.550195 0.000000
1.000000 0.543999 0.000000
1.000000 0.537682 0.000000
0.062715 0.572839 0.067231
0.076112 0.572625 0.067140
0.091859 0.562768 0.071015
0.115389 0.563134 0.070436
0.143557 0.563836 0.069673
0.173434 0.564721 0.068147
0.204593 0.565637 0.067109
0.236423 0.566583 0.065034
0.268956 0.567407 0.062928
0.301823 0.568139 0.060609
0.334905 0.568780 0.057435
0.368353 0.569482 0.052430
0.402106 0.570459 0.044617
0.436439 0.571649 0.034028
0.471138 0.573114 0.022248
0.506401 0.574914 0.007843
0.542473 0.577111 0.000000
0.578973 0.579400 0.000000
0.615808 0.581628 0.000000
0.657221 0.587457 0.000000
0.701656 0.595056 0.000000
0.745113 0.600885 0.000000
0.787167 0.605035 0.000000
0.826963 0.607233 0.000000
0.863981 0.607141 0.000000
0.898039 0.605249 0.000000
0.929381 0.601770 0.000000
0.958129 0.597070 0.000000
0.984497 0.591424 0.000000
1.000000 0.585138 0.000000
1.000000 0.578485 0.000000
1.000000 0.571771 0.000000
0.012146 0.614710 0.024445
0.050935 0.613458 0.026307
0.075441 0.612146 0.026886
0.104067 0.611322 0.026612
0.136538 0.610986 0.025147
0.169619 0.611261 0.023224
0.203128 0.612055 0.017945
0.236973 0.612909 0.012634
0.270909 0.613764 0.006439
0.304997 0.614527 0.000000
0.339483 0.615259 0.000000
0.373999 0.616022 0.000000
0.409033 0.617029 0.000000
0.444190 0.618250 0.000000
0.479957 0.619776 0.000000
0.516106 0.621454 0.000000
0.552697 0.623499 0.000000
0.589654 0.625513 0.000000
0.627070 0.627466 0.000000
0.664515 0.629267 0.000000
0.705104 0.633600 0.000000
0.748104 0.639338 0.000000
0.789670 0.643275 0.000000
0.828794 0.644953 0.000000
0.865171 0.644434 0.000000
0.898741 0.642023 0.000000
0.929625 0.638056 0.000000
0.958068 0.632868 0.000000
0.984283 0.626764 0.000000
1.000000 0.619959 0.000000
1.000000 0.612940 0.000000
1.000000 0.605859 0.000000
0.000000 0.661769 0.000000
0.000000 0.660670 0.000000
0.035584 0.659571 0.000000
0.088441 0.658747 0.000000
0.127626 0.658350 0.000000
0.164401 0.658595 0.000000
0.200412 0.659205 0.000000
0.236149 0.659937 0.000000
0.271794 0.660639 0.000000
0.307408 0.661250 0.000000
0.342901 0.661891 0.000000
0.378576 0.662562 0.000000
0.414405 0.663416 0.000000
0.450507 0.664485 0.000000
0.486946 0.665827 0.000000
0.523644 0.667353 0.000000
0.560815 0.669062 0.000000
0.598230 0.670802 0.000000
0.635859 0.672419 0.000000
0.673457 0.673884 0.000000
0.711147 0.675135 0.000000
0.750607 0.677852 0.000000
0.791653 0.681422 0.000000
0.830228 0.682734 0.000000
0.866117 0.681758 0.000000
0.899290 0.678889 0.000000
0.929931 0.674434 0.000000
0.958160 0.668879 0.000000
0.984161 0.662226 0.000000
1.000000 0.655055 0.000000
1.000000 0.647517 0.000000
1.000000 0.640009 0.000000
0.000000 0.708064 0.000000
0.000000 0.707027 0.000000
0.000000 0.705989 0.000000
0.066865 0.705257 0.000000
0.116091 0.704829 0.000000
0.157687 0.705043 0.000000
0.196536 0.705501 0.000000
0.234165 0.706172 0.000000
0.271458 0.706813 0.000000
0.308354 0.707393 0.000000
0.345037 0.707973 0.000000
0.381781 0.708553 0.000000
0.418372 0.709285 0.000000
0.455207 0.710140 0.000000
0.492164 0.711025 0.000000
0.529229 0.712093 0.000000
0.566430 0.713008 0.000000
0.603632 0.713924 0.000000
0.640864 0.714656 0.000000
0.677943 0.715145 0.000000
0.714992 0.715511 0.000000
0.752010 0.715694 0.000000
0.789914 0.716518 0.000000
0.827970 0.717464 0.000000
0.863432 0.716182 0.000000
0.896361 0.713039 0.000000
0.926909 0.708339 0.000000
0.955138 0.702449 0.000000
0.981262 0.695613 0.000000
1.000000 0.688136 0.000000
1.000000 0.680415 0.000000
1.000000 0.672633 0.000000
0.000000 0.748653 0.000000
0.000000 0.748226 0.000000
0.000000 0.747860 0.000000
0.006653 0.747738 0.000000
0.101350 0.747799 0.000000
0.148806 0.748135 0.000000
0.190921 0.748592 0.000000
0.230747 0.748989 0.000000
0.269261 0.749386 0.000000
0.307164 0.749599 0.000000
0.344671 0.749905 0.000000
0.382086 0.750210 0.000000
0.419348 0.750668 0.000000
0.456489 0.751308 0.000000
0.493782 0.752010 0.000000
0.531182 0.752773 0.000000
0.568536 0.753475 0.000000
0.605951 0.754116 0.000000
0.643244 0.754665 0.000000
0.680537 0.755001 0.000000
0.717800 0.755276 0.000000
0.754910 0.755367 0.000000
0.792081 0.755459 0.000000
0.829160 0.755398 0.000000
0.864317 0.753689 0.000000
0.896910 0.750057 0.000000
0.927062 0.744778 0.000000
0.955047 0.738338 0.000000
0.981018 0.730983 0.000000
1.000000 0.723079 0.000000
1.000000 0.714900 0.000000
1.000000 0.706569 0.000000
0.000000 0.791318 0.000000
0.000000 0.790921 0.000000
0.000000 0.790585 0.000000
0.000000 0.790341 0.000000
0.084260 0.790372 0.000000
0.139590 0.790646 0.000000
0.184878 0.791073 0.000000
0.226627 0.791440 0.000000
0.266789 0.791745 0.000000
0.305852 0.791897 0.000000
0.344244 0.792020 0.000000
0.382116 0.792142 0.000000
0.419837 0.792325 0.000000
0.457527 0.792508 0.000000
0.495033 0.792844 0.000000
0.532494 0.793118 0.000000
0.569787 0.793271 0.000000
0.607080 0.793393 0.000000
0.644282 0.793332 0.000000
0.681270 0.793210 0.000000
0.718074 0.792874 0.000000
0.754788 0.792325 0.000000
0.791318 0.791806 0.000000
0.827787 0.791135 0.000000
0.865873 0.792050 0.000000
0.898039 0.787747 0.000000
0.927855 0.781857 0.000000
0.955535 0.774777 0.000000
0.981292 0.766903 0.000000
1.000000 0.758419 0.000000
1.000000 0.749752 0.000000
1.000000 0.740505 0.000000
0.000000 0.827695 0.000000
0.000000 0.827237 0.000000
0.000000 0.826932 0.000000
0.000000 0.826902 0.000000
0.061707 0.827085 0.000000
0.128847 0.827420 0.000000
0.177737 0.827878 0.000000
0.221439 0.828336 0.000000
0.262730 0.828763 0.000000
0.302708 0.829099 0.000000
0.341772 0.829404 0.000000
0.380163 0.829557 0.000000
0.418311 0.829770 0.000000
0.456306 0.829953 0.000000
0.494057 0.830259 0.000000
0.531762 0.830503 0.000000
0.569299 0.830686 0.000000
0.606622 0.830655 0.000000
0.643732 0.830320 0.000000
0.680415 0.829709 0.000000
0.716976 0.828855 0.000000
0.753262 0.828000 0.000000
0.789578 0.827085 0.000000
0.825803 0.826230 0.000000
0.862028 0.825467 0.000000
0.897917 0.824460 0.000000
0.927581 0.818082 0.000000
0.955230 0.810666 0.000000
0.980987 0.802335 0.000000
1.000000 0.793423 0.000000
1.000000 0.784115 0.000000
1.000000 0.774166 0.000000
0.000000 0.863951 0.000000
0.000000 0.863554 0.000000
0.000000 0.863310 0.000000
0.000000 0.863218 0.000000
0.013245 0.863310 0.000000
0.119539 0.863493 0.000000
0.171664 0.863676 0.000000
0.216617 0.863890 0.000000
0.258885 0.864012 0.000000
0.299229 0.864042 0.000000
0.338415 0.864012 0.000000
0.377264 0.863828 0.000000
0.415381 0.863676 0.000000
0.453193 0.863462 0.000000
0.490822 0.863371 0.000000
0.528252 0.863249 0.000000
0.565545 0.863005 0.000000
0.602564 0.862669 0.000000
0.639277 0.862058 0.000000
0.675746 0.861204 0.000000
0.711910 0.860166 0.000000
0.747921 0.859068 0.000000
0.783810 0.857939 0.000000
0.819608 0.856840 0.000000
0.855344 0.855772 0.000000
0.890929 0.854704 0.000000
0.926421 0.853544 0.000000
0.954040 0.845731 0.000000
0.979767 0.836973 0.000000
1.000000 0.827726 0.000000
1.000000 0.817441 0.000000
1.000000 0.807065 0.000000
0.000000 0.895842 0.000000
0.000000 0.895598 0.000000
0.000000 0.895476 0.000000
0.000000 0.895476 0.000000
0.000000 0.895598 0.000000
0.110903 0.895781 0.000000
0.165713 0.895964 0.000000
0.212100 0.896086 0.000000
0.254734 0.896086 0.000000
0.295415 0.895964 0.000000
0.334966 0.895689 0.000000
0.373541 0.895384 0.000000
0.411688 0.894957 0.000000
0.449409 0.894591 0.000000
0.486793 0.894224 0.000000
0.524010 0.893889 0.000000
0.560998 0.893462 0.000000
0.597772 0.892882 0.000000
0.634211 0.892088 0.000000
0.670314 0.891112 0.000000
0.706203 0.889952 0.000000
0.741848 0.888701 0.000000
0.777340 0.887419 0.000000
0.812711 0.886107 0.000000
0.847959 0.884825 0.000000
0.883085 0.883543 0.000000
0.918059 0.882231 0.000000
0.952880 0.880858 0.000000
0.979370 0.872404 0.000000
1.000000 0.862181 0.000000
1.000000 0.851377 0.000000
1.000000 0.840543 0.000000
0.000000 0.925536 0.000000
0.000000 0.925414 0.000000
0.000000 0.925292 0.000000
0.000000 0.925261 0.000000
0.000000 0.925170 0.000000
0.104280 0.925048 0.000000
0.160769 0.924773 0.000000
0.207584 0.924346 0.000000
0.250187 0.923766 0.000000
0.290562 0.923064 0.000000
0.329656 0.922271 0.000000
0.367773 0.921416 0.000000
0.405463 0.920562 0.000000
0.442664 0.919799 0.000000
0.479683 0.919097 0.000000
0.516411 0.918517 0.000000
0.553002 0.917937 0.000000
0.589258 0.917235 0.000000
0.625330 0.916350 0.000000
0.661036 0.915312 0.000000
0.696498 0.914122 0.000000
0.731746 0.912871 0.000000
0.766903 0.911620 0.000000
0.801877 0.910307 0.000000
0.836698 0.909026 0.000000
0.871397 0.907713 0.000000
0.905913 0.906371 0.000000
0.940368 0.905028 0.000000
0.974090 0.903227 0.000000
0.999390 0.894102 0.000000
1.000000 0.883085 0.000000
1.000000 0.871977 0.000000
0.000000 0.949859 0.000000
0.000000 0.949767 0.000000
0.000000 0.949767 0.000000
0.000000 0.949767 0.000000
0.000000 0.949767 0.000000
0.096559 0.949737 0.000000
0.155489 0.949615 0.000000
0.202823 0.949371 0.000000
0.245579 0.949065 0.000000
0.286137 0.948608 0.000000
0.325231 0.948089 0.000000
0.363348 0.947509 0.000000
0.400793 0.946868 0.000000
0.437873 0.946197 0.000000
0.474617 0.945556 0.000000
0.511040 0.944884 0.000000
