其他预设/【232】美食博客调色预设124款/1.3D LUT预设（视频调色-PR-AE-PS-FCPX-达芬奇用）/Food Art #34.cube
# Created by Adobe Lightroom plugin Export LUT (1.17.0)
# www.johnrellis.com/lightroom/exportlut.htm
# Preset: Food Art #34
# Color profile: /Library/Application Support/Adobe/Color/Profiles/Recommended/AdobeRGB1998.icc
LUT_3D_SIZE 8
DOMAIN_MIN 0.000000 0.000000 0.000000
DOMAIN_MAX 0.903226 0.903226 0.903226
0.233799 0.233799 0.233799
0.247532 0.233555 0.233646
0.338445 0.231357 0.231388
0.482704 0.226047 0.225895
0.620661 0.219272 0.219272
0.731960 0.215427 0.215427
0.822416 0.215640 0.215549
0.899840 0.218784 0.218723
0.233249 0.247532 0.233188
0.248295 0.248234 0.232883
0.333928 0.256962 0.230045
0.474525 0.259190 0.224399
0.612696 0.254978 0.217929
0.723598 0.249149 0.214328
0.814603 0.245457 0.214298
0.895232 0.244877 0.217563
0.226291 0.338628 0.226444
0.255619 0.338781 0.225864
0.339635 0.339544 0.223972
0.475013 0.351568 0.217655
0.613581 0.351110 0.211795
0.724575 0.340917 0.210575
0.820188 0.331792 0.213809
0.898833 0.323888 0.220005
0.211978 0.478676 0.212039
0.250187 0.477150 0.211643
0.349462 0.475837 0.209873
0.486397 0.486458 0.204959
0.626490 0.485115 0.201419
0.728054 0.461707 0.206332
0.816709 0.441596 0.213474
0.894316 0.424689 0.221866
0.198367 0.613489 0.198520
0.239628 0.612360 0.198276
0.343877 0.610773 0.197330
0.472602 0.610437 0.196170
0.605249 0.605310 0.195346
0.714626 0.581872 0.202457
0.805631 0.555627 0.213504
0.887449 0.533654 0.225589
0.202670 0.711055 0.202762
0.239811 0.714076 0.204013
0.333471 0.711482 0.204257
0.449928 0.707698 0.205203
0.572168 0.701747 0.206607
0.695888 0.695949 0.209659
0.800839 0.676112 0.221286
0.882963 0.647700 0.236271
0.222293 0.798642 0.222324
0.251438 0.798856 0.223087
0.330388 0.795834 0.223056
0.434150 0.792294 0.224308
0.545983 0.786893 0.225834
0.661402 0.781979 0.229953
0.776761 0.776822 0.236301
0.874266 0.757931 0.248112
0.250797 0.875425 0.250919
0.272770 0.874846 0.250950
0.338445 0.873442 0.252018
0.430610 0.872007 0.255650
0.528008 0.864103 0.250767
0.636103 0.861204 0.257206
0.745357 0.857786 0.266392
0.851865 0.851926 0.273228
0.233555 0.233555 0.247257
0.247440 0.232395 0.247471
0.332830 0.221500 0.250889
0.474037 0.205661 0.245090
0.611505 0.200595 0.241276
0.720333 0.203647 0.240085
0.811002 0.210452 0.241764
0.891630 0.218540 0.245426
0.231724 0.247440 0.247440
0.247593 0.247593 0.247593
0.333196 0.246677 0.246677
0.471473 0.243839 0.243748
0.608087 0.239963 0.240024
0.716243 0.238895 0.238987
0.805325 0.240116 0.240146
0.886931 0.243473 0.243442
0.221073 0.333959 0.250950
0.244999 0.335637 0.244938
0.336675 0.336706 0.243687
0.470649 0.343206 0.239872
0.606195 0.341222 0.236515
0.714534 0.332860 0.237308
0.806394 0.325963 0.240909
0.889006 0.321782 0.246555
0.200900 0.471351 0.241032
0.236728 0.471443 0.236637
0.341985 0.471962 0.235538
0.473610 0.473640 0.233707
0.607019 0.469093 0.231968
0.711055 0.450355 0.235477
0.802029 0.433936 0.241306
0.884703 0.421332 0.248264
0.187228 0.609766 0.231052
0.230716 0.607935 0.230686
0.337224 0.604730 0.230167
0.464332 0.601007 0.229496
0.594720 0.594720 0.228916
0.705104 0.574029 0.234928
0.797726 0.550774 0.244327
0.881193 0.531243 0.253910
0.201694 0.705470 0.236881
0.237095 0.705013 0.237156
0.329778 0.702815 0.237369
0.445686 0.700374 0.238773
0.568078 0.696345 0.240970
0.692592 0.692622 0.244999
0.796628 0.673182 0.254643
0.878386 0.645502 0.265476
0.225254 0.791745 0.252903
0.252201 0.790311 0.252201
0.329778 0.788296 0.252445
0.432898 0.786496 0.254673
0.544549 0.782742 0.257145
0.658442 0.777768 0.260380
0.771847 0.771847 0.264347
0.868467 0.753262 0.272679
0.257389 0.871550 0.278355
0.279088 0.871458 0.279118
0.342992 0.870390 0.280400
0.433478 0.869322 0.284215
0.534203 0.866209 0.287266
0.638972 0.861662 0.290410
0.745174 0.856504 0.294835
0.849912 0.849973 0.298497
0.230747 0.230747 0.337652
0.256687 0.227787 0.337926
0.337346 0.218509 0.337346
0.475746 0.195590 0.345068
0.612329 0.181033 0.338354
0.720699 0.208988 0.338811
0.810605 0.236881 0.342168
0.890288 0.256168 0.344640
0.218173 0.250004 0.337133
0.246433 0.246494 0.336980
0.336187 0.241398 0.336217
0.472908 0.229160 0.339849
0.609369 0.222782 0.335210
0.716487 0.242802 0.336797
0.806577 0.261295 0.339361
0.887755 0.276066 0.342596
0.211307 0.336584 0.336584
0.238346 0.336614 0.336614
0.335912 0.335912 0.335912
0.472969 0.334569 0.334661
0.610712 0.335821 0.335790
0.714778 0.337652 0.337682
0.804379 0.340368 0.340398
0.885527 0.343633 0.343603
0.191653 0.471870 0.341527
0.227481 0.472663 0.339117
0.335241 0.474403 0.335088
0.475410 0.475471 0.335729
0.609644 0.469551 0.336675
0.711513 0.455146 0.339574
0.801724 0.445197 0.343542
0.882902 0.437629 0.347326
0.182712 0.606958 0.336522
0.224887 0.606744 0.335393
0.335485 0.604883 0.335576
0.465553 0.602594 0.336492
0.597345 0.597314 0.336706
0.704005 0.575952 0.340307
0.795102 0.556268 0.345678
0.877989 0.541070 0.351263
0.206363 0.703670 0.332036
0.245335 0.703029 0.334569
0.341192 0.700008 0.341131
0.450629 0.696590 0.341619
0.568200 0.692287 0.342809
0.688685 0.688685 0.346441
0.790799 0.671992 0.353643
0.874815 0.650752 0.361822
0.246403 0.791226 0.343206
0.278355 0.789761 0.348028
0.352605 0.786526 0.352544
0.445930 0.783536 0.352697
0.550774 0.779599 0.353521
0.660914 0.775875 0.356634
0.772488 0.772519 0.362188
0.868009 0.756924 0.369848
0.291478 0.869139 0.364965
0.315953 0.867887 0.369940
0.369909 0.866453 0.369848
0.453620 0.866453 0.375280
0.546624 0.863432 0.376745
0.646448 0.859892 0.379583
0.748562 0.855650 0.383246
0.850248 0.850309 0.386389
0.224735 0.224582 0.472847
0.256687 0.220981 0.474250
0.348028 0.209506 0.473579
0.472297 0.192355 0.472236
0.606653 0.180667 0.467506
0.711635 0.208377 0.453040
0.799802 0.255894 0.449470
0.878904 0.307897 0.458625
0.205173 0.244877 0.475654
0.242954 0.242771 0.475593
0.343450 0.236057 0.474159
0.472480 0.226749 0.472419
0.606317 0.223239 0.466773
0.709102 0.247379 0.453162
0.796933 0.286778 0.451392
0.876860 0.332433 0.462379
0.187808 0.340703 0.472419
0.225345 0.337987 0.472145
0.333318 0.333288 0.470985
0.470344 0.332036 0.470283
0.605127 0.336828 0.467109
0.708248 0.357458 0.463874
0.798123 0.388312 0.473487
0.877592 0.399695 0.473732
0.178286 0.471931 0.471962
0.220249 0.471778 0.471748
0.332525 0.471321 0.471382
0.471321 0.471321 0.471321
0.600122 0.470405 0.470436
0.700465 0.470680 0.470710
0.791379 0.472267 0.472267
0.874144 0.473579 0.473579
0.179019 0.606104 0.466743
0.223911 0.604547 0.465644
0.337438 0.601709 0.465400
0.473091 0.599664 0.473182
0.596490 0.596490 0.473579
0.698146 0.582391 0.474647
0.788602 0.572381 0.476020
0.870665 0.563806 0.476448
0.215305 0.703914 0.450568
0.256443 0.705562 0.454475
0.357458 0.700862 0.461189
0.476326 0.695644 0.476387
0.580316 0.692439 0.476753
0.688716 0.688777 0.477607
0.784695 0.676326 0.480323
0.867704 0.662074 0.482856
0.257053 0.788998 0.445167
0.289189 0.788479 0.449104
0.378027 0.785794 0.463264
0.480903 0.782101 0.480964
0.571893 0.779080 0.480873
0.670253 0.775540 0.481331
0.771939 0.771969 0.482948
0.862242 0.759365 0.486275
0.306706 0.868956 0.454627
0.332525 0.868315 0.459724
0.406348 0.865263 0.476143
0.490455 0.862150 0.490455
0.570581 0.859586 0.490547
0.660121 0.856779 0.491798
0.754238 0.853574 0.493843
0.849760 0.849790 0.495888
0.217899 0.217624 0.600732
0.250858 0.214603 0.601129
0.342535 0.204898 0.599908
0.463447 0.191928 0.598657
0.598779 0.183322 0.598749
0.703731 0.211337 0.574334
0.793423 0.257511 0.557122
0.874113 0.308721 0.551934
0.201724 0.240482 0.601038
0.239139 0.239048 0.601984
0.337865 0.233860 0.600671
0.461982 0.227756 0.598016
0.597833 0.225559 0.597833
0.702693 0.250675 0.574395
0.792294 0.290074 0.558923
0.872862 0.334234 0.554711
0.182895 0.333165 0.599207
0.225589 0.332769 0.599023
0.332158 0.332097 0.597192
0.460639 0.332891 0.596155
0.593713 0.334905 0.593774
0.696193 0.351385 0.573144
0.786465 0.377630 0.563897
0.867430 0.405646 0.562676
0.182589 0.460060 0.596094
0.226139 0.459815 0.595514
0.337255 0.461433 0.594568
0.466987 0.466987 0.593133
0.591150 0.468544 0.591150
0.690913 0.477028 0.579675
0.780728 0.489906 0.578058
0.862547 0.503319 0.580346
0.186435 0.592309 0.592340
0.230381 0.592248 0.592279
0.340734 0.591028 0.591028
0.470283 0.589685 0.589715
0.587640 0.587640 0.587640
0.684504 0.585992 0.586023
0.775479 0.585199 0.585229
0.859251 0.584161 0.584192
0.220798 0.694118 0.568017
0.257847 0.693172 0.568261
0.354498 0.688930 0.568872
0.472663 0.683894 0.573999
0.582391 0.679957 0.582391
0.681392 0.681361 0.585718
0.775021 0.678157 0.588342
0.858396 0.671656 0.588251
0.269291 0.783597 0.553796
0.298131 0.782345 0.555138
0.380835 0.778988 0.561303
0.486885 0.774899 0.574151
0.586023 0.771664 0.586023
0.674372 0.769833 0.586023
0.767483 0.767483 0.585870
0.853605 0.758511 0.585779
0.313451 0.863218 0.548058
0.336828 0.862272 0.550591
0.406317 0.859373 0.559716
0.503777 0.857694 0.579400
0.590234 0.854246 0.590234
0.670558 0.852049 0.590021
0.757046 0.849577 0.590082
0.846616 0.846647 0.590021
0.214603 0.214267 0.699001
0.245426 0.212558 0.698848
0.330358 0.207279 0.696986
0.443153 0.203250 0.696345
0.566796 0.206302 0.694850
0.691890 0.219211 0.691920
0.787015 0.262242 0.668788
0.869169 0.312627 0.652461
0.206027 0.239109 0.695827
0.238651 0.238285 0.695460
0.327245 0.236606 0.694423
0.441566 0.236881 0.693599
0.564935 0.242069 0.691859
0.689509 0.254856 0.689479
0.784909 0.291814 0.667964
0.867430 0.335882 0.653040
0.212833 0.332433 0.695613
0.245579 0.332708 0.695155
0.334447 0.334356 0.694148
0.447608 0.338323 0.692897
0.567468 0.344945 0.690364
0.687709 0.355596 0.687678
0.781888 0.380529 0.669856
0.864195 0.409766 0.658381
0.227420 0.448341 0.693660
0.262852 0.449928 0.692622
0.360296 0.459205 0.691096
0.470130 0.470130 0.691585
0.578943 0.475807 0.690517
0.687984 0.481758 0.687984
0.779080 0.493812 0.676326
0.860563 0.506493 0.668605
0.235447 0.564416 0.687160
0.270115 0.565423 0.686915
0.364477 0.569299 0.685939
0.480415 0.577844 0.684535
0.585382 0.585351 0.682551
0.680812 0.585718 0.680842
0.771176 0.588098 0.676081
0.854093 0.591913 0.672541
0.249363 0.681239 0.681300
0.283085 0.681910 0.681971
0.372412 0.681300 0.681331
0.482429 0.680171 0.680201
0.584649 0.678492 0.678462
0.678645 0.678614 0.678645
0.769131 0.679042 0.679072
0.852079 0.678523 0.678523
0.291752 0.780758 0.667109
0.319707 0.780484 0.668086
0.396582 0.777554 0.669551
0.494606 0.773404 0.672694
0.588586 0.769772 0.675563
0.678157 0.767422 0.678157
0.766079 0.766110 0.677913
0.849790 0.761135 0.678096
0.331884 0.859953 0.650629
0.352819 0.859037 0.651637
0.416632 0.856352 0.655726
0.503563 0.853513 0.663630
0.591211 0.850553 0.670802
0.677485 0.848051 0.677485
0.759365 0.846586 0.677852
0.844480 0.844511 0.677485
0.214054 0.213596 0.779294
0.241764 0.212955 0.780179
0.319829 0.211276 0.779385
0.424048 0.212528 0.778531
0.538506 0.220523 0.776577
0.655543 0.237217 0.773892
0.770809 0.261692 0.770809
0.858976 0.305180 0.749966
0.209995 0.238254 0.775204
0.238773 0.238560 0.775937
0.318303 0.238987 0.775418
0.422583 0.242069 0.774075
0.536126 0.249882 0.771878
0.651575 0.263401 0.768765
0.765316 0.283177 0.765316
0.853788 0.318120 0.745266
0.228672 0.328527 0.776059
0.255436 0.329015 0.775753
0.331304 0.331060 0.774380
0.432288 0.336004 0.772854
0.541894 0.343145 0.770077
0.654139 0.354528 0.767483
0.765835 0.371588 0.765835
0.854368 0.398749 0.749752
0.270420 0.444617 0.774960
0.297948 0.447395 0.773831
0.372351 0.455604 0.771756
0.460060 0.459937 0.770962
0.558495 0.464729 0.768856
0.662348 0.472816 0.767453
0.766629 0.483497 0.766629
0.852537 0.496529 0.754025
0.275486 0.545892 0.768460
0.301366 0.547021 0.767361
0.378271 0.553002 0.765347
0.479561 0.565606 0.763821
0.572595 0.572534 0.762387
0.664363 0.574334 0.761044
0.760311 0.577234 0.760311
0.847623 0.584466 0.754055
0.287694 0.652918 0.763912
0.313359 0.653742 0.763729
0.387915 0.656733 0.762966
0.485298 0.662440 0.762478
0.580713 0.667689 0.761746
0.671901 0.671839 0.762112
0.761959 0.672938 0.761990
0.845518 0.674739 0.757351
0.311315 0.762661 0.762692
0.335760 0.763088 0.763119
0.404395 0.762814 0.762844
0.494392 0.762661 0.762661
0.583246 0.761288 0.761318
0.671839 0.760220 0.760220
0.760220 0.760189 0.760220
0.843198 0.760403 0.760433
0.341711 0.853056 0.748867
0.361425 0.852506 0.749142
0.425971 0.852384 0.752255
0.506493 0.850248 0.754360
0.590204 0.847593 0.755764
0.676387 0.844907 0.757809
0.761196 0.842863 0.761196
0.841642 0.841642 0.760678
0.212894 0.212528 0.847562
0.237583 0.212131 0.847898
0.307805 0.211429 0.846769
0.403632 0.213809 0.846464
0.510338 0.221988 0.845457
0.620935 0.237522 0.843931
0.732357 0.261448 0.842710
0.840452 0.288853 0.840452
0.211337 0.235813 0.845640
0.236637 0.236271 0.845975
0.307958 0.236973 0.845182
0.403998 0.240726 0.844419
0.510460 0.249210 0.843473
0.620417 0.263249 0.841917
0.730617 0.283543 0.840330
0.838132 0.307134 0.838132
0.226932 0.316075 0.843473
0.250858 0.316899 0.843503
0.318456 0.318151 0.842069
0.413886 0.325536 0.842985
0.517113 0.333227 0.841520
0.623377 0.343420 0.839322
0.730892 0.358587 0.837888
0.836332 0.376043 0.836332
0.280491 0.431403 0.841032
0.299718 0.432563 0.841245
0.355383 0.433692 0.840269
0.438392 0.438239 0.839902
0.533318 0.444221 0.839017
0.632776 0.451026 0.837522
0.734432 0.460365 0.836423
0.835569 0.471168 0.835569
0.289799 0.526665 0.837705
0.313787 0.529595 0.837919
0.379675 0.536858 0.836790
0.469612 0.549615 0.835782
0.551354 0.551232 0.834592
0.641382 0.553796 0.833371
0.736690 0.559045 0.833219
0.834379 0.566979 0.834379
0.298985 0.626215 0.834684
0.318944 0.626825 0.834043
0.380285 0.629694 0.832578
0.466621 0.635920 0.831327
0.560327 0.644404 0.830838
0.651301 0.651240 0.832334
0.743679 0.657588 0.834775
0.837491 0.665309 0.837491
0.319982 0.730800 0.834348
0.338476 0.730983 0.833951
0.395758 0.731991 0.832975
0.478920 0.735012 0.832517
0.567468 0.738491 0.832334
0.658564 0.743160 0.833066
0.750973 0.750912 0.835691
0.835355 0.751675 0.835325
0.354345 0.837003 0.837034
0.370550 0.836667 0.836728
0.423102 0.836271 0.836301
0.498787 0.836301 0.836362
0.580865 0.836240 0.836271
0.667140 0.835935 0.835966
0.752987 0.835508 0.835538
0.834653 0.834653 0.834653
