其他预设/【232】美食博客调色预设124款/1.3D LUT预设（视频调色-PR-AE-PS-FCPX-达芬奇用）/Food Art #55.cube
# Created by Adobe Lightroom plugin Export LUT (1.17.0)
# www.johnrellis.com/lightroom/exportlut.htm
# Preset: Food Art #55
# Color profile: /Library/Application Support/Adobe/Color/Profiles/Recommended/AdobeRGB1998.icc
LUT_3D_SIZE 5
DOMAIN_MIN 0.000000 0.000000 0.000000
DOMAIN_MAX 0.903226 0.903226 0.903226
0.186984 0.153933 0.111208
0.271550 0.157473 0.114839
0.514092 0.157748 0.115846
0.788876 0.213840 0.156771
0.982116 0.345708 0.278111
0.203250 0.246708 0.114199
0.293248 0.252415 0.115724
0.519371 0.276005 0.123690
0.788846 0.325658 0.170565
0.983490 0.423072 0.301915
0.268956 0.498085 0.136233
0.359014 0.502098 0.142031
0.576013 0.531426 0.169955
0.799863 0.552026 0.226810
0.974578 0.595575 0.362951
0.391180 0.770626 0.244602
0.455756 0.772091 0.253880
0.618677 0.774777 0.284092
0.808713 0.779904 0.338659
0.966888 0.790951 0.481086
0.599390 0.947234 0.492073
0.628656 0.946380 0.499519
0.712398 0.941497 0.519005
0.837919 0.942626 0.577234
0.960082 0.946899 0.652766
0.198886 0.156619 0.171695
0.275731 0.157229 0.179538
0.505730 0.165713 0.211398
0.769833 0.226444 0.256809
0.969970 0.368200 0.354894
0.213657 0.243717 0.186435
0.302068 0.254398 0.196994
0.515801 0.276616 0.219211
0.772763 0.328435 0.266911
0.969207 0.435218 0.370703
0.278691 0.490944 0.232609
0.363531 0.495033 0.237980
0.560723 0.513054 0.258244
0.784726 0.543969 0.307591
0.966583 0.606165 0.430671
0.403082 0.765194 0.325414
0.468452 0.766262 0.338109
0.622919 0.769375 0.362463
0.805203 0.775570 0.408118
0.961730 0.793668 0.531518
0.617121 0.943572 0.540612
0.643977 0.942840 0.546838
0.729152 0.942351 0.573480
0.844022 0.942748 0.618860
0.960266 0.947509 0.683345
0.229679 0.152193 0.382238
0.317021 0.151675 0.387091
0.514488 0.168215 0.404028
0.767788 0.236484 0.456458
0.959686 0.413947 0.525566
0.241032 0.260502 0.393683
0.328588 0.262943 0.397803
0.528649 0.280797 0.418189
0.768734 0.339605 0.463783
0.957275 0.485420 0.544549
0.298497 0.491279 0.431342
0.376654 0.495613 0.436500
0.575982 0.524224 0.467750
0.778958 0.558618 0.503838
0.953033 0.637201 0.587274
0.412360 0.754696 0.498543
0.475410 0.752560 0.504051
0.635798 0.757961 0.536461
0.800778 0.770474 0.568170
0.950866 0.799893 0.647547
0.619013 0.937346 0.627588
0.655634 0.936584 0.641230
0.745052 0.935698 0.672053
0.847471 0.937560 0.700587
0.956176 0.944091 0.744656
0.259434 0.151736 0.661769
0.347509 0.155550 0.663935
0.544335 0.182315 0.674098
0.760678 0.248997 0.686030
0.950469 0.426123 0.708614
0.270420 0.273075 0.664698
0.356512 0.277501 0.667140
0.549432 0.298009 0.675074
0.760708 0.345251 0.686213
0.946685 0.486671 0.712703
0.329808 0.503471 0.678370
0.403754 0.507805 0.679377
0.579919 0.527214 0.685451
0.768795 0.555261 0.697139
0.942229 0.640162 0.734524
0.435554 0.744778 0.708400
0.492195 0.744533 0.708186
0.634333 0.750729 0.715175
0.799680 0.771328 0.737728
0.942321 0.803799 0.773342
0.627741 0.932067 0.761685
0.658656 0.931273 0.766201
0.743801 0.931365 0.781033
0.848631 0.934539 0.802579
0.952972 0.942535 0.828428
0.291264 0.193637 0.901183
0.367407 0.204227 0.901183
0.546258 0.248264 0.901701
0.747280 0.333928 0.902586
0.934417 0.454475 0.904509
0.314061 0.304570 0.900175
0.385199 0.312749 0.900206
0.557336 0.346166 0.900694
0.752499 0.413855 0.901335
0.933471 0.511101 0.903868
0.404639 0.528832 0.899168
0.462562 0.537224 0.898344
0.603418 0.558801 0.898436
0.771206 0.596124 0.899809
0.932769 0.651087 0.904906
0.528710 0.749142 0.903838
0.566705 0.752407 0.903258
0.670222 0.762051 0.902464
0.802274 0.779202 0.903899
0.936919 0.807614 0.913024
0.661372 0.927459 0.916655
0.683986 0.927672 0.916869
0.753353 0.929381 0.918608
0.847593 0.933501 0.922972
0.951873 0.944915 0.935668
