其他预设/【232】美食博客调色预设124款/1.3D LUT预设（视频调色-PR-AE-PS-FCPX-达芬奇用）/Food Art #8 ().cube
# Created by Adobe Lightroom plugin Export LUT (1.17.0)
# www.johnrellis.com/lightroom/exportlut.htm
# Preset: Food Art #8 (素锦印象)
# Color profile: /Library/Application Support/Adobe/Color/Profiles/Recommended/AdobeRGB1998.icc
LUT_3D_SIZE 32
0.000000 0.000000 0.000000
0.000000 0.000000 0.000000
0.000000 0.000000 0.000000
0.054475 0.000000 0.000000
0.092653 0.000000 0.000000
0.135134 0.000000 0.000000
0.181979 0.000000 0.000000
0.227451 0.000000 0.000000
0.271641 0.000000 0.000000
0.314855 0.000000 0.000000
0.358831 0.000000 0.000000
0.403540 0.000000 0.000000
0.449042 0.000000 0.000000
0.492622 0.000000 0.000000
0.532860 0.000000 0.000000
0.570550 0.000000 0.000000
0.608026 0.000000 0.000000
0.644923 0.000000 0.000000
0.680293 0.000000 0.000000
0.714717 0.000000 0.000000
0.748409 0.000000 0.000000
0.781582 0.000000 0.000000
0.814237 0.000000 0.000000
0.846098 0.000000 0.000000
0.876982 0.000000 0.000000
0.906676 0.000000 0.000000
0.934783 0.000000 0.000000
0.961425 0.000000 0.000000
0.986694 0.000000 0.000000
1.000000 0.000000 0.000000
1.000000 0.000000 0.000000
1.000000 0.000000 0.000000
0.000000 0.000000 0.000000
0.000000 0.000000 0.000000
0.000000 0.000000 0.000000
0.057557 0.000000 0.000000
0.093629 0.000000 0.000000
0.136049 0.000000 0.000000
0.183200 0.000000 0.000000
0.228763 0.000000 0.000000
0.272923 0.000000 0.000000
0.316503 0.000000 0.000000
0.360632 0.000000 0.000000
0.405585 0.000000 0.000000
0.451331 0.000000 0.000000
0.494881 0.000000 0.000000
0.535119 0.000000 0.000000
0.572869 0.000000 0.000000
0.610376 0.000000 0.000000
0.647333 0.000000 0.000000
0.682734 0.000000 0.000000
0.717006 0.000000 0.000000
0.750637 0.000000 0.000000
0.783688 0.000000 0.000000
0.816220 0.000000 0.000000
0.847959 0.000000 0.000000
0.878691 0.000000 0.000000
0.908171 0.000000 0.000000
0.936126 0.000000 0.000000
0.962585 0.000000 0.000000
0.987701 0.000000 0.000000
1.000000 0.000000 0.000000
1.000000 0.000000 0.000000
1.000000 0.000000 0.000000
0.000000 0.000000 0.000000
0.000000 0.000000 0.000000
0.000000 0.000000 0.000000
0.059480 0.002289 0.000000
0.094636 0.000000 0.000000
0.137453 0.000000 0.000000
0.184176 0.000000 0.000000
0.229892 0.000000 0.000000
0.274113 0.000000 0.000000
0.317723 0.000000 0.000000
0.361944 0.000000 0.000000
0.407111 0.000000 0.000000
0.452857 0.000000 0.000000
0.496284 0.000000 0.000000
0.536339 0.000000 0.000000
0.574243 0.000000 0.000000
0.611810 0.000000 0.000000
0.648768 0.000000 0.000000
0.684108 0.000000 0.000000
0.718288 0.000000 0.000000
0.751858 0.000000 0.000000
0.784817 0.000000 0.000000
0.817197 0.000000 0.000000
0.848875 0.000000 0.000000
0.879515 0.000000 0.000000
0.908934 0.000000 0.000000
0.936767 0.000000 0.000000
0.963134 0.000000 0.000000
0.988190 0.000000 0.000000
1.000000 0.000000 0.000000
1.000000 0.000000 0.000000
1.000000 0.000000 0.000000
0.000000 0.062989 0.000000
0.000000 0.064424 0.000000
0.000000 0.066621 0.000000
0.057923 0.066529 0.000000
0.094850 0.065003 0.000000
0.138247 0.068177 0.000000
0.185031 0.070741 0.000000
0.230716 0.072084 0.000000
0.274876 0.073365 0.000000
0.318730 0.075746 0.000000
0.363134 0.079866 0.000000
0.408698 0.079255 0.000000
0.454444 0.077455 0.000000
0.497780 0.073732 0.000000
0.537865 0.067292 0.000000
0.575738 0.058869 0.000000
0.613397 0.040223 0.000000
0.650446 0.015320 0.000000
0.685817 0.000000 0.000000
0.720119 0.000000 0.000000
0.753780 0.000000 0.000000
0.786648 0.000000 0.000000
0.818845 0.000000 0.000000
0.850126 0.000000 0.000000
0.880369 0.000000 0.000000
0.909392 0.000000 0.000000
0.936919 0.000000 0.000000
0.963195 0.000000 0.000000
0.988159 0.000000 0.000000
1.000000 0.005188 0.000000
1.000000 0.036072 0.000000
1.000000 0.062531 0.000000
0.000000 0.101564 0.000000
0.000000 0.102876 0.000000
0.000000 0.104311 0.000000
0.056001 0.105287 0.000000
0.099184 0.106630 0.000000
0.140047 0.110567 0.000000
0.187015 0.117372 0.000000
0.232639 0.121828 0.000000
0.276951 0.124941 0.000000
0.320775 0.128603 0.000000
0.365545 0.130037 0.000000
0.411261 0.130922 0.000000
0.457069 0.131044 0.000000
0.500053 0.129366 0.000000
0.539666 0.126070 0.000000
0.577264 0.122255 0.000000
0.614649 0.117433 0.000000
0.651362 0.112795 0.000000
0.686610 0.107790 0.000000
0.720912 0.102632 0.000000
0.754513 0.098146 0.000000
0.787503 0.094820 0.000000
0.819638 0.091646 0.000000
0.850828 0.089815 0.000000
0.880919 0.088838 0.000000
0.909819 0.089357 0.000000
0.937285 0.091432 0.000000
0.963500 0.093996 0.000000
0.988434 0.098421 0.000000
1.000000 0.103456 0.000000
1.000000 0.108644 0.000000
1.000000 0.114992 0.000000
0.000000 0.149813 0.000000
0.000000 0.150790 0.000000
0.000000 0.151553 0.000000
0.058289 0.152682 0.000000
0.106630 0.154116 0.000000
0.147860 0.155764 0.000000
0.187900 0.158175 0.000000
0.233371 0.164523 0.000000
0.277562 0.168826 0.000000
0.321782 0.171756 0.000000
0.366613 0.174319 0.000000
0.412451 0.176181 0.000000
0.458167 0.177005 0.000000
0.500999 0.176150 0.000000
0.540337 0.173892 0.000000
0.577905 0.170901 0.000000
0.615198 0.167453 0.000000
0.651698 0.164309 0.000000
0.686702 0.160800 0.000000
0.720882 0.157626 0.000000
0.754360 0.154482 0.000000
0.787167 0.151492 0.000000
0.807340 0.145205 0.000000
0.839414 0.143526 0.000000
0.870542 0.142519 0.000000
0.900542 0.141634 0.000000
0.929137 0.141909 0.000000
0.956359 0.142428 0.000000
0.982238 0.144015 0.000000
1.000000 0.146090 0.000000
1.000000 0.148745 0.000000
1.000000 0.152102 0.000000
0.000000 0.194827 0.000000
0.000000 0.195285 0.000000
0.000000 0.195682 0.000000
0.057893 0.196414 0.000000
0.109560 0.197360 0.000000
0.151827 0.198489 0.000000
0.191562 0.199924 0.000000
0.229343 0.200534 0.000000
0.273289 0.205753 0.000000
0.317082 0.209567 0.000000
0.361364 0.212833 0.000000
0.406653 0.215579 0.000000
0.452399 0.217563 0.000000
0.495613 0.217716 0.000000
0.535637 0.216281 0.000000
0.573602 0.213962 0.000000
0.611170 0.211582 0.000000
0.647944 0.208896 0.000000
0.682948 0.206088 0.000000
0.716793 0.203006 0.000000
0.749599 0.200259 0.000000
0.781552 0.197421 0.000000
0.812619 0.194980 0.000000
0.843076 0.192630 0.000000
0.872892 0.191043 0.000000
0.902037 0.189761 0.000000
0.930175 0.189029 0.000000
0.957183 0.188876 0.000000
0.982910 0.189059 0.000000
1.000000 0.189883 0.000000
1.000000 0.191012 0.000000
1.000000 0.192813 0.000000
0.000000 0.241825 0.000000
0.000000 0.242161 0.000000
0.000000 0.242496 0.000000
0.054841 0.243015 0.000000
0.111208 0.243931 0.000000
0.155306 0.244846 0.000000
0.196689 0.245914 0.000000
0.236881 0.247196 0.000000
0.274754 0.246403 0.000000
0.318669 0.250645 0.000000
0.363195 0.254368 0.000000
0.408545 0.257786 0.000000
0.454078 0.260410 0.000000
0.497017 0.260899 0.000000
0.536828 0.259525 0.000000
0.574792 0.257359 0.000000
0.612360 0.255253 0.000000
0.649104 0.252995 0.000000
0.684047 0.250309 0.000000
0.717891 0.247562 0.000000
0.750759 0.244724 0.000000
0.782712 0.241978 0.000000
0.813840 0.239536 0.000000
0.844266 0.237095 0.000000
0.873991 0.235050 0.000000
0.903044 0.233677 0.000000
0.931029 0.232364 0.000000
0.957885 0.231479 0.000000
0.983490 0.231022 0.000000
1.000000 0.230716 0.000000
1.000000 0.230930 0.000000
1.000000 0.231571 0.000000
0.000000 0.287999 0.000000
0.000000 0.288151 0.000000
0.000000 0.288518 0.000000
0.026001 0.288853 0.000000
0.107759 0.289677 0.000000
0.154971 0.290562 0.000000
0.198398 0.291600 0.000000
0.240085 0.292576 0.000000
0.281376 0.293492 0.000000
0.319432 0.291966 0.000000
0.364050 0.296117 0.000000
0.409522 0.299748 0.000000
0.454902 0.302800 0.000000
0.497505 0.303410 0.000000
0.536950 0.302098 0.000000
0.574975 0.300114 0.000000
0.612604 0.298039 0.000000
0.649378 0.295903 0.000000
0.684260 0.293156 0.000000
0.718105 0.290410 0.000000
0.751034 0.287663 0.000000
0.783108 0.284642 0.000000
0.814237 0.282017 0.000000
0.844724 0.279576 0.000000
0.874449 0.277348 0.000000
0.903441 0.275212 0.000000
0.931395 0.273625 0.000000
0.958160 0.272251 0.000000
0.983734 0.270939 0.000000
1.000000 0.270054 0.000000
1.000000 0.269444 0.000000
1.000000 0.269139 0.000000
0.000000 0.334508 0.000000
0.000000 0.334722 0.000000
0.000000 0.334997 0.000000
0.000000 0.335424 0.000000
0.098726 0.336217 0.000000
0.151980 0.337102 0.000000
0.198154 0.338048 0.000000
0.241825 0.339025 0.000000
0.284520 0.340002 0.000000
0.326482 0.340703 0.000000
0.366369 0.339635 0.000000
0.410895 0.342809 0.000000
0.456092 0.345769 0.000000
0.497993 0.346014 0.000000
0.536980 0.344396 0.000000
0.574640 0.342168 0.000000
0.611933 0.340002 0.000000
0.648402 0.337652 0.000000
0.683223 0.334874 0.000000
0.717220 0.331975 0.000000
0.750515 0.329290 0.000000
0.782986 0.326421 0.000000
0.814633 0.323674 0.000000
0.845426 0.321050 0.000000
0.875364 0.318547 0.000000
0.904295 0.316258 0.000000
0.932067 0.314122 0.000000
0.958618 0.312047 0.000000
0.983978 0.310124 0.000000
1.000000 0.308415 0.000000
1.000000 0.306981 0.000000
1.000000 0.305699 0.000000
0.000000 0.383154 0.000000
0.000000 0.383307 0.000000
0.000000 0.383551 0.000000
0.000000 0.383886 0.000000
0.083436 0.384314 0.000000
0.145937 0.385046 0.000000
0.195834 0.385779 0.000000
0.241794 0.386481 0.000000
0.286015 0.387182 0.000000
0.329473 0.387823 0.000000
0.372259 0.388525 0.000000
0.413825 0.388067 0.000000
0.456336 0.388830 0.000000
0.498238 0.388800 0.000000
0.536950 0.386816 0.000000
0.574548 0.384405 0.000000
0.611749 0.382025 0.000000
0.648127 0.379583 0.000000
0.683009 0.376562 0.000000
0.717128 0.373510 0.000000
0.750484 0.370550 0.000000
0.782956 0.367468 0.000000
0.814603 0.364508 0.000000
0.845396 0.361639 0.000000
0.875303 0.358831 0.000000
0.904265 0.356085 0.000000
0.932036 0.353491 0.000000
0.958648 0.351019 0.000000
0.983978 0.348577 0.000000
1.000000 0.346258 0.000000
1.000000 0.344152 0.000000
1.000000 0.342321 0.000000
0.000000 0.431678 0.000000
0.000000 0.431769 0.000000
0.000000 0.431891 0.000000
0.000000 0.432044 0.000000
0.054475 0.432380 0.000000
0.136263 0.432746 0.000000
0.191165 0.433204 0.000000
0.239506 0.433478 0.000000
0.285435 0.433631 0.000000
0.329747 0.433783 0.000000
0.373022 0.433783 0.000000
0.415656 0.433783 0.000000
0.448066 0.424170 0.000000
0.487495 0.422583 0.000000
0.526452 0.420996 0.000000
0.563958 0.418647 0.000000
0.601282 0.416632 0.000000
0.637934 0.414527 0.000000
0.673243 0.411933 0.000000
0.708034 0.409339 0.000000
0.742123 0.406653 0.000000
0.775448 0.404028 0.000000
0.808011 0.401282 0.000000
0.839658 0.398627 0.000000
0.870359 0.395819 0.000000
0.899870 0.393103 0.000000
0.928191 0.390295 0.000000
0.955291 0.387518 0.000000
0.981109 0.384833 0.000000
1.000000 0.382086 0.000000
1.000000 0.379614 0.000000
1.000000 0.377142 0.000000
0.000000 0.471565 0.000000
0.000000 0.471687 0.000000
0.000000 0.472023 0.000000
0.000000 0.472480 0.000000
0.000000 0.473152 0.000000
0.122011 0.473854 0.000000
0.182223 0.474311 0.000000
0.232975 0.474464 0.000000
0.280003 0.474281 0.000000
0.324529 0.473701 0.000000
0.367590 0.472663 0.000000
0.409491 0.471290 0.000000
0.450507 0.469978 0.000000
0.491279 0.468757 0.000000
0.527581 0.464179 0.000000
0.564843 0.461250 0.000000
0.602045 0.458686 0.000000
0.638575 0.456153 0.000000
0.673823 0.453223 0.000000
0.708675 0.450416 0.000000
0.742733 0.447639 0.000000
0.776059 0.444648 0.000000
0.808621 0.441749 0.000000
0.840299 0.438697 0.000000
0.870939 0.435615 0.000000
0.900420 0.432471 0.000000
0.928679 0.429236 0.000000
0.955688 0.426062 0.000000
0.981384 0.422736 0.000000
1.000000 0.419532 0.000000
1.000000 0.416358 0.000000
1.000000 0.413245 0.005585
0.000000 0.513909 0.000000
0.000000 0.513878 0.000000
0.000000 0.514092 0.000000
0.000000 0.514458 0.000000
0.000000 0.514824 0.000000
0.106264 0.515251 0.000000
0.173373 0.515435 0.000000
0.226535 0.515373 0.000000
0.274632 0.514916 0.000000
0.320043 0.514092 0.000000
0.363531 0.512871 0.000000
0.405768 0.511498 0.000000
0.447059 0.509972 0.000000
0.487800 0.508659 0.000000
0.528344 0.507591 0.000000
0.565118 0.503593 0.000000
0.602441 0.500786 0.000000
0.639063 0.497963 0.000000
0.674311 0.494545 0.000000
0.709041 0.491432 0.000000
0.743099 0.488197 0.000000
0.776333 0.485023 0.000000
0.808835 0.481788 0.000000
0.840421 0.478401 0.000000
0.871031 0.474952 0.000000
0.900450 0.471382 0.000000
0.928618 0.467689 0.000000
0.955535 0.463996 0.000000
0.981201 0.460273 0.000000
1.000000 0.456428 0.000000
1.000000 0.452735 0.000000
1.000000 0.449012 0.032074
0.000000 0.552819 0.000000
0.000000 0.552728 0.000000
0.000000 0.552941 0.000000
0.000000 0.553277 0.000000
0.000000 0.553674 0.000000
0.088045 0.554192 0.000000
0.163241 0.554345 0.000000
0.219089 0.554284 0.000000
0.268467 0.553826 0.000000
0.314702 0.553094 0.000000
0.358709 0.551873 0.000000
0.401282 0.550530 0.000000
0.442847 0.549096 0.000000
0.483894 0.547845 0.000000
0.524651 0.546807 0.000000
0.565270 0.546136 0.000000
0.602167 0.542443 0.000000
0.638788 0.539269 0.000000
0.674250 0.535637 0.000000
0.709163 0.532158 0.000000
0.743252 0.528649 0.000000
0.776547 0.525109 0.000000
0.809018 0.521599 0.000000
0.840543 0.517876 0.000000
0.871000 0.514031 0.000000
0.900237 0.510033 0.000000
0.928191 0.505821 0.000000
0.954894 0.501518 0.000000
0.980285 0.497139 0.000000
1.000000 0.492744 0.000000
1.000000 0.488319 0.000000
1.000000 0.483864 0.048890
0.000000 0.591058 0.000000
0.000000 0.590967 0.000000
0.000000 0.590997 0.000000
0.000000 0.591119 0.000000
0.000000 0.591241 0.000000
0.062593 0.591394 0.000000
0.151858 0.591363 0.000000
0.210422 0.591150 0.000000
0.261295 0.590661 0.000000
0.308171 0.590021 0.000000
0.352850 0.589166 0.000000
0.396094 0.588281 0.000000
0.438148 0.587274 0.000000
0.479774 0.586358 0.000000
0.520745 0.585595 0.000000
0.561486 0.584955 0.000000
0.601740 0.584283 0.000000
0.638361 0.580621 0.000000
0.673884 0.576562 0.000000
0.708675 0.572595 0.000000
0.742733 0.568566 0.000000
0.775875 0.564599 0.000000
0.808255 0.560601 0.000000
0.839628 0.556481 0.000000
0.869993 0.552270 0.000000
0.899138 0.547845 0.000000
0.927001 0.543206 0.000000
0.953674 0.538506 0.000000
0.979095 0.533684 0.000000
1.000000 0.528832 0.000000
1.000000 0.523949 0.019440
1.000000 0.519066 0.064637
0.000000 0.628840 0.000000
0.000000 0.628840 0.000000
0.000000 0.628901 0.000000
0.000000 0.629023 0.000000
0.000000 0.629053 0.000000
0.000000 0.629084 0.000000
0.140444 0.628992 0.000000
0.202609 0.628656 0.000000
0.254765 0.628168 0.000000
0.302373 0.627436 0.000000
0.347478 0.626551 0.000000
0.390906 0.625483 0.000000
0.433112 0.624414 0.000000
0.474525 0.623377 0.000000
0.515465 0.622431 0.000000
0.555993 0.621698 0.000000
0.596246 0.621027 0.000000
0.636133 0.620325 0.000000
0.673365 0.617548 0.000000
0.708370 0.613306 0.000000
0.742580 0.609033 0.000000
0.775875 0.604608 0.000000
0.808194 0.600153 0.000000
0.839536 0.595636 0.000000
0.869780 0.590906 0.000000
0.898741 0.586023 0.000000
0.926452 0.580865 0.000000
0.952972 0.575738 0.000000
0.978302 0.570397 0.000000
1.000000 0.564996 0.000000
1.000000 0.559533 0.047425
1.000000 0.554101 0.075319
0.000000 0.663996 0.000000
0.000000 0.663783 0.000000
0.000000 0.657008 0.000000
0.000000 0.657069 0.000000
0.000000 0.657221 0.000000
0.000000 0.657374 0.000000
0.125338 0.657496 0.000000
0.191165 0.657465 0.000000
0.244602 0.657252 0.000000
0.292821 0.656825 0.000000
0.338048 0.656275 0.000000
0.381567 0.655604 0.000000
0.423896 0.654963 0.000000
0.465522 0.654353 0.000000
0.506371 0.653864 0.000000
0.546807 0.653437 0.000000
0.587030 0.653071 0.000000
0.626886 0.652705 0.000000
0.666407 0.652247 0.000000
0.704433 0.650721 0.000000
0.739223 0.646754 0.000000
0.772915 0.642267 0.000000
0.805631 0.637659 0.000000
0.837308 0.633051 0.000000
0.867857 0.628229 0.000000
0.897215 0.623224 0.000000
0.925261 0.617945 0.000000
0.952026 0.612512 0.000000
0.977417 0.606867 0.000000
1.000000 0.601068 0.025940
1.000000 0.595117 0.066651
1.000000 0.589105 0.086732
0.000000 0.696468 0.000000
0.000000 0.695613 0.000000
0.000000 0.694697 0.000000
0.000000 0.693965 0.000000
0.000000 0.693385 0.000000
0.000000 0.693202 0.000000
0.112978 0.693141 0.000000
0.183413 0.693019 0.000000
0.238315 0.692805 0.000000
0.287022 0.692409 0.000000
0.332769 0.691859 0.000000
0.376501 0.691249 0.000000
0.419013 0.690669 0.000000
0.460578 0.690120 0.000000
0.501488 0.689662 0.000000
0.541955 0.689265 0.000000
0.582055 0.688869 0.000000
0.621759 0.688502 0.000000
0.661097 0.687984 0.000000
0.700008 0.687343 0.000000
0.738277 0.686336 0.000000
0.772641 0.682216 0.000000
0.805295 0.677150 0.000000
0.836912 0.671962 0.000000
0.867399 0.666560 0.000000
0.896574 0.661006 0.000000
0.924529 0.655177 0.000000
0.951171 0.649256 0.000000
0.976501 0.643122 0.000000
1.000000 0.636835 0.050385
1.000000 0.630457 0.078553
1.000000 0.624018 0.097261
0.000000 0.730800 0.000000
0.000000 0.730007 0.000000
0.000000 0.729274 0.000000
0.000000 0.728603 0.000000
0.000000 0.728054 0.000000
0.000000 0.727840 0.000000
0.100649 0.727687 0.000000
0.175784 0.727565 0.000000
0.231968 0.727321 0.000000
0.281559 0.726894 0.000000
0.327550 0.726375 0.000000
0.371313 0.725826 0.000000
0.413886 0.725246 0.000000
0.455451 0.724727 0.000000
0.496345 0.724239 0.000000
0.536645 0.723812 0.000000
0.576593 0.723445 0.000000
0.616083 0.723018 0.000000
0.655207 0.722499 0.000000
0.693904 0.721798 0.000000
0.732113 0.720912 0.000000
0.770169 0.720180 0.000000
0.804593 0.716335 0.000000
0.836118 0.710689 0.000000
0.866636 0.704829 0.000000
0.895872 0.698695 0.000000
0.923766 0.692409 0.000000
0.950378 0.686000 0.000000
0.975677 0.679377 0.009094
0.999634 0.672602 0.066224
1.000000 0.665736 0.088869
1.000000 0.658778 0.107057
0.000000 0.764096 0.000000
0.000000 0.763424 0.000000
0.000000 0.762692 0.000000
0.000000 0.762081 0.000000
0.000000 0.761563 0.000000
0.000000 0.761349 0.000000
0.087343 0.761196 0.000000
0.168399 0.761105 0.000000
0.226047 0.760830 0.000000
0.276036 0.760494 0.000000
0.322301 0.760037 0.000000
0.366308 0.759487 0.000000
0.408820 0.758968 0.000000
0.450324 0.758389 0.000000
0.491035 0.757809 0.000000
0.531060 0.757259 0.000000
0.570581 0.756527 0.000000
0.609552 0.755764 0.000000
0.648066 0.754849 0.000000
0.686091 0.753689 0.000000
0.723659 0.752468 0.000000
0.760861 0.751095 0.000000
0.798337 0.750240 0.000000
0.832883 0.746975 0.000000
0.863249 0.740688 0.000000
0.892424 0.734157 0.000000
0.920439 0.727413 0.000000
0.947143 0.720546 0.000000
0.972564 0.713497 0.000000
0.996704 0.706416 0.064179
1.000000 0.699184 0.089265
1.000000 0.691798 0.108400
0.000000 0.793668 0.000000
0.000000 0.793362 0.000000
0.000000 0.793057 0.000000
0.000000 0.792874 0.000000
0.000000 0.792691 0.000000
0.000000 0.792569 0.000000
0.072511 0.792447 0.000000
0.161135 0.792233 0.000000
0.219791 0.791928 0.000000
0.270176 0.791440 0.000000
0.316442 0.790890 0.000000
0.360449 0.790280 0.000000
0.402808 0.789731 0.000000
0.443977 0.789151 0.000000
0.484443 0.788602 0.000000
0.524285 0.788022 0.000000
0.563500 0.787381 0.000000
0.602289 0.786648 0.000000
0.640589 0.785824 0.000000
0.678492 0.784848 0.000000
0.715999 0.783810 0.000000
0.753048 0.782620 0.000000
0.789883 0.781430 0.000000
0.827054 0.780819 0.000000
0.862303 0.778653 0.000000
0.891478 0.771695 0.000000
0.919432 0.764462 0.000000
0.946136 0.757046 0.000000
0.971557 0.749477 0.020722
0.995666 0.741817 0.074342
1.000000 0.734066 0.098299
1.000000 0.726192 0.117220
0.000000 0.824704 0.000000
0.000000 0.824430 0.000000
0.000000 0.824155 0.000000
0.000000 0.823880 0.000000
0.000000 0.823728 0.000000
0.000000 0.823606 0.000000
0.059998 0.823545 0.000000
0.155276 0.823423 0.000000
0.215030 0.823148 0.000000
0.265690 0.822690 0.000000
0.312047 0.822202 0.000000
0.355779 0.821592 0.000000
0.397833 0.821012 0.000000
0.438941 0.820371 0.000000
0.479072 0.819791 0.000000
0.518608 0.819089 0.000000
0.557458 0.818296 0.000000
0.595850 0.817441 0.000000
0.633783 0.816464 0.000000
0.671260 0.815396 0.000000
0.708309 0.814176 0.000000
0.744961 0.812863 0.000000
0.781247 0.811490 0.000000
0.817227 0.810056 0.000000
0.854948 0.810544 0.000000
0.891020 0.809598 0.000000
0.918853 0.801816 0.000000
0.945525 0.793912 0.000000
0.970916 0.785824 0.061067
0.995026 0.777554 0.085939
1.000000 0.769162 0.108339
1.000000 0.760678 0.127016
0.000000 0.852506 0.000000
0.000000 0.852201 0.000000
0.000000 0.851957 0.000000
0.000000 0.851835 0.000000
0.000000 0.851804 0.000000
0.000000 0.851804 0.000000
0.034760 0.851835 0.000000
0.149966 0.851835 0.000000
0.210452 0.851743 0.000000
0.261173 0.851530 0.000000
0.307469 0.851286 0.000000
0.351019 0.850889 0.000000
0.392981 0.850431 0.000000
0.433814 0.849943 0.000000
0.473823 0.849485 0.000000
0.513115 0.849027 0.000000
0.551843 0.848417 0.000000
0.589990 0.847654 0.000000
0.627619 0.846708 0.000000
0.664698 0.845518 0.000000
0.701289 0.844175 0.000000
0.737545 0.842771 0.000000
0.773495 0.841398 0.000000
0.809232 0.840024 0.000000
0.844694 0.838743 0.000000
0.880278 0.837797 0.000000
0.917510 0.838346 0.000000
0.944274 0.830106 0.048371
0.969726 0.821622 0.080476
0.993835 0.812863 0.101076
1.000000 0.803922 0.118257
1.000000 0.794827 0.135927
0.000000 0.881163 0.000000
0.000000 0.880858 0.000000
0.000000 0.880674 0.000000
0.000000 0.880522 0.000000
0.000000 0.880461 0.000000
0.000000 0.880430 0.000000
0.033417 0.880339 0.000000
0.148226 0.880247 0.000000
0.208042 0.880064 0.000000
0.258335 0.879728 0.000000
0.303899 0.879362 0.000000
0.347143 0.878813 0.000000
0.388556 0.878264 0.000000
0.428779 0.877653 0.000000
0.468269 0.877073 0.000000
0.507042 0.876493 0.000000
0.545281 0.875792 0.000000
0.582940 0.874937 0.000000
0.620020 0.873960 0.000000
0.656703 0.872770 0.000000
0.692866 0.871427 0.000000
0.728756 0.870024 0.000000
0.764279 0.868650 0.000000
0.799557 0.867247 0.000000
0.834653 0.865904 0.022797
0.869413 0.864561 0.050843
0.903899 0.863157 0.067384
0.942260 0.865385 0.070436
0.967712 0.856443 0.093751
0.991821 0.847257 0.112337
1.000000 0.837858 0.128847
1.000000 0.828183 0.143465
0.000000 0.907713 0.000000
0.000000 0.907500 0.000000
0.000000 0.907408 0.000000
0.000000 0.907347 0.000000
0.000000 0.907347 0.000000
0.000000 0.907347 0.000000
0.047883 0.907317 0.000000
0.148989 0.907195 0.000000
0.207431 0.906981 0.000000
0.256535 0.906645 0.000000
0.301579 0.906188 0.000000
0.343908 0.905638 0.000000
0.384833 0.904997 0.000000
0.424567 0.904387 0.000000
0.463416 0.903777 0.000000
0.501701 0.903105 0.000000
0.539361 0.902373 0.000000
0.576562 0.901549 0.000000
0.613245 0.900542 0.000000
0.649439 0.899382 0.016449
0.685206 0.898070 0.035523
0.720607 0.896696 0.055421
0.755703 0.895293 0.065919
0.790524 0.893858 0.074861
0.825071 0.892485 0.083253
0.859403 0.891051 0.092073
0.893431 0.889647 0.100771
0.927184 0.888182 0.108919
0.966369 0.891783 0.109987
0.990448 0.882139 0.127169
1.000000 0.872221 0.142519
1.000000 0.862058 0.156954
0.000000 0.933440 0.000000
0.000000 0.933288 0.000000
0.000000 0.933196 0.000000
0.000000 0.933135 0.000000
0.000000 0.933013 0.000000
0.000000 0.932830 0.000000
0.066346 0.932494 0.000000
0.151492 0.932067 0.000000
0.207340 0.931456 0.000000
0.254673 0.930724 0.000000
0.298344 0.929931 0.000000
0.339727 0.929076 0.000000
0.379644 0.928161 0.000000
0.418555 0.927306 0.000000
0.456703 0.926513 0.000000
0.494301 0.925750 0.006134
0.531456 0.924987 0.024872
0.567987 0.924132 0.044099
0.604150 0.923125 0.060121
0.639826 0.921996 0.067262
0.675074 0.920745 0.074556
0.710079 0.919432 0.081453
0.744717 0.918090 0.088045
0.779080 0.916716 0.094636
0.813199 0.915343 0.102419
0.847044 0.913939 0.109834
0.880644 0.912505 0.116732
0.913909 0.911009 0.124392
0.946838 0.909483 0.131960
0.985168 0.912993 0.132784
1.000000 0.904387 0.146761
1.000000 0.893980 0.161440
0.000000 0.955688 0.008484
0.000000 0.955596 0.007874
0.000000 0.955596 0.010803
0.000000 0.955566 0.013123
0.000000 0.955535 0.016785
0.000000 0.955413 0.022278
0.078218 0.955230 0.028534
0.154574 0.954986 0.034394
0.208255 0.954589 0.041047
0.254673 0.954101 0.049653
0.297368 0.953521 0.054841
0.338048 0.952911 0.060365
0.377264 0.952209 0.064668
0.415564 0.951507 0.069795
0.453101 0.950774 0.074525
