其他预设/【232】美食博客调色预设124款/1.3D LUT预设（视频调色-PR-AE-PS-FCPX-达芬奇用）/Food Art #31.cube
# Created by Adobe Lightroom plugin Export LUT (1.17.0)
# www.johnrellis.com/lightroom/exportlut.htm
# Preset: Food Art #31
# Color profile: /Library/Application Support/Adobe/Color/Profiles/Recommended/AdobeRGB1998.icc
LUT_3D_SIZE 32
0.206363 0.176791 0.124086
0.206363 0.176791 0.124086
0.208377 0.176364 0.124025
0.216556 0.174685 0.123812
0.225864 0.173587 0.123476
0.237156 0.173007 0.122927
0.251194 0.172549 0.122133
0.269078 0.171695 0.121065
0.291325 0.170779 0.119600
0.318090 0.169589 0.118379
0.348882 0.167666 0.116609
0.382391 0.165530 0.114595
0.417639 0.163333 0.112154
0.454200 0.160891 0.109255
0.491066 0.158145 0.105928
0.527855 0.155093 0.101717
0.563989 0.151797 0.097108
0.598627 0.148653 0.091615
0.631464 0.145480 0.085847
0.662196 0.142611 0.079591
0.690974 0.140352 0.072999
0.718074 0.138094 0.065827
0.743801 0.136019 0.057679
0.768551 0.134218 0.042603
0.792538 0.132692 0.023560
0.815732 0.131258 0.006561
0.838132 0.130251 0.000000
0.859739 0.129580 0.000000
0.880552 0.129152 0.000000
0.900664 0.129152 0.000000
0.920134 0.129305 0.000000
0.939147 0.129671 0.000000
0.206363 0.176791 0.124086
0.206332 0.176913 0.124056
0.208743 0.176577 0.123995
0.216709 0.176394 0.123598
0.225956 0.175875 0.123171
0.237125 0.175479 0.122621
0.251377 0.174807 0.121859
0.269230 0.174105 0.120760
0.291539 0.173465 0.119417
0.318578 0.172183 0.117983
0.349371 0.170718 0.116365
0.382910 0.168856 0.114321
0.418280 0.166751 0.111849
0.454871 0.164797 0.109071
0.491829 0.162325 0.105470
0.528649 0.159274 0.101472
0.564691 0.156313 0.096559
0.599390 0.153353 0.090974
0.632136 0.150484 0.085176
0.662776 0.147921 0.078798
0.691524 0.145296 0.072267
0.718563 0.142947 0.065034
0.744228 0.141207 0.055970
0.768978 0.139284 0.040436
0.792935 0.137850 0.021393
0.816098 0.136690 0.004303
0.838437 0.135409 0.000000
0.860014 0.134859 0.000000
0.880797 0.134249 0.000000
0.900877 0.134096 0.000000
0.920348 0.134096 0.000000
0.939330 0.134463 0.000000
0.206027 0.179507 0.123751
0.206119 0.179873 0.123690
0.208957 0.179965 0.123537
0.216800 0.179965 0.123140
0.226047 0.179294 0.122744
0.237339 0.178622 0.122194
0.251591 0.177951 0.121431
0.269413 0.177432 0.120333
0.291936 0.176852 0.119173
0.318975 0.175967 0.117861
0.349767 0.174655 0.116213
0.383307 0.173373 0.114107
0.418799 0.171572 0.111574
0.455421 0.169741 0.108553
0.492256 0.167697 0.105104
0.529168 0.164981 0.100801
0.565179 0.162448 0.095796
0.599817 0.159609 0.090150
0.632593 0.156863 0.084291
0.663111 0.154513 0.078157
0.691798 0.152224 0.071168
0.718837 0.149844 0.063752
0.744472 0.148043 0.053651
0.769162 0.145907 0.037537
0.793118 0.144564 0.019593
0.816251 0.143008 0.001740
0.838590 0.142000 0.000000
0.860136 0.141085 0.000000
0.880919 0.140749 0.000000
0.900969 0.140444 0.000000
0.920409 0.140291 0.000000
0.939391 0.140627 0.000000
0.205051 0.187716 0.122713
0.206027 0.187900 0.122621
0.209384 0.187778 0.122499
0.216770 0.187472 0.122164
0.226230 0.186191 0.121828
0.237522 0.185275 0.121309
0.251743 0.184787 0.120516
0.269902 0.184451 0.119539
0.292393 0.184115 0.118532
0.319524 0.183780 0.117342
0.350408 0.183352 0.115572
0.384100 0.182589 0.113344
0.419379 0.181827 0.110872
0.456031 0.180484 0.107790
0.493080 0.178836 0.104005
0.529808 0.176913 0.099306
0.565820 0.174807 0.094392
0.600458 0.172610 0.088624
0.633082 0.170199 0.082582
0.663600 0.167941 0.076020
0.692287 0.165530 0.069154
0.719234 0.163455 0.061463
0.744808 0.161410 0.049561
0.769436 0.159915 0.031983
0.793271 0.158053 0.013489
0.816342 0.156558 0.000000
0.838621 0.155093 0.000000
0.860105 0.154543 0.000000
0.880888 0.153750 0.000000
0.900938 0.153017 0.000000
0.920409 0.152834 0.000000
0.939422 0.152773 0.000000
0.204074 0.197269 0.121401
0.206241 0.197147 0.121309
0.209354 0.197055 0.121187
0.216037 0.196689 0.120882
0.225986 0.196323 0.120394
0.237827 0.195346 0.120058
0.252293 0.194827 0.119631
0.270512 0.194827 0.119020
0.293248 0.195163 0.117861
0.320470 0.195834 0.116518
0.351476 0.196201 0.114565
0.385107 0.196658 0.112337
0.420539 0.196567 0.109743
0.457099 0.196170 0.106203
0.493935 0.195315 0.102022
0.530571 0.194095 0.097383
0.566491 0.192599 0.092042
0.600916 0.190860 0.086030
0.633356 0.188846 0.079805
0.663844 0.186740 0.072938
0.692439 0.184695 0.065766
0.719448 0.182712 0.056886
0.744961 0.180697 0.041260
0.769589 0.178836 0.023133
0.793362 0.177005 0.005982
0.816434 0.175296 0.000000
0.838651 0.174075 0.000000
0.860136 0.172610 0.000000
0.880888 0.171695 0.000000
0.900938 0.170932 0.000000
0.920409 0.170352 0.000000
0.939422 0.169894 0.000000
0.204532 0.208621 0.119844
0.206638 0.208713 0.119936
0.209628 0.208682 0.119783
0.216007 0.208469 0.119661
0.225589 0.208194 0.119387
0.237919 0.207858 0.119142
0.252720 0.207736 0.118624
0.271122 0.208103 0.118105
0.293950 0.209354 0.116976
0.321416 0.211002 0.115419
0.352392 0.212589 0.113436
0.386023 0.214023 0.110994
0.421424 0.214786 0.107942
0.457954 0.215244 0.103975
0.494697 0.215244 0.099519
0.531273 0.214908 0.094545
0.567041 0.213931 0.088960
0.601282 0.212924 0.082582
0.633356 0.211276 0.075776
0.663783 0.209445 0.068788
0.692348 0.207492 0.060639
0.719295 0.205234 0.047425
0.741970 0.202792 0.031891
0.766812 0.200748 0.014008
0.790829 0.199039 0.000000
0.814084 0.197116 0.000000
0.836576 0.195621 0.000000
0.858274 0.194095 0.000000
0.879240 0.192782 0.000000
0.899504 0.191653 0.000000
0.919127 0.190677 0.000000
0.938323 0.189975 0.000000
0.205051 0.223117 0.118776
0.207279 0.223087 0.118868
0.210117 0.223148 0.118715
0.216464 0.223087 0.118807
0.226017 0.222934 0.118502
0.238468 0.222782 0.118166
0.253239 0.222782 0.117861
0.271214 0.223392 0.117098
0.294072 0.225528 0.116030
0.321386 0.228336 0.114199
0.352178 0.231022 0.111971
0.385626 0.233433 0.109071
0.420844 0.235355 0.105501
0.457252 0.236759 0.101198
0.494087 0.237675 0.096376
0.530663 0.238071 0.090761
0.566339 0.238010 0.084657
0.600427 0.237156 0.077882
0.632441 0.235935 0.070863
0.662745 0.234257 0.062928
0.691127 0.232395 0.050843
0.717891 0.230106 0.033967
0.743130 0.228031 0.016022
0.767575 0.225711 0.000000
0.791287 0.223758 0.000000
0.814328 0.221714 0.000000
0.836728 0.220005 0.000000
0.858396 0.218173 0.000000
0.879332 0.216403 0.000000
0.899535 0.215061 0.000000
0.919219 0.213626 0.000000
0.938384 0.212741 0.000000
0.205844 0.241917 0.117464
0.208072 0.241978 0.117342
0.211124 0.242008 0.117372
0.217655 0.242069 0.117220
0.227634 0.242222 0.117037
0.240604 0.242283 0.116640
0.256046 0.242466 0.116426
0.273838 0.242771 0.115908
0.295293 0.244419 0.114748
0.322728 0.248234 0.112398
0.353582 0.252018 0.109590
0.387091 0.255528 0.106050
0.422278 0.258488 0.102052
0.458564 0.260838 0.097261
0.495277 0.262638 0.091890
0.531701 0.263767 0.085725
0.567163 0.264195 0.078645
0.600885 0.263706 0.071260
0.632868 0.262821 0.063172
0.663050 0.261295 0.050996
0.691402 0.259342 0.032746
0.718074 0.257053 0.013886
0.743313 0.254795 0.000000
0.767727 0.252445 0.000000
0.791440 0.250004 0.000000
0.814481 0.247868 0.000000
0.836820 0.245792 0.000000
0.858457 0.243839 0.000000
0.879362 0.241886 0.000000
0.899565 0.240055 0.000000
0.919188 0.238560 0.000000
0.938354 0.237034 0.000000
0.206729 0.265782 0.115297
0.209079 0.265751 0.115389
0.212467 0.265904 0.115175
0.219425 0.265995 0.114961
0.230045 0.266331 0.114687
0.243656 0.266606 0.114199
0.259983 0.267094 0.113588
0.278782 0.267552 0.112520
0.299687 0.268132 0.111513
0.324224 0.270146 0.109682
0.355016 0.275120 0.106386
0.388464 0.279515 0.102358
0.423560 0.283513 0.097505
0.459846 0.286717 0.092073
0.496315 0.289342 0.086000
0.532433 0.291142 0.078981
0.567529 0.291844 0.071107
0.601160 0.291844 0.062348
0.632959 0.291020 0.049073
0.663111 0.289555 0.028473
0.691402 0.287785 0.009003
0.718044 0.285313 0.000000
0.743282 0.282719 0.000000
0.767697 0.280278 0.000000
0.791409 0.277745 0.000000
0.814450 0.275151 0.000000
0.836790 0.272831 0.000000
0.858366 0.270603 0.000000
0.879240 0.268376 0.000000
0.899443 0.266300 0.000000
0.919097 0.264408 0.000000
0.938262 0.262608 0.000000
0.206760 0.294408 0.111299
0.209476 0.294408 0.111360
0.212985 0.294530 0.111147
0.220584 0.294743 0.110842
0.231907 0.295109 0.110262
0.246677 0.295537 0.109621
0.264073 0.296086 0.108858
0.284062 0.296666 0.107546
0.306065 0.297368 0.106294
0.329931 0.298039 0.104463
0.356878 0.299962 0.102083
0.390143 0.305425 0.097383
0.425177 0.310185 0.091798
0.461067 0.314336 0.085481
0.497230 0.317327 0.078187
0.532921 0.319493 0.070100
0.567773 0.320684 0.060487
0.601160 0.320867 0.043305
0.632868 0.320317 0.021149
0.662898 0.318853 0.001251
0.691249 0.316838 0.000000
0.717922 0.314519 0.000000
0.743282 0.311772 0.000000
0.767727 0.309056 0.000000
0.791470 0.306249 0.000000
0.814450 0.303655 0.000000
0.836759 0.300877 0.000000
0.858305 0.298344 0.000000
0.879149 0.295720 0.000000
0.899321 0.293370 0.000000
0.918883 0.291112 0.000000
0.938079 0.288945 0.000000
0.206058 0.326909 0.105013
0.208865 0.327001 0.105043
0.212741 0.327092 0.104799
0.221073 0.327276 0.104463
0.233341 0.327550 0.103792
0.249180 0.328038 0.102937
0.267887 0.328435 0.101778
0.288884 0.329107 0.100435
0.312016 0.329656 0.098695
0.336950 0.330358 0.096712
0.363226 0.331151 0.094179
0.391760 0.332799 0.090852
0.426551 0.338323 0.084260
0.462196 0.342870 0.076783
0.497993 0.346502 0.067933
0.533471 0.349157 0.057069
0.568139 0.350530 0.035615
0.601343 0.350988 0.011414
0.632990 0.350439 0.000000
0.662959 0.349004 0.000000
0.691157 0.346960 0.000000
0.717769 0.344335 0.000000
0.743099 0.341466 0.000000
0.767544 0.338506 0.000000
0.791257 0.335515 0.000000
0.814267 0.332525 0.000000
0.836545 0.329503 0.000000
0.858122 0.326665 0.000000
0.878935 0.323857 0.000000
0.899107 0.321050 0.000000
0.918700 0.318486 0.000000
0.937896 0.316045 0.000000
0.204440 0.361975 0.096468
0.207645 0.362097 0.096193
0.211917 0.362127 0.096162
0.220737 0.362310 0.095460
0.234134 0.362554 0.094636
0.250919 0.362890 0.093660
0.270817 0.363378 0.092195
0.292943 0.363897 0.090547
0.317174 0.364416 0.088380
0.343023 0.365057 0.085908
0.370092 0.365698 0.082795
0.398108 0.366155 0.079408
0.425025 0.364843 0.075898
0.460304 0.370153 0.066712
0.495796 0.374334 0.053285
0.531029 0.377447 0.028260
0.565637 0.379461 0.002319
0.598810 0.380194 0.000000
0.630518 0.379858 0.000000
0.660639 0.378668 0.000000
0.689021 0.376654 0.000000
0.715816 0.373968 0.000000
0.741360 0.370947 0.000000
0.765957 0.367834 0.000000
0.789883 0.364599 0.000000
0.813016 0.361486 0.000000
0.835416 0.358282 0.000000
0.857053 0.355169 0.000000
0.877989 0.352056 0.000000
0.898253 0.348943 0.000000
0.917967 0.346105 0.000000
0.937255 0.343389 0.000000
0.202457 0.397406 0.084535
0.205692 0.397589 0.084504
0.210483 0.397681 0.084077
0.219821 0.397894 0.083497
0.234073 0.398322 0.082338
0.251835 0.398718 0.081025
0.272618 0.399237 0.079103
0.295811 0.399664 0.076967
0.320806 0.400122 0.074189
0.347265 0.400366 0.071168
0.374762 0.400488 0.067353
0.403082 0.400610 0.062562
0.432258 0.400885 0.056306
0.462104 0.401221 0.043275
0.497139 0.405524 0.014710
0.532067 0.408850 0.000000
0.566369 0.410925 0.000000
0.599268 0.411719 0.000000
0.630793 0.411383 0.000000
0.660792 0.410040 0.000000
0.689082 0.407843 0.000000
0.715785 0.404913 0.000000
0.741268 0.401678 0.000000
0.765896 0.398291 0.000000
0.789761 0.394873 0.000000
0.812863 0.391394 0.000000
0.835264 0.387945 0.000000
0.856870 0.384436 0.000000
0.877806 0.380926 0.000000
0.898039 0.377569 0.000000
0.917723 0.374395 0.000000
0.937041 0.371344 0.000000
0.199619 0.435401 0.067262
0.203311 0.435492 0.066835
0.208164 0.435615 0.066651
0.218265 0.435859 0.065797
0.233341 0.436072 0.064302
0.252171 0.436408 0.062348
0.273930 0.436713 0.059724
0.298039 0.436927 0.055329
0.323827 0.437018 0.048829
0.350958 0.437232 0.038727
0.379126 0.437232 0.027588
0.408118 0.437293 0.015412
0.437629 0.437293 0.001465
0.467872 0.437507 0.000000
0.498604 0.437812 0.000000
0.533043 0.440925 0.000000
0.566979 0.443061 0.000000
0.599725 0.443946 0.000000
0.631128 0.443427 0.000000
0.660945 0.441932 0.000000
0.689082 0.439490 0.000000
0.715663 0.436347 0.000000
0.741085 0.432715 0.000000
0.765713 0.429145 0.000000
0.789517 0.425360 0.000000
0.812619 0.421546 0.000000
0.834958 0.417762 0.000000
0.856535 0.413977 0.000000
0.877440 0.410193 0.000000
0.897704 0.406500 0.000000
0.917388 0.402991 0.000000
0.936706 0.399634 0.000000
0.196475 0.473030 0.023224
0.200412 0.472999 0.023346
0.205478 0.473060 0.021790
0.216251 0.473243 0.019379
0.232151 0.473396 0.015229
0.251774 0.473671 0.010163
0.274296 0.473854 0.003571
0.299016 0.474006 0.000000
0.325536 0.474037 0.000000
0.353307 0.474006 0.000000
0.382025 0.473915 0.000000
0.411444 0.473793 0.000000
0.441444 0.473671 0.000000
0.471962 0.473762 0.000000
0.502892 0.473854 0.000000
0.534264 0.474006 0.000000
0.567529 0.475715 0.000000
0.600000 0.476417 0.000000
0.631220 0.475898 0.000000
0.660883 0.474189 0.000000
0.688899 0.471473 0.000000
0.715450 0.467994 0.000000
0.740810 0.464179 0.000000
0.765408 0.460243 0.000000
0.789212 0.456092 0.000000
0.812222 0.452033 0.000000
0.834501 0.447822 0.000000
0.856046 0.443732 0.000000
0.876921 0.439582 0.000000
0.897124 0.435523 0.000000
0.916808 0.431739 0.000000
0.936156 0.428016 0.000000
0.193088 0.509819 0.000000
0.197269 0.509758 0.000000
0.202457 0.509758 0.000000
0.213779 0.509850 0.000000
0.230137 0.509850 0.000000
0.250492 0.509972 0.000000
0.273564 0.509972 0.000000
0.299016 0.510002 0.000000
0.325994 0.509850 0.000000
0.354284 0.509789 0.000000
0.383368 0.509606 0.000000
0.413245 0.509514 0.000000
0.443488 0.509361 0.000000
0.474342 0.509300 0.000000
0.505425 0.509148 0.000000
0.536828 0.509239 0.000000
0.568353 0.509209 0.000000
0.600275 0.509422 0.000000
0.631312 0.508659 0.000000
0.660731 0.506645 0.000000
0.688594 0.503593 0.000000
0.714961 0.499794 0.000000
0.740322 0.495644 0.000000
0.764828 0.491371 0.000000
0.788602 0.486946 0.000000
0.811612 0.482490 0.000000
0.833829 0.478004 0.000000
0.855406 0.473610 0.000000
0.876280 0.469123 0.000000
0.896483 0.464881 0.000000
0.916258 0.460670 0.000000
0.935698 0.456733 0.000000
0.189700 0.545403 0.000000
0.193912 0.545434 0.000000
0.199435 0.545464 0.000000
0.211246 0.545495 0.000000
0.228061 0.545434 0.000000
0.248844 0.545464 0.000000
0.272465 0.545403 0.000000
0.298314 0.545281 0.000000
0.325750 0.545098 0.000000
0.354284 0.544793 0.000000
0.383703 0.544549 0.000000
0.413703 0.544182 0.000000
0.444129 0.543908 0.000000
0.474861 0.543572 0.000000
0.506004 0.543236 0.000000
0.537255 0.543084 0.000000
0.568780 0.542870 0.000000
0.600397 0.542748 0.000000
0.631312 0.541833 0.000000
0.660609 0.539544 0.000000
0.688350 0.536156 0.000000
0.714626 0.531945 0.000000
0.739895 0.527489 0.000000
0.764401 0.522850 0.000000
0.788113 0.518090 0.000000
0.811093 0.513298 0.000000
0.833280 0.508507 0.000000
0.854795 0.503685 0.000000
0.875669 0.498939 0.000000
0.895903 0.494301 0.000000
0.915709 0.489845 0.000000
0.935180 0.485634 0.000000
0.186435 0.579217 0.000000
0.190951 0.579034 0.000000
0.196689 0.577142 0.000000
0.208713 0.577111 0.000000
0.225834 0.577081 0.000000
0.246769 0.577081 0.000000
0.270390 0.577020 0.000000
0.296391 0.576898 0.000000
0.323919 0.576776 0.000000
0.352636 0.576501 0.000000
0.381964 0.576196 0.000000
0.412055 0.575891 0.000000
0.442481 0.575555 0.000000
0.473274 0.575250 0.000000
0.504326 0.574914 0.000000
0.535454 0.574578 0.000000
0.566827 0.574304 0.000000
0.598169 0.573968 0.000000
0.629541 0.573571 0.000000
0.659541 0.571832 0.000000
0.687282 0.568261 0.000000
0.713527 0.563806 0.000000
0.738857 0.558984 0.000000
0.763394 0.554131 0.000000
0.787137 0.549096 0.000000
0.810208 0.544060 0.000000
0.832517 0.538994 0.000000
0.854124 0.533867 0.000000
0.874998 0.528832 0.000000
0.895323 0.523888 0.000000
0.915160 0.519097 0.000000
0.934752 0.514641 0.000000
0.184024 0.610803 0.000000
0.188266 0.610559 0.000000
0.194339 0.610285 0.000000
0.206241 0.610010 0.000000
0.223484 0.609796 0.000000
0.244602 0.609583 0.000000
0.268589 0.609461 0.000000
0.294743 0.609216 0.000000
0.322393 0.608942 0.000000
0.350896 0.608606 0.000000
0.380407 0.608179 0.000000
0.410529 0.607691 0.000000
0.440894 0.607263 0.000000
0.471595 0.606775 0.000000
0.502434 0.606348 0.000000
0.533440 0.605829 0.000000
0.564538 0.605371 0.000000
0.595605 0.604822 0.000000
0.626764 0.604211 0.000000
0.657801 0.603571 0.000000
0.686915 0.601129 0.000000
0.713039 0.596277 0.000000
0.738308 0.591089 0.000000
0.762814 0.585779 0.000000
0.786526 0.580438 0.000000
0.809537 0.575036 0.000000
0.831846 0.569604 0.000000
0.853422 0.564202 0.000000
0.874327 0.558862 0.000000
0.894682 0.553552 0.000000
0.914580 0.548516 0.000000
0.934234 0.543877 0.000000
0.181796 0.641199 0.000000
0.186374 0.640986 0.000000
0.192203 0.640772 0.000000
0.204135 0.640497 0.000000
0.221469 0.640253 0.000000
0.242618 0.640009 0.000000
0.266697 0.639734 0.000000
0.292790 0.639490 0.000000
0.320256 0.639124 0.000000
0.348913 0.638727 0.000000
0.378210 0.638239 0.000000
0.408026 0.637690 0.000000
0.438331 0.637079 0.000000
0.468788 0.636561 0.000000
0.499489 0.635920 0.000000
0.530205 0.635309 0.000000
0.560998 0.634668 0.000000
0.591760 0.634028 0.000000
0.622583 0.633265 0.000000
0.653285 0.632410 0.000000
0.683833 0.631464 0.000000
0.712398 0.628748 0.000000
0.737606 0.623163 0.000000
0.762020 0.617548 0.000000
0.785794 0.611872 0.000000
0.808774 0.606104 0.000000
0.831083 0.600305 0.000000
0.852720 0.594568 0.000000
0.873655 0.588891 0.000000
0.894041 0.583337 0.000000
0.914031 0.578027 0.000000
0.933806 0.573144 0.000000
0.180636 0.669703 0.000000
0.185092 0.669520 0.000000
0.190982 0.669276 0.000000
0.202884 0.669032 0.000000
0.220249 0.668757 0.000000
0.241215 0.668482 0.000000
0.264897 0.668238 0.000000
0.290776 0.667933 0.000000
0.318090 0.667475 0.000000
0.346441 0.667018 0.000000
0.375555 0.666529 0.000000
0.405249 0.665919 0.000000
0.435187 0.665278 0.000000
0.465339 0.664576 0.000000
0.495735 0.663874 0.000000
0.526146 0.663142 0.000000
0.556573 0.662348 0.000000
0.586999 0.661524 0.000000
0.617395 0.660609 0.000000
0.647639 0.659571 0.000000
0.677821 0.658564 0.000000
0.707912 0.657435 0.000000
0.736294 0.654749 0.000000
0.760708 0.648768 0.000000
0.784390 0.642695 0.000000
0.807370 0.636622 0.000000
0.829709 0.630549 0.000000
0.851347 0.624537 0.000000
0.872374 0.618524 0.000000
0.892851 0.612757 0.000000
0.912993 0.607233 0.000000
0.932982 0.602197 0.000000
0.180606 0.695857 0.000000
0.184878 0.695766 0.000000
0.190433 0.695644 0.000000
0.202304 0.695521 0.000000
0.219211 0.695277 0.000000
0.239963 0.695064 0.000000
0.263493 0.694820 0.000000
0.288884 0.694423 0.000000
0.315984 0.693996 0.000000
0.343877 0.693477 0.000000
0.372625 0.692927 0.000000
0.401953 0.692317 0.000000
0.431617 0.691646 0.000000
0.461463 0.691005 0.000000
0.491432 0.690272 0.000000
0.521630 0.689479 0.000000
0.551720 0.688685 0.000000
0.581842 0.687861 0.000000
0.611902 0.686946 0.000000
0.641932 0.685969 0.000000
0.671870 0.684993 0.000000
0.701686 0.683894 0.000000
0.731472 0.682826 0.000000
0.759854 0.680476 0.000000
0.783566 0.674067 0.000000
0.806577 0.667689 0.000000
0.828885 0.661250 0.000000
0.850553 0.654902 0.000000
0.871611 0.648646 0.000000
0.892180 0.642573 0.000000
0.912444 0.636866 0.000000
0.932311 0.631403 0.000000
0.181491 0.721675 0.000000
0.185580 0.721553 0.000000
0.190951 0.721462 0.000000
0.202701 0.721309 0.000000
0.219211 0.721126 0.000000
0.239536 0.720882 0.000000
0.262547 0.720638 0.000000
0.287541 0.720302 0.000000
0.314122 0.719905 0.000000
0.341802 0.719387 0.000000
0.370123 0.718868 0.000000
0.399054 0.718196 0.000000
0.428260 0.717525 0.000000
0.457832 0.716823 0.000000
0.487465 0.716091 0.000000
0.517235 0.715297 0.000000
0.547021 0.714443 0.000000
0.576837 0.713558 0.000000
0.606561 0.712612 0.000000
0.636255 0.711635 0.000000
0.665797 0.710628 0.000000
0.695369 0.709499 0.000000
0.724758 0.708370 0.000000
0.754086 0.707210 0.000000
0.782834 0.705592 0.000000
0.805814 0.698848 0.000000
0.828183 0.692073 0.000000
0.849851 0.685389 0.000000
0.870970 0.678859 0.000000
0.891661 0.672511 0.000000
0.912047 0.666621 0.000000
0.931518 0.660517 0.000000
0.183352 0.746029 0.000000
0.187259 0.745937 0.000000
0.192599 0.745815 0.000000
0.203830 0.745693 0.000000
0.219883 0.745541 0.000000
0.239628 0.745357 0.000000
0.262028 0.745113 0.000000
0.286534 0.744839 0.000000
0.312718 0.744442 0.000000
0.339849 0.744015 0.000000
0.367864 0.743526 0.000000
0.396155 0.742947 0.000000
0.425086 0.742336 0.000000
0.454200 0.741695 0.000000
0.483528 0.740993 0.000000
0.512963 0.740261 0.000000
0.542473 0.739498 0.000000
0.571984 0.738643 0.000000
0.601373 0.737728 0.000000
0.630701 0.736721 0.000000
0.659968 0.735653 0.000000
0.689143 0.734554 0.000000
0.718227 0.733425 0.000000
0.747311 0.732296 0.000000
0.776303 0.731167 0.000000
0.804868 0.729702 0.000000
0.827237 0.722683 0.000000
0.849058 0.715724 0.000000
0.870268 0.708949 0.000000
0.891081 0.702419 0.000000
0.911284 0.696071 0.000000
0.930602 0.689448 0.000000
0.186282 0.770047 0.000000
0.190158 0.769924 0.000000
0.195224 0.769833 0.000000
0.205905 0.769711 0.000000
0.221439 0.769558 0.000000
0.240513 0.769345 0.000000
0.262486 0.769100 0.000000
0.286442 0.768795 0.000000
0.311925 0.768399 0.000000
0.338476 0.767971 0.000000
0.365850 0.767453 0.000000
0.393805 0.766842 0.000000
0.422248 0.766232 0.000000
0.450904 0.765560 0.000000
0.479774 0.764828 0.000000
0.508751 0.764126 0.000000
0.537774 0.763302 0.000000
0.566888 0.762478 0.000000
0.595880 0.761532 0.000000
0.624872 0.760586 0.000000
0.653773 0.759518 0.000000
0.682673 0.758419 0.000000
0.711452 0.757351 0.000000
0.740200 0.756252 0.000000
0.768887 0.755123 0.000000
0.797482 0.754025 0.000000
0.826078 0.752926 0.000000
0.848051 0.745815 0.000000
0.869383 0.738857 0.000000
0.890349 0.732174 0.000000
0.910094 0.725032 0.000000
0.929442 0.718105 0.000000
0.190677 0.792966 0.000000
0.194400 0.792905 0.000000
0.199069 0.792844 0.000000
0.209354 0.792752 0.000000
0.224063 0.792599 0.000000
0.242557 0.792416 0.000000
0.263645 0.792203 0.000000
0.286931 0.791897 0.000000
0.311742 0.791501 0.000000
0.337621 0.791073 0.000000
0.364446 0.790555 0.000000
0.391882 0.789975 0.000000
0.419684 0.789334 0.000000
0.447944 0.788663 0.000000
0.476265 0.787961 0.000000
0.504814 0.787259 0.000000
0.533410 0.786465 0.000000
0.562158 0.785641 0.000000
0.590814 0.784756 0.000000
0.619379 0.783780 0.000000
0.647974 0.782773 0.000000
0.676478 0.781765 0.000000
0.704952 0.780667 0.000000
0.733364 0.779629 0.000000
0.761715 0.778561 0.000000
0.790066 0.777493 0.000000
0.818326 0.776455 0.000000
0.846586 0.775418 0.000000
0.868742 0.768887 0.000000
0.889281 0.761501 0.000000
0.909056 0.753994 0.000000
0.928405 0.746822 0.000000
0.196139 0.815244 0.000000
0.199466 0.815183 0.000000
0.204257 0.815091 0.000000
0.213535 0.815030 0.000000
0.227817 0.814847 0.000000
0.245396 0.814633 0.000000
0.265629 0.814328 0.000000
0.287999 0.813962 0.000000
0.312078 0.813504 0.000000
0.337194 0.812955 0.000000
0.363287 0.812375 0.000000
0.389960 0.811734 0.000000
0.417182 0.811032 0.000000
0.444739 0.810330 0.000000
0.472633 0.809598 0.000000
0.500603 0.808865 0.000000
0.528832 0.808133 0.000000
0.557031 0.807340 0.000000
0.585321 0.806485 0.000000
0.613519 0.805570 0.000000
0.641718 0.804623 0.000000
0.669886 0.803647 0.000000
0.698054 0.802670 0.000000
0.726162 0.801694 0.000000
0.754269 0.800748 0.000000
0.782315 0.799802 0.000000
0.810330 0.798856 0.000000
0.838346 0.797971 0.000000
0.865965 0.796689 0.000000
0.887572 0.790036 0.000000
0.907408 0.782284 0.000000
0.926818 0.774868 0.000000
0.201877 0.836118 0.000000
0.204959 0.836088 0.000000
0.209293 0.836027 0.000000
0.218448 0.835935 0.000000
0.231968 0.835813 0.000000
0.248692 0.835630 0.000000
0.268132 0.835416 0.000000
0.289647 0.835080 0.000000
0.312871 0.834714 0.000000
0.337469 0.834226 0.000000
0.362799 0.833738 0.000000
0.388922 0.833188 0.000000
0.415534 0.832609 0.000000
0.442634 0.831937 0.000000
0.469947 0.831296 0.000000
0.497536 0.830625 0.000000
