其他预设/【232】美食博客调色预设124款/1.3D LUT预设（视频调色-PR-AE-PS-FCPX-达芬奇用）/Food Art #30.cube
# Created by Adobe Lightroom plugin Export LUT (1.17.0)
# www.johnrellis.com/lightroom/exportlut.htm
# Preset: Food Art #30
# Color profile: /Library/Application Support/Adobe/Color/Profiles/Recommended/AdobeRGB1998.icc
LUT_3D_SIZE 8
DOMAIN_MIN 0.000000 0.000000 0.000000
DOMAIN_MAX 0.903226 0.903226 0.903226
0.068879 0.132387 0.185275
0.152895 0.147860 0.202731
0.269810 0.176791 0.238224
0.391669 0.208988 0.284215
0.525658 0.243412 0.338201
0.666865 0.276188 0.391608
0.793606 0.313237 0.442817
0.898131 0.364660 0.494179
0.069306 0.216892 0.219272
0.154971 0.224979 0.232822
0.270665 0.230686 0.257939
0.390661 0.249912 0.299901
0.523888 0.275395 0.348882
0.662959 0.301579 0.397162
0.789273 0.333074 0.445686
0.895567 0.380102 0.496162
0.087617 0.339086 0.288121
0.153780 0.341588 0.295628
0.277501 0.349493 0.320226
0.400336 0.353185 0.349737
0.534813 0.364599 0.384558
0.671046 0.379522 0.422827
0.796780 0.401984 0.465797
0.899321 0.438422 0.510643
0.139498 0.457130 0.367224
0.183322 0.458076 0.371099
0.288365 0.462654 0.384863
0.424292 0.476265 0.410346
0.562188 0.482795 0.434058
0.686793 0.484871 0.459358
0.801450 0.494789 0.491371
0.899474 0.519463 0.528771
0.201205 0.581018 0.432136
0.233829 0.581598 0.434302
0.323980 0.584466 0.442329
0.444434 0.590173 0.456733
0.575677 0.594995 0.474159
0.696162 0.592950 0.492592
0.804623 0.595331 0.517571
0.899992 0.612604 0.549828
0.277989 0.692256 0.483894
0.303410 0.694667 0.486427
0.374487 0.695247 0.491341
0.475898 0.696529 0.500008
0.590814 0.697566 0.511498
0.709255 0.700099 0.525689
0.815366 0.700893 0.545312
0.904051 0.710201 0.573449
0.385412 0.792752 0.531304
0.401892 0.793118 0.532586
0.452705 0.792325 0.535637
0.532067 0.791958 0.541741
0.626398 0.791287 0.550072
0.726528 0.792142 0.561212
0.823301 0.794919 0.574701
0.907622 0.799771 0.597345
0.527764 0.878111 0.579004
0.537621 0.877897 0.579767
0.571679 0.877470 0.582666
0.628382 0.877409 0.588617
0.693202 0.874510 0.594415
0.770443 0.875181 0.605951
0.846769 0.877440 0.621118
0.915587 0.880644 0.639002
0.000000 0.134707 0.278691
0.127810 0.148806 0.290410
0.255772 0.192630 0.314672
0.380468 0.232059 0.353826
0.516930 0.259709 0.388373
0.656794 0.285954 0.424537
0.784756 0.319036 0.463600
0.892332 0.368322 0.506462
0.000000 0.215579 0.301396
0.133516 0.224826 0.311772
0.257511 0.243442 0.333654
0.382238 0.265599 0.362737
0.517937 0.287602 0.394995
0.656092 0.309667 0.429206
0.781979 0.338048 0.466072
0.889799 0.382971 0.507744
0.075593 0.336675 0.343633
0.151492 0.339422 0.356146
0.268437 0.348089 0.372290
0.392706 0.355901 0.393164
0.528161 0.368048 0.418280
0.662745 0.381781 0.447181
0.786801 0.402319 0.480690
0.892851 0.438880 0.519585
0.140078 0.453590 0.401312
0.185275 0.454994 0.406439
0.286900 0.460609 0.417182
0.415290 0.470375 0.435157
0.548699 0.476387 0.453101
0.674128 0.480293 0.473976
0.791348 0.491737 0.501457
0.893492 0.518090 0.535271
0.204440 0.578820 0.453986
0.235782 0.579004 0.455665
0.323278 0.581048 0.462013
0.440040 0.584924 0.472908
0.568139 0.589136 0.487098
0.689387 0.588983 0.503410
0.799619 0.593286 0.525902
0.896422 0.611902 0.555535
0.280919 0.688838 0.496468
0.303777 0.689143 0.497810
0.373541 0.690028 0.502037
0.474250 0.692103 0.509941
0.588830 0.694362 0.520714
0.707637 0.698146 0.533867
0.813107 0.699580 0.552056
0.901762 0.709224 0.577935
0.387488 0.788510 0.537865
0.402167 0.788022 0.538476
0.452796 0.787808 0.541558
0.532464 0.788418 0.547631
0.626703 0.788754 0.555840
0.725399 0.789670 0.566064
0.820706 0.792050 0.578485
0.904845 0.797147 0.600031
0.529717 0.875792 0.582910
0.540063 0.875853 0.583856
0.573999 0.875639 0.586847
0.630182 0.875792 0.592737
0.699001 0.875486 0.600671
0.773129 0.875425 0.611017
0.847044 0.876799 0.624842
0.914885 0.879637 0.641749
0.000000 0.145052 0.411444
0.000000 0.158419 0.416846
0.234379 0.199039 0.432837
0.371832 0.239719 0.448646
0.513878 0.270726 0.470588
0.657679 0.301183 0.494728
0.785245 0.336614 0.517876
0.892210 0.388647 0.544915
0.000000 0.219455 0.424201
0.083009 0.229252 0.428412
0.239231 0.249485 0.440070
0.373907 0.274876 0.454963
0.515801 0.298161 0.474983
0.656855 0.323003 0.496529
0.783566 0.354284 0.518975
0.891051 0.402808 0.545892
0.000000 0.335790 0.447852
0.127321 0.339269 0.450996
0.256046 0.348333 0.459815
0.386816 0.360693 0.472755
0.529107 0.375402 0.489326
0.663844 0.390967 0.506523
0.786496 0.414099 0.526970
0.891569 0.453681 0.552514
0.126345 0.453864 0.474739
0.177951 0.455573 0.477852
0.286168 0.461860 0.486122
0.414160 0.471443 0.496956
0.549706 0.479469 0.508476
0.675929 0.486305 0.522118
0.792782 0.501122 0.540276
0.893614 0.531029 0.564080
0.203433 0.577569 0.504997
0.237949 0.578454 0.507012
0.328710 0.581231 0.512413
0.444526 0.585840 0.519646
0.571557 0.590570 0.528740
0.690669 0.591394 0.539666
0.799802 0.598810 0.555901
0.896117 0.620111 0.578393
0.289738 0.687739 0.530755
0.315343 0.687984 0.532616
0.386969 0.688350 0.537377
0.482765 0.689754 0.542535
0.593164 0.691890 0.549920
0.707698 0.695888 0.559747
0.811856 0.699947 0.574182
0.901701 0.713649 0.596918
0.405676 0.787869 0.560967
0.423957 0.787228 0.562768
0.473762 0.786282 0.565942
0.546838 0.786282 0.570184
0.635645 0.786709 0.576410
0.730678 0.788540 0.585290
0.823728 0.792569 0.597040
0.906676 0.800107 0.617792
0.545892 0.874113 0.599268
0.556909 0.873503 0.600641
0.587976 0.873167 0.603021
0.642206 0.874052 0.608881
0.707057 0.873930 0.615961
0.778531 0.874540 0.625940
0.850126 0.876616 0.639124
0.916289 0.880125 0.655604
0.000000 0.162844 0.516472
0.000000 0.175662 0.519432
0.212558 0.208560 0.526085
0.365484 0.244236 0.535363
0.512474 0.272953 0.545403
0.654688 0.302342 0.555474
0.781613 0.342596 0.566674
0.888609 0.404700 0.583520
0.000000 0.230472 0.523400
0.000000 0.236545 0.525078
0.225345 0.254520 0.530114
0.370642 0.277806 0.538262
0.516442 0.300267 0.547814
0.655726 0.325628 0.556756
0.781216 0.362463 0.567956
0.888090 0.421057 0.585046
0.000000 0.335119 0.533196
0.118807 0.339269 0.534722
0.251560 0.349248 0.539025
0.386481 0.362005 0.546014
0.530022 0.377386 0.554803
0.665705 0.398016 0.563622
0.788449 0.431586 0.576349
0.891234 0.474159 0.591180
0.132174 0.453864 0.547784
0.180575 0.455695 0.548943
0.288365 0.461555 0.552453
0.415991 0.470344 0.558007
0.549737 0.479896 0.564294
0.675502 0.492500 0.571984
0.791714 0.512474 0.582696
0.892790 0.545312 0.598230
0.217075 0.577569 0.562066
0.248783 0.577844 0.562615
0.337224 0.580194 0.565026
0.455482 0.585046 0.570520
0.577417 0.590478 0.575769
0.693782 0.595331 0.582574
0.801572 0.607019 0.592950
0.896300 0.630213 0.609216
0.307225 0.688136 0.573053
0.333471 0.689815 0.574640
0.405737 0.689235 0.577966
0.505272 0.689754 0.583948
0.607568 0.692348 0.588647
0.713710 0.696284 0.595026
0.813748 0.702876 0.606073
0.901976 0.718807 0.624628
0.420813 0.786526 0.590173
0.438880 0.786496 0.591669
0.494728 0.785885 0.596368
0.571374 0.785672 0.602716
0.653101 0.786618 0.607843
0.740841 0.788663 0.614893
0.827451 0.792691 0.624475
0.907591 0.801816 0.643061
0.558190 0.873991 0.622126
0.569726 0.873777 0.623621
0.605554 0.872740 0.628168
0.656855 0.872251 0.633814
0.717403 0.872465 0.640101
0.785031 0.873564 0.649073
0.853758 0.876188 0.661341
0.917876 0.880491 0.676936
0.000000 0.185824 0.591272
0.000000 0.194949 0.592340
0.224094 0.219852 0.594934
0.372015 0.249180 0.598962
0.519677 0.276829 0.604913
0.659022 0.305272 0.608698
0.784268 0.345800 0.612787
0.890440 0.408667 0.621790
0.000000 0.240421 0.593805
0.081880 0.245762 0.594842
0.237949 0.260746 0.596918
0.377966 0.280735 0.600153
0.523278 0.303349 0.605768
0.661280 0.328496 0.609369
0.785153 0.366247 0.613672
0.890440 0.425208 0.622919
0.088808 0.340826 0.598413
0.152102 0.344274 0.599207
0.266331 0.351537 0.600793
0.396704 0.363592 0.604242
0.534539 0.377813 0.608301
0.666224 0.396826 0.611139
0.786679 0.428840 0.616358
0.889708 0.475410 0.626246
0.166964 0.452491 0.604303
0.206363 0.454383 0.604852
0.304692 0.460365 0.606775
0.426581 0.469551 0.609613
0.555322 0.479988 0.612848
0.678676 0.494759 0.616175
0.792355 0.516960 0.622431
0.891600 0.549584 0.633051
0.244694 0.572320 0.611566
0.273045 0.573327 0.612024
0.354467 0.576196 0.613306
0.466194 0.580896 0.615442
0.581506 0.586389 0.618311
0.694301 0.594537 0.622522
0.800626 0.608484 0.629755
0.895293 0.631861 0.641962
0.328252 0.682826 0.616266
0.350042 0.682948 0.616724
0.417395 0.682612 0.618128
0.511925 0.683345 0.621332
0.613031 0.685878 0.625757
0.716060 0.692592 0.631739
0.814786 0.702663 0.641169
0.902037 0.719478 0.656153
0.439216 0.783474 0.627558
0.454994 0.783047 0.628290
0.505577 0.782132 0.631128
0.580133 0.781857 0.636164
0.661219 0.783139 0.641566
0.745571 0.786160 0.647883
0.829068 0.790829 0.656214
0.907591 0.800870 0.672389
0.566491 0.870878 0.652796
0.576745 0.870512 0.653773
0.610010 0.869657 0.657069
0.663020 0.870390 0.663416
0.722164 0.870573 0.669184
0.787930 0.871946 0.677211
0.855161 0.874937 0.688319
0.918273 0.879576 0.702480
0.026825 0.207370 0.652247
0.132753 0.213870 0.652613
0.259953 0.232486 0.653498
0.393622 0.256870 0.656123
0.530938 0.282811 0.659449
0.667353 0.310338 0.662898
0.789883 0.351324 0.664698
0.893736 0.415564 0.669795
0.098756 0.251713 0.652277
0.155581 0.255711 0.652552
0.269078 0.267887 0.653559
0.397864 0.286137 0.656184
0.532738 0.307622 0.659205
0.667933 0.332280 0.662745
0.789853 0.370459 0.664851
0.893309 0.430854 0.670344
0.163546 0.347021 0.655665
0.200839 0.348913 0.655879
0.296269 0.355718 0.656977
0.415839 0.366888 0.658961
0.544732 0.381415 0.661341
0.675227 0.400488 0.664485
0.792905 0.433143 0.666957
0.893767 0.481331 0.673304
0.220554 0.455207 0.659571
0.250248 0.456641 0.659724
0.335149 0.462501 0.660761
0.447242 0.472206 0.663142
0.568536 0.483955 0.665553
0.689509 0.498421 0.668360
0.799710 0.520867 0.671656
0.895842 0.554223 0.678981
0.285222 0.567193 0.663172
0.309300 0.568353 0.663539
0.382666 0.572198 0.664454
0.485298 0.579156 0.665949
0.592676 0.585931 0.667842
0.701656 0.594751 0.670985
0.804929 0.608972 0.675776
0.897063 0.631586 0.684596
0.362676 0.679133 0.668818
0.383276 0.680018 0.669398
0.444617 0.681270 0.670222
0.530938 0.683223 0.671748
0.624811 0.685939 0.673884
0.722469 0.691737 0.678126
0.817227 0.701656 0.685145
0.902739 0.717983 0.696407
0.464393 0.782101 0.677699
0.479500 0.782284 0.678401
0.525811 0.781704 0.679957
0.593347 0.781521 0.682704
0.669825 0.782498 0.686244
0.751553 0.785306 0.691524
0.833005 0.790829 0.699062
0.909819 0.801877 0.712947
0.580957 0.869322 0.696834
0.590021 0.869017 0.697444
0.620294 0.868345 0.699550
0.667628 0.868406 0.703334
0.725399 0.868925 0.708125
0.789700 0.870512 0.714748
0.856687 0.874174 0.724971
0.919219 0.879423 0.737728
0.157961 0.226200 0.719173
0.197513 0.231174 0.719600
0.295293 0.246006 0.720577
0.414343 0.266941 0.722255
0.541100 0.291661 0.724208
0.669093 0.320836 0.726680
0.791318 0.357336 0.729885
0.894224 0.420386 0.731563
0.174990 0.262913 0.719295
0.210452 0.266331 0.719661
0.302190 0.277043 0.720577
0.417975 0.293645 0.721950
0.543114 0.314977 0.723873
0.669886 0.341253 0.726284
0.790951 0.375311 0.729366
0.893370 0.434180 0.731319
0.213199 0.350347 0.721462
0.242191 0.352148 0.721675
0.323857 0.358648 0.722255
0.432990 0.369726 0.723476
0.553735 0.385168 0.725185
0.676967 0.406317 0.727504
0.794614 0.436011 0.730739
0.894591 0.484077 0.733822
0.264134 0.455818 0.724331
0.288060 0.457099 0.724239
0.360052 0.461982 0.724605
0.460731 0.470222 0.725795
0.574548 0.482429 0.727352
0.690486 0.498817 0.729824
0.800687 0.519829 0.733303
0.896300 0.554192 0.737514
0.327520 0.565362 0.727321
0.347509 0.566369 0.727321
0.410864 0.570367 0.727565
0.500084 0.576226 0.728115
0.600183 0.583032 0.729549
0.705745 0.593652 0.732204
0.807492 0.607904 0.736141
0.898558 0.632288 0.742275
0.406531 0.674556 0.732448
0.422675 0.675196 0.732570
0.474464 0.677394 0.733089
0.549706 0.680659 0.733974
0.635615 0.684291 0.735317
0.727413 0.689998 0.737942
0.819242 0.699886 0.742947
0.902922 0.715999 0.750362
0.491920 0.777188 0.740444
0.504601 0.777371 0.740780
0.545190 0.777798 0.741451
0.605035 0.778775 0.742794
0.676814 0.780331 0.744747
0.755154 0.783383 0.748104
0.834775 0.789364 0.753780
0.909667 0.800229 0.763485
0.592706 0.866972 0.753597
0.601221 0.866850 0.753994
0.630060 0.867063 0.755642
0.674189 0.867308 0.757961
0.730007 0.868040 0.761349
0.792630 0.869871 0.766323
0.857694 0.873320 0.773800
0.919768 0.879423 0.784848
0.210300 0.246250 0.803403
0.240024 0.250065 0.803616
0.322179 0.262486 0.803983
0.430732 0.282200 0.804929
0.550072 0.307927 0.806180
0.671626 0.340154 0.807797
0.788357 0.381781 0.810025
0.892638 0.433265 0.812711
0.220737 0.276371 0.803342
0.248631 0.279454 0.803586
0.328038 0.289464 0.803952
0.434577 0.306279 0.804776
0.552728 0.329290 0.806027
0.673274 0.359136 0.807645
0.789090 0.398627 0.809781
0.892515 0.446845 0.812497
0.249058 0.355138 0.803922
0.273533 0.357122 0.804074
0.346441 0.363806 0.804288
0.448402 0.376410 0.805417
0.562951 0.394354 0.806516
0.680446 0.419196 0.807919
0.792996 0.452766 0.809995
0.893217 0.492287 0.813016
0.293095 0.455055 0.805020
0.314397 0.456703 0.805203
0.379461 0.461677 0.805447
0.474281 0.471382 0.806210
0.582971 0.485908 0.807309
0.693965 0.504906 0.808835
0.799863 0.529198 0.811185
0.895079 0.558312 0.814542
0.364691 0.565911 0.807309
0.381750 0.567010 0.807370
0.433814 0.569726 0.807187
0.509056 0.572229 0.807095
0.607263 0.581903 0.808255
0.709468 0.595087 0.810086
0.808133 0.612482 0.813016
0.897917 0.634699 0.817288
0.448768 0.674586 0.811246
0.461311 0.675074 0.811154
0.502403 0.676631 0.811002
0.564660 0.678523 0.811002
0.641230 0.680873 0.811246
0.729732 0.687800 0.813199
0.820310 0.701015 0.817319
0.902892 0.717800 0.822751
0.537072 0.775937 0.817746
0.546441 0.776150 0.817777
0.577142 0.776761 0.817868
0.626490 0.777920 0.818387
0.689296 0.779660 0.819272
0.760433 0.782589 0.820890
0.836088 0.789029 0.824277
0.909148 0.800748 0.830594
0.619959 0.865660 0.827420
0.626673 0.865690 0.827512
0.649683 0.865873 0.827970
0.688289 0.866423 0.829068
0.738582 0.867552 0.830777
0.796811 0.869535 0.833433
0.859007 0.873228 0.837705
0.919280 0.879789 0.844755
