其他预设/【232】美食博客调色预设124款/1.3D LUT预设（视频调色-PR-AE-PS-FCPX-达芬奇用）/Food Art #17.cube
# Created by Adobe Lightroom plugin Export LUT (1.17.0)
# www.johnrellis.com/lightroom/exportlut.htm
# Preset: Food Art #17
# Color profile: /Library/Application Support/Adobe/Color/Profiles/Recommended/AdobeRGB1998.icc
LUT_3D_SIZE 8
DOMAIN_MIN 0.000000 0.000000 0.000000
DOMAIN_MAX 0.903226 0.903226 0.903226
0.065248 0.087251 0.090913
0.159548 0.074525 0.090547
0.310002 0.100862 0.083406
0.470405 0.127657 0.104402
0.630121 0.147585 0.128023
0.783169 0.164584 0.154177
0.906798 0.187503 0.185946
1.000000 0.217899 0.222995
0.004456 0.188846 0.082033
0.155978 0.192020 0.080751
0.306615 0.194766 0.089448
0.465919 0.206149 0.111543
0.625513 0.214633 0.132723
0.777249 0.222110 0.157015
0.901518 0.233829 0.187442
1.000000 0.253880 0.224247
0.000000 0.348638 0.105348
0.144686 0.349798 0.108125
0.304875 0.352728 0.117769
0.466499 0.353521 0.131044
0.627344 0.352819 0.148196
0.778775 0.351507 0.170993
0.904936 0.350713 0.202548
1.000000 0.354894 0.237736
0.000000 0.504875 0.140047
0.137881 0.504662 0.141604
0.300755 0.505333 0.147890
0.472633 0.512749 0.160159
0.638575 0.510002 0.175082
0.782589 0.498054 0.195010
0.902373 0.484565 0.222446
1.000000 0.476020 0.255131
0.000000 0.653864 0.176699
0.141512 0.653590 0.178164
0.302220 0.653834 0.182345
0.465766 0.655207 0.190890
0.629572 0.653223 0.202121
0.775082 0.639307 0.218845
0.894926 0.618921 0.244602
0.998047 0.602960 0.277165
0.079927 0.783383 0.217350
0.166567 0.785458 0.219913
0.308080 0.784024 0.223239
0.458839 0.781613 0.229923
0.611383 0.777066 0.239048
0.762417 0.772091 0.251041
0.891905 0.755367 0.272953
0.993469 0.731777 0.305150
0.165957 0.893095 0.266026
0.213046 0.893187 0.267124
0.323949 0.891173 0.269535
0.456947 0.888396 0.274693
0.596002 0.883848 0.282200
0.736263 0.879088 0.293431
0.872740 0.873960 0.307622
0.986175 0.856352 0.333257
0.251194 0.986542 0.321813
0.279454 0.986053 0.322210
0.361425 0.984649 0.325444
0.472786 0.982605 0.331945
0.591760 0.976196 0.335393
0.718837 0.971740 0.347936
0.843992 0.966552 0.364782
0.962036 0.959930 0.383673
0.000000 0.086000 0.193210
0.150484 0.074159 0.195224
0.301579 0.117678 0.197879
0.462531 0.142702 0.206455
0.622522 0.159823 0.214878
0.773342 0.176791 0.226810
0.897917 0.199893 0.244999
1.000000 0.230137 0.269596
0.000000 0.186709 0.196078
0.147951 0.191165 0.197482
0.300664 0.201297 0.201816
0.461280 0.212222 0.207706
0.620783 0.220615 0.216281
0.770565 0.229435 0.228000
0.894133 0.242313 0.245487
1.000000 0.262943 0.269261
0.000000 0.345403 0.202670
0.142947 0.346929 0.206058
0.300938 0.350927 0.209842
0.461646 0.352911 0.214847
0.621180 0.353185 0.223148
0.770321 0.352453 0.235721
0.894743 0.352422 0.254032
1.000000 0.358740 0.278660
0.000000 0.500542 0.216831
0.137911 0.500847 0.219333
0.299290 0.502800 0.222507
0.464424 0.505608 0.228550
0.624689 0.501701 0.236210
0.769619 0.492622 0.248142
0.891844 0.482063 0.266270
0.997253 0.476570 0.290745
0.000000 0.651118 0.238621
0.144472 0.650355 0.239200
0.301457 0.649714 0.241703
0.461067 0.648859 0.246311
0.621607 0.646235 0.253086
0.767788 0.634730 0.264744
0.889220 0.616907 0.283757
0.993744 0.602747 0.309331
0.094392 0.779446 0.264103
0.170748 0.779232 0.264652
0.308141 0.778195 0.267033
0.457282 0.776730 0.272190
0.609247 0.773526 0.279515
0.760159 0.769924 0.289860
0.888884 0.753719 0.307195
0.990387 0.730983 0.332921
0.175113 0.888548 0.299138
0.218235 0.887633 0.299596
0.326177 0.886198 0.301610
0.457771 0.884581 0.306706
0.596124 0.881132 0.313359
0.734829 0.876432 0.322332
0.869749 0.870817 0.333532
0.982574 0.853666 0.355230
0.260441 0.984070 0.346685
0.287907 0.983856 0.347448
0.367437 0.982666 0.350530
0.476844 0.980835 0.356451
0.597711 0.977081 0.364050
0.721798 0.971801 0.373785
0.844450 0.965728 0.386938
0.961151 0.958862 0.402869
0.000000 0.075196 0.348486
0.125887 0.087495 0.348913
0.296910 0.121736 0.350622
0.460609 0.147158 0.352270
0.621424 0.171176 0.354162
0.772732 0.205173 0.362646
0.896300 0.239872 0.370825
1.000000 0.274571 0.382269
0.000000 0.189303 0.348974
0.132387 0.193851 0.349615
0.296086 0.203891 0.350927
0.458991 0.216129 0.352300
0.619715 0.230289 0.354986
0.769894 0.250309 0.362066
0.893523 0.273655 0.370153
0.998993 0.300847 0.381811
0.000000 0.345434 0.351537
0.129946 0.347021 0.351965
0.296666 0.350774 0.353429
0.459785 0.355016 0.355505
0.622431 0.360174 0.359899
0.769833 0.363836 0.364996
0.892210 0.370825 0.373114
0.997162 0.382605 0.385229
0.000000 0.500603 0.354437
0.130648 0.501335 0.355444
0.300145 0.503685 0.358526
0.464881 0.506554 0.361547
0.625574 0.504601 0.365087
0.769558 0.498817 0.370520
0.890806 0.493294 0.379370
0.994842 0.492348 0.392432
0.000000 0.649287 0.359960
0.147372 0.649378 0.361669
0.307408 0.649256 0.365972
0.464820 0.649470 0.368353
0.624048 0.647700 0.371313
0.767025 0.636530 0.376806
0.886992 0.621912 0.386908
0.990784 0.611780 0.402258
0.111147 0.778012 0.368048
0.185824 0.777676 0.371069
0.321782 0.775998 0.376745
0.463783 0.773831 0.379065
0.610986 0.770565 0.382361
0.758145 0.767178 0.388251
0.884916 0.753109 0.399695
0.987549 0.735409 0.417731
0.203586 0.887846 0.387884
0.248631 0.886900 0.391577
0.349584 0.884611 0.395758
0.471382 0.882170 0.398260
0.603296 0.878721 0.401862
0.738277 0.874846 0.408301
0.870848 0.871031 0.417304
0.981720 0.855924 0.434302
0.296178 0.982055 0.421790
0.325231 0.981109 0.425483
0.394720 0.979675 0.426978
0.496864 0.978454 0.432654
0.610590 0.974853 0.438025
0.729854 0.970153 0.445441
0.848478 0.964782 0.456092
0.961852 0.958770 0.469551
0.000000 0.095094 0.488045
0.115023 0.107332 0.488991
0.291661 0.129152 0.489631
0.458442 0.150362 0.490272
0.619837 0.173129 0.488014
0.767849 0.206516 0.485481
0.889403 0.257023 0.485084
0.993072 0.316320 0.494484
0.000000 0.194736 0.489723
0.121584 0.198062 0.490089
0.292943 0.206973 0.490089
0.458900 0.217838 0.490547
0.619989 0.232303 0.488624
0.766354 0.254887 0.485908
0.887541 0.294194 0.486488
0.991669 0.344976 0.497322
0.000000 0.344518 0.489143
0.124880 0.346044 0.489296
0.295476 0.350439 0.489479
0.459663 0.355383 0.490425
0.621241 0.362737 0.490761
0.767453 0.375982 0.492042
0.889189 0.401892 0.499031
0.991852 0.423224 0.505089
0.000000 0.499855 0.491127
0.130709 0.500450 0.491157
0.301335 0.502190 0.491829
0.464790 0.504356 0.493202
0.622034 0.505303 0.494270
0.764340 0.506584 0.496345
0.884886 0.510491 0.500725
0.989044 0.517937 0.507836
0.000000 0.648829 0.490639
0.154604 0.648096 0.490822
0.312474 0.647395 0.492134
0.472175 0.647791 0.496590
0.626154 0.647181 0.498116
0.765286 0.639460 0.500725
0.883726 0.631708 0.505913
0.985931 0.627771 0.514061
0.133455 0.778073 0.487465
0.201877 0.779232 0.490028
0.336522 0.776486 0.493904
0.482795 0.773342 0.502007
0.621271 0.770413 0.503868
0.760372 0.766934 0.506493
0.881895 0.755489 0.513207
0.982849 0.743404 0.524254
0.220493 0.886168 0.489174
0.263371 0.885771 0.491798
0.373297 0.883818 0.500816
0.500664 0.880797 0.512657
0.621637 0.877836 0.514855
0.747372 0.874144 0.518273
0.872099 0.870390 0.523430
0.977874 0.857450 0.535393
0.313909 0.981476 0.506035
0.343664 0.980835 0.509728
0.428809 0.978149 0.521660
0.531579 0.974823 0.533715
0.633967 0.971527 0.537011
0.744045 0.967437 0.542351
0.855344 0.962951 0.550652
0.962554 0.958129 0.561395
0.000000 0.116884 0.617304
0.118135 0.123842 0.617700
0.291173 0.139834 0.617517
0.454383 0.159396 0.617609
0.620050 0.178225 0.619135
0.765560 0.210727 0.609888
0.886381 0.260380 0.598566
0.990051 0.319402 0.594934
0.000000 0.200259 0.617700
0.126467 0.203555 0.618341
0.293706 0.211734 0.618189
0.455207 0.222538 0.617456
0.619806 0.235294 0.618891
0.765133 0.258640 0.609979
0.885771 0.297917 0.599664
0.989166 0.348302 0.596704
0.000000 0.345434 0.617243
0.143282 0.347814 0.617334
0.300298 0.351507 0.616785
0.459052 0.356695 0.617365
0.619104 0.362005 0.617334
0.761685 0.373358 0.609583
0.882231 0.397314 0.602808
0.985382 0.430365 0.602716
0.000000 0.493538 0.617182
0.153628 0.494484 0.617182
0.310491 0.497658 0.617182
0.467231 0.502159 0.617395
0.621180 0.503929 0.617395
0.760555 0.509422 0.612940
0.879149 0.522515 0.611749
0.981262 0.542901 0.616907
0.085695 0.641657 0.617609
0.173739 0.641901 0.617700
0.321233 0.641932 0.617456
0.474983 0.641962 0.617517
0.623957 0.641291 0.617365
0.758541 0.640833 0.617823
0.875822 0.642420 0.620111
0.977905 0.646601 0.624506
0.157321 0.771481 0.607904
0.214572 0.771023 0.608301
0.341314 0.768551 0.608637
0.484871 0.765438 0.611261
0.626947 0.762020 0.617182
0.758236 0.761898 0.620996
0.876249 0.757504 0.626123
0.976074 0.753048 0.632319
0.242313 0.882322 0.599969
0.280247 0.881468 0.601038
0.382269 0.879088 0.605005
0.511101 0.875700 0.613733
0.640253 0.872007 0.625574
0.755337 0.869749 0.627955
0.871122 0.867216 0.630976
0.971740 0.857725 0.637842
0.328649 0.977508 0.601312
0.355657 0.976715 0.603204
0.436133 0.974121 0.610376
0.550134 0.971191 0.626337
0.659693 0.966674 0.639673
0.759091 0.963378 0.642817
0.861570 0.959808 0.647791
0.961913 0.956054 0.654627
0.000000 0.137118 0.740139
0.129335 0.141817 0.740139
0.290776 0.155856 0.739071
0.448341 0.175387 0.739071
0.606073 0.197177 0.738735
0.760098 0.219547 0.737392
0.883421 0.266239 0.719600
0.986572 0.325048 0.704738
0.000000 0.208927 0.738125
0.137575 0.211398 0.737911
0.293675 0.219669 0.737362
0.449226 0.232425 0.737362
0.605341 0.247288 0.736873
0.758541 0.264164 0.735927
0.882078 0.301457 0.719112
0.985382 0.352148 0.705318
0.093050 0.349706 0.738155
0.170108 0.350835 0.737911
0.308171 0.354620 0.737697
0.457313 0.360784 0.737301
0.608667 0.367956 0.736172
0.758267 0.376989 0.735134
0.880339 0.400183 0.720333
0.982879 0.434760 0.709255
0.131167 0.489631 0.737728
0.196170 0.491005 0.737179
0.331273 0.497108 0.736446
0.474311 0.503960 0.737240
0.617823 0.507927 0.736965
0.760250 0.512383 0.735866
0.878935 0.525566 0.724666
0.979400 0.546410 0.717891
0.161410 0.626429 0.734432
0.217380 0.627131 0.734340
0.343145 0.629633 0.734005
0.486488 0.634302 0.733486
0.626429 0.639582 0.732570
0.757321 0.641352 0.731899
0.873320 0.647272 0.727596
0.973144 0.657984 0.726772
0.200046 0.761746 0.731930
0.247227 0.762234 0.732387
0.361242 0.761959 0.732235
0.497230 0.761227 0.731777
0.633906 0.759762 0.731044
0.758907 0.759640 0.731838
0.872313 0.760616 0.733608
0.970092 0.762814 0.736263
0.270939 0.879973 0.721370
0.305730 0.879759 0.721920
0.400549 0.877531 0.723018
0.522545 0.874022 0.725551
0.648096 0.869932 0.730007
0.763699 0.867124 0.734890
0.871702 0.865904 0.736477
0.967651 0.860777 0.740841
0.352300 0.974762 0.709834
0.376806 0.973968 0.710750
0.451484 0.971466 0.714412
0.556573 0.967926 0.722103
0.667079 0.963561 0.731746
0.772061 0.959594 0.741634
0.867460 0.957153 0.745296
0.961181 0.954528 0.750088
0.000000 0.157839 0.848539
0.133974 0.162692 0.848905
0.285466 0.175601 0.848417
0.434943 0.194797 0.847990
0.584070 0.217899 0.846738
0.730617 0.243626 0.845060
0.871397 0.272160 0.843381
0.978820 0.326085 0.821714
0.016114 0.218997 0.846525
0.146304 0.221958 0.846799
0.289921 0.230381 0.846494
0.436744 0.243900 0.845731
0.584161 0.260868 0.844480
0.729244 0.280186 0.842771
0.869017 0.303197 0.840940
0.976471 0.348913 0.820035
0.132692 0.350744 0.846372
0.189303 0.351934 0.846250
0.310887 0.356115 0.845548
0.448585 0.363134 0.844724
0.590478 0.371954 0.843259
0.731868 0.383703 0.841855
0.869078 0.399237 0.840940
0.975586 0.432685 0.822324
0.195743 0.486915 0.845457
0.240635 0.489143 0.844846
0.348882 0.495521 0.843778
0.471901 0.499428 0.843320
0.603998 0.504326 0.842222
0.738186 0.511437 0.841428
0.869352 0.521263 0.840970
0.972839 0.542382 0.825437
0.221317 0.612299 0.842252
0.260929 0.613367 0.841733
0.365850 0.617731 0.840635
0.495186 0.626398 0.839689
0.621637 0.633173 0.838773
0.744808 0.636957 0.838010
0.866575 0.642359 0.837797
0.968048 0.655116 0.828550
0.256443 0.739132 0.840177
0.290929 0.739681 0.840085
0.386999 0.741695 0.839628
0.509728 0.745480 0.839231
0.638209 0.751156 0.838376
0.756222 0.755703 0.838407
0.867826 0.757504 0.838865
0.964477 0.763302 0.833921
0.301122 0.865385 0.839872
0.330938 0.865476 0.840085
0.416327 0.865171 0.839902
0.530632 0.864591 0.839780
0.649531 0.863340 0.839139
0.762051 0.862394 0.838987
0.868742 0.862455 0.839780
0.961181 0.864042 0.841886
0.370184 0.970245 0.826749
0.393164 0.969665 0.826902
0.466102 0.968261 0.828763
0.564965 0.965087 0.830991
0.670314 0.961120 0.833555
0.774929 0.957244 0.837705
0.873808 0.953979 0.845396
0.959289 0.952941 0.848631
0.000000 0.179110 0.949554
0.129580 0.182681 0.949615
0.274418 0.194186 0.948882
0.417304 0.213169 0.948272
0.559472 0.237156 0.947265
0.699306 0.264195 0.945861
0.834592 0.295537 0.944579
0.962066 0.330846 0.942870
0.048768 0.230625 0.948455
0.146578 0.233097 0.948486
0.281407 0.241520 0.947936
0.420996 0.256199 0.947204
0.561425 0.274907 0.946227
0.700069 0.297002 0.944854
0.834318 0.323766 0.943420
0.961120 0.354406 0.941802
0.146731 0.350195 0.946654
0.195468 0.351720 0.946593
0.305882 0.355932 0.945830
0.436133 0.365087 0.945830
0.570459 0.376257 0.944732
0.704677 0.390051 0.943175
0.835599 0.408240 0.941924
0.959838 0.430671 0.940612
0.234287 0.484932 0.944427
0.265324 0.486000 0.944488
0.350286 0.488289 0.943908
0.463661 0.493233 0.943481
0.587823 0.500084 0.942657
0.714412 0.508659 0.941497
0.839200 0.520439 0.940490
0.958526 0.536278 0.939574
0.265141 0.601343 0.942199
0.297398 0.603388 0.942168
0.385809 0.609705 0.941405
0.501793 0.620935 0.940398
0.611994 0.624872 0.939513
0.728176 0.630610 0.938567
0.844450 0.638880 0.938018
0.956664 0.650019 0.938109
0.300145 0.719142 0.940154
0.327184 0.719966 0.939788
0.406592 0.723140 0.938933
0.516350 0.729610 0.937865
0.635950 0.739742 0.936797
0.746395 0.747189 0.936828
0.852689 0.752926 0.937652
0.956329 0.760678 0.938720
0.346685 0.837430 0.939208
0.369665 0.837766 0.938994
0.440253 0.839048 0.938415
0.542077 0.842008 0.937774
0.651820 0.845975 0.937163
0.760464 0.851041 0.936889
0.863676 0.858701 0.937560
0.954711 0.862364 0.938048
0.404273 0.952941 0.939757
0.423651 0.952758 0.939605
0.485389 0.952270 0.939330
0.574670 0.951720 0.939208
0.673304 0.951049 0.939086
0.774563 0.950378 0.938994
0.871855 0.950072 0.939269
0.955383 0.950805 0.940368
