其他预设/【232】美食博客调色预设124款/1.3D LUT预设（视频调色-PR-AE-PS-FCPX-达芬奇用）/Food Art #40.cube
# Created by Adobe Lightroom plugin Export LUT (1.17.0)
# www.johnrellis.com/lightroom/exportlut.htm
# Preset: Food Art #40
# Color profile: /Library/Application Support/Adobe/Color/Profiles/Recommended/AdobeRGB1998.icc
LUT_3D_SIZE 32
0.122713 0.133150 0.268498
0.128908 0.133944 0.269810
0.137850 0.134768 0.271580
0.156619 0.136812 0.275944
0.185000 0.139101 0.281407
0.214908 0.140261 0.286351
0.246281 0.140780 0.291569
0.278752 0.141695 0.297673
0.312718 0.142031 0.303868
0.348180 0.142641 0.310124
0.385718 0.143404 0.317296
0.424872 0.145480 0.325139
0.465370 0.149630 0.333776
0.506676 0.156161 0.343023
0.548058 0.165408 0.352392
0.589014 0.177188 0.361486
0.628656 0.191989 0.370855
0.667109 0.209751 0.379980
0.702998 0.229618 0.389166
0.741848 0.254459 0.399786
0.778592 0.281132 0.410498
0.812345 0.307683 0.421607
0.842435 0.333959 0.432929
0.869780 0.359594 0.445075
0.895079 0.384100 0.457832
0.918669 0.408240 0.471565
0.940734 0.432380 0.486763
0.961395 0.456733 0.503929
0.980713 0.481880 0.522972
0.998474 0.508263 0.544854
1.000000 0.536431 0.569787
1.000000 0.566766 0.597925
0.124361 0.138582 0.270726
0.129946 0.139071 0.271824
0.138613 0.140047 0.273442
0.158053 0.142580 0.277867
0.185977 0.144808 0.282963
0.215915 0.145724 0.287724
0.246677 0.146365 0.293065
0.278965 0.147127 0.298985
0.312657 0.147555 0.304906
0.348028 0.148348 0.311315
0.385168 0.149294 0.318212
0.423957 0.151522 0.325963
0.464363 0.155459 0.334386
0.505486 0.162325 0.343694
0.546838 0.171145 0.352789
0.587366 0.182803 0.362249
0.627070 0.197086 0.371099
0.665492 0.214115 0.380224
0.701350 0.233829 0.389319
0.739895 0.257816 0.399817
0.776333 0.283543 0.410163
0.809934 0.309575 0.421027
0.840055 0.335241 0.432502
0.867582 0.360357 0.444404
0.893034 0.384894 0.456855
0.916747 0.408820 0.470771
0.939117 0.432502 0.485756
0.959991 0.456825 0.502953
0.979461 0.481880 0.522087
0.997436 0.508080 0.543847
1.000000 0.536004 0.568505
1.000000 0.566155 0.596551
0.126070 0.145998 0.274083
0.132265 0.146578 0.275090
0.140139 0.147097 0.276493
0.160006 0.150179 0.280613
0.187594 0.152316 0.285161
0.217014 0.153262 0.289952
0.247684 0.153841 0.294957
0.279484 0.154543 0.300542
0.313024 0.154971 0.306401
0.348150 0.155642 0.312779
0.385168 0.156771 0.319677
0.423835 0.159396 0.327245
0.464057 0.163516 0.335546
0.504997 0.170108 0.344884
0.546258 0.178988 0.353765
0.586877 0.189944 0.362951
0.626368 0.204440 0.371954
0.664668 0.221134 0.380896
0.700587 0.239872 0.390021
0.739071 0.263706 0.400122
0.775265 0.288670 0.410681
0.808804 0.313787 0.421241
0.838865 0.339086 0.432502
0.866453 0.363653 0.444221
0.891966 0.387671 0.456916
0.915770 0.411078 0.470649
0.938201 0.434607 0.485664
0.959167 0.458564 0.502800
0.978790 0.483253 0.521904
0.996857 0.509361 0.543603
1.000000 0.536980 0.568322
1.000000 0.566888 0.596246
0.131106 0.164279 0.281651
0.137545 0.164828 0.282322
0.146304 0.165866 0.283635
0.165133 0.167697 0.285893
0.191653 0.169223 0.289891
0.220279 0.169650 0.294469
0.250248 0.169833 0.299290
0.281682 0.170047 0.304570
0.314763 0.170230 0.310124
0.349584 0.170901 0.316228
0.386145 0.172457 0.322789
0.424659 0.175113 0.330266
0.464515 0.180240 0.338598
0.505272 0.186618 0.347570
0.546227 0.194980 0.356085
0.586633 0.206210 0.364904
0.625879 0.219577 0.373938
0.664027 0.235294 0.382605
0.700465 0.253758 0.391577
0.738003 0.275975 0.401495
0.773526 0.299229 0.411536
0.806699 0.323491 0.422065
0.836942 0.347539 0.432990
0.864805 0.371344 0.444800
0.890745 0.394812 0.457465
0.915007 0.417792 0.471351
0.937682 0.440742 0.486793
0.958831 0.464424 0.503990
0.978515 0.488502 0.523125
0.996551 0.513817 0.544762
1.000000 0.540856 0.569207
1.000000 0.570092 0.597131
0.136507 0.189944 0.289647
0.142855 0.190494 0.290654
0.151583 0.191348 0.291569
0.169406 0.192813 0.293828
0.195682 0.194736 0.297673
0.224613 0.194614 0.301549
0.253941 0.193484 0.305699
0.284703 0.192813 0.310155
0.317144 0.192477 0.315312
0.351263 0.193545 0.321233
0.387610 0.194919 0.327611
0.425635 0.198276 0.334966
0.465217 0.203372 0.342992
0.505760 0.209781 0.351232
0.546563 0.217990 0.359747
0.586908 0.228580 0.368261
0.626123 0.241428 0.376928
0.664179 0.256718 0.385412
0.701656 0.274662 0.394293
0.738338 0.295323 0.403754
0.773251 0.317174 0.413397
0.806027 0.339635 0.423804
0.835966 0.361975 0.434760
0.863767 0.384649 0.446479
0.889769 0.406500 0.459022
0.914092 0.428107 0.472877
0.936858 0.450141 0.488258
0.958068 0.472541 0.505394
0.977722 0.495766 0.524559
0.995758 0.520317 0.546258
1.000000 0.546563 0.570825
1.000000 0.575097 0.598596
0.142885 0.218509 0.299535
0.149050 0.219089 0.300206
0.156924 0.219730 0.300938
0.173709 0.220951 0.302922
0.197940 0.222721 0.306035
0.228580 0.224674 0.309575
0.259464 0.224033 0.313573
0.289494 0.222080 0.317601
0.321080 0.221378 0.322454
0.354986 0.221622 0.327916
0.390661 0.223453 0.334142
0.428382 0.226993 0.341314
0.467628 0.231876 0.348821
0.507866 0.238254 0.356756
0.548333 0.246525 0.364477
0.588373 0.256626 0.372839
0.627558 0.268956 0.380865
0.665339 0.283268 0.389075
0.703517 0.300999 0.398047
0.739620 0.320195 0.407019
0.774105 0.340459 0.416602
0.806699 0.361395 0.426795
0.850645 0.395605 0.444312
0.877195 0.415808 0.456703
0.901762 0.435370 0.469734
0.924559 0.454871 0.483955
0.945739 0.474739 0.499672
0.965454 0.495247 0.517082
0.983764 0.516747 0.536461
1.000000 0.539818 0.558465
1.000000 0.564904 0.583307
1.000000 0.592065 0.610864
0.150851 0.251225 0.309941
0.156680 0.251621 0.310491
0.163882 0.252293 0.311345
0.179934 0.253483 0.313054
0.202884 0.255070 0.315709
0.231724 0.256962 0.319249
0.264988 0.259220 0.323522
0.297826 0.258762 0.327428
0.329381 0.256870 0.332067
0.363104 0.257145 0.337133
0.398871 0.258701 0.343023
0.436713 0.261967 0.349706
0.475776 0.267033 0.356817
0.515496 0.273411 0.364172
0.555352 0.281193 0.371405
0.594476 0.290959 0.378943
0.632776 0.302647 0.386542
0.672053 0.317327 0.394659
0.709712 0.334203 0.403571
0.745663 0.352392 0.412573
0.780789 0.372137 0.422431
0.813870 0.392340 0.433204
0.844388 0.412268 0.444892
0.872648 0.431922 0.457618
0.898619 0.450996 0.471229
0.922240 0.469551 0.486061
0.943877 0.488319 0.501946
0.963806 0.507500 0.519432
0.982269 0.527794 0.538903
0.999145 0.549645 0.560784
1.000000 0.573541 0.585443
1.000000 0.599603 0.612879
0.159915 0.283665 0.320806
0.165072 0.283970 0.321324
0.171939 0.284459 0.321996
0.186648 0.285496 0.323522
0.208072 0.287022 0.325719
0.234806 0.288853 0.328893
0.265812 0.290867 0.332799
0.300450 0.293492 0.337133
0.334813 0.294163 0.341772
0.368109 0.293370 0.346502
0.403418 0.294865 0.351934
0.440803 0.298222 0.357794
0.479438 0.302861 0.364446
0.518517 0.309026 0.370977
0.557885 0.316533 0.377935
0.596551 0.325597 0.384649
0.635401 0.337346 0.392218
0.674678 0.351812 0.400122
0.710964 0.366735 0.408331
0.745968 0.383062 0.416876
0.780301 0.400458 0.426520
0.812711 0.418280 0.436927
0.842893 0.435950 0.448371
0.870909 0.453285 0.460975
0.896788 0.470222 0.474403
0.920439 0.487129 0.489052
0.942107 0.504143 0.504936
0.962158 0.521843 0.522454
0.980713 0.540856 0.542046
0.997650 0.561456 0.563958
1.000000 0.584253 0.588708
1.000000 0.609277 0.616144
0.171206 0.318151 0.332586
0.176059 0.318547 0.333135
0.182559 0.319036 0.333806
0.196078 0.319829 0.334997
0.216129 0.321233 0.337102
0.240848 0.323186 0.339666
0.270268 0.325322 0.343084
0.303014 0.327886 0.346929
0.338415 0.330755 0.351507
0.374609 0.333043 0.356420
0.409430 0.334081 0.361395
0.446265 0.337072 0.366918
0.484413 0.341650 0.372747
0.523095 0.347356 0.378912
0.561730 0.354437 0.384985
0.600488 0.363775 0.391669
0.640436 0.375769 0.398901
0.678035 0.388525 0.406165
0.713039 0.401617 0.413977
0.747219 0.415900 0.422278
0.780850 0.431312 0.431403
0.812650 0.446754 0.441566
0.842344 0.461921 0.452888
0.870024 0.477058 0.465278
0.895659 0.492164 0.478859
0.919158 0.506981 0.493538
0.940826 0.522362 0.509361
0.960845 0.538598 0.526848
0.979370 0.556115 0.546441
0.996307 0.575341 0.568292
1.000000 0.596948 0.593072
1.000000 0.620630 0.620325
0.184512 0.355108 0.344640
0.188968 0.355352 0.345220
0.194736 0.355840 0.345647
0.207401 0.356695 0.346777
0.226108 0.358038 0.348577
0.249821 0.359716 0.350927
0.277501 0.361791 0.353979
0.308659 0.364385 0.357366
0.342687 0.367468 0.361578
0.379004 0.371099 0.366064
0.416052 0.374487 0.371069
0.452369 0.377111 0.375982
0.489845 0.381353 0.381353
0.528099 0.386847 0.387030
0.567590 0.394995 0.392920
0.607355 0.404944 0.399634
0.646052 0.415869 0.406226
0.682429 0.427100 0.413062
0.716548 0.438514 0.420508
0.749813 0.450477 0.428534
0.782437 0.463386 0.437476
0.813077 0.476204 0.447303
0.841825 0.488869 0.458167
0.868803 0.501549 0.470344
0.893950 0.514366 0.483467
0.917357 0.527581 0.498146
0.939086 0.541405 0.513909
0.959197 0.556298 0.531701
0.977874 0.572656 0.551476
0.994965 0.590875 0.573663
1.000000 0.611505 0.598901
1.000000 0.634150 0.626123
0.198886 0.393805 0.356970
0.203128 0.394232 0.357244
0.208804 0.394720 0.357580
0.220615 0.395422 0.358770
0.238224 0.396735 0.360266
0.260655 0.398566 0.362432
0.287297 0.400885 0.365240
0.317418 0.403662 0.368322
0.350317 0.406622 0.372107
0.385412 0.410254 0.376257
0.422248 0.414252 0.380621
0.459785 0.418524 0.385534
0.497292 0.422827 0.390539
0.536400 0.429450 0.396002
0.575433 0.437140 0.401617
0.613550 0.445960 0.407538
0.650843 0.455238 0.413703
0.685847 0.464637 0.420264
0.718990 0.473762 0.427314
0.751583 0.483864 0.435096
0.783413 0.494759 0.443763
0.813474 0.505455 0.453529
0.841825 0.516442 0.464424
0.868376 0.527428 0.476631
0.893309 0.538537 0.489784
0.916472 0.550011 0.504204
0.937957 0.562219 0.520073
0.957977 0.575616 0.537774
0.976532 0.590539 0.557458
0.993500 0.607507 0.579828
1.000000 0.626825 0.604852
1.000000 0.648402 0.632074
0.215061 0.435401 0.369177
0.218967 0.435737 0.369390
0.224399 0.436103 0.369848
0.235599 0.436896 0.370764
0.252384 0.438300 0.372320
0.273777 0.440070 0.374243
0.299626 0.442237 0.376532
0.328588 0.444892 0.379400
0.360632 0.447883 0.382574
0.394781 0.451331 0.386297
0.430762 0.455238 0.390448
0.469642 0.461280 0.395483
0.519768 0.477699 0.403937
0.558556 0.484016 0.409033
0.596735 0.490944 0.414557
0.634150 0.498360 0.420081
0.669764 0.505638 0.426032
0.702846 0.512352 0.432563
0.734340 0.519158 0.439399
0.765469 0.526848 0.447211
0.795224 0.534813 0.455909
0.823270 0.542901 0.465644
0.849790 0.551080 0.476417
0.874937 0.559655 0.488319
0.898497 0.568658 0.501610
0.920592 0.578302 0.516045
0.941161 0.588830 0.532036
0.960266 0.600549 0.549737
0.978027 0.613947 0.569390
0.994293 0.629603 0.591882
1.000000 0.647395 0.616510
1.000000 0.667384 0.642969
0.233829 0.482399 0.382177
0.237430 0.482704 0.382483
0.242588 0.482826 0.382788
0.253300 0.483131 0.383551
0.269474 0.484016 0.384619
0.290105 0.485206 0.386084
0.314733 0.486885 0.388159
0.342992 0.488991 0.390661
0.374182 0.491768 0.393835
0.409491 0.497169 0.397772
0.447364 0.502922 0.402075
0.486458 0.509087 0.407172
0.526085 0.515770 0.412604
0.565179 0.522454 0.418189
0.602838 0.528954 0.423560
0.639368 0.535485 0.428962
0.673701 0.541222 0.434577
0.705715 0.546410 0.440681
0.736385 0.551751 0.447333
0.766629 0.557855 0.454902
0.795560 0.564294 0.463416
0.823056 0.570764 0.472938
0.849058 0.577569 0.483619
0.873777 0.584710 0.495521
0.897124 0.592370 0.508476
0.919036 0.600671 0.522881
0.939422 0.609979 0.538933
0.958495 0.620569 0.556664
0.976165 0.632929 0.576562
0.992432 0.647486 0.599023
1.000000 0.664240 0.623560
1.000000 0.683284 0.650050
0.251743 0.524743 0.393683
0.255558 0.524956 0.393988
0.260288 0.525109 0.394232
0.270512 0.525505 0.394903
0.285893 0.526024 0.395789
0.306310 0.527398 0.397406
0.330724 0.529839 0.399573
0.358892 0.532525 0.402045
0.390265 0.535790 0.405066
0.424445 0.539849 0.408637
0.460548 0.544305 0.412787
0.498238 0.549371 0.417334
0.536278 0.554742 0.422217
0.573754 0.560204 0.427344
0.610040 0.565606 0.432837
0.644984 0.570764 0.438056
0.677852 0.575036 0.443458
0.708766 0.578973 0.449470
0.738643 0.583062 0.455940
0.768124 0.588037 0.463142
0.796353 0.593072 0.471717
0.823301 0.598474 0.481270
0.848905 0.603998 0.491859
0.873259 0.610040 0.503655
0.896330 0.616571 0.516777
0.917998 0.623774 0.531029
0.938231 0.632074 0.547234
0.957153 0.641627 0.564904
0.974670 0.653162 0.585138
0.990845 0.666773 0.607630
1.000000 0.682490 0.632044
1.000000 0.700587 0.658289
0.273259 0.569299 0.406195
0.276890 0.569574 0.406378
0.281315 0.569665 0.406744
0.291356 0.570062 0.407233
0.306615 0.570703 0.408362
0.326177 0.571618 0.409644
0.349859 0.572930 0.411536
0.376806 0.574823 0.413672
0.407019 0.577173 0.416541
0.440040 0.580194 0.419623
0.474891 0.583825 0.423468
0.511070 0.587945 0.427619
0.547570 0.592340 0.432227
0.583398 0.596735 0.437293
0.618189 0.600885 0.442573
0.651362 0.604700 0.447913
0.682948 0.607782 0.453101
0.712612 0.610559 0.458869
0.741665 0.613672 0.465034
0.770260 0.617426 0.472206
0.797574 0.621393 0.480537
0.823911 0.625605 0.489967
0.848936 0.630152 0.500511
0.872923 0.635126 0.512444
0.895689 0.640681 0.525658
0.917144 0.647181 0.540215
0.937346 0.654719 0.556634
0.956237 0.663844 0.575067
0.973754 0.674861 0.595789
0.989899 0.687831 0.618463
1.000000 0.703029 0.643122
1.000000 0.720455 0.669490
0.296300 0.611902 0.418891
0.300023 0.612146 0.419013
0.304234 0.612329 0.419440
0.314092 0.612573 0.420050
0.328710 0.613062 0.420844
0.347784 0.613794 0.422278
0.370642 0.614832 0.423957
0.397162 0.616266 0.426032
0.426551 0.617945 0.428687
0.457893 0.620050 0.431678
0.491249 0.622339 0.435004
0.525109 0.624903 0.439094
0.558953 0.627619 0.443122
0.592432 0.630396 0.447700
0.625025 0.633204 0.452705
0.656794 0.635950 0.457801
0.687617 0.638697 0.463172
0.716670 0.640894 0.468605
0.745205 0.643336 0.475044
0.773068 0.646448 0.482185
0.799893 0.649714 0.490639
0.825681 0.653101 0.500237
0.850309 0.656825 0.510918
0.873838 0.661097 0.522972
0.896208 0.665980 0.536339
0.917388 0.671778 0.551324
0.937255 0.678614 0.567956
0.955810 0.687160 0.586725
0.973053 0.697353 0.607385
0.988922 0.709377 0.629725
1.000000 0.723445 0.653956
1.000000 0.739712 0.679896
0.320409 0.649470 0.431495
0.323583 0.649622 0.431678
0.327977 0.649561 0.431830
0.337163 0.649653 0.432502
0.350988 0.649866 0.433417
0.369207 0.650172 0.434516
0.391028 0.650782 0.436164
0.416052 0.651575 0.438025
0.443824 0.652735 0.440558
0.473732 0.654017 0.443397
0.505089 0.655695 0.446693
0.537163 0.657557 0.450507
0.569238 0.659632 0.454505
0.600855 0.661738 0.458991
0.632044 0.663783 0.463661
0.662287 0.665766 0.468452
0.691920 0.667750 0.473762
0.720974 0.670130 0.479164
0.748867 0.672267 0.485267
0.775692 0.674372 0.492653
0.801694 0.676753 0.500877
0.826688 0.679347 0.510430
0.850797 0.682399 0.521080
0.873930 0.686030 0.533196
0.895964 0.690272 0.546807
0.916777 0.695491 0.561975
0.936431 0.701900 0.578973
0.954803 0.709804 0.597833
0.971893 0.719326 0.618585
0.987579 0.730678 0.640925
1.000000 0.743893 0.665003
1.000000 0.759335 0.690944
0.346075 0.683742 0.444617
0.349035 0.683925 0.445075
0.360449 0.692653 0.449195
0.369329 0.692653 0.449653
0.382483 0.692531 0.450538
0.399390 0.692409 0.451575
0.419898 0.692256 0.453010
0.443458 0.692378 0.454780
0.469490 0.692714 0.457069
0.497566 0.693355 0.459724
0.526635 0.694209 0.462806
0.556420 0.695277 0.466255
0.586206 0.696376 0.470130
0.616114 0.697627 0.474281
0.645441 0.698878 0.478889
0.674098 0.700099 0.483467
0.702296 0.701442 0.488533
0.729824 0.702876 0.493874
0.756893 0.704494 0.499519
0.782712 0.705715 0.506157
0.807187 0.706935 0.514427
0.831144 0.708461 0.523919
0.854246 0.710597 0.534783
0.876463 0.713283 0.546838
0.897490 0.716609 0.560204
0.917418 0.720790 0.575158
0.936217 0.726192 0.591699
0.954040 0.733089 0.610040
0.970733 0.741604 0.630243
0.986175 0.752010 0.652430
1.000000 0.764340 0.676295
1.000000 0.778622 0.701778
0.374640 0.717800 0.459754
0.378363 0.718959 0.460487
0.383276 0.720119 0.461219
0.392187 0.721065 0.462409
0.405066 0.721736 0.463508
0.421149 0.721889 0.464942
0.440345 0.721920 0.466316
0.462348 0.721889 0.467994
0.486641 0.722103 0.470192
0.512657 0.722377 0.472786
0.539879 0.722957 0.475807
0.567742 0.723720 0.479347
0.595911 0.724453 0.482979
0.623926 0.725246 0.487098
0.651667 0.726070 0.491493
0.678950 0.726894 0.496071
0.705806 0.727810 0.501061
0.732265 0.728878 0.506340
0.758358 0.730251 0.511925
0.784237 0.731930 0.518181
0.808957 0.733242 0.525628
0.832334 0.734401 0.535363
0.854978 0.736049 0.546166
0.876768 0.738338 0.558587
0.897429 0.741238 0.572168
0.917052 0.744991 0.587366
0.935607 0.749844 0.604120
0.953155 0.756069 0.622370
0.969665 0.763882 0.642420
0.984863 0.773434 0.664393
0.998627 0.784878 0.688167
1.000000 0.797910 0.712886
0.401373 0.746975 0.474281
0.404974 0.747921 0.474983
0.409461 0.748867 0.475959
0.417670 0.749660 0.476936
0.429450 0.750179 0.478035
0.444282 0.750271 0.479286
0.462165 0.750118 0.480842
0.482155 0.749966 0.482460
0.504509 0.750057 0.484565
0.528435 0.750210 0.487282
0.553704 0.750546 0.490333
0.579614 0.751064 0.493751
0.606012 0.751522 0.497322
0.632441 0.752132 0.501366
0.658686 0.752682 0.505699
0.684627 0.753201 0.510216
0.710201 0.753872 0.515038
0.735470 0.754696 0.520317
0.760494 0.755795 0.526177
0.785397 0.757351 0.532311
0.810086 0.759060 0.539147
0.833860 0.760586 0.547570
0.856046 0.761807 0.558770
0.877256 0.763607 0.571313
0.897490 0.765957 0.585107
0.916716 0.769131 0.600305
0.934966 0.773281 0.616693
0.952209 0.778744 0.634852
0.968414 0.785733 0.654688
0.983368 0.794461 0.676448
0.996948 0.804898 0.699763
1.000000 0.816617 0.723720
0.429267 0.774411 0.489998
0.432593 0.775204 0.490852
0.436774 0.776059 0.491585
0.444129 0.776730 0.492744
0.454963 0.777096 0.493965
0.468421 0.777157 0.495216
0.484321 0.777005 0.496529
0.502464 0.776852 0.498329
0.522667 0.776669 0.500511
0.544732 0.776699 0.502922
0.567834 0.776913 0.505852
0.591943 0.777157 0.509178
0.616480 0.777523 0.512932
0.641199 0.777920 0.516960
0.665949 0.778439 0.521355
0.690761 0.779049 0.526055
0.715450 0.779873 0.531304
0.739956 0.780972 0.537011
0.764340 0.782345 0.543175
0.788663 0.784054 0.549981
0.812863 0.786038 0.557427
0.836790 0.788235 0.565332
0.859709 0.790127 0.575036
0.880522 0.791562 0.588128
0.900359 0.793545 0.602350
0.919127 0.796201 0.617853
0.936828 0.799802 0.634485
0.953582 0.804623 0.652644
0.969268 0.810880 0.672511
0.983703 0.818753 0.693965
0.996857 0.827878 0.716365
1.000000 0.838193 0.739254
0.462135 0.803861 0.509972
0.464607 0.804227 0.510430
0.467689 0.804440 0.510765
0.473854 0.804623 0.511528
0.482918 0.804654 0.512627
0.494728 0.804410 0.513787
0.509026 0.804257 0.515068
0.525444 0.804044 0.516838
0.543755 0.804105 0.519188
0.563897 0.804196 0.521843
0.585321 0.804471 0.524834
0.607630 0.804715 0.528313
0.630243 0.805020 0.532280
0.653285 0.805295 0.536278
0.676448 0.805600 0.540642
0.699702 0.806027 0.545434
0.722866 0.806638 0.550683
0.746059 0.807401 0.556390
0.769192 0.808469 0.562707
0.792172 0.809689 0.569390
0.815000 0.811093 0.576745
0.837644 0.812711 0.584436
0.859922 0.814572 0.592523
0.881254 0.816220 0.602136
0.900511 0.817441 0.616052
0.918883 0.819455 0.631342
0.936309 0.822385 0.647883
0.952789 0.826566 0.665827
0.968170 0.832090 0.685695
0.982422 0.838895 0.706508
0.995422 0.846891 0.727993
1.000000 0.856077 0.750149
0.491524 0.828794 0.528985
0.493751 0.829129 0.529534
0.496651 0.829435 0.530114
0.502068 0.829526 0.530907
0.510155 0.829526 0.531792
0.520439 0.829343 0.532982
0.532921 0.829068 0.534386
0.547448 0.828855 0.536065
0.564050 0.828733 0.538170
0.582086 0.828702 0.540978
0.601587 0.828855 0.544030
0.621881 0.829038 0.547448
0.642817 0.829221 0.551324
0.664240 0.829465 0.555596
0.685939 0.829770 0.560052
0.707851 0.830198 0.564996
0.729732 0.830716 0.570520
0.751736 0.831449 0.576440
0.773739 0.832395 0.582940
0.795743 0.833524 0.589746
0.817563 0.834897 0.597284
0.839261 0.836423 0.605035
0.860655 0.838163 0.613245
0.881590 0.840024 0.621790
0.900237 0.839963 0.628901
0.918212 0.841306 0.643885
0.935332 0.843687 0.660426
0.951568 0.847135 0.678370
0.966766 0.851865 0.697597
0.980896 0.857725 0.717800
0.993866 0.864744 0.738735
1.000000 0.873014 0.760494
0.525414 0.854948 0.552819
0.527520 0.855314 0.553429
0.529900 0.855497 0.554040
0.534447 0.855467 0.554650
0.541253 0.855314 0.555383
0.549950 0.855009 0.556420
0.560693 0.854582 0.557580
0.573236 0.854154 0.559045
0.587640 0.853727 0.561120
0.603388 0.853422 0.563409
0.620600 0.853147 0.566155
0.638758 0.853025 0.569574
0.657740 0.852995 0.573205
0.677211 0.852903 0.577203
0.696864 0.852873 0.581445
0.716884 0.852842 0.586175
0.737148 0.852964 0.591058
0.757565 0.853330 0.596765
0.778256 0.854093 0.602899
0.799069 0.855100 0.609857
0.819883 0.856382 0.617182
0.840574 0.857755 0.624964
0.860807 0.859251 0.633082
0.880644 0.860655 0.641169
0.899962 0.862119 0.649531
0.918639 0.863615 0.658442
0.935241 0.865171 0.674525
0.951049 0.867765 0.691981
0.965942 0.871489 0.710414
0.979858 0.876371 0.729702
0.992645 0.882444 0.750057
1.000000 0.889677 0.771267
0.556023 0.876860 0.575860
0.557855 0.877195 0.576593
0.560021 0.877348 0.577111
0.564050 0.877348 0.577783
0.569970 0.877165 0.578637
0.577600 0.876890 0.579644
0.587030 0.876616 0.580865
0.598138 0.876249 0.582483
0.610895 0.875944 0.584649
0.625177 0.875761 0.587243
0.640558 0.875608 0.590143
0.657130 0.875578 0.593652
0.674403 0.875578 0.597406
0.692164 0.875639 0.601373
0.710414 0.875639 0.605829
0.728908 0.875669 0.610407
0.747677 0.875822 0.615473
0.766781 0.876158 0.621149
0.786130 0.876768 0.627253
0.805692 0.877623 0.633936
0.825254 0.878630 0.641138
0.844663 0.879789 0.648798
0.863767 0.881041 0.656825
0.882506 0.882353 0.664881
0.900786 0.883665 0.673304
0.918517 0.885008 0.681727
0.935851 0.886534 0.690333
0.951324 0.888487 0.707057
0.965911 0.891417 0.724880
0.979553 0.895384 0.743435
0.992126 0.900603 0.763241
1.000000 0.906737 0.783627
0.588647 0.898222 0.602045
0.590173 0.898436 0.602564
0.591852 0.898497 0.602930
0.595178 0.898405 0.603510
0.599939 0.898161 0.604211
0.606470 0.897856 0.605005
0.614435 0.897459 0.606195
0.624048 0.897154 0.607782
0.635279 0.896880 0.609827
0.647761 0.896696 0.612207
0.661433 0.896574 0.615076
0.676387 0.896574 0.618616
0.691920 0.896635 0.622309
0.708186 0.896666 0.626459
0.724727 0.896635 0.630793
0.741726 0.896666 0.635309
0.758999 0.896727 0.640223
0.776699 0.896971 0.645563
0.794705 0.897398 0.651667
0.812924 0.898070 0.658228
0.831205 0.898924 0.665339
0.849393 0.899901 0.672908
0.867338 0.900969 0.680659
0.884947 0.902068 0.688624
0.902098 0.903258 0.696651
0.918822 0.904479 0.704646
0.935180 0.905821 0.712825
0.950988 0.907256 0.721096
0.965454 0.909422 0.737301
0.978912 0.912657 0.755459
0.991272 0.916899 0.774441
1.000000 0.922026 0.794217
0.620111 0.917662 0.628687
0.621332 0.917754 0.629114
0.622827 0.917784 0.629480
0.625544 0.917754 0.630030
0.629908 0.917662 0.630762
0.635859 0.917571 0.631983
0.643366 0.917571 0.633814
0.652399 0.917693 0.635981
0.662928 0.917876 0.638605
0.674678 0.918151 0.641962
0.687495 0.918456 0.645655
0.701198 0.918822 0.649683
0.715541 0.919188 0.653895
0.730404 0.919432 0.658412
0.745663 0.919615 0.663050
0.761135 0.919646 0.667811
0.776944 0.919738 0.672755
0.793057 0.919921 0.678157
0.809506 0.920226 0.684108
0.826169 0.920714 0.690455
0.842802 0.921386 0.697261
0.859434 0.922148 0.704311
0.875822 0.923003 0.711391
0.891936 0.923888 0.718685
0.907744 0.924834 0.726162
0.923156 0.925841 0.733547
0.938201 0.926940 0.741085
0.952880 0.928161 0.748806
0.967163 0.929564 0.756771
0.980224 0.931823 0.772396
0.992065 0.934966 0.790402
1.000000 0.938872 0.809018
0.657221 0.938231 0.661646
0.658137 0.938323 0.661952
0.659297 0.938262 0.662257
0.661524 0.938170 0.662623
0.665034 0.938018 0.663233
0.669856 0.937804 0.664179
0.675990 0.937652 0.665583
0.683375 0.937530 0.667353
0.692042 0.937499 0.669551
0.701900 0.937469 0.672267
0.712703 0.937469 0.675410
0.724483 0.937530 0.678828
0.736965 0.937591 0.682704
0.749966 0.937621 0.686732
0.763546 0.937652 0.690974
0.777493 0.937652 0.695399
