其他预设/【232】美食博客调色预设124款/1.3D LUT预设（视频调色-PR-AE-PS-FCPX-达芬奇用）/Food Art #58.cube
# Created by Adobe Lightroom plugin Export LUT (1.17.0)
# www.johnrellis.com/lightroom/exportlut.htm
# Preset: Food Art #58
# Color profile: /Library/Application Support/Adobe/Color/Profiles/Recommended/AdobeRGB1998.icc
LUT_3D_SIZE 5
DOMAIN_MIN 0.000000 0.000000 0.000000
DOMAIN_MAX 0.903226 0.903226 0.903226
0.000000 0.000000 0.000000
0.094270 0.059113 0.087922
0.261967 0.146609 0.199832
0.522026 0.241978 0.360266
0.854887 0.373388 0.536492
0.008484 0.156222 0.134188
0.128847 0.182650 0.176608
0.287419 0.230106 0.264897
0.547265 0.305913 0.399542
0.869169 0.436042 0.562341
0.138857 0.370581 0.341100
0.210330 0.382452 0.362066
0.403113 0.430182 0.435431
0.639399 0.478065 0.508202
0.891295 0.588281 0.621271
0.358099 0.629725 0.532372
0.413092 0.637446 0.542321
0.567651 0.658686 0.572961
0.756435 0.691035 0.619196
0.925414 0.767056 0.709682
0.724544 0.862852 0.709682
0.745693 0.864805 0.715511
0.804349 0.869108 0.732235
0.891447 0.889342 0.772854
0.964538 0.918669 0.825803
0.000000 0.001740 0.137484
0.077089 0.073335 0.185031
0.257542 0.166537 0.293584
0.513237 0.250919 0.418433
0.845121 0.372656 0.558892
0.000000 0.158694 0.226596
0.107607 0.184085 0.260838
0.283665 0.240299 0.340887
0.538537 0.309483 0.447700
0.855833 0.430488 0.578088
0.129000 0.370062 0.393500
0.206607 0.382147 0.412848
0.385565 0.419165 0.465980
0.625696 0.472175 0.531609
0.887541 0.588830 0.635676
0.363775 0.628077 0.556451
0.420111 0.635859 0.565942
0.570977 0.656336 0.592279
0.754818 0.688350 0.633570
0.924193 0.767239 0.719814
0.728084 0.861387 0.719448
0.748531 0.863340 0.724971
0.813107 0.873014 0.746426
0.894347 0.891356 0.782925
0.965362 0.920195 0.833188
0.000000 0.048096 0.331548
0.000000 0.090242 0.362646
0.243412 0.177066 0.438880
0.521477 0.256870 0.532311
0.849332 0.377081 0.623377
0.000000 0.175479 0.396246
0.000000 0.195438 0.416632
0.279362 0.250736 0.475319
0.548608 0.314244 0.550286
0.859159 0.431586 0.634668
0.103304 0.375921 0.507866
0.198398 0.387488 0.519707
0.388861 0.422461 0.554437
0.636072 0.475715 0.601404
0.886961 0.588617 0.677241
0.375433 0.624262 0.614893
0.426551 0.628595 0.619928
0.576043 0.650904 0.640803
0.757321 0.686397 0.677058
0.923033 0.766293 0.748318
0.727993 0.857053 0.746365
0.750118 0.860075 0.752316
0.810727 0.870115 0.769223
0.891569 0.888548 0.801144
0.963684 0.918059 0.846586
0.000000 0.091493 0.537987
0.000000 0.118318 0.551629
0.269352 0.186862 0.590875
0.546075 0.264195 0.638575
0.860716 0.394781 0.711971
0.000000 0.197024 0.568139
0.000000 0.212192 0.578119
0.304845 0.257298 0.608270
0.570001 0.319402 0.648951
0.865446 0.441016 0.717067
0.105318 0.391272 0.624994
0.208072 0.399786 0.631952
0.405707 0.424292 0.651667
0.647791 0.472938 0.682704
0.887938 0.577142 0.740963
0.412207 0.628962 0.697078
0.457557 0.632959 0.700252
0.589075 0.650141 0.713832
0.760800 0.683558 0.739528
0.923125 0.752499 0.789731
0.737362 0.856107 0.799649
0.755703 0.858518 0.803159
0.810452 0.868833 0.815122
0.885283 0.887938 0.835111
0.963348 0.918853 0.874815
0.000000 0.120211 0.752926
0.131746 0.139467 0.758419
0.400244 0.195071 0.776028
0.657649 0.284367 0.802487
0.879728 0.431739 0.833310
0.000000 0.216312 0.763455
0.149508 0.228183 0.768185
0.414313 0.268162 0.783871
0.669398 0.343481 0.807919
0.884733 0.476387 0.837308
0.132967 0.415534 0.791684
0.216861 0.409766 0.793332
0.459174 0.434424 0.804532
0.707973 0.496071 0.824186
0.901122 0.599359 0.851682
0.517540 0.672389 0.837095
0.547692 0.673426 0.838010
0.635096 0.674556 0.841215
0.774136 0.687831 0.850919
0.928038 0.757687 0.880186
0.774746 0.871397 0.889067
0.786923 0.872984 0.890410
0.827085 0.879545 0.896056
0.888884 0.893523 0.907439
0.963470 0.923125 0.930968
