其他预设/【232】美食博客调色预设124款/1.3D LUT预设（视频调色-PR-AE-PS-FCPX-达芬奇用）/Food Art #23.cube
# Created by Adobe Lightroom plugin Export LUT (1.17.0)
# www.johnrellis.com/lightroom/exportlut.htm
# Preset: Food Art #23
# Color profile: /Library/Application Support/Adobe/Color/Profiles/Recommended/AdobeRGB1998.icc
LUT_3D_SIZE 8
DOMAIN_MIN 0.000000 0.000000 0.000000
DOMAIN_MAX 0.903226 0.903226 0.903226
0.163668 0.142947 0.131594
0.208286 0.132418 0.130739
0.315343 0.107362 0.126040
0.454871 0.099611 0.111604
0.599420 0.101350 0.111666
0.723568 0.104158 0.111940
0.833066 0.106264 0.109865
0.948974 0.108949 0.105501
0.156802 0.190402 0.126558
0.209476 0.189181 0.124575
0.323491 0.172244 0.119142
0.467323 0.170901 0.109712
0.611017 0.172793 0.112520
0.733425 0.170108 0.110475
0.840299 0.168185 0.109133
0.953796 0.168338 0.105409
0.152712 0.296300 0.112459
0.205325 0.296849 0.112642
0.325231 0.297581 0.114626
0.467170 0.301946 0.113558
0.611963 0.303319 0.107454
0.731319 0.295262 0.103822
0.832761 0.285069 0.102358
0.947601 0.281926 0.098695
0.167575 0.440253 0.109407
0.217777 0.442603 0.107973
0.336004 0.444617 0.104280
0.467567 0.439948 0.098634
0.602808 0.437293 0.089052
0.724331 0.427741 0.087953
0.832273 0.415320 0.090608
0.949340 0.410834 0.089754
0.166049 0.592340 0.074861
0.218112 0.592920 0.073121
0.336797 0.592279 0.067659
0.470253 0.588190 0.057527
0.607446 0.586053 0.027222
0.729885 0.572168 0.037751
0.837217 0.553704 0.072358
0.952209 0.545190 0.080140
0.171542 0.714931 0.020905
0.217807 0.711208 0.015564
0.327947 0.710353 0.009613
0.455695 0.708278 0.000000
0.587060 0.706233 0.000000
0.717159 0.702632 0.000000
0.834440 0.688685 0.006683
0.950896 0.678614 0.063569
0.186465 0.824887 0.006226
0.225834 0.823972 0.003754
0.326513 0.824796 0.006958
0.447242 0.824521 0.009461
0.574182 0.824796 0.016358
0.701686 0.823301 0.022553
0.829221 0.821286 0.034516
0.953918 0.816464 0.069917
0.206363 0.945068 0.049073
0.241154 0.945281 0.050721
0.331914 0.945251 0.054536
0.445167 0.943969 0.052430
0.571557 0.949828 0.080903
0.695918 0.948577 0.084504
0.820920 0.946288 0.087343
0.948852 0.945830 0.097597
0.154971 0.142824 0.177188
0.215000 0.128420 0.177371
0.328374 0.132265 0.174228
0.472511 0.113405 0.170962
0.616358 0.095674 0.165652
0.738491 0.094240 0.161654
0.844419 0.103853 0.160220
0.957946 0.111543 0.158938
0.146304 0.192752 0.177829
0.216770 0.190921 0.176822
0.330053 0.186496 0.175143
0.476600 0.177340 0.170260
0.620874 0.169497 0.164828
0.742275 0.166323 0.161532
0.849302 0.168368 0.161013
0.962676 0.172091 0.160525
0.168612 0.303593 0.172335
0.216098 0.303655 0.171420
0.332311 0.303105 0.169467
0.478218 0.306828 0.165286
0.623499 0.305455 0.159945
0.741512 0.296849 0.157565
0.846006 0.289433 0.157473
0.958404 0.286625 0.156954
0.161868 0.453864 0.161898
0.213474 0.454475 0.157321
0.339452 0.454139 0.154849
0.481727 0.453986 0.150301
0.621851 0.450019 0.146578
0.739742 0.436378 0.150332
0.846067 0.422980 0.153689
0.959655 0.417212 0.155581
0.153445 0.597589 0.138918
0.210819 0.598749 0.138430
0.336370 0.599115 0.136568
0.475959 0.597833 0.133181
0.617548 0.596429 0.128969
0.737881 0.578424 0.133913
0.844205 0.559106 0.147738
0.958404 0.550408 0.154604
0.169924 0.720119 0.131075
0.217990 0.719600 0.131167
0.330694 0.718288 0.130617
0.459602 0.714992 0.129152
0.591058 0.711208 0.128603
0.720333 0.705776 0.127077
0.837797 0.691798 0.135042
0.955138 0.682765 0.150668
0.195468 0.831571 0.138613
0.234928 0.832395 0.139742
0.333288 0.832212 0.140505
0.452399 0.830198 0.140414
0.578180 0.828763 0.142092
0.705837 0.827543 0.144991
0.834440 0.826596 0.149752
0.959594 0.822202 0.161288
0.218845 0.948974 0.150637
0.250950 0.948577 0.150240
0.338659 0.948211 0.150881
0.449744 0.946563 0.150179
0.570794 0.946410 0.152651
0.696040 0.947356 0.158816
0.822538 0.947478 0.164401
0.951110 0.948058 0.173312
0.148226 0.137179 0.284092
0.210117 0.122927 0.283909
0.331762 0.130373 0.284337
0.474495 0.101137 0.288121
0.615778 0.036194 0.281956
0.735958 0.078248 0.277775
0.840635 0.120485 0.276982
0.954223 0.139986 0.277928
0.173251 0.188968 0.285740
0.220371 0.187381 0.286412
0.335424 0.181247 0.287327
0.480568 0.163210 0.288853
0.621668 0.147311 0.282811
0.739376 0.162234 0.280369
0.843992 0.180423 0.279728
0.956634 0.191073 0.280186
0.174655 0.305272 0.286503
0.218387 0.304875 0.286564
0.335393 0.302342 0.285222
0.480476 0.299199 0.283818
0.620386 0.296056 0.281254
0.738155 0.295354 0.280186
0.843656 0.297032 0.280705
0.957061 0.299809 0.282017
0.161715 0.453193 0.287907
0.208103 0.453223 0.284428
0.330541 0.455024 0.276371
0.482521 0.453010 0.274571
0.619165 0.445106 0.277684
0.735531 0.435065 0.280247
0.841703 0.426734 0.281682
0.956237 0.424720 0.283787
0.152682 0.600183 0.278691
0.204440 0.600397 0.275700
0.330510 0.599939 0.271275
0.473640 0.596612 0.270146
0.616052 0.593896 0.269902
0.735561 0.576654 0.274754
0.841947 0.562280 0.285832
0.956481 0.556298 0.288792
0.175418 0.720821 0.270237
0.223789 0.720302 0.270848
0.338109 0.719265 0.274937
0.465156 0.717006 0.275853
0.595544 0.713924 0.276860
0.723873 0.708980 0.277012
0.839384 0.694881 0.279911
0.953796 0.685939 0.288731
0.211276 0.830289 0.272770
0.252384 0.830533 0.276951
0.348730 0.831174 0.283085
0.462684 0.830747 0.284733
0.584985 0.830076 0.287022
0.709133 0.828153 0.288670
0.833463 0.825254 0.289647
0.955383 0.819944 0.293797
0.245670 0.948699 0.285618
0.280064 0.949065 0.290898
0.359197 0.949401 0.292180
0.461952 0.946654 0.289799
0.578790 0.946929 0.292149
0.700496 0.947234 0.295445
0.824125 0.946868 0.298131
0.950103 0.946838 0.302464
0.170169 0.121736 0.438911
0.226200 0.125216 0.436408
0.345647 0.118685 0.436774
0.483467 0.083467 0.437781
0.622034 0.000000 0.432136
0.739193 0.085023 0.419318
0.844358 0.160891 0.416114
0.956237 0.215793 0.425055
0.175540 0.184482 0.435096
0.224949 0.181643 0.435035
0.342870 0.171664 0.436652
0.483711 0.152102 0.437903
0.623102 0.141665 0.432227
0.740078 0.169650 0.421698
0.845243 0.217227 0.420935
0.956573 0.258427 0.430549
0.161868 0.308537 0.439673
0.209232 0.304967 0.440345
0.335363 0.297215 0.441749
0.487770 0.292699 0.441871
0.622339 0.297002 0.432319
0.734432 0.311559 0.425971
0.836454 0.333074 0.428351
0.951965 0.342443 0.431220
0.153109 0.455329 0.438514
0.204562 0.456153 0.439460
0.333165 0.456641 0.440650
0.484382 0.453010 0.437476
0.619104 0.453346 0.437995
0.732357 0.453773 0.438025
0.838651 0.453407 0.436866
0.952850 0.452674 0.435218
0.151339 0.600153 0.430030
0.206790 0.601129 0.430182
0.334447 0.600946 0.429755
0.478096 0.595850 0.429938
0.615625 0.592767 0.429206
0.728939 0.580194 0.435523
0.836118 0.574060 0.438849
0.952331 0.572259 0.438941
0.183902 0.718624 0.414038
0.228977 0.715908 0.412757
0.345647 0.715511 0.418341
0.477790 0.712520 0.429206
0.599481 0.710109 0.429969
0.722713 0.707515 0.430823
0.836118 0.697414 0.430915
0.950774 0.694453 0.439918
0.224582 0.830625 0.409003
0.262852 0.829892 0.411048
0.363836 0.828183 0.420325
0.480995 0.826078 0.432624
0.593866 0.825742 0.434089
0.712123 0.825345 0.435828
0.832944 0.824704 0.437415
0.953277 0.821988 0.439002
0.254673 0.946990 0.411719
0.286870 0.946532 0.414466
0.377173 0.945983 0.425544
0.482979 0.945464 0.435065
0.592157 0.946136 0.437110
0.708125 0.946807 0.439277
0.827237 0.946471 0.440009
0.949432 0.946166 0.441199
0.186709 0.127352 0.586511
0.233860 0.125032 0.585199
0.346075 0.112062 0.586114
0.478523 0.079072 0.585687
0.620111 0.000000 0.586450
0.737179 0.087343 0.565301
0.844175 0.164797 0.551476
0.956817 0.219181 0.551751
0.180941 0.179812 0.585809
0.228061 0.176883 0.583490
0.341802 0.167636 0.584436
0.477760 0.151522 0.586481
0.621057 0.134615 0.587579
0.736934 0.168795 0.565728
0.843595 0.217655 0.553155
0.956451 0.259678 0.554467
0.155184 0.298131 0.586511
0.208011 0.295567 0.586358
0.335027 0.293736 0.588251
0.478065 0.292363 0.589715
0.623743 0.292882 0.590600
0.737484 0.316045 0.570611
0.843076 0.342535 0.562402
0.956451 0.366705 0.566155
0.156008 0.447059 0.588190
0.211124 0.447089 0.589014
0.338079 0.447181 0.589471
0.481727 0.449775 0.588891
0.621820 0.451972 0.588708
0.731685 0.465614 0.576287
0.837888 0.477821 0.575525
0.952361 0.486458 0.579095
0.160159 0.598688 0.587762
0.215244 0.598566 0.587762
0.341985 0.598871 0.588251
0.484993 0.598077 0.587579
0.618402 0.596307 0.585565
0.726528 0.597864 0.586755
0.835386 0.597925 0.586236
0.951843 0.596521 0.584161
0.203738 0.724361 0.569055
0.248814 0.723934 0.569482
0.362707 0.723049 0.572503
0.494636 0.719875 0.578088
0.617548 0.716243 0.585382
0.726650 0.712428 0.581689
0.833860 0.707027 0.581872
0.949798 0.707576 0.582788
0.244877 0.833280 0.552453
0.281254 0.833371 0.554376
0.378607 0.832578 0.560601
0.496559 0.830228 0.570367
0.610712 0.828305 0.578576
0.720424 0.828153 0.578576
0.835935 0.828489 0.579034
0.955077 0.828336 0.578759
0.277134 0.951568 0.551659
0.307622 0.951568 0.553918
0.393011 0.951141 0.561303
0.496101 0.947478 0.567407
0.605615 0.947662 0.574182
0.716457 0.948760 0.575494
0.831968 0.948852 0.575372
0.951720 0.948882 0.575433
0.192874 0.127260 0.702541
0.233555 0.125246 0.702419
0.335851 0.115755 0.704646
0.460426 0.098604 0.705501
0.593408 0.082948 0.706905
0.729122 0.095460 0.707790
0.841764 0.166629 0.689967
0.955871 0.220859 0.683650
0.189364 0.177646 0.707973
0.231205 0.175875 0.708186
0.335576 0.170504 0.708827
0.461982 0.163668 0.709285
0.595636 0.162509 0.709621
0.730678 0.173495 0.709621
0.842527 0.220157 0.691768
0.956329 0.261997 0.685969
0.183993 0.293065 0.706172
0.228305 0.293492 0.706966
0.336126 0.294285 0.708003
0.464027 0.296117 0.708370
0.597162 0.302098 0.709102
0.730007 0.312718 0.709102
0.840696 0.339849 0.693843
0.954742 0.363622 0.690608
0.196292 0.431586 0.706508
0.241642 0.433326 0.707271
0.354101 0.439918 0.707485
0.475715 0.444282 0.705165
0.599725 0.448371 0.704372
0.725582 0.455970 0.704646
0.835294 0.471015 0.695491
0.950988 0.481239 0.695796
0.213107 0.573968 0.708797
0.255253 0.574640 0.708766
0.363653 0.577722 0.708553
0.491707 0.584253 0.707515
0.613153 0.592035 0.706905
0.727260 0.595117 0.707271
0.835813 0.600092 0.704250
0.952300 0.600031 0.704005
0.233402 0.714656 0.709163
0.271489 0.713863 0.708370
0.374365 0.713771 0.708309
0.497902 0.713802 0.708217
0.617090 0.714229 0.708370
0.724941 0.711910 0.705562
0.833402 0.711391 0.704555
0.950896 0.710780 0.703365
0.263951 0.832425 0.693263
0.296147 0.831510 0.693172
0.387457 0.830655 0.695399
0.499977 0.829252 0.698787
0.611749 0.828672 0.701961
0.719478 0.829038 0.700557
0.835721 0.829221 0.700221
0.953246 0.828550 0.702022
0.295354 0.952270 0.688838
0.323552 0.952361 0.690272
0.403357 0.952178 0.694331
0.504265 0.950896 0.698360
0.608301 0.951019 0.700130
0.715602 0.951720 0.697627
0.831937 0.951141 0.696529
0.952819 0.950713 0.696010
0.197665 0.128328 0.829221
0.235111 0.127199 0.829618
0.332067 0.122408 0.829831
0.451423 0.116518 0.829740
0.579492 0.121889 0.830320
0.710079 0.144594 0.830564
0.840085 0.179263 0.830289
0.957702 0.230259 0.821195
0.196353 0.178195 0.828519
0.234287 0.177493 0.828855
0.331579 0.175387 0.829129
0.451972 0.175021 0.829343
0.579767 0.182101 0.829435
0.709468 0.198978 0.829160
0.838590 0.225193 0.828733
0.955932 0.264927 0.820096
0.209567 0.297887 0.829801
0.245884 0.298192 0.829770
0.340856 0.299870 0.829618
0.459205 0.303990 0.829557
0.584680 0.311650 0.829221
0.711818 0.324254 0.828946
0.838590 0.341772 0.828946
0.955718 0.365759 0.822507
0.245609 0.436286 0.829770
0.281651 0.439246 0.829862
0.373327 0.446601 0.829282
0.479805 0.450507 0.829282
0.596582 0.456092 0.828977
0.717067 0.464088 0.828977
0.838529 0.473548 0.829252
0.954711 0.484169 0.825345
0.258549 0.566217 0.828855
0.291875 0.567712 0.828550
0.383978 0.573388 0.827970
0.498360 0.583398 0.827481
0.608850 0.589319 0.827268
0.720577 0.591913 0.827359
0.836698 0.594324 0.827787
0.953552 0.596490 0.826169
0.274449 0.698054 0.828153
0.305699 0.698756 0.828092
0.392950 0.701411 0.827939
0.502495 0.705715 0.827878
0.611963 0.708980 0.827878
0.720394 0.708766 0.828489
0.837217 0.709438 0.828977
0.953857 0.710872 0.826902
0.294347 0.829618 0.828428
0.323003 0.829770 0.828611
0.403723 0.829892 0.828641
0.507286 0.830228 0.828824
0.611353 0.830442 0.828794
0.719081 0.830777 0.828763
0.835386 0.830259 0.827817
0.953246 0.831113 0.828275
0.314702 0.953002 0.824125
0.339361 0.952819 0.824399
0.412451 0.952789 0.825895
0.507958 0.952422 0.827237
0.607324 0.952850 0.827176
0.714656 0.953155 0.825742
0.831083 0.952911 0.824094
0.953155 0.951934 0.823270
0.198886 0.126833 0.948760
0.234318 0.125765 0.948943
0.326787 0.123384 0.948852
0.442969 0.123323 0.949157
0.567620 0.134096 0.949310
0.695277 0.157321 0.949340
0.823758 0.189822 0.949462
0.951415 0.225498 0.949248
0.199222 0.176822 0.948333
0.234714 0.176730 0.948516
0.327581 0.176333 0.948486
0.444099 0.179202 0.948638
0.568627 0.189151 0.948760
0.695796 0.207187 0.948730
0.823575 0.232364 0.948730
0.950713 0.260807 0.948516
0.216770 0.296147 0.948058
0.249668 0.296635 0.948119
0.338537 0.298436 0.947845
0.452613 0.303838 0.948363
0.574578 0.312200 0.948241
0.699245 0.324224 0.947967
0.824765 0.340124 0.947967
0.950103 0.357092 0.948028
0.268406 0.438605 0.947509
0.294469 0.439277 0.947601
0.369604 0.440925 0.947417
0.472602 0.444770 0.947509
0.587030 0.450355 0.947539
0.705989 0.457343 0.947448
0.827207 0.465309 0.947631
0.949950 0.473091 0.947997
0.281804 0.563287 0.947112
0.310430 0.565209 0.947173
0.390723 0.570825 0.946746
0.493782 0.578546 0.946471
0.598596 0.580468 0.946471
0.711055 0.582727 0.946563
0.828428 0.584924 0.947143
0.950072 0.586267 0.948363
0.293584 0.690394 0.946960
0.319707 0.691157 0.946746
0.395361 0.693843 0.946288
0.494972 0.697658 0.945983
0.598566 0.698756 0.946258
0.708888 0.698299 0.947356
0.827970 0.699947 0.948791
0.951873 0.701991 0.950500
0.308141 0.819303 0.947723
0.332280 0.819577 0.947601
0.402808 0.820523 0.947356
0.498421 0.822141 0.947387
0.598535 0.822324 0.947814
0.707637 0.821988 0.948669
0.827237 0.823087 0.950103
0.951110 0.823453 0.950042
0.325170 0.948486 0.949615
0.346960 0.948425 0.949554
0.412787 0.948394 0.949462
0.501915 0.948669 0.949584
0.599329 0.949096 0.949798
0.708309 0.949493 0.949889
0.826658 0.949706 0.949767
0.949523 0.948974 0.948760
