其他预设/【232】美食博客调色预设124款/1.3D LUT预设（视频调色-PR-AE-PS-FCPX-达芬奇用）/Food Art #23.cube
# Created by Adobe Lightroom plugin Export LUT (1.17.0)
# www.johnrellis.com/lightroom/exportlut.htm
# Preset: Food Art #23
# Color profile: /Library/Application Support/Adobe/Color/Profiles/Recommended/AdobeRGB1998.icc
LUT_3D_SIZE 32
0.163668 0.142947 0.131594
0.163668 0.142947 0.131594
0.163668 0.142947 0.131594
0.175326 0.140566 0.131411
0.208286 0.132418 0.130739
0.233097 0.124605 0.130159
0.258579 0.114870 0.129427
0.285649 0.110292 0.128023
0.315343 0.107362 0.126040
0.347784 0.104372 0.123507
0.382574 0.101167 0.120302
0.418463 0.099855 0.116365
0.454871 0.099611 0.111604
0.491646 0.099550 0.109346
0.528313 0.099489 0.109621
0.564416 0.099641 0.110323
0.599420 0.101350 0.111666
0.632746 0.103120 0.113069
0.664210 0.103792 0.113069
0.694697 0.103487 0.112520
0.723568 0.104158 0.111940
0.751156 0.104494 0.111391
0.777890 0.104952 0.111147
0.805051 0.105898 0.110658
0.833066 0.106264 0.109865
0.861692 0.107362 0.109133
0.890562 0.108034 0.108217
0.919677 0.108553 0.106874
0.948974 0.108949 0.105501
0.978515 0.109224 0.103609
1.000000 0.108858 0.101686
1.000000 0.108278 0.098970
0.163668 0.142947 0.131594
0.163668 0.142947 0.131594
0.163668 0.142947 0.131594
0.177340 0.140139 0.131350
0.209415 0.132082 0.130709
0.234287 0.124392 0.130098
0.259800 0.120638 0.128939
0.287083 0.117922 0.127382
0.317113 0.115175 0.125338
0.350134 0.112398 0.122713
0.385290 0.109987 0.119417
0.421454 0.108553 0.115358
0.458167 0.108980 0.110445
0.495216 0.109010 0.109346
0.532067 0.108461 0.109590
0.568292 0.109285 0.110780
0.603326 0.111147 0.111849
0.636683 0.112428 0.112825
0.668025 0.112612 0.112795
0.698390 0.112490 0.112245
0.726986 0.112520 0.111727
0.754269 0.112856 0.111391
0.780850 0.113375 0.110964
0.807980 0.114046 0.110689
0.835874 0.114839 0.109865
0.864378 0.115602 0.109133
0.893126 0.116091 0.108248
0.922087 0.116884 0.107332
0.951232 0.117342 0.105989
0.980621 0.117464 0.104372
1.000000 0.117220 0.101991
1.000000 0.117006 0.099763
0.163668 0.142947 0.131594
0.163668 0.142947 0.131594
0.163668 0.142947 0.131594
0.180056 0.139712 0.131289
0.210819 0.136172 0.130312
0.235294 0.133394 0.129305
0.260838 0.130709 0.128084
0.288487 0.127993 0.126497
0.318853 0.125277 0.124422
0.352056 0.122957 0.121736
0.387304 0.121035 0.118318
0.423651 0.120302 0.114137
0.460487 0.120607 0.109743
0.497566 0.120394 0.109316
0.534356 0.120607 0.109895
0.570672 0.121065 0.110628
0.605707 0.122927 0.112062
0.638972 0.123781 0.112825
0.670314 0.123415 0.112642
0.700404 0.123293 0.112093
0.728817 0.123476 0.111604
0.755947 0.123049 0.111147
0.782376 0.123842 0.110903
0.809476 0.123995 0.110445
0.837339 0.124636 0.109834
0.865812 0.124910 0.109163
0.894499 0.125582 0.108248
0.923369 0.126375 0.107332
0.952422 0.126619 0.105989
0.981750 0.127016 0.104616
1.000000 0.126772 0.102480
1.000000 0.126314 0.100282
0.161410 0.160830 0.129946
0.161227 0.162173 0.129793
0.160922 0.164279 0.129580
0.182345 0.165103 0.128695
0.211215 0.159976 0.127993
0.235782 0.154757 0.127291
0.261601 0.150790 0.126162
0.289647 0.147677 0.124605
0.320256 0.145052 0.122499
0.353796 0.143221 0.119692
0.389441 0.142336 0.116091
0.426123 0.142123 0.111696
0.463111 0.142550 0.109529
0.500298 0.142458 0.109468
0.537255 0.142672 0.109957
0.573541 0.143526 0.111269
0.608545 0.144747 0.112673
0.641871 0.144900 0.112612
0.673365 0.144625 0.112123
0.703487 0.143984 0.111604
0.731899 0.143618 0.111147
0.758755 0.143069 0.110750
0.784939 0.143221 0.110597
0.811643 0.143221 0.110231
0.838987 0.143526 0.109560
0.866880 0.143465 0.108858
0.895109 0.143587 0.107912
0.923705 0.144320 0.107057
0.952697 0.144503 0.105531
0.982086 0.144533 0.104128
1.000000 0.144350 0.102174
1.000000 0.144167 0.100069
0.156802 0.190402 0.126558
0.156710 0.191012 0.126467
0.156710 0.191989 0.126345
0.178988 0.191043 0.125643
0.209476 0.189181 0.124575
0.237186 0.183536 0.123842
0.263645 0.178134 0.122927
0.292210 0.174563 0.121370
0.323491 0.172244 0.119142
0.357519 0.171237 0.116091
0.393408 0.170779 0.112245
0.430213 0.170993 0.109712
0.467323 0.170901 0.109712
0.504356 0.171359 0.109957
0.540887 0.171847 0.110842
0.576532 0.172671 0.111971
0.611017 0.172793 0.112520
0.643824 0.172549 0.112154
0.675135 0.171542 0.111574
0.705135 0.170657 0.110903
0.733425 0.170108 0.110475
0.760311 0.169467 0.110079
0.786465 0.168978 0.109773
0.813077 0.168582 0.109712
0.840299 0.168185 0.109133
0.868101 0.168063 0.108461
0.896208 0.168246 0.107729
0.924804 0.168093 0.106538
0.953796 0.168338 0.105409
0.983185 0.168460 0.104005
1.000000 0.167971 0.102052
1.000000 0.168002 0.099947
0.152163 0.214847 0.123140
0.152041 0.215396 0.123049
0.156771 0.215610 0.122866
0.176730 0.215091 0.122194
0.204166 0.214023 0.121126
0.235111 0.212589 0.119722
0.264500 0.208591 0.118502
0.293523 0.204746 0.116976
0.325170 0.202670 0.114626
0.359503 0.202029 0.111330
0.395483 0.202182 0.110231
0.432471 0.202365 0.110018
0.469459 0.202914 0.110292
0.506554 0.203311 0.110719
0.542870 0.204044 0.111574
0.578363 0.204196 0.112367
0.612543 0.203861 0.112154
0.645045 0.203006 0.111299
0.676020 0.201907 0.110628
0.705715 0.200809 0.109621
0.733730 0.199405 0.109194
0.760311 0.198184 0.109194
0.769192 0.192660 0.108125
0.796231 0.191989 0.107515
0.824063 0.191592 0.106752
0.852659 0.191104 0.105379
0.881804 0.191043 0.104280
0.911376 0.190799 0.102907
0.941344 0.190707 0.101381
0.971710 0.190555 0.099214
1.000000 0.190249 0.096895
1.000000 0.190005 0.094240
0.147189 0.236942 0.119509
0.149355 0.237217 0.119387
0.157565 0.237156 0.119112
0.175265 0.236851 0.118471
0.199924 0.236210 0.117464
0.228275 0.235447 0.116091
0.259129 0.234501 0.114260
0.289189 0.232242 0.112459
0.320104 0.230472 0.111177
0.353582 0.230167 0.111330
0.388617 0.230655 0.111208
0.424750 0.231357 0.111513
0.461646 0.232425 0.112032
0.498848 0.233371 0.112428
0.535882 0.234379 0.112947
0.572198 0.234531 0.112398
0.606989 0.234348 0.111513
0.640040 0.233433 0.110445
0.670985 0.232212 0.109438
0.700282 0.230625 0.108492
0.727474 0.228794 0.107790
0.752956 0.226719 0.107485
0.777371 0.224796 0.106966
0.802426 0.223087 0.106386
0.828458 0.221866 0.105531
0.855924 0.220890 0.104585
0.884459 0.220584 0.103487
0.913787 0.220279 0.102388
0.943603 0.219974 0.100679
0.973999 0.219852 0.098970
1.000000 0.219516 0.096620
1.000000 0.219577 0.094148
0.146944 0.265080 0.113741
0.153170 0.265141 0.113497
0.161471 0.265171 0.113191
0.178256 0.265019 0.112490
0.201724 0.264897 0.111574
0.229099 0.264652 0.111330
0.259129 0.264469 0.111513
0.290471 0.264134 0.111727
0.322637 0.263554 0.112459
0.356481 0.263798 0.112642
0.391852 0.264714 0.112978
0.428107 0.265812 0.113100
0.465034 0.267124 0.113466
0.502220 0.268132 0.113130
0.539239 0.268803 0.112154
0.575402 0.268833 0.110994
0.610101 0.268559 0.109438
0.643030 0.267338 0.108400
0.673823 0.265873 0.107485
0.702937 0.263890 0.106477
0.729946 0.261540 0.106203
0.755337 0.259129 0.105806
0.779812 0.256687 0.105623
0.804959 0.254582 0.104891
0.831083 0.252995 0.104372
0.858518 0.252049 0.103670
0.886961 0.251408 0.102388
0.916197 0.250828 0.101106
0.945892 0.250553 0.099641
0.976165 0.250401 0.098177
1.000000 0.250309 0.096254
1.000000 0.250034 0.094148
0.152712 0.296300 0.112459
0.158663 0.296361 0.112215
0.166690 0.296422 0.112703
0.182589 0.296605 0.112581
0.205325 0.296849 0.112642
0.231937 0.297093 0.112947
0.261479 0.297337 0.113436
0.292790 0.297490 0.113710
0.325231 0.297581 0.114626
0.358556 0.297917 0.115236
0.393957 0.299290 0.114961
0.430274 0.300542 0.114565
0.467170 0.301946 0.113558
0.504326 0.302953 0.112123
0.541161 0.303685 0.110689
0.577356 0.303929 0.108736
0.611963 0.303319 0.107454
0.644770 0.302129 0.105776
0.675441 0.300267 0.105013
0.704402 0.297856 0.104189
0.731319 0.295262 0.103822
0.756710 0.292119 0.103517
0.781277 0.289281 0.103487
0.806577 0.286992 0.103029
0.832761 0.285069 0.102358
0.860258 0.283726 0.101961
0.888731 0.282963 0.100923
0.917876 0.282383 0.099916
0.947601 0.281926 0.098695
0.977905 0.281712 0.097200
1.000000 0.281559 0.095491
1.000000 0.281437 0.093568
0.158907 0.331212 0.114260
0.164645 0.331365 0.114595
0.172366 0.331579 0.114443
0.188327 0.331853 0.114656
0.210239 0.332341 0.114870
0.236790 0.332860 0.115023
0.266056 0.333440 0.115572
0.297215 0.333898 0.115938
0.329717 0.334264 0.116091
0.362768 0.334325 0.115694
0.397009 0.334874 0.115053
0.433417 0.336522 0.113008
0.470253 0.337896 0.111269
0.506828 0.338781 0.109621
0.543145 0.339391 0.107759
0.578607 0.339178 0.106020
0.612573 0.338415 0.104189
0.644831 0.336645 0.102815
0.675319 0.334508 0.101991
0.704341 0.331884 0.101076
0.731685 0.328985 0.100801
0.757534 0.325811 0.100923
0.782803 0.322759 0.100862
0.808682 0.320226 0.100862
0.835325 0.318212 0.100618
0.862913 0.316747 0.100008
0.891234 0.315618 0.099092
0.920104 0.314824 0.098451
0.949554 0.314153 0.097383
0.979492 0.313756 0.095796
1.000000 0.313390 0.094270
1.000000 0.313085 0.092256
0.164645 0.370031 0.115938
0.170382 0.370123 0.115877
0.178103 0.370306 0.115694
0.193545 0.370520 0.115724
0.215366 0.370764 0.115541
0.241306 0.371191 0.115297
0.270359 0.371557 0.115053
0.301152 0.371832 0.114595
0.333593 0.372045 0.113710
0.366918 0.372290 0.113008
0.400946 0.372412 0.111818
0.435859 0.372808 0.110201
0.472663 0.374426 0.107790
0.509331 0.375463 0.105226
0.545403 0.375952 0.103334
0.580468 0.375677 0.101778
0.614191 0.374456 0.099916
0.646174 0.372595 0.098848
0.676722 0.370062 0.097963
0.705592 0.367102 0.097292
0.732815 0.363653 0.097353
0.758541 0.359930 0.097627
0.783871 0.356542 0.098024
0.809781 0.353704 0.098238
0.836545 0.351415 0.098085
0.864195 0.349676 0.097841
0.892638 0.348425 0.097444
0.921691 0.347601 0.096529
0.951202 0.346899 0.095918
0.981170 0.346288 0.094606
1.000000 0.345983 0.093050
1.000000 0.345708 0.091798
0.166903 0.409247 0.113100
0.172519 0.409308 0.113252
0.180453 0.409400 0.113069
0.195865 0.409491 0.112947
0.217929 0.409674 0.112490
0.243870 0.409949 0.111849
0.273014 0.410132 0.111177
0.304082 0.410285 0.110506
0.336522 0.410224 0.109621
0.369909 0.410193 0.108248
0.403815 0.410071 0.107088
0.438331 0.410132 0.105287
0.458473 0.396399 0.106538
0.494484 0.398230 0.103487
0.530175 0.399481 0.100771
0.565301 0.399969 0.098573
0.599420 0.399847 0.096803
0.632013 0.398688 0.095552
0.663264 0.396979 0.094606
0.693507 0.394781 0.093446
0.722042 0.391882 0.093172
0.749111 0.388769 0.093324
0.775418 0.385626 0.093843
0.802243 0.383001 0.094118
0.829801 0.380835 0.093599
0.858030 0.379339 0.093416
0.887022 0.378271 0.093141
0.916686 0.377478 0.092256
0.946838 0.377020 0.091341
0.977417 0.376623 0.090242
1.000000 0.376501 0.088838
1.000000 0.376379 0.087251
0.167575 0.440253 0.109407
0.172976 0.440406 0.109316
0.180728 0.440864 0.108980
0.195987 0.441596 0.108766
0.217777 0.442603 0.107973
0.243809 0.443702 0.107118
0.272801 0.444495 0.106355
0.303746 0.444862 0.105318
0.336004 0.444617 0.104280
0.368811 0.444007 0.102968
0.401709 0.442939 0.101625
0.434546 0.441352 0.100313
0.467567 0.439948 0.098634
0.501030 0.438941 0.096407
0.535210 0.438575 0.093629
0.569360 0.438209 0.091005
0.602808 0.437293 0.089052
0.635035 0.435645 0.088045
0.666041 0.433478 0.087678
0.696040 0.430915 0.087617
0.724331 0.427741 0.087953
0.751247 0.423957 0.088655
0.777676 0.420539 0.089723
0.804623 0.417639 0.090242
0.832273 0.415320 0.090608
0.860594 0.413581 0.090791
0.889647 0.412421 0.090547
0.919249 0.411536 0.090547
0.949340 0.410834 0.089754
0.979828 0.410376 0.088991
1.000000 0.410040 0.087953
1.000000 0.409766 0.086519
0.167025 0.480720 0.102419
0.173281 0.480751 0.102358
0.180880 0.481178 0.102205
0.196414 0.481819 0.101747
0.218601 0.482643 0.101137
0.245029 0.483619 0.100435
0.274601 0.484352 0.099031
0.305821 0.484627 0.097902
0.338201 0.484413 0.096742
0.371283 0.483711 0.095247
0.404456 0.482368 0.093904
0.437629 0.480873 0.092134
0.470954 0.479286 0.090120
0.504479 0.478096 0.087739
0.538598 0.477455 0.085084
0.572656 0.476722 0.082033
0.605921 0.475349 0.079866
0.637873 0.473274 0.078798
0.668727 0.470619 0.079194
0.698268 0.467475 0.079835
0.726314 0.463630 0.081544
0.752926 0.459449 0.083742
0.779355 0.455604 0.085359
0.806363 0.452399 0.086458
0.834043 0.449836 0.087068
0.862364 0.447883 0.087465
0.891447 0.446418 0.087953
0.921019 0.445380 0.088075
0.951049 0.444648 0.087892
0.981445 0.444068 0.087465
1.000000 0.443671 0.086824
1.000000 0.443244 0.085817
0.166659 0.519371 0.094362
0.172824 0.519341 0.094331
0.180453 0.519677 0.094209
0.196384 0.520378 0.093599
0.218906 0.521172 0.092866
0.245457 0.522210 0.091707
0.274968 0.522850 0.090455
0.306584 0.522972 0.089235
0.339086 0.522728 0.087892
0.372229 0.521935 0.086366
0.405463 0.520592 0.084321
0.438819 0.518883 0.082460
0.472236 0.517205 0.080598
0.505913 0.515953 0.077913
0.540032 0.515129 0.074678
0.574762 0.514916 0.071168
0.608057 0.513390 0.068727
0.639948 0.510887 0.067262
0.670710 0.507836 0.067140
0.700069 0.504082 0.069856
0.727901 0.499825 0.072877
0.754421 0.495125 0.076478
0.781003 0.490944 0.079591
0.808072 0.487495 0.082063
0.835691 0.484627 0.083680
0.863951 0.482429 0.084413
0.892699 0.480537 0.084810
0.921874 0.479164 0.085359
0.951446 0.477943 0.085115
0.981384 0.477028 0.084565
1.000000 0.476295 0.083711
1.000000 0.475563 0.082460
0.166110 0.556451 0.085084
0.172213 0.556298 0.085115
0.179690 0.556390 0.084871
0.195773 0.556664 0.084169
0.218204 0.556970 0.083680
0.244877 0.557336 0.082490
0.274113 0.557427 0.081239
0.305241 0.557366 0.080049
0.337621 0.556878 0.078492
0.370489 0.556176 0.076753
0.404120 0.555200 0.074800
0.437812 0.554223 0.072419
0.471595 0.553216 0.070008
0.505791 0.552422 0.067048
0.540185 0.551873 0.063233
0.574884 0.551690 0.058442
0.609674 0.551476 0.051057
0.641840 0.549004 0.048829
0.672297 0.545190 0.050111
0.701137 0.540673 0.054414
0.728542 0.535515 0.061524
0.754788 0.530144 0.067384
0.781277 0.525566 0.072084
0.808255 0.521691 0.075837
0.835843 0.518608 0.078279
0.863920 0.516106 0.080476
0.892607 0.514031 0.081147
0.921721 0.512444 0.081392
0.951324 0.511162 0.081849
0.981415 0.510185 0.081605
1.000000 0.509453 0.081270
1.000000 0.508904 0.081025
0.166049 0.592340 0.074861
0.171908 0.592340 0.074434
0.179660 0.592493 0.074372
0.195621 0.592676 0.073976
0.218112 0.592920 0.073121
0.244450 0.593072 0.072328
0.273594 0.593011 0.071412
0.304540 0.592767 0.069856
0.336797 0.592279 0.067659
0.369787 0.591485 0.065766
0.403143 0.590509 0.063996
0.436622 0.589319 0.061067
0.470253 0.588190 0.057527
0.504143 0.587213 0.052155
0.538293 0.586481 0.045686
0.572686 0.586236 0.036835
0.607446 0.586053 0.027222
0.642145 0.585992 0.017090
0.673793 0.583001 0.015717
0.702541 0.577935 0.025208
0.729885 0.572168 0.037751
0.756130 0.566308 0.052766
0.782681 0.561273 0.062623
0.809689 0.557153 0.068269
0.837217 0.553704 0.072358
0.865232 0.550866 0.075593
0.893767 0.548547 0.077729
0.922728 0.546715 0.079286
0.952209 0.545190 0.080140
0.982177 0.544030 0.080110
1.000000 0.543145 0.079744
1.000000 0.542382 0.080079
0.166079 0.625269 0.064088
0.172061 0.624903 0.064057
0.178958 0.613794 0.067140
0.194034 0.614008 0.066743
0.215610 0.614343 0.065766
0.240909 0.614771 0.064302
0.269261 0.615198 0.063203
0.299382 0.615412 0.061006
0.330968 0.615412 0.059083
0.363317 0.615076 0.056672
0.396063 0.614649 0.051667
0.429206 0.614099 0.046876
0.462745 0.613672 0.040040
0.496529 0.613336 0.032593
0.530388 0.613214 0.024506
0.564538 0.613214 0.015534
0.598932 0.613428 0.007752
0.633417 0.613611 0.000000
0.667781 0.613672 0.000000
0.699001 0.610803 0.000000
0.726802 0.605249 0.006836
0.753506 0.599329 0.023651
0.780423 0.594202 0.039185
0.807828 0.590143 0.055024
0.835935 0.586877 0.062928
0.864622 0.584375 0.068544
0.893736 0.582361 0.073030
0.923247 0.580743 0.076081
0.952972 0.579339 0.078065
0.983001 0.578149 0.079438
1.000000 0.577111 0.079561
1.000000 0.576287 0.079988
0.166964 0.654170 0.050843
0.172244 0.652888 0.050935
0.179751 0.651484 0.050843
0.194675 0.650324 0.050202
0.215610 0.649531 0.048768
0.241001 0.649287 0.048310
0.269017 0.649348 0.045045
0.298985 0.649378 0.041382
0.330297 0.649256 0.037140
0.362219 0.648920 0.032685
0.394873 0.648341 0.027741
0.427832 0.647730 0.021973
0.461097 0.647272 0.017731
0.494667 0.646815 0.011109
0.528313 0.646571 0.004700
0.562158 0.646448 0.000000
0.596155 0.646418 0.000000
0.630152 0.646357 0.000000
0.664027 0.646174 0.000000
0.697719 0.645716 0.000000
0.728115 0.642237 0.000000
0.754726 0.635798 0.000580
0.781674 0.630304 0.016297
0.809110 0.625666 0.032136
0.837064 0.622095 0.050568
0.865629 0.619196 0.061524
0.894652 0.616938 0.067079
0.924041 0.615076 0.072663
0.953735 0.613550 0.075746
0.983764 0.612207 0.078309
1.000000 0.611139 0.079805
1.000000 0.610193 0.081025
0.168490 0.685573 0.032105
0.173953 0.684443 0.030732
0.181277 0.683253 0.030121
0.195468 0.682246 0.030243
0.216342 0.681483 0.028321
0.241032 0.681209 0.027008
0.268956 0.681086 0.023957
0.298314 0.680995 0.020996
0.329168 0.680720 0.018647
0.360876 0.680323 0.013581
0.393072 0.679744 0.011383
0.425666 0.679042 0.007446
0.458625 0.678462 0.002960
0.491676 0.677974 0.000000
0.524926 0.677607 0.000000
0.558373 0.677302 0.000000
0.591913 0.677150 0.000000
0.625452 0.676905 0.000000
0.658839 0.676509 0.000000
0.692103 0.675959 0.000000
0.725124 0.675227 0.000000
0.755459 0.672053 0.000000
0.782437 0.666163 0.000000
0.809873 0.661250 0.015412
0.837949 0.657313 0.031434
0.866545 0.654170 0.050660
0.895598 0.651698 0.062348
0.925078 0.649744 0.069001
0.954803 0.648066 0.074189
0.984863 0.646693 0.077943
1.000000 0.645502 0.080598
1.000000 0.644526 0.083406
0.171542 0.714931 0.020905
0.176852 0.713893 0.019257
0.183566 0.712856 0.018494
0.197543 0.711940 0.017334
0.217807 0.711208 0.015564
0.241978 0.710872 0.014618
0.268742 0.710780 0.013031
0.297673 0.710628 0.011536
0.327947 0.710353 0.009613
0.359258 0.709957 0.007080
0.390997 0.709407 0.002960
0.423133 0.708827 0.001312
0.455695 0.708278 0.000000
0.488350 0.707729 0.000000
0.521202 0.707271 0.000000
0.554162 0.706783 0.000000
0.587060 0.706233 0.000000
0.619867 0.705592 0.000000
0.652491 0.704799 0.000000
0.684932 0.703792 0.000000
0.717159 0.702632 0.000000
0.749233 0.701350 0.000000
0.779568 0.698543 0.000000
0.806699 0.693111 0.000000
0.834440 0.688685 0.006683
0.862852 0.685237 0.020722
0.891752 0.682460 0.038392
0.921141 0.680354 0.056458
0.950896 0.678614 0.063569
0.981109 0.677302 0.068025
1.000000 0.676234 0.071687
1.000000 0.675410 0.075105
0.174228 0.739315 0.012146
0.179263 0.738888 0.010559
0.185702 0.738460 0.009674
0.199222 0.738155 0.008515
0.218814 0.737942 0.009247
0.242283 0.737881 0.008606
0.268559 0.737819 0.007019
0.296666 0.737606 0.005097
0.326299 0.737301 0.002564
0.356847 0.736782 0.000031
0.388006 0.736202 0.000000
0.419654 0.735561 0.000000
0.451606 0.735103 0.000000
0.483894 0.734676 0.000000
0.516258 0.734371 0.000000
0.548943 0.734096 0.000000
0.581537 0.733791 0.000000
0.614221 0.733364 0.000000
0.646723 0.732937 0.000000
0.679133 0.732326 0.000000
0.711543 0.731655 0.000000
0.743771 0.730892 0.000000
0.776028 0.730159 0.000000
0.807218 0.728450 0.000000
0.835203 0.723995 0.000000
0.863676 0.720302 0.017121
0.892638 0.717342 0.032837
0.922026 0.714961 0.047700
0.951781 0.713100 0.060945
0.982025 0.711666 0.067445
1.000000 0.710536 0.072663
1.000000 0.709499 0.077058
0.178408 0.768276 0.009308
0.182925 0.767819 0.008057
0.189090 0.767391 0.006134
0.202274 0.767025 0.006439
0.221012 0.766842 0.005097
0.243870 0.766873 0.004211
0.269505 0.766934 0.003296
0.296941 0.766903 0.003082
0.326146 0.766751 0.002350
0.356207 0.766415 0.000458
0.387030 0.765988 0.000122
0.418250 0.765499 0.000000
0.449805 0.765103 0.000000
0.481849 0.764736 0.000000
0.513909 0.764431 0.000000
0.546166 0.764157 0.000000
0.578424 0.763790 0.000000
0.610712 0.763363 0.000000
0.642969 0.762844 0.000000
0.675135 0.762234 0.000000
0.707210 0.761501 0.000000
0.739132 0.760678 0.000000
0.771054 0.759823 0.000000
0.802914 0.758968 0.000000
0.836912 0.760220 0.000000
0.865507 0.756405 0.020356
0.894469 0.753201 0.040772
0.923919 0.750668 0.055268
0.953796 0.748623 0.063172
0.984039 0.746975 0.070924
1.000000 0.745693 0.076844
1.000000 0.744076 0.081086
0.181308 0.794369 0.002014
0.185580 0.793820 0.000183
0.191592 0.793454 0.000000
0.204379 0.793332 0.000000
0.222354 0.793423 0.000000
0.244541 0.793637 0.000000
0.269566 0.793942 0.000000
0.296788 0.794308 0.000000
0.325566 0.794553 0.000000
0.355352 0.794675 0.000000
0.385870 0.794797 0.000000
0.416815 0.794766 0.000549
0.448219 0.794705 0.000153
0.480049 0.794766 0.000000
0.512108 0.794949 0.001129
0.544457 0.795163 0.002899
0.576898 0.795315 0.004730
0.609247 0.795285 0.006683
0.641444 0.795010 0.006653
0.673396 0.794339 0.006348
0.705196 0.793576 0.006958
0.737026 0.792752 0.006653
0.768948 0.792050 0.008972
0.801022 0.791501 0.011566
0.833310 0.791226 0.015961
0.865599 0.790890 0.021607
0.894835 0.787716 0.045350
0.924590 0.785306 0.061067
0.954711 0.783383 0.068116
0.985168 0.781704 0.073854
1.000000 0.780148 0.080385
1.000000 0.778225 0.085512
0.186465 0.824887 0.006226
0.190402 0.824338 0.005524
0.196262 0.824033 0.003296
0.208316 0.823911 0.003815
0.225834 0.823972 0.003754
0.247349 0.824186 0.003418
0.271824 0.824399 0.006439
0.298283 0.824674 0.006287
0.326513 0.824796 0.006958
0.355718 0.824826 0.007172
0.385595 0.824826 0.007782
0.416236 0.824674 0.008057
0.447242 0.824521 0.009461
0.478523 0.824491 0.008423
0.510277 0.824552 0.011200
0.542138 0.824704 0.012512
0.574182 0.824796 0.016358
0.606256 0.824735 0.019837
0.638209 0.824491 0.021271
0.669978 0.823972 0.023072
0.701686 0.823301 0.022553
0.733394 0.822629 0.025391
0.765194 0.822049 0.025635
0.797086 0.821592 0.028382
0.829221 0.821286 0.034516
0.861540 0.821134 0.040650
0.893919 0.821012 0.047395
0.923735 0.818509 0.061860
0.953918 0.816464 0.069917
0.984466 0.814847 0.075563
1.000000 0.812833 0.079530
1.000000 0.810758 0.083589
0.191287 0.854643 0.013306
0.195529 0.854276 0.011780
0.201053 0.854124 0.011078
0.212741 0.854215 0.011810
0.229648 0.854429 0.012207
0.250523 0.854734 0.015564
0.274418 0.855100 0.016876
0.300481 0.855406 0.018738
0.328161 0.855619 0.020172
0.356786 0.855680 0.021607
0.386358 0.855650 0.022461
0.416480 0.855497 0.024140
0.447028 0.855314 0.023896
0.478096 0.855222 0.026520
0.509392 0.855344 0.029358
0.541070 0.855528 0.031891
0.572961 0.855711 0.036561
0.604791 0.855772 0.042023
0.636591 0.855619 0.045380
0.668299 0.855253 0.046815
0.699916 0.854734 0.047791
0.731563 0.854154 0.050599
0.763272 0.853696 0.052277
0.795132 0.853300 0.055970
0.827146 0.853056 0.059236
0.859373 0.852934 0.062623
0.891722 0.852903 0.066102
0.924224 0.852934 0.069429
0.954772 0.851102 0.077150
0.985046 0.849088 0.082612
1.000000 0.847044 0.086366
1.000000 0.844816 0.090913
0.197665 0.885954 0.032380
0.201541 0.885710 0.030304
0.206851 0.885588 0.029480
0.217777 0.885618 0.029511
0.234257 0.885649 0.029664
0.254154 0.885649 0.030426
0.277104 0.885405 0.030671
0.302129 0.885039 0.029664
0.328771 0.884459 0.028901
0.356481 0.883787 0.024628
0.385046 0.882933 0.021424
0.414252 0.882170 0.019287
0.444068 0.881468 0.016907
0.474403 0.880980 0.015778
0.505180 0.880705 0.016815
0.536339 0.880766 0.018372
0.567834 0.880919 0.022736
0.599359 0.881041 0.027466
0.630854 0.880980 0.031128
0.662348 0.880766 0.032471
0.693751 0.880400 0.034730
0.725307 0.880064 0.036866
0.756924 0.879789 0.039887
0.788693 0.879606 0.043305
0.820615 0.879545 0.049409
0.852689 0.879576 0.055726
0.884947 0.879667 0.059358
0.917357 0.879820 0.063966
0.949584 0.879698 0.066804
0.980285 0.878080 0.070832
1.000000 0.876341 0.075868
1.000000 0.874510 0.080201
0.200015 0.912810 0.023285
0.203738 0.912718 0.022889
0.209018 0.912718 0.024567
0.219913 0.912871 0.026062
0.235966 0.913085 0.027497
0.255741 0.913298 0.029358
0.278264 0.913451 0.031983
0.302892 0.913512 0.032258
0.329290 0.913420 0.032410
0.357000 0.913237 0.034302
0.385473 0.913054 0.033448
0.414710 0.912810 0.032959
0.444495 0.912627 0.034577
0.474769 0.912535 0.035859
0.505425 0.912566 0.037690
0.536461 0.912688 0.044404
