其他预设/【232】美食博客调色预设124款/1.3D LUT预设（视频调色-PR-AE-PS-FCPX-达芬奇用）/Food Art #3 ().cube
# Created by Adobe Lightroom plugin Export LUT (1.17.0)
# www.johnrellis.com/lightroom/exportlut.htm
# Preset: Food Art #3 (素锦印象)
# Color profile: /Library/Application Support/Adobe/Color/Profiles/Recommended/AdobeRGB1998.icc
LUT_3D_SIZE 5
DOMAIN_MIN 0.000000 0.000000 0.000000
DOMAIN_MAX 0.903226 0.903226 0.903226
0.000000 0.000000 0.000000
0.229068 0.000000 0.000000
0.457404 0.000000 0.000000
0.689326 0.000000 0.000000
0.915190 0.006836 0.060487
0.000000 0.234440 0.000000
0.223270 0.232578 0.000000
0.454932 0.228458 0.000000
0.687404 0.231205 0.015503
0.914458 0.234562 0.063966
0.000000 0.470710 0.000000
0.208225 0.470832 0.000000
0.453315 0.471382 0.012818
0.682185 0.467506 0.054261
0.911162 0.467018 0.064240
0.000000 0.700679 0.035096
0.180148 0.700496 0.039155
0.437537 0.699702 0.043488
0.672694 0.698482 0.047944
0.907286 0.700252 0.038422
0.000000 0.924529 0.010163
0.137087 0.924376 0.011627
0.420935 0.923613 0.016083
0.659693 0.923125 0.035462
0.890715 0.922240 0.066072
0.000000 0.000000 0.242130
0.227085 0.000000 0.241764
0.455207 0.010986 0.243961
0.687343 0.000000 0.240665
0.914183 0.000000 0.240146
0.000000 0.232364 0.240787
0.220249 0.231540 0.240452
0.454170 0.228550 0.240299
0.685908 0.226444 0.240024
0.913359 0.227970 0.239719
0.000000 0.469306 0.245853
0.200076 0.470253 0.240482
0.450477 0.470344 0.237247
0.681361 0.465187 0.237980
0.910826 0.464302 0.238285
0.000000 0.699855 0.246921
0.163119 0.700374 0.235782
0.433539 0.699519 0.235996
0.671656 0.698177 0.236881
0.907103 0.699489 0.237552
0.000000 0.924559 0.230777
0.138491 0.924102 0.237675
0.422187 0.923705 0.239292
0.660731 0.923033 0.242802
0.891173 0.922179 0.250370
0.000000 0.000000 0.490547
0.221469 0.000000 0.489845
0.459693 0.000000 0.488441
0.684871 0.000000 0.482368
0.912413 0.000000 0.478065
0.000000 0.232670 0.489082
0.211460 0.228946 0.488838
0.455909 0.222599 0.488350
0.683558 0.221256 0.481697
0.911315 0.233951 0.480201
0.000000 0.471015 0.487221
0.185733 0.470130 0.487160
0.446662 0.468910 0.486702
0.678035 0.469551 0.486305
0.907927 0.473152 0.485786
0.000000 0.698573 0.480354
0.162417 0.698421 0.479683
0.438819 0.697200 0.484230
0.671015 0.696834 0.485939
0.904906 0.700679 0.485237
0.000000 0.923796 0.470710
0.126192 0.923613 0.471290
0.439429 0.921874 0.483314
0.668330 0.921569 0.485481
0.893095 0.921386 0.488014
0.000000 0.000000 0.719570
0.212741 0.000000 0.719081
0.448188 0.000000 0.718044
0.676387 0.000000 0.716579
0.909392 0.000000 0.716976
0.000000 0.226505 0.718502
0.203616 0.225620 0.718257
0.443671 0.222782 0.717372
0.674586 0.223423 0.715938
0.908446 0.232731 0.716915
0.000000 0.459358 0.716365
0.186404 0.459785 0.716091
0.445655 0.466773 0.714961
0.671962 0.467720 0.714199
0.907256 0.463966 0.713741
0.000000 0.691829 0.714046
0.174533 0.691737 0.713802
0.436957 0.692348 0.713436
0.672511 0.694759 0.712917
0.904448 0.699763 0.712612
0.000000 0.922667 0.710872
0.141329 0.922515 0.710597
0.423774 0.922484 0.707424
0.673365 0.920928 0.707088
0.898039 0.920592 0.715084
0.000000 0.000000 0.935546
0.206241 0.000000 0.935271
0.437476 0.000000 0.934600
0.662470 0.000000 0.933715
0.886809 0.092378 0.932769
0.000000 0.222751 0.934997
0.201358 0.222538 0.934813
0.436042 0.222599 0.934234
0.663081 0.230014 0.933318
0.887083 0.251499 0.932433
0.000000 0.459297 0.933196
0.232944 0.463142 0.932921
0.449531 0.465095 0.932494
0.668635 0.467018 0.931975
0.888975 0.470893 0.931670
0.000000 0.682216 0.931487
0.219974 0.683314 0.931365
0.450233 0.686061 0.931060
0.679591 0.694057 0.930419
0.894499 0.697810 0.930724
0.000000 0.910124 0.930297
0.189853 0.910613 0.930297
0.441016 0.912413 0.930266
0.677302 0.915892 0.930327
0.909361 0.921752 0.931273
