其他预设/【232】美食博客调色预设124款/1.3D LUT预设（视频调色-PR-AE-PS-FCPX-达芬奇用）/Food Art #4 ().cube
# Created by Adobe Lightroom plugin Export LUT (1.17.0)
# www.johnrellis.com/lightroom/exportlut.htm
# Preset: Food Art #4 (素锦印象)
# Color profile: /Library/Application Support/Adobe/Color/Profiles/Recommended/AdobeRGB1998.icc
LUT_3D_SIZE 32
0.000000 0.000000 0.000000
0.001343 0.000000 0.000000
0.046143 0.000000 0.000000
0.093446 0.000000 0.000000
0.151003 0.000000 0.000000
0.212802 0.000000 0.000000
0.273350 0.000000 0.000000
0.332280 0.000000 0.000000
0.390784 0.000000 0.000000
0.448524 0.000000 0.000000
0.505638 0.000000 0.000000
0.560479 0.000000 0.000000
0.612665 0.000000 0.000000
0.661952 0.000000 0.000000
0.707912 0.000000 0.000000
0.750637 0.000000 0.000000
0.789975 0.000000 0.000000
0.825650 0.000000 0.000000
0.857450 0.000000 0.000000
0.886320 0.000000 0.000000
0.913024 0.000000 0.000000
0.938170 0.000000 0.000000
0.962127 0.000000 0.000000
0.984741 0.022217 0.029969
1.000000 0.074067 0.076692
1.000000 0.099336 0.101900
1.000000 0.120790 0.122225
1.000000 0.139651 0.140658
1.000000 0.156374 0.157595
1.000000 0.172122 0.173068
1.000000 0.186587 0.187533
1.000000 0.200107 0.200870
0.000000 0.007202 0.000000
0.007691 0.011658 0.000000
0.050324 0.011505 0.000000
0.095338 0.015839 0.000000
0.153384 0.021637 0.000000
0.215396 0.025696 0.000000
0.276799 0.025971 0.000000
0.336217 0.016419 0.000000
0.395087 0.000000 0.000000
0.453468 0.000000 0.000000
0.510887 0.000000 0.000000
0.566033 0.000000 0.000000
0.618402 0.000000 0.000000
0.667659 0.000000 0.000000
0.713619 0.000000 0.000000
0.756191 0.000000 0.000000
0.795254 0.000000 0.000000
0.830686 0.000000 0.000000
0.862058 0.000000 0.000000
0.890562 0.000000 0.000000
0.916899 0.000000 0.000000
0.941680 0.000000 0.000000
0.965270 0.031312 0.000000
0.987518 0.073610 0.047333
1.000000 0.096681 0.082918
1.000000 0.116823 0.106722
1.000000 0.134463 0.126650
1.000000 0.151766 0.145418
1.000000 0.166995 0.161685
1.000000 0.181552 0.177157
1.000000 0.195071 0.191165
1.000000 0.208042 0.204685
0.000000 0.053223 0.000000
0.010559 0.055390 0.000000
0.053376 0.056031 0.000000
0.097841 0.062776 0.000000
0.156374 0.072633 0.000000
0.218875 0.080354 0.000000
0.280217 0.082460 0.000000
0.339910 0.081880 0.000000
0.399115 0.079408 0.000000
0.457527 0.073671 0.000000
0.514946 0.066407 0.000000
0.570001 0.054871 0.000000
0.622339 0.024537 0.000000
0.671321 0.000610 0.000000
0.716976 0.000000 0.000000
0.759518 0.000000 0.000000
0.798459 0.000000 0.000000
0.833616 0.000000 0.000000
0.864714 0.000000 0.000000
0.892882 0.004028 0.000000
0.918944 0.036927 0.000000
0.943481 0.065736 0.000000
0.966827 0.084016 0.000000
0.988891 0.100496 0.055543
1.000000 0.117647 0.086854
1.000000 0.133516 0.110018
1.000000 0.148775 0.129915
1.000000 0.163760 0.148135
1.000000 0.177554 0.164279
1.000000 0.191073 0.179629
1.000000 0.203525 0.193698
1.000000 0.215854 0.207248
0.000000 0.100923 0.000000
0.016358 0.101472 0.000000
0.064881 0.102327 0.000000
0.104677 0.105013 0.000000
0.159915 0.116640 0.000000
0.222019 0.127413 0.000000
0.283177 0.132784 0.000000
0.343145 0.135348 0.000000
0.402564 0.135958 0.000000
0.461402 0.134585 0.000000
0.519036 0.132326 0.000000
0.574304 0.128542 0.000000
0.626551 0.124331 0.000000
0.675471 0.119509 0.000000
0.721126 0.114107 0.000000
0.763333 0.110323 0.000000
0.802090 0.107820 0.000000
0.837095 0.107393 0.000000
0.868101 0.108400 0.000000
0.896208 0.111757 0.000000
0.922240 0.116548 0.000000
0.946471 0.122683 0.000000
0.969329 0.131350 0.002197
0.990753 0.140352 0.066011
1.000000 0.150515 0.092195
1.000000 0.161471 0.114015
1.000000 0.172396 0.132662
1.000000 0.184329 0.150484
1.000000 0.195712 0.166567
1.000000 0.206943 0.181552
1.000000 0.218235 0.195987
1.000000 0.229465 0.209873
0.000000 0.164279 0.000000
0.019989 0.164614 0.000000
0.075441 0.165560 0.000000
0.121462 0.167544 0.000000
0.170352 0.170352 0.000000
0.228397 0.179538 0.000000
0.289982 0.187259 0.000000
0.350256 0.191562 0.000000
0.410071 0.193576 0.000000
0.468971 0.194308 0.000000
0.526543 0.193545 0.000000
0.581598 0.191379 0.000000
0.633417 0.188205 0.000000
0.681575 0.184695 0.000000
0.726162 0.180850 0.000000
0.767300 0.177279 0.000000
0.805051 0.173983 0.000000
0.839231 0.171878 0.000000
0.869749 0.170382 0.000000
0.897704 0.170260 0.000000
0.923613 0.171328 0.000000
0.947845 0.173983 0.000000
0.970550 0.177829 0.022370
0.991791 0.182986 0.074098
1.000000 0.189120 0.098665
1.000000 0.196139 0.119387
1.000000 0.204074 0.137819
1.000000 0.212314 0.154879
1.000000 0.221378 0.170809
1.000000 0.230533 0.186038
1.000000 0.239689 0.200198
1.000000 0.249058 0.214054
0.000000 0.229068 0.000000
0.003021 0.229160 0.000000
0.076295 0.229923 0.000000
0.129427 0.231327 0.000000
0.182498 0.233402 0.000000
0.235660 0.235630 0.000000
0.293584 0.241398 0.000000
0.354040 0.247044 0.000000
0.413794 0.250034 0.000000
0.472847 0.251621 0.000000
0.530388 0.252018 0.000000
0.585260 0.250492 0.000000
0.636652 0.247959 0.000000
0.684565 0.244358 0.000000
0.728664 0.240513 0.000000
0.769314 0.236210 0.000000
0.806516 0.232364 0.000000
0.840146 0.228916 0.000000
0.870207 0.225742 0.000000
0.897826 0.223514 0.000000
0.923400 0.222263 0.000000
0.947356 0.221836 0.000000
0.951385 0.211093 0.000000
0.974609 0.212985 0.022278
0.996551 0.215824 0.073640
1.000000 0.219669 0.098024
1.000000 0.224826 0.118807
1.000000 0.230472 0.137819
1.000000 0.236820 0.154879
1.000000 0.243656 0.170809
1.000000 0.250889 0.186038
1.000000 0.258762 0.200809
0.000000 0.280125 0.000000
0.000000 0.280369 0.000000
0.066651 0.280919 0.000000
0.125551 0.281895 0.000000
0.180270 0.283421 0.000000
0.233738 0.285161 0.000000
0.287205 0.287236 0.000000
0.343328 0.291173 0.000000
0.402045 0.295781 0.000000
0.460060 0.298558 0.000000
0.516472 0.299840 0.000000
0.570855 0.299413 0.000000
0.622827 0.298009 0.000000
0.671748 0.295293 0.000000
0.717586 0.291875 0.000000
0.759915 0.288182 0.000000
0.798337 0.284092 0.000000
0.833005 0.279606 0.000000
0.863432 0.275273 0.000000
0.890776 0.271031 0.000000
0.915587 0.267552 0.000000
0.938445 0.264225 0.000000
0.959808 0.261845 0.011292
0.980255 0.260410 0.065370
1.000000 0.260197 0.088960
1.000000 0.261234 0.109285
1.000000 0.263706 0.128481
1.000000 0.267247 0.146334
1.000000 0.271275 0.162722
1.000000 0.276249 0.178836
1.000000 0.281529 0.193698
1.000000 0.287602 0.208469
0.000000 0.342412 0.000000
0.000000 0.342779 0.000000
0.045014 0.343420 0.000000
0.123964 0.344305 0.000000
0.183536 0.345769 0.000000
0.240024 0.347448 0.000000
0.295659 0.349310 0.000000
0.351110 0.351232 0.000000
0.407843 0.353765 0.000000
0.465827 0.356573 0.000000
0.522301 0.357794 0.000000
0.576287 0.357183 0.000000
0.627863 0.355413 0.000000
0.676356 0.352239 0.000000
0.721645 0.348333 0.000000
0.763546 0.343755 0.000000
0.801572 0.338628 0.000000
0.835843 0.333135 0.000000
0.865904 0.327489 0.000000
0.893004 0.321904 0.000000
0.917693 0.316808 0.000000
0.940429 0.312108 0.000000
0.961730 0.308263 0.051911
0.982055 0.305241 0.080781
1.000000 0.303197 0.101137
1.000000 0.302831 0.120638
1.000000 0.303288 0.138399
1.000000 0.304814 0.155520
1.000000 0.307164 0.171786
1.000000 0.310185 0.187198
1.000000 0.313878 0.202121
1.000000 0.318181 0.216770
0.000000 0.404303 0.000000
0.000000 0.404547 0.000000
0.000000 0.405127 0.000000
0.118746 0.405829 0.000000
0.183841 0.407263 0.000000
0.242771 0.408759 0.000000
0.300298 0.410590 0.000000
0.356878 0.412177 0.000000
0.413245 0.413306 0.000000
0.469490 0.414527 0.000000
0.525505 0.415290 0.000000
0.579156 0.414160 0.000000
0.630335 0.411872 0.000000
0.678492 0.408148 0.000000
0.723384 0.403571 0.000000
0.765011 0.398230 0.000000
0.802884 0.392065 0.000000
0.836851 0.385565 0.000000
0.866667 0.378454 0.000000
0.893706 0.371557 0.000000
0.918334 0.365179 0.000000
0.941100 0.358984 0.024109
0.962463 0.353613 0.071107
0.982757 0.349279 0.093294
1.000000 0.345983 0.112795
1.000000 0.343725 0.130800
1.000000 0.342809 0.148074
1.000000 0.342748 0.164584
1.000000 0.343420 0.180392
1.000000 0.344854 0.195865
1.000000 0.346960 0.210758
1.000000 0.349767 0.225345
0.000000 0.465705 0.000000
0.000000 0.466102 0.000000
0.000000 0.466621 0.000000
0.113466 0.467445 0.000000
0.182712 0.468757 0.000000
0.244327 0.470253 0.000000
0.303197 0.471717 0.000000
0.361059 0.473060 0.000000
0.418097 0.474098 0.000000
0.474281 0.474434 0.000000
0.529808 0.474311 0.000000
0.583307 0.472572 0.000000
0.633814 0.469215 0.000000
0.680842 0.464271 0.000000
0.724819 0.458350 0.000000
0.765347 0.451514 0.000000
0.802304 0.444068 0.000000
0.835630 0.436011 0.000000
0.865263 0.427771 0.000000
0.892424 0.419715 0.000000
0.917662 0.412299 0.000000
0.941070 0.405341 0.061585
0.963043 0.398993 0.086976
0.983764 0.393652 0.107881
1.000000 0.389105 0.125765
1.000000 0.385687 0.143374
1.000000 0.383154 0.159548
1.000000 0.381506 0.175326
1.000000 0.380468 0.190677
1.000000 0.380102 0.204868
1.000000 0.380529 0.219120
1.000000 0.381537 0.233066
0.000000 0.528038 0.000000
0.000000 0.528222 0.000000
0.000000 0.528557 0.000000
0.107362 0.528893 0.000000
0.181094 0.529412 0.000000
0.244388 0.530144 0.000000
0.304265 0.530724 0.000000
0.362066 0.531182 0.000000
0.419074 0.531365 0.000000
0.475319 0.531365 0.000000
0.530846 0.531029 0.000000
0.585657 0.530175 0.000000
0.635798 0.525963 0.000000
0.682673 0.520073 0.000000
0.726131 0.513085 0.000000
0.766201 0.505150 0.000000
0.802853 0.496407 0.000000
0.835874 0.487282 0.000000
0.865446 0.477699 0.000000
0.892638 0.468360 0.000000
0.917754 0.459602 0.042512
0.941100 0.451301 0.079561
0.962982 0.443854 0.101717
0.983642 0.437171 0.120424
1.000000 0.431464 0.137972
1.000000 0.426734 0.154574
1.000000 0.422950 0.170382
1.000000 0.420020 0.186099
1.000000 0.417762 0.200961
1.000000 0.416083 0.215183
1.000000 0.415106 0.229191
1.000000 0.414923 0.243168
0.000000 0.584649 0.000000
0.000000 0.584741 0.000000
0.000000 0.584863 0.000000
0.101289 0.584924 0.000000
0.178775 0.585168 0.000000
0.242771 0.585260 0.000000
0.302739 0.585351 0.000000
0.360571 0.585138 0.000000
0.417121 0.584619 0.000000
0.472724 0.583795 0.000000
0.527367 0.582757 0.000000
0.581537 0.581659 0.000000
0.610376 0.557519 0.000000
0.657557 0.553094 0.000000
0.701900 0.547265 0.000000
0.743252 0.540368 0.000000
0.781491 0.532647 0.000000
0.816464 0.524224 0.000000
0.848051 0.515099 0.000000
0.877165 0.506096 0.000000
0.904204 0.497292 0.014191
0.929351 0.488991 0.072938
0.953002 0.481209 0.097383
0.975189 0.474189 0.118135
0.996094 0.467872 0.136477
1.000000 0.462409 0.153719
1.000000 0.457710 0.170291
1.000000 0.453834 0.186404
1.000000 0.450629 0.201877
1.000000 0.447913 0.216739
1.000000 0.446021 0.231540
1.000000 0.444526 0.245670
0.000000 0.622980 0.000000
0.000000 0.623224 0.000000
0.000000 0.623896 0.000000
0.094209 0.624933 0.000000
0.172641 0.626307 0.000000
0.236545 0.627680 0.000000
0.296361 0.628443 0.000000
0.353491 0.628473 0.000000
0.408972 0.627588 0.000000
0.462654 0.625757 0.000000
0.514885 0.622889 0.000000
0.565759 0.619318 0.000000
0.615747 0.615869 0.000000
0.665553 0.612818 0.000000
0.707210 0.603540 0.000000
0.746792 0.594415 0.000000
0.784054 0.584955 0.000000
0.818418 0.575036 0.000000
0.849607 0.564660 0.000000
0.878599 0.554467 0.000000
0.905425 0.544579 0.066041
0.930449 0.534997 0.093446
0.953979 0.526299 0.115450
0.976043 0.518120 0.134127
0.996826 0.510735 0.151400
1.000000 0.504173 0.168032
1.000000 0.498451 0.184237
1.000000 0.493446 0.200168
1.000000 0.488930 0.215152
1.000000 0.485084 0.229862
1.000000 0.481758 0.243900
1.000000 0.479103 0.257877
0.000000 0.673091 0.000000
0.000000 0.673091 0.000000
0.000000 0.673671 0.000000
0.095888 0.674464 0.000000
0.172580 0.675410 0.000000
0.236118 0.676417 0.000000
0.294957 0.676875 0.000000
0.351324 0.676661 0.000000
0.406012 0.675532 0.000000
0.459113 0.673487 0.000000
0.510826 0.670527 0.000000
0.561303 0.667018 0.000000
0.610834 0.663355 0.000000
0.660029 0.660090 0.000000
0.709102 0.657465 0.000000
0.749325 0.647700 0.000000
0.786130 0.636835 0.000000
0.819974 0.625635 0.000000
0.850797 0.613825 0.000000
0.879454 0.602411 0.057130
0.906096 0.591272 0.089723
0.930907 0.580621 0.112642
0.954253 0.570672 0.132174
0.976165 0.561425 0.149447
0.996735 0.552941 0.166049
1.000000 0.545281 0.182162
1.000000 0.538323 0.197604
1.000000 0.532158 0.213046
1.000000 0.526665 0.227848
1.000000 0.521630 0.242069
1.000000 0.517266 0.256229
1.000000 0.513390 0.269810
0.000000 0.717098 0.000000
0.000000 0.716976 0.000000
0.000000 0.717372 0.000000
0.103212 0.718105 0.000000
0.174807 0.718990 0.000000
0.235996 0.719844 0.000000
0.293095 0.720089 0.000000
0.348302 0.719661 0.000000
0.401648 0.718441 0.000000
0.453895 0.716304 0.000000
0.504570 0.713344 0.000000
0.554284 0.709804 0.000000
0.603082 0.706172 0.000000
0.651575 0.702876 0.000000
0.699977 0.700038 0.000000
0.748501 0.697932 0.000000
0.786954 0.687617 0.000000
0.820432 0.675105 0.000000
0.851072 0.662226 0.036805
0.879698 0.649653 0.084871
0.906249 0.637446 0.109926
0.931029 0.625757 0.130007
0.954284 0.614801 0.148318
0.976013 0.604456 0.165194
0.996429 0.594812 0.181033
1.000000 0.585962 0.196170
1.000000 0.577752 0.210788
1.000000 0.570275 0.225315
1.000000 0.563287 0.238926
1.000000 0.556847 0.252110
1.000000 0.550988 0.264958
1.000000 0.545647 0.277714
0.000000 0.756405 0.000000
0.000000 0.756130 0.000000
0.000000 0.756161 0.000000
0.113100 0.756283 0.000000
0.177890 0.756435 0.000000
0.235904 0.756466 0.000000
0.290166 0.756069 0.000000
0.343114 0.755215 0.000000
0.395056 0.753780 0.000000
0.445747 0.751919 0.000000
0.495766 0.749599 0.000000
0.545037 0.747097 0.000000
0.593530 0.744442 0.000000
0.641840 0.741909 0.000000
0.689723 0.739528 0.000000
0.737392 0.737453 0.000000
0.784512 0.735286 0.000000
0.820676 0.724178 0.010132
0.850919 0.709804 0.078584
0.878996 0.695857 0.106264
0.905180 0.682368 0.127108
0.929686 0.669398 0.145907
0.952697 0.657313 0.162814
0.974334 0.645869 0.178225
0.994598 0.635157 0.193545
1.000000 0.625238 0.208194
1.000000 0.615900 0.222263
1.000000 0.607385 0.236027
1.000000 0.599481 0.249790
1.000000 0.592035 0.262699
1.000000 0.585290 0.275944
1.000000 0.579217 0.289220
0.000000 0.792386 0.000000
0.000000 0.792386 0.000000
0.064454 0.792447 0.000000
0.128847 0.792477 0.000000
0.185428 0.792447 0.000000
0.238926 0.792233 0.000000
0.290532 0.791623 0.000000
0.341283 0.790677 0.000000
0.391241 0.789242 0.000000
0.440436 0.787350 0.000000
0.488991 0.785092 0.000000
0.536736 0.782437 0.000000
0.583948 0.779660 0.000000
0.630854 0.776974 0.000000
0.677577 0.774472 0.011292
0.723964 0.772274 0.041688
0.770047 0.770138 0.065827
0.815518 0.767910 0.079744
0.850584 0.757076 0.102480
0.878660 0.742061 0.126528
0.904814 0.727535 0.145937
0.929229 0.713558 0.163088
0.952148 0.700343 0.179294
0.973602 0.687892 0.194461
0.993713 0.676112 0.208835
1.000000 0.665126 0.223056
1.000000 0.654780 0.236667
1.000000 0.645136 0.249973
1.000000 0.636072 0.262974
1.000000 0.627680 0.275822
1.000000 0.619776 0.288060
1.000000 0.612634 0.301152
0.000000 0.823026 0.000000
0.066499 0.822568 0.000000
0.078889 0.809751 0.000000
0.132235 0.809781 0.000000
0.184054 0.809873 0.000000
0.233921 0.809964 0.000000
0.283207 0.809903 0.000000
0.331579 0.809537 0.000000
0.379797 0.808743 0.000000
0.427314 0.807462 0.003662
0.474159 0.805905 0.018616
0.520592 0.804074 0.037354
0.566857 0.802274 0.056306
0.612848 0.800443 0.067445
0.658473 0.798703 0.077821
0.703853 0.797055 0.087587
0.749050 0.795499 0.098726
0.793698 0.793820 0.109194
0.837797 0.791928 0.118715
0.872709 0.782467 0.135775
0.899596 0.767788 0.155734
0.924529 0.753414 0.173281
0.947906 0.739620 0.189120
0.969848 0.726650 0.204654
0.990478 0.714504 0.219974
1.000000 0.703120 0.235050
1.000000 0.692317 0.249454
1.000000 0.682124 0.263340
1.000000 0.672358 0.276493
1.000000 0.663020 0.289281
1.000000 0.654261 0.301701
1.000000 0.646204 0.314672
0.084688 0.848051 0.085115
0.100954 0.846464 0.081849
0.120760 0.844846 0.078553
0.155734 0.843412 0.077455
0.197818 0.842252 0.077180
0.242435 0.841642 0.079896
0.287877 0.841184 0.082765
0.333471 0.840635 0.086976
0.379217 0.839780 0.091493
0.424537 0.838560 0.096040
0.469795 0.837034 0.099641
0.514702 0.835264 0.104585
0.559594 0.833555 0.110201
0.604181 0.831846 0.115816
0.648585 0.830167 0.122499
0.692805 0.828489 0.129976
0.736721 0.826871 0.137667
0.780179 0.825132 0.145876
0.823026 0.823148 0.154757
0.865110 0.820859 0.162203
0.899199 0.811856 0.175143
0.923857 0.796414 0.191562
0.946990 0.781521 0.206607
0.968658 0.767483 0.221439
0.989044 0.754238 0.235966
1.000000 0.741787 0.250156
1.000000 0.730007 0.264073
1.000000 0.718868 0.277714
1.000000 0.708186 0.290745
1.000000 0.697963 0.303227
1.000000 0.688289 0.315526
1.000000 0.679377 0.328496
0.127779 0.875639 0.127932
0.138033 0.874327 0.126375
0.151217 0.873014 0.124117
0.177798 0.871733 0.122866
0.213138 0.870695 0.122744
0.252659 0.870054 0.124269
0.294408 0.869474 0.126986
0.336858 0.868864 0.129427
0.379828 0.867979 0.132387
0.423102 0.866789 0.135225
0.466377 0.865293 0.138857
0.509514 0.863645 0.142489
0.552789 0.861967 0.146700
0.595911 0.860288 0.151919
0.638941 0.858610 0.157321
0.681788 0.856962 0.163516
0.724331 0.855344 0.169955
0.766506 0.853544 0.177523
0.808164 0.851530 0.184634
0.849119 0.849180 0.191897
0.889281 0.846555 0.199069
0.922545 0.838285 0.209140
0.945464 0.822446 0.223819
0.966979 0.807431 0.238071
0.987304 0.793301 0.252079
1.000000 0.779934 0.265995
1.000000 0.767300 0.279698
1.000000 0.755306 0.293156
1.000000 0.743771 0.306126
1.000000 0.732784 0.318578
1.000000 0.722286 0.330816
1.000000 0.712551 0.343969
0.162387 0.900908 0.163088
0.169406 0.899779 0.161166
0.179110 0.898619 0.159304
0.200320 0.897490 0.158206
0.230137 0.896513 0.158297
0.264958 0.895872 0.159396
0.302556 0.895354 0.161227
0.341772 0.894743 0.163912
0.382361 0.893858 0.166506
0.423255 0.892790 0.169467
0.464363 0.891478 0.172122
0.505791 0.889952 0.175448
0.547295 0.888365 0.179171
0.588769 0.886656 0.183597
0.630213 0.884916 0.188479
0.671351 0.883055 0.193576
0.712154 0.880980 0.198978
0.752560 0.878691 0.204349
0.792355 0.876127 0.209720
0.831540 0.873259 0.215244
0.870054 0.870176 0.220615
0.907958 0.866880 0.225803
0.940581 0.859281 0.233799
0.961975 0.843290 0.246799
0.982177 0.828183 0.259770
1.000000 0.814023 0.273014
1.000000 0.800534 0.286046
1.000000 0.787747 0.299046
1.000000 0.775448 0.311345
1.000000 0.763699 0.323583
1.000000 0.752499 0.336217
1.000000 0.742061 0.349523
0.185458 0.920134 0.185763
0.191775 0.919646 0.185183
0.200290 0.919158 0.184512
0.218875 0.918730 0.184665
0.245060 0.918242 0.185550
0.276432 0.917845 0.187076
0.310582 0.917357 0.188998
0.346777 0.916655 0.191165
0.384253 0.915709 0.193118
0.422553 0.914488 0.195193
0.461463 0.913085 0.197879
0.500847 0.911528 0.200473
0.540459 0.909972 0.203799
0.580285 0.908354 0.207767
0.620081 0.906706 0.212284
0.659907 0.904936 0.217197
0.699397 0.903044 0.222385
0.738582 0.900969 0.227512
0.777279 0.898680 0.233005
0.815579 0.896147 0.238346
0.853330 0.893492 0.244053
0.890532 0.890623 0.249638
0.927214 0.887694 0.255863
0.959991 0.881651 0.263890
0.980255 0.865873 0.276799
0.999237 0.850919 0.289677
1.000000 0.836637 0.302373
1.000000 0.822995 0.314916
1.000000 0.809934 0.327276
1.000000 0.797391 0.339452
1.000000 0.785519 0.352270
1.000000 0.774044 0.364782
0.215000 0.941833 0.215305
0.219791 0.941344 0.214542
0.226535 0.940917 0.213901
0.241855 0.940429 0.213962
0.264195 0.939971 0.214725
0.291478 0.939635 0.216159
0.322301 0.939239 0.218021
0.355261 0.938659 0.220066
0.390234 0.937835 0.222293
0.426093 0.936736 0.224582
0.462837 0.935424 0.226932
0.499977 0.933989 0.229618
0.537621 0.932464 0.232578
0.575708 0.930846 0.236240
0.613764 0.929168 0.240238
0.651850 0.927398 0.244480
0.689754 0.925383 0.248966
0.727443 0.923247 0.253574
0.764767 0.920897 0.258671
0.801694 0.918364 0.263462
0.838132 0.915618 0.268376
0.874113 0.912688 0.273381
0.909575 0.909697 0.278477
0.944610 0.906584 0.283848
0.978882 0.903532 0.296178
0.997742 0.887785 0.308812
1.000000 0.872679 0.321386
1.000000 0.858274 0.333654
1.000000 0.844480 0.345953
1.000000 0.831174 0.358221
1.000000 0.818479 0.370794
1.000000 0.805753 0.381628
0.236484 0.959106 0.236759
0.240299 0.958587 0.235935
0.246067 0.958251 0.235569
0.259495 0.957977 0.235843
0.279179 0.957763 0.236790
0.303868 0.957549 0.238560
0.331975 0.957336 0.240879
0.362676 0.957000 0.243320
0.395422 0.956481 0.246159
0.429297 0.955779 0.248997
0.464302 0.954894 0.252293
0.499641 0.953796 0.255344
0.535668 0.952544 0.258824
0.572107 0.951232 0.262760
0.608850 0.949920 0.267338
0.645716 0.948486 0.272465
0.682490 0.946868 0.277653
0.718959 0.944976 0.282719
0.754940 0.942779 0.287388
0.790433 0.940246 0.291691
0.825498 0.937499 0.296208
0.860197 0.934630 0.300603
0.894652 0.931731 0.305730
0.928832 0.928893 0.311345
0.962585 0.926146 0.317723
0.995056 0.922606 0.324743
1.000000 0.906950 0.337530
1.000000 0.891997 0.350347
1.000000 0.877592 0.362921
1.000000 0.863676 0.375677
1.000000 0.850095 0.387579
1.000000 0.836423 0.397436
0.264988 0.978119 0.265202
0.267857 0.977691 0.264225
0.272679 0.977386 0.263828
0.283909 0.977111 0.264225
0.300847 0.976867 0.265202
0.322301 0.976623 0.266728
0.347326 0.976287 0.268681
0.374914 0.975830 0.270939
0.404700 0.975219 0.273350
0.435920 0.974365 0.275914
0.468147 0.973419 0.278477
0.501335 0.972198 0.281132
0.535149 0.970886 0.284184
0.569512 0.969482 0.287541
0.604334 0.968078 0.291691
0.639338 0.966552 0.296025
0.674464 0.964874 0.300908
0.709346 0.963012 0.305486
0.743923 0.960845 0.309972
0.778164 0.958434 0.314153
0.812009 0.955840 0.318273
0.845640 0.953063 0.322667
0.878935 0.950347 0.327306
0.911986 0.947570 0.332464
0.944762 0.944823 0.338415
0.977111 0.942138 0.344823
1.000000 0.939391 0.351476
1.000000 0.924010 0.363836
1.000000 0.908965 0.376440
1.000000 0.894438 0.389197
1.000000 0.879698 0.399298
1.000000 0.865293 0.408759
0.290349 0.994690 0.290623
0.293187 0.994385 0.290105
0.297398 0.994202 0.289921
0.307286 0.994079 0.290654
0.322148 0.993896 0.291844
0.341253 0.993744 0.293584
0.363592 0.993469 0.295628
0.388647 0.993042 0.297948
0.415930 0.992432 0.300328
0.444373 0.991608 0.302647
0.474311 0.990600 0.305028
0.505119 0.989410 0.307439
0.536767 0.988067 0.310124
0.569177 0.986664 0.313420
0.602075 0.985260 0.317174
0.635401 0.983764 0.321447
0.668849 0.982116 0.325994
0.702235 0.980316 0.330632
0.735378 0.978241 0.334813
0.768215 0.975952 0.338903
0.800809 0.973480 0.342901
0.833188 0.970886 0.347143
0.865293 0.968231 0.351751
0.897185 0.965545 0.356725
0.928832 0.962860 0.362127
0.960113 0.960204 0.368353
0.990967 0.957519 0.374975
1.000000 0.954803 0.381872
1.000000 0.940520 0.393988
1.000000 0.924956 0.405280
1.000000 0.909575 0.415045
1.000000 0.894560 0.424720
0.317784 1.000000 0.317937
0.320165 1.000000 0.317632
0.323827 1.000000 0.317601
0.332006 1.000000 0.317906
0.344701 1.000000 0.318700
0.360876 1.000000 0.319738
0.379797 1.000000 0.320439
0.401251 1.000000 0.321172
0.424903 1.000000 0.321813
0.450141 1.000000 0.322423
0.476875 1.000000 0.323033
0.504814 1.000000 0.323796
0.533989 1.000000 0.325017
0.564202 0.999390 0.327001
0.595239 0.997772 0.329808
0.626856 0.996246 0.333349
0.658930 0.994629 0.337530
0.690974 0.992889 0.341772
0.722957 0.990906 0.346044
0.754665 0.988739 0.349950
0.786221 0.986450 0.353918
0.817655 0.984009 0.358099
0.848875 0.981537 0.362615
0.879911 0.979034 0.367590
0.910704 0.976501 0.373327
0.941161 0.973938 0.379431
0.971283 0.971374 0.385840
1.000000 0.968780 0.392767
1.000000 0.965850 0.398749
1.000000 0.952148 0.407813
1.000000 0.936278 0.417792
1.000000 0.920714 0.427558
0.334051 1.000000 0.334234
0.336309 1.000000 0.334081
0.339849 1.000000 0.334417
0.347509 1.000000 0.335058
0.359197 1.000000 0.336248
0.374212 1.000000 0.337652
0.391943 1.000000 0.339178
0.411902 1.000000 0.340520
0.434089 1.000000 0.341894
0.458106 1.000000 0.343633
0.483467 1.000000 0.345159
0.510063 1.000000 0.347021
0.537774 1.000000 0.349096
0.566491 1.000000 0.351812
0.595880 1.000000 0.354925
