其他预设/【232】美食博客调色预设124款/1.3D LUT预设（视频调色-PR-AE-PS-FCPX-达芬奇用）/Food Art #25.cube
# Created by Adobe Lightroom plugin Export LUT (1.17.0)
# www.johnrellis.com/lightroom/exportlut.htm
# Preset: Food Art #25
# Color profile: /Library/Application Support/Adobe/Color/Profiles/Recommended/AdobeRGB1998.icc
LUT_3D_SIZE 5
DOMAIN_MIN 0.000000 0.000000 0.000000
DOMAIN_MAX 0.903226 0.903226 0.903226
0.158175 0.104372 0.168734
0.375952 0.084749 0.206241
0.594903 0.111055 0.277348
0.781582 0.208835 0.361975
0.931334 0.327062 0.445624
0.232364 0.293278 0.241337
0.396277 0.288060 0.264500
0.599298 0.275517 0.315862
0.781827 0.313878 0.381750
0.932006 0.394934 0.459205
0.355444 0.512230 0.358160
0.438849 0.512963 0.366857
0.625727 0.526360 0.396490
0.787198 0.524010 0.432959
0.927794 0.555810 0.493965
0.463478 0.722499 0.446509
0.511833 0.723079 0.451179
0.638941 0.725216 0.466896
0.790524 0.731746 0.493385
0.925597 0.741115 0.548791
0.601312 0.891081 0.549340
0.626612 0.890898 0.553063
0.701778 0.889281 0.564508
0.811002 0.892943 0.591241
0.925566 0.899565 0.629084
0.167300 0.101808 0.363622
0.367742 0.109010 0.378912
0.585931 0.174929 0.404547
0.770962 0.250004 0.444373
0.923919 0.353002 0.494484
0.255711 0.284916 0.390936
0.393683 0.284794 0.399542
0.592920 0.295842 0.421210
0.772732 0.334264 0.453712
0.923766 0.411933 0.502892
0.368933 0.508110 0.433570
0.450019 0.508629 0.442481
0.618860 0.518181 0.458045
0.779599 0.525017 0.482765
0.923400 0.565972 0.531243
0.476478 0.719570 0.489815
0.525933 0.719905 0.496651
0.644800 0.722530 0.508476
0.789609 0.729824 0.529839
0.923186 0.743984 0.577050
0.615137 0.888853 0.576501
0.638697 0.888792 0.579706
0.712490 0.889982 0.592279
0.815518 0.893156 0.614923
0.926268 0.900053 0.648768
0.239567 0.116640 0.539971
0.370886 0.133913 0.543877
0.586481 0.183352 0.554711
0.768582 0.266331 0.564477
0.919127 0.388952 0.589807
0.318456 0.279850 0.548669
0.410254 0.284886 0.551232
0.596918 0.302861 0.561120
0.769711 0.353887 0.570184
0.918242 0.450172 0.598169
0.396674 0.504051 0.567010
0.466133 0.506249 0.569177
0.622644 0.517266 0.576715
0.775692 0.541222 0.589929
0.917540 0.589380 0.617121
0.493172 0.714382 0.583673
0.541314 0.713039 0.587579
0.660975 0.715969 0.602533
0.790097 0.727504 0.616327
0.919158 0.749233 0.646265
0.623255 0.885283 0.635187
0.651637 0.885191 0.641382
0.725246 0.886381 0.655177
0.820066 0.890471 0.671199
0.925505 0.898405 0.697047
0.330114 0.144808 0.684779
0.412970 0.159670 0.686213
0.588312 0.205966 0.691707
0.767086 0.279362 0.698848
0.917418 0.400305 0.703212
0.378973 0.284703 0.687770
0.443824 0.289586 0.689021
0.598718 0.312139 0.693263
0.768399 0.361120 0.699550
0.915679 0.455116 0.705898
0.443580 0.491005 0.694789
0.497749 0.496620 0.695552
0.629297 0.515770 0.698238
0.774350 0.541466 0.704189
0.914641 0.590875 0.715999
0.523552 0.706416 0.708156
0.564111 0.706996 0.708461
0.667048 0.712215 0.711513
0.790066 0.724483 0.718837
0.916991 0.748684 0.735073
0.636286 0.882658 0.731838
0.660212 0.882689 0.734310
0.728084 0.884520 0.741360
0.821408 0.889220 0.752560
0.925231 0.898100 0.770993
0.393805 0.181613 0.844205
0.451240 0.195285 0.844480
0.592889 0.241428 0.845884
0.754269 0.318639 0.848417
0.910491 0.420142 0.852262
0.423529 0.294011 0.844297
0.473335 0.301335 0.844602
0.603632 0.330755 0.845945
0.758328 0.388495 0.848203
0.910185 0.470710 0.852293
0.487098 0.494820 0.845640
0.527245 0.500664 0.845365
0.634668 0.518303 0.846281
0.770504 0.550317 0.848783
0.910491 0.597284 0.854276
0.568078 0.700923 0.851286
0.596399 0.703334 0.851133
0.676020 0.709865 0.851316
0.787594 0.722774 0.853361
0.913817 0.750454 0.861418
0.655848 0.879911 0.863371
0.674403 0.880461 0.863706
0.733272 0.883055 0.865476
0.820981 0.888396 0.869444
0.923339 0.898772 0.878386
