其他预设/【232】美食博客调色预设124款/1.3D LUT预设（视频调色-PR-AE-PS-FCPX-达芬奇用）/Food Art #81.cube
# Created by Adobe Lightroom plugin Export LUT (1.17.0)
# www.johnrellis.com/lightroom/exportlut.htm
# Preset: Food Art #81
# Color profile: /Library/Application Support/Adobe/Color/Profiles/Recommended/AdobeRGB1998.icc
LUT_3D_SIZE 32
0.231632 0.240604 0.102296
0.231632 0.240604 0.102296
0.231632 0.240604 0.102296
0.232700 0.240635 0.102235
0.237858 0.240543 0.101869
0.245518 0.240574 0.101320
0.255924 0.240421 0.100526
0.267247 0.240299 0.099641
0.279515 0.240635 0.098695
0.292851 0.241398 0.099001
0.307622 0.242344 0.099275
0.324132 0.243412 0.099763
0.342596 0.244846 0.100282
0.363165 0.246494 0.101320
0.386419 0.248631 0.102449
0.412634 0.250950 0.104067
0.442451 0.253300 0.105959
0.475868 0.255650 0.107118
0.512871 0.257725 0.107973
0.557794 0.259525 0.108644
0.605341 0.261021 0.108675
0.654078 0.261997 0.108522
0.701961 0.262669 0.108797
0.746212 0.263493 0.110109
0.786496 0.264347 0.113375
0.822873 0.265934 0.118196
0.855619 0.268254 0.125734
0.885130 0.271977 0.135500
0.911833 0.276982 0.148348
0.936034 0.284092 0.164462
0.957946 0.293706 0.184512
0.977569 0.306859 0.208957
0.231632 0.240604 0.102296
0.231632 0.240604 0.102296
0.231632 0.240604 0.102296
0.233005 0.240848 0.102144
0.238163 0.241306 0.101686
0.245884 0.241520 0.101076
0.256260 0.241550 0.100252
0.267338 0.241672 0.099306
0.279484 0.242008 0.098878
0.292851 0.242771 0.098909
0.307561 0.243717 0.099214
0.323919 0.244816 0.099702
0.342229 0.246281 0.100252
0.362707 0.247959 0.101503
0.385870 0.250004 0.102663
0.411902 0.252384 0.104280
0.441505 0.254887 0.105928
0.474800 0.257145 0.107393
0.511620 0.259281 0.108248
0.556085 0.261479 0.108492
0.602991 0.263096 0.108675
0.651301 0.264012 0.108675
0.699123 0.264836 0.108766
0.743557 0.265507 0.110109
0.784085 0.266361 0.113130
0.820676 0.268193 0.117678
0.853788 0.270359 0.124849
0.883574 0.273838 0.135042
0.910521 0.278721 0.147738
0.934997 0.285618 0.163638
0.957031 0.295140 0.183536
0.976776 0.307897 0.207950
0.231632 0.240604 0.102296
0.231632 0.240604 0.102296
0.231632 0.240604 0.102296
0.233463 0.241520 0.101961
0.238682 0.242252 0.101442
0.246525 0.242771 0.100710
0.256535 0.243168 0.099855
0.267613 0.243168 0.098909
0.279667 0.243870 0.098909
0.292851 0.244663 0.098970
0.307561 0.245518 0.099275
0.323919 0.246708 0.099733
0.342168 0.248173 0.100526
0.362615 0.249912 0.101778
0.385657 0.252171 0.102876
0.411719 0.254490 0.104494
0.441169 0.257023 0.106386
0.474311 0.259495 0.107607
0.511192 0.261784 0.108400
0.555383 0.263920 0.108919
0.602106 0.265446 0.108949
0.650080 0.266880 0.108705
0.697932 0.267643 0.108797
0.742306 0.268559 0.109926
0.782925 0.269566 0.112703
0.819669 0.271092 0.117494
0.852842 0.273259 0.124666
0.882780 0.276707 0.135012
0.909911 0.281437 0.147555
0.934417 0.288182 0.163760
0.956542 0.297398 0.183413
0.976349 0.310094 0.207950
0.231540 0.242832 0.101808
0.231937 0.243046 0.101717
0.232639 0.243381 0.101595
0.234714 0.243961 0.101320
0.239811 0.245243 0.100649
0.247684 0.246128 0.099855
0.257603 0.246769 0.098878
0.268437 0.247257 0.098848
0.280278 0.247868 0.098848
0.293492 0.248539 0.099184
0.308019 0.249607 0.099458
0.324315 0.250767 0.100160
0.342443 0.252415 0.100893
0.362890 0.254276 0.102113
0.385809 0.256504 0.103456
0.411719 0.259068 0.105226
0.441260 0.261784 0.106844
0.474220 0.264500 0.108186
0.511559 0.266819 0.108919
0.554864 0.269230 0.109285
0.600702 0.271214 0.109163
0.648249 0.272740 0.109010
0.695979 0.273930 0.109071
0.740780 0.274968 0.110079
0.781857 0.276036 0.112947
0.819150 0.277531 0.117800
0.852628 0.279698 0.125216
0.882780 0.283146 0.135286
0.909880 0.287694 0.148440
0.934325 0.294255 0.164279
0.956329 0.303044 0.184268
0.976043 0.315099 0.208621
0.230900 0.249210 0.100343
0.231754 0.249424 0.100221
0.233097 0.249760 0.100038
0.236027 0.250370 0.099672
0.241337 0.251316 0.099062
0.249363 0.252445 0.098878
0.258976 0.253117 0.098665
0.269535 0.253605 0.098634
0.281163 0.254185 0.098939
0.294163 0.254948 0.099245
0.308721 0.255772 0.099794
0.324865 0.257176 0.100679
0.342931 0.258854 0.101625
0.363378 0.260929 0.103029
0.386236 0.263340 0.104524
0.412299 0.266178 0.106142
0.441871 0.269017 0.108125
0.475105 0.271794 0.109163
0.513146 0.274693 0.109590
0.556023 0.277470 0.109895
0.601190 0.279850 0.109773
0.648310 0.281682 0.109621
0.695674 0.283238 0.109651
0.740383 0.284520 0.110597
0.781399 0.285771 0.113436
0.818723 0.287327 0.118624
0.852232 0.289708 0.125917
0.882322 0.292668 0.135988
0.909422 0.297154 0.149050
0.933837 0.303197 0.165286
0.955871 0.311528 0.185275
0.975555 0.323156 0.210117
0.230137 0.259068 0.098146
0.231418 0.259220 0.097993
0.233066 0.259495 0.098299
0.236820 0.260044 0.098146
0.242924 0.260868 0.098207
0.251164 0.261845 0.098268
0.260960 0.262425 0.098299
0.271214 0.262455 0.098665
0.282689 0.262669 0.099306
0.295537 0.263340 0.099886
0.309911 0.264408 0.100374
0.326116 0.265721 0.101472
0.344152 0.267491 0.102846
0.364538 0.269718 0.104402
0.387518 0.272374 0.105989
0.413703 0.275273 0.107973
0.443397 0.278477 0.109285
0.476570 0.281651 0.110201
0.515801 0.285130 0.110658
0.558312 0.288334 0.110628
0.603326 0.291325 0.110536
0.650477 0.293736 0.109926
0.716091 0.297887 0.111055
0.758755 0.299290 0.113344
0.797543 0.300908 0.116884
0.832273 0.302586 0.123079
0.863401 0.304631 0.131807
0.891417 0.307744 0.142794
0.916747 0.312108 0.156771
0.939757 0.318120 0.173831
0.960479 0.326482 0.194797
0.979004 0.338018 0.220340
0.230533 0.271061 0.097383
0.231785 0.271214 0.097475
0.233707 0.271336 0.097566
0.237736 0.271824 0.097627
0.244053 0.272435 0.097719
0.252354 0.273167 0.098329
0.262852 0.274174 0.098421
0.274144 0.274388 0.098878
0.285618 0.274235 0.099611
0.298466 0.274601 0.100710
0.312963 0.275486 0.101930
0.329259 0.276921 0.103182
0.347631 0.278935 0.104829
0.368231 0.281346 0.106661
0.391485 0.284184 0.108278
0.417792 0.287297 0.109865
0.447700 0.290623 0.111025
0.482856 0.294530 0.111513
0.522667 0.298528 0.112032
0.565972 0.302342 0.111971
0.612299 0.306065 0.111421
0.661128 0.309392 0.111086
0.709560 0.312139 0.111513
0.754330 0.314305 0.113161
0.794797 0.316167 0.117617
0.830533 0.317876 0.123903
0.862089 0.319982 0.132601
0.890318 0.322728 0.144350
0.915770 0.326635 0.158297
0.938750 0.332097 0.175601
0.959533 0.339635 0.196506
0.978088 0.350469 0.222324
0.231113 0.283330 0.097566
0.232486 0.283452 0.097444
0.234409 0.283574 0.097505
0.238468 0.283879 0.097627
0.244724 0.284367 0.097993
0.252934 0.285100 0.098360
0.263096 0.285924 0.099275
0.274937 0.286870 0.100191
0.287602 0.287266 0.101076
0.300572 0.287266 0.102022
0.315007 0.288029 0.103700
0.331121 0.289525 0.105806
0.349279 0.291600 0.107607
0.370001 0.294133 0.109285
0.393286 0.297063 0.110994
0.419776 0.300389 0.111971
0.450446 0.304326 0.113191
0.486152 0.308782 0.113558
0.525353 0.313268 0.113497
0.567926 0.317754 0.113069
0.613550 0.321965 0.112856
0.661738 0.325750 0.112001
0.709499 0.329229 0.112551
0.753780 0.331731 0.114351
0.793912 0.333654 0.118624
0.829587 0.335546 0.125338
0.861082 0.337346 0.134340
0.889311 0.339727 0.146120
0.914824 0.343359 0.160311
0.937835 0.348089 0.178073
0.958618 0.355138 0.199557
0.977173 0.365179 0.225803
0.232395 0.296696 0.098207
0.233768 0.296788 0.098329
0.235630 0.296910 0.098634
0.239658 0.297124 0.099031
0.245792 0.297612 0.099397
0.254063 0.298222 0.099794
0.263920 0.298955 0.100679
0.275700 0.299840 0.101564
0.288823 0.300999 0.103395
0.302983 0.301854 0.104860
0.317632 0.302495 0.106020
0.333867 0.303868 0.108248
0.352087 0.305913 0.110414
0.372686 0.308537 0.112367
0.396033 0.311681 0.113924
0.423224 0.315526 0.114748
0.455024 0.320287 0.115236
0.490455 0.325200 0.115602
0.529107 0.330175 0.115358
0.571099 0.335088 0.114748
0.616358 0.339849 0.114107
0.663783 0.344366 0.113313
0.710811 0.348150 0.113802
0.754482 0.351232 0.115908
0.794095 0.353277 0.120333
0.829374 0.355169 0.127199
0.860807 0.356695 0.136629
0.888884 0.358770 0.148714
0.914214 0.361730 0.163577
0.937163 0.366155 0.181460
0.957855 0.372503 0.203403
0.976349 0.381811 0.229892
0.234348 0.311284 0.100130
0.235691 0.311467 0.100221
0.237552 0.311528 0.100313
0.241550 0.311772 0.100649
0.247623 0.312169 0.101289
0.255772 0.312749 0.102144
0.265629 0.313359 0.103273
0.277195 0.314366 0.104555
0.290166 0.315435 0.106081
0.304692 0.316777 0.107973
0.320165 0.318151 0.110109
0.336797 0.319554 0.111116
0.355230 0.321538 0.113130
0.375952 0.324346 0.114900
0.400305 0.328313 0.116579
0.428443 0.333013 0.117739
0.460517 0.338231 0.117922
0.496040 0.343664 0.117922
0.534539 0.349035 0.117403
0.576043 0.354528 0.116579
0.620447 0.359686 0.115816
0.666835 0.364782 0.115084
0.712337 0.368811 0.115297
0.754849 0.371832 0.117769
0.793759 0.374182 0.122347
0.828733 0.375860 0.129549
0.859983 0.377447 0.139254
0.888151 0.379187 0.151736
0.913603 0.381903 0.167208
0.936614 0.385809 0.185641
0.957336 0.391638 0.208408
0.975799 0.400366 0.235904
0.236942 0.327337 0.103120
0.238315 0.327367 0.103243
0.240116 0.327550 0.103548
0.244144 0.327855 0.103853
0.250217 0.328222 0.104646
0.258274 0.328862 0.105440
0.268162 0.329686 0.106447
0.279576 0.330632 0.107912
0.292638 0.331823 0.109316
0.307103 0.333196 0.111116
0.322881 0.334813 0.113222
0.340063 0.336584 0.115236
0.359075 0.339117 0.116091
0.381201 0.342565 0.117189
0.405921 0.346868 0.118990
0.434119 0.351904 0.120058
0.465644 0.357397 0.120638
0.500877 0.363287 0.120394
0.539147 0.369238 0.119387
0.580255 0.375067 0.118502
0.624079 0.380865 0.117891
0.669886 0.386389 0.116976
0.714748 0.390967 0.117372
0.756588 0.394232 0.120180
0.794888 0.396612 0.125277
0.829313 0.398230 0.132723
0.860136 0.399573 0.142947
0.887968 0.401068 0.155734
0.913146 0.403296 0.171664
0.935973 0.406683 0.190707
0.956542 0.411872 0.214267
0.974884 0.420050 0.242954
0.240024 0.345434 0.107027
0.241306 0.345586 0.107118
0.243320 0.345678 0.107393
0.247196 0.345953 0.107454
0.253361 0.346441 0.108186
0.261357 0.347112 0.109133
0.271183 0.347997 0.110079
0.282689 0.349035 0.111421
0.295964 0.350317 0.112673
0.310643 0.351904 0.114290
0.326787 0.353582 0.116030
0.344976 0.356237 0.118135
0.369574 0.363195 0.121065
0.393347 0.367529 0.121340
0.420264 0.372686 0.121553
0.450019 0.378302 0.122347
0.483162 0.384558 0.122713
0.519097 0.390814 0.122652
0.557122 0.396826 0.122225
0.597986 0.402838 0.121126
0.641291 0.408667 0.120363
0.685542 0.414069 0.120180
0.727749 0.418128 0.121401
0.767178 0.420966 0.124849
0.803311 0.422858 0.131106
0.835935 0.424079 0.139559
0.865324 0.424903 0.150484
0.891905 0.425940 0.164218
0.916014 0.427619 0.180850
0.938018 0.430426 0.200839
0.957794 0.435248 0.225284
0.975525 0.442878 0.254978
0.243290 0.367559 0.110719
0.244694 0.367620 0.110811
0.246586 0.367651 0.110903
0.250584 0.367895 0.111391
0.256901 0.368231 0.111696
0.264988 0.368719 0.112428
0.275090 0.369543 0.113497
0.286931 0.370611 0.114321
0.300572 0.372076 0.115602
0.316350 0.374640 0.117067
0.333989 0.377661 0.119112
0.353429 0.380804 0.121187
0.374823 0.384588 0.123049
0.397772 0.388373 0.125521
0.425330 0.394293 0.124880
0.456001 0.400702 0.123995
0.489326 0.407355 0.123995
0.524865 0.413825 0.123690
0.562249 0.419989 0.123476
0.602258 0.426246 0.123384
0.644587 0.432593 0.122988
0.688045 0.438209 0.122744
0.729274 0.442390 0.124483
0.768002 0.445258 0.128634
0.803616 0.447120 0.134554
0.835752 0.448127 0.143709
0.864866 0.448798 0.155123
0.891203 0.449439 0.169711
0.915190 0.450690 0.186648
0.937041 0.453132 0.207584
0.956756 0.457374 0.232761
0.974365 0.464515 0.263676
0.246220 0.390631 0.113619
0.247684 0.390753 0.113710
0.249546 0.390845 0.113954
0.253696 0.391089 0.114015
0.259983 0.391394 0.114504
0.268620 0.392187 0.115267
0.279149 0.393500 0.116060
0.291508 0.395178 0.117159
0.305943 0.397192 0.118288
0.322362 0.399664 0.119417
0.340581 0.402686 0.121035
0.360662 0.406134 0.122988
0.382727 0.409857 0.124453
0.406378 0.413794 0.126223
0.431434 0.417670 0.128542
0.461860 0.424292 0.127260
0.495583 0.431403 0.125368
0.531029 0.438056 0.124422
0.567895 0.444434 0.124544
0.607263 0.450874 0.124453
0.649073 0.457435 0.124605
0.691279 0.463264 0.125948
0.731685 0.467567 0.128359
0.769711 0.470588 0.132540
0.804623 0.472267 0.139590
0.836332 0.472969 0.149416
0.865019 0.473365 0.161593
0.891051 0.473793 0.176150
0.914824 0.474678 0.194522
0.936431 0.476722 0.216068
0.955993 0.480568 0.242466
0.973388 0.487312 0.274662
0.248997 0.418769 0.115816
0.250523 0.418921 0.116060
0.252628 0.419013 0.116304
0.256992 0.419257 0.116518
0.263890 0.419837 0.116640
0.272770 0.420722 0.117281
0.283726 0.421820 0.118044
0.296818 0.423255 0.118898
0.311894 0.425269 0.119905
0.329046 0.427863 0.120974
0.347997 0.430976 0.122164
0.369055 0.434516 0.123629
0.391882 0.438361 0.125154
0.416419 0.442481 0.126772
0.442359 0.446509 0.128573
0.469459 0.450172 0.130098
0.502190 0.456916 0.128634
0.537438 0.463844 0.126467
0.574426 0.470405 0.124788
0.613336 0.476905 0.125246
0.654231 0.483528 0.126192
0.695369 0.489235 0.127749
0.734646 0.493477 0.131441
0.771603 0.496315 0.137697
0.805844 0.497902 0.145632
0.837156 0.498665 0.155795
0.865568 0.498848 0.168826
0.891508 0.499062 0.184756
0.915129 0.499733 0.204013
0.936584 0.501549 0.227390
0.955901 0.505241 0.255558
0.973022 0.511742 0.289799
0.251316 0.450904 0.116884
0.252995 0.451057 0.117311
0.255070 0.451240 0.117311
0.259800 0.451637 0.117617
0.267247 0.452125 0.117708
0.277012 0.453193 0.118196
0.288853 0.454353 0.118807
0.302739 0.456062 0.119600
0.318914 0.458167 0.120546
0.336858 0.460670 0.121279
0.356909 0.463569 0.122499
0.378790 0.466835 0.123598
0.402136 0.470253 0.125063
0.427344 0.473976 0.126162
0.453742 0.477546 0.127718
0.481331 0.481086 0.129397
0.510216 0.484504 0.131014
0.543908 0.490486 0.129976
0.580835 0.497383 0.127962
0.620233 0.504356 0.126375
0.660914 0.511223 0.126986
0.701076 0.516808 0.130129
0.739437 0.520928 0.135164
0.775479 0.523491 0.142214
0.808743 0.524926 0.152102
0.839231 0.525383 0.164157
0.867094 0.525231 0.178225
0.892485 0.525139 0.195254
0.915648 0.525475 0.215793
0.936645 0.526848 0.240146
0.955474 0.530083 0.269322
0.972076 0.536187 0.305425
0.253300 0.485451 0.116976
0.254887 0.485664 0.116976
0.257328 0.485725 0.117189
0.262486 0.486122 0.117464
0.270329 0.486732 0.117647
0.280674 0.487556 0.118318
0.293370 0.488808 0.118593
0.308263 0.490364 0.119295
0.325292 0.492287 0.119722
0.344152 0.494728 0.120668
0.365148 0.497566 0.121859
0.387915 0.500633 0.122805
0.412207 0.503990 0.123812
0.437964 0.507347 0.125399
0.465003 0.510460 0.126864
0.493019 0.513481 0.128328
0.522210 0.516594 0.130373
0.552544 0.519768 0.132296
0.587518 0.525353 0.131594
0.626429 0.532403 0.130037
0.666712 0.539330 0.128969
0.705898 0.544610 0.131624
0.743160 0.548302 0.138338
0.778286 0.550622 0.146914
0.810788 0.551629 0.157809
0.840604 0.551812 0.171633
0.867826 0.551385 0.187839
0.892821 0.551049 0.206210
0.915648 0.551080 0.227970
0.936278 0.552209 0.253910
0.954772 0.555138 0.284672
0.971008 0.560998 0.322606
0.254734 0.522759 0.116213
0.256779 0.522972 0.116182
0.259953 0.531304 0.116060
0.265873 0.531579 0.116304
0.274632 0.532006 0.116487
0.285985 0.532525 0.116976
0.300084 0.533288 0.117494
0.316258 0.534386 0.118013
0.334752 0.535912 0.118624
0.355077 0.537865 0.119875
0.377447 0.540124 0.120638
0.401160 0.542626 0.122103
0.426581 0.545190 0.123323
0.453437 0.547845 0.124666
0.481086 0.550439 0.126223
0.509941 0.552911 0.128115
0.539849 0.555535 0.130037
0.570611 0.557946 0.132113
0.602350 0.560540 0.134798
0.638361 0.565393 0.135225
0.677089 0.571435 0.134859
0.714870 0.575799 0.137270
0.750912 0.578546 0.143008
0.784298 0.580011 0.153567
0.815152 0.580102 0.166110
0.843473 0.579400 0.180880
0.869535 0.578271 0.197757
0.893553 0.577325 0.217929
0.915587 0.576989 0.241581
0.935760 0.577752 0.268986
0.953857 0.580346 0.301518
0.969604 0.585901 0.341314
0.256504 0.563378 0.114900
0.258732 0.564569 0.114931
0.261479 0.565911 0.115023
0.267826 0.567224 0.115084
0.277165 0.568353 0.115389
0.289372 0.569390 0.115938
0.304234 0.570275 0.116487
0.321386 0.571191 0.116945
0.340673 0.572595 0.117861
0.361822 0.574273 0.118685
0.384741 0.576349 0.119936
0.409339 0.578576 0.121279
0.435492 0.580835 0.122621
0.462806 0.583124 0.124117
0.491188 0.585443 0.125917
0.520439 0.587671 0.128054
0.550622 0.589868 0.130282
0.581811 0.592157 0.132876
0.613794 0.594476 0.135775
0.646754 0.596857 0.138766
0.682368 0.600580 0.141421
0.719203 0.604669 0.144625
0.754513 0.607111 0.150149
0.787533 0.608087 0.158968
0.817594 0.607660 0.173007
0.845212 0.606531 0.189517
0.870695 0.604944 0.208347
0.894163 0.603571 0.230045
0.915740 0.602808 0.255222
0.935302 0.603296 0.285344
0.952819 0.605737 0.320378
0.968048 0.610956 0.362188
0.258335 0.602197 0.113527
0.260380 0.603357 0.114137
0.263828 0.604547 0.113802
0.270024 0.605798 0.114260
0.280064 0.606897 0.114717
0.293156 0.607752 0.114809
0.308598 0.608545 0.115541
0.326574 0.609430 0.116304
0.346532 0.610681 0.117311
0.368627 0.612177 0.118441
0.392370 0.614008 0.119783
0.417792 0.616022 0.121218
0.444404 0.617975 0.123079
0.472297 0.619959 0.124880
0.501061 0.621790 0.127260
0.530632 0.623438 0.129641
0.560998 0.625055 0.132479
0.592126 0.626703 0.135653
0.623926 0.628260 0.139406
0.656519 0.630121 0.143374
0.689662 0.631891 0.148104
0.724147 0.634333 0.152987
0.758450 0.636286 0.159854
0.790555 0.636652 0.169589
0.820096 0.635706 0.181979
0.847044 0.633814 0.199039
0.871794 0.631647 0.219455
0.894652 0.629725 0.242893
0.915618 0.628534 0.270024
0.934691 0.628565 0.301579
0.951690 0.630579 0.338750
0.966278 0.635615 0.383490
0.260685 0.641657 0.113436
0.262913 0.642664 0.114076
0.266178 0.643824 0.114107
0.273442 0.644892 0.114321
0.283787 0.645777 0.115053
0.297063 0.646540 0.115969
0.313359 0.647120 0.116670
0.331670 0.647730 0.117494
0.352483 0.648646 0.118959
0.375158 0.649683 0.119966
0.399481 0.650965 0.121462
0.425177 0.652369 0.123842
0.452155 0.653773 0.125795
0.480323 0.655207 0.128573
0.509331 0.656550 0.131502
0.539086 0.657862 0.134676
0.569726 0.659174 0.138521
0.601129 0.660700 0.142397
0.633082 0.662257 0.147463
0.665766 0.663752 0.152560
0.698909 0.665400 0.158724
0.732418 0.666926 0.165896
0.765774 0.668147 0.173617
0.796902 0.667811 0.184939
0.825528 0.666102 0.199161
0.851743 0.663539 0.215702
0.875700 0.660670 0.236484
0.897642 0.658045 0.262486
0.917723 0.656306 0.291661
0.935851 0.655848 0.325841
0.951873 0.657527 0.365881
0.965515 0.662135 0.412360
0.264988 0.682643 0.118257
0.267460 0.683101 0.118746
0.271000 0.683497 0.118837
0.277836 0.683894 0.119478
0.288701 0.684291 0.119966
0.302373 0.684565 0.120699
0.319066 0.684932 0.121828
0.337804 0.685389 0.123354
0.359075 0.686091 0.124941
0.382452 0.686854 0.126650
0.407294 0.687892 0.128939
0.433265 0.688899 0.131746
0.460517 0.689815 0.134737
0.488685 0.690639 0.138003
0.517632 0.691402 0.141390
0.547265 0.692164 0.145632
0.577691 0.692836 0.149844
0.608698 0.693507 0.154910
0.639979 0.694270 0.160708
0.671870 0.695033 0.166720
0.704005 0.695674 0.173648
0.736172 0.696315 0.181460
0.768551 0.696864 0.189670
0.799863 0.696712 0.199924
0.827512 0.694179 0.214725
0.852995 0.691005 0.232334
0.876493 0.687495 0.252842
0.898070 0.684199 0.277562
0.917510 0.681819 0.309239
0.935058 0.680842 0.345220
0.950469 0.681880 0.387030
0.963622 0.685725 0.434607
0.271061 0.716640 0.127932
0.273411 0.717098 0.128389
0.276890 0.717494 0.128450
0.284031 0.717739 0.129244
0.294896 0.717983 0.130159
0.308568 0.718135 0.131197
0.325017 0.718227 0.132509
0.344121 0.718379 0.133669
0.365240 0.718715 0.135775
0.388464 0.719142 0.138155
0.413184 0.719692 0.140597
0.439094 0.720241 0.143984
0.466102 0.720729 0.147311
0.494118 0.721187 0.151308
0.522942 0.721584 0.155367
0.552239 0.721950 0.160159
0.582361 0.722164 0.165347
0.612696 0.722530 0.171328
0.643671 0.722774 0.177798
0.674739 0.723049 0.185275
0.706264 0.723323 0.193057
0.737667 0.723537 0.201785
0.769100 0.723659 0.211612
0.800351 0.723690 0.221988
0.828672 0.721614 0.231296
0.853483 0.717708 0.249760
0.876371 0.713680 0.271702
0.897490 0.709804 0.296818
0.916777 0.706569 0.326329
0.933837 0.704921 0.363745
0.948791 0.705196 0.407019
0.961486 0.708400 0.456336
0.280583 0.749874 0.145144
0.283055 0.750301 0.145693
0.286412 0.750484 0.145998
0.293339 0.750576 0.146609
0.303807 0.750607 0.147646
0.317296 0.750423 0.148409
0.333806 0.750179 0.149538
0.352300 0.749935 0.151522
0.373297 0.749722 0.153292
0.395758 0.749599 0.155947
0.420081 0.749447 0.158541
0.445350 0.749447 0.161898
0.471809 0.749416 0.166018
0.499275 0.749264 0.169924
0.527306 0.748928 0.174441
0.555901 0.748623 0.179355
0.585046 0.748226 0.184939
0.614649 0.747921 0.191287
0.644678 0.747768 0.198428
0.675135 0.747646 0.206363
0.705653 0.747555 0.215427
0.736263 0.747463 0.225254
0.766659 0.747097 0.235752
0.796719 0.746609 0.246738
0.826261 0.745968 0.258213
0.854917 0.744961 0.271183
0.877012 0.740047 0.293706
0.897368 0.735470 0.320073
0.915953 0.731594 0.350713
0.932708 0.728908 0.385870
0.947265 0.728298 0.428656
0.959380 0.730556 0.479530
0.291905 0.776669 0.166262
0.294591 0.776944 0.166506
0.297642 0.777157 0.167300
0.304295 0.777188 0.167971
0.314519 0.777096 0.168765
0.327550 0.776852 0.169955
0.343450 0.776608 0.171328
0.361334 0.776364 0.173129
0.381659 0.776059 0.175448
0.403784 0.775845 0.178347
0.427131 0.775662 0.181704
0.452277 0.775418 0.185336
0.478218 0.775204 0.189944
0.504906 0.774868 0.194705
0.532403 0.774411 0.199832
0.560388 0.773861 0.205570
0.588891 0.773251 0.211856
0.617792 0.772671 0.218784
0.646998 0.772152 0.226719
0.676600 0.771664 0.235386
0.706172 0.771176 0.245365
0.735805 0.770657 0.256199
0.765194 0.770016 0.267247
0.794125 0.769223 0.279515
0.822721 0.768307 0.292271
0.850553 0.767361 0.305699
0.877928 0.766323 0.320073
0.897704 0.761166 0.347509
0.915587 0.756619 0.379461
0.931670 0.753292 0.415320
0.945800 0.751766 0.457008
0.957488 0.752834 0.506493
0.307897 0.801144 0.193301
0.310277 0.801297 0.194003
0.313237 0.801328 0.194278
0.319402 0.801236 0.195132
0.328923 0.801022 0.195651
0.340978 0.800687 0.196811
0.355627 0.800320 0.198581
0.373114 0.799924 0.200259
0.392493 0.799527 0.202792
0.413397 0.799161 0.206149
0.436225 0.798795 0.209537
0.460151 0.798459 0.214084
0.485420 0.798032 0.218540
0.511437 0.797513 0.223972
0.537987 0.796872 0.229679
0.565118 0.796139 0.236088
0.592737 0.795254 0.242832
0.620661 0.794430 0.250584
0.649012 0.793637 0.258946
0.677485 0.792874 0.268620
0.706142 0.792081 0.279301
0.734646 0.791257 0.290837
0.762966 0.790341 0.303014
0.790799 0.789395 0.316228
0.818173 0.788296 0.329778
0.844938 0.787137 0.344457
0.871092 0.785977 0.359716
0.896422 0.784878 0.375647
0.914458 0.780087 0.406500
0.930022 0.775998 0.443030
0.943603 0.773648 0.485237
0.954833 0.773678 0.533837
0.327581 0.822293 0.225376
0.329870 0.822354 0.225711
0.332647 0.822354 0.226047
0.338201 0.822263 0.226963
0.347082 0.822080 0.228000
0.358556 0.821927 0.229648
0.372656 0.821775 0.231724
0.389136 0.821653 0.234714
0.407996 0.821500 0.238682
0.428382 0.821408 0.242863
0.450477 0.821256 0.247807
0.473854 0.821042 0.253300
0.498299 0.820676 0.259434
0.523369 0.820218 0.266087
0.549187 0.819486 0.272679
0.575341 0.818631 0.280125
0.601892 0.817624 0.287785
0.628687 0.816587 0.296391
0.655909 0.815518 0.306004
0.683284 0.814450 0.316503
0.710689 0.813413 0.327947
0.737881 0.812284 0.340703
0.764828 0.811093 0.353796
0.791287 0.809873 0.367926
0.817258 0.808591 0.382422
0.842466 0.807279 0.397528
0.867063 0.805936 0.413519
0.890837 0.804685 0.430152
0.913725 0.803555 0.447425
0.929656 0.799435 0.481453
0.942199 0.796231 0.524041
0.952514 0.795224 0.572229
0.356970 0.842954 0.269139
0.358770 0.842985 0.269810
0.361242 0.842893 0.270176
0.366125 0.842741 0.270939
0.374029 0.842466 0.271763
0.384253 0.842130 0.273503
0.396918 0.841764 0.275517
0.411841 0.841398 0.278172
0.428901 0.841001 0.281682
0.447700 0.840513 0.285649
0.468055 0.839994 0.290471
0.489784 0.839414 0.296269
0.512474 0.838743 0.302251
0.536126 0.837980 0.308812
0.560388 0.837034 0.315770
0.585260 0.836027 0.323888
