其他预设/【232】美食博客调色预设124款/1.3D LUT预设（视频调色-PR-AE-PS-FCPX-达芬奇用）/Food Art #49.cube
# Created by Adobe Lightroom plugin Export LUT (1.17.0)
# www.johnrellis.com/lightroom/exportlut.htm
# Preset: Food Art #49
# Color profile: /Library/Application Support/Adobe/Color/Profiles/Recommended/AdobeRGB1998.icc
LUT_3D_SIZE 8
DOMAIN_MIN 0.000000 0.000000 0.000000
DOMAIN_MAX 0.903226 0.903226 0.903226
0.109163 0.124514 0.155459
0.121004 0.125307 0.156466
0.181399 0.125765 0.158175
0.355657 0.099245 0.156588
0.614160 0.000000 0.148440
0.851225 0.000000 0.142061
0.974670 0.000000 0.173098
1.000000 0.160616 0.250278
0.110018 0.136355 0.157504
0.122377 0.137911 0.158297
0.181704 0.143221 0.159121
0.348089 0.139345 0.157321
0.601251 0.060853 0.148836
0.835538 0.000000 0.140902
0.966430 0.073884 0.168856
1.000000 0.205264 0.246891
0.106020 0.204532 0.160006
0.129732 0.207065 0.160555
0.204318 0.216495 0.162234
0.377844 0.244846 0.158053
0.630488 0.266514 0.145510
0.850431 0.292912 0.141634
0.972320 0.314824 0.190982
1.000000 0.348455 0.281163
0.028138 0.390387 0.153231
0.117739 0.391730 0.153414
0.249577 0.402899 0.154116
0.460609 0.451148 0.151125
0.703090 0.498054 0.140139
0.873899 0.505760 0.158968
0.967559 0.492134 0.224186
0.997192 0.487312 0.318883
0.000000 0.652247 0.126467
0.012024 0.653071 0.127260
0.298131 0.659998 0.130648
0.515129 0.674739 0.138979
0.709316 0.683009 0.157595
0.865721 0.678645 0.191806
0.955108 0.648096 0.267002
0.984588 0.621851 0.374151
0.000000 0.839261 0.167666
0.141085 0.845975 0.177127
0.345373 0.843534 0.187015
0.534997 0.839689 0.205417
0.703243 0.833585 0.233188
0.852354 0.829038 0.275547
0.944823 0.794675 0.351812
0.967498 0.747799 0.463172
0.280217 0.927184 0.310796
0.321721 0.926360 0.316381
0.422797 0.921324 0.323003
0.552331 0.913634 0.341314
0.680354 0.903319 0.367010
0.799100 0.892241 0.408545
0.900328 0.880949 0.463752
0.948180 0.846250 0.552911
0.523339 0.936095 0.502617
0.535424 0.935088 0.504540
0.578637 0.931273 0.515404
0.648157 0.924254 0.540948
0.709255 0.917113 0.546014
0.788388 0.906493 0.590997
0.855619 0.895659 0.647059
0.903624 0.886534 0.699641
0.107515 0.124575 0.167269
0.118715 0.125277 0.168734
0.175692 0.122530 0.174899
0.342168 0.078828 0.177310
0.594842 0.000000 0.176852
0.826566 0.000000 0.179477
0.962371 0.000000 0.205783
1.000000 0.143496 0.271916
0.107637 0.135927 0.170077
0.120302 0.137270 0.171725
0.180514 0.139467 0.175265
0.344915 0.124544 0.178286
0.593072 0.000000 0.177249
0.820523 0.000000 0.178653
0.955718 0.000000 0.202548
1.000000 0.189700 0.267277
0.101198 0.199527 0.181338
0.122011 0.203464 0.179355
0.199496 0.212894 0.182773
0.369512 0.234592 0.182956
0.615076 0.246708 0.179171
0.829282 0.265721 0.182223
0.958221 0.291569 0.217197
1.000000 0.336675 0.294041
0.000000 0.375830 0.186679
0.094057 0.380102 0.181521
0.238193 0.395758 0.183719
0.428870 0.422309 0.187472
0.656153 0.457313 0.183352
0.840146 0.474311 0.193240
0.953918 0.474189 0.240360
0.994598 0.477974 0.326177
0.000000 0.643854 0.174624
0.000000 0.642939 0.175174
0.278050 0.646113 0.178622
0.491402 0.652369 0.186007
0.683619 0.657557 0.198917
0.848569 0.661402 0.224796
0.948302 0.640253 0.288121
0.982696 0.618585 0.385443
0.000000 0.829007 0.210330
0.081758 0.829221 0.212650
0.323857 0.828031 0.220096
0.521263 0.827420 0.237675
0.694942 0.825193 0.264317
0.848081 0.824460 0.306065
0.941344 0.791836 0.375006
0.965972 0.746700 0.474189
0.264591 0.922301 0.326635
0.300908 0.920531 0.326116
0.410071 0.916228 0.334569
0.546777 0.909880 0.356146
0.678340 0.900664 0.384527
0.796994 0.889952 0.422583
0.898314 0.878752 0.469398
0.947814 0.844175 0.550744
0.522362 0.935515 0.510643
0.537224 0.934325 0.515007
0.581384 0.930449 0.526696
0.651057 0.923491 0.552361
0.724178 0.914885 0.580865
0.794339 0.905241 0.614313
0.856535 0.895262 0.657618
0.903532 0.886473 0.703059
0.095705 0.124086 0.226352
0.114504 0.123537 0.229709
0.177646 0.120180 0.239567
0.352880 0.022187 0.274388
0.608850 0.000000 0.288914
0.841825 0.000000 0.295293
0.964904 0.000000 0.329015
1.000000 0.227634 0.386358
0.088380 0.138094 0.233707
0.110231 0.137301 0.236149
0.181399 0.136172 0.243931
0.355413 0.090486 0.270237
0.610437 0.000000 0.280552
0.835203 0.000000 0.292424
0.960479 0.000000 0.325628
1.000000 0.258946 0.384833
0.077089 0.204044 0.250523
0.103883 0.206699 0.253269
0.196170 0.213291 0.259983
0.383368 0.213931 0.269535
0.641535 0.205173 0.284764
0.842130 0.225681 0.303075
0.957916 0.286900 0.337652
0.995972 0.371832 0.400244
0.000000 0.380102 0.290410
0.000000 0.386053 0.288212
0.215335 0.406928 0.282078
0.439155 0.429297 0.293919
0.673274 0.456733 0.304356
0.850156 0.470741 0.323003
0.953704 0.481941 0.364813
0.987213 0.508049 0.433906
0.000000 0.640284 0.320104
0.000000 0.643824 0.315251
0.243961 0.651881 0.303471
0.490028 0.660334 0.314702
0.693385 0.666194 0.329137
0.851957 0.663264 0.352575
0.944213 0.645563 0.402075
0.974395 0.638422 0.481636
0.000000 0.827359 0.343236
0.000000 0.827939 0.342168
0.315892 0.826169 0.344579
0.517113 0.822995 0.356695
0.691310 0.819791 0.376562
0.842985 0.819181 0.409949
0.933959 0.790707 0.468360
0.956939 0.759152 0.559197
0.305180 0.920653 0.422736
0.348241 0.918517 0.429053
0.446967 0.913146 0.438758
0.567010 0.906126 0.452399
0.689082 0.897124 0.474128
0.802152 0.887510 0.509026
0.897246 0.878202 0.557183
0.938964 0.848325 0.631373
0.567864 0.930327 0.576196
0.585473 0.928527 0.583917
0.619532 0.925231 0.590875
0.684047 0.918425 0.617182
0.745968 0.910765 0.639185
0.808103 0.901976 0.668971
0.862394 0.893095 0.706416
0.902190 0.885496 0.744961
0.000000 0.118837 0.366796
0.085023 0.115541 0.372778
0.202701 0.098268 0.383673
0.361913 0.000000 0.399145
0.613672 0.000000 0.445838
0.830228 0.000000 0.467262
0.952972 0.000000 0.470527
0.990265 0.295811 0.507591
0.000000 0.134615 0.381567
0.039765 0.132570 0.384558
0.200809 0.120760 0.391913
0.370459 0.059541 0.405432
0.621851 0.000000 0.447608
0.829129 0.000000 0.463996
0.950500 0.000000 0.470130
0.987915 0.336614 0.514183
0.000000 0.223880 0.396704
0.000000 0.220127 0.399512
0.183902 0.210422 0.406989
0.393530 0.203403 0.421454
0.646540 0.170657 0.454261
0.843473 0.199832 0.471565
0.951232 0.339208 0.503532
0.980377 0.460792 0.548302
0.000000 0.393713 0.428046
0.000000 0.397528 0.430671
0.201633 0.409186 0.439124
0.439033 0.423682 0.452064
0.669215 0.436622 0.464851
0.842557 0.461769 0.483558
0.941985 0.504509 0.516960
0.971405 0.566217 0.571527
0.000000 0.644221 0.480507
0.000000 0.644129 0.478096
0.234379 0.649561 0.475776
0.487617 0.660853 0.483589
0.696681 0.667811 0.498299
0.849699 0.667506 0.519158
0.933349 0.665766 0.556542
0.958373 0.679316 0.611658
0.000000 0.830533 0.501732
0.112947 0.835416 0.506493
0.342565 0.830808 0.508507
0.545556 0.825620 0.526452
0.706294 0.822324 0.542596
0.843473 0.820096 0.565667
0.922271 0.796750 0.606744
0.942321 0.780575 0.667079
0.328710 0.917632 0.532158
0.374121 0.916014 0.538598
0.495125 0.909606 0.562493
0.627131 0.900175 0.598718
0.724575 0.892638 0.614588
0.816495 0.884428 0.636896
0.894987 0.876646 0.666346
0.927153 0.853117 0.717769
0.593439 0.926909 0.637354
0.614374 0.924743 0.646876
0.673060 0.917937 0.675319
0.734707 0.910155 0.705104
0.780819 0.904082 0.719692
0.828336 0.897124 0.739864
0.870390 0.890166 0.766049
0.900542 0.884337 0.793057
0.000000 0.098573 0.561913
0.000000 0.088777 0.566003
0.230838 0.000000 0.572839
0.420447 0.000000 0.585443
0.629053 0.000000 0.610590
0.825132 0.000000 0.632410
0.942535 0.000000 0.617975
0.980682 0.306065 0.611414
0.000000 0.121798 0.570794
0.000000 0.115724 0.575616
0.220096 0.078492 0.581353
0.420203 0.000000 0.589685
0.633021 0.000000 0.613825
0.826902 0.000000 0.632837
0.941741 0.000000 0.619440
0.978363 0.350164 0.616968
0.000000 0.221103 0.587335
0.000000 0.212192 0.590021
0.170748 0.202792 0.593439
0.425757 0.183139 0.607782
0.641749 0.155795 0.620539
0.825101 0.175326 0.630060
0.936126 0.305211 0.624292
0.970123 0.462593 0.635401
0.000000 0.418769 0.610864
0.000000 0.417334 0.612299
0.166659 0.414923 0.619226
0.441199 0.415381 0.628656
0.662226 0.427344 0.637659
0.830686 0.457893 0.642542
0.926604 0.525963 0.651575
0.954009 0.616205 0.682643
0.000000 0.634791 0.636408
0.000000 0.636744 0.637964
0.230625 0.639521 0.641077
0.480781 0.644007 0.646998
0.680781 0.649409 0.653407
0.830716 0.661463 0.663996
0.914824 0.684688 0.684840
0.940520 0.718929 0.717433
0.000000 0.813993 0.647089
0.024140 0.813657 0.647211
0.322240 0.809995 0.646265
0.527214 0.805997 0.652827
0.699001 0.803372 0.669795
0.833341 0.809751 0.692195
0.907012 0.802487 0.722316
0.926970 0.802670 0.756619
0.347356 0.911986 0.650233
0.384649 0.910033 0.652216
0.494667 0.903685 0.662654
0.632807 0.893889 0.687770
0.751644 0.883818 0.722591
0.827298 0.878416 0.737331
0.891173 0.873472 0.754696
0.916472 0.856962 0.783536
0.593652 0.924926 0.692775
0.611353 0.923095 0.697902
0.666621 0.916930 0.716426
0.752071 0.906279 0.756313
0.811673 0.897642 0.786313
0.846036 0.892638 0.797604
0.876982 0.887633 0.812558
0.899260 0.883482 0.828092
0.000000 0.000000 0.762722
0.000000 0.000000 0.763821
0.257664 0.000000 0.764645
0.458442 0.000000 0.773861
0.646387 0.000000 0.783902
0.818357 0.000000 0.791073
0.930480 0.000000 0.761135
0.968078 0.330022 0.719783
0.000000 0.086976 0.759487
0.000000 0.071015 0.760098
0.236271 0.000000 0.762600
0.450324 0.000000 0.771939
0.642023 0.000000 0.780484
0.815793 0.000000 0.788266
0.928588 0.000000 0.760128
0.966125 0.365209 0.721645
0.000000 0.204837 0.774197
0.000000 0.202701 0.774807
0.183139 0.191836 0.777829
0.444434 0.167788 0.782895
0.645380 0.151644 0.786893
0.819303 0.191104 0.791928
0.924926 0.323735 0.762600
0.958129 0.483742 0.734157
0.000000 0.419226 0.787228
0.000000 0.415778 0.786526
0.178012 0.411292 0.788540
0.462074 0.422644 0.795254
0.663661 0.443030 0.799252
0.827817 0.475288 0.801724
0.917205 0.543755 0.774533
0.943450 0.632074 0.761685
0.000000 0.622889 0.789334
0.000000 0.623133 0.789822
0.262486 0.624170 0.791348
0.498238 0.631800 0.793545
0.680568 0.646693 0.794766
0.823301 0.663081 0.797726
0.903166 0.699153 0.786740
0.926543 0.748928 0.793545
0.000000 0.799680 0.794278
0.173434 0.801114 0.796170
0.367712 0.800748 0.796963
0.552636 0.800107 0.798123
0.708186 0.800229 0.799222
0.829557 0.806394 0.805142
0.892973 0.816709 0.814786
0.912383 0.829282 0.827176
0.395514 0.906981 0.777218
0.433204 0.905577 0.778775
0.530663 0.899535 0.781765
0.651484 0.890410 0.788998
0.763546 0.880339 0.802548
0.844816 0.873259 0.822263
0.888762 0.871885 0.829526
0.905943 0.865354 0.841764
0.617884 0.920500 0.767086
0.632929 0.918883 0.769680
0.681941 0.913359 0.779416
0.752987 0.904570 0.798428
0.819028 0.895201 0.822049
0.864225 0.888182 0.843839
0.884337 0.885161 0.851011
0.898070 0.882689 0.858061
0.000000 0.000000 0.878874
0.000000 0.000000 0.879454
0.253696 0.000000 0.880430
0.439918 0.000000 0.881865
0.608423 0.000000 0.882292
0.763455 0.000000 0.882200
0.902922 0.000000 0.881376
0.953613 0.329778 0.821592
0.000000 0.000000 0.879484
0.000000 0.000000 0.879881
0.237186 0.000000 0.880583
0.434394 0.000000 0.881315
0.606867 0.000000 0.881712
0.763058 0.000000 0.881529
0.901854 0.068025 0.880430
0.951934 0.364721 0.821744
0.000000 0.192966 0.881987
0.000000 0.190738 0.882078
0.200381 0.181460 0.882139
0.428168 0.169039 0.882109
0.608423 0.177981 0.881590
0.764920 0.234257 0.880583
0.899870 0.326940 0.878904
0.945251 0.482368 0.824796
0.000000 0.388617 0.882261
0.000000 0.388708 0.881895
0.238651 0.394202 0.881315
0.453437 0.406317 0.880522
0.625849 0.430884 0.879149
0.773007 0.472511 0.877409
0.895567 0.528832 0.875334
0.933776 0.621637 0.831418
0.000000 0.583062 0.878599
0.127962 0.584344 0.878325
0.337713 0.591272 0.877317
0.525200 0.612207 0.875151
0.672694 0.637171 0.872984
0.791348 0.662043 0.871519
0.889555 0.694942 0.870115
0.919219 0.748348 0.843534
0.280400 0.744686 0.874357
0.325872 0.745663 0.874113
0.448188 0.749905 0.873167
0.592279 0.759976 0.871397
0.726284 0.778622 0.868894
0.825345 0.802457 0.866880
0.885863 0.815366 0.867155
0.906432 0.834867 0.859098
0.453468 0.872862 0.870115
0.481117 0.872526 0.869993
0.561517 0.871183 0.869444
0.666072 0.869688 0.868589
0.768704 0.868559 0.867674
0.845212 0.868620 0.867430
0.886503 0.869993 0.868467
0.899840 0.872618 0.871031
0.638300 0.915923 0.840055
0.653010 0.914397 0.840818
0.700374 0.909209 0.843778
0.763088 0.901579 0.848875
0.824186 0.893278 0.856565
0.868284 0.886778 0.865537
0.891020 0.883238 0.873716
0.897368 0.882170 0.875792
0.000000 0.000000 0.920317
0.000000 0.000000 0.920226
0.234653 0.000000 0.919860
0.401587 0.000000 0.919097
0.554467 0.000000 0.917693
0.695094 0.000000 0.915221
0.819974 0.218051 0.911284
0.923827 0.376654 0.905730
0.000000 0.000000 0.920195
0.000000 0.000000 0.920073
0.227665 0.000000 0.919677
0.401038 0.000000 0.918822
0.555962 0.000000 0.917235
0.696712 0.114168 0.914549
0.820554 0.268803 0.910399
0.922789 0.408759 0.904784
0.000000 0.195224 0.919371
0.000000 0.195377 0.919188
0.231571 0.195956 0.918547
0.411933 0.206668 0.917296
0.567193 0.241886 0.915099
0.704982 0.310430 0.911742
0.823819 0.404517 0.907134
0.919097 0.508568 0.901427
0.093721 0.383062 0.915496
0.176516 0.385992 0.915221
0.318669 0.395544 0.914244
0.465797 0.416510 0.912383
0.604334 0.451972 0.909514
0.728206 0.503288 0.905638
0.832639 0.566918 0.900938
0.913146 0.634791 0.895872
0.298802 0.557244 0.908843
0.337652 0.562036 0.908354
0.444068 0.580041 0.906554
0.576989 0.616144 0.903075
0.676051 0.640314 0.900328
0.769284 0.672969 0.896880
0.848173 0.712856 0.892973
0.906065 0.754818 0.889158
0.448646 0.701656 0.900572
0.473396 0.704829 0.900084
0.547967 0.716365 0.898436
0.648432 0.738003 0.895506
0.753628 0.773129 0.891203
0.824887 0.802152 0.887724
0.869444 0.820218 0.885588
0.900420 0.837400 0.883757
0.586847 0.813657 0.891936
0.602716 0.815061 0.891569
0.652827 0.820035 0.890379
0.725582 0.829740 0.888304
0.799924 0.843656 0.885679
0.856382 0.858762 0.883238
0.886320 0.870024 0.881682
0.897734 0.874235 0.881193
0.704921 0.885496 0.884733
0.714839 0.885283 0.884550
0.746731 0.884642 0.883940
0.793240 0.883757 0.883024
0.839536 0.882963 0.882017
0.873960 0.882414 0.881193
0.892638 0.882139 0.880766
0.897154 0.882048 0.880613
