其他预设/【232】美食博客调色预设124款/1.3D LUT预设（视频调色-PR-AE-PS-FCPX-达芬奇用）/Food Art #24.cube
# Created by Adobe Lightroom plugin Export LUT (1.17.0)
# www.johnrellis.com/lightroom/exportlut.htm
# Preset: Food Art #24
# Color profile: /Library/Application Support/Adobe/Color/Profiles/Recommended/AdobeRGB1998.icc
LUT_3D_SIZE 8
DOMAIN_MIN 0.000000 0.000000 0.000000
DOMAIN_MAX 0.903226 0.903226 0.903226
0.125093 0.125093 0.125093
0.150820 0.120241 0.124758
0.248447 0.089937 0.122225
0.364141 0.086458 0.112886
0.512566 0.090394 0.100710
0.685054 0.076356 0.090974
0.858244 0.006317 0.063050
0.986908 0.000000 0.017487
0.120272 0.155062 0.122377
0.153445 0.157351 0.121126
0.252689 0.145480 0.117494
0.371618 0.147555 0.106630
0.522423 0.153353 0.100832
0.696223 0.152529 0.088106
0.865110 0.142458 0.056672
0.989593 0.130892 0.009277
0.099855 0.251072 0.107332
0.148775 0.251621 0.105653
0.251987 0.252384 0.105318
0.371557 0.256565 0.106783
0.524376 0.270634 0.100374
0.695735 0.281590 0.079133
0.858701 0.282506 0.013886
0.985199 0.273747 0.000000
0.106996 0.370764 0.108461
0.155245 0.372747 0.108156
0.259312 0.375647 0.107820
0.374731 0.375067 0.106569
0.518364 0.391455 0.092988
0.691615 0.414405 0.049012
0.859251 0.424445 0.000000
0.984924 0.414832 0.000000
0.079896 0.530327 0.083192
0.148836 0.531579 0.081697
0.271122 0.533684 0.077729
0.401404 0.534569 0.069581
0.538384 0.538781 0.048615
0.703334 0.561059 0.000000
0.864866 0.571496 0.000000
0.984649 0.556054 0.000000
0.000000 0.708064 0.000000
0.116091 0.704829 0.000000
0.271458 0.706813 0.000000
0.418372 0.709285 0.000000
0.566430 0.713008 0.000000
0.714992 0.715511 0.000000
0.863432 0.716182 0.000000
0.981262 0.695613 0.000000
0.000000 0.863951 0.000000
0.013245 0.863310 0.000000
0.258885 0.864012 0.000000
0.415381 0.863676 0.000000
0.565545 0.863005 0.000000
0.711910 0.860166 0.000000
0.855344 0.855772 0.000000
0.979767 0.836973 0.000000
0.000000 0.974945 0.000000
0.000000 0.974762 0.000000
0.242832 0.973693 0.000000
0.396216 0.971099 0.000000
0.543053 0.970825 0.000000
0.683009 0.966033 0.000000
0.818692 0.959197 0.000000
0.951293 0.951720 0.000000
0.117525 0.125002 0.157137
0.156741 0.117464 0.157687
0.254917 0.110231 0.155795
0.373480 0.108553 0.157839
0.526085 0.087739 0.154574
0.701808 0.003998 0.145052
0.869291 0.000000 0.130617
0.992493 0.000000 0.122103
0.110567 0.157351 0.159030
0.158572 0.158572 0.158572
0.255039 0.158450 0.158755
0.376013 0.156954 0.157931
0.530327 0.151492 0.153994
0.706569 0.138582 0.143771
0.873838 0.120455 0.129152
0.995087 0.110079 0.121736
0.110628 0.254612 0.155642
0.158236 0.254307 0.158450
0.254582 0.254826 0.158419
0.377417 0.260746 0.156924
0.534081 0.272099 0.150637
0.707851 0.278935 0.137301
0.871336 0.277501 0.120241
0.991821 0.267887 0.112673
0.105684 0.378546 0.156710
0.155032 0.379187 0.155367
0.261784 0.380957 0.154543
0.383551 0.383764 0.152499
0.534966 0.401801 0.142763
0.709895 0.421180 0.123629
0.872160 0.426062 0.102235
0.991180 0.413519 0.098238
0.029664 0.534478 0.137850
0.136172 0.536217 0.137301
0.268345 0.539269 0.135134
0.405371 0.542779 0.130587
0.547662 0.547997 0.122896
0.713344 0.567285 0.096315
0.871489 0.573297 0.063630
0.988403 0.555871 0.069734
0.000000 0.714076 0.086702
0.082368 0.714351 0.085389
0.265293 0.715755 0.080018
0.418433 0.716701 0.068757
0.568933 0.718379 0.036042
0.718227 0.718593 0.000000
0.866728 0.717830 0.000000
0.983795 0.696132 0.000000
0.000000 0.869535 0.000000
0.000000 0.870237 0.000000
0.251072 0.870024 0.000000
0.413001 0.868162 0.000000
0.565301 0.866087 0.000000
0.713497 0.863127 0.000000
0.858671 0.859068 0.000000
0.982788 0.839200 0.000000
0.000000 0.977234 0.000000
0.000000 0.976745 0.000000
0.236942 0.975463 0.000000
0.393683 0.972595 0.000000
0.540002 0.969390 0.000000
0.681666 0.965606 0.000000
0.818906 0.959747 0.000000
0.952239 0.952636 0.000000
0.082033 0.123262 0.253880
0.145663 0.113191 0.253880
0.253941 0.111543 0.254032
0.374273 0.105135 0.258701
0.527459 0.000000 0.262638
0.703822 0.000000 0.251072
0.869444 0.000000 0.244205
0.991730 0.000000 0.241062
0.112001 0.156771 0.254673
0.157992 0.158419 0.254734
0.255161 0.158572 0.255283
0.378241 0.151186 0.259556
0.533562 0.113313 0.259922
0.708492 0.000000 0.250706
0.872679 0.000000 0.244541
0.992920 0.000000 0.241550
0.114168 0.254917 0.255070
0.158022 0.254856 0.255009
0.255222 0.255222 0.255222
0.380102 0.254856 0.254948
0.534783 0.252171 0.252689
0.709285 0.246311 0.247593
0.872831 0.239139 0.241337
0.992370 0.236210 0.239353
0.101289 0.378149 0.260349
0.149081 0.378424 0.258946
0.253696 0.381140 0.253696
0.382788 0.382879 0.252598
0.536126 0.394751 0.248478
0.710567 0.406195 0.241428
0.871885 0.407111 0.234470
0.990448 0.397314 0.234684
0.000000 0.536950 0.264927
0.109895 0.537926 0.260380
0.245731 0.540642 0.246006
0.396399 0.542168 0.243961
0.545373 0.545556 0.240879
0.715206 0.562341 0.232303
0.872770 0.564599 0.225803
0.988373 0.547478 0.229313
0.000000 0.715877 0.255192
0.000000 0.716518 0.246799
0.228153 0.718990 0.228855
0.404578 0.720638 0.226352
0.565728 0.722255 0.222477
0.721645 0.721920 0.216587
0.870085 0.716701 0.212253
0.983673 0.691859 0.220951
0.000000 0.869688 0.230716
0.000000 0.870390 0.221714
0.212009 0.871122 0.212955
0.397345 0.870115 0.212131
0.558526 0.868101 0.211032
0.711116 0.864073 0.209171
0.857877 0.858183 0.206790
0.980529 0.835813 0.219272
0.000000 0.977935 0.220462
0.000000 0.977996 0.217990
0.217716 0.976959 0.219028
0.384771 0.973419 0.217166
0.535851 0.970153 0.219577
0.679957 0.965850 0.223789
0.818051 0.959472 0.227573
0.951568 0.951904 0.233463
0.087434 0.107149 0.383429
0.151888 0.104158 0.381750
0.262943 0.107271 0.381659
0.382025 0.098451 0.382147
0.536431 0.000000 0.400427
0.712276 0.000000 0.410925
0.875883 0.000000 0.402869
0.994141 0.000000 0.387304
0.104891 0.157809 0.380194
0.155886 0.157198 0.380194
0.261814 0.154482 0.381201
0.382147 0.147158 0.382208
0.538079 0.104860 0.399603
0.714992 0.000000 0.408423
0.877836 0.000000 0.399420
0.994598 0.000000 0.386419
0.094057 0.262425 0.383337
0.145510 0.260746 0.383612
0.255650 0.255741 0.384771
0.385290 0.252537 0.385351
0.541314 0.236637 0.393927
0.714839 0.201022 0.393225
0.873930 0.161471 0.381872
0.991455 0.192142 0.381567
0.077882 0.383673 0.383856
0.136751 0.384283 0.384436
0.249638 0.385260 0.385382
0.385351 0.385351 0.385351
0.545647 0.384710 0.384833
0.720241 0.382696 0.382971
0.876371 0.380346 0.380987
0.989990 0.381109 0.382147
0.000000 0.537835 0.399329
0.080629 0.539635 0.398657
0.232609 0.543084 0.393652
0.382147 0.544671 0.382177
0.545556 0.545586 0.380835
0.719142 0.554559 0.378241
0.873625 0.551659 0.377478
0.986786 0.539513 0.382177
0.000000 0.715023 0.409247
0.000000 0.713161 0.404425
0.197818 0.717311 0.393072
0.376257 0.720272 0.376410
0.554406 0.720943 0.375280
0.720851 0.721004 0.373663
0.870451 0.712154 0.374304
0.981903 0.688258 0.382116
0.000000 0.870512 0.400549
0.000000 0.870420 0.396643
0.176699 0.870390 0.384924
0.374762 0.869169 0.375097
0.547875 0.866667 0.375708
0.706783 0.862852 0.376745
0.857420 0.857633 0.378393
0.977935 0.833768 0.389563
0.000000 0.976928 0.384985
0.000000 0.976593 0.383490
0.207126 0.975586 0.382116
0.385382 0.973053 0.385870
0.537896 0.969726 0.389166
0.682185 0.965301 0.394049
0.819120 0.958709 0.397101
0.950744 0.951019 0.401465
0.085847 0.098146 0.545464
0.155428 0.097200 0.544274
0.277684 0.087037 0.545129
0.408331 0.038483 0.545037
0.545617 0.000000 0.545678
0.717861 0.000000 0.566583
0.875883 0.000000 0.564660
0.990723 0.000000 0.544060
0.073640 0.153140 0.544488
0.147799 0.151125 0.542535
0.272526 0.142947 0.543572
0.406897 0.124605 0.545800
0.546654 0.084596 0.546807
0.718837 0.000000 0.565637
0.876249 0.000000 0.562737
0.990661 0.000000 0.543328
0.000000 0.263584 0.545617
0.086213 0.258000 0.545617
0.252384 0.252995 0.547662
0.401099 0.245426 0.549126
0.550378 0.232639 0.550469
0.724605 0.197848 0.564508
0.878691 0.171237 0.558434
0.990600 0.207919 0.544091
0.000000 0.405219 0.548669
0.030610 0.403662 0.549401
0.228580 0.396521 0.550225
0.386694 0.386694 0.550927
0.551354 0.383520 0.551385
0.726589 0.374548 0.557641
0.877897 0.373663 0.552148
0.986481 0.398657 0.549462
0.000000 0.550256 0.550469
0.000000 0.550317 0.550530
0.215915 0.551049 0.551171
0.380957 0.551537 0.551568
0.552239 0.552239 0.552239
0.728756 0.552544 0.552605
0.875456 0.552911 0.553155
0.981994 0.556176 0.556542
0.000000 0.723842 0.568048
0.000000 0.724697 0.567254
0.180880 0.728023 0.564996
0.375341 0.730556 0.560235
0.555413 0.730892 0.555444
0.726528 0.726589 0.551965
0.869963 0.712917 0.551659
0.976379 0.697078 0.558099
0.000000 0.873289 0.560479
0.000000 0.873716 0.559289
0.169619 0.874022 0.555261
0.377173 0.872435 0.551293
0.555718 0.868315 0.555779
0.711818 0.864042 0.557183
0.859037 0.859159 0.559991
0.972381 0.837369 0.571771
0.000000 0.978851 0.539940
0.000000 0.978607 0.539910
0.223880 0.977356 0.541253
0.402075 0.972717 0.546715
0.567742 0.967285 0.567864
0.700618 0.963195 0.573205
0.827787 0.957397 0.576410
0.950652 0.950805 0.580713
0.050233 0.077943 0.718166
0.147707 0.071626 0.718105
0.284764 0.013092 0.720546
0.426551 0.000000 0.721523
0.572808 0.000000 0.722896
0.724147 0.000000 0.724208
0.873564 0.000000 0.719448
0.985199 0.000000 0.691646
0.000000 0.140566 0.723659
0.130037 0.136843 0.723964
0.278721 0.122347 0.724910
0.424811 0.086030 0.725338
0.573510 0.000000 0.725795
0.726253 0.000000 0.726314
0.874754 0.000000 0.719631
0.985412 0.000000 0.691737
0.000000 0.253605 0.722774
0.000000 0.252201 0.723568
0.244999 0.246525 0.724697
0.409796 0.234867 0.725246
0.568017 0.216464 0.726406
0.726986 0.189487 0.727047
0.874815 0.171389 0.717433
0.984100 0.213230 0.691341
0.000000 0.409461 0.724025
0.000000 0.406195 0.724941
0.187198 0.393683 0.726009
0.382696 0.382971 0.724392
0.556756 0.377050 0.723934
0.724544 0.370611 0.724575
0.872068 0.372625 0.713069
0.979858 0.400671 0.693141
0.000000 0.569299 0.727474
0.000000 0.567987 0.727565
0.171511 0.563684 0.727962
0.371893 0.557458 0.728023
0.553246 0.553246 0.728389
0.728389 0.553765 0.728481
0.870451 0.562158 0.717586
0.972717 0.585657 0.711788
0.000000 0.728847 0.729091
0.000000 0.728145 0.728389
0.148348 0.728328 0.728481
0.368780 0.728511 0.728634
0.555718 0.729030 0.729091
0.727840 0.727810 0.727840
0.863035 0.727291 0.727352
0.963775 0.730007 0.730098
0.000000 0.873381 0.717006
0.000000 0.872923 0.716091
0.153658 0.872770 0.714809
0.377264 0.871214 0.713344
0.564385 0.866941 0.716548
0.729580 0.860960 0.729610
0.858335 0.858335 0.731380
0.960510 0.846586 0.737636
0.000000 0.978485 0.688472
0.000000 0.978210 0.688746
0.239750 0.976684 0.690242
0.420874 0.972534 0.695583
0.593744 0.965515 0.713741
0.740627 0.957794 0.740658
0.845121 0.953887 0.741939
0.949706 0.949767 0.744259
0.000000 0.038666 0.869108
0.135897 0.015839 0.869841
0.280827 0.000000 0.869688
0.424628 0.000000 0.869169
0.570031 0.000000 0.869078
0.717617 0.000000 0.868528
0.867338 0.000000 0.867399
0.979065 0.000000 0.834379
0.000000 0.127596 0.866667
0.113069 0.123507 0.867338
0.271641 0.107240 0.867369
0.419165 0.065217 0.867124
0.565911 0.000000 0.866453
0.713863 0.000000 0.865293
0.863798 0.000000 0.863890
0.976135 0.000000 0.831327
0.000000 0.250217 0.868864
0.000000 0.248692 0.868772
0.240299 0.242771 0.868132
0.404486 0.232425 0.867704
0.558679 0.216434 0.866453
0.711452 0.196872 0.865415
0.864836 0.179171 0.864927
0.976440 0.222904 0.832486
0.000000 0.398169 0.869383
0.000000 0.395392 0.869261
0.189059 0.389105 0.868498
0.386603 0.387274 0.868254
0.552117 0.384222 0.867094
0.710719 0.383001 0.866392
0.865812 0.385168 0.865843
0.973877 0.413672 0.833890
0.000000 0.555138 0.865476
0.000000 0.553521 0.864927
0.173098 0.549798 0.864164
0.379370 0.548791 0.863828
0.551995 0.552117 0.862821
0.709834 0.555566 0.861601
0.860533 0.562524 0.860624
0.965972 0.588586 0.837217
0.000000 0.708064 0.862181
0.000000 0.707668 0.862119
0.171481 0.706874 0.861967
0.383948 0.707668 0.861906
0.567620 0.714473 0.860777
0.728817 0.728756 0.859770
0.859464 0.733944 0.859464
0.957336 0.746059 0.848936
0.000000 0.860166 0.860410
0.000000 0.860472 0.860716
0.185031 0.860380 0.860563
0.396796 0.860227 0.860410
0.578180 0.859007 0.859098
0.736385 0.857969 0.858030
0.858579 0.858549 0.858579
0.951904 0.860349 0.860410
0.000000 0.976532 0.833097
0.000000 0.976013 0.832975
0.262608 0.974914 0.834073
0.442939 0.970703 0.835966
0.610742 0.963592 0.841611
0.752682 0.955718 0.851194
0.861845 0.950652 0.861845
0.948791 0.948821 0.862303
0.000000 0.012970 0.960693
0.123110 0.000000 0.960876
0.263859 0.000000 0.960327
0.401129 0.000000 0.960235
0.538537 0.000000 0.959838
0.676936 0.000000 0.959136
0.816922 0.000000 0.958465
0.957000 0.000000 0.957061
0.000000 0.119173 0.959747
0.102388 0.116182 0.959930
0.256443 0.102602 0.959564
0.396857 0.072328 0.959258
0.535882 0.000000 0.958862
0.675196 0.000000 0.958129
0.815457 0.000000 0.957214
0.955718 0.000000 0.955810
0.000000 0.240360 0.959014
0.000000 0.239414 0.959045
0.230777 0.234562 0.958312
0.385168 0.228794 0.958892
0.529656 0.219211 0.958160
0.671901 0.208713 0.956909
0.813931 0.204288 0.955932
0.954559 0.211002 0.954650
0.000000 0.376898 0.958221
0.000000 0.377081 0.958343
0.203311 0.376043 0.957794
0.374853 0.376074 0.957519
0.526360 0.376501 0.956847
0.671687 0.378241 0.955688
0.814206 0.384588 0.954559
0.953307 0.398260 0.953338
0.000000 0.524865 0.955505
0.000000 0.525322 0.955657
0.208591 0.526482 0.955108
0.391852 0.535119 0.954253
0.538140 0.538476 0.953124
0.680079 0.545068 0.951812
0.818235 0.557488 0.950774
0.950256 0.578058 0.950317
0.000000 0.668238 0.952392
0.000000 0.668086 0.952056
0.210483 0.668605 0.951232
0.394934 0.674006 0.950134
0.570031 0.693233 0.948241
0.714290 0.714351 0.947356
0.835172 0.727413 0.947845
0.948852 0.743191 0.948882
0.000000 0.810056 0.950225
0.000000 0.810086 0.950011
0.239658 0.810697 0.949371
0.420233 0.814603 0.948547
0.589960 0.824247 0.947143
0.739254 0.839628 0.945800
0.854612 0.854612 0.946288
0.945953 0.857542 0.945953
0.000000 0.949310 0.949554
0.137118 0.949096 0.949340
0.299168 0.948669 0.948882
0.462928 0.948180 0.948333
0.620020 0.947295 0.947387
0.753902 0.946319 0.946380
0.859983 0.945647 0.945708
0.945220 0.945220 0.945220
