其他预设/【232】美食博客调色预设124款/1.3D LUT预设（视频调色-PR-AE-PS-FCPX-达芬奇用）/Food Art #60.cube
# Created by Adobe Lightroom plugin Export LUT (1.17.0)
# www.johnrellis.com/lightroom/exportlut.htm
# Preset: Food Art #60
# Color profile: /Library/Application Support/Adobe/Color/Profiles/Recommended/AdobeRGB1998.icc
LUT_3D_SIZE 32
0.000000 0.000000 0.000000
0.000977 0.000977 0.000977
0.057557 0.000000 0.003265
0.102846 0.000000 0.011505
0.141146 0.000000 0.023407
0.178958 0.000000 0.034974
0.217441 0.000000 0.043915
0.255467 0.000000 0.050202
0.293767 0.000000 0.057710
0.331426 0.000000 0.062715
0.367987 0.000000 0.067994
0.403204 0.000000 0.074372
0.436866 0.000000 0.081147
0.469001 0.000000 0.089662
0.499550 0.000000 0.099580
0.528893 0.000000 0.109590
0.557122 0.000000 0.119814
0.584619 0.000000 0.129763
0.611597 0.000000 0.139864
0.642451 0.000000 0.150759
0.673640 0.000000 0.162234
0.704463 0.000000 0.173404
0.734859 0.000000 0.184909
0.765011 0.071748 0.196567
0.794461 0.115969 0.208774
0.823575 0.150454 0.221988
0.852598 0.182589 0.236393
0.881529 0.214450 0.252476
0.910307 0.246799 0.270634
0.938689 0.281102 0.291478
0.966400 0.317876 0.315435
0.993042 0.358373 0.343542
0.000977 0.000977 0.000977
0.008576 0.002045 0.001770
0.063386 0.000000 0.005798
0.106569 0.000000 0.014466
0.144076 0.000000 0.027314
0.181033 0.000000 0.037842
0.218631 0.000000 0.045838
0.256474 0.000000 0.051637
0.294255 0.000000 0.058900
0.331701 0.000000 0.063874
0.367956 0.000000 0.069062
0.403052 0.000000 0.075319
0.436469 0.000000 0.082338
0.468544 0.000000 0.090974
0.499062 0.000000 0.100252
0.528191 0.000000 0.109987
0.556298 0.000000 0.119966
0.583764 0.000000 0.129915
0.610712 0.000000 0.140200
0.641321 0.000000 0.151125
0.672145 0.000000 0.162081
0.702632 0.000000 0.173068
0.732937 0.000000 0.184634
0.763119 0.077638 0.196017
0.792569 0.119081 0.208408
0.821805 0.152712 0.221347
0.850919 0.184268 0.235538
0.879973 0.215549 0.251774
0.908873 0.247745 0.269902
0.937407 0.281682 0.290715
0.965209 0.318303 0.314641
0.991974 0.358312 0.342596
0.023621 0.018128 0.006561
0.039002 0.019074 0.008240
0.073854 0.014130 0.010193
0.110903 0.003052 0.021241
0.147372 0.000000 0.031891
0.183719 0.000000 0.042420
0.220890 0.000000 0.048554
0.258030 0.000000 0.055024
0.295323 0.000000 0.060700
0.332494 0.000000 0.065217
0.368566 0.000000 0.070253
0.403418 0.000000 0.076326
0.436683 0.000000 0.083833
0.468635 0.000000 0.092012
0.498939 0.000000 0.101686
0.528099 0.000000 0.110994
0.556115 0.000000 0.120882
0.583429 0.000000 0.130953
0.610437 0.000000 0.140627
0.640864 0.000000 0.151522
0.671565 0.000000 0.162448
0.701961 0.000000 0.173556
0.732174 0.000000 0.184787
0.762264 0.087648 0.196292
0.791745 0.125734 0.208621
0.820951 0.157809 0.221256
0.850065 0.188235 0.235843
0.879210 0.218906 0.251865
0.908202 0.250492 0.269841
0.936767 0.284154 0.290562
0.964630 0.320134 0.314366
0.991455 0.359869 0.342229
0.064729 0.055146 0.022461
0.076783 0.053315 0.024964
0.093690 0.049928 0.028046
0.121736 0.039948 0.034028
0.155520 0.024018 0.042481
0.190372 0.000153 0.048920
0.226261 0.000000 0.053986
0.262455 0.000000 0.059968
0.298863 0.000000 0.063905
0.335302 0.000000 0.068452
0.370611 0.000000 0.073548
0.404944 0.000000 0.079652
0.437873 0.000000 0.086763
0.469429 0.000000 0.095399
0.499428 0.000000 0.104219
0.528405 0.000000 0.113680
0.556298 0.000000 0.123110
0.583551 0.000000 0.132784
0.610803 0.000000 0.142550
0.640528 0.000000 0.153079
0.670771 0.000000 0.163668
0.700832 0.000000 0.174319
0.730953 0.067140 0.185489
0.761196 0.107576 0.197116
0.791012 0.140017 0.209049
0.820493 0.169650 0.222232
0.849912 0.198276 0.236606
0.879210 0.227939 0.252842
0.908202 0.258457 0.271031
0.936675 0.291020 0.291722
0.964385 0.326238 0.315343
0.991058 0.364965 0.343084
0.090364 0.078309 0.043427
0.101015 0.077821 0.044556
0.113619 0.076509 0.046571
0.136812 0.073457 0.050263
0.167300 0.068391 0.054108
0.200290 0.058869 0.059022
0.234165 0.031434 0.061707
0.268711 0.000000 0.065400
0.303929 0.000000 0.068971
0.338964 0.000000 0.073457
0.373632 0.000000 0.078431
0.407080 0.000000 0.084688
0.439521 0.000000 0.091798
0.470588 0.000000 0.099397
0.500481 0.000000 0.108186
0.529229 0.000000 0.117433
0.557122 0.000000 0.126467
0.584222 0.000000 0.135775
0.612055 0.000000 0.145785
0.641474 0.000000 0.155734
0.671107 0.000000 0.165896
0.700862 0.068421 0.176394
0.730739 0.104707 0.187289
0.760922 0.133547 0.198672
0.790616 0.160464 0.210666
0.820157 0.186648 0.223636
0.849577 0.213382 0.238102
0.878782 0.240848 0.254246
0.907744 0.269841 0.272221
0.936156 0.301274 0.293004
0.963867 0.335180 0.316716
0.990539 0.372869 0.344427
0.111177 0.102724 0.058991
0.119966 0.102052 0.059480
0.130861 0.101015 0.060243
0.151736 0.099214 0.061219
0.179995 0.095766 0.063630
0.212161 0.090761 0.066773
0.245090 0.082338 0.069825
0.277714 0.070771 0.072267
0.311223 0.050172 0.075837
0.344945 0.007507 0.080171
0.378363 0.000000 0.084871
0.411139 0.000000 0.091035
0.442664 0.000000 0.097597
0.473335 0.000000 0.105074
0.502739 0.000000 0.113497
0.531151 0.000000 0.122377
0.558801 0.000000 0.131136
0.585626 0.000000 0.140047
0.614008 0.000000 0.149935
0.643122 0.058778 0.159670
0.672541 0.090242 0.169497
0.702205 0.115877 0.179690
0.744259 0.152804 0.195682
0.773953 0.175326 0.207218
0.803006 0.197269 0.219425
0.831662 0.219883 0.232547
0.860075 0.243809 0.247135
0.888243 0.268925 0.263188
0.916106 0.295933 0.281590
0.943481 0.325505 0.302556
0.970062 0.358099 0.326818
0.995544 0.394324 0.354803
0.131807 0.129580 0.068299
0.139254 0.129030 0.068727
0.148867 0.128389 0.069398
0.168521 0.126894 0.070893
0.194766 0.124544 0.072419
0.225223 0.121096 0.075074
0.258488 0.116518 0.077913
0.290929 0.109773 0.081117
0.322850 0.100832 0.084810
0.355322 0.090974 0.089113
0.387366 0.081056 0.094026
0.419104 0.070619 0.099428
0.449622 0.061769 0.106172
0.479469 0.053986 0.113130
0.508171 0.053529 0.121187
0.535790 0.061585 0.129427
0.562860 0.072511 0.137545
0.590600 0.086793 0.146334
0.619074 0.103944 0.155550
0.648280 0.121553 0.165255
0.678218 0.140261 0.175174
0.708827 0.159640 0.185702
0.739834 0.179782 0.196719
0.770779 0.199954 0.208682
0.800870 0.220615 0.221195
0.830228 0.241611 0.234562
0.858915 0.263554 0.249302
0.887175 0.287114 0.265537
0.915099 0.312505 0.283787
0.942382 0.340612 0.304814
0.968963 0.371527 0.328893
0.994446 0.406439 0.356786
0.152071 0.155856 0.077607
0.158724 0.155520 0.077913
0.167300 0.155093 0.078767
0.184695 0.154086 0.079377
0.208774 0.152163 0.081361
0.237095 0.149630 0.083955
0.268132 0.146273 0.087068
0.300725 0.142702 0.090608
0.332738 0.137728 0.094820
0.363287 0.131472 0.098451
0.394141 0.126009 0.103059
0.424567 0.121492 0.108553
0.454200 0.118196 0.114443
0.483192 0.117372 0.120943
0.511254 0.118502 0.128389
0.538354 0.122408 0.136049
0.565545 0.129091 0.143923
0.593347 0.138735 0.152407
0.620996 0.149844 0.160983
0.649714 0.162875 0.170016
0.679103 0.177646 0.179599
0.709224 0.193515 0.189822
0.739742 0.210544 0.200473
0.770321 0.228397 0.211948
0.800229 0.246616 0.224125
0.829374 0.265812 0.237705
0.857969 0.286107 0.252201
0.886290 0.307683 0.268223
0.914153 0.331701 0.286656
0.941436 0.358099 0.307683
0.967987 0.387854 0.331884
0.993439 0.421363 0.360052
0.174411 0.183230 0.088380
0.180240 0.182925 0.088930
0.187961 0.182650 0.089052
0.203098 0.181704 0.090700
0.225315 0.180301 0.091798
0.251164 0.178347 0.094057
0.279973 0.176120 0.097017
0.310460 0.173648 0.100130
0.342046 0.170871 0.104555
0.372869 0.167819 0.108980
0.402228 0.164248 0.112886
0.431281 0.161532 0.117891
0.459937 0.160220 0.123568
0.488075 0.160678 0.129824
0.515282 0.162417 0.136507
0.542321 0.166415 0.143679
0.569787 0.172671 0.151583
0.596857 0.180636 0.159426
0.623743 0.189639 0.167422
0.651942 0.200595 0.175906
0.680873 0.213199 0.185000
0.710475 0.227237 0.194369
0.740658 0.242313 0.204898
0.770840 0.258335 0.216159
0.800381 0.274784 0.228428
0.829313 0.292210 0.241611
0.857786 0.310735 0.255955
0.885893 0.330968 0.272221
0.913634 0.353399 0.290379
0.940826 0.378302 0.311559
0.967254 0.406531 0.335790
0.992615 0.438453 0.363928
0.197787 0.211307 0.099977
0.202701 0.211063 0.100465
0.209232 0.210666 0.100618
0.223148 0.210025 0.101503
0.242618 0.209171 0.103151
0.266758 0.207553 0.105074
0.293095 0.205905 0.107698
0.321569 0.204105 0.110689
0.351202 0.202396 0.114626
0.381140 0.200961 0.118654
0.410620 0.199496 0.123812
0.438483 0.198032 0.127901
0.466194 0.197543 0.133211
0.493324 0.198642 0.138949
0.520745 0.201755 0.145296
0.547967 0.206485 0.152468
0.574731 0.212436 0.159670
0.601099 0.219028 0.166903
0.627619 0.227329 0.174533
0.655299 0.236912 0.182376
0.683467 0.248295 0.190707
0.712306 0.260563 0.200137
0.741726 0.273838 0.210025
0.771115 0.288121 0.220768
0.800107 0.303105 0.232486
0.828763 0.319036 0.245731
0.857145 0.336248 0.260105
0.885252 0.355383 0.276402
0.913085 0.376532 0.294957
0.940368 0.400427 0.316167
0.966827 0.427405 0.340795
0.992187 0.458381 0.369635
0.221347 0.239872 0.111452
0.225528 0.239597 0.111879
0.231693 0.239445 0.112184
0.243961 0.238926 0.113191
0.261387 0.238132 0.114229
0.283116 0.237247 0.116304
0.307836 0.236210 0.118746
0.334295 0.235111 0.121584
0.362097 0.234134 0.125093
0.390509 0.233371 0.129061
0.418769 0.233036 0.133822
0.446571 0.233219 0.138277
0.473365 0.233829 0.143343
0.500511 0.236027 0.149111
0.527184 0.239445 0.155062
0.553338 0.243900 0.161440
0.579248 0.249149 0.167788
0.604913 0.255436 0.174716
0.631006 0.262913 0.181552
0.658045 0.271794 0.189120
0.685756 0.282078 0.197086
0.714199 0.293248 0.205997
0.743282 0.305852 0.215793
0.772366 0.319066 0.226413
0.800961 0.332891 0.238132
0.829313 0.347692 0.250919
0.857359 0.363714 0.265324
0.885191 0.381445 0.281682
0.912810 0.401343 0.300206
0.939849 0.423896 0.321477
0.966186 0.449561 0.346410
0.991394 0.479164 0.375494
0.245487 0.269596 0.123690
0.249302 0.269352 0.124086
0.254673 0.269230 0.124331
0.265446 0.268894 0.124849
0.281224 0.268376 0.126314
0.301030 0.267735 0.128145
0.323644 0.267185 0.130312
0.348302 0.266575 0.132815
0.374395 0.266148 0.136263
0.401129 0.266087 0.139681
0.428016 0.266453 0.143923
0.455879 0.268406 0.149172
0.489387 0.277501 0.157290
0.515618 0.280491 0.162417
0.541527 0.284062 0.168063
0.566949 0.288487 0.173983
0.592340 0.293645 0.179904
0.617578 0.299626 0.186160
0.643183 0.306249 0.192660
0.669551 0.314336 0.199649
0.696437 0.323430 0.207614
0.723995 0.333745 0.216251
0.752102 0.344732 0.225467
0.779934 0.356481 0.235966
0.807614 0.368811 0.247532
0.835142 0.382361 0.260472
0.862455 0.397131 0.274998
0.889555 0.413519 0.291051
0.916350 0.431983 0.309911
0.942718 0.453101 0.331395
0.968261 0.477424 0.356664
0.992828 0.505669 0.386236
0.271672 0.302708 0.136629
0.275059 0.302495 0.136812
0.279515 0.302373 0.137240
0.289189 0.301946 0.137881
0.303044 0.301579 0.138857
0.320745 0.300969 0.140536
0.341527 0.300237 0.142397
0.364385 0.300084 0.144778
0.388678 0.300206 0.147860
0.414862 0.301762 0.151614
0.441779 0.304082 0.156313
0.468727 0.307134 0.161257
0.495399 0.310765 0.166415
0.521721 0.315099 0.172274
0.546990 0.319097 0.177432
0.571923 0.323613 0.182803
0.596612 0.328649 0.188357
0.621302 0.333989 0.193881
0.646357 0.340398 0.200137
0.672053 0.347662 0.206943
0.698390 0.356268 0.214359
0.725551 0.365759 0.222782
0.753079 0.376043 0.232120
0.780545 0.386999 0.242283
0.807889 0.398627 0.253544
0.835050 0.411231 0.266361
0.862119 0.425055 0.280949
0.889006 0.440528 0.297337
0.915679 0.458015 0.316136
0.941863 0.478187 0.338079
0.967376 0.501305 0.363348
0.991852 0.528496 0.393469
0.294987 0.334203 0.148959
0.298222 0.334112 0.149111
0.302190 0.333898 0.149508
0.310704 0.333684 0.150088
0.323125 0.333227 0.151034
0.339727 0.333227 0.152407
0.359045 0.333562 0.154482
0.380438 0.334112 0.156954
0.403540 0.335119 0.159579
0.427710 0.336797 0.163180
0.452766 0.339025 0.167025
0.478065 0.342077 0.171725
0.503258 0.345647 0.176516
0.528313 0.349645 0.181338
0.552972 0.354040 0.186984
0.577081 0.358251 0.191836
0.601129 0.362829 0.196902
0.625177 0.368170 0.202182
0.649683 0.374060 0.207858
0.674861 0.380957 0.214267
0.700771 0.388922 0.221836
0.727565 0.397986 0.229862
0.754696 0.407782 0.238926
0.781796 0.418158 0.249058
0.808713 0.428992 0.260441
0.835599 0.440864 0.273350
0.862455 0.454017 0.287755
0.889097 0.468605 0.304479
0.915557 0.485328 0.323491
0.941588 0.504570 0.345647
0.966857 0.526848 0.371801
0.991211 0.552911 0.402258
0.319524 0.368658 0.161288
0.322026 0.368750 0.161776
0.325902 0.368627 0.161837
0.333349 0.368597 0.162478
0.345037 0.368444 0.163424
0.359747 0.368444 0.164736
0.377020 0.368658 0.166293
0.396551 0.369177 0.168338
0.417762 0.370214 0.171054
0.440345 0.371893 0.174258
0.463600 0.374182 0.177707
0.487495 0.377203 0.181857
0.511589 0.380713 0.186221
0.535546 0.384741 0.190829
0.559319 0.388952 0.195926
0.582788 0.393103 0.200992
0.606073 0.397498 0.205783
0.629633 0.402350 0.210727
0.653498 0.407691 0.216159
0.678035 0.414252 0.222354
0.703548 0.421790 0.229404
0.729824 0.430335 0.237491
0.756466 0.439490 0.246189
0.783169 0.449256 0.256443
0.809781 0.459571 0.267948
0.836484 0.470924 0.280980
0.863188 0.483589 0.295811
0.889860 0.497841 0.312840
0.916289 0.514153 0.332586
0.942290 0.532921 0.355596
0.967498 0.554803 0.382727
0.991669 0.579980 0.413947
0.342321 0.404334 0.173587
0.344976 0.404364 0.173800
0.348150 0.404456 0.174105
0.355138 0.404425 0.174685
0.365515 0.404456 0.175387
0.379004 0.404639 0.176822
0.394965 0.405127 0.178103
0.412940 0.405890 0.180209
0.432685 0.407080 0.182559
0.453590 0.408667 0.185367
0.475380 0.410895 0.188571
0.497627 0.413489 0.192203
0.520134 0.416541 0.196201
0.542901 0.419989 0.200320
0.565637 0.423621 0.204807
0.588342 0.427619 0.209628
0.611109 0.431739 0.214542
0.634089 0.436255 0.219364
0.657618 0.441535 0.224582
0.681941 0.447944 0.230808
0.707118 0.455268 0.237827
0.733181 0.463600 0.245823
0.759426 0.472358 0.254795
0.785733 0.481544 0.265171
0.812009 0.491493 0.276768
0.838468 0.502403 0.290013
0.864927 0.514427 0.305119
0.891295 0.528222 0.322698
0.917388 0.543786 0.342809
0.942962 0.561639 0.366278
0.967742 0.582452 0.393866
0.991516 0.606073 0.425025
0.363439 0.439612 0.185061
0.365484 0.439704 0.185397
0.368383 0.439673 0.185702
0.374762 0.439704 0.186007
0.384131 0.439765 0.186893
0.396429 0.439979 0.187808
0.410864 0.440558 0.189456
0.427649 0.441321 0.191073
0.445899 0.442481 0.193210
0.465370 0.444160 0.195804
0.485969 0.446326 0.198856
0.507073 0.449073 0.202335
0.528679 0.452155 0.205844
0.550530 0.455573 0.209903
0.572503 0.459052 0.213962
0.594415 0.462562 0.218418
0.616541 0.466285 0.223270
0.638911 0.470405 0.227970
0.661738 0.475196 0.233280
0.685573 0.481025 0.239445
0.710323 0.487984 0.246342
0.735897 0.495796 0.254246
0.761624 0.504143 0.263462
0.787533 0.512963 0.273655
0.813565 0.522362 0.285374
0.839689 0.532799 0.299016
0.865904 0.544427 0.314580
0.892058 0.557671 0.332403
0.917876 0.572686 0.353277
0.943236 0.590051 0.377539
0.967773 0.610010 0.405554
0.991363 0.632563 0.436988
0.383246 0.476020 0.196475
0.385351 0.476295 0.196719
0.392279 0.484230 0.199588
0.398047 0.484321 0.199985
0.406622 0.484352 0.200717
0.417670 0.484474 0.201572
0.431067 0.484749 0.202976
0.446265 0.485328 0.204410
0.463325 0.486305 0.206516
0.481514 0.487770 0.209079
0.500664 0.489784 0.211612
0.520684 0.491981 0.214755
0.541161 0.494423 0.218235
0.562066 0.497169 0.222019
0.583154 0.500053 0.225895
0.604364 0.503166 0.230106
0.625971 0.506371 0.234623
0.647730 0.509880 0.239475
0.669825 0.513603 0.244388
0.692683 0.518395 0.250309
0.716793 0.524559 0.257084
0.741573 0.531579 0.265049
0.766629 0.539025 0.274235
0.791836 0.546990 0.284520
0.816953 0.555383 0.296300
0.842313 0.564782 0.309850
0.867735 0.575372 0.325353
0.893187 0.587610 0.343359
0.918517 0.601801 0.364508
0.943450 0.618341 0.389410
0.967742 0.637293 0.417548
0.991028 0.658656 0.449134
0.403235 0.515251 0.208591
0.405463 0.516320 0.209110
0.408637 0.517479 0.209628
0.414405 0.518517 0.210452
0.422614 0.519463 0.211337
0.432898 0.519982 0.212650
0.445319 0.520500 0.213901
0.459541 0.521141 0.215488
0.475441 0.522148 0.217472
0.492500 0.523522 0.219791
0.510674 0.525292 0.222354
0.529656 0.527428 0.225498
0.549310 0.529717 0.228702
0.569390 0.532250 0.232181
0.589685 0.534905 0.236240
0.610468 0.537743 0.240177
0.631464 0.540703 0.244572
0.652796 0.543938 0.249302
0.674617 0.547570 0.254582
0.696803 0.551690 0.259953
0.720089 0.556970 0.266270
0.744503 0.563622 0.274510
0.769162 0.570703 0.283604
0.793942 0.578241 0.294285
0.818845 0.586267 0.306340
0.843900 0.595331 0.320378
0.869078 0.605493 0.336217
0.894224 0.617182 0.354894
0.919219 0.630884 0.376837
0.943847 0.646632 0.401862
0.967803 0.664546 0.430304
0.990814 0.684840 0.462287
0.420844 0.551629 0.220432
0.422950 0.552667 0.221012
0.425879 0.553765 0.221317
0.430976 0.554833 0.222354
0.438544 0.555718 0.223270
0.448219 0.556298 0.224308
0.459785 0.556786 0.225528
0.472847 0.557488 0.227176
0.487709 0.558465 0.228977
0.503777 0.559869 0.231266
0.521050 0.561608 0.233860
0.539239 0.563622 0.236820
0.557977 0.565759 0.240238
0.577417 0.568139 0.243778
0.597192 0.570703 0.247532
0.617365 0.573297 0.251652
0.637964 0.576104 0.255833
0.658930 0.579248 0.260685
0.680354 0.582574 0.265568
0.702296 0.586389 0.271183
0.724544 0.590570 0.277134
0.747799 0.595819 0.284581
0.772061 0.602441 0.294072
0.796445 0.609522 0.304967
0.820951 0.617121 0.317327
0.845640 0.625635 0.331487
0.870359 0.635309 0.347997
0.895109 0.646479 0.367254
0.919738 0.659449 0.389563
0.944030 0.674342 0.414893
0.967712 0.691310 0.443366
0.990387 0.710506 0.475502
0.438392 0.588647 0.232914
0.440314 0.589654 0.233616
0.442786 0.590723 0.234165
0.447700 0.591760 0.234775
0.454658 0.592584 0.235752
0.463508 0.593194 0.236973
0.474067 0.593805 0.238193
0.486458 0.594415 0.239597
0.500359 0.595300 0.241581
0.515465 0.596551 0.243839
0.531762 0.598199 0.246311
0.549187 0.600061 0.249210
0.567102 0.602045 0.252384
0.585840 0.604273 0.256046
0.605127 0.606714 0.259892
0.624994 0.609308 0.264073
0.645289 0.612207 0.268833
0.666163 0.615412 0.273991
0.687526 0.619013 0.279393
0.709346 0.622919 0.285374
0.731624 0.627253 0.291844
0.754299 0.631861 0.298772
0.777523 0.637110 0.307195
0.801694 0.643885 0.318883
0.826047 0.651270 0.332036
0.850370 0.659510 0.347204
0.874784 0.668757 0.364446
0.899046 0.679469 0.384710
0.923217 0.691768 0.407507
0.946960 0.705745 0.433051
0.970031 0.721645 0.462074
0.992096 0.739773 0.494545
0.457679 0.629816 0.248325
0.459297 0.630396 0.248753
0.461311 0.630732 0.249119
0.465339 0.631220 0.249668
0.471656 0.631617 0.250523
0.479774 0.632044 0.251560
0.489601 0.632502 0.252811
0.501183 0.633173 0.254368
0.514244 0.634180 0.256504
0.528618 0.635431 0.258762
0.544213 0.637110 0.261479
0.560906 0.638880 0.264500
0.578271 0.640711 0.267826
0.596277 0.642664 0.271427
0.615015 0.644739 0.275456
0.634272 0.646967 0.279850
0.654017 0.649470 0.284611
0.674342 0.652216 0.289555
0.695094 0.655268 0.295262
0.716304 0.658564 0.301213
0.737911 0.662135 0.307652
0.759823 0.665980 0.314702
0.781918 0.670008 0.322118
0.804471 0.674586 0.331212
0.828244 0.681361 0.344701
0.852201 0.689082 0.360327
0.876219 0.697871 0.378271
0.900175 0.707942 0.398749
0.923980 0.719539 0.421729
0.947387 0.732692 0.447425
0.970092 0.747646 0.476570
0.991852 0.764736 0.509270
0.475074 0.666438 0.264103
0.476600 0.666926 0.264256
0.478523 0.667353 0.264897
0.482338 0.667842 0.265476
0.488136 0.668177 0.266300
0.495552 0.668482 0.267369
0.504601 0.668879 0.268345
0.515312 0.669429 0.269993
0.527611 0.670222 0.271977
0.541131 0.671290 0.274418
0.555962 0.672663 0.277226
0.571771 0.674220 0.280461
0.588464 0.675898 0.283818
0.605921 0.677668 0.287602
0.624018 0.679652 0.291844
0.642786 0.681788 0.296147
0.662013 0.684077 0.301030
0.681910 0.686641 0.306493
0.702296 0.689509 0.312383
0.723018 0.692744 0.318853
0.744259 0.696132 0.325750
0.765805 0.699794 0.333165
0.787533 0.703731 0.341039
0.809476 0.707790 0.349462
0.829923 0.710018 0.357214
0.853452 0.717220 0.373205
0.877134 0.725490 0.391516
0.900786 0.735012 0.412024
0.924224 0.745846 0.435340
0.947356 0.758236 0.461280
0.969787 0.772427 0.490700
0.991363 0.788632 0.523613
0.495033 0.705196 0.283482
0.496407 0.705715 0.283909
0.498116 0.706020 0.284306
0.501579 0.706294 0.284825
0.506676 0.706477 0.285679
0.513481 0.706630 0.286595
0.521782 0.706722 0.287938
0.531670 0.706996 0.289189
0.542870 0.707362 0.290990
0.555535 0.707973 0.293278
0.569360 0.708827 0.295903
0.584222 0.709957 0.298985
0.600092 0.711208 0.302251
0.616602 0.712551 0.306004
0.633906 0.713954 0.310124
0.651820 0.715480 0.314458
0.670314 0.717250 0.319249
0.689418 0.719356 0.324712
0.709194 0.721920 0.330785
0.729549 0.724880 0.337499
0.750271 0.728145 0.344762
0.771298 0.731655 0.352728
0.792477 0.735195 0.361059
0.813687 0.738674 0.369726
0.834714 0.742306 0.378668
0.855894 0.746181 0.388281
0.879026 0.753658 0.406500
0.902159 0.762325 0.427070
0.925139 0.772335 0.450263
0.947784 0.783871 0.476509
0.969909 0.797177 0.506065
0.991241 0.812284 0.538811
0.513787 0.739742 0.303502
0.515068 0.740291 0.304021
0.516747 0.740597 0.304448
0.519799 0.740902 0.304997
0.524620 0.740993 0.305821
0.530846 0.741146 0.306859
0.538689 0.741360 0.307988
0.547906 0.741665 0.309636
0.558556 0.742123 0.311681
0.570428 0.742855 0.314153
0.583703 0.743740 0.316960
0.597955 0.744900 0.320226
0.613123 0.746151 0.323949
0.629145 0.747524 0.327886
0.645869 0.748898 0.332250
0.663294 0.750393 0.336950
0.681270 0.752102 0.342229
0.699916 0.754055 0.347906
0.719081 0.756405 0.354253
0.738857 0.759060 0.361364
0.758968 0.762020 0.369055
0.779446 0.765133 0.377356
0.799954 0.768460 0.385870
0.820554 0.771725 0.394903
0.841062 0.775113 0.404059
0.861479 0.778531 0.413611
0.881834 0.782101 0.423438
0.904540 0.790097 0.444160
0.927092 0.799435 0.467750
0.949310 0.810208 0.494240
0.971099 0.822629 0.523827
0.992004 0.836667 0.556390
0.534844 0.774777 0.327306
0.536034 0.775082 0.327703
0.537346 0.775326 0.328130
0.540276 0.775387 0.328771
0.544518 0.775387 0.329290
0.550225 0.775448 0.330327
0.557305 0.775570 0.331640
0.565881 0.775753 0.333257
0.575860 0.776181 0.335363
0.587030 0.776822 0.337774
0.599573 0.777615 0.340887
0.613092 0.778744 0.344366
0.627710 0.779934 0.348394
0.643061 0.781216 0.352667
0.659205 0.782498 0.357214
0.675868 0.783871 0.362127
0.693202 0.785367 0.367712
0.711116 0.787076 0.373693
0.729671 0.789151 0.380255
0.748714 0.791562 0.387610
0.768124 0.794247 0.395392
0.787900 0.797116 0.403815
0.807767 0.800107 0.412482
0.827634 0.803220 0.421607
0.847440 0.806332 0.431006
0.867216 0.809506 0.440742
0.886870 0.812833 0.450874
0.906340 0.816312 0.461402
0.928252 0.824460 0.483894
0.950164 0.834501 0.510399
0.971557 0.845975 0.539757
0.992096 0.858946 0.572198
0.557275 0.808042 0.354192
0.558282 0.808255 0.354376
0.559655 0.808408 0.354925
0.562249 0.808530 0.355505
0.566278 0.808713 0.356420
0.571740 0.808988 0.357641
0.578698 0.809537 0.359411
0.587152 0.810300 0.361822
0.596979 0.811246 0.364782
0.608118 0.812467 0.368292
0.620325 0.813840 0.372229
0.633600 0.815335 0.376562
0.647791 0.816831 0.381262
0.662715 0.818357 0.386084
0.678248 0.819760 0.391394
0.694301 0.821103 0.396674
0.710872 0.822538 0.402258
0.727993 0.824125 0.408515
0.745754 0.825986 0.415320
0.764004 0.828122 0.422614
0.782559 0.830442 0.430762
0.801389 0.833005 0.439216
0.820401 0.835630 0.448005
0.839414 0.838346 0.457343
0.858396 0.841184 0.466926
0.877287 0.844022 0.476905
0.896025 0.847044 0.487343
0.914641 0.850217 0.498085
0.933074 0.853666 0.509331
0.953826 0.861814 0.533043
0.974548 0.872160 0.562066
0.994354 0.883787 0.594079
0.585718 0.843961 0.389471
0.586603 0.844114 0.389837
0.587732 0.844144 0.390051
0.590021 0.844175 0.390661
0.593622 0.844205 0.391455
0.598474 0.844297 0.392462
0.604761 0.844541 0.394110
0.612207 0.844968 0.396277
0.620996 0.845518 0.398779
0.630976 0.846250 0.401801
0.642084 0.847135 0.405280
0.654200 0.848081 0.409186
0.667262 0.849180 0.413764
0.681147 0.850309 0.418494
0.695613 0.851438 0.423346
0.710780 0.852628 0.428901
