其他预设/【232】美食博客调色预设124款/1.3D LUT预设（视频调色-PR-AE-PS-FCPX-达芬奇用）/Food Art #52.cube
# Created by Adobe Lightroom plugin Export LUT (1.17.0)
# www.johnrellis.com/lightroom/exportlut.htm
# Preset: Food Art #52
# Color profile: /Library/Application Support/Adobe/Color/Profiles/Recommended/AdobeRGB1998.icc
LUT_3D_SIZE 32
0.111452 0.111452 0.111452
0.111452 0.111452 0.111452
0.117708 0.111086 0.111971
0.139773 0.109194 0.113771
0.166720 0.110445 0.117159
0.193240 0.115175 0.121187
0.219974 0.120638 0.124971
0.247410 0.126894 0.129366
0.275639 0.133089 0.134005
0.304356 0.139834 0.140932
0.333898 0.147005 0.148196
0.363531 0.155093 0.156039
0.393317 0.163516 0.164218
0.423438 0.172793 0.173892
0.453620 0.182834 0.183505
0.483833 0.193027 0.193606
0.514183 0.203494 0.204349
0.544732 0.214084 0.215061
0.575463 0.224979 0.225864
0.610315 0.236942 0.237949
0.646723 0.249424 0.250248
0.683314 0.262272 0.262943
0.718288 0.275059 0.276127
0.751949 0.288853 0.289433
0.784482 0.302861 0.303410
0.815518 0.317662 0.318639
0.845243 0.334051 0.334752
0.873960 0.351965 0.352331
0.901732 0.371740 0.372381
0.928557 0.393957 0.394598
0.954345 0.419318 0.419837
0.978912 0.448402 0.448768
0.111452 0.111452 0.111452
0.111666 0.111666 0.111666
0.118746 0.112276 0.112062
0.141238 0.115480 0.114870
0.168124 0.119417 0.118196
0.194308 0.123354 0.122042
0.220859 0.128206 0.126345
0.247898 0.133577 0.130739
0.276066 0.139223 0.135500
0.304692 0.145510 0.142031
0.333867 0.152529 0.148959
0.363439 0.159976 0.156924
0.393072 0.168063 0.165347
0.423102 0.177371 0.174563
0.453010 0.186893 0.184268
0.483131 0.196658 0.194583
0.513329 0.206638 0.204959
0.543908 0.217319 0.215244
0.574487 0.227726 0.226261
0.608942 0.239780 0.238071
0.644892 0.251957 0.250187
0.681270 0.264073 0.262730
0.716152 0.276890 0.275639
0.749844 0.290227 0.289006
0.782467 0.304112 0.302831
0.813657 0.318883 0.317845
0.843595 0.335027 0.334112
0.872435 0.352850 0.351965
0.900389 0.372412 0.371527
0.927367 0.394598 0.393866
0.953246 0.419684 0.419104
0.977935 0.448493 0.447944
0.112337 0.120119 0.113252
0.112673 0.121553 0.112917
0.121675 0.123171 0.114382
0.143740 0.127047 0.116823
0.170077 0.130770 0.120485
0.195895 0.133944 0.124086
0.222171 0.137881 0.127993
0.249027 0.142306 0.131838
0.276768 0.147158 0.137118
0.305241 0.153048 0.143740
0.334234 0.159731 0.150393
0.363775 0.166812 0.158145
0.393225 0.174441 0.166781
0.423102 0.183169 0.176181
0.452918 0.192264 0.185672
0.483040 0.201877 0.195346
0.513176 0.211917 0.205783
0.543603 0.221744 0.216068
0.574212 0.232120 0.226993
0.608515 0.243809 0.238651
0.644282 0.255436 0.250736
0.680507 0.267643 0.263188
0.715328 0.280156 0.275883
0.748898 0.293248 0.289372
0.781552 0.306828 0.303044
0.812772 0.321569 0.317998
0.842741 0.337407 0.334203
0.871702 0.354864 0.351904
0.899718 0.374395 0.371832
0.926726 0.396399 0.393866
0.952667 0.421210 0.418982
0.977386 0.449866 0.447944
0.115145 0.145296 0.117891
0.118196 0.146242 0.117708
0.127687 0.147616 0.118715
0.149172 0.150668 0.121828
0.174838 0.152682 0.125032
0.199954 0.154421 0.128176
0.225437 0.156588 0.131044
0.251835 0.159396 0.135409
0.278874 0.163424 0.140719
0.307134 0.168368 0.147005
0.335943 0.173953 0.153841
0.364996 0.180362 0.161532
0.394324 0.187594 0.169955
0.423835 0.195621 0.178805
0.453529 0.203983 0.188296
0.483528 0.212772 0.198154
0.513481 0.221988 0.208438
0.543755 0.231479 0.218479
0.574670 0.241398 0.229068
0.608270 0.252201 0.240604
0.643336 0.263462 0.252476
0.679164 0.274937 0.264652
0.713985 0.287266 0.277165
0.747799 0.299931 0.290288
0.780789 0.313359 0.304295
0.812345 0.327886 0.319310
0.842618 0.343420 0.335546
0.871702 0.360784 0.353399
0.899718 0.379889 0.373114
0.926635 0.401495 0.395422
0.952453 0.425818 0.420356
0.977020 0.453803 0.448890
0.119570 0.174502 0.124331
0.125521 0.175326 0.123873
0.134615 0.176150 0.125216
0.153109 0.177981 0.127169
0.179538 0.180697 0.130587
0.205631 0.181552 0.133761
0.230289 0.181796 0.137148
0.255833 0.183413 0.141390
0.282353 0.186007 0.146548
0.309880 0.190005 0.152590
0.338048 0.194369 0.158785
0.366888 0.199771 0.166629
0.395819 0.206180 0.174777
0.425147 0.213199 0.183383
0.454749 0.220768 0.192935
0.484474 0.228855 0.202304
0.514519 0.237278 0.212253
0.544701 0.246128 0.222446
0.576043 0.255344 0.232975
0.609247 0.265446 0.243961
0.643946 0.276158 0.255283
0.679438 0.287083 0.267399
0.713924 0.298711 0.279454
0.747555 0.310887 0.292790
0.780514 0.323705 0.306676
0.812070 0.337530 0.321630
0.842283 0.352789 0.337621
0.871336 0.369360 0.355352
0.899260 0.387945 0.375067
0.926146 0.408942 0.397131
0.951934 0.432776 0.422156
0.976471 0.460365 0.450874
0.126955 0.203586 0.130861
0.132967 0.204105 0.131502
0.141176 0.204807 0.132235
0.157565 0.206149 0.134493
0.181186 0.208408 0.137911
0.210117 0.211276 0.142092
0.236912 0.211948 0.146151
0.261631 0.211826 0.149813
0.287449 0.213169 0.154452
0.314336 0.215549 0.159731
0.341955 0.219242 0.166415
0.370092 0.223636 0.173800
0.398688 0.228977 0.181460
0.427649 0.234928 0.190188
0.457038 0.241642 0.198611
0.486641 0.248722 0.208103
0.516503 0.256291 0.217563
0.546624 0.264225 0.227481
0.578332 0.273136 0.237858
0.611444 0.282536 0.248722
0.645960 0.292454 0.259739
0.681239 0.303075 0.271366
0.729274 0.320409 0.289952
0.762325 0.332525 0.303014
0.794003 0.344854 0.317174
0.824094 0.358129 0.332280
0.852873 0.372656 0.348302
0.880522 0.388678 0.366186
0.907195 0.406744 0.385962
0.932952 0.427131 0.408270
0.957549 0.450385 0.433387
0.981018 0.477211 0.461952
0.136202 0.234653 0.140780
0.141909 0.235080 0.141695
0.149325 0.235691 0.142519
0.164523 0.236820 0.144747
0.185367 0.238499 0.147677
0.212680 0.240909 0.151583
0.242252 0.243931 0.156435
0.270390 0.244968 0.160861
0.295598 0.244511 0.164920
0.321904 0.246036 0.170352
0.349157 0.248661 0.176394
0.376989 0.252110 0.183169
0.405035 0.256474 0.190768
0.433692 0.261387 0.199039
0.462745 0.266941 0.207248
0.491798 0.272984 0.215976
0.521233 0.279667 0.224949
0.552178 0.287144 0.234836
0.584131 0.295415 0.244999
0.617609 0.304356 0.255680
0.653254 0.314153 0.267124
0.689296 0.324773 0.278965
0.724605 0.335973 0.291936
0.758999 0.347539 0.305638
0.791989 0.359899 0.320043
0.822782 0.372930 0.335058
0.851804 0.386908 0.351598
0.879545 0.402289 0.369451
0.906249 0.419409 0.389014
0.931853 0.439002 0.411292
0.956481 0.461250 0.436072
0.979889 0.487343 0.464790
0.145907 0.264652 0.152346
0.151278 0.265049 0.152590
0.158053 0.265415 0.153384
0.171817 0.266300 0.155001
0.191318 0.267704 0.157870
0.214725 0.269718 0.161349
0.243412 0.272068 0.166049
0.273411 0.275212 0.171450
0.302342 0.276707 0.176730
0.327855 0.276890 0.181308
0.354314 0.278447 0.187350
0.381537 0.280888 0.193668
0.409216 0.284367 0.200626
0.437415 0.288487 0.207767
0.466011 0.293095 0.215946
0.494789 0.298161 0.224002
0.524407 0.304143 0.233036
0.555413 0.311101 0.242557
0.586694 0.318364 0.251957
0.619623 0.326421 0.262394
0.654597 0.335607 0.273045
0.690059 0.345464 0.284703
0.724849 0.355840 0.297032
0.758816 0.366766 0.310277
0.791440 0.378210 0.324620
0.822049 0.390539 0.339544
0.850980 0.403601 0.355657
0.878599 0.418158 0.373541
0.905272 0.434455 0.393317
0.930907 0.453101 0.415137
0.955474 0.474708 0.440223
0.978851 0.499763 0.468757
0.157931 0.295445 0.164828
0.162631 0.295628 0.165347
0.168429 0.296086 0.166445
0.181064 0.296666 0.167971
0.199191 0.297856 0.170077
0.220127 0.299382 0.173617
0.246036 0.301427 0.177523
0.274846 0.304082 0.182437
0.305119 0.307286 0.188052
0.334722 0.309483 0.194125
0.360571 0.309972 0.199191
0.387182 0.311559 0.205051
0.414405 0.314092 0.211643
0.442176 0.317327 0.218692
0.470253 0.321050 0.226078
0.499153 0.325719 0.233616
0.529168 0.331243 0.242405
0.559472 0.337255 0.251164
0.590204 0.343694 0.260288
0.622614 0.351080 0.269932
0.657160 0.359472 0.280186
0.691951 0.368536 0.291142
0.726192 0.378088 0.303380
0.759640 0.388464 0.316411
0.791867 0.399237 0.330205
0.822110 0.410529 0.345190
0.850828 0.422736 0.361364
0.878325 0.436439 0.378790
0.904784 0.451850 0.398352
0.930236 0.469642 0.420600
0.954681 0.490181 0.445289
0.977935 0.514366 0.473915
0.170901 0.326574 0.178897
0.174868 0.326848 0.179355
0.180392 0.327031 0.179660
0.191714 0.327703 0.181277
0.207919 0.328527 0.183383
0.228000 0.329686 0.186404
0.250523 0.331121 0.189853
0.278080 0.333440 0.194430
0.306889 0.336309 0.199771
0.336950 0.339452 0.206149
0.367224 0.342351 0.212192
0.393256 0.342840 0.217746
0.419989 0.344610 0.223484
0.447364 0.347265 0.229862
0.475837 0.350958 0.237095
0.505119 0.355322 0.244999
0.534752 0.360174 0.252842
0.564660 0.365301 0.260777
0.595056 0.371069 0.269627
0.627070 0.377691 0.278630
0.660853 0.385321 0.288518
0.694545 0.393622 0.298955
0.727657 0.402228 0.310491
0.760250 0.411444 0.323186
0.791775 0.421271 0.336736
0.821683 0.431830 0.351202
0.850278 0.443336 0.367254
0.877745 0.456245 0.384833
0.904234 0.470954 0.404547
0.929747 0.487892 0.426551
0.954162 0.507774 0.451972
0.977417 0.531182 0.480720
0.184207 0.357580 0.193606
0.187930 0.357763 0.193729
0.193118 0.357916 0.194217
0.203189 0.358434 0.195926
0.218570 0.359228 0.197513
0.237064 0.360266 0.200198
0.258427 0.361639 0.203433
0.282322 0.363439 0.207828
0.310216 0.365972 0.212619
0.339330 0.368902 0.218357
0.369512 0.372137 0.224369
0.400092 0.375708 0.231052
0.426673 0.376501 0.236576
0.454322 0.378973 0.242588
0.482490 0.382147 0.249393
0.511070 0.385809 0.256260
0.540093 0.389654 0.263493
0.569360 0.394171 0.271244
0.599298 0.399054 0.279240
0.631037 0.405066 0.287877
0.664179 0.412268 0.297063
0.697169 0.419623 0.307317
0.729854 0.427802 0.318791
0.761959 0.436469 0.331029
0.792966 0.445594 0.344427
0.822416 0.455268 0.358770
0.850553 0.465888 0.374487
0.877684 0.477852 0.391882
0.903899 0.491737 0.411627
0.929168 0.507774 0.433539
0.953399 0.526696 0.458900
0.976471 0.549157 0.488106
0.198703 0.389166 0.208774
0.201999 0.389471 0.209140
0.206668 0.389471 0.209720
0.215976 0.389960 0.210788
0.229953 0.390631 0.212558
0.247135 0.391608 0.215030
0.267277 0.392859 0.217929
0.289433 0.394354 0.221530
0.315221 0.396368 0.225895
0.343328 0.399207 0.231235
0.372656 0.402228 0.237064
0.403449 0.406409 0.243992
0.441901 0.417243 0.254307
0.469734 0.418677 0.260319
0.497932 0.421180 0.266361
0.526513 0.424079 0.272770
0.555352 0.427283 0.279576
0.584466 0.430945 0.286656
0.614191 0.435096 0.294163
0.645655 0.440589 0.302068
0.677333 0.446509 0.311040
0.708858 0.452949 0.320958
0.740078 0.459724 0.332006
0.770718 0.467323 0.343908
0.800290 0.475257 0.356909
0.828519 0.483955 0.371160
0.855619 0.493629 0.386847
0.881865 0.504570 0.404059
0.907195 0.517388 0.423560
0.931670 0.532433 0.445655
0.955138 0.550317 0.470893
0.977600 0.571771 0.500023
0.214389 0.423682 0.225437
0.217563 0.423865 0.225589
0.221561 0.423774 0.226078
0.230167 0.424079 0.227146
0.242985 0.424384 0.228641
0.259037 0.424964 0.230503
0.277836 0.425818 0.233341
0.298894 0.427039 0.236362
0.321874 0.428626 0.240513
0.349981 0.432105 0.245548
0.379614 0.436255 0.251987
0.410529 0.440803 0.258701
0.442512 0.445716 0.265690
0.474983 0.450752 0.273350
0.504051 0.452979 0.279179
0.532311 0.455604 0.285191
0.560784 0.458289 0.291264
0.589288 0.461280 0.297673
0.618616 0.464912 0.304601
0.649378 0.469642 0.312200
0.680293 0.474952 0.321019
0.711177 0.480629 0.330663
0.741665 0.486885 0.341100
0.771786 0.493660 0.352697
0.800748 0.500969 0.365484
0.828580 0.508812 0.379675
0.855406 0.517693 0.394995
0.881315 0.527947 0.412543
0.906462 0.539879 0.431952
0.930785 0.554192 0.454139
0.954162 0.571130 0.479438
0.976501 0.591821 0.508904
0.228977 0.455940 0.241093
0.232090 0.455879 0.241306
0.235538 0.456001 0.241520
0.243626 0.456153 0.242557
0.255161 0.456336 0.244053
0.270603 0.457130 0.245975
0.288579 0.458350 0.248508
0.308965 0.459754 0.251560
0.331273 0.461646 0.255589
0.356268 0.464179 0.259709
0.384833 0.467750 0.265354
0.414832 0.471901 0.271458
0.445747 0.476356 0.277989
0.477424 0.480873 0.285191
0.509361 0.485451 0.292271
0.538476 0.487404 0.297704
0.566247 0.489601 0.303471
0.594415 0.492103 0.309483
0.623377 0.495216 0.315892
0.653407 0.499367 0.323247
0.683711 0.504082 0.331579
0.713954 0.509239 0.340703
0.743832 0.514885 0.351293
0.773434 0.521080 0.362554
0.801877 0.527642 0.375372
0.829313 0.534844 0.389227
0.855741 0.542992 0.404578
0.881376 0.552514 0.421912
0.906249 0.563775 0.441535
0.930327 0.577203 0.463996
0.953491 0.593500 0.489509
0.975647 0.613367 0.519341
0.244541 0.490120 0.257481
0.246983 0.490333 0.257939
0.250706 0.490333 0.258305
0.257877 0.490547 0.258854
0.268986 0.490883 0.260288
0.283207 0.491279 0.261967
0.300450 0.491981 0.264164
0.319615 0.493111 0.266911
0.340856 0.494606 0.270115
0.363989 0.496620 0.274083
0.390387 0.499550 0.279057
0.419562 0.503319 0.284703
0.449775 0.507378 0.290623
0.480720 0.511650 0.296971
0.512139 0.515831 0.303899
0.543542 0.519768 0.310796
0.572625 0.521569 0.316228
0.600244 0.523461 0.321599
0.628779 0.526268 0.327581
0.658045 0.529778 0.334630
0.687465 0.533776 0.342565
0.716915 0.538354 0.351629
0.746365 0.543389 0.361730
0.775265 0.548882 0.373236
0.803220 0.554864 0.385809
0.830320 0.561486 0.399603
0.856535 0.569238 0.415473
0.882078 0.578271 0.433082
0.906859 0.589014 0.452949
0.930846 0.602106 0.475898
0.953796 0.617945 0.502342
0.975769 0.637385 0.532921
0.259709 0.524956 0.274022
0.262364 0.525109 0.274235
0.265599 0.525139 0.274571
0.272435 0.525322 0.275395
0.282963 0.525628 0.276646
0.296696 0.526055 0.277897
0.312718 0.526818 0.280217
0.331182 0.527794 0.282506
0.351812 0.529198 0.285771
0.373968 0.530816 0.289372
0.397498 0.532586 0.293004
0.425544 0.535729 0.298161
0.454566 0.539025 0.303502
0.484535 0.542596 0.309483
0.514824 0.546105 0.315435
0.545647 0.549676 0.322057
0.576776 0.553246 0.328557
0.606256 0.555352 0.334264
0.634516 0.557733 0.339971
0.663203 0.560876 0.346746
0.692195 0.564446 0.354742
0.721218 0.568505 0.363684
0.750149 0.573114 0.373785
0.778439 0.578058 0.385138
0.805875 0.583459 0.397650
0.832456 0.589532 0.411994
0.858274 0.596551 0.427588
0.883360 0.604974 0.445502
0.907713 0.615106 0.465705
0.931243 0.627375 0.488869
0.953765 0.642329 0.515343
0.975250 0.660883 0.546197
0.274723 0.558923 0.289769
0.276738 0.559045 0.290043
0.279942 0.559014 0.290227
0.286381 0.559197 0.290929
0.296239 0.559350 0.291966
0.308904 0.559747 0.293645
0.324407 0.560296 0.295171
0.342199 0.561120 0.297459
0.361761 0.562158 0.300389
0.383124 0.563622 0.303502
0.406043 0.565179 0.307317
0.430976 0.567315 0.311284
0.459388 0.570520 0.316472
0.488624 0.573754 0.322026
0.518578 0.577020 0.327642
0.548699 0.580224 0.333715
0.579217 0.583520 0.339910
0.610285 0.587060 0.346593
0.640223 0.589685 0.352544
0.668147 0.591699 0.359197
0.696345 0.594629 0.366888
0.724697 0.598169 0.375799
0.752987 0.602136 0.385901
0.780697 0.606531 0.397070
0.807614 0.611353 0.409796
0.833738 0.616876 0.423926
0.859220 0.623346 0.440040
0.884031 0.631281 0.457923
0.908049 0.640803 0.478584
0.931273 0.652461 0.501915
0.953552 0.666865 0.528954
0.974731 0.684840 0.560540
0.289555 0.593500 0.305974
0.291936 0.593683 0.306126
0.297765 0.601312 0.310094
0.304295 0.601373 0.310613
0.313695 0.601373 0.311559
0.325750 0.601526 0.312810
0.340551 0.601740 0.314275
0.357519 0.601984 0.316167
0.376532 0.602808 0.318608
0.397253 0.603754 0.321508
0.419562 0.604974 0.324743
0.442817 0.606256 0.328435
0.469337 0.608362 0.332738
0.498207 0.611048 0.337743
0.527276 0.613703 0.343328
0.556909 0.616266 0.348882
0.586938 0.618952 0.354742
0.617060 0.621576 0.361181
0.647364 0.624353 0.367681
0.677089 0.626764 0.374487
0.704219 0.628107 0.382208
0.731624 0.630732 0.390600
0.758877 0.633814 0.400519
0.785489 0.637263 0.411749
0.811246 0.640986 0.424262
0.836423 0.645502 0.438087
0.860960 0.651026 0.453864
0.885008 0.657954 0.471778
0.908476 0.666651 0.492317
0.931273 0.677607 0.515831
0.953185 0.691371 0.543297
0.974029 0.708400 0.575067
0.305455 0.630762 0.323003
0.308049 0.631800 0.323583
0.311192 0.632868 0.324254
0.317296 0.633875 0.325628
0.326757 0.634668 0.326726
0.338506 0.635065 0.327977
0.352758 0.635340 0.329412
0.368811 0.635676 0.331304
0.387366 0.636255 0.333532
0.407355 0.636957 0.336400
0.428809 0.637873 0.339269
0.451545 0.638911 0.342748
0.474983 0.639918 0.346654
0.502708 0.641962 0.351202
0.531182 0.644221 0.356481
0.560174 0.646357 0.361852
0.589410 0.648585 0.367712
0.618799 0.650843 0.374090
0.648615 0.653407 0.380652
0.678645 0.656092 0.387732
0.708370 0.658839 0.394995
0.735348 0.660273 0.403784
0.761990 0.662867 0.413947
0.788022 0.665736 0.425177
0.813352 0.668971 0.437751
0.838071 0.672999 0.451789
0.862242 0.678004 0.467720
0.885832 0.684413 0.485817
0.908934 0.692561 0.506828
0.931304 0.702968 0.530968
0.952819 0.716030 0.558831
0.973480 0.731960 0.590173
0.320867 0.664637 0.339574
0.323369 0.665583 0.340246
0.326513 0.666468 0.340948
0.332372 0.667353 0.341985
0.341131 0.668025 0.342962
0.352209 0.668360 0.344549
0.365789 0.668544 0.345830
0.381445 0.668757 0.347662
0.398932 0.669184 0.349828
0.418158 0.669642 0.352422
0.439002 0.670375 0.355322
0.461036 0.671199 0.358648
0.483833 0.671901 0.362036
0.508324 0.672908 0.366094
0.536126 0.674769 0.371283
0.564294 0.676570 0.376532
0.592828 0.678523 0.382086
0.621546 0.680476 0.388434
0.650752 0.682612 0.394965
0.680201 0.685054 0.401923
0.709712 0.687770 0.409461
0.739345 0.690852 0.417731
0.765408 0.692012 0.427771
0.790799 0.694270 0.439368
0.815610 0.696925 0.451911
0.839780 0.700282 0.466255
0.863432 0.704707 0.482216
0.886625 0.710506 0.500633
0.909239 0.718044 0.521874
0.931182 0.727779 0.546380
0.952422 0.740017 0.574243
0.972869 0.754849 0.605066
0.337743 0.697627 0.357153
0.339879 0.698390 0.358007
0.343053 0.699245 0.358556
0.348547 0.700038 0.359533
0.356847 0.700587 0.360845
0.367529 0.700862 0.362188
0.380255 0.700954 0.363439
0.395026 0.701106 0.365118
0.411688 0.701289 0.367041
0.430121 0.701595 0.369574
0.450111 0.702113 0.372229
0.471199 0.702632 0.375402
0.493263 0.703151 0.378973
0.515953 0.703639 0.382483
0.541680 0.704891 0.387121
0.569299 0.706630 0.392493
0.597467 0.708583 0.398322
0.625940 0.710719 0.404822
0.654810 0.713008 0.411688
0.683864 0.715450 0.419257
0.713008 0.718166 0.427192
0.742214 0.721004 0.435584
0.771420 0.724239 0.444862
0.796445 0.725002 0.457008
0.820737 0.727230 0.470192
0.844388 0.730220 0.485084
0.867491 0.734127 0.501762
0.890074 0.739467 0.520806
0.912108 0.746487 0.542596
0.933410 0.755581 0.567407
0.954162 0.766812 0.594781
0.974121 0.780575 0.625238
0.358434 0.732998 0.378363
0.360388 0.733394 0.379034
0.362707 0.733700 0.379278
0.367864 0.733944 0.379950
0.375463 0.734096 0.381048
0.385229 0.734096 0.382055
0.397192 0.734127 0.383276
0.411231 0.734188 0.385077
0.427131 0.734401 0.387274
0.444831 0.734737 0.389441
0.464027 0.735164 0.392370
0.484443 0.735622 0.395575
0.505638 0.736049 0.399054
0.527611 0.736324 0.402655
0.550103 0.736568 0.406378
0.576684 0.737850 0.411566
0.603998 0.739284 0.417487
0.631525 0.740841 0.423835
0.659419 0.742611 0.430579
0.687373 0.744533 0.437995
0.715450 0.746517 0.445808
0.743404 0.748684 0.454047
0.771267 0.750912 0.462837
0.799313 0.753841 0.472572
0.823026 0.754208 0.486061
0.846128 0.756619 0.501030
0.868803 0.760006 0.517845
0.890929 0.764797 0.537346
0.912505 0.771267 0.559594
0.933532 0.779477 0.583978
0.953979 0.789731 0.610803
0.973693 0.802426 0.640681
0.378882 0.763668 0.399359
0.380835 0.764004 0.399695
0.383093 0.764309 0.400153
0.387884 0.764492 0.400824
0.394659 0.764614 0.401740
0.403784 0.764553 0.402960
0.415045 0.764492 0.404181
0.428107 0.764340 0.405768
0.442969 0.764431 0.407630
0.459785 0.764492 0.409949
0.477882 0.764767 0.412696
0.497108 0.765042 0.415839
0.517388 0.765194 0.419196
0.538537 0.765377 0.422766
0.560296 0.765560 0.426551
0.583490 0.765957 0.431067
0.609888 0.767178 0.437018
0.636652 0.768582 0.443458
0.663661 0.770108 0.450538
0.690852 0.771786 0.457923
0.718135 0.773587 0.465980
0.745388 0.775509 0.474525
0.772335 0.777615 0.483742
0.799008 0.779782 0.493233
0.824582 0.781216 0.501366
0.847379 0.781765 0.516655
0.869535 0.784573 0.534020
0.891295 0.788815 0.553613
0.912505 0.794553 0.575555
0.933318 0.802029 0.599542
0.953582 0.811551 0.626215
0.973022 0.823117 0.655329
0.404120 0.794980 0.424445
0.405646 0.795346 0.424659
0.407782 0.795560 0.425422
0.412085 0.795560 0.425849
0.418341 0.795468 0.426368
0.426459 0.795224 0.427344
0.436683 0.794949 0.428565
0.448646 0.794614 0.429877
0.462379 0.794278 0.431434
0.477668 0.794034 0.433661
0.494392 0.793820 0.435981
0.512352 0.793729 0.438849
0.531334 0.793606 0.441993
0.551202 0.793454 0.445197
0.571618 0.793210 0.448798
0.592767 0.792935 0.452491
0.616327 0.793301 0.457527
0.641962 0.794186 0.463783
0.667994 0.795438 0.470802
0.694179 0.796902 0.478462
0.720607 0.798550 0.486610
0.746914 0.800259 0.495430
0.772915 0.802060 0.504662
0.798520 0.803799 0.514275
0.823636 0.805509 0.524163
0.849119 0.808164 0.534447
0.871183 0.809506 0.551904
0.892393 0.812711 0.571252
0.913207 0.817716 0.592584
0.933654 0.824369 0.616052
0.953582 0.832914 0.641993
0.972686 0.843473 0.670588
0.428779 0.821805 0.448768
0.430488 0.822110 0.449439
0.432441 0.822324 0.449928
0.436255 0.822354 0.450416
0.441993 0.822232 0.451057
0.449531 0.822049 0.452186
0.458900 0.821775 0.453285
0.469856 0.821469 0.454536
0.482734 0.821195 0.456489
0.496925 0.821042 0.458625
0.512657 0.820920 0.461036
0.529656 0.820859 0.464057
0.547601 0.820768 0.467323
0.566430 0.820615 0.470710
0.585931 0.820432 0.474250
0.605951 0.820249 0.478218
0.626520 0.820035 0.482551
0.650813 0.820737 0.488777
0.675685 0.821775 0.495857
0.700923 0.822965 0.503655
0.726253 0.824338 0.512016
0.751522 0.825803 0.520989
0.776516 0.827359 0.530449
0.801175 0.828916 0.540429
0.825345 0.830503 0.550561
0.848997 0.832151 0.560937
0.872099 0.833951 0.571557
0.894408 0.836912 0.590326
0.914885 0.840940 0.611261
0.934997 0.846983 0.634485
0.954406 0.854520 0.659754
0.973266 0.864134 0.687556
0.457343 0.847990 0.476692
0.458839 0.848203 0.477180
0.460517 0.848264 0.477668
0.463844 0.848203 0.477943
0.468879 0.847990 0.478584
0.475563 0.847715 0.479561
0.483925 0.847379 0.480537
0.493965 0.847044 0.481910
0.505669 0.846769 0.483436
0.518791 0.846586 0.485634
0.533288 0.846433 0.488289
0.549126 0.846372 0.491127
0.565942 0.846281 0.494514
0.583673 0.846159 0.497993
0.602045 0.845945 0.502007
0.620905 0.845701 0.505943
0.640314 0.845426 0.510246
0.661067 0.845518 0.515282
0.684871 0.846281 0.522728
0.708919 0.847318 0.530571
0.733150 0.848478 0.539208
0.757290 0.849760 0.548272
0.781216 0.851102 0.557824
0.804776 0.852537 0.567620
0.827817 0.854002 0.577569
0.850462 0.855497 0.587701
0.872648 0.857176 0.598138
0.894285 0.858946 0.608637
0.915953 0.862791 0.628290
0.935607 0.867491 0.650904
0.954681 0.874205 0.675532
0.973266 0.882841 0.702541
0.488136 0.872129 0.506706
0.489296 0.872251 0.506981
0.490883 0.872313 0.507317
0.493812 0.872282 0.507774
0.498512 0.872160 0.508598
0.504814 0.872099 0.509667
0.512840 0.872099 0.511315
0.522576 0.872190 0.513359
0.533806 0.872343 0.515679
0.546624 0.872587 0.518822
0.560540 0.872862 0.522026
0.575647 0.873136 0.525811
0.591638 0.873320 0.529686
0.608392 0.873411 0.533928
0.625727 0.873411 0.538262
0.643397 0.873228 0.542535
0.661555 0.873045 0.547021
0.680171 0.872923 0.552087
0.701228 0.873320 0.558648
0.723781 0.874113 0.566400
0.746517 0.875090 0.574823
0.769131 0.876158 0.583703
0.791592 0.877287 0.592920
0.813809 0.878538 0.602167
0.835569 0.879850 0.611810
0.856992 0.881224 0.621637
0.877958 0.882719 0.631769
0.898466 0.884398 0.642084
0.918303 0.886168 0.652705
0.938720 0.890410 0.672450
0.957336 0.895750 0.696223
0.975402 0.903349 0.722011
0.527337 0.897429 0.544579
0.528435 0.897459 0.544976
0.529656 0.897429 0.545281
0.532158 0.897337 0.545617
0.536126 0.897154 0.546014
0.541466 0.896971 0.547021
0.548425 0.896818 0.548272
0.556756 0.896696 0.550134
0.566522 0.896574 0.552209
0.577569 0.896544 0.554650
0.589837 0.896483 0.557488
0.603174 0.896483 0.560845
0.617487 0.896422 0.564385
0.632502 0.896361 0.568139
0.648127 0.896239 0.572076
0.664393 0.896117 0.576196
