其他预设/【232】美食博客调色预设124款/1.3D LUT预设（视频调色-PR-AE-PS-FCPX-达芬奇用）/Food Art #52.cube
# Created by Adobe Lightroom plugin Export LUT (1.17.0)
# www.johnrellis.com/lightroom/exportlut.htm
# Preset: Food Art #52
# Color profile: /Library/Application Support/Adobe/Color/Profiles/Recommended/AdobeRGB1998.icc
LUT_3D_SIZE 5
DOMAIN_MIN 0.000000 0.000000 0.000000
DOMAIN_MAX 0.903226 0.903226 0.903226
0.111452 0.111452 0.111452
0.247410 0.126894 0.129366
0.453620 0.182834 0.183505
0.683314 0.262272 0.262943
0.901732 0.371740 0.372381
0.145907 0.264652 0.152346
0.273411 0.275212 0.171450
0.466011 0.293095 0.215946
0.690059 0.345464 0.284703
0.905272 0.434455 0.393317
0.244541 0.490120 0.257481
0.319615 0.493111 0.266911
0.512139 0.515831 0.303899
0.716915 0.538354 0.351629
0.906859 0.589014 0.452949
0.358434 0.732998 0.378363
0.411231 0.734188 0.385077
0.550103 0.736568 0.406378
0.743404 0.748684 0.454047
0.912505 0.771267 0.559594
0.564630 0.918822 0.580652
0.590875 0.918334 0.586236
0.668299 0.915557 0.602014
0.790249 0.918700 0.644770
0.923064 0.927337 0.709102
0.063905 0.113893 0.228763
0.246891 0.140871 0.246769
0.451789 0.212680 0.286534
0.675959 0.281834 0.341192
0.894804 0.383398 0.425818
0.163821 0.270481 0.264012
0.274876 0.274876 0.274876
0.464790 0.307256 0.307195
0.683589 0.355383 0.355474
0.896666 0.441138 0.441444
0.266545 0.489418 0.335882
0.333776 0.492042 0.340490
0.505425 0.508141 0.364721
0.709194 0.536492 0.405615
0.902495 0.594629 0.496956
0.384558 0.731350 0.441993
0.424720 0.733242 0.439124
0.557092 0.735378 0.456123
0.742214 0.746761 0.497078
0.909606 0.773526 0.593713
0.590082 0.916136 0.622095
0.605219 0.916777 0.618677
0.682216 0.916747 0.636408
0.795102 0.919005 0.670619
0.923980 0.927947 0.727718
0.000000 0.147127 0.425269
0.212711 0.163302 0.431861
0.453254 0.215122 0.453346
0.677913 0.290501 0.495186
0.891417 0.399512 0.553979
0.171450 0.318425 0.447517
0.238315 0.284855 0.453101
0.468238 0.309758 0.468299
0.684932 0.363989 0.505730
0.892546 0.457984 0.566430
0.272709 0.509422 0.495949
0.345281 0.509575 0.499153
0.508995 0.508995 0.508995
0.708461 0.542290 0.542260
0.896025 0.609064 0.609155
0.399542 0.735195 0.569787
0.450141 0.733425 0.573144
0.578241 0.733608 0.584253
0.741878 0.744656 0.610620
0.904540 0.777584 0.676570
0.605859 0.915282 0.694301
0.634638 0.914702 0.701534
0.702113 0.914824 0.710414
0.798825 0.916411 0.728328
0.923095 0.926299 0.770474
0.000000 0.193698 0.655573
0.098817 0.202670 0.657862
0.445777 0.227848 0.662257
0.680018 0.288701 0.680140
0.888731 0.411688 0.713558
0.000000 0.347173 0.667964
0.136904 0.307408 0.670558
0.453681 0.318364 0.671992
0.685725 0.360327 0.685817
0.888243 0.465370 0.718013
0.264378 0.576287 0.699489
0.339055 0.576196 0.701106
0.476448 0.518761 0.700862
0.702907 0.532433 0.702876
0.891081 0.607111 0.736782
0.415137 0.757961 0.738155
0.465064 0.755795 0.738186
0.594568 0.751217 0.740536
0.741756 0.741756 0.741756
0.901915 0.774472 0.774502
0.634241 0.918151 0.801205
0.658350 0.917693 0.803891
0.725429 0.917815 0.811124
0.810330 0.918517 0.814145
0.924193 0.926116 0.834897
0.000000 0.244511 0.875853
0.000000 0.251377 0.875425
0.396612 0.274144 0.874540
0.671412 0.307591 0.871397
0.879271 0.408423 0.879423
0.000000 0.365850 0.876707
0.000000 0.334508 0.877470
0.401801 0.349218 0.876188
0.671595 0.371221 0.871885
0.879240 0.457038 0.879362
0.275334 0.611444 0.882658
0.337194 0.600244 0.881529
0.424109 0.528069 0.883330
0.677913 0.535607 0.877653
0.883879 0.593774 0.884001
0.474922 0.800259 0.897490
0.510399 0.799435 0.896941
0.610620 0.797024 0.896818
0.716609 0.747433 0.895018
0.899229 0.766293 0.899260
0.660731 0.936278 0.918486
0.678889 0.935424 0.918639
0.738705 0.934051 0.920714
0.824796 0.931456 0.923766
0.923064 0.923033 0.923033
