其他预设/【232】美食博客调色预设124款/1.3D LUT预设（视频调色-PR-AE-PS-FCPX-达芬奇用）/Food Art #45.cube
# Created by Adobe Lightroom plugin Export LUT (1.17.0)
# www.johnrellis.com/lightroom/exportlut.htm
# Preset: Food Art #45
# Color profile: /Library/Application Support/Adobe/Color/Profiles/Recommended/AdobeRGB1998.icc
LUT_3D_SIZE 5
DOMAIN_MIN 0.000000 0.000000 0.000000
DOMAIN_MAX 0.903226 0.903226 0.903226
0.071443 0.079866 0.155734
0.199802 0.114046 0.193912
0.383886 0.203891 0.268498
0.590509 0.322301 0.360235
0.831907 0.492744 0.493568
0.166140 0.219608 0.226047
0.259251 0.242130 0.251225
0.411505 0.287602 0.303685
0.609491 0.380621 0.382971
0.841428 0.542016 0.517906
0.327214 0.428016 0.343511
0.372564 0.439368 0.355383
0.508476 0.485573 0.398108
0.673121 0.542596 0.456580
0.859983 0.665370 0.584894
0.502739 0.667597 0.477241
0.533898 0.674952 0.486793
0.628443 0.697597 0.519707
0.754147 0.732906 0.575036
0.892119 0.806424 0.682826
0.745357 0.876555 0.683864
0.759854 0.878965 0.690150
0.803433 0.885801 0.709285
0.872953 0.904234 0.748562
0.943969 0.929137 0.797147
0.070283 0.086824 0.225284
0.205570 0.131472 0.255650
0.389654 0.234043 0.319219
0.589929 0.341924 0.396551
0.826658 0.500877 0.516442
0.181979 0.222171 0.279149
0.266789 0.248295 0.300694
0.417731 0.305699 0.346715
0.608698 0.392981 0.415076
0.834134 0.545190 0.536309
0.336065 0.428992 0.372900
0.383246 0.441810 0.386755
0.504509 0.480842 0.421607
0.668513 0.542718 0.478584
0.857816 0.668849 0.601495
0.510002 0.667536 0.499184
0.542657 0.675166 0.510216
0.632959 0.697200 0.540551
0.753994 0.732204 0.591241
0.891722 0.807431 0.693111
0.747890 0.875914 0.693263
0.762020 0.878355 0.699184
0.808621 0.888304 0.721096
0.875120 0.905577 0.756771
0.945037 0.930175 0.802884
0.132845 0.121370 0.344762
0.227604 0.159579 0.360021
0.399664 0.247745 0.402930
0.600885 0.355779 0.471382
0.829465 0.516777 0.579706
0.227207 0.243717 0.377478
0.287633 0.264012 0.389288
0.431342 0.320531 0.426856
0.620050 0.409522 0.489754
0.836027 0.557885 0.594720
0.354284 0.436011 0.449165
0.398199 0.449348 0.459815
0.521752 0.495277 0.496925
0.677882 0.558190 0.548028
0.857877 0.674372 0.645319
0.519646 0.667536 0.556970
0.550835 0.673396 0.565332
0.642603 0.698116 0.595056
0.757687 0.734676 0.638300
0.892699 0.809232 0.721157
0.749203 0.874205 0.719081
0.764096 0.877226 0.725002
0.807736 0.887266 0.742092
0.873960 0.904692 0.773251
0.944701 0.929686 0.814908
0.210361 0.174899 0.484779
0.278050 0.202731 0.494514
0.432898 0.276310 0.527794
0.618402 0.372595 0.579400
0.838010 0.536614 0.672328
0.276707 0.277287 0.507164
0.326299 0.292760 0.515831
0.460517 0.343297 0.545464
0.634668 0.423377 0.592828
0.842039 0.571862 0.680079
0.386816 0.458289 0.564599
0.425696 0.470008 0.572686
0.535760 0.504753 0.597192
0.685786 0.564385 0.635248
0.860380 0.672297 0.708583
0.543755 0.676204 0.648829
0.571160 0.681788 0.653498
0.651972 0.702785 0.671473
0.767056 0.742458 0.705867
0.895232 0.803281 0.759701
0.755947 0.875303 0.766506
0.768795 0.877897 0.770169
0.808774 0.887938 0.782284
0.870176 0.905760 0.802304
0.946777 0.931609 0.838743
0.303075 0.241672 0.715602
0.361395 0.263432 0.720394
0.510399 0.331456 0.736385
0.689479 0.438300 0.760739
0.854551 0.574426 0.789761
0.336736 0.322576 0.724117
0.388403 0.338170 0.728359
0.527947 0.392126 0.742916
0.700038 0.485786 0.765408
0.858762 0.606470 0.793515
0.431250 0.504326 0.749172
0.459815 0.505608 0.750362
0.578210 0.541009 0.761105
0.731807 0.608057 0.780423
0.873930 0.693751 0.807675
0.623224 0.731746 0.792874
0.640314 0.733822 0.793820
0.690761 0.738338 0.797147
0.780667 0.754147 0.807431
0.903502 0.810239 0.836057
0.786313 0.892668 0.843809
0.795041 0.894163 0.845151
0.825315 0.900175 0.850675
0.876829 0.912322 0.861967
0.952483 0.937407 0.885496
