其他预设/【232】美食博客调色预设124款/1.3D LUT预设（视频调色-PR-AE-PS-FCPX-达芬奇用）/Food Art #16.cube
# Created by Adobe Lightroom plugin Export LUT (1.17.0)
# www.johnrellis.com/lightroom/exportlut.htm
# Preset: Food Art #16
# Color profile: /Library/Application Support/Adobe/Color/Profiles/Recommended/AdobeRGB1998.icc
LUT_3D_SIZE 32
0.307195 0.242130 0.272740
0.302434 0.241459 0.272343
0.298192 0.240635 0.271733
0.294438 0.238468 0.270390
0.294591 0.236057 0.268833
0.300664 0.234104 0.267826
0.312749 0.232120 0.266850
0.330175 0.229831 0.265812
0.352331 0.226993 0.264714
0.378149 0.223697 0.263554
0.407019 0.219883 0.262364
0.438025 0.215854 0.261265
0.470283 0.211551 0.260349
0.503014 0.207553 0.259800
0.535424 0.204532 0.259586
0.567376 0.201907 0.259770
0.597864 0.201205 0.260441
0.625940 0.201907 0.261662
0.651728 0.204685 0.263432
0.680018 0.210361 0.266087
0.708431 0.218082 0.269017
0.736873 0.227726 0.272251
0.764920 0.238987 0.275761
0.792752 0.251987 0.279576
0.820371 0.266606 0.283391
0.847654 0.283238 0.287449
0.874784 0.302495 0.292149
0.901488 0.324315 0.297185
0.927428 0.349157 0.303014
0.952331 0.377173 0.309667
0.975921 0.407904 0.317266
0.997833 0.441321 0.326177
0.305791 0.236820 0.272221
0.301884 0.236790 0.271885
0.298161 0.236881 0.271275
0.294560 0.236118 0.269871
0.294926 0.234958 0.268528
0.301061 0.233921 0.267613
0.312932 0.232578 0.266667
0.330266 0.230777 0.265599
0.352087 0.228336 0.264561
0.377691 0.225345 0.263371
0.406348 0.221958 0.262242
0.437140 0.217960 0.261173
0.469062 0.213962 0.260349
0.501549 0.210544 0.259770
0.533989 0.207401 0.259586
0.565667 0.205112 0.259922
0.596216 0.204440 0.260502
0.624323 0.205295 0.261723
0.650172 0.207828 0.263371
0.678248 0.213169 0.265965
0.706142 0.220768 0.268894
0.734249 0.229770 0.272038
0.762142 0.240665 0.275486
0.789944 0.253056 0.279179
0.817502 0.267613 0.282963
0.844968 0.284001 0.287114
0.872374 0.302617 0.291478
0.899260 0.324498 0.296666
0.925444 0.349035 0.302464
0.950591 0.376837 0.309117
0.974395 0.407416 0.316625
0.996521 0.440650 0.325444
0.304021 0.232914 0.271153
0.301305 0.233066 0.270848
0.298161 0.233219 0.270481
0.294774 0.233616 0.269291
0.295262 0.233951 0.268223
0.301518 0.233829 0.267308
0.313359 0.233249 0.266361
0.330388 0.232029 0.265354
0.352087 0.230106 0.264347
0.377508 0.227695 0.263249
0.405890 0.224643 0.262089
0.436591 0.221256 0.261051
0.468452 0.217380 0.260227
0.500847 0.214176 0.259739
0.533013 0.211460 0.259617
0.564843 0.209323 0.259892
0.595300 0.208621 0.260624
0.623407 0.209476 0.261784
0.649287 0.212284 0.263462
0.677333 0.217441 0.265995
0.705043 0.224704 0.268864
0.732967 0.233402 0.272038
0.760739 0.244022 0.275425
0.788510 0.256199 0.279088
0.816068 0.270268 0.282750
0.843565 0.286442 0.286900
0.870970 0.304967 0.291356
0.898009 0.326482 0.296544
0.924376 0.350866 0.302190
0.949645 0.378393 0.308782
0.973541 0.408698 0.316381
0.995789 0.441688 0.325170
0.300450 0.229862 0.269078
0.299199 0.230076 0.268894
0.297765 0.230289 0.268681
0.295354 0.230747 0.268284
0.296178 0.232639 0.267552
0.302739 0.234348 0.266636
0.314641 0.235080 0.265751
0.331579 0.235080 0.264805
0.353033 0.234104 0.263798
0.378149 0.232364 0.262730
0.406165 0.230167 0.261692
0.436652 0.227451 0.260777
0.468116 0.224552 0.260075
0.500237 0.221988 0.259709
0.532311 0.219669 0.259586
0.563989 0.218265 0.259983
0.594293 0.217807 0.260716
0.622339 0.218753 0.261936
0.648798 0.221408 0.263676
0.676051 0.226535 0.266087
0.703151 0.233127 0.268986
0.730617 0.241428 0.272129
0.758419 0.251621 0.275395
0.786343 0.263493 0.279026
0.814420 0.277348 0.282841
0.842466 0.293248 0.286931
0.870329 0.311650 0.291569
0.897673 0.333013 0.296696
0.924071 0.357214 0.302373
0.949279 0.384222 0.308965
0.973053 0.413947 0.316533
0.995148 0.446174 0.325170
0.298039 0.231846 0.267460
0.297795 0.232090 0.267369
0.297459 0.232456 0.267216
0.297368 0.233066 0.266880
0.298436 0.234073 0.266484
0.304417 0.236637 0.265812
0.316350 0.239109 0.264958
0.333104 0.240421 0.264073
0.354131 0.240635 0.263157
0.378668 0.240238 0.262150
0.406348 0.239017 0.261204
0.436378 0.237430 0.260380
0.467597 0.235630 0.259861
0.499550 0.233677 0.259648
0.531548 0.232212 0.259709
0.563226 0.231388 0.260044
0.593713 0.231388 0.260899
0.621759 0.232578 0.262272
0.649104 0.235416 0.264134
0.675837 0.240085 0.266606
0.702419 0.246372 0.269352
0.729580 0.254398 0.272374
0.757137 0.263981 0.275700
0.784970 0.275456 0.279332
0.813077 0.288792 0.282994
0.841306 0.304082 0.287144
0.869169 0.322087 0.291752
0.896544 0.342565 0.296757
0.923003 0.366125 0.302525
0.948241 0.392584 0.308995
0.972107 0.421546 0.316472
0.994263 0.453162 0.325170
0.295964 0.240452 0.265873
0.296483 0.240787 0.265812
0.297124 0.241123 0.265629
0.298833 0.241855 0.265446
0.302281 0.242863 0.265049
0.308049 0.243992 0.264622
0.319097 0.246616 0.263920
0.335607 0.249210 0.263096
0.356329 0.250706 0.262242
0.380529 0.251316 0.261387
0.407813 0.251377 0.260594
0.437507 0.250797 0.260014
0.468238 0.250034 0.259678
0.500008 0.249088 0.259617
0.531762 0.248600 0.259709
0.563348 0.248478 0.260319
0.593622 0.248936 0.261326
0.621607 0.250309 0.262730
0.649836 0.253391 0.264775
0.676204 0.258061 0.267155
0.702663 0.264286 0.270024
0.729885 0.271641 0.273198
0.774136 0.290532 0.279057
0.802029 0.302770 0.282811
0.829496 0.316503 0.286778
0.856565 0.332250 0.291081
0.882994 0.350042 0.295750
0.908721 0.370306 0.300938
0.933440 0.393194 0.306676
0.957122 0.418677 0.313268
0.979339 0.446571 0.320867
0.999908 0.476539 0.329625
0.293980 0.256992 0.263981
0.295018 0.257145 0.263951
0.296422 0.257542 0.263859
0.299748 0.258152 0.263645
0.305272 0.259098 0.263340
0.313451 0.260227 0.262974
0.324804 0.261601 0.262577
0.340795 0.263676 0.261906
0.361669 0.266056 0.261173
0.386175 0.267582 0.260533
0.413703 0.268650 0.259983
0.443183 0.269230 0.259617
0.473793 0.269413 0.259495
0.505180 0.269383 0.259617
0.536370 0.269505 0.260044
0.567315 0.269841 0.260716
0.596857 0.270848 0.261845
0.626154 0.272923 0.263462
0.654108 0.276280 0.265751
0.680659 0.280980 0.268498
0.708186 0.287480 0.271611
0.736904 0.295872 0.274968
0.766323 0.306126 0.278660
0.795926 0.318364 0.282567
0.825162 0.332403 0.286778
0.853300 0.347936 0.291112
0.880369 0.365393 0.295811
0.906371 0.384955 0.301030
0.931365 0.406867 0.306798
0.955108 0.431464 0.313268
0.977478 0.458228 0.320806
0.998199 0.487221 0.329412
0.292363 0.277623 0.262181
0.293828 0.277745 0.262119
0.295750 0.277958 0.262119
0.300084 0.278569 0.261936
0.307012 0.279240 0.261723
0.316533 0.280369 0.261479
0.329168 0.281346 0.261204
0.344854 0.282780 0.260899
0.364538 0.284581 0.260441
0.388586 0.286870 0.259953
0.415564 0.288762 0.259586
0.444678 0.290227 0.259373
0.474830 0.291203 0.259495
0.505669 0.291844 0.259800
0.536584 0.292546 0.260349
0.567193 0.293400 0.261143
0.597375 0.294865 0.262425
0.626947 0.297337 0.264256
0.653864 0.300267 0.266606
0.679774 0.304326 0.269291
0.706783 0.310307 0.272282
0.735042 0.317876 0.275578
0.764126 0.327520 0.279210
0.793454 0.339025 0.283085
0.822507 0.352178 0.287083
0.850645 0.367010 0.291478
0.877836 0.383429 0.296025
0.904051 0.402045 0.301213
0.929168 0.423255 0.306859
0.953063 0.446784 0.313451
0.975616 0.472694 0.320867
0.996521 0.500664 0.329534
0.291508 0.302495 0.260502
0.293034 0.302617 0.260533
0.295293 0.302892 0.260441
0.300359 0.303319 0.260380
0.308324 0.303960 0.260288
0.318914 0.304784 0.260197
0.332616 0.305791 0.260014
0.349096 0.307042 0.259892
0.368841 0.308385 0.259770
0.391730 0.310216 0.259648
0.418402 0.312749 0.259434
0.447028 0.314580 0.259434
0.476814 0.316228 0.259709
0.507256 0.317418 0.260136
0.537652 0.318608 0.260868
0.568658 0.320165 0.261784
0.599695 0.322362 0.263279
0.628046 0.324590 0.265171
0.654108 0.326726 0.267491
0.679500 0.330327 0.270359
0.706172 0.335576 0.273228
0.734096 0.342718 0.276524
0.762875 0.351659 0.280034
0.791928 0.362432 0.283818
0.820798 0.374945 0.287816
0.848875 0.388800 0.292027
0.876036 0.404486 0.296696
0.902281 0.422248 0.301610
0.927459 0.442390 0.307286
0.951385 0.464881 0.313817
0.973938 0.489723 0.321263
0.994903 0.516503 0.329900
0.291630 0.330816 0.259190
0.293400 0.331029 0.259190
0.295811 0.331121 0.259190
0.301335 0.331426 0.259220
0.309789 0.331975 0.259190
0.321263 0.332769 0.259129
0.335607 0.333593 0.259159
0.352880 0.334691 0.259159
0.372992 0.336156 0.259159
0.395758 0.337713 0.259342
0.421210 0.339452 0.259464
0.449287 0.341833 0.259617
0.478676 0.343755 0.260014
0.508690 0.345434 0.260624
0.540398 0.347723 0.261448
0.572290 0.350439 0.262669
0.602319 0.352361 0.264195
0.629877 0.354009 0.266178
0.655299 0.355901 0.268711
0.680323 0.358648 0.271397
0.706416 0.363226 0.274418
0.733577 0.369482 0.277623
0.761501 0.377478 0.281010
0.789822 0.387152 0.284459
0.818204 0.398566 0.288365
0.846128 0.411719 0.292576
0.873472 0.426551 0.296941
0.900023 0.443732 0.302098
0.925505 0.463203 0.307805
0.949767 0.485115 0.314366
0.972595 0.509209 0.321965
0.993774 0.535210 0.330785
0.292424 0.361364 0.258427
0.294591 0.361486 0.258427
0.297154 0.361700 0.258396
0.303044 0.362005 0.258396
0.311955 0.362585 0.258427
0.323949 0.363378 0.258579
0.338933 0.364355 0.258610
0.356542 0.365515 0.258824
0.377050 0.366766 0.258946
0.399939 0.368322 0.259251
0.425147 0.370123 0.259525
0.452308 0.371954 0.259953
0.481697 0.374426 0.260410
0.512871 0.377447 0.261204
0.544182 0.380011 0.262119
0.574914 0.382269 0.263493
0.603754 0.383520 0.265171
0.630426 0.384558 0.267247
0.655299 0.385504 0.269749
0.679957 0.387579 0.272496
0.705837 0.391638 0.275547
0.732784 0.397314 0.278569
0.760555 0.404974 0.281956
0.788724 0.414069 0.285588
0.816953 0.424842 0.289372
0.844724 0.437171 0.293431
0.871916 0.451209 0.297887
0.898314 0.467506 0.302831
0.923766 0.485969 0.308507
0.947997 0.506706 0.315038
0.970886 0.529839 0.322637
0.992096 0.554681 0.331456
0.294926 0.394507 0.258061
0.296910 0.394568 0.258122
0.299687 0.394690 0.258122
0.305669 0.394995 0.258122
0.315007 0.395453 0.258305
0.327337 0.396307 0.258396
0.342657 0.397314 0.258549
0.360601 0.398474 0.258732
0.381292 0.399817 0.259037
0.404273 0.401373 0.259373
0.429358 0.403052 0.259861
0.457893 0.406653 0.260319
0.497292 0.419623 0.261387
0.528771 0.422461 0.262333
0.559838 0.424689 0.263737
0.589471 0.425666 0.265324
0.616938 0.425879 0.267369
0.642237 0.425360 0.269780
0.666011 0.425147 0.272587
0.690578 0.426764 0.275456
0.716060 0.429969 0.278508
0.742397 0.435157 0.281559
0.769284 0.441657 0.284794
0.796536 0.450080 0.288396
0.823850 0.459998 0.292149
0.850767 0.471504 0.296147
0.877073 0.484718 0.300572
0.902556 0.499763 0.305577
0.927031 0.516960 0.311254
0.950469 0.536400 0.317845
0.972564 0.557763 0.325414
0.993133 0.580957 0.334417
0.299046 0.432776 0.258122
0.300999 0.432837 0.258183
0.303929 0.432868 0.258183
0.310094 0.432807 0.258305
0.319646 0.432929 0.258427
0.332006 0.433173 0.258579
0.347539 0.433753 0.258793
0.365728 0.434607 0.259129
0.386572 0.435950 0.259556
0.410925 0.439490 0.260044
0.437873 0.443488 0.260624
0.467109 0.447791 0.261265
0.498024 0.452155 0.262181
0.530083 0.456306 0.263005
0.561120 0.458717 0.264347
0.590143 0.459388 0.266087
0.616907 0.458717 0.268376
0.641688 0.457374 0.270848
0.665034 0.456306 0.273686
0.689296 0.457038 0.276463
0.714504 0.459724 0.279545
0.740536 0.464057 0.282567
0.767117 0.470161 0.285740
0.794186 0.477821 0.289250
0.821317 0.487068 0.292882
0.848173 0.497841 0.297002
0.874418 0.510338 0.301335
0.899962 0.524620 0.306249
0.924590 0.540948 0.311833
0.948150 0.559594 0.318547
0.970397 0.580011 0.326177
0.991211 0.602136 0.335271
0.303899 0.467384 0.258610
0.306004 0.467323 0.258701
0.308782 0.467262 0.258793
0.315068 0.467323 0.258793
0.324315 0.467353 0.258946
0.337041 0.468116 0.259159
0.352667 0.469581 0.259495
0.371191 0.471351 0.259953
0.392370 0.473487 0.260349
0.416236 0.476356 0.260899
0.442603 0.479438 0.261509
0.470802 0.483162 0.262272
0.500603 0.486763 0.263066
0.531395 0.490272 0.264042
0.562371 0.493172 0.265141
0.590661 0.493141 0.266911
0.616724 0.491554 0.269169
0.640833 0.489387 0.271855
0.663996 0.487678 0.274632
0.688045 0.487800 0.277440
0.713100 0.489876 0.280613
0.739040 0.493874 0.283543
0.765530 0.499336 0.286839
0.792508 0.506523 0.290257
0.819516 0.515312 0.293950
0.846342 0.525475 0.297826
0.872618 0.537316 0.302281
0.898131 0.550927 0.307164
0.922759 0.566613 0.312871
0.946410 0.584283 0.319554
0.968750 0.603937 0.327550
0.989654 0.624903 0.336645
0.310674 0.505547 0.259525
0.312902 0.505730 0.259556
0.315648 0.505760 0.259617
0.321752 0.505882 0.259800
0.331273 0.506157 0.259861
0.343786 0.506493 0.260136
0.359319 0.507164 0.260502
0.377417 0.508293 0.260899
0.398077 0.509850 0.261448
0.421393 0.511925 0.262028
0.446815 0.514488 0.262638
0.474006 0.517327 0.263523
0.502586 0.520195 0.264469
0.531945 0.522911 0.265599
0.561700 0.525078 0.266728
0.591089 0.526574 0.267979
0.616938 0.524620 0.270115
0.640467 0.521569 0.272862
0.663355 0.519097 0.275731
0.687221 0.518700 0.278721
0.712032 0.520256 0.281682
0.737728 0.523644 0.284672
0.764034 0.528710 0.287907
0.790890 0.535424 0.291325
0.817899 0.543725 0.294987
0.844755 0.553643 0.298985
0.871305 0.565240 0.303502
0.897124 0.578759 0.308598
0.922118 0.594171 0.314580
0.945953 0.611566 0.321569
0.968505 0.630640 0.329808
0.989502 0.650690 0.339391
0.319127 0.542351 0.260990
0.321172 0.542473 0.261143
0.323857 0.542565 0.261112
0.329992 0.542626 0.261265
0.339330 0.542809 0.261448
0.351751 0.543084 0.261692
0.366705 0.543694 0.262089
0.384527 0.544518 0.262577
0.404852 0.545586 0.263127
0.427192 0.546990 0.263737
0.451423 0.548486 0.264714
0.477241 0.550164 0.265476
0.504143 0.551720 0.266484
0.531853 0.553063 0.267674
0.559899 0.554223 0.268711
0.587915 0.555077 0.269932
0.615869 0.555779 0.271336
0.640040 0.553124 0.273869
0.663050 0.550408 0.276951
0.687007 0.549950 0.279911
0.711971 0.551324 0.282933
0.737728 0.554620 0.286107
0.764096 0.559411 0.289342
0.790951 0.565972 0.292760
0.817990 0.574029 0.296544
0.844877 0.583612 0.300603
0.871366 0.594812 0.305241
0.897093 0.607813 0.310460
0.921874 0.622553 0.316625
0.945495 0.638911 0.323796
0.967773 0.656580 0.332128
0.988525 0.674983 0.341619
0.328649 0.574304 0.263249
0.330480 0.574426 0.263157
0.333135 0.574365 0.263310
0.338964 0.574334 0.263432
0.347753 0.574334 0.263706
0.359655 0.574365 0.264012
0.374060 0.574731 0.264378
0.391028 0.575128 0.264897
0.410285 0.575769 0.265446
0.431708 0.576654 0.266178
0.454871 0.577752 0.267002
0.479438 0.578851 0.267979
0.505180 0.580072 0.269108
0.531548 0.581018 0.270268
0.558312 0.581720 0.271458
0.585016 0.582055 0.272831
0.611810 0.582330 0.274205
0.638514 0.582818 0.275639
0.662684 0.581170 0.278141
0.686488 0.580194 0.281163
0.711177 0.581292 0.284276
0.736843 0.584100 0.287297
0.763027 0.588708 0.290593
0.789853 0.594934 0.294133
0.816831 0.602655 0.297856
0.843717 0.611963 0.302068
0.870268 0.622827 0.306737
0.896056 0.635431 0.312169
0.920897 0.649592 0.318517
0.944518 0.665309 0.325933
0.966857 0.681971 0.334417
0.987640 0.699184 0.344060
0.339666 0.603632 0.266148
0.341680 0.603937 0.266178
0.348302 0.612665 0.267613
0.353796 0.612573 0.267643
0.362432 0.612390 0.267918
0.373510 0.612085 0.268284
0.387274 0.611902 0.268620
0.403235 0.611719 0.269078
0.421759 0.611810 0.269688
0.442176 0.612085 0.270512
0.464210 0.612604 0.271336
0.487526 0.613123 0.272282
0.511955 0.613581 0.273350
0.537224 0.613977 0.274510
0.562768 0.614252 0.275608
0.588586 0.614466 0.276951
0.614527 0.614588 0.278294
0.640375 0.614771 0.279667
0.666102 0.615137 0.281102
0.690639 0.614801 0.283421
0.714870 0.615198 0.286503
0.740139 0.617548 0.289586
0.766049 0.621546 0.292851
0.792325 0.627192 0.296300
0.818570 0.633936 0.300114
0.844663 0.642206 0.304234
0.870390 0.651911 0.308873
0.895628 0.663294 0.314305
0.920043 0.676509 0.320714
0.943572 0.691188 0.328313
0.965820 0.706691 0.336919
0.986603 0.722469 0.346532
0.353155 0.633600 0.270024
0.355444 0.634760 0.270207
0.358587 0.635981 0.270481
0.364202 0.637018 0.270848
0.372442 0.637781 0.271092
0.383307 0.637934 0.271519
0.396216 0.637964 0.271794
0.411383 0.637903 0.272404
0.428870 0.638025 0.272923
0.448066 0.638331 0.273747
0.468910 0.638819 0.274510
0.491249 0.639368 0.275456
0.514672 0.639857 0.276493
0.538811 0.640284 0.277470
0.563409 0.640589 0.278630
0.588464 0.640772 0.279881
0.613611 0.640925 0.281102
0.638819 0.641199 0.282475
0.664118 0.641718 0.283940
0.689479 0.642664 0.285588
0.714351 0.643641 0.287938
0.739528 0.645930 0.291112
0.765469 0.649866 0.294469
0.791745 0.655329 0.298009
0.817990 0.661982 0.301946
0.844144 0.670008 0.306126
0.869871 0.679377 0.311009
0.894987 0.690333 0.316625
0.919402 0.702876 0.323247
0.942870 0.716579 0.330907
0.965087 0.730922 0.339544
0.985779 0.745449 0.349248
0.365789 0.660853 0.273381
0.368048 0.661952 0.273686
0.370916 0.663172 0.273869
0.376257 0.664149 0.274174
0.384131 0.664820 0.274571
0.394263 0.665126 0.274846
0.406592 0.665095 0.275334
0.420996 0.665095 0.275731
0.437354 0.665370 0.276249
0.455726 0.665675 0.276982
0.475654 0.666163 0.277836
0.497047 0.666743 0.278721
0.519463 0.667231 0.279698
0.542748 0.667720 0.280735
0.566552 0.668055 0.281865
0.590723 0.668299 0.283116
0.615259 0.668513 0.284184
0.639918 0.668818 0.285710
0.664729 0.669398 0.287083
0.689693 0.670436 0.288579
0.714595 0.671748 0.290410
0.739620 0.673976 0.292943
0.765499 0.677882 0.296330
0.791684 0.683131 0.300023
0.817868 0.689540 0.303899
0.843900 0.697169 0.308263
0.869444 0.706020 0.313268
0.894377 0.716396 0.319188
0.918639 0.728115 0.325872
0.941985 0.740749 0.333501
0.964111 0.754025 0.342199
0.984802 0.767239 0.352148
0.379370 0.689052 0.276890
0.381689 0.690150 0.277104
0.384375 0.691279 0.277348
0.389471 0.692287 0.277623
0.397101 0.692927 0.278111
0.406531 0.693233 0.278416
0.418158 0.693233 0.278782
0.431678 0.693294 0.279271
0.447333 0.693385 0.279820
0.464729 0.693690 0.280491
0.483772 0.694118 0.281193
0.504234 0.694606 0.282139
0.525841 0.695033 0.283055
0.548272 0.695521 0.284184
0.571466 0.696040 0.285252
0.595178 0.696620 0.286564
0.619501 0.697322 0.287785
0.644068 0.698299 0.289250
0.669001 0.699611 0.290929
0.694118 0.701228 0.292699
0.719326 0.703334 0.294621
0.744381 0.705715 0.296880
0.769619 0.709010 0.299565
0.796078 0.714504 0.303563
0.822416 0.721096 0.307836
0.848356 0.728634 0.312657
0.873686 0.737240 0.318090
0.898344 0.746975 0.324224
0.922210 0.757717 0.331090
0.945068 0.769162 0.339025
0.966674 0.780789 0.347997
0.986816 0.792233 0.358068
0.397009 0.722621 0.281407
0.398840 0.723110 0.281621
0.401007 0.723537 0.281804
0.405615 0.723903 0.281926
0.412543 0.724056 0.282261
0.421424 0.724086 0.282567
0.432410 0.724117 0.282872
0.445441 0.724147 0.283330
0.460487 0.724483 0.284001
0.477363 0.724910 0.284703
0.495796 0.725582 0.285557
0.515709 0.726223 0.286442
0.536553 0.726802 0.287419
0.558282 0.727230 0.288548
0.580743 0.727687 0.289555
0.603906 0.728176 0.290867
0.627436 0.728756 0.292180
0.651392 0.729580 0.293736
0.675624 0.730648 0.295323
0.700038 0.731960 0.297154
0.724483 0.733577 0.299107
0.748806 0.735439 0.301061
0.772732 0.737575 0.303441
0.796841 0.740536 0.306279
0.822812 0.746639 0.310704
0.848539 0.753780 0.315709
0.873777 0.761929 0.321172
0.898314 0.771023 0.327428
0.922057 0.780972 0.334478
0.944762 0.791348 0.342382
0.966247 0.801816 0.351476
0.986328 0.812161 0.361761
0.413184 0.752132 0.285588
0.414923 0.752712 0.285771
0.417182 0.753170 0.285985
0.421668 0.753506 0.286259
0.428016 0.753719 0.286412
0.436439 0.753658 0.286687
0.446876 0.753567 0.287083
0.459174 0.753567 0.287480
0.473518 0.753750 0.288212
0.489540 0.754055 0.288792
0.507286 0.754574 0.289738
0.526390 0.755123 0.290562
0.546502 0.755642 0.291630
0.567651 0.756161 0.292729
0.589471 0.756680 0.293828
0.612055 0.757259 0.295232
0.635096 0.757961 0.296635
0.658686 0.758907 0.298253
0.682551 0.760037 0.299931
0.706630 0.761410 0.301823
0.730770 0.763088 0.303929
0.754818 0.765011 0.306371
0.778653 0.767239 0.308812
0.801968 0.769619 0.311559
0.822507 0.769894 0.313542
0.848020 0.776516 0.318425
0.873136 0.784207 0.324132
0.897581 0.792752 0.330358
0.921202 0.801877 0.337407
0.943908 0.811368 0.345464
0.965423 0.820981 0.354681
0.985595 0.830594 0.365576
0.433722 0.785611 0.291295
0.435554 0.786221 0.291447
0.437690 0.786557 0.291752
0.441657 0.786679 0.291875
0.447547 0.786587 0.292119
0.455421 0.786374 0.292302
0.465095 0.786038 0.292576
0.476661 0.785611 0.292943
0.490120 0.785306 0.293462
0.505150 0.785214 0.294011
0.521721 0.785153 0.294713
0.539696 0.785275 0.295659
0.558984 0.785397 0.296544
0.579095 0.785489 0.297642
0.599847 0.785489 0.298680
0.621332 0.785550 0.299901
0.643336 0.785672 0.301335
0.666011 0.786160 0.302861
0.689235 0.787106 0.304692
0.712856 0.788449 0.306706
0.736660 0.790097 0.308965
0.760281 0.791989 0.311406
0.783597 0.793881 0.314031
0.806241 0.795743 0.316747
0.828153 0.797665 0.319402
0.849546 0.799924 0.322332
0.874174 0.806790 0.327855
0.898192 0.814389 0.334142
0.921477 0.822568 0.341222
0.943908 0.831052 0.349371
0.965301 0.839750 0.358740
0.985382 0.848569 0.370367
0.452491 0.814267 0.296666
0.454231 0.814817 0.296910
0.456245 0.815152 0.297093
0.460182 0.815274 0.297307
0.465736 0.815152 0.297551
0.473213 0.815000 0.297704
0.482521 0.814725 0.298070
0.493660 0.814481 0.298528
0.506554 0.814267 0.299077
0.521172 0.814298 0.299779
0.537163 0.814359 0.300572
0.554772 0.814572 0.301579
0.573480 0.814786 0.302617
0.593072 0.815000 0.303807
0.613397 0.815122 0.304997
0.634333 0.815244 0.306371
0.655909 0.815396 0.307866
0.678035 0.815854 0.309575
0.700679 0.816648 0.311437
0.723659 0.817746 0.313634
0.746853 0.819089 0.316045
0.769924 0.820615 0.318547
0.792660 0.822232 0.321172
0.814786 0.823911 0.323919
0.836271 0.825589 0.326757
0.856931 0.827298 0.329747
0.876829 0.829252 0.332769
0.900511 0.836149 0.338994
0.923491 0.843534 0.346349
0.945617 0.851164 0.354650
0.966766 0.859068 0.364782
0.986481 0.866941 0.377264
0.474220 0.843351 0.303624
0.475837 0.843748 0.303807
0.477607 0.843870 0.303960
0.481056 0.843809 0.304082
0.486183 0.843534 0.304234
0.493202 0.843229 0.304448
0.501884 0.842863 0.304784
0.512383 0.842496 0.305211
0.524712 0.842252 0.305821
0.538628 0.842191 0.306462
0.554131 0.842222 0.307408
0.571099 0.842405 0.308415
0.589166 0.842618 0.309667
0.608240 0.842771 0.310857
0.627802 0.842802 0.312230
0.648127 0.842802 0.313634
0.668971 0.842832 0.315099
0.690364 0.843046 0.316930
0.712245 0.843565 0.318730
0.734554 0.844388 0.320989
0.757015 0.845487 0.323278
0.779477 0.846677 0.325963
0.801541 0.847990 0.328710
0.823087 0.849302 0.331487
0.843992 0.850736 0.334417
0.864073 0.852201 0.337407
0.883482 0.853849 0.340581
0.902159 0.855619 0.343847
0.924407 0.861875 0.350744
0.946380 0.868925 0.359472
0.967224 0.876066 0.370306
0.986603 0.883085 0.383581
0.496712 0.869963 0.311559
0.498116 0.870146 0.311681
0.499794 0.870237 0.311894
0.503044 0.870237 0.311986
0.508171 0.870146 0.312200
0.515129 0.870146 0.312627
0.524010 0.870298 0.313207
0.534844 0.870573 0.314031
0.547417 0.871031 0.314977
0.561639 0.871641 0.316045
0.577295 0.872313 0.317357
0.594171 0.872953 0.318791
0.612146 0.873533 0.320348
0.630884 0.873960 0.321874
0.650202 0.874174 0.323339
0.669886 0.874144 0.324865
0.690089 0.874113 0.326543
0.710750 0.874174 0.328435
0.731838 0.874418 0.330449
0.753323 0.874907 0.332586
0.774838 0.875547 0.335088
0.796323 0.876341 0.337713
0.817411 0.877195 0.340490
0.838010 0.878111 0.343359
0.857908 0.879088 0.346380
0.877134 0.880186 0.349462
0.895689 0.881407 0.352758
0.913664 0.882780 0.356268
0.931121 0.884428 0.360235
0.951446 0.889677 0.369146
0.971405 0.895689 0.380987
0.989837 0.901457 0.395300
0.525933 0.899077 0.323064
0.527123 0.899168 0.323217
0.528527 0.899107 0.323400
0.531487 0.898985 0.323491
0.536187 0.898741 0.323552
0.542473 0.898466 0.323857
0.550530 0.898283 0.324254
0.560296 0.898161 0.324865
0.571710 0.898131 0.325658
0.584649 0.898131 0.326574
0.598993 0.898192 0.327611
0.614649 0.898253 0.328832
0.631342 0.898283 0.330175
0.648920 0.898253 0.331518
0.667140 0.898131 0.333013
0.686000 0.897978 0.334539
