其他预设/【232】美食博客调色预设124款/1.3D LUT预设（视频调色-PR-AE-PS-FCPX-达芬奇用）/Food Art #43.cube
# Created by Adobe Lightroom plugin Export LUT (1.17.0)
# www.johnrellis.com/lightroom/exportlut.htm
# Preset: Food Art #43
# Color profile: /Library/Application Support/Adobe/Color/Profiles/Recommended/AdobeRGB1998.icc
LUT_3D_SIZE 8
DOMAIN_MIN 0.000000 0.000000 0.000000
DOMAIN_MAX 0.903226 0.903226 0.903226
0.271855 0.189883 0.200412
0.357000 0.191989 0.209171
0.476081 0.193301 0.220462
0.589837 0.204379 0.236667
0.705135 0.231846 0.261051
0.815213 0.268956 0.289525
0.912535 0.311437 0.321386
0.997314 0.360479 0.359930
0.292729 0.269474 0.213077
0.360418 0.265812 0.215915
0.473884 0.250889 0.225315
0.585595 0.252873 0.241947
0.700557 0.271061 0.265019
0.809689 0.299382 0.291264
0.907164 0.334112 0.321752
0.994079 0.378027 0.360418
0.327947 0.382330 0.235843
0.369848 0.379980 0.237797
0.474556 0.374517 0.245121
0.585992 0.368261 0.260075
0.701747 0.376135 0.279240
0.810605 0.391302 0.302953
0.910582 0.414191 0.333288
0.995819 0.444709 0.371954
0.373541 0.500816 0.269047
0.401495 0.499428 0.270207
0.482246 0.497444 0.274968
0.594781 0.505119 0.285496
0.711604 0.511803 0.300572
0.813809 0.512902 0.320836
0.907897 0.520073 0.348455
0.991852 0.535912 0.386358
0.414984 0.635248 0.300450
0.436957 0.634638 0.301305
0.504326 0.634211 0.304662
0.600031 0.636347 0.311559
0.705318 0.637476 0.321111
0.806729 0.634424 0.338048
0.900603 0.633539 0.365576
0.986145 0.640436 0.406409
0.453681 0.755428 0.333989
0.472145 0.757992 0.336065
0.526543 0.756893 0.339055
0.607324 0.756039 0.344732
0.701137 0.755154 0.353491
0.801572 0.756283 0.365942
0.898070 0.753811 0.391608
0.982086 0.751736 0.435828
0.500023 0.865019 0.381170
0.513451 0.865324 0.382574
0.555810 0.863615 0.385168
0.622614 0.862303 0.391180
0.703792 0.860502 0.400244
0.793820 0.860349 0.413886
0.887968 0.861265 0.432593
0.975433 0.857877 0.470130
0.562158 0.958312 0.452369
0.571588 0.957977 0.453162
0.604059 0.957275 0.457343
0.657984 0.956939 0.466407
0.721950 0.952422 0.472358
0.799863 0.952117 0.490150
0.882567 0.952422 0.513512
0.965148 0.951934 0.539269
0.286961 0.195590 0.270176
0.356573 0.194339 0.270970
0.466926 0.217746 0.275212
0.577691 0.241093 0.292424
0.694270 0.259251 0.307134
0.803861 0.286809 0.325658
0.902617 0.323003 0.349737
0.990326 0.369360 0.382666
0.300664 0.265507 0.271763
0.363561 0.264652 0.274266
0.466743 0.268040 0.282750
0.577173 0.276219 0.294621
0.692744 0.290867 0.308812
0.801389 0.313756 0.326848
0.898802 0.343969 0.349706
0.987091 0.385260 0.382086
0.341863 0.375891 0.280247
0.385412 0.372686 0.288609
0.472755 0.370794 0.292485
0.579492 0.371557 0.302770
0.693965 0.381415 0.316350
0.801236 0.395544 0.333684
0.899535 0.416449 0.357305
0.988037 0.447700 0.391455
0.384771 0.493446 0.303807
0.412909 0.492103 0.307683
0.486000 0.492439 0.311131
0.587243 0.495766 0.317510
0.698238 0.502220 0.328527
0.800656 0.506554 0.344854
0.896818 0.516594 0.368505
0.984497 0.535668 0.403601
0.423224 0.630182 0.329931
0.443305 0.629114 0.330327
0.506615 0.627985 0.332769
0.596979 0.627924 0.337346
0.698085 0.628473 0.344427
0.799435 0.628382 0.359777
0.894499 0.630732 0.385229
0.981323 0.639979 0.423377
0.458656 0.749599 0.357061
0.475166 0.749508 0.357855
0.527489 0.748806 0.360418
0.606378 0.749264 0.365972
0.698970 0.750118 0.374395
0.799069 0.753109 0.386511
0.894774 0.751644 0.410925
0.978546 0.750729 0.452094
0.503166 0.858946 0.398810
0.515282 0.858000 0.399176
0.556878 0.857115 0.401953
0.623041 0.857237 0.408392
0.703700 0.856840 0.417792
0.792172 0.856748 0.430549
0.884520 0.857145 0.447059
0.971374 0.854429 0.482216
0.566094 0.955016 0.467140
0.575738 0.955047 0.468605
0.607752 0.954620 0.472877
0.660945 0.954589 0.482033
0.727504 0.953643 0.493446
0.802548 0.952209 0.508080
0.882689 0.951385 0.527489
0.963897 0.950500 0.550378
0.308537 0.201724 0.372900
0.358099 0.205447 0.372137
0.468757 0.222690 0.370886
0.577752 0.251286 0.374975
0.691432 0.278569 0.388861
0.800412 0.317662 0.408606
0.899199 0.357855 0.428962
0.986786 0.406897 0.456855
0.339513 0.267277 0.369604
0.378882 0.270726 0.369207
0.469337 0.274205 0.370123
0.575830 0.289799 0.377356
0.689723 0.310033 0.391150
0.797910 0.340307 0.408515
0.896513 0.375280 0.428138
0.984985 0.421057 0.456703
0.361791 0.371435 0.372076
0.397498 0.370825 0.372534
0.481788 0.375860 0.379583
0.579187 0.380041 0.385229
0.693263 0.394263 0.398169
0.798337 0.412848 0.413031
0.895476 0.438178 0.432715
0.983246 0.473915 0.461982
0.395911 0.491554 0.380804
0.423468 0.490639 0.383276
0.496193 0.492348 0.390539
0.589532 0.496681 0.395575
0.697658 0.506676 0.406073
0.798795 0.515953 0.420813
0.894408 0.531518 0.441993
0.981109 0.555749 0.472969
0.429847 0.627131 0.398840
0.452369 0.626337 0.401343
0.516350 0.625360 0.407568
0.601648 0.627070 0.411658
0.699184 0.629206 0.417426
0.797360 0.631128 0.430976
0.891112 0.637812 0.453864
0.977356 0.652399 0.488441
0.466896 0.747036 0.419562
0.486061 0.746304 0.422827
0.539757 0.744503 0.429999
0.612604 0.744503 0.433967
0.700099 0.745541 0.440528
0.795773 0.748959 0.450935
0.889799 0.751308 0.474006
0.974670 0.757534 0.513695
0.516655 0.857481 0.457160
0.532219 0.856260 0.461311
0.573632 0.854246 0.466896
0.634089 0.853574 0.471504
0.709712 0.853330 0.479164
0.794614 0.854459 0.491035
0.884428 0.857145 0.507530
0.969940 0.858122 0.540703
0.584771 0.952209 0.520714
0.596246 0.951263 0.524590
0.624842 0.950652 0.527489
0.675013 0.951598 0.536553
0.736934 0.950927 0.545556
0.808347 0.950439 0.558221
0.885313 0.950500 0.575219
0.963806 0.950652 0.595636
0.337438 0.214145 0.481239
0.376349 0.220584 0.481117
0.471168 0.237064 0.479469
0.577905 0.255741 0.479194
0.690455 0.281376 0.487404
0.795956 0.319005 0.496956
0.891600 0.371344 0.513146
0.977447 0.442145 0.544274
0.368963 0.277409 0.479011
0.397864 0.278965 0.479103
0.477821 0.284154 0.478645
0.578363 0.292699 0.479377
0.690394 0.312749 0.488899
0.794247 0.345647 0.498238
0.889525 0.393561 0.515312
0.975769 0.460792 0.547875
0.391485 0.373510 0.478553
0.418677 0.375402 0.478187
0.489418 0.378851 0.478950
0.581964 0.382666 0.482307
0.692042 0.399237 0.494545
0.794858 0.427771 0.508232
0.890349 0.472236 0.532799
0.976043 0.515770 0.559136
0.411353 0.490517 0.483833
0.434882 0.490455 0.484169
0.502190 0.492592 0.486915
0.598016 0.504479 0.498390
0.695674 0.511406 0.504173
0.792355 0.528099 0.517723
0.886473 0.552758 0.538109
0.973480 0.585138 0.565911
0.439612 0.625452 0.497017
0.460090 0.624140 0.497322
0.521660 0.623194 0.500389
0.609583 0.627344 0.510277
0.700740 0.630732 0.515496
0.794461 0.637446 0.528832
0.885985 0.651423 0.549554
0.971008 0.671962 0.578058
0.475990 0.746731 0.508507
0.495247 0.748104 0.512047
0.550378 0.745113 0.518486
0.628687 0.743832 0.531701
0.708095 0.745754 0.537194
0.795682 0.749020 0.544823
0.885344 0.755398 0.564538
0.969085 0.767117 0.595941
0.523766 0.855467 0.532067
0.539483 0.855039 0.535760
0.589166 0.853147 0.548302
0.654902 0.851896 0.562951
0.722866 0.852506 0.568627
0.800412 0.853880 0.576776
0.883452 0.856474 0.588067
0.965789 0.860472 0.615137
0.592706 0.951934 0.581872
0.605066 0.951476 0.586114
0.643000 0.949462 0.598596
0.693446 0.948180 0.610742
0.749660 0.947936 0.617273
0.815763 0.948119 0.626795
0.888273 0.949065 0.640162
0.963134 0.950347 0.656580
0.371374 0.233677 0.602502
0.401160 0.238468 0.602258
0.481941 0.251713 0.600671
0.582391 0.268254 0.599817
0.689693 0.286961 0.602625
0.792599 0.323186 0.603357
0.887999 0.375341 0.608881
0.974334 0.446479 0.626520
0.392981 0.286656 0.600305
0.417853 0.288731 0.600793
0.489204 0.294194 0.600092
0.584009 0.302953 0.598962
0.689357 0.317479 0.602350
0.791989 0.349859 0.604059
0.887205 0.398383 0.610681
0.973236 0.465522 0.629358
0.418219 0.383093 0.598322
0.440833 0.385321 0.597894
0.502037 0.387152 0.597467
0.589807 0.392248 0.599634
0.688899 0.400641 0.601740
0.788479 0.426276 0.605158
0.883024 0.467964 0.616449
0.968963 0.521874 0.637385
0.433234 0.494270 0.601190
0.453773 0.494911 0.600977
0.515526 0.498390 0.601495
0.600824 0.506065 0.604181
0.693324 0.513176 0.606989
0.787900 0.534569 0.614252
0.879881 0.564996 0.629572
0.965423 0.603479 0.652399
0.452125 0.618616 0.605554
0.470710 0.618677 0.605798
0.527794 0.619074 0.606287
0.611444 0.623163 0.609857
0.703731 0.634577 0.619745
0.789120 0.641718 0.624964
0.877989 0.659358 0.640040
0.963226 0.684352 0.662257
0.482704 0.738521 0.608118
0.499275 0.737911 0.608667
0.551141 0.735683 0.610590
0.627466 0.735164 0.617273
0.709041 0.738796 0.626917
0.792172 0.745418 0.634730
0.879820 0.757137 0.651850
0.962951 0.773220 0.675990
0.531426 0.850950 0.622675
0.545769 0.850034 0.624170
0.591608 0.847868 0.630518
0.657343 0.846586 0.641291
0.728756 0.847379 0.652277
0.801511 0.849973 0.658503
0.880095 0.853300 0.666407
0.960418 0.860014 0.687587
0.596155 0.947539 0.653834
0.607141 0.946899 0.656214
0.642786 0.945129 0.663966
0.698299 0.945129 0.678614
0.757321 0.944274 0.689265
0.819577 0.944915 0.696162
0.888670 0.946441 0.706142
0.960754 0.948363 0.718654
0.401068 0.255802 0.722042
0.424567 0.259586 0.721736
0.492378 0.270390 0.719692
0.584497 0.286473 0.719692
0.685298 0.306859 0.719936
0.788083 0.331640 0.719631
0.884123 0.382147 0.716854
0.970825 0.454078 0.722164
0.415900 0.299199 0.718135
0.436378 0.300999 0.717739
0.498421 0.306981 0.716854
0.586481 0.318151 0.717311
0.684810 0.334630 0.717556
0.786526 0.356359 0.717800
0.882628 0.403479 0.716518
0.969421 0.471534 0.723140
0.443915 0.395148 0.716945
0.461006 0.395850 0.716823
0.515312 0.398962 0.716884
0.595605 0.405646 0.717098
0.688197 0.416541 0.717037
0.785946 0.432868 0.717494
0.880430 0.473823 0.719326
0.966735 0.528771 0.728725
0.461311 0.501488 0.718746
0.479225 0.502983 0.717891
0.535698 0.510094 0.716976
0.612299 0.520165 0.718715
0.697627 0.529564 0.719966
0.788083 0.541375 0.721065
0.879149 0.570764 0.726619
0.963958 0.609216 0.738460
0.477699 0.615747 0.717922
0.494392 0.616602 0.717739
0.547417 0.620294 0.717372
0.624598 0.628809 0.717861
0.705104 0.637629 0.719631
0.787747 0.644221 0.721798
0.875456 0.663783 0.730465
0.959258 0.691951 0.746029
0.498512 0.734096 0.719020
0.514397 0.734829 0.719661
0.563867 0.735103 0.719692
0.634333 0.736568 0.720577
0.711299 0.740352 0.723384
0.795834 0.751766 0.733303
0.876860 0.761440 0.741512
0.958068 0.779782 0.758541
0.543114 0.848692 0.725765
0.557061 0.848631 0.726864
0.599390 0.847166 0.728878
0.660487 0.846098 0.732601
0.729946 0.846677 0.737819
0.804471 0.849821 0.745968
0.879240 0.853758 0.751583
0.957641 0.863645 0.768887
0.603967 0.945190 0.741054
0.614008 0.944610 0.742153
0.646876 0.943114 0.745998
0.697078 0.942290 0.752743
0.757290 0.941680 0.760952
0.822782 0.942199 0.770962
0.889311 0.944610 0.778958
0.958679 0.947265 0.788540
0.425299 0.280247 0.831479
0.444038 0.283452 0.831601
0.501671 0.293462 0.831144
0.584039 0.309056 0.830625
0.677577 0.330419 0.829343
0.775631 0.357366 0.828214
0.874784 0.390570 0.827573
0.963806 0.458137 0.823270
0.436530 0.316350 0.829862
0.453834 0.318303 0.829923
0.507836 0.325383 0.829557
0.587091 0.337713 0.828794
0.678676 0.356023 0.827787
0.775448 0.380285 0.826780
0.873564 0.410742 0.826108
0.962371 0.474128 0.822751
0.463569 0.406439 0.828153
0.478309 0.407568 0.828061
0.525963 0.411780 0.827604
0.598627 0.420325 0.827024
0.684962 0.433692 0.826200
0.777798 0.453010 0.825681
0.872740 0.478828 0.825803
0.960784 0.530877 0.825376
0.491554 0.513146 0.827024
0.507073 0.515801 0.826261
0.554620 0.523980 0.825193
0.618952 0.530816 0.825071
0.697261 0.540917 0.824796
0.782986 0.554406 0.824979
0.872007 0.570489 0.825895
0.958373 0.608270 0.828946
0.508598 0.619318 0.826078
0.523308 0.621118 0.825620
0.570611 0.627955 0.824491
0.637903 0.638544 0.823514
0.709773 0.646540 0.823453
0.787594 0.654139 0.824338
0.870878 0.663996 0.825895
0.955505 0.692805 0.833005
0.531731 0.731319 0.826596
0.545251 0.732296 0.826413
0.587945 0.735409 0.825925
0.649439 0.740291 0.825620
0.720058 0.746426 0.825895
0.795590 0.754330 0.827817
0.873075 0.761105 0.830381
0.953796 0.781064 0.839994
0.559777 0.841794 0.829221
0.571557 0.841947 0.829252
0.608850 0.842191 0.829221
0.664118 0.843015 0.829526
0.729946 0.844602 0.830289
0.802426 0.848203 0.832975
0.879545 0.856596 0.840604
0.953765 0.866728 0.850248
0.609064 0.941741 0.834348
0.618524 0.941497 0.834775
0.649836 0.941131 0.836576
0.697230 0.940581 0.838926
0.756252 0.940276 0.842527
0.821958 0.941009 0.848081
0.890318 0.943328 0.856535
0.956573 0.946777 0.863462
0.449165 0.312963 0.935515
0.464332 0.315587 0.935485
0.512871 0.324743 0.934844
0.586023 0.341100 0.934112
0.672663 0.364508 0.933165
0.765560 0.394629 0.932128
0.860746 0.431952 0.931212
0.954742 0.474098 0.930327
0.458473 0.342840 0.934539
0.472969 0.345037 0.934508
0.519341 0.352728 0.933959
0.590265 0.366888 0.933257
0.675227 0.387945 0.932372
0.766934 0.415961 0.931365
0.861021 0.451026 0.930449
0.954070 0.489906 0.929686
0.485145 0.425605 0.932464
0.497780 0.427314 0.932372
0.539239 0.432685 0.931823
0.604944 0.444068 0.931579
0.684962 0.460822 0.930755
0.772488 0.483833 0.929747
0.862852 0.511986 0.929107
0.952880 0.541466 0.928801
0.526421 0.536309 0.929686
0.537255 0.537713 0.929686
0.572808 0.542016 0.929290
0.630274 0.550347 0.928954
0.701991 0.562310 0.928496
0.781827 0.577478 0.928008
0.865904 0.595392 0.927916
0.951629 0.614740 0.928252
0.547509 0.634760 0.928618
0.559930 0.637354 0.928466
0.598749 0.645136 0.927581
0.655940 0.656153 0.926543
0.718410 0.662715 0.926390
0.790707 0.671748 0.926360
0.868956 0.683314 0.926879
0.950347 0.697322 0.928008
0.570855 0.737270 0.928313
0.581537 0.738552 0.928038
0.616083 0.742794 0.927276
0.668299 0.749050 0.926452
0.732296 0.757351 0.925750
0.801266 0.765896 0.926177
0.874113 0.774502 0.927672
0.950256 0.784665 0.929656
0.599115 0.839841 0.929351
0.608301 0.840391 0.929198
0.638361 0.842100 0.928801
0.685725 0.845090 0.928496
0.745205 0.849332 0.928252
0.811826 0.855070 0.928557
0.881559 0.862638 0.930175
0.951080 0.869230 0.932708
0.631098 0.937469 0.932250
0.638788 0.937469 0.932219
0.664820 0.937682 0.932158
0.707607 0.938231 0.932341
0.762142 0.939208 0.932769
0.824063 0.940764 0.933715
0.890074 0.943481 0.935882
0.956054 0.948913 0.941253
