其他预设/【232】美食博客调色预设124款/1.3D LUT预设（视频调色-PR-AE-PS-FCPX-达芬奇用）/Food Art #32.cube
# Created by Adobe Lightroom plugin Export LUT (1.17.0)
# www.johnrellis.com/lightroom/exportlut.htm
# Preset: Food Art #32
# Color profile: /Library/Application Support/Adobe/Color/Profiles/Recommended/AdobeRGB1998.icc
LUT_3D_SIZE 8
DOMAIN_MIN 0.000000 0.000000 0.000000
DOMAIN_MAX 0.903226 0.903226 0.903226
0.258152 0.240482 0.213809
0.306004 0.238102 0.218479
0.402899 0.237736 0.220645
0.514336 0.242771 0.218723
0.628473 0.256931 0.231724
0.726619 0.272618 0.245975
0.829465 0.292088 0.262852
0.947570 0.317327 0.284215
0.259495 0.290013 0.215763
0.306401 0.289189 0.215122
0.407019 0.279301 0.216281
0.519158 0.281193 0.222507
0.634089 0.288853 0.233982
0.731502 0.299657 0.248386
0.834073 0.315648 0.265324
0.950805 0.338506 0.286503
0.271763 0.382635 0.220371
0.306432 0.382300 0.221042
0.401709 0.380438 0.223148
0.515099 0.375402 0.228794
0.631861 0.374884 0.238865
0.728511 0.374029 0.252598
0.828305 0.380316 0.267887
0.946227 0.397620 0.288243
0.291661 0.489631 0.232425
0.319738 0.490486 0.232853
0.401831 0.490150 0.234379
0.509514 0.485542 0.236301
0.623102 0.480049 0.243992
0.722072 0.471473 0.257969
0.827054 0.473182 0.273899
0.947051 0.487098 0.294438
0.315923 0.603723 0.247745
0.339452 0.603754 0.248112
0.410498 0.602502 0.249271
0.509239 0.598566 0.251072
0.620447 0.594720 0.254337
0.723018 0.583124 0.266545
0.829709 0.581323 0.282780
0.948852 0.592157 0.303166
0.345159 0.699367 0.269505
0.362829 0.697108 0.269078
0.421424 0.696498 0.270298
0.507897 0.695186 0.272435
0.609766 0.693904 0.275853
0.717617 0.692042 0.279911
0.827604 0.691432 0.291508
0.948058 0.702602 0.312200
0.376745 0.807095 0.293095
0.392218 0.806607 0.293156
0.444007 0.807553 0.294835
0.523095 0.808103 0.297185
0.619471 0.809354 0.300755
0.724269 0.809903 0.304967
0.833310 0.810849 0.310124
0.950561 0.819516 0.325139
0.414771 0.933318 0.323461
0.428931 0.933623 0.323980
0.475288 0.934020 0.325322
0.547814 0.933959 0.327001
0.642115 0.939269 0.333989
0.742763 0.939818 0.338201
0.848508 0.940520 0.343572
0.957855 0.943389 0.352239
0.259312 0.247990 0.259831
0.310552 0.237827 0.260044
0.404273 0.258396 0.260502
0.513756 0.269780 0.267308
0.631067 0.278904 0.274174
0.730495 0.293736 0.284245
0.834104 0.311498 0.297642
0.951934 0.334844 0.316136
0.260502 0.290990 0.259525
0.311315 0.290410 0.259098
0.402716 0.295293 0.263920
0.515251 0.299046 0.268162
0.633082 0.305974 0.275212
0.732326 0.317266 0.285679
0.837308 0.332860 0.299565
0.955169 0.354925 0.318456
0.283696 0.383154 0.258976
0.320348 0.380102 0.264042
0.402167 0.379400 0.264530
0.514702 0.381262 0.269230
0.633143 0.384314 0.277104
0.730861 0.385748 0.287999
0.834714 0.394202 0.301427
0.952056 0.411261 0.319738
0.303929 0.492470 0.267521
0.332921 0.491188 0.270420
0.408881 0.490608 0.271092
0.514641 0.489509 0.272129
0.629969 0.487800 0.279149
0.728481 0.480781 0.291691
0.834348 0.484108 0.306065
0.952850 0.497871 0.324987
0.328099 0.603021 0.280156
0.350256 0.603449 0.280522
0.418219 0.602991 0.281651
0.514885 0.600977 0.283177
0.624598 0.598169 0.285863
0.726009 0.587457 0.296971
0.832975 0.587182 0.312016
0.952117 0.599023 0.331395
0.357855 0.700282 0.298619
0.375372 0.700038 0.298924
0.431403 0.699367 0.299931
0.514977 0.697536 0.301457
0.613916 0.695613 0.304082
0.719081 0.693019 0.307134
0.828824 0.693812 0.318181
0.950256 0.706905 0.338506
0.389746 0.810178 0.320867
0.405280 0.810910 0.321599
0.454719 0.811276 0.322789
0.530907 0.810788 0.324315
0.624659 0.811063 0.327153
0.728023 0.812070 0.331182
0.836637 0.814054 0.336339
0.954070 0.823850 0.351446
0.425971 0.935302 0.348577
0.439277 0.935180 0.348699
0.483986 0.935424 0.349828
0.554498 0.935119 0.351141
0.643702 0.936278 0.354376
0.744076 0.938506 0.359564
0.850187 0.941070 0.365942
0.959350 0.944793 0.374975
0.266545 0.248173 0.349157
0.309453 0.247654 0.347967
0.405432 0.261021 0.343572
0.512932 0.276555 0.343450
0.625177 0.296849 0.350774
0.721340 0.329564 0.364630
0.825589 0.349859 0.376684
0.945373 0.371679 0.393042
0.290196 0.293950 0.344274
0.322728 0.296727 0.343175
0.404822 0.299321 0.342290
0.513512 0.309422 0.346410
0.626642 0.325780 0.354864
0.723110 0.349645 0.366735
0.827970 0.367468 0.378424
0.947112 0.388251 0.394659
0.297551 0.380682 0.341985
0.329412 0.379736 0.341192
0.411292 0.384771 0.346136
0.512291 0.387945 0.349615
0.624506 0.396155 0.357671
0.722194 0.406500 0.367651
0.827939 0.419898 0.380041
0.947631 0.438544 0.396643
0.313664 0.489876 0.343328
0.342382 0.487770 0.344640
0.418647 0.486641 0.349828
0.513970 0.486366 0.350561
0.623499 0.488930 0.358068
0.720668 0.489967 0.369421
0.827115 0.498634 0.382269
0.947539 0.515312 0.399481
0.337407 0.602502 0.349584
0.363043 0.600885 0.352453
0.433692 0.597559 0.359869
0.520531 0.595605 0.360754
0.621851 0.593622 0.362646
0.720455 0.588556 0.373327
0.828275 0.594537 0.387060
0.948608 0.609949 0.404486
0.372229 0.698512 0.362341
0.394751 0.697078 0.366857
0.454658 0.694972 0.376074
0.529656 0.694423 0.377569
0.620935 0.693782 0.379767
0.719905 0.692470 0.381964
0.827451 0.696803 0.391638
0.947723 0.712306 0.409003
0.408789 0.806973 0.383520
0.428687 0.806546 0.388678
0.478553 0.806943 0.394812
0.548058 0.807919 0.396582
0.635218 0.809232 0.399115
0.732448 0.810300 0.401862
0.835111 0.811521 0.404791
0.950042 0.822934 0.417151
0.448981 0.933349 0.412634
0.465919 0.933440 0.416938
0.506828 0.934264 0.418189
0.571069 0.933379 0.418250
0.655146 0.935058 0.420996
0.750668 0.937194 0.424811
0.852750 0.939818 0.429572
0.958587 0.943542 0.436286
0.289097 0.254826 0.457984
0.323278 0.259617 0.455146
0.411414 0.270512 0.451179
0.518944 0.280919 0.447425
0.629816 0.300816 0.446082
0.724483 0.334691 0.446845
0.827817 0.372473 0.462257
0.945281 0.411688 0.487678
0.309422 0.302373 0.449439
0.336400 0.303593 0.448707
0.414191 0.307317 0.447425
0.517235 0.311986 0.445502
0.628717 0.328710 0.446845
0.723964 0.359350 0.449866
0.827878 0.394079 0.466316
0.945342 0.430121 0.491493
0.322087 0.386206 0.447425
0.349676 0.387762 0.446265
0.422950 0.391455 0.445441
0.518486 0.392798 0.445441
0.625605 0.405127 0.449592
0.718166 0.427436 0.456886
0.820493 0.452613 0.473823
0.942168 0.473548 0.492744
0.329442 0.489143 0.444678
0.355108 0.488777 0.444373
0.428107 0.489113 0.444923
0.528557 0.497230 0.453040
0.625483 0.500145 0.456245
0.717067 0.510491 0.466407
0.823148 0.523674 0.479164
0.943816 0.540978 0.495338
0.350072 0.600275 0.444251
0.374212 0.599481 0.445411
0.443824 0.596826 0.449012
0.534112 0.594385 0.456275
0.623682 0.592950 0.457465
0.716060 0.594293 0.467659
0.823209 0.606592 0.481025
0.944915 0.625330 0.497810
0.384497 0.695766 0.445502
0.404578 0.693141 0.446906
0.468055 0.690791 0.456306
0.550042 0.688136 0.469612
0.629267 0.688594 0.471443
0.718868 0.689601 0.473793
0.824186 0.700252 0.483894
0.945525 0.720180 0.499550
0.420569 0.806455 0.461341
0.438972 0.805417 0.464393
0.495583 0.802945 0.474922
0.569451 0.801389 0.486152
0.647059 0.803372 0.488014
0.736751 0.806058 0.490272
0.834226 0.809445 0.492775
0.948730 0.825071 0.503227
0.457191 0.931792 0.485145
0.473274 0.931243 0.488075
0.523613 0.930510 0.497627
0.588922 0.930907 0.503044
0.667018 0.933196 0.504814
0.757321 0.935912 0.506828
0.855344 0.938933 0.509148
0.958221 0.942687 0.512200
0.313664 0.272038 0.565087
0.341100 0.275456 0.563531
0.419257 0.284977 0.561364
0.520745 0.296178 0.557763
0.630213 0.307439 0.554589
0.725917 0.340368 0.544732
0.830930 0.377508 0.553368
0.948516 0.416358 0.575006
0.330571 0.313359 0.560540
0.353857 0.314580 0.558862
0.424506 0.319219 0.557580
0.522087 0.326268 0.556115
0.629541 0.334874 0.553735
0.724819 0.364111 0.545373
0.829984 0.397925 0.555108
0.948058 0.434028 0.577234
0.353033 0.396918 0.555016
0.376989 0.399878 0.553826
0.439277 0.402930 0.553704
0.527642 0.406256 0.553155
0.628809 0.411170 0.552331
0.723293 0.434211 0.549554
0.828580 0.460365 0.562524
0.947997 0.487526 0.584497
0.361273 0.491890 0.553826
0.384466 0.493233 0.553368
0.451698 0.497292 0.551720
0.538659 0.504021 0.551263
0.629053 0.506920 0.551507
0.719600 0.523430 0.555627
0.825559 0.539605 0.570428
0.946990 0.552453 0.585931
0.372503 0.597711 0.551354
0.394049 0.597192 0.550835
0.458350 0.596338 0.550134
0.545678 0.597162 0.551263
0.637812 0.604822 0.559197
0.721523 0.607813 0.562371
0.827329 0.617304 0.571893
0.948608 0.631708 0.585809
0.404181 0.697688 0.546777
0.423774 0.696834 0.547631
0.483742 0.694911 0.551446
0.565118 0.692836 0.558709
0.644129 0.694575 0.564508
0.725002 0.694331 0.563806
0.827817 0.705196 0.570825
0.948882 0.723507 0.584710
0.437140 0.807370 0.556786
0.454627 0.807095 0.558862
0.508415 0.805692 0.565240
0.580133 0.804227 0.572503
0.653559 0.805447 0.572839
0.740566 0.807980 0.574090
0.836973 0.811582 0.575830
0.953033 0.828733 0.587640
0.472511 0.934783 0.579919
0.487770 0.934661 0.581994
0.533501 0.934417 0.587274
0.592889 0.932769 0.587366
0.667842 0.934752 0.586572
0.758419 0.937621 0.588769
0.856840 0.940764 0.591241
0.960082 0.944549 0.594751
0.337530 0.291905 0.659358
0.359747 0.294926 0.658778
0.426459 0.304082 0.658595
0.518639 0.316472 0.656825
0.621546 0.331426 0.655024
0.726406 0.349310 0.653071
0.833371 0.383307 0.657740
0.951171 0.421668 0.677028
0.354009 0.328801 0.660151
0.373938 0.330602 0.659968
0.435492 0.336339 0.659205
0.523827 0.345556 0.657588
0.623957 0.357794 0.655543
0.726802 0.373083 0.653437
0.833463 0.403906 0.659083
0.951324 0.439460 0.678950
0.387304 0.412543 0.653559
0.403845 0.413581 0.653864
0.456367 0.416815 0.653803
0.535088 0.422095 0.653010
0.627741 0.429999 0.652216
0.724910 0.440162 0.651148
0.831174 0.464179 0.660914
0.950134 0.489876 0.682033
0.402106 0.498421 0.652094
0.422004 0.501366 0.651881
0.481636 0.510552 0.650141
0.553124 0.516289 0.647791
0.633631 0.520073 0.647059
0.721584 0.525902 0.647211
0.827634 0.540398 0.662074
0.949004 0.553033 0.681971
0.414588 0.595056 0.653010
0.433112 0.596002 0.652522
0.490028 0.599542 0.651026
0.567864 0.605921 0.649531
0.644312 0.609857 0.650629
0.726314 0.610346 0.651881
0.831754 0.618708 0.665400
0.952209 0.632197 0.683162
0.429328 0.697047 0.653315
0.446326 0.696162 0.652430
0.499886 0.695247 0.651606
0.573083 0.694850 0.651362
0.646784 0.697047 0.653834
0.735775 0.704494 0.661769
0.834562 0.708919 0.666377
0.952850 0.724331 0.682033
0.453498 0.805966 0.659998
0.468971 0.805112 0.660212
0.517937 0.804166 0.662531
0.582574 0.804135 0.664973
0.654475 0.806546 0.666041
0.741726 0.810544 0.668086
0.838956 0.813291 0.670100
0.954986 0.829618 0.684627
0.484688 0.935119 0.684047
0.498024 0.935210 0.685115
0.538628 0.935546 0.687312
0.595575 0.935943 0.687129
0.669764 0.937469 0.686702
0.758450 0.939605 0.687068
0.857328 0.942229 0.689754
0.960784 0.945800 0.693874
0.365057 0.318303 0.786740
0.384344 0.320684 0.785855
0.444678 0.328649 0.785031
0.531579 0.340459 0.783474
0.631800 0.356176 0.782223
0.736507 0.374884 0.781064
0.840635 0.395666 0.780117
0.956634 0.432410 0.796384
0.379431 0.351080 0.787198
0.397192 0.352605 0.786465
0.453925 0.358465 0.785733
0.537926 0.368231 0.784726
0.635981 0.381750 0.783719
0.739284 0.398383 0.783017
0.842557 0.417212 0.782406
0.958740 0.451606 0.799680
0.413672 0.432776 0.782223
0.428779 0.433692 0.782162
0.478035 0.437293 0.782132
0.553460 0.443397 0.781674
0.644373 0.452277 0.781460
0.741848 0.463203 0.781003
0.840421 0.475349 0.780056
0.956298 0.497536 0.798856
0.443519 0.524132 0.778653
0.460975 0.527459 0.778653
0.510918 0.535149 0.778164
0.575372 0.538018 0.777798
0.655818 0.542199 0.777951
0.744564 0.545922 0.777768
0.837949 0.548089 0.777462
0.955261 0.559106 0.798245
0.454414 0.615320 0.781064
0.471015 0.617365 0.781094
0.521843 0.623194 0.780545
0.587976 0.627405 0.779385
0.660822 0.626520 0.779568
0.746700 0.626154 0.780270
0.840513 0.625727 0.780819
0.957000 0.638209 0.800076
0.466346 0.714504 0.782620
0.481544 0.715084 0.782345
0.527550 0.716670 0.781552
0.588281 0.716915 0.780545
0.659815 0.715724 0.780545
0.745541 0.715023 0.781216
0.841032 0.715328 0.782071
0.957763 0.730770 0.800961
0.477424 0.816739 0.782986
0.490486 0.816281 0.782528
0.531273 0.815732 0.781949
0.587457 0.815061 0.781399
0.659785 0.815640 0.782132
0.747005 0.817746 0.784573
0.849088 0.825223 0.792844
0.959655 0.836423 0.804837
0.494575 0.938781 0.801053
0.505791 0.938842 0.801297
0.539757 0.937682 0.800107
0.595636 0.938262 0.800229
0.670863 0.940093 0.801541
0.759884 0.942382 0.803342
0.858915 0.945251 0.806790
0.961395 0.948486 0.811276
0.395880 0.355810 0.936584
0.413275 0.357733 0.936217
0.469184 0.365301 0.936339
0.552239 0.376928 0.935637
0.650172 0.392523 0.934966
0.754360 0.410956 0.934508
0.859373 0.430854 0.933837
0.963531 0.450813 0.934325
0.408942 0.384955 0.937011
0.425177 0.386511 0.936645
0.478248 0.392432 0.936645
0.558709 0.402564 0.936187
0.654383 0.416083 0.935607
0.756893 0.432380 0.935241
0.860960 0.450507 0.934966
0.964416 0.467140 0.935698
0.443885 0.463996 0.935912
0.457923 0.465003 0.935790
0.504723 0.469062 0.936248
0.576593 0.474617 0.934966
0.665675 0.483619 0.934936
0.763119 0.494942 0.935241
0.863066 0.504814 0.935393
0.964508 0.511894 0.936370
0.486305 0.562463 0.934081
0.497688 0.562707 0.933837
0.536736 0.564416 0.934203
0.599145 0.566522 0.934051
0.678248 0.568994 0.934112
0.767758 0.571191 0.934752
0.863645 0.572320 0.935393
0.964141 0.573541 0.936736
0.494850 0.648371 0.935882
0.507378 0.649195 0.935454
0.546899 0.651331 0.935424
0.604913 0.651087 0.935180
0.680720 0.651270 0.935912
0.768765 0.651728 0.936858
0.864256 0.652216 0.937560
0.964385 0.653346 0.938415
0.501030 0.743740 0.938201
0.512932 0.744381 0.938445
0.550042 0.745296 0.938903
0.607691 0.745266 0.939147
0.682338 0.744747 0.938903
0.768704 0.743832 0.938170
0.863127 0.743313 0.937743
0.963195 0.744839 0.938689
0.504906 0.845731 0.940246
0.515770 0.845975 0.940459
0.551293 0.846403 0.940978
0.608515 0.846342 0.941131
0.683589 0.846464 0.941375
0.770993 0.846921 0.941588
0.866178 0.848478 0.941985
0.964385 0.850767 0.943084
0.508232 0.953826 0.943450
0.518730 0.954040 0.943725
0.553124 0.954131 0.943908
0.609461 0.953613 0.943359
0.683803 0.953246 0.943023
0.771054 0.953399 0.943175
0.867185 0.954345 0.944121
0.965728 0.958465 0.948516
