其他预设/【232】美食博客调色预设124款/1.3D LUT预设（视频调色-PR-AE-PS-FCPX-达芬奇用）/Food Art #2 ().cube
# Created by Adobe Lightroom plugin Export LUT (1.17.0)
# www.johnrellis.com/lightroom/exportlut.htm
# Preset: Food Art #2 (素锦印象)
# Color profile: /Library/Application Support/Adobe/Color/Profiles/Recommended/AdobeRGB1998.icc
LUT_3D_SIZE 8
DOMAIN_MIN 0.000000 0.000000 0.000000
DOMAIN_MAX 0.903226 0.903226 0.903226
0.000000 0.000000 0.000000
0.092287 0.000000 0.000000
0.278416 0.000000 0.000000
0.559442 0.000000 0.000000
0.804349 0.000000 0.000000
0.948394 0.000000 0.000000
1.000000 0.000000 0.000000
1.000000 0.000000 0.000000
0.000000 0.088991 0.000000
0.089357 0.093050 0.000000
0.256748 0.082765 0.000000
0.518181 0.101869 0.000000
0.775296 0.106142 0.000000
0.928038 0.017243 0.000000
1.000000 0.000000 0.000000
1.000000 0.000000 0.000000
0.000000 0.305455 0.000000
0.156344 0.315526 0.000000
0.338476 0.330907 0.000000
0.549462 0.349554 0.000000
0.781827 0.359350 0.000000
0.930388 0.329442 0.000000
1.000000 0.288304 0.000000
1.000000 0.245212 0.000000
0.082887 0.652216 0.000000
0.243046 0.655268 0.000000
0.497719 0.683131 0.000000
0.749020 0.731106 0.000000
0.884947 0.645930 0.000000
0.935821 0.535546 0.000000
1.000000 0.471595 0.000000
1.000000 0.415167 0.000000
0.133028 0.867094 0.000000
0.260166 0.867033 0.000000
0.482551 0.871214 0.000000
0.704921 0.874876 0.000000
0.876890 0.855802 0.000000
0.962707 0.756039 0.000000
0.996887 0.642969 0.000000
1.000000 0.566888 0.000000
0.180056 0.951904 0.000000
0.268956 0.957641 0.000000
0.441993 0.954986 0.000000
0.636011 0.950347 0.000000
0.797269 0.936126 0.000000
0.939483 0.917113 0.000000
1.000000 0.838407 0.000000
1.000000 0.728817 0.000000
0.230228 1.000000 0.000000
0.284428 1.000000 0.000000
0.413123 1.000000 0.000000
0.570489 0.994049 0.000000
0.733822 0.984344 0.000000
0.855375 0.969757 0.000000
0.975708 0.952728 0.000000
1.000000 0.890257 0.000000
0.265385 1.000000 0.000000
0.300328 1.000000 0.000000
0.399145 1.000000 0.000000
0.529686 1.000000 0.000000
0.661158 1.000000 0.000000
0.793240 1.000000 0.000000
0.898863 0.994446 0.000000
1.000000 0.979950 0.000000
0.000000 0.029114 0.078492
0.083345 0.000000 0.085298
0.248295 0.000000 0.093538
0.514733 0.000000 0.031556
0.772305 0.000000 0.000000
0.921202 0.000000 0.000000
1.000000 0.000000 0.000000
1.000000 0.000000 0.000000
0.000000 0.079011 0.080354
0.084230 0.084230 0.084230
0.248600 0.074556 0.076478
0.503502 0.000000 0.000000
0.759579 0.000000 0.000000
0.910338 0.000000 0.000000
0.993225 0.000000 0.000000
1.000000 0.000000 0.000000
0.000000 0.271305 0.076265
0.096407 0.282383 0.029938
0.310704 0.303777 0.000000
0.508354 0.307988 0.000000
0.756710 0.322698 0.000000
0.906584 0.293400 0.000000
0.993988 0.254032 0.000000
1.000000 0.215122 0.000000
0.000000 0.594049 0.000000
0.123018 0.602716 0.000000
0.446540 0.647089 0.000000
0.684291 0.667903 0.000000
0.824704 0.591638 0.000000
0.897429 0.501152 0.000000
0.982635 0.447150 0.000000
1.000000 0.397620 0.000000
0.000000 0.852964 0.000000
0.169894 0.851255 0.000000
0.443702 0.852934 0.000000
0.678737 0.851987 0.000000
0.850980 0.830655 0.000000
0.942992 0.735622 0.000000
0.982910 0.628016 0.000000
1.000000 0.556054 0.000000
0.064332 0.940612 0.000000
0.210513 0.940612 0.000000
0.411048 0.939330 0.000000
0.616632 0.938018 0.000000
0.787106 0.927642 0.000000
0.933654 0.911681 0.000000
1.000000 0.832029 0.000000
1.000000 0.721950 0.000000
0.187350 0.995422 0.000000
0.248142 0.993530 0.000000
0.391424 0.990692 0.000000
0.557855 0.987182 0.000000
0.726375 0.979644 0.000000
0.850248 0.965209 0.000000
0.969970 0.947356 0.000000
1.000000 0.883909 0.000000
0.247990 1.000000 0.000000
0.287388 1.000000 0.000000
0.391150 1.000000 0.000000
0.525292 1.000000 0.000000
0.665400 1.000000 0.000000
0.795499 1.000000 0.000000
0.897856 0.993317 0.000000
1.000000 0.978088 0.000000
0.000000 0.094148 0.211460
0.060060 0.025330 0.230167
0.264164 0.000000 0.264408
0.528679 0.000000 0.316716
0.782559 0.000000 0.292790
0.932097 0.000000 0.229862
1.000000 0.000000 0.211765
1.000000 0.000000 0.184390
0.000000 0.118776 0.212619
0.050385 0.091646 0.230503
0.261845 0.000000 0.261936
0.515984 0.000000 0.291478
0.774350 0.000000 0.259251
0.921691 0.000000 0.215091
1.000000 0.000000 0.196658
1.000000 0.000000 0.172000
0.000000 0.244602 0.239048
0.000000 0.250767 0.245762
0.254429 0.254429 0.254429
0.518761 0.240208 0.240787
0.784726 0.222049 0.224582
0.916960 0.202029 0.206607
0.996307 0.179477 0.187015
1.000000 0.148562 0.159945
0.000000 0.549920 0.308568
0.000000 0.562829 0.290379
0.274754 0.601984 0.216403
0.656153 0.642451 0.206912
0.803037 0.546654 0.208133
0.906828 0.476997 0.189639
0.987488 0.425177 0.172885
1.000000 0.376532 0.142885
0.000000 0.831113 0.240940
0.000000 0.834592 0.193301
0.315679 0.837491 0.191928
0.651392 0.846677 0.230777
0.845609 0.827329 0.203403
0.932830 0.717647 0.173983
0.972992 0.609918 0.137728
1.000000 0.543847 0.097963
0.000000 0.934874 0.000000
0.000000 0.935027 0.000000
0.347692 0.928801 0.208255
0.585107 0.926452 0.238407
0.775631 0.917937 0.258152
0.922057 0.902373 0.246159
0.999969 0.821134 0.216526
1.000000 0.714687 0.137057
0.000000 0.994537 0.066896
0.158724 0.991363 0.173342
0.378576 0.985534 0.239872
0.549859 0.980682 0.260136
0.720058 0.973327 0.290471
0.848997 0.961334 0.288182
0.966979 0.946502 0.273350
1.000000 0.883543 0.230594
0.224247 1.000000 0.207980
0.297581 1.000000 0.250584
0.397040 1.000000 0.256626
0.537133 1.000000 0.297337
0.672786 1.000000 0.320409
0.804532 1.000000 0.346410
0.900114 0.991455 0.326574
0.998871 0.977935 0.303349
0.000000 0.075349 0.399084
0.000000 0.000000 0.425025
0.294865 0.000000 0.489174
0.523461 0.000000 0.523674
0.767300 0.000000 0.539818
0.909178 0.000000 0.481422
0.990631 0.000000 0.424994
1.000000 0.000000 0.397009
0.000000 0.126436 0.417609
0.000000 0.100282 0.434791
0.278050 0.000000 0.490974
0.527550 0.000000 0.527672
0.769497 0.000000 0.533074
0.904692 0.000000 0.471565
0.985962 0.000000 0.420813
1.000000 0.000000 0.400488
0.000000 0.273472 0.386053
0.000000 0.271427 0.391455
0.184573 0.227756 0.460456
0.523796 0.148806 0.523888
0.773251 0.088380 0.512139
0.905791 0.180606 0.475990
0.984619 0.292027 0.473793
1.000000 0.265476 0.429664
0.000000 0.480354 0.468879
0.000000 0.486000 0.474678
0.157626 0.501762 0.492622
0.514061 0.514061 0.514061
0.753414 0.500420 0.500572
0.883940 0.479408 0.480049
0.969451 0.451942 0.453071
1.000000 0.411139 0.413062
0.000000 0.784909 0.536522
0.000000 0.785153 0.526848
0.000000 0.792142 0.499306
0.555932 0.797879 0.527916
0.809659 0.798917 0.544915
0.889189 0.696986 0.498543
0.956970 0.620386 0.447089
1.000000 0.559106 0.398657
0.000000 0.917784 0.450507
0.000000 0.923003 0.450538
0.204593 0.918181 0.446204
0.584375 0.906157 0.544640
0.787564 0.906279 0.592859
0.906188 0.893034 0.569055
0.975280 0.814633 0.498238
1.000000 0.714260 0.409949
0.000000 0.984558 0.371099
0.000000 0.984161 0.376043
0.298558 0.979889 0.415259
0.594629 0.967010 0.546654
0.744717 0.962341 0.579492
0.861631 0.954498 0.587640
0.956939 0.941924 0.560235
1.000000 0.882200 0.491890
0.000000 1.000000 0.334234
0.113680 1.000000 0.349798
0.384710 1.000000 0.428565
0.591852 1.000000 0.535851
0.708644 1.000000 0.557855
0.826932 0.994903 0.587396
0.908873 0.986175 0.577539
0.992065 0.976074 0.562249
0.000000 0.065034 0.618982
0.000000 0.000000 0.634791
0.256687 0.000000 0.673518
0.521660 0.000000 0.734279
0.748989 0.000000 0.749203
0.888090 0.000000 0.682948
0.973754 0.000000 0.607660
1.000000 0.000000 0.551812
0.000000 0.124392 0.622339
0.000000 0.109041 0.639796
0.231052 0.000000 0.676295
0.509392 0.000000 0.730892
0.747707 0.000000 0.747921
0.887236 0.000000 0.679438
0.972320 0.000000 0.606561
1.000000 0.000000 0.553918
0.000000 0.313573 0.594629
0.000000 0.303868 0.613550
0.022766 0.222873 0.653986
0.465675 0.135286 0.719844
0.738247 0.000000 0.738430
0.875059 0.000000 0.663203
0.962005 0.137942 0.604211
1.000000 0.216922 0.561975
0.000000 0.464790 0.598108
0.000000 0.462593 0.600092
0.158633 0.459327 0.610620
0.411444 0.444831 0.685237
0.728298 0.431891 0.728298
0.860044 0.462501 0.666865
0.944030 0.486427 0.636744
1.000000 0.495796 0.614801
0.000000 0.686793 0.670314
0.000000 0.689418 0.673243
0.000000 0.693629 0.679164
0.427649 0.698787 0.689570
0.697169 0.697169 0.697169
0.831357 0.681849 0.681941
0.922850 0.658961 0.659236
0.993469 0.618952 0.619471
0.000000 0.862516 0.652735
0.000000 0.863188 0.649683
0.000000 0.861784 0.638605
0.412482 0.858549 0.638666
0.706813 0.852171 0.692073
0.867552 0.860777 0.716793
0.927153 0.798978 0.678035
0.983215 0.731441 0.613153
0.000000 0.961181 0.574914
0.000000 0.960021 0.573236
0.129854 0.956512 0.576440
0.490517 0.948425 0.617304
0.729244 0.937743 0.707118
0.860960 0.939544 0.738277
0.939605 0.930114 0.718898
0.993713 0.873777 0.651514
0.000000 1.000000 0.503624
0.000000 1.000000 0.506340
0.253452 1.000000 0.524895
0.534874 1.000000 0.606867
0.729000 0.987884 0.700435
0.833219 0.984100 0.723262
0.913939 0.978759 0.729122
0.982361 0.971191 0.716121
0.000000 0.098268 0.789181
0.000000 0.075746 0.793790
0.182528 0.000000 0.805081
0.437537 0.000000 0.832242
0.667445 0.000000 0.861753
0.853971 0.000000 0.854154
0.954467 0.000000 0.775631
1.000000 0.000000 0.701411
0.000000 0.144472 0.777707
0.000000 0.131624 0.781765
0.142611 0.042756 0.796231
0.422217 0.000000 0.824430
0.658808 0.000000 0.855680
0.848936 0.000000 0.849180
0.951232 0.000000 0.771939
1.000000 0.000000 0.699763
0.000000 0.317876 0.771084
0.000000 0.291295 0.776059
0.000000 0.238621 0.793057
0.385565 0.187137 0.819913
0.641596 0.000000 0.850828
0.846036 0.000000 0.846159
0.946258 0.000000 0.768551
1.000000 0.162356 0.703273
0.000000 0.478676 0.729427
0.000000 0.474983 0.735073
0.151919 0.467170 0.761746
0.364202 0.428412 0.804227
0.630488 0.423865 0.840513
0.844053 0.414496 0.844114
0.935424 0.454871 0.776120
0.998230 0.467659 0.726223
0.000000 0.620325 0.749142
0.000000 0.619318 0.749813
0.079133 0.616175 0.751308
0.397284 0.617700 0.753323
0.615229 0.633814 0.793423
0.819272 0.643214 0.819272
0.908965 0.653620 0.778317
0.975402 0.648737 0.750698
0.000000 0.795651 0.777066
0.000000 0.798123 0.779904
0.000000 0.798611 0.781888
0.371618 0.797482 0.784482
0.622248 0.793393 0.786801
0.796139 0.796109 0.796139
0.889158 0.787686 0.787778
0.959533 0.768460 0.768612
0.000000 0.930510 0.747311
0.000000 0.931090 0.747799
0.000000 0.928832 0.746517
0.378546 0.922972 0.749172
0.643153 0.912871 0.770169
0.816983 0.910246 0.808072
0.918456 0.913725 0.817197
0.961151 0.864439 0.774746
0.000000 0.998810 0.666560
0.000000 0.997864 0.666163
0.000000 0.994598 0.668513
0.427863 0.987976 0.690852
0.656703 0.976867 0.741451
0.817533 0.969635 0.802335
0.915160 0.971466 0.828305
0.973419 0.966491 0.820645
0.000000 0.147311 0.873136
0.000000 0.138582 0.876829
0.074678 0.084718 0.882902
0.361334 0.000000 0.894408
0.558770 0.000000 0.908415
0.746700 0.000000 0.918303
0.910155 0.000000 0.910369
0.995819 0.000000 0.837125
0.000000 0.176638 0.864897
0.000000 0.170077 0.868437
0.000000 0.133394 0.875242
0.346654 0.000000 0.886381
0.548272 0.000000 0.901122
0.739254 0.000000 0.912047
0.903410 0.000000 0.903624
0.990509 0.000000 0.830869
0.000000 0.295903 0.861326
0.000000 0.272648 0.863645
0.000000 0.253880 0.869261
0.314977 0.213169 0.880674
0.529808 0.097414 0.895445
0.732723 0.000000 0.910277
0.903258 0.000000 0.903441
0.989929 0.000000 0.831632
0.000000 0.479011 0.841062
0.000000 0.473426 0.842588
0.123323 0.447211 0.851530
0.293187 0.393103 0.867582
0.516197 0.368444 0.884916
0.729427 0.328466 0.906828
0.900572 0.324559 0.900694
0.982666 0.353002 0.832456
0.000000 0.588037 0.812619
0.000000 0.584985 0.810636
0.156924 0.577966 0.806699
0.358129 0.576135 0.825742
0.509758 0.552300 0.855619
0.715206 0.558984 0.882750
0.885191 0.562005 0.885252
0.965057 0.583398 0.834989
0.000000 0.714199 0.826902
0.000000 0.713313 0.826749
0.000000 0.710384 0.825956
0.339849 0.707942 0.824949
0.545495 0.711543 0.820951
0.722835 0.735592 0.851743
0.874235 0.748470 0.874266
0.947082 0.747280 0.844114
0.000000 0.864988 0.845426
0.000000 0.865446 0.846220
0.000000 0.864591 0.846555
0.315892 0.862669 0.847318
0.553399 0.857298 0.846677
0.729488 0.853086 0.848112
0.855406 0.855375 0.855406
0.931762 0.846983 0.847044
0.000000 0.969818 0.805142
0.000000 0.969543 0.804807
0.000000 0.969970 0.806760
0.271733 0.966522 0.809018
0.548333 0.957458 0.819455
0.743343 0.949767 0.839719
0.880003 0.951568 0.873289
0.960906 0.957427 0.888121
0.000000 0.207584 0.932830
0.000000 0.202152 0.934234
0.000000 0.172152 0.935698
0.302525 0.092836 0.941039
0.477241 0.000000 0.948119
0.645441 0.000000 0.957031
0.805905 0.000000 0.960021
0.952728 0.000000 0.952941
0.000000 0.228183 0.928771
0.000000 0.223423 0.930266
0.000000 0.198001 0.932433
0.292088 0.136629 0.937407
0.470405 0.000000 0.944915
0.640223 0.000000 0.954253
0.802335 0.000000 0.957427
0.950164 0.000000 0.950378
0.000000 0.300908 0.921843
0.000000 0.297154 0.922881
0.000000 0.277317 0.924468
0.269047 0.247684 0.932464
0.454444 0.170687 0.939971
0.627405 0.000000 0.949310
0.796323 0.000000 0.954589
0.947692 0.000000 0.947875
0.000000 0.471687 0.907713
0.000000 0.462196 0.909667
0.000000 0.417334 0.913939
0.246738 0.379889 0.921660
0.438911 0.345129 0.930999
0.613977 0.278874 0.942382
0.790494 0.168856 0.951598
0.944854 0.106294 0.945006
0.000000 0.580835 0.880339
0.115969 0.579828 0.882689
0.224521 0.571069 0.887877
0.354376 0.558648 0.899351
0.429450 0.498634 0.912840
0.602228 0.473762 0.926879
0.785885 0.441444 0.943755
0.937865 0.451331 0.937987
0.000000 0.674037 0.874907
0.000000 0.671962 0.873747
0.152377 0.666011 0.870634
0.316075 0.658686 0.866667
0.477974 0.658747 0.876066
0.623774 0.655238 0.902953
0.794247 0.674311 0.927276
0.930785 0.687160 0.930816
0.000000 0.786038 0.884886
0.000000 0.784878 0.884245
0.000000 0.781308 0.882597
0.273838 0.777432 0.880949
0.469551 0.775662 0.877806
0.643458 0.780453 0.872801
0.790646 0.801205 0.899565
0.919982 0.814908 0.919982
0.000000 0.918822 0.898436
0.000000 0.918273 0.898100
0.000000 0.917082 0.897795
0.242344 0.915404 0.898100
0.487739 0.911711 0.898100
0.668299 0.907408 0.898528
0.804349 0.906035 0.901884
0.913695 0.913664 0.913695
