其他预设/【232】美食博客调色预设124款/1.3D LUT预设（视频调色-PR-AE-PS-FCPX-达芬奇用）/Food Art #65.cube
# Created by Adobe Lightroom plugin Export LUT (1.17.0)
# www.johnrellis.com/lightroom/exportlut.htm
# Preset: Food Art #65
# Color profile: /Library/Application Support/Adobe/Color/Profiles/Recommended/AdobeRGB1998.icc
LUT_3D_SIZE 32
0.000000 0.000000 0.000000
0.000977 0.000977 0.000977
0.034485 0.000000 0.006775
0.079469 0.000000 0.019898
0.111299 0.000000 0.047364
0.137392 0.000000 0.062745
0.164126 0.000000 0.072358
0.191531 0.000000 0.082399
0.220340 0.000000 0.093416
0.250187 0.000000 0.104524
0.281010 0.000000 0.116579
0.311894 0.006806 0.128542
0.342473 0.031678 0.141054
0.372290 0.061891 0.153902
0.401007 0.081514 0.166629
0.428595 0.100587 0.179110
0.454932 0.120119 0.191501
0.480446 0.140047 0.203799
0.504784 0.160372 0.216190
0.531365 0.183902 0.230228
0.557702 0.208499 0.244968
0.583795 0.233707 0.260136
0.609888 0.260014 0.276158
0.636316 0.287388 0.293004
0.663416 0.316014 0.310918
0.690822 0.346899 0.330877
0.718929 0.380713 0.353368
0.747890 0.417945 0.379461
0.777157 0.458473 0.408942
0.806332 0.501488 0.441810
0.835172 0.547204 0.478553
0.863371 0.594751 0.518883
0.002319 0.000763 0.000946
0.012421 0.001373 0.002808
0.051423 0.001404 0.011475
0.090486 0.001373 0.031342
0.118349 0.003540 0.054475
0.143221 0.002136 0.065614
0.168490 0.000031 0.075074
0.195560 0.000000 0.085023
0.223636 0.000000 0.095369
0.252995 0.000000 0.106447
0.283330 0.002197 0.117891
0.313664 0.016602 0.130068
0.343969 0.041688 0.142580
0.373541 0.066407 0.155001
0.401953 0.084749 0.167361
0.429236 0.103273 0.179782
0.455451 0.122194 0.191928
0.480629 0.141817 0.204288
0.504845 0.161807 0.216587
0.531273 0.184970 0.230442
0.557183 0.209110 0.244938
0.582940 0.233860 0.260014
0.608911 0.259892 0.275639
0.635157 0.286992 0.292363
0.662196 0.315404 0.310369
0.689570 0.346258 0.330144
0.717708 0.379828 0.352544
0.746731 0.417090 0.378515
0.776028 0.457557 0.407904
0.805295 0.500542 0.440772
0.834226 0.546166 0.477394
0.862455 0.593683 0.517784
0.051911 0.008148 0.016327
0.061128 0.009094 0.019104
0.076448 0.008667 0.026642
0.102724 0.009766 0.047486
0.126986 0.010193 0.061738
0.151095 0.008881 0.070314
0.175357 0.006348 0.078767
0.201114 0.004669 0.087922
0.228580 0.004273 0.098177
0.257176 0.006165 0.108888
0.286900 0.013519 0.120424
0.316930 0.028931 0.132143
0.346715 0.053651 0.144259
0.375860 0.071931 0.156649
0.403845 0.089174 0.168887
0.430915 0.107149 0.181064
0.456886 0.125673 0.193210
0.481788 0.144869 0.205386
0.505913 0.164462 0.217502
0.531975 0.187259 0.231327
0.557671 0.210880 0.245548
0.583276 0.235477 0.260563
0.608972 0.261265 0.276188
0.635157 0.288090 0.292729
0.662104 0.316564 0.310582
0.689357 0.347112 0.330419
0.717433 0.380713 0.352789
0.746456 0.417762 0.378729
0.775784 0.458137 0.408148
0.805051 0.501061 0.440955
0.833921 0.546502 0.477424
0.862181 0.593988 0.517784
0.094392 0.026154 0.051270
0.100313 0.026490 0.054810
0.108736 0.026764 0.059205
0.125765 0.027466 0.065522
0.146639 0.027985 0.072572
0.167666 0.026459 0.079438
0.189853 0.024445 0.086824
0.213870 0.023285 0.095552
0.239536 0.024353 0.104463
0.267063 0.028931 0.114626
0.295354 0.039368 0.125490
0.324224 0.055116 0.136660
0.353216 0.069001 0.148623
0.381384 0.083345 0.160464
0.408515 0.098939 0.172122
0.434791 0.115755 0.184054
0.460365 0.133150 0.195956
0.484840 0.151369 0.207675
0.508782 0.170626 0.219883
0.534020 0.192386 0.233249
0.559106 0.215488 0.247196
0.584222 0.239445 0.261906
0.609766 0.264805 0.277379
0.635859 0.291447 0.293889
0.662959 0.319982 0.312108
0.690394 0.350805 0.332067
0.718593 0.384436 0.354650
0.747707 0.421607 0.380652
0.776852 0.461799 0.410163
0.805905 0.504326 0.442847
0.834531 0.549401 0.479164
0.862516 0.596246 0.519127
0.126741 0.052277 0.071565
0.131594 0.052918 0.073060
0.138155 0.053681 0.075502
0.152132 0.055360 0.079957
0.172641 0.058198 0.087098
0.192325 0.058137 0.093080
0.211429 0.055879 0.099062
0.232853 0.055940 0.106142
0.256168 0.057801 0.114046
0.281559 0.061646 0.123445
0.308202 0.067109 0.133242
0.335637 0.075105 0.143984
0.362890 0.085725 0.154971
0.389685 0.098268 0.166262
0.415839 0.112612 0.177554
0.441321 0.127718 0.188846
0.466072 0.144411 0.200198
0.489998 0.161868 0.211795
0.513909 0.180789 0.224033
0.538323 0.201633 0.237125
0.562676 0.223575 0.250706
0.587274 0.247044 0.264958
0.612421 0.271763 0.280400
0.638300 0.298100 0.296849
0.665064 0.326177 0.314733
0.692317 0.356695 0.334752
0.720333 0.390173 0.357427
0.749142 0.427039 0.383429
0.778042 0.466835 0.412818
0.806851 0.508934 0.445441
0.835264 0.553521 0.481666
0.863157 0.599817 0.521477
0.158053 0.072206 0.087984
0.162081 0.073121 0.089387
0.167605 0.073304 0.091279
0.179416 0.074525 0.095308
0.197269 0.076509 0.100893
0.219608 0.079072 0.108400
0.239445 0.079561 0.114412
0.257633 0.079255 0.120089
0.277989 0.080415 0.126802
0.300847 0.083162 0.134646
0.325353 0.088533 0.143679
0.350713 0.095918 0.153231
0.375921 0.105440 0.163607
0.401221 0.116762 0.173831
0.426062 0.129244 0.184482
0.450385 0.143435 0.195377
0.474067 0.158968 0.206180
0.497017 0.175418 0.217380
0.520867 0.194034 0.229618
0.544427 0.214054 0.242252
0.568231 0.235294 0.255680
0.592493 0.258091 0.269871
0.628077 0.294072 0.292332
0.654017 0.320653 0.309239
0.680079 0.348821 0.327581
0.706538 0.379248 0.348302
0.733700 0.412573 0.371527
0.761379 0.448890 0.397894
0.789029 0.487556 0.427253
0.816556 0.528496 0.459724
0.843717 0.571801 0.495857
0.870298 0.616022 0.534630
0.192020 0.092531 0.106020
0.195773 0.092988 0.107118
0.200168 0.093416 0.108644
0.210575 0.094850 0.111635
0.225956 0.096712 0.116670
0.245579 0.099550 0.123140
0.268742 0.103334 0.130831
0.288945 0.104952 0.137148
0.306432 0.105806 0.142641
0.326635 0.108736 0.149325
0.348669 0.113588 0.157198
0.371527 0.120211 0.165927
0.394751 0.128695 0.175021
0.418006 0.138949 0.184604
0.441016 0.150362 0.194217
0.463539 0.163516 0.204379
0.485725 0.177646 0.214633
0.508568 0.194064 0.225742
0.531701 0.212100 0.237797
0.554772 0.231540 0.250401
0.578485 0.252934 0.264012
0.603204 0.276310 0.278752
0.628870 0.301640 0.294774
0.655451 0.328679 0.312291
0.682124 0.357519 0.331456
0.708827 0.388220 0.352331
0.735958 0.421424 0.375860
0.763363 0.457404 0.402380
0.790738 0.495399 0.431464
0.817899 0.535607 0.463935
0.844663 0.578058 0.499702
0.871061 0.621515 0.538140
0.225711 0.112764 0.123201
0.228885 0.113313 0.124300
0.232670 0.113619 0.125551
0.241520 0.114961 0.128084
0.254459 0.117189 0.132326
0.271336 0.119814 0.137636
0.291417 0.123598 0.144076
0.314153 0.128328 0.151766
0.334417 0.132052 0.158419
0.351629 0.134188 0.164034
0.370794 0.138582 0.170871
0.391241 0.144381 0.178378
0.412329 0.151919 0.186282
0.433478 0.161105 0.195041
0.454749 0.171786 0.203830
0.475837 0.183627 0.213260
0.497261 0.197482 0.223239
0.519341 0.213046 0.234318
0.540826 0.229740 0.245518
0.562707 0.248081 0.257511
0.585534 0.268345 0.270726
0.609400 0.290837 0.285222
0.634333 0.315282 0.301030
0.660304 0.341558 0.318212
0.686275 0.369635 0.337102
0.712490 0.399908 0.358160
0.739101 0.432685 0.381659
0.766018 0.467781 0.407965
0.793027 0.504997 0.437018
0.819760 0.544488 0.469215
0.846281 0.586206 0.504967
0.872313 0.628748 0.543114
0.260807 0.134737 0.140871
0.263462 0.135042 0.141512
0.266880 0.135744 0.142702
0.274296 0.137057 0.145174
0.285435 0.139071 0.148531
0.299809 0.141756 0.153170
0.317144 0.145480 0.158846
0.336614 0.150088 0.165225
0.358221 0.156069 0.172915
0.378332 0.161532 0.179873
0.395117 0.164950 0.185397
0.412940 0.170260 0.191928
0.431800 0.177218 0.199130
0.451148 0.185550 0.206912
0.470588 0.195102 0.215061
0.490578 0.206699 0.224063
0.511223 0.220096 0.233921
0.531365 0.234440 0.244114
0.551537 0.249851 0.254673
0.572320 0.267155 0.266239
0.594202 0.286534 0.278996
0.617334 0.308141 0.293248
0.641596 0.331731 0.308751
0.666682 0.357458 0.325841
0.691890 0.384863 0.344640
0.717464 0.414343 0.365698
0.743557 0.446540 0.389197
0.769863 0.480629 0.415229
0.796262 0.516960 0.444160
0.822507 0.555566 0.476234
0.848508 0.596124 0.511498
0.874174 0.637568 0.549310
0.296483 0.157900 0.158663
0.298558 0.158358 0.159213
0.301305 0.158877 0.159976
0.307713 0.160281 0.162112
0.316991 0.162264 0.165194
0.329259 0.164858 0.169009
0.343969 0.168460 0.173739
0.361059 0.173190 0.179477
0.379889 0.178744 0.186038
0.400092 0.185702 0.193271
0.419654 0.192844 0.200534
0.435462 0.197299 0.206058
0.452094 0.203677 0.212497
0.469642 0.211246 0.219577
0.488289 0.221042 0.227604
0.507439 0.232425 0.236423
0.526299 0.244846 0.245609
0.545068 0.258030 0.255131
0.563897 0.272557 0.265354
0.583520 0.288945 0.276463
0.604395 0.307317 0.288914
0.626398 0.327794 0.302617
0.649653 0.350256 0.317540
0.673487 0.374762 0.334325
0.697719 0.401129 0.352911
0.722499 0.429908 0.373846
0.748135 0.461280 0.397406
0.773922 0.494697 0.423468
0.799924 0.530358 0.452430
0.825834 0.568231 0.484504
0.851499 0.607874 0.519677
0.876860 0.648463 0.557275
0.330968 0.181979 0.175875
0.332708 0.182528 0.176333
0.335058 0.183108 0.177005
0.340337 0.184421 0.178683
0.348486 0.186404 0.181399
0.358984 0.189273 0.184817
0.371832 0.192874 0.189029
0.386542 0.197482 0.194125
0.403052 0.203159 0.199893
0.420996 0.209842 0.206455
0.439887 0.217716 0.213809
0.458503 0.226108 0.221225
0.473762 0.232120 0.226993
0.490333 0.239841 0.233860
0.507225 0.249058 0.241581
0.524376 0.259403 0.249546
0.541619 0.270542 0.258061
0.558892 0.282872 0.267124
0.576532 0.296269 0.276707
0.595148 0.311681 0.287419
0.615106 0.329290 0.299413
0.636347 0.348974 0.312749
0.658900 0.370855 0.328008
0.681758 0.394598 0.344701
0.705196 0.420356 0.363317
0.729274 0.448432 0.384222
0.754086 0.478676 0.407507
0.779080 0.510826 0.433173
0.804288 0.545312 0.461921
0.829465 0.582116 0.493843
0.854673 0.620417 0.528496
0.879484 0.659724 0.565698
0.364385 0.207675 0.192782
0.365911 0.208133 0.193423
0.368078 0.208743 0.194003
0.372534 0.209964 0.195407
0.379370 0.212131 0.197848
0.388464 0.214847 0.200809
0.399756 0.218601 0.204623
0.412543 0.223148 0.209049
0.427131 0.228733 0.214511
0.443061 0.235325 0.220462
0.459937 0.243198 0.227237
0.478706 0.253117 0.235264
0.503960 0.270298 0.247410
0.518883 0.278019 0.254093
0.534020 0.286473 0.260990
0.549584 0.296117 0.268620
0.565209 0.306523 0.276707
0.581140 0.317998 0.285222
0.597375 0.330419 0.294469
0.615045 0.345068 0.304936
0.634058 0.361883 0.316655
0.654261 0.380713 0.329961
0.675044 0.401160 0.344793
0.696468 0.423835 0.361456
0.718654 0.448554 0.380072
0.741756 0.475532 0.400977
0.765225 0.504112 0.424048
0.788968 0.534813 0.449348
0.812863 0.567681 0.477790
0.836942 0.602655 0.509026
0.861051 0.638911 0.542840
0.884947 0.676356 0.579187
0.398840 0.236698 0.210910
0.400061 0.237034 0.211307
0.401862 0.237583 0.211948
0.405341 0.238804 0.213016
0.411109 0.240726 0.215061
0.418891 0.243290 0.217746
0.428168 0.246738 0.220859
0.439429 0.251194 0.225101
0.452338 0.256748 0.230076
0.467597 0.264622 0.236362
0.484199 0.273686 0.243656
0.501549 0.283940 0.251469
0.519646 0.295506 0.260197
0.537987 0.308019 0.269474
0.552148 0.316228 0.276158
0.566430 0.325170 0.283421
0.580957 0.334844 0.290959
0.595575 0.345068 0.298985
0.610834 0.356878 0.307805
0.627527 0.370520 0.317723
0.645686 0.386481 0.329381
0.664698 0.404334 0.342351
0.684565 0.424018 0.357092
0.705135 0.445747 0.373663
0.726497 0.469581 0.392248
0.748714 0.495247 0.412787
0.771298 0.522728 0.435523
0.794278 0.552300 0.460731
0.817502 0.584070 0.488838
0.841001 0.617700 0.519677
0.864591 0.652674 0.552941
0.887999 0.688991 0.589014
0.428809 0.264805 0.227695
0.429999 0.265141 0.228214
0.431434 0.265537 0.228641
0.434607 0.266758 0.229618
0.439399 0.268620 0.231296
0.446418 0.271550 0.234073
0.455146 0.275456 0.237369
0.465583 0.280461 0.241550
0.477333 0.286473 0.246464
0.490669 0.293767 0.252232
0.505180 0.302190 0.258762
0.520653 0.311986 0.266148
0.536767 0.322820 0.274388
0.553338 0.334417 0.282933
0.570123 0.346746 0.291966
0.583459 0.355200 0.299046
0.596765 0.363775 0.306035
0.610376 0.373419 0.313542
0.624750 0.384253 0.321965
0.640711 0.397345 0.331762
0.657832 0.412390 0.343175
0.675898 0.429358 0.356115
0.694759 0.448341 0.370916
0.714565 0.469276 0.387457
0.735195 0.492042 0.405859
0.756558 0.516503 0.426032
0.778317 0.542931 0.448463
0.800473 0.571344 0.473640
0.823056 0.601984 0.501396
0.845914 0.634211 0.531762
0.868894 0.667903 0.564660
0.891752 0.702937 0.600275
0.459113 0.295842 0.245823
0.460243 0.296300 0.246128
0.461372 0.296849 0.246677
0.464271 0.298131 0.247684
0.468727 0.300023 0.249454
0.474617 0.302861 0.251835
0.481880 0.306401 0.254795
0.490822 0.310948 0.258640
0.501061 0.316594 0.262943
0.512749 0.323430 0.268376
0.525628 0.331548 0.274601
0.539513 0.340734 0.281498
0.554192 0.351080 0.289281
0.569299 0.362036 0.297368
0.584863 0.373754 0.306096
0.600366 0.385687 0.315221
0.613153 0.394354 0.322118
0.625910 0.403082 0.329290
0.639490 0.413092 0.337407
0.654353 0.425269 0.346990
0.670375 0.439368 0.358190
0.687465 0.455482 0.371099
0.705409 0.473518 0.385840
0.724453 0.493477 0.402136
0.744381 0.515099 0.420172
0.764858 0.538689 0.440406
0.785946 0.564263 0.462898
0.807584 0.592035 0.488228
0.829587 0.621607 0.515953
0.852049 0.652827 0.546166
0.874601 0.685603 0.579065
0.896910 0.719478 0.614466
0.487648 0.328283 0.264225
0.488655 0.328649 0.264591
0.489693 0.329320 0.265080
0.492164 0.330510 0.265995
0.496010 0.332372 0.267704
0.501183 0.335149 0.269932
0.507866 0.338750 0.272801
0.515679 0.343267 0.276432
0.524895 0.348699 0.280766
0.535149 0.355138 0.285740
0.546563 0.362646 0.291539
0.558801 0.371038 0.297887
0.571771 0.380285 0.304845
0.585473 0.390417 0.312657
0.599481 0.401160 0.320684
0.613947 0.412421 0.329320
0.628840 0.424323 0.338354
0.641566 0.433356 0.345922
0.654353 0.442786 0.354009
0.668482 0.454292 0.363684
0.683680 0.467720 0.375128
0.700038 0.483223 0.388159
0.717403 0.500542 0.402686
0.735714 0.519524 0.418738
0.754726 0.540154 0.436683
0.774441 0.562799 0.456855
0.794675 0.587304 0.479377
0.815488 0.613886 0.504417
0.836790 0.642023 0.531640
0.858396 0.671748 0.561334
0.880064 0.702815 0.593408
0.901549 0.735134 0.628107
0.513634 0.360388 0.282597
0.514305 0.360784 0.282780
0.515312 0.361364 0.283360
0.517418 0.362493 0.284184
0.520928 0.364355 0.285710
0.525414 0.366857 0.287755
0.531212 0.370367 0.290532
0.538140 0.374517 0.294011
0.546288 0.379706 0.297948
0.555505 0.385840 0.302708
0.565850 0.393042 0.308293
0.577050 0.401129 0.314427
0.589105 0.409949 0.321172
0.601709 0.419562 0.328618
0.614832 0.429755 0.336431
0.628229 0.440253 0.344671
0.642084 0.451209 0.353552
0.656214 0.462684 0.362890
0.669062 0.472572 0.371618
0.682155 0.483040 0.381292
0.696590 0.495674 0.392340
0.712123 0.510094 0.405035
0.728756 0.526421 0.419257
0.746242 0.544549 0.435218
0.764401 0.564080 0.453101
0.783230 0.585687 0.473121
0.802792 0.609247 0.495552
0.822934 0.634577 0.520165
0.843595 0.661555 0.547051
0.864530 0.690059 0.576287
0.885527 0.719936 0.607996
0.906401 0.750973 0.642329
0.538201 0.393591 0.301427
0.539025 0.394202 0.302007
0.545190 0.402075 0.306584
0.547082 0.403174 0.307347
0.550103 0.404883 0.308782
0.554040 0.407202 0.310887
0.559014 0.410224 0.313268
0.565118 0.414038 0.316503
0.572351 0.418891 0.320195
0.580652 0.424750 0.324834
0.589929 0.431403 0.330022
0.600122 0.438911 0.335943
0.611017 0.447028 0.342443
0.622553 0.455787 0.349554
0.634546 0.464851 0.357153
0.646998 0.474434 0.365240
0.659785 0.484321 0.374060
0.672847 0.494789 0.383459
0.686152 0.505638 0.393103
0.699031 0.516136 0.402991
0.712459 0.527550 0.413519
0.727138 0.540826 0.425635
0.742702 0.555871 0.439429
0.758968 0.572503 0.454932
0.775814 0.590539 0.472297
0.793454 0.610529 0.491798
0.811734 0.632136 0.513237
0.830838 0.655756 0.536828
0.850553 0.681147 0.562951
0.870695 0.708278 0.591699
0.890990 0.736812 0.622950
0.911162 0.766476 0.656580
0.563470 0.430243 0.322454
0.564782 0.431617 0.323369
0.566308 0.433204 0.324529
0.568658 0.435309 0.326024
0.571862 0.437781 0.327733
0.575738 0.440406 0.329870
0.580529 0.443519 0.332372
0.586175 0.447242 0.335454
0.592889 0.451911 0.339361
0.600458 0.457221 0.343664
0.609033 0.463539 0.348882
0.618494 0.470466 0.354803
0.628595 0.477943 0.361242
0.639338 0.485908 0.368170
0.650568 0.494301 0.375708
0.662135 0.503136 0.383764
0.674098 0.512413 0.392340
0.686427 0.522118 0.401404
0.699092 0.532494 0.411017
0.712184 0.543481 0.421180
0.725368 0.554803 0.431830
0.739315 0.567376 0.443915
0.754086 0.581476 0.457618
0.769589 0.597192 0.473091
0.785702 0.614343 0.490211
0.802640 0.633295 0.509361
0.820279 0.653986 0.530388
0.838651 0.676356 0.553704
0.857664 0.700618 0.579339
0.877073 0.726497 0.607630
0.896635 0.753750 0.638300
0.916136 0.782162 0.671473
0.586694 0.465583 0.343572
0.587854 0.466926 0.344488
0.589349 0.468482 0.345464
0.591516 0.470314 0.346899
0.594537 0.472663 0.348852
0.598169 0.475105 0.350988
0.602533 0.478065 0.353491
0.607660 0.481544 0.356603
0.613947 0.485786 0.360266
0.621057 0.490730 0.364813
0.629084 0.496529 0.370062
0.637934 0.502953 0.375738
0.647364 0.509789 0.382177
0.657343 0.517296 0.389105
0.667811 0.525200 0.396643
0.678676 0.533440 0.404334
0.689906 0.542138 0.412665
0.701472 0.551324 0.421332
0.713497 0.561028 0.430732
0.725856 0.571252 0.440650
0.738460 0.582025 0.451362
0.751553 0.593652 0.463081
0.765560 0.606867 0.476692
0.780301 0.621576 0.491951
0.795712 0.637812 0.508629
0.811887 0.655665 0.527337
0.828824 0.675227 0.547875
0.846433 0.696529 0.570672
0.864683 0.719539 0.595941
0.883330 0.744137 0.623529
0.902159 0.770169 0.653712
0.920989 0.797330 0.686336
0.610498 0.501457 0.366674
0.611627 0.502739 0.367681
0.612940 0.504204 0.368811
0.615076 0.506004 0.370397
0.617914 0.508110 0.372168
0.621180 0.510460 0.374334
0.625330 0.513054 0.376867
0.630152 0.516320 0.380041
0.635859 0.520165 0.383764
0.642481 0.524743 0.388006
0.649836 0.530053 0.393103
0.657984 0.535973 0.398840
0.666651 0.542412 0.404974
0.675990 0.549401 0.411688
0.685817 0.556878 0.418891
0.696162 0.564874 0.426612
0.706935 0.573327 0.434974
0.718196 0.582330 0.443977
0.729824 0.591791 0.453559
0.741787 0.601801 0.463905
0.754025 0.612238 0.474922
0.766384 0.623041 0.486397
0.779141 0.634791 0.499092
0.793332 0.648951 0.514214
0.808255 0.664515 0.530999
0.823819 0.681666 0.549493
0.840085 0.700252 0.569909
0.857023 0.720577 0.592432
0.874418 0.742458 0.617304
0.892210 0.765743 0.644495
0.910124 0.790372 0.674037
0.928038 0.816068 0.705898
0.637537 0.541711 0.395209
0.638361 0.542443 0.395880
0.639216 0.543206 0.396521
0.640894 0.544427 0.397589
0.643183 0.545983 0.399207
0.646052 0.547997 0.401129
0.649836 0.550439 0.403540
0.654353 0.553460 0.406653
0.659663 0.557275 0.410315
0.665797 0.561761 0.414771
0.672816 0.566918 0.419806
0.680446 0.572564 0.425452
0.688533 0.578576 0.431434
0.697200 0.584985 0.437964
0.706325 0.591760 0.445014
0.715908 0.598871 0.452583
0.725917 0.606531 0.460670
0.736324 0.614588 0.469490
0.747097 0.623133 0.478737
0.758114 0.632044 0.488777
0.769314 0.641382 0.499123
0.780636 0.651087 0.509972
0.792050 0.661097 0.521172
0.803922 0.671962 0.533410
0.818051 0.686549 0.549676
0.832944 0.702785 0.567773
0.848569 0.720485 0.587823
0.864775 0.739803 0.610010
0.881498 0.760616 0.634394
0.898558 0.782864 0.661097
0.915770 0.806241 0.690059
0.933013 0.830869 0.721462
0.662226 0.578607 0.422583
0.662959 0.579370 0.423285
0.663844 0.580133 0.424018
0.665309 0.581262 0.425086
0.667445 0.582788 0.426612
0.670130 0.584527 0.428473
0.673487 0.586755 0.430793
0.677607 0.589441 0.433722
0.682429 0.592798 0.437171
0.688106 0.596765 0.441505
0.694514 0.601312 0.446296
0.701564 0.606409 0.451698
0.709163 0.611841 0.457771
0.717189 0.617700 0.464118
0.725795 0.623957 0.471260
0.734798 0.630610 0.478706
0.744198 0.637659 0.486763
0.753933 0.645167 0.495369
0.764034 0.653132 0.504570
0.774411 0.661616 0.514214
0.785031 0.670436 0.524437
0.795743 0.679561 0.534997
0.806577 0.689052 0.546105
0.817441 0.698726 0.557458
0.827146 0.706966 0.567498
0.841398 0.722255 0.585229
0.856352 0.739162 0.604913
0.871916 0.757595 0.626703
0.887968 0.777432 0.650629
0.904387 0.798611 0.676814
0.920989 0.821103 0.705409
0.937713 0.844816 0.736568
0.689448 0.618341 0.454566
0.690211 0.619074 0.455299
0.690944 0.619715 0.455940
0.692226 0.620569 0.456977
0.694057 0.621698 0.458320
0.696376 0.623163 0.459998
0.699336 0.624872 0.462074
0.702968 0.627039 0.464698
0.707179 0.629725 0.467781
0.712184 0.632929 0.471656
0.717800 0.636683 0.476173
0.724117 0.640925 0.481209
0.730983 0.645655 0.486732
0.738247 0.650690 0.492805
0.745937 0.656031 0.499184
0.753964 0.661769 0.506157
0.762387 0.667933 0.513481
0.771267 0.674586 0.521538
0.780575 0.681941 0.530297
0.790341 0.689815 0.539696
0.800320 0.698177 0.549645
0.810452 0.706783 0.560052
0.820615 0.715572 0.570733
0.830625 0.724361 0.581598
0.840574 0.733211 0.592554
0.850675 0.742580 0.604242
0.864836 0.758419 0.623285
0.879606 0.775753 0.644465
0.894926 0.794522 0.667811
0.910582 0.814633 0.693446
0.926543 0.836088 0.721553
0.942626 0.858854 0.752224
0.714839 0.653803 0.485969
0.715541 0.654536 0.486702
0.716243 0.655116 0.487404
0.717464 0.655940 0.488289
0.719112 0.656977 0.489601
0.721309 0.658228 0.491279
0.724086 0.659937 0.493385
0.727382 0.662013 0.496040
0.731380 0.664515 0.499214
0.736049 0.667567 0.503014
0.741268 0.671138 0.507347
0.747127 0.675166 0.512352
0.753536 0.679622 0.517906
0.760220 0.684382 0.523674
0.767361 0.689448 0.530053
0.774868 0.694789 0.536736
0.782712 0.700526 0.543999
0.790951 0.706844 0.551873
0.799619 0.713588 0.560296
0.808652 0.720821 0.569390
0.817899 0.728511 0.578912
0.827298 0.736507 0.589014
0.836759 0.744656 0.599359
0.846189 0.752895 0.609979
0.855558 0.761227 0.620874
0.864775 0.769619 0.631800
0.873930 0.778164 0.643030
0.887999 0.794522 0.663722
0.902647 0.812406 0.686732
0.917632 0.831601 0.711910
0.932952 0.852140 0.739590
0.948272 0.873808 0.769924
0.741268 0.690120 0.520165
0.741878 0.690639 0.520775
0.742458 0.691096 0.521263
0.743374 0.691676 0.522118
0.744747 0.692470 0.523186
0.746670 0.693599 0.524681
0.749111 0.694972 0.526543
0.752041 0.696773 0.528954
0.755673 0.699062 0.532006
0.759884 0.701869 0.535637
0.764706 0.705135 0.539757
0.770138 0.708888 0.544640
0.775937 0.713039 0.549920
0.782193 0.717464 0.555688
0.788754 0.722133 0.561791
0.795621 0.727047 0.568292
0.802823 0.732326 0.575189
0.810391 0.738003 0.582666
0.818387 0.744228 0.590814
0.826719 0.750881 0.599573
0.835264 0.757992 0.608881
0.843992 0.765347 0.618616
0.852811 0.772885 0.628748
0.861570 0.780575 0.639124
0.870298 0.788357 0.649622
0.878935 0.796139 0.660334
0.887510 0.804166 0.671382
0.895995 0.812222 0.682551
0.909422 0.828428 0.704036
0.923827 0.846799 0.728878
0.938445 0.866392 0.756130
0.953094 0.887022 0.785824
0.767025 0.725154 0.555047
0.767453 0.725521 0.555535
0.767941 0.725917 0.555993
0.768856 0.726528 0.556725
0.770199 0.727382 0.558038
0.772152 0.728634 0.559655
0.774716 0.730373 0.561975
0.777859 0.732662 0.565026
0.781613 0.735409 0.568597
0.785977 0.738643 0.572839
0.790829 0.742275 0.577539
0.796170 0.746273 0.582818
0.801846 0.750546 0.588495
0.807828 0.754971 0.594476
0.814054 0.759518 0.600702
0.820371 0.764187 0.607111
0.826993 0.769070 0.613855
0.833951 0.774289 0.621149
0.841245 0.779965 0.629084
0.848783 0.786007 0.637537
0.856565 0.792447 0.646387
0.864530 0.799100 0.655818
0.872496 0.805936 0.665461
0.880522 0.812955 0.675471
0.888487 0.820066 0.685603
0.896391 0.827237 0.696040
0.904234 0.834592 0.706661
0.912047 0.842039 0.717586
0.919829 0.849729 0.728908
0.932341 0.865354 0.751003
0.946075 0.883787 0.777646
0.959747 0.903105 0.806577
0.795773 0.763729 0.596063
0.796139 0.764034 0.596460
0.796475 0.764279 0.596765
0.797208 0.764706 0.597345
0.798337 0.765377 0.598413
0.799954 0.766323 0.599817
0.802060 0.767697 0.601770
0.804654 0.769406 0.604242
0.807797 0.771542 0.607385
0.811460 0.774105 0.611017
0.815549 0.777005 0.615076
0.820127 0.780270 0.619715
0.825010 0.783841 0.624811
0.830259 0.787594 0.630213
0.835782 0.791592 0.636011
0.841581 0.795834 0.642206
