其他预设/【232】美食博客调色预设124款/1.3D LUT预设（视频调色-PR-AE-PS-FCPX-达芬奇用）/Food Art #49.cube
# Created by Adobe Lightroom plugin Export LUT (1.17.0)
# www.johnrellis.com/lightroom/exportlut.htm
# Preset: Food Art #49
# Color profile: /Library/Application Support/Adobe/Color/Profiles/Recommended/AdobeRGB1998.icc
LUT_3D_SIZE 5
DOMAIN_MIN 0.000000 0.000000 0.000000
DOMAIN_MAX 0.903226 0.903226 0.903226
0.109163 0.124514 0.155459
0.158633 0.126192 0.157961
0.483833 0.000000 0.153353
0.895659 0.000000 0.145266
1.000000 0.160616 0.250278
0.108217 0.179171 0.159640
0.173190 0.186954 0.161440
0.492836 0.216739 0.153262
0.893767 0.247684 0.147066
1.000000 0.317723 0.277470
0.000000 0.519677 0.140047
0.227848 0.530480 0.140902
0.605676 0.583368 0.143282
0.898985 0.589532 0.185641
0.991424 0.554681 0.342107
0.045411 0.875334 0.202274
0.316045 0.873960 0.214176
0.621393 0.864286 0.251774
0.871458 0.849424 0.319188
0.962860 0.774746 0.484504
0.523339 0.936095 0.502617
0.564630 0.932555 0.511254
0.668605 0.921874 0.528771
0.806760 0.903716 0.604578
0.903624 0.886534 0.699641
0.101381 0.124575 0.202914
0.153658 0.123354 0.212619
0.472419 0.000000 0.249332
0.873686 0.000000 0.261295
1.000000 0.184451 0.346258
0.093172 0.177798 0.220920
0.165286 0.183902 0.227695
0.492409 0.166842 0.241184
0.875334 0.170962 0.269200
0.999817 0.326390 0.363409
0.000000 0.510033 0.273320
0.173648 0.522087 0.254582
0.568841 0.547784 0.269841
0.880491 0.567773 0.305303
0.983795 0.569635 0.431464
0.000000 0.870878 0.332830
0.318212 0.869413 0.343267
0.622461 0.859586 0.370092
0.867765 0.845731 0.421363
0.954833 0.782223 0.558190
0.575921 0.930053 0.574609
0.609339 0.926848 0.581231
0.709255 0.915831 0.613458
0.820951 0.900298 0.667506
0.902251 0.885557 0.742061
0.000000 0.111269 0.462074
0.176272 0.087343 0.471962
0.491890 0.000000 0.498146
0.867369 0.000000 0.551171
0.985840 0.300114 0.558495
0.000000 0.190860 0.486122
0.124697 0.177096 0.491981
0.520104 0.118593 0.518944
0.867643 0.098543 0.549889
0.976959 0.440406 0.588342
0.000000 0.518822 0.533867
0.123629 0.524865 0.537835
0.569970 0.541619 0.554620
0.866667 0.575616 0.583581
0.955779 0.650111 0.650690
0.038972 0.858488 0.579950
0.320500 0.853056 0.580774
0.647425 0.843626 0.619074
0.860533 0.838956 0.652766
0.931975 0.807004 0.718746
0.586999 0.926513 0.659602
0.651881 0.919646 0.686000
0.775204 0.903716 0.747372
0.845914 0.893553 0.772335
0.899992 0.883970 0.808530
0.000000 0.000000 0.794614
0.203677 0.000000 0.797910
0.549554 0.000000 0.810910
0.845792 0.000000 0.819699
0.964874 0.321080 0.744106
0.000000 0.163729 0.801968
0.098390 0.145022 0.805051
0.542046 0.000000 0.812253
0.843900 0.105074 0.817716
0.958282 0.433722 0.750057
0.000000 0.510063 0.811612
0.107332 0.508537 0.812497
0.562951 0.523919 0.814298
0.842344 0.566186 0.817472
0.934508 0.681117 0.786221
0.207156 0.828794 0.823880
0.371038 0.826230 0.822446
0.650324 0.824460 0.823056
0.850126 0.829221 0.827756
0.908385 0.842588 0.840604
0.622370 0.919432 0.785275
0.673426 0.913909 0.793606
0.791714 0.898955 0.821683
0.874174 0.886381 0.854887
0.897887 0.882536 0.863340
0.000000 0.000000 0.920317
0.187686 0.000000 0.919982
0.479408 0.000000 0.918517
0.727962 0.000000 0.914397
0.923827 0.376654 0.905730
0.000000 0.156191 0.919738
0.171481 0.151247 0.919249
0.486885 0.164920 0.917021
0.734066 0.287022 0.911742
0.920287 0.480323 0.902495
0.216037 0.474342 0.912413
0.358953 0.493294 0.910796
0.576196 0.533501 0.906828
0.770962 0.602533 0.900481
0.909606 0.697536 0.892515
0.486671 0.733547 0.898344
0.555962 0.742947 0.896818
0.718959 0.778347 0.891722
0.847593 0.827207 0.885527
0.899504 0.850217 0.882841
0.704921 0.885496 0.884733
0.736873 0.884855 0.884154
0.817380 0.883360 0.882506
0.880125 0.882322 0.881071
0.897154 0.882048 0.880613
