其他预设/【232】美食博客调色预设124款/1.3D LUT预设（视频调色-PR-AE-PS-FCPX-达芬奇用）/Food Art #26.cube
# Created by Adobe Lightroom plugin Export LUT (1.17.0)
# www.johnrellis.com/lightroom/exportlut.htm
# Preset: Food Art #26
# Color profile: /Library/Application Support/Adobe/Color/Profiles/Recommended/AdobeRGB1998.icc
LUT_3D_SIZE 32
0.125338 0.121492 0.102510
0.125338 0.121492 0.102510
0.127321 0.121553 0.102693
0.145998 0.120668 0.104189
0.163973 0.120363 0.106447
0.179477 0.125124 0.109071
0.195132 0.130373 0.112093
0.211582 0.135500 0.115114
0.229068 0.139712 0.117342
0.247257 0.143771 0.119020
0.266087 0.147646 0.121706
0.285374 0.151675 0.124331
0.304875 0.155886 0.127443
0.324926 0.160525 0.130800
0.345159 0.165560 0.134554
0.365545 0.170748 0.138369
0.386481 0.176333 0.142458
0.407782 0.181888 0.146731
0.429694 0.187625 0.150942
0.455818 0.194247 0.155825
0.483497 0.200778 0.160861
0.511406 0.207370 0.166018
0.538994 0.214206 0.171176
0.566278 0.221439 0.176699
0.594049 0.228916 0.182223
0.623835 0.236515 0.188144
0.655818 0.244846 0.194644
0.690364 0.254154 0.201724
0.727749 0.264591 0.209903
0.768063 0.276707 0.219150
0.811307 0.291051 0.230106
0.857450 0.308537 0.243595
0.125338 0.121492 0.102510
0.125338 0.121492 0.102510
0.128206 0.121401 0.102907
0.147127 0.122103 0.104250
0.164706 0.126345 0.107179
0.179995 0.130465 0.110048
0.195651 0.135103 0.113069
0.212161 0.139284 0.115511
0.229435 0.143069 0.117586
0.247471 0.146731 0.119509
0.266117 0.150393 0.122164
0.285313 0.154208 0.125002
0.304723 0.158358 0.127932
0.324468 0.162783 0.131136
0.344671 0.167727 0.134707
0.365026 0.173037 0.138674
0.385748 0.178225 0.142641
0.407019 0.183749 0.146761
0.428931 0.189334 0.150973
0.454719 0.195590 0.155917
0.481849 0.202121 0.160739
0.509545 0.208713 0.165652
0.537011 0.215518 0.170871
0.564202 0.222507 0.176425
0.591913 0.229831 0.181979
0.621515 0.237583 0.187839
0.653498 0.245640 0.194247
0.688075 0.254917 0.201358
0.725490 0.265263 0.209384
0.765835 0.277348 0.218601
0.809079 0.291661 0.229587
0.855222 0.308934 0.243046
0.125978 0.125460 0.103273
0.126192 0.126802 0.103365
0.130739 0.128206 0.104005
0.149508 0.132052 0.105867
0.165896 0.134463 0.108522
0.181125 0.137575 0.111604
0.196628 0.141238 0.114260
0.212955 0.144259 0.116396
0.229984 0.147463 0.118105
0.247990 0.150820 0.120211
0.266514 0.154238 0.122683
0.285496 0.157992 0.125307
0.304845 0.161898 0.128420
0.324712 0.166140 0.131807
0.344701 0.170809 0.135409
0.364935 0.175906 0.139193
0.385657 0.181125 0.143282
0.406897 0.186435 0.147402
0.428656 0.191745 0.151492
0.454353 0.198184 0.156222
0.481300 0.204379 0.161105
0.508873 0.210880 0.166018
0.536187 0.217594 0.170993
0.563317 0.224430 0.176425
0.590936 0.231662 0.182132
0.620508 0.239200 0.187869
0.652399 0.247562 0.194278
0.687007 0.256596 0.201297
0.724453 0.267063 0.209293
0.764797 0.279026 0.218723
0.808042 0.293187 0.229526
0.854124 0.310430 0.242924
0.130098 0.147097 0.106233
0.130587 0.147677 0.106600
0.137636 0.148623 0.107362
0.153353 0.150118 0.109468
0.169039 0.150454 0.112215
0.183688 0.151186 0.114626
0.199008 0.152590 0.116213
0.215000 0.154452 0.117769
0.231846 0.156649 0.119356
0.249607 0.159335 0.121675
0.267826 0.162295 0.124178
0.286595 0.165438 0.126802
0.305760 0.169192 0.129915
0.325414 0.173251 0.133059
0.345342 0.177432 0.136477
0.365515 0.182193 0.140230
0.386175 0.187106 0.144320
0.407141 0.192172 0.148257
0.429145 0.197330 0.152438
0.454200 0.203372 0.156954
0.480659 0.209506 0.161837
0.507774 0.215732 0.166537
0.534997 0.222141 0.171603
0.562280 0.229007 0.176791
0.590265 0.236179 0.182528
0.620233 0.243717 0.188540
0.652491 0.251987 0.194980
0.687282 0.261295 0.201999
0.724788 0.271519 0.210086
0.765042 0.283574 0.219333
0.807980 0.297673 0.230137
0.853727 0.314672 0.243351
0.137057 0.164462 0.111086
0.139162 0.165042 0.111147
0.144930 0.165530 0.112367
0.156680 0.166629 0.113680
0.172580 0.168551 0.115877
0.188174 0.168429 0.116640
0.202640 0.168063 0.118379
0.218051 0.168795 0.120058
0.234501 0.169955 0.121736
0.251774 0.171939 0.124056
0.269718 0.173983 0.126223
0.288151 0.176944 0.128817
0.307256 0.179995 0.131899
0.326665 0.183597 0.135012
0.346441 0.187381 0.138399
0.366552 0.191714 0.142123
0.387152 0.196231 0.146151
0.408118 0.201022 0.149874
0.430793 0.206149 0.154055
0.455421 0.211704 0.158419
0.481483 0.217502 0.163027
0.508202 0.223392 0.167849
0.535180 0.229770 0.172763
0.562310 0.236301 0.178042
0.590234 0.243381 0.183505
0.620233 0.250828 0.189548
0.652461 0.259007 0.195834
0.687221 0.268040 0.202945
0.724605 0.278416 0.210910
0.764706 0.290379 0.220127
0.807614 0.304295 0.231022
0.853300 0.321263 0.244236
0.143343 0.181857 0.114809
0.146670 0.182193 0.115053
0.151064 0.182773 0.115633
0.161074 0.183566 0.116365
0.174960 0.185275 0.117586
0.192050 0.187350 0.119326
0.208316 0.187137 0.120699
0.223026 0.186099 0.122591
0.238529 0.186465 0.124880
0.255283 0.187411 0.127291
0.272953 0.189029 0.129580
0.291051 0.191135 0.131991
0.309728 0.193759 0.134859
0.328954 0.196689 0.137789
0.348486 0.200229 0.141085
0.368505 0.204013 0.144594
0.389014 0.208072 0.148562
0.410010 0.212497 0.152224
0.433234 0.217472 0.156374
0.457649 0.222507 0.160708
0.483528 0.228092 0.165072
0.510185 0.233829 0.169802
0.550866 0.244694 0.177737
0.577996 0.251469 0.183261
0.606348 0.258366 0.188907
0.636469 0.265690 0.194858
0.668574 0.273991 0.201175
0.702968 0.282994 0.208438
0.739956 0.293339 0.216617
0.779568 0.305455 0.226139
0.821622 0.319646 0.237369
0.866209 0.336919 0.250797
0.150240 0.201144 0.117983
0.153384 0.201358 0.118227
0.157595 0.201846 0.118593
0.165957 0.202701 0.119539
0.178683 0.204105 0.120760
0.194797 0.205722 0.122133
0.213260 0.207980 0.124117
0.230716 0.207919 0.125277
0.246220 0.206363 0.127199
0.262089 0.206485 0.130739
0.278843 0.207767 0.133852
0.296788 0.209140 0.136233
0.315160 0.211154 0.139040
0.334203 0.213321 0.141756
0.353521 0.216190 0.144839
0.373083 0.219364 0.148257
0.393439 0.222965 0.151858
0.415412 0.227115 0.155734
0.438849 0.231907 0.159701
0.463813 0.236912 0.164065
0.490639 0.242588 0.168521
0.518334 0.248569 0.173312
0.546471 0.255161 0.178592
0.574823 0.261814 0.184176
0.604364 0.268956 0.190097
0.635279 0.276493 0.196292
0.667781 0.284764 0.202792
0.702266 0.293797 0.210025
0.739223 0.304143 0.218082
0.778592 0.316106 0.227512
0.820493 0.330266 0.238621
0.864927 0.347173 0.252293
0.156191 0.219760 0.121645
0.158846 0.220066 0.121889
0.162600 0.220462 0.122072
0.170413 0.221164 0.122591
0.182223 0.222202 0.123659
0.197086 0.223667 0.125032
0.214450 0.225467 0.126680
0.233738 0.227726 0.128573
0.252171 0.228031 0.130190
0.268345 0.226352 0.130892
0.284337 0.226261 0.135775
0.301061 0.227359 0.139986
0.318730 0.228977 0.143221
0.337407 0.230808 0.145876
0.356481 0.233036 0.148745
0.375921 0.235569 0.152010
0.396490 0.238834 0.155428
0.418708 0.242802 0.159152
0.441535 0.247013 0.163088
0.466072 0.251652 0.166873
0.492226 0.256962 0.171267
0.519432 0.262638 0.175753
0.547112 0.268650 0.181003
0.575097 0.275120 0.186526
0.604334 0.282048 0.192264
0.635065 0.289647 0.198215
0.667445 0.297612 0.204654
0.701869 0.306493 0.211856
0.738766 0.316838 0.219974
0.778042 0.328679 0.229374
0.819944 0.342779 0.240574
0.864286 0.359716 0.254185
0.162448 0.239170 0.125063
0.165011 0.239445 0.125124
0.168276 0.239658 0.125521
0.175814 0.240299 0.126040
0.186679 0.241306 0.126894
0.200412 0.242466 0.128084
0.216556 0.244022 0.129580
0.234836 0.245853 0.131350
0.254856 0.248081 0.133333
0.274357 0.248905 0.134951
0.291081 0.247166 0.135531
0.307561 0.246799 0.140627
0.324285 0.247868 0.145663
0.341772 0.249607 0.150271
0.360357 0.251438 0.153384
0.380011 0.253788 0.156313
0.401190 0.256992 0.159701
0.422797 0.260227 0.163119
0.445106 0.263920 0.166873
0.469276 0.268193 0.170535
0.495064 0.273106 0.174502
0.521660 0.278447 0.179019
0.548943 0.284245 0.183932
0.576532 0.290349 0.189242
0.605554 0.297154 0.194980
0.636103 0.304295 0.200839
0.668330 0.312322 0.207309
0.702632 0.321172 0.214389
0.739345 0.331456 0.222446
0.778439 0.343297 0.231907
0.820096 0.357336 0.243168
0.864225 0.374212 0.256870
0.168826 0.259098 0.128511
0.171267 0.259190 0.128756
0.174258 0.259403 0.128969
0.181033 0.260014 0.129488
0.191196 0.260807 0.130159
0.204349 0.261814 0.131167
0.219608 0.263157 0.132509
0.236973 0.264836 0.134066
0.256016 0.266667 0.135775
0.276646 0.268833 0.137850
0.297002 0.270237 0.139773
0.314153 0.268467 0.140230
0.331151 0.267704 0.144747
0.347936 0.268772 0.151278
0.366278 0.270848 0.156741
0.385748 0.273869 0.161410
0.406561 0.276402 0.164706
0.427893 0.279271 0.167880
0.450111 0.282567 0.171115
0.473823 0.286473 0.174594
0.498878 0.290929 0.178378
0.524651 0.295750 0.182742
0.550988 0.301061 0.187289
0.577783 0.306798 0.192325
0.606256 0.313085 0.197879
0.636530 0.320165 0.203616
0.668727 0.328038 0.210056
0.703120 0.337072 0.217319
0.740017 0.347356 0.225498
0.779324 0.359503 0.235203
0.821195 0.373816 0.246525
0.865537 0.390784 0.260472
0.175021 0.278965 0.132021
0.177249 0.279149 0.131899
0.180240 0.279393 0.132265
0.186679 0.279820 0.132631
0.196231 0.280491 0.133486
0.208591 0.281529 0.134463
0.223270 0.282872 0.135561
0.239841 0.284398 0.136965
0.258152 0.286076 0.138613
0.277989 0.288182 0.140505
0.299046 0.290349 0.142641
0.320195 0.292058 0.144717
0.338079 0.290593 0.145754
0.356573 0.290196 0.148928
0.374212 0.291600 0.157137
0.392767 0.293645 0.163424
0.412177 0.296300 0.168795
0.432685 0.299016 0.172671
0.454566 0.301854 0.175723
0.477913 0.305364 0.178988
0.502464 0.309422 0.182559
0.527794 0.313970 0.186587
0.553765 0.319066 0.191165
0.580285 0.324712 0.196139
0.608637 0.330846 0.201663
0.638666 0.337743 0.207340
0.670619 0.345556 0.213596
0.704738 0.354528 0.220737
0.741329 0.364874 0.229007
0.780453 0.377020 0.238621
0.822080 0.391333 0.250217
0.866270 0.408484 0.264439
0.181399 0.299565 0.135439
0.183474 0.299779 0.135470
0.186404 0.299870 0.135683
0.192294 0.300298 0.136202
0.201633 0.301061 0.136843
0.213321 0.301915 0.137667
0.227390 0.303166 0.138735
0.243412 0.304540 0.140261
0.261265 0.306188 0.141573
0.280461 0.308171 0.143587
0.300969 0.310369 0.145632
0.323247 0.313390 0.148348
0.351904 0.321233 0.152255
0.371099 0.320287 0.153811
0.390845 0.319707 0.155734
0.409216 0.320684 0.164462
0.428382 0.322667 0.171511
0.448280 0.324926 0.177279
0.469093 0.327886 0.182437
0.491920 0.331060 0.185885
0.515679 0.334447 0.189364
0.540032 0.338354 0.193393
0.564813 0.342748 0.197757
0.591058 0.347784 0.202640
0.618952 0.353704 0.207889
0.648646 0.360449 0.213596
0.680201 0.368170 0.219852
0.713832 0.376959 0.227054
0.749844 0.387213 0.235386
0.788296 0.399329 0.245090
0.829221 0.413764 0.257115
0.872740 0.430976 0.271458
0.188998 0.322545 0.139437
0.191012 0.322698 0.139498
0.193698 0.322789 0.139528
0.199374 0.322972 0.140078
0.208133 0.323430 0.140749
0.219455 0.324071 0.141421
0.233066 0.324987 0.142519
0.248356 0.326207 0.144015
0.265660 0.327794 0.145602
0.285283 0.330602 0.147433
0.306340 0.333654 0.150057
0.328832 0.337102 0.152773
0.352331 0.340856 0.155734
0.376837 0.344640 0.158846
0.396674 0.343969 0.160555
0.416785 0.343572 0.162173
0.435950 0.344060 0.169039
0.455085 0.345617 0.176883
0.475257 0.347906 0.183139
0.496590 0.350927 0.188937
0.519005 0.354681 0.194095
0.542870 0.358190 0.198062
0.567163 0.362219 0.202457
0.593133 0.367102 0.207095
0.620783 0.372900 0.212100
0.650233 0.379492 0.217716
0.681575 0.387182 0.224063
0.715023 0.396094 0.231357
0.750881 0.406409 0.239597
0.789303 0.418677 0.249485
0.830106 0.433326 0.261570
0.873564 0.450843 0.276493
0.196536 0.343511 0.143832
0.198734 0.343633 0.143893
0.201297 0.343664 0.143923
0.206577 0.343908 0.144442
0.214878 0.344274 0.145113
0.225864 0.345098 0.145846
0.238987 0.346349 0.147127
0.254154 0.347997 0.148440
0.271092 0.349889 0.150149
0.289952 0.352392 0.151980
0.310216 0.355169 0.154238
0.331914 0.358404 0.156771
0.354742 0.361822 0.159426
0.378363 0.365270 0.162387
0.402747 0.368627 0.165347
0.422919 0.368109 0.166812
0.442908 0.367437 0.168338
0.462745 0.367559 0.173037
0.482002 0.368933 0.181674
0.502525 0.371221 0.188907
0.524071 0.374487 0.195590
0.546593 0.378454 0.201938
0.570306 0.382605 0.207401
0.596124 0.387457 0.211978
0.623651 0.393133 0.216983
0.652888 0.399847 0.222660
0.684108 0.407538 0.228855
0.717433 0.416510 0.236149
0.753170 0.427131 0.244633
0.791409 0.439582 0.254795
0.832120 0.454383 0.267033
0.875517 0.472206 0.282322
0.205844 0.366491 0.148836
0.207431 0.366796 0.149142
0.209781 0.366827 0.149050
0.215061 0.367102 0.149508
0.223087 0.367590 0.149966
0.233524 0.368231 0.150729
0.245792 0.369238 0.151827
0.260472 0.370550 0.153017
0.276890 0.372259 0.154543
0.294926 0.374456 0.156344
0.314641 0.377081 0.158419
0.335607 0.380102 0.160739
0.357824 0.383398 0.163180
0.380926 0.386694 0.165927
0.404669 0.389868 0.168582
0.428748 0.392828 0.171481
0.449287 0.392462 0.172976
0.469368 0.391669 0.174350
0.489723 0.391241 0.176852
0.509300 0.392737 0.186831
0.530022 0.395178 0.194980
0.551720 0.398596 0.202487
0.574609 0.402808 0.209842
0.599481 0.408209 0.216892
0.626734 0.414038 0.222416
0.656123 0.420874 0.228031
0.687495 0.428901 0.234379
0.721187 0.438331 0.241947
0.757259 0.449439 0.250767
0.795834 0.462531 0.261509
0.836942 0.478035 0.274479
0.880552 0.496590 0.290684
0.214725 0.390356 0.153719
0.216373 0.390631 0.154025
0.218631 0.390723 0.154208
0.223758 0.391089 0.154482
0.231296 0.391547 0.155062
0.241520 0.392157 0.155764
0.253544 0.393194 0.156680
0.267643 0.394507 0.157931
0.283635 0.396185 0.159243
0.301061 0.398199 0.160861
0.320165 0.400458 0.162631
0.340429 0.403052 0.164828
0.361761 0.405676 0.167056
0.384161 0.408484 0.169314
0.407019 0.411292 0.171878
0.430518 0.414008 0.174411
0.454505 0.416724 0.177310
0.475349 0.416480 0.179049
0.495674 0.415717 0.180606
0.516747 0.415686 0.182773
0.537255 0.417304 0.192264
0.558434 0.420142 0.201755
0.581231 0.424079 0.210330
0.605921 0.429419 0.218540
0.632471 0.436011 0.226535
0.661280 0.443580 0.234470
0.692683 0.451820 0.241001
0.726345 0.461585 0.248631
0.762234 0.472908 0.257816
0.800504 0.486213 0.268742
0.841093 0.501884 0.282048
0.884092 0.520470 0.298772
0.223514 0.413886 0.158511
0.225040 0.414038 0.158694
0.227329 0.414099 0.158877
0.231998 0.414374 0.159304
0.239475 0.414740 0.159609
0.248966 0.415412 0.160250
0.260594 0.416327 0.161166
0.274327 0.417517 0.162234
0.289738 0.419043 0.163394
0.306645 0.420935 0.165103
0.325292 0.423041 0.166812
0.345006 0.425574 0.168673
0.365911 0.428168 0.170687
0.387701 0.430823 0.173037
0.410071 0.433295 0.175357
0.432990 0.435676 0.177890
0.456336 0.438025 0.180575
0.480079 0.440436 0.183413
0.501396 0.440558 0.185550
0.521996 0.440009 0.187564
0.543389 0.440314 0.190097
0.564904 0.441901 0.197757
0.587274 0.445472 0.208682
0.611688 0.450629 0.218296
0.638025 0.457038 0.227451
0.666468 0.464881 0.236637
0.697047 0.474098 0.246372
0.730434 0.484504 0.255436
0.766262 0.496284 0.265019
0.804501 0.509972 0.276341
0.845060 0.526116 0.290379
0.888060 0.545068 0.307317
0.232242 0.438209 0.163333
0.234073 0.438483 0.163455
0.238773 0.445289 0.164797
0.243198 0.445502 0.165225
0.250584 0.445777 0.165652
0.259831 0.446204 0.166323
0.271366 0.446815 0.166934
0.284764 0.447639 0.167910
0.299931 0.448829 0.169039
0.316716 0.450355 0.170443
0.334813 0.452125 0.172152
0.354162 0.454047 0.174014
0.374517 0.456001 0.175845
0.395911 0.457984 0.178103
0.417700 0.460029 0.180392
0.439979 0.461952 0.182803
0.462959 0.463844 0.185611
0.486091 0.465797 0.188357
0.509575 0.467781 0.191318
0.531304 0.468025 0.193820
0.551965 0.467445 0.196475
0.574182 0.468177 0.199435
0.597498 0.470466 0.204990
0.621332 0.474952 0.217014
0.646845 0.480812 0.227909
0.674372 0.488075 0.238254
0.704067 0.496895 0.248692
0.736141 0.507469 0.260014
0.770809 0.520134 0.272465
0.808652 0.534234 0.284550
0.849027 0.550683 0.298894
0.891691 0.569696 0.315923
0.241978 0.464729 0.168338
0.243839 0.465766 0.168643
0.246311 0.466773 0.169039
0.251194 0.467750 0.169467
0.258274 0.468666 0.169924
0.267460 0.469398 0.170748
0.278599 0.470100 0.171328
0.291600 0.470832 0.172396
0.306340 0.471962 0.173495
0.322484 0.473243 0.175051
0.340185 0.474769 0.176486
0.359136 0.476509 0.178195
0.378851 0.478218 0.180392
0.399634 0.480049 0.182376
0.420874 0.481758 0.184573
0.442756 0.483436 0.187076
0.464973 0.485176 0.189883
0.487739 0.486976 0.192569
0.510887 0.488808 0.195621
0.534569 0.490974 0.198795
0.556970 0.492012 0.201877
0.579187 0.492744 0.204898
0.602991 0.494820 0.208042
0.628412 0.498116 0.211856
0.653834 0.503624 0.225101
0.681117 0.510826 0.237400
0.710628 0.519615 0.249424
0.742458 0.530266 0.262028
0.776822 0.543145 0.275822
0.813748 0.558343 0.291264
0.853391 0.575738 0.308019
0.895842 0.594903 0.325109
0.251102 0.488869 0.173251
0.253025 0.489754 0.173556
0.255375 0.490730 0.173800
0.260044 0.491676 0.174350
0.266941 0.492531 0.174929
0.275792 0.493172 0.175601
0.286503 0.493782 0.176516
0.298955 0.494484 0.177462
0.313329 0.495430 0.178531
0.329137 0.496590 0.179934
0.346349 0.498024 0.181338
0.364752 0.499550 0.183261
0.384100 0.501122 0.185153
0.404273 0.502678 0.187259
0.425147 0.504265 0.189639
0.446509 0.505760 0.192111
0.468391 0.507347 0.194522
0.490700 0.509117 0.197452
0.513573 0.510948 0.200504
0.537102 0.513207 0.203647
0.561089 0.515740 0.207248
0.584833 0.517876 0.210788
0.608667 0.520073 0.214115
0.634089 0.523461 0.218021
0.661006 0.527886 0.222354
0.688472 0.534386 0.234165
0.717464 0.542962 0.248539
0.748898 0.553582 0.262791
0.782834 0.566430 0.277989
0.819333 0.581689 0.294560
0.858396 0.599390 0.312871
0.899931 0.619623 0.333379
0.261021 0.513115 0.178714
0.262730 0.514000 0.179110
0.265080 0.514946 0.179355
0.269657 0.515801 0.179751
0.276158 0.516594 0.180575
0.284764 0.517174 0.181216
0.295048 0.517693 0.181918
0.307164 0.518303 0.182803
0.321111 0.519097 0.183993
0.336370 0.520104 0.185367
0.353063 0.521355 0.186862
0.371099 0.522728 0.188540
0.389960 0.524193 0.190494
0.409766 0.525780 0.192599
0.430243 0.527428 0.195102
0.451545 0.529229 0.197604
0.473548 0.531182 0.200168
0.496162 0.533471 0.203220
0.519432 0.535912 0.206363
0.543359 0.538781 0.209964
0.567864 0.541955 0.213657
0.592981 0.545312 0.217838
0.618219 0.548699 0.221958
0.644038 0.552483 0.226200
0.671382 0.557458 0.230869
0.700343 0.563561 0.236454
0.730343 0.571496 0.247379
0.761501 0.582147 0.264347
0.795224 0.595087 0.281926
0.831266 0.610468 0.300481
0.869810 0.628138 0.320104
0.910704 0.648432 0.341527
0.273045 0.541253 0.185885
0.274632 0.541741 0.186007
0.276585 0.542107 0.186282
0.280797 0.542535 0.186679
0.287144 0.542992 0.187167
0.295415 0.543389 0.187716
0.305425 0.543877 0.188479
0.317266 0.544579 0.189425
0.330755 0.545525 0.190616
0.345922 0.546685 0.191958
0.362463 0.548150 0.193515
0.380255 0.549645 0.195285
0.398871 0.551232 0.197299
0.418524 0.552819 0.199466
0.438758 0.554528 0.201816
0.459998 0.556298 0.204257
0.481727 0.558282 0.206882
0.504173 0.560479 0.209903
0.527184 0.562921 0.213260
0.550896 0.565637 0.216709
0.575067 0.568627 0.220432
0.599847 0.571771 0.224460
0.624933 0.575189 0.228855
0.650416 0.578882 0.233524
0.677485 0.583764 0.238407
0.706264 0.589990 0.244175
0.736782 0.597650 0.251072
0.769162 0.607172 0.260777
0.802365 0.619898 0.281163
0.837949 0.635157 0.301671
0.875914 0.652766 0.322728
0.916258 0.672969 0.345586
0.284642 0.567803 0.192447
0.286229 0.568261 0.192599
0.288029 0.568811 0.192782
0.292149 0.569238 0.193149
0.298344 0.569635 0.193637
0.306310 0.570062 0.194369
0.315953 0.570550 0.195102
0.327306 0.571099 0.196017
0.340612 0.571984 0.197055
0.355535 0.573114 0.198428
0.371588 0.574487 0.200137
0.388922 0.576043 0.201877
0.407385 0.577630 0.203769
0.426795 0.579339 0.206119
0.447028 0.581201 0.208377
0.468086 0.583154 0.210910
0.489754 0.585290 0.213748
0.512291 0.587701 0.216922
0.535363 0.590326 0.220279
0.559167 0.593256 0.223941
0.583520 0.596460 0.227939
0.608392 0.599939 0.232181
0.633722 0.603662 0.236790
0.659419 0.607599 0.241886
0.682765 0.609277 0.245853
0.711208 0.615625 0.251865
0.741634 0.623560 0.258976
0.773983 0.633112 0.267857
0.808377 0.644587 0.278660
0.843748 0.659327 0.300023
0.881346 0.676936 0.323339
0.921263 0.697230 0.347906
0.298741 0.599329 0.200656
0.300267 0.599908 0.200809
0.302251 0.600275 0.201053
0.306096 0.600610 0.201419
0.311833 0.600885 0.201907
0.319615 0.601099 0.202457
0.328832 0.601404 0.203189
0.340032 0.601709 0.204013
0.352819 0.602228 0.204990
0.367132 0.603021 0.206363
0.382818 0.603998 0.207889
0.399786 0.605249 0.209506
0.417853 0.606622 0.211551
0.436835 0.608057 0.213535
0.456611 0.609522 0.215946
0.477180 0.611109 0.218357
0.498482 0.612879 0.221073
0.520531 0.615045 0.224125
0.543481 0.617670 0.227604
0.567254 0.620752 0.231357
0.591669 0.624201 0.235569
0.616602 0.627893 0.240116
0.641749 0.631647 0.245060
0.667170 0.635370 0.250034
0.692622 0.639155 0.255467
0.718349 0.643214 0.261051
0.748318 0.650996 0.268650
0.780209 0.660578 0.277836
0.814176 0.672023 0.288609
0.850278 0.685664 0.301518
0.887907 0.702419 0.322606
0.927214 0.722560 0.349554
0.312200 0.629267 0.208652
0.313725 0.629816 0.208804
0.315618 0.630304 0.209293
0.319341 0.630610 0.209537
0.325048 0.630854 0.209934
0.332555 0.631128 0.210483
0.341833 0.631464 0.211154
0.352758 0.631952 0.212192
0.365332 0.632624 0.213230
0.379553 0.633539 0.214664
0.395056 0.634699 0.216220
0.412024 0.636103 0.218235
0.430091 0.637659 0.220157
0.449104 0.639277 0.222416
0.468879 0.640986 0.224949
0.489418 0.642756 0.227604
0.510765 0.644739 0.230564
0.532860 0.647028 0.233799
0.555840 0.649775 0.237400
0.579583 0.652888 0.241550
0.604028 0.656336 0.245975
0.628931 0.660060 0.250828
0.654170 0.663905 0.256016
0.679652 0.667811 0.261509
0.705226 0.671809 0.267277
0.730892 0.675868 0.273472
0.756710 0.680140 0.279850
0.788418 0.689876 0.289189
0.822232 0.701595 0.300267
0.858122 0.715419 0.313512
0.896117 0.731563 0.329259
0.935698 0.750698 0.351507
0.327916 0.662440 0.218235
0.329534 0.662898 0.218418
0.331182 0.663142 0.218540
0.334752 0.663294 0.218906
0.340154 0.663416 0.219394
0.347387 0.663539 0.219974
0.356359 0.663752 0.220645
0.367041 0.664210 0.221592
0.379461 0.664820 0.222751
0.393439 0.665827 0.224063
0.408850 0.667018 0.225864
0.425696 0.668513 0.227756
0.443580 0.670192 0.230137
0.462562 0.671931 0.232609
0.482216 0.673671 0.235111
0.502800 0.675502 0.237980
0.523980 0.677455 0.241062
0.546075 0.679744 0.244572
0.568933 0.682490 0.248325
0.592615 0.685603 0.252720
0.616938 0.689113 0.257511
0.641871 0.692897 0.262669
0.667079 0.696803 0.268376
0.692561 0.700893 0.274296
0.718135 0.705013 0.280308
0.743832 0.709255 0.286595
0.769680 0.713649 0.293187
0.795621 0.718318 0.300023
0.828489 0.729580 0.310979
0.864042 0.743526 0.324224
0.901610 0.759670 0.340307
0.940887 0.778500 0.360876
0.345006 0.696620 0.229068
0.346410 0.696925 0.229252
0.348028 0.697169 0.229465
0.351537 0.697414 0.229770
0.357092 0.697688 0.230350
0.364416 0.698207 0.231022
0.373480 0.699062 0.232120
0.384558 0.700282 0.233341
0.397436 0.701747 0.235080
0.411902 0.703609 0.236912
0.427741 0.705715 0.239353
0.445014 0.708003 0.241733
0.463386 0.710323 0.244572
0.482734 0.712612 0.247501
0.502861 0.714809 0.250645
0.523613 0.716854 0.253819
0.545129 0.719020 0.257389
0.567254 0.721431 0.261387
0.590326 0.724208 0.265629
0.614069 0.727382 0.270359
0.638392 0.730892 0.275731
0.663264 0.734646 0.281346
0.688411 0.738582 0.287114
0.713863 0.742672 0.293095
0.739406 0.746853 0.299504
0.765103 0.751217 0.306035
0.790982 0.755703 0.312718
0.816953 0.760525 0.319799
0.843137 0.765591 0.327214
0.876738 0.778103 0.340002
0.913512 0.794247 0.357336
0.951720 0.812833 0.379828
0.368322 0.738460 0.244724
0.369635 0.738674 0.244907
0.371191 0.738766 0.245090
0.374609 0.738827 0.245335
0.379767 0.738979 0.245731
0.386877 0.739254 0.246372
0.395666 0.739742 0.247410
0.406226 0.740505 0.248722
0.418524 0.741573 0.250340
0.432502 0.742855 0.252232
0.447761 0.744381 0.254368
0.464576 0.746151 0.256901
0.482368 0.748013 0.259709
0.501305 0.749905 0.262699
0.521172 0.751919 0.265995
0.541680 0.754025 0.269535
