其他预设/【232】美食博客调色预设124款/1.3D LUT预设（视频调色-PR-AE-PS-FCPX-达芬奇用）/Food Art #22.cube
# Created by Adobe Lightroom plugin Export LUT (1.17.0)
# www.johnrellis.com/lightroom/exportlut.htm
# Preset: Food Art #22
# Color profile: /Library/Application Support/Adobe/Color/Profiles/Recommended/AdobeRGB1998.icc
LUT_3D_SIZE 5
DOMAIN_MIN 0.000000 0.000000 0.000000
DOMAIN_MAX 0.903226 0.903226 0.903226
0.295903 0.199130 0.079316
0.383764 0.205051 0.086427
0.564843 0.220768 0.106020
0.824857 0.269718 0.146700
0.997253 0.410346 0.291539
0.337163 0.289403 0.094728
0.412512 0.293187 0.103334
0.586664 0.305730 0.120577
0.833921 0.360784 0.163821
0.998413 0.480446 0.326055
0.424048 0.500877 0.138125
0.489509 0.508934 0.145266
0.674189 0.550134 0.178622
0.861631 0.580713 0.245792
0.992187 0.649012 0.429877
0.554925 0.783566 0.272221
0.603601 0.785855 0.286412
0.730953 0.792813 0.336004
0.877256 0.806027 0.425666
0.983185 0.830320 0.596338
0.766323 0.940276 0.600580
0.783780 0.940368 0.610254
0.834653 0.939696 0.637964
0.909514 0.945495 0.697108
0.979828 0.955230 0.765957
0.311376 0.201328 0.144228
0.390845 0.213199 0.155154
0.570977 0.231388 0.183200
0.820310 0.265873 0.228641
0.990082 0.427527 0.359319
0.354528 0.286778 0.163729
0.419287 0.292302 0.172244
0.593256 0.307652 0.194766
0.829465 0.358038 0.245029
0.989624 0.492042 0.386847
0.431556 0.499489 0.217075
0.491859 0.508232 0.221897
0.665797 0.538140 0.253178
0.854124 0.576501 0.317266
0.986297 0.660334 0.486061
0.564721 0.781033 0.344457
0.615106 0.783047 0.362371
0.736446 0.790005 0.406592
0.875181 0.803891 0.482704
0.979614 0.833005 0.629938
0.774563 0.938201 0.632410
0.790768 0.938415 0.640711
0.842283 0.940703 0.671382
0.911772 0.945983 0.720302
0.979583 0.955840 0.781430
0.351720 0.209049 0.293370
0.417823 0.216617 0.308049
0.588312 0.231235 0.351141
0.825010 0.269657 0.429236
0.982116 0.466987 0.520897
0.383459 0.291264 0.326390
0.441993 0.293217 0.337865
0.613031 0.308110 0.378759
0.832303 0.362554 0.442878
0.979675 0.535668 0.547509
0.449195 0.505089 0.405402
0.506065 0.512688 0.416236
0.672358 0.540246 0.451575
0.849302 0.592676 0.510094
0.974609 0.688228 0.618280
0.576165 0.775937 0.512078
0.624994 0.775540 0.522667
0.749691 0.782620 0.568139
0.871122 0.801694 0.619013
0.972320 0.837736 0.708217
0.775326 0.934966 0.694636
0.795315 0.935241 0.706172
0.846586 0.937560 0.733333
0.911131 0.943725 0.767971
0.977020 0.954437 0.814694
0.402960 0.206302 0.583978
0.465126 0.207187 0.595026
0.627466 0.216617 0.630701
0.821317 0.284886 0.672358
0.972992 0.488502 0.703182
0.407416 0.289281 0.609552
0.470619 0.290135 0.618799
0.634821 0.306371 0.645411
0.825803 0.374701 0.680354
0.970062 0.547204 0.712520
0.461860 0.511437 0.659388
0.518914 0.515526 0.665339
0.674067 0.542229 0.681910
0.840848 0.598901 0.709041
0.965637 0.692378 0.747463
0.598901 0.767239 0.720333
0.640986 0.768917 0.722469
0.749905 0.778714 0.733486
0.864561 0.799130 0.755734
0.965850 0.836271 0.797726
0.779141 0.932891 0.796811
0.796078 0.933196 0.801389
0.843900 0.936034 0.815335
0.907042 0.942718 0.835752
0.974212 0.954284 0.867521
0.431861 0.212039 0.877165
0.486305 0.217838 0.879240
0.629206 0.255253 0.885496
0.801968 0.367926 0.894438
0.958679 0.542565 0.903990
0.435370 0.298070 0.881895
0.491432 0.305455 0.883513
0.637537 0.345495 0.888670
0.809293 0.450355 0.896422
0.958465 0.597192 0.905516
0.512230 0.525200 0.890990
0.558587 0.533074 0.891081
0.687556 0.571435 0.894224
0.834470 0.641474 0.900725
0.958465 0.719234 0.910704
0.678279 0.774929 0.905119
0.704646 0.779965 0.905486
0.773129 0.791440 0.906310
0.864073 0.809903 0.909819
0.961486 0.846006 0.922576
0.804471 0.937377 0.927611
0.816403 0.938293 0.928466
0.852750 0.940978 0.930846
0.907561 0.946777 0.936461
0.972290 0.958404 0.948760
