其他预设/【232】美食博客调色预设124款/1.3D LUT预设（视频调色-PR-AE-PS-FCPX-达芬奇用）/Food Art #23.cube
# Created by Adobe Lightroom plugin Export LUT (1.17.0)
# www.johnrellis.com/lightroom/exportlut.htm
# Preset: Food Art #23
# Color profile: /Library/Application Support/Adobe/Color/Profiles/Recommended/AdobeRGB1998.icc
LUT_3D_SIZE 5
DOMAIN_MIN 0.000000 0.000000 0.000000
DOMAIN_MAX 0.903226 0.903226 0.903226
0.163668 0.142947 0.131594
0.285649 0.110292 0.128023
0.528313 0.099489 0.109621
0.751156 0.104494 0.111391
0.948974 0.108949 0.105501
0.146944 0.265080 0.113741
0.290471 0.264134 0.111727
0.539239 0.268803 0.112154
0.755337 0.259129 0.105806
0.945892 0.250553 0.099641
0.166659 0.519371 0.094362
0.306584 0.522972 0.089235
0.540032 0.515129 0.074678
0.754421 0.495125 0.076478
0.951446 0.477943 0.085115
0.174228 0.739315 0.012146
0.296666 0.737606 0.005097
0.516258 0.734371 0.000000
0.743771 0.730892 0.000000
0.951781 0.713100 0.060945
0.206363 0.945068 0.049073
0.306096 0.945403 0.054017
0.510094 0.950072 0.078920
0.727108 0.948058 0.085481
0.948852 0.945830 0.097597
0.145357 0.139956 0.255009
0.298985 0.131716 0.253300
0.549493 0.077333 0.253361
0.766049 0.086946 0.245335
0.957946 0.129397 0.245975
0.174655 0.271733 0.253544
0.300877 0.269139 0.252476
0.553338 0.262028 0.248631
0.766232 0.259281 0.245640
0.957488 0.263340 0.246494
0.155459 0.530022 0.249454
0.296361 0.533104 0.238163
0.555230 0.529808 0.235508
0.763363 0.502251 0.245579
0.955352 0.485786 0.248478
0.178042 0.742092 0.231113
0.301946 0.740352 0.233371
0.520500 0.737179 0.234714
0.747097 0.733883 0.238682
0.953338 0.717067 0.250980
0.236088 0.945647 0.249302
0.324743 0.946014 0.250706
0.515099 0.945586 0.252903
0.728786 0.945953 0.258244
0.947936 0.944671 0.263340
0.179843 0.124910 0.515190
0.316320 0.118715 0.515038
0.555383 0.013367 0.515221
0.764309 0.108797 0.487770
0.956634 0.217563 0.487343
0.156344 0.267826 0.515038
0.301762 0.259953 0.516747
0.558221 0.250187 0.518212
0.763668 0.284764 0.494331
0.953979 0.332067 0.498024
0.146761 0.531945 0.517906
0.299840 0.532860 0.519341
0.556023 0.529015 0.515801
0.755337 0.530022 0.516106
0.951659 0.527520 0.512322
0.202884 0.746822 0.485389
0.327153 0.746822 0.490730
0.548669 0.740597 0.508141
0.750423 0.737362 0.507774
0.952453 0.733516 0.516228
0.267613 0.950500 0.482582
0.359594 0.948821 0.490089
0.546258 0.946593 0.506920
0.742611 0.948516 0.510613
0.951659 0.948608 0.512169
0.194736 0.128237 0.738521
0.307134 0.120607 0.737789
0.523339 0.098085 0.737881
0.757198 0.121523 0.739071
0.957580 0.225925 0.719326
0.189792 0.262486 0.740017
0.307012 0.262181 0.740322
0.527276 0.266209 0.740291
0.758724 0.287266 0.740963
0.958190 0.340826 0.725338
0.221103 0.503960 0.741665
0.338293 0.509453 0.741482
0.551537 0.526207 0.740291
0.756374 0.533806 0.739254
0.954345 0.545769 0.734463
0.249180 0.741634 0.737270
0.355840 0.742763 0.738491
0.560357 0.743069 0.738552
0.752407 0.741512 0.736263
0.953277 0.742550 0.736477
0.300999 0.952850 0.723445
0.382452 0.952148 0.726101
0.556023 0.950347 0.730861
0.742641 0.951354 0.727535
0.953552 0.951659 0.728115
0.198886 0.126833 0.948760
0.300481 0.123995 0.948852
0.504662 0.126925 0.949279
0.727443 0.164920 0.949401
0.951415 0.225498 0.949248
0.209049 0.262913 0.948394
0.308446 0.264561 0.948394
0.510460 0.273991 0.948577
0.729702 0.296574 0.948272
0.950530 0.330510 0.948394
0.276616 0.501030 0.947265
0.364111 0.508293 0.946838
0.537377 0.514611 0.946563
0.737819 0.521477 0.946441
0.949767 0.530755 0.947906
0.297978 0.723079 0.947539
0.376257 0.725277 0.947082
0.547997 0.730068 0.946746
0.737087 0.728237 0.947814
0.951934 0.731930 0.950622
0.325170 0.948486 0.949615
0.393103 0.948363 0.949462
0.549187 0.948913 0.949706
0.737057 0.949584 0.949889
0.949523 0.948974 0.948760
