其他预设/【232】美食博客调色预设124款/1.3D LUT预设（视频调色-PR-AE-PS-FCPX-达芬奇用）/Food Art #66.cube
# Created by Adobe Lightroom plugin Export LUT (1.17.0)
# www.johnrellis.com/lightroom/exportlut.htm
# Preset: Food Art #66
# Color profile: /Library/Application Support/Adobe/Color/Profiles/Recommended/AdobeRGB1998.icc
LUT_3D_SIZE 8
DOMAIN_MIN 0.000000 0.000000 0.000000
DOMAIN_MAX 0.903226 0.903226 0.903226
0.000000 0.000000 0.000000
0.000000 0.087709 0.074220
0.053559 0.165652 0.133730
0.167239 0.248417 0.198001
0.288579 0.326329 0.254673
0.433143 0.391608 0.300145
0.607080 0.453040 0.349248
0.778408 0.538445 0.429938
0.000000 0.141787 0.098787
0.000000 0.168643 0.121096
0.063691 0.213962 0.160586
0.176852 0.279088 0.213962
0.296910 0.344457 0.262821
0.437659 0.402319 0.304112
0.607568 0.460853 0.351995
0.778500 0.545647 0.433265
0.000000 0.290227 0.192630
0.000000 0.300816 0.202426
0.123659 0.332982 0.231205
0.228305 0.363622 0.259281
0.343175 0.402228 0.290166
0.479255 0.445411 0.324468
0.644251 0.501488 0.375006
0.799344 0.585229 0.460883
0.121767 0.410803 0.269169
0.146975 0.414923 0.272892
0.218204 0.429847 0.285466
0.325963 0.459022 0.308690
0.434028 0.484321 0.331884
0.551904 0.514549 0.361547
0.689418 0.564111 0.413764
0.822080 0.641077 0.501213
0.283116 0.513664 0.325719
0.297124 0.516289 0.328191
0.345068 0.526360 0.337133
0.425269 0.545525 0.354406
0.523461 0.569299 0.379370
0.623804 0.595026 0.411872
0.736629 0.638605 0.466499
0.849607 0.707790 0.555169
0.438148 0.621210 0.391577
0.452461 0.625635 0.396124
0.488411 0.632685 0.405585
0.548363 0.645808 0.423255
0.623163 0.663539 0.449287
0.705104 0.686885 0.485084
0.791470 0.721767 0.538506
0.882078 0.779110 0.621607
0.615839 0.736751 0.497932
0.623774 0.738643 0.501244
0.646601 0.742733 0.510033
0.686152 0.751553 0.527306
0.736019 0.764126 0.551568
0.792386 0.782040 0.584680
0.848508 0.804349 0.624598
0.910704 0.842527 0.688075
0.779599 0.847898 0.638636
0.783352 0.848814 0.640833
0.797086 0.852537 0.649226
0.821286 0.860197 0.665797
0.847379 0.866758 0.682490
0.883116 0.881163 0.712490
0.919646 0.899046 0.749020
0.952667 0.918242 0.788449
0.000000 0.030671 0.085756
0.000000 0.093782 0.107424
0.032990 0.183261 0.166445
0.170230 0.269841 0.225132
0.292088 0.338720 0.269383
0.431189 0.396765 0.307744
0.600214 0.454139 0.353613
0.772000 0.536858 0.431617
0.000000 0.144747 0.128450
0.000000 0.173526 0.150179
0.059144 0.231144 0.192020
0.181552 0.295445 0.236606
0.302190 0.354894 0.275883
0.438727 0.407630 0.312047
0.602869 0.462226 0.356786
0.771939 0.543664 0.434577
0.000000 0.291997 0.210269
0.000000 0.304601 0.222293
0.124361 0.334417 0.244846
0.230228 0.367742 0.270268
0.344549 0.405951 0.298070
0.475990 0.446876 0.329900
0.633631 0.499031 0.376715
0.791257 0.580835 0.459754
0.128878 0.410407 0.276646
0.155673 0.415320 0.281102
0.222965 0.430518 0.292699
0.320195 0.455329 0.312291
0.422644 0.479286 0.333593
0.539300 0.509545 0.362249
0.677424 0.558373 0.412268
0.814572 0.635645 0.498543
0.288304 0.513634 0.331273
0.301183 0.515923 0.333349
0.346563 0.525017 0.341619
0.421363 0.541894 0.357275
0.515831 0.564446 0.380560
0.616846 0.591150 0.412909
0.731319 0.635431 0.467048
0.845548 0.704524 0.554223
0.438392 0.618830 0.394873
0.448890 0.620874 0.397589
0.484413 0.628046 0.406806
0.544488 0.641901 0.424750
0.620142 0.660731 0.451179
0.703212 0.685298 0.487404
0.789395 0.720241 0.539971
0.879698 0.776883 0.621118
0.611536 0.732662 0.497383
0.617517 0.733364 0.499336
0.641169 0.738125 0.508537
0.682399 0.748074 0.526787
0.733669 0.761776 0.552178
0.789639 0.779507 0.584405
0.845121 0.801053 0.622675
0.907713 0.839200 0.685298
0.776791 0.845518 0.637568
0.781155 0.846769 0.640314
0.795132 0.850767 0.648981
0.819699 0.858671 0.665675
0.850187 0.868986 0.687831
0.884092 0.882048 0.715602
0.919097 0.898497 0.749599
0.951720 0.917052 0.787747
0.000000 0.086000 0.155795
0.000000 0.115999 0.171328
0.000000 0.196872 0.216037
0.175753 0.282139 0.257725
0.304814 0.353002 0.294163
0.450629 0.412390 0.331426
0.615534 0.466621 0.376867
0.779416 0.547662 0.453773
0.000000 0.169589 0.192660
0.000000 0.191592 0.205417
0.050172 0.244724 0.234684
0.190585 0.310063 0.267979
0.317113 0.370123 0.300725
0.457527 0.422156 0.335088
0.619074 0.474891 0.380163
0.781277 0.555566 0.457801
0.000000 0.299840 0.247990
0.000000 0.311864 0.255283
0.137819 0.344152 0.274205
0.244358 0.379187 0.294896
0.362188 0.418677 0.320806
0.493172 0.458350 0.351598
0.644770 0.509117 0.398566
0.795315 0.588373 0.478523
0.144045 0.414618 0.296452
0.170993 0.420172 0.300694
0.241794 0.437537 0.313512
0.332708 0.460822 0.331029
0.435737 0.486366 0.352911
0.552850 0.518486 0.383307
0.687678 0.568048 0.434455
0.819394 0.643183 0.517144
0.296544 0.515282 0.345892
0.312718 0.518730 0.349340
0.362249 0.529900 0.360082
0.434699 0.546929 0.375860
0.526146 0.569238 0.399481
0.624750 0.596490 0.432105
0.736477 0.641077 0.485328
0.848264 0.708827 0.568566
0.446754 0.620233 0.410071
0.459266 0.622766 0.413794
0.496345 0.630304 0.424628
0.552117 0.642939 0.441016
0.623987 0.661036 0.465644
0.703853 0.684993 0.500267
0.790158 0.721340 0.552087
0.881498 0.779568 0.632410
0.619287 0.734432 0.511833
0.626520 0.735500 0.514733
0.649104 0.739681 0.523430
0.687007 0.748562 0.539544
0.736080 0.761807 0.563134
0.791531 0.780148 0.594812
0.847562 0.803189 0.633753
0.911101 0.843381 0.697444
0.778561 0.845792 0.645991
0.781918 0.846403 0.647700
0.795224 0.850004 0.655482
0.820523 0.858701 0.672877
0.850431 0.868894 0.694148
0.884611 0.882444 0.721950
0.919799 0.899351 0.755856
0.952636 0.918456 0.794156
0.000000 0.126741 0.233005
0.000000 0.151003 0.242252
0.000000 0.216739 0.265873
0.183536 0.293004 0.292912
0.313725 0.359350 0.320439
0.456306 0.415259 0.354192
0.619837 0.470771 0.402228
0.779568 0.549615 0.476356
0.000000 0.202274 0.255863
0.000000 0.216800 0.261387
0.059785 0.261021 0.277653
0.200992 0.319646 0.300420
0.327764 0.376440 0.326543
0.466468 0.426917 0.359350
0.625727 0.480476 0.406806
0.782467 0.557977 0.480812
0.000000 0.311650 0.286412
0.000000 0.322698 0.290990
0.150607 0.351232 0.303929
0.256809 0.386267 0.322118
0.375280 0.426032 0.346777
0.509087 0.467445 0.380194
0.658930 0.520226 0.430488
0.800107 0.594018 0.503899
0.166690 0.420294 0.324315
0.189700 0.425605 0.327733
0.256138 0.442237 0.339025
0.350591 0.468330 0.358770
0.449592 0.493568 0.380529
0.564569 0.526604 0.412238
0.694423 0.574640 0.461830
0.822202 0.646784 0.538964
0.312535 0.519707 0.371740
0.326757 0.522545 0.374548
0.375006 0.533532 0.384985
0.452583 0.553460 0.404883
0.539422 0.575067 0.428534
0.636286 0.603937 0.461097
0.744015 0.648310 0.512444
0.851560 0.712520 0.588434
0.460670 0.624384 0.436378
0.475044 0.628382 0.441169
0.511559 0.635676 0.451759
0.569360 0.649378 0.470283
0.637293 0.666865 0.493904
0.711513 0.689357 0.525383
0.795346 0.726009 0.574273
0.884062 0.782437 0.648951
0.625727 0.735653 0.532219
0.633661 0.737423 0.535546
0.658564 0.742977 0.546044
0.697017 0.752651 0.562707
0.744228 0.765988 0.585107
0.796902 0.783688 0.614191
0.850370 0.805661 0.649928
0.913695 0.846494 0.711971
0.782864 0.847959 0.662409
0.786801 0.849088 0.664729
0.799161 0.852506 0.671534
0.820951 0.859342 0.684718
0.850736 0.869535 0.705165
0.884855 0.883177 0.732052
0.920317 0.900389 0.765377
0.953552 0.920012 0.803464
0.000000 0.173190 0.294560
0.000000 0.191653 0.298802
0.040009 0.244144 0.310765
0.198703 0.308324 0.328740
0.328801 0.368902 0.353857
0.469398 0.421088 0.387793
0.630396 0.476173 0.438514
0.786831 0.556420 0.512963
0.000000 0.233127 0.305089
0.000000 0.245518 0.308415
0.093721 0.282750 0.318242
0.216678 0.332677 0.334661
0.342168 0.384741 0.359258
0.480537 0.432807 0.393317
0.637934 0.486671 0.443885
0.790280 0.565270 0.517510
0.042481 0.334508 0.326543
0.098970 0.343786 0.329992
0.176944 0.364446 0.338689
0.273838 0.395209 0.354559
0.385901 0.430671 0.377752
0.515068 0.469551 0.411200
0.660456 0.520806 0.461219
0.800412 0.593439 0.531945
0.193881 0.426490 0.356664
0.214298 0.431495 0.359747
0.275608 0.447913 0.370947
0.361913 0.471595 0.389532
0.460578 0.497597 0.413031
0.573968 0.531304 0.445808
0.699123 0.576593 0.492775
0.821042 0.640223 0.558892
0.327916 0.521782 0.404150
0.342260 0.525170 0.407233
0.388281 0.536339 0.417731
0.462074 0.555047 0.436561
0.550958 0.579675 0.462379
0.642603 0.606287 0.491646
0.744961 0.646967 0.536858
0.850309 0.706233 0.604028
0.469490 0.623743 0.466987
0.480232 0.625940 0.469886
0.514733 0.633082 0.479042
0.570550 0.646784 0.496132
0.639185 0.665949 0.519829
0.714870 0.690547 0.551354
0.798703 0.727718 0.597650
0.884947 0.780850 0.664973
0.631952 0.735927 0.559289
0.638422 0.737118 0.561456
0.661128 0.741939 0.569848
0.697871 0.751583 0.584741
0.743740 0.765713 0.604913
0.797391 0.784024 0.633173
0.851164 0.806210 0.667201
0.914977 0.847196 0.726528
0.782498 0.846494 0.679591
0.785885 0.847379 0.681300
0.797696 0.850706 0.687343
0.819944 0.859129 0.700771
0.847013 0.868894 0.716579
0.882414 0.882780 0.742855
0.919036 0.900237 0.775387
0.953307 0.920226 0.812802
0.000000 0.223758 0.348333
0.000000 0.237980 0.350958
0.114992 0.278538 0.359472
0.235080 0.331334 0.375616
0.357916 0.382666 0.399969
0.490364 0.429511 0.433356
0.646082 0.484627 0.487312
0.797452 0.567071 0.561700
0.000000 0.269078 0.354162
0.000000 0.278813 0.356481
0.141482 0.309117 0.364660
0.250401 0.351843 0.380529
0.368994 0.396551 0.404486
0.498970 0.440101 0.437873
0.651667 0.494240 0.491371
0.799863 0.575006 0.564996
0.128298 0.359838 0.374701
0.150668 0.364935 0.376928
0.214603 0.382086 0.385260
0.304906 0.408789 0.401129
0.412970 0.440772 0.424933
0.534051 0.477363 0.457313
0.674800 0.529015 0.508782
0.811124 0.604059 0.579339
0.237858 0.443946 0.406348
0.254551 0.447883 0.409155
0.308171 0.461494 0.419928
0.388006 0.481666 0.438270
0.485389 0.507134 0.462104
0.592065 0.539605 0.492287
0.712703 0.585260 0.539452
0.830716 0.649683 0.604028
0.356481 0.532525 0.452796
0.369665 0.535637 0.455634
0.413336 0.545922 0.465705
0.482124 0.563104 0.482826
0.562127 0.583520 0.504662
0.652949 0.610986 0.533379
0.751766 0.649714 0.575067
0.852628 0.702815 0.633326
0.492287 0.631342 0.513390
0.503044 0.634089 0.516472
0.536034 0.641688 0.525200
0.587640 0.654322 0.540032
0.650996 0.671687 0.560449
0.726436 0.697719 0.591302
0.803250 0.728695 0.628351
0.885405 0.775082 0.684352
0.643946 0.739437 0.596979
0.651057 0.741299 0.599634
0.672236 0.746212 0.606989
0.705989 0.755337 0.619776
0.748959 0.768765 0.637598
0.800473 0.787594 0.662440
0.855802 0.810483 0.695216
0.919127 0.850401 0.750149
0.786465 0.848234 0.707271
0.789578 0.849027 0.708705
0.800626 0.852262 0.713954
0.820157 0.859220 0.724392
0.845975 0.869108 0.738705
0.878416 0.882750 0.758724
0.917845 0.901213 0.791440
0.953948 0.921874 0.828428
0.016693 0.274449 0.420905
0.093111 0.285008 0.423804
0.185855 0.315923 0.433265
0.292027 0.357549 0.450782
0.410712 0.400885 0.475776
0.537865 0.444831 0.508446
0.664515 0.495033 0.547204
0.805722 0.576898 0.617090
0.092348 0.307408 0.426398
0.125551 0.315343 0.429206
0.203922 0.339757 0.438483
0.304387 0.374487 0.455268
0.419715 0.413367 0.479835
0.544305 0.454780 0.511864
0.668177 0.503593 0.549706
0.806790 0.583337 0.618524
0.180270 0.381537 0.447578
0.200015 0.386053 0.450111
0.260105 0.400732 0.458747
0.348821 0.424475 0.474830
0.455726 0.454383 0.498268
0.573297 0.491127 0.528985
0.689296 0.537438 0.565484
0.818570 0.612390 0.632197
0.278386 0.462837 0.481605
0.291875 0.465095 0.483589
0.337957 0.473823 0.491463
0.416052 0.491371 0.506859
0.513329 0.516442 0.529076
0.619593 0.549798 0.557610
0.722194 0.590784 0.591455
0.836332 0.655634 0.653315
0.398383 0.553277 0.527703
0.409369 0.555322 0.529595
0.445869 0.562219 0.536431
0.501549 0.572412 0.547570
0.577905 0.589471 0.565118
0.670253 0.618585 0.591333
0.759335 0.654261 0.623621
0.858366 0.709010 0.681331
0.536004 0.653529 0.584894
0.544213 0.655177 0.586633
0.571527 0.660914 0.592859
0.614130 0.670130 0.603235
0.666865 0.682033 0.617304
0.732662 0.700771 0.639033
0.807340 0.730892 0.671015
0.886717 0.773587 0.721004
0.664790 0.749355 0.648798
0.670375 0.750729 0.650568
0.688472 0.755032 0.656153
0.717525 0.762661 0.666011
0.756130 0.773892 0.680446
0.803830 0.790463 0.701808
0.860624 0.815427 0.733913
0.920104 0.848295 0.776913
0.788968 0.849149 0.739620
0.792203 0.850156 0.741146
0.803861 0.854429 0.747311
0.822416 0.861204 0.757046
0.847623 0.871092 0.770993
0.878904 0.884764 0.790066
0.915801 0.902739 0.815885
0.954925 0.924651 0.852293
0.171786 0.326513 0.550286
0.197269 0.333928 0.552941
0.270115 0.356878 0.561273
0.371160 0.390356 0.576684
0.487587 0.429755 0.598535
0.609613 0.476143 0.625544
0.725734 0.533532 0.656977
0.823941 0.597864 0.691493
0.189700 0.349432 0.554559
0.213382 0.355535 0.557214
0.282261 0.374884 0.565301
0.380346 0.404639 0.580316
0.494697 0.441321 0.601709
0.614954 0.486336 0.628168
0.728939 0.541955 0.659083
0.825589 0.604547 0.693294
0.239841 0.407538 0.569879
0.259434 0.411475 0.572107
0.320226 0.424903 0.579461
0.412390 0.448035 0.594354
0.520745 0.479438 0.614252
0.634943 0.520989 0.639033
0.742336 0.571923 0.668757
0.833890 0.629297 0.702266
0.307073 0.477607 0.593622
0.323949 0.480720 0.595819
0.377722 0.490822 0.602747
0.461494 0.509758 0.615808
0.562371 0.537865 0.634302
0.666499 0.574273 0.657740
0.764340 0.619257 0.686061
0.848173 0.668513 0.718746
0.446784 0.579858 0.634424
0.455024 0.580652 0.635523
0.480079 0.581781 0.637812
0.517266 0.580621 0.640925
0.607782 0.604578 0.658167
0.702113 0.636652 0.680842
0.790433 0.675380 0.709071
0.867430 0.719173 0.742550
0.594385 0.687770 0.684657
0.599603 0.688289 0.685267
0.616693 0.689906 0.687373
0.643702 0.691493 0.691035
0.680537 0.693080 0.696407
0.745449 0.709316 0.713222
0.824521 0.743496 0.743130
0.893095 0.781796 0.777859
0.719203 0.786313 0.742061
0.722469 0.786862 0.742763
0.733608 0.788632 0.745327
0.753048 0.792111 0.750240
0.780423 0.797238 0.757900
0.816007 0.804807 0.769162
0.864958 0.820737 0.789731
0.922393 0.852140 0.824491
0.813748 0.868925 0.803922
0.815885 0.869505 0.804715
0.823667 0.871672 0.807828
0.837736 0.876036 0.813993
0.857847 0.882780 0.823514
0.884245 0.892668 0.837491
0.917449 0.907378 0.858427
0.956359 0.929351 0.890105
