其他预设/【232】美食博客调色预设124款/1.3D LUT预设（视频调色-PR-AE-PS-FCPX-达芬奇用）/Food Art #34.cube
# Created by Adobe Lightroom plugin Export LUT (1.17.0)
# www.johnrellis.com/lightroom/exportlut.htm
# Preset: Food Art #34
# Color profile: /Library/Application Support/Adobe/Color/Profiles/Recommended/AdobeRGB1998.icc
LUT_3D_SIZE 5
DOMAIN_MIN 0.000000 0.000000 0.000000
DOMAIN_MAX 0.903226 0.903226 0.903226
0.233799 0.233799 0.233799
0.307622 0.232273 0.232242
0.554955 0.222660 0.222507
0.756802 0.215122 0.215091
0.899840 0.218784 0.218723
0.228977 0.308965 0.228885
0.310338 0.310399 0.227207
0.546838 0.325505 0.216495
0.751766 0.312871 0.211948
0.900847 0.302068 0.220279
0.204227 0.548547 0.204135
0.319036 0.546654 0.202762
0.553460 0.553460 0.197086
0.744167 0.514977 0.206241
0.890501 0.478279 0.222873
0.207340 0.736202 0.207401
0.306462 0.735012 0.208347
0.505852 0.728603 0.210758
0.717372 0.717433 0.215702
0.880705 0.675349 0.238834
0.250797 0.875425 0.250919
0.318730 0.873777 0.251316
0.475654 0.865629 0.248844
0.663569 0.860533 0.259861
0.851865 0.851926 0.273228
0.231846 0.231876 0.305760
0.306859 0.223728 0.306828
0.545312 0.185733 0.311040
0.741482 0.206332 0.307012
0.888975 0.238621 0.312291
0.218723 0.307164 0.307134
0.306737 0.306737 0.306737
0.542351 0.303929 0.303960
0.738399 0.306828 0.306889
0.887541 0.314183 0.314092
0.185824 0.542626 0.309941
0.302586 0.541161 0.302434
0.538109 0.538109 0.302037
0.730800 0.508110 0.309117
0.883268 0.485389 0.321965
0.218936 0.732357 0.312078
0.319768 0.730678 0.319829
0.509178 0.724544 0.321386
0.713985 0.714046 0.324071
0.875425 0.677089 0.337682
0.291539 0.872038 0.348455
0.348363 0.870512 0.348363
0.494911 0.866819 0.351446
0.671077 0.860533 0.357000
0.852171 0.852232 0.365911
0.220981 0.220890 0.540826
0.319768 0.209781 0.540246
0.537926 0.182620 0.538018
0.731136 0.220768 0.509606
0.876616 0.308171 0.504112
0.181857 0.307439 0.540703
0.303227 0.303136 0.539208
0.537743 0.300633 0.537774
0.725704 0.330205 0.513237
0.873106 0.389288 0.518364
0.172549 0.536065 0.536034
0.300175 0.534600 0.534630
0.532952 0.532952 0.532952
0.714778 0.532311 0.532372
0.866423 0.533349 0.533349
0.231052 0.723293 0.506981
0.333989 0.718654 0.510857
0.535729 0.711513 0.535668
0.708034 0.708034 0.537194
0.860288 0.688350 0.536065
0.307225 0.865232 0.498848
0.384680 0.863218 0.512383
0.542596 0.857694 0.542596
0.687160 0.853025 0.541863
0.847257 0.847288 0.542565
0.214298 0.213931 0.717494
0.302678 0.209323 0.717189
0.497047 0.206546 0.715969
0.711330 0.228763 0.711330
0.866087 0.309270 0.675959
0.209415 0.302007 0.715328
0.303502 0.303349 0.714534
0.499001 0.311406 0.712276
0.707332 0.330632 0.707332
0.861387 0.381842 0.677668
0.237461 0.498970 0.708186
0.335576 0.504997 0.706538
0.522789 0.522698 0.702693
0.697200 0.525353 0.697200
0.853239 0.542901 0.687770
0.269169 0.704189 0.704219
0.356359 0.702419 0.702419
0.536187 0.700587 0.700587
0.699458 0.699428 0.699458
0.848692 0.697871 0.697871
0.336034 0.858762 0.675868
0.401709 0.856596 0.679469
0.549645 0.852018 0.690211
0.700374 0.847501 0.700404
0.843534 0.843534 0.698268
0.212894 0.212528 0.847562
0.287083 0.211490 0.847013
0.456275 0.217166 0.846128
0.648951 0.242985 0.843687
0.840452 0.288853 0.840452
0.220615 0.292210 0.844816
0.294652 0.294347 0.844236
0.462074 0.304570 0.843229
0.649805 0.324315 0.840024
0.837675 0.357855 0.837644
0.286931 0.479042 0.839353
0.357122 0.488045 0.838193
0.494881 0.494759 0.836240
0.658747 0.500633 0.833463
0.834409 0.518730 0.834409
0.308232 0.654139 0.835904
0.370001 0.656428 0.834470
0.518639 0.666011 0.832486
0.675532 0.675471 0.832334
0.837308 0.687800 0.837278
0.354345 0.837003 0.837034
0.406958 0.836332 0.836362
0.539300 0.836362 0.836393
0.688869 0.835843 0.835874
0.834653 0.834653 0.834653
