其他预设/【232】美食博客调色预设124款/1.3D LUT预设（视频调色-PR-AE-PS-FCPX-达芬奇用）/Food Art #15 ().cube
# Created by Adobe Lightroom plugin Export LUT (1.17.0)
# www.johnrellis.com/lightroom/exportlut.htm
# Preset: Food Art #15 (素锦印象)
# Color profile: /Library/Application Support/Adobe/Color/Profiles/Recommended/AdobeRGB1998.icc
LUT_3D_SIZE 32
0.157504 0.194888 0.212833
0.157504 0.194888 0.212833
0.157504 0.194888 0.212833
0.148165 0.193179 0.210544
0.143069 0.188388 0.205844
0.145846 0.185153 0.203250
0.156893 0.181979 0.201389
0.176028 0.179568 0.199893
0.201236 0.178195 0.198978
0.231327 0.178012 0.198428
0.265080 0.179477 0.198337
0.300847 0.182803 0.198917
0.337133 0.188602 0.200320
0.373846 0.196658 0.202426
0.411261 0.205753 0.206668
0.449592 0.215549 0.212589
0.488197 0.225956 0.219883
0.530846 0.237064 0.229038
0.574243 0.247623 0.240024
0.617273 0.257694 0.251896
0.659785 0.268162 0.264866
0.699245 0.280461 0.279149
0.734615 0.294591 0.294469
0.766171 0.310735 0.311223
0.794217 0.328679 0.329381
0.819425 0.348028 0.348699
0.842832 0.368353 0.369268
0.865537 0.389166 0.390509
0.888273 0.409796 0.411810
0.911589 0.429816 0.432807
0.935393 0.449104 0.452857
0.958312 0.468666 0.471992
0.157504 0.194888 0.212833
0.157504 0.194888 0.212833
0.157504 0.194888 0.212833
0.147707 0.192996 0.210391
0.142947 0.188144 0.205753
0.145846 0.185153 0.203250
0.157565 0.182284 0.201358
0.176333 0.180453 0.199954
0.201480 0.179324 0.198886
0.231540 0.179568 0.198215
0.264927 0.181460 0.198093
0.300298 0.185000 0.198672
0.336370 0.190829 0.199985
0.372808 0.198886 0.202090
0.409949 0.207797 0.206485
0.448066 0.217716 0.212222
0.486549 0.227848 0.219364
0.528801 0.238712 0.228428
0.571221 0.249027 0.239109
0.613611 0.258762 0.250706
0.655756 0.269017 0.263523
0.695369 0.280735 0.277348
0.731106 0.294530 0.292546
0.762966 0.310246 0.309209
0.791470 0.327916 0.327123
0.817075 0.347143 0.346502
0.840787 0.367376 0.366918
0.863645 0.388220 0.388464
0.886534 0.408850 0.409857
0.909941 0.428962 0.431159
0.933898 0.448249 0.451331
0.957000 0.467781 0.470619
0.157504 0.194888 0.212833
0.157504 0.194888 0.212833
0.157504 0.194888 0.212833
0.147280 0.192691 0.210208
0.142855 0.187655 0.205814
0.146273 0.184970 0.203250
0.158083 0.182986 0.201419
0.177218 0.181582 0.199832
0.202152 0.181308 0.198703
0.232029 0.182040 0.198001
0.265385 0.184054 0.197787
0.300450 0.188235 0.198306
0.336370 0.194217 0.199496
0.372747 0.202243 0.201816
0.409705 0.211032 0.206210
0.447791 0.220829 0.211978
0.486000 0.230900 0.219028
0.528161 0.241581 0.228122
0.570031 0.251469 0.238651
0.611933 0.261082 0.250065
0.654078 0.270970 0.262791
0.693690 0.282414 0.276646
0.729458 0.295995 0.291600
0.761532 0.311376 0.308080
0.790158 0.328893 0.326146
0.815885 0.347784 0.345281
0.839750 0.367926 0.365911
0.862760 0.388617 0.387304
0.885740 0.409064 0.408911
0.909178 0.429145 0.430213
0.933165 0.448493 0.450629
0.956359 0.467903 0.469947
0.155520 0.185641 0.210269
0.155123 0.185306 0.209995
0.154788 0.184756 0.209751
0.147463 0.184451 0.208988
0.143069 0.185122 0.206180
0.147951 0.184756 0.203342
0.160555 0.184665 0.201236
0.179934 0.184604 0.199557
0.204685 0.185428 0.198337
0.234531 0.187198 0.197421
0.267308 0.190311 0.197238
0.302159 0.195010 0.197604
0.337652 0.201633 0.198611
0.373785 0.209567 0.201266
0.410559 0.218235 0.205661
0.448280 0.227939 0.211521
0.486213 0.237675 0.218601
0.528344 0.248173 0.227817
0.569024 0.257359 0.237949
0.609979 0.266178 0.249119
0.651423 0.275578 0.261448
0.690913 0.286442 0.275059
0.727016 0.299596 0.290135
0.759640 0.314763 0.306615
0.789029 0.331975 0.324804
0.815335 0.350927 0.344549
0.839567 0.370977 0.365515
0.862760 0.391455 0.387060
0.885801 0.411719 0.408850
0.909209 0.431312 0.429999
0.933043 0.450202 0.450294
0.956054 0.469245 0.469459
0.150912 0.180697 0.205447
0.150729 0.180728 0.205356
0.150454 0.180636 0.205142
0.148257 0.180941 0.204959
0.144961 0.181399 0.204379
0.149874 0.185153 0.202762
0.164065 0.188418 0.201083
0.183688 0.190463 0.199222
0.208530 0.192844 0.197665
0.237736 0.195987 0.196628
0.270237 0.200137 0.196109
0.304601 0.205844 0.196262
0.339757 0.212680 0.197574
0.375555 0.220584 0.200595
0.412085 0.229465 0.205173
0.449653 0.239109 0.210880
0.488930 0.248722 0.218265
0.530175 0.258366 0.227451
0.570428 0.266758 0.237583
0.610834 0.274937 0.248844
0.651637 0.283787 0.260929
0.690669 0.293980 0.274418
0.726497 0.306554 0.289250
0.759121 0.321172 0.305852
0.788449 0.337896 0.324163
0.814908 0.356237 0.343694
0.839170 0.375708 0.364721
0.862394 0.395453 0.386389
0.885405 0.415076 0.408026
0.908751 0.434241 0.429358
0.932647 0.452735 0.449531
0.955657 0.471443 0.468696
0.148074 0.183627 0.202487
0.148043 0.183749 0.202487
0.147799 0.184176 0.202365
0.147890 0.184939 0.202182
0.148898 0.186069 0.201785
0.151858 0.187594 0.201175
0.166293 0.194095 0.199649
0.188235 0.199619 0.198184
0.214572 0.204318 0.196658
0.243717 0.208835 0.195224
0.275731 0.214237 0.194553
0.309575 0.220371 0.194827
0.344030 0.227604 0.196506
0.379492 0.235599 0.199680
0.415686 0.244541 0.204288
0.453101 0.253574 0.210422
0.493355 0.263249 0.218143
0.533776 0.271977 0.227207
0.573388 0.279393 0.237613
0.613703 0.286870 0.248631
0.654261 0.295018 0.261082
0.693111 0.304967 0.274693
0.750576 0.328527 0.301122
0.780117 0.343816 0.318700
0.806332 0.360174 0.337499
0.830045 0.377539 0.357336
0.852354 0.395270 0.377722
0.874174 0.413031 0.398444
0.896117 0.430671 0.418860
0.918700 0.447944 0.438727
0.941344 0.465034 0.457557
0.962676 0.482765 0.475410
0.144930 0.196201 0.199680
0.145418 0.196628 0.199649
0.146273 0.197116 0.199588
0.148348 0.198154 0.199374
0.152377 0.199985 0.199130
0.159487 0.201785 0.198550
0.169924 0.204074 0.198032
0.193027 0.213230 0.196353
0.221256 0.221042 0.194827
0.254002 0.228183 0.193271
0.287663 0.234592 0.192508
0.321233 0.241367 0.193271
0.355230 0.248783 0.195560
0.390082 0.256779 0.199191
0.425788 0.265080 0.204166
0.464271 0.274113 0.210666
0.504692 0.282750 0.218967
0.544823 0.290074 0.228580
0.584344 0.296574 0.239200
0.625330 0.303593 0.250919
0.666773 0.312016 0.264103
0.706386 0.322667 0.278996
0.742580 0.335973 0.295811
0.774990 0.351324 0.314305
0.803403 0.367864 0.334173
0.828214 0.384955 0.354742
0.851072 0.402136 0.375830
0.873106 0.419043 0.396643
0.895171 0.435859 0.417304
0.917693 0.452461 0.437232
0.940368 0.468971 0.456062
0.961791 0.486305 0.474006
0.143771 0.215579 0.197208
0.144839 0.216007 0.197147
0.146456 0.216464 0.197086
0.149905 0.217685 0.196902
0.155978 0.219516 0.196628
0.165316 0.221744 0.196201
0.178103 0.224247 0.195682
0.194247 0.227390 0.194980
0.223941 0.238987 0.193606
0.256596 0.248203 0.192386
0.291875 0.256626 0.191684
0.328161 0.264134 0.191470
0.361700 0.271397 0.193912
0.395880 0.278904 0.197757
0.432166 0.287022 0.203037
0.471046 0.295384 0.209903
0.509758 0.302403 0.218235
0.548577 0.308385 0.227665
0.587030 0.313756 0.238163
0.627192 0.319738 0.250034
0.667811 0.327398 0.263035
0.706538 0.337285 0.277867
0.742214 0.349584 0.294316
0.774258 0.363806 0.312749
0.802487 0.379034 0.332586
0.827298 0.394873 0.353155
0.850126 0.410742 0.373968
0.872221 0.426520 0.394934
0.894377 0.442451 0.415747
0.916960 0.458228 0.435676
0.939696 0.474250 0.454749
0.961212 0.491127 0.472847
0.144656 0.242130 0.194888
0.146212 0.242527 0.194949
0.148318 0.243168 0.194827
0.152926 0.244450 0.194614
0.160403 0.246525 0.194339
0.170840 0.249119 0.194064
0.186130 0.251926 0.193698
0.204410 0.255070 0.193423
0.225956 0.258915 0.193210
0.260105 0.272007 0.192691
0.295018 0.281834 0.192233
0.330968 0.290379 0.192538
0.367529 0.297978 0.193423
0.405005 0.305241 0.196109
0.442084 0.312932 0.201907
0.479164 0.319402 0.209049
0.516472 0.324773 0.217594
0.554314 0.329320 0.227115
0.591943 0.333501 0.237675
0.631403 0.338628 0.249424
0.670985 0.345525 0.262547
0.708766 0.354589 0.277134
0.743587 0.365911 0.293584
0.774990 0.378851 0.311925
0.802762 0.392828 0.331731
0.827329 0.406989 0.352056
0.850126 0.421515 0.372961
0.872129 0.435981 0.393957
0.894224 0.450721 0.414710
0.916777 0.465614 0.434699
0.939452 0.480934 0.453712
0.960937 0.497261 0.471748
0.146731 0.275181 0.194003
0.148592 0.275761 0.194034
0.151400 0.276158 0.193912
0.157015 0.277409 0.193881
0.165866 0.279271 0.193668
0.177798 0.281773 0.193393
0.193759 0.284581 0.193301
0.213657 0.287541 0.193362
0.236362 0.291112 0.193393
0.261357 0.295323 0.193698
0.298100 0.308629 0.194430
0.333928 0.318120 0.194766
0.372107 0.327337 0.196384
0.411078 0.334997 0.198398
0.451118 0.340948 0.201205
0.488502 0.345708 0.207828
0.525383 0.349615 0.216556
0.562615 0.352819 0.226719
0.599817 0.356085 0.237369
0.638148 0.360388 0.249302
0.676081 0.366430 0.262119
0.712001 0.374365 0.276707
0.745205 0.384039 0.292668
0.775387 0.395148 0.310643
0.802487 0.407263 0.329961
0.826780 0.419989 0.350317
0.849607 0.432990 0.371283
0.871824 0.446296 0.392462
0.894133 0.460151 0.413581
0.916930 0.474342 0.433814
0.939788 0.489174 0.453040
0.961364 0.505119 0.471260
0.151247 0.311162 0.195254
0.153445 0.311559 0.195254
0.156466 0.312016 0.195132
0.162814 0.313237 0.195163
0.172854 0.314855 0.195041
0.185733 0.317235 0.194827
0.201663 0.320317 0.194827
0.222782 0.323125 0.195102
0.246433 0.326299 0.195499
0.272190 0.329931 0.196170
0.300572 0.335302 0.197116
0.339971 0.349371 0.199466
0.377264 0.358251 0.200626
0.415473 0.365606 0.202945
0.454841 0.371344 0.205936
0.494270 0.374731 0.209781
0.533623 0.376135 0.215244
0.569848 0.377996 0.225498
0.606287 0.380133 0.236362
0.643702 0.383520 0.248234
0.680537 0.388617 0.261326
0.715419 0.395483 0.275944
0.747860 0.404028 0.292058
0.777371 0.413642 0.310002
0.803830 0.424201 0.329564
0.827787 0.435157 0.349767
0.850248 0.446479 0.370703
0.872282 0.458350 0.391791
0.894438 0.470954 0.412665
0.917113 0.484169 0.432776
0.939910 0.498238 0.452003
0.961456 0.513664 0.470314
0.158968 0.348974 0.198734
0.161349 0.349279 0.198856
0.164492 0.349798 0.198825
0.171481 0.350713 0.198734
0.181857 0.352361 0.198764
0.195499 0.354376 0.198642
0.211978 0.357061 0.198703
0.232029 0.359930 0.198825
0.257115 0.363531 0.199710
0.284184 0.368017 0.200809
0.312810 0.372747 0.202060
0.342840 0.377661 0.203464
0.398505 0.404425 0.210269
0.438361 0.411841 0.212619
0.478126 0.416083 0.216098
0.517906 0.417792 0.220432
0.557824 0.417243 0.225803
0.597040 0.415717 0.231510
0.633783 0.415290 0.240696
0.668635 0.417273 0.253208
0.701991 0.420874 0.266972
0.733364 0.426062 0.282078
0.762448 0.432410 0.298711
0.789090 0.439857 0.316899
0.813291 0.447913 0.336095
0.835721 0.456764 0.356329
0.857206 0.466072 0.376684
0.878416 0.476234 0.397040
0.899901 0.487343 0.417060
0.922026 0.499245 0.436408
0.943969 0.512291 0.454902
0.964691 0.526879 0.472541
0.171145 0.391424 0.205142
0.173495 0.391699 0.205264
0.176761 0.391852 0.205264
0.183871 0.392401 0.205203
0.194461 0.393378 0.205081
0.208591 0.395666 0.205234
0.225772 0.398596 0.205478
0.245487 0.402197 0.205722
0.270359 0.405951 0.206638
0.298039 0.410407 0.207919
0.327794 0.415747 0.209781
0.359472 0.421576 0.211978
0.393286 0.427863 0.214359
0.438148 0.441779 0.220218
0.478798 0.447059 0.223423
0.519097 0.448920 0.227604
0.558831 0.448188 0.233066
0.597589 0.446296 0.238529
0.635920 0.444373 0.244724
0.673335 0.443183 0.251682
0.705684 0.445197 0.265354
0.736110 0.448737 0.280583
0.764279 0.453407 0.297307
0.790249 0.459022 0.315465
0.813962 0.465522 0.334783
0.836088 0.472724 0.354772
0.857389 0.480781 0.375097
0.878477 0.489815 0.395514
0.899962 0.499916 0.415503
0.922118 0.511040 0.434974
0.944091 0.523461 0.453559
0.964813 0.537499 0.471412
0.185275 0.432502 0.213718
0.187808 0.432868 0.213687
0.191165 0.433021 0.213779
0.198154 0.433661 0.213687
0.208835 0.434546 0.213657
0.222568 0.436011 0.213779
0.239170 0.438056 0.213809
0.258152 0.440894 0.214115
0.279942 0.444434 0.214420
0.307256 0.448432 0.216007
0.336431 0.452979 0.217838
0.367590 0.458228 0.220310
0.400580 0.463478 0.222843
0.435554 0.468025 0.225376
0.480354 0.477913 0.232547
0.520897 0.479713 0.236759
0.560143 0.478431 0.241367
0.598474 0.476234 0.246769
0.636408 0.473884 0.252934
0.673243 0.472236 0.259770
0.708186 0.471382 0.267796
0.739712 0.472145 0.279454
0.767086 0.475196 0.296361
0.792355 0.479347 0.314641
0.815579 0.484413 0.333959
0.837369 0.490303 0.353979
0.858457 0.497169 0.374273
0.879454 0.505089 0.394659
0.900908 0.514305 0.414679
0.923003 0.524712 0.434150
0.944915 0.536461 0.452766
0.965545 0.549828 0.470741
0.201541 0.473854 0.223911
0.204044 0.474189 0.224033
0.207095 0.474189 0.223789
0.213748 0.474556 0.223941
0.223667 0.474983 0.223850
0.236881 0.475715 0.223636
0.252537 0.477180 0.223911
0.270726 0.479225 0.223941
0.291112 0.482155 0.224308
0.315801 0.485573 0.225620
0.344152 0.489204 0.227634
0.374640 0.493324 0.230198
0.406806 0.497322 0.233066
0.441169 0.500755 0.236118
0.477699 0.503136 0.239139
0.522698 0.508598 0.246921
0.562615 0.507713 0.252079
0.600702 0.504997 0.256718
0.637934 0.502281 0.262608
0.674006 0.500267 0.269566
0.708156 0.498878 0.277562
0.740169 0.498238 0.286503
0.769650 0.498085 0.296910
0.794766 0.500359 0.313817
0.817502 0.504173 0.333379
0.839078 0.509117 0.353552
0.860227 0.515068 0.374090
0.881407 0.522393 0.394781
0.903105 0.531060 0.415076
0.925475 0.540978 0.434821
0.947448 0.552239 0.453529
0.967956 0.564904 0.471778
0.218570 0.511711 0.236027
0.221073 0.511986 0.236179
0.223972 0.512108 0.236149
0.230289 0.512444 0.236118
0.239750 0.512902 0.236301
0.252262 0.513695 0.236210
0.267185 0.514946 0.236484
0.284550 0.516747 0.236851
0.304112 0.518914 0.237552
0.325597 0.521599 0.238193
0.352789 0.523888 0.240299
0.381964 0.526238 0.242771
0.412909 0.528344 0.245457
0.445747 0.530083 0.248478
0.480964 0.531060 0.251438
0.518547 0.531273 0.254459
0.563348 0.533806 0.262943
0.603052 0.532280 0.269078
0.640253 0.529595 0.274144
0.675929 0.527581 0.280888
0.709712 0.526238 0.289067
0.741238 0.525505 0.298375
0.770321 0.525200 0.308812
0.796963 0.525383 0.320165
0.821164 0.526390 0.334234
0.842405 0.530297 0.354589
0.863310 0.535363 0.375067
0.884367 0.541802 0.395697
0.905943 0.549615 0.416022
0.928038 0.558465 0.435309
0.949584 0.568566 0.453986
0.969574 0.580011 0.471901
0.236545 0.543938 0.250034
0.238529 0.543999 0.249973
0.241215 0.543999 0.250065
0.246830 0.544213 0.250126
0.255650 0.544518 0.250156
0.267002 0.544976 0.250156
0.281041 0.545922 0.250523
0.297276 0.547082 0.250980
0.315526 0.548577 0.251591
0.335912 0.550469 0.252323
0.359594 0.552361 0.253910
0.387884 0.553948 0.256443
0.417975 0.555383 0.259556
0.450141 0.556420 0.262516
0.484535 0.556847 0.265660
0.521111 0.556573 0.268681
0.559777 0.555657 0.271916
0.603876 0.557336 0.280522
0.642451 0.556237 0.287785
0.677363 0.554192 0.293767
0.710292 0.552850 0.301274
0.741085 0.552056 0.310338
0.769589 0.551659 0.320562
0.795895 0.551812 0.331762
0.820401 0.552178 0.343786
0.843809 0.553063 0.357031
0.865476 0.556298 0.375036
0.886534 0.561852 0.395605
0.908171 0.568658 0.415900
0.930236 0.576501 0.435370
0.951659 0.585595 0.454017
0.971405 0.596033 0.472206
0.255619 0.572412 0.266484
0.257542 0.572747 0.266728
0.267063 0.582391 0.273167
0.272160 0.582361 0.273045
0.280095 0.582422 0.273106
0.290440 0.582574 0.273014
0.303227 0.582788 0.273198
0.318151 0.583246 0.273320
0.335332 0.584070 0.273960
0.354681 0.585199 0.274601
0.376013 0.586572 0.275425
0.402411 0.587518 0.277623
0.432013 0.588067 0.280308
0.463844 0.588342 0.283085
0.498085 0.588190 0.286015
0.534447 0.587457 0.288975
0.572168 0.586297 0.292058
0.610040 0.584894 0.295323
0.650629 0.586175 0.303899
0.685451 0.585626 0.312596
0.716548 0.584009 0.318853
0.745846 0.582910 0.326665
0.773068 0.582208 0.336309
0.798154 0.581842 0.346838
0.821561 0.581567 0.358160
0.844144 0.581750 0.370031
0.866575 0.582269 0.382574
0.889342 0.583612 0.396063
0.910704 0.588891 0.415930
0.932555 0.595453 0.435340
0.953704 0.603265 0.454047
0.973083 0.612421 0.472206
0.276860 0.601984 0.286351
0.279362 0.603265 0.287327
0.282658 0.604578 0.288151
0.288273 0.605859 0.289189
0.296086 0.606867 0.289738
0.306065 0.607416 0.290288
0.317998 0.607904 0.290471
0.331945 0.608392 0.290715
0.348333 0.609216 0.291325
0.366491 0.610193 0.292058
0.386877 0.611475 0.292882
0.409766 0.612665 0.294011
0.438788 0.613214 0.296849
0.469856 0.613428 0.299382
0.503471 0.613184 0.302342
0.538903 0.612512 0.305058
0.575402 0.611536 0.308202
0.611994 0.610468 0.311498
0.647852 0.609613 0.315007
0.684901 0.611597 0.323766
0.716823 0.611810 0.333928
0.745663 0.610986 0.340856
0.772519 0.610254 0.349157
0.797299 0.609796 0.359289
0.820554 0.609461 0.370214
0.843168 0.609308 0.381537
0.865629 0.609583 0.393591
0.888518 0.610346 0.406256
0.912261 0.611719 0.419471
0.935210 0.615198 0.435431
0.956054 0.621668 0.454231
0.974975 0.629358 0.472328
0.295750 0.628382 0.305058
0.298192 0.629633 0.306035
0.300999 0.630945 0.307042
0.306157 0.632136 0.308080
0.313542 0.633112 0.308690
0.322881 0.633722 0.309087
0.333989 0.634180 0.309422
0.347204 0.634730 0.309697
0.362554 0.635523 0.310124
0.380011 0.636500 0.310826
0.399725 0.637751 0.311711
0.421424 0.639063 0.312718
0.447456 0.639826 0.314397
0.478218 0.640040 0.317266
0.511101 0.639857 0.319951
0.545586 0.639246 0.322759
0.580865 0.638453 0.325689
0.616022 0.637568 0.328740
0.650385 0.636866 0.332250
0.683589 0.636805 0.336278
0.717128 0.638972 0.345006
0.746029 0.639460 0.356176
0.772427 0.638758 0.363928
0.796902 0.637995 0.372503
0.819944 0.637293 0.382483
0.842344 0.636713 0.393164
0.864775 0.636408 0.404395
0.887724 0.636530 0.416297
0.911498 0.637140 0.428717
0.935363 0.638422 0.441657
0.958068 0.640681 0.454994
0.976684 0.646357 0.472358
0.315038 0.656184 0.324926
0.317266 0.657404 0.326055
0.320012 0.658656 0.326970
0.324895 0.659876 0.327977
0.331853 0.660822 0.328618
0.340581 0.661402 0.329015
0.351049 0.661830 0.329290
0.363500 0.662318 0.329412
0.378210 0.662959 0.330022
0.394965 0.663752 0.330571
0.413855 0.664820 0.331426
0.434913 0.665919 0.332250
0.458076 0.666865 0.333227
0.487861 0.667079 0.335485
0.520256 0.666896 0.338231
0.553948 0.666560 0.341100
0.588434 0.666163 0.344457
0.622736 0.665949 0.347875
0.656275 0.666011 0.351965
0.688533 0.666468 0.356329
0.719631 0.667445 0.361212
0.750546 0.669856 0.370336
0.776242 0.669917 0.382391
0.800381 0.669032 0.390570
0.823392 0.667964 0.399390
0.845853 0.666896 0.409247
0.868406 0.665949 0.419745
0.891478 0.665339 0.430823
0.915343 0.665034 0.442359
0.938811 0.665431 0.454475
0.960723 0.666621 0.466987
0.979980 0.668910 0.479622
0.339391 0.689174 0.349645
0.341100 0.689784 0.349981
0.343145 0.690242 0.350500
0.347265 0.690730 0.350835
0.353460 0.691127 0.351141
0.361517 0.691371 0.351324
0.371618 0.691676 0.351568
0.383703 0.692103 0.351965
0.397955 0.692836 0.352544
0.414557 0.693660 0.353277
0.433326 0.694667 0.354223
0.454231 0.695583 0.355016
0.477089 0.696315 0.356054
0.503166 0.696681 0.357275
0.534600 0.696254 0.359930
0.566979 0.695644 0.362585
0.599542 0.695033 0.365545
0.631800 0.694545 0.368811
0.663020 0.694301 0.372412
0.693233 0.694301 0.376257
0.722377 0.694575 0.380529
0.750607 0.695094 0.385077
0.778195 0.696376 0.393347
0.800626 0.694942 0.405066
0.823270 0.693355 0.412665
0.845670 0.691768 0.421180
0.868345 0.690242 0.430365
0.891569 0.689113 0.440955
0.915435 0.688228 0.451911
0.938811 0.688045 0.463508
0.960235 0.688655 0.475227
0.979248 0.690700 0.487556
0.362036 0.716426 0.370733
0.363745 0.716915 0.371221
0.365881 0.717433 0.371527
0.369848 0.717861 0.371893
0.375738 0.718135 0.372290
0.383337 0.718257 0.372320
0.392828 0.718379 0.372503
0.404303 0.718624 0.372778
0.418128 0.718929 0.373175
0.434089 0.719448 0.373754
0.452247 0.720058 0.374548
0.472633 0.720638 0.375463
0.494759 0.721065 0.376287
0.518578 0.721370 0.377173
0.546838 0.721096 0.379065
0.577661 0.720455 0.381781
0.608545 0.719753 0.384619
0.638880 0.719234 0.387823
0.668452 0.718898 0.391333
0.697139 0.718837 0.395209
0.725032 0.719020 0.399268
0.752102 0.719387 0.403632
0.778408 0.720027 0.408362
0.804288 0.720943 0.415747
0.822660 0.716396 0.424811
0.844968 0.714565 0.432319
0.867643 0.712764 0.440772
0.891020 0.711177 0.450019
0.914885 0.709987 0.460487
0.938018 0.709407 0.471473
0.959411 0.709834 0.482918
0.978210 0.712062 0.495491
0.391821 0.744564 0.394659
0.393713 0.745052 0.395239
0.395666 0.745327 0.395544
0.399268 0.745510 0.395789
0.404669 0.745480 0.395880
0.411627 0.745327 0.395727
0.420447 0.745083 0.395575
0.431281 0.744869 0.395575
0.444129 0.744625 0.395575
0.459144 0.744503 0.395819
0.476112 0.744411 0.396155
0.495033 0.744350 0.396551
0.515587 0.744259 0.397162
0.537530 0.744045 0.397742
0.560296 0.743648 0.398199
0.588617 0.742489 0.400305
0.616876 0.741390 0.402502
0.644862 0.740505 0.405127
0.672511 0.740078 0.408179
0.699702 0.739925 0.411719
0.726314 0.740139 0.415747
0.752163 0.740505 0.419806
0.777340 0.740963 0.424018
0.802152 0.741360 0.428199
0.827024 0.741634 0.434516
0.846159 0.737881 0.445014
0.868650 0.735683 0.452491
0.891905 0.733700 0.460761
0.915496 0.732082 0.469917
0.938170 0.731106 0.480232
0.959106 0.731594 0.491646
0.977478 0.734035 0.504479
0.420050 0.766018 0.414282
0.421820 0.766415 0.414801
0.423865 0.766659 0.415045
0.427344 0.766781 0.415290
0.432410 0.766690 0.415290
0.439185 0.766537 0.415259
0.447730 0.766354 0.415198
0.458076 0.766110 0.415290
0.470436 0.765896 0.415381
0.484871 0.765774 0.415717
0.500908 0.765682 0.416144
0.518914 0.765591 0.416754
0.538201 0.765530 0.417456
0.558465 0.765347 0.417975
0.579644 0.765072 0.418616
0.602869 0.764523 0.419715
0.629053 0.763577 0.421881
0.654932 0.762844 0.424414
0.680629 0.762448 0.427131
0.706081 0.762325 0.430335
0.731014 0.762509 0.433906
0.755428 0.762844 0.437720
0.779385 0.763333 0.441566
0.803342 0.763790 0.445411
0.827817 0.764187 0.449409
0.852934 0.764218 0.454963
0.871305 0.759426 0.465034
0.894530 0.757229 0.472847
0.917693 0.755337 0.481331
0.939879 0.754391 0.491127
0.960174 0.754971 0.502678
0.977783 0.757748 0.515923
0.452277 0.786679 0.433814
0.454017 0.786954 0.434180
0.455573 0.787015 0.434241
0.458717 0.786954 0.434241
0.463142 0.786770 0.434150
0.469306 0.786496 0.434028
0.477119 0.786160 0.433967
0.486671 0.785855 0.433906
0.498054 0.785580 0.433997
0.511376 0.785428 0.434363
0.526177 0.785275 0.434699
0.542748 0.785275 0.435340
0.560388 0.785183 0.435920
0.579034 0.785092 0.436683
0.598077 0.784909 0.437232
0.617670 0.784695 0.437934
0.640406 0.784054 0.439490
0.664271 0.783444 0.441718
0.688075 0.783108 0.444251
0.711757 0.783108 0.447120
0.735195 0.783383 0.450385
0.758328 0.783841 0.453925
0.781186 0.784421 0.457527
0.804227 0.785061 0.461219
0.827939 0.785580 0.464881
0.852781 0.785946 0.468696
0.878843 0.785916 0.473762
0.896391 0.780056 0.483314
0.918578 0.777829 0.491890
0.940307 0.776974 0.501640
0.960082 0.777646 0.513024
0.977081 0.780575 0.526207
0.484413 0.805539 0.451453
0.485695 0.805661 0.451575
0.487160 0.805722 0.451698
0.490059 0.805692 0.451698
0.494514 0.805631 0.451850
0.500572 0.805600 0.452003
0.508568 0.805692 0.452369
0.518181 0.805905 0.452888
0.529808 0.806210 0.453620
0.542870 0.806607 0.454627
0.557336 0.807065 0.455634
0.572900 0.807584 0.456764
0.589349 0.808011 0.457862
0.606226 0.808377 0.458961
0.623438 0.808621 0.459846
0.640833 0.808743 0.460609
0.658869 0.808804 0.461555
0.680476 0.808499 0.463539
0.702266 0.808377 0.465949
0.723964 0.808560 0.468635
0.745541 0.808988 0.471687
0.767086 0.809659 0.474922
0.788724 0.810361 0.478279
0.810880 0.811093 0.481819
0.833799 0.811551 0.485451
0.858000 0.811826 0.489113
0.883818 0.811887 0.493080
0.910155 0.811673 0.498177
0.925597 0.805264 0.508019
0.944854 0.803464 0.518181
0.963195 0.804074 0.529839
0.978637 0.806851 0.543359
0.523796 0.827359 0.472023
0.524804 0.827451 0.472145
0.526024 0.827451 0.472145
0.528313 0.827329 0.472084
0.532097 0.827176 0.472053
0.537163 0.826993 0.471962
0.543816 0.826902 0.472145
0.551873 0.826841 0.472419
0.561456 0.826902 0.472724
0.572381 0.827024 0.473213
0.584497 0.827207 0.473823
0.597559 0.827451 0.474525
0.611505 0.827726 0.475227
0.626123 0.828000 0.476081
0.641260 0.828244 0.476844
