其他预设/【232】美食博客调色预设124款/1.3D LUT预设（视频调色-PR-AE-PS-FCPX-达芬奇用）/Food Art #35.cube
# Created by Adobe Lightroom plugin Export LUT (1.17.0)
# www.johnrellis.com/lightroom/exportlut.htm
# Preset: Food Art #35
# Color profile: /Library/Application Support/Adobe/Color/Profiles/Recommended/AdobeRGB1998.icc
LUT_3D_SIZE 8
DOMAIN_MIN 0.000000 0.000000 0.000000
DOMAIN_MAX 0.903226 0.903226 0.903226
0.258152 0.240482 0.213809
0.240055 0.240085 0.211276
0.248203 0.231571 0.205783
0.329442 0.224338 0.200198
0.444099 0.210330 0.188754
0.563287 0.199069 0.179721
0.682582 0.198550 0.179873
0.828122 0.216617 0.195163
0.254887 0.222477 0.210910
0.241215 0.223392 0.209689
0.253147 0.231022 0.204318
0.337194 0.231724 0.196872
0.452277 0.224430 0.185946
0.570947 0.218357 0.178470
0.688930 0.221378 0.180667
0.833036 0.241184 0.197238
0.243259 0.240391 0.200809
0.245945 0.242557 0.199771
0.265293 0.248539 0.196323
0.343236 0.265904 0.188663
0.456916 0.274907 0.180209
0.572137 0.278233 0.176028
0.685054 0.284276 0.181369
0.829496 0.306493 0.199832
0.228824 0.328130 0.184207
0.241733 0.330175 0.183536
0.286137 0.334569 0.181460
0.355810 0.337224 0.178897
0.457740 0.350195 0.174838
0.571862 0.360754 0.175235
0.688685 0.372137 0.185275
0.834897 0.399725 0.208347
0.223972 0.445563 0.171817
0.242557 0.446571 0.171725
0.299351 0.448524 0.171725
0.380133 0.449836 0.172183
0.475502 0.453590 0.173648
0.582330 0.461372 0.179934
0.698939 0.474983 0.195560
0.843320 0.506554 0.223453
0.240208 0.560662 0.176516
0.258091 0.558679 0.176455
0.315251 0.559716 0.178103
0.396612 0.561089 0.181369
0.491005 0.563775 0.187015
0.591333 0.566857 0.194736
0.705135 0.580255 0.210727
0.849943 0.617609 0.243656
0.276707 0.682551 0.201450
0.293553 0.682338 0.201816
0.347631 0.684993 0.204990
0.427222 0.688380 0.210056
0.522210 0.693812 0.218296
0.624720 0.699641 0.228794
0.731899 0.707057 0.242771
0.862486 0.736019 0.273777
0.338994 0.839109 0.251316
0.354589 0.839872 0.252445
0.404273 0.841917 0.256107
0.479835 0.844388 0.262211
0.577661 0.855375 0.277348
0.680049 0.861357 0.291234
0.787564 0.868864 0.309270
0.899870 0.880980 0.334203
0.256779 0.237369 0.197910
0.240177 0.239231 0.197971
0.254887 0.221714 0.200320
0.337987 0.205234 0.194949
0.452979 0.195132 0.191806
0.572534 0.191409 0.191836
0.690639 0.199374 0.199680
0.835813 0.221988 0.219028
0.254673 0.223331 0.198398
0.239811 0.223392 0.198459
0.258000 0.221500 0.196811
0.341527 0.217655 0.193973
0.456794 0.213748 0.191196
0.576013 0.213565 0.192233
0.695247 0.223270 0.201205
0.840696 0.247013 0.221744
0.236820 0.243595 0.199741
0.237034 0.245396 0.195254
0.266117 0.249302 0.194217
0.347814 0.262730 0.191287
0.462501 0.272099 0.189792
0.578241 0.278019 0.192721
0.694881 0.288670 0.202914
0.838956 0.312932 0.224552
0.221897 0.333623 0.191318
0.234745 0.334356 0.189090
0.284367 0.337530 0.188815
0.361456 0.342321 0.188602
0.468116 0.355993 0.189425
0.581933 0.366064 0.194980
0.699184 0.378607 0.208560
0.844114 0.406653 0.233341
0.221561 0.446998 0.187228
0.240818 0.448310 0.187533
0.299687 0.450843 0.188327
0.383490 0.454078 0.189792
0.481086 0.458625 0.192905
0.587304 0.465339 0.201175
0.704280 0.479469 0.218235
0.848997 0.511742 0.246891
0.242863 0.563104 0.197269
0.261692 0.563256 0.197848
0.319066 0.564050 0.199741
0.400427 0.564752 0.202853
0.494301 0.566461 0.208225
0.593378 0.568444 0.215488
0.707790 0.582788 0.231998
0.853971 0.621668 0.265263
0.283574 0.687251 0.224613
0.300877 0.688563 0.225681
0.354040 0.690455 0.228214
0.432319 0.692439 0.232670
0.526024 0.696620 0.239994
0.628443 0.702846 0.250401
0.736477 0.711360 0.264469
0.868101 0.741604 0.295628
0.345617 0.842527 0.272496
0.360418 0.842741 0.273350
0.409216 0.844480 0.276616
0.483894 0.846616 0.282170
0.576471 0.851926 0.292149
0.679927 0.860044 0.306981
0.789120 0.869932 0.326055
0.902129 0.883207 0.350072
0.250736 0.233646 0.214115
0.251225 0.231540 0.214664
0.261234 0.218753 0.217197
0.341680 0.198764 0.231113
0.453010 0.183749 0.236332
0.569543 0.184665 0.243534
0.686763 0.203586 0.257267
0.832670 0.229984 0.280308
0.237186 0.224796 0.216159
0.239170 0.221592 0.216953
0.263645 0.217563 0.219303
0.345739 0.208133 0.230289
0.457160 0.202640 0.236515
0.572900 0.208835 0.245029
0.690181 0.227237 0.259464
0.835569 0.253361 0.282506
0.230716 0.248051 0.220645
0.234348 0.248539 0.221073
0.272190 0.253605 0.225650
0.351904 0.257633 0.229679
0.460243 0.265507 0.237247
0.574914 0.275700 0.247196
0.692439 0.292241 0.262547
0.838285 0.319402 0.286870
0.220493 0.333440 0.233433
0.232853 0.333684 0.232029
0.282139 0.337469 0.231327
0.362097 0.341314 0.233860
0.466529 0.352728 0.240604
0.578485 0.364355 0.251469
0.695583 0.380285 0.268193
0.841794 0.410315 0.294224
0.223819 0.448096 0.242069
0.241886 0.448096 0.241642
0.299687 0.448920 0.242039
0.382788 0.451118 0.244419
0.479042 0.455146 0.248478
0.585168 0.463935 0.259983
0.702846 0.480995 0.278813
0.848478 0.514946 0.307012
0.248264 0.562829 0.254917
0.267765 0.562402 0.255924
0.326024 0.562646 0.259922
0.405707 0.564111 0.263493
0.497749 0.566522 0.268925
0.595361 0.569177 0.275669
0.709529 0.585290 0.292058
0.854215 0.623835 0.322484
0.292454 0.685389 0.281163
0.311131 0.685817 0.283818
0.364202 0.688106 0.288579
0.440040 0.691554 0.293034
0.531395 0.696468 0.299809
0.630976 0.702235 0.308629
0.735225 0.709224 0.319432
0.865690 0.739956 0.346563
0.355688 0.842008 0.327642
0.371862 0.842924 0.329961
0.419226 0.845304 0.333165
0.490547 0.846403 0.336858
0.581323 0.852171 0.345678
0.682460 0.859770 0.357275
0.789761 0.869413 0.371832
0.901457 0.882109 0.390326
0.248508 0.225895 0.296452
0.255253 0.220645 0.295354
0.287694 0.207889 0.296147
0.353246 0.194766 0.298192
0.461616 0.182864 0.313329
0.576287 0.187076 0.323766
0.693477 0.213046 0.339422
0.838865 0.245182 0.367071
0.229465 0.219974 0.293797
0.241276 0.218051 0.293950
0.282963 0.212589 0.295811
0.353826 0.206668 0.298528
0.462715 0.202945 0.313481
0.577417 0.211673 0.325017
0.694881 0.237949 0.341802
0.840055 0.268315 0.369268
0.219638 0.261173 0.297978
0.231785 0.259312 0.298192
0.281254 0.257877 0.300237
0.360632 0.259373 0.303532
0.466102 0.266606 0.315068
0.576226 0.280247 0.326665
0.690242 0.303105 0.344152
0.838071 0.328740 0.370489
0.220584 0.338476 0.302770
0.235508 0.339117 0.303258
0.288487 0.341985 0.306188
0.377661 0.352850 0.316472
0.474800 0.358312 0.321935
0.581109 0.371374 0.334569
0.697169 0.390387 0.352331
0.843381 0.417945 0.377935
0.228885 0.447913 0.317876
0.247379 0.448585 0.318364
0.305760 0.450172 0.319982
0.390173 0.453254 0.324773
0.483070 0.456428 0.328527
0.585138 0.465797 0.341161
0.702296 0.485634 0.360357
0.849485 0.519646 0.388067
0.255833 0.561303 0.331914
0.273838 0.559503 0.331609
0.332891 0.559991 0.335637
0.414710 0.560723 0.343359
0.501732 0.563378 0.348394
0.595758 0.567590 0.355169
0.710231 0.587457 0.371954
0.856382 0.627070 0.399878
0.301488 0.686000 0.357275
0.319066 0.685634 0.358679
0.373541 0.685451 0.363989
0.449744 0.686976 0.371496
0.536126 0.692164 0.377142
0.632502 0.699184 0.384741
0.735409 0.708064 0.393988
0.868467 0.741939 0.416175
0.361181 0.841001 0.400366
0.376440 0.841062 0.401648
0.423835 0.842588 0.405158
0.493233 0.846098 0.407630
0.582391 0.852262 0.413916
0.682551 0.860136 0.422034
0.789670 0.869780 0.432136
0.901762 0.881834 0.446021
0.244633 0.212009 0.401373
0.257633 0.208225 0.400671
0.303441 0.197940 0.401312
0.377996 0.187533 0.401892
0.470802 0.182162 0.403845
0.581659 0.190158 0.414862
0.700038 0.217166 0.430823
0.846281 0.249729 0.462135
0.230442 0.215427 0.399878
0.246555 0.213870 0.398688
0.298222 0.209232 0.399664
0.377417 0.204990 0.401923
0.471534 0.203799 0.404364
0.581903 0.214633 0.415137
0.700099 0.241032 0.431678
0.846708 0.271885 0.463325
0.219272 0.265599 0.399939
0.237125 0.264530 0.399634
0.295842 0.264988 0.401465
0.379553 0.266819 0.403967
0.475715 0.270298 0.407446
0.584710 0.286259 0.418647
0.702388 0.310918 0.436774
0.849729 0.338140 0.468360
0.226078 0.353613 0.404944
0.244968 0.353826 0.405127
0.303807 0.354742 0.405982
0.388739 0.359014 0.409125
0.483497 0.363622 0.413092
0.586847 0.379767 0.423896
0.704036 0.400793 0.443549
0.852110 0.417762 0.468391
0.239078 0.453986 0.410773
0.258000 0.453925 0.410834
0.316594 0.455177 0.412085
0.401312 0.459388 0.416297
0.502037 0.471595 0.428351
0.594232 0.478157 0.434974
0.710994 0.493599 0.450019
0.858976 0.516197 0.471687
0.270451 0.565393 0.423957
0.289158 0.565362 0.424384
0.347234 0.565942 0.427161
0.429480 0.567193 0.432807
0.518151 0.571527 0.441413
0.604669 0.574090 0.444251
0.718227 0.592889 0.456214
0.865385 0.625788 0.478065
0.315251 0.688838 0.447578
0.332525 0.689265 0.448890
0.385565 0.690181 0.453040
0.459968 0.691737 0.458473
0.539635 0.696498 0.458991
0.635828 0.703182 0.463935
0.740597 0.712032 0.470558
0.878660 0.746578 0.492042
0.373938 0.846555 0.493660
0.388281 0.847166 0.494667
0.432410 0.849119 0.496620
0.491585 0.850065 0.491890
0.571832 0.856474 0.486976
0.677668 0.864286 0.494667
0.789761 0.873747 0.504692
0.905730 0.885527 0.518547
0.245396 0.201205 0.507927
0.261418 0.198825 0.507927
0.313512 0.192416 0.509422
0.392828 0.187350 0.510216
0.487098 0.187778 0.511711
0.587732 0.196017 0.513664
0.707179 0.221744 0.531609
0.854368 0.254612 0.568505
0.237919 0.213169 0.510674
0.255894 0.212253 0.510887
0.312230 0.210208 0.511559
0.393988 0.209323 0.512200
0.488838 0.212345 0.513268
0.589105 0.221378 0.514885
0.708370 0.246067 0.533013
0.855528 0.277348 0.570062
0.234073 0.272129 0.508324
0.253605 0.272587 0.508904
0.312688 0.274083 0.509972
0.395850 0.276860 0.510979
0.490730 0.282628 0.512902
0.589990 0.291814 0.515190
0.709071 0.314336 0.534874
0.856657 0.340734 0.572320
0.245457 0.362890 0.510521
0.265202 0.363806 0.510887
0.325505 0.367010 0.510826
0.405280 0.370214 0.510338
0.495308 0.374914 0.511894
0.590692 0.382727 0.515038
0.709377 0.402106 0.537255
0.858610 0.418280 0.572137
0.264714 0.464485 0.516258
0.283543 0.464790 0.516167
0.341314 0.466499 0.516075
0.422797 0.470771 0.516777
0.511284 0.477363 0.519921
0.601251 0.482338 0.524102
0.719539 0.493202 0.544366
0.868467 0.506218 0.571191
0.290806 0.569177 0.522759
0.307927 0.568627 0.522210
0.362036 0.568811 0.522484
0.439826 0.570214 0.524163
0.523735 0.575006 0.529107
0.619226 0.586206 0.540581
0.730678 0.593927 0.548455
0.876127 0.616480 0.570794
0.329046 0.689204 0.543694
0.344518 0.688869 0.543847
0.394690 0.689906 0.546288
0.463966 0.692622 0.549798
0.540276 0.698970 0.552209
0.634546 0.708248 0.554406
0.745480 0.715633 0.561120
0.886656 0.746059 0.584070
0.382116 0.848966 0.594537
0.395239 0.849699 0.595209
0.435706 0.852079 0.596490
0.493568 0.855528 0.594659
0.570550 0.861570 0.591089
0.668238 0.869322 0.587610
0.787472 0.877592 0.596979
0.908965 0.888579 0.610315
0.253086 0.195651 0.645228
0.271733 0.194919 0.644617
0.330236 0.193393 0.644892
0.414832 0.193484 0.645228
0.513390 0.198764 0.646601
0.618250 0.211582 0.648737
0.724758 0.231693 0.651728
0.868376 0.266087 0.691493
0.251286 0.217014 0.647028
0.270939 0.216892 0.646509
0.330755 0.217014 0.646815
0.416754 0.219272 0.647639
0.515984 0.225803 0.649226
0.621210 0.238529 0.651728
0.727932 0.257572 0.655024
0.872160 0.290990 0.695674
0.254948 0.286809 0.644800
0.274907 0.287236 0.644953
0.335332 0.289281 0.645869
0.420996 0.293278 0.647028
0.519554 0.300542 0.649195
0.623194 0.311070 0.651789
0.727504 0.324895 0.654383
0.871031 0.349706 0.695003
0.272068 0.383551 0.644739
0.292058 0.384863 0.645197
0.351049 0.388403 0.645716
0.431922 0.391669 0.646662
0.526390 0.397253 0.648951
0.626215 0.404273 0.651392
0.727779 0.411505 0.654414
0.872892 0.424414 0.695460
0.293706 0.490089 0.651850
0.312444 0.491096 0.652155
0.369177 0.493812 0.652644
0.447486 0.496468 0.652674
0.534203 0.496742 0.654597
0.631922 0.498634 0.658137
0.735531 0.500298 0.662318
0.880522 0.512535 0.698817
0.320531 0.600122 0.659297
0.337133 0.600427 0.659266
0.389075 0.601373 0.659297
0.459327 0.601617 0.659480
0.536828 0.599237 0.661341
0.632074 0.596979 0.664973
0.742763 0.600519 0.669764
0.888487 0.619074 0.701137
0.350774 0.710170 0.666987
0.364965 0.709865 0.666651
0.409552 0.709957 0.666835
0.470985 0.710506 0.667567
0.546746 0.713191 0.670649
0.642359 0.718685 0.676661
0.761990 0.731807 0.690761
0.899931 0.748867 0.708644
0.388678 0.855924 0.708949
0.400183 0.856504 0.709377
0.434913 0.856565 0.708370
0.492317 0.860136 0.709285
0.571435 0.866575 0.711696
0.669093 0.874601 0.713954
0.784665 0.884215 0.716884
0.913390 0.894072 0.729152
0.266545 0.205142 0.829435
0.288090 0.205295 0.829191
0.353857 0.207095 0.830381
0.446723 0.211276 0.831022
0.553124 0.221225 0.832456
0.665400 0.237369 0.834684
0.778866 0.259251 0.837217
0.892149 0.286320 0.841672
0.267765 0.232334 0.830961
0.289342 0.232731 0.830686
0.355352 0.234928 0.831601
0.448615 0.239902 0.832609
0.554986 0.249302 0.834012
0.667140 0.264103 0.836301
0.780697 0.284123 0.839292
0.893980 0.308019 0.843992
0.275639 0.311467 0.832303
0.296941 0.312078 0.832334
0.362280 0.314977 0.833707
0.453712 0.318883 0.833341
0.559167 0.326909 0.835264
0.670558 0.338659 0.838285
0.783047 0.352819 0.841428
0.895628 0.365606 0.846281
0.293400 0.416266 0.833494
0.313024 0.416632 0.833402
0.374731 0.418799 0.834531
0.462959 0.422034 0.835386
0.564965 0.426612 0.837095
0.673182 0.431830 0.840055
0.784024 0.435706 0.843748
0.897581 0.438025 0.849088
0.317479 0.531273 0.839689
0.334752 0.531029 0.839292
0.387610 0.530175 0.839658
0.458045 0.522210 0.839963
0.559716 0.522545 0.842679
0.669978 0.523552 0.846189
0.784604 0.525170 0.850065
0.901671 0.528588 0.854887
0.345068 0.650050 0.847837
0.360204 0.650172 0.848295
0.405798 0.649256 0.849424
0.470588 0.643977 0.850523
0.554162 0.634668 0.851408
0.661830 0.628687 0.852354
0.782376 0.630304 0.854795
0.904936 0.635340 0.859983
0.370977 0.769833 0.857145
0.383276 0.769924 0.857572
0.422553 0.769528 0.858824
0.485115 0.767697 0.859892
0.568170 0.764858 0.861540
0.667964 0.760922 0.863645
0.785122 0.758541 0.867002
0.913664 0.765347 0.873014
0.396704 0.892576 0.869749
0.407965 0.892973 0.870268
0.444617 0.893553 0.871000
0.504601 0.893614 0.871183
0.584833 0.894316 0.872221
0.682368 0.896239 0.874601
0.796048 0.900267 0.879332
0.925353 0.911040 0.891569
