其他预设/【232】美食博客调色预设124款/1.3D LUT预设（视频调色-PR-AE-PS-FCPX-达芬奇用）/Food Art #49.cube
# Created by Adobe Lightroom plugin Export LUT (1.17.0)
# www.johnrellis.com/lightroom/exportlut.htm
# Preset: Food Art #49
# Color profile: /Library/Application Support/Adobe/Color/Profiles/Recommended/AdobeRGB1998.icc
LUT_3D_SIZE 32
0.109163 0.124514 0.155459
0.110170 0.124544 0.155581
0.111666 0.124727 0.155673
0.115084 0.125032 0.156039
0.121004 0.125307 0.156466
0.129427 0.125704 0.156985
0.141787 0.126040 0.157565
0.158633 0.126192 0.157961
0.181399 0.125765 0.158175
0.211551 0.124483 0.158358
0.250706 0.120760 0.158236
0.299229 0.113313 0.157748
0.355657 0.099245 0.156588
0.418128 0.071901 0.155276
0.483833 0.000000 0.153353
0.549859 0.000000 0.151064
0.614160 0.000000 0.148440
0.675105 0.000000 0.145907
0.730922 0.000000 0.143404
0.795621 0.000000 0.141695
0.851225 0.000000 0.142061
0.895659 0.000000 0.145266
0.929656 0.000000 0.151583
0.955505 0.000000 0.161196
0.974670 0.000000 0.173098
0.988952 0.000000 0.187808
0.999451 0.000000 0.205356
1.000000 0.105165 0.226169
1.000000 0.160616 0.250278
1.000000 0.210056 0.278813
1.000000 0.259770 0.312383
1.000000 0.312566 0.351781
0.109133 0.125704 0.155673
0.110170 0.125734 0.155795
0.111666 0.125917 0.155886
0.115328 0.126192 0.156252
0.121004 0.126497 0.156680
0.129641 0.126864 0.157198
0.141604 0.127474 0.157595
0.158236 0.127840 0.158022
0.180606 0.127565 0.158389
0.210422 0.126619 0.158419
0.248844 0.123751 0.158297
0.296544 0.117342 0.157809
0.351995 0.104738 0.156863
0.413733 0.081758 0.155581
0.478676 0.007813 0.153597
0.544457 0.000000 0.151369
0.608301 0.000000 0.148653
0.669398 0.000000 0.146059
0.725612 0.000000 0.143709
0.789944 0.000000 0.141634
0.844968 0.000000 0.141604
0.889860 0.000000 0.144259
0.924712 0.000000 0.150393
0.951537 0.000000 0.159335
0.971679 0.000000 0.170657
0.986755 0.000000 0.185183
0.997986 0.000000 0.202121
1.000000 0.105531 0.222599
1.000000 0.159640 0.246647
1.000000 0.207919 0.274937
1.000000 0.256565 0.307958
1.000000 0.308415 0.346899
0.109316 0.127047 0.156008
0.110323 0.127321 0.156130
0.111849 0.127291 0.156222
0.115480 0.127718 0.156558
0.121096 0.128237 0.157015
0.129702 0.128786 0.157504
0.141695 0.129397 0.157748
0.158145 0.129793 0.158175
0.180209 0.130007 0.158389
0.209659 0.129580 0.158541
0.247868 0.127321 0.158389
0.294987 0.121920 0.157900
0.350286 0.111177 0.156924
0.411536 0.091615 0.155642
0.475959 0.050080 0.153841
0.541711 0.000000 0.151431
0.605249 0.000000 0.148928
0.666285 0.000000 0.146059
0.722835 0.000000 0.143618
0.787228 0.000000 0.141665
0.841917 0.000000 0.141329
0.886931 0.000000 0.144015
0.922179 0.000000 0.149844
0.949462 0.000000 0.158053
0.970031 0.000000 0.169711
0.985504 0.000000 0.183963
0.997070 0.019501 0.200900
1.000000 0.115114 0.221347
1.000000 0.164584 0.244968
1.000000 0.210910 0.273350
1.000000 0.257877 0.306157
1.000000 0.308873 0.345037
0.109529 0.130678 0.156619
0.110811 0.130709 0.156741
0.112276 0.130861 0.156985
0.115633 0.131350 0.157321
0.121767 0.131777 0.157595
0.130282 0.132692 0.157931
0.142580 0.133577 0.158175
0.159030 0.134524 0.158541
0.181064 0.135225 0.158694
0.210300 0.135775 0.158663
0.248264 0.134615 0.158450
0.294957 0.130892 0.158053
0.349401 0.123262 0.157015
0.409949 0.108553 0.155825
0.474098 0.084199 0.153933
0.539055 0.016114 0.151492
0.602625 0.000000 0.149020
0.663081 0.000000 0.145998
0.722011 0.000000 0.143526
0.783688 0.000000 0.141604
0.836942 0.000000 0.141207
0.881865 0.000000 0.143313
0.917845 0.000000 0.148592
0.946319 0.000000 0.157412
0.968109 0.000000 0.168826
0.984436 0.000000 0.183536
0.996429 0.095186 0.200992
1.000000 0.141634 0.222232
1.000000 0.182589 0.246281
1.000000 0.223728 0.274357
1.000000 0.267063 0.306920
1.000000 0.314824 0.345006
0.110018 0.136355 0.157504
0.110994 0.136599 0.157626
0.112764 0.136721 0.157717
0.116365 0.137148 0.158053
0.122377 0.137911 0.158297
0.131319 0.138705 0.158633
0.143404 0.140108 0.158816
0.159884 0.141665 0.158999
0.181704 0.143221 0.159121
0.210727 0.144778 0.159121
0.247959 0.145418 0.158816
0.294133 0.143984 0.158328
0.348089 0.139345 0.157321
0.407996 0.130007 0.156008
0.472084 0.115358 0.154055
0.537316 0.093233 0.151705
0.601251 0.060853 0.148836
0.662135 0.000000 0.145846
0.724300 0.000000 0.143374
0.783780 0.000000 0.141360
0.835538 0.000000 0.140902
0.879667 0.000000 0.143069
0.915557 0.000000 0.148531
0.944274 0.000000 0.157046
0.966430 0.073884 0.168856
0.983093 0.109468 0.183841
0.995361 0.141176 0.201633
1.000000 0.172305 0.222599
1.000000 0.205264 0.246891
1.000000 0.240635 0.274815
1.000000 0.279911 0.307439
1.000000 0.324590 0.345617
0.109987 0.145418 0.158419
0.111269 0.145602 0.158358
0.113283 0.145846 0.158450
0.117311 0.146334 0.158755
0.123964 0.147127 0.158999
0.133181 0.147982 0.159304
0.145388 0.149722 0.159609
0.162081 0.151888 0.159579
0.184268 0.154574 0.159701
0.213352 0.157290 0.159609
0.250767 0.159823 0.159243
0.296849 0.160647 0.158694
0.350347 0.159030 0.157626
0.410101 0.154330 0.156191
0.473671 0.146212 0.154147
0.538689 0.135134 0.151461
0.602441 0.122103 0.148714
0.663233 0.109865 0.145541
0.728603 0.100435 0.142611
0.786313 0.098177 0.140597
0.837186 0.101961 0.140658
0.880827 0.109560 0.143740
0.944579 0.152987 0.161410
0.966308 0.166629 0.174716
0.982147 0.181613 0.190463
0.993683 0.198093 0.208072
1.000000 0.217380 0.227726
1.000000 0.239506 0.250309
1.000000 0.265446 0.275944
1.000000 0.295567 0.304845
1.000000 0.330571 0.338262
1.000000 0.371466 0.377081
0.109255 0.160494 0.159060
0.111025 0.160769 0.159152
0.113527 0.161105 0.159213
0.118532 0.161715 0.159365
0.126650 0.162661 0.159548
0.137575 0.163882 0.159884
0.151125 0.165591 0.160281
0.168612 0.167971 0.160586
0.192721 0.171939 0.160464
0.224399 0.176425 0.160159
0.264500 0.180850 0.159670
0.312871 0.184054 0.158724
0.367956 0.185122 0.157534
0.428168 0.184176 0.155642
0.491035 0.180880 0.153384
0.554040 0.176638 0.150515
0.615869 0.172091 0.147463
0.681819 0.170108 0.144137
0.745632 0.172519 0.141115
0.802487 0.176120 0.140383
0.853605 0.183627 0.141787
0.897307 0.192508 0.146822
0.932280 0.202762 0.156954
0.958831 0.213535 0.170565
0.977813 0.224979 0.187839
0.990906 0.237308 0.207095
0.999847 0.251926 0.227817
1.000000 0.269017 0.250401
1.000000 0.290043 0.276371
1.000000 0.315648 0.305241
1.000000 0.346410 0.338445
1.000000 0.383551 0.376837
0.108217 0.179171 0.159640
0.110292 0.179355 0.159731
0.113069 0.179751 0.159640
0.119020 0.180484 0.159884
0.128145 0.181582 0.160037
0.140261 0.182895 0.160494
0.155245 0.184634 0.160800
0.173190 0.186954 0.161440
0.196201 0.190524 0.161624
0.228153 0.196567 0.161227
0.268650 0.202731 0.160586
0.316686 0.208652 0.159396
0.371313 0.212924 0.157809
0.430701 0.215518 0.155825
0.492836 0.216739 0.153262
0.555138 0.216648 0.150210
0.619562 0.218021 0.146853
0.686976 0.222293 0.143191
0.746792 0.227481 0.140352
0.801297 0.233066 0.139956
0.850889 0.240085 0.141482
0.893767 0.247684 0.147066
0.928588 0.255344 0.156954
0.955322 0.262577 0.171084
0.974731 0.269841 0.188357
0.988342 0.277958 0.207767
0.997711 0.288090 0.228611
1.000000 0.300847 0.251652
1.000000 0.317723 0.277470
1.000000 0.338994 0.306615
1.000000 0.366064 0.339940
1.000000 0.399542 0.378454
0.106020 0.204532 0.160006
0.108431 0.204562 0.160098
0.112001 0.204959 0.160159
0.118959 0.205722 0.160372
0.129732 0.207065 0.160555
0.143526 0.208652 0.160922
0.160403 0.210758 0.161227
0.180453 0.213321 0.161746
0.204318 0.216495 0.162234
0.234043 0.221561 0.162448
0.274876 0.229770 0.161379
0.323369 0.237797 0.159884
0.377844 0.244846 0.158053
0.436744 0.250401 0.155825
0.497902 0.254765 0.152895
0.562066 0.259464 0.149508
0.630488 0.266514 0.145510
0.693385 0.273594 0.141878
0.749905 0.279545 0.139834
0.802426 0.286137 0.139071
0.850431 0.292912 0.141634
0.892180 0.299626 0.147646
0.926390 0.305241 0.158328
0.952911 0.310033 0.173281
0.972320 0.314824 0.190982
0.986084 0.319585 0.210666
0.995697 0.326207 0.231754
1.000000 0.335485 0.255039
1.000000 0.348455 0.281163
1.000000 0.365942 0.310307
1.000000 0.389044 0.343297
1.000000 0.418891 0.381842
0.101808 0.237308 0.160159
0.104860 0.237491 0.160220
0.109041 0.237980 0.160220
0.117678 0.238682 0.160250
0.130434 0.240024 0.160525
0.146334 0.241794 0.160769
0.165682 0.244114 0.161074
0.187991 0.246983 0.161532
0.214084 0.250523 0.161959
0.244572 0.254459 0.162387
0.281041 0.260258 0.162448
0.329412 0.270146 0.160586
0.383825 0.279606 0.158419
0.442847 0.287907 0.155520
0.508751 0.297520 0.152224
0.577050 0.307744 0.148043
0.642298 0.317479 0.143709
0.702541 0.325628 0.140383
0.756649 0.332586 0.138613
0.806577 0.338903 0.139071
0.852140 0.344945 0.142184
0.891386 0.349432 0.149538
0.923919 0.352728 0.160586
0.949584 0.355108 0.175326
0.968933 0.357031 0.193179
0.983062 0.359533 0.212619
0.993133 0.363439 0.234318
0.999908 0.369970 0.258274
1.000000 0.380102 0.285283
1.000000 0.394781 0.315373
1.000000 0.415229 0.349432
1.000000 0.442420 0.388800
0.094148 0.276707 0.159426
0.097658 0.277073 0.159457
0.103334 0.277592 0.159426
0.113771 0.278660 0.159640
0.129122 0.280095 0.159670
0.147860 0.282506 0.159976
0.170260 0.285252 0.160342
0.195499 0.288640 0.160525
0.225010 0.292424 0.160769
0.258213 0.296818 0.161074
0.295293 0.301457 0.161318
0.337591 0.307317 0.161227
0.393988 0.319829 0.158419
0.457984 0.333532 0.154696
0.523827 0.345800 0.150820
0.588403 0.357061 0.146670
0.650172 0.367224 0.142428
0.707271 0.375677 0.139406
0.759121 0.382361 0.138277
0.807431 0.388190 0.139406
0.851621 0.393469 0.143709
0.890105 0.397131 0.151797
0.922118 0.399573 0.163668
0.947509 0.400244 0.179812
0.966674 0.400366 0.198276
0.980743 0.400580 0.218296
0.990845 0.401984 0.239780
0.997711 0.405768 0.264012
1.000000 0.413123 0.291020
1.000000 0.424598 0.321019
1.000000 0.441718 0.355413
0.999695 0.465797 0.394903
0.079347 0.324895 0.157565
0.085115 0.325170 0.157717
0.092164 0.325750 0.157778
0.105959 0.326665 0.157839
0.125368 0.328618 0.157809
0.147982 0.330907 0.157961
0.173892 0.334173 0.158175
0.203037 0.337682 0.158358
0.235966 0.342107 0.158419
0.272496 0.346807 0.158541
0.312871 0.351995 0.158755
0.361883 0.362219 0.158267
0.448859 0.399451 0.155398
0.515984 0.415320 0.150820
0.581323 0.428748 0.146365
0.643671 0.440345 0.142031
0.700832 0.448920 0.139498
0.751766 0.454383 0.138827
0.797543 0.457465 0.141451
0.839872 0.459968 0.146181
0.877195 0.460792 0.154757
0.908995 0.460365 0.166934
0.935058 0.458228 0.181735
0.955596 0.455390 0.199466
0.971252 0.452369 0.218997
0.982879 0.450141 0.239628
0.991150 0.449195 0.261997
0.996643 0.450813 0.285985
0.999786 0.455726 0.312688
1.000000 0.464942 0.342901
0.999420 0.479591 0.377203
0.996002 0.501122 0.416693
0.028138 0.390387 0.153231
0.050660 0.390784 0.153201
0.067872 0.390631 0.153384
0.090455 0.391180 0.153414
0.117739 0.391730 0.153414
0.146487 0.392950 0.153780
0.177798 0.395300 0.153933
0.211978 0.398444 0.153964
0.249577 0.402899 0.154116
0.294774 0.413825 0.153384
0.345403 0.425818 0.152743
0.401129 0.438483 0.152041
0.460609 0.451148 0.151125
0.521080 0.462684 0.150698
0.586664 0.478004 0.146029
0.647852 0.490089 0.142214
0.703090 0.498054 0.140139
0.752010 0.502251 0.140536
0.796475 0.504631 0.143709
0.837400 0.505882 0.149752
0.873899 0.505760 0.158968
0.905272 0.503960 0.171847
0.931090 0.500755 0.187137
0.951690 0.496712 0.204715
0.967559 0.492134 0.224186
0.979461 0.488045 0.245121
0.988037 0.485298 0.267613
0.993835 0.484779 0.291936
0.997192 0.487312 0.318883
0.998291 0.494209 0.349401
0.997131 0.506432 0.384283
0.993805 0.525200 0.424140
0.000000 0.448493 0.147921
0.000000 0.448798 0.148043
0.000000 0.448829 0.148196
0.065431 0.449165 0.148226
0.104463 0.449592 0.148470
0.141268 0.452461 0.148501
0.179507 0.457465 0.148409
0.219913 0.463325 0.148043
0.263615 0.470558 0.147768
0.311711 0.479103 0.147311
0.363775 0.488930 0.146853
0.419989 0.499519 0.146029
0.478370 0.510155 0.145571
0.536767 0.519951 0.145785
0.593317 0.528252 0.146609
0.651423 0.538628 0.143343
0.704311 0.545373 0.142428
0.751705 0.548821 0.144015
0.795071 0.550286 0.147585
0.835233 0.550805 0.154879
0.871061 0.549889 0.164584
0.902068 0.547265 0.177890
0.927703 0.543084 0.194125
0.948302 0.537743 0.212222
0.964263 0.531945 0.231815
0.976257 0.526360 0.253513
0.984985 0.521904 0.276310
0.990936 0.519585 0.300908
0.994415 0.520226 0.328038
0.995575 0.524926 0.359075
0.994446 0.534966 0.394446
0.991089 0.551568 0.435004
0.000000 0.519677 0.140047
0.000000 0.520470 0.140444
0.000000 0.520562 0.140200
0.000000 0.521324 0.140475
0.086122 0.522240 0.140383
0.136507 0.523919 0.140658
0.182010 0.526726 0.140749
0.227848 0.530480 0.140902
0.275364 0.535882 0.140780
0.326207 0.542626 0.140352
0.379583 0.550561 0.140597
0.436194 0.559472 0.140230
0.494026 0.568414 0.140352
0.550958 0.576593 0.141512
0.605676 0.583368 0.143282
0.656855 0.588190 0.145998
0.706966 0.593042 0.146365
0.752651 0.595209 0.148745
0.794644 0.595697 0.153628
0.833707 0.595270 0.161044
0.868620 0.593256 0.171572
0.898985 0.589532 0.185641
0.924346 0.584192 0.201877
0.944823 0.577722 0.220798
0.960845 0.570794 0.240970
0.973053 0.564080 0.263035
0.981964 0.558526 0.286625
0.987976 0.555138 0.313207
0.991424 0.554681 0.342107
0.992370 0.558343 0.374823
0.990936 0.567376 0.412329
0.987091 0.583032 0.455238
0.000000 0.590417 0.131807
0.000000 0.591211 0.132113
0.000000 0.591638 0.132021
0.000000 0.592035 0.132357
0.060670 0.593042 0.132326
0.132204 0.594537 0.132906
0.186343 0.596918 0.133272
0.238163 0.600336 0.133150
0.289952 0.604364 0.133577
0.342657 0.609339 0.134279
0.397375 0.614466 0.134890
0.452613 0.619928 0.135744
0.507469 0.625055 0.137728
0.560967 0.629541 0.139925
0.612329 0.633295 0.143038
0.661433 0.636316 0.146792
0.708400 0.638758 0.151278
0.753048 0.640375 0.155184
0.794766 0.640528 0.161410
0.833524 0.639918 0.169802
0.868101 0.637232 0.181674
0.897978 0.632837 0.196597
0.922850 0.626490 0.214298
0.942901 0.618860 0.233494
0.958587 0.610681 0.254856
0.970489 0.602808 0.277745
0.979126 0.596033 0.302251
0.984924 0.591211 0.329381
0.988098 0.589349 0.359106
0.988891 0.591211 0.391974
0.987304 0.598138 0.429358
0.983398 0.611322 0.471778
0.000000 0.652247 0.126467
0.000000 0.652399 0.125948
0.000000 0.652338 0.126253
0.000000 0.652644 0.126925
0.012024 0.653071 0.127260
0.129580 0.653986 0.127932
0.189731 0.655299 0.128542
0.244724 0.657374 0.129152
0.298131 0.659998 0.130648
0.351873 0.663233 0.132021
0.406561 0.667048 0.134005
0.461067 0.670985 0.136385
0.515129 0.674739 0.138979
0.566918 0.678004 0.142824
0.616632 0.680385 0.147036
0.663905 0.681941 0.152102
0.709316 0.683009 0.157595
0.753414 0.684260 0.163302
0.794461 0.684047 0.170047
0.832059 0.682246 0.179782
0.865721 0.678645 0.191806
0.895048 0.673213 0.207462
0.919554 0.665919 0.225254
0.939483 0.657374 0.244938
0.955108 0.648096 0.267002
0.967041 0.639063 0.290471
0.975708 0.631128 0.316014
0.981476 0.625147 0.343389
0.984588 0.621851 0.374151
0.985260 0.622370 0.408118
0.983520 0.627771 0.446326
0.979339 0.639521 0.490120
0.000000 0.708186 0.126162
0.000000 0.709010 0.126101
0.000000 0.736294 0.130587
0.000000 0.736049 0.130617
0.060731 0.735714 0.131685
0.149081 0.735256 0.132845
0.211978 0.734798 0.134188
0.268009 0.734798 0.136172
0.323674 0.735103 0.138155
0.378363 0.736141 0.141207
0.432471 0.737362 0.144747
0.485817 0.738582 0.148562
0.537163 0.739376 0.152865
0.586603 0.739956 0.158114
0.633936 0.740169 0.164004
0.679377 0.739773 0.169497
0.722896 0.739101 0.175692
0.764736 0.738277 0.182254
0.805173 0.737697 0.190066
0.841367 0.734279 0.199680
0.871824 0.727352 0.212772
0.898528 0.719234 0.228580
0.921080 0.709529 0.246433
0.939178 0.698787 0.266728
0.953399 0.687434 0.287541
0.964324 0.676509 0.309667
0.972412 0.666590 0.333654
0.977874 0.658717 0.360601
0.980896 0.653773 0.390723
0.981445 0.652613 0.424781
0.979583 0.656428 0.463722
0.975250 0.666163 0.507622
0.000000 0.764187 0.134951
0.000000 0.767544 0.136019
0.000000 0.770809 0.137881
0.000000 0.773617 0.139071
0.075685 0.775631 0.141268
0.158145 0.776181 0.143038
0.219181 0.776120 0.144350
0.274998 0.775753 0.146487
0.329534 0.775784 0.149172
0.382513 0.775998 0.152316
0.435462 0.776394 0.156558
0.486976 0.776852 0.160983
0.536675 0.776852 0.165713
0.584405 0.776608 0.171633
0.630243 0.775814 0.177401
0.674159 0.774716 0.183230
0.716335 0.773342 0.190127
0.757076 0.771939 0.196689
0.796628 0.770871 0.205173
0.835203 0.770199 0.213504
0.868894 0.766079 0.225406
0.895354 0.757259 0.242283
0.917632 0.746822 0.260624
0.935637 0.735195 0.281315
0.949767 0.722988 0.302770
0.960662 0.711025 0.325750
0.968688 0.700069 0.350439
0.974029 0.691066 0.377905
0.976928 0.684779 0.408362
0.977356 0.682216 0.443153
0.975341 0.684413 0.482460
0.970855 0.692500 0.526940
0.000000 0.804471 0.148287
0.000000 0.807126 0.149966
0.000000 0.809812 0.152285
0.000000 0.811948 0.154177
0.106264 0.813413 0.156039
0.174197 0.813626 0.158053
0.231144 0.813230 0.159915
0.284245 0.812619 0.162203
0.336736 0.812222 0.165255
0.387823 0.811887 0.169162
0.438727 0.811704 0.173709
0.488502 0.811429 0.178347
0.536248 0.810758 0.183749
0.582208 0.809903 0.189914
0.626398 0.808499 0.196170
0.668910 0.806851 0.202335
0.709773 0.805051 0.209079
0.749264 0.803159 0.216434
0.787655 0.801480 0.224094
0.825040 0.800290 0.233463
0.861418 0.799344 0.243778
0.892699 0.794949 0.257786
0.914641 0.783505 0.276768
0.932311 0.770840 0.297642
0.946197 0.757534 0.319890
0.956878 0.744503 0.342718
0.964752 0.732357 0.367834
0.970001 0.722103 0.395392
0.972808 0.714473 0.426246
0.973144 0.710414 0.461311
0.971069 0.710933 0.500664
0.966491 0.717189 0.545312
0.000000 0.839261 0.167666
0.000000 0.841367 0.169986
0.000000 0.843412 0.172366
0.067872 0.845090 0.174899
0.141085 0.845975 0.177127
0.195804 0.845975 0.179294
0.246494 0.845335 0.181765
0.295964 0.844450 0.183810
0.345373 0.843534 0.187015
0.393835 0.842649 0.190616
0.442267 0.841825 0.194675
0.489204 0.840909 0.200168
0.534997 0.839689 0.205417
0.579034 0.838346 0.211826
0.621820 0.836820 0.218326
0.663142 0.835172 0.225315
0.703243 0.833585 0.233188
0.742184 0.832120 0.242344
0.780056 0.830900 0.252018
0.816861 0.829862 0.263493
0.852354 0.829038 0.275547
0.886717 0.828214 0.288945
0.915435 0.823362 0.305394
0.931975 0.809293 0.328252
0.944823 0.794675 0.351812
0.954437 0.780453 0.376532
0.961273 0.767330 0.402747
0.965576 0.756222 0.431556
0.967498 0.747799 0.463172
0.967010 0.743069 0.499275
0.964141 0.742916 0.539422
0.958984 0.748165 0.583673
0.045411 0.875334 0.202274
0.081788 0.876005 0.203616
0.106630 0.876493 0.204685
0.143862 0.876677 0.205997
0.185519 0.876493 0.207706
0.227939 0.875822 0.209445
0.271611 0.874937 0.211704
0.316045 0.873960 0.214176
0.361486 0.873014 0.217777
0.406928 0.872007 0.221836
0.452003 0.871031 0.227512
0.496437 0.869749 0.233127
0.539452 0.868162 0.238773
0.581018 0.866331 0.245243
0.621393 0.864286 0.251774
0.660639 0.862028 0.259190
0.698695 0.859770 0.266667
0.735592 0.857542 0.275486
0.771328 0.855406 0.285100
0.805936 0.853361 0.295262
0.839353 0.851347 0.307042
0.871458 0.849424 0.319188
0.902312 0.847379 0.332494
0.928405 0.842130 0.348119
0.940856 0.826230 0.371252
0.950225 0.810880 0.396307
0.956939 0.796689 0.422797
0.961120 0.784390 0.451789
0.962860 0.774746 0.484504
0.962280 0.768582 0.520134
0.959350 0.766781 0.560143
0.954162 0.770108 0.603937
0.147005 0.897154 0.232578
0.158846 0.897612 0.233799
0.171633 0.898009 0.235691
0.195621 0.898039 0.236851
0.225742 0.897704 0.238560
0.259922 0.896880 0.240177
0.296300 0.895842 0.242252
0.335302 0.894560 0.244388
0.375952 0.893248 0.247776
0.417304 0.891875 0.251926
0.458747 0.890501 0.256779
0.499733 0.888914 0.262486
0.539818 0.887083 0.268467
0.579156 0.885008 0.274998
0.617365 0.882841 0.281956
0.654627 0.880491 0.289220
0.690913 0.878111 0.297276
0.726101 0.875731 0.306401
0.760281 0.873350 0.316320
0.793362 0.871031 0.327520
0.825254 0.868742 0.339574
0.855894 0.866484 0.352880
0.885283 0.864225 0.366552
0.913207 0.861906 0.381170
0.936309 0.855650 0.388525
0.945708 0.839231 0.412848
0.952453 0.823911 0.439796
0.956634 0.810391 0.469093
0.958404 0.799435 0.501732
0.957855 0.791714 0.537743
0.954955 0.788174 0.577447
0.949706 0.789700 0.621546
0.226505 0.916594 0.276066
0.234073 0.916930 0.277958
0.242893 0.917021 0.279301
0.258457 0.916716 0.280247
0.279393 0.916045 0.281010
0.305028 0.915038 0.282261
0.333806 0.913756 0.283024
0.365759 0.912200 0.284672
0.399786 0.910460 0.286748
0.435126 0.908659 0.290013
0.471382 0.906645 0.293339
0.507805 0.904631 0.298009
0.544121 0.902403 0.303075
0.579980 0.899962 0.308415
0.614862 0.897276 0.314000
0.649195 0.894499 0.320226
0.682856 0.891630 0.326787
0.715816 0.888853 0.334844
0.748135 0.886259 0.344671
0.779721 0.883726 0.355688
0.810178 0.881315 0.368261
0.839414 0.878782 0.381781
0.867277 0.876219 0.395453
0.893736 0.873503 0.409003
0.918761 0.870726 0.422736
0.941497 0.866972 0.436957
0.947906 0.850462 0.463233
0.951934 0.835660 0.491768
0.953613 0.823301 0.523583
0.953033 0.814084 0.558801
0.950134 0.808896 0.597986
0.944945 0.808499 0.641230
0.280217 0.927184 0.310796
0.286625 0.927306 0.312993
0.293462 0.927306 0.314305
0.305211 0.927001 0.315404
0.321721 0.926360 0.316381
0.342290 0.925414 0.317266
0.366461 0.924254 0.318822
0.393347 0.922911 0.320287
0.422797 0.921324 0.323003
0.454017 0.919615 0.326299
0.486183 0.917784 0.330419
0.519219 0.915801 0.335698
0.552331 0.913634 0.341314
0.585168 0.911284 0.346990
0.617487 0.908751 0.353185
0.649134 0.906065 0.359411
0.680354 0.903319 0.367010
0.711055 0.900511 0.374945
0.741238 0.897734 0.384863
0.770657 0.894987 0.396063
0.799100 0.892241 0.408545
0.826383 0.889494 0.422248
0.852384 0.886687 0.435920
0.877012 0.883818 0.449744
0.900328 0.880949 0.463752
0.922271 0.878050 0.477790
0.942962 0.875242 0.492287
0.946838 0.859678 0.521263
0.948180 0.846250 0.552911
0.947356 0.835843 0.587518
0.944213 0.829343 0.626368
0.938903 0.827329 0.668482
0.338598 0.934569 0.352331
0.343389 0.934539 0.354040
0.347906 0.934417 0.354528
0.356481 0.934020 0.355169
0.368627 0.933379 0.355871
0.384161 0.932494 0.356237
0.403204 0.931365 0.357244
0.425147 0.930053 0.358618
0.449836 0.928588 0.361059
0.476417 0.926940 0.364385
0.504601 0.925139 0.368719
0.533898 0.923186 0.374029
0.563531 0.921080 0.379767
0.593256 0.918761 0.386145
0.622461 0.916289 0.392248
0.651301 0.913664 0.398932
0.679866 0.910948 0.405859
0.708034 0.908141 0.414069
0.735836 0.905333 0.423529
0.763058 0.902495 0.434730
0.789487 0.899626 0.446998
0.814878 0.896757 0.460456
0.839078 0.893828 0.474189
0.861967 0.890929 0.488319
0.883574 0.888029 0.502373
0.903868 0.885130 0.516533
0.922820 0.882292 0.531334
0.940490 0.879576 0.546075
0.943297 0.866300 0.575708
0.942412 0.854520 0.609918
0.939361 0.846372 0.647303
0.934234 0.842527 0.687984
0.391821 0.938262 0.392767
0.395178 0.938140 0.393774
0.399145 0.937987 0.394781
0.405554 0.937652 0.395300
0.415869 0.937072 0.396521
0.429419 0.936278 0.398260
0.446601 0.935332 0.401373
0.466560 0.934203 0.405463
0.489204 0.932860 0.410681
0.513695 0.931334 0.417151
0.539361 0.929595 0.424201
0.565820 0.927703 0.432197
0.592279 0.925628 0.440192
0.618463 0.923369 0.448402
0.644221 0.920958 0.456336
0.669306 0.918456 0.463722
0.694026 0.915831 0.471290
0.718532 0.913085 0.479957
0.742855 0.910277 0.489967
0.766690 0.907408 0.500816
0.789822 0.904509 0.513451
0.812070 0.901579 0.526452
0.833158 0.898650 0.539788
0.853086 0.895750 0.553613
0.871794 0.892912 0.567346
0.889220 0.890135 0.580987
0.905455 0.887449 0.594781
0.920378 0.884855 0.608789
0.933867 0.882444 0.623835
0.934874 0.872160 0.653651
0.931518 0.863249 0.688869
0.926421 0.858244 0.725856
0.467659 0.938506 0.454444
0.469978 0.938354 0.455207
0.472206 0.938231 0.455543
0.476478 0.937896 0.455818
0.483375 0.937377 0.456580
0.492561 0.936706 0.457313
0.504479 0.935790 0.459174
0.518791 0.934722 0.461707
0.535607 0.933379 0.465705
0.554284 0.931884 0.470344
0.574121 0.930175 0.475471
0.595270 0.928313 0.481666
0.616876 0.926299 0.488167
0.638758 0.924102 0.495247
0.660609 0.921843 0.502190
0.682490 0.919432 0.509575
