其他预设/【232】美食博客调色预设124款/1.3D LUT预设（视频调色-PR-AE-PS-FCPX-达芬奇用）/Food Art #70.cube
# Created by Adobe Lightroom plugin Export LUT (1.17.0)
# www.johnrellis.com/lightroom/exportlut.htm
# Preset: Food Art #70
# Color profile: /Library/Application Support/Adobe/Color/Profiles/Recommended/AdobeRGB1998.icc
LUT_3D_SIZE 5
DOMAIN_MIN 0.000000 0.000000 0.000000
DOMAIN_MAX 0.903226 0.903226 0.903226
0.094484 0.183810 0.195804
0.190219 0.221469 0.230594
0.355444 0.278111 0.284306
0.559838 0.350408 0.357855
0.757321 0.452216 0.453895
0.127321 0.300816 0.254032
0.214054 0.317906 0.273259
0.373144 0.347082 0.313725
0.569635 0.400977 0.377630
0.764340 0.491035 0.470039
0.219242 0.478309 0.348577
0.279057 0.485359 0.358465
0.440436 0.512413 0.393500
0.604395 0.531273 0.435737
0.777615 0.591272 0.513695
0.373510 0.645991 0.451179
0.410681 0.648676 0.457557
0.517571 0.656855 0.478614
0.654627 0.671138 0.513268
0.807309 0.711421 0.574578
0.586542 0.800107 0.574853
0.605829 0.801511 0.579004
0.665126 0.804990 0.591821
0.759884 0.818265 0.620996
0.862058 0.838590 0.662593
0.078431 0.195651 0.277440
0.181674 0.232364 0.300053
0.354253 0.297002 0.344732
0.554376 0.366247 0.400824
0.751583 0.461280 0.477485
0.126802 0.301640 0.316838
0.208865 0.318791 0.331334
0.372503 0.358434 0.366186
0.564721 0.411170 0.414984
0.756771 0.496101 0.489937
0.225467 0.477424 0.386725
0.286717 0.484504 0.397101
0.433906 0.506828 0.422614
0.598444 0.531609 0.459937
0.775296 0.594415 0.530205
0.383368 0.644587 0.473091
0.422278 0.647089 0.480781
0.523369 0.655207 0.499367
0.654292 0.669917 0.529351
0.807004 0.711879 0.585687
0.589502 0.799252 0.585412
0.608331 0.800687 0.589288
0.670680 0.807126 0.604150
0.762387 0.819394 0.630915
0.863401 0.839597 0.670710
0.058564 0.221927 0.402502
0.171206 0.246708 0.414588
0.355535 0.304906 0.444770
0.558221 0.375799 0.480537
0.753231 0.473945 0.534936
0.131960 0.311803 0.427375
0.209140 0.326482 0.435401
0.377752 0.366552 0.459327
0.568261 0.423011 0.490822
0.757992 0.506950 0.543999
0.238529 0.478859 0.472999
0.297063 0.486305 0.478614
0.440009 0.508354 0.496193
0.600122 0.541344 0.524041
0.776242 0.595789 0.570977
0.395666 0.642237 0.527092
0.433661 0.643305 0.532097
0.534936 0.651728 0.549126
0.656611 0.669001 0.571160
0.808469 0.711330 0.616510
0.592004 0.796872 0.616693
0.610925 0.798917 0.620325
0.668177 0.805783 0.630640
0.760250 0.818021 0.654078
0.862821 0.838407 0.690181
0.095369 0.251316 0.532769
0.191623 0.268711 0.538598
0.369635 0.318334 0.555230
0.566247 0.386206 0.576837
0.761349 0.483436 0.615045
0.157565 0.327947 0.545251
0.228519 0.339300 0.549340
0.390112 0.375830 0.562615
0.575280 0.430488 0.581506
0.764126 0.512230 0.619257
0.269169 0.481453 0.569787
0.320653 0.488899 0.572778
0.450721 0.510033 0.581842
0.603906 0.541772 0.596857
0.779965 0.588403 0.633417
0.423255 0.641749 0.605371
0.455970 0.643641 0.607172
0.542870 0.651728 0.614893
0.660334 0.667903 0.630518
0.812528 0.701045 0.662806
0.600031 0.796506 0.673243
0.616602 0.798245 0.675593
0.668544 0.805386 0.683101
0.752346 0.818479 0.695460
0.864714 0.839200 0.727901
0.166506 0.283726 0.681971
0.242100 0.298161 0.684199
0.409155 0.344335 0.691981
0.599176 0.413825 0.704341
0.774533 0.497169 0.721492
0.200687 0.345830 0.685573
0.266728 0.357031 0.687526
0.424323 0.393835 0.694636
0.607080 0.451667 0.706172
0.777523 0.522637 0.723568
0.298497 0.491707 0.697383
0.336156 0.492653 0.697902
0.467353 0.512718 0.703365
0.631403 0.548333 0.714382
0.791073 0.592279 0.733852
0.472023 0.663478 0.723842
0.492439 0.663661 0.724178
0.553338 0.662074 0.726528
0.663844 0.664485 0.734249
0.820035 0.699001 0.758114
0.622705 0.808164 0.765499
0.635035 0.808957 0.766506
0.678737 0.812985 0.771481
0.753841 0.821134 0.781430
0.865812 0.839322 0.802762
