其他预设/【232】美食博客调色预设124款/1.3D LUT预设（视频调色-PR-AE-PS-FCPX-达芬奇用）/Food Art #17.cube
# Created by Adobe Lightroom plugin Export LUT (1.17.0)
# www.johnrellis.com/lightroom/exportlut.htm
# Preset: Food Art #17
# Color profile: /Library/Application Support/Adobe/Color/Profiles/Recommended/AdobeRGB1998.icc
LUT_3D_SIZE 32
0.065248 0.087251 0.090913
0.065248 0.087251 0.090913
0.079072 0.085725 0.091035
0.121248 0.077485 0.090394
0.159548 0.074525 0.090547
0.196078 0.079408 0.089723
0.233249 0.086000 0.087800
0.271214 0.092988 0.085389
0.310002 0.100862 0.083406
0.349462 0.107240 0.085817
0.389532 0.113588 0.090303
0.429786 0.120638 0.097566
0.470405 0.127657 0.104402
0.510887 0.133577 0.110628
0.551202 0.138857 0.116548
0.590936 0.143771 0.121675
0.630121 0.147585 0.128023
0.668574 0.151492 0.133822
0.705989 0.155642 0.139376
0.745998 0.159518 0.146700
0.783169 0.164584 0.154177
0.817319 0.169833 0.161959
0.848753 0.175174 0.169986
0.878416 0.181643 0.178042
0.906798 0.187503 0.185946
0.933959 0.193881 0.195102
0.960174 0.201114 0.203677
0.985351 0.208988 0.212711
1.000000 0.217899 0.222995
1.000000 0.227939 0.233890
1.000000 0.238926 0.245792
1.000000 0.251591 0.258671
0.065248 0.087251 0.090913
0.065034 0.087892 0.091157
0.080751 0.087984 0.090547
0.121309 0.091981 0.089845
0.159182 0.094942 0.089845
0.195560 0.099001 0.088136
0.232883 0.103151 0.086275
0.270512 0.109255 0.084108
0.309392 0.114473 0.084108
0.348608 0.120211 0.085908
0.388525 0.125734 0.091279
0.428748 0.131930 0.097719
0.469245 0.137697 0.104891
0.509728 0.143069 0.111543
0.549798 0.148043 0.117037
0.589441 0.152255 0.122591
0.628595 0.155703 0.128389
0.666987 0.159640 0.134005
0.704402 0.163027 0.140078
0.744198 0.167056 0.146639
0.781064 0.171450 0.153658
0.815183 0.175814 0.161410
0.846616 0.181033 0.169467
0.876432 0.186343 0.177737
0.904845 0.192172 0.185885
0.932219 0.198398 0.194034
0.958587 0.204959 0.202792
0.983917 0.212772 0.212345
1.000000 0.221347 0.222385
1.000000 0.230777 0.232944
1.000000 0.241520 0.244816
1.000000 0.253666 0.257939
0.062257 0.103731 0.090364
0.062196 0.106752 0.089540
0.081575 0.108370 0.089815
0.120882 0.114626 0.089326
0.158511 0.116609 0.087984
0.195193 0.119326 0.086549
0.232181 0.121981 0.085115
0.269749 0.126497 0.083253
0.308568 0.130983 0.083589
0.347753 0.135348 0.088075
0.387610 0.140444 0.092775
0.427893 0.145937 0.098604
0.468238 0.151064 0.105959
0.508812 0.155459 0.111940
0.548821 0.159915 0.118257
0.588586 0.163455 0.123201
0.627741 0.166659 0.128817
0.665980 0.169772 0.134646
0.703456 0.172549 0.140597
0.743191 0.176394 0.146822
0.780056 0.180087 0.154177
0.814084 0.184329 0.161501
0.845548 0.188663 0.169863
0.875303 0.193698 0.177768
0.903807 0.199008 0.185824
0.931243 0.204501 0.194125
0.957641 0.210971 0.202976
0.983093 0.218112 0.212131
1.000000 0.226169 0.222171
1.000000 0.235386 0.232761
1.000000 0.245487 0.244480
1.000000 0.257298 0.257694
0.039368 0.148043 0.087312
0.058686 0.149325 0.086091
0.083253 0.150088 0.086610
0.120333 0.152071 0.085695
0.158053 0.152377 0.085084
0.194949 0.152926 0.084138
0.231846 0.154299 0.082399
0.269413 0.156802 0.083131
0.307866 0.159670 0.085420
0.347051 0.163058 0.089296
0.386938 0.166995 0.094972
0.427070 0.171176 0.101930
0.467292 0.175143 0.108644
0.507713 0.178714 0.114137
0.547875 0.181765 0.118837
0.587518 0.184665 0.124361
0.626551 0.187076 0.130159
0.664851 0.189456 0.135470
0.702785 0.191836 0.141634
0.741756 0.194797 0.148165
0.778286 0.197635 0.154971
0.812100 0.200809 0.162783
0.843656 0.204746 0.170047
0.873716 0.208682 0.178103
0.902617 0.213138 0.186007
0.930388 0.218112 0.194797
0.957122 0.223789 0.203891
0.982757 0.230411 0.213382
1.000000 0.237583 0.223117
1.000000 0.245701 0.233616
1.000000 0.255192 0.245060
1.000000 0.265812 0.257664
0.004456 0.188846 0.082033
0.052827 0.189212 0.080964
0.080201 0.189853 0.081849
0.116579 0.190646 0.081086
0.155978 0.192020 0.080751
0.193606 0.191989 0.080781
0.230686 0.192081 0.082338
0.268101 0.192966 0.085451
0.306615 0.194766 0.089448
0.345647 0.197269 0.094484
0.385321 0.200259 0.100191
0.425513 0.203464 0.106111
0.465919 0.206149 0.111543
0.506279 0.208652 0.116548
0.546380 0.210697 0.122011
0.586267 0.212894 0.126497
0.625513 0.214633 0.132723
0.663874 0.215824 0.138216
0.702663 0.218143 0.143404
0.741268 0.220401 0.149813
0.777249 0.222110 0.157015
0.811032 0.224704 0.163546
0.842496 0.226932 0.171572
0.872557 0.230198 0.179446
0.901518 0.233829 0.187442
0.929412 0.237583 0.196323
0.956268 0.242161 0.204776
0.981903 0.247745 0.214328
1.000000 0.253880 0.224247
1.000000 0.261234 0.234867
1.000000 0.269322 0.245914
1.000000 0.279026 0.258885
0.000000 0.228428 0.078584
0.043366 0.228519 0.078157
0.075959 0.229068 0.078767
0.112154 0.229831 0.079652
0.151797 0.230808 0.081605
0.191348 0.232273 0.083589
0.229770 0.232364 0.086488
0.267308 0.232303 0.091249
0.305821 0.233371 0.095583
0.344915 0.234958 0.100649
0.384649 0.236912 0.105776
0.424720 0.238773 0.110903
0.465034 0.240421 0.115816
0.505425 0.242344 0.120058
0.545678 0.243412 0.124880
0.585565 0.244816 0.130037
0.624842 0.245853 0.135317
0.663294 0.247044 0.140322
0.702876 0.248478 0.146304
0.741268 0.249638 0.152560
0.777218 0.251164 0.158938
0.810910 0.252476 0.166812
0.854551 0.258274 0.178500
0.883970 0.260533 0.187259
0.912108 0.263066 0.195438
0.938964 0.266087 0.203647
0.964660 0.269902 0.212375
0.989166 0.274083 0.221866
1.000000 0.279271 0.231724
1.000000 0.285283 0.242222
1.000000 0.292546 0.253574
1.000000 0.300999 0.265751
0.000000 0.270268 0.084016
0.026978 0.270237 0.083955
0.070619 0.270512 0.085176
0.109041 0.271031 0.086824
0.149203 0.272038 0.088869
0.189334 0.273014 0.092073
0.229404 0.274174 0.095552
0.268681 0.274632 0.099794
0.307713 0.274601 0.103639
0.347295 0.275425 0.107820
0.387366 0.276402 0.112215
0.427588 0.277470 0.116060
0.468055 0.278477 0.120546
0.508415 0.279179 0.124605
0.548425 0.279667 0.129641
0.588006 0.280278 0.134035
0.626947 0.280888 0.138857
0.666712 0.281437 0.144198
0.706661 0.282353 0.150271
0.745113 0.283268 0.156588
0.781582 0.284184 0.163638
0.816068 0.285161 0.171267
0.848447 0.286290 0.179751
0.879423 0.287999 0.188144
0.908843 0.289952 0.196445
0.936492 0.292180 0.205356
0.962646 0.294987 0.213962
0.987427 0.298222 0.223575
1.000000 0.302129 0.233158
1.000000 0.307134 0.243870
1.000000 0.312932 0.254734
1.000000 0.319982 0.266758
0.000000 0.309300 0.094392
0.016358 0.309392 0.095338
0.067109 0.309545 0.095644
0.106813 0.310002 0.096864
0.146822 0.310491 0.099031
0.186404 0.311376 0.101930
0.226413 0.312444 0.105043
0.266575 0.313451 0.108186
0.306432 0.314000 0.110811
0.346075 0.314153 0.114443
0.386206 0.314427 0.118135
0.426581 0.315038 0.122011
0.466987 0.315587 0.125246
0.507317 0.315892 0.129000
0.547265 0.315831 0.134005
0.586816 0.315740 0.138399
0.626398 0.316045 0.143008
0.666682 0.316533 0.148379
0.705867 0.316747 0.154055
0.743709 0.316777 0.160433
0.779812 0.317205 0.167208
0.814084 0.317418 0.174411
0.846372 0.317815 0.182254
0.877256 0.318486 0.190677
0.906645 0.319432 0.199100
0.934386 0.320836 0.207462
0.960662 0.322454 0.216526
0.985626 0.324559 0.225284
1.000000 0.327459 0.235355
1.000000 0.331334 0.245548
1.000000 0.336065 0.256931
1.000000 0.341863 0.268956
0.000000 0.348638 0.105348
0.009125 0.348699 0.105531
0.063600 0.348974 0.106203
0.104707 0.349279 0.106874
0.144686 0.349798 0.108125
0.184298 0.350195 0.110048
0.224247 0.351049 0.112306
0.264317 0.351843 0.114839
0.304875 0.352728 0.117769
0.345647 0.353582 0.121035
0.385626 0.353552 0.124605
0.426123 0.353521 0.127321
0.466499 0.353521 0.131044
0.506706 0.353307 0.135439
0.546624 0.352941 0.139437
0.586633 0.352850 0.143252
0.627344 0.352819 0.148196
0.666896 0.352758 0.153140
0.705470 0.352392 0.158389
0.742977 0.352026 0.164584
0.778775 0.351507 0.170993
0.812772 0.350958 0.178317
0.844846 0.350500 0.186160
0.875639 0.350500 0.194186
0.904936 0.350713 0.202548
0.932738 0.350927 0.210605
0.959075 0.351720 0.219516
0.984070 0.352972 0.228672
1.000000 0.354894 0.237736
1.000000 0.357397 0.247990
1.000000 0.361059 0.259159
1.000000 0.365637 0.270939
0.000000 0.387823 0.113527
0.000000 0.387762 0.114351
0.058717 0.387884 0.114595
0.101411 0.388159 0.115419
0.142611 0.388525 0.116182
0.182467 0.388891 0.117739
0.222293 0.389502 0.119905
0.262364 0.389960 0.122560
0.302892 0.390753 0.124758
0.343847 0.391485 0.127993
0.385016 0.392157 0.130678
0.425360 0.391791 0.133700
0.465858 0.391424 0.137667
0.506096 0.390875 0.141115
0.547082 0.390997 0.144839
0.588159 0.390875 0.149111
0.628443 0.390417 0.153689
0.667720 0.389807 0.158572
0.706081 0.389044 0.163882
0.743099 0.387945 0.169314
0.778317 0.386664 0.175998
0.811643 0.385534 0.182742
0.843198 0.384070 0.190219
0.873472 0.383062 0.197879
0.902586 0.382330 0.205875
0.930388 0.382025 0.214054
0.956909 0.381964 0.222263
0.982177 0.382300 0.231479
1.000000 0.383368 0.241001
1.000000 0.385229 0.251286
1.000000 0.387915 0.262028
1.000000 0.391424 0.274479
0.000000 0.426062 0.122347
0.000000 0.426123 0.123049
0.049561 0.426246 0.122896
0.099214 0.426337 0.123140
0.140078 0.426551 0.124666
0.180514 0.427070 0.126192
0.221042 0.427588 0.127474
0.261021 0.428168 0.129732
0.301640 0.428656 0.132021
0.342473 0.429267 0.134585
0.383612 0.429938 0.137942
0.425055 0.430243 0.140505
0.465766 0.429938 0.144045
0.507195 0.429847 0.147677
0.548241 0.429694 0.150820
0.588708 0.429145 0.155367
0.628534 0.427893 0.159884
0.667323 0.426764 0.164645
0.705348 0.425513 0.168887
0.742153 0.423835 0.174807
0.777096 0.422187 0.180728
0.810300 0.420050 0.187198
0.841764 0.418372 0.194980
0.872007 0.416571 0.202518
0.901091 0.415320 0.210208
0.928832 0.413977 0.218326
0.955322 0.413245 0.226200
0.980560 0.412818 0.235264
1.000000 0.413062 0.244541
1.000000 0.413855 0.254337
1.000000 0.415564 0.265263
1.000000 0.418189 0.277379
0.000000 0.464302 0.130983
0.000000 0.464363 0.131472
0.043244 0.464393 0.131167
0.095613 0.464485 0.131746
0.138399 0.464729 0.132815
0.179385 0.465156 0.134401
0.219699 0.465492 0.136172
0.259983 0.466072 0.137575
0.300603 0.466438 0.140047
0.341558 0.467018 0.141817
0.382757 0.467597 0.144656
0.425330 0.469001 0.147829
0.475990 0.476905 0.153323
0.518181 0.476600 0.156435
0.559472 0.475685 0.160281
0.600122 0.474342 0.164218
0.639857 0.472694 0.168124
0.678370 0.470710 0.172946
0.715572 0.468238 0.177676
0.751125 0.465614 0.183536
0.784909 0.462531 0.189487
0.816861 0.459602 0.195987
0.847166 0.456550 0.203494
0.876616 0.453925 0.210483
0.904906 0.451453 0.217990
0.932036 0.449439 0.225711
0.957885 0.447639 0.233829
0.982544 0.446357 0.242618
1.000000 0.445594 0.251499
1.000000 0.445533 0.261295
1.000000 0.446113 0.271824
1.000000 0.447547 0.283513
0.000000 0.504875 0.140047
0.000000 0.504967 0.139834
0.030488 0.504845 0.140597
0.094820 0.504753 0.140536
0.137881 0.504662 0.141604
0.179202 0.504570 0.142641
0.219486 0.504814 0.144137
0.260044 0.504967 0.146059
0.300755 0.505333 0.147890
0.342626 0.507073 0.150393
0.385321 0.509026 0.153017
0.428687 0.510857 0.156130
0.472633 0.512749 0.160159
0.516747 0.514244 0.163333
0.558434 0.513420 0.167117
0.599023 0.512108 0.170901
0.638575 0.510002 0.175082
0.676905 0.507622 0.178897
0.713802 0.504631 0.184085
0.749081 0.501457 0.189059
0.782589 0.498054 0.195010
0.814450 0.494392 0.201328
0.844694 0.490913 0.208408
0.874052 0.487556 0.215518
0.902373 0.484565 0.222446
0.929503 0.481880 0.229709
0.955444 0.479561 0.238041
0.980224 0.477607 0.246433
1.000000 0.476020 0.255131
1.000000 0.475166 0.264897
1.000000 0.474983 0.275425
1.000000 0.475654 0.287236
0.000000 0.541680 0.148409
0.000000 0.541680 0.148836
0.026856 0.541619 0.148898
0.093050 0.541558 0.149599
0.136721 0.541466 0.149844
0.178622 0.541650 0.151003
0.219394 0.542321 0.152377
0.260166 0.543023 0.153933
0.301030 0.543877 0.156344
0.342382 0.545159 0.158968
0.384955 0.546349 0.160800
0.427619 0.547997 0.164096
0.470985 0.549340 0.167697
0.514305 0.550500 0.170352
0.557397 0.551049 0.174014
0.598047 0.549371 0.177676
0.637201 0.546990 0.181399
0.675227 0.544213 0.185519
0.711971 0.540856 0.190127
0.747066 0.537316 0.194888
0.780453 0.533440 0.200870
0.812222 0.529351 0.206882
0.842496 0.525200 0.213870
0.871916 0.521569 0.220249
0.900237 0.518029 0.227451
0.927398 0.514763 0.234867
0.953429 0.511894 0.242557
0.978302 0.509209 0.251102
1.000000 0.507164 0.259709
1.000000 0.505608 0.269200
1.000000 0.504723 0.280064
1.000000 0.504570 0.291630
0.000000 0.580194 0.157961
0.000000 0.580285 0.158328
0.025269 0.580285 0.158236
0.094209 0.580194 0.158175
0.137606 0.580194 0.159365
0.178744 0.580224 0.160494
0.220096 0.580377 0.161379
0.260349 0.580591 0.163027
0.301091 0.581292 0.165042
0.342473 0.582116 0.167239
0.384100 0.583124 0.169223
0.426551 0.584344 0.171786
0.469215 0.585443 0.174594
0.512108 0.586267 0.178134
0.554681 0.586664 0.181003
0.596796 0.586419 0.184726
0.636072 0.583948 0.188357
0.673793 0.580865 0.191958
0.710353 0.577234 0.196139
0.745205 0.573175 0.200595
0.778470 0.568750 0.206424
0.810086 0.564172 0.212985
0.840299 0.559686 0.219181
0.869627 0.555444 0.226047
0.898039 0.551476 0.233036
0.925414 0.547814 0.240116
0.951659 0.544457 0.247745
0.976837 0.541436 0.256382
1.000000 0.538964 0.265324
1.000000 0.537011 0.275090
1.000000 0.535515 0.286046
1.000000 0.534813 0.298161
0.000000 0.618097 0.167300
0.000000 0.618128 0.167788
0.032868 0.618219 0.167941
0.095705 0.618097 0.168154
0.139742 0.618067 0.168460
0.180789 0.618097 0.169406
0.221012 0.618311 0.170718
0.261265 0.618616 0.172091
0.302098 0.618982 0.174075
0.342931 0.619501 0.175631
0.384222 0.620050 0.177798
0.425818 0.620630 0.180362
0.467567 0.621027 0.182834
0.509514 0.621149 0.186038
0.551263 0.621027 0.188693
0.592859 0.620539 0.191531
0.633936 0.619806 0.194980
0.672389 0.617060 0.198337
0.708888 0.613336 0.202274
0.743771 0.609033 0.207431
0.777157 0.604456 0.212589
0.808743 0.599451 0.218845
0.839078 0.594568 0.225315
0.868528 0.589929 0.232212
0.896971 0.585534 0.239322
0.924346 0.581506 0.246586
0.950652 0.577661 0.254124
0.975799 0.574243 0.262272
0.999695 0.571130 0.271519
1.000000 0.568475 0.280980
1.000000 0.566278 0.291600
1.000000 0.564782 0.303777
0.000000 0.653864 0.176699
0.000000 0.653803 0.176699
0.048615 0.653773 0.177279
0.099245 0.653590 0.177493
0.141512 0.653590 0.178164
0.182071 0.653498 0.178836
0.221775 0.653559 0.180026
0.261723 0.653559 0.181277
0.302220 0.653834 0.182345
0.342351 0.654170 0.184390
0.383337 0.654566 0.186374
0.424353 0.654963 0.188693
0.465766 0.655207 0.190890
0.506920 0.655207 0.193729
0.548150 0.654932 0.196506
0.588952 0.654170 0.199191
0.629572 0.653223 0.202121
0.669856 0.652247 0.205173
0.707240 0.649042 0.208865
0.741970 0.644373 0.213413
0.775082 0.639307 0.218845
0.806546 0.633967 0.225132
0.836881 0.628717 0.231388
0.866392 0.623774 0.238102
0.894926 0.618921 0.244602
0.922362 0.614527 0.251835
0.948821 0.610346 0.259709
0.974090 0.606439 0.267948
0.998047 0.602960 0.277165
1.000000 0.599786 0.286931
1.000000 0.597009 0.297551
1.000000 0.594842 0.309972
0.000000 0.688808 0.186496
0.012146 0.688869 0.186313
0.069886 0.696284 0.188785
0.108949 0.696040 0.189487
0.148592 0.695888 0.189914
0.188022 0.695521 0.190402
0.227390 0.695155 0.191653
0.266545 0.694789 0.192630
0.306462 0.694575 0.194339
0.346593 0.694423 0.195499
0.386816 0.694331 0.197116
0.427436 0.694087 0.199619
0.467933 0.693721 0.201938
0.508659 0.693111 0.204288
0.549187 0.692317 0.206699
0.589349 0.691066 0.209293
0.629236 0.689754 0.211795
0.668788 0.688106 0.215061
0.708003 0.686519 0.217350
0.743923 0.682551 0.221592
0.776364 0.676722 0.226932
0.807431 0.670558 0.232547
0.837430 0.664668 0.239139
0.866575 0.659083 0.245151
0.894591 0.653620 0.252201
0.921660 0.648432 0.258946
0.947631 0.643519 0.266331
0.972564 0.639002 0.274205
0.996429 0.634760 0.283055
1.000000 0.631037 0.292638
1.000000 0.627710 0.303685
1.000000 0.624842 0.316075
0.003388 0.723934 0.196628
0.051881 0.724880 0.197086
0.080354 0.725795 0.197635
0.114717 0.726497 0.198581
0.152255 0.726833 0.199222
0.190585 0.726833 0.200076
0.228855 0.726589 0.201236
0.267277 0.726131 0.202121
0.306310 0.725917 0.203677
0.345556 0.725612 0.205081
0.384955 0.725277 0.206851
0.424964 0.724849 0.208316
0.464729 0.724361 0.210849
0.504631 0.723537 0.212558
0.544274 0.722469 0.215183
0.583795 0.721187 0.217472
0.622919 0.719753 0.220218
0.661891 0.718105 0.222751
0.700557 0.716426 0.225834
0.738918 0.714839 0.228794
0.774105 0.710933 0.233341
0.805142 0.704646 0.239170
0.835294 0.698512 0.245151
0.864530 0.692592 0.251316
0.892729 0.686854 0.257694
0.919829 0.681361 0.264652
0.945922 0.676081 0.272313
0.970947 0.671138 0.280278
0.994781 0.666560 0.289036
1.000000 0.662287 0.298955
1.000000 0.658473 0.310063
1.000000 0.654963 0.322210
0.052491 0.754421 0.206973
0.074922 0.755245 0.207767
0.094484 0.755978 0.208103
0.123812 0.756588 0.208438
0.158877 0.756893 0.209171
0.194339 0.756832 0.210330
0.231785 0.756497 0.210941
0.268864 0.756130 0.211795
0.306767 0.755764 0.213046
0.345068 0.755306 0.214878
0.383825 0.754910 0.216129
0.422736 0.754452 0.217990
0.461769 0.753750 0.220340
0.500755 0.752895 0.222660
0.539727 0.751736 0.224521
0.578454 0.750362 0.226566
0.616907 0.748836 0.229252
0.655207 0.747219 0.231510
0.693172 0.745480 0.234775
0.731136 0.743832 0.237736
0.768551 0.742245 0.240970
0.803281 0.738766 0.244816
0.833463 0.732326 0.251072
0.862669 0.726131 0.257481
0.890867 0.720089 0.264164
0.918059 0.714168 0.270970
0.944091 0.708553 0.278508
0.969085 0.703151 0.286595
0.992920 0.698085 0.295262
1.000000 0.693416 0.304997
1.000000 0.688991 0.316320
1.000000 0.684962 0.328832
0.079927 0.783383 0.217350
0.093568 0.784024 0.218143
0.108400 0.784726 0.218753
0.134737 0.785245 0.219089
0.166567 0.785458 0.219913
0.200290 0.785367 0.220462
0.235111 0.785000 0.221561
0.271153 0.784573 0.222416
0.308080 0.784024 0.223239
0.345098 0.783536 0.225040
0.382605 0.783017 0.226688
0.420783 0.782376 0.228305
0.458839 0.781613 0.229923
0.496986 0.780636 0.232334
0.535210 0.779568 0.234165
0.573297 0.778378 0.236667
0.611383 0.777066 0.239048
0.649439 0.775784 0.241489
0.687251 0.774533 0.244358
0.724941 0.773281 0.247715
0.762417 0.772091 0.251041
0.799557 0.770962 0.255070
0.834195 0.768093 0.259617
0.863645 0.761685 0.266056
0.891905 0.755367 0.272953
0.919036 0.749233 0.279942
0.945068 0.743160 0.287816
0.969909 0.737362 0.295781
0.993469 0.731777 0.305150
1.000000 0.726467 0.315068
1.000000 0.721431 0.326329
1.000000 0.716701 0.339117
0.105592 0.813596 0.230198
0.115114 0.813870 0.230259
0.126345 0.814054 0.230503
0.148959 0.814115 0.230869
0.176883 0.814023 0.231785
0.208133 0.813718 0.232120
0.241093 0.813382 0.233188
0.275425 0.812924 0.234165
0.310826 0.812528 0.235142
0.346990 0.812131 0.236301
0.383703 0.811673 0.238132
0.420844 0.811093 0.239841
0.458137 0.810391 0.241581
0.495399 0.809476 0.243137
0.532769 0.808347 0.245731
0.570306 0.807095 0.247440
0.607630 0.805783 0.250187
0.644892 0.804440 0.252476
0.682002 0.803128 0.255253
0.718959 0.801724 0.258213
0.755673 0.800381 0.261173
0.791958 0.799008 0.264469
0.827970 0.797604 0.268315
0.861906 0.794919 0.272801
0.890074 0.788235 0.279393
0.917174 0.781735 0.286320
0.943175 0.775357 0.294347
0.968048 0.769192 0.302678
0.991638 0.763180 0.311498
1.000000 0.757382 0.321935
1.000000 0.751797 0.333104
1.000000 0.746517 0.346075
0.125490 0.840208 0.241062
0.133303 0.840482 0.241794
0.142855 0.840696 0.241855
0.162142 0.840726 0.242313
0.187442 0.840665 0.242710
0.216037 0.840330 0.243503
0.247257 0.839902 0.243809
0.279484 0.839445 0.244724
0.313909 0.838926 0.246098
0.348699 0.838468 0.247410
0.384131 0.837980 0.248661
0.420233 0.837430 0.250095
0.456367 0.836667 0.252140
0.492988 0.835782 0.254246
0.529717 0.834775 0.256168
0.566369 0.833707 0.258091
0.603082 0.832517 0.260258
0.639673 0.831327 0.262882
0.676295 0.830045 0.265873
0.712703 0.828855 0.268589
0.748928 0.827604 0.271916
0.784909 0.826383 0.274937
0.820493 0.825193 0.278843
0.855680 0.823880 0.282322
0.887572 0.820218 0.285130
0.914641 0.813443 0.292546
0.940734 0.806729 0.300145
0.965606 0.800259 0.308629
0.989227 0.793912 0.317571
1.000000 0.787655 0.328161
1.000000 0.781674 0.339483
1.000000 0.775937 0.352941
0.147524 0.868315 0.254246
0.154025 0.868589 0.254856
0.161959 0.868742 0.255253
0.178347 0.868650 0.255253
0.200595 0.868406 0.255863
0.226871 0.867979 0.256168
0.255650 0.867430 0.256535
0.286381 0.866789 0.257481
0.318822 0.866056 0.258030
0.352239 0.865324 0.258976
0.386328 0.864530 0.260349
0.420844 0.863767 0.261784
0.456153 0.862852 0.263127
0.491676 0.861784 0.264836
0.527153 0.860563 0.266514
0.562768 0.859220 0.268223
0.598535 0.857847 0.270542
0.634302 0.856443 0.272984
0.670069 0.855222 0.275425
0.705867 0.854093 0.278325
0.741573 0.852964 0.281682
0.776944 0.851865 0.284947
0.811978 0.850584 0.288487
0.846464 0.849180 0.292088
0.880339 0.847715 0.295445
0.913237 0.845792 0.299413
0.939086 0.838682 0.307103
0.963836 0.831693 0.315648
0.987304 0.824826 0.324651
1.000000 0.818143 0.335027
1.000000 0.811612 0.346746
1.000000 0.805325 0.360571
0.165957 0.893095 0.266026
0.171450 0.893370 0.266239
0.178714 0.893492 0.266300
0.192782 0.893462 0.267033
0.213046 0.893187 0.267124
0.237064 0.892821 0.267796
0.264012 0.892332 0.268284
0.293217 0.891752 0.268650
0.323949 0.891173 0.269535
0.355962 0.890532 0.270512
0.388922 0.889891 0.271885
0.422644 0.889189 0.273106
0.456947 0.888396 0.274693
0.491402 0.887449 0.276402
0.526177 0.886351 0.278386
0.561059 0.885130 0.280156
0.596002 0.883848 0.282200
0.631037 0.882597 0.284672
0.666163 0.881407 0.287022
0.701381 0.880217 0.289921
0.736263 0.879088 0.293431
0.770993 0.877958 0.296818
0.805478 0.876677 0.299901
0.839353 0.875395 0.303471
0.872740 0.873960 0.307622
0.905699 0.872404 0.311040
0.937987 0.870909 0.315312
0.962799 0.863645 0.323766
0.986175 0.856352 0.333257
1.000000 0.849180 0.343725
1.000000 0.842100 0.356023
1.000000 0.835203 0.369848
0.185641 0.917815 0.278355
0.190677 0.918029 0.278904
0.196414 0.918029 0.279026
0.208774 0.917876 0.279332
0.226841 0.917571 0.279088
0.248814 0.917113 0.279484
0.273594 0.916564 0.280278
0.301030 0.915984 0.280522
0.330297 0.915373 0.281743
0.360723 0.914763 0.282322
0.392432 0.914122 0.283543
0.425055 0.913481 0.285069
0.458076 0.912779 0.286564
0.491737 0.911864 0.288396
0.525505 0.910857 0.290257
0.559472 0.909667 0.292149
0.593561 0.908415 0.293797
0.627832 0.907134 0.296391
0.662165 0.905882 0.298772
0.696468 0.904753 0.301610
0.730678 0.903624 0.304601
0.764767 0.902434 0.308354
0.798489 0.901183 0.311864
0.831815 0.899870 0.315496
0.864683 0.898466 0.319005
0.897032 0.896941 0.323003
0.928893 0.895445 0.327062
0.960143 0.893919 0.331640
0.984283 0.886870 0.340429
1.000000 0.879271 0.351415
1.000000 0.871611 0.363531
1.000000 0.864164 0.378058
0.204746 0.941070 0.290929
0.209232 0.941131 0.291081
0.214572 0.941161 0.291264
0.225345 0.941039 0.291508
0.241672 0.940826 0.291722
0.261936 0.940581 0.292424
0.285191 0.940398 0.293065
0.311040 0.940185 0.294133
0.339391 0.940002 0.295537
0.368780 0.939849 0.297093
0.399603 0.939574 0.298589
0.431159 0.939300 0.300633
0.463355 0.938872 0.302586
0.496132 0.938201 0.304540
0.529076 0.937346 0.306645
0.562066 0.936278 0.308415
0.595300 0.935088 0.310582
0.628687 0.933806 0.313176
0.662135 0.932586 0.315801
0.695521 0.931395 0.318608
0.728939 0.930144 0.321691
0.762234 0.928893 0.325322
0.795163 0.927550 0.328801
0.827665 0.926116 0.332433
0.859831 0.924620 0.336553
0.891447 0.923095 0.340581
0.922637 0.921508 0.344701
0.953338 0.919921 0.349065
0.983429 0.918395 0.353857
1.000000 0.911345 0.363775
1.000000 0.902983 0.376654
1.000000 0.894682 0.391516
0.230045 0.965667 0.307347
0.233371 0.965698 0.307408
0.238041 0.965637 0.307652
0.247227 0.965454 0.307530
0.261570 0.965148 0.307958
0.279484 0.964782 0.308202
0.300633 0.964416 0.308751
0.324437 0.963989 0.309758
0.350134 0.963592 0.310521
0.377813 0.963104 0.311986
0.406714 0.962585 0.313268
0.436622 0.962036 0.314611
0.467292 0.961334 0.316533
0.498634 0.960510 0.318395
0.530327 0.959533 0.320378
0.562310 0.958465 0.322301
