其他预设/【232】美食博客调色预设124款/1.3D LUT预设（视频调色-PR-AE-PS-FCPX-达芬奇用）/Food Art #80.cube
# Created by Adobe Lightroom plugin Export LUT (1.17.0)
# www.johnrellis.com/lightroom/exportlut.htm
# Preset: Food Art #80
# Color profile: /Library/Application Support/Adobe/Color/Profiles/Recommended/AdobeRGB1998.icc
LUT_3D_SIZE 5
DOMAIN_MIN 0.000000 0.000000 0.000000
DOMAIN_MAX 0.903226 0.903226 0.903226
0.191684 0.154116 0.146181
0.192996 0.154147 0.146456
0.282383 0.130434 0.146914
0.612818 0.000000 0.124788
0.846494 0.000000 0.095460
0.192111 0.156985 0.146548
0.195621 0.158816 0.146700
0.314092 0.158267 0.143465
0.633936 0.149294 0.109071
0.840818 0.172549 0.083589
0.173617 0.294438 0.132174
0.220096 0.312688 0.126741
0.358129 0.310521 0.118898
0.648737 0.395941 0.000000
0.850034 0.410163 0.088380
0.122866 0.630365 0.000000
0.245762 0.629877 0.000000
0.454780 0.634668 0.000000
0.668971 0.643549 0.000000
0.847684 0.637690 0.190066
0.298650 0.833921 0.207950
0.361120 0.834104 0.223819
0.525322 0.839139 0.304906
0.686152 0.835904 0.380011
0.833310 0.831815 0.468818
0.192050 0.154971 0.151400
0.197391 0.153964 0.151278
0.330053 0.110384 0.163394
0.662470 0.000000 0.148653
0.860746 0.000000 0.192905
0.191745 0.159915 0.152163
0.199557 0.160800 0.152560
0.343603 0.153689 0.154818
0.668391 0.113069 0.144503
0.859556 0.186954 0.199313
0.166506 0.317845 0.167300
0.207065 0.324193 0.148470
0.392615 0.341924 0.142092
0.676448 0.403571 0.131960
0.854032 0.423987 0.230869
0.000000 0.635584 0.127413
0.210178 0.633417 0.105287
0.450355 0.638178 0.115358
0.672816 0.647181 0.154696
0.845609 0.648188 0.323064
0.356115 0.831296 0.331243
0.407904 0.831510 0.344579
0.536156 0.830167 0.379614
0.691554 0.830930 0.452247
0.830411 0.829404 0.523095
0.145052 0.155123 0.319646
0.224704 0.138033 0.319585
0.376776 0.051820 0.318242
0.672541 0.000000 0.392126
0.853086 0.199924 0.443793
0.156008 0.173281 0.309697
0.211460 0.159457 0.310887
0.379034 0.120851 0.319921
0.676967 0.000000 0.389715
0.846189 0.326421 0.469245
0.121340 0.345251 0.336370
0.188968 0.345953 0.337591
0.433783 0.378546 0.375677
0.676204 0.417823 0.418158
0.837064 0.513664 0.518822
0.000000 0.652491 0.404486
0.235813 0.655329 0.408698
0.487190 0.648615 0.438270
0.676020 0.652033 0.460670
0.833005 0.685634 0.574304
0.424414 0.835203 0.520531
0.482521 0.830869 0.541527
0.602808 0.824949 0.589319
0.719020 0.830076 0.628046
0.831357 0.833249 0.662745
0.095399 0.102754 0.680568
0.253635 0.001099 0.678614
0.460609 0.000000 0.674922
0.681147 0.000000 0.675990
0.846647 0.284459 0.666865
0.000000 0.156832 0.678889
0.209323 0.140475 0.678981
0.452888 0.082307 0.677516
0.684291 0.114504 0.680293
0.843442 0.403296 0.683619
0.000000 0.412879 0.683619
0.220737 0.413642 0.680415
0.484413 0.438819 0.675837
0.675868 0.455299 0.672114
0.830320 0.575891 0.708309
0.170047 0.660975 0.680903
0.313603 0.662776 0.682918
0.528374 0.664851 0.684688
0.699336 0.686305 0.705806
0.825650 0.719448 0.739193
0.484718 0.835477 0.705867
0.530388 0.833371 0.713252
0.631891 0.828946 0.730922
0.736873 0.829709 0.754269
0.832029 0.836423 0.772488
0.127535 0.038392 0.845457
0.236637 0.000000 0.844907
0.427924 0.000000 0.845029
0.629175 0.049928 0.843137
0.817868 0.280339 0.840055
0.055756 0.158541 0.841276
0.217075 0.153964 0.840757
0.427283 0.164034 0.840421
0.629328 0.231724 0.836820
0.813352 0.359777 0.835386
0.227054 0.408270 0.833890
0.325566 0.423682 0.831449
0.482704 0.444404 0.828672
0.646357 0.473854 0.825498
0.808713 0.542138 0.831418
0.360937 0.628748 0.832792
0.416114 0.632593 0.830014
0.550591 0.650324 0.826078
0.686824 0.676844 0.826902
0.818173 0.718349 0.843229
0.528099 0.821103 0.845457
0.555657 0.820401 0.844541
0.637324 0.821714 0.844938
0.731441 0.823697 0.845823
0.826505 0.831968 0.852903
