其他预设/【232】美食博客调色预设124款/1.3D LUT预设（视频调色-PR-AE-PS-FCPX-达芬奇用）/Food Art #62.cube
# Created by Adobe Lightroom plugin Export LUT (1.17.0)
# www.johnrellis.com/lightroom/exportlut.htm
# Preset: Food Art #62
# Color profile: /Library/Application Support/Adobe/Color/Profiles/Recommended/AdobeRGB1998.icc
LUT_3D_SIZE 8
DOMAIN_MIN 0.000000 0.000000 0.000000
DOMAIN_MAX 0.903226 0.903226 0.903226
0.000000 0.000000 0.000000
0.073610 0.038453 0.068544
0.160891 0.096071 0.124575
0.267124 0.144198 0.189700
0.384009 0.196811 0.267094
0.525261 0.250401 0.343908
0.687160 0.307317 0.411872
0.839597 0.385138 0.469398
0.003845 0.109773 0.096834
0.082216 0.123781 0.116854
0.168612 0.145022 0.151919
0.270451 0.180636 0.211063
0.385504 0.223728 0.280980
0.523125 0.270695 0.350591
0.682338 0.323308 0.414679
0.836698 0.397864 0.470680
0.025574 0.234287 0.191012
0.097108 0.240116 0.202426
0.194461 0.259281 0.239628
0.294499 0.277836 0.280949
0.408698 0.305150 0.331212
0.546563 0.340856 0.384558
0.705409 0.388952 0.437690
0.850767 0.457160 0.484443
0.108705 0.358099 0.301915
0.142336 0.360845 0.307591
0.225498 0.371740 0.328466
0.341527 0.398322 0.367315
0.461982 0.419501 0.399298
0.589136 0.443458 0.429541
0.728817 0.479622 0.463508
0.861723 0.538170 0.501274
0.197848 0.485420 0.392218
0.220432 0.487373 0.395300
0.289464 0.495735 0.406256
0.390661 0.512230 0.424964
0.508202 0.530877 0.445380
0.626856 0.548455 0.464027
0.752529 0.579065 0.487739
0.875578 0.632441 0.524041
0.305425 0.616419 0.452247
0.325963 0.621454 0.455207
0.380926 0.626368 0.460426
0.466102 0.635645 0.469398
0.568231 0.647486 0.480995
0.678767 0.663447 0.495674
0.788876 0.686641 0.517540
0.895689 0.730526 0.558709
0.453803 0.747921 0.499153
0.467079 0.749386 0.500572
0.506523 0.751125 0.504051
0.571771 0.755947 0.511254
0.651850 0.762722 0.521965
0.740383 0.773800 0.538018
0.827359 0.788754 0.560510
0.913176 0.816770 0.601373
0.635279 0.866239 0.567803
0.642573 0.866545 0.569085
0.668696 0.868376 0.574456
0.713619 0.872953 0.585565
0.762173 0.873991 0.595911
0.825711 0.883238 0.618158
0.889433 0.895964 0.647608
0.946502 0.910063 0.681514
0.000000 0.002228 0.120150
0.054353 0.047486 0.137728
0.154421 0.106996 0.185489
0.262089 0.161501 0.247471
0.379187 0.209873 0.307378
0.515831 0.256779 0.366827
0.675715 0.308385 0.422950
0.831113 0.382879 0.473762
0.000000 0.110079 0.156161
0.065248 0.124453 0.174289
0.162203 0.155184 0.212467
0.267216 0.193332 0.263035
0.382910 0.234257 0.318029
0.517784 0.276371 0.373419
0.673426 0.324285 0.425727
0.828122 0.395178 0.474678
0.000000 0.233097 0.234745
0.090578 0.239963 0.249027
0.186740 0.258396 0.277867
0.288853 0.280339 0.313817
0.403967 0.307866 0.355535
0.537896 0.340917 0.399390
0.691005 0.384680 0.443610
0.840513 0.451514 0.486641
0.106783 0.355138 0.326238
0.142397 0.358618 0.333471
0.224002 0.370459 0.351446
0.331823 0.391180 0.380774
0.446021 0.410376 0.407446
0.571954 0.434882 0.434760
0.713588 0.471473 0.466041
0.852079 0.531243 0.502342
0.200809 0.483619 0.406226
0.222354 0.485054 0.408667
0.288487 0.492042 0.417670
0.384710 0.505455 0.432563
0.498116 0.522759 0.450355
0.617517 0.542168 0.467994
0.745296 0.574487 0.490669
0.870085 0.628046 0.525628
0.305455 0.611994 0.458259
0.322271 0.613642 0.459724
0.376501 0.618830 0.464607
0.461524 0.629236 0.473365
0.564416 0.642847 0.484749
0.676143 0.660700 0.499428
0.785855 0.684169 0.520684
0.892302 0.727443 0.560357
0.449836 0.741695 0.501366
0.460609 0.741634 0.502037
0.500786 0.744289 0.505730
0.567681 0.750790 0.513390
0.649256 0.759121 0.524468
0.736934 0.770077 0.539971
0.822690 0.784115 0.561089
0.908843 0.811978 0.600427
0.631952 0.862852 0.568933
0.640101 0.863645 0.570642
0.666621 0.865812 0.576196
0.711818 0.870695 0.587366
0.767239 0.876585 0.602655
0.827573 0.884154 0.622889
0.888762 0.895048 0.649714
0.945037 0.908354 0.681971
0.000000 0.022431 0.235233
0.000000 0.063508 0.249027
0.135500 0.114900 0.289738
0.255772 0.170291 0.333440
0.380133 0.221866 0.378271
0.525658 0.270634 0.423529
0.685359 0.319524 0.460517
0.837400 0.394354 0.496132
0.000000 0.119478 0.268040
0.000000 0.131594 0.279454
0.145541 0.162295 0.308232
0.261662 0.203342 0.345495
0.385290 0.246372 0.386694
0.527184 0.289067 0.426978
0.684718 0.335393 0.462196
0.836820 0.407904 0.497414
0.000000 0.236515 0.325628
0.041321 0.243229 0.333043
0.174319 0.261143 0.353185
0.286137 0.286625 0.380865
0.410010 0.318059 0.413214
0.546929 0.350683 0.443122
0.697871 0.392737 0.472755
0.843595 0.459693 0.505272
0.093416 0.358038 0.386328
0.135775 0.361852 0.391455
0.225315 0.374701 0.406531
0.333440 0.394446 0.426337
0.451667 0.416449 0.446174
0.580835 0.441962 0.466041
0.721736 0.479652 0.489113
0.856687 0.540398 0.520134
0.202945 0.484016 0.440681
0.227665 0.486580 0.443488
0.296849 0.495003 0.451698
0.392676 0.509117 0.462409
0.505425 0.526604 0.475319
0.623468 0.546502 0.488838
0.749508 0.579889 0.508385
0.872526 0.633387 0.541527
0.313970 0.612390 0.478645
0.332341 0.614191 0.480293
0.386999 0.619165 0.484810
0.468208 0.628168 0.491341
0.567681 0.640955 0.500877
0.675990 0.658320 0.514214
0.785550 0.684169 0.535058
0.893797 0.730831 0.575647
0.462531 0.742794 0.516472
0.475105 0.742977 0.517784
0.513664 0.744656 0.521355
0.575860 0.749783 0.528008
0.653986 0.757656 0.538415
0.740230 0.769589 0.554223
0.825956 0.785885 0.576349
0.912718 0.816739 0.617304
0.637934 0.862272 0.582086
0.644770 0.862181 0.583185
0.669673 0.863920 0.588006
0.715450 0.869871 0.599939
0.769253 0.875639 0.614435
0.829282 0.884031 0.634730
0.890135 0.895598 0.661372
0.946319 0.909697 0.693660
0.000000 0.065400 0.357885
0.000000 0.081514 0.366552
0.102663 0.124208 0.389136
0.247349 0.177310 0.417609
0.379583 0.226688 0.444648
0.525628 0.272618 0.471748
0.685054 0.320409 0.495674
0.836332 0.393744 0.521111
0.000000 0.133944 0.380102
0.000000 0.142611 0.385626
0.120546 0.169894 0.401740
0.256687 0.209598 0.425605
0.387396 0.251499 0.450202
0.530388 0.292241 0.474647
0.686885 0.337102 0.497078
0.837095 0.408331 0.522454
0.000000 0.240604 0.411536
0.000000 0.247318 0.416144
0.163973 0.265385 0.428626
0.285374 0.290806 0.446174
0.413916 0.322454 0.466468
0.555871 0.356176 0.486152
0.708614 0.399329 0.506462
0.848539 0.465339 0.531304
0.091005 0.361456 0.450385
0.135073 0.365209 0.453010
0.227573 0.377234 0.461189
0.336645 0.395850 0.472969
0.455573 0.417792 0.485634
0.586145 0.444373 0.499306
0.725673 0.483192 0.516777
0.859464 0.543999 0.544182
0.216831 0.487312 0.482704
0.239231 0.489052 0.483864
0.306462 0.496712 0.488441
0.403296 0.511803 0.496590
0.514000 0.529137 0.505669
0.632136 0.551720 0.517021
0.756100 0.585626 0.534630
0.875822 0.637751 0.566186
0.330785 0.616022 0.507561
0.350866 0.620020 0.509453
0.404395 0.623987 0.512810
0.486580 0.632593 0.519493
0.581781 0.644984 0.527886
0.683680 0.660975 0.539666
0.790127 0.687922 0.560418
0.896117 0.734005 0.599207
0.473701 0.742885 0.539422
0.487037 0.743954 0.541100
0.528985 0.747036 0.545953
0.591791 0.752651 0.553857
0.666743 0.760739 0.564477
0.748226 0.772091 0.579431
0.829496 0.787350 0.599817
0.915129 0.819364 0.639582
0.646571 0.863859 0.605249
0.654414 0.864469 0.606928
0.678798 0.865934 0.611780
0.719020 0.869627 0.620569
0.771542 0.875486 0.634302
0.830716 0.884062 0.653590
0.891173 0.896147 0.679408
0.947417 0.911009 0.711116
0.000000 0.092287 0.453681
0.000000 0.104372 0.457649
0.091188 0.139071 0.467964
0.249149 0.185092 0.482155
0.388556 0.233951 0.498909
0.535180 0.277226 0.515618
0.693080 0.324804 0.533501
0.842466 0.400092 0.556725
0.000000 0.148470 0.463569
0.000000 0.156435 0.466621
0.117433 0.180392 0.474617
0.259953 0.215732 0.486244
0.396185 0.257694 0.501610
0.541558 0.297093 0.517662
0.697047 0.342321 0.535027
0.844053 0.415167 0.558160
0.000000 0.251926 0.480995
0.000000 0.257816 0.483345
0.172213 0.272190 0.488777
0.294469 0.295842 0.498421
0.420569 0.325109 0.509728
0.558709 0.356085 0.523095
0.707546 0.396704 0.539330
0.847898 0.460822 0.562402
0.116030 0.363500 0.499672
0.152956 0.367254 0.501183
0.240848 0.379675 0.506310
0.347448 0.397986 0.513848
0.464118 0.419196 0.522454
0.593042 0.444984 0.533623
0.729091 0.480995 0.548821
0.859373 0.532982 0.572045
0.236271 0.486366 0.519860
0.257420 0.489021 0.520958
0.320806 0.496742 0.524315
0.412146 0.509972 0.530022
0.517845 0.525963 0.537194
0.633814 0.547265 0.547143
0.755734 0.578820 0.563287
0.875212 0.628016 0.592126
0.344579 0.611627 0.539574
0.360388 0.613001 0.540429
0.410285 0.616907 0.542992
0.488502 0.625360 0.548363
0.579522 0.637995 0.555749
0.684352 0.657221 0.569177
0.792020 0.686793 0.590448
0.896971 0.730129 0.625635
0.485359 0.740841 0.571984
0.496620 0.741146 0.572930
0.534508 0.743404 0.576593
0.594629 0.748898 0.583490
0.666438 0.757626 0.592615
0.748409 0.769863 0.607446
0.829526 0.785397 0.626856
0.915587 0.817929 0.664179
0.647669 0.860380 0.633845
0.654444 0.860655 0.634943
0.677516 0.862119 0.638819
0.718502 0.868162 0.648035
0.766751 0.873960 0.657435
0.827268 0.882689 0.675715
0.889097 0.894926 0.700252
0.946593 0.910063 0.730495
0.000000 0.119661 0.522087
0.000000 0.128908 0.523735
0.140108 0.156283 0.528252
0.280888 0.196231 0.536797
0.416175 0.239261 0.547601
0.553674 0.283604 0.559594
0.706355 0.332158 0.579309
0.851591 0.410590 0.606134
0.000000 0.165866 0.525200
0.000000 0.172091 0.526452
0.156863 0.192599 0.530632
0.289433 0.224430 0.538628
0.421180 0.261570 0.548638
0.557061 0.302007 0.560510
0.708400 0.348272 0.580163
0.852171 0.424018 0.607050
0.000000 0.265049 0.536370
0.097749 0.268711 0.537377
0.206729 0.281529 0.541039
0.322667 0.302647 0.547539
0.446540 0.329564 0.556054
0.576806 0.361852 0.566857
0.720729 0.403571 0.585626
0.857786 0.470863 0.612390
0.165194 0.376501 0.549523
0.192721 0.379095 0.550439
0.268772 0.388495 0.554162
0.372503 0.404730 0.560967
0.489509 0.425818 0.569116
0.612085 0.452216 0.579278
0.742916 0.488685 0.596704
0.868772 0.542077 0.622766
0.265019 0.493965 0.564446
0.284001 0.496162 0.565423
0.343175 0.503349 0.568750
0.430518 0.515007 0.574395
0.532158 0.528527 0.581292
0.645136 0.548974 0.591547
0.762997 0.578332 0.608087
0.879026 0.620752 0.634119
0.371038 0.616175 0.584863
0.386908 0.618463 0.586175
0.435248 0.623346 0.589166
0.507958 0.631250 0.594232
0.593103 0.641718 0.601282
0.691920 0.658289 0.613001
0.795407 0.682826 0.631220
0.898619 0.719844 0.660670
0.504448 0.742397 0.618982
0.516106 0.743679 0.620356
0.551568 0.746151 0.623529
0.606714 0.751095 0.629206
0.673732 0.758907 0.637049
0.750546 0.770626 0.648432
0.833402 0.787015 0.667414
0.919982 0.819394 0.701930
0.655726 0.860410 0.677424
0.661921 0.860655 0.678218
0.683162 0.862119 0.681270
0.719142 0.866484 0.687526
0.765225 0.872740 0.695521
0.820859 0.881712 0.707118
0.886595 0.894804 0.731106
0.946654 0.910552 0.760159
0.000000 0.142306 0.590112
0.093812 0.149783 0.591638
0.211612 0.172366 0.596033
0.331884 0.205631 0.603510
0.458350 0.244541 0.613214
0.589075 0.288273 0.625269
0.718532 0.338689 0.639704
0.856657 0.418158 0.670039
0.034485 0.182193 0.592615
0.113741 0.187533 0.593988
0.220462 0.204837 0.597925
0.337133 0.232242 0.604822
0.461982 0.266484 0.614191
0.591455 0.306218 0.625971
0.719539 0.353826 0.640009
0.856291 0.429847 0.670039
0.123445 0.273655 0.602167
0.160220 0.276921 0.603174
0.249241 0.288182 0.606439
0.358953 0.307225 0.612604
0.479744 0.332982 0.621118
0.606043 0.365698 0.632288
0.730922 0.408270 0.646235
0.862699 0.476448 0.676112
0.198917 0.385168 0.615473
0.221225 0.386023 0.616083
0.289799 0.390845 0.618921
0.392767 0.405097 0.624567
0.508934 0.425238 0.632471
0.630762 0.453193 0.643091
0.749050 0.489204 0.656641
0.872068 0.544427 0.685634
0.296330 0.506767 0.631495
0.312566 0.507774 0.632166
0.364508 0.511467 0.634577
0.442695 0.516625 0.638666
0.543938 0.527977 0.645228
0.658717 0.550164 0.655634
0.769436 0.579461 0.669306
0.883543 0.624201 0.698268
0.408118 0.629908 0.653468
0.421027 0.631067 0.654231
0.463355 0.634760 0.656641
0.527123 0.640162 0.660822
0.605859 0.646815 0.666407
0.698726 0.658473 0.675563
0.798978 0.681331 0.690913
0.899687 0.714015 0.717861
0.527062 0.746120 0.682002
0.536858 0.747036 0.682856
0.568505 0.749508 0.685389
0.617792 0.753994 0.689876
0.680293 0.760494 0.696529
0.753323 0.770565 0.706661
0.834684 0.786343 0.722652
0.920348 0.812406 0.749294
0.660670 0.859190 0.731807
0.666835 0.859770 0.732692
0.688380 0.862547 0.736477
0.722316 0.866789 0.742123
0.767208 0.873106 0.750088
0.820706 0.882200 0.760983
0.881682 0.894652 0.776211
0.946410 0.911528 0.803891
0.152041 0.166629 0.701167
0.186282 0.172366 0.702419
0.273381 0.191531 0.705745
0.384405 0.221622 0.712093
0.506584 0.260685 0.720882
0.632624 0.308049 0.731930
0.755917 0.366552 0.745205
0.867277 0.437232 0.760006
0.158938 0.200259 0.702846
0.192111 0.204868 0.703975
0.277623 0.220523 0.707332
0.387671 0.246525 0.713375
0.509087 0.281651 0.721950
0.634699 0.325628 0.732753
0.757168 0.381353 0.745693
0.867704 0.449042 0.760433
0.177371 0.283452 0.709346
0.207980 0.286656 0.710292
0.290349 0.297276 0.713039
0.399359 0.317113 0.719295
0.519554 0.344823 0.727138
0.643366 0.381872 0.737179
0.763821 0.431739 0.749630
0.871550 0.490425 0.764370
0.202579 0.384283 0.719326
0.231022 0.386816 0.720302
0.310674 0.394903 0.722927
0.418036 0.410101 0.728176
0.537316 0.432929 0.735592
0.659449 0.464942 0.745144
0.775509 0.505394 0.757290
0.878843 0.553918 0.772183
0.318364 0.519341 0.735378
0.332464 0.519371 0.735927
0.376349 0.517784 0.736934
0.441474 0.512047 0.738430
0.559136 0.530816 0.745357
0.677790 0.556634 0.754849
0.789914 0.590509 0.767453
0.888945 0.630884 0.783841
0.450141 0.651270 0.756680
0.459754 0.651392 0.756802
0.491646 0.651514 0.757565
0.541894 0.650507 0.759121
0.608667 0.648371 0.761532
0.704341 0.658778 0.769406
0.810605 0.686458 0.784268
0.903532 0.719326 0.802579
0.578668 0.771206 0.784176
0.585443 0.771420 0.784451
0.607996 0.772213 0.785580
0.645869 0.773739 0.787991
0.697078 0.775875 0.791836
0.759518 0.778775 0.797482
0.836667 0.788052 0.808164
0.920928 0.813504 0.828489
0.689113 0.872953 0.818448
0.693660 0.873228 0.818814
0.709651 0.874479 0.820584
0.737758 0.877134 0.824186
0.776364 0.881285 0.829709
0.824247 0.887541 0.837888
0.881346 0.897337 0.850553
0.944884 0.913298 0.871092
