其他预设/【232】美食博客调色预设124款/1.3D LUT预设（视频调色-PR-AE-PS-FCPX-达芬奇用）/Food Art #38.cube
# Created by Adobe Lightroom plugin Export LUT (1.17.0)
# www.johnrellis.com/lightroom/exportlut.htm
# Preset: Food Art #38
# Color profile: /Library/Application Support/Adobe/Color/Profiles/Recommended/AdobeRGB1998.icc
LUT_3D_SIZE 8
DOMAIN_MIN 0.000000 0.000000 0.000000
DOMAIN_MAX 0.903226 0.903226 0.903226
0.156039 0.156039 0.156039
0.188785 0.166873 0.166812
0.272709 0.176761 0.176974
0.415290 0.187350 0.187411
0.577874 0.214664 0.214786
0.730220 0.267765 0.268101
0.840085 0.350622 0.350774
0.918761 0.462043 0.462104
0.169314 0.190005 0.169375
0.192630 0.192508 0.171817
0.271092 0.203983 0.179873
0.407691 0.221225 0.191104
0.569024 0.249424 0.218051
0.719753 0.294347 0.268467
0.831388 0.365026 0.347814
0.914305 0.469612 0.459541
0.185672 0.277653 0.185733
0.211582 0.279240 0.187320
0.285527 0.285527 0.193729
0.415930 0.313634 0.207187
0.575738 0.347448 0.237675
0.723690 0.386053 0.292058
0.837522 0.445106 0.379706
0.915801 0.530877 0.491096
0.214755 0.422400 0.214694
0.243748 0.422522 0.216587
0.326177 0.427405 0.223880
0.452125 0.452155 0.244144
0.605249 0.486275 0.281346
0.733700 0.508598 0.336614
0.834257 0.542412 0.416999
0.909636 0.602838 0.522515
0.275303 0.588708 0.275395
0.301244 0.588739 0.277470
0.379400 0.592218 0.286412
0.490181 0.602045 0.304875
0.609552 0.609583 0.329259
0.725978 0.618952 0.377234
0.824582 0.638788 0.456123
0.901701 0.682612 0.561822
0.366705 0.721004 0.366888
0.389960 0.725521 0.374243
0.447089 0.725277 0.382116
0.532067 0.725856 0.397986
0.628840 0.726375 0.420172
0.729793 0.729854 0.451606
0.823850 0.739284 0.516533
0.897459 0.764767 0.613245
0.494728 0.821500 0.494789
0.506981 0.822110 0.498207
0.541222 0.820493 0.503593
0.598749 0.819608 0.516747
0.668788 0.818357 0.534936
0.746365 0.819608 0.562676
0.822934 0.822965 0.595789
0.892790 0.832914 0.655970
0.636011 0.895018 0.636042
0.641596 0.894774 0.637201
0.662348 0.894499 0.642878
0.699245 0.895140 0.655573
0.736690 0.891112 0.660243
0.791348 0.892973 0.682643
0.847532 0.896178 0.709712
0.899138 0.899168 0.735988
0.165194 0.165316 0.185916
0.187594 0.167849 0.187594
0.260746 0.182376 0.202609
0.392401 0.196658 0.222873
0.555718 0.225223 0.253300
0.707942 0.276982 0.300877
0.822934 0.356664 0.372778
0.908293 0.464790 0.474464
0.170230 0.189334 0.189334
0.193637 0.193637 0.193637
0.263401 0.207462 0.207492
0.392889 0.225620 0.225650
0.553704 0.255985 0.255924
0.703517 0.302464 0.302495
0.816800 0.371069 0.371160
0.903777 0.470924 0.470863
0.188937 0.270665 0.209995
0.214450 0.272618 0.214389
0.280766 0.280827 0.220737
0.403876 0.309117 0.238376
0.559228 0.344823 0.270359
0.705440 0.384649 0.319127
0.818814 0.440497 0.392706
0.904601 0.526452 0.496284
0.217319 0.410101 0.242679
0.245823 0.410742 0.245701
0.323369 0.418647 0.253605
0.433722 0.433814 0.268620
0.575372 0.464912 0.300267
0.708614 0.493538 0.348943
0.815824 0.531456 0.422248
0.899351 0.595789 0.523980
0.281224 0.579858 0.303746
0.304997 0.579187 0.304875
0.377447 0.580804 0.311528
0.479652 0.586419 0.325444
0.593164 0.593103 0.344915
0.712245 0.608392 0.390692
0.814511 0.633021 0.465980
0.895018 0.678950 0.566522
0.369970 0.711849 0.385351
0.387518 0.712184 0.387518
0.442786 0.712673 0.395148
0.526909 0.715267 0.411170
0.623590 0.718593 0.433906
0.725002 0.725032 0.466133
0.818540 0.736019 0.528069
0.892912 0.761898 0.617548
0.492287 0.812955 0.500999
0.501061 0.811917 0.500999
0.536217 0.811398 0.507500
0.595453 0.812497 0.522881
0.666560 0.813230 0.542992
0.742519 0.814633 0.568353
0.817350 0.817380 0.597467
0.887663 0.827787 0.654475
0.634089 0.891173 0.638544
0.640650 0.891386 0.640650
0.661707 0.891417 0.646693
0.698543 0.892454 0.659327
0.743679 0.892851 0.674067
0.794095 0.893339 0.691737
0.846860 0.894987 0.713558
0.897276 0.897307 0.736873
0.171176 0.171389 0.264683
0.197940 0.174014 0.264347
0.266209 0.184726 0.266117
0.394873 0.200778 0.299199
0.551537 0.239597 0.339025
0.700923 0.317540 0.396216
0.815122 0.410376 0.464637
0.900237 0.518029 0.552209
0.181308 0.202152 0.261479
0.204959 0.204837 0.262516
0.268681 0.211521 0.268650
0.393225 0.231388 0.300694
0.548425 0.271366 0.341863
0.696498 0.337469 0.395941
0.810910 0.421210 0.462715
0.897856 0.524743 0.551110
0.193759 0.273594 0.273594
0.218204 0.276890 0.276860
0.303044 0.303044 0.303044
0.409369 0.318761 0.318944
0.559380 0.359716 0.359625
0.699733 0.409461 0.409430
0.810147 0.475532 0.475532
0.895506 0.563195 0.563195
0.221958 0.410071 0.315618
0.250950 0.412024 0.319066
0.334630 0.425147 0.334386
0.440162 0.440162 0.349767
0.576410 0.473152 0.385229
0.705043 0.509209 0.433783
0.810361 0.557336 0.500725
0.892973 0.624903 0.586847
0.285679 0.575586 0.373022
0.313787 0.575525 0.377295
0.391211 0.578027 0.391363
0.487617 0.586572 0.404761
0.595911 0.595880 0.422583
0.708675 0.613825 0.464240
0.808103 0.645197 0.531121
0.889250 0.694209 0.615137
0.380987 0.708186 0.442237
0.403815 0.707424 0.448798
0.463020 0.705837 0.463142
0.536858 0.707790 0.474739
0.624842 0.711513 0.492561
0.718929 0.718898 0.519066
0.810880 0.735897 0.575341
0.888975 0.768307 0.653681
0.512535 0.810666 0.547356
0.526970 0.808988 0.552972
0.561089 0.806851 0.561059
0.611017 0.807065 0.570977
0.674189 0.808164 0.585809
0.745205 0.811582 0.607355
0.817594 0.817594 0.634638
0.887816 0.832425 0.687434
0.646296 0.888457 0.664912
0.653101 0.887510 0.667353
0.671290 0.887358 0.671290
0.707515 0.889616 0.684260
0.749264 0.890257 0.696376
0.797818 0.891844 0.712886
0.848692 0.894408 0.732815
0.897856 0.897856 0.754696
0.174472 0.174105 0.397955
0.209445 0.177768 0.397833
0.295415 0.188174 0.395880
0.399878 0.204532 0.399695
0.551293 0.243900 0.439948
0.694240 0.318578 0.481392
0.802731 0.426947 0.536858
0.886625 0.550530 0.617487
0.185702 0.214542 0.392798
0.216373 0.216464 0.393256
0.297642 0.222995 0.394903
0.401862 0.236576 0.401923
0.551781 0.277073 0.442634
0.691218 0.345892 0.483894
0.799222 0.445869 0.540642
0.884398 0.562585 0.621363
0.202487 0.300694 0.396643
0.231846 0.302586 0.397040
0.311955 0.311833 0.403510
0.416419 0.326177 0.416388
0.559808 0.370245 0.457771
0.694759 0.434852 0.506615
0.801389 0.524834 0.573724
0.885649 0.605615 0.639612
0.231113 0.417487 0.417609
0.259373 0.419104 0.419165
0.342107 0.431250 0.431312
0.474952 0.474952 0.474952
0.580438 0.489326 0.489448
0.695552 0.528862 0.528985
0.797757 0.585504 0.585504
0.883665 0.651881 0.651881
0.295079 0.574945 0.469093
0.321080 0.573846 0.470222
0.398627 0.577142 0.479835
0.507683 0.594629 0.507713
0.604608 0.604608 0.522301
0.706355 0.626093 0.557610
0.801450 0.663630 0.610590
0.883024 0.711208 0.671748
0.395056 0.708675 0.522576
0.420874 0.711147 0.530144
0.482826 0.707668 0.542412
0.565759 0.708583 0.565881
0.640406 0.713313 0.579248
0.720333 0.720333 0.596948
0.806607 0.741451 0.639277
0.884581 0.775845 0.698665
0.520928 0.808164 0.597986
0.536522 0.807645 0.603418
0.581537 0.805783 0.619135
0.637018 0.805509 0.637049
0.691096 0.807797 0.647608
0.752621 0.811490 0.661769
0.817136 0.817136 0.679927
0.885527 0.834928 0.724514
0.654078 0.888670 0.696742
0.662165 0.888365 0.700038
0.686244 0.886931 0.708919
0.719448 0.886625 0.719478
0.757351 0.887724 0.728908
0.802365 0.889982 0.742245
0.850462 0.893400 0.758968
0.897948 0.897948 0.778134
0.187716 0.187655 0.552697
0.225986 0.191073 0.552605
0.320378 0.202670 0.549737
0.434424 0.223148 0.549889
0.556756 0.254307 0.556817
0.691493 0.326909 0.582818
0.799405 0.434180 0.616083
0.884398 0.556756 0.672755
0.199496 0.231510 0.547326
0.234531 0.234562 0.548760
0.324804 0.243015 0.548150
0.435615 0.259037 0.548241
0.556512 0.286625 0.556481
0.690669 0.355200 0.584588
0.798001 0.455756 0.619928
0.883024 0.570001 0.676326
0.229313 0.330877 0.544335
0.261845 0.334478 0.543908
0.341100 0.341039 0.544732
0.445747 0.354589 0.550622
0.558953 0.374548 0.558953
0.685969 0.431647 0.588556
0.792020 0.515984 0.630030
0.877867 0.606622 0.684901
0.263249 0.447272 0.555047
0.291691 0.448829 0.554681
0.373236 0.458045 0.557946
0.478431 0.478401 0.569879
0.581323 0.495033 0.581415
0.691676 0.538781 0.609491
0.790005 0.598749 0.652094
0.875395 0.662623 0.702419
0.311528 0.572473 0.572503
0.336309 0.573449 0.573388
0.408972 0.577447 0.577478
0.511009 0.592737 0.592798
0.626764 0.626764 0.626764
0.703944 0.637263 0.637201
0.792630 0.670893 0.670893
0.875578 0.717556 0.717617
0.398016 0.696925 0.602167
0.417731 0.696407 0.603693
0.476204 0.694514 0.608453
0.559655 0.697017 0.622553
0.644404 0.707362 0.644373
0.718715 0.718746 0.660212
0.802274 0.743771 0.693538
0.879789 0.779232 0.739712
0.527550 0.802518 0.657160
0.540032 0.801358 0.659174
0.580041 0.799161 0.667079
0.636408 0.798947 0.680720
0.695460 0.802243 0.695491
0.752956 0.807279 0.706691
0.813596 0.813565 0.720516
0.881651 0.834043 0.757992
0.651606 0.883818 0.728725
0.658503 0.883268 0.730404
0.681209 0.882017 0.736294
0.720882 0.883513 0.750118
0.760494 0.884062 0.760494
0.803128 0.886717 0.770993
0.849302 0.890593 0.784207
0.895628 0.895628 0.799741
0.216587 0.216220 0.695003
0.251926 0.220981 0.694453
0.343420 0.235843 0.691371
0.458381 0.262974 0.690547
0.577295 0.300450 0.690517
0.691218 0.346044 0.691127
0.797452 0.447425 0.704860
0.882933 0.568383 0.738705
0.231968 0.260014 0.687739
0.263371 0.263188 0.687190
0.349432 0.274876 0.685786
0.459937 0.296971 0.685725
0.575860 0.328893 0.686213
0.688319 0.369818 0.688228
0.794980 0.465461 0.704555
0.881163 0.579034 0.739620
0.284428 0.369848 0.683803
0.308202 0.371954 0.683467
0.380102 0.380011 0.683436
0.478309 0.395758 0.684382
0.584131 0.418006 0.685542
0.688808 0.447730 0.688838
0.792355 0.527489 0.709957
0.878477 0.617762 0.746487
0.330510 0.482856 0.687373
0.354620 0.485451 0.685908
0.427985 0.498756 0.684504
0.517479 0.517510 0.688991
0.608179 0.534386 0.693477
0.698177 0.554467 0.698116
0.793759 0.609705 0.722866
0.877256 0.672145 0.758236
0.375830 0.591913 0.689937
0.397162 0.593713 0.689845
0.461097 0.600366 0.689845
0.548089 0.614710 0.692927
0.631830 0.631861 0.700069
0.706905 0.643519 0.706935
0.793271 0.677424 0.731106
0.873930 0.724239 0.766781
0.432807 0.697322 0.697322
0.451850 0.698543 0.698604
0.505058 0.699641 0.699641
0.577996 0.703426 0.703426
0.653315 0.712886 0.712856
0.738369 0.738338 0.738338
0.804501 0.751827 0.751827
0.877470 0.784115 0.784146
0.543053 0.800290 0.727291
0.556023 0.800443 0.729061
0.592004 0.799222 0.732143
0.642512 0.799344 0.737972
0.699092 0.802335 0.746670
0.760616 0.809934 0.760647
0.816434 0.816434 0.770565
0.882597 0.838712 0.800626
0.657588 0.881743 0.774258
0.663600 0.881254 0.775051
0.684443 0.880186 0.778195
0.718532 0.880430 0.784970
0.759518 0.881376 0.793545
0.804196 0.884123 0.804196
0.849241 0.888914 0.815061
0.894560 0.894560 0.827359
0.266148 0.265660 0.798184
0.294713 0.272404 0.799039
0.373053 0.290379 0.797574
0.476844 0.321050 0.796078
0.586999 0.361730 0.793851
0.693446 0.409766 0.791684
0.790494 0.461646 0.790463
0.877134 0.570367 0.803220
0.282170 0.302556 0.791501
0.308110 0.307836 0.792294
0.380835 0.322240 0.791470
0.479316 0.347387 0.789761
0.585534 0.382208 0.787594
0.688838 0.423133 0.785245
0.783993 0.468727 0.783963
0.871763 0.570153 0.797879
0.345525 0.410224 0.789303
0.364172 0.412818 0.789029
0.421851 0.421851 0.787625
0.506310 0.439246 0.786435
0.600122 0.462531 0.784451
0.695125 0.493233 0.783658
0.785458 0.531029 0.785397
0.873045 0.615808 0.804501
0.416541 0.525383 0.788235
0.434150 0.528923 0.786587
0.485756 0.540032 0.783841
0.552056 0.551965 0.784268
0.628565 0.566674 0.783963
0.709957 0.586969 0.785733
0.789548 0.610224 0.789548
0.873533 0.670497 0.811215
0.455146 0.616785 0.785733
0.469398 0.618189 0.784207
0.517082 0.625666 0.781491
0.584192 0.639124 0.780240
0.649622 0.649592 0.781094
0.717586 0.659846 0.783719
0.788540 0.673640 0.788479
0.871733 0.723354 0.815335
0.507195 0.709987 0.788083
0.520104 0.711086 0.787778
0.559716 0.714687 0.787228
0.615167 0.720943 0.787808
0.675319 0.728389 0.789822
0.740658 0.740658 0.796292
0.802792 0.751156 0.802762
0.875212 0.783505 0.826291
0.568200 0.797208 0.797238
0.578698 0.797879 0.797879
0.608240 0.798154 0.798184
0.651423 0.799619 0.799619
0.701747 0.801419 0.801450
0.759335 0.807706 0.807706
0.825101 0.825101 0.825101
0.882231 0.840421 0.840452
0.656001 0.876310 0.820218
0.662165 0.876188 0.820676
0.686671 0.877836 0.824735
0.719417 0.878569 0.828519
0.759182 0.879667 0.833249
0.803281 0.882444 0.840024
0.849546 0.887968 0.849546
0.893858 0.893858 0.858518
0.335729 0.335485 0.877775
0.356329 0.341436 0.878019
0.416175 0.357946 0.876310
0.504234 0.389227 0.875242
0.602350 0.430671 0.873442
0.699672 0.478767 0.871366
0.790524 0.531273 0.870207
0.869078 0.577142 0.869078
0.351965 0.365606 0.874693
0.371130 0.370947 0.874937
0.427558 0.385443 0.873747
0.510887 0.412329 0.872374
0.605676 0.449653 0.870848
0.700404 0.493233 0.868894
0.788815 0.540063 0.867521
0.866667 0.582361 0.866636
0.406989 0.454200 0.869871
0.421790 0.457618 0.869810
0.466407 0.466255 0.868162
0.542016 0.490272 0.868956
0.624811 0.516686 0.867369
0.709163 0.547234 0.865293
0.790799 0.581781 0.864805
0.865171 0.614527 0.865171
0.484138 0.564202 0.864897
0.495735 0.566979 0.865171
0.529076 0.572503 0.864225
0.585595 0.585473 0.864134
0.653285 0.602106 0.863798
0.724636 0.620325 0.863310
0.796628 0.641444 0.863981
0.865751 0.663691 0.865721
0.526543 0.647059 0.863157
0.538964 0.650446 0.863218
0.572076 0.657069 0.861570
0.620356 0.666285 0.860075
0.673823 0.673793 0.859953
0.735073 0.683986 0.860319
0.800961 0.699001 0.862516
0.866941 0.718898 0.866941
0.572351 0.728756 0.863523
0.579400 0.729091 0.862760
0.603906 0.730892 0.861021
0.642847 0.734554 0.859617
0.692988 0.740719 0.859098
0.752010 0.751980 0.862119
0.814206 0.766934 0.867796
0.874571 0.783841 0.874540
0.625910 0.807797 0.868711
0.631434 0.807767 0.868315
0.650324 0.808103 0.867399
0.683192 0.810178 0.867216
0.725765 0.813535 0.867582
0.775235 0.819303 0.869596
0.829923 0.829892 0.875608
0.879911 0.837644 0.879942
0.685023 0.879026 0.879026
0.689021 0.878752 0.878782
0.704097 0.878660 0.878660
0.730709 0.879301 0.879301
0.764828 0.880247 0.880247
0.803769 0.881865 0.881895
0.846555 0.885466 0.885496
0.894835 0.894835 0.894835
