其他预设/【232】美食博客调色预设124款/1.3D LUT预设（视频调色-PR-AE-PS-FCPX-达芬奇用）/Food Art #45.cube
# Created by Adobe Lightroom plugin Export LUT (1.17.0)
# www.johnrellis.com/lightroom/exportlut.htm
# Preset: Food Art #45
# Color profile: /Library/Application Support/Adobe/Color/Profiles/Recommended/AdobeRGB1998.icc
LUT_3D_SIZE 32
0.071443 0.079866 0.155734
0.071443 0.079866 0.155734
0.074922 0.080354 0.156405
0.097230 0.082063 0.161105
0.122805 0.085481 0.167514
0.149294 0.094636 0.176669
0.174563 0.103822 0.185061
0.199802 0.114046 0.193912
0.225834 0.124483 0.202670
0.252140 0.135866 0.211765
0.278691 0.147463 0.222141
0.305028 0.160403 0.233249
0.331273 0.174044 0.244572
0.357610 0.188785 0.256474
0.383886 0.203891 0.268498
0.410315 0.219455 0.280674
0.437049 0.235233 0.293004
0.464179 0.251102 0.305150
0.491463 0.266819 0.317571
0.522972 0.284703 0.331395
0.556054 0.303319 0.345678
0.590509 0.322301 0.360235
0.625971 0.341833 0.375250
0.661158 0.362158 0.391119
0.696071 0.383368 0.407507
0.731228 0.406714 0.425483
0.765957 0.432258 0.445533
0.799527 0.460700 0.467994
0.831907 0.492744 0.493568
0.862669 0.529168 0.522972
0.891752 0.568902 0.555566
0.918853 0.611322 0.590784
0.071443 0.079866 0.155734
0.071443 0.079866 0.155734
0.075654 0.080201 0.156680
0.098695 0.084352 0.162081
0.126223 0.092897 0.170565
0.151766 0.101106 0.179049
0.176913 0.109560 0.187411
0.201724 0.119234 0.195712
0.227268 0.129244 0.204379
0.253391 0.139834 0.213230
0.279423 0.151369 0.223514
0.305669 0.163973 0.234104
0.331609 0.177340 0.245518
0.357855 0.191623 0.257176
0.383978 0.206394 0.269078
0.410285 0.221653 0.281376
0.436835 0.237064 0.293584
0.463691 0.252811 0.305852
0.490974 0.268284 0.317815
0.522210 0.285985 0.331670
0.554833 0.304143 0.345556
0.588861 0.322850 0.360021
0.624079 0.342199 0.374853
0.659205 0.362280 0.390448
0.694118 0.383673 0.407019
0.729335 0.406592 0.424872
0.764218 0.431922 0.444678
0.797971 0.460426 0.467170
0.830472 0.492256 0.492592
0.861448 0.528557 0.522057
0.890654 0.568200 0.554559
0.917876 0.610468 0.589776
0.074708 0.084565 0.157931
0.075105 0.085725 0.158450
0.081788 0.088045 0.160250
0.104921 0.094820 0.166934
0.130861 0.102876 0.175113
0.155947 0.109682 0.182406
0.179660 0.117433 0.189944
0.204410 0.126101 0.198032
0.229313 0.135256 0.206394
0.254948 0.145388 0.215335
0.280797 0.156435 0.225498
0.306676 0.168673 0.235996
0.332586 0.181888 0.247227
0.358587 0.195682 0.258946
0.384527 0.210086 0.270542
0.410773 0.225071 0.282353
0.437263 0.240208 0.294774
0.464118 0.255436 0.306798
0.491218 0.270878 0.318883
0.522301 0.288487 0.332311
0.554772 0.306218 0.346227
0.588586 0.324681 0.360540
0.623713 0.343877 0.375250
0.658686 0.363745 0.390753
0.693538 0.385016 0.407233
0.728603 0.407935 0.425147
0.763485 0.433082 0.444892
0.797299 0.461494 0.467353
0.829892 0.493202 0.492744
0.860929 0.529351 0.521996
0.890166 0.568872 0.554589
0.917418 0.610986 0.589715
0.089021 0.108034 0.169162
0.089845 0.109346 0.169741
0.098848 0.111452 0.172457
0.117983 0.116091 0.177188
0.141360 0.122133 0.183413
0.163943 0.127321 0.189853
0.186770 0.133272 0.196506
0.210391 0.140200 0.203494
0.234531 0.148013 0.211124
0.259220 0.157412 0.220005
0.284459 0.167453 0.229862
0.309911 0.179080 0.240024
0.335271 0.191531 0.250889
0.360845 0.204623 0.262394
0.386603 0.218326 0.273594
0.412512 0.232547 0.285344
0.438941 0.247074 0.297154
0.465461 0.261906 0.309087
0.492866 0.277073 0.320989
0.523278 0.293919 0.334356
0.555047 0.311192 0.347662
0.588434 0.329076 0.361944
0.623316 0.347997 0.376318
0.658412 0.367864 0.391882
0.693568 0.388983 0.408362
0.728969 0.411963 0.426337
0.764065 0.437232 0.446357
0.797879 0.465583 0.468879
0.830381 0.497169 0.494423
0.861204 0.532982 0.523644
0.890227 0.571954 0.555962
0.917296 0.613642 0.590936
0.105409 0.135592 0.182467
0.109255 0.136721 0.183291
0.117159 0.138277 0.185306
0.133181 0.141939 0.189181
0.155215 0.147494 0.194919
0.176791 0.151492 0.200229
0.197604 0.155093 0.205356
0.219150 0.160189 0.211765
0.241886 0.166720 0.219059
0.265568 0.174624 0.227359
0.289860 0.183749 0.236484
0.314611 0.194186 0.246311
0.339452 0.205478 0.256626
0.364538 0.217746 0.267582
0.389837 0.230472 0.278538
0.415686 0.243809 0.289830
0.441840 0.257694 0.301427
0.468238 0.271885 0.312840
0.496223 0.286778 0.324895
0.526055 0.302892 0.337682
0.557336 0.319493 0.350774
0.590326 0.337072 0.364630
0.624781 0.355413 0.379034
0.659632 0.375006 0.394415
0.694545 0.395727 0.410651
0.729854 0.418555 0.428748
0.764736 0.443580 0.448798
0.798337 0.471412 0.471229
0.830655 0.502770 0.496620
0.861265 0.538201 0.525841
0.890166 0.576745 0.558068
0.917174 0.617762 0.592798
0.124117 0.162722 0.195712
0.129335 0.163668 0.196872
0.135409 0.165011 0.198306
0.148684 0.168063 0.201480
0.167758 0.172488 0.206088
0.190311 0.178470 0.212222
0.211582 0.182284 0.217960
0.231083 0.185275 0.223392
0.252262 0.189914 0.229587
0.274510 0.196445 0.237125
0.297734 0.204410 0.245670
0.321508 0.213413 0.254734
0.345525 0.223545 0.264439
0.370001 0.234531 0.274784
0.394995 0.246311 0.285130
0.420417 0.258793 0.296056
0.446326 0.271641 0.307134
0.472541 0.285008 0.318303
0.500847 0.299718 0.330144
0.530419 0.315099 0.342565
0.561486 0.331060 0.355505
0.594324 0.348150 0.368963
0.642969 0.375372 0.390051
0.677302 0.394842 0.405707
0.711482 0.415747 0.422431
0.745571 0.438392 0.440711
0.778592 0.463386 0.460883
0.810361 0.491066 0.483711
0.840909 0.522240 0.509514
0.869932 0.557153 0.538842
0.897307 0.594415 0.570520
0.922850 0.633967 0.604517
0.145388 0.191928 0.210697
0.149813 0.192691 0.211551
0.155093 0.193759 0.212955
0.166384 0.196323 0.215793
0.183017 0.200046 0.220066
0.203189 0.204959 0.225406
0.226017 0.211063 0.232151
0.247440 0.215335 0.237827
0.266697 0.218204 0.243442
0.287724 0.223148 0.250278
0.309667 0.229770 0.257755
0.332586 0.237491 0.266117
0.355688 0.246281 0.275212
0.379675 0.256077 0.284672
0.403906 0.266575 0.294560
0.428626 0.277928 0.304723
0.454078 0.289860 0.314977
0.481025 0.302861 0.326024
0.509422 0.316930 0.337896
0.539117 0.331914 0.350225
0.571038 0.348028 0.363287
0.605310 0.365606 0.377142
0.640742 0.384314 0.392340
0.676173 0.404364 0.408270
0.711330 0.425666 0.425513
0.745876 0.448371 0.444038
0.778988 0.473182 0.464607
0.810666 0.500511 0.487404
0.841001 0.531182 0.513115
0.869780 0.565240 0.542321
0.897002 0.601617 0.573602
0.922423 0.640406 0.607385
0.166140 0.219608 0.226047
0.169619 0.220310 0.226658
0.174258 0.221225 0.227787
0.184207 0.223117 0.229953
0.198428 0.226535 0.233738
0.216281 0.230564 0.238590
0.236790 0.235874 0.244358
0.259251 0.242130 0.251225
0.280766 0.246891 0.257694
0.300023 0.250278 0.263279
0.320592 0.255467 0.270176
0.342321 0.261906 0.277623
0.364630 0.269566 0.285954
0.387793 0.278050 0.294591
0.411505 0.287602 0.303685
0.435676 0.297673 0.313146
0.461128 0.308843 0.323369
0.488075 0.321324 0.334203
0.515618 0.334417 0.345098
0.544640 0.348394 0.356725
0.575891 0.363775 0.369390
0.609491 0.380621 0.382971
0.644068 0.398688 0.397650
0.678920 0.418097 0.413336
0.713375 0.438666 0.430426
0.747463 0.461036 0.448768
0.780087 0.485145 0.469184
0.811398 0.511833 0.492042
0.841428 0.542016 0.517906
0.869963 0.575189 0.546624
0.897002 0.610742 0.577966
0.922271 0.648646 0.611536
0.188357 0.247929 0.242100
0.191226 0.248631 0.242649
0.195193 0.249424 0.243839
0.203555 0.251102 0.245853
0.216129 0.253696 0.248753
0.231540 0.257359 0.253025
0.250004 0.261875 0.258030
0.270298 0.267247 0.264042
0.292363 0.273564 0.271000
0.314092 0.279210 0.277775
0.333410 0.283085 0.283726
0.353948 0.288334 0.290379
0.375616 0.294926 0.297795
0.397833 0.302342 0.305669
0.420752 0.310796 0.314275
0.444892 0.320195 0.323339
0.470619 0.331090 0.333135
0.496651 0.342412 0.343236
0.523278 0.354223 0.353552
0.551690 0.367407 0.364630
0.582422 0.382116 0.376837
0.615290 0.398169 0.390112
0.649104 0.415656 0.404486
0.683131 0.434455 0.419898
0.716915 0.454475 0.436774
0.750271 0.475990 0.455024
0.782315 0.499641 0.475441
0.813077 0.525719 0.498054
0.842557 0.555169 0.524041
0.870726 0.587335 0.552605
0.897429 0.621790 0.583368
0.922423 0.658625 0.616693
0.211154 0.276493 0.258518
0.213657 0.277043 0.259129
0.216892 0.277623 0.259861
0.224094 0.279210 0.261570
0.234806 0.281498 0.264469
0.248661 0.284550 0.268009
0.265049 0.288426 0.272526
0.283482 0.293126 0.277775
0.303685 0.298863 0.284031
0.325353 0.305364 0.290990
0.347265 0.311650 0.298039
0.366705 0.315923 0.303990
0.387366 0.321447 0.310491
0.408911 0.327947 0.317754
0.432136 0.336248 0.326085
0.456611 0.345525 0.334905
0.481483 0.355230 0.343999
0.506828 0.365606 0.353491
0.532830 0.376623 0.363317
0.560540 0.388891 0.374090
0.590600 0.402777 0.385779
0.622370 0.417975 0.398383
0.654719 0.434333 0.412207
0.687465 0.452125 0.427131
0.720394 0.471351 0.443702
0.752865 0.492256 0.461738
0.784390 0.515251 0.482094
0.814725 0.540917 0.505028
0.843931 0.569757 0.531090
0.871916 0.601038 0.559442
0.898375 0.634699 0.590265
0.923156 0.670649 0.623438
0.233494 0.304875 0.275059
0.235630 0.305241 0.275608
0.238682 0.306004 0.276280
0.245029 0.307195 0.277592
0.254551 0.309239 0.280186
0.266758 0.312169 0.283330
0.281621 0.315770 0.287480
0.298528 0.320073 0.292332
0.317082 0.325292 0.297734
0.337499 0.331243 0.304143
0.358862 0.337896 0.310918
0.380957 0.344671 0.318212
0.401007 0.349767 0.324346
0.422919 0.356176 0.331395
0.445472 0.363622 0.338994
0.468696 0.371832 0.347173
0.492622 0.380438 0.355474
0.517021 0.389776 0.364263
0.542412 0.399847 0.373632
0.569604 0.411444 0.383734
0.599023 0.424537 0.395148
0.629938 0.439124 0.407385
0.661585 0.454994 0.421088
0.693416 0.472206 0.435920
0.725612 0.490822 0.452155
0.757107 0.510979 0.470161
0.787625 0.533227 0.490486
0.817197 0.558190 0.513451
0.845731 0.585931 0.539178
0.873198 0.615991 0.567224
0.899260 0.648463 0.597650
0.923766 0.683101 0.630304
0.256443 0.333837 0.291478
0.258457 0.334264 0.291997
0.261082 0.334783 0.292760
0.266361 0.336004 0.294194
0.275059 0.337926 0.296208
0.286137 0.340581 0.299168
0.299413 0.343877 0.302861
0.314946 0.347906 0.307103
0.332341 0.352758 0.312078
0.351293 0.358160 0.317784
0.371618 0.364538 0.324376
0.394415 0.372564 0.331792
0.424353 0.387121 0.343389
0.445747 0.393072 0.350134
0.467903 0.399634 0.357244
0.490547 0.406958 0.364660
0.514000 0.414832 0.372656
0.537896 0.423194 0.380987
0.562676 0.432380 0.389715
0.589502 0.443244 0.399573
0.617975 0.455573 0.410407
0.647303 0.469062 0.422492
0.677089 0.483742 0.435492
0.707454 0.500023 0.450233
0.737911 0.517571 0.466438
0.767666 0.537011 0.484474
0.796658 0.558434 0.504814
0.824704 0.582330 0.527672
0.851865 0.608545 0.552880
0.878172 0.637018 0.580224
0.903105 0.667842 0.610040
0.926757 0.700526 0.641688
0.280888 0.365606 0.309514
0.282506 0.365942 0.309941
0.284855 0.366369 0.310552
0.289586 0.367346 0.311711
0.297154 0.368902 0.313420
0.306950 0.371008 0.315740
0.319097 0.373968 0.319066
0.333318 0.377630 0.323033
0.349554 0.382269 0.327611
0.368658 0.388647 0.333623
0.389441 0.396002 0.340276
0.411719 0.404150 0.347631
0.435370 0.413031 0.355810
0.459998 0.422339 0.364233
0.481575 0.428595 0.370947
0.503746 0.435187 0.378027
0.526360 0.442298 0.385412
0.549340 0.449775 0.392920
0.573480 0.458198 0.401343
0.599512 0.468238 0.410620
0.626856 0.479774 0.421180
0.655177 0.492439 0.432898
0.683955 0.506493 0.445869
0.713436 0.521874 0.460243
0.742794 0.538659 0.476234
0.771572 0.557305 0.494270
0.799710 0.578027 0.514611
0.827024 0.601007 0.537255
0.853727 0.626001 0.562066
0.879484 0.653407 0.589227
0.904082 0.683009 0.618647
0.927489 0.714290 0.649653
0.303380 0.395544 0.325963
0.304906 0.395758 0.326299
0.306737 0.396185 0.326818
0.311284 0.397101 0.327886
0.318120 0.398505 0.329320
0.327245 0.400885 0.331884
0.338964 0.404150 0.335088
0.352605 0.408179 0.338933
0.368353 0.412940 0.343542
0.386023 0.418708 0.348974
0.405371 0.425330 0.355016
0.426429 0.432807 0.361761
0.448768 0.440864 0.369116
0.472023 0.449378 0.377050
0.496101 0.458228 0.385107
0.517662 0.464240 0.391852
0.539330 0.470405 0.398627
0.561639 0.477241 0.405707
0.585138 0.485054 0.413519
0.610132 0.494362 0.422522
0.636500 0.505119 0.432776
0.663844 0.517144 0.444282
0.691737 0.530449 0.457099
0.720394 0.545220 0.471443
0.748623 0.561425 0.487404
0.776425 0.579248 0.505425
0.803616 0.599084 0.525780
0.830259 0.620905 0.548119
0.856321 0.644862 0.572656
0.881559 0.671046 0.599359
0.905669 0.699458 0.628443
0.928771 0.729183 0.658747
0.327214 0.428016 0.343511
0.328710 0.428382 0.343877
0.330510 0.428748 0.344396
0.334600 0.429694 0.345464
0.340978 0.431159 0.346838
0.349432 0.433265 0.349065
0.360052 0.435920 0.351904
0.372564 0.439368 0.355383
0.387243 0.443702 0.359411
0.403662 0.448951 0.364416
0.421912 0.455055 0.370031
0.441840 0.461952 0.376226
0.463172 0.469459 0.383093
0.485451 0.477455 0.390448
0.508476 0.485573 0.398108
0.532067 0.493874 0.406043
0.553460 0.499855 0.412543
0.574884 0.505852 0.419287
0.597528 0.512993 0.426673
0.621607 0.521477 0.435309
0.646845 0.531304 0.445289
0.673121 0.542596 0.456580
0.700008 0.555261 0.469306
0.727535 0.569299 0.483558
0.754757 0.584741 0.499550
0.781643 0.601923 0.517845
0.808194 0.621118 0.538079
0.834440 0.642206 0.560418
0.859983 0.665370 0.584894
0.884794 0.690730 0.611719
0.908568 0.717952 0.640375
0.931365 0.746334 0.670100
0.350988 0.461036 0.361151
0.352453 0.461555 0.361578
0.354162 0.461952 0.362066
0.357977 0.462898 0.363012
0.363989 0.464149 0.364355
0.371893 0.466224 0.366400
0.381750 0.468818 0.369024
0.393622 0.472175 0.372320
0.407355 0.476173 0.376135
0.422950 0.480934 0.380652
0.440070 0.486366 0.385809
0.458778 0.492409 0.391485
0.478523 0.498970 0.397803
0.499550 0.505974 0.404395
0.521386 0.513329 0.411383
0.543938 0.521019 0.418677
0.567132 0.528954 0.426551
0.588739 0.535180 0.433204
0.610590 0.541650 0.440558
0.633814 0.549523 0.449104
0.658198 0.558892 0.459113
0.683711 0.569574 0.470405
0.709926 0.581720 0.483131
0.736263 0.595056 0.497414
0.762387 0.609827 0.513848
0.788327 0.626337 0.531975
0.814023 0.644465 0.552056
0.839414 0.664515 0.574090
0.864164 0.686488 0.598260
0.888151 0.710506 0.624475
0.911254 0.735927 0.652125
0.933440 0.762509 0.680690
0.374090 0.493568 0.378302
0.375250 0.493843 0.378576
0.376898 0.494179 0.379004
0.380499 0.494972 0.379797
0.385931 0.496193 0.381231
0.393378 0.498085 0.383093
0.402655 0.500481 0.385626
0.413764 0.503410 0.388586
0.426673 0.507256 0.392065
0.441260 0.511650 0.396368
0.457618 0.516655 0.401251
0.475349 0.522301 0.406500
0.494301 0.528588 0.412451
0.514397 0.535180 0.418708
0.535393 0.542107 0.425391
0.556970 0.549126 0.432380
0.579187 0.556390 0.439704
0.602014 0.564019 0.447547
0.623682 0.570520 0.455055
0.645838 0.577478 0.463325
0.669337 0.586023 0.473121
0.693721 0.596094 0.484413
0.718898 0.607446 0.497017
0.744015 0.620020 0.511467
0.769131 0.633997 0.527764
0.794186 0.649561 0.545739
0.819120 0.666835 0.565667
0.843778 0.685878 0.587427
0.867918 0.706905 0.611414
0.891325 0.729610 0.636988
0.913970 0.753597 0.663783
0.935729 0.778775 0.691737
0.397345 0.526635 0.395911
0.398657 0.527092 0.396277
0.405280 0.534661 0.400458
0.408576 0.535363 0.401129
0.413916 0.536492 0.402472
0.420630 0.538048 0.404211
0.429389 0.540002 0.406226
0.439612 0.542596 0.408942
0.452003 0.545830 0.412238
0.465888 0.549798 0.416114
0.481270 0.554406 0.420630
0.498207 0.559503 0.425757
0.516258 0.564843 0.431128
0.535332 0.570672 0.437110
0.555200 0.576623 0.443397
0.575799 0.582788 0.450233
0.596918 0.589227 0.457313
0.618524 0.595880 0.464790
0.640528 0.602869 0.472694
0.662135 0.609522 0.481239
0.684169 0.617029 0.490761
0.707362 0.626032 0.501701
0.730861 0.636286 0.514549
0.754513 0.647700 0.528771
0.778012 0.660212 0.544213
0.801694 0.674311 0.561547
0.825223 0.689998 0.580591
0.848692 0.707607 0.601740
0.871855 0.727138 0.624811
0.894621 0.748409 0.649592
0.916747 0.770932 0.675502
0.937987 0.794583 0.702571
0.422400 0.562676 0.414832
0.424201 0.563958 0.415503
0.426368 0.565301 0.416571
0.430152 0.566949 0.417884
0.435523 0.568719 0.419196
0.442451 0.570520 0.421118
0.450690 0.572503 0.423316
0.460761 0.574945 0.425940
0.472328 0.578027 0.429145
0.485420 0.581567 0.432868
0.500206 0.585626 0.437232
0.516228 0.590204 0.442023
0.533318 0.595087 0.447364
0.551537 0.600214 0.453162
0.570520 0.605646 0.459266
0.590082 0.611261 0.465827
0.610285 0.617029 0.472816
0.631006 0.623163 0.480171
0.652125 0.629664 0.488319
0.673671 0.636744 0.496742
0.695369 0.644007 0.506340
0.717464 0.652338 0.517540
0.739925 0.661769 0.530144
0.762600 0.672236 0.544091
0.785306 0.684016 0.559350
0.808103 0.697261 0.576349
0.830900 0.712062 0.595148
0.853574 0.728725 0.615991
0.876066 0.747097 0.638575
0.898192 0.766964 0.662470
0.919738 0.788113 0.687526
0.940490 0.810422 0.713710
0.446418 0.596551 0.433326
0.448310 0.597681 0.433997
0.450385 0.598962 0.434913
0.453925 0.600427 0.436164
0.459083 0.602045 0.437751
0.465614 0.603693 0.439521
0.473457 0.605493 0.441718
0.482948 0.607660 0.444282
0.494026 0.610407 0.447364
0.506462 0.613642 0.450935
0.520500 0.617304 0.455299
0.535821 0.621485 0.460060
0.552148 0.625910 0.465248
0.569482 0.630579 0.470954
0.587549 0.635492 0.476936
0.606226 0.640589 0.483467
0.625605 0.645930 0.490181
0.645289 0.651606 0.497749
0.665553 0.657679 0.505791
0.686213 0.664088 0.514336
0.706966 0.670863 0.523461
0.727962 0.678279 0.533806
0.749386 0.686915 0.546197
0.770993 0.696559 0.559899
0.792752 0.707393 0.574975
0.814694 0.719753 0.591699
0.836576 0.733577 0.610040
0.858457 0.749142 0.630274
0.880247 0.766262 0.652003
0.901762 0.784817 0.674983
0.922728 0.804654 0.699245
0.942962 0.825589 0.724636
0.472175 0.630365 0.453162
0.473823 0.631464 0.454078
0.475898 0.632593 0.454963
0.479408 0.633967 0.456214
0.484321 0.635462 0.457618
0.490394 0.636957 0.459419
0.497871 0.638605 0.461524
0.506676 0.640528 0.464027
0.517205 0.642908 0.466957
0.528985 0.645777 0.470710
0.542168 0.649073 0.474739
0.556756 0.652766 0.479347
0.572290 0.656733 0.484535
0.588769 0.661036 0.490272
0.606073 0.665614 0.496376
0.624201 0.670497 0.502861
0.642817 0.675624 0.510094
0.662043 0.681117 0.517967
0.681575 0.686946 0.526329
0.701472 0.693111 0.535088
0.721462 0.699733 0.544549
0.741482 0.706600 0.554376
0.761532 0.713985 0.565332
0.782376 0.723110 0.579004
0.803372 0.733394 0.594141
0.824399 0.745052 0.610742
0.845426 0.758053 0.628962
0.866545 0.772549 0.648432
0.887480 0.788418 0.669306
0.908110 0.805661 0.691463
0.928283 0.824063 0.714717
0.947723 0.843534 0.739040
0.502739 0.667597 0.477241
0.503929 0.668208 0.477729
0.505455 0.668818 0.478279
0.508415 0.669551 0.479225
0.512749 0.670558 0.480537
0.518456 0.671717 0.482277
0.525353 0.673182 0.484260
0.533898 0.674952 0.486793
0.543908 0.677272 0.489998
0.555200 0.679896 0.493690
0.567956 0.683070 0.497902
0.581842 0.686397 0.502678
0.596612 0.689967 0.507927
0.612177 0.693660 0.513512
0.628443 0.697597 0.519707
0.645319 0.701778 0.526177
0.662715 0.706172 0.533165
0.680568 0.710964 0.540703
0.698756 0.715999 0.548547
0.717189 0.721340 0.556939
0.735683 0.727016 0.565759
0.754147 0.732906 0.575036
0.772549 0.739040 0.584710
0.790951 0.745785 0.595422
0.810880 0.755154 0.610132
0.831052 0.765927 0.626368
0.851438 0.778042 0.643793
0.871794 0.791562 0.662623
0.892119 0.806424 0.682826
0.912108 0.822507 0.704158
0.931609 0.839689 0.726528
0.950561 0.858000 0.750118
0.532525 0.700710 0.501091
0.533715 0.701289 0.501701
0.535302 0.701808 0.502342
0.538018 0.702510 0.503136
0.542077 0.703365 0.504601
0.547295 0.704311 0.506249
0.553948 0.705470 0.508141
0.561730 0.706935 0.510613
0.571069 0.708827 0.513756
0.581659 0.711055 0.517449
0.593469 0.713710 0.521630
0.606348 0.716579 0.526390
0.620081 0.719631 0.531395
0.634607 0.722988 0.536950
0.649744 0.726497 0.542931
0.665583 0.730282 0.549248
0.681880 0.734310 0.556023
0.698604 0.738582 0.563348
0.715724 0.743252 0.571160
0.733089 0.748226 0.579431
0.750576 0.753445 0.588128
0.768002 0.758938 0.597345
0.785428 0.764645 0.606897
0.802457 0.770596 0.616724
0.817838 0.775235 0.625330
0.837247 0.785153 0.640772
0.856870 0.796445 0.657649
0.876585 0.809049 0.675868
0.896239 0.822904 0.695247
0.915679 0.837980 0.715877
0.934691 0.854185 0.737667
0.953277 0.871519 0.760616
0.567620 0.734859 0.529839
0.568719 0.735409 0.530449
0.570184 0.735836 0.530907
0.572534 0.736324 0.531731
0.576013 0.736873 0.532952
0.580713 0.737575 0.534295
0.586542 0.738399 0.536095
0.593378 0.739406 0.538231
0.601617 0.740719 0.540856
0.610986 0.742367 0.544305
0.621485 0.744289 0.547936
0.632990 0.746578 0.552148
0.645472 0.749081 0.556909
0.658534 0.751797 0.561913
0.672328 0.754604 0.567315
0.686610 0.757626 0.573175
0.701411 0.760922 0.579431
0.716762 0.764584 0.586267
0.732662 0.768734 0.593805
0.748928 0.773281 0.601953
0.765316 0.778164 0.610620
0.781735 0.783200 0.619593
0.797971 0.788449 0.628595
0.813809 0.793698 0.637659
0.829221 0.798978 0.646845
0.844572 0.804654 0.656397
0.863310 0.814969 0.672389
0.882170 0.826566 0.689693
0.901061 0.839353 0.708278
0.919799 0.853391 0.728115
0.938262 0.868589 0.749142
0.956359 0.884916 0.771389
0.600519 0.764614 0.557122
0.601587 0.765133 0.557794
0.602899 0.765499 0.558404
0.605097 0.765927 0.559228
0.608270 0.766384 0.560204
0.612512 0.767056 0.561639
0.617792 0.767819 0.563378
0.624170 0.768795 0.565606
0.631769 0.770047 0.568231
0.640436 0.771603 0.571435
0.650111 0.773373 0.575158
0.660822 0.775479 0.579461
0.672450 0.777859 0.584100
0.684565 0.780331 0.589105
0.697353 0.782925 0.594476
0.710597 0.785763 0.600275
0.724392 0.788754 0.606409
0.738613 0.792081 0.613092
0.753262 0.795834 0.620325
0.768246 0.799924 0.628046
0.783352 0.804318 0.636133
0.798520 0.808896 0.644526
0.813535 0.813687 0.653040
0.828275 0.818509 0.661707
0.842710 0.823423 0.670375
0.856840 0.828367 0.679072
0.870634 0.833524 0.687984
0.888731 0.844205 0.704524
0.906889 0.856199 0.722438
0.924956 0.869322 0.741543
0.942870 0.883574 0.761959
0.960327 0.898833 0.783413
0.635676 0.794156 0.586999
0.636713 0.794522 0.587579
0.637629 0.794705 0.587915
0.639551 0.795010 0.588647
0.642267 0.795315 0.589563
0.645991 0.795773 0.590814
0.650629 0.796353 0.592401
0.656275 0.797147 0.594385
0.663172 0.798215 0.596948
0.671015 0.799619 0.600153
0.679896 0.801205 0.603784
0.689723 0.803128 0.607935
0.700343 0.805234 0.612390
0.711482 0.807523 0.617334
0.723079 0.809873 0.622431
0.735195 0.812375 0.627955
0.747646 0.815122 0.633661
0.760555 0.818082 0.639857
0.773922 0.821439 0.646662
0.787564 0.825132 0.653742
0.801480 0.829068 0.661341
0.815396 0.833280 0.669245
0.829252 0.837583 0.677211
0.842954 0.842039 0.685359
0.856352 0.846555 0.693629
0.869505 0.851133 0.701900
0.882383 0.855802 0.710231
0.894987 0.860624 0.718685
0.911955 0.871214 0.735134
0.929473 0.883513 0.753597
0.946777 0.896880 0.773251
0.963622 0.911101 0.793912
0.671077 0.821714 0.617700
0.671839 0.821927 0.618036
0.672724 0.822141 0.618433
0.674434 0.822416 0.619165
0.677058 0.822843 0.620081
0.680659 0.823423 0.621576
0.685298 0.824338 0.623590
0.691035 0.825528 0.626062
0.697780 0.826963 0.629053
0.705501 0.828702 0.632593
0.714076 0.830655 0.636591
0.723323 0.832792 0.641016
0.733181 0.835050 0.645655
0.743526 0.837369 0.650568
0.754147 0.839719 0.655573
0.765042 0.842039 0.660761
0.776333 0.844541 0.666224
0.787900 0.847257 0.672023
0.799924 0.850248 0.678309
0.812192 0.853513 0.684871
0.824704 0.857023 0.691798
0.837278 0.860746 0.699062
0.849790 0.864561 0.706477
0.862181 0.868528 0.714046
0.874418 0.872557 0.721645
0.886381 0.876677 0.729427
0.898131 0.880919 0.737148
0.909697 0.885283 0.745113
0.921019 0.889891 0.753231
0.936645 0.900084 0.769223
0.953063 0.912352 0.787930
0.969024 0.925383 0.807614
0.710719 0.851225 0.652644
0.711360 0.851408 0.652979
0.712001 0.851499 0.653193
0.713405 0.851682 0.653742
0.715541 0.851926 0.654566
0.718441 0.852323 0.655695
0.722286 0.852934 0.657282
0.726955 0.853727 0.659205
0.732509 0.854765 0.661707
0.738949 0.856046 0.664576
0.746090 0.857450 0.667842
0.753994 0.859098 0.671595
0.762387 0.860868 0.675593
0.771359 0.862760 0.679805
0.780728 0.864744 0.684352
0.790463 0.866850 0.689143
