其他预设/【232】美食博客调色预设124款/1.3D LUT预设（视频调色-PR-AE-PS-FCPX-达芬奇用）/Food Art #25.cube
# Created by Adobe Lightroom plugin Export LUT (1.17.0)
# www.johnrellis.com/lightroom/exportlut.htm
# Preset: Food Art #25
# Color profile: /Library/Application Support/Adobe/Color/Profiles/Recommended/AdobeRGB1998.icc
LUT_3D_SIZE 32
0.158175 0.104372 0.168734
0.171756 0.103670 0.170382
0.189181 0.102480 0.172244
0.224155 0.099763 0.176577
0.264561 0.096315 0.183139
0.303166 0.093019 0.190890
0.340581 0.088808 0.197910
0.375952 0.084749 0.206241
0.409979 0.082216 0.214084
0.442725 0.080690 0.222629
0.474769 0.080934 0.232181
0.505974 0.084077 0.242527
0.536400 0.090761 0.253269
0.566003 0.099794 0.265324
0.594903 0.111055 0.277348
0.623163 0.122805 0.289311
0.650965 0.135164 0.301457
0.677790 0.148501 0.313237
0.703090 0.162325 0.324651
0.730282 0.177523 0.337499
0.756619 0.193362 0.349645
0.781582 0.208835 0.361975
0.805264 0.224460 0.373632
0.827848 0.240177 0.385229
0.849577 0.256016 0.396582
0.870695 0.272435 0.408331
0.891295 0.289586 0.420203
0.911528 0.307744 0.432532
0.931334 0.327062 0.445624
0.950683 0.347784 0.459205
0.969390 0.370428 0.473854
0.987243 0.394934 0.489387
0.161166 0.116518 0.172183
0.174655 0.116060 0.173373
0.192050 0.115175 0.175051
0.226383 0.113741 0.179782
0.266117 0.110475 0.186343
0.304479 0.107271 0.193301
0.341222 0.102785 0.200259
0.376196 0.099184 0.208194
0.409827 0.095796 0.216129
0.442634 0.094209 0.224216
0.474495 0.094392 0.233463
0.505516 0.096468 0.243565
0.535760 0.101930 0.254459
0.565423 0.109865 0.266300
0.594110 0.119448 0.278233
0.622339 0.130587 0.290501
0.649958 0.141848 0.302281
0.676905 0.154299 0.313787
0.702144 0.167086 0.325292
0.729152 0.181949 0.337713
0.755245 0.196628 0.349828
0.780148 0.211765 0.361639
0.803769 0.226902 0.373266
0.826352 0.242100 0.384863
0.848142 0.257694 0.396216
0.869352 0.273930 0.407874
0.890105 0.290684 0.419623
0.910399 0.308843 0.432105
0.930327 0.327977 0.445136
0.949767 0.348608 0.458839
0.968566 0.371008 0.473304
0.986542 0.395178 0.488746
0.165438 0.132174 0.176486
0.179141 0.131624 0.177768
0.196048 0.131014 0.180117
0.229435 0.130251 0.184543
0.268284 0.127260 0.191043
0.306188 0.123232 0.196994
0.342290 0.118898 0.203555
0.376867 0.114778 0.210697
0.410315 0.111604 0.218357
0.442695 0.109377 0.226658
0.474434 0.108949 0.235752
0.505455 0.110719 0.245670
0.535607 0.115267 0.256596
0.565148 0.122133 0.268040
0.593744 0.130739 0.280156
0.621942 0.140230 0.291539
0.649561 0.150820 0.303471
0.676387 0.162173 0.314702
0.701686 0.174105 0.326024
0.728634 0.187991 0.338445
0.754635 0.202060 0.350347
0.779416 0.216526 0.362097
0.802976 0.231174 0.373754
0.825559 0.245792 0.385107
0.847410 0.261234 0.396460
0.868620 0.277043 0.407904
0.889433 0.293523 0.419776
0.909789 0.311315 0.432227
0.929747 0.330175 0.445258
0.949279 0.350652 0.458869
0.968139 0.372656 0.473213
0.986084 0.396765 0.488808
0.176394 0.162051 0.186221
0.189242 0.161593 0.187655
0.205692 0.161013 0.189853
0.236484 0.159945 0.194064
0.273808 0.156832 0.199222
0.310216 0.152316 0.203861
0.345220 0.147280 0.210178
0.379156 0.142611 0.216587
0.411963 0.138705 0.223362
0.443885 0.136324 0.231327
0.475227 0.135286 0.240299
0.505943 0.136294 0.250278
0.535851 0.139712 0.260868
0.565148 0.145083 0.272038
0.593713 0.151278 0.283238
0.621698 0.159335 0.294957
0.649226 0.168063 0.306218
0.675959 0.177829 0.317235
0.701595 0.188602 0.328618
0.727993 0.200961 0.340368
0.753628 0.213596 0.351965
0.778134 0.226810 0.363439
0.801755 0.240452 0.374762
0.824491 0.254490 0.386175
0.846586 0.269078 0.397375
0.868070 0.284367 0.409003
0.889097 0.300511 0.420722
0.909575 0.317845 0.433265
0.929564 0.336339 0.446174
0.949065 0.356237 0.459785
0.967834 0.377783 0.474159
0.985718 0.401221 0.489418
0.189487 0.195560 0.199222
0.201022 0.195254 0.200351
0.215457 0.194736 0.202396
0.243015 0.193820 0.205478
0.279820 0.192569 0.210269
0.315953 0.187778 0.214603
0.349554 0.181643 0.219242
0.382177 0.176303 0.224552
0.414160 0.171786 0.230900
0.445380 0.168948 0.238987
0.476295 0.167361 0.247379
0.506584 0.167758 0.257053
0.536248 0.169711 0.267430
0.565270 0.173373 0.278202
0.593713 0.178378 0.289036
0.621698 0.184695 0.299931
0.649317 0.191684 0.310887
0.675990 0.199924 0.321416
0.702113 0.209201 0.332586
0.728176 0.219730 0.343725
0.753353 0.230777 0.354772
0.777707 0.242679 0.366033
0.801144 0.254856 0.377020
0.823850 0.267948 0.388159
0.845945 0.281437 0.399237
0.867521 0.295781 0.410712
0.888518 0.311192 0.422461
0.909026 0.327550 0.434638
0.929015 0.345373 0.447547
0.948486 0.364508 0.460883
0.967285 0.385351 0.475257
0.985199 0.408179 0.490455
0.202579 0.228733 0.212375
0.212406 0.228519 0.213413
0.225254 0.228244 0.214450
0.249638 0.227268 0.217014
0.282933 0.226078 0.221347
0.320623 0.224735 0.226413
0.355657 0.219638 0.231235
0.386908 0.213260 0.235904
0.417762 0.207980 0.241794
0.448219 0.204257 0.249088
0.478462 0.202304 0.257084
0.508232 0.201785 0.266423
0.537407 0.202792 0.276219
0.566247 0.205173 0.286076
0.594537 0.208713 0.296086
0.622431 0.213504 0.306645
0.649897 0.219272 0.316777
0.676387 0.225925 0.327031
0.703059 0.233951 0.337743
0.728786 0.242954 0.348455
0.753872 0.252628 0.359258
0.778103 0.262943 0.369970
0.810666 0.280919 0.385901
0.832944 0.292973 0.396887
0.854459 0.305547 0.407660
0.875212 0.318730 0.418799
0.895415 0.332982 0.430243
0.915099 0.348180 0.442176
0.934325 0.364843 0.454627
0.953094 0.382910 0.467659
0.971099 0.402838 0.481666
0.988220 0.424598 0.496590
0.217288 0.262608 0.226383
0.225925 0.262181 0.227024
0.236881 0.262058 0.228183
0.258793 0.261265 0.230961
0.288914 0.260319 0.234073
0.323674 0.258946 0.239170
0.360876 0.257420 0.244755
0.394629 0.253117 0.250065
0.424262 0.246952 0.255894
0.454231 0.242679 0.262425
0.483742 0.239994 0.270329
0.513146 0.238682 0.278416
0.541955 0.238804 0.287388
0.570336 0.239933 0.296391
0.598199 0.242252 0.306126
0.625574 0.245640 0.315465
0.652735 0.250217 0.325017
0.680018 0.256046 0.334752
0.706447 0.263005 0.345220
0.732235 0.270634 0.355505
0.757626 0.279606 0.366064
0.782559 0.289128 0.376654
0.806607 0.299687 0.387762
0.829892 0.310887 0.398810
0.852262 0.322911 0.410010
0.873594 0.335393 0.421241
0.894072 0.348791 0.432563
0.913878 0.363104 0.444312
0.933227 0.378637 0.456550
0.951934 0.395911 0.469642
0.970001 0.414740 0.483406
0.987182 0.435554 0.498146
0.232364 0.293278 0.241337
0.239506 0.293126 0.242374
0.249149 0.292851 0.243229
0.268559 0.292149 0.245090
0.295445 0.291356 0.248203
0.326696 0.290166 0.252781
0.360845 0.288975 0.258091
0.396277 0.288060 0.264500
0.428931 0.284886 0.271031
0.457740 0.279759 0.276646
0.486732 0.276371 0.283726
0.515465 0.274418 0.291051
0.543755 0.273747 0.298833
0.571801 0.274052 0.306889
0.599298 0.275517 0.315862
0.626459 0.277897 0.324193
0.653956 0.281682 0.333196
0.681270 0.286564 0.342626
0.707057 0.291997 0.351873
0.732235 0.298314 0.361456
0.757321 0.305608 0.371557
0.781827 0.313878 0.381750
0.805661 0.323003 0.392035
0.828733 0.332952 0.402838
0.851011 0.343542 0.413458
0.872313 0.354986 0.424292
0.892790 0.367102 0.435431
0.912657 0.380255 0.447028
0.932006 0.394934 0.459205
0.950805 0.410986 0.472053
0.968933 0.428962 0.485725
0.986145 0.448798 0.500450
0.249882 0.323430 0.258579
0.255802 0.323339 0.259281
0.264164 0.323217 0.260014
0.280766 0.322667 0.261936
0.304326 0.322087 0.264775
0.332403 0.321172 0.268772
0.363684 0.320348 0.273350
0.396582 0.319677 0.278691
0.430365 0.319005 0.285557
0.462318 0.317327 0.292027
0.490486 0.313359 0.297642
0.518669 0.310704 0.304143
0.546410 0.309422 0.311406
0.574060 0.309056 0.318517
0.601099 0.309728 0.326513
0.628504 0.311620 0.334386
0.656489 0.314977 0.342809
0.682979 0.318700 0.351232
0.708034 0.322698 0.359777
0.732876 0.327764 0.368597
0.757504 0.333898 0.377661
0.781674 0.340795 0.387335
0.805264 0.348638 0.397223
0.828153 0.357427 0.407477
0.850248 0.366766 0.417792
0.871427 0.376898 0.428412
0.891936 0.387915 0.439277
0.911742 0.400061 0.450477
0.931090 0.413458 0.462470
0.949859 0.428504 0.475044
0.967926 0.445350 0.488685
0.985138 0.464118 0.503197
0.267887 0.353704 0.276219
0.273320 0.353552 0.276677
0.280034 0.353399 0.277379
0.294591 0.352941 0.279240
0.315465 0.352483 0.281437
0.340734 0.351934 0.284916
0.369024 0.351171 0.289189
0.399451 0.350713 0.294102
0.431098 0.350408 0.299504
0.463386 0.350408 0.305699
0.494514 0.349737 0.312566
0.521904 0.346715 0.317937
0.549248 0.344884 0.324163
0.576440 0.344060 0.330846
0.604211 0.344884 0.337652
0.632105 0.346868 0.345251
0.659419 0.349248 0.352758
0.685298 0.351751 0.360357
0.709865 0.354864 0.368231
0.734157 0.358709 0.376318
0.758267 0.363500 0.384863
0.781796 0.369207 0.393866
0.804868 0.375647 0.402899
0.827268 0.382940 0.412573
0.849027 0.391119 0.422522
0.870146 0.400031 0.432654
0.890623 0.409979 0.443214
0.910582 0.421088 0.454322
0.930022 0.433661 0.466194
0.948913 0.447791 0.478767
0.967102 0.463783 0.492317
0.984375 0.481697 0.506828
0.285801 0.383673 0.293492
0.290196 0.383520 0.294133
0.296361 0.383490 0.294774
0.308904 0.383215 0.296147
0.327611 0.382910 0.298222
0.350439 0.382513 0.301091
0.376379 0.382238 0.304967
0.404456 0.381964 0.309148
0.434272 0.381872 0.313909
0.464851 0.382116 0.319493
0.495674 0.382574 0.325658
0.525994 0.382849 0.331823
0.553094 0.380987 0.337255
0.580713 0.380499 0.343420
0.608179 0.380896 0.349584
0.635340 0.381994 0.356268
0.661799 0.383429 0.362921
0.686976 0.385107 0.369665
0.711025 0.386877 0.376898
0.734981 0.389746 0.384314
0.758633 0.393652 0.392309
0.781918 0.398260 0.400427
0.804715 0.403815 0.409277
0.826902 0.410101 0.418524
0.848569 0.417212 0.428016
0.869535 0.425086 0.437720
0.889830 0.433936 0.448096
0.909697 0.443946 0.458778
0.929076 0.455421 0.470375
0.947906 0.468513 0.482734
0.966033 0.483375 0.496223
0.983276 0.500328 0.510643
0.303532 0.414252 0.310826
0.307469 0.414160 0.311101
0.313054 0.414069 0.311833
0.324102 0.413947 0.312902
0.340581 0.413886 0.314733
0.361181 0.413611 0.317357
0.385107 0.413519 0.320226
0.411322 0.413489 0.324071
0.439277 0.413611 0.328435
0.468147 0.414008 0.333196
0.497841 0.414679 0.338567
0.528527 0.416724 0.344793
0.564843 0.424689 0.354406
0.592309 0.424170 0.359686
0.619562 0.424079 0.365423
0.646387 0.424537 0.370916
0.671962 0.424933 0.376745
0.696193 0.425330 0.383093
0.719509 0.426032 0.389319
0.742672 0.427741 0.396246
0.765560 0.430243 0.403357
0.787930 0.433570 0.411231
0.809781 0.437598 0.419165
0.831235 0.442634 0.427741
0.852171 0.448432 0.436805
0.872557 0.455146 0.446143
0.892424 0.462776 0.455940
0.911742 0.471595 0.466285
0.930632 0.481880 0.477577
0.949035 0.493782 0.489601
0.966766 0.507469 0.502770
0.983673 0.523156 0.517021
0.322087 0.447578 0.328008
0.325566 0.447578 0.328435
0.330297 0.447364 0.328862
0.340246 0.447150 0.329808
0.355077 0.446815 0.331273
0.373602 0.446571 0.333257
0.395544 0.446326 0.335912
0.419837 0.446357 0.339025
0.446174 0.446632 0.342931
0.474586 0.448463 0.347601
0.504051 0.450690 0.353155
0.534295 0.453315 0.358892
0.564935 0.456275 0.364874
0.595361 0.459480 0.371313
0.622370 0.459510 0.376104
0.648737 0.459571 0.381476
0.673701 0.459174 0.386603
0.697353 0.458656 0.392157
0.720211 0.458564 0.397833
0.742977 0.459297 0.404181
0.765408 0.460975 0.410834
0.787472 0.463386 0.418036
0.809049 0.466621 0.425879
0.830289 0.470680 0.433967
0.851072 0.475532 0.442512
0.871366 0.481239 0.451453
0.891112 0.488045 0.461097
0.910399 0.495979 0.471229
0.929290 0.505272 0.482307
0.947723 0.516258 0.494179
0.965454 0.528985 0.507225
0.982361 0.543847 0.521569
0.338567 0.478676 0.343145
0.341802 0.478645 0.343511
0.345953 0.478492 0.343816
0.354955 0.478309 0.344488
0.368200 0.478065 0.345892
0.385504 0.478096 0.347814
0.406043 0.478645 0.350317
0.429084 0.479377 0.353216
0.454231 0.480385 0.356817
0.480934 0.481880 0.360998
0.508873 0.483742 0.365362
0.537652 0.486305 0.370397
0.566888 0.488960 0.375738
0.596277 0.491890 0.381292
0.625422 0.494728 0.386999
0.651148 0.494331 0.391577
0.675349 0.493172 0.396277
0.698451 0.491920 0.401251
0.720974 0.491035 0.406470
0.743343 0.491066 0.412360
0.765438 0.491981 0.418616
0.787259 0.493629 0.425360
0.808682 0.496101 0.432715
0.829740 0.499397 0.440589
0.850370 0.503502 0.448707
0.870512 0.508385 0.457435
0.890166 0.514305 0.466835
0.909422 0.521447 0.476783
0.928252 0.529900 0.487678
0.946624 0.540002 0.499550
0.964355 0.551995 0.512566
0.981231 0.565942 0.526879
0.355444 0.512230 0.358160
0.358160 0.512291 0.358618
0.362066 0.512291 0.358679
0.370275 0.512261 0.359564
0.382635 0.512169 0.360540
0.398535 0.512230 0.362219
0.417365 0.512444 0.364324
0.438849 0.512963 0.366857
0.462348 0.513756 0.369635
0.487526 0.515221 0.373236
0.514031 0.516930 0.377356
0.541527 0.519127 0.381781
0.569512 0.521538 0.386328
0.597711 0.524010 0.391363
0.625727 0.526360 0.396490
0.653376 0.528496 0.401495
0.677485 0.527245 0.405921
0.699977 0.525170 0.410254
0.722011 0.523705 0.415198
0.743984 0.522942 0.420539
0.765713 0.523064 0.426398
0.787198 0.524010 0.432959
0.808316 0.525811 0.439765
0.829191 0.528344 0.447303
0.849699 0.531670 0.455360
0.869780 0.535973 0.463783
0.889494 0.541283 0.473121
0.908843 0.547845 0.483070
0.927794 0.555810 0.493965
0.946227 0.565393 0.505943
0.963989 0.576776 0.519158
0.980804 0.590112 0.533806
0.371527 0.546227 0.372045
0.374273 0.546349 0.372503
0.377691 0.546288 0.372717
0.385199 0.546380 0.373327
0.396612 0.546288 0.374517
0.411383 0.546380 0.375738
0.428931 0.546685 0.377539
0.448981 0.547173 0.379858
0.471168 0.547875 0.382513
0.494942 0.548882 0.385626
0.519982 0.550011 0.389014
0.545861 0.551598 0.392950
0.572198 0.553063 0.397009
0.598840 0.554711 0.401282
0.625513 0.556329 0.405524
0.652125 0.558068 0.410040
0.678401 0.559686 0.414862
0.701442 0.558251 0.419196
0.723293 0.556176 0.423865
0.745052 0.555047 0.428870
0.766567 0.554742 0.434546
0.787869 0.555077 0.440803
0.808865 0.556237 0.447547
0.829557 0.558190 0.454780
0.849912 0.560967 0.462470
0.869902 0.564630 0.471077
0.889494 0.569299 0.480140
0.908721 0.575158 0.489998
0.927489 0.582483 0.500938
0.945769 0.591150 0.512779
0.963256 0.601587 0.525963
0.979858 0.613947 0.540581
0.386816 0.577813 0.385077
0.389166 0.577783 0.385321
0.392157 0.577783 0.385687
0.399237 0.577691 0.386084
0.409735 0.577661 0.386938
0.423194 0.577630 0.388190
0.439460 0.577813 0.389868
0.458198 0.578058 0.391699
0.478828 0.578576 0.394171
0.501152 0.579217 0.396826
0.524834 0.580285 0.399939
0.549340 0.581415 0.403296
0.574487 0.582788 0.407019
0.599939 0.584070 0.410986
0.625574 0.585382 0.414984
0.651118 0.586633 0.418982
0.676478 0.587884 0.423468
0.701839 0.589471 0.427985
0.724544 0.588403 0.432258
0.745815 0.586603 0.436988
0.766995 0.585626 0.442481
0.787991 0.585412 0.448341
0.808743 0.585901 0.454749
0.829282 0.587335 0.461891
0.849485 0.589532 0.469520
0.869383 0.592645 0.477974
0.888914 0.596765 0.486946
0.908080 0.602045 0.496803
0.926787 0.608667 0.507683
0.944976 0.616754 0.519677
0.962432 0.626551 0.532952
0.978973 0.637995 0.547509
0.401556 0.607935 0.397650
0.403815 0.608118 0.397833
0.410224 0.614374 0.400855
0.416449 0.614313 0.401373
0.426184 0.614130 0.402197
0.438575 0.613886 0.403052
0.453681 0.613672 0.404425
0.470863 0.613642 0.406073
0.490303 0.613794 0.407996
0.511284 0.614221 0.410437
0.533501 0.614801 0.413153
0.556725 0.615534 0.416114
0.580529 0.616236 0.419318
0.604791 0.617121 0.422797
0.629297 0.617945 0.426459
0.653803 0.618799 0.430030
0.678340 0.619715 0.433997
0.702785 0.620661 0.438025
0.727199 0.621881 0.442329
0.749416 0.620935 0.446906
0.769924 0.619043 0.451911
0.790402 0.618006 0.457435
0.810727 0.617700 0.463630
0.830777 0.618311 0.470527
0.850462 0.619562 0.477852
0.869841 0.621729 0.485786
0.888884 0.624842 0.494392
0.907683 0.629236 0.504112
0.926146 0.635035 0.514824
0.944152 0.642451 0.526848
0.961486 0.651392 0.540154
0.977935 0.661830 0.554620
0.417212 0.638758 0.410285
0.419684 0.639551 0.410864
0.422980 0.640375 0.411322
0.429145 0.641016 0.412329
0.438148 0.641505 0.413184
0.449836 0.641596 0.414374
0.463844 0.641596 0.415503
0.479988 0.641535 0.416999
0.498024 0.641718 0.418921
0.517693 0.641962 0.420966
0.538598 0.642390 0.423499
0.560632 0.643000 0.426123
0.583337 0.643610 0.429236
0.606470 0.644221 0.432288
0.629908 0.644831 0.435523
0.653498 0.645533 0.439155
0.677180 0.646235 0.442786
0.700832 0.647120 0.446601
0.724636 0.648127 0.450599
0.748379 0.649439 0.454994
0.770443 0.649165 0.459693
0.790646 0.647730 0.465309
0.810819 0.647028 0.471260
0.830716 0.647150 0.477943
0.850309 0.647974 0.485237
0.869535 0.649653 0.493111
0.888518 0.652277 0.501793
0.907195 0.656153 0.511589
0.925536 0.661402 0.522362
0.943420 0.668116 0.534447
0.960632 0.676265 0.547723
0.976928 0.685756 0.562036
0.431647 0.666407 0.421668
0.433936 0.667079 0.422309
0.436927 0.667872 0.422889
0.442481 0.668482 0.423651
0.450904 0.668940 0.424414
0.461555 0.669001 0.425513
0.474617 0.668940 0.426764
0.489601 0.668910 0.428107
0.506371 0.669001 0.429816
0.524926 0.669215 0.431678
0.544701 0.669612 0.433936
0.565454 0.670130 0.436530
0.587030 0.670588 0.439368
0.609125 0.671138 0.442237
0.631647 0.671626 0.445319
0.654261 0.672114 0.448646
0.677119 0.672724 0.451972
0.700038 0.673426 0.455695
0.723079 0.674311 0.459571
0.746273 0.675502 0.463661
0.769375 0.676905 0.468147
0.791257 0.677302 0.473091
0.811215 0.676234 0.479072
0.830900 0.675868 0.485725
0.850278 0.676204 0.492988
0.869352 0.677363 0.500755
0.888121 0.679408 0.509453
0.906615 0.682734 0.519188
0.924773 0.687404 0.530083
0.942504 0.693385 0.542138
0.959625 0.700618 0.555169
0.975860 0.709194 0.569512
0.446387 0.693446 0.433356
0.448402 0.694118 0.433906
0.451209 0.694789 0.434302
0.456367 0.695369 0.435065
0.464118 0.695705 0.435981
0.474098 0.695766 0.436866
0.486030 0.695735 0.437995
0.499794 0.695735 0.439094
0.515587 0.695705 0.440803
0.532891 0.695857 0.442512
0.551385 0.696132 0.444709
0.571099 0.696468 0.447089
0.591455 0.696895 0.449622
0.612573 0.697292 0.452338
0.634150 0.697810 0.455451
0.656031 0.698390 0.458503
0.678279 0.699123 0.462104
0.700710 0.700069 0.465797
0.723293 0.701228 0.469612
0.746059 0.702632 0.473884
0.768887 0.704311 0.478431
0.791714 0.706142 0.483223
0.813565 0.707179 0.488502
0.833188 0.706538 0.495308
0.852415 0.706600 0.502739
0.871336 0.707424 0.510765
0.889891 0.709102 0.519768
0.908171 0.711940 0.529595
0.926116 0.715877 0.540551
0.943572 0.721126 0.552544
0.960296 0.727504 0.565606
0.976165 0.735073 0.579797
0.463478 0.722499 0.446509
0.465156 0.722774 0.446662
0.467353 0.723018 0.447089
0.471931 0.723201 0.447456
0.478859 0.723232 0.448188
0.487922 0.723201 0.448981
0.498939 0.723110 0.449897
0.511833 0.723079 0.451179
0.526482 0.723201 0.452735
0.542748 0.723415 0.454566
0.560327 0.723751 0.456672
0.578973 0.724147 0.458839
0.598383 0.724453 0.461311
0.618402 0.724880 0.464088
0.638941 0.725216 0.466896
0.659968 0.725704 0.469978
0.681270 0.726253 0.473213
0.702876 0.726986 0.476783
0.724666 0.727901 0.480537
0.746517 0.729000 0.484596
0.768521 0.730312 0.488869
0.790524 0.731746 0.493385
0.812467 0.733333 0.498146
0.833585 0.734371 0.503563
0.852537 0.733852 0.510857
0.871244 0.734188 0.519005
0.889647 0.735439 0.528069
0.907805 0.737728 0.537957
0.925597 0.741115 0.548791
0.942870 0.745602 0.560693
0.959442 0.751217 0.573693
0.975158 0.758022 0.588037
0.479316 0.748196 0.458381
0.480964 0.748470 0.458686
0.482948 0.748745 0.458991
0.487190 0.748928 0.459541
0.493568 0.748959 0.460243
0.501793 0.748867 0.460822
0.511864 0.748775 0.461860
0.523735 0.748684 0.462989
0.537438 0.748684 0.464454
0.552575 0.748806 0.466041
0.568994 0.749081 0.468116
0.586511 0.749416 0.470314
0.604852 0.749691 0.472663
0.624018 0.750027 0.475288
0.643671 0.750454 0.478004
0.663783 0.750912 0.480934
0.684260 0.751492 0.484199
0.705104 0.752193 0.487709
0.726192 0.753079 0.491585
0.747433 0.754147 0.495644
0.768765 0.755398 0.499977
0.790219 0.756771 0.504479
0.811551 0.758389 0.509422
0.832792 0.760037 0.514427
0.852293 0.759884 0.518822
0.870756 0.759762 0.527001
0.889036 0.760525 0.536034
0.907042 0.762356 0.545861
0.924712 0.765164 0.556573
0.941863 0.769009 0.568536
0.958373 0.773953 0.581506
0.974029 0.780117 0.596063
0.497780 0.775326 0.472267
0.499275 0.775662 0.472541
0.501061 0.775875 0.472724
0.504875 0.775906 0.473152
0.510552 0.775814 0.473610
0.517967 0.775631 0.474372
0.527214 0.775357 0.475105
0.538048 0.775113 0.476020
0.550591 0.774868 0.477272
0.564385 0.774746 0.478798
0.579583 0.774685 0.480598
0.595850 0.774716 0.482582
0.613031 0.774807 0.484779
0.630945 0.774929 0.487160
0.649439 0.775021 0.489754
0.668452 0.775143 0.492500
0.687892 0.775357 0.495460
0.707698 0.775814 0.498848
0.727932 0.776547 0.502525
0.748470 0.777554 0.506523
0.769131 0.778775 0.511009
0.789883 0.780117 0.515648
0.810513 0.781491 0.520500
0.831022 0.782864 0.525566
0.851255 0.784268 0.530571
0.871214 0.785580 0.536004
0.889189 0.785824 0.544762
0.906889 0.786954 0.554498
0.924285 0.789120 0.565087
0.941253 0.792264 0.576898
0.957580 0.796567 0.590051
0.973083 0.801968 0.604608
0.515068 0.799313 0.485023
0.516472 0.799588 0.485389
0.518273 0.799802 0.485573
0.521660 0.799832 0.485939
0.526787 0.799771 0.486427
0.533715 0.799619 0.487129
0.542260 0.799405 0.487922
0.552270 0.799252 0.489021
0.563897 0.799100 0.490211
0.576867 0.799039 0.491798
0.591028 0.799100 0.493446
0.606409 0.799191 0.495491
0.622644 0.799374 0.497810
0.639673 0.799527 0.500237
0.657252 0.799649 0.502800
0.675380 0.799832 0.505638
0.693935 0.800107 0.508782
0.712947 0.800534 0.512108
0.732326 0.801205 0.515770
0.752071 0.802090 0.519982
0.771908 0.803128 0.524407
0.791897 0.804318 0.528985
0.811795 0.805570 0.533806
0.831601 0.806882 0.538781
0.851225 0.808164 0.543877
0.870665 0.809506 0.549065
0.889952 0.811002 0.554376
0.907500 0.811704 0.564019
0.924681 0.813352 0.574762
0.941375 0.815915 0.586633
0.957549 0.819547 0.599908
0.972808 0.824125 0.614496
0.534234 0.823301 0.499123
0.535546 0.823484 0.499489
0.537102 0.823545 0.499702
0.540093 0.823514 0.499947
0.544701 0.823362 0.500328
0.550896 0.823148 0.500877
0.558618 0.822904 0.501701
0.567803 0.822690 0.502617
0.578546 0.822538 0.503899
0.590539 0.822507 0.505425
0.603815 0.822507 0.507195
0.618128 0.822660 0.509178
0.633448 0.822843 0.511528
0.649500 0.823026 0.514061
0.666102 0.823148 0.516625
0.683345 0.823301 0.519524
0.700954 0.823514 0.522637
0.719020 0.823880 0.525963
0.737514 0.824430 0.529656
0.756283 0.825223 0.533745
0.775357 0.826139 0.538048
0.794430 0.827207 0.542657
0.813565 0.828367 0.547326
0.832700 0.829496 0.552270
0.851591 0.830716 0.557275
0.870390 0.831998 0.562432
0.888975 0.833341 0.567834
0.907439 0.834745 0.573419
0.924529 0.835966 0.583703
0.941070 0.838041 0.595666
0.957000 0.840940 0.608942
0.972015 0.844755 0.623560
0.554284 0.845884 0.513909
0.555352 0.845975 0.514153
0.556725 0.846067 0.514275
0.559533 0.846036 0.514672
0.563897 0.846006 0.515221
0.569665 0.845975 0.515831
0.577111 0.846098 0.516899
0.585931 0.846281 0.518303
0.596277 0.846525 0.519921
0.607843 0.846921 0.521843
0.620569 0.847349 0.524010
0.634272 0.847807 0.526390
0.648829 0.848264 0.529107
0.664027 0.848661 0.531823
0.679805 0.848966 0.534630
0.695949 0.849180 0.537530
0.712581 0.849424 0.540612
0.729580 0.849760 0.543908
0.747097 0.850217 0.547662
0.764889 0.850889 0.551629
0.782925 0.851682 0.555810
0.801114 0.852567 0.560327
0.819303 0.853513 0.564996
0.837491 0.854520 0.569940
0.855558 0.855558 0.574914
0.873503 0.856657 0.580194
0.891325 0.857816 0.585534
0.908965 0.859068 0.591211
0.926421 0.860502 0.597131
0.942779 0.861997 0.608148
0.958251 0.864073 0.621363
0.972717 0.866880 0.635889
0.578943 0.870146 0.532341
0.579889 0.870207 0.532525
0.581018 0.870207 0.532738
0.583459 0.870115 0.532982
0.587243 0.869993 0.533379
0.592370 0.869871 0.533928
0.598871 0.869810 0.534813
0.606683 0.869780 0.536034
0.615778 0.869810 0.537346
0.626154 0.869902 0.539025
0.637507 0.870054 0.540917
0.649897 0.870237 0.542962
0.663081 0.870451 0.545281
0.677089 0.870634 0.547875
0.691676 0.870787 0.550500
0.706813 0.870970 0.553460
