其他预设/【232】美食博客调色预设124款/1.3D LUT预设（视频调色-PR-AE-PS-FCPX-达芬奇用）/Food Art #68.cube
# Created by Adobe Lightroom plugin Export LUT (1.17.0)
# www.johnrellis.com/lightroom/exportlut.htm
# Preset: Food Art #68
# Color profile: /Library/Application Support/Adobe/Color/Profiles/Recommended/AdobeRGB1998.icc
LUT_3D_SIZE 32
0.000000 0.000000 0.000000
0.000000 0.000000 0.000000
0.009277 0.005188 0.009064
0.033387 0.015625 0.032471
0.059815 0.042786 0.063996
0.075563 0.061769 0.078859
0.091707 0.072602 0.090822
0.109529 0.083314 0.103761
0.128511 0.094331 0.117403
0.148623 0.105867 0.132113
0.169863 0.118441 0.147585
0.192111 0.131716 0.163668
0.214969 0.145632 0.180453
0.238804 0.159945 0.197269
0.263218 0.174655 0.214237
0.288334 0.189334 0.230716
0.314122 0.204227 0.246769
0.341100 0.219059 0.262150
0.368841 0.234012 0.276890
0.401251 0.251133 0.293004
0.435981 0.268589 0.308568
0.472511 0.286717 0.323949
0.511131 0.305425 0.339178
0.551659 0.325139 0.354650
0.592767 0.346136 0.370672
0.635187 0.369238 0.388220
0.679164 0.395239 0.407630
0.722744 0.424933 0.430121
0.764584 0.459510 0.456641
0.804532 0.498573 0.487648
0.842252 0.541741 0.523064
0.876951 0.589288 0.563653
0.000610 0.002167 0.001984
0.001953 0.005341 0.006012
0.011841 0.012696 0.017060
0.038880 0.032807 0.050324
0.062165 0.055818 0.070558
0.077363 0.067048 0.082582
0.093782 0.076875 0.094240
0.111269 0.086946 0.106447
0.129885 0.097780 0.119905
0.149722 0.109377 0.134279
0.170779 0.121492 0.149508
0.192905 0.134432 0.165347
0.215579 0.147890 0.181949
0.239200 0.162142 0.198703
0.263432 0.176547 0.215274
0.288334 0.190982 0.231785
0.314153 0.205722 0.247501
0.340978 0.220401 0.262608
0.368475 0.235233 0.277379
0.400732 0.251987 0.292973
0.434913 0.269291 0.308507
0.471015 0.287022 0.323552
0.509300 0.305730 0.338781
0.549676 0.325139 0.354131
0.590661 0.346044 0.370062
0.633082 0.369055 0.387457
0.677089 0.394873 0.406958
0.720760 0.424506 0.429358
0.762844 0.458869 0.455726
0.803037 0.497871 0.486641
0.840879 0.540856 0.521904
0.875822 0.588251 0.562371
0.005921 0.023926 0.024933
0.008453 0.028077 0.028870
0.020233 0.036164 0.043030
0.045014 0.054292 0.063752
0.065217 0.065248 0.076600
0.080415 0.074250 0.087953
0.096498 0.083040 0.098848
0.113191 0.092378 0.110689
0.131685 0.102480 0.123598
0.151461 0.113466 0.137331
0.172396 0.125673 0.152163
0.194217 0.138155 0.168093
0.216861 0.151522 0.184146
0.240299 0.165408 0.200900
0.264408 0.179507 0.217197
0.289281 0.193668 0.233249
0.314977 0.208194 0.249119
0.341680 0.222690 0.263951
0.369116 0.237339 0.278508
0.401221 0.253971 0.293950
0.435126 0.270970 0.309209
0.471077 0.288701 0.324163
0.509148 0.306981 0.339208
0.549248 0.326421 0.354314
0.590295 0.347204 0.370459
0.632502 0.370031 0.387762
0.676417 0.395819 0.406989
0.720241 0.425422 0.429358
0.762325 0.459724 0.455879
0.802579 0.498604 0.486793
0.840421 0.541466 0.521935
0.875364 0.588647 0.562280
0.023163 0.064698 0.066590
0.028962 0.066377 0.069093
0.038849 0.069032 0.072847
0.057740 0.074922 0.080934
0.072663 0.081819 0.089570
0.086915 0.088563 0.098451
0.102083 0.095460 0.108583
0.118685 0.103822 0.119631
0.136507 0.112917 0.131472
0.155795 0.123140 0.144778
0.176181 0.134493 0.159182
0.197635 0.146395 0.174228
0.220096 0.159152 0.190097
0.243198 0.172457 0.206058
0.266941 0.185824 0.221714
0.291814 0.199619 0.237125
0.317327 0.213779 0.252354
0.343908 0.227848 0.266758
0.371557 0.242191 0.281193
0.402869 0.258366 0.296117
0.436194 0.274937 0.310887
0.471656 0.292210 0.325536
0.509514 0.310369 0.340398
0.549676 0.329717 0.355566
0.590936 0.350622 0.371588
0.633570 0.373693 0.388952
0.677699 0.399634 0.408606
0.721523 0.429297 0.431098
0.763455 0.463600 0.457832
0.803372 0.502159 0.488472
0.840848 0.544701 0.523674
0.875486 0.591333 0.563714
0.044038 0.088289 0.087739
0.049714 0.090028 0.089815
0.058778 0.092073 0.092836
0.068544 0.096529 0.098451
0.082368 0.103273 0.107546
0.096956 0.108858 0.115145
0.110933 0.114076 0.123110
0.126680 0.120638 0.132753
0.143709 0.128267 0.143343
0.162234 0.137636 0.155703
0.182040 0.147616 0.169131
0.203220 0.158694 0.183291
0.225010 0.170657 0.198276
0.247776 0.182925 0.213413
0.271336 0.195743 0.228275
0.295995 0.208804 0.243259
0.321538 0.222385 0.257511
0.347845 0.235904 0.271641
0.376074 0.250340 0.285710
0.406928 0.265782 0.300114
0.439734 0.281834 0.314153
0.474800 0.298802 0.328466
0.512291 0.316808 0.342931
0.552239 0.335821 0.358099
0.593164 0.356634 0.373968
0.635584 0.379644 0.391333
0.679500 0.405493 0.410925
0.722896 0.435004 0.433539
0.764462 0.469154 0.460212
0.804074 0.507347 0.490883
0.841367 0.549340 0.525994
0.875761 0.595575 0.566064
0.062196 0.112520 0.108644
0.065827 0.113741 0.110262
0.069795 0.115328 0.112428
0.078523 0.119142 0.117525
0.091829 0.124910 0.124941
0.107942 0.132174 0.134524
0.123140 0.137514 0.142672
0.137545 0.141939 0.150149
0.153719 0.148165 0.159396
0.171359 0.155764 0.170138
0.190494 0.164645 0.182620
0.210910 0.174807 0.195590
0.232181 0.185489 0.209445
0.254612 0.196811 0.223484
0.277989 0.208621 0.237064
0.302251 0.221164 0.251072
0.327520 0.233921 0.264652
0.353613 0.246891 0.277897
0.382513 0.261204 0.291783
0.413031 0.276097 0.305577
0.445563 0.291783 0.319127
0.480629 0.308354 0.333196
0.534691 0.334997 0.353887
0.574517 0.354498 0.369085
0.614923 0.375616 0.385260
0.656550 0.398993 0.402991
0.698817 0.425269 0.423011
0.739681 0.455146 0.446448
0.778836 0.489204 0.473579
0.816251 0.526848 0.504692
0.851347 0.568231 0.539940
0.883604 0.612940 0.579644
0.076570 0.138643 0.131594
0.079500 0.139803 0.132509
0.083223 0.141146 0.134737
0.091707 0.144350 0.139010
0.103487 0.149111 0.145418
0.118593 0.155245 0.153780
0.136202 0.162783 0.163973
0.152651 0.168215 0.172580
0.167758 0.172580 0.180240
0.184665 0.178927 0.189578
0.203159 0.186618 0.200198
0.222995 0.195315 0.212009
0.243778 0.204929 0.224247
0.265751 0.215122 0.236881
0.288579 0.225986 0.249393
0.312352 0.237247 0.262028
0.337346 0.249088 0.274418
0.364416 0.262028 0.287541
0.393378 0.275975 0.300450
0.424140 0.290684 0.313756
0.457710 0.306432 0.327398
0.494331 0.323796 0.341375
0.533959 0.342626 0.356115
0.574914 0.362676 0.371649
0.616510 0.384436 0.388403
0.658717 0.408118 0.406531
0.700862 0.434424 0.426825
0.741421 0.464271 0.450446
0.780179 0.497902 0.477668
0.817105 0.534844 0.508476
0.851774 0.575433 0.543664
0.883818 0.619348 0.583062
0.092195 0.163912 0.153780
0.094301 0.164858 0.155093
0.097810 0.165927 0.156680
0.105440 0.168521 0.160372
0.116030 0.172580 0.165957
0.129854 0.177981 0.172976
0.145968 0.184176 0.181704
0.164492 0.191867 0.192050
0.181857 0.198062 0.201236
0.197818 0.202548 0.208621
0.215274 0.208927 0.218051
0.234470 0.216373 0.228122
0.254582 0.224765 0.238743
0.276005 0.233768 0.249912
0.298375 0.243565 0.261295
0.321813 0.254093 0.272648
0.346929 0.265476 0.284306
0.374060 0.278019 0.296666
0.402167 0.290837 0.308629
0.432349 0.304784 0.320836
0.465278 0.320165 0.333715
0.501274 0.336858 0.347265
0.540032 0.355169 0.361639
0.580255 0.374823 0.376898
0.621088 0.396307 0.393164
0.662684 0.419806 0.411261
0.704128 0.445899 0.431678
0.743893 0.475410 0.455451
0.782132 0.508476 0.482612
0.818570 0.544762 0.513512
0.852811 0.584833 0.548882
0.884520 0.627680 0.588006
0.109316 0.190005 0.177493
0.111330 0.190768 0.178622
0.114931 0.191867 0.179934
0.121370 0.194034 0.182834
0.131258 0.197391 0.187839
0.143832 0.201846 0.193729
0.158785 0.207340 0.201358
0.175570 0.213901 0.210208
0.194553 0.221469 0.219852
0.213138 0.228275 0.229282
0.230014 0.233280 0.237003
0.248112 0.239353 0.245121
0.267796 0.246677 0.254704
0.288579 0.254856 0.264378
0.310491 0.263645 0.274174
0.333959 0.273594 0.284855
0.359319 0.284733 0.295903
0.385595 0.296178 0.306828
0.412818 0.308171 0.317784
0.442512 0.321416 0.329168
0.474891 0.336065 0.341466
0.510460 0.352483 0.354437
0.548516 0.370275 0.368322
0.587701 0.389837 0.383368
0.627741 0.410895 0.399542
0.668605 0.434119 0.417639
0.708980 0.459968 0.438270
0.747799 0.489052 0.462104
0.785306 0.521416 0.489296
0.820920 0.556939 0.520256
0.854520 0.596124 0.555413
0.885740 0.637690 0.594018
0.128725 0.216464 0.201419
0.130861 0.217075 0.202274
0.133425 0.217960 0.203403
0.139467 0.219791 0.206027
0.148379 0.222721 0.210056
0.159762 0.226566 0.215152
0.173587 0.231327 0.221256
0.189273 0.237064 0.228977
0.207004 0.243748 0.237369
0.226413 0.251255 0.246677
0.246220 0.258610 0.255650
0.263737 0.263798 0.262852
0.282567 0.269993 0.270665
0.302892 0.277409 0.278965
0.325261 0.286107 0.288487
0.349096 0.295750 0.298344
0.373907 0.305913 0.308080
0.399542 0.316564 0.317998
0.426093 0.327977 0.328222
0.455116 0.340398 0.338964
0.486915 0.354620 0.350286
0.521447 0.370306 0.362615
0.557946 0.387457 0.376043
0.595666 0.406134 0.390539
0.634546 0.426795 0.406561
0.674434 0.449592 0.424628
0.713832 0.475166 0.445350
0.751949 0.503960 0.469520
0.788815 0.535912 0.497078
0.823972 0.570916 0.528099
0.857023 0.609491 0.563622
0.887846 0.649928 0.602075
0.149722 0.242710 0.224399
0.151308 0.243442 0.225132
0.153811 0.244083 0.226230
0.159182 0.245762 0.228244
0.167208 0.248386 0.231632
0.177829 0.251774 0.235904
0.190616 0.256107 0.241428
0.205417 0.261295 0.247837
0.222019 0.267399 0.255070
0.240543 0.274327 0.263005
0.260563 0.281956 0.271580
0.281254 0.289677 0.280247
0.299840 0.295476 0.287053
0.320531 0.302617 0.295079
0.342412 0.310613 0.303410
0.365240 0.319371 0.311833
0.389075 0.328374 0.320592
0.413825 0.338262 0.329564
0.439887 0.348791 0.338872
0.468330 0.360662 0.348821
0.499519 0.374426 0.359747
0.533379 0.389624 0.371588
0.569085 0.406531 0.384741
0.605951 0.425025 0.399298
0.643763 0.445289 0.415320
0.682582 0.467842 0.433417
0.720455 0.493080 0.454414
0.757351 0.521080 0.478553
0.793118 0.552026 0.505882
0.827268 0.586175 0.537102
0.859556 0.623621 0.572381
0.889799 0.662654 0.610315
0.171695 0.269780 0.246403
0.173465 0.270390 0.247135
0.175601 0.270939 0.248112
0.180392 0.272465 0.249760
0.187869 0.274784 0.252567
0.197574 0.277897 0.256321
0.209598 0.281926 0.260929
0.223423 0.286625 0.266453
0.239261 0.292241 0.272648
0.256931 0.298650 0.279667
0.276341 0.305852 0.287327
0.298253 0.314672 0.295903
0.328405 0.329778 0.308782
0.348791 0.336431 0.315862
0.370306 0.343633 0.322972
0.392737 0.351568 0.330694
0.416175 0.359899 0.338445
0.440497 0.368963 0.346532
0.465949 0.378729 0.354925
0.494087 0.390295 0.364446
0.524804 0.403449 0.374823
0.557214 0.418128 0.386358
0.590967 0.434180 0.399268
0.626123 0.452064 0.413581
0.662470 0.471901 0.429816
0.699001 0.494057 0.448280
0.734585 0.518669 0.469612
0.769345 0.545586 0.493782
0.803006 0.575341 0.521080
0.835325 0.608301 0.552270
0.865965 0.643824 0.586908
0.894865 0.680690 0.623713
0.196933 0.299321 0.268742
0.198154 0.299870 0.269474
0.200259 0.300359 0.269902
0.204623 0.301549 0.271427
0.211398 0.303471 0.273808
0.220249 0.306157 0.276799
0.231327 0.309636 0.280644
0.244297 0.314000 0.285222
0.259709 0.319249 0.290684
0.277684 0.326329 0.297490
0.297826 0.334478 0.305241
0.319768 0.343420 0.313298
0.343236 0.353124 0.321843
0.368109 0.363378 0.330785
0.389288 0.370245 0.337377
0.411231 0.377569 0.344274
0.433875 0.385290 0.351385
0.457160 0.393469 0.358556
0.482063 0.402716 0.366644
0.509361 0.413611 0.375525
0.538903 0.426184 0.385626
0.570306 0.440253 0.396918
0.602838 0.455940 0.409522
0.636835 0.473304 0.423957
0.671931 0.492775 0.440101
0.706874 0.514427 0.459022
0.741207 0.538140 0.480201
0.774777 0.564294 0.504326
0.807462 0.593164 0.531701
0.838865 0.625208 0.563043
0.868803 0.659236 0.597009
0.897124 0.694697 0.633326
0.221012 0.327337 0.288365
0.222477 0.327825 0.288823
0.224277 0.328191 0.289311
0.228336 0.329351 0.290623
0.234653 0.331090 0.292271
0.243107 0.333867 0.295171
0.254002 0.337621 0.298955
0.266850 0.342199 0.303349
0.281895 0.347539 0.308354
0.298863 0.354040 0.314305
0.317937 0.361364 0.320867
0.338750 0.369665 0.328008
0.361242 0.378576 0.335485
0.384802 0.388067 0.343633
0.409339 0.397925 0.351812
0.430762 0.404730 0.358160
0.452399 0.411719 0.364691
0.475074 0.419348 0.371405
0.499153 0.427985 0.378882
0.525750 0.438422 0.387366
0.554192 0.450355 0.397223
0.584375 0.464057 0.408545
0.615900 0.479225 0.421180
0.648920 0.496407 0.435615
0.682612 0.515404 0.452155
0.716030 0.536339 0.471046
0.749020 0.559258 0.492348
0.781308 0.584527 0.516564
0.812894 0.612634 0.544030
0.843320 0.643519 0.575219
0.872435 0.676051 0.608637
0.900084 0.710048 0.644373
0.247868 0.357885 0.307866
0.249454 0.358343 0.308293
0.251102 0.358770 0.308721
0.254826 0.359930 0.309911
0.260838 0.361700 0.311681
0.268864 0.364141 0.314031
0.278721 0.367315 0.317082
0.290837 0.371405 0.320623
0.304906 0.376257 0.325078
0.321111 0.382208 0.330205
0.339086 0.389014 0.336126
0.359014 0.396735 0.342473
0.380346 0.405219 0.349615
0.403174 0.414130 0.356939
0.426917 0.423468 0.364385
0.451148 0.432929 0.372351
0.472633 0.439826 0.378637
0.494484 0.446754 0.384863
0.517754 0.454810 0.391882
0.543084 0.464546 0.400244
0.570336 0.475929 0.409888
0.599268 0.489021 0.421149
0.629664 0.503746 0.433783
0.661585 0.520500 0.448493
0.693690 0.538933 0.465339
0.725795 0.559258 0.484352
0.757626 0.581628 0.505913
0.789029 0.606409 0.530480
0.819608 0.634058 0.558648
0.849302 0.663813 0.589624
0.877714 0.695216 0.622919
0.904662 0.727871 0.658167
0.275883 0.389319 0.326513
0.277226 0.389776 0.327031
0.278843 0.390265 0.327459
0.282414 0.391333 0.328344
0.288029 0.392950 0.329839
0.295659 0.395361 0.331945
0.305272 0.398383 0.334630
0.316625 0.402289 0.338109
0.330175 0.406928 0.342077
0.345434 0.412299 0.346715
0.362493 0.418616 0.351873
0.381262 0.425513 0.357519
0.401190 0.433112 0.363806
0.422614 0.441108 0.370428
0.445075 0.449683 0.377417
0.468513 0.458625 0.384649
0.492653 0.467994 0.392370
0.514580 0.475196 0.398901
0.537133 0.482765 0.405890
0.561639 0.492164 0.414343
0.587945 0.503166 0.424140
0.616022 0.515984 0.435554
0.645594 0.530510 0.448646
0.676081 0.546777 0.463539
0.706661 0.564508 0.480507
0.737270 0.584100 0.499672
0.767727 0.605707 0.521538
0.797726 0.629786 0.546410
0.826993 0.656184 0.574487
0.855497 0.684321 0.604730
0.882719 0.713863 0.637049
0.908568 0.744717 0.671351
0.303471 0.420508 0.343969
0.304692 0.420783 0.344182
0.306279 0.421210 0.344610
0.309545 0.422248 0.345464
0.314824 0.423804 0.346838
0.321904 0.425849 0.348852
0.331029 0.428809 0.351263
0.341802 0.432349 0.354253
0.354498 0.436622 0.357794
0.369085 0.441749 0.361975
0.385321 0.447669 0.366888
0.403235 0.454292 0.372229
0.422675 0.461524 0.378149
0.443122 0.469306 0.384344
0.464820 0.477394 0.390845
0.487160 0.485725 0.397925
0.510246 0.494484 0.405341
0.534112 0.503502 0.413306
0.556603 0.511406 0.420813
0.579919 0.520012 0.429084
0.605158 0.530541 0.438941
0.631952 0.542748 0.450446
0.660365 0.556847 0.463722
0.689418 0.572320 0.478676
0.718441 0.589197 0.495705
0.747646 0.608026 0.515099
0.776791 0.628870 0.537041
0.805570 0.652186 0.562371
0.833829 0.677302 0.589929
0.861295 0.704036 0.619532
0.887663 0.732235 0.651301
0.912718 0.761654 0.684962
0.331945 0.452644 0.361181
0.333257 0.453223 0.361547
0.341009 0.460700 0.365667
0.344366 0.461646 0.366461
0.349371 0.462989 0.367681
0.355993 0.464881 0.369421
0.364355 0.467353 0.371557
0.374609 0.470527 0.374212
0.386664 0.474434 0.377600
0.400641 0.479225 0.381384
0.416114 0.484779 0.385931
0.433234 0.490822 0.390967
0.451575 0.497322 0.396460
0.471168 0.504356 0.402380
0.491737 0.511589 0.408667
0.512932 0.519280 0.415595
0.535058 0.527123 0.423041
0.557580 0.535363 0.430884
0.580713 0.544121 0.439368
0.603418 0.552667 0.448157
0.627131 0.562219 0.457862
0.652674 0.573754 0.469276
0.679133 0.586664 0.482307
0.705898 0.600855 0.497200
0.732784 0.616419 0.513909
0.759854 0.633875 0.533013
0.786893 0.653285 0.554742
0.813993 0.674861 0.579095
0.840879 0.698360 0.605768
0.867185 0.723598 0.634730
0.892576 0.750271 0.665736
0.916686 0.778164 0.698665
0.363226 0.488411 0.379736
0.365148 0.489662 0.380468
0.367498 0.491188 0.381445
0.371344 0.493019 0.382696
0.376745 0.495155 0.384222
0.383520 0.497261 0.386114
0.391730 0.499916 0.388190
0.401434 0.502831 0.390723
0.413184 0.506615 0.393988
0.426246 0.510979 0.397772
0.441169 0.516014 0.402136
0.457588 0.521721 0.406989
0.475196 0.527672 0.412451
0.493874 0.534142 0.418341
0.513451 0.540917 0.424720
0.533745 0.547997 0.431617
0.554803 0.555474 0.438849
0.576410 0.563165 0.446815
0.598627 0.571649 0.455512
0.621454 0.580591 0.464790
0.644739 0.590112 0.474708
0.668971 0.600946 0.486091
0.693812 0.613062 0.499336
0.719142 0.626459 0.514214
0.744717 0.641321 0.531121
0.770443 0.657954 0.550408
0.796353 0.676539 0.572137
0.822324 0.696864 0.595941
0.848081 0.719112 0.622034
0.873320 0.742947 0.650294
0.897704 0.768185 0.680507
0.920928 0.794644 0.712703
0.393591 0.522972 0.397864
0.395544 0.524132 0.398596
0.397772 0.525536 0.399603
0.401617 0.527214 0.400793
0.406683 0.529168 0.402350
0.413245 0.531182 0.404059
0.421057 0.533593 0.406287
0.430396 0.536400 0.408789
0.441566 0.539818 0.411963
0.454353 0.543908 0.415808
0.468544 0.548699 0.420172
0.484260 0.553918 0.424994
0.500938 0.559533 0.430518
0.518853 0.565576 0.436439
0.537591 0.571954 0.442939
0.557061 0.578576 0.449928
0.577111 0.585626 0.457313
0.597864 0.593072 0.465309
0.619135 0.601068 0.473884
0.640803 0.609522 0.483009
0.662745 0.618402 0.492866
0.685237 0.628077 0.503960
0.708675 0.639338 0.517266
0.732601 0.651850 0.532311
0.756710 0.665949 0.549310
0.781125 0.681666 0.568536
0.805753 0.699062 0.589624
0.830472 0.718257 0.612909
0.855131 0.739162 0.638300
0.879271 0.761624 0.665766
0.902708 0.785489 0.695247
0.925048 0.810544 0.726558
0.426215 0.558312 0.417700
0.428107 0.559533 0.418463
0.430396 0.560845 0.419379
0.433997 0.562524 0.420722
0.439002 0.564324 0.422278
0.445197 0.566217 0.424201
0.452705 0.568353 0.426276
0.461524 0.571008 0.428840
0.472175 0.574090 0.432013
0.484138 0.577874 0.435798
0.497749 0.582208 0.440192
0.512718 0.587060 0.445258
0.528618 0.592248 0.450690
0.545708 0.597986 0.456794
0.563745 0.604120 0.463386
0.582300 0.610590 0.470436
0.601831 0.617517 0.478035
0.621729 0.624872 0.486366
0.642390 0.632654 0.495369
0.663172 0.640833 0.504997
0.684230 0.649409 0.515435
0.705287 0.658412 0.526513
0.726497 0.668147 0.539055
0.749203 0.680171 0.554528
0.772183 0.693660 0.571954
0.795438 0.708583 0.590997
0.818845 0.725032 0.611719
0.842283 0.743130 0.634455
0.865599 0.762814 0.659297
0.888426 0.783871 0.686000
0.910491 0.806241 0.714595
0.931609 0.829618 0.744808
0.465339 0.598505 0.442481
0.466651 0.599207 0.442939
0.468269 0.599908 0.443549
0.471290 0.600885 0.444465
0.475593 0.602289 0.445930
0.481361 0.603845 0.447761
0.488472 0.605798 0.449897
0.497078 0.608240 0.452613
0.507286 0.611383 0.456031
0.518883 0.615045 0.459968
0.531853 0.619348 0.464607
0.546044 0.623865 0.469703
0.561181 0.628717 0.475227
0.577173 0.633845 0.481178
0.593774 0.639307 0.487770
0.611200 0.644984 0.494850
0.629206 0.651057 0.502495
0.647700 0.657557 0.510674
0.666560 0.664363 0.519615
0.685664 0.671595 0.529137
0.704952 0.679164 0.539300
0.724086 0.687007 0.550164
0.742977 0.695125 0.561547
0.762142 0.704158 0.574151
0.783780 0.716640 0.590784
0.805844 0.730617 0.609186
0.828153 0.746120 0.629511
0.850492 0.763180 0.651698
0.872740 0.781735 0.675868
0.894530 0.801602 0.701869
0.915648 0.822629 0.729610
0.935912 0.844785 0.759060
0.502953 0.635492 0.467414
0.504356 0.636194 0.468086
0.505882 0.636896 0.468666
0.508782 0.637842 0.469795
0.512840 0.639002 0.471260
0.518059 0.640375 0.472877
0.524620 0.642084 0.475105
0.532525 0.644221 0.477729
0.541863 0.646784 0.481056
0.552575 0.649989 0.484932
0.564630 0.653590 0.489387
0.577691 0.657618 0.494484
0.591730 0.661891 0.500053
0.606622 0.666529 0.506096
0.622248 0.671443 0.512657
0.638453 0.676631 0.519951
0.655268 0.682216 0.527642
0.672511 0.688106 0.535973
0.690150 0.694453 0.545129
0.708095 0.701137 0.554894
0.726040 0.708248 0.565301
0.743893 0.715633 0.575982
0.761624 0.723354 0.587182
0.779019 0.731289 0.598535
0.794400 0.737789 0.608606
0.815335 0.750912 0.626551
0.836576 0.765560 0.646296
0.857939 0.781643 0.667872
0.879179 0.799130 0.691341
0.900053 0.817899 0.716640
0.920348 0.837888 0.743740
0.939940 0.859007 0.772641
0.545708 0.674495 0.497627
0.546990 0.675166 0.498390
0.548363 0.675624 0.498878
0.550835 0.676326 0.499855
0.554345 0.677180 0.501122
0.558953 0.678248 0.502586
0.564813 0.679500 0.504601
0.571649 0.681086 0.506981
0.579919 0.683009 0.510002
0.589349 0.685451 0.513695
0.600000 0.688228 0.517937
0.611719 0.691524 0.522728
0.624384 0.695094 0.528008
0.637812 0.698939 0.534020
0.651789 0.702998 0.540215
0.666377 0.707332 0.547204
0.681514 0.712001 0.554620
0.697108 0.717159 0.562676
0.713252 0.722896 0.571557
0.729763 0.729122 0.581018
0.746365 0.735744 0.591089
0.762966 0.742702 0.601495
0.779294 0.749783 0.612116
0.795163 0.756924 0.622889
0.810605 0.764096 0.633845
0.825986 0.771756 0.645197
0.845975 0.785306 0.664240
0.866087 0.800290 0.685023
0.886198 0.816617 0.707698
0.906035 0.834257 0.732204
0.925444 0.853056 0.758541
0.944244 0.873045 0.786709
0.585840 0.708675 0.527794
0.587060 0.709285 0.528527
0.588403 0.709834 0.529259
0.590692 0.710414 0.530083
0.593896 0.711147 0.531426
0.598108 0.712062 0.532921
0.603510 0.713222 0.535119
0.609918 0.714717 0.537682
0.617578 0.716548 0.540764
0.626307 0.718837 0.544579
0.636286 0.721462 0.548943
0.647089 0.724483 0.553887
0.658839 0.727779 0.559564
0.671168 0.731380 0.565454
0.683925 0.735195 0.571740
0.697261 0.739223 0.578515
0.710994 0.743526 0.585718
0.725185 0.748318 0.593591
0.739742 0.753597 0.602014
0.754757 0.759274 0.611048
0.769802 0.765316 0.620630
0.784939 0.771664 0.630671
0.799863 0.778195 0.640803
0.814450 0.784817 0.651209
0.828733 0.791562 0.661860
0.842618 0.798306 0.672480
0.856107 0.805264 0.683406
0.875120 0.819242 0.703487
0.894224 0.834623 0.725582
0.913054 0.851225 0.749294
0.931579 0.869047 0.774960
0.949401 0.887816 0.802274
0.628931 0.742824 0.562402
0.629969 0.743282 0.563073
0.630976 0.743618 0.563470
0.632868 0.744045 0.564355
0.635554 0.744503 0.565393
0.639216 0.745266 0.566979
0.643793 0.746242 0.568811
0.649409 0.747463 0.571283
0.656214 0.749142 0.574304
0.663966 0.751156 0.577905
0.672724 0.753536 0.582086
0.682551 0.756344 0.586938
0.693019 0.759426 0.592279
0.704036 0.762753 0.598016
0.715480 0.766201 0.604028
0.727352 0.769894 0.610529
0.739651 0.773831 0.617304
0.752346 0.778134 0.624750
0.765499 0.782864 0.632746
0.778988 0.788083 0.641291
0.792691 0.793637 0.650477
0.806424 0.799435 0.660029
0.819974 0.805386 0.669795
0.833341 0.811521 0.679805
0.846372 0.817716 0.689937
0.859098 0.823972 0.700221
0.871550 0.830411 0.710719
0.883635 0.836942 0.721279
0.901091 0.850675 0.741665
0.919097 0.866392 0.764797
0.936736 0.883116 0.789670
0.953704 0.900786 0.816098
0.670283 0.775204 0.597833
0.671077 0.775540 0.598322
0.671992 0.775814 0.598718
0.673640 0.776242 0.599481
0.676143 0.776852 0.600763
0.679683 0.777768 0.602411
0.684230 0.779080 0.604791
0.689906 0.780758 0.607691
0.696590 0.782803 0.611231
0.704219 0.785245 0.615412
0.712673 0.788022 0.620233
0.721889 0.791073 0.625452
0.731563 0.794339 0.631006
0.741726 0.797635 0.636896
0.752132 0.801053 0.642939
0.762722 0.804501 0.649195
0.773617 0.808164 0.655909
0.784909 0.812070 0.662928
0.796536 0.816373 0.670588
0.808499 0.821012 0.678706
0.820554 0.825956 0.687373
0.832700 0.831174 0.696345
0.844724 0.836515 0.705562
0.856596 0.841978 0.714961
0.868254 0.847593 0.724575
0.879637 0.853269 0.734310
0.890745 0.859068 0.744198
0.901610 0.865019 0.754299
0.912261 0.871183 0.764614
0.927855 0.884306 0.784817
0.944274 0.899809 0.808713
0.959991 0.916075 0.834012
0.715236 0.810330 0.638911
0.715785 0.810544 0.639246
0.716457 0.810666 0.639582
0.717769 0.810971 0.640223
0.719783 0.811429 0.641199
0.722621 0.812039 0.642634
0.726284 0.813046 0.644556
0.730800 0.814206 0.646906
0.736233 0.815793 0.649958
0.742428 0.817655 0.653437
0.749355 0.819760 0.657404
0.756985 0.822171 0.661921
0.765133 0.824796 0.666865
0.773831 0.827543 0.672114
0.782773 0.830472 0.677729
0.792172 0.833585 0.683650
