其他预设/【232】美食博客调色预设124款/1.3D LUT预设（视频调色-PR-AE-PS-FCPX-达芬奇用）/Food Art #33.cube
# Created by Adobe Lightroom plugin Export LUT (1.17.0)
# www.johnrellis.com/lightroom/exportlut.htm
# Preset: Food Art #33
# Color profile: /Library/Application Support/Adobe/Color/Profiles/Recommended/AdobeRGB1998.icc
LUT_3D_SIZE 32
0.112520 0.228611 0.327947
0.117311 0.229831 0.329442
0.123842 0.231357 0.331334
0.137270 0.235325 0.336278
0.153597 0.240330 0.342321
0.170077 0.245396 0.348577
0.187320 0.250492 0.355047
0.205936 0.256016 0.361578
0.226017 0.261875 0.368536
0.247959 0.268223 0.376043
0.272221 0.274876 0.384253
0.299016 0.282231 0.392798
0.327947 0.289952 0.401709
0.359106 0.298222 0.411170
0.391974 0.306767 0.420935
0.426520 0.315435 0.430426
0.462470 0.324315 0.440040
0.499763 0.333593 0.449256
0.538140 0.343084 0.458381
0.582605 0.354131 0.468208
0.626978 0.366094 0.477760
0.670192 0.379187 0.486641
0.711666 0.393347 0.494850
0.750698 0.409125 0.502556
0.786831 0.426825 0.509697
0.820584 0.446876 0.516625
0.852140 0.469825 0.523522
0.881651 0.496010 0.530816
0.909056 0.525475 0.539269
0.934356 0.557458 0.549310
0.957397 0.591669 0.562127
0.977996 0.627619 0.578332
0.114168 0.233249 0.330785
0.119295 0.234409 0.332403
0.125521 0.235996 0.334508
0.138674 0.239811 0.339239
0.154910 0.244327 0.344915
0.171328 0.248875 0.350835
0.188418 0.253666 0.356725
0.206729 0.258793 0.363226
0.226780 0.264347 0.369879
0.248722 0.270542 0.377447
0.272801 0.277073 0.385382
0.299504 0.284367 0.393744
0.328283 0.292027 0.402686
0.359289 0.300175 0.412085
0.392035 0.308568 0.421515
0.426368 0.317235 0.431067
0.462196 0.326024 0.440406
0.499275 0.335180 0.449653
0.537560 0.344610 0.458717
0.581567 0.355474 0.468452
0.625422 0.367376 0.477729
0.668238 0.380194 0.486458
0.709590 0.394141 0.494667
0.748653 0.409674 0.502373
0.784878 0.427222 0.509453
0.818814 0.447150 0.516381
0.850584 0.469764 0.523247
0.880247 0.495827 0.530571
0.907897 0.525200 0.538933
0.933349 0.557122 0.549004
0.956542 0.591180 0.561730
0.977264 0.627131 0.577874
0.116762 0.239139 0.335088
0.121523 0.240299 0.336645
0.127443 0.241764 0.338720
0.140932 0.245518 0.343053
0.156649 0.249516 0.348333
0.172854 0.253544 0.353735
0.189914 0.257725 0.359228
0.208072 0.262516 0.365484
0.228153 0.267796 0.371923
0.249882 0.273686 0.379187
0.274052 0.280247 0.386938
0.300481 0.287236 0.395300
0.329320 0.294804 0.404181
0.360235 0.302953 0.413397
0.392828 0.311315 0.422766
0.427100 0.319768 0.432044
0.462898 0.328588 0.441474
0.499763 0.337652 0.450538
0.537835 0.346929 0.459419
0.581842 0.357946 0.468940
0.625299 0.369482 0.478126
0.667872 0.382147 0.486824
0.709102 0.396063 0.494911
0.748013 0.411444 0.502525
0.784298 0.428840 0.509575
0.818143 0.448585 0.516411
0.849943 0.471168 0.523339
0.879728 0.496986 0.530571
0.907408 0.526329 0.539025
0.932952 0.558068 0.549065
0.956146 0.591974 0.561700
0.976959 0.627741 0.577844
0.122560 0.251926 0.343847
0.127199 0.252995 0.345190
0.133303 0.254368 0.347082
0.145541 0.257359 0.350988
0.160891 0.260502 0.355474
0.177066 0.263340 0.359747
0.193606 0.266636 0.364721
0.211643 0.270695 0.370184
0.231327 0.275334 0.376318
0.252964 0.280858 0.383185
0.277073 0.286992 0.390600
0.303563 0.293919 0.398871
0.332219 0.301274 0.407355
0.362982 0.309148 0.416358
0.395300 0.317174 0.425422
0.429480 0.325628 0.434516
0.465003 0.334234 0.443549
0.501701 0.343114 0.452522
0.540276 0.352453 0.461311
0.583154 0.363104 0.470405
0.625727 0.374517 0.479194
0.667689 0.386877 0.487648
0.708736 0.400580 0.495552
0.747738 0.415930 0.503044
0.784237 0.433265 0.510124
0.818418 0.452918 0.516960
0.850370 0.475502 0.523827
0.880217 0.501396 0.531182
0.907805 0.530480 0.539605
0.933196 0.561791 0.549737
0.956207 0.595331 0.562463
0.976837 0.630426 0.578546
0.129854 0.267491 0.354681
0.134035 0.268345 0.355596
0.139406 0.269505 0.357122
0.150454 0.271916 0.360296
0.166567 0.275669 0.364813
0.183169 0.278019 0.368750
0.199496 0.279942 0.372747
0.216953 0.282963 0.377569
0.236393 0.286839 0.383062
0.257877 0.291783 0.389410
0.281804 0.297459 0.396307
0.308141 0.304082 0.404120
0.336645 0.311040 0.412421
0.367224 0.318700 0.420905
0.399512 0.326452 0.429664
0.433539 0.334630 0.438270
0.468971 0.343084 0.447120
0.505730 0.351873 0.455695
0.545098 0.361242 0.464302
0.586999 0.371649 0.472969
0.628717 0.382727 0.481361
0.670008 0.394965 0.489448
0.710445 0.408301 0.497047
0.749050 0.423407 0.504234
0.785275 0.440497 0.511101
0.819181 0.459968 0.517876
0.850980 0.482277 0.524651
0.880583 0.507744 0.531975
0.908019 0.536278 0.540429
0.933257 0.567193 0.550652
0.956207 0.600061 0.563470
0.976715 0.634730 0.579736
0.137942 0.284215 0.365332
0.141665 0.285039 0.366247
0.146304 0.285985 0.367529
0.156435 0.287968 0.370062
0.171267 0.291112 0.373999
0.189731 0.295262 0.379156
0.207645 0.297673 0.383337
0.224674 0.299351 0.387213
0.243900 0.302251 0.391760
0.265141 0.306279 0.397711
0.289097 0.311620 0.404211
0.315160 0.317723 0.411353
0.343481 0.324315 0.419074
0.373968 0.331395 0.427131
0.406073 0.338903 0.435096
0.439857 0.346807 0.443488
0.475135 0.355016 0.451820
0.511742 0.363622 0.459846
0.551751 0.373114 0.468299
0.592950 0.383307 0.476387
0.634089 0.394293 0.484321
0.674800 0.406134 0.492042
0.730861 0.426642 0.502434
0.767636 0.442298 0.509239
0.801816 0.459846 0.515648
0.833616 0.479530 0.522057
0.863310 0.501854 0.528679
0.890929 0.527153 0.536217
0.916564 0.554833 0.544976
0.940215 0.584741 0.555779
0.961669 0.616480 0.569329
0.980896 0.649348 0.586084
0.147372 0.303258 0.377295
0.150851 0.303746 0.377935
0.155428 0.304692 0.379004
0.164675 0.306493 0.381262
0.178439 0.309331 0.384833
0.195987 0.313024 0.389258
0.216526 0.317449 0.394781
0.236393 0.320348 0.399451
0.255436 0.322240 0.403510
0.276921 0.325719 0.408637
0.300908 0.330327 0.414527
0.327123 0.335760 0.421149
0.355413 0.341894 0.428229
0.385748 0.348516 0.435340
0.417578 0.355474 0.442817
0.451057 0.362951 0.450568
0.485939 0.370825 0.458045
0.523796 0.379461 0.465980
0.564141 0.389044 0.473762
0.604913 0.399207 0.481483
0.646296 0.410468 0.489082
0.687739 0.423011 0.496468
0.728267 0.437079 0.503502
0.766384 0.452888 0.510307
0.801602 0.470588 0.516869
0.833921 0.490272 0.523247
0.863737 0.512383 0.529931
0.891173 0.537102 0.537499
0.916716 0.564080 0.546410
0.940093 0.593103 0.557397
0.961395 0.623926 0.571099
0.980529 0.655970 0.587976
0.158297 0.322606 0.389410
0.161227 0.323217 0.390112
0.165347 0.323919 0.390875
0.173953 0.325536 0.392859
0.186831 0.328069 0.395911
0.203159 0.331426 0.399908
0.222721 0.335485 0.404730
0.244816 0.340520 0.410407
0.267063 0.344213 0.415656
0.288365 0.346807 0.419867
0.312047 0.350744 0.425055
0.338079 0.355535 0.430793
0.366064 0.360998 0.437079
0.396002 0.367102 0.443702
0.427466 0.373754 0.450507
0.460456 0.380652 0.457313
0.495766 0.388342 0.464485
0.533928 0.397070 0.471748
0.572869 0.405982 0.478798
0.612207 0.415747 0.485786
0.652308 0.426520 0.492744
0.692592 0.438575 0.499580
0.731930 0.452186 0.506065
0.769039 0.467445 0.512444
0.803494 0.484535 0.518608
0.835294 0.503716 0.524865
0.864622 0.525170 0.531579
0.891814 0.549096 0.539208
0.917082 0.575189 0.548241
0.940276 0.603235 0.559411
0.961395 0.633326 0.573541
0.980377 0.664271 0.590631
0.171145 0.344274 0.402319
0.173831 0.344701 0.403052
0.177707 0.345403 0.403784
0.185641 0.346868 0.405432
0.197696 0.349248 0.408179
0.213169 0.352331 0.411566
0.231876 0.356176 0.415747
0.253269 0.360876 0.420874
0.277531 0.366186 0.426581
0.302312 0.371099 0.432136
0.325780 0.374121 0.436622
0.351415 0.378149 0.441382
0.379156 0.383124 0.447089
0.408606 0.388708 0.452918
0.439765 0.394720 0.458961
0.473060 0.401526 0.465248
0.509117 0.409369 0.471839
0.546197 0.417395 0.478248
0.583429 0.425666 0.484443
0.621576 0.434852 0.490700
0.660304 0.445167 0.496895
0.699367 0.456825 0.503044
0.737423 0.469947 0.509026
0.773342 0.484718 0.515007
0.806790 0.501213 0.520897
0.837797 0.519646 0.526970
0.866575 0.540520 0.533684
0.893217 0.563470 0.541436
0.918029 0.588495 0.550774
0.940887 0.615534 0.562280
0.961639 0.644434 0.576654
0.980438 0.674220 0.593988
0.185946 0.368139 0.415991
0.188540 0.368597 0.416358
0.191958 0.369177 0.417029
0.199588 0.370520 0.418433
0.210819 0.372686 0.420813
0.225772 0.375555 0.423865
0.243534 0.379095 0.427649
0.264469 0.383398 0.432044
0.287999 0.388464 0.437110
0.314031 0.394293 0.442786
0.341222 0.399725 0.448310
0.366522 0.403174 0.452583
0.393927 0.407507 0.457374
0.423011 0.412482 0.462409
0.454932 0.418708 0.468025
0.489174 0.425696 0.473793
0.524437 0.432868 0.479377
0.560601 0.440375 0.484932
0.596551 0.448157 0.490364
0.633051 0.456550 0.495827
0.670222 0.466346 0.501335
0.707485 0.477272 0.506767
0.743496 0.489540 0.512169
0.777707 0.503380 0.517662
0.809964 0.519036 0.523247
0.840085 0.536797 0.529290
0.868315 0.556909 0.536126
0.894682 0.579004 0.543999
0.919158 0.603174 0.553674
0.941772 0.629389 0.565728
0.962310 0.657343 0.580652
0.980896 0.685939 0.598383
0.202335 0.393744 0.429267
0.204837 0.394202 0.429786
0.208255 0.394842 0.430213
0.215335 0.396063 0.431556
0.226352 0.398047 0.433509
0.240696 0.400824 0.436255
0.258183 0.404303 0.439612
0.278355 0.408301 0.443549
0.301366 0.413092 0.447974
0.327001 0.418555 0.453010
0.354833 0.424598 0.458350
0.384039 0.430579 0.463752
0.411414 0.434577 0.467933
0.441535 0.439765 0.472419
0.473152 0.445594 0.477241
0.506249 0.451728 0.482063
0.540490 0.458137 0.486793
0.575036 0.464912 0.491432
0.609400 0.471870 0.496071
0.644373 0.479713 0.500816
0.680201 0.488991 0.505638
0.715999 0.499245 0.510582
0.750607 0.511131 0.515557
0.783597 0.524376 0.520684
0.814694 0.539483 0.526146
0.843870 0.556481 0.532189
0.871183 0.575433 0.539086
0.896818 0.596368 0.547295
0.920684 0.619348 0.557336
0.942748 0.644404 0.569818
0.962921 0.670985 0.585138
0.981201 0.698238 0.603143
0.221195 0.421515 0.442634
0.223484 0.422004 0.443061
0.226749 0.422522 0.443610
0.233463 0.423621 0.444709
0.244358 0.425574 0.446387
0.258213 0.428168 0.448707
0.275090 0.431403 0.451728
0.294865 0.435279 0.455207
0.317449 0.439857 0.459083
0.342535 0.444953 0.463386
0.370001 0.450813 0.468055
0.401038 0.458198 0.473426
0.442695 0.471717 0.481147
0.473152 0.476509 0.484871
0.504784 0.481575 0.488716
0.537621 0.487160 0.492439
0.570886 0.492683 0.496254
0.603326 0.498299 0.500008
0.635615 0.504234 0.503807
0.668696 0.511345 0.507805
0.702235 0.519554 0.511894
0.735195 0.529076 0.516136
0.766812 0.539849 0.520653
0.797238 0.552239 0.525566
0.826108 0.566522 0.530968
0.853422 0.582544 0.537224
0.879088 0.600244 0.544396
0.903166 0.619745 0.553063
0.925689 0.641230 0.563745
0.946563 0.664668 0.576928
0.965759 0.689204 0.592554
0.983215 0.714717 0.610864
0.243900 0.453285 0.456550
0.246067 0.453681 0.456886
0.249302 0.454047 0.457221
0.255863 0.455024 0.458106
0.265934 0.456611 0.459510
0.279088 0.458686 0.461372
0.295567 0.461555 0.463874
0.314824 0.465126 0.466773
0.336919 0.469459 0.470192
0.363043 0.475593 0.474342
0.392035 0.482521 0.478798
0.423468 0.490089 0.483558
0.457435 0.498390 0.488350
0.493050 0.506798 0.493050
0.524468 0.511650 0.496132
0.556329 0.516594 0.499306
0.587732 0.521263 0.502403
0.618494 0.525811 0.505486
0.649165 0.530907 0.508721
0.680598 0.537163 0.512139
0.712428 0.544762 0.515862
0.743587 0.553307 0.519829
0.773678 0.563348 0.524102
0.802792 0.575067 0.528985
0.830533 0.588373 0.534447
0.856840 0.603296 0.540826
0.881743 0.619928 0.548272
0.905211 0.638361 0.557366
0.927123 0.658625 0.568505
0.947570 0.680781 0.582147
0.966400 0.704067 0.598199
0.983612 0.728206 0.616754
0.267124 0.483894 0.468513
0.269230 0.484260 0.468818
0.272129 0.484718 0.469123
0.278447 0.485512 0.469917
0.287938 0.486976 0.471046
0.301213 0.489235 0.472755
0.317601 0.492592 0.475013
0.337041 0.496407 0.477516
0.359197 0.501122 0.480598
0.384436 0.506584 0.483925
0.412299 0.512871 0.487617
0.442878 0.519982 0.491402
0.475471 0.527459 0.495338
0.509941 0.535332 0.499153
0.545281 0.543023 0.502861
0.575738 0.547173 0.505425
0.605097 0.550744 0.507988
0.634058 0.554314 0.510674
0.663142 0.558495 0.513451
0.693050 0.563958 0.516442
0.723171 0.570733 0.519860
0.752743 0.578729 0.523613
0.781369 0.588006 0.527947
0.809171 0.598932 0.532830
0.835782 0.611322 0.538476
0.861173 0.625208 0.545068
0.885161 0.640711 0.553002
0.907866 0.658015 0.562585
0.929168 0.677272 0.574334
0.949096 0.697993 0.588373
0.967498 0.719905 0.604822
0.984314 0.742794 0.623804
0.294163 0.518059 0.480110
0.296239 0.518456 0.480262
0.298985 0.518761 0.480598
0.305272 0.519768 0.481239
0.314580 0.521172 0.482307
0.327092 0.523217 0.483619
0.342840 0.525872 0.485298
0.361364 0.529290 0.487282
0.382696 0.533471 0.489784
0.407172 0.538537 0.492470
0.434180 0.544396 0.495338
0.463600 0.550774 0.498482
0.494942 0.557580 0.501610
0.527703 0.564508 0.504845
0.561181 0.571374 0.507897
0.594842 0.577996 0.510948
0.623468 0.581109 0.513237
0.650477 0.583642 0.515496
0.677943 0.586999 0.517906
0.706203 0.591699 0.520775
0.734371 0.597406 0.523949
0.762173 0.604608 0.527764
0.789334 0.613092 0.532128
0.815824 0.623011 0.537102
0.841337 0.634516 0.543023
0.865843 0.647547 0.550072
0.889158 0.662257 0.558556
0.911223 0.678798 0.568933
0.932036 0.697078 0.581415
0.951507 0.716732 0.596155
0.969512 0.737514 0.613214
0.985870 0.759304 0.632807
0.323430 0.553429 0.490181
0.325475 0.553857 0.490425
0.328222 0.554284 0.490639
0.334112 0.555108 0.491188
0.343145 0.556451 0.492012
0.355352 0.558404 0.493080
0.370459 0.560876 0.494423
0.388495 0.564080 0.496132
0.409277 0.567834 0.497963
0.432471 0.572107 0.500114
0.458106 0.576867 0.502464
0.485817 0.582086 0.504906
0.514855 0.587549 0.507469
0.545403 0.593194 0.510063
0.576532 0.598871 0.512627
0.608270 0.604608 0.515251
0.639979 0.610407 0.517906
0.667140 0.613153 0.520104
0.693202 0.615869 0.522484
0.719814 0.619837 0.525261
0.746456 0.624994 0.528588
0.772824 0.631434 0.532494
0.798703 0.639124 0.537011
0.823941 0.648280 0.542321
0.848295 0.658869 0.548699
0.871733 0.671077 0.556329
0.894072 0.684810 0.565454
0.915251 0.700374 0.576532
0.935271 0.717281 0.589593
0.953979 0.735409 0.604639
0.971252 0.754696 0.621973
0.986999 0.775051 0.641718
0.353582 0.587518 0.498634
0.355322 0.587823 0.498787
0.357916 0.588098 0.499001
0.363592 0.588830 0.499367
0.372259 0.589899 0.500023
0.383581 0.591516 0.500908
0.397986 0.593561 0.501915
0.414984 0.596216 0.503319
0.434668 0.599329 0.504845
0.456672 0.602930 0.506584
0.480873 0.607050 0.508507
0.507073 0.611566 0.510552
0.534630 0.616358 0.512718
0.563378 0.621210 0.514946
0.592767 0.626093 0.517235
0.622431 0.631006 0.519554
0.652277 0.636042 0.522026
0.682124 0.641291 0.524651
0.708217 0.644404 0.527123
0.732906 0.647364 0.530022
0.757839 0.651728 0.533440
0.782620 0.657221 0.537469
0.807095 0.664057 0.542260
0.831113 0.672358 0.547906
0.854398 0.682155 0.554742
0.876829 0.693446 0.562982
0.898314 0.706325 0.572778
0.918761 0.720790 0.584436
0.938109 0.736538 0.597925
0.956207 0.753567 0.613458
0.972961 0.771725 0.631250
0.988220 0.790860 0.651240
0.385534 0.620325 0.505974
0.387732 0.620752 0.506096
0.397345 0.627924 0.507713
0.402594 0.628412 0.508049
0.410742 0.629267 0.508568
0.421363 0.630365 0.509209
0.434668 0.631861 0.510094
0.450507 0.633722 0.511101
0.468910 0.636103 0.512352
0.489662 0.638941 0.513695
0.512261 0.642267 0.515312
0.536645 0.645747 0.517021
0.562310 0.649561 0.518883
0.589014 0.653498 0.520836
0.616266 0.657527 0.522942
0.643824 0.661524 0.525200
0.671412 0.665675 0.527703
0.698817 0.669886 0.530297
0.725826 0.674342 0.533196
0.750149 0.677546 0.536217
0.772824 0.680690 0.539818
0.795743 0.685176 0.544121
0.818448 0.691035 0.549248
0.840757 0.698299 0.555413
0.862364 0.706844 0.562707
0.883238 0.716884 0.571344
0.903319 0.728267 0.581445
0.922637 0.741207 0.593256
0.941070 0.755612 0.607050
0.958495 0.771389 0.622858
0.974609 0.788388 0.640955
0.989349 0.806302 0.661189
0.421881 0.653803 0.512902
0.424506 0.654871 0.513176
0.427924 0.656001 0.513481
0.433692 0.657252 0.513909
0.441932 0.658686 0.514488
0.452186 0.659937 0.515160
0.464851 0.661372 0.515923
0.479652 0.662959 0.516808
0.496773 0.665034 0.517876
0.515892 0.667384 0.519158
0.537163 0.670192 0.520623
0.559960 0.673182 0.522240
0.583886 0.676326 0.524010
0.608637 0.679622 0.525963
0.633967 0.682918 0.528099
0.659541 0.686336 0.530449
0.685145 0.689845 0.532952
0.710597 0.693568 0.535729
0.735866 0.697597 0.538750
0.760739 0.701961 0.542138
0.783780 0.705715 0.545922
0.805386 0.709560 0.550652
0.826902 0.714778 0.556176
0.848081 0.721370 0.562921
0.868650 0.729244 0.570794
0.888640 0.738430 0.579889
0.907927 0.748989 0.590448
0.926452 0.760952 0.602686
0.944152 0.774350 0.616876
0.960876 0.789059 0.633051
0.976410 0.804929 0.651362
0.990539 0.821744 0.671778
0.457527 0.683650 0.518914
0.460060 0.684565 0.519188
0.463386 0.685603 0.519554
0.468666 0.686763 0.519921
0.476387 0.687892 0.520500
0.485939 0.688899 0.521019
0.497505 0.690059 0.521782
0.511192 0.691371 0.522637
0.527031 0.693080 0.523705
0.544884 0.694972 0.524987
0.564508 0.697292 0.526452
0.585534 0.699794 0.528099
0.607630 0.702388 0.529931
0.630365 0.705165 0.532036
0.653742 0.707942 0.534203
0.677241 0.710872 0.536614
0.700893 0.713954 0.539300
0.724422 0.717220 0.542260
0.747799 0.720790 0.545495
0.771054 0.724727 0.549187
0.793729 0.728969 0.553277
0.815183 0.733303 0.558221
0.835569 0.737942 0.564263
0.855619 0.743862 0.571466
0.875151 0.751003 0.579736
0.894133 0.759335 0.589197
0.912444 0.768948 0.600092
0.930175 0.779965 0.612634
0.947112 0.792416 0.627131
0.963134 0.806088 0.643610
0.978058 0.820920 0.662074
0.991638 0.836667 0.682673
0.495979 0.711910 0.525444
0.498299 0.712734 0.525719
0.501366 0.713619 0.525994
0.506432 0.714565 0.526421
0.513451 0.715480 0.527001
0.522118 0.716396 0.527642
0.532708 0.717250 0.528344
0.545098 0.718349 0.529229
0.559503 0.719631 0.530297
0.575555 0.721218 0.531609
0.593347 0.723079 0.533165
0.612390 0.725124 0.534844
0.632532 0.727352 0.536797
0.653285 0.729702 0.538933
0.674739 0.732204 0.541375
0.696468 0.734920 0.544121
0.718563 0.737881 0.547112
0.740658 0.741176 0.550500
0.762722 0.744717 0.554284
0.784543 0.748623 0.558618
0.805936 0.752926 0.563409
0.826749 0.757504 0.568719
0.846586 0.762295 0.574853
0.865629 0.767819 0.582605
0.884184 0.774472 0.591455
0.902129 0.782254 0.601556
0.919493 0.791196 0.613062
0.936248 0.801419 0.626093
0.952239 0.812924 0.641016
0.967315 0.825589 0.657801
0.981323 0.839292 0.676539
0.994079 0.853849 0.697108
0.540459 0.741238 0.533715
0.542260 0.741634 0.533928
0.544305 0.742000 0.534142
0.548241 0.742489 0.534508
0.554131 0.743038 0.534966
0.561730 0.743587 0.535637
0.571038 0.744320 0.536370
0.582238 0.745205 0.537377
0.595209 0.746456 0.538537
0.609857 0.747860 0.539971
0.626093 0.749538 0.541711
0.643397 0.751339 0.543694
0.661463 0.753323 0.545830
0.680262 0.755367 0.548272
0.699611 0.757534 0.550958
0.719265 0.759854 0.553918
0.739223 0.762417 0.557336
0.759243 0.765225 0.561089
0.779232 0.768399 0.565209
0.799008 0.771786 0.569848
0.818387 0.775509 0.574914
0.837186 0.779477 0.580377
0.855467 0.783749 0.586236
0.873014 0.788357 0.592889
0.890471 0.794278 0.601953
0.907500 0.801389 0.612329
0.924041 0.809689 0.624140
0.940002 0.819181 0.637476
0.955291 0.829862 0.652644
0.969696 0.841703 0.669581
0.983062 0.854429 0.688380
0.995239 0.868101 0.709041
0.581262 0.766445 0.542657
0.582818 0.766812 0.542931
0.584680 0.767208 0.543145
0.588312 0.767605 0.543542
0.593439 0.768032 0.544121
0.600153 0.768490 0.544793
0.608423 0.769070 0.545647
0.618067 0.769772 0.546685
0.629633 0.770718 0.548058
0.642634 0.771908 0.549645
0.656947 0.773312 0.551476
0.672389 0.774929 0.553704
0.688655 0.776638 0.556146
0.705653 0.778439 0.558862
0.723110 0.780423 0.561852
0.740993 0.782620 0.565240
0.759121 0.785000 0.568963
0.777401 0.787655 0.573083
0.795560 0.790585 0.577661
0.813626 0.793820 0.582574
0.831388 0.797299 0.587976
0.848783 0.801083 0.593744
0.865599 0.805173 0.600000
0.881834 0.809445 0.606592
0.896086 0.812589 0.612543
0.912261 0.819059 0.623102
0.928038 0.826749 0.635096
0.943297 0.835599 0.648707
0.957885 0.845609 0.663966
0.971710 0.856626 0.680995
0.984527 0.868620 0.699916
0.996246 0.881559 0.720851
0.625696 0.792477 0.554864
0.627161 0.792844 0.555200
0.628748 0.793118 0.555444
0.631800 0.793362 0.555901
0.635981 0.793606 0.556390
0.641596 0.793912 0.557153
0.648554 0.794247 0.558007
0.656855 0.794705 0.559106
0.666560 0.795285 0.560479
0.677577 0.796078 0.562158
0.689784 0.797086 0.564111
0.703120 0.798306 0.566369
0.717342 0.799649 0.568963
0.732113 0.801083 0.571832
0.747311 0.802670 0.574945
0.762844 0.804410 0.578424
0.778744 0.806332 0.582116
0.794858 0.808591 0.586297
0.811215 0.811276 0.590997
0.827634 0.814267 0.596185
0.843900 0.817624 0.601923
0.859831 0.821195 0.607935
0.875242 0.824918 0.614343
0.890074 0.828763 0.620996
0.904173 0.832670 0.627924
0.917845 0.836942 0.635401
0.932708 0.843900 0.647456
0.947082 0.852049 0.661067
0.960906 0.861265 0.676356
0.973999 0.871489 0.693416
0.986236 0.882719 0.712337
0.997406 0.894865 0.733394
0.665217 0.815030 0.568505
0.666621 0.815366 0.568902
0.668116 0.815640 0.569207
0.670588 0.815854 0.569635
0.674311 0.816068 0.570275
0.679255 0.816342 0.571069
0.685328 0.816678 0.572107
0.692592 0.817136 0.573327
0.701137 0.817746 0.574823
0.710933 0.818570 0.576745
0.721675 0.819547 0.578912
0.733455 0.820706 0.581415
0.745998 0.822049 0.584314
0.758999 0.823484 0.587335
0.772549 0.825010 0.590723
0.786404 0.826688 0.594446
0.800504 0.828550 0.598413
0.814939 0.830686 0.602869
0.829526 0.833158 0.607782
0.844205 0.835966 0.613214
0.858793 0.839017 0.619074
0.873167 0.842313 0.625330
0.887083 0.845792 0.631952
0.900572 0.849393 0.638819
0.913542 0.853117 0.645991
0.925963 0.856962 0.653346
0.937865 0.860990 0.661128
0.951446 0.868559 0.674830
0.964508 0.877165 0.690303
0.976867 0.886687 0.707393
0.988434 0.897246 0.726558
0.998962 0.908568 0.747616
0.704372 0.837430 0.585321
0.705440 0.837644 0.585595
0.706600 0.837797 0.585901
0.708614 0.837949 0.586328
0.711604 0.838041 0.586908
0.715633 0.838254 0.587671
0.720729 0.838499 0.588678
0.726925 0.838895 0.589899
0.734218 0.839445 0.591547
0.742641 0.840208 0.593530
0.752071 0.841093 0.595819
0.762325 0.842222 0.598535
0.773312 0.843534 0.601587
0.784878 0.844907 0.604883
0.796719 0.846342 0.608453
0.808865 0.847929 0.612207
0.821378 0.849638 0.616388
0.834104 0.851591 0.620966
0.847074 0.853880 0.626032
0.860136 0.856474 0.631556
0.873198 0.859312 0.637537
0.886107 0.862364 0.643946
0.898711 0.865629 0.650721
0.910918 0.869017 0.657801
0.922728 0.872496 0.665034
0.934051 0.876127 0.672572
0.944915 0.879911 0.680507
0.955322 0.883818 0.688563
0.967437 0.891508 0.703395
0.979217 0.900481 0.720668
0.990143 0.910307 0.739712
1.000000 0.920836 0.760739
0.740169 0.858579 0.604059
0.740963 0.858732 0.604334
0.741878 0.858854 0.604639
0.743709 0.859007 0.605066
0.746395 0.859220 0.605768
0.750149 0.859586 0.606744
0.755032 0.860105 0.608057
0.760952 0.860838 0.609888
0.767880 0.861753 0.611994
0.775753 0.862852 0.614466
0.784421 0.864103 0.617365
0.793851 0.865507 0.620569
0.803738 0.867002 0.624079
0.813993 0.868559 0.627863
0.824491 0.870054 0.631739
0.835111 0.871611 0.635828
0.846006 0.873289 0.640314
0.857084 0.875181 0.645014
0.868376 0.877317 0.650355
0.879789 0.879667 0.656001
0.891203 0.882292 0.662135
0.902525 0.885100 0.668635
0.913603 0.888060 0.675471
0.924346 0.891142 0.682582
0.934752 0.894347 0.689937
0.944793 0.897704 0.697597
0.954467 0.901152 0.705470
0.963745 0.904784 0.713741
0.972656 0.908629 0.722316
0.983062 0.916167 0.738186
0.993103 0.925170 0.757168
1.000000 0.934722 0.777951
0.777829 0.881437 0.628168
0.778439 0.881559 0.628382
0.779110 0.881621 0.628565
0.780484 0.881682 0.628962
0.782681 0.881834 0.629572
0.785672 0.882048 0.630488
0.789578 0.882414 0.631769
0.794278 0.882902 0.633356
0.799832 0.883574 0.635248
0.806241 0.884337 0.637568
0.813352 0.885283 0.640314
0.821042 0.886381 0.643305
0.829313 0.887572 0.646632
0.837980 0.888823 0.650294
0.846921 0.890196 0.654139
0.856229 0.891630 0.658350
