其他预设/【232】美食博客调色预设124款/1.3D LUT预设（视频调色-PR-AE-PS-FCPX-达芬奇用）/Food Art #20.cube
# Created by Adobe Lightroom plugin Export LUT (1.17.0)
# www.johnrellis.com/lightroom/exportlut.htm
# Preset: Food Art #20
# Color profile: /Library/Application Support/Adobe/Color/Profiles/Recommended/AdobeRGB1998.icc
LUT_3D_SIZE 8
DOMAIN_MIN 0.000000 0.000000 0.000000
DOMAIN_MAX 0.903226 0.903226 0.903226
0.000000 0.000000 0.185428
0.000000 0.021942 0.196078
0.132601 0.056367 0.204166
0.261784 0.013672 0.212131
0.424262 0.000000 0.232761
0.629114 0.000000 0.252628
0.828550 0.000000 0.270451
0.971130 0.000000 0.291875
0.000000 0.082704 0.196292
0.000000 0.084382 0.197391
0.127810 0.095460 0.207279
0.255741 0.091829 0.216281
0.417792 0.047578 0.235508
0.620417 0.000000 0.253483
0.820981 0.000000 0.269993
0.967559 0.103883 0.290715
0.000000 0.168917 0.215061
0.000000 0.169558 0.216342
0.120790 0.172091 0.220218
0.250126 0.184115 0.228489
0.417243 0.193088 0.244114
0.623468 0.196536 0.258061
0.828122 0.215457 0.271946
0.970367 0.279362 0.291142
0.000000 0.287938 0.234958
0.000000 0.288731 0.235691
0.119661 0.292882 0.238407
0.254459 0.305852 0.243656
0.427131 0.333165 0.253117
0.631617 0.360204 0.261448
0.826963 0.389593 0.270329
0.966674 0.432380 0.287602
0.000000 0.455360 0.252567
0.000000 0.456458 0.252903
0.111788 0.461707 0.253971
0.273686 0.471839 0.255650
0.429358 0.479469 0.256626
0.622492 0.509178 0.258274
0.819120 0.545861 0.263310
0.961028 0.581140 0.280583
0.000000 0.651209 0.255161
0.000000 0.656458 0.255314
0.102876 0.659754 0.255253
0.302708 0.665339 0.254826
0.472633 0.670069 0.253269
0.642695 0.675288 0.250462
0.819425 0.696956 0.252781
0.957855 0.721950 0.273198
0.000000 0.835233 0.253788
0.000000 0.836240 0.253880
0.153292 0.836057 0.253666
0.345922 0.836362 0.253269
0.515343 0.834806 0.252201
0.679438 0.833127 0.251133
0.828000 0.832059 0.251011
0.953552 0.838834 0.267460
0.098390 0.961883 0.276829
0.162448 0.961517 0.276921
0.287999 0.960540 0.277592
0.431342 0.958953 0.279332
0.572930 0.951995 0.278080
0.719722 0.947509 0.281651
0.850675 0.943755 0.288304
0.957855 0.941375 0.297276
0.000000 0.033112 0.227573
0.000000 0.027985 0.228061
0.105348 0.066224 0.241215
0.232578 0.067292 0.254093
0.398535 0.000000 0.268193
0.603937 0.000000 0.281224
0.811551 0.000000 0.293248
0.962951 0.000000 0.309819
0.000000 0.082094 0.228611
0.000000 0.083772 0.230289
0.100496 0.097902 0.244327
0.231571 0.102602 0.255222
0.396796 0.083803 0.269047
0.600488 0.000000 0.281407
0.806271 0.000000 0.292363
0.959350 0.120180 0.308263
0.000000 0.162295 0.245365
0.000000 0.160372 0.248325
0.101289 0.164218 0.250797
0.231296 0.180209 0.259892
0.397894 0.194003 0.272313
0.602502 0.199039 0.282780
0.809720 0.214817 0.292149
0.961334 0.279881 0.307622
0.000000 0.276951 0.260899
0.000000 0.275914 0.262852
0.112032 0.281743 0.264652
0.238407 0.290929 0.267613
0.402045 0.318242 0.275669
0.605005 0.348119 0.282322
0.808743 0.380713 0.288853
0.958221 0.428779 0.303258
0.000000 0.444007 0.274998
0.000000 0.444587 0.275090
0.113222 0.448737 0.275669
0.265293 0.456245 0.276341
0.413367 0.463325 0.276493
0.606806 0.497536 0.277653
0.809049 0.538994 0.281437
0.955627 0.578271 0.296605
0.000000 0.639704 0.274571
0.000000 0.641016 0.274632
0.106355 0.644953 0.274388
0.298161 0.652369 0.273655
0.465797 0.659907 0.272038
0.635981 0.668238 0.269017
0.814054 0.692348 0.270878
0.954131 0.719326 0.289281
0.000000 0.826566 0.270939
0.000000 0.826078 0.270787
0.155856 0.826963 0.270542
0.344854 0.829191 0.270237
0.513298 0.829465 0.269352
0.675532 0.828122 0.268070
0.822477 0.826841 0.267124
0.949126 0.834775 0.282109
0.124636 0.958343 0.291752
0.179202 0.958312 0.292119
0.296849 0.957610 0.292821
0.436713 0.956298 0.294713
0.582238 0.952544 0.296513
0.723995 0.947173 0.299046
0.851102 0.942473 0.304082
0.956634 0.939818 0.311925
0.000000 0.046235 0.303807
0.000000 0.054719 0.302037
0.090547 0.068421 0.297734
0.227787 0.074250 0.307683
0.388464 0.057588 0.321630
0.590265 0.000000 0.335637
0.804562 0.000000 0.346319
0.959991 0.153140 0.360876
0.000000 0.096712 0.297154
0.000000 0.098756 0.296025
0.084779 0.102205 0.295811
0.222049 0.111940 0.307836
0.383276 0.112886 0.322332
0.586542 0.076509 0.334936
0.800961 0.016236 0.345006
0.958038 0.196811 0.359503
0.000000 0.162539 0.297551
0.000000 0.162509 0.297124
0.106020 0.178470 0.306981
0.222995 0.186862 0.312078
0.386358 0.205051 0.324712
0.590600 0.214664 0.334478
0.801907 0.235843 0.343267
0.956909 0.310979 0.357305
0.000000 0.274601 0.308782
0.000000 0.273136 0.309514
0.114778 0.278111 0.313970
0.233951 0.287114 0.316075
0.393744 0.317296 0.324804
0.596490 0.350774 0.332189
0.804318 0.389319 0.339239
0.955688 0.447395 0.353307
0.000000 0.439612 0.318883
0.000000 0.437446 0.319982
0.130282 0.436469 0.323003
0.267491 0.445533 0.323430
0.408179 0.454536 0.323217
0.599939 0.492836 0.325780
0.803738 0.539300 0.331121
0.952667 0.587030 0.346593
0.000000 0.633845 0.319341
0.000000 0.632166 0.320500
0.138582 0.631067 0.322210
0.304021 0.637659 0.321416
0.461921 0.645594 0.319860
0.626001 0.655268 0.317357
0.807309 0.686427 0.320836
0.951720 0.722591 0.340581
0.000000 0.823209 0.317815
0.000000 0.821439 0.319188
0.197116 0.820066 0.320165
0.360662 0.821256 0.319615
0.519615 0.821805 0.318608
0.677119 0.822263 0.317967
0.822385 0.823819 0.318486
0.949615 0.836515 0.336126
0.206790 0.954620 0.339300
0.249485 0.953307 0.341711
0.340246 0.952239 0.342077
0.466987 0.951720 0.345006
0.601221 0.948241 0.346929
0.735409 0.943877 0.350286
0.856291 0.940459 0.356085
0.957885 0.939117 0.364416
0.000000 0.060029 0.373388
0.000000 0.064515 0.372045
0.109529 0.074128 0.367834
0.235386 0.075319 0.363867
0.398016 0.047883 0.375280
0.597070 0.000000 0.388830
0.800626 0.000000 0.402014
0.953216 0.225254 0.420691
0.000000 0.109560 0.366766
0.000000 0.110933 0.366186
0.109560 0.114351 0.364233
0.232120 0.114015 0.362219
0.395148 0.111879 0.374823
0.592798 0.084321 0.388251
0.797147 0.102968 0.401495
0.951324 0.264622 0.421210
0.000000 0.182864 0.363134
0.000000 0.184207 0.361700
0.118013 0.189731 0.360784
0.233402 0.193332 0.361730
0.393591 0.212955 0.375189
0.593011 0.229068 0.389105
0.800351 0.269810 0.404089
0.952605 0.366888 0.423224
0.000000 0.280034 0.362402
0.000000 0.279545 0.361700
0.125002 0.285161 0.362737
0.277714 0.322454 0.376593
0.405890 0.329839 0.378149
0.593713 0.358007 0.387366
0.797879 0.402441 0.399512
0.950744 0.479927 0.419654
0.000000 0.437507 0.371069
0.000000 0.435401 0.370794
0.146853 0.435462 0.371618
0.290288 0.450660 0.376806
0.421241 0.458808 0.376867
0.604578 0.495918 0.382879
0.802152 0.545800 0.393988
0.949218 0.606287 0.415473
0.000000 0.633906 0.375463
0.000000 0.635523 0.376287
0.171817 0.631403 0.377111
0.328740 0.633875 0.379370
0.475105 0.641749 0.378637
0.628870 0.650172 0.377295
0.806516 0.685847 0.386511
0.948821 0.730739 0.412299
0.000000 0.821103 0.376989
0.000000 0.820371 0.377905
0.241459 0.817624 0.381109
0.398108 0.815732 0.385687
0.542290 0.816922 0.385840
0.687861 0.817594 0.386267
0.823178 0.819425 0.387884
0.948028 0.837491 0.410010
0.252934 0.954009 0.397375
0.292454 0.953033 0.399939
0.397894 0.949096 0.408392
0.517082 0.945129 0.416297
0.633692 0.942260 0.418341
0.753689 0.939086 0.422004
0.863981 0.937255 0.428321
0.959075 0.937560 0.437385
0.000000 0.081392 0.448646
0.000000 0.084321 0.447608
0.155093 0.088106 0.444068
0.288212 0.081361 0.439796
0.421698 0.026581 0.436439
0.613855 0.000000 0.451087
0.811002 0.000000 0.467353
0.957549 0.241550 0.485542
0.000000 0.126925 0.443000
0.000000 0.128389 0.442786
0.158755 0.129885 0.440497
0.286351 0.126040 0.437018
0.418128 0.111116 0.434607
0.611627 0.080385 0.450202
0.809598 0.116213 0.466987
0.956298 0.280461 0.486030
0.000000 0.210910 0.435615
0.000000 0.213046 0.434150
0.167086 0.215579 0.432654
0.286290 0.217533 0.431891
0.412268 0.215946 0.430426
0.603632 0.227420 0.446784
0.803586 0.267155 0.464973
0.951110 0.381842 0.487007
0.000000 0.316808 0.433661
0.000000 0.317235 0.432410
0.177066 0.321355 0.430274
0.300633 0.332280 0.431312
0.425452 0.337255 0.431769
0.608270 0.364965 0.445991
0.801175 0.416815 0.464454
0.946715 0.509850 0.490852
0.000000 0.444007 0.429572
0.000000 0.443427 0.428840
0.176181 0.443854 0.427527
0.310887 0.456641 0.430488
0.482368 0.501854 0.446143
0.625086 0.509270 0.446662
0.802487 0.554437 0.461982
0.944762 0.625696 0.490211
0.000000 0.623316 0.436103
0.000000 0.622492 0.435828
0.195102 0.620356 0.435096
0.341375 0.624872 0.436469
0.494331 0.640375 0.441596
0.640406 0.650233 0.442786
0.809445 0.688167 0.458686
0.945983 0.739803 0.490791
0.000000 0.816037 0.446967
0.122072 0.814755 0.447059
0.269261 0.811643 0.447944
0.418677 0.808988 0.451606
0.563561 0.808835 0.456611
0.697749 0.810697 0.458503
0.823453 0.813504 0.461463
0.945434 0.837522 0.489601
0.291142 0.949157 0.468147
0.323888 0.947967 0.469612
0.417060 0.944274 0.474830
0.543969 0.940398 0.486366
0.663661 0.935210 0.496315
0.769894 0.933196 0.500511
0.869596 0.932708 0.507195
0.957977 0.934295 0.516289
0.000000 0.104036 0.547723
0.080446 0.104707 0.546868
0.221439 0.102296 0.543481
0.358679 0.085664 0.540185
0.502251 0.000000 0.536034
0.645289 0.000000 0.530785
0.825101 0.000000 0.549096
0.962860 0.266514 0.569360
0.000000 0.147189 0.541436
0.097810 0.147341 0.540764
0.223880 0.145968 0.538567
0.356878 0.137789 0.536034
0.498024 0.116915 0.532341
0.640681 0.077821 0.528008
0.822538 0.131472 0.547539
0.961120 0.300969 0.569055
0.075593 0.243748 0.533135
0.129397 0.244327 0.532677
0.235325 0.245609 0.531579
0.360021 0.245457 0.529870
0.495979 0.241306 0.526940
0.636378 0.234134 0.523735
0.819120 0.279179 0.545312
0.957519 0.401282 0.570123
0.087800 0.363653 0.530480
0.140810 0.364111 0.528771
0.248112 0.368048 0.525261
0.370672 0.374151 0.524773
0.503410 0.376471 0.523949
0.641108 0.377234 0.522179
0.818326 0.430274 0.544488
0.953399 0.526116 0.573205
0.066651 0.499184 0.524804
0.132967 0.499245 0.523766
0.248081 0.500237 0.521050
0.376471 0.505547 0.519402
0.514611 0.515618 0.521080
0.650385 0.519738 0.521050
0.815244 0.567346 0.541405
0.946593 0.644892 0.575219
0.000000 0.641444 0.517784
0.120729 0.641779 0.517510
0.247776 0.640436 0.515587
0.380987 0.641871 0.514611
0.524895 0.652094 0.518334
0.699641 0.690700 0.539940
0.823972 0.705257 0.547662
0.945525 0.754299 0.582361
0.149874 0.813962 0.532250
0.199649 0.813779 0.532464
0.312810 0.811368 0.532219
0.446601 0.808988 0.533196
0.585504 0.808499 0.537041
0.723598 0.813016 0.547845
0.833188 0.815824 0.551690
0.946838 0.843992 0.586236
0.341558 0.945800 0.559167
0.368383 0.944671 0.559838
0.448829 0.941253 0.562615
0.560204 0.936736 0.568872
0.677913 0.931487 0.578210
0.785946 0.928130 0.590692
0.875273 0.929198 0.598871
0.956512 0.932006 0.609064
0.127260 0.134859 0.674128
0.176303 0.134859 0.674281
0.286900 0.132082 0.672572
0.421210 0.120790 0.670192
0.565179 0.097322 0.666377
0.708186 0.069734 0.661799
0.838254 0.089998 0.657160
0.962982 0.285130 0.676875
0.144015 0.176028 0.669184
0.186923 0.176242 0.669306
0.291051 0.174746 0.668055
0.421302 0.168887 0.665583
0.563073 0.157382 0.661982
0.704494 0.146548 0.657496
0.833829 0.156924 0.652857
0.959838 0.310887 0.673671
0.182193 0.281315 0.663416
0.215915 0.281712 0.663081
0.307622 0.282658 0.661646
0.430060 0.283207 0.659693
0.566003 0.281956 0.656458
0.703944 0.282933 0.653010
0.831968 0.295171 0.650141
0.957977 0.412146 0.675288
0.213413 0.412543 0.658289
0.245487 0.414160 0.656672
0.333776 0.419043 0.653468
0.446845 0.422248 0.652399
0.575097 0.425055 0.650263
0.707240 0.430762 0.648402
0.830198 0.441749 0.647028
0.954101 0.533593 0.676631
0.216159 0.548333 0.653620
0.248753 0.548821 0.652155
0.340795 0.552087 0.648402
0.461982 0.559533 0.644434
0.585077 0.564080 0.642481
0.708827 0.567437 0.641474
0.825986 0.575494 0.641108
0.948455 0.652064 0.677302
0.224796 0.689265 0.649592
0.258549 0.689357 0.648737
0.352453 0.690089 0.646143
0.472053 0.691920 0.643336
0.600183 0.696101 0.641566
0.726528 0.706355 0.644312
0.833127 0.712276 0.646418
0.945769 0.761929 0.684443
0.253239 0.820890 0.648341
0.285801 0.820615 0.648035
0.375158 0.818509 0.646174
0.489357 0.815824 0.644221
0.614191 0.812955 0.642847
0.737942 0.815244 0.647608
0.857939 0.835691 0.674525
0.947204 0.852781 0.698085
0.377874 0.940337 0.671382
0.401526 0.939544 0.671595
0.476814 0.937621 0.674067
0.578698 0.933654 0.677058
0.688350 0.929046 0.682063
0.791409 0.926268 0.691157
0.880308 0.927825 0.706508
0.953613 0.931151 0.716579
0.222599 0.196841 0.831785
0.256168 0.197879 0.831937
0.348638 0.199588 0.830594
0.472847 0.202762 0.829618
0.608728 0.209689 0.827909
0.742397 0.228092 0.825742
0.861143 0.269566 0.823972
0.958923 0.330388 0.821775
0.237247 0.234531 0.829191
0.268467 0.235599 0.829343
0.356603 0.237552 0.828397
0.477211 0.241428 0.827176
0.610803 0.248905 0.825620
0.742733 0.266148 0.823514
0.860166 0.302464 0.821500
0.957397 0.355932 0.819455
0.279576 0.339788 0.824399
0.305394 0.340795 0.824338
0.382544 0.343175 0.823026
0.495521 0.350347 0.823362
0.621454 0.359167 0.821653
0.747036 0.374426 0.819303
0.859861 0.402319 0.817777
0.954467 0.440253 0.816648
0.344579 0.482429 0.818326
0.365667 0.483772 0.818479
0.429877 0.486183 0.817624
0.527886 0.491981 0.817166
0.641321 0.499763 0.816281
0.755947 0.510491 0.815000
0.860502 0.527764 0.814359
0.950835 0.552056 0.814420
0.362432 0.606561 0.816770
0.387671 0.609552 0.816434
0.461311 0.617334 0.813901
0.563012 0.629358 0.810819
0.661433 0.632593 0.810117
0.764248 0.638148 0.809598
0.860685 0.648981 0.810239
0.946502 0.665858 0.812528
0.382483 0.731685 0.816526
0.404608 0.732387 0.815610
0.473365 0.735073 0.813107
0.570703 0.739864 0.810147
0.677974 0.747158 0.807553
0.777188 0.754788 0.808530
0.865232 0.762295 0.812192
0.944884 0.772366 0.816739
0.416358 0.846677 0.820249
0.436561 0.846494 0.819608
0.499855 0.846006 0.817838
0.591608 0.845884 0.815946
0.692561 0.846189 0.814267
0.788754 0.848631 0.814420
0.873289 0.854917 0.819486
0.944640 0.858152 0.823087
0.466224 0.942840 0.829404
0.483528 0.942138 0.828946
0.539330 0.939971 0.827939
0.622156 0.936736 0.826993
0.713619 0.932860 0.826047
0.800626 0.929808 0.826047
0.879240 0.929595 0.830045
0.953429 0.938293 0.850980
