其他预设/【232】美食博客调色预设124款/1.3D LUT预设（视频调色-PR-AE-PS-FCPX-达芬奇用）/Food Art #79.cube
# Created by Adobe Lightroom plugin Export LUT (1.17.0)
# www.johnrellis.com/lightroom/exportlut.htm
# Preset: Food Art #79
# Color profile: /Library/Application Support/Adobe/Color/Profiles/Recommended/AdobeRGB1998.icc
LUT_3D_SIZE 32
0.000000 0.000000 0.000000
0.000000 0.000000 0.000000
0.000000 0.000000 0.000000
0.000000 0.000000 0.000000
0.050416 0.000000 0.000000
0.096864 0.000000 0.000000
0.133639 0.000000 0.000000
0.168582 0.000000 0.000000
0.201785 0.000000 0.000000
0.233036 0.000000 0.000000
0.263584 0.000000 0.000000
0.294072 0.000000 0.000000
0.325322 0.000000 0.000000
0.358129 0.000000 0.000000
0.392889 0.000000 0.000000
0.429633 0.000000 0.000000
0.465888 0.000000 0.000000
0.500877 0.000000 0.000000
0.534752 0.000000 0.000000
0.569390 0.000000 0.000000
0.604700 0.000000 0.000000
0.640345 0.000000 0.000000
0.676051 0.000000 0.000000
0.711696 0.000000 0.000000
0.747311 0.000000 0.000000
0.783047 0.000000 0.000000
0.818784 0.000000 0.000000
0.854643 0.000000 0.000000
0.890593 0.000000 0.000000
0.926574 0.000000 0.000000
0.962280 0.000000 0.000000
0.997314 0.000000 0.000000
0.000000 0.000000 0.000000
0.000000 0.000000 0.000000
0.000000 0.000000 0.000000
0.000000 0.000000 0.000000
0.052430 0.000000 0.000000
0.097505 0.000000 0.000000
0.134066 0.000000 0.000000
0.168917 0.000000 0.000000
0.201907 0.000000 0.000000
0.233188 0.000000 0.000000
0.263462 0.000000 0.000000
0.293919 0.000000 0.000000
0.325200 0.000000 0.000000
0.358068 0.000000 0.000000
0.392706 0.000000 0.000000
0.429480 0.000000 0.000000
0.465705 0.000000 0.000000
0.500725 0.000000 0.000000
0.534569 0.000000 0.000000
0.569177 0.000000 0.000000
0.604425 0.000000 0.000000
0.640070 0.000000 0.000000
0.675746 0.000000 0.000000
0.711421 0.000000 0.000000
0.747066 0.000000 0.000000
0.782773 0.000000 0.000000
0.818540 0.000000 0.000000
0.854398 0.000000 0.000000
0.890379 0.000000 0.000000
0.926360 0.000000 0.000000
0.962097 0.000000 0.000000
0.997131 0.000000 0.000000
0.000000 0.000000 0.000000
0.000000 0.000000 0.000000
0.000000 0.000000 0.000000
0.000000 0.000000 0.000000
0.055512 0.000000 0.000000
0.098421 0.000000 0.000000
0.134493 0.000000 0.000000
0.169375 0.000000 0.000000
0.202274 0.000000 0.000000
0.233097 0.000000 0.000000
0.263340 0.000000 0.000000
0.293767 0.000000 0.000000
0.325048 0.000000 0.000000
0.357916 0.000000 0.000000
0.392584 0.000000 0.000000
0.429389 0.000000 0.000000
0.465553 0.000000 0.000000
0.500511 0.000000 0.000000
0.534508 0.000000 0.000000
0.569024 0.000000 0.000000
0.604303 0.000000 0.000000
0.639918 0.000000 0.000000
0.675593 0.000000 0.000000
0.711269 0.000000 0.000000
0.746944 0.000000 0.000000
0.782589 0.000000 0.000000
0.818387 0.000000 0.000000
0.854276 0.000000 0.000000
0.890288 0.000000 0.000000
0.926268 0.000000 0.000000
0.961975 0.000000 0.000000
0.997070 0.000000 0.000000
0.000000 0.000000 0.000000
0.000000 0.000000 0.000000
0.000000 0.000000 0.000000
0.000000 0.000000 0.000000
0.060700 0.000000 0.000000
0.100099 0.000000 0.000000
0.135653 0.000000 0.000000
0.169802 0.000000 0.000000
0.202121 0.000000 0.000000
0.232944 0.000000 0.000000
0.263127 0.000000 0.000000
0.293584 0.000000 0.000000
0.324834 0.000000 0.000000
0.357671 0.000000 0.000000
0.392462 0.000000 0.000000
0.429206 0.000000 0.000000
0.465370 0.000000 0.000000
0.500389 0.000000 0.000000
0.534325 0.000000 0.000000
0.568811 0.000000 0.000000
0.604028 0.000000 0.000000
0.639612 0.000000 0.000000
0.675319 0.000000 0.000000
0.711025 0.000000 0.000000
0.746700 0.000000 0.000000
0.782467 0.000000 0.000000
0.818265 0.000000 0.000000
0.854215 0.000000 0.000000
0.890196 0.000000 0.000000
0.926207 0.000000 0.000000
0.961883 0.000000 0.000000
0.996979 0.000000 0.000000
0.000000 0.066621 0.000000
0.000000 0.067933 0.000000
0.000000 0.069642 0.000000
0.000000 0.072877 0.000000
0.051484 0.074647 0.000000
0.099275 0.067689 0.000000
0.135225 0.059937 0.000000
0.169528 0.048341 0.000000
0.201877 0.030823 0.000000
0.232578 0.019623 0.000000
0.262730 0.010559 0.000000
0.293187 0.008576 0.000000
0.324468 0.010468 0.000000
0.357366 0.017243 0.000000
0.392096 0.027222 0.000000
0.428870 0.041871 0.000000
0.465064 0.047272 0.000000
0.500053 0.047669 0.000000
0.534112 0.045594 0.000000
0.568627 0.037110 0.000000
0.603845 0.025788 0.000000
0.639429 0.013977 0.000000
0.675074 0.000000 0.000000
0.710811 0.000000 0.000000
0.746487 0.000000 0.000000
0.782284 0.000000 0.000000
0.818112 0.000000 0.000000
0.854032 0.000000 0.000000
0.890074 0.000000 0.000000
0.926055 0.000000 0.000000
0.961761 0.000000 0.000000
0.996826 0.000000 0.000000
0.000000 0.105684 0.000000
0.000000 0.106722 0.000000
0.000000 0.107698 0.000000
0.000000 0.110140 0.000000
0.025513 0.111696 0.000000
0.096590 0.111513 0.000000
0.134371 0.108217 0.000000
0.168856 0.105196 0.000000
0.201144 0.101869 0.000000
0.231968 0.099092 0.000000
0.262181 0.097566 0.000000
0.292790 0.097353 0.000000
0.324102 0.098329 0.000000
0.357092 0.100649 0.000000
0.391882 0.104097 0.000000
0.428626 0.107362 0.000000
0.464759 0.108797 0.000000
0.499733 0.109438 0.000000
0.533898 0.108858 0.000000
0.568475 0.107576 0.000000
0.603662 0.105959 0.000000
0.639277 0.103456 0.000000
0.676417 0.101564 0.000000
0.712123 0.099184 0.000000
0.747768 0.096529 0.000000
0.783444 0.093355 0.000000
0.819211 0.090303 0.000000
0.855039 0.086732 0.000000
0.890990 0.083192 0.000000
0.926909 0.079377 0.000000
0.962524 0.075074 0.000000
0.997467 0.071351 0.000000
0.000000 0.143130 0.000000
0.000000 0.143648 0.000000
0.000000 0.144533 0.000000
0.000000 0.146426 0.000000
0.003388 0.147677 0.000000
0.091218 0.147555 0.000000
0.133913 0.147280 0.000000
0.168093 0.144625 0.000000
0.200656 0.142519 0.000000
0.231540 0.140841 0.000000
0.261875 0.140017 0.000000
0.292454 0.139895 0.000000
0.323980 0.141146 0.000000
0.357031 0.143130 0.000000
0.391913 0.145663 0.000000
0.428595 0.148226 0.000000
0.464668 0.149722 0.000000
0.499855 0.150515 0.000000
0.534020 0.150301 0.000000
0.568597 0.149874 0.000000
0.603937 0.149508 0.000000
0.639704 0.148501 0.000000
0.675532 0.147738 0.000000
0.711421 0.146426 0.000000
0.747250 0.145327 0.000000
0.783047 0.143954 0.000000
0.818845 0.142672 0.000000
0.854704 0.141146 0.000000
0.890715 0.139467 0.000000
0.926635 0.138094 0.000000
0.962249 0.136233 0.000000
0.997192 0.134859 0.000000
0.000000 0.177768 0.000000
0.000000 0.178195 0.000000
0.000000 0.178866 0.000000
0.000000 0.180331 0.000000
0.000000 0.180758 0.000000
0.087160 0.180819 0.000000
0.130983 0.180514 0.000000
0.167819 0.180362 0.000000
0.199771 0.177981 0.000000
0.230686 0.176577 0.000000
0.261265 0.175906 0.000000
0.291875 0.176120 0.000000
0.323461 0.177340 0.000000
0.356512 0.179110 0.000000
0.391455 0.181521 0.000000
0.428199 0.184115 0.000000
0.464363 0.186130 0.000000
0.499519 0.186893 0.000000
0.533623 0.187259 0.000000
0.568261 0.187198 0.000000
0.603540 0.187320 0.000000
0.639307 0.187320 0.000000
0.675135 0.187289 0.000000
0.710994 0.186862 0.000000
0.746822 0.186404 0.000000
0.782620 0.186038 0.000000
0.818418 0.185489 0.000000
0.854368 0.184604 0.000000
0.890379 0.183902 0.000000
0.926329 0.183017 0.000000
0.961975 0.182193 0.000000
0.996948 0.181186 0.000000
0.000000 0.210269 0.000000
0.000000 0.210605 0.000000
0.000000 0.211154 0.000000
0.000000 0.211826 0.000000
0.000000 0.212070 0.000000
0.086000 0.211948 0.000000
0.129122 0.211917 0.000000
0.165835 0.211643 0.000000
0.199710 0.211368 0.000000
0.229984 0.209506 0.000000
0.260502 0.209201 0.000000
0.291234 0.209323 0.000000
0.322881 0.210636 0.000000
0.356023 0.212558 0.000000
0.391058 0.215183 0.000000
0.427893 0.218326 0.000000
0.464118 0.220371 0.000000
0.499184 0.221653 0.000000
0.533227 0.222110 0.000000
0.567834 0.222660 0.000000
0.603143 0.223301 0.000000
0.638911 0.223697 0.000000
0.674739 0.224094 0.000000
0.710597 0.224338 0.000000
0.746426 0.224613 0.000000
0.782254 0.224308 0.000000
0.818112 0.224338 0.000000
0.854063 0.224155 0.000000
0.890074 0.223789 0.000000
0.926055 0.223484 0.000000
0.961700 0.222934 0.000000
0.996704 0.222477 0.000000
0.000000 0.241489 0.000000
0.000000 0.241764 0.000000
0.000000 0.242008 0.000000
0.000000 0.242130 0.000000
0.000000 0.242313 0.000000
0.087617 0.242313 0.000000
0.129488 0.242222 0.000000
0.165377 0.242161 0.000000
0.198581 0.242191 0.000000
0.230350 0.242039 0.000000
0.260044 0.240818 0.000000
0.290349 0.240909 0.000000
0.322118 0.242252 0.000000
0.355383 0.244541 0.000000
0.390814 0.247715 0.000000
0.427710 0.251255 0.000000
0.463874 0.253696 0.000000
0.498817 0.255192 0.000000
0.532891 0.256077 0.000000
0.567437 0.256931 0.000000
0.602838 0.257939 0.000000
0.638514 0.258854 0.000000
0.674311 0.259556 0.000000
0.710079 0.260227 0.000000
0.745937 0.260624 0.000000
0.781765 0.261051 0.000000
0.817655 0.261234 0.000000
0.853696 0.261448 0.000000
0.889769 0.261570 0.000000
0.925811 0.261418 0.000000
0.961486 0.261387 0.000000
0.996521 0.261143 0.000000
0.000000 0.272251 0.000000
0.000000 0.272374 0.000000
0.000000 0.272465 0.000000
0.000000 0.272587 0.000000
0.000000 0.272648 0.000000
0.088289 0.272831 0.000000
0.129213 0.272953 0.000000
0.164523 0.273106 0.000000
0.197787 0.273136 0.000000
0.229740 0.273228 0.000000
0.260838 0.273381 0.000000
0.290806 0.272801 0.000000
0.321477 0.273320 0.000000
0.355138 0.276005 0.000000
0.390631 0.279667 0.000000
0.427405 0.283665 0.000000
0.463416 0.286381 0.000000
0.498207 0.288243 0.000000
0.532311 0.289311 0.000000
0.566949 0.290471 0.000000
0.602350 0.291875 0.000000
0.638056 0.293034 0.000000
0.673884 0.294194 0.000000
0.709682 0.295140 0.000000
0.745510 0.295933 0.000000
0.781369 0.296513 0.000000
0.817288 0.297124 0.000000
0.853330 0.297581 0.000000
0.889433 0.297948 0.000000
0.925505 0.298100 0.000000
0.961212 0.298283 0.000000
0.996246 0.298283 0.000000
0.000000 0.303899 0.000000
0.000000 0.303990 0.000000
0.000000 0.304021 0.000000
0.000000 0.304143 0.000000
0.000000 0.304265 0.000000
0.085542 0.304479 0.000000
0.127901 0.304723 0.000000
0.163821 0.304967 0.000000
0.197513 0.305180 0.000000
0.229679 0.305516 0.000000
0.261448 0.305852 0.000000
0.292668 0.306371 0.000000
0.324102 0.307073 0.000000
0.355566 0.307988 0.000000
0.391272 0.312108 0.000000
0.428077 0.316472 0.000000
0.463935 0.319585 0.000000
0.498634 0.321569 0.000000
0.532708 0.322820 0.000000
0.567407 0.324285 0.000000
0.602838 0.325780 0.000000
0.638453 0.327337 0.000000
0.674189 0.328618 0.000000
0.709987 0.329900 0.000000
0.745754 0.330846 0.000000
0.781613 0.331762 0.000000
0.817472 0.332525 0.000000
0.853513 0.333196 0.000000
0.889586 0.333776 0.000000
0.925597 0.334234 0.000000
0.961303 0.334600 0.000000
0.996277 0.334691 0.000000
0.000000 0.337407 0.000000
0.000000 0.337530 0.000000
0.000000 0.337530 0.000000
0.000000 0.337652 0.000000
0.000000 0.337896 0.000000
0.079835 0.338109 0.000000
0.125124 0.338354 0.000000
0.162570 0.338689 0.000000
0.197238 0.339117 0.000000
0.230381 0.339696 0.000000
0.262913 0.340429 0.000000
0.295079 0.341039 0.000000
0.326909 0.341833 0.000000
0.358831 0.342718 0.000000
0.390814 0.343633 0.000000
0.427497 0.348394 0.000000
0.463264 0.351720 0.000000
0.497871 0.353857 0.000000
0.531945 0.355352 0.000000
0.566735 0.357092 0.000000
0.602167 0.358984 0.000000
0.637812 0.360693 0.000000
0.673548 0.362310 0.000000
0.709346 0.363745 0.000000
0.745174 0.365026 0.000000
0.781033 0.366094 0.000000
0.817014 0.367102 0.000000
0.853056 0.367987 0.000000
0.889158 0.368750 0.000000
0.925231 0.369451 0.000000
0.960967 0.369970 0.000000
0.995972 0.370214 0.000000
0.000000 0.372869 0.000000
0.000000 0.372961 0.000000
0.000000 0.372961 0.000000
0.000000 0.373205 0.000000
0.000000 0.373388 0.000000
0.070497 0.373693 0.000000
0.121462 0.374151 0.000000
0.161044 0.374670 0.000000
0.196994 0.375250 0.000000
0.231357 0.375921 0.000000
0.264836 0.376654 0.000000
0.297887 0.377600 0.000000
0.330510 0.378424 0.000000
0.362982 0.379309 0.000000
0.395361 0.380163 0.000000
0.426856 0.380194 0.000000
0.462440 0.383764 0.000000
0.497017 0.386084 0.000000
0.531151 0.387732 0.000000
0.566003 0.389715 0.000000
0.601465 0.391882 0.000000
0.637140 0.393866 0.000000
0.672938 0.395758 0.000000
0.708797 0.397375 0.000000
0.744625 0.398901 0.000000
0.780545 0.400153 0.000000
0.816556 0.401312 0.000000
0.852628 0.402441 0.000000
0.888823 0.403449 0.000000
0.924926 0.404303 0.000000
0.960662 0.404974 0.000000
0.995697 0.405371 0.000000
0.000000 0.410803 0.000000
0.000000 0.410803 0.000000
0.000000 0.410864 0.000000
0.000000 0.411048 0.000000
0.000000 0.411200 0.000000
0.054597 0.411505 0.000000
0.116274 0.411810 0.000000
0.158785 0.412207 0.000000
0.196445 0.412634 0.000000
0.232090 0.413214 0.000000
0.266300 0.413794 0.000000
0.299901 0.414405 0.000000
0.333104 0.415015 0.000000
0.365972 0.415717 0.000000
0.398627 0.416266 0.000000
0.431037 0.416754 0.000000
0.461616 0.415717 0.000000
0.496101 0.418128 0.000000
0.530297 0.420111 0.000000
0.565270 0.422309 0.000000
0.600793 0.424659 0.000000
0.636469 0.426886 0.000000
0.672297 0.428962 0.000000
0.708217 0.430823 0.000000
0.744076 0.432471 0.000000
0.780026 0.434028 0.000000
0.816098 0.435370 0.000000
0.852293 0.436744 0.000000
0.888579 0.437934 0.000000
0.924712 0.439002 0.000000
0.960540 0.439857 0.000000
0.995605 0.440284 0.000000
0.000000 0.447883 0.000000
0.000000 0.447913 0.000000
0.000000 0.447974 0.000000
0.000000 0.448066 0.000000
0.000000 0.448127 0.000000
0.012634 0.448371 0.000000
0.108919 0.448585 0.000000
0.154879 0.448951 0.000000
0.194705 0.449165 0.000000
0.231235 0.449561 0.000000
0.266453 0.449897 0.000000
0.300633 0.450324 0.000000
0.334081 0.450660 0.000000
0.367285 0.451026 0.000000
0.400122 0.451362 0.000000
0.432746 0.451667 0.000000
0.465064 0.451911 0.000000
0.495064 0.450111 0.000000
0.529473 0.452338 0.000000
0.564569 0.454841 0.000000
0.600153 0.457435 0.000000
0.635920 0.459876 0.000000
0.671809 0.462135 0.000000
0.707698 0.464210 0.000000
0.743648 0.466102 0.000000
0.779660 0.467781 0.000000
0.815793 0.469337 0.000000
0.852018 0.470893 0.000000
0.888334 0.472297 0.000000
0.924529 0.473457 0.000000
0.960327 0.474372 0.000000
0.995392 0.474983 0.000000
0.000000 0.483497 0.000000
0.000000 0.483528 0.000000
0.000000 0.483558 0.000000
0.000000 0.483589 0.000000
0.000000 0.483680 0.000000
0.000000 0.483833 0.000000
0.099458 0.483925 0.000000
0.149874 0.484077 0.000000
0.191348 0.484291 0.000000
0.229252 0.484474 0.000000
0.265171 0.484688 0.000000
0.299870 0.484901 0.000000
0.333837 0.485176 0.000000
0.367224 0.485389 0.000000
0.400366 0.485542 0.000000
0.433051 0.485725 0.000000
0.465644 0.485817 0.000000
0.498116 0.486030 0.000000
0.528557 0.484504 0.000000
0.563714 0.487282 0.000000
0.599420 0.490120 0.000000
0.635218 0.492775 0.000000
0.671138 0.495216 0.000000
0.707118 0.497505 0.000000
0.743130 0.499519 0.000000
0.779171 0.501396 0.000000
0.815366 0.503166 0.000000
0.851682 0.504906 0.000000
0.888029 0.506401 0.000000
0.924285 0.507774 0.000000
0.960113 0.508843 0.000000
0.995209 0.509483 0.000000
0.000000 0.517937 0.000000
0.000000 0.517906 0.000000
0.000000 0.518761 0.000000
0.000000 0.518761 0.000000
0.000000 0.518791 0.000000
0.000000 0.518853 0.000000
0.088319 0.518914 0.000000
0.143954 0.519005 0.000000
0.187716 0.519097 0.000000
0.226658 0.519249 0.000000
0.263371 0.519463 0.000000
0.298741 0.519646 0.000000
0.333196 0.519799 0.000000
0.367163 0.519982 0.000000
0.400519 0.520226 0.000000
0.433631 0.520409 0.000000
0.466621 0.520653 0.000000
0.499397 0.520836 0.000000
0.532036 0.521080 0.000000
0.563622 0.520348 0.000000
0.598993 0.523095 0.000000
0.634821 0.525902 0.000000
0.670863 0.528496 0.000000
0.706783 0.530938 0.000000
0.742763 0.533074 0.000000
0.778836 0.535119 0.000000
0.815030 0.537011 0.000000
0.851377 0.538842 0.000000
0.887755 0.540520 0.000000
0.924041 0.542016 0.000000
0.959899 0.543175 0.000000
0.994965 0.543877 0.000000
0.000000 0.552697 0.000000
0.000000 0.552850 0.000000
0.000000 0.552941 0.000000
0.000000 0.553094 0.000000
0.000000 0.553216 0.000000
0.000000 0.553307 0.000000
0.072877 0.553429 0.000000
0.136629 0.553491 0.000000
0.182834 0.553704 0.000000
0.223239 0.553857 0.000000
0.260990 0.554040 0.000000
0.297093 0.554253 0.000000
0.332128 0.554498 0.000000
0.366522 0.554742 0.000000
0.400427 0.554955 0.000000
0.433875 0.555169 0.000000
0.467170 0.555413 0.000000
0.500237 0.555657 0.000000
0.533257 0.555932 0.000000
0.566186 0.556207 0.000000
0.598779 0.556268 0.000000
0.634119 0.558801 0.000000
0.670130 0.561608 0.000000
0.706233 0.564202 0.000000
0.742245 0.566461 0.000000
0.778408 0.568688 0.000000
0.814664 0.570764 0.000000
0.851072 0.572747 0.000000
0.887510 0.574609 0.000000
0.923827 0.576196 0.000000
0.959686 0.577478 0.000000
0.994751 0.578271 0.000000
0.000000 0.587854 0.000000
0.000000 0.587915 0.000000
0.000000 0.588067 0.000000
0.000000 0.588190 0.000000
0.000000 0.588312 0.000000
0.000000 0.588434 0.000000
0.042451 0.588525 0.000000
0.127810 0.588617 0.000000
0.177188 0.588800 0.000000
0.219425 0.588952 0.000000
0.258274 0.589166 0.000000
0.295171 0.589380 0.000000
0.330846 0.589624 0.000000
0.365728 0.589837 0.000000
0.400092 0.590051 0.000000
0.433967 0.590234 0.000000
0.467597 0.590509 0.000000
0.500908 0.590723 0.000000
0.534203 0.590967 0.000000
0.567376 0.591272 0.000000
0.600458 0.591608 0.000000
0.633906 0.592248 0.000000
0.669490 0.594781 0.000000
0.705592 0.597528 0.000000
0.741726 0.600000 0.000000
0.777981 0.602350 0.000000
0.814267 0.604547 0.000000
0.850767 0.606683 0.000000
0.887266 0.608637 0.000000
0.923583 0.610407 0.000000
0.959472 0.611780 0.000000
0.994568 0.612604 0.000000
0.000000 0.623194 0.000000
0.000000 0.623285 0.000000
0.000000 0.623377 0.000000
0.000000 0.623529 0.000000
0.000000 0.623621 0.000000
0.000000 0.623743 0.000000
0.000000 0.623804 0.000000
0.117128 0.623926 0.000000
0.170871 0.624048 0.000000
0.214878 0.624201 0.000000
0.254887 0.624414 0.000000
0.292790 0.624598 0.000000
0.329168 0.624781 0.000000
0.364599 0.625025 0.000000
0.399390 0.625238 0.000000
0.433722 0.625483 0.000000
0.467750 0.625727 0.000000
0.501457 0.626001 0.000000
0.534997 0.626337 0.000000
0.568444 0.626612 0.000000
0.601831 0.626947 0.000000
0.635218 0.627344 0.000000
0.669215 0.628321 0.000000
0.705379 0.631189 0.000000
0.741604 0.633845 0.000000
0.777920 0.636347 0.000000
0.814328 0.638697 0.000000
0.850858 0.640955 0.000000
0.887419 0.643061 0.000000
0.923766 0.644923 0.000000
0.959655 0.646326 0.000000
0.994659 0.647181 0.000000
0.000000 0.658930 0.000000
0.000000 0.659052 0.000000
0.000000 0.659052 0.000000
0.000000 0.659144 0.000000
0.000000 0.659205 0.000000
0.000000 0.659297 0.000000
0.000000 0.659358 0.000000
0.103883 0.659449 0.000000
0.163424 0.659602 0.000000
0.209934 0.659724 0.000000
0.251316 0.659968 0.000000
0.290166 0.660151 0.000000
0.327276 0.660365 0.000000
0.363287 0.660517 0.000000
0.398535 0.660731 0.000000
0.433295 0.660945 0.000000
0.467597 0.661189 0.000000
0.501701 0.661402 0.000000
0.535515 0.661707 0.000000
0.569238 0.661982 0.000000
0.602838 0.662318 0.000000
0.636347 0.662593 0.000000
0.669856 0.662989 0.000000
0.704097 0.664057 0.000000
0.741085 0.667506 0.000000
0.777493 0.670161 0.000000
0.813962 0.672663 0.000000
0.850584 0.675074 0.000000
0.887205 0.677272 0.000000
0.923583 0.679194 0.000000
0.959472 0.680690 0.000000
0.994476 0.681575 0.000000
0.000000 0.694362 0.000000
0.000000 0.694423 0.000000
0.000000 0.694514 0.000000
0.000000 0.694545 0.000000
0.000000 0.694606 0.000000
0.000000 0.694667 0.000000
0.000000 0.694789 0.000000
0.086458 0.694850 0.000000
0.154482 0.695003 0.000000
0.203922 0.695094 0.000000
0.247044 0.695277 0.000000
0.286839 0.695460 0.000000
0.324681 0.695644 0.000000
0.361456 0.695796 0.000000
0.397223 0.696010 0.000000
0.432380 0.696284 0.000000
0.467079 0.696468 0.000000
0.501488 0.696712 0.000000
0.535668 0.696986 0.000000
0.569635 0.697322 0.000000
0.603479 0.697627 0.000000
0.637263 0.697932 0.000000
0.670954 0.698329 0.000000
0.704585 0.698726 0.000000
0.738705 0.699550 0.000000
0.776944 0.703975 0.000000
0.813535 0.706630 0.000000
0.850217 0.709163 0.000000
0.886900 0.711513 0.000000
0.923369 0.713497 0.000000
0.959258 0.715053 0.000000
0.994293 0.715938 0.000000
0.000000 0.730129 0.000000
0.000000 0.730190 0.000000
0.000000 0.730190 0.000000
0.000000 0.730251 0.000000
0.000000 0.730312 0.000000
0.000000 0.730343 0.000000
0.000000 0.730373 0.000000
0.062135 0.730434 0.000000
0.144594 0.730495 0.000000
0.197360 0.730617 0.000000
0.242313 0.730739 0.000000
0.283085 0.730861 0.000000
0.321843 0.731044 0.000000
0.359197 0.731197 0.000000
0.395453 0.731350 0.000000
0.431098 0.731533 0.000000
0.466194 0.731716 0.000000
0.500938 0.731930 0.000000
0.535393 0.732235 0.000000
0.569635 0.732509 0.000000
0.603723 0.732845 0.000000
0.637720 0.733211 0.000000
0.671626 0.733577 0.000000
0.705470 0.733944 0.000000
0.739223 0.734310 0.000000
0.773404 0.735073 0.000000
0.813230 0.740810 0.000000
0.850004 0.743465 0.000000
0.886717 0.745937 0.000000
0.923186 0.747951 0.000000
0.959106 0.749569 0.000000
0.994110 0.750423 0.000000
0.000000 0.765499 0.000000
0.000000 0.765560 0.000000
0.000000 0.765591 0.000000
0.000000 0.765652 0.000000
0.000000 0.765682 0.000000
0.000000 0.765743 0.000000
0.000000 0.765774 0.000000
0.000000 0.765835 0.000000
0.132692 0.765927 0.000000
0.189914 0.766049 0.000000
0.236728 0.766201 0.000000
0.279149 0.766323 0.000000
0.318761 0.766506 0.000000
0.356725 0.766659 0.000000
0.393622 0.766873 0.000000
0.429694 0.767086 0.000000
0.465309 0.767239 0.000000
0.500328 0.767514 0.000000
0.535119 0.767758 0.000000
0.569665 0.768093 0.000000
0.603998 0.768399 0.000000
0.638239 0.768765 0.000000
0.672358 0.769131 0.000000
0.706386 0.769528 0.000000
0.740414 0.769924 0.000000
0.774350 0.770321 0.000000
0.808286 0.770779 0.000000
0.849912 0.778073 0.000000
0.886717 0.780575 0.000000
0.923217 0.782681 0.000000
0.959136 0.784329 0.000000
0.994141 0.785122 0.000000
0.000000 0.801114 0.000000
0.000000 0.801114 0.000000
0.000000 0.801175 0.000000
0.000000 0.801205 0.000000
0.000000 0.801205 0.000000
0.000000 0.801266 0.000000
0.000000 0.801297 0.000000
0.000000 0.801358 0.000000
0.118685 0.801419 0.000000
0.181460 0.801541 0.000000
0.230869 0.801663 0.000000
0.274510 0.801846 0.000000
0.315190 0.802029 0.000000
0.354040 0.802213 0.000000
0.391485 0.802396 0.000000
0.428077 0.802609 0.000000
0.464057 0.802792 0.000000
0.499489 0.803037 0.000000
0.534569 0.803311 0.000000
0.569390 0.803616 0.000000
0.604028 0.803983 0.000000
0.638514 0.804349 0.000000
0.672847 0.804715 0.000000
0.707088 0.805112 0.000000
0.741268 0.805509 0.000000
0.775357 0.805936 0.000000
0.809476 0.806363 0.000000
0.843534 0.806821 0.000000
0.886564 0.815274 0.000000
0.923156 0.817441 0.000000
0.959075 0.819028 0.000000
0.993988 0.819791 0.000000
0.000000 0.836667 0.000000
0.000000 0.836698 0.000000
0.000000 0.836728 0.000000
0.000000 0.836759 0.000000
0.000000 0.836790 0.000000
0.000000 0.836881 0.000000
0.000000 0.836942 0.000000
0.000000 0.837064 0.000000
0.101808 0.837217 0.000000
0.172519 0.837400 0.000000
0.224430 0.837583 0.000000
0.269810 0.837827 0.000000
0.311589 0.838041 0.000000
0.351202 0.838285 0.000000
0.389380 0.838468 0.000000
0.426490 0.838682 0.000000
0.462989 0.838926 0.000000
0.498787 0.839170 0.000000
0.534234 0.839414 0.000000
0.569360 0.839750 0.000000
0.604211 0.840055 0.000000
0.638941 0.840391 0.000000
0.673487 0.840757 0.000000
0.707942 0.841154 0.000000
0.742275 0.841520 0.000000
0.776516 0.841886 0.000000
0.810727 0.842283 0.000000
0.844968 0.842679 0.000000
0.879149 0.843137 0.000000
0.922454 0.851774 0.000000
0.959411 0.854307 0.000000
0.994232 0.854887 0.000000
0.000000 0.872648 0.000000
0.000000 0.872648 0.000000
0.000000 0.872679 0.000000
0.000000 0.872679 0.000000
0.000000 0.872709 0.000000
0.000000 0.872740 0.000000
0.000000 0.872801 0.000000
0.000000 0.872892 0.000000
0.079194 0.873014 0.000000
0.162234 0.873136 0.000000
0.217655 0.873289 0.000000
0.264652 0.873472 0.000000
0.307561 0.873655 0.000000
0.348028 0.873808 0.000000
0.386786 0.873991 0.000000
0.424445 0.874205 0.000000
