其他预设/【232】美食博客调色预设124款/1.3D LUT预设（视频调色-PR-AE-PS-FCPX-达芬奇用）/Food Art #50.cube
# Created by Adobe Lightroom plugin Export LUT (1.17.0)
# www.johnrellis.com/lightroom/exportlut.htm
# Preset: Food Art #50
# Color profile: /Library/Application Support/Adobe/Color/Profiles/Recommended/AdobeRGB1998.icc
LUT_3D_SIZE 5
DOMAIN_MIN 0.000000 0.000000 0.000000
DOMAIN_MAX 0.903226 0.903226 0.903226
0.000000 0.000000 0.000000
0.272740 0.000000 0.000000
0.557153 0.000000 0.000000
0.768063 0.130251 0.029053
0.956756 0.236698 0.170260
0.061769 0.263890 0.000000
0.291234 0.267674 0.000000
0.558618 0.276219 0.000000
0.766476 0.290867 0.069123
0.958068 0.339727 0.191714
0.141451 0.562707 0.000000
0.313115 0.563287 0.000000
0.572137 0.574487 0.000000
0.765591 0.543755 0.143404
0.952056 0.547784 0.252262
0.257145 0.778256 0.157839
0.349401 0.778195 0.167575
0.542687 0.777462 0.198520
0.754086 0.777066 0.248997
0.948425 0.766934 0.348089
0.390021 0.963348 0.357244
0.439246 0.962829 0.363897
0.571954 0.959442 0.383307
0.748623 0.959503 0.430549
0.939391 0.957824 0.496651
0.080690 0.000000 0.200992
0.282078 0.000000 0.218082
0.554864 0.000000 0.231449
0.757870 0.188052 0.259037
0.947143 0.285924 0.313664
0.088624 0.258518 0.220584
0.294926 0.263859 0.227451
0.556603 0.278569 0.239170
0.756985 0.314305 0.268284
0.946563 0.369940 0.326299
0.155367 0.560052 0.241825
0.316747 0.560876 0.245182
0.565209 0.566339 0.261418
0.755123 0.547021 0.305425
0.944915 0.562554 0.371557
0.280583 0.775448 0.303593
0.371344 0.774990 0.319799
0.549340 0.774716 0.337865
0.751186 0.775143 0.369940
0.943175 0.770718 0.441749
0.413214 0.960784 0.445899
0.457832 0.960327 0.450599
0.585199 0.960143 0.470253
0.753536 0.959442 0.505303
0.939086 0.958099 0.555077
0.098329 0.000000 0.489021
0.277623 0.000000 0.506096
0.545983 0.000000 0.537835
0.748348 0.215488 0.518242
0.936248 0.352697 0.550072
0.053834 0.235325 0.495918
0.274388 0.241459 0.511681
0.550378 0.275456 0.545495
0.744442 0.350744 0.531029
0.933593 0.436561 0.568597
0.145327 0.539788 0.535119
0.305150 0.544488 0.540642
0.553948 0.561730 0.558282
0.736690 0.577173 0.573053
0.930571 0.599512 0.598322
0.288304 0.769955 0.543084
0.380957 0.767575 0.551812
0.565087 0.766598 0.583032
0.743160 0.772000 0.597467
0.931304 0.778317 0.628687
0.415351 0.956390 0.603906
0.470039 0.955962 0.615839
0.595300 0.956054 0.633326
0.753597 0.956085 0.648615
0.934844 0.955566 0.674891
0.000000 0.000000 0.728878
0.238956 0.000000 0.736141
0.486549 0.089174 0.761379
0.727443 0.221469 0.776333
0.927764 0.354955 0.768795
0.000000 0.220706 0.729305
0.244114 0.229465 0.736233
0.490730 0.275090 0.759548
0.726101 0.346990 0.775753
0.924620 0.432074 0.772763
0.129274 0.470771 0.724025
0.269902 0.475868 0.724971
0.507286 0.521965 0.750790
0.724819 0.570153 0.777432
0.922576 0.594934 0.783536
0.270848 0.740108 0.763485
0.358923 0.741299 0.764431
0.538994 0.748470 0.770748
0.730678 0.765805 0.787686
0.924559 0.775418 0.798215
0.418647 0.952972 0.794888
0.466072 0.952636 0.797299
0.584863 0.953643 0.801480
0.746090 0.954589 0.806851
0.932128 0.953765 0.819272
0.000000 0.000000 0.943969
0.215854 0.000000 0.945739
0.454597 0.110994 0.951843
0.693416 0.255070 0.961059
0.919982 0.360204 0.961883
0.000000 0.214145 0.942718
0.220615 0.223392 0.944427
0.459632 0.265660 0.950378
0.696468 0.355749 0.959380
0.919463 0.432349 0.961059
0.041596 0.456092 0.937163
0.236728 0.462196 0.938811
0.469764 0.491157 0.944884
0.702083 0.547875 0.955016
0.920409 0.586236 0.960388
0.209628 0.703456 0.940215
0.291356 0.703426 0.939635
0.457313 0.699367 0.938018
0.683345 0.719417 0.948333
0.925170 0.766720 0.961181
0.386236 0.938323 0.953429
0.428595 0.938659 0.953491
0.547753 0.940307 0.954284
0.720272 0.942931 0.955718
0.934142 0.950958 0.962799
