其他预设/【232】美食博客调色预设124款/1.3D LUT预设（视频调色-PR-AE-PS-FCPX-达芬奇用）/Food Art #52.cube
# Created by Adobe Lightroom plugin Export LUT (1.17.0)
# www.johnrellis.com/lightroom/exportlut.htm
# Preset: Food Art #52
# Color profile: /Library/Application Support/Adobe/Color/Profiles/Recommended/AdobeRGB1998.icc
LUT_3D_SIZE 8
DOMAIN_MIN 0.000000 0.000000 0.000000
DOMAIN_MAX 0.903226 0.903226 0.903226
0.111452 0.111452 0.111452
0.166720 0.110445 0.117159
0.275639 0.133089 0.134005
0.393317 0.163516 0.164218
0.514183 0.203494 0.204349
0.646723 0.249424 0.250248
0.784482 0.302861 0.303410
0.901732 0.371740 0.372381
0.119570 0.174502 0.124331
0.179538 0.180697 0.130587
0.282353 0.186007 0.146548
0.395819 0.206180 0.174777
0.514519 0.237278 0.212253
0.643946 0.276158 0.255283
0.780514 0.323705 0.306676
0.899260 0.387945 0.375067
0.157931 0.295445 0.164828
0.199191 0.297856 0.170077
0.305119 0.307286 0.188052
0.414405 0.314092 0.211643
0.529168 0.331243 0.242405
0.657160 0.359472 0.280186
0.791867 0.399237 0.330205
0.904784 0.451850 0.398352
0.214389 0.423682 0.225437
0.242985 0.424384 0.228641
0.321874 0.428626 0.240513
0.442512 0.445716 0.265690
0.560784 0.458289 0.291264
0.680293 0.474952 0.321019
0.800748 0.500969 0.365484
0.906462 0.539879 0.431952
0.274723 0.558923 0.289769
0.296239 0.559350 0.291966
0.361761 0.562158 0.300389
0.459388 0.570520 0.316472
0.579217 0.583520 0.339910
0.696345 0.594629 0.366888
0.807614 0.611353 0.409796
0.908049 0.640803 0.478584
0.337743 0.697627 0.357153
0.356847 0.700587 0.360845
0.411688 0.701289 0.367041
0.493263 0.703151 0.378973
0.597467 0.708583 0.398322
0.713008 0.718166 0.427192
0.820737 0.727230 0.470192
0.912108 0.746487 0.542596
0.428779 0.821805 0.448768
0.441993 0.822232 0.451057
0.482734 0.821195 0.456489
0.547601 0.820768 0.467323
0.626520 0.820035 0.482551
0.726253 0.824338 0.512016
0.825345 0.830503 0.550561
0.914885 0.840940 0.611261
0.564630 0.918822 0.580652
0.572290 0.918639 0.582086
0.599573 0.918303 0.588281
0.645777 0.918578 0.600702
0.699123 0.915740 0.611017
0.769955 0.917632 0.635920
0.849485 0.922118 0.671870
0.923064 0.927337 0.709102
0.097963 0.118532 0.159091
0.165866 0.111604 0.166110
0.274144 0.147555 0.184176
0.391485 0.184756 0.213657
0.510826 0.220249 0.244450
0.639124 0.259586 0.280278
0.776242 0.307134 0.324956
0.895781 0.373541 0.387304
0.120851 0.176944 0.173617
0.180697 0.180697 0.180697
0.282322 0.197269 0.197177
0.395270 0.220798 0.221103
0.513085 0.250248 0.250370
0.639460 0.284581 0.284977
0.773922 0.327489 0.327764
0.893248 0.389014 0.389410
0.171786 0.293645 0.208286
0.210849 0.296635 0.214633
0.304448 0.306004 0.227939
0.411810 0.317052 0.247501
0.525566 0.335607 0.273014
0.650385 0.361486 0.304417
0.781857 0.397772 0.347082
0.897795 0.450355 0.409857
0.230411 0.420142 0.261112
0.252659 0.421851 0.260258
0.326452 0.427039 0.269993
0.436713 0.439551 0.289586
0.549554 0.451118 0.310643
0.668055 0.468696 0.337011
0.790433 0.495918 0.377478
0.899870 0.536858 0.440833
0.290898 0.556451 0.320623
0.302373 0.557214 0.314794
0.364660 0.559014 0.321477
0.456611 0.564569 0.334447
0.572442 0.576440 0.355200
0.689631 0.589593 0.380774
0.802365 0.608362 0.421607
0.903990 0.639002 0.487587
0.344793 0.693629 0.376867
0.358160 0.694331 0.375525
0.411872 0.695338 0.381476
0.492164 0.698177 0.392706
0.595117 0.704799 0.411658
0.711055 0.715877 0.439979
0.818112 0.725582 0.481575
0.909270 0.745052 0.550530
0.429938 0.817411 0.459266
0.441566 0.816770 0.460029
0.482155 0.816403 0.465614
0.547387 0.817136 0.476967
0.626459 0.817533 0.492714
0.724544 0.821592 0.520714
0.822293 0.827359 0.556725
0.911650 0.837980 0.614618
0.566064 0.916564 0.587640
0.574243 0.916625 0.589410
0.601312 0.916533 0.595697
0.647150 0.916991 0.607813
0.704646 0.917082 0.623377
0.772152 0.917998 0.645045
0.849363 0.921416 0.677150
0.921996 0.926238 0.712215
0.029847 0.116182 0.255406
0.144350 0.122621 0.260105
0.276036 0.151705 0.276127
0.393225 0.193088 0.295293
0.513481 0.234745 0.321508
0.644892 0.276646 0.354223
0.779904 0.322148 0.391424
0.896574 0.389563 0.444068
0.133181 0.200687 0.268070
0.164706 0.186587 0.273320
0.284489 0.201358 0.284459
0.397162 0.231113 0.302464
0.516045 0.264439 0.327276
0.644953 0.299596 0.357061
0.778622 0.341650 0.393469
0.895506 0.405402 0.446876
0.179110 0.302922 0.295567
0.218326 0.304326 0.298741
0.307347 0.307347 0.307347
0.413550 0.323857 0.323888
0.530053 0.346166 0.346075
0.655177 0.372107 0.372107
0.783597 0.407813 0.408026
0.896757 0.461707 0.461921
0.238956 0.424231 0.332219
0.267460 0.425483 0.335637
0.338933 0.430304 0.342138
0.439857 0.441596 0.356481
0.552392 0.456245 0.375097
0.671962 0.475837 0.398657
0.792721 0.504295 0.434577
0.899718 0.547356 0.490669
0.298283 0.558618 0.379919
0.320134 0.559167 0.382757
0.377050 0.561730 0.384741
0.462531 0.567010 0.394446
0.576135 0.579400 0.412329
0.691096 0.592981 0.434974
0.802213 0.613001 0.471839
0.902525 0.646357 0.531792
0.362676 0.694575 0.435859
0.380713 0.694759 0.438514
0.423774 0.695979 0.436255
0.500084 0.697810 0.444495
0.596521 0.702815 0.459358
0.709560 0.713741 0.484627
0.815305 0.725704 0.523705
0.907530 0.749722 0.588708
0.457313 0.817441 0.514824
0.470954 0.816648 0.517601
0.498482 0.816617 0.512963
0.559136 0.816312 0.521477
0.634241 0.816373 0.534417
0.727596 0.820645 0.559594
0.823636 0.828092 0.593317
0.912261 0.841428 0.647181
0.591455 0.914427 0.629267
0.598932 0.913878 0.630610
0.613825 0.914733 0.626551
0.658228 0.915892 0.638270
0.712398 0.916045 0.651118
0.776059 0.917235 0.669551
0.851438 0.921324 0.698695
0.922942 0.926848 0.730861
0.000000 0.134615 0.366217
0.105379 0.141604 0.370001
0.263615 0.159426 0.378271
0.393622 0.193545 0.393683
0.513664 0.238346 0.412390
0.643153 0.278416 0.439002
0.776181 0.325414 0.470893
0.892027 0.397070 0.513817
0.101320 0.213779 0.377661
0.130129 0.196963 0.380652
0.272007 0.206149 0.386114
0.399084 0.230869 0.399298
0.517540 0.268315 0.417609
0.645075 0.302831 0.442420
0.776333 0.346197 0.473304
0.891661 0.414099 0.517144
0.178958 0.332403 0.397406
0.215152 0.334081 0.400000
0.289525 0.310948 0.405707
0.415137 0.323461 0.415167
0.531029 0.350378 0.433814
0.657954 0.378241 0.458228
0.785946 0.417456 0.490486
0.895354 0.474891 0.534234
0.241672 0.439002 0.427588
0.269047 0.439399 0.429053
0.344305 0.440620 0.434028
0.441871 0.441871 0.441871
0.551385 0.458137 0.458198
0.671321 0.479164 0.479133
0.790768 0.510094 0.510124
0.896910 0.558282 0.558312
0.308080 0.565759 0.467384
0.328740 0.565484 0.468299
0.391089 0.566491 0.472724
0.474891 0.570672 0.478523
0.579126 0.580957 0.491218
0.692378 0.596643 0.511894
0.801633 0.619654 0.544518
0.900053 0.656245 0.595056
0.373236 0.701167 0.513329
0.392340 0.703151 0.516777
0.445808 0.701839 0.521294
0.516930 0.702480 0.524437
0.603693 0.705287 0.533806
0.712001 0.715206 0.555200
0.813779 0.729152 0.589288
0.905455 0.754940 0.640986
0.467903 0.819608 0.575311
0.482246 0.819455 0.578149
0.527367 0.818357 0.587304
0.582574 0.818204 0.592248
0.651331 0.818479 0.601556
0.733944 0.821408 0.617975
0.824949 0.828519 0.644068
0.911406 0.843687 0.689448
0.603052 0.916289 0.671717
0.612207 0.916045 0.674281
0.640467 0.914855 0.681544
0.673732 0.915282 0.683375
0.723690 0.915526 0.692958
0.781918 0.916747 0.706020
0.853513 0.921080 0.729610
0.923919 0.927367 0.757656
0.000000 0.159945 0.484962
0.000000 0.164431 0.486854
0.237064 0.178103 0.491493
0.387579 0.196963 0.497536
0.515221 0.236942 0.515343
0.644678 0.280369 0.538811
0.775631 0.329870 0.565667
0.890776 0.402655 0.597253
0.000000 0.226108 0.492683
0.000000 0.211765 0.495460
0.245701 0.219974 0.498543
0.392065 0.232761 0.502647
0.518853 0.265934 0.518944
0.647486 0.305211 0.542077
0.777005 0.351080 0.568414
0.890959 0.420111 0.600092
0.184939 0.359808 0.509941
0.220554 0.356542 0.511070
0.264652 0.319615 0.515404
0.405219 0.325658 0.518853
0.530297 0.346624 0.530266
0.654536 0.377264 0.551385
0.780087 0.415595 0.576440
0.890440 0.475013 0.608911
0.236973 0.470375 0.534844
0.264317 0.470954 0.536156
0.340795 0.472663 0.540581
0.424933 0.445930 0.544915
0.551171 0.455695 0.551232
0.670253 0.479774 0.570245
0.787564 0.511528 0.593866
0.892302 0.559869 0.628504
0.305028 0.581720 0.566033
0.326543 0.581842 0.566888
0.390417 0.581476 0.569451
0.479408 0.580713 0.573632
0.577478 0.577478 0.577478
0.687861 0.594659 0.594629
0.796292 0.619471 0.619532
0.895842 0.656153 0.656184
0.383093 0.702937 0.603143
0.399756 0.702815 0.603906
0.451423 0.701808 0.605951
0.527794 0.701381 0.610498
0.610437 0.701717 0.613672
0.709926 0.711543 0.628687
0.810758 0.728969 0.655940
0.902831 0.755703 0.694575
0.482429 0.821378 0.650752
0.495277 0.820737 0.651972
0.537652 0.819150 0.657282
0.599359 0.817746 0.665278
0.662287 0.817502 0.668055
0.735134 0.818967 0.676539
0.824063 0.826719 0.697200
0.909758 0.843198 0.732631
0.612207 0.915618 0.722011
0.620294 0.915251 0.723445
0.646906 0.914244 0.728420
0.689906 0.914794 0.737484
0.731533 0.915190 0.738491
0.786954 0.916258 0.747433
0.853086 0.919860 0.763485
0.923552 0.926421 0.787015
0.000000 0.187106 0.621851
0.000000 0.190463 0.622827
0.193606 0.200137 0.624292
0.372808 0.215152 0.627924
0.521233 0.233860 0.631800
0.648280 0.278019 0.648402
0.776425 0.332891 0.668910
0.890135 0.411841 0.690883
0.000000 0.242741 0.625086
0.000000 0.230564 0.625971
0.201144 0.237095 0.627588
0.375860 0.247776 0.630152
0.523003 0.261692 0.633173
0.649470 0.301610 0.649439
0.776822 0.352972 0.669917
0.889769 0.428138 0.692226
0.148135 0.382971 0.639887
0.164981 0.371923 0.640650
0.220432 0.332708 0.643519
0.387335 0.337652 0.644648
0.532799 0.344030 0.645045
0.658320 0.374365 0.658381
0.781216 0.418555 0.676753
0.890623 0.484077 0.699306
0.231998 0.517571 0.662928
0.260655 0.514000 0.662531
0.340337 0.501549 0.662745
0.404791 0.457343 0.667262
0.548821 0.459144 0.666835
0.674708 0.478767 0.674830
0.789517 0.516869 0.690211
0.893004 0.567376 0.712795
0.303410 0.618921 0.681941
0.325322 0.619135 0.682490
0.390631 0.619348 0.684535
0.481880 0.618891 0.687587
0.564996 0.585840 0.686915
0.688838 0.592554 0.688991
0.795468 0.620783 0.704067
0.894316 0.656001 0.727413
0.385657 0.724208 0.704891
0.403326 0.724575 0.705867
0.456886 0.723476 0.707210
0.536095 0.721126 0.708919
0.622004 0.717006 0.710170
0.711635 0.711635 0.711635
0.808652 0.728664 0.728603
0.901122 0.753231 0.753262
0.504631 0.825681 0.735653
0.518059 0.825834 0.737209
0.558465 0.825193 0.741054
0.615656 0.824247 0.745083
0.680537 0.822995 0.748470
0.746120 0.821622 0.748745
0.825711 0.827176 0.759274
0.910826 0.844511 0.785245
0.629786 0.917632 0.784817
0.637079 0.917327 0.785672
0.661189 0.916564 0.788388
0.699184 0.916503 0.792935
0.745418 0.916472 0.797452
0.793484 0.917144 0.797940
0.852598 0.919280 0.805692
0.924224 0.926360 0.824674
0.000000 0.215366 0.760067
0.000000 0.218296 0.761257
0.091310 0.226017 0.761471
0.345312 0.238193 0.761837
0.510216 0.253330 0.761227
0.650721 0.278080 0.762905
0.773098 0.330724 0.773281
0.886473 0.411017 0.785031
0.000000 0.260624 0.759060
0.000000 0.251896 0.760372
0.103243 0.257481 0.760616
0.345983 0.266453 0.760464
0.508904 0.278325 0.759426
0.648585 0.298314 0.760128
0.769802 0.346349 0.769894
0.882841 0.420752 0.781796
0.000000 0.393774 0.768002
0.000000 0.382849 0.768490
0.134554 0.346014 0.769345
0.354864 0.351049 0.768521
0.514519 0.357122 0.766232
0.654841 0.368872 0.765408
0.775753 0.411475 0.775875
0.886656 0.480720 0.788479
0.237003 0.539147 0.780606
0.263371 0.535363 0.779782
0.324041 0.516716 0.778836
0.372412 0.465431 0.781430
0.526604 0.467781 0.778775
0.666682 0.470924 0.775937
0.785245 0.508263 0.785306
0.890135 0.564569 0.797177
0.315557 0.655512 0.792630
0.335027 0.654902 0.792142
0.396124 0.653864 0.791989
0.481727 0.638483 0.790463
0.543938 0.590021 0.789761
0.675135 0.588312 0.785519
0.790646 0.610529 0.790768
0.892149 0.654383 0.805783
0.409369 0.750668 0.805051
0.425086 0.750698 0.805173
0.475563 0.750607 0.805783
0.549035 0.750515 0.806973
0.631037 0.748562 0.807980
0.701900 0.719081 0.806088
0.806271 0.723568 0.806302
0.898711 0.749691 0.820768
0.515923 0.842008 0.822263
0.528130 0.842069 0.822904
0.564813 0.840970 0.823575
0.619928 0.839384 0.824887
0.684627 0.836057 0.825589
0.754177 0.831815 0.826169
0.824918 0.824918 0.824918
0.909178 0.840452 0.840421
0.640589 0.917418 0.844785
0.647791 0.917357 0.845487
0.674128 0.918700 0.849638
0.711818 0.919615 0.854337
0.757839 0.920470 0.859068
0.807645 0.920989 0.861784
0.858427 0.921019 0.860563
0.924834 0.926024 0.869902
0.000000 0.244511 0.875853
0.000000 0.246738 0.876158
0.000000 0.253696 0.875212
0.299474 0.266148 0.874907
0.482063 0.282902 0.873808
0.635340 0.302220 0.871885
0.765896 0.342046 0.873869
0.879271 0.408423 0.879423
0.000000 0.279545 0.875334
0.000000 0.275120 0.875822
0.000000 0.280674 0.875120
0.301122 0.290929 0.874388
0.482155 0.305058 0.873259
0.634760 0.322118 0.871214
0.764981 0.357702 0.872587
0.878019 0.420874 0.878111
0.000000 0.399176 0.876493
0.000000 0.389258 0.876921
0.000000 0.357610 0.877012
0.310124 0.366003 0.877592
0.486549 0.375586 0.875792
0.636469 0.386877 0.872831
0.766964 0.413733 0.873289
0.878843 0.471321 0.878996
0.214145 0.546838 0.879332
0.227115 0.540459 0.879881
0.263096 0.514336 0.880491
0.327489 0.469612 0.882414
0.496376 0.476204 0.880705
0.642573 0.483345 0.877806
0.772885 0.500008 0.876616
0.882292 0.550256 0.882353
0.328435 0.675685 0.886961
0.346593 0.673762 0.887114
0.398688 0.664149 0.885985
0.472389 0.644465 0.884184
0.515740 0.591547 0.885801
0.652857 0.594781 0.882567
0.780056 0.598962 0.879515
0.886839 0.641840 0.886931
0.441962 0.776272 0.894163
0.453956 0.775937 0.893828
0.493294 0.775051 0.893217
0.553063 0.773434 0.893065
0.624903 0.760311 0.891844
0.680110 0.717739 0.892424
0.794736 0.718624 0.890806
0.897032 0.742885 0.897063
0.556420 0.862699 0.904204
0.564599 0.862394 0.904082
0.592004 0.861570 0.903960
0.637507 0.860807 0.904479
0.695369 0.859678 0.905516
0.761318 0.858030 0.907286
0.818051 0.832517 0.907195
0.906340 0.833829 0.906371
0.660731 0.936278 0.918486
0.666011 0.935943 0.918456
0.685084 0.935241 0.918822
0.718135 0.934508 0.919951
0.761257 0.933410 0.921477
0.811398 0.931884 0.923278
0.866361 0.929686 0.924987
0.923064 0.923033 0.923033
