其他预设/【232】美食博客调色预设124款/1.3D LUT预设（视频调色-PR-AE-PS-FCPX-达芬奇用）/Food Art #42.cube
# Created by Adobe Lightroom plugin Export LUT (1.17.0)
# www.johnrellis.com/lightroom/exportlut.htm
# Preset: Food Art #42
# Color profile: /Library/Application Support/Adobe/Color/Profiles/Recommended/AdobeRGB1998.icc
LUT_3D_SIZE 32
0.092470 0.081270 0.078920
0.092744 0.081209 0.079255
0.109804 0.079164 0.080110
0.149996 0.071870 0.082216
0.185214 0.077668 0.086275
0.218784 0.083009 0.091402
0.251987 0.089082 0.097230
0.285313 0.095674 0.103822
0.319097 0.099550 0.110567
0.352941 0.103029 0.116060
0.386358 0.104707 0.121828
0.419165 0.107088 0.128206
0.451362 0.110201 0.134829
0.483192 0.114504 0.142641
0.514641 0.119692 0.150423
0.546014 0.125002 0.159304
0.577356 0.130556 0.168185
0.608789 0.137118 0.176822
0.640314 0.142885 0.185946
0.673091 0.148959 0.194827
0.707424 0.155032 0.203891
0.742489 0.161501 0.213230
0.777737 0.168765 0.222629
0.812589 0.177768 0.232425
0.846494 0.187930 0.242435
0.878538 0.199832 0.253208
0.908507 0.214328 0.264469
0.936309 0.230930 0.276799
0.961791 0.249485 0.290074
0.984924 0.270665 0.305058
1.000000 0.294530 0.321630
1.000000 0.321111 0.340520
0.092805 0.083162 0.079408
0.095949 0.085176 0.079774
0.113069 0.086610 0.080934
0.152407 0.090578 0.084260
0.187106 0.093904 0.089174
0.220127 0.098024 0.093599
0.253300 0.101930 0.099336
0.286656 0.106783 0.105837
0.320165 0.109560 0.112062
0.353948 0.111269 0.117159
0.387274 0.113466 0.123201
0.419806 0.115541 0.129000
0.451942 0.118196 0.136080
0.483772 0.122103 0.143648
0.515160 0.126345 0.151858
0.546471 0.131746 0.160494
0.577813 0.136599 0.169314
0.609125 0.142550 0.177798
0.640650 0.148226 0.186831
0.673304 0.154147 0.195682
0.707729 0.159731 0.204501
0.742763 0.166140 0.213809
0.777920 0.173526 0.223331
0.812833 0.181552 0.232883
0.846677 0.191531 0.243015
0.878691 0.203525 0.253849
0.908659 0.217411 0.264927
0.936370 0.234012 0.277379
0.961822 0.252323 0.290776
0.984924 0.273228 0.305516
1.000000 0.296727 0.321996
1.000000 0.323186 0.340856
0.095918 0.102724 0.081209
0.102174 0.104524 0.081422
0.120607 0.106935 0.083223
0.155947 0.111177 0.086427
0.189700 0.112490 0.091310
0.222202 0.114504 0.096559
0.255161 0.117281 0.102144
0.288029 0.119844 0.108156
0.321569 0.121553 0.113863
0.355047 0.122927 0.119112
0.388220 0.124117 0.124727
0.420691 0.126162 0.130953
0.452644 0.128420 0.137606
0.484474 0.131228 0.144961
0.515740 0.135531 0.153231
0.547082 0.139773 0.161563
0.578332 0.144961 0.170504
0.609583 0.150088 0.179202
0.641108 0.155245 0.188052
0.673793 0.160830 0.196841
0.708064 0.165988 0.205509
0.743160 0.172030 0.214847
0.778286 0.178744 0.224186
0.813107 0.186954 0.233677
0.846891 0.196536 0.243687
0.878904 0.207950 0.254246
0.908751 0.221714 0.265782
0.936492 0.237736 0.277897
0.961944 0.255985 0.291386
0.984955 0.276646 0.306096
1.000000 0.299687 0.322637
1.000000 0.325811 0.341588
0.103426 0.141268 0.085939
0.116823 0.141878 0.087404
0.135164 0.142489 0.088869
0.163668 0.143984 0.092775
0.195132 0.143557 0.098238
0.227024 0.143435 0.103700
0.259098 0.143282 0.108461
0.291569 0.143557 0.113436
0.324437 0.143893 0.118166
0.357610 0.144198 0.122896
0.390356 0.144564 0.128206
0.422766 0.145510 0.134493
0.454353 0.147219 0.141299
0.485939 0.149660 0.148287
0.517144 0.152377 0.156405
0.548241 0.156313 0.164675
0.579461 0.160128 0.173617
0.610651 0.164523 0.182132
0.642084 0.168917 0.190524
0.674647 0.173770 0.198978
0.709010 0.178470 0.208042
0.744015 0.183963 0.216678
0.779049 0.190555 0.226078
0.813718 0.197971 0.235508
0.847471 0.206821 0.245365
0.879271 0.217868 0.255924
0.909087 0.230747 0.267002
0.936736 0.246342 0.279362
0.962066 0.263706 0.292760
0.985046 0.283665 0.307408
1.000000 0.306096 0.323919
1.000000 0.331640 0.342718
0.121736 0.174716 0.095857
0.133822 0.175051 0.097383
0.148745 0.175662 0.099397
0.174594 0.176699 0.103578
0.204349 0.178042 0.108583
0.234348 0.176883 0.112367
0.265537 0.174960 0.116762
0.297063 0.173465 0.120546
0.329381 0.172213 0.124025
0.361639 0.171633 0.129183
0.393805 0.171481 0.133913
0.425727 0.171511 0.139986
0.457130 0.172457 0.146670
0.488258 0.174044 0.154025
0.519158 0.175906 0.161593
0.550164 0.178531 0.169741
0.581231 0.181460 0.177676
0.612299 0.184756 0.186130
0.643671 0.188327 0.194461
0.676173 0.192325 0.202731
0.710292 0.196384 0.211337
0.745205 0.201328 0.219821
0.780148 0.207004 0.229007
0.814786 0.213779 0.238285
0.848234 0.222324 0.247776
0.879942 0.232273 0.258305
0.909575 0.244358 0.269474
0.937072 0.258732 0.281590
0.962310 0.275242 0.294774
0.985168 0.294347 0.309545
1.000000 0.315862 0.325933
1.000000 0.340612 0.344762
0.140871 0.207492 0.108675
0.149783 0.207828 0.109377
0.161776 0.208408 0.110109
0.185641 0.209781 0.111818
0.214145 0.210697 0.115816
0.244724 0.211704 0.120455
0.274144 0.209598 0.124422
0.304540 0.206546 0.128054
0.335302 0.204379 0.133059
0.366857 0.202792 0.137636
0.398260 0.201755 0.142489
0.429480 0.201114 0.148257
0.460365 0.200961 0.154635
0.491218 0.201541 0.160983
0.521874 0.202731 0.168338
0.552667 0.204196 0.176181
0.583520 0.206302 0.183841
0.614496 0.208774 0.191653
0.645563 0.211337 0.199771
0.678096 0.214542 0.207492
0.712123 0.218112 0.215763
0.746914 0.221958 0.224186
0.781582 0.227268 0.232639
0.816037 0.233433 0.241947
0.849302 0.241154 0.251347
0.880797 0.250248 0.261418
0.910246 0.261295 0.272618
0.937560 0.274601 0.284611
0.962646 0.289982 0.297704
0.985382 0.308080 0.312322
1.000000 0.328710 0.328801
1.000000 0.352422 0.347692
0.155917 0.240421 0.117556
0.164034 0.240879 0.117952
0.174563 0.241367 0.118441
0.195560 0.242405 0.120272
0.225040 0.244083 0.122499
0.254032 0.244022 0.126650
0.284733 0.244022 0.132387
0.313420 0.241398 0.136812
0.343450 0.237705 0.140932
0.373480 0.235325 0.147127
0.403540 0.234073 0.153048
0.434089 0.232364 0.158389
0.464576 0.231571 0.164004
0.495064 0.231113 0.170413
0.525383 0.231327 0.177157
0.555779 0.232090 0.184298
0.586481 0.233280 0.191165
0.617182 0.234653 0.198734
0.648188 0.236637 0.205905
0.680598 0.239139 0.213413
0.714534 0.242161 0.221225
0.748959 0.245640 0.229435
0.783505 0.250126 0.237430
0.817716 0.255558 0.246372
0.850675 0.262303 0.255711
0.881865 0.270817 0.265354
0.911070 0.281071 0.276219
0.938140 0.293370 0.288121
0.963043 0.307836 0.301152
0.985565 0.324590 0.315923
1.000000 0.344060 0.332311
1.000000 0.366674 0.351263
0.171572 0.272801 0.126772
0.178561 0.272984 0.127565
0.187808 0.273442 0.128359
0.206943 0.274296 0.129152
0.233921 0.275700 0.131289
0.264652 0.276555 0.133913
0.293950 0.275944 0.139590
0.324346 0.275547 0.145418
0.352056 0.272618 0.151553
0.381415 0.268620 0.155673
0.410529 0.265873 0.162600
0.439857 0.264164 0.169345
0.469276 0.263096 0.175753
0.499245 0.261936 0.181338
0.529381 0.261265 0.187259
0.559564 0.261418 0.193545
0.589868 0.261692 0.199954
0.620417 0.262547 0.206760
0.651270 0.263706 0.213382
0.683558 0.265476 0.220432
0.717342 0.267918 0.227787
0.751522 0.271061 0.235386
0.785763 0.275029 0.243320
0.819608 0.279973 0.251621
0.852354 0.286168 0.260349
0.883146 0.293950 0.270268
0.912047 0.303166 0.281041
0.938903 0.314336 0.292576
0.963500 0.327733 0.305608
0.985779 0.343481 0.320165
1.000000 0.361791 0.336584
1.000000 0.383124 0.355566
0.189181 0.304326 0.138125
0.195438 0.304723 0.138155
0.203677 0.305119 0.138705
0.220432 0.305882 0.140108
0.244968 0.306889 0.141482
0.274510 0.308141 0.144076
0.304417 0.308080 0.148043
0.333501 0.307012 0.153780
0.363226 0.305791 0.160494
0.390112 0.302708 0.167575
0.418524 0.298680 0.171664
0.446906 0.295689 0.178500
0.475593 0.293889 0.185733
0.504479 0.293004 0.193332
0.533959 0.291997 0.198886
0.563836 0.291264 0.204562
0.593866 0.291020 0.210117
0.624262 0.291295 0.216037
0.654841 0.291783 0.222110
0.687098 0.293126 0.228489
0.720516 0.295171 0.235416
0.754482 0.297856 0.242313
0.788418 0.301305 0.249699
0.821958 0.305913 0.257755
0.854154 0.311589 0.266514
0.884642 0.318547 0.275975
0.913207 0.327123 0.286442
0.939696 0.337377 0.297704
0.964019 0.349615 0.310643
0.986084 0.364233 0.325139
1.000000 0.381415 0.341619
1.000000 0.401740 0.360754
0.208194 0.335088 0.149722
0.213535 0.335332 0.150210
0.220432 0.335515 0.150942
0.235843 0.336248 0.151461
0.257511 0.337194 0.153323
0.284642 0.338384 0.155306
0.316136 0.339574 0.157778
0.344152 0.338445 0.163058
0.372686 0.336889 0.169528
0.401495 0.335149 0.176669
0.427466 0.331823 0.183566
0.454719 0.327886 0.188449
0.482979 0.324834 0.194888
0.511040 0.322911 0.202060
0.539666 0.321935 0.209110
0.568566 0.321508 0.216220
0.598352 0.320775 0.221042
0.628504 0.320378 0.226322
0.659022 0.320653 0.231907
0.691096 0.321599 0.237278
0.724269 0.323308 0.243351
0.757900 0.325811 0.250065
0.791409 0.328893 0.257145
0.824521 0.332952 0.264683
0.856291 0.338048 0.272984
0.886351 0.344488 0.282231
0.914488 0.352270 0.292241
0.940612 0.361730 0.303655
0.964599 0.373053 0.316564
0.986358 0.386603 0.330999
1.000000 0.402808 0.347448
1.000000 0.421973 0.366705
0.227359 0.364874 0.162509
0.232120 0.365026 0.162692
0.238651 0.365270 0.163485
0.252018 0.365972 0.164370
0.271733 0.366644 0.165743
0.296452 0.367834 0.167666
0.325902 0.369177 0.169680
0.356298 0.369574 0.173404
0.383673 0.367926 0.179263
0.411658 0.365850 0.186069
0.439307 0.363714 0.192660
0.464607 0.360204 0.200137
0.490669 0.356329 0.204685
0.518730 0.353368 0.210117
0.546624 0.351598 0.217777
0.574884 0.350591 0.224857
0.603906 0.350164 0.231601
0.633356 0.350042 0.237461
0.663661 0.349706 0.242130
0.695674 0.350561 0.246921
0.728481 0.351965 0.252567
0.761563 0.354131 0.258366
0.794736 0.357183 0.265232
0.827390 0.360876 0.272221
0.858579 0.365728 0.280217
0.888182 0.371435 0.289281
0.915892 0.378637 0.299199
0.941619 0.387427 0.310521
0.965240 0.397955 0.323003
0.986633 0.410529 0.337530
1.000000 0.425605 0.354131
1.000000 0.443824 0.373480
0.247532 0.394293 0.176211
0.251926 0.394446 0.176272
0.257908 0.394659 0.176577
0.269902 0.395148 0.177554
0.287724 0.395941 0.178561
0.310216 0.396918 0.180514
0.337194 0.398291 0.182742
0.367437 0.399756 0.185153
0.396307 0.399023 0.189731
0.423285 0.396887 0.195926
0.450385 0.394476 0.202640
0.476967 0.392035 0.209110
0.501274 0.388190 0.216403
0.526238 0.384222 0.221103
0.554406 0.381598 0.225620
0.582238 0.379919 0.232700
0.610620 0.379065 0.239780
0.639521 0.378729 0.246036
0.668971 0.379187 0.252537
0.700618 0.379889 0.257206
0.732937 0.381201 0.262303
0.765682 0.383215 0.267674
0.798367 0.385901 0.273716
0.830472 0.389532 0.280674
0.861173 0.393896 0.288243
0.890227 0.399207 0.297002
0.917418 0.405982 0.306889
0.942687 0.413916 0.317815
0.965911 0.423743 0.330358
0.986938 0.435431 0.344854
1.000000 0.449653 0.361547
1.000000 0.466865 0.381231
0.269078 0.423194 0.189792
0.272557 0.423468 0.189944
0.277653 0.423651 0.190463
0.288487 0.424201 0.191348
0.304906 0.424994 0.192355
0.325628 0.426032 0.194034
0.350500 0.427283 0.196017
0.378820 0.428717 0.198581
0.410163 0.430304 0.201389
0.436500 0.428290 0.206638
0.462837 0.425696 0.212741
0.488899 0.423011 0.218723
0.514519 0.420172 0.225467
0.538201 0.416358 0.232090
0.561822 0.412116 0.236332
0.590051 0.409766 0.240757
0.618158 0.408270 0.246799
0.646479 0.407538 0.253330
0.675715 0.407630 0.259586
0.706477 0.408759 0.266026
0.737942 0.410712 0.272496
0.770169 0.412451 0.277470
0.802274 0.415198 0.282994
0.833829 0.418524 0.289586
0.863920 0.422644 0.296818
0.892363 0.427619 0.305394
0.919036 0.433814 0.314885
0.943816 0.441321 0.325994
0.966583 0.450324 0.338567
0.987213 0.461372 0.353063
1.000000 0.474678 0.370062
1.000000 0.490974 0.389960
0.290684 0.452399 0.203861
0.294133 0.452583 0.204013
0.298772 0.452766 0.204501
0.308415 0.453254 0.205234
0.323217 0.453986 0.206363
0.342443 0.455085 0.207889
0.365820 0.456367 0.209598
0.391913 0.457832 0.211978
0.421454 0.459541 0.214664
0.451331 0.460365 0.218173
0.476814 0.457740 0.223362
0.502403 0.454871 0.228916
0.527642 0.451850 0.234836
0.552453 0.448646 0.240635
0.576349 0.445289 0.246525
0.597681 0.440162 0.250919
0.625879 0.438148 0.254795
0.654261 0.436896 0.259983
0.683101 0.436683 0.266484
0.713222 0.437629 0.272892
0.744045 0.439246 0.279576
0.775174 0.441779 0.286625
0.806546 0.444739 0.292851
0.837400 0.447944 0.299077
0.866758 0.451911 0.306279
0.894591 0.456519 0.314397
0.920714 0.462165 0.323827
0.944976 0.469215 0.334874
0.967285 0.477668 0.347478
0.987457 0.487984 0.362188
1.000000 0.500542 0.379187
1.000000 0.516014 0.399573
0.312840 0.481758 0.217746
0.315801 0.481910 0.217777
0.319951 0.482063 0.218051
0.328923 0.482612 0.218784
0.342504 0.483436 0.219730
0.360143 0.484474 0.221347
0.381720 0.485847 0.223087
0.406439 0.487343 0.225132
0.434211 0.489265 0.227481
0.464851 0.491463 0.230106
0.492470 0.490608 0.234134
0.517357 0.487587 0.239170
0.542229 0.484596 0.244327
0.566766 0.481361 0.249790
0.590753 0.477790 0.255222
0.613825 0.474098 0.260655
0.633692 0.468452 0.264775
0.662013 0.467079 0.268498
0.691249 0.466407 0.272496
0.720638 0.466896 0.279545
0.750607 0.468269 0.286107
0.781094 0.470588 0.293187
0.811490 0.473762 0.300694
0.841123 0.477546 0.308721
0.869780 0.481270 0.316075
0.896971 0.485634 0.324193
0.922454 0.491035 0.333532
0.946136 0.497597 0.344549
0.967926 0.505455 0.357092
0.987671 0.515099 0.371832
1.000000 0.527031 0.389410
1.000000 0.541711 0.410071
0.334203 0.511650 0.230930
0.337316 0.511894 0.231022
0.341039 0.511986 0.231205
0.349279 0.512596 0.231785
0.361761 0.513329 0.232853
0.378241 0.514488 0.234226
0.398260 0.515923 0.235691
0.421759 0.517662 0.237430
0.448188 0.519585 0.239811
0.477211 0.521904 0.242313
0.509056 0.524437 0.244724
0.533776 0.521843 0.249241
0.558129 0.518639 0.253971
0.582300 0.515160 0.258946
0.606134 0.511467 0.263951
0.629389 0.507713 0.268833
0.651575 0.503746 0.273747
0.670619 0.497902 0.277775
0.698787 0.496803 0.281407
0.728267 0.496956 0.285618
0.757687 0.497902 0.292271
0.787350 0.500023 0.299748
0.816953 0.502831 0.307317
0.845640 0.506279 0.315587
0.873198 0.510369 0.324712
0.899382 0.515068 0.334539
0.924193 0.520104 0.343877
0.947356 0.526177 0.354894
0.968566 0.533684 0.367620
0.987823 0.542779 0.382605
1.000000 0.553979 0.400519
1.000000 0.568109 0.421851
0.355871 0.542535 0.243503
0.358434 0.542718 0.243595
0.361944 0.542901 0.243748
0.369818 0.543542 0.244266
0.381384 0.544396 0.245151
0.397040 0.545586 0.246281
0.415717 0.546960 0.247807
0.437812 0.548760 0.249577
0.463020 0.550927 0.251530
0.490913 0.553185 0.253727
0.521263 0.555840 0.256046
0.551080 0.557092 0.259373
0.575006 0.553765 0.263462
0.598779 0.550134 0.268009
0.622492 0.546441 0.272526
0.645441 0.542504 0.277195
0.667842 0.538354 0.282048
0.689448 0.534173 0.286656
0.708186 0.528313 0.290745
0.735409 0.527611 0.294591
0.764797 0.528405 0.299138
0.793912 0.529870 0.305669
0.822538 0.532372 0.313695
0.850340 0.535393 0.322637
0.877012 0.539055 0.331853
0.902251 0.543603 0.342504
0.926116 0.549004 0.354009
0.948486 0.555077 0.366003
0.969146 0.562066 0.379126
0.987854 0.570703 0.394385
1.000000 0.581353 0.412634
1.000000 0.594903 0.434699
0.376959 0.574212 0.255406
0.379522 0.574334 0.255344
0.382940 0.574578 0.255711
0.389868 0.575128 0.256291
0.401038 0.575982 0.257115
0.415503 0.577173 0.258000
0.433295 0.578668 0.259403
0.454444 0.580346 0.260929
0.478218 0.582269 0.263035
0.504997 0.584588 0.264958
0.533776 0.587213 0.267521
0.565057 0.590021 0.269932
0.591974 0.589197 0.273472
0.615473 0.585687 0.277745
0.638849 0.581994 0.282170
0.661921 0.577996 0.286320
0.684352 0.574121 0.290745
0.706142 0.569909 0.295384
0.727047 0.565606 0.299779
0.745571 0.559899 0.304021
0.771450 0.559228 0.308171
0.800259 0.560571 0.313207
0.828336 0.562341 0.319860
0.855192 0.564935 0.329168
0.880858 0.568170 0.339147
0.905394 0.572168 0.349889
0.928435 0.577111 0.362066
0.949950 0.583154 0.375708
0.969665 0.590570 0.391089
0.987823 0.598749 0.407019
1.000000 0.609003 0.425971
1.000000 0.622004 0.448646
0.398291 0.606531 0.267155
0.400580 0.606683 0.267491
0.403632 0.606897 0.267765
0.410559 0.607416 0.268009
0.420813 0.608362 0.268833
0.434638 0.609400 0.269902
0.451850 0.610773 0.271000
0.471687 0.612512 0.272435
0.494697 0.614466 0.274540
0.519829 0.616632 0.276402
0.547601 0.619074 0.278843
0.577325 0.621729 0.281590
0.609064 0.624872 0.284367
0.632685 0.621820 0.288182
0.655695 0.618219 0.292088
0.678492 0.614466 0.296178
0.701015 0.610498 0.300450
0.722805 0.606470 0.304845
0.743832 0.602228 0.309270
0.764157 0.598016 0.313420
0.782162 0.592401 0.317662
0.806332 0.591516 0.322393
0.833616 0.593042 0.328435
0.860044 0.594873 0.335576
0.884886 0.597498 0.345892
0.908507 0.600977 0.357366
0.930785 0.605371 0.370062
0.951537 0.610864 0.384192
0.970642 0.617670 0.400519
0.987915 0.626246 0.419013
1.000000 0.636683 0.440253
1.000000 0.649195 0.464057
0.420417 0.639551 0.279149
0.422370 0.639765 0.279454
0.425391 0.639979 0.279698
0.431769 0.640467 0.280034
0.441688 0.641321 0.280797
0.454627 0.642267 0.281956
0.471015 0.643702 0.282994
0.489906 0.645197 0.284428
0.511498 0.647089 0.286503
0.535851 0.649134 0.288396
0.562341 0.651575 0.290929
0.590784 0.654170 0.293400
0.620996 0.656886 0.296422
0.650111 0.658167 0.299687
0.672663 0.654688 0.303563
0.695064 0.651057 0.307561
0.717220 0.647303 0.311620
0.738857 0.643336 0.315709
0.759976 0.639307 0.320043
0.780362 0.635157 0.323949
0.799863 0.630945 0.328313
0.816922 0.625299 0.332830
0.838743 0.623835 0.337896
0.864256 0.625299 0.345068
0.888762 0.627283 0.353460
0.911681 0.630091 0.364904
0.933165 0.633783 0.378271
0.953124 0.638727 0.393225
0.971527 0.644923 0.410193
0.988190 0.652827 0.429664
1.000000 0.662898 0.452491
1.000000 0.675807 0.479408
0.442664 0.672969 0.291936
0.444800 0.673182 0.291997
0.447395 0.673335 0.292180
0.453651 0.673884 0.292668
0.462898 0.674586 0.293370
0.475319 0.675563 0.294316
0.490517 0.676661 0.295628
0.508629 0.678126 0.297246
0.529442 0.679744 0.299046
0.552453 0.681636 0.301274
0.577630 0.683711 0.303685
0.604639 0.686000 0.306462
0.633295 0.688411 0.309606
0.663447 0.691035 0.312993
0.688869 0.690150 0.316869
0.710811 0.686671 0.320470
0.732479 0.683070 0.324529
0.753780 0.679347 0.328374
0.774502 0.675502 0.332403
0.794705 0.671595 0.336645
0.814176 0.667597 0.340612
0.832883 0.663539 0.344732
0.848905 0.657801 0.349462
0.868559 0.655756 0.355016
0.892149 0.657313 0.363806
0.914580 0.659419 0.373846
0.935454 0.662348 0.386664
0.954711 0.666621 0.402472
0.972412 0.672114 0.420294
0.988403 0.679377 0.440742
1.000000 0.688716 0.464546
1.000000 0.700740 0.492226
0.466072 0.705745 0.305364
0.467811 0.705898 0.305638
0.470497 0.706020 0.305821
0.476143 0.706477 0.306279
0.484871 0.707057 0.307103
0.496651 0.707912 0.308141
0.511284 0.708919 0.309361
0.528222 0.710109 0.311101
0.547814 0.711543 0.312902
0.569787 0.713100 0.315190
0.593530 0.714961 0.317693
0.619165 0.716884 0.320806
0.646448 0.719020 0.323949
0.674739 0.721309 0.327703
0.704128 0.723659 0.331731
0.725795 0.720851 0.335546
0.746731 0.717403 0.339483
0.767483 0.713893 0.343389
0.787747 0.710414 0.347356
0.807523 0.706722 0.351232
0.826719 0.702968 0.355474
0.845151 0.699184 0.359380
0.862943 0.695399 0.363439
0.877989 0.689723 0.368414
0.895445 0.687373 0.374578
0.917082 0.688930 0.385138
0.937407 0.691249 0.397131
0.956268 0.694423 0.411658
0.973236 0.699275 0.430579
0.988525 0.705776 0.452338
1.000000 0.714321 0.477119
1.000000 0.725277 0.505425
0.490272 0.737209 0.320348
0.492226 0.737331 0.320348
0.494392 0.737575 0.320745
0.499886 0.737850 0.321111
0.508171 0.738338 0.322057
0.519066 0.739010 0.323217
0.532586 0.739864 0.324651
0.548547 0.740871 0.326268
0.567193 0.742123 0.328161
0.587701 0.743404 0.330755
0.610224 0.744930 0.333379
0.634333 0.746548 0.336736
0.659815 0.748348 0.340185
0.686763 0.750271 0.344152
0.714321 0.752316 0.348516
0.740414 0.753170 0.353094
0.760494 0.749966 0.356634
0.780392 0.746761 0.360754
0.800015 0.743435 0.364630
0.819150 0.740047 0.368627
0.837797 0.736660 0.372778
0.855863 0.733181 0.376959
0.873198 0.729763 0.380926
0.889891 0.726345 0.384924
0.903990 0.720882 0.389776
0.919738 0.718441 0.397223
0.939055 0.719936 0.409613
0.957275 0.722560 0.424414
0.973907 0.726345 0.441718
0.988647 0.731868 0.464149
1.000000 0.739467 0.489815
1.000000 0.749294 0.518944
0.515740 0.767269 0.337011
0.517357 0.767391 0.337072
0.519707 0.767453 0.337377
0.524559 0.767727 0.337835
0.532341 0.768154 0.338689
0.542504 0.768673 0.339971
0.555230 0.769375 0.341466
0.570123 0.770199 0.343450
0.587457 0.771176 0.345495
0.606653 0.772213 0.348150
0.627802 0.773526 0.350958
0.650446 0.774746 0.354467
0.674372 0.776272 0.358129
0.699367 0.777859 0.362463
0.725307 0.779538 0.367193
0.751675 0.781338 0.372656
0.773892 0.780453 0.377203
0.792813 0.777462 0.381079
0.811551 0.774472 0.384924
0.829862 0.771389 0.389227
0.847807 0.768246 0.393194
0.865202 0.765194 0.397467
0.881987 0.762112 0.401740
0.898192 0.759030 0.405921
0.913756 0.756069 0.410040
0.926848 0.750973 0.414771
0.941283 0.748928 0.423926
0.958068 0.750332 0.438331
0.974090 0.753414 0.456458
0.988525 0.757809 0.477333
1.000000 0.764126 0.502647
1.000000 0.772793 0.532586
0.542626 0.795468 0.355779
0.544182 0.795560 0.355901
0.546197 0.795651 0.356268
0.550683 0.795834 0.356878
0.557916 0.796139 0.357855
0.567407 0.796597 0.358923
0.579065 0.797147 0.360632
0.593072 0.797757 0.362707
0.609155 0.798520 0.364996
0.627039 0.799344 0.367773
0.646632 0.800320 0.370947
0.667720 0.801358 0.374670
0.689998 0.802487 0.378882
0.713375 0.803708 0.383459
0.737392 0.805081 0.388678
0.762020 0.806546 0.394324
0.786954 0.808072 0.400732
0.805234 0.805753 0.404944
0.822812 0.803067 0.408881
0.840146 0.800351 0.413062
0.857115 0.797574 0.417365
0.873686 0.794797 0.421820
0.889738 0.792142 0.426123
0.905241 0.789487 0.430518
0.920195 0.786893 0.434882
0.934569 0.784390 0.439307
0.946868 0.780148 0.444099
0.959747 0.778317 0.455085
0.974121 0.779934 0.471962
0.988006 0.783505 0.493385
1.000000 0.788510 0.517571
1.000000 0.795621 0.546288
0.571283 0.821744 0.377264
0.572686 0.821805 0.377478
0.574670 0.821897 0.377630
0.578882 0.822019 0.378454
0.585412 0.822232 0.379370
0.594141 0.822568 0.380713
0.604852 0.822965 0.382483
0.617731 0.823423 0.384710
0.632532 0.823941 0.387243
0.648981 0.824582 0.390204
0.667109 0.825223 0.393774
0.686580 0.826017 0.397650
0.707271 0.826871 0.402167
0.728878 0.827787 0.407263
0.751125 0.828763 0.413031
0.773861 0.829892 0.419196
0.796902 0.831083 0.426123
0.818204 0.831449 0.432715
0.834501 0.829068 0.437018
0.850614 0.826658 0.441382
0.866423 0.824308 0.445777
0.881926 0.821958 0.450416
0.896971 0.819638 0.454871
0.911559 0.817411 0.459510
0.925689 0.815244 0.464210
0.939300 0.813169 0.468666
0.952392 0.811276 0.473304
0.964477 0.808743 0.477760
0.975219 0.806516 0.490852
0.987396 0.808255 0.509545
0.998993 0.812284 0.534203
1.000000 0.818204 0.562676
0.602319 0.845823 0.401892
0.603632 0.845853 0.402136
0.605341 0.845914 0.402380
0.609064 0.846036 0.403021
0.615106 0.846159 0.404211
0.623041 0.846372 0.405646
0.632898 0.846616 0.407538
0.644648 0.846921 0.409888
0.658106 0.847257 0.412818
0.673182 0.847684 0.416052
0.689784 0.848112 0.420020
0.707607 0.848631 0.424292
0.726497 0.849241 0.429145
0.746273 0.849851 0.434882
0.766751 0.850523 0.440925
0.787533 0.851316 0.447730
0.808652 0.852171 0.455116
0.829526 0.853147 0.463142
0.846891 0.852415 0.469337
0.861601 0.850370 0.473701
0.876036 0.848386 0.478065
0.890227 0.846403 0.482826
0.904112 0.844511 0.487404
0.917601 0.842679 0.492073
0.930663 0.840909 0.496834
0.943359 0.839292 0.501671
0.955566 0.837827 0.506432
0.967376 0.836484 0.511315
0.978698 0.835264 0.515892
0.987640 0.832914 0.530144
0.997742 0.835111 0.551354
1.000000 0.839872 0.579980
0.635981 0.867552 0.430549
0.637110 0.867582 0.430640
0.638727 0.867613 0.431098
0.642084 0.867674 0.431769
0.647486 0.867735 0.433021
0.654658 0.867857 0.434577
0.663569 0.867979 0.436896
0.674098 0.868162 0.439338
0.686397 0.868315 0.442573
0.700038 0.868528 0.446235
0.714992 0.868772 0.450233
0.731075 0.869078 0.454932
0.748135 0.869413 0.460243
0.765988 0.869810 0.466011
0.784360 0.870237 0.472511
0.803098 0.870756 0.479622
