其他预设/【232】美食博客调色预设124款/1.3D LUT预设（视频调色-PR-AE-PS-FCPX-达芬奇用）/Food Art #48.cube
# Created by Adobe Lightroom plugin Export LUT (1.17.0)
# www.johnrellis.com/lightroom/exportlut.htm
# Preset: Food Art #48
# Color profile: /Library/Application Support/Adobe/Color/Profiles/Recommended/AdobeRGB1998.icc
LUT_3D_SIZE 8
DOMAIN_MIN 0.000000 0.000000 0.000000
DOMAIN_MAX 0.903226 0.903226 0.903226
0.143832 0.167971 0.196109
0.113832 0.165164 0.193271
0.173678 0.157259 0.183474
0.354314 0.146365 0.167941
0.574212 0.119265 0.141665
0.782681 0.059174 0.107027
0.926726 0.000000 0.093629
0.997040 0.066346 0.141390
0.139437 0.143008 0.189578
0.121920 0.145388 0.186435
0.176974 0.164431 0.178836
0.351934 0.178073 0.162905
0.569146 0.177829 0.136721
0.774990 0.160800 0.102419
0.921050 0.141421 0.089601
0.994873 0.151217 0.140902
0.118929 0.210300 0.169741
0.137728 0.213779 0.168215
0.203006 0.225040 0.162905
0.368292 0.271916 0.145449
0.582544 0.303166 0.115602
0.783261 0.309667 0.080354
0.926665 0.299901 0.090150
0.994415 0.290501 0.160281
0.013458 0.396857 0.131594
0.125521 0.398169 0.130373
0.254063 0.405585 0.124880
0.413336 0.430426 0.111086
0.617853 0.466194 0.073976
0.798520 0.471260 0.044739
0.925444 0.454108 0.106294
0.989197 0.429328 0.188815
0.000000 0.611383 0.041230
0.051057 0.611963 0.037629
0.275456 0.616236 0.024872
0.452277 0.625269 0.007813
0.628351 0.630732 0.016541
0.796536 0.629175 0.065766
0.918395 0.604425 0.141451
0.980987 0.566766 0.232456
0.000000 0.786862 0.000000
0.000000 0.790677 0.008728
0.272374 0.790158 0.035309
0.454200 0.789334 0.074464
0.625208 0.786526 0.103853
0.789578 0.783108 0.140993
0.913634 0.755276 0.206577
0.970611 0.701595 0.294774
0.000000 0.901701 0.178500
0.084993 0.901488 0.182406
0.280278 0.898405 0.189334
0.441413 0.893614 0.204776
0.594324 0.886076 0.226230
0.739712 0.876982 0.256931
0.873564 0.866148 0.294652
0.956603 0.825650 0.359075
0.238926 0.949035 0.326818
0.268833 0.948180 0.328771
0.353735 0.945190 0.336400
0.465949 0.939910 0.351568
0.579217 0.931365 0.361425
0.698054 0.921324 0.390265
0.808621 0.909606 0.426856
0.905211 0.896971 0.466041
0.145388 0.166842 0.169253
0.122621 0.160555 0.169924
0.178042 0.136843 0.178195
0.353582 0.087953 0.166934
0.569207 0.000000 0.155764
0.772152 0.000000 0.143038
0.918975 0.000000 0.148135
0.993622 0.000000 0.189395
0.135897 0.145785 0.170626
0.124300 0.145937 0.170962
0.184329 0.145907 0.170199
0.355383 0.143587 0.165042
0.568505 0.129885 0.153323
0.769162 0.101289 0.140505
0.914824 0.086152 0.145907
0.991394 0.129824 0.188540
0.105196 0.208652 0.180545
0.117342 0.213779 0.168215
0.201419 0.223545 0.167391
0.367926 0.260533 0.159182
0.578027 0.284733 0.145235
0.773983 0.288396 0.135531
0.916991 0.282353 0.151186
0.990356 0.282322 0.204868
0.000000 0.391669 0.167361
0.070741 0.394720 0.152468
0.240513 0.403632 0.150973
0.400488 0.418708 0.149294
0.597650 0.447486 0.136934
0.780819 0.454475 0.135134
0.915312 0.443030 0.164950
0.985260 0.424933 0.227817
0.000000 0.608881 0.127443
0.000000 0.608606 0.127840
0.255955 0.610895 0.128145
0.438880 0.615656 0.131197
0.615839 0.619409 0.137331
0.787137 0.619928 0.151705
0.913054 0.599023 0.196811
0.978088 0.565270 0.268650
0.000000 0.782101 0.140047
0.000000 0.782284 0.141543
0.253513 0.782254 0.147372
0.444068 0.782864 0.158968
0.619074 0.781857 0.176791
0.786404 0.780331 0.203708
0.910643 0.752895 0.252598
0.968170 0.701106 0.325383
0.000000 0.897826 0.225528
0.023255 0.896635 0.225864
0.272374 0.894194 0.232395
0.437812 0.890471 0.246860
0.592645 0.883879 0.266453
0.738094 0.874876 0.291295
0.871336 0.863890 0.322271
0.954253 0.824002 0.378973
0.249577 0.947539 0.352911
0.279210 0.946777 0.355352
0.361913 0.943847 0.362463
0.472084 0.938659 0.377050
0.588434 0.930816 0.395392
0.702815 0.920653 0.418036
0.810178 0.908904 0.447852
0.904997 0.896422 0.482429
0.130312 0.159091 0.232609
0.135775 0.150851 0.235508
0.185214 0.130404 0.243778
0.359503 0.000000 0.289067
0.577600 0.000000 0.296025
0.782345 0.000000 0.280034
0.921935 0.000000 0.297337
0.990448 0.005432 0.330510
0.094881 0.150210 0.239353
0.112459 0.144015 0.241581
0.188479 0.135836 0.247623
0.362737 0.078614 0.280400
0.579461 0.000000 0.281590
0.779049 0.000000 0.277714
0.918914 0.000000 0.295995
0.989014 0.141573 0.330571
0.057984 0.217868 0.252689
0.084138 0.219760 0.254795
0.196139 0.224857 0.259464
0.378424 0.230838 0.265263
0.593133 0.235538 0.273686
0.782376 0.238651 0.283543
0.917632 0.253483 0.303319
0.985962 0.290440 0.340063
0.000000 0.394934 0.298253
0.000000 0.399023 0.291905
0.198611 0.410834 0.272801
0.401526 0.422522 0.279728
0.607599 0.439857 0.285527
0.787289 0.441321 0.295720
0.915892 0.436347 0.319036
0.980713 0.435645 0.359258
0.000000 0.608026 0.317540
0.000000 0.610407 0.308110
0.198093 0.615686 0.286046
0.425849 0.620661 0.291966
0.618921 0.623529 0.300389
0.789517 0.618067 0.312627
0.910643 0.597894 0.340490
0.972503 0.574578 0.386267
0.000000 0.781918 0.319860
0.000000 0.782528 0.314336
0.218448 0.782467 0.309789
0.431373 0.781399 0.316014
0.613306 0.779294 0.326452
0.782742 0.777188 0.342748
0.905364 0.750790 0.374426
0.962188 0.707637 0.426490
0.000000 0.897612 0.352544
0.090852 0.896422 0.355535
0.287602 0.893095 0.361975
0.446693 0.888487 0.369421
0.598260 0.881621 0.381323
0.741360 0.873167 0.399542
0.871550 0.863584 0.423987
0.949096 0.826017 0.469276
0.308934 0.944274 0.437018
0.341375 0.942779 0.443793
0.407721 0.939879 0.448310
0.507378 0.934813 0.461585
0.612421 0.927245 0.474983
0.718563 0.917662 0.494026
0.818143 0.906737 0.519005
0.905364 0.895415 0.548730
0.069825 0.140352 0.408576
0.119936 0.130037 0.412055
0.228061 0.092683 0.417975
0.367010 0.000000 0.426673
0.578943 0.000000 0.460639
0.775540 0.000000 0.464881
0.913359 0.000000 0.457527
0.980255 0.172763 0.471138
0.000000 0.138766 0.417182
0.046845 0.133059 0.418830
0.218326 0.110567 0.423011
0.371069 0.031403 0.430426
0.583154 0.000000 0.459083
0.775326 0.000000 0.461280
0.911772 0.000000 0.457038
0.978454 0.232486 0.476234
0.000000 0.249821 0.425727
0.000000 0.241306 0.427344
0.180301 0.222629 0.431952
0.380560 0.220737 0.438575
0.595422 0.206027 0.455848
0.783352 0.210178 0.460243
0.913664 0.277440 0.472175
0.975158 0.359869 0.492317
0.000000 0.407355 0.440986
0.000000 0.408942 0.442329
0.172763 0.413733 0.446052
0.397620 0.420752 0.451820
0.606806 0.425818 0.457099
0.783658 0.433021 0.464454
0.908049 0.449317 0.478676
0.969482 0.479072 0.502708
0.000000 0.610834 0.470741
0.000000 0.611383 0.468452
0.172152 0.615503 0.463874
0.416663 0.621881 0.464332
0.620691 0.624292 0.469734
0.789151 0.618830 0.477974
0.904326 0.608759 0.494148
0.961517 0.604303 0.521080
0.000000 0.784085 0.473762
0.000000 0.787015 0.474403
0.221897 0.785489 0.472511
0.444038 0.783200 0.480537
0.622370 0.780789 0.486732
0.784939 0.777615 0.495705
0.898528 0.753689 0.515465
0.951385 0.724758 0.548821
0.000000 0.895872 0.476295
0.132448 0.895171 0.479011
0.325383 0.891600 0.491188
0.493202 0.885252 0.512505
0.626825 0.878904 0.520195
0.755398 0.870878 0.531334
0.872496 0.862150 0.547021
0.939605 0.829618 0.578820
0.340429 0.942229 0.516381
0.374670 0.940642 0.523186
0.472480 0.934752 0.546929
0.575525 0.927214 0.571710
0.659541 0.920500 0.580835
0.747585 0.912200 0.594079
0.831876 0.902983 0.612543
0.905760 0.893736 0.634943
0.000000 0.103944 0.581933
0.116335 0.087861 0.583368
0.261326 0.000000 0.586267
0.416144 0.000000 0.591394
0.591333 0.000000 0.600366
0.775814 0.000000 0.606500
0.907958 0.000000 0.590814
0.973236 0.189700 0.576349
0.000000 0.117311 0.585901
0.000000 0.107393 0.587854
0.244541 0.057160 0.589990
0.412360 0.000000 0.593286
0.593164 0.000000 0.601556
0.776883 0.000000 0.605982
0.907561 0.000000 0.591119
0.971740 0.246983 0.579461
0.000000 0.240665 0.592523
0.000000 0.226963 0.593927
0.182071 0.217533 0.595026
0.403479 0.209567 0.599603
0.597345 0.199741 0.603815
0.776425 0.202457 0.603082
0.904021 0.267582 0.593347
0.965759 0.378210 0.591241
0.000000 0.428290 0.599512
0.000000 0.425544 0.600061
0.149477 0.419165 0.602991
0.402045 0.417456 0.606226
0.607477 0.421942 0.609125
0.779904 0.434302 0.607233
0.898558 0.471839 0.607507
0.954925 0.536278 0.621454
0.000000 0.609033 0.607630
0.000000 0.609888 0.608331
0.173983 0.611444 0.609430
0.419318 0.614130 0.611414
0.617914 0.615961 0.613275
0.780484 0.619867 0.616846
0.891447 0.630091 0.625330
0.946075 0.648646 0.640620
0.000000 0.776150 0.606897
0.000000 0.776211 0.606592
0.224186 0.774716 0.605646
0.445594 0.772427 0.608515
0.629603 0.769406 0.618311
0.782742 0.771206 0.627008
0.887877 0.759274 0.641199
0.937469 0.749020 0.660914
0.062287 0.891966 0.595758
0.174105 0.890745 0.596796
0.341314 0.886717 0.602380
0.513725 0.879454 0.618555
0.663142 0.870817 0.641749
0.772122 0.865049 0.649256
0.872190 0.858854 0.659052
0.927977 0.834287 0.679377
0.364080 0.938659 0.600244
0.394263 0.937072 0.604273
0.485298 0.931426 0.619593
0.609430 0.922026 0.651148
0.712001 0.911925 0.681209
0.779934 0.905486 0.689784
0.846464 0.898466 0.702022
0.905303 0.891600 0.716823
0.000000 0.000000 0.734585
0.122713 0.000000 0.735134
0.278080 0.000000 0.735500
0.436133 0.000000 0.738918
0.603479 0.000000 0.742641
0.775021 0.000000 0.745266
0.902220 0.000000 0.719356
0.964660 0.216281 0.681544
0.000000 0.077668 0.733669
0.000000 0.059327 0.733944
0.257450 0.000000 0.734829
0.427955 0.000000 0.738155
0.600092 0.000000 0.741146
0.773739 0.000000 0.743923
0.900908 0.000000 0.718654
0.963104 0.264775 0.682795
0.000000 0.219394 0.739712
0.000000 0.217899 0.739773
0.198978 0.213321 0.740719
0.413245 0.206638 0.742397
0.598627 0.202213 0.743648
0.775814 0.209964 0.745113
0.898741 0.280583 0.719448
0.957763 0.394018 0.690242
0.000000 0.421088 0.743496
0.000000 0.418311 0.743282
0.173404 0.414771 0.744076
0.417395 0.421515 0.746883
0.608576 0.430152 0.748226
0.781338 0.442481 0.748623
0.894347 0.482399 0.725795
0.947692 0.547478 0.708064
0.000000 0.598383 0.743191
0.000000 0.598322 0.743404
0.210910 0.599084 0.743984
0.439399 0.604883 0.744594
0.623651 0.614984 0.744533
0.779568 0.621851 0.745327
0.884276 0.643641 0.733761
0.933562 0.682551 0.733486
0.000000 0.765988 0.743771
0.000000 0.766873 0.744656
0.266667 0.767117 0.745022
0.469642 0.767086 0.745205
0.641413 0.766629 0.745357
0.784421 0.769009 0.748013
0.876707 0.774716 0.753475
0.921569 0.783719 0.761959
0.175082 0.888914 0.723751
0.239994 0.888121 0.724422
0.379492 0.884001 0.726101
0.536156 0.876616 0.730861
0.680079 0.867430 0.740719
0.796536 0.859434 0.758419
0.872221 0.856931 0.763638
0.915404 0.845548 0.774197
0.407080 0.934325 0.696895
0.433661 0.932769 0.699153
0.513939 0.927367 0.707607
0.622065 0.918639 0.723873
0.731075 0.907622 0.748775
0.815671 0.897948 0.776638
0.862516 0.893736 0.783505
0.904173 0.889769 0.791257
0.000000 0.000000 0.844358
0.102296 0.000000 0.844907
0.264897 0.000000 0.845274
0.416876 0.000000 0.845975
0.572076 0.000000 0.846036
0.728756 0.000000 0.845487
0.880522 0.000000 0.844327
0.952483 0.228855 0.789578
0.000000 0.000000 0.843717
0.000000 0.000000 0.844175
0.246738 0.000000 0.844541
0.409735 0.000000 0.844755
0.569085 0.000000 0.844633
0.727108 0.000000 0.843839
0.878691 0.000000 0.842527
0.950805 0.267063 0.788846
0.000000 0.213626 0.845640
0.000000 0.212985 0.845609
0.205264 0.211490 0.845335
0.398322 0.212131 0.845060
0.567803 0.220035 0.844175
0.728481 0.243626 0.843015
0.878141 0.288365 0.841764
0.946410 0.397131 0.791257
0.000000 0.401312 0.845304
0.000000 0.402167 0.844846
0.227726 0.408545 0.844083
0.417151 0.416724 0.843503
0.582727 0.429328 0.842344
0.736782 0.449866 0.841093
0.876310 0.480537 0.839719
0.937774 0.545892 0.796445
0.000000 0.567407 0.841764
0.000000 0.568444 0.841398
0.278538 0.574548 0.840360
0.466743 0.591638 0.838682
0.620020 0.608911 0.836912
0.751919 0.622065 0.835752
0.871794 0.640986 0.834775
0.925811 0.682887 0.805509
0.095186 0.719509 0.838346
0.186465 0.720394 0.838132
0.343511 0.724056 0.837430
0.507805 0.732540 0.836088
0.659907 0.746853 0.834043
0.782773 0.766232 0.832334
0.869718 0.775631 0.832517
0.913390 0.793851 0.821134
0.269688 0.858061 0.835142
0.311986 0.858000 0.835172
0.423743 0.857328 0.834653
0.558679 0.856229 0.833951
0.690852 0.854643 0.832853
0.799863 0.853788 0.832273
0.870237 0.854582 0.833158
0.905882 0.857206 0.835843
0.444800 0.928923 0.798856
0.468482 0.927489 0.799405
0.543114 0.922606 0.801968
0.641260 0.914549 0.806485
0.742458 0.904448 0.814786
0.824338 0.895323 0.826688
0.875761 0.889952 0.839261
0.902800 0.888518 0.842130
0.000000 0.000000 0.900206
0.073426 0.000000 0.900237
0.238010 0.000000 0.899931
0.379217 0.000000 0.899504
0.520806 0.000000 0.898528
0.662348 0.000000 0.896727
0.798978 0.141634 0.894041
0.923186 0.262211 0.890318
0.000000 0.000000 0.899962
0.000000 0.000000 0.899962
0.226200 0.000000 0.899657
0.375708 0.000000 0.899046
0.520348 0.000000 0.897948
0.662928 0.103639 0.896025
0.799191 0.202335 0.893217
0.922423 0.298314 0.889464
0.000000 0.213993 0.899107
0.000000 0.215366 0.898985
0.211917 0.218509 0.898405
0.376806 0.230869 0.897704
0.526390 0.252964 0.896117
0.668910 0.289220 0.893767
0.801999 0.342168 0.890715
0.919982 0.408179 0.886961
0.000000 0.395758 0.895720
0.131624 0.397833 0.895598
0.275090 0.403632 0.894896
0.417304 0.416419 0.893706
0.556054 0.436072 0.891844
0.688289 0.463661 0.889311
0.810178 0.501579 0.886137
0.915770 0.546960 0.882628
0.192996 0.541985 0.891203
0.243839 0.546166 0.890867
0.364599 0.560967 0.889372
0.508873 0.591089 0.886595
0.615991 0.604669 0.884733
0.723781 0.623896 0.882353
0.824247 0.649897 0.879667
0.910246 0.682612 0.876860
0.299290 0.674434 0.885618
0.331762 0.676814 0.885222
0.426184 0.685939 0.883787
0.550561 0.704128 0.881285
0.680446 0.734432 0.877562
0.777127 0.760739 0.874632
0.847044 0.776913 0.873045
0.905089 0.794491 0.871641
0.409003 0.794125 0.879393
0.433112 0.795285 0.879057
0.505638 0.799496 0.877928
0.608606 0.807797 0.876005
0.718471 0.821408 0.873320
0.810636 0.838651 0.870573
0.868742 0.853361 0.868925
0.902037 0.858396 0.868620
0.519982 0.893004 0.873289
0.536858 0.892760 0.873075
0.591516 0.891936 0.872404
0.673732 0.890623 0.871336
0.760128 0.889158 0.870054
0.830900 0.888060 0.868956
0.877470 0.887602 0.868437
0.901793 0.887755 0.868589
