其他预设/【232】美食博客调色预设124款/1.3D LUT预设（视频调色-PR-AE-PS-FCPX-达芬奇用）/Food Art #25.cube
# Created by Adobe Lightroom plugin Export LUT (1.17.0)
# www.johnrellis.com/lightroom/exportlut.htm
# Preset: Food Art #25
# Color profile: /Library/Application Support/Adobe/Color/Profiles/Recommended/AdobeRGB1998.icc
LUT_3D_SIZE 8
DOMAIN_MIN 0.000000 0.000000 0.000000
DOMAIN_MAX 0.903226 0.903226 0.903226
0.158175 0.104372 0.168734
0.264561 0.096315 0.183139
0.409979 0.082216 0.214084
0.536400 0.090761 0.253269
0.650965 0.135164 0.301457
0.756619 0.193362 0.349645
0.849577 0.256016 0.396582
0.931334 0.327062 0.445624
0.189487 0.195560 0.199222
0.279820 0.192569 0.210269
0.414160 0.171786 0.230900
0.536248 0.169711 0.267430
0.649317 0.191684 0.310887
0.753353 0.230777 0.354772
0.845945 0.281437 0.399237
0.929015 0.345373 0.447547
0.249882 0.323430 0.258579
0.304326 0.322087 0.264775
0.430365 0.319005 0.285557
0.546410 0.309422 0.311406
0.656489 0.314977 0.342809
0.757504 0.333898 0.377661
0.850248 0.366766 0.417792
0.931090 0.413458 0.462470
0.322087 0.447578 0.328008
0.355077 0.446815 0.331273
0.446174 0.446632 0.342931
0.564935 0.456275 0.364874
0.673701 0.459174 0.386603
0.765408 0.460975 0.410834
0.851072 0.475532 0.442512
0.929290 0.505272 0.482307
0.386816 0.577813 0.385077
0.409735 0.577661 0.386938
0.478828 0.578576 0.394171
0.574487 0.582788 0.407019
0.676478 0.587884 0.423468
0.766995 0.585626 0.442481
0.849485 0.589532 0.469520
0.926787 0.608667 0.507683
0.446387 0.693446 0.433356
0.464118 0.695705 0.435981
0.515587 0.695705 0.440803
0.591455 0.696895 0.449622
0.678279 0.699123 0.462104
0.768887 0.704311 0.478431
0.852415 0.706600 0.502739
0.926116 0.715877 0.540551
0.515068 0.799313 0.485023
0.526787 0.799771 0.486427
0.563897 0.799100 0.490211
0.622644 0.799374 0.497810
0.693935 0.800107 0.508782
0.771908 0.803128 0.524407
0.851225 0.808164 0.543877
0.924681 0.813352 0.574762
0.601312 0.891081 0.549340
0.608850 0.890959 0.550378
0.634974 0.890990 0.554498
0.678859 0.891844 0.562737
0.730892 0.889891 0.570672
0.794400 0.892149 0.586481
0.860868 0.895720 0.606653
0.925566 0.899565 0.629084
0.158145 0.102327 0.266087
0.259586 0.095399 0.274907
0.403784 0.113832 0.291997
0.529473 0.143008 0.324285
0.644404 0.171695 0.353521
0.748836 0.213413 0.384894
0.842374 0.267033 0.419867
0.926177 0.333684 0.460792
0.189303 0.191928 0.283696
0.277897 0.190433 0.291478
0.409522 0.188907 0.308537
0.531487 0.195804 0.331914
0.644892 0.214603 0.358953
0.747890 0.246342 0.388800
0.839963 0.290837 0.421912
0.923888 0.350652 0.461921
0.260716 0.319310 0.316045
0.317388 0.317601 0.327520
0.427741 0.316991 0.340307
0.541650 0.313848 0.357275
0.651453 0.321508 0.379034
0.751034 0.338903 0.404608
0.842222 0.368933 0.435462
0.925383 0.415137 0.474464
0.331426 0.442878 0.363867
0.364630 0.442542 0.369177
0.449226 0.444038 0.377661
0.558831 0.449775 0.392584
0.663722 0.452430 0.408637
0.755947 0.456489 0.428260
0.843076 0.472663 0.455390
0.923980 0.504448 0.491859
0.393927 0.574975 0.409369
0.415351 0.574548 0.410803
0.481056 0.574731 0.416236
0.572320 0.577111 0.426062
0.671290 0.581598 0.439307
0.761837 0.581353 0.456245
0.845274 0.587610 0.481056
0.923430 0.608148 0.516594
0.450690 0.689540 0.448859
0.466316 0.689723 0.450050
0.516381 0.690028 0.454322
0.590967 0.692103 0.462654
0.677089 0.695644 0.474372
0.767422 0.702266 0.490150
0.850309 0.705226 0.512963
0.923827 0.715023 0.548119
0.517296 0.794858 0.494636
0.527916 0.794308 0.495277
0.564569 0.794278 0.499123
0.623163 0.795651 0.506889
0.694179 0.797452 0.517906
0.771023 0.800504 0.532525
0.848966 0.805112 0.550286
0.922026 0.810605 0.579400
0.603265 0.888670 0.555932
0.611048 0.888853 0.557214
0.636988 0.889067 0.561303
0.680385 0.890135 0.569451
0.735042 0.891081 0.580407
0.796414 0.892424 0.594476
0.860960 0.895048 0.612390
0.924804 0.898528 0.633326
0.174136 0.102541 0.393896
0.251347 0.103212 0.397681
0.401770 0.119539 0.409125
0.527977 0.156344 0.418158
0.643061 0.196139 0.435676
0.748135 0.247379 0.458595
0.841215 0.299382 0.480903
0.924620 0.363195 0.509300
0.223331 0.187533 0.403021
0.284154 0.190646 0.406073
0.408728 0.194522 0.414313
0.529717 0.210727 0.423926
0.643915 0.236667 0.440436
0.747097 0.274723 0.460273
0.839628 0.319707 0.481819
0.923430 0.379034 0.510491
0.278416 0.315007 0.420600
0.326543 0.315038 0.423011
0.428779 0.316136 0.429419
0.540459 0.321538 0.439582
0.652277 0.335424 0.453559
0.750454 0.356451 0.469459
0.840452 0.388434 0.489845
0.922850 0.435492 0.518120
0.341527 0.442145 0.439246
0.374273 0.442115 0.442390
0.457923 0.444343 0.450752
0.560388 0.450935 0.459907
0.663996 0.457618 0.470680
0.755825 0.466499 0.484352
0.842527 0.486397 0.504021
0.922515 0.520684 0.532433
0.400488 0.573297 0.464454
0.424231 0.573449 0.467231
0.491005 0.574365 0.473976
0.577691 0.577996 0.481056
0.673274 0.583490 0.490455
0.761349 0.585046 0.502953
0.843870 0.594720 0.522515
0.921569 0.618524 0.552178
0.459174 0.688228 0.490730
0.477363 0.688197 0.493538
0.528740 0.688045 0.499916
0.598230 0.689693 0.505913
0.679744 0.693233 0.514885
0.766323 0.700038 0.527642
0.847745 0.705959 0.547539
0.922362 0.720211 0.578271
0.529900 0.794247 0.528130
0.543420 0.793576 0.530999
0.579919 0.792813 0.535943
0.633783 0.793576 0.541894
0.700465 0.795438 0.550713
0.774136 0.799466 0.563256
0.850187 0.805844 0.579461
0.922454 0.813840 0.606622
0.614832 0.887144 0.581628
0.623499 0.886625 0.583734
0.647333 0.886687 0.586969
0.689265 0.888548 0.594873
0.741115 0.889616 0.604364
0.800320 0.891630 0.617060
0.863066 0.894896 0.633539
0.925505 0.899046 0.653040
0.213321 0.109773 0.495399
0.270817 0.115206 0.497810
0.397101 0.133211 0.503105
0.527520 0.162112 0.510643
0.642451 0.199924 0.517174
0.744991 0.249699 0.526452
0.836728 0.311040 0.540581
0.919554 0.386572 0.563409
0.260197 0.191348 0.501183
0.303044 0.192874 0.502525
0.409888 0.199191 0.506432
0.531456 0.213687 0.513268
0.644709 0.240146 0.519921
0.745022 0.280552 0.528527
0.835874 0.334783 0.542565
0.918669 0.405341 0.565881
0.309270 0.308019 0.509300
0.345892 0.310399 0.510369
0.435279 0.315801 0.513970
0.542962 0.323308 0.520348
0.652186 0.340398 0.528252
0.749569 0.370062 0.538262
0.839109 0.414618 0.555077
0.919921 0.463539 0.574975
0.360204 0.439612 0.522576
0.388128 0.440314 0.523674
0.465003 0.443214 0.527062
0.562707 0.449928 0.532799
0.662196 0.460548 0.539879
0.752773 0.477119 0.549493
0.838865 0.502953 0.563806
0.919249 0.539940 0.584833
0.414191 0.572839 0.535546
0.435401 0.572412 0.536431
0.498970 0.573083 0.539818
0.586267 0.577111 0.547570
0.675532 0.583948 0.554528
0.760708 0.590814 0.563989
0.842344 0.605768 0.578302
0.919371 0.631098 0.599847
0.471138 0.688624 0.548425
0.489479 0.690120 0.550927
0.541405 0.689052 0.556207
0.614252 0.689906 0.566003
0.688716 0.694209 0.572595
0.768460 0.700954 0.581689
0.846738 0.709651 0.596674
0.920653 0.726497 0.620417
0.538872 0.793057 0.572442
0.552361 0.792996 0.574853
0.593927 0.792660 0.582544
0.650446 0.793423 0.592065
0.711666 0.795987 0.598932
0.780026 0.800076 0.608515
0.851438 0.806210 0.620935
0.921691 0.815793 0.643427
0.622156 0.887327 0.615747
0.631189 0.887205 0.617975
0.659510 0.886656 0.624506
0.700069 0.886961 0.632258
0.748562 0.888396 0.639887
0.804868 0.890776 0.650538
0.865354 0.894591 0.664790
0.926177 0.899413 0.682155
0.267155 0.124025 0.581781
0.307683 0.129305 0.583001
0.409979 0.145693 0.585718
0.527550 0.172244 0.590417
0.644495 0.207034 0.597925
0.744839 0.255436 0.599847
0.835904 0.315862 0.605402
0.918791 0.391669 0.618921
0.299168 0.194583 0.584680
0.332860 0.196811 0.585748
0.422522 0.204227 0.588067
0.532464 0.219272 0.591913
0.646448 0.245457 0.599115
0.745693 0.285893 0.601160
0.836027 0.340154 0.606958
0.918364 0.410681 0.620844
0.346685 0.310216 0.590112
0.375219 0.312963 0.590997
0.448798 0.316777 0.592767
0.547265 0.325841 0.597040
0.652186 0.341833 0.602502
0.746883 0.369665 0.604456
0.835264 0.412146 0.612116
0.916442 0.466682 0.626490
0.386175 0.432868 0.597925
0.409613 0.434333 0.598505
0.478096 0.439796 0.600824
0.568109 0.449409 0.604456
0.662867 0.461585 0.609064
0.751583 0.482155 0.613245
0.836271 0.510643 0.622309
0.915923 0.547204 0.636591
0.432319 0.565270 0.607782
0.451575 0.565972 0.608392
0.509545 0.568048 0.610010
0.591394 0.572808 0.613001
0.675441 0.580102 0.617060
0.757717 0.591455 0.623163
0.838743 0.609003 0.632868
0.916320 0.634791 0.648219
0.483375 0.683040 0.612940
0.498787 0.682979 0.613672
0.547112 0.682338 0.615900
0.616815 0.683467 0.621180
0.690517 0.687800 0.627558
0.767483 0.697444 0.635676
0.844968 0.710079 0.647730
0.918761 0.728115 0.665309
0.549615 0.790097 0.628077
0.561425 0.789670 0.629297
0.599207 0.789090 0.633570
0.654597 0.789822 0.640681
0.716060 0.792691 0.648066
0.781827 0.797757 0.655756
0.850950 0.804410 0.665583
0.920165 0.815000 0.683497
0.626551 0.884306 0.659022
0.634668 0.884062 0.660426
0.661067 0.883604 0.664820
0.703273 0.885252 0.672999
0.751369 0.886564 0.679988
0.806241 0.889220 0.688777
0.865599 0.893339 0.700740
0.925689 0.898528 0.715511
0.319554 0.140658 0.665309
0.349187 0.145541 0.665736
0.430945 0.160800 0.666743
0.534752 0.186435 0.670069
0.641505 0.221134 0.674434
0.745083 0.264347 0.679103
0.836088 0.323857 0.679561
0.918517 0.400092 0.685695
0.340337 0.200870 0.665187
0.366094 0.203067 0.665553
0.440436 0.211246 0.666804
0.538964 0.228519 0.670130
0.642756 0.255558 0.674098
0.744961 0.292515 0.678889
0.835538 0.346471 0.679835
0.917784 0.417426 0.686549
0.383459 0.314672 0.669642
0.403906 0.315892 0.669978
0.466682 0.320409 0.671290
0.554437 0.330785 0.673823
0.650813 0.348669 0.676936
0.748226 0.375494 0.681147
0.836088 0.418158 0.683101
0.916991 0.473610 0.690852
0.419623 0.432776 0.675135
0.438788 0.434485 0.675166
0.498146 0.441779 0.676265
0.578210 0.453193 0.679347
0.665736 0.467659 0.682521
0.754818 0.487526 0.686336
0.838346 0.515831 0.689876
0.916838 0.552575 0.698177
0.458534 0.555383 0.679896
0.475044 0.556695 0.680232
0.526940 0.561364 0.681300
0.601526 0.570672 0.683162
0.679072 0.580591 0.685573
0.759274 0.592706 0.689631
0.838956 0.610742 0.695155
0.915557 0.635950 0.704921
0.503471 0.678157 0.686824
0.518090 0.679164 0.687465
0.562768 0.680812 0.688502
0.625940 0.683864 0.690394
0.695064 0.688624 0.692988
0.768917 0.697230 0.698085
0.844175 0.709926 0.705959
0.917449 0.727749 0.717922
0.564080 0.789120 0.696284
0.575311 0.789395 0.697169
0.609766 0.789273 0.699153
0.660517 0.790097 0.702449
0.719265 0.792599 0.706661
0.783993 0.797360 0.712673
0.851865 0.804776 0.720546
0.920439 0.816434 0.734646
0.634638 0.883146 0.716060
0.641901 0.882933 0.716762
0.666133 0.882689 0.719295
0.704311 0.883543 0.723659
0.751858 0.885130 0.729030
0.806394 0.887938 0.736172
0.865690 0.892668 0.746395
0.925505 0.898344 0.758877
0.361395 0.158633 0.750637
0.384222 0.163241 0.751095
0.451484 0.178012 0.752071
0.542046 0.202640 0.753872
0.639460 0.237156 0.755947
0.736965 0.280919 0.758694
0.832059 0.332036 0.762142
0.915587 0.406104 0.762448
0.375891 0.209415 0.750607
0.396674 0.212039 0.751034
0.459266 0.221653 0.751980
0.546075 0.239872 0.753414
0.641321 0.268345 0.755489
0.737423 0.306249 0.758175
0.831449 0.353033 0.761563
0.914611 0.421668 0.762203
0.410010 0.316472 0.752956
0.427344 0.317815 0.753109
0.481666 0.323461 0.753719
0.560357 0.335393 0.755001
0.649683 0.355138 0.756771
0.741817 0.384009 0.759396
0.832792 0.422431 0.762966
0.914580 0.476967 0.765042
0.448157 0.434180 0.755978
0.464057 0.436042 0.755795
0.513054 0.442634 0.756100
0.582666 0.451972 0.757382
0.664179 0.467384 0.759060
0.749752 0.489052 0.761776
0.835111 0.515435 0.765560
0.914458 0.552911 0.769009
0.485206 0.552514 0.759060
0.498909 0.553918 0.759030
0.543603 0.559655 0.759152
0.608057 0.568841 0.759701
0.679774 0.578607 0.761227
0.757565 0.592493 0.764157
0.837339 0.610315 0.768246
0.914336 0.637049 0.773770
0.530297 0.671778 0.764157
0.542107 0.672755 0.764248
0.579797 0.676112 0.764675
0.634638 0.681209 0.765652
0.698543 0.687465 0.767086
0.768795 0.696254 0.769863
0.842771 0.708736 0.774777
0.915557 0.726375 0.781674
0.579461 0.783871 0.771847
0.588922 0.784298 0.772152
0.619257 0.785397 0.772854
0.664851 0.787564 0.774197
0.720760 0.790799 0.776181
0.783658 0.795834 0.779446
0.850797 0.803586 0.784848
0.918608 0.815305 0.793881
0.640314 0.881163 0.783413
0.647120 0.881193 0.783810
0.670253 0.881865 0.785519
0.706233 0.882872 0.787869
0.752682 0.884611 0.791226
0.806455 0.887572 0.796017
0.865110 0.891966 0.803189
0.924834 0.898375 0.813260
0.393805 0.181613 0.844205
0.412116 0.185641 0.844388
0.468238 0.199649 0.844602
0.548455 0.224704 0.845365
0.638605 0.260624 0.846464
0.731167 0.305821 0.847959
0.822782 0.359747 0.849943
0.910491 0.420142 0.852262
0.404150 0.223056 0.843992
0.421271 0.226169 0.844175
0.474769 0.236851 0.844480
0.552575 0.257206 0.845151
0.640986 0.288029 0.846250
0.732418 0.328954 0.847715
0.823178 0.379004 0.849607
0.910155 0.435431 0.851987
0.431312 0.320897 0.844266
0.446204 0.322820 0.844358
0.493965 0.329747 0.844541
0.566003 0.344579 0.845548
0.649622 0.367285 0.846494
0.737545 0.399298 0.847745
0.825467 0.440772 0.849668
0.910002 0.485542 0.852262
0.467994 0.436164 0.844846
0.480934 0.437903 0.845029
0.522484 0.443305 0.845212
0.587060 0.454536 0.845914
0.664363 0.472633 0.846921
0.746517 0.496498 0.848325
0.829282 0.525200 0.850462
0.910307 0.557305 0.853483
0.508080 0.554376 0.846738
0.519951 0.556115 0.846738
0.556756 0.561059 0.846494
0.610803 0.566949 0.846372
0.679713 0.578637 0.847440
0.755367 0.594842 0.849149
0.833463 0.615351 0.851804
0.911040 0.639704 0.855589
0.555169 0.671992 0.849851
0.564385 0.672877 0.849760
0.594324 0.675624 0.849607
0.640467 0.679591 0.849546
0.698421 0.684901 0.849821
0.766537 0.694820 0.851652
0.839963 0.710292 0.855344
0.913207 0.728420 0.860105
0.605432 0.782101 0.855222
0.612665 0.782559 0.855222
0.636530 0.783963 0.855314
0.675257 0.786465 0.855772
0.725521 0.790127 0.856596
0.784176 0.795285 0.858091
0.849210 0.803708 0.861112
0.916442 0.816037 0.866514
0.655848 0.879911 0.863371
0.661402 0.880034 0.863432
0.680476 0.880674 0.863859
0.712856 0.882078 0.864805
0.755886 0.884245 0.866331
0.807126 0.887388 0.868681
0.864378 0.891966 0.872374
0.923339 0.898772 0.878386
