其他预设/【232】美食博客调色预设124款/1.3D LUT预设（视频调色-PR-AE-PS-FCPX-达芬奇用）/Food Art #68.cube
# Created by Adobe Lightroom plugin Export LUT (1.17.0)
# www.johnrellis.com/lightroom/exportlut.htm
# Preset: Food Art #68
# Color profile: /Library/Application Support/Adobe/Color/Profiles/Recommended/AdobeRGB1998.icc
LUT_3D_SIZE 5
DOMAIN_MIN 0.000000 0.000000 0.000000
DOMAIN_MAX 0.903226 0.903226 0.903226
0.000000 0.000000 0.000000
0.109529 0.083314 0.103761
0.263218 0.174655 0.214237
0.472511 0.286717 0.323949
0.764584 0.459510 0.456641
0.092195 0.163912 0.153780
0.164492 0.191867 0.192050
0.298375 0.243565 0.261295
0.501274 0.336858 0.347265
0.782132 0.508476 0.482612
0.247868 0.357885 0.307866
0.290837 0.371405 0.320623
0.426917 0.423468 0.364385
0.599268 0.489021 0.421149
0.819608 0.634058 0.558648
0.465339 0.598505 0.442481
0.497078 0.608240 0.452613
0.593774 0.639307 0.487770
0.724086 0.687007 0.550164
0.872740 0.781735 0.675868
0.753689 0.840635 0.676661
0.767483 0.844358 0.684474
0.808469 0.855344 0.708370
0.873960 0.881712 0.758175
0.939055 0.915831 0.820829
0.000000 0.028016 0.118624
0.110079 0.097993 0.170474
0.271611 0.198428 0.264683
0.477211 0.302586 0.351263
0.760708 0.464118 0.473335
0.095583 0.168795 0.207950
0.167239 0.198245 0.239567
0.307500 0.259464 0.298741
0.504723 0.347448 0.370520
0.775326 0.508141 0.495155
0.256077 0.359930 0.329625
0.301274 0.374914 0.343633
0.423072 0.419257 0.379522
0.595850 0.488838 0.436347
0.818265 0.636347 0.571740
0.472633 0.599359 0.458900
0.505333 0.609613 0.470283
0.597986 0.639673 0.503410
0.724147 0.686580 0.563043
0.872740 0.782650 0.684443
0.754940 0.840299 0.684413
0.768521 0.844022 0.691859
0.813169 0.858671 0.719722
0.875883 0.883482 0.765866
0.940063 0.917205 0.826413
0.000000 0.085084 0.251987
0.115511 0.123598 0.276402
0.281926 0.211368 0.333196
0.492744 0.315282 0.405829
0.768215 0.474922 0.525444
0.121431 0.191531 0.301579
0.181003 0.213504 0.317113
0.323461 0.273777 0.360235
0.522576 0.362554 0.425544
0.781003 0.515160 0.542779
0.275059 0.368322 0.384375
0.317998 0.383490 0.395880
0.443091 0.432898 0.433631
0.611139 0.503502 0.490303
0.820035 0.638178 0.607355
0.483436 0.600732 0.503838
0.513603 0.609186 0.513207
0.607172 0.642023 0.547387
0.729000 0.689998 0.602197
0.874357 0.784176 0.708766
0.755306 0.838895 0.707362
0.769162 0.843351 0.714717
0.810513 0.857816 0.737087
0.873899 0.882689 0.779599
0.939513 0.916869 0.836851
0.083406 0.135805 0.375433
0.162631 0.163607 0.387152
0.320043 0.236088 0.425391
0.518364 0.331121 0.488136
0.782864 0.496010 0.612604
0.169833 0.224277 0.402716
0.220584 0.240757 0.412421
0.357092 0.293523 0.446509
0.544335 0.376165 0.505913
0.791470 0.530846 0.624018
0.309148 0.390021 0.470130
0.347753 0.403204 0.480476
0.460548 0.441962 0.512139
0.622889 0.509728 0.563775
0.823301 0.634302 0.665553
0.509209 0.613489 0.583307
0.536004 0.621027 0.590326
0.618769 0.648432 0.615930
0.739193 0.698390 0.663905
0.876005 0.776425 0.742031
0.761074 0.841184 0.752804
0.773037 0.845029 0.757992
0.810697 0.859190 0.775723
0.869078 0.883909 0.806027
0.941039 0.919554 0.859922
0.203128 0.195926 0.583398
0.266300 0.216770 0.593286
0.425391 0.281254 0.626276
0.622644 0.387488 0.676448
0.808103 0.535943 0.735225
0.239506 0.265965 0.601862
0.296239 0.281498 0.610590
0.447211 0.334997 0.640497
0.637842 0.431922 0.686671
0.815518 0.568139 0.743008
0.348791 0.436164 0.654383
0.376135 0.435645 0.657038
0.508629 0.474098 0.679072
0.682643 0.552422 0.717952
0.840513 0.658198 0.770504
0.595178 0.681819 0.742061
0.611353 0.684138 0.744106
0.659449 0.689143 0.750790
0.751675 0.709621 0.770047
0.883848 0.784421 0.822904
0.790799 0.864256 0.837522
0.798611 0.866392 0.839963
0.826383 0.875059 0.849699
0.874174 0.892271 0.869352
0.944884 0.926390 0.908843
