其他预设/【232】美食博客调色预设124款/1.3D LUT预设（视频调色-PR-AE-PS-FCPX-达芬奇用）/Food Art #26.cube
# Created by Adobe Lightroom plugin Export LUT (1.17.0)
# www.johnrellis.com/lightroom/exportlut.htm
# Preset: Food Art #26
# Color profile: /Library/Application Support/Adobe/Color/Profiles/Recommended/AdobeRGB1998.icc
LUT_3D_SIZE 8
DOMAIN_MIN 0.000000 0.000000 0.000000
DOMAIN_MAX 0.903226 0.903226 0.903226
0.125338 0.121492 0.102510
0.163973 0.120363 0.106447
0.229068 0.139712 0.117342
0.304875 0.155886 0.127443
0.386481 0.176333 0.142458
0.483497 0.200778 0.160861
0.594049 0.228916 0.182223
0.727749 0.264591 0.209903
0.137057 0.164462 0.111086
0.172580 0.168551 0.115877
0.234501 0.169955 0.121736
0.307256 0.179995 0.131899
0.387152 0.196231 0.146151
0.481483 0.217502 0.163027
0.590234 0.243381 0.183505
0.724605 0.278416 0.210910
0.162448 0.239170 0.125063
0.186679 0.241306 0.126894
0.254856 0.248081 0.133333
0.324285 0.247868 0.145663
0.401190 0.256992 0.159701
0.495064 0.273106 0.174502
0.605554 0.297154 0.194980
0.739345 0.331456 0.222446
0.188998 0.322545 0.139437
0.208133 0.323430 0.140749
0.265660 0.327794 0.145602
0.352331 0.340856 0.155734
0.435950 0.344060 0.169039
0.519005 0.354681 0.194095
0.620783 0.372900 0.212100
0.750881 0.406409 0.239597
0.223514 0.413886 0.158511
0.239475 0.414740 0.159609
0.289738 0.419043 0.163394
0.365911 0.428168 0.170687
0.456336 0.438025 0.180575
0.543389 0.440314 0.190097
0.638025 0.457038 0.227451
0.766262 0.496284 0.265019
0.261021 0.513115 0.178714
0.276158 0.516594 0.180575
0.321111 0.519097 0.183993
0.389960 0.524193 0.190494
0.473548 0.531182 0.200168
0.567864 0.541955 0.213657
0.671382 0.557458 0.230869
0.795224 0.595087 0.281926
0.312200 0.629267 0.208652
0.325048 0.630854 0.209934
0.365332 0.632624 0.213230
0.430091 0.637659 0.220157
0.510765 0.644739 0.230564
0.604028 0.656336 0.245975
0.705226 0.671809 0.267277
0.822232 0.701595 0.300267
0.391760 0.777371 0.261112
0.402991 0.777920 0.262364
0.441169 0.781064 0.267552
0.504662 0.788327 0.278141
0.578393 0.790127 0.288121
0.671229 0.803922 0.308385
0.772305 0.822080 0.334600
0.874754 0.841337 0.366583
0.120424 0.121431 0.129152
0.163973 0.121584 0.132113
0.229404 0.149142 0.139010
0.304814 0.168795 0.150423
0.385199 0.186252 0.161715
0.478035 0.206271 0.175662
0.586389 0.230106 0.193515
0.719448 0.262516 0.218265
0.139803 0.163363 0.134859
0.174228 0.168002 0.138155
0.235538 0.177920 0.145357
0.308110 0.189639 0.153750
0.387243 0.204288 0.164340
0.478676 0.222293 0.177890
0.584283 0.244266 0.194766
0.716152 0.275853 0.219028
0.167025 0.238071 0.144625
0.191196 0.240635 0.147616
0.255039 0.247074 0.152499
0.322332 0.250217 0.165347
0.399084 0.259525 0.175113
0.489723 0.273594 0.186984
0.595087 0.294347 0.203922
0.728603 0.326787 0.229313
0.190860 0.320562 0.155093
0.209567 0.321965 0.156161
0.266148 0.326909 0.160494
0.347723 0.335790 0.168490
0.425940 0.337316 0.181582
0.507836 0.348638 0.202731
0.608698 0.366827 0.218997
0.740200 0.400427 0.244938
0.223148 0.412940 0.170809
0.238987 0.413367 0.171633
0.288334 0.416632 0.175051
0.362188 0.423316 0.181094
0.450233 0.431922 0.189639
0.537530 0.435126 0.198093
0.631586 0.453010 0.235843
0.759823 0.491768 0.270573
0.258549 0.510155 0.188235
0.272557 0.511009 0.189151
0.317266 0.513725 0.192386
0.386206 0.519493 0.198978
0.470344 0.527611 0.208438
0.565759 0.539544 0.222049
0.668696 0.554681 0.238315
0.790646 0.591516 0.288579
0.307958 0.623407 0.215427
0.319707 0.623285 0.216129
0.360327 0.625910 0.219608
0.425910 0.632563 0.226780
0.507622 0.641077 0.237400
0.600244 0.652277 0.252110
0.699886 0.666377 0.271977
0.815976 0.695399 0.302983
0.387030 0.772976 0.266117
0.398718 0.774258 0.267887
0.437415 0.777737 0.273198
0.501305 0.785428 0.283635
0.581506 0.794430 0.297704
0.672389 0.805600 0.315892
0.770932 0.820768 0.339513
0.872251 0.838529 0.369696
0.130922 0.120394 0.171481
0.161166 0.128176 0.174685
0.234958 0.147738 0.184970
0.310155 0.169223 0.190280
0.390387 0.192721 0.200534
0.486091 0.214694 0.214633
0.594079 0.234775 0.229526
0.727413 0.261295 0.250889
0.153048 0.161532 0.179355
0.176547 0.165682 0.182223
0.241733 0.175143 0.189273
0.313085 0.192630 0.193362
0.392432 0.212009 0.203555
0.486183 0.229953 0.216129
0.592950 0.249058 0.230442
0.726558 0.276066 0.251926
0.174929 0.238010 0.192844
0.196536 0.240330 0.194491
0.255863 0.244450 0.197299
0.324529 0.254185 0.204532
0.404974 0.266239 0.213535
0.496376 0.279515 0.223545
0.600519 0.297856 0.237736
0.733059 0.326177 0.259831
0.196811 0.322240 0.199619
0.214115 0.323857 0.200412
0.266575 0.328496 0.200992
0.350958 0.336431 0.207340
0.427771 0.341161 0.224826
0.513481 0.353033 0.237064
0.615259 0.371008 0.251682
0.746487 0.402350 0.275486
0.226841 0.413153 0.210575
0.240726 0.414740 0.210544
0.286809 0.418952 0.210300
0.363775 0.425910 0.216068
0.454658 0.434333 0.223789
0.540703 0.436286 0.234379
0.633906 0.456580 0.270298
0.763607 0.493599 0.299077
0.260105 0.510765 0.224155
0.272129 0.511986 0.223880
0.314366 0.514855 0.223941
0.384436 0.519341 0.229618
0.469398 0.526360 0.238132
0.564904 0.537469 0.250828
0.668940 0.552972 0.265629
0.792996 0.593439 0.319310
0.307866 0.625666 0.248020
0.318059 0.626184 0.247227
0.357488 0.627955 0.248539
0.423621 0.632868 0.254643
0.506218 0.640558 0.264469
0.600610 0.652369 0.279210
0.703243 0.668605 0.299321
0.823117 0.700191 0.328801
0.382513 0.773739 0.293156
0.391333 0.773953 0.292302
0.430426 0.776669 0.296544
0.496803 0.785733 0.307012
0.577905 0.794308 0.319585
0.670832 0.806302 0.336797
0.771420 0.822110 0.359930
0.874907 0.840848 0.390631
0.148196 0.129000 0.222232
0.171481 0.135286 0.225437
0.231693 0.145998 0.234104
0.315679 0.158511 0.245426
0.396277 0.185550 0.249912
0.489174 0.208499 0.261387
0.594720 0.229252 0.275883
0.727871 0.246311 0.295140
0.161807 0.160494 0.231174
0.180850 0.162509 0.233280
0.237736 0.169009 0.239384
0.320653 0.179202 0.248783
0.399939 0.204898 0.252293
0.491035 0.225223 0.262791
0.595300 0.244480 0.276890
0.728511 0.261112 0.295567
0.176608 0.227085 0.242466
0.194003 0.228305 0.244297
0.248508 0.231479 0.249332
0.333196 0.240055 0.256443
0.411322 0.262364 0.260319
0.502739 0.279088 0.271366
0.608362 0.297520 0.286015
0.740169 0.316686 0.304509
0.203922 0.320775 0.258335
0.219852 0.322332 0.259556
0.270176 0.326635 0.262730
0.349248 0.330297 0.265202
0.426581 0.340978 0.273472
0.515312 0.352880 0.282872
0.617792 0.370123 0.296666
0.751064 0.396887 0.318456
0.233646 0.415412 0.268376
0.246860 0.416144 0.268559
0.290166 0.419654 0.268894
0.360937 0.425605 0.269139
0.457130 0.433478 0.276219
0.540459 0.438819 0.296239
0.638392 0.459632 0.317082
0.769131 0.491890 0.340612
0.266300 0.513695 0.280186
0.279240 0.516564 0.281163
0.317906 0.518639 0.280064
0.382788 0.523033 0.279698
0.472145 0.529564 0.287785
0.569085 0.538903 0.299107
0.673732 0.553063 0.311833
0.796017 0.594263 0.364874
0.312200 0.626459 0.301274
0.322850 0.627802 0.301366
0.358312 0.631739 0.300816
0.420417 0.637842 0.301579
0.507073 0.645411 0.310857
0.603510 0.655940 0.323430
0.706691 0.670283 0.340002
0.828824 0.700984 0.364477
0.387396 0.776852 0.347021
0.396521 0.778164 0.346746
0.425727 0.781552 0.343633
0.482979 0.787839 0.343236
0.568261 0.796078 0.354162
0.665522 0.807797 0.370092
0.770382 0.823606 0.392920
0.877653 0.842954 0.423774
0.167391 0.137484 0.278904
0.184512 0.140444 0.281529
0.236088 0.147402 0.288426
0.311192 0.157961 0.298680
0.404089 0.171084 0.312383
0.497078 0.197299 0.321080
0.601587 0.220066 0.335332
0.735866 0.237247 0.359503
0.173953 0.160952 0.286046
0.190616 0.162509 0.288212
0.240970 0.167849 0.293553
0.315129 0.176669 0.302159
0.407752 0.188724 0.314824
0.500023 0.213962 0.322972
0.603876 0.235935 0.336736
0.737514 0.252476 0.360235
0.183444 0.220523 0.298436
0.198489 0.220981 0.300542
0.249668 0.224674 0.304356
0.325994 0.232334 0.311986
0.418341 0.242039 0.321904
0.507012 0.265507 0.327062
0.609216 0.284977 0.340459
0.741176 0.300328 0.361944
0.206699 0.307836 0.312413
0.220706 0.308782 0.313848
0.265599 0.311009 0.318456
0.338872 0.313939 0.324712
0.435248 0.322698 0.332677
0.521050 0.343877 0.336889
0.621180 0.360937 0.349859
0.752956 0.373602 0.367590
0.238590 0.410803 0.331487
0.251591 0.412116 0.332555
0.293828 0.415686 0.335485
0.362219 0.420539 0.339483
0.451453 0.423072 0.341344
0.535454 0.435065 0.351537
0.637354 0.450385 0.364538
0.770596 0.471931 0.383185
0.271031 0.510338 0.343511
0.282383 0.511162 0.343877
0.319554 0.513054 0.344030
0.380957 0.516869 0.344579
0.462043 0.521477 0.344945
0.566155 0.532799 0.356329
0.670039 0.550195 0.381262
0.797848 0.585168 0.411383
0.316655 0.625116 0.365911
0.326452 0.625635 0.365759
0.360418 0.628412 0.365789
0.416968 0.634363 0.365576
0.491371 0.642969 0.362066
0.595880 0.653712 0.372747
0.705715 0.667323 0.386999
0.831846 0.694636 0.407660
0.386664 0.772793 0.410986
0.395056 0.773526 0.410620
0.422980 0.776699 0.408423
0.471046 0.787137 0.404395
0.541863 0.796353 0.397009
0.650019 0.807340 0.412573
0.763302 0.822385 0.434699
0.876921 0.841184 0.464515
0.187045 0.142824 0.349187
0.202487 0.144411 0.351202
0.249577 0.149416 0.356634
0.320684 0.157015 0.366888
0.408209 0.166781 0.379370
0.506859 0.177859 0.392950
0.612177 0.204318 0.407294
0.747951 0.222995 0.437781
0.190158 0.162692 0.353338
0.204929 0.163729 0.354772
0.251743 0.167605 0.359838
0.322484 0.174563 0.368994
0.409613 0.183413 0.380591
0.508232 0.193820 0.393866
0.613184 0.219760 0.407752
0.748623 0.238315 0.437873
0.192386 0.217014 0.367864
0.208164 0.217899 0.368963
0.257420 0.221103 0.373083
0.330266 0.226810 0.380194
0.418372 0.234257 0.389502
0.517754 0.243931 0.400732
0.621118 0.269596 0.412665
0.755062 0.288151 0.441077
0.208743 0.303166 0.382544
0.221469 0.302770 0.383520
0.262608 0.300908 0.388037
0.337469 0.303624 0.395483
0.431525 0.311406 0.403571
0.534173 0.321630 0.412634
0.635920 0.347173 0.422309
0.767788 0.362982 0.447578
0.237339 0.402045 0.397589
0.249149 0.402564 0.398657
0.288487 0.403906 0.402106
0.352087 0.404578 0.407172
0.438575 0.404181 0.412299
0.546380 0.414923 0.420356
0.647395 0.436316 0.429664
0.779507 0.446876 0.449531
0.276371 0.508812 0.416022
0.287877 0.510399 0.417365
0.324987 0.513146 0.419928
0.386145 0.517205 0.423651
0.465919 0.521202 0.427405
0.563897 0.525719 0.431617
0.669459 0.541741 0.446784
0.803128 0.563500 0.467475
0.323674 0.627680 0.443275
0.334020 0.629175 0.444251
0.367864 0.631952 0.445655
0.422126 0.637110 0.447517
0.491035 0.644617 0.447150
0.582849 0.653590 0.443397
0.708064 0.666560 0.457801
0.835966 0.693446 0.494301
0.388647 0.774044 0.491279
0.396399 0.774716 0.491035
0.423011 0.777707 0.490150
0.467506 0.785367 0.488197
0.531334 0.795438 0.482063
0.622827 0.807858 0.474830
0.753017 0.822782 0.497322
0.878050 0.841184 0.526574
0.207919 0.143923 0.437293
0.222507 0.145022 0.439246
0.268101 0.148104 0.443977
0.337011 0.153017 0.452125
0.421088 0.159457 0.462623
0.516564 0.166995 0.475349
0.621118 0.176852 0.490303
0.755825 0.196811 0.526574
0.207584 0.162112 0.439368
0.222202 0.162783 0.441108
0.267735 0.165408 0.445411
0.336492 0.169650 0.452735
0.420539 0.175387 0.462531
0.515618 0.182345 0.474678
0.619654 0.191623 0.488869
0.753079 0.210849 0.523735
0.202548 0.213077 0.451637
0.218143 0.213748 0.452552
0.266514 0.215640 0.455787
0.338109 0.219333 0.462074
0.424384 0.223941 0.470588
0.521752 0.230594 0.481910
0.628595 0.240513 0.496529
0.762753 0.262791 0.530724
0.199039 0.293675 0.466835
0.210910 0.291325 0.467506
0.254734 0.286503 0.470497
0.335058 0.290135 0.476295
0.428321 0.295201 0.484016
0.531701 0.302770 0.494911
0.643061 0.314214 0.508873
0.775692 0.338293 0.539391
0.227054 0.397498 0.481666
0.238010 0.396582 0.482094
0.274235 0.393042 0.484596
0.331792 0.384741 0.489570
0.423865 0.381415 0.496284
0.537530 0.390784 0.506157
0.655573 0.403540 0.519310
0.789639 0.425513 0.546441
0.266484 0.509422 0.502892
0.276738 0.509606 0.503716
0.311376 0.510002 0.506462
0.368017 0.509697 0.511223
0.444495 0.506706 0.516808
0.546227 0.502342 0.525353
0.678309 0.514488 0.539361
0.810239 0.537530 0.559045
0.320775 0.630091 0.531853
0.330877 0.631189 0.532952
0.363806 0.633570 0.535485
0.416205 0.637842 0.540032
0.484993 0.642756 0.545312
0.577905 0.649042 0.552300
0.701259 0.655848 0.560021
0.834531 0.678614 0.584497
0.384039 0.772091 0.581384
0.391760 0.773129 0.581964
0.418830 0.778836 0.585626
0.463081 0.786252 0.588586
0.528008 0.795895 0.590936
0.616327 0.807950 0.591974
0.732784 0.821714 0.591485
0.877653 0.839902 0.619806
0.227787 0.137850 0.565850
0.243076 0.137942 0.567529
0.290257 0.138491 0.571191
0.362036 0.138949 0.579217
0.449531 0.139071 0.590143
0.548180 0.139010 0.603693
0.656245 0.141604 0.620569
0.770169 0.152987 0.639063
0.224033 0.155581 0.567407
0.239384 0.155886 0.569055
0.287694 0.155917 0.572808
0.360082 0.156558 0.580133
0.448157 0.156802 0.590814
0.547387 0.156741 0.604028
0.655512 0.159518 0.620172
0.769680 0.170077 0.638453
0.205356 0.205051 0.576013
0.222599 0.205264 0.577111
0.275731 0.205417 0.579919
0.353399 0.206302 0.588464
0.445319 0.206882 0.597833
0.547204 0.207797 0.609644
0.657801 0.211917 0.625269
0.774289 0.223117 0.643580
0.144137 0.272129 0.589990
0.171023 0.272404 0.591241
0.242100 0.272648 0.594110
0.333684 0.273869 0.600641
0.436103 0.275761 0.609857
0.546075 0.278660 0.621454
0.662867 0.285008 0.636500
0.784421 0.298558 0.654658
0.171450 0.393591 0.608240
0.184512 0.390997 0.609430
0.223941 0.379797 0.611353
0.282170 0.353948 0.614984
0.410163 0.357092 0.623041
0.537072 0.362890 0.634180
0.666346 0.373663 0.649622
0.797940 0.388373 0.670100
0.222354 0.519829 0.633234
0.233005 0.518364 0.633265
0.267399 0.512810 0.634424
0.321996 0.501335 0.637324
0.397009 0.480995 0.642329
0.520684 0.470466 0.654047
0.671687 0.482826 0.673121
0.819699 0.501732 0.696162
0.291661 0.652949 0.667292
0.300694 0.652491 0.667597
0.330846 0.651026 0.668940
0.380468 0.648524 0.672755
0.447852 0.643091 0.678645
0.539483 0.633204 0.687129
0.674464 0.625971 0.701259
0.840085 0.646906 0.722591
0.370275 0.791562 0.711574
0.377203 0.791836 0.711971
0.401801 0.793423 0.714076
0.446693 0.797177 0.718807
0.512902 0.802365 0.725673
0.602930 0.809171 0.734768
0.721035 0.818296 0.746914
0.867369 0.830320 0.762417
