其他预设/【232】美食博客调色预设124款/1.3D LUT预设（视频调色-PR-AE-PS-FCPX-达芬奇用）/Food Art #13 ().cube
# Created by Adobe Lightroom plugin Export LUT (1.17.0)
# www.johnrellis.com/lightroom/exportlut.htm
# Preset: Food Art #13 (素锦印象)
# Color profile: /Library/Application Support/Adobe/Color/Profiles/Recommended/AdobeRGB1998.icc
LUT_3D_SIZE 5
DOMAIN_MIN 0.000000 0.000000 0.000000
DOMAIN_MAX 0.903226 0.903226 0.903226
0.000000 0.000000 0.000000
0.482673 0.000000 0.000000
0.813352 0.000000 0.000000
0.952483 0.056031 0.000000
1.000000 0.164675 0.134859
0.000000 0.462989 0.000000
0.467231 0.450935 0.000000
0.798123 0.379828 0.000000
0.939788 0.315496 0.000000
1.000000 0.293462 0.150179
0.152193 0.754788 0.000000
0.402594 0.745113 0.000000
0.728573 0.703487 0.000000
0.901793 0.594263 0.100069
0.987274 0.516808 0.217075
0.271763 0.874662 0.172274
0.384894 0.869108 0.175692
0.617578 0.853910 0.192355
0.865324 0.838590 0.232975
0.971740 0.738796 0.318364
0.404608 0.947448 0.362097
0.455512 0.945983 0.366827
0.598932 0.942718 0.390570
0.773587 0.937377 0.415137
0.961608 0.935210 0.459480
0.000000 0.000000 0.432258
0.489418 0.000000 0.416449
0.800046 0.169131 0.352728
0.929015 0.292546 0.358801
0.995483 0.341650 0.379004
0.000000 0.464271 0.402167
0.472572 0.450233 0.381964
0.779721 0.417914 0.360540
0.918395 0.402197 0.362219
0.989258 0.407507 0.385412
0.212131 0.749874 0.329717
0.441505 0.736446 0.353918
0.732692 0.707759 0.346410
0.891203 0.621759 0.377020
0.973297 0.568109 0.409247
0.367376 0.866728 0.380774
0.453864 0.861784 0.388800
0.644007 0.851438 0.395758
0.867643 0.842924 0.416846
0.966949 0.758907 0.460182
0.480232 0.945251 0.480323
0.520073 0.944396 0.484474
0.634943 0.941619 0.495949
0.791897 0.939391 0.519890
0.963470 0.939818 0.558465
0.000000 0.000000 0.739315
0.417914 0.000000 0.721920
0.763699 0.191440 0.663752
0.893736 0.396521 0.593744
0.953399 0.552453 0.636316
0.227665 0.421210 0.703517
0.452827 0.431830 0.691554
0.744686 0.442145 0.651698
0.877317 0.521294 0.620264
0.948638 0.605921 0.658198
0.290623 0.726345 0.648798
0.473976 0.717189 0.645106
0.721248 0.701472 0.644221
0.864530 0.687129 0.650721
0.949920 0.682795 0.663478
0.443854 0.862119 0.595514
0.552331 0.857450 0.625666
0.711543 0.852903 0.659571
0.874723 0.856413 0.674586
0.959442 0.816281 0.698482
0.601312 0.947478 0.663539
0.661463 0.946807 0.695552
0.734249 0.947265 0.707851
0.845182 0.950256 0.727596
0.971038 0.955230 0.756435
0.182101 0.158938 0.873198
0.376165 0.196109 0.862333
0.664027 0.293614 0.834989
0.873472 0.420356 0.783017
0.947326 0.575494 0.750179
0.353002 0.433936 0.845121
0.457191 0.441871 0.838834
0.678645 0.469642 0.822416
0.867735 0.539605 0.787350
0.945647 0.643793 0.772427
0.441352 0.666407 0.817441
0.547295 0.681605 0.814237
0.724575 0.711604 0.813809
0.867552 0.734981 0.811551
0.948730 0.781186 0.828092
0.527581 0.870359 0.804776
0.609216 0.869169 0.810330
0.763088 0.869047 0.826993
0.889464 0.879057 0.850156
0.961730 0.879515 0.866606
0.661433 0.957366 0.796262
0.710353 0.957519 0.813107
0.820493 0.959716 0.857053
0.901518 0.964965 0.884733
0.979950 0.972595 0.905638
0.278874 0.267338 0.937316
0.386664 0.297581 0.931426
0.601129 0.380652 0.916411
0.811307 0.482490 0.908812
0.946685 0.608850 0.879210
0.415534 0.458350 0.918853
0.478859 0.470130 0.915648
0.638972 0.510430 0.908629
0.823362 0.579248 0.909819
0.948089 0.669612 0.888182
0.551843 0.666835 0.904906
0.615717 0.690089 0.905394
0.733791 0.727291 0.910735
0.858549 0.757931 0.922515
0.956298 0.802701 0.915892
0.621515 0.829191 0.916838
0.673884 0.839231 0.920317
0.794675 0.866972 0.931426
0.905730 0.901488 0.947570
0.972045 0.923735 0.953643
0.727749 0.979187 0.935424
0.764767 0.978546 0.939269
0.857511 0.977722 0.951232
0.942931 0.979950 0.967651
0.987610 0.986145 0.982147
