其他预设/【232】美食博客调色预设124款/1.3D LUT预设（视频调色-PR-AE-PS-FCPX-达芬奇用）/Food Art #56.cube
# Created by Adobe Lightroom plugin Export LUT (1.17.0)
# www.johnrellis.com/lightroom/exportlut.htm
# Preset: Food Art #56
# Color profile: /Library/Application Support/Adobe/Color/Profiles/Recommended/AdobeRGB1998.icc
LUT_3D_SIZE 5
DOMAIN_MIN 0.000000 0.000000 0.000000
DOMAIN_MAX 0.903226 0.903226 0.903226
0.000000 0.000000 0.000000
0.164492 0.070192 0.079316
0.382086 0.130983 0.161044
0.650660 0.188022 0.269108
0.905577 0.264591 0.386419
0.000000 0.215305 0.118532
0.174228 0.228733 0.145754
0.387366 0.252842 0.207553
0.654261 0.289830 0.297826
0.909880 0.345892 0.404669
0.000000 0.445014 0.266606
0.190524 0.450111 0.279850
0.428687 0.472877 0.325719
0.676020 0.490974 0.372869
0.910155 0.523796 0.444953
0.150027 0.689052 0.393194
0.262303 0.691707 0.399268
0.475685 0.697566 0.418006
0.706050 0.705013 0.445167
0.919921 0.725368 0.492500
0.390509 0.908202 0.491859
0.442939 0.908019 0.494820
0.582330 0.904967 0.503593
0.765377 0.909117 0.526665
0.937346 0.917601 0.564233
0.000000 0.000000 0.258701
0.130495 0.076265 0.282414
0.368139 0.145388 0.328771
0.635615 0.192447 0.382147
0.896208 0.265568 0.445655
0.000000 0.214511 0.300603
0.139651 0.228061 0.314977
0.376074 0.256901 0.348913
0.641291 0.288975 0.395514
0.898314 0.343633 0.454932
0.000000 0.442664 0.374365
0.172946 0.447730 0.382269
0.412177 0.463172 0.405158
0.663844 0.485481 0.433753
0.906218 0.524346 0.481666
0.149294 0.686946 0.446479
0.263401 0.689693 0.450721
0.476387 0.695155 0.462043
0.704738 0.702541 0.479530
0.918578 0.726375 0.517388
0.409705 0.906096 0.515984
0.458930 0.905943 0.518547
0.598840 0.907164 0.529076
0.772793 0.909941 0.549462
0.939452 0.918517 0.585412
0.000000 0.057374 0.486824
0.000000 0.090089 0.492683
0.360174 0.151369 0.506340
0.638697 0.191836 0.527062
0.897856 0.265019 0.544579
0.000000 0.223545 0.498726
0.078431 0.233188 0.502159
0.375189 0.260166 0.513420
0.645106 0.284947 0.529015
0.900359 0.343145 0.547204
0.000000 0.444739 0.518425
0.166110 0.449317 0.520562
0.415595 0.463020 0.527489
0.669398 0.482246 0.537285
0.906920 0.526574 0.558373
0.177371 0.682033 0.539117
0.276982 0.682338 0.539727
0.486702 0.689021 0.545647
0.709743 0.699397 0.555901
0.918242 0.728023 0.582635
0.426459 0.901091 0.575860
0.480079 0.901549 0.580163
0.615991 0.902892 0.591363
0.779416 0.906126 0.608423
0.939483 0.915709 0.639033
0.000000 0.089052 0.621210
0.149325 0.107332 0.623407
0.408576 0.149813 0.630915
0.657343 0.194705 0.639826
0.905364 0.274022 0.657710
0.000000 0.232853 0.625818
0.160769 0.239841 0.627649
0.415351 0.259068 0.633265
0.661524 0.285374 0.640955
0.904906 0.345495 0.658045
0.000000 0.452522 0.634852
0.208652 0.454078 0.636255
0.438148 0.459785 0.640558
0.679438 0.476051 0.646937
0.910307 0.516960 0.664179
0.239597 0.679774 0.651514
0.318730 0.680232 0.651881
0.503807 0.684718 0.655451
0.717037 0.694240 0.663416
0.921538 0.719112 0.682490
0.455970 0.897765 0.685267
0.501305 0.897826 0.687434
0.624659 0.899901 0.694392
0.780575 0.904723 0.704982
0.940917 0.914946 0.729854
0.015381 0.111757 0.817624
0.222202 0.124208 0.818662
0.452125 0.157870 0.822477
0.687404 0.209628 0.828580
0.908232 0.292393 0.837064
0.000000 0.239628 0.819425
0.218875 0.245121 0.820371
0.453193 0.262547 0.823819
0.689174 0.295628 0.829313
0.908873 0.360357 0.837858
0.082185 0.453468 0.825528
0.221866 0.449989 0.825925
0.460029 0.458137 0.828397
0.697780 0.479988 0.833280
0.912779 0.522789 0.842771
0.308324 0.687526 0.838376
0.369116 0.687495 0.838437
0.522698 0.686152 0.839445
0.720577 0.689662 0.843076
0.922026 0.717830 0.855924
0.498573 0.898131 0.860380
0.533440 0.898283 0.860899
0.638209 0.899870 0.863798
0.781521 0.903838 0.869902
0.938537 0.915282 0.883970
