其他预设/【232】美食博客调色预设124款/1.3D LUT预设（视频调色-PR-AE-PS-FCPX-达芬奇用）/Food Art #55.cube
# Created by Adobe Lightroom plugin Export LUT (1.17.0)
# www.johnrellis.com/lightroom/exportlut.htm
# Preset: Food Art #55
# Color profile: /Library/Application Support/Adobe/Color/Profiles/Recommended/AdobeRGB1998.icc
LUT_3D_SIZE 8
DOMAIN_MIN 0.000000 0.000000 0.000000
DOMAIN_MAX 0.903226 0.903226 0.903226
0.186984 0.153933 0.111208
0.211337 0.156832 0.113619
0.299809 0.156985 0.114565
0.437934 0.154726 0.113771
0.591211 0.165133 0.120821
0.750912 0.200351 0.146304
0.883726 0.260472 0.196963
0.982116 0.345708 0.278111
0.194064 0.179995 0.114382
0.217533 0.182162 0.115114
0.302525 0.187778 0.114778
0.435248 0.193790 0.114626
0.585962 0.207828 0.123232
0.742214 0.237736 0.147555
0.875303 0.286778 0.196414
0.977661 0.363073 0.277531
0.207858 0.275578 0.114229
0.238346 0.277043 0.114809
0.325353 0.282597 0.117281
0.451362 0.296757 0.121981
0.599939 0.317540 0.134646
0.751919 0.345312 0.163699
0.885374 0.384924 0.220615
0.981659 0.442481 0.306249
0.243046 0.417273 0.123384
0.273869 0.417334 0.124819
0.360998 0.421302 0.130465
0.490791 0.443977 0.144808
0.637476 0.468666 0.164431
0.770199 0.483742 0.197696
0.886961 0.504784 0.254398
0.977844 0.541985 0.341436
0.298589 0.584039 0.155428
0.326055 0.584314 0.157076
0.408270 0.588006 0.164706
0.523217 0.598199 0.180484
0.648096 0.607111 0.202304
0.771023 0.614984 0.236271
0.882231 0.626368 0.295842
0.972076 0.651911 0.390906
0.367376 0.733150 0.218997
0.392493 0.738369 0.224826
0.459419 0.738735 0.233005
0.556085 0.740780 0.248478
0.665583 0.743160 0.271153
0.780087 0.748775 0.303899
0.886015 0.753567 0.364355
0.968597 0.765438 0.463783
0.465553 0.857694 0.330205
0.481453 0.858427 0.333837
0.528405 0.856718 0.340856
0.602869 0.855955 0.356878
0.691279 0.854795 0.380072
0.787045 0.856077 0.415473
0.881529 0.859312 0.459724
0.962615 0.862852 0.534905
0.599390 0.947234 0.492073
0.607996 0.946899 0.493935
0.638544 0.946319 0.502708
0.690578 0.946349 0.521813
0.746365 0.941344 0.532586
0.819272 0.942107 0.566979
0.892851 0.944488 0.609827
0.960082 0.946899 0.652766
0.191257 0.155856 0.128603
0.212436 0.156771 0.130068
0.295995 0.157076 0.137667
0.429267 0.158968 0.146395
0.580011 0.172274 0.159518
0.734737 0.204593 0.182925
0.869261 0.261906 0.225132
0.973053 0.346532 0.297032
0.195926 0.179263 0.131502
0.219699 0.182071 0.133913
0.302190 0.187808 0.139742
0.431525 0.196323 0.147860
0.579736 0.211978 0.161318
0.731685 0.240726 0.184451
0.863401 0.288060 0.224735
0.968475 0.362554 0.295689
0.211582 0.271031 0.141421
0.241489 0.273442 0.143282
0.324071 0.279606 0.147951
0.446296 0.294682 0.156313
0.591180 0.315251 0.170932
0.738064 0.341375 0.196292
0.868528 0.378393 0.241917
0.971313 0.437751 0.319280
0.246891 0.409155 0.157198
0.276585 0.410315 0.159274
0.360906 0.416663 0.164981
0.478157 0.430091 0.176272
0.614649 0.450385 0.192416
0.747921 0.468635 0.219760
0.869841 0.493507 0.268833
0.968170 0.535271 0.350164
0.301732 0.578393 0.189944
0.327947 0.577813 0.191104
0.406561 0.579583 0.197024
0.515190 0.585473 0.208560
0.635126 0.592798 0.226200
0.759152 0.604395 0.256840
0.873442 0.619898 0.312383
0.965972 0.648157 0.401862
0.368292 0.725154 0.244602
0.389502 0.725582 0.246769
0.454932 0.726680 0.254093
0.551019 0.730709 0.269169
0.660670 0.735836 0.291844
0.776150 0.744350 0.324681
0.881621 0.750240 0.381598
0.964355 0.762570 0.473396
0.463233 0.849485 0.343359
0.476600 0.848325 0.344182
0.524041 0.847837 0.351873
0.599908 0.849149 0.369604
0.689265 0.849943 0.394293
0.783688 0.851316 0.426734
0.876493 0.853788 0.466011
0.957763 0.857664 0.536431
0.598413 0.943389 0.499367
0.607965 0.943511 0.502464
0.638727 0.943267 0.511650
0.690700 0.943664 0.530724
0.753689 0.943175 0.553979
0.822171 0.942535 0.581994
0.892393 0.943328 0.617487
0.958404 0.945129 0.656458
0.202243 0.156252 0.195010
0.227634 0.155886 0.197024
0.305547 0.157046 0.204318
0.435523 0.160464 0.225467
0.584100 0.175448 0.246983
0.739376 0.218387 0.277531
0.870878 0.289128 0.319585
0.971496 0.383948 0.384375
0.206088 0.184756 0.199435
0.232456 0.185489 0.201450
0.311131 0.189120 0.208072
0.437232 0.197940 0.226719
0.584680 0.214633 0.248142
0.736049 0.252171 0.277684
0.866850 0.312505 0.318700
0.969085 0.399664 0.384710
0.222751 0.272496 0.212406
0.251164 0.274846 0.214939
0.337224 0.286473 0.226658
0.453834 0.297246 0.238132
0.600275 0.320806 0.260929
0.742275 0.350530 0.289036
0.867918 0.394598 0.331182
0.967407 0.462623 0.399481
0.257328 0.409491 0.239628
0.285801 0.411536 0.241764
0.369970 0.421180 0.250065
0.485359 0.434119 0.262730
0.621118 0.455268 0.282597
0.752041 0.476509 0.310918
0.871092 0.507500 0.356420
0.965698 0.557092 0.429786
0.308476 0.575158 0.276585
0.334997 0.576318 0.278813
0.413581 0.580255 0.285405
0.521233 0.588128 0.297185
0.640467 0.596796 0.313176
0.760647 0.608240 0.341436
0.871611 0.627314 0.391485
0.962188 0.661494 0.471107
0.375952 0.722774 0.322515
0.399023 0.723018 0.326513
0.465248 0.723323 0.336156
0.555871 0.725978 0.347875
0.660883 0.730709 0.366369
0.772152 0.739345 0.394842
0.876219 0.749416 0.447120
0.960784 0.769284 0.530541
0.479133 0.848600 0.409827
0.496468 0.847410 0.415106
0.542992 0.845518 0.424445
0.611658 0.845487 0.437079
0.695277 0.846189 0.456367
0.786221 0.849149 0.485115
0.877165 0.854612 0.522789
0.957305 0.862577 0.589014
0.613489 0.940856 0.545159
0.623713 0.939849 0.549187
0.651209 0.939300 0.555596
0.702083 0.940917 0.574884
0.760800 0.940612 0.594079
0.826688 0.941039 0.619318
0.894438 0.942870 0.651453
0.958648 0.945769 0.686915
0.219303 0.153567 0.310399
0.247868 0.153079 0.313420
0.329870 0.153475 0.319188
0.441627 0.161379 0.329320
0.586694 0.177127 0.358923
0.734371 0.218692 0.387671
0.861997 0.295903 0.420783
0.961486 0.411536 0.479835
0.222080 0.187991 0.316533
0.251438 0.188540 0.318456
0.334539 0.191226 0.323369
0.446021 0.199222 0.333165
0.590143 0.217166 0.362097
0.733639 0.254643 0.388922
0.859892 0.323613 0.422889
0.959747 0.432136 0.484474
0.238315 0.283787 0.326726
0.266117 0.284855 0.328405
0.348180 0.288914 0.334997
0.461189 0.298985 0.346899
0.603418 0.322026 0.374975
0.743191 0.359686 0.404852
0.866758 0.425147 0.450782
0.961242 0.501640 0.507439
0.271031 0.412818 0.349584
0.297551 0.414710 0.351843
0.378058 0.422644 0.360723
0.497963 0.442786 0.382269
0.622583 0.456764 0.397101
0.747951 0.483253 0.424323
0.864134 0.524468 0.466651
0.958556 0.582696 0.527764
0.319341 0.575097 0.391608
0.343816 0.574975 0.392340
0.419318 0.578729 0.397833
0.530327 0.590692 0.414679
0.645502 0.600397 0.429999
0.761135 0.615381 0.456886
0.868284 0.640742 0.499428
0.956451 0.679133 0.560998
0.387274 0.724056 0.430732
0.412177 0.727596 0.436622
0.479103 0.726375 0.444770
0.574731 0.728420 0.464057
0.672053 0.733577 0.479103
0.774166 0.741024 0.499825
0.872862 0.753933 0.541070
0.955627 0.777951 0.606165
0.486885 0.846311 0.492195
0.505241 0.846250 0.497414
0.560510 0.845426 0.513512
0.634485 0.845457 0.534874
0.710536 0.846952 0.549981
0.793332 0.849760 0.570642
0.876860 0.854612 0.597498
0.953887 0.865171 0.650813
0.622461 0.940795 0.601556
0.634058 0.940490 0.606500
0.668971 0.938811 0.620386
0.716854 0.937957 0.636866
0.770596 0.938109 0.651392
0.832029 0.939178 0.671443
0.896391 0.941924 0.697780
0.958221 0.946044 0.727810
0.239078 0.150881 0.459297
0.268315 0.150637 0.461189
0.352117 0.151919 0.464607
0.464210 0.160616 0.472724
0.592889 0.180636 0.489387
0.732692 0.222965 0.514427
0.858274 0.300694 0.537407
0.957702 0.416938 0.575036
0.241032 0.190524 0.462440
0.271550 0.191348 0.465034
0.355688 0.193851 0.468849
0.466682 0.201480 0.475013
0.595056 0.220157 0.491646
0.733883 0.259190 0.516564
0.858274 0.330327 0.540276
0.956695 0.438666 0.579095
0.254002 0.293248 0.471687
0.282811 0.293858 0.473152
0.365454 0.297093 0.476326
0.478340 0.306706 0.486885
0.602045 0.321874 0.499214
0.734249 0.354894 0.520562
0.855741 0.414984 0.548516
0.952361 0.500847 0.590234
0.285130 0.425055 0.490059
0.311559 0.426001 0.491127
0.390600 0.431128 0.497078
0.501091 0.442390 0.508324
0.620752 0.456336 0.519799
0.743404 0.486213 0.539818
0.856596 0.531579 0.570794
0.949645 0.593683 0.615442
0.328832 0.569421 0.514977
0.352453 0.570672 0.516503
0.424811 0.574395 0.520806
0.530205 0.584070 0.531792
0.647822 0.601801 0.550988
0.754574 0.615137 0.565057
0.858793 0.643519 0.595270
0.948028 0.685664 0.640833
0.390082 0.712184 0.542229
0.410590 0.712367 0.543420
0.474006 0.711879 0.546838
0.567468 0.714900 0.558068
0.667964 0.722957 0.575128
0.768856 0.735348 0.595239
0.866575 0.754177 0.629603
0.949401 0.781338 0.676967
0.492653 0.840635 0.588190
0.508263 0.839780 0.590051
0.558923 0.838346 0.598077
0.633173 0.838437 0.613458
0.713802 0.840848 0.631922
0.792966 0.845121 0.647944
0.872648 0.850797 0.667597
0.948547 0.863615 0.708400
0.620478 0.935607 0.662013
0.630610 0.935027 0.664576
0.663661 0.933501 0.673487
0.718441 0.934569 0.693172
0.774166 0.934417 0.708492
0.832822 0.936004 0.723507
0.895018 0.939300 0.743832
0.955657 0.943999 0.767514
0.256535 0.150790 0.627039
0.286412 0.151308 0.627680
0.369787 0.155306 0.628016
0.482643 0.167727 0.634333
0.606531 0.193149 0.642756
0.731991 0.232059 0.651179
0.854704 0.310033 0.664576
0.953429 0.428199 0.683345
0.258579 0.194583 0.623682
0.287724 0.195346 0.624079
0.370825 0.198795 0.625818
0.482887 0.209781 0.632593
0.605524 0.231235 0.640314
0.730648 0.265202 0.649531
0.853269 0.336492 0.664363
0.951965 0.446967 0.684565
0.272496 0.303349 0.631952
0.300816 0.304387 0.632471
0.382971 0.309117 0.635187
0.493080 0.319188 0.640284
0.612665 0.336004 0.646357
0.734798 0.362371 0.654719
0.853483 0.423011 0.670405
0.949706 0.511528 0.693446
0.306859 0.438483 0.644892
0.332372 0.439094 0.644343
0.409918 0.444678 0.646509
0.517113 0.457923 0.654292
0.631830 0.474067 0.661646
0.746517 0.495491 0.669429
0.856779 0.540337 0.685267
0.947906 0.602625 0.710384
0.350713 0.574640 0.654536
0.373297 0.575830 0.655268
0.443671 0.580224 0.657496
0.544213 0.590784 0.662684
0.648951 0.603357 0.669886
0.753201 0.616907 0.678370
0.855558 0.647089 0.695918
0.943450 0.690944 0.725002
0.406928 0.710140 0.669703
0.427558 0.711818 0.671565
0.489784 0.713802 0.673945
0.576989 0.717830 0.678492
0.671656 0.724880 0.686244
0.773281 0.741451 0.704372
0.862760 0.757229 0.721462
0.944274 0.784634 0.751644
0.504936 0.838468 0.698390
0.521080 0.838895 0.700313
0.568658 0.838102 0.703731
0.637659 0.838102 0.710231
0.715328 0.839872 0.719783
0.796201 0.844877 0.734554
0.872068 0.851560 0.748165
0.946746 0.867033 0.777981
0.626886 0.933043 0.741238
0.636011 0.932494 0.742489
0.666590 0.931243 0.747127
0.714839 0.931090 0.756527
0.771847 0.931365 0.768185
0.832486 0.933288 0.782071
0.893858 0.937652 0.797879
0.953765 0.943114 0.816007
0.270542 0.161379 0.774929
0.298497 0.163424 0.775875
0.379217 0.171328 0.777066
0.487556 0.188388 0.779446
0.605951 0.218784 0.781491
0.726314 0.262699 0.784512
0.843900 0.319341 0.788754
0.944488 0.431647 0.792050
0.274205 0.204807 0.774075
0.301946 0.206485 0.774777
0.381476 0.212833 0.775937
0.488746 0.227573 0.777615
0.606348 0.253605 0.779812
0.725917 0.292088 0.782956
0.842374 0.343511 0.787137
0.942718 0.447883 0.791196
0.292393 0.313329 0.776852
0.318456 0.314824 0.777066
0.394659 0.320592 0.777676
0.498787 0.332769 0.779171
0.613428 0.352911 0.781186
0.730251 0.383917 0.784451
0.843839 0.426917 0.789364
0.941985 0.512810 0.796262
0.334081 0.446662 0.781155
0.357000 0.448127 0.780606
0.427100 0.454688 0.780545
0.522972 0.465553 0.782315
0.630457 0.482643 0.784543
0.740322 0.506798 0.788357
0.846677 0.536889 0.793881
0.940612 0.599603 0.803525
0.384619 0.579950 0.785550
0.404608 0.581292 0.785275
0.468116 0.587121 0.785061
0.557336 0.597742 0.785611
0.652461 0.609430 0.787900
0.751492 0.625025 0.792081
0.849088 0.645350 0.798093
0.938781 0.691310 0.812436
0.449866 0.710780 0.793545
0.466926 0.711788 0.793606
0.520104 0.715297 0.794034
0.595941 0.721187 0.795377
0.681819 0.729335 0.797757
0.771206 0.741421 0.802914
0.857359 0.754818 0.810239
0.939269 0.782956 0.826505
0.524102 0.830625 0.805509
0.537499 0.831052 0.805966
0.579583 0.831754 0.806851
0.641779 0.833555 0.808774
0.714961 0.836393 0.811795
0.792966 0.841917 0.817716
0.871611 0.853147 0.830137
0.943206 0.867155 0.845670
0.629267 0.929015 0.825101
0.638270 0.928862 0.825711
0.669001 0.928985 0.828763
0.714626 0.929015 0.832914
0.770413 0.929625 0.838926
0.830686 0.931945 0.847257
0.892454 0.936522 0.858701
0.952026 0.942809 0.871794
0.291264 0.193637 0.901183
0.316136 0.196902 0.901366
0.389197 0.208164 0.901183
0.490547 0.231418 0.901518
0.603357 0.268467 0.901823
0.718685 0.318853 0.902373
0.831022 0.382940 0.903349
0.934417 0.454475 0.904509
0.297520 0.231876 0.900481
0.321782 0.234623 0.900664
0.393713 0.244724 0.900603
0.493843 0.265293 0.900755
0.605646 0.298528 0.901152
0.720058 0.345006 0.901671
0.831357 0.404608 0.902525
0.933715 0.470985 0.903807
0.322332 0.333288 0.899718
0.344457 0.335637 0.899809
0.411749 0.343542 0.899504
0.508202 0.361212 0.900298
0.616236 0.387945 0.900511
0.726955 0.425879 0.900755
0.834318 0.474769 0.901793
0.933104 0.527398 0.903563
0.374823 0.463325 0.898894
0.393744 0.465614 0.899046
0.451972 0.472511 0.898924
0.538720 0.486793 0.899260
0.638300 0.508476 0.899687
0.740566 0.536278 0.900389
0.840085 0.570001 0.901884
0.932891 0.607599 0.904356
0.437232 0.593835 0.899779
0.454108 0.596307 0.899748
0.505364 0.603113 0.899016
0.578576 0.612848 0.898161
0.664485 0.626581 0.898772
0.755947 0.645014 0.899992
0.847044 0.668574 0.902342
0.933227 0.696315 0.906157
0.508476 0.718746 0.902251
0.520958 0.719844 0.901976
0.561456 0.723659 0.901335
0.622248 0.729580 0.900694
0.696254 0.738277 0.900359
0.776852 0.751064 0.902098
0.858366 0.767666 0.906188
0.936065 0.786526 0.911467
0.585473 0.831907 0.907683
0.594873 0.832395 0.907561
0.625757 0.834073 0.907317
0.674800 0.837217 0.907469
0.735927 0.841825 0.907988
0.802945 0.847929 0.909422
0.872618 0.857053 0.913268
0.940826 0.868528 0.919402
0.661372 0.927459 0.916655
0.668177 0.927459 0.916686
0.691402 0.927794 0.916991
0.729946 0.928679 0.917906
0.778653 0.930175 0.919493
0.833280 0.932616 0.922057
0.891905 0.936858 0.926665
0.951873 0.944915 0.935668
