其他预设/【232】美食博客调色预设124款/1.3D LUT预设（视频调色-PR-AE-PS-FCPX-达芬奇用）/Food Art #53.cube
# Created by Adobe Lightroom plugin Export LUT (1.17.0)
# www.johnrellis.com/lightroom/exportlut.htm
# Preset: Food Art #53
# Color profile: /Library/Application Support/Adobe/Color/Profiles/Recommended/AdobeRGB1998.icc
LUT_3D_SIZE 8
DOMAIN_MIN 0.000000 0.000000 0.000000
DOMAIN_MAX 0.903226 0.903226 0.903226
0.139162 0.126650 0.145602
0.208560 0.117311 0.147829
0.320806 0.128206 0.159945
0.443702 0.141939 0.185153
0.572503 0.158083 0.214603
0.707088 0.181796 0.247135
0.831540 0.217990 0.281773
0.942321 0.269780 0.322118
0.137514 0.200626 0.149630
0.209079 0.200748 0.154604
0.320653 0.192386 0.171359
0.442390 0.196506 0.193545
0.570397 0.207370 0.221073
0.703487 0.224857 0.250736
0.827756 0.253239 0.284031
0.939971 0.296727 0.323857
0.156130 0.320317 0.188235
0.207523 0.320745 0.190280
0.325811 0.322271 0.202670
0.446693 0.318364 0.220371
0.574914 0.323400 0.242222
0.706783 0.334386 0.267491
0.831846 0.352819 0.298924
0.941711 0.381994 0.337438
0.176333 0.453010 0.234409
0.215640 0.453468 0.232517
0.325933 0.456031 0.241062
0.458778 0.464179 0.256168
0.586450 0.464729 0.273625
0.713161 0.468574 0.293309
0.832029 0.476356 0.319951
0.939269 0.492988 0.356359
0.196811 0.595453 0.277501
0.229679 0.595972 0.274662
0.331548 0.597650 0.278874
0.457557 0.601831 0.289342
0.588312 0.605493 0.303166
0.712062 0.604639 0.320500
0.828946 0.606195 0.345190
0.935485 0.614771 0.381903
0.226719 0.726894 0.316991
0.256687 0.729061 0.316899
0.344579 0.729274 0.319341
0.459815 0.729854 0.327611
0.581872 0.730739 0.339757
0.705013 0.733211 0.355749
0.829618 0.740841 0.377783
0.932616 0.740291 0.416144
0.284916 0.846555 0.360845
0.310094 0.846799 0.362707
0.381720 0.845884 0.367803
0.479194 0.845426 0.375677
0.587610 0.844694 0.387213
0.699672 0.844999 0.403388
0.810178 0.846098 0.424445
0.926543 0.858946 0.455756
0.380987 0.944793 0.420661
0.402625 0.944121 0.426032
0.457893 0.943023 0.435828
0.532128 0.942443 0.445136
0.617151 0.939269 0.454810
0.712825 0.938537 0.473671
0.809232 0.938354 0.498543
0.900938 0.938170 0.526726
0.123293 0.124605 0.232395
0.204379 0.118074 0.235569
0.315892 0.149050 0.241855
0.439155 0.163516 0.261357
0.568261 0.172274 0.276066
0.700649 0.190799 0.296239
0.824979 0.224735 0.320562
0.937438 0.276738 0.352667
0.137240 0.198764 0.238376
0.207065 0.199893 0.241764
0.317266 0.202914 0.250919
0.439948 0.207828 0.263218
0.567956 0.216526 0.279454
0.699153 0.231388 0.298711
0.822416 0.258000 0.322057
0.935119 0.302281 0.353582
0.165103 0.317540 0.253300
0.215457 0.318151 0.262089
0.322850 0.320958 0.266880
0.443732 0.320775 0.277714
0.571283 0.325658 0.291600
0.701228 0.335393 0.309514
0.824247 0.353002 0.332372
0.936187 0.384222 0.364355
0.187747 0.449500 0.285435
0.226169 0.450263 0.288212
0.325383 0.454047 0.289799
0.452888 0.458900 0.299840
0.577874 0.459236 0.311864
0.704189 0.463966 0.326635
0.824094 0.473457 0.348608
0.934020 0.492958 0.380194
0.209567 0.593011 0.319860
0.239597 0.593194 0.317967
0.330449 0.594598 0.316106
0.454108 0.597162 0.323796
0.583032 0.600366 0.334630
0.707149 0.601007 0.349218
0.824735 0.604242 0.371008
0.932036 0.614557 0.403967
0.235843 0.723659 0.348455
0.262974 0.723995 0.347906
0.344488 0.724666 0.347601
0.458900 0.726009 0.355047
0.580529 0.727871 0.366217
0.703670 0.731441 0.381262
0.827420 0.739284 0.401404
0.930114 0.739528 0.435981
0.288426 0.842924 0.382361
0.311833 0.842344 0.383551
0.384924 0.841794 0.389960
0.481361 0.842252 0.397589
0.589014 0.842405 0.408698
0.699641 0.842741 0.423621
0.808591 0.843534 0.442725
0.924102 0.856657 0.471748
0.379828 0.943175 0.433112
0.401648 0.942748 0.438331
0.465766 0.941070 0.454322
0.538354 0.940703 0.463508
0.624842 0.939635 0.475990
0.717433 0.938293 0.492897
0.811032 0.937469 0.514794
0.900938 0.937163 0.540185
0.130465 0.117708 0.361730
0.197879 0.127077 0.363439
0.322057 0.147982 0.368994
0.439887 0.172427 0.372229
0.569085 0.193210 0.387671
0.701778 0.218021 0.405737
0.825284 0.247349 0.417182
0.935729 0.308202 0.438727
0.154269 0.196475 0.365332
0.207401 0.200198 0.366827
0.320928 0.206241 0.371405
0.439887 0.219211 0.376257
0.569146 0.233524 0.390906
0.700496 0.249332 0.405310
0.823484 0.276677 0.417304
0.934447 0.331060 0.439521
0.169955 0.320134 0.374395
0.218173 0.320195 0.375860
0.322637 0.321202 0.379889
0.444526 0.325689 0.387427
0.574090 0.331762 0.397375
0.703120 0.341711 0.408026
0.823575 0.365515 0.423468
0.933379 0.404334 0.446021
0.193454 0.450202 0.385412
0.233890 0.451392 0.388708
0.331579 0.454505 0.395880
0.452918 0.460029 0.400305
0.580011 0.462806 0.408545
0.705867 0.468849 0.419104
0.824338 0.482643 0.434760
0.932036 0.507897 0.458534
0.214664 0.591852 0.406134
0.250004 0.592340 0.408728
0.341009 0.594293 0.414374
0.455207 0.598322 0.415808
0.584070 0.601953 0.423499
0.707698 0.603418 0.433906
0.823636 0.609033 0.450538
0.929381 0.623713 0.476661
0.246708 0.722621 0.425666
0.277379 0.722683 0.428138
0.359136 0.722957 0.432532
0.465766 0.723873 0.436744
0.583642 0.725612 0.444709
0.703304 0.729274 0.456611
0.824735 0.738521 0.473365
0.927398 0.743862 0.503441
0.300999 0.842649 0.448005
0.325628 0.842130 0.450019
0.397772 0.840970 0.456123
0.499214 0.839750 0.469520
0.600458 0.839902 0.478248
0.706477 0.841001 0.491249
0.811887 0.843320 0.508659
0.923674 0.857725 0.534783
0.382147 0.942748 0.478248
0.401038 0.942077 0.480659
0.470954 0.939696 0.497353
0.565240 0.937560 0.524681
0.644038 0.936736 0.534905
0.730312 0.936156 0.548791
0.818418 0.936126 0.566705
0.904051 0.936736 0.587884
0.158968 0.128298 0.489967
0.210880 0.135195 0.491768
0.323949 0.150271 0.495491
0.451484 0.167361 0.500847
0.571283 0.193179 0.501488
0.700496 0.217899 0.513054
0.821469 0.256504 0.521111
0.932067 0.311009 0.528527
0.172488 0.198856 0.493935
0.217594 0.200687 0.495003
0.325109 0.206210 0.497719
0.451331 0.215335 0.502831
0.572107 0.233738 0.504234
0.700008 0.254093 0.514733
0.820523 0.287114 0.522210
0.931243 0.336187 0.529808
0.182193 0.317632 0.499245
0.224430 0.318761 0.500084
0.325322 0.320165 0.502922
0.451453 0.325933 0.508446
0.575341 0.337713 0.512749
0.703151 0.353613 0.523217
0.823606 0.380194 0.530938
0.930510 0.426062 0.542931
0.199680 0.456245 0.509789
0.238071 0.456184 0.510582
0.335058 0.456886 0.513298
0.454536 0.459510 0.518059
0.579461 0.465064 0.524224
0.703883 0.475319 0.531365
0.820279 0.500664 0.543267
0.926421 0.536126 0.561151
0.225193 0.592035 0.517479
0.258549 0.591882 0.518578
0.348547 0.593347 0.522972
0.463722 0.597436 0.531121
0.586389 0.601923 0.536522
0.707454 0.607233 0.544518
0.821317 0.620020 0.556725
0.924590 0.641352 0.574945
0.258762 0.722957 0.527520
0.288884 0.724392 0.529961
0.371313 0.723751 0.534264
0.479957 0.724056 0.541192
0.599329 0.725002 0.552789
0.708736 0.728878 0.561273
0.822782 0.739803 0.573541
0.923217 0.750881 0.593866
0.313451 0.841428 0.538140
0.337438 0.841398 0.539727
0.409155 0.841001 0.544701
0.511131 0.839994 0.554650
0.626337 0.838010 0.576287
0.721126 0.839536 0.584955
0.817014 0.842222 0.596460
0.921080 0.856229 0.614679
0.397314 0.942077 0.556207
0.415686 0.941741 0.558007
0.473121 0.940276 0.563500
0.568658 0.936919 0.582879
0.670069 0.933104 0.612787
0.747341 0.933257 0.622675
0.828153 0.934173 0.635889
0.908232 0.935851 0.652369
0.188693 0.136172 0.620050
0.229770 0.140719 0.621027
0.331365 0.153017 0.623072
0.452522 0.169528 0.627161
0.580011 0.189456 0.633051
0.701106 0.219333 0.634516
0.820249 0.259342 0.636713
0.929381 0.315343 0.636439
0.195468 0.199222 0.622156
0.234134 0.201053 0.623285
0.332464 0.206760 0.624933
0.452705 0.216495 0.628626
0.579156 0.231693 0.633753
0.701442 0.255589 0.636042
0.820249 0.290288 0.637781
0.928985 0.340795 0.637201
0.199863 0.315251 0.626215
0.237644 0.317113 0.627253
0.334264 0.320470 0.628962
0.452766 0.326482 0.631800
0.577386 0.336553 0.635584
0.700526 0.352087 0.639338
0.819028 0.377600 0.640528
0.926818 0.415961 0.639155
0.216495 0.448676 0.631952
0.251255 0.449256 0.632380
0.343633 0.451881 0.634089
0.458350 0.457649 0.636927
0.578973 0.465400 0.640375
0.702235 0.476478 0.646021
0.819089 0.495003 0.645411
0.925200 0.521630 0.643519
0.239933 0.586389 0.638911
0.271489 0.586633 0.639429
0.358099 0.587121 0.640711
0.469734 0.589593 0.643000
0.588403 0.596185 0.645716
0.705013 0.605493 0.649836
0.818204 0.621057 0.653315
0.919249 0.652522 0.666651
0.271641 0.718196 0.643519
0.298894 0.718196 0.644160
0.376989 0.717739 0.645899
0.482734 0.718227 0.648524
0.597864 0.719783 0.649958
0.712001 0.724819 0.658717
0.820951 0.738155 0.667414
0.919341 0.754208 0.680232
0.328923 0.838437 0.646387
0.350988 0.838071 0.646967
0.418585 0.837247 0.649104
0.514763 0.836637 0.652186
0.621210 0.836362 0.655512
0.731624 0.835966 0.673487
0.820920 0.839506 0.681361
0.917998 0.852476 0.694392
0.412390 0.938537 0.651179
0.429480 0.938079 0.651942
0.483711 0.936645 0.654688
0.564538 0.935882 0.659449
0.659632 0.933196 0.668605
0.763058 0.929686 0.699428
0.837644 0.931273 0.709285
0.912016 0.933776 0.721675
0.212528 0.147158 0.738216
0.246189 0.151125 0.738582
0.335180 0.163149 0.739895
0.446876 0.181369 0.742489
0.565179 0.205051 0.744991
0.684352 0.235538 0.748013
0.813535 0.267552 0.762539
0.925353 0.322850 0.758724
0.219211 0.202853 0.737819
0.250767 0.204807 0.738277
0.337255 0.211826 0.739559
0.447181 0.224369 0.741604
0.564782 0.242924 0.744259
0.683497 0.268986 0.747463
0.812894 0.296880 0.762387
0.924651 0.346868 0.758511
0.236057 0.317632 0.741878
0.264836 0.318578 0.741909
0.346197 0.322515 0.742489
0.452766 0.330510 0.744076
0.567742 0.343328 0.746059
0.684382 0.362249 0.748867
0.812955 0.383398 0.763851
0.923583 0.422278 0.758968
0.254795 0.441688 0.744900
0.283574 0.443153 0.744808
0.365881 0.449958 0.745418
0.469520 0.459754 0.747768
0.579034 0.470100 0.750057
0.690547 0.484230 0.752529
0.815183 0.500053 0.766262
0.922576 0.526299 0.759152
0.279026 0.568994 0.747463
0.305303 0.570123 0.747707
0.382086 0.574060 0.748409
0.485756 0.582666 0.749538
0.598749 0.596918 0.750637
0.700710 0.606104 0.753231
0.816892 0.615412 0.763577
0.920470 0.631647 0.755001
0.310674 0.696529 0.751888
0.334722 0.697353 0.752468
0.404822 0.699092 0.753140
0.502403 0.703243 0.754116
0.608270 0.710506 0.755306
0.715114 0.721645 0.758267
0.821622 0.732906 0.762966
0.917601 0.753292 0.764981
0.350042 0.833951 0.769192
0.370977 0.834348 0.769772
0.434577 0.834867 0.770413
0.525109 0.835416 0.770169
0.623926 0.835386 0.766415
0.726802 0.836240 0.762173
0.827420 0.838193 0.772000
0.916869 0.851591 0.780636
0.434058 0.935821 0.762814
0.449775 0.935393 0.762905
0.500023 0.934051 0.762936
0.572503 0.932982 0.762264
0.656306 0.931853 0.759731
0.751919 0.930175 0.761959
0.848753 0.928557 0.788449
0.916716 0.932250 0.796994
0.230503 0.161746 0.846464
0.258671 0.165652 0.846891
0.336797 0.177920 0.847318
0.439063 0.196811 0.848325
0.549645 0.222843 0.849271
0.662257 0.256413 0.850462
0.773312 0.297124 0.852018
0.902617 0.337591 0.875914
0.238437 0.209903 0.845792
0.265202 0.212345 0.846128
0.340703 0.220706 0.846677
0.441077 0.235050 0.847349
0.550622 0.256535 0.848295
0.662440 0.285435 0.849424
0.772763 0.321477 0.850797
0.901793 0.358190 0.874601
0.263188 0.318395 0.847074
0.286748 0.319799 0.847166
0.356359 0.324895 0.847379
0.451759 0.334813 0.847959
0.557855 0.349889 0.848600
0.667170 0.371618 0.849729
0.775723 0.400427 0.851438
0.903227 0.430976 0.875090
0.304448 0.443000 0.848325
0.327428 0.445472 0.848051
0.390173 0.450965 0.847990
0.476600 0.458595 0.848631
0.575494 0.470069 0.849302
0.679316 0.486732 0.850553
0.782986 0.508934 0.852323
0.905974 0.529900 0.874388
0.329931 0.559716 0.849088
0.350744 0.561486 0.848844
0.415320 0.567987 0.848539
0.507469 0.580560 0.848386
0.604181 0.594171 0.848631
0.697963 0.605341 0.849943
0.793301 0.619532 0.851926
0.909789 0.633387 0.871763
0.364141 0.678462 0.851102
0.383001 0.679683 0.851102
0.442451 0.684291 0.851102
0.528161 0.692805 0.851133
0.623133 0.704067 0.851286
0.724300 0.721431 0.851896
0.810269 0.731746 0.854307
0.915038 0.741268 0.867582
0.407965 0.794888 0.854704
0.424872 0.795682 0.854887
0.477913 0.798276 0.855009
0.553704 0.803067 0.855314
0.640528 0.809842 0.855619
0.734463 0.819821 0.856413
0.829038 0.833890 0.858305
0.916655 0.845548 0.860960
0.461250 0.922301 0.874937
0.474922 0.922637 0.875029
0.518700 0.924315 0.875669
0.582910 0.927306 0.876005
0.662165 0.929595 0.873747
0.751431 0.928832 0.866423
0.841611 0.928862 0.859922
0.921538 0.930907 0.872679
0.246738 0.183474 0.940276
0.270207 0.186831 0.940398
0.338323 0.198611 0.940337
0.431159 0.218631 0.940581
0.534173 0.246860 0.940826
0.640375 0.282475 0.941161
0.746273 0.325414 0.941619
0.848478 0.374609 0.942046
0.256626 0.223911 0.939818
0.278843 0.226413 0.939971
0.344427 0.235538 0.939940
0.435462 0.252079 0.940124
0.537133 0.276402 0.940368
0.642420 0.308293 0.940642
0.747524 0.347478 0.941039
0.849119 0.393347 0.941497
0.288212 0.323186 0.939330
0.307500 0.325017 0.939361
0.366491 0.330999 0.939178
0.451911 0.343511 0.939727
0.549310 0.361456 0.939818
0.651087 0.385840 0.939910
0.753597 0.417487 0.940337
0.852781 0.456001 0.940917
0.343603 0.445014 0.938506
0.359411 0.446448 0.938598
0.408972 0.451026 0.938506
0.484382 0.460121 0.938720
0.573754 0.474006 0.938872
0.669245 0.492897 0.939055
0.766415 0.517540 0.939544
0.860349 0.545769 0.940429
0.398810 0.564752 0.937865
0.415320 0.567529 0.937835
0.466773 0.576379 0.937285
0.532647 0.583581 0.936980
0.610010 0.593317 0.937163
0.695247 0.606470 0.937560
0.783932 0.623529 0.938476
0.871214 0.644556 0.940063
0.434821 0.672358 0.938537
0.449042 0.674159 0.938323
0.495125 0.680262 0.937774
0.562951 0.689876 0.937133
0.644404 0.703304 0.936522
0.728511 0.718898 0.936889
0.808530 0.732692 0.938628
0.886595 0.748287 0.940337
0.480262 0.780270 0.940490
0.492500 0.781430 0.940398
0.531304 0.785275 0.940093
0.591669 0.791928 0.939849
0.666835 0.801846 0.939605
0.750942 0.815793 0.939208
0.837736 0.835111 0.939055
0.905516 0.845304 0.941222
0.527214 0.886564 0.942779
0.536950 0.887144 0.942718
0.569543 0.889372 0.942626
0.622705 0.893614 0.942657
0.691432 0.899992 0.942718
0.768460 0.908629 0.942931
0.848356 0.919310 0.943755
0.926513 0.932067 0.945861
