其他预设/【232】美食博客调色预设124款/1.3D LUT预设（视频调色-PR-AE-PS-FCPX-达芬奇用）/Food Art #6 ().cube
# Created by Adobe Lightroom plugin Export LUT (1.17.0)
# www.johnrellis.com/lightroom/exportlut.htm
# Preset: Food Art #6 (素锦印象)
# Color profile: /Library/Application Support/Adobe/Color/Profiles/Recommended/AdobeRGB1998.icc
LUT_3D_SIZE 8
DOMAIN_MIN 0.000000 0.000000 0.000000
DOMAIN_MAX 0.903226 0.903226 0.903226
0.000000 0.000000 0.000000
0.250187 0.000000 0.000000
0.602991 0.000000 0.000000
0.837827 0.000000 0.000000
0.964538 0.000000 0.000000
1.000000 0.000000 0.125093
1.000000 0.175113 0.219089
1.000000 0.258854 0.285222
0.000000 0.246891 0.000000
0.251225 0.253117 0.000000
0.587488 0.238407 0.000000
0.823819 0.205112 0.000000
0.955352 0.170932 0.000000
1.000000 0.191043 0.130312
1.000000 0.238437 0.219211
1.000000 0.291905 0.285344
0.000000 0.577234 0.000000
0.248325 0.572930 0.000000
0.566613 0.558129 0.000000
0.805051 0.511681 0.000000
0.940581 0.448676 0.000000
1.000000 0.407446 0.175601
1.000000 0.396338 0.255283
1.000000 0.403845 0.314916
0.000000 0.790158 0.000000
0.231815 0.785245 0.000000
0.511833 0.771725 0.000000
0.770260 0.758755 0.000000
0.923857 0.682765 0.153964
0.999725 0.605798 0.235447
1.000000 0.557031 0.296391
1.000000 0.531243 0.347417
0.158419 0.904082 0.170047
0.267094 0.900969 0.171786
0.467018 0.891356 0.180941
0.673487 0.876646 0.201328
0.867582 0.855161 0.225193
0.974823 0.780117 0.281712
1.000000 0.709285 0.338445
1.000000 0.662745 0.389776
0.288945 0.964477 0.293309
0.340856 0.964202 0.300023
0.463966 0.957733 0.305272
0.617090 0.946960 0.315770
0.774990 0.932250 0.331853
0.928344 0.916289 0.357244
1.000000 0.856199 0.405371
1.000000 0.793423 0.453803
0.399542 1.000000 0.399817
0.424750 1.000000 0.402533
0.497047 0.997925 0.405493
0.603601 0.990753 0.414527
0.724147 0.980865 0.427893
0.849027 0.969818 0.451362
0.969574 0.958587 0.483803
1.000000 0.911498 0.523430
0.501488 1.000000 0.499153
0.514397 1.000000 0.500053
0.558709 1.000000 0.504906
0.630976 1.000000 0.516869
0.710933 1.000000 0.518456
0.808316 1.000000 0.542809
0.904692 0.993805 0.573358
0.994232 0.984955 0.603571
0.000000 0.000000 0.274784
0.256504 0.000000 0.275334
0.582300 0.000000 0.270848
0.816281 0.000000 0.271824
0.947295 0.050752 0.281834
1.000000 0.197208 0.307195
1.000000 0.271153 0.339452
1.000000 0.330541 0.374945
0.000000 0.251347 0.273442
0.250767 0.243229 0.272648
0.574884 0.227604 0.269993
0.808835 0.221012 0.270542
0.941436 0.236576 0.282231
1.000000 0.270420 0.307561
1.000000 0.309087 0.337499
1.000000 0.351720 0.372168
0.000000 0.563226 0.262547
0.243534 0.559289 0.269780
0.558495 0.548486 0.266575
0.791562 0.508904 0.271702
0.926818 0.462409 0.289982
1.000000 0.435279 0.320195
1.000000 0.430091 0.354314
1.000000 0.441871 0.391821
0.000000 0.778042 0.269535
0.255161 0.773800 0.277775
0.514122 0.763149 0.278477
0.757168 0.745266 0.281193
0.906096 0.675624 0.306981
0.985443 0.610895 0.341161
1.000000 0.571679 0.376654
1.000000 0.553582 0.413825
0.228580 0.897093 0.321660
0.308385 0.893645 0.322423
0.482338 0.883818 0.323919
0.674311 0.868223 0.328771
0.859678 0.847379 0.337133
0.965301 0.778927 0.371893
1.000000 0.717098 0.412238
1.000000 0.677638 0.451942
0.340581 0.957855 0.385046
0.378882 0.956207 0.386267
0.486610 0.950317 0.389380
0.628534 0.940734 0.398169
0.778470 0.927855 0.411933
0.925689 0.914031 0.434760
1.000000 0.858518 0.472328
1.000000 0.801450 0.507591
0.439429 0.997528 0.461189
0.458167 0.996246 0.460517
0.523033 0.992370 0.463630
0.621912 0.986145 0.473426
0.735225 0.977386 0.486519
0.852598 0.967163 0.504692
0.967102 0.956573 0.529290
1.000000 0.912169 0.560876
0.533898 1.000000 0.543450
0.546319 1.000000 0.545251
0.586511 1.000000 0.549981
0.652888 1.000000 0.561334
0.732876 1.000000 0.574365
0.820279 1.000000 0.591638
0.908843 0.992676 0.613306
0.993225 0.984497 0.637354
0.000000 0.000000 0.619745
0.244236 0.000000 0.616846
0.571160 0.000000 0.603876
0.799161 0.000000 0.560021
0.926452 0.237064 0.529900
0.989960 0.405310 0.554925
1.000000 0.489326 0.580621
1.000000 0.528222 0.591516
0.000000 0.231144 0.610040
0.242802 0.235691 0.605707
0.561578 0.229587 0.595239
0.789334 0.257084 0.559686
0.917998 0.347417 0.541833
0.983307 0.454902 0.565972
1.000000 0.501976 0.577050
1.000000 0.537194 0.589441
0.000000 0.550469 0.591333
0.241550 0.546197 0.588861
0.548272 0.537377 0.581079
0.769711 0.532799 0.571862
0.901457 0.538720 0.570153
0.974701 0.548638 0.573175
1.000000 0.563104 0.581476
1.000000 0.581659 0.594659
0.000000 0.769070 0.545861
0.274998 0.765072 0.549798
0.542809 0.752041 0.569116
0.750881 0.739528 0.567102
0.885740 0.697993 0.571557
0.962371 0.668605 0.579950
1.000000 0.655879 0.592248
1.000000 0.653956 0.607416
0.257450 0.889097 0.514275
0.358434 0.884520 0.528771
0.556817 0.870298 0.574578
0.703120 0.859525 0.575769
0.855833 0.844968 0.577417
0.947112 0.796719 0.589563
1.000000 0.760403 0.606256
1.000000 0.739986 0.625299
0.393683 0.951110 0.529107
0.455177 0.947112 0.549981
0.583581 0.936645 0.594476
0.683314 0.929290 0.596948
0.799527 0.919860 0.602411
0.920348 0.910460 0.614649
0.990234 0.870817 0.635828
1.000000 0.834867 0.658350
0.513817 0.990692 0.584283
0.551720 0.987366 0.602869
0.624231 0.980987 0.629603
0.691768 0.976165 0.633112
0.776608 0.969757 0.639673
0.870603 0.962860 0.652430
0.965118 0.956542 0.672206
1.000000 0.923888 0.695125
0.619989 1.000000 0.655848
0.644984 1.000000 0.671199
0.674617 1.000000 0.675898
0.725002 1.000000 0.686305
0.784298 1.000000 0.694545
0.852720 0.995666 0.707515
0.923217 0.990112 0.723049
0.991485 0.984527 0.740719
0.000000 0.000000 0.821286
0.199100 0.000000 0.819638
0.501732 0.000000 0.810056
0.756161 0.000000 0.795773
0.903685 0.241337 0.727291
0.973907 0.402075 0.684901
1.000000 0.523369 0.687221
1.000000 0.621729 0.716091
0.000000 0.232059 0.815366
0.238743 0.236057 0.813107
0.508110 0.246921 0.804532
0.752590 0.264195 0.791684
0.897734 0.349981 0.729488
0.967620 0.461219 0.693477
1.000000 0.558862 0.697627
1.000000 0.644617 0.725948
0.108522 0.500969 0.798123
0.293278 0.507622 0.795132
0.534112 0.525475 0.786709
0.742428 0.529107 0.777523
0.879637 0.559319 0.740108
0.951019 0.611933 0.727260
0.993927 0.669856 0.741299
1.000000 0.719234 0.763729
0.168521 0.731289 0.778622
0.312200 0.730068 0.776669
0.548028 0.728206 0.770871
0.737453 0.728725 0.764157
0.857664 0.729580 0.757015
0.931609 0.737667 0.757687
0.982361 0.746487 0.760769
1.000000 0.757473 0.767025
0.306523 0.878508 0.721279
0.392096 0.873686 0.724056
0.573907 0.860594 0.735622
0.738888 0.847288 0.757870
0.849027 0.841001 0.760128
0.925841 0.823667 0.763088
0.977295 0.814511 0.768734
1.000000 0.811032 0.775906
0.440192 0.944732 0.682368
0.496590 0.942199 0.694636
0.624323 0.930755 0.724697
0.752407 0.918425 0.764279
0.831357 0.914031 0.767819
0.917266 0.910063 0.772641
0.973358 0.889830 0.781918
1.000000 0.874083 0.792386
0.547387 0.986023 0.687617
0.582788 0.983276 0.700465
0.676112 0.975067 0.737697
0.772915 0.966186 0.779446
0.829191 0.963073 0.783169
0.894499 0.959808 0.789487
0.963348 0.957183 0.799649
1.000000 0.937133 0.812222
0.650874 1.000000 0.727626
0.673793 1.000000 0.739132
0.736538 1.000000 0.771756
0.800931 0.995911 0.803494
0.840940 0.993500 0.808438
0.888945 0.990753 0.816587
0.939818 0.987884 0.826566
0.989990 0.985138 0.838529
0.000000 0.000000 0.920043
0.182681 0.000000 0.918334
0.435523 0.092439 0.911467
0.653376 0.193271 0.901396
0.850095 0.277440 0.889952
0.954009 0.407660 0.828977
0.999939 0.527184 0.788113
1.000000 0.625605 0.783322
0.127382 0.245640 0.914061
0.253513 0.254520 0.912963
0.457343 0.278508 0.907042
0.659541 0.315831 0.897398
0.847837 0.369940 0.886381
0.949615 0.466499 0.830625
0.995972 0.564752 0.794369
1.000000 0.649470 0.790646
0.321721 0.496834 0.899260
0.399023 0.513329 0.896727
0.529259 0.523766 0.891752
0.685969 0.538811 0.884337
0.841794 0.559655 0.875181
0.935302 0.604211 0.834958
0.983917 0.660822 0.812161
1.000000 0.713527 0.810971
0.355840 0.663600 0.884794
0.426917 0.671504 0.882506
0.588251 0.697414 0.875944
0.727932 0.721798 0.868833
0.838865 0.727077 0.864042
0.920836 0.741939 0.845457
0.970825 0.766079 0.837064
1.000000 0.793698 0.840574
0.402380 0.825437 0.868894
0.461280 0.825895 0.867918
0.603693 0.827451 0.864408
0.742123 0.830991 0.860655
0.840299 0.834562 0.858152
0.912078 0.838163 0.855863
0.961639 0.848478 0.860197
0.993957 0.857481 0.864927
0.480812 0.933104 0.828489
0.524071 0.930144 0.830289
0.635187 0.920958 0.835721
0.751949 0.911315 0.844938
0.842496 0.906004 0.854948
0.912688 0.907561 0.862242
0.962493 0.904112 0.869383
0.993286 0.902800 0.876158
0.586969 0.979950 0.798672
0.614832 0.977539 0.803952
0.692897 0.970733 0.820706
0.782864 0.963165 0.843442
0.860197 0.957824 0.866972
0.909972 0.957305 0.872740
0.961883 0.957641 0.879515
0.993256 0.947478 0.887297
0.676783 1.000000 0.802060
0.695460 1.000000 0.808469
0.749844 0.999664 0.828092
0.821134 0.993744 0.857603
0.881926 0.988678 0.884825
0.916106 0.987671 0.890196
0.952728 0.986694 0.896818
0.989136 0.985962 0.904784
0.081361 0.114107 0.971801
0.212863 0.140169 0.970459
0.400153 0.200320 0.965545
0.583246 0.273930 0.958587
0.752895 0.352148 0.949523
0.903624 0.437171 0.939849
0.985138 0.538018 0.896422
1.000000 0.635157 0.860960
0.215946 0.276036 0.966155
0.281712 0.284642 0.964935
0.431006 0.312749 0.960845
0.597253 0.358190 0.954253
0.758145 0.418372 0.945739
0.902220 0.486152 0.937011
0.981994 0.571710 0.896971
1.000000 0.656611 0.864225
0.416724 0.515099 0.953307
0.445777 0.518334 0.952270
0.533928 0.530785 0.948913
0.654108 0.552728 0.943664
0.780850 0.581781 0.937072
0.901122 0.617884 0.930724
0.973693 0.668238 0.900877
1.000000 0.722499 0.876310
0.495735 0.659113 0.941833
0.535912 0.670649 0.939788
0.644739 0.708309 0.934051
0.729335 0.725399 0.931182
0.815244 0.737331 0.928313
0.903410 0.751247 0.925689
0.965454 0.773648 0.908263
0.996490 0.801602 0.893553
0.524437 0.773068 0.931090
0.560967 0.779019 0.929961
0.658320 0.797269 0.926604
0.762753 0.820951 0.923033
0.838773 0.834958 0.921233
0.905089 0.840208 0.921263
0.959075 0.851194 0.913725
0.989685 0.867979 0.909758
0.567315 0.887236 0.922789
0.599207 0.888670 0.922759
0.681483 0.891752 0.921691
0.773678 0.896483 0.920836
0.850553 0.902068 0.920806
0.912810 0.909422 0.923278
0.958434 0.917144 0.926329
0.986328 0.927855 0.932952
0.638911 0.975341 0.908019
0.662318 0.973816 0.909209
0.725246 0.968780 0.911833
0.800259 0.963165 0.915892
0.867735 0.959167 0.921172
0.923278 0.958099 0.929473
0.963165 0.960571 0.935851
0.988464 0.959838 0.941741
0.716213 1.000000 0.883513
0.730922 1.000000 0.886198
0.775296 0.998016 0.894896
0.833860 0.993164 0.908080
0.890379 0.988891 0.923217
0.938872 0.986358 0.941436
0.964569 0.986938 0.946288
0.989532 0.987701 0.951568
0.188846 0.201541 0.999512
0.252354 0.218662 0.998962
0.388128 0.261997 0.995758
0.539269 0.323644 0.990661
0.687068 0.397070 0.984009
0.822507 0.477150 0.976623
0.939055 0.553307 0.970275
1.000000 0.635065 0.939544
0.262425 0.300816 0.994812
0.307225 0.311040 0.994293
0.418891 0.338720 0.991485
0.555566 0.383398 0.986664
0.694545 0.441840 0.980194
0.823117 0.504906 0.973175
0.936339 0.568597 0.967041
1.000000 0.638911 0.937102
0.445624 0.514244 0.984863
0.466804 0.518120 0.984192
0.532341 0.530938 0.981689
0.628687 0.554925 0.977752
0.734585 0.584649 0.972656
0.840421 0.622431 0.967620
0.938170 0.666682 0.964172
0.996429 0.717372 0.941344
0.595422 0.686671 0.972656
0.619654 0.697047 0.971160
0.662501 0.707515 0.968933
0.721004 0.718593 0.966949
0.790524 0.731472 0.964385
0.867033 0.750332 0.962524
0.942504 0.773800 0.962127
0.990997 0.800778 0.946502
0.609705 0.760708 0.965881
0.630732 0.766720 0.964691
0.694942 0.787198 0.961639
0.775174 0.816403 0.958618
0.828611 0.826108 0.957733
0.884672 0.834379 0.957641
0.944305 0.846983 0.958923
0.986419 0.867796 0.951049
0.639521 0.846098 0.960693
0.659663 0.849790 0.960235
0.718196 0.861265 0.959014
0.791104 0.877714 0.958160
0.858488 0.895079 0.958068
0.911315 0.909209 0.959991
0.954131 0.917449 0.962982
0.985229 0.927733 0.960449
0.689815 0.933257 0.960204
0.707759 0.934600 0.960449
0.755764 0.937652 0.960540
0.817411 0.942596 0.961273
0.875792 0.947967 0.962158
0.925963 0.954498 0.964324
0.963439 0.961944 0.968170
0.986755 0.968750 0.971984
0.745937 1.000000 0.956023
0.758267 0.999603 0.956298
0.801572 0.996979 0.958618
0.852232 0.993256 0.960876
0.901671 0.989807 0.963989
0.943023 0.987823 0.968597
0.973022 0.987915 0.975036
0.990448 0.989532 0.979034
0.229435 0.239963 1.000000
0.270481 0.251530 1.000000
0.372015 0.282353 1.000000
0.499550 0.335210 1.000000
0.630213 0.401007 1.000000
0.754818 0.475319 0.997345
0.867521 0.551629 0.992187
0.963012 0.622431 0.988281
0.285679 0.314214 1.000000
0.317845 0.322850 1.000000
0.403998 0.345953 1.000000
0.519310 0.387152 1.000000
0.642695 0.443519 1.000000
0.761074 0.506737 0.995483
0.869200 0.572107 0.990661
0.962432 0.635676 0.987121
0.433692 0.489631 1.000000
0.452186 0.494453 1.000000
0.505516 0.505699 1.000000
0.595453 0.537133 0.998108
0.690639 0.569696 0.994324
0.786770 0.606928 0.990265
0.880186 0.651850 0.986847
0.963165 0.697719 0.984771
0.595697 0.667353 0.991394
0.606714 0.670497 0.991119
0.636622 0.675502 0.990021
0.690120 0.688899 0.988312
0.755520 0.706233 0.986236
0.825681 0.726101 0.984161
0.897917 0.751125 0.982849
0.965942 0.780179 0.982757
0.648707 0.753170 0.985107
0.667109 0.761227 0.984466
0.715084 0.781552 0.982391
0.764431 0.798764 0.980774
0.807218 0.805722 0.980041
0.858305 0.816190 0.979553
0.915160 0.833097 0.980041
0.970306 0.857542 0.982086
0.672847 0.820523 0.981628
0.685603 0.824002 0.981140
0.726741 0.836027 0.979706
0.785519 0.855161 0.978149
0.849607 0.879637 0.977264
0.895415 0.894102 0.978576
0.939544 0.909789 0.981353
0.978454 0.927550 0.984955
0.717403 0.894957 0.980621
0.728420 0.896880 0.980407
0.763638 0.903563 0.979858
0.816770 0.915282 0.979675
0.873960 0.930175 0.980194
0.925628 0.947051 0.982055
0.961639 0.960662 0.985199
0.984283 0.966766 0.987579
0.777707 0.963714 0.983093
0.786099 0.964233 0.983093
0.814817 0.966400 0.983246
0.858762 0.970367 0.983978
0.904814 0.975311 0.985260
0.944305 0.980621 0.987060
0.973510 0.985779 0.989349
0.990387 0.989929 0.991577
