其他预设/【232】美食博客调色预设124款/1.3D LUT预设（视频调色-PR-AE-PS-FCPX-达芬奇用）/Food Art #66.cube
# Created by Adobe Lightroom plugin Export LUT (1.17.0)
# www.johnrellis.com/lightroom/exportlut.htm
# Preset: Food Art #66
# Color profile: /Library/Application Support/Adobe/Color/Profiles/Recommended/AdobeRGB1998.icc
LUT_3D_SIZE 32
0.000000 0.000000 0.000000
0.000000 0.000000 0.000000
0.000000 0.017792 0.013794
0.000000 0.057710 0.046143
0.000000 0.087709 0.074220
0.000000 0.107942 0.090059
0.000000 0.126650 0.104219
0.006409 0.146120 0.118532
0.053559 0.165652 0.133730
0.083528 0.185824 0.149081
0.111269 0.206332 0.165316
0.138918 0.227573 0.181765
0.167239 0.248417 0.198001
0.196445 0.269261 0.213535
0.226169 0.289433 0.228275
0.256901 0.308385 0.241886
0.288579 0.326329 0.254673
0.320775 0.343236 0.266453
0.354009 0.358923 0.277134
0.392584 0.375616 0.288823
0.433143 0.391608 0.300145
0.475410 0.407019 0.311467
0.519341 0.422004 0.323156
0.563165 0.437201 0.335576
0.607080 0.453040 0.349248
0.651392 0.470283 0.364691
0.695308 0.489784 0.382940
0.737697 0.512535 0.404517
0.778408 0.538445 0.429938
0.817197 0.567681 0.459052
0.853635 0.600397 0.492287
0.887236 0.635920 0.529259
0.000000 0.006012 0.002808
0.000000 0.014191 0.008637
0.000000 0.040375 0.023957
0.000000 0.075837 0.061402
0.000000 0.097627 0.080262
0.000000 0.116030 0.094362
0.000000 0.133730 0.107576
0.006470 0.151766 0.121248
0.054475 0.170657 0.136080
0.084413 0.190280 0.151583
0.111635 0.210391 0.167361
0.139406 0.230808 0.183291
0.167666 0.251408 0.199161
0.196658 0.271763 0.214817
0.226261 0.291447 0.229160
0.256962 0.310124 0.242863
0.288457 0.327855 0.255131
0.320684 0.344427 0.266758
0.353735 0.359930 0.277531
0.391913 0.376440 0.288884
0.431891 0.392096 0.300145
0.473701 0.407294 0.311223
0.517327 0.422156 0.322820
0.561028 0.437201 0.335119
0.604913 0.452949 0.348760
0.649195 0.470130 0.364172
0.693263 0.489479 0.382147
0.735836 0.512078 0.403754
0.776730 0.538048 0.429145
0.815763 0.567193 0.458198
0.852354 0.599725 0.491218
0.886107 0.635279 0.528283
0.000000 0.061799 0.032502
0.000000 0.066438 0.040253
0.000000 0.075685 0.055787
0.000000 0.093446 0.074037
0.000000 0.110323 0.087953
0.000000 0.126314 0.100099
0.000000 0.142580 0.112490
0.005859 0.159091 0.125917
0.055848 0.177432 0.139956
0.085023 0.196262 0.154726
0.112795 0.215885 0.170138
0.140566 0.235782 0.186099
0.168734 0.255650 0.201450
0.197787 0.275608 0.216403
0.227268 0.294682 0.230747
0.257939 0.312871 0.244053
0.289281 0.330419 0.256413
0.321508 0.346563 0.267552
0.354498 0.361822 0.278233
0.392370 0.377996 0.289525
0.432136 0.393469 0.300511
0.473854 0.408392 0.311589
0.517082 0.423194 0.323125
0.560723 0.438056 0.335363
0.604364 0.453864 0.348852
0.648585 0.470924 0.364263
0.692714 0.490181 0.382361
0.735317 0.512779 0.403876
0.776242 0.538659 0.429267
0.815305 0.567712 0.458137
0.851896 0.600153 0.491279
0.885710 0.635584 0.528252
0.000000 0.103761 0.075746
0.000000 0.107271 0.078645
0.000000 0.112184 0.082795
0.000000 0.122591 0.091676
0.000000 0.135561 0.102052
0.000000 0.148104 0.112001
0.000000 0.161440 0.123201
0.004700 0.176181 0.135195
0.059144 0.192142 0.148074
0.088350 0.209415 0.162203
0.115938 0.227726 0.176822
0.143771 0.246281 0.191714
0.171969 0.265141 0.206546
0.200748 0.283757 0.220951
0.230350 0.301854 0.234104
0.260777 0.319310 0.246891
0.292027 0.335882 0.258701
0.324071 0.351476 0.269688
0.357183 0.366369 0.280186
0.394415 0.381811 0.290990
0.433478 0.396643 0.301640
0.474464 0.411200 0.312657
0.517693 0.425788 0.323949
0.561181 0.440650 0.336309
0.605158 0.456428 0.349889
0.649744 0.473548 0.365515
0.693996 0.493019 0.383764
0.736599 0.515709 0.405493
0.777371 0.541558 0.430945
0.816129 0.570428 0.459937
0.852415 0.602625 0.492866
0.885893 0.637629 0.529473
0.000000 0.141787 0.098787
0.000000 0.144472 0.101625
0.000000 0.148287 0.104677
0.000000 0.156435 0.111208
0.000000 0.168643 0.121096
0.000000 0.178836 0.130159
0.000000 0.188876 0.138735
0.007782 0.200443 0.148836
0.063691 0.213962 0.160586
0.093477 0.228977 0.173281
0.121187 0.245029 0.186587
0.149020 0.261875 0.200076
0.176852 0.279088 0.213962
0.205753 0.296086 0.227146
0.235203 0.312779 0.239597
0.265568 0.328923 0.251530
0.296910 0.344457 0.262821
0.328801 0.359075 0.273228
0.362799 0.373541 0.283391
0.399207 0.388128 0.293828
0.437659 0.402319 0.304112
0.478187 0.416419 0.314855
0.520775 0.430579 0.326085
0.563897 0.445228 0.338323
0.607568 0.460853 0.351995
0.651850 0.477974 0.367559
0.695827 0.497475 0.385992
0.738033 0.519982 0.407813
0.778500 0.545647 0.433265
0.816983 0.574273 0.462165
0.852964 0.606256 0.495216
0.886290 0.640925 0.531609
0.000000 0.179294 0.122072
0.000000 0.181857 0.123812
0.000000 0.184726 0.126589
0.000000 0.191226 0.131838
0.000000 0.200931 0.139986
0.000000 0.213352 0.150301
0.000000 0.222751 0.158938
0.019318 0.230869 0.166842
0.072847 0.241337 0.176303
0.101564 0.253574 0.187350
0.129549 0.267338 0.199161
0.157046 0.281834 0.211276
0.184817 0.296788 0.223301
0.213443 0.311955 0.235325
0.242710 0.326818 0.246708
0.272984 0.341497 0.257511
0.304204 0.355688 0.267948
0.335912 0.369207 0.277745
0.370367 0.383215 0.287755
0.406439 0.396826 0.297673
0.444648 0.410285 0.307836
0.485023 0.423896 0.318242
0.545251 0.444465 0.334752
0.587823 0.459205 0.347601
0.630579 0.475013 0.362036
0.673335 0.492500 0.378454
0.714717 0.512383 0.397620
0.754452 0.535210 0.420233
0.792569 0.560754 0.445991
0.828855 0.589258 0.475288
0.862760 0.620722 0.508141
0.894102 0.654170 0.543999
0.000000 0.218936 0.146273
0.000000 0.220584 0.148013
0.000000 0.222934 0.149966
0.000000 0.228244 0.154513
0.000000 0.236149 0.161166
0.000000 0.246006 0.169619
0.000000 0.257939 0.180331
0.056367 0.267002 0.188540
0.088899 0.273991 0.195987
0.116701 0.283543 0.205142
0.143679 0.294530 0.215030
0.171023 0.306615 0.225376
0.198337 0.319341 0.235843
0.226810 0.332128 0.246067
0.255680 0.344884 0.255863
0.285557 0.357733 0.265721
0.315984 0.370184 0.275029
0.348943 0.383001 0.284306
0.383337 0.395972 0.293919
0.419806 0.408942 0.303624
0.459022 0.422248 0.313725
0.500969 0.435859 0.324712
0.544579 0.450233 0.336614
0.588464 0.465248 0.349859
0.632227 0.481575 0.364782
0.675532 0.499306 0.381659
0.716823 0.519371 0.401312
0.756252 0.542107 0.423957
0.794034 0.567285 0.449775
0.829831 0.595392 0.478859
0.863340 0.626429 0.511772
0.894469 0.659236 0.547204
0.000000 0.255009 0.169528
0.000000 0.256535 0.170748
0.000000 0.258305 0.172396
0.000000 0.262364 0.176181
0.000000 0.268589 0.181552
0.000000 0.276524 0.188663
0.000000 0.286076 0.197177
0.073304 0.296849 0.206516
0.106661 0.305608 0.215061
0.132601 0.312383 0.222080
0.158450 0.320775 0.229984
0.184787 0.330449 0.238499
0.211734 0.340856 0.247105
0.239353 0.351690 0.256107
0.267857 0.362768 0.264775
0.297093 0.373754 0.273289
0.327733 0.385168 0.281926
0.360479 0.397009 0.290837
0.393988 0.408576 0.299687
0.429603 0.420508 0.308812
0.467781 0.432837 0.318578
0.509056 0.445960 0.329351
0.551415 0.459846 0.341039
0.594171 0.474495 0.354223
0.637140 0.490486 0.369085
0.679561 0.508171 0.386145
0.720027 0.528099 0.406012
0.758877 0.550439 0.428748
0.796078 0.575341 0.454566
0.831449 0.603052 0.483711
0.864591 0.633631 0.516533
0.895354 0.665858 0.551812
0.000000 0.290227 0.192630
0.000000 0.291142 0.193606
0.000000 0.292912 0.195193
0.000000 0.295933 0.197787
0.000000 0.300816 0.202426
0.000000 0.306889 0.208042
0.037781 0.314611 0.215061
0.089693 0.323278 0.222599
0.123659 0.332982 0.231205
0.152865 0.341619 0.239048
0.177218 0.347875 0.245274
0.202182 0.355261 0.252049
0.228305 0.363622 0.259281
0.255375 0.372625 0.266789
0.283024 0.381933 0.274357
0.312016 0.391791 0.282109
0.343175 0.402228 0.290166
0.374609 0.412543 0.298222
0.407172 0.422858 0.306340
0.441657 0.433722 0.315099
0.479255 0.445411 0.324468
0.519371 0.457862 0.334936
0.560632 0.471321 0.346715
0.602258 0.485725 0.359960
0.644251 0.501488 0.375006
0.685451 0.518975 0.392248
0.724910 0.538750 0.412390
0.762844 0.560784 0.435035
0.799344 0.585229 0.460883
0.833951 0.612482 0.490059
0.866514 0.642390 0.522576
0.896788 0.673823 0.557549
0.000000 0.323125 0.214572
0.000000 0.323857 0.215427
0.000000 0.324926 0.216312
0.000000 0.327550 0.218601
0.000000 0.331243 0.222324
0.020722 0.336217 0.226658
0.079896 0.342199 0.232029
0.111696 0.349279 0.238437
0.141268 0.357275 0.245212
0.170748 0.365942 0.252567
0.198917 0.374060 0.259617
0.222446 0.379797 0.265080
0.247532 0.386450 0.271122
0.273472 0.393927 0.277531
0.301518 0.402319 0.284489
0.330846 0.411353 0.291814
0.360967 0.420478 0.298955
0.391485 0.429480 0.306279
0.423041 0.438788 0.314031
0.456825 0.448829 0.322301
0.493416 0.459693 0.331518
0.531762 0.471534 0.341772
0.571069 0.484199 0.353368
0.610925 0.498054 0.366430
0.651423 0.513512 0.381537
0.691341 0.530816 0.398871
0.729885 0.550378 0.419074
0.767147 0.572045 0.442054
0.803037 0.596338 0.468086
0.837156 0.623407 0.497597
0.869230 0.652766 0.530144
0.899107 0.683619 0.565026
0.000000 0.353216 0.234257
0.000000 0.353918 0.234928
0.000000 0.354864 0.235630
0.000000 0.356878 0.237644
0.053498 0.359899 0.240177
0.084962 0.364050 0.243839
0.111360 0.369024 0.248234
0.137423 0.374914 0.253330
0.163394 0.381445 0.258885
0.190585 0.388739 0.265141
0.218143 0.396582 0.271672
0.246098 0.404273 0.278019
0.270024 0.409857 0.283238
0.296269 0.416571 0.289097
0.323217 0.423774 0.295232
0.351110 0.431220 0.301640
0.379675 0.438972 0.308110
0.409155 0.446998 0.314977
0.439551 0.455360 0.322210
0.472511 0.464607 0.330175
0.508019 0.474983 0.339239
0.545006 0.486244 0.349401
0.583185 0.498695 0.361151
0.621851 0.512322 0.374395
0.661036 0.527642 0.389776
0.699397 0.544823 0.407446
0.736599 0.563928 0.427802
0.772641 0.585138 0.450690
0.807523 0.608911 0.476631
0.840665 0.635279 0.506035
0.872038 0.663783 0.538170
0.901274 0.693843 0.572717
0.065492 0.381842 0.251987
0.069795 0.382483 0.252598
0.076356 0.383154 0.253117
0.088258 0.384771 0.254643
0.104433 0.387274 0.256718
0.122896 0.390692 0.259800
0.143618 0.394812 0.263310
0.165591 0.399756 0.267430
0.189151 0.405432 0.272221
0.213718 0.411627 0.277470
0.239811 0.418433 0.283055
0.268406 0.426581 0.289525
0.306645 0.439734 0.299046
0.331853 0.445319 0.304173
0.358068 0.451270 0.309697
0.384863 0.457618 0.315526
0.412634 0.464332 0.321721
0.441077 0.471382 0.328099
0.470619 0.478889 0.335027
0.502647 0.487526 0.342962
0.536156 0.497078 0.352026
0.571038 0.507836 0.362371
0.606683 0.519677 0.374212
0.643214 0.533013 0.387793
0.679896 0.548089 0.403632
0.715785 0.564904 0.421759
0.750729 0.583398 0.442145
0.784665 0.604028 0.465126
0.817441 0.627100 0.491035
0.848875 0.652491 0.520134
0.878569 0.679683 0.551598
0.906523 0.708431 0.585473
0.121767 0.410803 0.269169
0.124697 0.411292 0.269596
0.128359 0.411810 0.270054
0.135836 0.412970 0.271214
0.146975 0.414923 0.272892
0.161257 0.417517 0.275029
0.178134 0.420905 0.278080
0.197024 0.424964 0.281407
0.218204 0.429847 0.285466
0.242679 0.436225 0.290532
0.268650 0.443275 0.296117
0.296757 0.450935 0.302129
0.325963 0.459022 0.308690
0.356329 0.467231 0.315435
0.381720 0.472724 0.320623
0.407507 0.478401 0.326146
0.434028 0.484321 0.331884
0.461067 0.490578 0.338018
0.489631 0.497444 0.344762
0.520012 0.505394 0.352483
0.551904 0.514549 0.361547
0.585077 0.524743 0.371923
0.619348 0.536309 0.383917
0.654444 0.549401 0.397650
0.689418 0.564111 0.413764
0.723812 0.580377 0.431739
0.757504 0.598474 0.452125
0.790311 0.618616 0.475196
0.822080 0.641077 0.501213
0.852689 0.665705 0.529931
0.881743 0.692073 0.561089
0.909056 0.720027 0.594659
0.163912 0.436286 0.283574
0.166079 0.436622 0.283940
0.168887 0.437079 0.284398
0.174716 0.438148 0.285252
0.183993 0.439704 0.286625
0.196292 0.442145 0.288701
0.211612 0.445502 0.291325
0.229343 0.449531 0.294743
0.249149 0.454170 0.298466
0.271275 0.459541 0.302831
0.295445 0.465736 0.307866
0.321416 0.472450 0.313298
0.348730 0.479591 0.319158
0.377234 0.487098 0.325536
0.406470 0.494728 0.332036
0.431464 0.499886 0.337377
0.456519 0.505089 0.342840
0.482368 0.510796 0.348730
0.509545 0.517021 0.355230
0.538231 0.524407 0.362982
0.568658 0.533135 0.372076
0.600488 0.543084 0.382666
0.633265 0.554314 0.394873
0.666804 0.567163 0.409033
0.700191 0.581476 0.425269
0.733150 0.597314 0.443244
0.765469 0.614862 0.463752
0.797086 0.634485 0.486854
0.827787 0.656397 0.512749
0.857420 0.680232 0.541253
0.885649 0.705653 0.572015
0.912291 0.732784 0.605280
0.205295 0.462562 0.298070
0.207156 0.462898 0.298375
0.209628 0.463233 0.298741
0.214878 0.464302 0.299504
0.223087 0.465797 0.300847
0.233555 0.467811 0.302617
0.246860 0.470466 0.304875
0.262608 0.473823 0.307652
0.280461 0.477882 0.311101
0.300664 0.482673 0.314977
0.322972 0.488136 0.319432
0.347173 0.494270 0.324651
0.373083 0.500877 0.330205
0.400031 0.507805 0.336248
0.427863 0.514885 0.342687
0.456123 0.522026 0.349310
0.480812 0.527153 0.354772
0.505028 0.532128 0.360571
0.530388 0.537743 0.366949
0.557458 0.544610 0.374792
0.586297 0.552819 0.383978
0.616541 0.562402 0.394720
0.647944 0.573358 0.407172
0.679683 0.585718 0.421454
0.711482 0.599542 0.437537
0.743038 0.615045 0.455879
0.774289 0.632319 0.476631
0.804929 0.651820 0.500145
0.834836 0.673243 0.526268
0.863676 0.696437 0.554742
0.891173 0.721370 0.585565
0.916991 0.747707 0.618738
0.245335 0.488472 0.311986
0.247044 0.488838 0.312352
0.249180 0.489296 0.312657
0.253880 0.490150 0.313512
0.260960 0.491463 0.314733
0.270634 0.493416 0.316258
0.282750 0.495857 0.318456
0.297124 0.498970 0.321141
0.313603 0.502586 0.324224
0.332311 0.506889 0.327916
0.352972 0.511803 0.332189
0.375250 0.517205 0.336980
0.398810 0.522972 0.342107
0.423957 0.529137 0.347662
0.450050 0.535668 0.353796
0.476753 0.542290 0.360296
0.503807 0.549065 0.367224
0.527672 0.554040 0.373327
0.551812 0.559258 0.380011
0.577691 0.565881 0.388006
0.605280 0.573846 0.397559
0.634485 0.583307 0.408759
0.664332 0.593957 0.421393
0.694331 0.605890 0.435737
0.724636 0.619318 0.452003
0.754788 0.634424 0.470680
0.784573 0.651392 0.491615
0.813901 0.670222 0.515129
0.842527 0.690791 0.540856
0.870085 0.713008 0.568841
0.896391 0.736782 0.599054
0.921111 0.762020 0.631556
0.283116 0.513664 0.325719
0.284398 0.514000 0.325933
0.286412 0.514305 0.326360
0.290532 0.515007 0.326940
0.297124 0.516289 0.328191
0.305852 0.518029 0.329656
0.316716 0.520226 0.331701
0.329747 0.523033 0.334203
0.345068 0.526360 0.337133
0.362341 0.530327 0.340612
0.381659 0.534874 0.344701
0.402777 0.540032 0.349248
0.425269 0.545525 0.354406
0.448768 0.551232 0.359991
0.473274 0.557153 0.366003
0.498085 0.563165 0.372412
0.523461 0.569299 0.379370
0.549462 0.575860 0.386908
0.573297 0.581384 0.394171
0.597711 0.587488 0.402228
0.623804 0.595026 0.411872
0.651301 0.604028 0.422950
0.679408 0.614160 0.435645
0.707881 0.625605 0.450111
0.736629 0.638605 0.466499
0.765347 0.653254 0.485359
0.793881 0.669795 0.506462
0.822080 0.687953 0.529747
0.849607 0.707790 0.555169
0.876188 0.729274 0.582940
0.901518 0.752224 0.612848
0.925414 0.776547 0.644953
0.320500 0.539483 0.339940
0.321996 0.539910 0.340215
0.331884 0.545953 0.343847
0.335729 0.546654 0.344549
0.341772 0.547692 0.345495
0.349462 0.549126 0.347021
0.359472 0.551019 0.348882
0.371191 0.553399 0.351202
0.385382 0.556390 0.354070
0.401495 0.559869 0.357458
0.419287 0.563928 0.361486
0.438880 0.568292 0.366003
0.459419 0.572992 0.371130
0.481422 0.577996 0.376654
0.504021 0.583246 0.382727
0.527184 0.588678 0.389197
0.550927 0.594293 0.396307
0.574945 0.600275 0.403845
0.599268 0.606531 0.411933
0.622919 0.612696 0.420447
0.647089 0.619593 0.429725
0.672297 0.627710 0.440772
0.698299 0.637140 0.453315
0.724636 0.647913 0.467750
0.751125 0.659998 0.483955
0.777737 0.673762 0.502373
0.804318 0.689082 0.522728
0.830808 0.706172 0.545342
0.856901 0.724971 0.570153
0.882322 0.745510 0.597375
0.906615 0.767575 0.626947
0.929564 0.790890 0.658564
0.360235 0.567620 0.355993
0.362707 0.568688 0.356847
0.365393 0.569757 0.357580
0.370031 0.571099 0.358740
0.376257 0.572625 0.360113
0.384070 0.574304 0.361761
0.393530 0.576104 0.363714
0.404608 0.578271 0.366064
0.417853 0.581018 0.369055
0.432868 0.584161 0.372564
0.449561 0.587793 0.376623
0.467842 0.591882 0.381140
0.487221 0.596246 0.386328
0.507591 0.600824 0.391852
0.528801 0.605707 0.398016
0.550622 0.610712 0.404608
0.572839 0.616114 0.411688
0.595575 0.621790 0.419348
0.618677 0.627863 0.427527
0.641962 0.634363 0.436316
0.665034 0.641016 0.445655
0.688808 0.648798 0.456764
0.713191 0.657710 0.469520
0.738125 0.667994 0.484047
0.763333 0.679744 0.500481
0.788724 0.692988 0.518700
0.814054 0.707729 0.538903
0.839353 0.724117 0.561120
0.864286 0.742184 0.585718
0.888609 0.761868 0.612451
0.911894 0.783017 0.641566
0.933898 0.805417 0.672724
0.398322 0.594049 0.372686
0.400549 0.595026 0.373388
0.403235 0.596124 0.374304
0.407446 0.597284 0.375525
0.413458 0.598749 0.376867
0.420661 0.600275 0.378515
0.429389 0.601923 0.380682
0.439826 0.603967 0.383001
0.452094 0.606470 0.386114
0.466133 0.609369 0.389593
0.481880 0.612757 0.393744
0.498878 0.616541 0.398627
0.517082 0.620600 0.403815
0.536309 0.624964 0.409613
0.556146 0.629541 0.415808
0.576410 0.634333 0.422339
0.597253 0.639338 0.429389
0.618433 0.644709 0.436927
0.639826 0.650263 0.445075
0.661616 0.656336 0.453803
0.683253 0.662745 0.463264
0.705379 0.669856 0.473976
0.728359 0.678370 0.486641
0.751797 0.688197 0.501305
0.775662 0.699428 0.517540
0.799710 0.711971 0.535424
0.823789 0.726040 0.555200
0.847807 0.741695 0.577050
0.871550 0.758968 0.601251
0.894713 0.777829 0.627619
0.917021 0.798093 0.656214
0.938079 0.819516 0.686824
0.438148 0.621210 0.391577
0.440284 0.622065 0.392340
0.442786 0.623072 0.393256
0.446967 0.624262 0.394568
0.452461 0.625635 0.396124
0.459205 0.627008 0.397894
0.467292 0.628534 0.399969
0.477058 0.630457 0.402380
0.488411 0.632685 0.405585
0.501366 0.635370 0.409155
0.515770 0.638514 0.413367
0.531609 0.642023 0.418036
0.548363 0.645808 0.423255
0.566003 0.649775 0.428962
0.584466 0.654078 0.435218
0.603571 0.658656 0.442023
0.623163 0.663539 0.449287
0.643305 0.668818 0.457191
0.663722 0.674495 0.465797
0.684443 0.680476 0.475074
0.705104 0.686885 0.485084
0.725673 0.693660 0.495613
0.746426 0.701228 0.507469
0.768765 0.710842 0.522271
0.791470 0.721767 0.538506
0.814267 0.734005 0.556359
0.837034 0.747555 0.576135
0.859678 0.762600 0.597772
0.882078 0.779110 0.621607
0.903868 0.797086 0.647608
0.924773 0.816312 0.675563
0.944549 0.836637 0.705562
0.484474 0.651942 0.415595
0.485847 0.652491 0.416205
0.487587 0.652949 0.416693
0.490822 0.653712 0.417731
0.495430 0.654658 0.419074
0.501366 0.655787 0.420630
0.508690 0.657160 0.422766
0.517693 0.658930 0.425391
0.528252 0.661097 0.428595
0.540246 0.663600 0.432288
0.553643 0.666621 0.436713
0.568170 0.669825 0.441535
0.583551 0.673274 0.446723
0.599756 0.676936 0.452583
0.616541 0.680781 0.458778
0.634028 0.684901 0.465461
0.651911 0.689326 0.472786
0.670283 0.694087 0.480629
0.688930 0.699275 0.489204
0.707698 0.704677 0.498268
0.726467 0.710506 0.507988
0.745083 0.716640 0.518059
0.763455 0.723079 0.528588
0.782101 0.730282 0.540215
0.803311 0.740627 0.556146
0.824887 0.752255 0.573663
0.846464 0.765225 0.593133
0.868040 0.779660 0.614527
0.889311 0.795529 0.637995
0.910033 0.812711 0.663478
0.929931 0.831022 0.690913
0.948852 0.850492 0.720394
0.526635 0.679744 0.439612
0.528038 0.680262 0.440253
0.529595 0.680812 0.440894
0.532616 0.681483 0.441871
0.536797 0.682307 0.443122
0.542046 0.683284 0.444862
0.548669 0.684474 0.446906
0.556695 0.685969 0.449317
0.566186 0.687892 0.452461
0.577020 0.690120 0.456184
0.589197 0.692775 0.460578
0.602289 0.695674 0.465370
0.616449 0.698787 0.470680
0.631281 0.702205 0.476539
0.646754 0.705806 0.482826
0.662928 0.709712 0.489631
0.679438 0.713924 0.497139
0.696345 0.718471 0.505058
0.713527 0.723354 0.513634
0.730861 0.728664 0.522637
0.748226 0.734249 0.532250
0.765469 0.740139 0.542168
0.782559 0.746426 0.552667
0.799313 0.752865 0.563500
0.814176 0.758267 0.572930
0.834470 0.769345 0.590234
0.855009 0.781765 0.609277
0.875517 0.795621 0.630426
0.895781 0.810758 0.653437
0.915587 0.827207 0.678523
0.934661 0.844877 0.705592
0.952758 0.863676 0.734859
0.573266 0.709804 0.468666
0.574578 0.710292 0.469429
0.576013 0.710658 0.469978
0.578454 0.711177 0.470893
0.582025 0.711818 0.472053
0.586542 0.712551 0.473548
0.592309 0.713466 0.475563
0.599145 0.714626 0.477699
0.607263 0.716060 0.480720
0.616663 0.717800 0.484077
0.627131 0.719936 0.488106
0.638697 0.722347 0.492744
0.651118 0.725032 0.497780
0.664240 0.727962 0.503380
0.677790 0.731014 0.509392
0.691890 0.734401 0.515679
0.706416 0.738033 0.522576
0.721462 0.742123 0.530022
0.737057 0.746670 0.538170
0.752865 0.751675 0.547051
0.768917 0.757046 0.556451
0.784848 0.762783 0.566369
0.800534 0.768582 0.576440
0.815732 0.774533 0.586725
0.830503 0.780636 0.597284
0.845212 0.787106 0.608362
0.864439 0.798856 0.626947
0.883726 0.811917 0.647425
0.902800 0.826322 0.669978
0.921538 0.841947 0.694392
0.939666 0.858824 0.721035
0.956939 0.876860 0.749905
0.615839 0.736751 0.497932
0.617182 0.737240 0.498604
0.618494 0.737667 0.499214
0.620691 0.738125 0.500023
0.623774 0.738643 0.501244
0.627863 0.739345 0.502770
0.633051 0.740261 0.504723
0.639246 0.741360 0.507042
0.646601 0.742733 0.510033
0.655024 0.744533 0.513451
0.664485 0.746578 0.517510
0.674922 0.748928 0.522087
0.686152 0.751553 0.527306
0.697902 0.754360 0.532677
0.710170 0.757382 0.538598
0.722866 0.760616 0.544884
0.736019 0.764126 0.551568
0.749599 0.767971 0.558953
0.763607 0.772305 0.566949
0.777951 0.777005 0.575586
0.792386 0.782040 0.584680
0.806821 0.787350 0.594202
0.821042 0.792905 0.604089
0.834989 0.798550 0.614252
0.848508 0.804349 0.624598
0.861723 0.810239 0.635126
0.874571 0.816312 0.645869
0.892638 0.828763 0.665919
0.910704 0.842527 0.688075
0.928374 0.857450 0.712184
0.945525 0.873655 0.738460
0.961822 0.890837 0.766842
0.659083 0.764492 0.530114
0.660090 0.764889 0.530724
0.661097 0.765133 0.531121
0.662806 0.765469 0.531914
0.665370 0.765896 0.532830
0.668727 0.766476 0.534173
0.673152 0.767208 0.535973
0.678492 0.768185 0.538170
0.684932 0.769497 0.541070
0.692409 0.771084 0.544427
0.700710 0.773007 0.548302
0.710018 0.775265 0.552850
0.719936 0.777798 0.557824
0.730495 0.780484 0.563195
0.741451 0.783322 0.568902
0.752743 0.786374 0.575036
0.764431 0.789609 0.581598
0.776516 0.793240 0.588617
0.789059 0.797238 0.596307
0.801938 0.801602 0.604669
0.814939 0.806363 0.613519
0.827970 0.811368 0.622858
0.840818 0.816556 0.632441
0.853513 0.821897 0.642329
0.865873 0.827390 0.652430
0.877897 0.833005 0.662745
0.889616 0.838773 0.673304
0.900999 0.844724 0.684047
0.917479 0.857176 0.704768
0.934264 0.871519 0.728450
0.950469 0.886931 0.754269
0.965850 0.903227 0.782071
0.699519 0.791501 0.563134
0.700282 0.791714 0.563531
0.701167 0.791989 0.564050
0.702693 0.792325 0.564721
0.705074 0.792813 0.565881
0.708431 0.793576 0.567468
0.712795 0.794644 0.569696
0.718135 0.796048 0.572412
0.724483 0.797757 0.575830
0.731685 0.799802 0.579828
0.739712 0.802090 0.584314
0.748470 0.804623 0.589227
0.757687 0.807370 0.594629
0.767300 0.810178 0.600244
0.777218 0.813077 0.606195
0.787228 0.816037 0.612238
0.797574 0.819150 0.618677
0.808255 0.822538 0.625666
0.819272 0.826291 0.633082
0.830564 0.830381 0.641169
0.841947 0.834775 0.649653
0.853391 0.839414 0.658686
0.864775 0.844175 0.667903
0.875944 0.849149 0.677455
0.886900 0.854246 0.687160
0.897581 0.859464 0.697139
0.908019 0.864836 0.707332
0.918181 0.870390 0.717861
0.928130 0.876158 0.728695
0.942565 0.888365 0.749844
0.957519 0.902861 0.775021
0.971588 0.918029 0.802029
0.742885 0.821378 0.602106
0.743465 0.821592 0.602533
0.744076 0.821714 0.602869
0.745327 0.821927 0.603449
0.747250 0.822324 0.604395
0.749905 0.822873 0.605707
0.753353 0.823667 0.607538
0.757595 0.824704 0.609857
0.762753 0.826047 0.612787
0.768612 0.827634 0.616205
0.775174 0.829496 0.620081
0.782376 0.831540 0.624506
0.790097 0.833799 0.629328
0.798215 0.836271 0.634455
0.806729 0.838804 0.639918
0.815549 0.841581 0.645838
