其他预设/【232】美食博客调色预设124款/1.3D LUT预设（视频调色-PR-AE-PS-FCPX-达芬奇用）/Food Art #53.cube
# Created by Adobe Lightroom plugin Export LUT (1.17.0)
# www.johnrellis.com/lightroom/exportlut.htm
# Preset: Food Art #53
# Color profile: /Library/Application Support/Adobe/Color/Profiles/Recommended/AdobeRGB1998.icc
LUT_3D_SIZE 32
0.139162 0.126650 0.145602
0.139162 0.126650 0.145602
0.147524 0.125429 0.146090
0.178744 0.119570 0.146487
0.208560 0.117311 0.147829
0.236088 0.119173 0.149569
0.264103 0.121096 0.150790
0.292180 0.124239 0.154360
0.320806 0.128206 0.159945
0.350378 0.132479 0.167025
0.380896 0.135622 0.173068
0.412024 0.138613 0.178988
0.443702 0.141939 0.185153
0.475746 0.145327 0.192386
0.507958 0.149203 0.199496
0.540124 0.153658 0.206821
0.572503 0.158083 0.214603
0.604608 0.163272 0.222324
0.636988 0.168887 0.230014
0.672511 0.174929 0.238682
0.707088 0.181796 0.247135
0.740291 0.189853 0.255344
0.771756 0.198093 0.264225
0.801938 0.208225 0.272953
0.831540 0.217990 0.281773
0.860533 0.229282 0.290990
0.888823 0.241306 0.300664
0.916167 0.254887 0.310857
0.942321 0.269780 0.322118
0.967193 0.286381 0.334234
0.990784 0.304875 0.347478
1.000000 0.325139 0.362371
0.139162 0.126650 0.145602
0.139132 0.126864 0.145754
0.148501 0.127047 0.145815
0.179660 0.128298 0.146639
0.208743 0.128939 0.148592
0.236179 0.129702 0.149783
0.264042 0.131075 0.151461
0.291997 0.133425 0.155062
0.320562 0.136385 0.161227
0.350134 0.139834 0.167880
0.380438 0.142550 0.173922
0.411475 0.145144 0.179843
0.443122 0.148165 0.186191
0.475166 0.151583 0.193393
0.507225 0.155245 0.200046
0.539361 0.159548 0.207858
0.571527 0.163699 0.215335
0.603662 0.168582 0.222843
0.636194 0.173770 0.230442
0.671321 0.180148 0.238743
0.705684 0.186374 0.247166
0.738735 0.193912 0.255344
0.770169 0.202304 0.264042
0.800443 0.211398 0.272831
0.830014 0.221469 0.281651
0.859159 0.232242 0.290593
0.887541 0.244144 0.300267
0.915007 0.257389 0.310674
0.941283 0.271977 0.321782
0.966278 0.288457 0.333867
0.990021 0.306432 0.346990
1.000000 0.326635 0.361913
0.139101 0.139193 0.145937
0.138766 0.141176 0.145937
0.150576 0.142306 0.146151
0.180423 0.144289 0.147402
0.208896 0.143252 0.148745
0.236393 0.142855 0.150759
0.264103 0.142947 0.151949
0.291875 0.144228 0.157168
0.320287 0.147005 0.163210
0.349889 0.149538 0.169436
0.380163 0.151614 0.174960
0.411292 0.153994 0.180697
0.442847 0.156558 0.187167
0.474800 0.159670 0.194003
0.506798 0.163485 0.201144
0.539025 0.167208 0.208530
0.571099 0.171481 0.216037
0.603174 0.175753 0.223636
0.635859 0.180911 0.231296
0.670741 0.186679 0.239353
0.705013 0.193027 0.247471
0.737972 0.199893 0.255833
0.769406 0.208011 0.264469
0.799649 0.216587 0.273045
0.829282 0.226383 0.281712
0.858396 0.236790 0.290929
0.886870 0.248325 0.300450
0.914397 0.261295 0.310613
0.940764 0.275578 0.321752
0.965820 0.291630 0.333806
0.989593 0.309392 0.347143
1.000000 0.329229 0.361883
0.137942 0.171206 0.147616
0.139437 0.172122 0.147189
0.153567 0.172244 0.147707
0.180423 0.172335 0.149020
0.209781 0.169924 0.150607
0.237064 0.166934 0.152102
0.264256 0.165621 0.156008
0.291875 0.165713 0.161440
0.320470 0.166751 0.166751
0.349859 0.167910 0.172274
0.380194 0.169589 0.177340
0.411261 0.171267 0.183169
0.442603 0.173739 0.189639
0.474525 0.176425 0.196597
0.506554 0.179019 0.203586
0.538506 0.182803 0.210544
0.570733 0.186343 0.218082
0.602716 0.190677 0.225132
0.635492 0.195041 0.233005
0.669825 0.200290 0.240696
0.703822 0.205936 0.248753
0.736629 0.212497 0.256809
0.768124 0.219852 0.265110
0.798459 0.228153 0.273777
0.828397 0.237095 0.282689
0.857877 0.247013 0.291600
0.886503 0.257877 0.301396
0.914183 0.270542 0.311681
0.940551 0.284215 0.322728
0.965545 0.299626 0.334752
0.989258 0.316686 0.348028
1.000000 0.335760 0.362524
0.137514 0.200626 0.149630
0.143404 0.200778 0.149599
0.155550 0.200961 0.150027
0.178958 0.200809 0.151705
0.209079 0.200748 0.154604
0.237400 0.197696 0.158511
0.264622 0.194736 0.162417
0.292119 0.193301 0.166842
0.320653 0.192386 0.171359
0.349950 0.192782 0.176638
0.379950 0.193515 0.181643
0.410986 0.194827 0.187533
0.442390 0.196506 0.193545
0.474067 0.198825 0.200046
0.506035 0.201358 0.206973
0.538231 0.204196 0.213931
0.570397 0.207370 0.221073
0.602472 0.210941 0.228000
0.635767 0.215244 0.235691
0.669825 0.219669 0.243229
0.703487 0.224857 0.250736
0.736049 0.230747 0.258824
0.767391 0.237583 0.266911
0.797787 0.244999 0.275517
0.827756 0.253239 0.284031
0.857237 0.262089 0.293217
0.885924 0.272404 0.302586
0.913573 0.283879 0.313024
0.939971 0.296727 0.323857
0.964996 0.311345 0.335851
0.988739 0.327428 0.349004
1.000000 0.345678 0.363531
0.139254 0.229740 0.156497
0.148135 0.229648 0.157290
0.158389 0.229740 0.158297
0.179355 0.229740 0.160342
0.206882 0.229557 0.163577
0.237552 0.229862 0.167056
0.265476 0.226474 0.170443
0.292912 0.223606 0.173526
0.321324 0.222171 0.177554
0.350500 0.221408 0.182040
0.380529 0.221561 0.187015
0.411353 0.222232 0.192996
0.442603 0.223606 0.198825
0.474434 0.225254 0.204929
0.506310 0.227359 0.211215
0.538354 0.229801 0.217899
0.570520 0.232639 0.224979
0.603082 0.235813 0.231907
0.636378 0.239567 0.239109
0.670283 0.243534 0.246525
0.703761 0.248325 0.253819
0.736294 0.253483 0.261753
0.777005 0.263310 0.273045
0.807004 0.270268 0.281407
0.836423 0.277745 0.290105
0.865141 0.285985 0.299321
0.892943 0.295384 0.308690
0.919646 0.305943 0.318944
0.945129 0.317845 0.329717
0.969360 0.331487 0.341772
0.992309 0.346593 0.354803
1.000000 0.363684 0.369177
0.145968 0.259983 0.167178
0.153323 0.260014 0.167788
0.162844 0.259983 0.168093
0.181399 0.260014 0.169802
0.206851 0.260166 0.171817
0.235904 0.260349 0.174655
0.267338 0.260563 0.177707
0.295476 0.257359 0.181430
0.323766 0.254826 0.185275
0.353124 0.253574 0.189487
0.383276 0.253178 0.194369
0.414038 0.253452 0.199588
0.445258 0.254398 0.205295
0.476967 0.255406 0.211215
0.508690 0.257053 0.217380
0.540520 0.258946 0.223606
0.572473 0.261112 0.230137
0.606165 0.264286 0.236759
0.639551 0.267674 0.243992
0.673640 0.271550 0.251194
0.707546 0.276066 0.258701
0.740749 0.281010 0.266636
0.772702 0.286778 0.274784
0.803799 0.293065 0.283360
0.834134 0.300023 0.292302
0.863401 0.307591 0.301366
0.891539 0.316411 0.310613
0.918395 0.325933 0.320897
0.943969 0.336767 0.331884
0.968170 0.349279 0.343786
0.991150 0.363165 0.356725
1.000000 0.379156 0.371099
0.150820 0.289586 0.177646
0.156649 0.289860 0.177218
0.165194 0.289830 0.177401
0.182406 0.289891 0.178317
0.206607 0.289952 0.180362
0.234318 0.290135 0.182895
0.264561 0.290379 0.186038
0.296086 0.290898 0.189761
0.325566 0.288670 0.193820
0.353918 0.286046 0.197940
0.383917 0.285283 0.202213
0.414679 0.285222 0.207034
0.445655 0.285649 0.212253
0.477302 0.286473 0.217594
0.508873 0.287663 0.223484
0.540581 0.289128 0.229526
0.573693 0.291386 0.235569
0.606683 0.294041 0.242252
0.639643 0.296971 0.248508
0.673426 0.300298 0.255680
0.706874 0.304234 0.262913
0.739773 0.308598 0.270390
0.771603 0.313664 0.278111
0.802518 0.319036 0.286687
0.832761 0.325231 0.295079
0.862058 0.332158 0.304173
0.890196 0.339757 0.313451
0.917144 0.348363 0.323308
0.942748 0.358251 0.334173
0.967010 0.369482 0.346105
0.990051 0.382330 0.359075
1.000000 0.397070 0.373327
0.156130 0.320317 0.188235
0.161105 0.320439 0.187991
0.168124 0.320562 0.187686
0.184390 0.320623 0.188876
0.207523 0.320745 0.190280
0.233738 0.320928 0.192660
0.263066 0.321172 0.195346
0.293889 0.321752 0.198459
0.325811 0.322271 0.202670
0.356359 0.321263 0.206699
0.385016 0.318730 0.210788
0.415656 0.318151 0.215335
0.446693 0.318364 0.220371
0.478096 0.318883 0.225315
0.509483 0.319615 0.230564
0.542199 0.321569 0.236423
0.574914 0.323400 0.242222
0.607599 0.325475 0.248234
0.640131 0.327916 0.254276
0.673548 0.330907 0.260746
0.706783 0.334386 0.267491
0.739406 0.338170 0.274754
0.770932 0.342443 0.282475
0.801724 0.347295 0.290562
0.831846 0.352819 0.298924
0.861051 0.358709 0.307561
0.889220 0.365545 0.316777
0.916106 0.373236 0.326665
0.941711 0.381994 0.337438
0.965972 0.392126 0.349096
0.989014 0.403845 0.362097
1.000000 0.417395 0.376318
0.161288 0.351843 0.199832
0.165774 0.351904 0.199527
0.172061 0.352026 0.198825
0.186801 0.352270 0.199100
0.208469 0.352331 0.200656
0.234501 0.352514 0.202487
0.262608 0.352789 0.205142
0.292851 0.353216 0.208011
0.324193 0.353979 0.211307
0.356542 0.354711 0.215305
0.387976 0.354406 0.219791
0.416449 0.351904 0.224247
0.447425 0.351812 0.228428
0.479103 0.352361 0.233494
0.511559 0.353552 0.238499
0.544121 0.354955 0.243565
0.576654 0.356603 0.248936
0.609033 0.358343 0.254612
0.641413 0.360388 0.260380
0.674495 0.362951 0.266453
0.707210 0.365881 0.272862
0.739223 0.369116 0.279759
0.770321 0.372534 0.287144
0.800595 0.376593 0.294896
0.830503 0.381323 0.302892
0.859648 0.386603 0.311284
0.887785 0.392523 0.320409
0.914824 0.399451 0.330236
0.940581 0.407416 0.340826
0.964965 0.416632 0.352697
0.988067 0.427405 0.365637
1.000000 0.439887 0.380011
0.165957 0.383948 0.211582
0.170565 0.384100 0.210666
0.176303 0.384283 0.210117
0.189731 0.384436 0.209689
0.210819 0.384588 0.210941
0.235355 0.384955 0.212955
0.263218 0.385443 0.215335
0.292851 0.385901 0.217777
0.323766 0.386481 0.221012
0.355596 0.387335 0.224704
0.388190 0.388312 0.228489
0.420569 0.389044 0.232975
0.449561 0.386877 0.237552
0.481453 0.387304 0.241764
0.513329 0.388098 0.246525
0.545403 0.389105 0.251560
0.577630 0.390204 0.256382
0.609735 0.391669 0.261479
0.641932 0.393194 0.266941
0.674769 0.395453 0.272435
0.707210 0.398047 0.278721
0.738979 0.400793 0.285191
0.769863 0.403937 0.292210
0.800046 0.407294 0.299870
0.829831 0.411383 0.307561
0.858854 0.415930 0.315801
0.886870 0.421210 0.324865
0.913817 0.427222 0.334478
0.939452 0.434272 0.345006
0.963806 0.442512 0.356756
0.986908 0.452216 0.369604
1.000000 0.463569 0.383948
0.171176 0.417212 0.222507
0.175357 0.417334 0.222141
0.181125 0.417426 0.221988
0.192752 0.417762 0.220951
0.212955 0.417945 0.221653
0.237278 0.418250 0.223575
0.264347 0.418830 0.225528
0.293523 0.419287 0.227848
0.323949 0.419959 0.230808
0.355810 0.420905 0.233860
0.388495 0.422583 0.237766
0.421759 0.424414 0.241947
0.460365 0.430854 0.248020
0.489570 0.428443 0.253056
0.521782 0.428870 0.256931
0.553979 0.429389 0.261357
0.586053 0.430182 0.266117
0.618097 0.431006 0.270939
0.650080 0.432013 0.275914
0.682246 0.433631 0.281224
0.713893 0.435279 0.287053
0.744717 0.437263 0.293370
0.774685 0.439277 0.300175
0.804318 0.442023 0.307225
0.833402 0.445167 0.314916
0.861845 0.449042 0.323247
0.889372 0.453407 0.331823
0.915679 0.458503 0.341222
0.940795 0.464546 0.351598
0.964721 0.471717 0.363287
0.987396 0.480293 0.376165
1.000000 0.490517 0.390448
0.176333 0.453010 0.234409
0.180545 0.453071 0.234043
0.185763 0.453193 0.233768
0.197299 0.453315 0.232547
0.215640 0.453468 0.232517
0.239567 0.453559 0.233829
0.266148 0.453834 0.235752
0.295232 0.454780 0.238285
0.325933 0.456031 0.241062
0.357855 0.457618 0.244053
0.390845 0.459571 0.247837
0.424567 0.461799 0.251621
0.458778 0.464179 0.256168
0.493294 0.466377 0.260563
0.522637 0.463935 0.265354
0.554406 0.464302 0.269657
0.586450 0.464729 0.273625
0.618219 0.465217 0.277867
0.650019 0.466041 0.282719
0.681880 0.467170 0.287663
0.713161 0.468574 0.293309
0.743832 0.469947 0.299168
0.773587 0.471565 0.305882
0.803037 0.473701 0.312779
0.832029 0.476356 0.319951
0.860380 0.479500 0.328069
0.887816 0.483314 0.336645
0.914153 0.487800 0.346044
0.939269 0.492988 0.356359
0.963195 0.499306 0.367834
0.985931 0.506950 0.380560
1.000000 0.516258 0.395087
0.181308 0.487861 0.245487
0.185214 0.487984 0.245121
0.190707 0.488075 0.244846
0.201511 0.488472 0.243809
0.218631 0.488716 0.243046
0.241978 0.489082 0.244327
0.268345 0.489662 0.246250
0.297093 0.490394 0.248417
0.327214 0.491371 0.250858
0.358770 0.492744 0.253361
0.391302 0.494331 0.256687
0.424475 0.496284 0.260380
0.458289 0.498390 0.264317
0.492287 0.500450 0.268559
0.526421 0.502403 0.272801
0.555962 0.500084 0.277165
0.586847 0.499580 0.281193
0.618250 0.499794 0.285405
0.650019 0.500267 0.289494
0.681575 0.501152 0.294255
0.712673 0.502037 0.299504
0.743069 0.503166 0.305577
0.772732 0.504265 0.311894
0.802060 0.506096 0.318639
0.830991 0.508232 0.325780
0.859251 0.510979 0.333532
0.886656 0.514122 0.342016
0.912902 0.517876 0.351415
0.937987 0.522423 0.361852
0.961913 0.528008 0.373327
0.984619 0.534844 0.386358
1.000000 0.543267 0.400763
0.186648 0.524346 0.256443
0.190219 0.524376 0.256474
0.195407 0.524376 0.255741
0.205936 0.524590 0.255009
0.221683 0.524773 0.253696
0.244663 0.524926 0.254459
0.270726 0.525200 0.256168
0.298711 0.525719 0.258061
0.328557 0.526574 0.260258
0.359625 0.527733 0.262913
0.391638 0.529290 0.265904
0.424598 0.531029 0.269230
0.457954 0.532921 0.272740
0.491768 0.534966 0.276341
0.525536 0.536614 0.280552
0.559167 0.538170 0.284581
0.588739 0.535973 0.288823
0.618738 0.534691 0.292699
0.650141 0.535027 0.296849
0.681422 0.535393 0.301396
0.712245 0.535943 0.306371
0.742428 0.536584 0.311894
0.771878 0.537285 0.317967
0.801083 0.538598 0.324804
0.829984 0.540429 0.331823
0.858244 0.542687 0.339391
0.885649 0.545495 0.347997
0.912078 0.548821 0.357519
0.937224 0.552911 0.368017
0.961181 0.557885 0.379706
0.983978 0.564111 0.393072
1.000000 0.571771 0.407874
0.191470 0.560266 0.267430
0.195224 0.560449 0.267185
0.199954 0.560571 0.266453
0.210361 0.560723 0.265629
0.225711 0.560967 0.264347
0.247440 0.561242 0.264866
0.272892 0.561547 0.266056
0.300877 0.562158 0.267674
0.330358 0.562921 0.269780
0.361151 0.563928 0.272251
0.392889 0.565087 0.274815
0.425208 0.566400 0.277958
0.457984 0.567712 0.280888
0.491096 0.569116 0.284337
0.524346 0.570459 0.287877
0.557671 0.571771 0.291844
0.590753 0.572900 0.295781
0.620569 0.571130 0.299779
0.650507 0.569879 0.303899
0.681727 0.570184 0.308507
0.712367 0.570489 0.313298
0.742428 0.570825 0.318853
0.771817 0.571221 0.324987
0.801022 0.572107 0.331365
0.829770 0.573571 0.338567
0.857969 0.575402 0.346532
0.885344 0.577630 0.354772
0.911559 0.580499 0.364416
0.936584 0.583917 0.375158
0.960388 0.588128 0.386908
0.983001 0.593500 0.400061
1.000000 0.600244 0.415015
0.196811 0.595453 0.277501
0.200290 0.595514 0.277073
0.204898 0.595605 0.276829
0.214817 0.595697 0.275975
0.229679 0.595972 0.274662
0.249577 0.596216 0.274540
0.274846 0.596551 0.275792
0.302342 0.596979 0.277043
0.331548 0.597650 0.278874
0.361852 0.598413 0.281102
0.393194 0.599390 0.283513
0.425208 0.600610 0.286076
0.457557 0.601831 0.289342
0.490211 0.602930 0.292454
0.523125 0.603906 0.295750
0.555749 0.604761 0.299382
0.588312 0.605493 0.303166
0.620874 0.606439 0.307073
0.651301 0.605402 0.311131
0.681666 0.604761 0.315465
0.712062 0.604639 0.320500
0.741848 0.604578 0.325780
0.771115 0.604578 0.331762
0.800198 0.605188 0.338231
0.828946 0.606195 0.345190
0.857023 0.607721 0.352972
0.884337 0.609613 0.361700
0.910552 0.611872 0.371252
0.935485 0.614771 0.381903
0.959258 0.618341 0.393835
0.981842 0.623041 0.407202
1.000000 0.629053 0.422431
0.202060 0.630274 0.287633
0.205661 0.630426 0.287053
0.211368 0.636133 0.288975
0.221256 0.636133 0.288121
0.235752 0.636255 0.286687
0.254551 0.636347 0.285801
0.279484 0.636255 0.286931
0.306493 0.636347 0.288182
0.335454 0.636530 0.289799
0.365362 0.636957 0.292058
0.396338 0.637537 0.294041
0.427802 0.638117 0.296727
0.459663 0.638727 0.299657
0.492012 0.639277 0.302373
0.524285 0.639796 0.305516
0.556420 0.640253 0.308904
0.588556 0.640589 0.312505
0.620569 0.640955 0.316289
0.652461 0.641413 0.320165
0.683314 0.641108 0.324376
0.714168 0.641230 0.328588
0.743435 0.640375 0.334173
0.772396 0.639857 0.339910
0.801205 0.639887 0.346136
0.829435 0.640253 0.353033
0.857053 0.640955 0.360876
0.883879 0.642023 0.369238
0.909697 0.643580 0.378576
0.934386 0.645716 0.389319
0.958038 0.648615 0.401282
0.980499 0.652583 0.414954
1.000000 0.657862 0.430274
0.209323 0.664942 0.297826
0.212741 0.665675 0.297856
0.217563 0.666438 0.297612
0.227024 0.667201 0.297215
0.240940 0.667750 0.296483
0.258854 0.668116 0.295354
0.282719 0.668208 0.296513
0.309178 0.668147 0.297551
0.337285 0.668360 0.299168
0.366430 0.668574 0.301061
0.396735 0.668971 0.303288
0.427588 0.669429 0.305821
0.458961 0.669825 0.308385
0.490547 0.670222 0.311192
0.522179 0.670558 0.314183
0.553826 0.670710 0.317296
0.585504 0.670924 0.320836
0.616999 0.671199 0.324315
0.648463 0.671534 0.328374
0.679805 0.672053 0.332464
0.710842 0.672450 0.336675
0.742306 0.673671 0.341527
0.771786 0.673335 0.347234
0.800473 0.673030 0.353643
0.828672 0.673091 0.360479
0.856260 0.673487 0.368231
0.883055 0.674098 0.376501
0.908659 0.675166 0.386297
0.933257 0.676753 0.397192
0.956817 0.679042 0.409308
0.979187 0.682307 0.423102
1.000000 0.686854 0.438788
0.217350 0.696407 0.307378
0.220676 0.697108 0.307561
0.225193 0.697749 0.307378
0.234348 0.698360 0.307073
0.247837 0.698878 0.306523
0.265141 0.699184 0.305760
0.287694 0.699245 0.306188
0.312902 0.699184 0.307591
0.340002 0.699306 0.309148
0.368627 0.699458 0.310735
0.398108 0.699702 0.312932
0.428321 0.700038 0.315129
0.458900 0.700252 0.317876
0.489876 0.700496 0.320684
0.521050 0.700649 0.323339
0.552087 0.700740 0.326574
0.583154 0.700862 0.329808
0.614130 0.700984 0.333410
0.645167 0.701259 0.337102
0.676112 0.701717 0.341161
0.706935 0.702266 0.345556
0.738003 0.703365 0.350134
0.770047 0.705745 0.355200
0.799924 0.706294 0.361273
0.828031 0.705959 0.368353
0.855467 0.705898 0.376013
0.882017 0.706050 0.384436
0.907561 0.706508 0.394171
0.931975 0.707576 0.405127
0.955383 0.709224 0.417517
0.977661 0.711818 0.431647
0.998840 0.715663 0.447456
0.226719 0.726894 0.316991
0.230167 0.727474 0.317144
0.234440 0.728084 0.317113
0.243320 0.728634 0.317082
0.256687 0.729061 0.316899
0.273320 0.729305 0.316197
0.294102 0.729305 0.316686
0.318364 0.729274 0.317876
0.344579 0.729274 0.319341
0.372168 0.729305 0.320897
0.400610 0.729488 0.323003
0.429877 0.729702 0.325109
0.459815 0.729854 0.327611
0.490059 0.730037 0.330175
0.520531 0.730251 0.333104
0.551110 0.730434 0.336156
0.581872 0.730739 0.339757
0.612665 0.731136 0.343175
0.643488 0.731655 0.346960
0.674281 0.732357 0.351415
0.705013 0.733211 0.355749
0.735653 0.734157 0.360662
0.766598 0.735775 0.365637
0.799191 0.739193 0.371099
0.829618 0.740841 0.377783
0.856901 0.740383 0.385840
0.883207 0.740047 0.394690
0.908446 0.739956 0.404761
0.932616 0.740291 0.416144
0.955688 0.741329 0.428901
0.977691 0.743221 0.443244
0.998566 0.746304 0.459480
0.239139 0.759152 0.327642
0.242191 0.759426 0.327642
0.246189 0.759640 0.327794
0.254673 0.759854 0.327703
0.267277 0.759945 0.327733
0.283482 0.760006 0.327611
0.303288 0.760037 0.328038
0.326238 0.759945 0.329229
0.351202 0.760067 0.330694
0.377813 0.760189 0.332189
0.405524 0.760372 0.334356
0.434058 0.760647 0.336645
0.463111 0.760800 0.339086
0.492592 0.760922 0.341619
0.522332 0.761044 0.344488
0.552361 0.761105 0.347539
0.582422 0.761288 0.350774
0.612604 0.761532 0.354223
0.642786 0.761898 0.358099
0.672969 0.762295 0.362097
0.702998 0.762905 0.366491
0.732906 0.763516 0.371038
0.762661 0.764248 0.375921
0.792721 0.765591 0.381201
0.825193 0.769619 0.387213
0.856016 0.772488 0.394354
0.882231 0.771664 0.403449
0.907347 0.771023 0.413581
0.931334 0.770809 0.425177
0.954284 0.771145 0.438025
0.976104 0.772457 0.452918
0.996918 0.774838 0.469520
0.252171 0.788663 0.337835
0.254948 0.788876 0.337957
0.258762 0.789181 0.338048
0.267002 0.789303 0.338262
0.279149 0.789395 0.338628
0.294804 0.789364 0.338689
0.313603 0.789303 0.339269
0.335241 0.789181 0.340520
0.359106 0.789151 0.341955
0.384375 0.789242 0.343633
0.410895 0.789334 0.345556
0.438453 0.789517 0.347723
0.466560 0.789639 0.350164
0.495369 0.789700 0.352758
0.524285 0.789822 0.355535
0.553613 0.789914 0.358373
0.583001 0.790036 0.361669
0.612573 0.790280 0.365301
0.642206 0.790585 0.369116
0.671809 0.791012 0.373297
0.701350 0.791531 0.377874
0.730831 0.792081 0.382605
0.760006 0.792782 0.387732
0.789029 0.793484 0.392737
0.816953 0.793454 0.397467
0.849271 0.798123 0.403998
0.880766 0.802335 0.412146
0.905699 0.801236 0.422370
0.929625 0.800473 0.434119
0.952453 0.800259 0.447425
0.974273 0.800900 0.462440
0.995056 0.802762 0.479683
0.268254 0.819211 0.349615
0.271214 0.819486 0.349767
0.274754 0.819638 0.350072
0.282597 0.819638 0.350347
0.294224 0.819577 0.350683
0.309178 0.819394 0.351537
0.327276 0.819150 0.352514
0.347326 0.818875 0.353521
0.369757 0.818601 0.354681
0.393591 0.818418 0.356115
0.418799 0.818235 0.358038
0.444953 0.818143 0.359991
0.471931 0.818051 0.362188
0.499550 0.817868 0.364782
0.527459 0.817716 0.367407
0.555718 0.817502 0.370367
0.584222 0.817350 0.373419
0.612848 0.817288 0.376898
0.641718 0.817472 0.380560
0.670619 0.817777 0.384833
0.699519 0.818235 0.389502
0.728359 0.818723 0.394324
0.756863 0.819181 0.399451
0.785092 0.819577 0.404700
0.812894 0.819944 0.410132
0.840604 0.820615 0.415839
0.872465 0.825772 0.423438
0.904601 0.831540 0.432197
0.928283 0.830137 0.444068
0.950958 0.829252 0.457496
0.972656 0.829282 0.472938
0.993317 0.830472 0.490639
0.284916 0.846555 0.360845
0.287663 0.846799 0.361151
0.291142 0.846921 0.361395
0.298802 0.846921 0.361975
0.310094 0.846799 0.362707
0.324651 0.846586 0.363775
0.342138 0.846311 0.365393
0.360845 0.846098 0.366522
0.381720 0.845884 0.367803
0.404334 0.845731 0.369482
0.428168 0.845579 0.371160
0.453376 0.845487 0.373266
0.479194 0.845426 0.375677
0.505730 0.845274 0.378119
0.532647 0.845090 0.380865
0.560021 0.844877 0.383734
0.587610 0.844694 0.387213
0.615442 0.844602 0.390692
0.643427 0.844633 0.394537
0.671534 0.844785 0.398718
0.699672 0.844999 0.403388
0.727718 0.845274 0.408240
0.755489 0.845579 0.413581
0.782986 0.845853 0.418799
0.810178 0.846098 0.424445
0.837003 0.846342 0.430243
0.863371 0.846616 0.436622
0.894652 0.852262 0.445533
0.926543 0.858946 0.455756
0.950072 0.858549 0.469490
0.971588 0.857908 0.485420
0.992096 0.858396 0.503532
0.304540 0.873167 0.373419
0.307347 0.873289 0.373693
0.310765 0.873320 0.374151
0.317845 0.873228 0.374884
0.328557 0.872984 0.375860
0.342565 0.872648 0.377600
0.359319 0.872282 0.379644
0.376593 0.871977 0.380591
0.396124 0.871733 0.381903
0.417029 0.871519 0.383429
0.439643 0.871336 0.385260
0.463386 0.871214 0.387579
0.487922 0.871122 0.389837
0.513329 0.870939 0.392432
0.539117 0.870695 0.395239
0.565423 0.870420 0.398352
0.592004 0.870146 0.401648
0.618799 0.869932 0.405035
0.645899 0.869810 0.408972
0.673091 0.869841 0.413336
0.700282 0.869902 0.417975
0.727504 0.870054 0.423072
0.754452 0.870207 0.428351
0.781216 0.870329 0.433906
0.807645 0.870481 0.439826
0.833707 0.870603 0.445808
0.859403 0.870787 0.452094
0.884703 0.871000 0.458656
0.914885 0.876707 0.469093
0.946044 0.883970 0.481392
0.970031 0.885222 0.497169
0.990387 0.884977 0.515496
0.326177 0.897795 0.386755
0.328801 0.897856 0.387243
0.332036 0.897856 0.387671
0.338720 0.897765 0.388678
0.349462 0.897520 0.390265
0.363348 0.897307 0.392554
0.379797 0.897093 0.395331
0.395972 0.897093 0.396796
0.414160 0.897154 0.398322
0.434119 0.897246 0.400519
0.455512 0.897368 0.402747
0.478126 0.897459 0.405219
0.501579 0.897520 0.407935
0.525841 0.897429 0.410895
0.550500 0.897276 0.413947
0.575586 0.897002 0.417121
0.601007 0.896696 0.420539
0.626734 0.896422 0.424262
0.652674 0.896208 0.428351
0.678828 0.896086 0.432715
0.704982 0.896025 0.437537
0.731136 0.895995 0.442817
0.757168 0.895964 0.448219
0.782956 0.895933 0.454017
0.808469 0.895903 0.460060
0.833646 0.895903 0.466224
0.858518 0.895964 0.472694
0.882994 0.896056 0.479835
0.907103 0.896300 0.487221
0.935882 0.901884 0.498970
0.965911 0.909575 0.513787
0.990143 0.912627 0.531212
0.353826 0.922942 0.403723
0.356115 0.922942 0.404211
0.359167 0.922911 0.404791
0.365820 0.922667 0.406104
0.375799 0.922362 0.408057
0.389258 0.921965 0.411017
0.404761 0.921538 0.414221
0.419043 0.921386 0.415351
0.435279 0.921233 0.416693
0.453468 0.921080 0.418708
0.473030 0.920897 0.420691
0.493751 0.920775 0.423102
0.515496 0.920592 0.425635
0.538079 0.920348 0.428473
0.561303 0.920043 0.431556
0.585077 0.919707 0.434699
