其他预设/【232】美食博客调色预设124款/1.3D LUT预设（视频调色-PR-AE-PS-FCPX-达芬奇用）/Food Art #42.cube
# Created by Adobe Lightroom plugin Export LUT (1.17.0)
# www.johnrellis.com/lightroom/exportlut.htm
# Preset: Food Art #42
# Color profile: /Library/Application Support/Adobe/Color/Profiles/Recommended/AdobeRGB1998.icc
LUT_3D_SIZE 8
DOMAIN_MIN 0.000000 0.000000 0.000000
DOMAIN_MAX 0.903226 0.903226 0.903226
0.092470 0.081270 0.078920
0.185214 0.077668 0.086275
0.319097 0.099550 0.110567
0.451362 0.110201 0.134829
0.577356 0.130556 0.168185
0.707424 0.155032 0.203891
0.846494 0.187930 0.242435
0.961791 0.249485 0.290074
0.121736 0.174716 0.095857
0.204349 0.178042 0.108583
0.329381 0.172213 0.124025
0.457130 0.172457 0.146670
0.581231 0.181460 0.177676
0.710292 0.196384 0.211337
0.848234 0.222324 0.247776
0.962310 0.275242 0.294774
0.189181 0.304326 0.138125
0.244968 0.306889 0.141482
0.363226 0.305791 0.160494
0.475593 0.293889 0.185733
0.593866 0.291020 0.210117
0.720516 0.295171 0.235416
0.854154 0.311589 0.266514
0.964019 0.349615 0.310643
0.269078 0.423194 0.189792
0.304906 0.424994 0.192355
0.410163 0.430304 0.201389
0.514519 0.420172 0.225467
0.618158 0.408270 0.246799
0.737942 0.410712 0.272496
0.863920 0.422644 0.296818
0.966583 0.450324 0.338567
0.355871 0.542535 0.243503
0.381384 0.544396 0.245151
0.463020 0.550927 0.251530
0.575006 0.553765 0.263462
0.667842 0.538354 0.282048
0.764797 0.528405 0.299138
0.877012 0.539055 0.331853
0.969146 0.562066 0.379126
0.442664 0.672969 0.291936
0.462898 0.674586 0.293370
0.529442 0.679744 0.299046
0.633295 0.688411 0.309606
0.732479 0.683070 0.324529
0.814176 0.667597 0.340612
0.892149 0.657313 0.363806
0.972412 0.672114 0.420294
0.542626 0.795468 0.355779
0.557916 0.796139 0.357855
0.609155 0.798520 0.364996
0.689998 0.802487 0.378882
0.786954 0.808072 0.400732
0.857115 0.797574 0.417365
0.920195 0.786893 0.434882
0.974121 0.779934 0.471962
0.672450 0.886839 0.463569
0.682643 0.886900 0.466346
0.716945 0.887053 0.476112
0.771633 0.887480 0.494514
0.837095 0.888487 0.522332
0.896971 0.888212 0.552880
0.940642 0.883696 0.572076
0.979889 0.881010 0.592370
0.069215 0.087404 0.154604
0.187778 0.082155 0.159701
0.323644 0.117311 0.171023
0.454902 0.136690 0.188754
0.579706 0.156466 0.211124
0.709163 0.174350 0.236301
0.847501 0.198245 0.266392
0.961913 0.254887 0.307317
0.126650 0.178408 0.166690
0.206363 0.178195 0.172030
0.332982 0.183261 0.182650
0.459693 0.188937 0.197177
0.583032 0.198825 0.217899
0.712032 0.210300 0.242130
0.849180 0.230320 0.270848
0.962463 0.279698 0.311467
0.190219 0.303410 0.184787
0.250309 0.304204 0.195621
0.363958 0.305211 0.207553
0.475685 0.300114 0.227146
0.594934 0.298650 0.242161
0.721828 0.301976 0.260990
0.854917 0.316045 0.286473
0.964080 0.352605 0.325933
0.264591 0.422187 0.216464
0.311070 0.422004 0.228885
0.410163 0.427649 0.235599
0.514946 0.419562 0.253605
0.618647 0.410285 0.271427
0.738796 0.413367 0.292180
0.864378 0.424842 0.313603
0.966583 0.452430 0.352087
0.359655 0.539757 0.267643
0.384070 0.541680 0.269108
0.462989 0.548180 0.274418
0.576043 0.553185 0.284367
0.667964 0.537926 0.300267
0.765499 0.528954 0.315373
0.877134 0.540337 0.346807
0.968994 0.563592 0.391241
0.443580 0.670954 0.309239
0.463386 0.672480 0.310796
0.528862 0.677790 0.316106
0.632197 0.686702 0.325933
0.733028 0.682887 0.339818
0.814206 0.667262 0.354498
0.892302 0.657710 0.376410
0.972045 0.673365 0.432074
0.543755 0.794125 0.369299
0.559045 0.794827 0.371191
0.609827 0.797238 0.378363
0.690425 0.801358 0.392126
0.786954 0.807095 0.413855
0.857816 0.797482 0.430182
0.920073 0.786801 0.446509
0.973846 0.780301 0.482124
0.675380 0.885924 0.474159
0.685420 0.885985 0.476814
0.719326 0.886229 0.486519
0.773434 0.886717 0.504662
0.838285 0.887907 0.531853
0.898100 0.888151 0.562554
0.940948 0.883665 0.580529
0.979644 0.880980 0.599573
0.000000 0.092653 0.262211
0.173068 0.102663 0.262669
0.330297 0.125338 0.269932
0.459266 0.158053 0.275944
0.583825 0.176822 0.286229
0.714443 0.185855 0.300267
0.850828 0.202853 0.320714
0.962829 0.257145 0.352117
0.154452 0.202884 0.272343
0.196872 0.183413 0.273686
0.340581 0.189822 0.275914
0.464363 0.204562 0.281315
0.587640 0.212100 0.290227
0.717006 0.219089 0.303990
0.852354 0.234195 0.324285
0.963256 0.282017 0.355688
0.211704 0.311101 0.285710
0.259312 0.309545 0.287205
0.365148 0.302770 0.289738
0.480385 0.302373 0.295293
0.599054 0.304265 0.305058
0.726131 0.307500 0.317937
0.857633 0.319036 0.336584
0.964691 0.355169 0.368322
0.280308 0.415717 0.296513
0.313085 0.416388 0.299199
0.404364 0.419043 0.307073
0.515404 0.417578 0.316808
0.620203 0.413825 0.331212
0.742031 0.416785 0.342535
0.866392 0.427588 0.359350
0.966735 0.455573 0.392035
0.350988 0.535149 0.318547
0.374731 0.536217 0.320256
0.458106 0.539452 0.332097
0.575250 0.551049 0.339544
0.667903 0.536187 0.350774
0.767636 0.530449 0.363439
0.877714 0.543877 0.392004
0.968597 0.567437 0.428779
0.424445 0.667384 0.346349
0.443580 0.668452 0.347417
0.524437 0.670832 0.364996
0.626093 0.680293 0.374090
0.734310 0.682216 0.386725
0.814054 0.666255 0.397436
0.892973 0.658808 0.416419
0.970855 0.677424 0.470741
0.523278 0.792538 0.393866
0.549920 0.791623 0.404517
0.611078 0.792630 0.420142
0.690974 0.797208 0.433661
0.786648 0.803647 0.455329
0.860014 0.797269 0.471290
0.919707 0.786465 0.483406
0.972808 0.781643 0.515282
0.676600 0.883757 0.501518
0.692744 0.882872 0.509972
0.725795 0.883299 0.519341
0.778378 0.884215 0.536553
0.841337 0.885985 0.562310
0.901488 0.887968 0.593530
0.941772 0.883696 0.607660
0.978790 0.881041 0.622370
0.000000 0.122560 0.368963
0.159579 0.127291 0.368170
0.324224 0.139376 0.364019
0.466896 0.163119 0.367926
0.589380 0.199130 0.372839
0.719692 0.206088 0.383978
0.854734 0.209079 0.397986
0.964324 0.247715 0.415412
0.150454 0.212161 0.375708
0.186313 0.194278 0.375311
0.336126 0.196872 0.369512
0.472724 0.208438 0.371160
0.593072 0.233219 0.376532
0.722652 0.233860 0.386297
0.856474 0.234806 0.399054
0.964904 0.268742 0.416083
0.237217 0.342351 0.391302
0.277836 0.341527 0.392096
0.360967 0.308110 0.385321
0.489754 0.306310 0.380285
0.605676 0.313024 0.385687
0.732998 0.307286 0.392065
0.862425 0.305303 0.401068
0.966186 0.344610 0.425116
0.304356 0.432349 0.394018
0.333196 0.430854 0.394263
0.412879 0.425055 0.394812
0.514366 0.412757 0.393378
0.626246 0.410925 0.397589
0.748684 0.411872 0.405829
0.870146 0.421912 0.420264
0.967437 0.452979 0.447761
0.366583 0.523308 0.398810
0.388067 0.524315 0.400427
0.453681 0.528130 0.404608
0.555352 0.534783 0.411841
0.666712 0.532403 0.419959
0.770077 0.532250 0.433631
0.879545 0.545373 0.452674
0.968170 0.570703 0.484077
0.433753 0.656947 0.423346
0.451850 0.658045 0.424506
0.509270 0.661952 0.427649
0.611627 0.667597 0.440894
0.734890 0.681270 0.455909
0.813291 0.664210 0.462196
0.893828 0.660578 0.478523
0.968811 0.683467 0.528801
0.527092 0.785702 0.459297
0.542596 0.786069 0.461219
0.593805 0.787442 0.468177
0.688380 0.788937 0.494179
0.783200 0.796963 0.515007
0.863035 0.797208 0.532891
0.918791 0.785916 0.538628
0.971344 0.783749 0.565545
0.665248 0.882017 0.534844
0.676783 0.881834 0.538323
0.714473 0.881285 0.550683
0.781643 0.880034 0.581689
0.842802 0.882750 0.605249
0.903349 0.887022 0.636011
0.942626 0.884031 0.647944
0.977417 0.881224 0.656916
0.000000 0.153597 0.477852
0.147341 0.156619 0.476173
0.319097 0.165072 0.469886
0.466072 0.175174 0.455970
0.598596 0.196689 0.462959
0.728267 0.220432 0.475074
0.858885 0.234562 0.491890
0.964294 0.274846 0.506645
0.126925 0.223850 0.483589
0.179629 0.213504 0.482399
0.332433 0.214969 0.475074
0.473579 0.216587 0.460334
0.602564 0.230014 0.465309
0.731167 0.248295 0.477363
0.860441 0.258488 0.493294
0.964752 0.294743 0.507622
0.282292 0.368261 0.500053
0.315312 0.361578 0.496925
0.361059 0.320287 0.490883
0.494667 0.311650 0.474525
0.615778 0.312779 0.473182
0.740658 0.323644 0.484993
0.865660 0.326757 0.497780
0.966186 0.355200 0.511162
0.333654 0.476051 0.514061
0.360662 0.475105 0.514488
0.438087 0.470192 0.515801
0.519371 0.424353 0.499123
0.636622 0.413703 0.485939
0.756252 0.418067 0.495491
0.874022 0.417700 0.503014
0.968353 0.440375 0.516167
0.391852 0.559136 0.510002
0.412268 0.557824 0.510002
0.474647 0.552911 0.509606
0.563378 0.542809 0.507530
0.662226 0.525109 0.501610
0.775845 0.525902 0.507256
0.883024 0.535973 0.519768
0.968566 0.563409 0.544396
0.445319 0.640925 0.507591
0.461738 0.642023 0.508751
0.515343 0.645747 0.512810
0.599756 0.652369 0.519097
0.709743 0.662104 0.530449
0.810971 0.660365 0.539422
0.893126 0.662959 0.557397
0.967285 0.686000 0.590570
0.532860 0.774807 0.539788
0.547387 0.775296 0.541070
0.596094 0.776761 0.546288
0.671839 0.779873 0.555749
0.769924 0.785397 0.578302
0.865202 0.798215 0.604486
0.917052 0.784970 0.602930
0.969848 0.785672 0.623835
0.666865 0.876646 0.594873
0.677760 0.876524 0.597406
0.713436 0.876249 0.606134
0.767056 0.876738 0.620813
0.837125 0.878111 0.650538
0.899077 0.884001 0.679042
0.942992 0.885100 0.696040
0.975555 0.881559 0.698207
0.000000 0.186984 0.610010
0.120882 0.189334 0.608087
0.317601 0.193790 0.600671
0.478553 0.196475 0.585565
0.610742 0.197147 0.563989
0.740261 0.215122 0.576501
0.864530 0.245792 0.592676
0.963622 0.306889 0.606744
0.021485 0.241642 0.615167
0.159945 0.237705 0.613214
0.330724 0.237308 0.605402
0.485451 0.234440 0.589807
0.615015 0.228763 0.566247
0.743008 0.242527 0.578485
0.865843 0.269718 0.594110
0.963867 0.325719 0.607996
0.299016 0.388739 0.627893
0.309239 0.375982 0.626459
0.357519 0.336950 0.620569
0.503838 0.326543 0.604089
0.629267 0.311894 0.577722
0.752102 0.317754 0.585412
0.870207 0.339757 0.599084
0.964691 0.384100 0.612085
0.374609 0.527855 0.657862
0.398749 0.521721 0.655085
0.468696 0.499062 0.644038
0.524926 0.441230 0.628290
0.651423 0.419501 0.600427
0.766354 0.416297 0.596399
0.876677 0.437385 0.607477
0.965850 0.467689 0.618952
0.431006 0.615869 0.653956
0.451087 0.615045 0.654261
0.514855 0.611780 0.654963
0.609003 0.605158 0.655543
0.679072 0.549126 0.632258
0.783597 0.529015 0.610163
0.884489 0.545037 0.618860
0.967163 0.564202 0.628717
0.485237 0.696315 0.643946
0.501366 0.695216 0.643732
0.552972 0.691218 0.643214
0.630976 0.683589 0.641718
0.717403 0.671809 0.637751
0.803464 0.651637 0.627253
0.893950 0.658747 0.635340
0.966979 0.678553 0.653132
0.545342 0.767147 0.631434
0.557580 0.766354 0.631769
0.597833 0.763516 0.632837
0.665583 0.764553 0.637659
0.751308 0.770657 0.647578
0.845060 0.781949 0.667628
0.913390 0.782559 0.675654
0.966491 0.788693 0.694942
0.665431 0.869139 0.666499
0.675502 0.869078 0.667994
0.708980 0.869139 0.673274
0.759854 0.870024 0.682246
0.820981 0.872648 0.696437
0.888579 0.877928 0.724514
0.943236 0.887175 0.753414
0.972808 0.881926 0.747677
0.000000 0.225406 0.749691
0.059571 0.227085 0.748470
0.308446 0.229892 0.742580
0.481849 0.228946 0.731075
0.630793 0.221347 0.712184
0.754238 0.217594 0.695460
0.869017 0.246983 0.705287
0.962432 0.317815 0.712215
0.000000 0.266423 0.751431
0.127871 0.266728 0.750149
0.321080 0.266331 0.744259
0.487129 0.261784 0.732662
0.633082 0.251133 0.713558
0.754757 0.243381 0.695308
0.868681 0.268925 0.704891
0.961608 0.334142 0.711696
0.281376 0.400580 0.759884
0.292515 0.389197 0.758785
0.353368 0.358160 0.754116
0.504417 0.349554 0.742458
0.643427 0.334295 0.722896
0.760922 0.317723 0.700099
0.872923 0.338079 0.709529
0.962646 0.395453 0.715877
0.429511 0.544182 0.775509
0.449165 0.539635 0.773434
0.495003 0.517693 0.767025
0.533989 0.464118 0.758785
0.662287 0.445747 0.739284
0.771725 0.417273 0.709224
0.879393 0.435096 0.717006
0.963317 0.482979 0.722164
0.504417 0.659815 0.788174
0.522942 0.659724 0.788296
0.584405 0.660334 0.788937
0.656489 0.638880 0.778622
0.695949 0.577111 0.760494
0.789853 0.543236 0.729671
0.885252 0.543938 0.724086
0.962768 0.584070 0.730922
0.565118 0.739681 0.779995
0.580285 0.739437 0.780179
0.629541 0.738705 0.780789
0.700954 0.737697 0.781949
0.780148 0.736812 0.783902
0.824582 0.688472 0.762112
0.894102 0.663416 0.736355
0.962707 0.688258 0.744656
0.617700 0.812467 0.769772
0.629541 0.811826 0.769924
0.666407 0.809384 0.769894
0.721553 0.805325 0.769772
0.784909 0.799313 0.768551
0.848173 0.790799 0.764981
0.903960 0.773831 0.752438
0.963622 0.785885 0.762631
0.683680 0.868132 0.754513
0.691432 0.867613 0.754849
0.717281 0.866423 0.756710
0.755459 0.863951 0.758358
0.806790 0.862913 0.762264
0.870176 0.868406 0.774228
0.930785 0.879118 0.797604
0.968688 0.881651 0.803464
0.000000 0.266453 0.862547
0.013062 0.267918 0.861723
0.296818 0.271061 0.858213
0.470008 0.273228 0.851926
0.622919 0.271275 0.841855
0.754726 0.262181 0.826810
0.863767 0.274510 0.819852
0.955596 0.329442 0.825559
0.000000 0.298924 0.863218
0.122621 0.299718 0.862455
0.312200 0.300725 0.859037
0.476692 0.300511 0.852689
0.625910 0.296513 0.842649
0.755764 0.285649 0.827604
0.864042 0.294011 0.819730
0.955383 0.345739 0.825406
0.273411 0.410376 0.865599
0.285313 0.401404 0.865171
0.355291 0.381750 0.862577
0.499336 0.378698 0.856748
0.637598 0.371069 0.846647
0.760830 0.356725 0.831449
0.866056 0.355444 0.821134
0.955627 0.401190 0.826688
0.477150 0.555535 0.869169
0.482582 0.549035 0.868803
0.499763 0.524681 0.867124
0.544060 0.487098 0.863401
0.662867 0.477699 0.853635
0.772732 0.460243 0.838834
0.870237 0.444800 0.824063
0.956298 0.483467 0.829496
0.588525 0.681422 0.878447
0.601312 0.679896 0.877775
0.639490 0.672755 0.874693
0.689784 0.655268 0.868589
0.710384 0.603479 0.862791
0.795132 0.582849 0.848600
0.875883 0.547723 0.827298
0.956756 0.582361 0.833249
0.666590 0.767666 0.876951
0.677821 0.768276 0.876982
0.713893 0.770626 0.877226
0.767239 0.774990 0.878172
0.816129 0.766079 0.874418
0.836423 0.716976 0.863279
0.891447 0.682368 0.842466
0.957733 0.689113 0.839780
0.722042 0.834775 0.871702
0.729976 0.834836 0.871794
0.755581 0.835080 0.872099
0.795834 0.836149 0.873014
0.844419 0.838743 0.874723
0.894255 0.844205 0.877836
0.917723 0.813443 0.866545
0.958312 0.788449 0.847471
0.763149 0.893584 0.867247
0.768521 0.893278 0.867308
0.786740 0.892271 0.867460
0.816556 0.890867 0.868009
0.853422 0.889220 0.868742
0.892332 0.887510 0.869444
0.929290 0.885283 0.869261
0.960601 0.875608 0.860624
