其他预设/【232】美食博客调色预设124款/1.3D LUT预设（视频调色-PR-AE-PS-FCPX-达芬奇用）/Food Art #81.cube
# Created by Adobe Lightroom plugin Export LUT (1.17.0)
# www.johnrellis.com/lightroom/exportlut.htm
# Preset: Food Art #81
# Color profile: /Library/Application Support/Adobe/Color/Profiles/Recommended/AdobeRGB1998.icc
LUT_3D_SIZE 8
DOMAIN_MIN 0.000000 0.000000 0.000000
DOMAIN_MAX 0.903226 0.903226 0.903226
0.231632 0.240604 0.102296
0.237858 0.240543 0.101869
0.279515 0.240635 0.098695
0.342596 0.244846 0.100282
0.442451 0.253300 0.105959
0.605341 0.261021 0.108675
0.786496 0.264347 0.113375
0.911833 0.276982 0.148348
0.230900 0.249210 0.100343
0.241337 0.251316 0.099062
0.281163 0.254185 0.098939
0.342931 0.258854 0.101625
0.441871 0.269017 0.108125
0.601190 0.279850 0.109773
0.781399 0.285771 0.113436
0.909422 0.297154 0.149050
0.232395 0.296696 0.098207
0.245792 0.297612 0.099397
0.288823 0.300999 0.103395
0.352087 0.305913 0.110414
0.455024 0.320287 0.115236
0.616358 0.339849 0.114107
0.794095 0.353277 0.120333
0.914214 0.361730 0.163577
0.243290 0.367559 0.110719
0.256901 0.368231 0.111696
0.300572 0.372076 0.115602
0.374823 0.384588 0.123049
0.489326 0.407355 0.123995
0.644587 0.432593 0.122988
0.803616 0.447120 0.134554
0.915190 0.450690 0.186648
0.253300 0.485451 0.116976
0.270329 0.486732 0.117647
0.325292 0.492287 0.119722
0.412207 0.503990 0.123812
0.522210 0.516594 0.130373
0.666712 0.539330 0.128969
0.810788 0.551629 0.157809
0.915648 0.551080 0.227970
0.260685 0.641657 0.113436
0.283787 0.645777 0.115053
0.352483 0.648646 0.118959
0.452155 0.653773 0.125795
0.569726 0.659174 0.138521
0.698909 0.665400 0.158724
0.825528 0.666102 0.199161
0.917723 0.656306 0.291661
0.291905 0.776669 0.166262
0.314519 0.777096 0.168765
0.381659 0.776059 0.175448
0.478218 0.775204 0.189944
0.588891 0.773251 0.211856
0.706172 0.771176 0.245365
0.822721 0.768307 0.292271
0.915587 0.756619 0.379461
0.389258 0.859068 0.315343
0.404486 0.858549 0.318029
0.454475 0.856992 0.329198
0.532433 0.854551 0.352758
0.619776 0.848661 0.375494
0.718288 0.843931 0.421820
0.814054 0.838743 0.482124
0.898344 0.833433 0.550286
0.231937 0.240452 0.111299
0.239017 0.239261 0.113863
0.279637 0.240513 0.118746
0.341375 0.248539 0.126589
0.440009 0.254551 0.133455
0.597223 0.256291 0.136568
0.778012 0.255161 0.140810
0.907256 0.268193 0.170687
0.229953 0.249516 0.115633
0.241917 0.251164 0.117617
0.281498 0.255711 0.122286
0.342962 0.262181 0.128450
0.441352 0.269718 0.134646
0.596948 0.275425 0.136995
0.774899 0.277287 0.140932
0.904753 0.288731 0.170962
0.234043 0.295811 0.121584
0.248569 0.296818 0.125032
0.288853 0.300328 0.129488
0.350683 0.306218 0.136019
0.452491 0.318944 0.140017
0.608881 0.334295 0.140352
0.783474 0.344945 0.146059
0.908598 0.354803 0.183108
0.244511 0.365484 0.134340
0.257633 0.366644 0.135164
0.300389 0.371160 0.138521
0.370214 0.379950 0.144686
0.477516 0.398962 0.146883
0.629267 0.422827 0.147982
0.792416 0.438788 0.157748
0.909819 0.445045 0.204257
0.248478 0.484138 0.140749
0.265995 0.484810 0.141024
0.321080 0.489174 0.143191
0.406226 0.498085 0.147189
0.513909 0.509270 0.153231
0.658961 0.532708 0.153506
0.805600 0.546777 0.180514
0.912291 0.547906 0.245640
0.250462 0.637842 0.140993
0.273533 0.638880 0.142092
0.343755 0.642145 0.145174
0.445014 0.648432 0.151949
0.564599 0.655512 0.163607
0.696284 0.663203 0.183505
0.823270 0.663844 0.221225
0.915221 0.654566 0.309728
0.281712 0.772946 0.187442
0.304448 0.772274 0.188663
0.373571 0.771939 0.195560
0.472663 0.772213 0.210330
0.585565 0.771176 0.232395
0.703487 0.769070 0.264317
0.819638 0.765805 0.307958
0.912596 0.754299 0.390448
0.387427 0.857389 0.331029
0.403296 0.857084 0.334447
0.453925 0.855650 0.346075
0.532433 0.853300 0.369390
0.624384 0.849210 0.401038
0.720455 0.843839 0.442664
0.814084 0.838071 0.496681
0.897276 0.832609 0.560204
0.232792 0.239322 0.165682
0.242100 0.237919 0.168368
0.281498 0.240940 0.175570
0.344121 0.249363 0.184604
0.445716 0.249729 0.198428
0.609308 0.224155 0.202853
0.786831 0.209598 0.213260
0.910887 0.238987 0.243076
0.231510 0.250095 0.171756
0.243961 0.251469 0.173373
0.283604 0.256474 0.178347
0.345647 0.263035 0.186374
0.448035 0.262516 0.196963
0.608637 0.247410 0.202304
0.784848 0.239445 0.213260
0.909667 0.263890 0.244541
0.237949 0.295811 0.180850
0.251011 0.296941 0.182345
0.289586 0.299931 0.185794
0.353307 0.305547 0.192386
0.461402 0.312383 0.200443
0.619745 0.317082 0.206851
0.789700 0.321141 0.219181
0.910124 0.338720 0.254826
0.246281 0.366308 0.196078
0.258122 0.367864 0.196811
0.298100 0.373114 0.196353
0.372168 0.381201 0.203098
0.483986 0.397589 0.210758
0.639094 0.415534 0.217136
0.798825 0.427436 0.233433
0.911467 0.438544 0.279118
0.246159 0.483833 0.220401
0.258976 0.486061 0.217624
0.307347 0.492592 0.206668
0.401617 0.501762 0.212253
0.517906 0.512352 0.220096
0.665370 0.531426 0.227390
0.807919 0.542077 0.259586
0.911803 0.546899 0.320897
0.236820 0.638422 0.240696
0.253513 0.640253 0.233463
0.319432 0.644099 0.219883
0.431128 0.648798 0.227054
0.557977 0.654505 0.238956
0.694026 0.661067 0.259159
0.821927 0.661067 0.296971
0.912779 0.656489 0.386328
0.267308 0.774258 0.277653
0.286931 0.774197 0.273625
0.358709 0.773373 0.273960
0.464149 0.772335 0.286839
0.581506 0.770626 0.307073
0.702510 0.768521 0.338811
0.819883 0.766140 0.383734
0.910735 0.756252 0.462684
0.395727 0.856199 0.398230
0.412451 0.855344 0.402411
0.461646 0.853666 0.411688
0.540856 0.851591 0.435187
0.630762 0.847440 0.462989
0.725277 0.842344 0.501762
0.816373 0.837064 0.551904
0.896452 0.832456 0.607996
0.233341 0.237675 0.243717
0.244633 0.238102 0.246860
0.283787 0.241123 0.253941
0.346929 0.248386 0.264347
0.449928 0.247227 0.293034
0.609949 0.220035 0.327794
0.784726 0.169650 0.343145
0.908385 0.193271 0.353155
0.233677 0.251072 0.251621
0.246250 0.252171 0.253239
0.286229 0.256046 0.258457
0.349523 0.261265 0.267857
0.453834 0.259861 0.295048
0.612238 0.235721 0.325414
0.785214 0.194949 0.338170
0.908141 0.222263 0.352453
0.237980 0.296941 0.261845
0.249638 0.297429 0.263951
0.289067 0.298253 0.269139
0.357305 0.302586 0.278141
0.467323 0.303349 0.300542
0.628840 0.288975 0.320409
0.797330 0.275822 0.332036
0.910460 0.319097 0.367102
0.244816 0.368963 0.281407
0.256352 0.370214 0.283177
0.296117 0.373938 0.288304
0.370459 0.379126 0.295689
0.486915 0.386419 0.306889
0.644312 0.393439 0.320989
0.800565 0.404761 0.345190
0.909392 0.433173 0.393103
0.239261 0.485878 0.324773
0.252567 0.487282 0.324102
0.298558 0.493416 0.322148
0.386206 0.504082 0.316106
0.519036 0.513085 0.327642
0.670130 0.526482 0.346746
0.809323 0.536431 0.380346
0.908171 0.550561 0.437629
0.222782 0.641413 0.370092
0.241184 0.645228 0.369299
0.302403 0.648737 0.357885
0.409369 0.654444 0.345617
0.552331 0.658503 0.360388
0.695338 0.662287 0.382422
0.820645 0.659815 0.419409
0.906767 0.661891 0.499733
0.258488 0.773678 0.405005
0.280369 0.774166 0.403876
0.350591 0.774777 0.401892
0.460304 0.774075 0.410773
0.582757 0.771786 0.430426
0.704402 0.768765 0.457801
0.818845 0.765774 0.494484
0.904875 0.757687 0.561303
0.402472 0.855558 0.489479
0.420569 0.854978 0.493996
0.477852 0.852354 0.509728
0.558434 0.848569 0.533623
0.644160 0.844450 0.557122
0.733700 0.839780 0.588647
0.819333 0.835355 0.628046
0.894804 0.831907 0.671962
0.232639 0.236912 0.364508
0.246159 0.237186 0.367559
0.291417 0.239414 0.375372
0.362921 0.242252 0.388220
0.459144 0.241032 0.408972
0.614710 0.211551 0.462531
0.783444 0.161532 0.494514
0.903868 0.193912 0.498939
0.231144 0.251316 0.372351
0.245518 0.252079 0.375341
0.291905 0.253666 0.381903
0.364294 0.255131 0.393042
0.462226 0.253666 0.413092
0.618219 0.227390 0.463996
0.785275 0.188357 0.493416
0.904021 0.223728 0.499153
0.222385 0.298528 0.388952
0.234470 0.296605 0.391577
0.285740 0.296147 0.397314
0.367102 0.297124 0.409400
0.471931 0.296513 0.425422
0.626886 0.281376 0.465736
0.789334 0.267399 0.488838
0.903258 0.309178 0.501732
0.220706 0.382055 0.412299
0.233707 0.381720 0.414618
0.278569 0.379278 0.422370
0.364294 0.374670 0.434150
0.489723 0.377905 0.448127
0.645991 0.378424 0.473518
0.796872 0.388739 0.492866
0.902037 0.431769 0.522942
0.217716 0.490455 0.447059
0.232609 0.491798 0.449134
0.283726 0.495338 0.454322
0.375494 0.500969 0.463661
0.509209 0.505486 0.472938
0.664118 0.513787 0.490394
0.801938 0.528222 0.517998
0.899046 0.556237 0.562676
0.195499 0.636194 0.502007
0.216281 0.637598 0.501976
0.283330 0.640986 0.500572
0.392157 0.646693 0.499519
0.532280 0.651362 0.501640
0.688167 0.656977 0.524895
0.811215 0.658534 0.563745
0.896971 0.668879 0.617578
0.241398 0.771359 0.540185
0.264958 0.771237 0.539513
0.340185 0.771084 0.539055
0.452735 0.770321 0.544701
0.581903 0.767727 0.562799
0.703639 0.765194 0.585443
0.814176 0.763088 0.613153
0.896513 0.757809 0.658625
0.400702 0.852445 0.589746
0.418097 0.851713 0.592340
0.474830 0.849180 0.602350
0.565576 0.845457 0.627771
0.656703 0.840269 0.654261
0.740017 0.836393 0.676143
0.820279 0.832914 0.703792
0.891783 0.830472 0.735134
0.218265 0.231815 0.556298
0.238010 0.231662 0.558434
0.298528 0.230838 0.563836
0.387518 0.226566 0.576928
0.497505 0.215396 0.594385
0.625177 0.194156 0.613275
0.781460 0.150362 0.646021
0.897765 0.196963 0.642817
0.211154 0.247532 0.559136
0.231815 0.247135 0.560815
0.294072 0.245548 0.566766
0.385046 0.240787 0.579309
0.496437 0.230655 0.595270
0.625940 0.211887 0.614343
0.781979 0.178805 0.645289
0.897459 0.225650 0.642634
0.163516 0.293126 0.578790
0.192935 0.292729 0.580102
0.272129 0.290867 0.585595
0.376532 0.286992 0.595972
0.497963 0.279911 0.609064
0.635065 0.268864 0.625727
0.786984 0.261814 0.647272
0.897551 0.313298 0.645838
0.128359 0.394141 0.601801
0.154208 0.390600 0.602930
0.225589 0.377813 0.609186
0.352972 0.370184 0.620905
0.499916 0.370001 0.633082
0.651789 0.370764 0.646571
0.794766 0.387335 0.655238
0.896574 0.435523 0.659297
0.114809 0.512963 0.625391
0.146456 0.512352 0.627070
0.229557 0.509453 0.632197
0.347326 0.504021 0.640467
0.498177 0.499397 0.649317
0.662959 0.505821 0.660853
0.796139 0.526818 0.667109
0.890288 0.564874 0.686671
0.125887 0.642237 0.654902
0.161685 0.643580 0.657099
0.254185 0.645624 0.660731
0.380835 0.648310 0.666407
0.526909 0.650233 0.673152
0.680995 0.653101 0.683284
0.799863 0.662562 0.702327
0.886473 0.678279 0.728908
0.220645 0.770840 0.684352
0.249912 0.771176 0.685145
0.334539 0.770718 0.686152
0.451026 0.769192 0.689174
0.583459 0.765560 0.698604
0.708095 0.761685 0.716915
0.810239 0.761563 0.733303
0.887633 0.762142 0.762905
0.406683 0.849973 0.704067
0.423774 0.849241 0.705409
0.479744 0.846708 0.711147
0.564935 0.842679 0.723873
0.658900 0.837400 0.742428
0.746822 0.832700 0.764584
0.821530 0.830625 0.782437
0.888884 0.829374 0.802701
0.181308 0.222721 0.756161
0.210269 0.221805 0.757717
0.289342 0.217838 0.761044
0.393072 0.208774 0.766873
0.510033 0.192538 0.773922
0.637079 0.167666 0.782315
0.771939 0.137545 0.791867
0.886870 0.194461 0.781460
0.165042 0.238773 0.757137
0.196963 0.237675 0.758511
0.280735 0.233433 0.761624
0.387610 0.224765 0.766781
0.506889 0.210208 0.773526
0.635340 0.189273 0.781552
0.771054 0.167147 0.790738
0.885710 0.219699 0.779934
0.007446 0.286381 0.766659
0.122438 0.285374 0.767330
0.243626 0.281987 0.769528
0.368597 0.275853 0.773831
0.498634 0.266514 0.779477
0.634424 0.256229 0.786954
0.774960 0.252964 0.795987
0.886778 0.309667 0.782925
0.000000 0.381323 0.778286
0.000000 0.375952 0.778622
0.141787 0.362310 0.780636
0.330724 0.360845 0.784451
0.485084 0.359838 0.789303
0.634882 0.362921 0.795804
0.780758 0.376349 0.803555
0.886351 0.429145 0.788785
0.000000 0.510094 0.788052
0.000000 0.507958 0.788296
0.151431 0.500420 0.790066
0.311925 0.489601 0.793210
0.478920 0.488228 0.796994
0.639490 0.498421 0.802243
0.784512 0.516258 0.809049
0.882506 0.560784 0.800839
0.000000 0.636774 0.801541
0.076295 0.636347 0.801938
0.226413 0.635096 0.803525
0.368627 0.634089 0.806119
0.519951 0.636072 0.808713
0.668879 0.646113 0.812528
0.792416 0.657130 0.819699
0.879057 0.677913 0.822019
0.213016 0.758968 0.817502
0.244572 0.759121 0.818143
0.332189 0.759121 0.819333
0.449287 0.758877 0.821378
0.581201 0.757748 0.823880
0.703578 0.757015 0.827726
0.803342 0.758022 0.833829
0.879271 0.764157 0.846220
0.409583 0.846281 0.820005
0.427192 0.845640 0.820554
0.485695 0.843656 0.823545
0.567926 0.839902 0.828000
0.659724 0.835050 0.835172
0.746609 0.830686 0.845212
0.821897 0.828153 0.857481
0.885618 0.828275 0.869261
0.134279 0.217594 0.895781
0.173251 0.216464 0.896239
0.265415 0.212375 0.897002
0.375250 0.204410 0.898863
0.492866 0.192416 0.901396
0.615778 0.179171 0.904417
0.742489 0.176608 0.908019
0.868376 0.207980 0.911284
0.107698 0.232853 0.895964
0.155123 0.231907 0.896422
0.255314 0.227939 0.897246
0.369390 0.220493 0.898955
0.489448 0.210208 0.901457
0.614099 0.199924 0.904356
0.741756 0.200900 0.907683
0.868009 0.232853 0.910887
0.000000 0.279637 0.898253
0.000000 0.278874 0.898589
0.213474 0.276097 0.899046
0.347845 0.271763 0.901213
0.478462 0.266789 0.903258
0.609461 0.265049 0.905608
0.741054 0.276646 0.908568
0.868193 0.313603 0.911437
0.000000 0.354681 0.902159
0.000000 0.354620 0.902495
0.097719 0.354009 0.902953
0.309728 0.354376 0.904326
0.462654 0.357275 0.906065
0.605890 0.366644 0.908019
0.742824 0.389136 0.910277
0.868711 0.426215 0.912779
0.000000 0.488899 0.905425
0.000000 0.486915 0.905760
0.071809 0.479683 0.906157
0.284062 0.469978 0.906859
0.461006 0.479164 0.907866
0.613184 0.494759 0.909178
0.750393 0.520287 0.911162
0.868894 0.555688 0.913939
0.000000 0.616052 0.909728
0.107149 0.615503 0.909636
0.237430 0.614313 0.909606
0.368841 0.613642 0.909667
0.513542 0.620233 0.909422
0.652308 0.635645 0.910460
0.771115 0.653742 0.913542
0.870909 0.673823 0.917510
0.289921 0.733577 0.915373
0.311589 0.733608 0.915312
0.378210 0.733913 0.915251
0.478279 0.735653 0.915343
0.592248 0.739620 0.915465
0.701320 0.745876 0.915984
0.795163 0.753658 0.918151
0.874296 0.761257 0.922545
0.458778 0.831296 0.922606
0.472450 0.831052 0.922606
0.517327 0.830320 0.922789
0.587152 0.829160 0.923339
0.667659 0.827726 0.924254
0.746822 0.826474 0.925750
0.819059 0.825895 0.928283
0.881498 0.826688 0.932341
