其他预设/【232】美食博客调色预设124款/1.3D LUT预设（视频调色-PR-AE-PS-FCPX-达芬奇用）/Food Art #54.cube
# Created by Adobe Lightroom plugin Export LUT (1.17.0)
# www.johnrellis.com/lightroom/exportlut.htm
# Preset: Food Art #54
# Color profile: /Library/Application Support/Adobe/Color/Profiles/Recommended/AdobeRGB1998.icc
LUT_3D_SIZE 8
DOMAIN_MIN 0.000000 0.000000 0.000000
DOMAIN_MAX 0.903226 0.903226 0.903226
0.116976 0.130434 0.108705
0.190219 0.143709 0.117586
0.300175 0.170016 0.136416
0.410315 0.200900 0.160616
0.521386 0.237675 0.192874
0.641810 0.276982 0.228946
0.758572 0.318975 0.268742
0.865507 0.370855 0.319005
0.135012 0.213077 0.124910
0.199466 0.219638 0.131868
0.303288 0.222843 0.145571
0.410040 0.240635 0.168978
0.519707 0.267735 0.198917
0.637659 0.299474 0.232364
0.753506 0.336004 0.270329
0.862242 0.384497 0.320531
0.174044 0.331518 0.158846
0.216007 0.333471 0.163394
0.318364 0.340337 0.178164
0.422248 0.341619 0.197513
0.530419 0.352819 0.221683
0.646387 0.372534 0.250797
0.762875 0.400702 0.288304
0.868040 0.439796 0.338018
0.229465 0.442573 0.206516
0.256535 0.443122 0.209262
0.334356 0.446906 0.218906
0.445686 0.460853 0.238743
0.557305 0.467475 0.258488
0.662898 0.473152 0.280949
0.768429 0.488014 0.313725
0.868894 0.516075 0.362005
0.285954 0.555901 0.253666
0.305974 0.556451 0.255619
0.369146 0.559594 0.262730
0.462409 0.566613 0.275914
0.568688 0.573175 0.293095
0.671077 0.574945 0.313420
0.771359 0.582544 0.344823
0.869810 0.604395 0.395605
0.343389 0.663294 0.301640
0.361181 0.666377 0.304723
0.412268 0.667536 0.310460
0.490364 0.670100 0.320958
0.583612 0.673121 0.336248
0.684321 0.678370 0.357000
0.782193 0.683803 0.388861
0.874418 0.699214 0.443458
0.417365 0.766506 0.364904
0.430060 0.767208 0.366979
0.469490 0.766903 0.371832
0.533684 0.767758 0.382147
0.612787 0.768795 0.397070
0.701076 0.772030 0.419226
0.790982 0.777127 0.447700
0.877409 0.786709 0.494057
0.521416 0.861692 0.458381
0.529961 0.861601 0.459968
0.559808 0.861845 0.466133
0.610498 0.863218 0.478889
0.668849 0.860716 0.489540
0.742061 0.863615 0.513390
0.818051 0.868284 0.543633
0.890043 0.873350 0.576471
0.120607 0.132570 0.168673
0.188632 0.145785 0.174411
0.296635 0.186038 0.186221
0.405646 0.225193 0.208682
0.516014 0.256168 0.230808
0.632990 0.287724 0.256443
0.749233 0.324224 0.288182
0.858457 0.372900 0.332525
0.138338 0.211490 0.178988
0.200198 0.219211 0.184451
0.301579 0.235721 0.196506
0.407691 0.257420 0.213596
0.516655 0.281651 0.234653
0.632074 0.308690 0.259220
0.745907 0.340734 0.289860
0.855161 0.385718 0.333440
0.183932 0.328679 0.199222
0.227787 0.330877 0.207889
0.317510 0.338750 0.217868
0.418891 0.344823 0.231968
0.525933 0.357214 0.250156
0.638697 0.374975 0.272923
0.751705 0.399969 0.303410
0.859739 0.438270 0.348547
0.237705 0.438514 0.234623
0.265385 0.439582 0.239292
0.337743 0.444617 0.247135
0.439124 0.454292 0.261479
0.544549 0.459815 0.276555
0.649714 0.467140 0.295659
0.756832 0.483223 0.324773
0.861021 0.512688 0.370031
0.292271 0.553277 0.275364
0.311131 0.553429 0.276799
0.370855 0.555657 0.282567
0.459083 0.560510 0.292973
0.561486 0.566278 0.307408
0.663844 0.569970 0.326329
0.765408 0.579400 0.355840
0.864958 0.602136 0.404028
0.346044 0.659113 0.316716
0.361456 0.659632 0.318242
0.411048 0.661097 0.323491
0.488228 0.664698 0.333684
0.581109 0.669215 0.348577
0.682124 0.675929 0.369268
0.779294 0.681819 0.399634
0.871122 0.697261 0.450843
0.416999 0.761257 0.374151
0.428077 0.760739 0.375036
0.467567 0.761166 0.380163
0.532067 0.763363 0.391180
0.611597 0.765682 0.406531
0.698695 0.768917 0.427375
0.787137 0.773342 0.453559
0.873350 0.782956 0.497200
0.520958 0.858701 0.464729
0.529961 0.859037 0.466743
0.559899 0.859525 0.472999
0.610346 0.861204 0.485451
0.673610 0.862547 0.501884
0.744106 0.864164 0.522820
0.817594 0.867430 0.549401
0.888640 0.871885 0.579858
0.133059 0.142885 0.259037
0.185306 0.155642 0.262516
0.298466 0.192660 0.273228
0.407416 0.234073 0.281895
0.517845 0.271519 0.298924
0.636866 0.307988 0.322789
0.751980 0.342565 0.347906
0.859922 0.389563 0.384192
0.163699 0.214908 0.266667
0.207156 0.223606 0.269566
0.303868 0.242222 0.277623
0.409033 0.268803 0.286748
0.519066 0.297429 0.303166
0.635615 0.326574 0.324285
0.749813 0.357885 0.348913
0.858396 0.402441 0.385626
0.198825 0.327855 0.281865
0.236393 0.330877 0.284337
0.320531 0.339330 0.291051
0.420294 0.351720 0.301427
0.530388 0.368750 0.316808
0.642084 0.387243 0.334356
0.752865 0.411780 0.358526
0.859190 0.449683 0.395941
0.246921 0.438911 0.299931
0.274388 0.440375 0.303349
0.347112 0.446113 0.312627
0.442725 0.455756 0.323247
0.547845 0.464637 0.335943
0.652979 0.474647 0.352117
0.759274 0.492378 0.376837
0.861845 0.522789 0.416175
0.297795 0.552056 0.328557
0.318975 0.553033 0.331609
0.380438 0.556054 0.339269
0.465522 0.561852 0.348241
0.565301 0.568475 0.360357
0.665400 0.572869 0.376196
0.765652 0.584100 0.402014
0.864439 0.608728 0.445441
0.352728 0.658167 0.362310
0.369909 0.658656 0.365148
0.420630 0.659754 0.372259
0.493629 0.662531 0.380316
0.582818 0.666712 0.392737
0.680446 0.673457 0.410925
0.776730 0.681666 0.439155
0.870451 0.700832 0.486427
0.426886 0.761257 0.413977
0.440284 0.760830 0.416785
0.479347 0.760433 0.422583
0.540032 0.761593 0.431312
0.616205 0.763699 0.444556
0.701167 0.767819 0.463691
0.788754 0.774258 0.488380
0.875151 0.786526 0.530175
0.529808 0.857511 0.495064
0.538750 0.857023 0.497139
0.566796 0.857237 0.502068
0.616846 0.859770 0.514580
0.677699 0.861143 0.528893
0.746914 0.863493 0.548211
0.819242 0.867430 0.572839
0.889586 0.872709 0.601526
0.152987 0.160861 0.349767
0.195041 0.172549 0.352850
0.293706 0.203128 0.359625
0.407507 0.239353 0.369604
0.518761 0.274723 0.379034
0.634546 0.308934 0.394903
0.747677 0.347143 0.415656
0.855406 0.397833 0.446601
0.184634 0.225467 0.356878
0.217472 0.231083 0.358618
0.303624 0.248234 0.363745
0.411383 0.272618 0.372839
0.521660 0.300511 0.382605
0.634974 0.329870 0.397375
0.747036 0.364233 0.417487
0.854795 0.412207 0.448951
0.218997 0.325231 0.366583
0.249027 0.329778 0.368353
0.324895 0.340490 0.373388
0.422950 0.354009 0.382055
0.531853 0.372686 0.393988
0.643763 0.394873 0.409583
0.755001 0.425025 0.432258
0.858824 0.463386 0.462409
0.259220 0.438361 0.384680
0.283452 0.440192 0.386175
0.352239 0.445930 0.391302
0.444587 0.454994 0.399695
0.547021 0.465675 0.410163
0.651484 0.479438 0.423987
0.757198 0.499886 0.444892
0.860197 0.532525 0.478248
0.307073 0.552605 0.405829
0.326574 0.552728 0.407111
0.385992 0.555352 0.412146
0.471901 0.561730 0.421851
0.568078 0.568933 0.432410
0.666712 0.576471 0.446509
0.765988 0.590875 0.468666
0.863737 0.615991 0.503044
0.361486 0.659297 0.430732
0.379431 0.661616 0.434272
0.430518 0.661738 0.439826
0.506401 0.663874 0.450874
0.591119 0.668330 0.461433
0.683101 0.674403 0.475929
0.776730 0.684291 0.498909
0.869718 0.704616 0.536675
0.433173 0.760220 0.469734
0.447059 0.760525 0.472358
0.491279 0.760983 0.481300
0.554314 0.762387 0.492988
0.626398 0.764950 0.503746
0.706813 0.768856 0.518517
0.790036 0.774685 0.537896
0.875181 0.788205 0.573114
0.536492 0.858030 0.538872
0.546288 0.858122 0.541375
0.577142 0.857877 0.548363
0.624079 0.858610 0.557916
0.682521 0.860136 0.569696
0.749630 0.862791 0.585870
0.820645 0.867277 0.607294
0.890318 0.873289 0.632868
0.177127 0.182834 0.444007
0.210880 0.191348 0.445930
0.297490 0.215854 0.450568
0.404456 0.247166 0.458381
0.521050 0.279911 0.471168
0.635157 0.312322 0.481971
0.747402 0.349920 0.496742
0.855222 0.400885 0.520470
0.201877 0.235264 0.448463
0.230411 0.240513 0.450385
0.308232 0.255711 0.454353
0.409400 0.277897 0.460914
0.523583 0.304540 0.473426
0.636744 0.332952 0.484077
0.748196 0.367590 0.498909
0.855253 0.415686 0.522576
0.240177 0.331273 0.457465
0.265446 0.335607 0.458961
0.331487 0.343481 0.462318
0.424872 0.356786 0.469978
0.531487 0.373358 0.479866
0.639979 0.393439 0.489540
0.749294 0.421393 0.504875
0.854307 0.461646 0.528893
0.273381 0.434852 0.471565
0.295079 0.437079 0.472755
0.359106 0.444373 0.477211
0.447242 0.454444 0.484169
0.546960 0.465339 0.492744
0.650294 0.480354 0.502556
0.754482 0.501884 0.518578
0.856992 0.530632 0.541527
0.316381 0.547692 0.491066
0.334783 0.548821 0.492164
0.391272 0.551995 0.495277
0.473182 0.557580 0.501030
0.565728 0.564446 0.508385
0.662501 0.573968 0.518700
0.761715 0.588952 0.534783
0.860777 0.613062 0.560418
0.367102 0.653498 0.508171
0.382483 0.653803 0.509148
0.430915 0.654170 0.512016
0.504723 0.656458 0.518761
0.588098 0.661097 0.527489
0.680201 0.670100 0.541192
0.774685 0.682979 0.560632
0.868132 0.703090 0.589105
0.439734 0.757076 0.538689
0.452277 0.756832 0.540032
0.493202 0.756771 0.544915
0.554803 0.758175 0.553185
0.626612 0.761349 0.562524
0.706203 0.766079 0.574701
0.788388 0.772274 0.590051
0.873655 0.786374 0.618097
0.537377 0.854276 0.591089
0.546227 0.854124 0.592370
0.575402 0.853971 0.596979
0.624048 0.856626 0.606531
0.680354 0.858335 0.614343
0.747585 0.861112 0.627649
0.818906 0.865751 0.645594
0.889128 0.871977 0.667414
0.200717 0.203830 0.550378
0.229618 0.210483 0.551476
0.308354 0.229496 0.553887
0.410956 0.256687 0.560510
0.522759 0.286290 0.569085
0.636805 0.317174 0.578393
0.748348 0.354528 0.589075
0.855863 0.406592 0.606806
0.218814 0.246677 0.550988
0.244327 0.250614 0.551659
0.316625 0.263859 0.554467
0.414984 0.284459 0.560906
0.524071 0.309087 0.568994
0.636927 0.336309 0.578393
0.748165 0.370764 0.589502
0.855344 0.420325 0.607660
0.256504 0.339025 0.559838
0.277104 0.341100 0.560601
0.340368 0.348302 0.563409
0.430671 0.360601 0.568566
0.534051 0.376776 0.575036
0.642756 0.396796 0.583520
0.751064 0.425086 0.594537
0.856107 0.467079 0.613031
0.290013 0.439612 0.571221
0.309361 0.441291 0.571527
0.369055 0.447730 0.574334
0.454170 0.457679 0.580468
0.551995 0.469551 0.586969
0.654963 0.484413 0.594446
0.757870 0.505913 0.605158
0.859190 0.535149 0.622614
0.329808 0.544762 0.582391
0.346715 0.546014 0.583154
0.400122 0.550103 0.585626
0.479042 0.556970 0.589868
0.568231 0.564233 0.594812
0.663966 0.573999 0.602136
0.762142 0.588495 0.613275
0.860685 0.609705 0.630884
0.379309 0.651789 0.597589
0.394537 0.652888 0.598962
0.441718 0.654810 0.601068
0.512383 0.657832 0.604486
0.592004 0.661891 0.609277
0.681025 0.669276 0.617823
0.773861 0.680507 0.630518
0.867613 0.697932 0.649775
0.450965 0.756405 0.620752
0.463539 0.756924 0.622065
0.502068 0.757198 0.624567
0.559716 0.758419 0.628840
0.628779 0.761013 0.634424
0.706325 0.765530 0.642145
0.789242 0.772305 0.654353
0.875547 0.786770 0.676112
0.543450 0.852995 0.658167
0.551598 0.852873 0.658869
0.578851 0.852811 0.661433
0.622766 0.854276 0.666316
0.677974 0.856443 0.671931
0.742794 0.859861 0.679377
0.816648 0.865019 0.694575
0.888762 0.871611 0.712734
0.220096 0.222232 0.661830
0.246036 0.227420 0.662715
0.319829 0.243198 0.664881
0.417884 0.266361 0.668666
0.525475 0.293584 0.673091
0.636225 0.324071 0.678737
0.745724 0.358221 0.685664
0.853086 0.409613 0.698543
0.233829 0.258091 0.662501
0.257572 0.261631 0.663264
0.326787 0.273320 0.665248
0.421485 0.291752 0.668544
0.527245 0.314946 0.672938
0.636835 0.342168 0.678462
0.745327 0.373754 0.685267
0.852262 0.422248 0.698238
0.264469 0.342473 0.667475
0.284733 0.344396 0.667872
0.346471 0.351171 0.669398
0.434730 0.363012 0.672236
0.535943 0.379187 0.676173
0.642451 0.400061 0.681636
0.748806 0.426459 0.688624
0.854002 0.468482 0.702205
0.300114 0.441566 0.674311
0.317632 0.442725 0.674342
0.372381 0.447028 0.675471
0.454231 0.455177 0.678187
0.550225 0.466804 0.682033
0.652552 0.483009 0.687282
0.754543 0.503532 0.694118
0.856657 0.533837 0.707942
0.342779 0.545892 0.681971
0.358007 0.546715 0.682094
0.406897 0.549798 0.683070
0.480049 0.554711 0.684901
0.567224 0.561181 0.688136
0.663600 0.572320 0.693385
0.760891 0.586877 0.700343
0.859983 0.609735 0.714809
0.397559 0.651942 0.693111
0.410681 0.652613 0.693416
0.454017 0.654932 0.694575
0.517845 0.658106 0.696559
0.594049 0.661646 0.699428
0.680323 0.667292 0.704097
0.772244 0.677729 0.711879
0.865873 0.693172 0.725368
0.463294 0.753994 0.707851
0.474037 0.754360 0.708339
0.508965 0.755306 0.709529
0.562402 0.757076 0.711849
0.629084 0.759579 0.715053
0.704799 0.763607 0.720119
0.787625 0.770321 0.728176
0.874571 0.782010 0.741726
0.546990 0.850675 0.732692
0.554864 0.850797 0.733272
0.581537 0.851835 0.735531
0.623407 0.853269 0.738552
0.677790 0.855528 0.742702
0.741390 0.859129 0.748257
0.812650 0.864225 0.755978
0.888182 0.871397 0.770504
0.237522 0.242039 0.783291
0.261418 0.246067 0.783658
0.331304 0.259373 0.784360
0.426490 0.280400 0.786130
0.532525 0.307225 0.788510
0.641871 0.338994 0.791714
0.750088 0.376410 0.795895
0.852537 0.420844 0.800656
0.247196 0.271641 0.783352
0.269932 0.274876 0.783719
0.336828 0.285374 0.784543
0.429938 0.303288 0.786099
0.534508 0.327001 0.788571
0.643000 0.356023 0.791714
0.750515 0.391089 0.795712
0.852415 0.433448 0.800504
0.270878 0.347295 0.784817
0.290837 0.349371 0.785092
0.352178 0.356115 0.785672
0.440742 0.368902 0.787686
0.541863 0.386603 0.789914
0.647822 0.409674 0.792844
0.753353 0.439582 0.796811
0.853391 0.475410 0.801694
0.298772 0.440803 0.787594
0.316808 0.442206 0.787930
0.373114 0.446937 0.788602
0.456397 0.456001 0.790188
0.553704 0.469368 0.792447
0.656580 0.487892 0.795377
0.758633 0.510826 0.799405
0.855863 0.537316 0.804562
0.351385 0.549218 0.792447
0.365179 0.549767 0.792691
0.408972 0.550744 0.792813
0.474250 0.550378 0.793240
0.567010 0.560052 0.795377
0.665766 0.573236 0.798459
0.764706 0.590509 0.802945
0.859434 0.611627 0.808957
0.418616 0.658503 0.799496
0.429664 0.658839 0.799466
0.465309 0.659602 0.799527
0.520165 0.659724 0.799985
0.590509 0.659602 0.800900
0.678279 0.664912 0.803891
0.774075 0.678279 0.809537
0.865660 0.694545 0.816556
0.492622 0.761898 0.809567
0.501061 0.762051 0.809598
0.529137 0.762509 0.809934
0.574914 0.763363 0.810819
0.634730 0.764340 0.812284
0.705013 0.765499 0.814542
0.786618 0.769680 0.818814
0.873716 0.781582 0.826688
0.567254 0.855070 0.822904
0.573632 0.855100 0.823026
0.595453 0.855558 0.823697
0.632837 0.856565 0.825132
0.682765 0.858183 0.827359
0.742702 0.860624 0.830625
0.812009 0.864622 0.835721
0.887266 0.871611 0.844144
