其他预设/【232】美食博客调色预设124款/1.3D LUT预设（视频调色-PR-AE-PS-FCPX-达芬奇用）/Food Art #37.cube
# Created by Adobe Lightroom plugin Export LUT (1.17.0)
# www.johnrellis.com/lightroom/exportlut.htm
# Preset: Food Art #37
# Color profile: /Library/Application Support/Adobe/Color/Profiles/Recommended/AdobeRGB1998.icc
LUT_3D_SIZE 32
0.000000 0.000000 0.000000
0.000000 0.000000 0.000000
0.002716 0.000000 0.000000
0.069978 0.000000 0.000000
0.102663 0.000000 0.000000
0.132235 0.000000 0.000000
0.161807 0.000000 0.000000
0.191806 0.000000 0.000000
0.222446 0.000000 0.000000
0.253239 0.000000 0.000000
0.284489 0.000000 0.000000
0.315770 0.000000 0.000000
0.347326 0.000000 0.000000
0.379126 0.000000 0.000000
0.411231 0.000000 0.000000
0.443671 0.000000 0.000000
0.476539 0.000000 0.000000
0.509361 0.000000 0.000000
0.542260 0.000000 0.000000
0.576318 0.000000 0.000000
0.610925 0.000000 0.000000
0.646113 0.000000 0.000000
0.682063 0.000000 0.000000
0.718502 0.000000 0.000000
0.755093 0.000000 0.000000
0.791653 0.000000 0.000000
0.827878 0.000000 0.000000
0.863767 0.000000 0.000000
0.899290 0.000000 0.000000
0.934325 0.000000 0.000000
0.969024 0.000000 0.000000
1.000000 0.000000 0.000000
0.000000 0.000000 0.000000
0.000000 0.000000 0.000000
0.006775 0.000000 0.000000
0.072175 0.000000 0.000000
0.103334 0.000000 0.000000
0.132509 0.000000 0.000000
0.162387 0.000000 0.000000
0.192660 0.000000 0.000000
0.223270 0.000000 0.000000
0.254429 0.000000 0.000000
0.285740 0.000000 0.000000
0.317327 0.000000 0.000000
0.348974 0.000000 0.000000
0.380896 0.000000 0.000000
0.413184 0.000000 0.000000
0.445838 0.000000 0.000000
0.478737 0.000000 0.000000
0.511742 0.000000 0.000000
0.544793 0.000000 0.000000
0.578851 0.000000 0.000000
0.613519 0.000000 0.000000
0.648585 0.000000 0.000000
0.684535 0.000000 0.000000
0.720912 0.000000 0.000000
0.757351 0.000000 0.000000
0.793759 0.000000 0.000000
0.829862 0.000000 0.000000
0.865629 0.000000 0.000000
0.900938 0.000000 0.000000
0.935912 0.000000 0.000000
0.970489 0.000000 0.000000
1.000000 0.000000 0.000000
0.000000 0.010834 0.000000
0.000000 0.015625 0.000000
0.010590 0.019409 0.000000
0.072663 0.022278 0.000000
0.103731 0.016815 0.000000
0.133028 0.012848 0.000000
0.162905 0.009583 0.000000
0.193088 0.007752 0.000000
0.223941 0.008423 0.000000
0.255070 0.010376 0.000000
0.286473 0.010559 0.000000
0.318090 0.008728 0.000000
0.349859 0.005890 0.000000
0.381933 0.004517 0.000000
0.414099 0.003845 0.000000
0.446937 0.000000 0.000000
0.479896 0.000000 0.000000
0.512932 0.000000 0.000000
0.546136 0.000000 0.000000
0.580102 0.000000 0.000000
0.614710 0.000000 0.000000
0.649805 0.000000 0.000000
0.685634 0.000000 0.000000
0.721950 0.000000 0.000000
0.758419 0.000000 0.000000
0.794766 0.000000 0.000000
0.830808 0.000000 0.000000
0.866453 0.000000 0.000000
0.901762 0.000000 0.000000
0.936675 0.000000 0.000000
0.971221 0.000000 0.000000
1.000000 0.000000 0.000000
0.000000 0.073671 0.000000
0.000000 0.074861 0.000000
0.014313 0.075196 0.000000
0.072755 0.074800 0.000000
0.104189 0.071748 0.000000
0.132998 0.069734 0.000000
0.162692 0.068635 0.000000
0.193027 0.068757 0.000000
0.223880 0.069429 0.000000
0.255253 0.069917 0.000000
0.286870 0.070161 0.000000
0.318639 0.069703 0.000000
0.350408 0.069886 0.000000
0.382513 0.070100 0.000000
0.414984 0.069368 0.000000
0.447822 0.067842 0.000000
0.480903 0.066011 0.000000
0.514122 0.062684 0.000000
0.547387 0.058900 0.000000
0.581720 0.050294 0.000000
0.616510 0.037232 0.000000
0.651637 0.022950 0.000000
0.687343 0.006409 0.000000
0.723262 0.000000 0.000000
0.759243 0.000000 0.000000
0.795163 0.000000 0.000000
0.830869 0.000000 0.000000
0.866361 0.000000 0.000000
0.901640 0.000000 0.000000
0.936614 0.000000 0.000000
0.971344 0.000000 0.000000
1.000000 0.000000 0.000000
0.000000 0.105440 0.000000
0.000000 0.106142 0.000000
0.013367 0.106111 0.000000
0.070680 0.106050 0.000000
0.104860 0.105745 0.000000
0.135195 0.104372 0.000000
0.163973 0.103059 0.000000
0.193393 0.103120 0.000000
0.224552 0.103609 0.000000
0.256046 0.104494 0.000000
0.287785 0.104768 0.000000
0.319554 0.105409 0.000000
0.351446 0.105592 0.000000
0.383490 0.105959 0.000000
0.415778 0.105837 0.000000
0.448341 0.105165 0.000000
0.481178 0.104036 0.000000
0.514061 0.102510 0.000000
0.547326 0.100740 0.000000
0.581720 0.098512 0.000000
0.616632 0.095857 0.000000
0.651881 0.092775 0.000000
0.687648 0.089052 0.000000
0.723629 0.084657 0.000000
0.759518 0.079286 0.000000
0.795377 0.072572 0.000000
0.831052 0.065522 0.000000
0.866636 0.053285 0.000000
0.901946 0.031769 0.000000
0.937011 0.004242 0.000000
0.971832 0.000000 0.000000
1.000000 0.000000 0.000000
0.000000 0.136080 0.000000
0.000000 0.136110 0.000000
0.012787 0.136172 0.000000
0.070436 0.136294 0.000000
0.104616 0.136416 0.000000
0.136416 0.136629 0.000000
0.166934 0.136568 0.000000
0.195651 0.135683 0.000000
0.224338 0.135012 0.000000
0.255375 0.135836 0.000000
0.287053 0.136812 0.000000
0.318975 0.137636 0.000000
0.350713 0.138033 0.000000
0.382879 0.138460 0.000000
0.415106 0.138460 0.000000
0.447578 0.138430 0.000000
0.480262 0.137758 0.000000
0.513054 0.137209 0.000000
0.546105 0.136202 0.000000
0.580377 0.135042 0.000000
0.615229 0.133761 0.000000
0.650385 0.131930 0.000000
0.670466 0.126589 0.000000
0.707118 0.124422 0.000000
0.744015 0.121920 0.000000
0.780972 0.119020 0.000000
0.817838 0.115816 0.000000
0.854582 0.111269 0.000000
0.891081 0.106905 0.000000
0.927245 0.101350 0.000000
0.963165 0.095247 0.000000
0.998871 0.088258 0.000000
0.000000 0.163790 0.000000
0.000000 0.163882 0.000000
0.014221 0.164004 0.000000
0.070314 0.164157 0.000000
0.103212 0.164523 0.000000
0.134463 0.164950 0.000000
0.165255 0.165469 0.000000
0.195468 0.165866 0.000000
0.224216 0.165164 0.000000
0.252598 0.164675 0.000000
0.280919 0.164157 0.000000
0.312352 0.165255 0.000000
0.344121 0.166293 0.000000
0.376226 0.166964 0.000000
0.408667 0.167453 0.000000
0.441444 0.167971 0.000000
0.474403 0.168154 0.000000
0.507317 0.167910 0.000000
0.540154 0.167544 0.000000
0.573877 0.167086 0.000000
0.607874 0.166384 0.000000
0.641901 0.165164 0.000000
0.676143 0.164004 0.000000
0.711025 0.162325 0.000000
0.746304 0.160739 0.000000
0.782345 0.158633 0.000000
0.818814 0.156954 0.000000
0.855467 0.154360 0.000000
0.891936 0.151736 0.000000
0.928222 0.148592 0.000000
0.964233 0.145083 0.000000
1.000000 0.141482 0.000000
0.000000 0.195682 0.000000
0.000000 0.195926 0.000000
0.014221 0.196048 0.000000
0.071107 0.196353 0.000000
0.104799 0.196811 0.000000
0.136599 0.197269 0.000000
0.167666 0.197818 0.000000
0.198428 0.198550 0.000000
0.229526 0.199527 0.000000
0.258183 0.198459 0.000000
0.286259 0.197116 0.000000
0.313817 0.195804 0.000000
0.343145 0.195621 0.000000
0.375280 0.196689 0.000000
0.407782 0.197574 0.000000
0.440528 0.198276 0.000000
0.473457 0.198825 0.000000
0.506371 0.199008 0.000000
0.539330 0.199161 0.000000
0.573266 0.199130 0.000000
0.607446 0.198947 0.000000
0.641688 0.198428 0.000000
0.676173 0.197879 0.000000
0.711269 0.196994 0.000000
0.746761 0.196048 0.000000
0.782895 0.195224 0.000000
0.819364 0.194003 0.000000
0.856077 0.192508 0.000000
0.892607 0.191012 0.000000
0.928954 0.188907 0.000000
0.964996 0.186831 0.000000
1.000000 0.184298 0.000000
0.000000 0.228611 0.000000
0.000000 0.228733 0.000000
0.016022 0.228885 0.000000
0.072511 0.229099 0.000000
0.106508 0.229618 0.000000
0.138430 0.230259 0.000000
0.170016 0.230900 0.000000
0.201022 0.231510 0.000000
0.232059 0.232181 0.000000
0.263371 0.233036 0.000000
0.291997 0.231510 0.000000
0.319677 0.229465 0.000000
0.346960 0.227665 0.000000
0.374121 0.225772 0.000000
0.405402 0.226566 0.000000
0.438209 0.227634 0.000000
0.471107 0.228489 0.000000
0.504082 0.229160 0.000000
0.537102 0.229526 0.000000
0.571221 0.230106 0.000000
0.605615 0.230503 0.000000
0.640131 0.230533 0.000000
0.674952 0.230442 0.000000
0.710262 0.230289 0.000000
0.745968 0.229953 0.000000
0.782315 0.229557 0.000000
0.819028 0.229099 0.000000
0.855863 0.228367 0.000000
0.892576 0.227512 0.000000
0.929168 0.226291 0.000000
0.965423 0.224918 0.000000
1.000000 0.223178 0.000000
0.000000 0.262119 0.000000
0.000000 0.262364 0.000000
0.011872 0.262486 0.000000
0.072084 0.262821 0.000000
0.106996 0.263371 0.000000
0.139986 0.263920 0.000000
0.171695 0.264591 0.000000
0.203281 0.265232 0.000000
0.234745 0.265782 0.000000
0.265995 0.266209 0.000000
0.297642 0.266819 0.000000
0.326696 0.265171 0.000000
0.354131 0.262577 0.000000
0.380987 0.260075 0.000000
0.407691 0.257572 0.000000
0.434913 0.255741 0.000000
0.467475 0.256931 0.000000
0.500206 0.257725 0.000000
0.533074 0.258549 0.000000
0.567468 0.259556 0.000000
0.602472 0.260655 0.000000
0.637690 0.261570 0.000000
0.673274 0.262150 0.000000
0.709346 0.262638 0.000000
0.745632 0.263066 0.000000
0.782223 0.263249 0.000000
0.818997 0.263218 0.000000
0.855863 0.263096 0.000000
0.892546 0.262577 0.000000
0.929046 0.261936 0.000000
0.965301 0.261051 0.000000
1.000000 0.259953 0.000000
0.000000 0.296941 0.000000
0.000000 0.297002 0.000000
0.002380 0.297154 0.000000
0.069276 0.297337 0.000000
0.106172 0.297704 0.000000
0.140230 0.298100 0.000000
0.172702 0.298619 0.000000
0.204776 0.298985 0.000000
0.236576 0.299382 0.000000
0.268284 0.299779 0.000000
0.299931 0.300053 0.000000
0.331884 0.300603 0.000000
0.361517 0.299016 0.000000
0.388678 0.295811 0.000000
0.415259 0.292760 0.000000
0.441535 0.289769 0.000000
0.467414 0.286839 0.000000
0.496590 0.285985 0.000000
0.529656 0.287205 0.000000
0.564233 0.288762 0.000000
0.599481 0.290471 0.000000
0.634943 0.291691 0.000000
0.670802 0.293034 0.000000
0.707118 0.294072 0.000000
0.743709 0.295018 0.000000
0.780636 0.295750 0.000000
0.817807 0.296361 0.000000
0.854978 0.296757 0.000000
0.892058 0.296788 0.000000
0.928832 0.296574 0.000000
0.965362 0.296208 0.000000
1.000000 0.295689 0.000000
0.000000 0.331273 0.000000
0.000000 0.331334 0.000000
0.000000 0.331395 0.000000
0.064485 0.331518 0.000000
0.104280 0.331823 0.000000
0.139498 0.332067 0.000000
0.172793 0.332403 0.000000
0.205509 0.332708 0.000000
0.237705 0.332952 0.000000
0.269688 0.333135 0.000000
0.301488 0.333257 0.000000
0.333288 0.333471 0.000000
0.356298 0.325505 0.000000
0.386236 0.324712 0.000000
0.412970 0.321416 0.000000
0.439246 0.318242 0.000000
0.465339 0.315343 0.000000
0.491127 0.312444 0.000000
0.516838 0.309819 0.000000
0.550225 0.311498 0.000000
0.586175 0.314153 0.000000
0.622461 0.316686 0.000000
0.659358 0.318853 0.000000
0.696773 0.321080 0.000000
0.734432 0.322972 0.000000
0.772213 0.324712 0.000000
0.810239 0.326085 0.000000
0.848356 0.327367 0.000000
0.886351 0.328283 0.000000
0.924041 0.328771 0.000000
0.961425 0.329107 0.000000
0.998444 0.329107 0.000000
0.000000 0.360540 0.000000
0.000000 0.360754 0.000000
0.000000 0.361059 0.000000
0.055726 0.361578 0.000000
0.100252 0.362219 0.000000
0.136873 0.363012 0.000000
0.171084 0.363684 0.000000
0.204166 0.364141 0.000000
0.236637 0.364233 0.000000
0.268559 0.364019 0.000000
0.299992 0.363592 0.000000
0.331029 0.362860 0.000000
0.362005 0.362188 0.000000
0.393103 0.361791 0.000000
0.423224 0.360510 0.000000
0.449287 0.356268 0.000000
0.475196 0.352361 0.000000
0.500877 0.348760 0.000000
0.526665 0.345556 0.000000
0.553735 0.343297 0.000000
0.583185 0.342535 0.000000
0.619837 0.345647 0.000000
0.657069 0.348699 0.000000
0.694820 0.351446 0.000000
0.732876 0.354009 0.000000
0.771054 0.356268 0.000000
0.809445 0.358251 0.000000
0.847868 0.359960 0.000000
0.886107 0.361364 0.000000
0.924071 0.362371 0.000000
0.961669 0.363104 0.000000
0.998871 0.363439 0.000000
0.000000 0.395727 0.000000
0.000000 0.395789 0.000000
0.000000 0.396124 0.000000
0.039002 0.396612 0.000000
0.096712 0.397162 0.000000
0.135225 0.397894 0.000000
0.170504 0.398505 0.000000
0.204349 0.398871 0.000000
0.237522 0.398932 0.000000
0.269963 0.398779 0.000000
0.301854 0.398199 0.000000
0.333410 0.397559 0.000000
0.364752 0.396826 0.000000
0.396124 0.396338 0.000000
0.427832 0.396216 0.000000
0.459541 0.396002 0.000000
0.485603 0.391272 0.000000
0.511467 0.386969 0.000000
0.537346 0.383093 0.000000
0.564446 0.380346 0.000000
0.592065 0.378058 0.000000
0.620325 0.376165 0.000000
0.653834 0.377478 0.000000
0.691951 0.380957 0.000000
0.730282 0.384070 0.000000
0.768826 0.386969 0.000000
0.807584 0.389624 0.000000
0.846403 0.391821 0.000000
0.885039 0.393774 0.000000
0.923308 0.395331 0.000000
0.961212 0.396460 0.000000
0.998688 0.397284 0.000000
0.000000 0.430488 0.000000
0.000000 0.430488 0.000000
0.000000 0.430671 0.000000
0.016693 0.431189 0.000000
0.092103 0.431830 0.000000
0.132784 0.432624 0.000000
0.169253 0.433204 0.000000
0.204105 0.433570 0.000000
0.237613 0.433631 0.000000
0.270695 0.433356 0.000000
0.303075 0.432868 0.000000
0.334997 0.432136 0.000000
0.366735 0.431434 0.000000
0.398566 0.430945 0.000000
0.430610 0.430762 0.000000
0.463050 0.431067 0.000000
0.496193 0.431861 0.000000
0.522210 0.426734 0.000000
0.548516 0.422339 0.000000
0.575494 0.418830 0.000000
0.602808 0.415839 0.000000
0.630823 0.413489 0.000000
0.659724 0.411749 0.000000
0.689601 0.410437 0.000000
0.727291 0.413611 0.000000
0.766110 0.417090 0.000000
0.805020 0.420203 0.000000
0.843900 0.422980 0.000000
0.882628 0.425299 0.000000
0.920989 0.427192 0.000000
0.958984 0.428687 0.000000
0.996643 0.429816 0.000000
0.000000 0.465126 0.000000
0.000000 0.465034 0.000000
0.000000 0.465156 0.000000
0.000000 0.465400 0.000000
0.085664 0.465797 0.000000
0.129397 0.466163 0.000000
0.167025 0.466468 0.000000
0.202365 0.466682 0.000000
0.236637 0.466682 0.000000
0.269993 0.466560 0.000000
0.303105 0.466316 0.000000
0.335729 0.466102 0.000000
0.368170 0.465858 0.000000
0.400732 0.465797 0.000000
0.433326 0.465888 0.000000
0.466224 0.466316 0.000000
0.499092 0.466743 0.000000
0.532952 0.467964 0.000000
0.559991 0.463233 0.000000
0.586572 0.458656 0.000000
0.613458 0.454658 0.000000
0.640925 0.451423 0.000000
0.669276 0.448920 0.000000
0.698543 0.447059 0.000000
0.728725 0.445747 0.000000
0.761654 0.445930 0.000000
0.800931 0.449775 0.000000
0.840269 0.453162 0.000000
0.879545 0.456184 0.000000
0.918547 0.458686 0.000000
0.957275 0.460822 0.000000
0.995605 0.462623 0.000000
0.000000 0.500389 0.000000
0.000000 0.500420 0.000000
0.000000 0.500572 0.000000
0.000000 0.500816 0.000000
0.078523 0.501152 0.000000
0.125460 0.501457 0.000000
0.164767 0.501732 0.000000
0.201266 0.501884 0.000000
0.236240 0.501946 0.000000
0.270207 0.501793 0.000000
0.303777 0.501549 0.000000
0.336797 0.501244 0.000000
0.369635 0.500999 0.000000
0.402441 0.500847 0.000000
0.435401 0.500999 0.000000
0.468574 0.501488 0.000000
0.501946 0.502129 0.000000
0.535454 0.502861 0.000000
0.569940 0.504326 0.000000
0.598413 0.500450 0.000000
0.625238 0.495644 0.000000
0.652430 0.491524 0.000000
0.680385 0.488197 0.000000
0.709041 0.485573 0.000000
0.738552 0.483528 0.000000
0.769070 0.482124 0.000000
0.800748 0.481331 0.000000
0.837430 0.483467 0.000000
0.877104 0.487098 0.000000
0.916533 0.490211 0.000000
0.955657 0.492866 0.000000
0.994415 0.495094 0.000000
0.000000 0.535241 0.000000
0.000000 0.535027 0.000000
0.000000 0.526940 0.000000
0.000000 0.527245 0.000000
0.067506 0.527642 0.000000
0.118654 0.528161 0.000000
0.159396 0.528771 0.000000
0.196506 0.529259 0.000000
0.231998 0.529747 0.000000
0.266423 0.529992 0.000000
0.300206 0.530175 0.000000
0.333593 0.530358 0.000000
0.366918 0.530663 0.000000
0.400122 0.531121 0.000000
0.433417 0.531792 0.000000
0.466896 0.532555 0.000000
0.500572 0.533562 0.000000
0.534447 0.534630 0.000000
0.568322 0.535607 0.000000
0.603143 0.537346 0.000000
0.633356 0.534874 0.000000
0.660670 0.530175 0.000000
0.688533 0.526268 0.000000
0.717006 0.523125 0.000000
0.746365 0.520653 0.000000
0.776761 0.519066 0.000000
0.808316 0.518151 0.000000
0.841062 0.517754 0.000000
0.874907 0.517937 0.000000
0.914488 0.521477 0.000000
0.954192 0.524804 0.000000
0.993530 0.527581 0.000000
0.000000 0.568780 0.000000
0.000000 0.567803 0.000000
0.000000 0.566735 0.000000
0.000000 0.566003 0.000000
0.050111 0.565576 0.000000
0.113588 0.565667 0.000000
0.156710 0.566033 0.000000
0.195102 0.566461 0.000000
0.231540 0.566888 0.000000
0.266728 0.567102 0.000000
0.301274 0.567285 0.000000
0.335180 0.567498 0.000000
0.369024 0.567864 0.000000
0.402777 0.568292 0.000000
0.436530 0.568994 0.000000
0.470314 0.569787 0.000000
0.504326 0.570733 0.000000
0.538384 0.571740 0.000000
0.572564 0.572686 0.000000
0.606592 0.573510 0.000000
0.641474 0.574945 0.000000
0.672755 0.573114 0.000000
0.700038 0.567987 0.000000
0.727932 0.563775 0.000000
0.756527 0.560357 0.000000
0.786130 0.557855 0.000000
0.816892 0.556146 0.000000
0.848753 0.555138 0.000000
0.881773 0.554772 0.000000
0.915984 0.554925 0.000000
0.952544 0.556420 0.000000
0.992462 0.559899 0.000000
0.000000 0.605798 0.000000
0.000000 0.604944 0.000000
0.000000 0.603998 0.000000
0.000000 0.603326 0.000000
0.013855 0.602930 0.000000
0.106874 0.602991 0.000000
0.153048 0.603235 0.000000
0.193240 0.603632 0.000000
0.230686 0.603967 0.000000
0.266575 0.604211 0.000000
0.301762 0.604425 0.000000
0.336309 0.604578 0.000000
0.370611 0.604913 0.000000
0.404761 0.605402 0.000000
0.438849 0.606043 0.000000
0.472999 0.606836 0.000000
0.507317 0.607813 0.000000
0.541619 0.608759 0.000000
0.575982 0.609674 0.000000
0.610224 0.610407 0.000000
0.644404 0.611078 0.000000
0.679011 0.611994 0.000000
0.711299 0.610773 0.000000
0.738582 0.605371 0.000000
0.766690 0.600977 0.000000
0.795682 0.597528 0.000000
0.825650 0.595026 0.000000
0.856809 0.593378 0.000000
0.889006 0.592370 0.000000
0.922362 0.592004 0.000000
0.957031 0.592279 0.000000
0.993011 0.593225 0.000000
0.000000 0.643000 0.000000
0.000000 0.642145 0.000000
0.000000 0.641260 0.000000
0.000000 0.640650 0.000000
0.000000 0.640223 0.000000
0.099428 0.640253 0.000000
0.149020 0.640528 0.000000
0.190585 0.640955 0.000000
0.229252 0.641260 0.000000
0.266117 0.641566 0.000000
0.301915 0.641840 0.000000
0.337072 0.642084 0.000000
0.371893 0.642420 0.000000
0.406378 0.642878 0.000000
0.440864 0.643366 0.000000
0.475196 0.643915 0.000000
0.509422 0.644434 0.000000
0.543603 0.644892 0.000000
0.577600 0.645228 0.000000
0.611475 0.645350 0.000000
0.645167 0.645411 0.000000
0.678828 0.645350 0.000000
0.712825 0.645624 0.000000
0.745846 0.644923 0.000000
0.773037 0.639368 0.000000
0.801266 0.634974 0.000000
0.830442 0.631525 0.000000
0.860716 0.629053 0.000000
0.892088 0.627405 0.000000
0.924681 0.626581 0.000000
0.958587 0.626490 0.000000
0.993866 0.627100 0.000000
0.000000 0.676570 0.000000
0.000000 0.676234 0.000000
0.000000 0.675898 0.000000
0.000000 0.675776 0.000000
0.000000 0.675776 0.000000
0.089204 0.675990 0.000000
0.143252 0.676295 0.000000
0.187015 0.676539 0.000000
0.226535 0.676753 0.000000
0.264286 0.676814 0.000000
0.300572 0.676936 0.000000
0.336187 0.677058 0.000000
0.371283 0.677363 0.000000
0.406134 0.677699 0.000000
0.440742 0.678218 0.000000
0.475380 0.678737 0.000000
0.509758 0.679286 0.000000
0.544244 0.679774 0.000000
0.578424 0.680201 0.000000
0.612604 0.680476 0.000000
0.646754 0.680751 0.000000
0.680751 0.680903 0.000000
0.714778 0.681147 0.000000
0.749020 0.681514 0.000000
0.783230 0.681758 0.000000
0.810788 0.676265 0.000000
0.839261 0.671809 0.000000
0.868742 0.668330 0.000000
0.899229 0.665827 0.000000
0.930968 0.664240 0.000000
0.963989 0.663508 0.000000
0.998383 0.663600 0.000000
0.000000 0.713405 0.000000
0.000000 0.713069 0.000000
0.000000 0.712734 0.000000
0.000000 0.712551 0.000000
0.000000 0.712551 0.000000
0.077272 0.712764 0.000000
0.137819 0.713130 0.000000
0.183169 0.713466 0.000000
0.224338 0.713710 0.000000
0.262882 0.713863 0.000000
0.299870 0.713985 0.000000
0.336034 0.714107 0.000000
0.371496 0.714321 0.000000
0.406806 0.714534 0.000000
0.441749 0.714900 0.000000
0.476570 0.715297 0.000000
0.511101 0.715633 0.000000
0.545556 0.715908 0.000000
0.579858 0.716152 0.000000
0.614099 0.716274 0.000000
0.648188 0.716335 0.000000
0.682094 0.716274 0.000000
0.716030 0.716213 0.000000
0.749874 0.716152 0.000000
0.786130 0.718257 0.000000
0.820645 0.718654 0.000000
0.848753 0.713436 0.000000
0.877470 0.708980 0.000000
0.907195 0.705501 0.000000
0.938018 0.702968 0.000000
0.970001 0.701381 0.000000
1.000000 0.700710 0.000000
0.000000 0.747036 0.000000
0.000000 0.746609 0.000000
0.000000 0.746334 0.000000
0.000000 0.746365 0.000000
0.000000 0.746548 0.000000
0.059266 0.746944 0.000000
0.130068 0.747402 0.000000
0.178378 0.747951 0.000000
0.220920 0.748470 0.000000
0.260319 0.748959 0.000000
0.298222 0.749416 0.000000
0.334936 0.749783 0.000000
0.371008 0.750179 0.000000
0.406744 0.750668 0.000000
0.442176 0.751308 0.000000
0.477485 0.751980 0.000000
0.512566 0.752590 0.000000
0.547448 0.753017 0.000000
0.581994 0.753292 0.000000
0.616327 0.753262 0.000000
0.650446 0.753109 0.000000
0.684443 0.752956 0.000000
0.718532 0.752865 0.000000
0.752651 0.752865 0.000000
0.786954 0.753079 0.000000
0.821408 0.753384 0.000000
0.855619 0.753445 0.000000
0.885008 0.749233 0.000000
0.914092 0.744900 0.000000
0.944182 0.741543 0.000000
0.975372 0.739162 0.000000
1.000000 0.737697 0.000000
0.000000 0.783627 0.000000
0.000000 0.783200 0.000000
0.000000 0.783017 0.000000
0.000000 0.782986 0.000000
0.000000 0.783139 0.000000
0.017670 0.783413 0.000000
0.122683 0.783810 0.000000
0.174014 0.784207 0.000000
0.217868 0.784543 0.000000
0.258091 0.784848 0.000000
0.296422 0.785153 0.000000
0.333776 0.785367 0.000000
0.370123 0.785580 0.000000
0.406012 0.785855 0.000000
0.441627 0.786282 0.000000
0.476967 0.786770 0.000000
0.512139 0.787228 0.000000
0.547051 0.787564 0.000000
0.581720 0.787716 0.000000
0.616083 0.787655 0.000000
0.650294 0.787472 0.000000
0.684443 0.787259 0.000000
0.718532 0.787137 0.000000
0.752682 0.787076 0.000000
0.786923 0.787106 0.000000
0.821195 0.787259 0.000000
0.855497 0.787381 0.000000
0.889342 0.787076 0.000000
0.919463 0.783474 0.000000
0.948699 0.779202 0.000000
0.979004 0.775967 0.000000
1.000000 0.773678 0.000000
0.000000 0.818784 0.000000
0.000000 0.818509 0.000000
0.000000 0.818418 0.000000
0.000000 0.818509 0.000000
0.000000 0.818753 0.000000
0.000000 0.819181 0.000000
0.114565 0.819608 0.000000
0.169100 0.820005 0.000000
0.214603 0.820340 0.000000
0.255467 0.820584 0.000000
0.294652 0.820798 0.000000
0.332250 0.820890 0.000000
0.369024 0.821012 0.000000
0.405341 0.821195 0.000000
0.441016 0.821530 0.000000
0.476600 0.821958 0.000000
0.511955 0.822324 0.000000
0.546990 0.822629 0.000000
0.581842 0.822751 0.000000
0.616327 0.822690 0.000000
0.650690 0.822507 0.000000
0.684901 0.822263 0.000000
0.719051 0.822049 0.000000
0.753201 0.821927 0.000000
0.787381 0.821897 0.000000
0.821653 0.821897 0.000000
0.855863 0.821927 0.000000
0.890135 0.821958 0.000000
0.923552 0.821225 0.000000
0.954284 0.818143 0.000000
0.983795 0.813993 0.000000
1.000000 0.810880 0.000000
0.000000 0.854368 0.000000
0.000000 0.854215 0.000000
0.000000 0.854124 0.000000
0.000000 0.854185 0.000000
0.000000 0.854276 0.000000
0.000000 0.854368 0.000000
0.105074 0.854276 0.000000
0.163272 0.854093 0.000000
0.209842 0.853788 0.000000
0.251652 0.853391 0.000000
0.290898 0.852903 0.000000
0.328740 0.852476 0.000000
0.365484 0.852140 0.000000
0.401617 0.851957 0.000000
0.437354 0.851926 0.000000
0.472908 0.852140 0.000000
0.508232 0.852415 0.000000
0.543267 0.852659 0.000000
0.578027 0.852720 0.000000
0.612573 0.852689 0.000000
0.646876 0.852537 0.000000
0.681117 0.852384 0.000000
0.715297 0.852201 0.000000
0.749416 0.852140 0.000000
0.783566 0.852079 0.000000
0.817685 0.852110 0.000000
0.851865 0.852110 0.000000
0.885985 0.852079 0.000000
0.920073 0.852049 0.000000
0.953216 0.851194 0.000000
0.984558 0.848722 0.000000
1.000000 0.845029 0.000000
0.000000 0.885740 0.000000
0.000000 0.885649 0.000000
0.000000 0.885679 0.000000
0.000000 0.885801 0.000000
0.000000 0.886015 0.000000
0.000000 0.886259 0.000000
0.091768 0.886442 0.000000
0.155825 0.886534 0.000000
0.204318 0.886564 0.000000
0.247684 0.886534 0.000000
0.287755 0.886473 0.000000
0.326268 0.886412 0.000000
0.363622 0.886351 0.000000
0.400244 0.886381 0.000000
0.436347 0.886503 0.000000
0.472084 0.886687 0.000000
