其他预设/【232】美食博客调色预设124款/1.3D LUT预设（视频调色-PR-AE-PS-FCPX-达芬奇用）/Food Art #46.cube
# Created by Adobe Lightroom plugin Export LUT (1.17.0)
# www.johnrellis.com/lightroom/exportlut.htm
# Preset: Food Art #46
# Color profile: /Library/Application Support/Adobe/Color/Profiles/Recommended/AdobeRGB1998.icc
LUT_3D_SIZE 32
0.293462 0.244968 0.086000
0.300145 0.245975 0.086671
0.308659 0.246921 0.087404
0.326116 0.249607 0.088808
0.347478 0.252171 0.090303
0.369635 0.253880 0.090669
0.392523 0.254826 0.090059
0.416205 0.255497 0.089143
0.441169 0.255863 0.087221
0.467140 0.256321 0.085023
0.494484 0.257237 0.083131
0.522484 0.259495 0.082033
0.551019 0.262821 0.081575
0.579889 0.266728 0.081575
0.608759 0.271336 0.082063
0.637659 0.276097 0.082582
0.666621 0.281132 0.083436
0.694667 0.286748 0.085054
0.721492 0.292485 0.087037
0.753079 0.299535 0.089876
0.783749 0.306920 0.093812
0.812558 0.314183 0.098665
0.839597 0.321508 0.104067
0.865263 0.328771 0.110353
0.889921 0.335821 0.117037
0.913970 0.343114 0.124819
0.937835 0.350744 0.133333
0.961669 0.358892 0.143313
0.985657 0.367651 0.154696
1.000000 0.377447 0.168032
1.000000 0.388495 0.183780
1.000000 0.401160 0.202304
0.295079 0.251530 0.085939
0.300389 0.251591 0.085603
0.308721 0.252567 0.086336
0.326055 0.255100 0.087770
0.347265 0.257298 0.089448
0.369116 0.258640 0.089937
0.391821 0.259342 0.089418
0.415320 0.259739 0.088624
0.440009 0.259892 0.086793
0.465980 0.260349 0.084596
0.493019 0.261112 0.082826
0.520897 0.263188 0.081514
0.549248 0.266392 0.081453
0.577996 0.270176 0.081544
0.606744 0.274449 0.081880
0.635492 0.279179 0.082795
0.664332 0.284154 0.083406
0.692439 0.289494 0.084810
0.719387 0.295048 0.086549
0.750668 0.301946 0.089570
0.780850 0.308995 0.093019
0.809445 0.315984 0.097841
0.836393 0.323064 0.103212
0.862150 0.330083 0.109163
0.886931 0.337041 0.115755
0.911131 0.344244 0.123445
0.935241 0.351629 0.131746
0.959258 0.359747 0.141634
0.983459 0.368383 0.152895
1.000000 0.377966 0.166262
1.000000 0.388830 0.181735
1.000000 0.401251 0.200168
0.296971 0.260136 0.085756
0.302373 0.260166 0.085695
0.309300 0.260136 0.085451
0.325994 0.262211 0.086793
0.346838 0.263920 0.088380
0.368597 0.264744 0.089052
0.391028 0.265110 0.088655
0.414374 0.265232 0.087953
0.438941 0.265263 0.086213
0.464790 0.265476 0.084413
0.491768 0.266178 0.082033
0.519524 0.268162 0.081117
0.547906 0.271092 0.081117
0.576623 0.274754 0.081239
0.605249 0.278965 0.081971
0.634119 0.283360 0.082338
0.662867 0.288243 0.083284
0.691005 0.293400 0.084474
0.718013 0.298680 0.086580
0.749264 0.305547 0.089052
0.779294 0.312291 0.092653
0.807797 0.319097 0.097108
0.834714 0.326055 0.102296
0.860502 0.332708 0.108400
0.885252 0.339635 0.115084
0.909575 0.346563 0.122499
0.933745 0.353887 0.130861
0.957946 0.361761 0.140841
0.982238 0.370214 0.152010
1.000000 0.379736 0.165347
1.000000 0.390356 0.180819
1.000000 0.402625 0.199039
0.301366 0.277256 0.085847
0.306371 0.277195 0.085878
0.313146 0.277104 0.085389
0.326848 0.276890 0.084871
0.346624 0.277165 0.086183
0.368048 0.277195 0.086885
0.390143 0.276921 0.087037
0.413367 0.276616 0.086213
0.437720 0.276249 0.084932
0.463386 0.276219 0.083192
0.490181 0.276829 0.081209
0.517876 0.278477 0.080079
0.546075 0.281315 0.080171
0.574609 0.284703 0.080720
0.603357 0.288273 0.080995
0.632074 0.292454 0.081758
0.660853 0.297002 0.082826
0.689021 0.301793 0.083772
0.716793 0.307012 0.085664
0.747158 0.313146 0.088380
0.776577 0.319524 0.091798
0.804715 0.325872 0.096315
0.831785 0.332403 0.101381
0.857908 0.338842 0.107485
0.883330 0.345495 0.114076
0.908232 0.352422 0.121767
0.932921 0.359503 0.130434
0.957366 0.367254 0.140536
0.981811 0.375586 0.151888
1.000000 0.384741 0.165133
1.000000 0.394903 0.180484
1.000000 0.406653 0.198398
0.305913 0.297063 0.085451
0.310307 0.296880 0.085267
0.316320 0.296605 0.084932
0.328527 0.296117 0.084413
0.346166 0.295354 0.083742
0.366827 0.294316 0.083742
0.388617 0.293278 0.084291
0.411444 0.292393 0.084016
0.435615 0.291691 0.082856
0.460945 0.291569 0.081239
0.487617 0.291814 0.079713
0.515099 0.293248 0.078645
0.543206 0.295720 0.079225
0.571862 0.298650 0.079591
0.600671 0.302068 0.080232
0.629633 0.305852 0.080751
0.658747 0.310002 0.081483
0.687160 0.314427 0.082734
0.716213 0.319463 0.084840
0.745998 0.325109 0.087312
0.774929 0.330877 0.091066
0.802853 0.336858 0.095247
0.829801 0.342809 0.100343
0.855985 0.348913 0.106325
0.881529 0.355047 0.113100
0.906645 0.361425 0.120882
0.931395 0.368261 0.129824
0.955993 0.375463 0.139742
0.980468 0.383337 0.151186
1.000000 0.392035 0.164431
1.000000 0.401770 0.179629
1.000000 0.413001 0.197604
0.309697 0.317510 0.083986
0.313756 0.317388 0.083803
0.319036 0.317052 0.083253
0.330053 0.316442 0.082948
0.346258 0.315465 0.082246
0.366033 0.314336 0.081270
0.387549 0.312871 0.080842
0.410010 0.311528 0.080842
0.433875 0.310521 0.080201
0.459113 0.310033 0.078981
0.485512 0.310338 0.077790
0.512932 0.311406 0.077546
0.541009 0.313573 0.077913
0.569665 0.316075 0.078431
0.598566 0.319127 0.078767
0.627680 0.322637 0.079347
0.656855 0.326452 0.080476
0.685481 0.330388 0.081514
0.715877 0.335515 0.083650
0.745449 0.340673 0.086305
0.774289 0.346014 0.089937
0.802365 0.351324 0.094514
0.847623 0.363928 0.105776
0.873289 0.369604 0.113100
0.897887 0.375311 0.121065
0.921843 0.381109 0.129610
0.945312 0.387335 0.139254
0.968597 0.393927 0.149752
0.991821 0.401221 0.161868
1.000000 0.409461 0.175448
1.000000 0.418708 0.191165
1.000000 0.429450 0.209293
0.313573 0.340490 0.081270
0.317296 0.340246 0.080903
0.322332 0.339940 0.080659
0.332830 0.339330 0.080415
0.348089 0.338384 0.079530
0.366888 0.337163 0.078676
0.388312 0.335851 0.077546
0.411048 0.334264 0.077028
0.434974 0.333043 0.077119
0.460456 0.332586 0.076173
0.487129 0.332799 0.075196
0.514885 0.333837 0.074800
0.543114 0.335668 0.075868
0.571832 0.337926 0.076020
0.600641 0.340490 0.076814
0.629419 0.343359 0.077302
0.658473 0.346715 0.078248
0.689082 0.351019 0.079591
0.719722 0.355901 0.081880
0.749813 0.360845 0.085512
0.779812 0.366217 0.089631
0.809445 0.371740 0.095216
0.838285 0.377569 0.102052
0.866117 0.383337 0.109834
0.892760 0.389105 0.118410
0.917937 0.394720 0.127565
0.942138 0.400580 0.137453
0.965759 0.406683 0.148257
0.989288 0.413306 0.160250
1.000000 0.420844 0.173831
1.000000 0.429358 0.189334
1.000000 0.439368 0.207401
0.317479 0.361975 0.078645
0.320897 0.361761 0.078584
0.325475 0.361486 0.078401
0.335088 0.360876 0.077607
0.349279 0.359960 0.077211
0.366918 0.358709 0.076600
0.387182 0.357336 0.076112
0.409308 0.356085 0.075227
0.432715 0.354864 0.074434
0.457862 0.354437 0.073884
0.484382 0.354711 0.073304
0.511925 0.355779 0.072938
0.540154 0.357397 0.073396
0.568841 0.359442 0.073671
0.597620 0.361791 0.074617
0.626429 0.364385 0.075227
0.656580 0.367987 0.075959
0.687953 0.372290 0.077577
0.717708 0.376501 0.079866
0.747219 0.380774 0.083375
0.776822 0.385565 0.087953
0.806119 0.390539 0.093385
0.834836 0.395727 0.100099
0.862577 0.400793 0.108034
0.889220 0.405890 0.116548
0.914580 0.410956 0.125948
0.938964 0.416022 0.135775
0.962860 0.421393 0.146517
0.986603 0.427558 0.158846
1.000000 0.434302 0.172366
1.000000 0.442267 0.188052
1.000000 0.451484 0.206119
0.322087 0.384436 0.076448
0.325261 0.384253 0.076081
0.329534 0.383948 0.076295
0.338476 0.383337 0.075959
0.351781 0.382605 0.075257
0.368322 0.381476 0.074739
0.387610 0.380285 0.073976
0.408911 0.379034 0.072938
0.431739 0.377813 0.072328
0.455970 0.377111 0.071107
0.482277 0.377661 0.070436
0.509728 0.378759 0.070436
0.537896 0.380407 0.070863
0.566491 0.382422 0.071473
0.595178 0.384619 0.072145
0.624842 0.387549 0.072541
0.656519 0.391638 0.073060
0.687037 0.395453 0.074525
0.716121 0.398962 0.077729
0.745266 0.402747 0.081331
0.774594 0.407019 0.085695
0.803708 0.411383 0.091524
0.832212 0.415961 0.098390
0.859892 0.420478 0.106203
0.886534 0.425025 0.115023
0.911925 0.429297 0.124575
0.936492 0.433814 0.134585
0.960510 0.438544 0.145541
0.984375 0.443915 0.157656
1.000000 0.450019 0.171389
1.000000 0.457130 0.187045
1.000000 0.465522 0.205081
0.327153 0.408057 0.073487
0.330114 0.407813 0.073854
0.333959 0.407630 0.073365
0.342412 0.407050 0.073060
0.354955 0.406256 0.072847
0.370703 0.405249 0.072084
0.389166 0.404120 0.071473
0.409766 0.402930 0.070558
0.431922 0.401862 0.069612
0.455329 0.400824 0.068391
0.479988 0.400427 0.067536
0.507225 0.401831 0.067414
0.535302 0.403693 0.068116
0.563897 0.405798 0.068299
0.594171 0.409064 0.068421
0.625422 0.412879 0.069062
0.656611 0.416785 0.069703
0.686763 0.420142 0.071534
0.715602 0.423255 0.074739
0.744381 0.426551 0.078767
0.773220 0.430182 0.083436
0.801541 0.433783 0.089448
0.829343 0.437476 0.096071
0.856443 0.441169 0.104341
0.882750 0.444953 0.112856
0.908202 0.448646 0.122560
0.933074 0.452583 0.132662
0.957549 0.456855 0.143923
0.981872 0.461769 0.156435
1.000000 0.467384 0.170657
1.000000 0.474037 0.186709
1.000000 0.481849 0.205081
0.332341 0.432258 0.071046
0.335119 0.432105 0.071077
0.338811 0.431861 0.070985
0.346838 0.431403 0.070649
0.358740 0.430793 0.070436
0.373968 0.429999 0.069581
0.391791 0.429175 0.069184
0.411780 0.428260 0.068177
0.433570 0.427253 0.066926
0.456611 0.426398 0.066041
0.480476 0.425605 0.064973
0.505394 0.425269 0.063844
0.533776 0.427802 0.064363
0.563806 0.431250 0.064118
0.594232 0.434821 0.064210
0.624689 0.438331 0.065248
0.655299 0.441840 0.065461
0.684810 0.444953 0.068055
0.713436 0.447578 0.071443
0.742031 0.450507 0.075654
0.770657 0.453773 0.080690
0.799008 0.456947 0.086824
0.826841 0.460334 0.094209
0.853941 0.463600 0.102327
0.880308 0.466835 0.111391
0.905791 0.469978 0.121035
0.930632 0.473243 0.131472
0.955138 0.476936 0.142824
0.979492 0.481147 0.155612
1.000000 0.486030 0.169650
1.000000 0.491981 0.185885
1.000000 0.499092 0.204532
0.338445 0.458137 0.069184
0.341131 0.457984 0.069215
0.344762 0.457832 0.069062
0.352239 0.457465 0.068757
0.363714 0.456977 0.068086
0.378271 0.456306 0.067659
0.395697 0.455604 0.066865
0.415167 0.454810 0.066255
0.436500 0.454017 0.065339
0.459174 0.453376 0.063905
0.482918 0.452705 0.062593
0.508690 0.453651 0.060914
0.544549 0.463264 0.056153
0.575463 0.467292 0.056367
0.606531 0.471046 0.057038
0.637537 0.474617 0.058839
0.668116 0.477729 0.060548
0.697139 0.480018 0.064363
0.725093 0.481788 0.069245
0.753140 0.483925 0.075074
0.780911 0.486061 0.081544
0.808103 0.488258 0.088930
0.834745 0.490303 0.097017
0.860807 0.492531 0.105989
0.886198 0.494728 0.115541
0.911009 0.497017 0.125582
0.935210 0.499367 0.136507
0.959075 0.502129 0.147921
0.982757 0.505486 0.160678
1.000000 0.509514 0.174990
1.000000 0.514611 0.191287
1.000000 0.520836 0.209964
0.345586 0.488777 0.066163
0.348089 0.488685 0.066194
0.351598 0.488319 0.066224
0.358923 0.487739 0.066102
0.369940 0.486915 0.065431
0.384039 0.485969 0.064912
0.400885 0.485054 0.063935
0.420050 0.484108 0.063020
0.441138 0.483589 0.061738
0.465003 0.484810 0.060273
0.490486 0.486336 0.058259
0.517113 0.488045 0.054353
0.544610 0.489937 0.051026
0.572381 0.491493 0.046906
0.603632 0.495979 0.047456
0.634546 0.499916 0.049378
0.664912 0.503105 0.052399
0.693629 0.505150 0.058991
0.721431 0.506706 0.065095
0.749264 0.508507 0.070893
0.776883 0.510430 0.077974
0.804074 0.512261 0.085664
0.830594 0.514000 0.094301
0.856718 0.515740 0.103365
0.882200 0.517510 0.112917
0.907073 0.519310 0.123171
0.931456 0.521263 0.134279
0.955505 0.523552 0.146151
0.979522 0.526329 0.158907
1.000000 0.529900 0.173709
1.000000 0.534386 0.190066
1.000000 0.540032 0.209110
0.351751 0.516197 0.063355
0.354345 0.516014 0.063416
0.357610 0.515709 0.063020
0.364599 0.515190 0.062928
0.375250 0.514366 0.062257
0.389105 0.514031 0.061555
0.406012 0.514061 0.060883
0.425147 0.514214 0.059693
0.446540 0.514519 0.058045
0.469703 0.515251 0.054597
0.494423 0.516381 0.052003
0.520439 0.517754 0.048798
0.547173 0.519188 0.044129
0.574334 0.520409 0.038636
0.601373 0.521263 0.034974
0.631495 0.524865 0.035584
0.661372 0.528038 0.039979
0.689876 0.530083 0.049531
0.717617 0.531579 0.059113
0.745388 0.533257 0.066072
0.773037 0.535058 0.073762
0.800290 0.536767 0.082277
0.826993 0.538293 0.091432
0.853208 0.539818 0.100832
0.878813 0.541283 0.110964
0.903899 0.542718 0.121584
0.928466 0.544244 0.132784
0.952728 0.546075 0.144747
0.976928 0.548516 0.158114
1.000000 0.551629 0.172915
1.000000 0.555596 0.189975
1.000000 0.560693 0.209354
0.358831 0.547692 0.059449
0.361242 0.547723 0.059297
0.364385 0.547478 0.059327
0.371405 0.547173 0.058473
0.381933 0.546593 0.058412
0.395544 0.546044 0.056764
0.411872 0.545495 0.055146
0.430610 0.545251 0.053040
0.451423 0.545251 0.051118
0.474098 0.545708 0.048341
0.498299 0.546532 0.043977
0.523735 0.547723 0.040314
0.550042 0.549004 0.035401
0.576654 0.550042 0.030579
0.603357 0.550713 0.026398
0.629572 0.550713 0.022156
0.658320 0.553185 0.026184
0.686580 0.555169 0.035828
0.714137 0.556664 0.049561
0.741848 0.558251 0.060548
0.769375 0.559869 0.069245
0.796628 0.561425 0.078126
0.823301 0.562799 0.087892
0.849638 0.564111 0.098085
0.875456 0.565332 0.108797
0.900847 0.566644 0.119783
0.925902 0.568109 0.131777
0.950744 0.569909 0.144808
0.975525 0.572198 0.158877
1.000000 0.575219 0.174716
1.000000 0.579004 0.192508
1.000000 0.583795 0.212955
0.365820 0.580102 0.052674
0.368231 0.580163 0.053162
0.371313 0.580011 0.052186
0.378210 0.579706 0.051575
0.388586 0.579217 0.050538
0.402136 0.578698 0.048768
0.418128 0.578332 0.047700
0.436622 0.578149 0.044923
0.457282 0.578119 0.042420
0.479500 0.578302 0.038422
0.503166 0.578607 0.035126
0.527825 0.579065 0.031708
0.553124 0.579370 0.027955
0.578820 0.579583 0.022889
0.604608 0.579461 0.019654
0.630243 0.579126 0.015808
0.655695 0.578546 0.013825
0.683070 0.579889 0.019776
0.710903 0.581689 0.036316
0.738888 0.583673 0.052888
0.766781 0.585595 0.064179
0.794247 0.587243 0.074952
0.821225 0.588647 0.085298
0.847715 0.589868 0.096284
0.873777 0.591028 0.107851
0.899413 0.592126 0.119753
0.924681 0.593347 0.132113
0.949737 0.594903 0.145602
0.974578 0.596826 0.160372
0.999237 0.599298 0.176333
1.000000 0.602502 0.194430
1.000000 0.606622 0.215000
0.372625 0.610742 0.046998
0.374853 0.610651 0.046021
0.377996 0.610407 0.046052
0.384527 0.610101 0.045441
0.394598 0.609552 0.044434
0.407599 0.609003 0.042481
0.423255 0.608484 0.041657
0.441382 0.608118 0.038239
0.461402 0.607843 0.035767
0.483101 0.607721 0.032837
0.506188 0.607874 0.030335
0.530266 0.608026 0.026978
0.555108 0.608240 0.024933
0.580224 0.608209 0.021057
0.605554 0.607843 0.017884
0.630640 0.607172 0.015747
0.655634 0.606287 0.014160
0.680720 0.605524 0.010834
0.707485 0.606500 0.020264
0.735378 0.608484 0.038819
0.763180 0.610468 0.058534
0.790677 0.612085 0.069581
0.817685 0.613489 0.081361
0.844388 0.614710 0.093355
0.870665 0.615778 0.105501
0.896544 0.616846 0.118074
0.922118 0.617975 0.131289
0.947448 0.619379 0.145449
0.972625 0.621088 0.160800
0.997559 0.623377 0.177554
1.000000 0.626276 0.196048
1.000000 0.629999 0.217258
0.379492 0.640528 0.045014
0.381842 0.640681 0.044190
0.387915 0.651331 0.047456
0.394507 0.650904 0.047211
0.404578 0.650233 0.046723
0.417334 0.649348 0.044892
0.432929 0.648341 0.043488
0.450599 0.647425 0.040925
0.470405 0.646662 0.038911
0.491890 0.646052 0.037507
0.514519 0.645655 0.035737
0.538201 0.645167 0.033387
0.562402 0.644587 0.032044
0.587060 0.643885 0.030549
0.611841 0.642969 0.028382
0.636622 0.641871 0.024659
0.661402 0.640589 0.023377
0.686122 0.639277 0.021149
0.710964 0.638087 0.018158
0.737301 0.638483 0.029297
0.764523 0.639826 0.054017
0.791653 0.641016 0.068788
0.818418 0.641962 0.081178
0.844724 0.642695 0.093690
0.870390 0.643061 0.106233
0.895720 0.643427 0.118837
0.920714 0.643824 0.131991
0.945708 0.644587 0.146151
0.970733 0.645869 0.161349
0.995727 0.647761 0.178500
1.000000 0.650263 0.197513
1.000000 0.653529 0.218997
0.387457 0.672145 0.049744
0.390021 0.673518 0.049836
0.393378 0.674830 0.050477
0.399969 0.675776 0.050538
0.409888 0.676173 0.050507
0.422431 0.675898 0.050080
0.437415 0.675227 0.048402
0.454536 0.674342 0.047517
0.473701 0.673671 0.045869
0.494362 0.672999 0.044221
0.516411 0.672511 0.041077
0.539391 0.672084 0.040223
0.563073 0.671412 0.039673
0.587152 0.670680 0.036835
0.611505 0.669703 0.034394
0.635889 0.668513 0.032624
0.660334 0.667262 0.030945
0.684840 0.665980 0.029053
0.709560 0.664851 0.028412
0.734554 0.663996 0.026215
0.760769 0.664393 0.039490
0.788022 0.665888 0.063264
0.815000 0.667018 0.077424
0.841550 0.667903 0.090913
0.867521 0.668421 0.104372
0.893126 0.668788 0.117739
0.918425 0.669184 0.131502
0.943633 0.669856 0.146334
0.968872 0.670924 0.162203
0.994018 0.672572 0.179934
1.000000 0.674769 0.199344
1.000000 0.677638 0.221256
0.394232 0.699519 0.054414
0.396674 0.700740 0.055512
0.399939 0.701930 0.056306
0.406256 0.702815 0.056550
0.415656 0.703243 0.057435
0.427649 0.702998 0.056275
0.442206 0.702327 0.055634
0.458717 0.701534 0.054749
0.477150 0.700893 0.052827
0.497261 0.700313 0.051698
0.518730 0.699825 0.051301
0.541161 0.699336 0.051179
0.564263 0.698634 0.049683
0.587854 0.697871 0.049592
0.611810 0.696864 0.048341
0.635828 0.695674 0.047425
0.659968 0.694423 0.044221
0.684230 0.693141 0.043946
0.708736 0.692042 0.043671
0.733608 0.691249 0.042725
0.758694 0.690669 0.043793
0.784939 0.691157 0.057282
0.812039 0.692500 0.073884
0.838743 0.693477 0.088472
0.864897 0.694026 0.102693
0.890623 0.694362 0.116732
0.916014 0.694575 0.131197
0.941344 0.695094 0.146273
0.966644 0.696010 0.162905
0.991913 0.697383 0.180728
1.000000 0.699245 0.200565
1.000000 0.701717 0.223056
0.401038 0.726680 0.061952
0.403449 0.727810 0.062593
0.406592 0.728939 0.063050
0.412726 0.729793 0.063661
0.421729 0.730129 0.064240
0.433295 0.729915 0.064118
0.447181 0.729305 0.063447
0.462989 0.728573 0.063111
0.480903 0.727810 0.062837
0.500359 0.727138 0.062104
0.521019 0.726558 0.061830
0.542901 0.725978 0.061677
0.565423 0.725277 0.061097
0.588556 0.724544 0.061250
0.612116 0.723690 0.060975
0.635981 0.722866 0.060914
0.660243 0.722103 0.061463
0.684779 0.721492 0.061555
0.709682 0.721126 0.062348
0.734920 0.721004 0.064271
0.760616 0.721157 0.065736
0.786648 0.721401 0.067903
0.813260 0.722103 0.075502
0.840391 0.723354 0.091676
0.866941 0.724086 0.107576
0.892943 0.724453 0.122713
0.918547 0.724605 0.138216
0.943969 0.724971 0.154421
0.969329 0.725582 0.171450
0.994446 0.726589 0.190066
1.000000 0.728054 0.210788
1.000000 0.730007 0.233982
0.410132 0.758419 0.073854
0.412146 0.758907 0.074189
0.414832 0.759274 0.074189
0.420508 0.759365 0.074647
0.428992 0.759213 0.074769
0.440040 0.758724 0.074769
0.453346 0.758114 0.074311
0.468788 0.757473 0.074311
0.486122 0.756985 0.073884
0.505119 0.756527 0.074159
0.525414 0.756222 0.074037
0.546838 0.755764 0.074556
0.568994 0.755154 0.074769
0.591638 0.754391 0.075044
0.614740 0.753536 0.075349
0.638331 0.752621 0.075563
0.662135 0.751766 0.075898
0.686366 0.751034 0.076265
0.710811 0.750454 0.077241
0.735653 0.749996 0.078614
0.760800 0.749691 0.080232
0.786221 0.749477 0.082063
0.811856 0.749355 0.084565
0.837858 0.749416 0.090486
0.864317 0.749996 0.106722
0.890410 0.750332 0.122560
0.916197 0.750515 0.138705
0.941833 0.750820 0.155398
0.967285 0.751308 0.173129
0.992523 0.752102 0.192172
1.000000 0.753231 0.213138
1.000000 0.754879 0.236790
0.417670 0.784939 0.083955
0.419684 0.785397 0.084565
0.422217 0.785855 0.085054
0.427710 0.785977 0.085389
0.435828 0.785794 0.085573
0.446235 0.785336 0.085359
0.458930 0.784695 0.085115
0.473610 0.783993 0.084779
0.490394 0.783352 0.084657
0.508629 0.782864 0.085084
0.528313 0.782437 0.085512
0.549065 0.781979 0.085817
0.570611 0.781430 0.086061
0.592859 0.780758 0.086610
0.615564 0.780056 0.087068
0.638758 0.779355 0.087709
0.662318 0.778714 0.088472
0.686336 0.778134 0.089509
0.710628 0.777737 0.091066
0.735317 0.777493 0.092866
0.760342 0.777401 0.095033
0.785733 0.777401 0.097627
0.811398 0.777523 0.100649
0.837308 0.777646 0.103395
0.860655 0.774868 0.104158
0.886809 0.775235 0.120790
0.912779 0.775479 0.137606
0.938567 0.775784 0.154726
0.964202 0.776211 0.172793
0.989624 0.776852 0.192447
1.000000 0.777859 0.213901
1.000000 0.779446 0.238529
0.427436 0.815091 0.100435
0.429419 0.815610 0.101076
0.431891 0.815885 0.101625
0.436896 0.815824 0.101656
0.444495 0.815427 0.101350
0.454414 0.814755 0.100954
0.466438 0.813870 0.100618
0.480415 0.812924 0.100221
0.496254 0.811887 0.099916
0.513725 0.810971 0.099611
0.532494 0.810025 0.099397
0.552331 0.809262 0.099672
0.573175 0.808408 0.099855
0.594598 0.807462 0.100038
0.616602 0.806302 0.100099
0.638972 0.805142 0.100313
0.661830 0.804013 0.100649
0.685145 0.803189 0.101564
0.709010 0.802731 0.102632
0.733394 0.802609 0.104829
0.758236 0.802701 0.107515
0.783352 0.802853 0.110414
0.808652 0.802884 0.113405
0.834073 0.802731 0.116182
0.859525 0.802426 0.118563
0.885069 0.801968 0.121889
0.910918 0.801968 0.138918
0.936522 0.801938 0.156222
0.962097 0.802090 0.174411
0.987488 0.802457 0.194308
1.000000 0.803311 0.216251
1.000000 0.804654 0.241489
0.435431 0.840330 0.113252
0.437232 0.840879 0.113985
0.439704 0.841154 0.114443
0.444465 0.841093 0.114687
0.451667 0.840726 0.114473
0.461067 0.840146 0.114321
0.472663 0.839445 0.114137
0.486061 0.838651 0.113924
0.501366 0.837888 0.113741
0.518242 0.837186 0.114015
0.536431 0.836515 0.114107
0.555901 0.835935 0.114595
0.576196 0.835325 0.115267
0.597253 0.834592 0.115724
0.618830 0.833738 0.116426
0.640894 0.832822 0.116915
0.663508 0.831907 0.117678
0.686488 0.831235 0.118746
0.710079 0.830808 0.120485
0.734157 0.830686 0.122560
0.758633 0.830716 0.125490
0.783444 0.830838 0.128511
0.808530 0.830900 0.131228
0.833738 0.830838 0.134432
0.859098 0.830625 0.137392
0.884581 0.830259 0.140291
0.910277 0.829923 0.143191
0.936065 0.829831 0.160922
0.961669 0.829831 0.179934
0.987091 0.830014 0.200137
1.000000 0.830716 0.223178
1.000000 0.831724 0.249149
0.444648 0.866758 0.129458
0.446387 0.867094 0.130220
0.448585 0.867155 0.130251
0.453040 0.866941 0.130282
0.459693 0.866453 0.130068
0.468544 0.865812 0.129671
0.479408 0.865049 0.129122
0.492164 0.864256 0.129030
0.506859 0.863493 0.128908
0.523033 0.862882 0.129000
0.540642 0.862272 0.129458
0.559472 0.861845 0.130220
0.579278 0.861357 0.131106
0.599847 0.860777 0.131991
0.620905 0.860044 0.132601
0.642512 0.859220 0.133181
0.664576 0.858335 0.134096
0.687221 0.857633 0.135317
0.710323 0.857237 0.136843
0.733974 0.857084 0.139071
0.758114 0.857115 0.141817
0.782620 0.857206 0.145144
0.807370 0.857298 0.148318
0.832303 0.857298 0.151553
0.857420 0.857176 0.154726
0.882719 0.856901 0.157809
0.908232 0.856596 0.161196
0.933959 0.856260 0.164553
0.959655 0.856168 0.182223
0.985260 0.856291 0.203281
1.000000 0.856687 0.226535
1.000000 0.857359 0.252934
0.453681 0.891783 0.145571
0.455299 0.891966 0.145876
0.457374 0.892027 0.146090
0.461494 0.891905 0.146059
0.468025 0.891630 0.146029
0.476631 0.891417 0.146365
0.487373 0.891295 0.146944
0.500084 0.891356 0.147799
0.514702 0.891478 0.149203
0.530816 0.891783 0.150851
0.548363 0.892088 0.152834
0.567041 0.892393 0.154818
0.586633 0.892576 0.156802
0.606989 0.892576 0.158572
0.627863 0.892271 0.160281
0.649104 0.891691 0.161471
0.670893 0.891020 0.162783
0.693111 0.890440 0.164370
0.715969 0.890043 0.166415
0.739284 0.889860 0.168734
0.763027 0.889799 0.171756
0.787228 0.889799 0.175113
0.811643 0.889769 0.178256
0.836301 0.889677 0.181643
0.861173 0.889433 0.185306
0.886168 0.889158 0.188663
0.911498 0.888853 0.192111
0.937041 0.888487 0.195956
0.962982 0.888304 0.200290
0.988525 0.888029 0.218814
1.000000 0.887785 0.242802
1.000000 0.887602 0.269718
0.467475 0.921660 0.171267
0.468849 0.921782 0.171695
0.470710 0.921691 0.171847
0.474556 0.921447 0.171542
0.480507 0.921080 0.171359
0.488502 0.920623 0.171298
0.498421 0.920195 0.171267
0.510124 0.919860 0.171633
0.523705 0.919585 0.172244
0.538903 0.919371 0.173251
0.555261 0.919158 0.174441
0.572900 0.919005 0.175753
0.591516 0.918761 0.177066
0.610986 0.918425 0.178622
0.631098 0.917967 0.179812
0.651789 0.917418 0.181369
