其他预设/【232】美食博客调色预设124款/1.3D LUT预设（视频调色-PR-AE-PS-FCPX-达芬奇用）/Food Art #73.cube
# Created by Adobe Lightroom plugin Export LUT (1.17.0)
# www.johnrellis.com/lightroom/exportlut.htm
# Preset: Food Art #73
# Color profile: /Library/Application Support/Adobe/Color/Profiles/Recommended/AdobeRGB1998.icc
LUT_3D_SIZE 8
DOMAIN_MIN 0.000000 0.000000 0.000000
DOMAIN_MAX 0.903226 0.903226 0.903226
0.000000 0.000000 0.000000
0.081086 0.041169 0.030091
0.203372 0.091066 0.054139
0.347539 0.116426 0.070954
0.505882 0.140200 0.100984
0.677089 0.160830 0.133089
0.833280 0.190188 0.167117
0.961242 0.240604 0.210300
0.000000 0.124483 0.025757
0.079438 0.132540 0.039673
0.201877 0.152987 0.059663
0.344335 0.170291 0.077424
0.502068 0.187869 0.105837
0.671168 0.203799 0.135073
0.827512 0.225620 0.167544
0.958068 0.267399 0.210239
0.000000 0.260288 0.067567
0.072358 0.262760 0.070863
0.206699 0.269230 0.082612
0.349035 0.280461 0.100496
0.508507 0.293919 0.122774
0.677394 0.307439 0.147280
0.835142 0.324346 0.177890
0.962127 0.353002 0.220584
0.000000 0.391547 0.108400
0.084932 0.392248 0.110719
0.223880 0.395270 0.118257
0.369543 0.406043 0.131838
0.530449 0.420417 0.146761
0.690517 0.431067 0.163943
0.837552 0.441932 0.190585
0.961028 0.460243 0.233219
0.050690 0.533227 0.144686
0.132753 0.533837 0.145876
0.259312 0.536217 0.149905
0.398840 0.541436 0.156771
0.542290 0.544640 0.165652
0.692988 0.553155 0.178470
0.836210 0.562982 0.204623
0.959258 0.576989 0.251408
0.147860 0.677241 0.172152
0.195407 0.680446 0.173739
0.302953 0.680995 0.176425
0.432837 0.682063 0.181949
0.569512 0.682765 0.189364
0.707393 0.684749 0.200320
0.842283 0.690486 0.226627
0.960113 0.699245 0.280400
0.247868 0.814664 0.213748
0.277714 0.815244 0.214969
0.360296 0.814176 0.217838
0.472816 0.813565 0.224277
0.596246 0.812314 0.233646
0.722774 0.812589 0.248569
0.845945 0.814298 0.268956
0.958312 0.817685 0.316686
0.378698 0.934600 0.293339
0.396704 0.934295 0.294652
0.454627 0.933684 0.299565
0.543267 0.933440 0.310338
0.641047 0.928832 0.319005
0.750790 0.928618 0.341192
0.858518 0.929564 0.370642
0.957733 0.930755 0.405097
0.000000 0.028748 0.112795
0.074067 0.050324 0.115480
0.195010 0.096986 0.130098
0.336461 0.131533 0.146304
0.495338 0.154757 0.162814
0.664393 0.171633 0.179904
0.822721 0.196139 0.201541
0.954559 0.245243 0.235508
0.000000 0.124697 0.116854
0.072450 0.133303 0.121096
0.195346 0.156954 0.134615
0.336736 0.178225 0.148470
0.494759 0.196231 0.164309
0.662440 0.210361 0.180728
0.818814 0.229923 0.201572
0.951293 0.270603 0.235142
0.000000 0.256596 0.134737
0.075196 0.258579 0.139864
0.202548 0.266087 0.145480
0.342626 0.280034 0.157198
0.500633 0.294591 0.171054
0.666865 0.307408 0.186160
0.822934 0.323003 0.207187
0.954376 0.352636 0.243046
0.000000 0.386419 0.157321
0.095369 0.386969 0.160342
0.224765 0.391485 0.164767
0.360754 0.398352 0.172305
0.514611 0.411383 0.182376
0.674495 0.423560 0.194491
0.825101 0.436622 0.215488
0.953704 0.458015 0.252873
0.073396 0.529198 0.181338
0.139559 0.529259 0.181704
0.259617 0.530877 0.184237
0.393683 0.533867 0.188693
0.533196 0.536522 0.194369
0.684382 0.547112 0.205112
0.829862 0.559228 0.228214
0.954681 0.575280 0.270726
0.153201 0.671839 0.200626
0.196323 0.672236 0.201205
0.301213 0.673213 0.203311
0.429725 0.675593 0.208103
0.566155 0.677882 0.214817
0.704646 0.681697 0.224887
0.839261 0.688045 0.248875
0.956970 0.697597 0.298344
0.250309 0.808804 0.235721
0.277623 0.808103 0.236027
0.359594 0.807797 0.238682
0.471901 0.808621 0.245335
0.595331 0.808743 0.254704
0.720668 0.809018 0.267979
0.842252 0.810178 0.286137
0.954437 0.814084 0.330602
0.383398 0.931334 0.310369
0.401526 0.931426 0.312078
0.458839 0.931090 0.317205
0.546380 0.931121 0.327825
0.648035 0.930114 0.341955
0.754116 0.928740 0.360967
0.858915 0.928496 0.386267
0.956664 0.929290 0.417548
0.000000 0.053223 0.225345
0.067597 0.068605 0.225620
0.197543 0.103426 0.226688
0.339544 0.138827 0.237736
0.496590 0.165316 0.250675
0.666194 0.183688 0.265385
0.823972 0.212772 0.282261
0.954925 0.269993 0.310155
0.000000 0.140352 0.223789
0.070985 0.147311 0.224491
0.197879 0.162417 0.226963
0.338445 0.185794 0.238193
0.495796 0.204776 0.251164
0.663996 0.219242 0.264836
0.821378 0.243259 0.281468
0.953307 0.293248 0.309941
0.000000 0.258549 0.227817
0.077668 0.261021 0.228794
0.213596 0.274388 0.236942
0.346532 0.284428 0.243168
0.504692 0.299474 0.255283
0.668879 0.312047 0.267399
0.822965 0.330602 0.284550
0.953063 0.367071 0.314397
0.000000 0.386633 0.240696
0.106874 0.387518 0.242008
0.234226 0.393011 0.246952
0.366125 0.399664 0.251621
0.518944 0.413367 0.260777
0.677546 0.426459 0.272251
0.826902 0.442512 0.290929
0.953735 0.469306 0.323796
0.092378 0.527581 0.257267
0.152346 0.527764 0.258305
0.268254 0.529534 0.260868
0.399329 0.533623 0.264225
0.537407 0.537163 0.268467
0.686549 0.547936 0.278904
0.829923 0.561791 0.299901
0.953643 0.582513 0.338415
0.168368 0.670192 0.272557
0.210025 0.670069 0.273777
0.311131 0.670039 0.276738
0.434272 0.671565 0.279942
0.567071 0.673701 0.285130
0.702602 0.677638 0.293767
0.836851 0.686580 0.316564
0.955596 0.702174 0.364050
0.269596 0.808103 0.302434
0.298741 0.807187 0.304784
0.376928 0.805783 0.308385
0.482612 0.805570 0.313237
0.601282 0.805539 0.321111
0.723964 0.806912 0.333471
0.844022 0.810178 0.351965
0.955200 0.817533 0.394873
0.409979 0.928893 0.370153
0.429786 0.927947 0.373785
0.481392 0.927337 0.377691
0.564477 0.928252 0.388067
0.659998 0.927428 0.399969
0.761715 0.926970 0.416754
0.862821 0.927672 0.439612
0.957549 0.929503 0.468391
0.000000 0.074342 0.326452
0.081117 0.086275 0.326696
0.217105 0.115785 0.326390
0.348028 0.144381 0.327276
0.503502 0.167269 0.341222
0.667994 0.184115 0.356420
0.821012 0.218509 0.372015
0.950195 0.293492 0.399542
0.000000 0.156802 0.325048
0.090517 0.161563 0.325292
0.219577 0.174289 0.325841
0.349310 0.189700 0.327520
0.504753 0.206485 0.341772
0.667292 0.220798 0.356298
0.819547 0.250217 0.372290
0.949065 0.318975 0.401648
0.000000 0.272068 0.325322
0.105562 0.274327 0.325261
0.228428 0.280369 0.326848
0.357122 0.287510 0.330663
0.511955 0.301305 0.345098
0.673793 0.315648 0.360418
0.825406 0.345220 0.381262
0.951385 0.395026 0.411322
0.056519 0.390112 0.330694
0.128573 0.391028 0.331182
0.246738 0.395666 0.334325
0.387488 0.410437 0.346441
0.527245 0.415595 0.351720
0.679194 0.428412 0.364660
0.825193 0.450324 0.385260
0.950988 0.488289 0.418860
0.122866 0.527642 0.348180
0.171237 0.527367 0.348150
0.279850 0.529137 0.350134
0.411536 0.536400 0.356573
0.546838 0.539818 0.361120
0.691890 0.550927 0.373571
0.830900 0.568566 0.396460
0.951629 0.596185 0.432868
0.191318 0.671138 0.365484
0.230625 0.673030 0.367407
0.327276 0.671931 0.369329
0.450721 0.672816 0.375586
0.578149 0.674952 0.380926
0.707424 0.677943 0.389075
0.837339 0.689235 0.412299
0.953399 0.709682 0.454078
0.286717 0.806668 0.389014
0.315373 0.806546 0.390906
0.398871 0.805509 0.398260
0.507836 0.804654 0.409827
0.618189 0.805142 0.416785
0.733028 0.806424 0.426947
0.846067 0.809476 0.441260
0.953674 0.819913 0.479316
0.427222 0.928801 0.443610
0.447425 0.928374 0.447211
0.509026 0.926299 0.458686
0.590356 0.924773 0.471870
0.677638 0.924315 0.481331
0.772335 0.924529 0.495094
0.867704 0.926207 0.513970
0.958190 0.929320 0.537835
0.000000 0.103731 0.439704
0.118746 0.111727 0.439918
0.246281 0.132326 0.439307
0.378790 0.153811 0.439979
0.517479 0.170138 0.443824
0.675044 0.186313 0.460212
0.824033 0.222477 0.475471
0.951141 0.299931 0.496071
0.039063 0.173770 0.438117
0.127596 0.177554 0.438819
0.249607 0.187106 0.439033
0.379736 0.198489 0.439429
0.518029 0.208988 0.443763
0.675563 0.222690 0.460487
0.824094 0.254795 0.476112
0.950591 0.325872 0.497932
0.082795 0.287327 0.437446
0.143496 0.288945 0.437476
0.256840 0.292302 0.437903
0.386053 0.297337 0.440925
0.521233 0.302037 0.444434
0.675532 0.314061 0.460426
0.822721 0.342138 0.477943
0.947875 0.399939 0.503441
0.113252 0.405371 0.442329
0.163790 0.405829 0.442206
0.273198 0.408301 0.443732
0.401465 0.412970 0.448188
0.536004 0.416693 0.452461
0.683894 0.430396 0.466651
0.824674 0.457099 0.486580
0.947021 0.501732 0.516136
0.155184 0.528222 0.449592
0.195987 0.528527 0.449989
0.296086 0.529839 0.451179
0.421942 0.534997 0.456580
0.564721 0.547906 0.470130
0.696132 0.552972 0.476722
0.828519 0.572229 0.496407
0.947387 0.605615 0.528679
0.212284 0.664454 0.465736
0.245457 0.664393 0.466041
0.335485 0.663783 0.466926
0.455329 0.665309 0.471534
0.583368 0.670130 0.479957
0.709926 0.675715 0.489052
0.836820 0.690547 0.511681
0.950256 0.714992 0.547173
0.306340 0.802976 0.489235
0.331792 0.802274 0.489998
0.409705 0.800717 0.493965
0.516136 0.799741 0.502190
0.628626 0.800381 0.512932
0.737850 0.802731 0.521660
0.845579 0.806455 0.533165
0.950713 0.819791 0.565209
0.438941 0.924498 0.529656
0.457130 0.923827 0.531670
0.514580 0.921996 0.538842
0.601129 0.921630 0.553796
0.689479 0.920500 0.565911
0.778653 0.921294 0.576471
0.869657 0.923613 0.591363
0.956878 0.927459 0.610346
0.104494 0.132357 0.575738
0.162692 0.137575 0.575769
0.279850 0.150729 0.574640
0.412451 0.165774 0.575708
0.549889 0.178134 0.577600
0.685969 0.190707 0.579431
0.828214 0.229282 0.592309
0.952209 0.310735 0.607416
0.114046 0.191073 0.572290
0.167788 0.193393 0.572229
0.281285 0.199832 0.572137
0.412360 0.208225 0.573724
0.548547 0.216556 0.575525
0.684627 0.225681 0.577996
0.827176 0.259648 0.591760
0.951202 0.334661 0.607935
0.134615 0.301823 0.572473
0.181155 0.302617 0.572625
0.289830 0.305089 0.573297
0.418097 0.308751 0.574731
0.552209 0.312413 0.576410
0.686976 0.318120 0.579065
0.827604 0.347601 0.593622
0.949950 0.409247 0.612543
0.163302 0.421790 0.576745
0.203891 0.421759 0.576135
0.306126 0.423285 0.576074
0.432197 0.427222 0.579309
0.564355 0.430915 0.582330
0.695857 0.436316 0.585260
0.830930 0.463325 0.600214
0.949371 0.509667 0.621698
0.199588 0.543114 0.579583
0.234409 0.543359 0.579736
0.328588 0.544274 0.580072
0.450294 0.547509 0.581964
0.577295 0.551629 0.586023
0.703426 0.555505 0.589990
0.831632 0.577020 0.605249
0.946654 0.612848 0.630488
0.245762 0.667597 0.585107
0.276036 0.668208 0.585931
0.360754 0.668360 0.586633
0.474464 0.669337 0.588495
0.595514 0.672755 0.593469
0.725673 0.685573 0.608515
0.839567 0.695613 0.620050
0.948241 0.720577 0.646571
0.332128 0.801572 0.604150
0.356970 0.801633 0.605097
0.429541 0.800473 0.606836
0.528099 0.799588 0.610437
0.636835 0.799954 0.616815
0.746426 0.803433 0.627344
0.848661 0.807736 0.636103
0.950469 0.823789 0.663355
0.457923 0.922240 0.633265
0.474464 0.921630 0.634272
0.527398 0.919982 0.638178
0.605127 0.918853 0.645594
0.693080 0.918029 0.654963
0.783688 0.918669 0.666926
0.871489 0.921935 0.679316
0.955688 0.926635 0.694697
0.152682 0.162936 0.718166
0.198550 0.166415 0.718563
0.306767 0.175479 0.718593
0.434485 0.186709 0.719081
0.567864 0.199191 0.719142
0.700435 0.215457 0.719570
0.828092 0.239353 0.720974
0.948791 0.318029 0.729427
0.160311 0.211124 0.716213
0.203952 0.212863 0.716609
0.308751 0.218143 0.716884
0.435004 0.225254 0.717006
0.567407 0.234501 0.717220
0.699489 0.247135 0.717800
0.826505 0.267369 0.719142
0.947143 0.339422 0.728267
0.180819 0.315709 0.716121
0.219608 0.316381 0.716091
0.318608 0.318578 0.716091
0.441291 0.322423 0.716457
0.571435 0.327794 0.716762
0.701808 0.336797 0.717830
0.827604 0.353246 0.720089
0.947021 0.413550 0.731563
0.215427 0.434119 0.717342
0.249332 0.434485 0.716701
0.340948 0.436805 0.715999
0.457099 0.439857 0.716823
0.582391 0.444465 0.717678
0.708553 0.452857 0.719509
0.829953 0.464973 0.722408
0.946380 0.511040 0.736233
0.254612 0.554162 0.719142
0.283726 0.554498 0.718685
0.368414 0.556237 0.717830
0.481086 0.560479 0.717494
0.597711 0.563897 0.718502
0.716396 0.569360 0.720760
0.831846 0.578332 0.724269
0.945098 0.615290 0.741939
0.305516 0.676905 0.723537
0.330968 0.677150 0.723384
0.406775 0.678218 0.723201
0.508293 0.680110 0.723445
0.619928 0.683436 0.724605
0.732448 0.689601 0.728481
0.839567 0.696162 0.733425
0.945617 0.722225 0.752163
0.368811 0.799435 0.730892
0.389685 0.799496 0.731106
0.453346 0.799100 0.731319
0.542870 0.799039 0.732174
0.644282 0.799496 0.733822
0.748470 0.802609 0.738613
0.853971 0.813382 0.751980
0.948028 0.827146 0.768063
0.471626 0.918578 0.748104
0.487190 0.918242 0.748562
0.537957 0.917876 0.751156
0.610468 0.917113 0.754421
0.695521 0.916655 0.759365
0.784604 0.917693 0.766934
0.872831 0.921111 0.778958
0.953552 0.926665 0.790951
0.191012 0.204074 0.865904
0.228977 0.206363 0.866056
0.326513 0.213657 0.865751
0.447913 0.225132 0.865904
0.576501 0.241154 0.866026
0.704799 0.263615 0.866392
0.828183 0.296117 0.867338
0.942229 0.340917 0.868528
0.199496 0.242191 0.864958
0.235691 0.243931 0.865141
0.330602 0.248814 0.864958
0.450477 0.257969 0.865019
0.577935 0.271427 0.865263
0.705562 0.291173 0.865599
0.828153 0.320684 0.866453
0.941588 0.361791 0.867704
0.226200 0.336736 0.863798
0.257847 0.337682 0.863859
0.345678 0.340642 0.863554
0.461128 0.347356 0.864378
0.585229 0.357214 0.864500
0.709865 0.372656 0.864775
0.830014 0.396918 0.865751
0.940948 0.428107 0.867430
0.276432 0.453315 0.862974
0.302525 0.454292 0.863096
0.378637 0.456672 0.863035
0.484474 0.461982 0.863401
0.601556 0.470344 0.863890
0.719753 0.482094 0.864561
0.833951 0.498451 0.866056
0.940612 0.520256 0.868315
0.324437 0.570031 0.864408
0.348943 0.571496 0.864347
0.420325 0.575372 0.863584
0.516899 0.580652 0.862730
0.621942 0.585748 0.863340
0.731350 0.593713 0.864408
0.838865 0.605493 0.866545
0.940429 0.621851 0.870146
0.380896 0.688380 0.867369
0.400214 0.688899 0.867094
0.460273 0.690822 0.866300
0.546685 0.694026 0.865507
0.645686 0.698909 0.865110
0.747066 0.705745 0.866819
0.846952 0.715053 0.870603
0.942046 0.727596 0.875456
0.445380 0.805509 0.872953
0.461036 0.805692 0.872831
0.511009 0.806424 0.872374
0.585687 0.807950 0.872282
0.673426 0.810330 0.872526
0.765713 0.814298 0.873808
0.858000 0.821805 0.877562
0.944244 0.830442 0.882963
0.514885 0.917571 0.881712
0.527031 0.917418 0.881621
0.566918 0.917205 0.881712
0.629938 0.917144 0.882353
0.706050 0.917479 0.883452
0.788022 0.918639 0.885496
0.871550 0.921904 0.889921
0.951537 0.930266 0.900572
