其他预设/【232】美食博客调色预设124款/1.3D LUT预设（视频调色-PR-AE-PS-FCPX-达芬奇用）/Food Art #58.cube
# Created by Adobe Lightroom plugin Export LUT (1.17.0)
# www.johnrellis.com/lightroom/exportlut.htm
# Preset: Food Art #58
# Color profile: /Library/Application Support/Adobe/Color/Profiles/Recommended/AdobeRGB1998.icc
LUT_3D_SIZE 32
0.000000 0.000000 0.000000
0.000000 0.000000 0.000000
0.000000 0.000000 0.000000
0.014984 0.004059 0.014435
0.041169 0.014038 0.041047
0.061494 0.023560 0.061555
0.076844 0.040742 0.075288
0.094270 0.059113 0.087922
0.113863 0.070100 0.099886
0.135317 0.081331 0.113252
0.158206 0.093690 0.126833
0.182620 0.106630 0.141970
0.207706 0.119600 0.159762
0.234287 0.132906 0.179721
0.261967 0.146609 0.199832
0.290806 0.159854 0.220981
0.320958 0.173159 0.242222
0.352850 0.186160 0.263310
0.386053 0.199008 0.284398
0.428168 0.213870 0.309575
0.473732 0.228244 0.334905
0.522026 0.241978 0.360266
0.571649 0.255650 0.384802
0.621210 0.269932 0.409339
0.670985 0.284520 0.433875
0.720912 0.301152 0.458412
0.768338 0.320897 0.483772
0.813107 0.344610 0.509850
0.854887 0.373388 0.536492
0.893217 0.408545 0.564080
0.927520 0.450538 0.592737
0.957580 0.498238 0.622034
0.000000 0.000000 0.000000
0.000000 0.000000 0.000000
0.000000 0.000000 0.000000
0.015961 0.005035 0.015412
0.041169 0.014038 0.041047
0.062348 0.032258 0.065126
0.077516 0.052247 0.078889
0.095247 0.064363 0.090394
0.114504 0.074800 0.102480
0.135653 0.085695 0.115267
0.158480 0.097139 0.128786
0.182559 0.109926 0.143526
0.207553 0.122683 0.161807
0.233982 0.135897 0.180880
0.261448 0.148714 0.200900
0.290043 0.162020 0.221622
0.320104 0.175204 0.242557
0.351659 0.188052 0.263920
0.384833 0.200565 0.284703
0.426215 0.215030 0.309575
0.470771 0.228946 0.334478
0.518303 0.242588 0.359136
0.567437 0.256168 0.383581
0.616815 0.270115 0.407752
0.666438 0.284916 0.432013
0.716579 0.301091 0.456733
0.764553 0.320500 0.481941
0.809812 0.344182 0.508110
0.852049 0.372564 0.534905
0.890837 0.407355 0.562493
0.925597 0.449042 0.591211
0.955962 0.496376 0.620539
0.000000 0.000000 0.000000
0.000000 0.000000 0.000000
0.000977 0.000977 0.000977
0.016632 0.015167 0.024292
0.041077 0.033295 0.056764
0.063233 0.050935 0.072114
0.079072 0.061707 0.083162
0.096651 0.070954 0.094270
0.115694 0.080781 0.105348
0.136629 0.091127 0.117556
0.159274 0.102602 0.131624
0.183139 0.114656 0.146487
0.208194 0.126802 0.164370
0.234348 0.139620 0.183597
0.261631 0.152712 0.203372
0.290318 0.165621 0.223636
0.320104 0.178286 0.244480
0.351568 0.190951 0.265293
0.384588 0.203281 0.286442
0.425910 0.217685 0.310582
0.470039 0.231327 0.335393
0.517205 0.244816 0.359625
0.566064 0.258366 0.383734
0.615137 0.271977 0.407874
0.664698 0.286839 0.432013
0.714870 0.302739 0.456458
0.762936 0.322026 0.481880
0.808377 0.345373 0.507927
0.850828 0.373602 0.534691
0.889799 0.408179 0.562219
0.924651 0.449470 0.590814
0.955169 0.496681 0.620203
0.001556 0.045075 0.043885
0.000641 0.048249 0.045777
0.003143 0.050446 0.049897
0.019867 0.059358 0.064210
0.046876 0.065522 0.075166
0.066316 0.071382 0.083772
0.082307 0.077729 0.092348
0.099825 0.084840 0.102266
0.118624 0.093416 0.112825
0.139559 0.102937 0.124269
0.161868 0.113436 0.137362
0.185428 0.124758 0.153262
0.210178 0.136568 0.170657
0.236118 0.148501 0.189578
0.263218 0.160555 0.208988
0.291600 0.173098 0.228824
0.321263 0.185397 0.249485
0.352605 0.197482 0.269749
0.386236 0.209689 0.290593
0.426276 0.223178 0.314183
0.469398 0.236576 0.337713
0.515587 0.249821 0.361425
0.564202 0.263157 0.385046
0.613581 0.276799 0.409277
0.663752 0.291295 0.433600
0.714656 0.307713 0.458289
0.763363 0.327001 0.483558
0.809018 0.350439 0.509880
0.851408 0.378698 0.536400
0.890074 0.412848 0.563806
0.924590 0.453620 0.592035
0.954864 0.499825 0.620844
0.003388 0.076295 0.075746
0.003601 0.077302 0.076631
0.007507 0.078492 0.077821
0.023957 0.082307 0.083680
0.052674 0.088563 0.092622
0.071626 0.093324 0.099641
0.087739 0.097871 0.106050
0.104738 0.104036 0.114107
0.123354 0.110994 0.123415
0.143832 0.119631 0.134432
0.165530 0.129061 0.147646
0.188754 0.139345 0.163424
0.212955 0.149935 0.180850
0.238834 0.161349 0.198886
0.265904 0.172793 0.217655
0.294255 0.184482 0.237247
0.324163 0.196139 0.256718
0.355352 0.207797 0.276768
0.390356 0.220127 0.297948
0.429755 0.233005 0.320287
0.471931 0.245731 0.343084
0.517571 0.258427 0.366217
0.565515 0.271366 0.389471
0.614588 0.284794 0.413092
0.664607 0.299382 0.436805
0.715358 0.315587 0.461250
0.763790 0.334813 0.486580
0.809171 0.357763 0.512169
0.851316 0.385595 0.538598
0.889769 0.419379 0.565545
0.924224 0.459449 0.593530
0.954406 0.505089 0.622217
0.002167 0.101015 0.093751
0.002167 0.101747 0.094728
0.010315 0.102937 0.096651
0.029419 0.106355 0.100679
0.059144 0.111391 0.107912
0.077760 0.118379 0.116793
0.095369 0.123293 0.123873
0.111910 0.127535 0.130495
0.130068 0.133486 0.138796
0.149905 0.140536 0.149966
0.171267 0.148745 0.163272
0.194003 0.158022 0.178347
0.218082 0.167636 0.194705
0.243595 0.177920 0.211429
0.270390 0.188571 0.229679
0.298833 0.199466 0.248264
0.328801 0.210391 0.267277
0.359991 0.221103 0.286503
0.396368 0.233494 0.307836
0.435340 0.245853 0.329534
0.477455 0.258213 0.351537
0.523278 0.270512 0.374121
0.601251 0.293584 0.412665
0.650263 0.307622 0.435859
0.699428 0.322820 0.459022
0.746609 0.339788 0.482368
0.790707 0.359838 0.506126
0.831907 0.383581 0.530419
0.870054 0.412146 0.555413
0.904906 0.446662 0.581292
0.935943 0.486213 0.607660
0.962982 0.530694 0.635401
0.001495 0.128939 0.113130
0.008881 0.129671 0.114260
0.017243 0.131106 0.116365
0.040772 0.133944 0.120150
0.065400 0.138582 0.126162
0.083864 0.144381 0.134432
0.103914 0.151492 0.144900
0.122591 0.156741 0.154452
0.140536 0.160891 0.162417
0.160250 0.167056 0.172732
0.181521 0.174197 0.185214
0.204349 0.182162 0.199222
0.228153 0.190921 0.214817
0.253605 0.199954 0.231113
0.280369 0.209354 0.247623
0.308537 0.219120 0.264988
0.338140 0.228977 0.282872
0.371740 0.240085 0.302464
0.408911 0.251896 0.323278
0.449104 0.263951 0.344549
0.493599 0.276616 0.366918
0.542565 0.289769 0.390265
0.593439 0.303777 0.414008
0.645045 0.318364 0.438148
0.696864 0.334142 0.462348
0.745327 0.351507 0.486213
0.790066 0.371435 0.509941
0.831327 0.394934 0.533867
0.869413 0.422919 0.558373
0.903960 0.456519 0.583886
0.934936 0.494911 0.609796
0.961944 0.538415 0.637201
0.008484 0.156222 0.134188
0.016693 0.157076 0.135286
0.027741 0.158175 0.136965
0.050141 0.160555 0.141054
0.070680 0.164340 0.146670
0.088350 0.169467 0.154757
0.107912 0.175448 0.164614
0.128847 0.182650 0.176608
0.149264 0.188418 0.187228
0.168399 0.192844 0.196597
0.189334 0.198886 0.207675
0.211826 0.205936 0.220188
0.235477 0.213413 0.234379
0.260807 0.221622 0.249058
0.287419 0.230106 0.264897
0.315221 0.238712 0.280980
0.345708 0.248356 0.298222
0.380224 0.259037 0.317418
0.416358 0.269841 0.336553
0.455573 0.281071 0.356420
0.499275 0.293187 0.377508
0.547265 0.305913 0.399542
0.596887 0.319371 0.422583
0.647547 0.333654 0.445563
0.698421 0.348974 0.468635
0.746273 0.366278 0.491829
0.790402 0.385748 0.514794
0.831357 0.408576 0.538231
0.869169 0.436042 0.562341
0.903563 0.468727 0.587304
0.934356 0.506310 0.613031
0.961242 0.548669 0.640223
0.018891 0.185061 0.160372
0.028840 0.185641 0.161135
0.041047 0.186496 0.162631
0.060853 0.188663 0.166110
0.076417 0.191867 0.171756
0.094179 0.196139 0.179110
0.113436 0.201205 0.187900
0.134035 0.207492 0.198520
0.156100 0.214542 0.211124
0.178378 0.220981 0.223239
0.198978 0.225711 0.232639
0.221164 0.231449 0.244144
0.244877 0.238163 0.256504
0.269993 0.245426 0.270176
0.296391 0.253086 0.284245
0.324895 0.261295 0.299809
0.357153 0.271000 0.316991
0.390570 0.280583 0.334264
0.425849 0.290257 0.352056
0.464637 0.300725 0.370703
0.507836 0.312322 0.390326
0.554650 0.324590 0.411261
0.603296 0.337713 0.432990
0.653010 0.351812 0.455207
0.702724 0.367163 0.477302
0.749477 0.383703 0.499367
0.792752 0.402869 0.521721
0.832975 0.425238 0.544396
0.870115 0.452033 0.567803
0.903990 0.483803 0.592096
0.934325 0.520134 0.617365
0.960876 0.561364 0.644282
0.037995 0.214084 0.188266
0.048280 0.214725 0.188968
0.057862 0.215549 0.190555
0.069978 0.217288 0.193515
0.084810 0.219852 0.198154
0.101778 0.223514 0.204868
0.120546 0.228000 0.212894
0.140749 0.233341 0.222751
0.162478 0.239567 0.233982
0.185885 0.246647 0.246494
0.209537 0.253330 0.259342
0.231571 0.258030 0.269413
0.255222 0.263859 0.280522
0.280125 0.270237 0.292790
0.308171 0.278233 0.306859
0.338567 0.287022 0.322332
0.370428 0.295537 0.337774
0.403540 0.304326 0.353765
0.438575 0.313298 0.369940
0.476783 0.323064 0.387274
0.519188 0.333928 0.405493
0.564080 0.345525 0.424689
0.610620 0.357855 0.444587
0.658350 0.371099 0.465309
0.706325 0.385748 0.485969
0.751766 0.402197 0.507073
0.794491 0.421027 0.528496
0.834348 0.443153 0.550805
0.871275 0.469734 0.573938
0.904906 0.500969 0.597955
0.935058 0.536675 0.622919
0.961303 0.577173 0.649958
0.061067 0.243168 0.216739
0.065126 0.243565 0.217716
0.071077 0.244388 0.218936
0.080903 0.245792 0.221866
0.095125 0.248203 0.225956
0.111604 0.251530 0.232059
0.129671 0.255589 0.239750
0.149660 0.260410 0.248325
0.171023 0.265965 0.258610
0.194125 0.272343 0.270176
0.218601 0.279240 0.283116
0.244022 0.286229 0.296178
0.268070 0.291356 0.306218
0.294804 0.298100 0.318608
0.323095 0.305425 0.331334
0.352605 0.313024 0.345068
0.383642 0.320928 0.358648
0.416205 0.328710 0.373266
0.450752 0.336919 0.388006
0.488502 0.346197 0.403662
0.530114 0.356542 0.420752
0.574121 0.367803 0.438758
0.619898 0.379950 0.457862
0.666621 0.393042 0.477150
0.713283 0.407630 0.496925
0.757198 0.423590 0.516869
0.798489 0.441932 0.537316
0.837217 0.463569 0.558618
0.873136 0.489418 0.581109
0.906035 0.519463 0.604303
0.935515 0.554070 0.628870
0.961303 0.593408 0.655818
0.076905 0.272892 0.246799
0.080751 0.273289 0.247654
0.085451 0.274022 0.248692
0.094789 0.275181 0.251255
0.107576 0.277470 0.255344
0.123262 0.280400 0.260624
0.141085 0.284001 0.267460
0.160708 0.288426 0.275395
0.181857 0.293523 0.284794
0.204746 0.299260 0.295262
0.229221 0.305791 0.306950
0.257145 0.314458 0.321172
0.297551 0.332067 0.345464
0.325566 0.338231 0.356878
0.354894 0.344701 0.368414
0.385229 0.351293 0.380529
0.416876 0.358221 0.392859
0.449866 0.365332 0.405493
0.484657 0.372961 0.418280
0.522606 0.381537 0.432593
0.562768 0.390845 0.447822
0.604852 0.401160 0.464118
0.648127 0.412573 0.480720
0.692226 0.425086 0.498299
0.735012 0.438972 0.516045
0.775570 0.454627 0.534539
0.813748 0.472602 0.553674
0.849516 0.493782 0.573693
0.882719 0.518700 0.594690
0.913298 0.547539 0.616754
0.940703 0.580682 0.640650
0.964752 0.618341 0.667201
0.097230 0.306401 0.280125
0.099825 0.306798 0.280827
0.103761 0.307286 0.281895
0.112123 0.308141 0.283787
0.124300 0.309850 0.286961
0.138766 0.312047 0.291539
0.156130 0.315099 0.297063
0.174929 0.319005 0.304204
0.196170 0.323705 0.312688
0.220829 0.330938 0.324254
0.247654 0.339117 0.337133
0.276799 0.347967 0.351263
0.308019 0.357305 0.366125
0.341009 0.366796 0.381231
0.370611 0.372930 0.392065
0.401007 0.379126 0.403082
0.432227 0.385412 0.413977
0.464576 0.391730 0.424994
0.498726 0.398688 0.436713
0.535332 0.406867 0.449622
0.574212 0.416022 0.463569
0.614893 0.425788 0.478370
0.656947 0.436835 0.493874
0.699611 0.448951 0.509850
0.740749 0.462409 0.526757
0.779843 0.477516 0.544244
0.816892 0.495094 0.562554
0.851652 0.515740 0.581903
0.884184 0.539727 0.602045
0.914153 0.567651 0.623804
0.941039 0.599786 0.647517
0.964691 0.636042 0.673945
0.116213 0.336645 0.309422
0.118624 0.337011 0.309941
0.122133 0.337377 0.310887
0.129824 0.338262 0.312718
0.140627 0.339635 0.315587
0.155032 0.342199 0.319951
0.172030 0.345769 0.326055
0.191623 0.350195 0.332982
0.213107 0.355474 0.341711
0.237034 0.361700 0.351781
0.263493 0.368902 0.362951
0.291905 0.376806 0.375494
0.322484 0.385260 0.388434
0.354528 0.393866 0.402075
0.387793 0.402411 0.415900
0.418067 0.407843 0.425513
0.448554 0.413336 0.435035
0.480140 0.419074 0.444648
0.513634 0.425391 0.455146
0.549218 0.432959 0.466651
0.586938 0.441749 0.479561
0.626703 0.451698 0.493202
0.667659 0.462593 0.507500
0.708675 0.474525 0.522576
0.748165 0.487556 0.538537
0.785855 0.502373 0.555077
0.821592 0.519493 0.572686
0.855253 0.539483 0.591089
0.886870 0.562768 0.610742
0.916014 0.589715 0.632074
0.942168 0.620905 0.655848
0.965301 0.655543 0.681971
0.138857 0.370581 0.341100
0.141512 0.371130 0.341863
0.144656 0.371435 0.342535
0.151614 0.372290 0.344335
0.162051 0.373877 0.347265
0.175570 0.375891 0.350805
0.191653 0.378790 0.355871
0.210330 0.382452 0.362066
0.231418 0.386999 0.369390
0.254826 0.392645 0.378332
0.280613 0.399115 0.388342
0.308659 0.406470 0.399176
0.338689 0.414252 0.411170
0.370214 0.422248 0.423407
0.403113 0.430182 0.435431
0.436378 0.437720 0.447333
0.467079 0.442695 0.456062
0.497993 0.447822 0.464637
0.530114 0.453437 0.473671
0.564569 0.460456 0.484108
0.601068 0.468574 0.495613
0.639399 0.478065 0.508202
0.679072 0.488960 0.521416
0.718166 0.500786 0.535454
0.756069 0.513573 0.550469
0.792508 0.528252 0.566461
0.827329 0.545403 0.583551
0.860410 0.565240 0.601648
0.891295 0.588281 0.621271
0.919707 0.615106 0.642817
0.945129 0.645777 0.666987
0.967529 0.679011 0.693141
0.163149 0.405493 0.372442
0.165774 0.405951 0.373205
0.169009 0.406348 0.373754
0.175357 0.407324 0.375677
0.185428 0.408698 0.377874
0.198459 0.410681 0.381384
0.214023 0.413367 0.385962
0.232486 0.416846 0.391272
0.253300 0.421088 0.398047
0.276005 0.426032 0.405798
0.301244 0.431708 0.414374
0.328344 0.437934 0.423682
0.357092 0.444526 0.433692
0.387579 0.451484 0.443885
0.419074 0.458381 0.454200
0.451575 0.465309 0.464759
0.485145 0.472297 0.475410
0.516136 0.477241 0.483864
0.547784 0.482612 0.492103
0.581628 0.489326 0.501793
0.617578 0.497383 0.512413
0.655268 0.506889 0.524102
0.693507 0.517540 0.536645
0.730831 0.529076 0.549920
0.766934 0.541985 0.564141
0.801846 0.556847 0.579583
0.835203 0.573419 0.595941
0.866880 0.592676 0.613550
0.896361 0.614984 0.632715
0.923308 0.640742 0.654139
0.947509 0.669520 0.677760
0.968872 0.700526 0.703243
0.188724 0.439399 0.401038
0.190799 0.439704 0.401587
0.193759 0.440040 0.402197
0.199985 0.440772 0.403449
0.209323 0.442023 0.405676
0.221653 0.443854 0.408698
0.236423 0.446265 0.412848
0.254215 0.449317 0.417578
0.274235 0.453193 0.423377
0.296696 0.457649 0.430030
0.321386 0.462959 0.437690
0.347967 0.468849 0.446082
0.376471 0.475166 0.454963
0.406378 0.481605 0.463966
0.437232 0.488014 0.473274
0.468818 0.494270 0.482521
0.500999 0.500481 0.491981
0.534264 0.506981 0.501610
0.565850 0.512291 0.509941
0.598474 0.518303 0.518486
0.633234 0.526085 0.528069
0.669551 0.535180 0.538781
0.705867 0.545251 0.550378
0.741329 0.556451 0.563134
0.775906 0.568994 0.576806
0.809415 0.583398 0.591424
0.841550 0.599939 0.607263
0.872007 0.618830 0.624598
0.900389 0.640528 0.643702
0.926329 0.665431 0.665278
0.949676 0.692714 0.688594
0.970336 0.722133 0.713832
0.215702 0.474464 0.428901
0.218326 0.474983 0.429389
0.230320 0.486976 0.438788
0.236210 0.487556 0.440101
0.245548 0.488594 0.441657
0.257053 0.490028 0.444190
0.271550 0.491920 0.447333
0.288548 0.494301 0.451179
0.308324 0.497475 0.456001
0.330480 0.501366 0.461555
0.354467 0.505882 0.467964
0.380774 0.510765 0.474861
0.408240 0.515862 0.482429
0.437263 0.521172 0.490120
0.467140 0.526513 0.498024
0.497719 0.531884 0.505943
0.528954 0.537316 0.514092
0.560723 0.542840 0.522423
0.593072 0.548760 0.530755
0.624964 0.554376 0.538842
0.657618 0.561028 0.547387
0.691310 0.569177 0.557000
0.724727 0.578088 0.567742
0.757412 0.588251 0.579400
0.789090 0.599573 0.591760
0.819852 0.612573 0.605310
0.849485 0.627649 0.620020
0.877867 0.645380 0.636591
0.904509 0.666194 0.655451
0.929290 0.689631 0.676539
0.951690 0.715297 0.699458
0.971527 0.742855 0.724300
0.247776 0.513909 0.457404
0.251164 0.515770 0.459022
0.255222 0.517662 0.460517
0.262028 0.519799 0.462837
0.271794 0.521813 0.465126
0.283452 0.523674 0.467750
0.297734 0.525566 0.470558
0.314000 0.527764 0.474250
0.333165 0.530663 0.478584
0.354314 0.534081 0.483436
0.378088 0.538109 0.488899
0.403235 0.542596 0.495155
0.429999 0.547204 0.501762
0.457954 0.551965 0.508446
0.486915 0.556817 0.515648
0.516564 0.561761 0.522606
0.546838 0.566735 0.530083
0.577752 0.572076 0.537560
0.609308 0.577783 0.545464
0.641474 0.584100 0.553643
0.673365 0.590509 0.561883
0.705318 0.597925 0.571221
0.737118 0.606439 0.581323
0.768246 0.616083 0.592462
0.798520 0.626917 0.604364
0.828000 0.639521 0.617487
0.856321 0.654078 0.632227
0.883360 0.671199 0.648737
0.908843 0.691127 0.667659
0.932464 0.713375 0.688289
0.953918 0.737697 0.710811
0.972930 0.763638 0.735348
0.279088 0.549493 0.481880
0.282231 0.551263 0.483345
0.286229 0.553094 0.484749
0.292546 0.555016 0.486793
0.302007 0.556939 0.488899
0.313329 0.558618 0.491218
0.326818 0.560357 0.493721
0.342718 0.562402 0.496712
0.361059 0.565026 0.500511
0.381720 0.568170 0.504845
0.404517 0.571862 0.509880
0.429053 0.575952 0.515404
0.454871 0.580194 0.521324
0.482002 0.584680 0.527459
0.510155 0.589136 0.533715
0.538781 0.593683 0.540154
0.568170 0.598474 0.546807
0.597986 0.603388 0.553796
0.628382 0.608637 0.560998
0.658930 0.614374 0.568597
0.689540 0.620508 0.576623
0.719905 0.627283 0.585290
0.749996 0.635004 0.595026
0.779507 0.644007 0.605585
0.808225 0.654261 0.617243
0.836149 0.666163 0.630091
0.862943 0.680018 0.644678
0.888579 0.696315 0.661189
0.912871 0.714931 0.679622
0.935363 0.735805 0.699855
0.955901 0.758694 0.722072
0.974060 0.783322 0.746151
0.313359 0.586114 0.505730
0.316594 0.587732 0.506798
0.320653 0.589532 0.508171
0.326909 0.591333 0.510033
0.335607 0.593133 0.511864
0.346502 0.594720 0.514000
0.359319 0.596246 0.516320
0.374304 0.598108 0.519005
0.391974 0.600397 0.522271
0.411719 0.603204 0.526055
0.433509 0.606561 0.530449
0.457160 0.610285 0.535271
0.482094 0.614130 0.540490
0.508415 0.618128 0.545953
0.535546 0.622370 0.551781
0.563531 0.626734 0.557885
0.592218 0.631342 0.564477
0.621576 0.636347 0.571405
0.651209 0.641810 0.578759
0.680934 0.647669 0.586419
0.710689 0.654017 0.594507
0.739895 0.660792 0.602808
0.768368 0.668025 0.611749
0.796445 0.676600 0.622492
0.823697 0.686671 0.634394
0.849912 0.698299 0.647608
0.874937 0.711757 0.662531
0.898833 0.727169 0.678950
0.921386 0.744656 0.697108
0.942229 0.764034 0.717067
0.961120 0.785214 0.738857
0.977844 0.807950 0.762417
0.358099 0.629725 0.532372
0.360601 0.630579 0.533165
0.363348 0.631434 0.533898
0.368627 0.632349 0.534844
0.376532 0.633387 0.536187
0.386267 0.634455 0.537896
0.398596 0.635798 0.539818
0.413092 0.637446 0.542321
0.430030 0.639643 0.545495
0.449195 0.642267 0.549004
0.470344 0.645319 0.553246
0.493172 0.648585 0.557702
0.517174 0.651820 0.562493
0.542046 0.655238 0.567559
0.567651 0.658686 0.572961
0.594079 0.662318 0.578485
0.620783 0.666255 0.584527
0.647974 0.670405 0.590723
0.675410 0.675074 0.597345
0.702693 0.679988 0.604273
0.729824 0.685328 0.611597
0.756435 0.691035 0.619196
0.782254 0.697108 0.627161
0.807370 0.703731 0.636011
0.832822 0.712734 0.647761
0.857542 0.723598 0.660975
0.881315 0.736233 0.675593
0.904021 0.750729 0.691829
0.925414 0.767056 0.709682
0.945220 0.785245 0.729274
0.963165 0.805020 0.750668
0.979126 0.826383 0.773922
0.401160 0.666499 0.554955
0.403388 0.667323 0.555657
0.406256 0.668116 0.556298
0.411200 0.668910 0.557214
0.418524 0.669734 0.558556
0.427741 0.670588 0.559991
0.438941 0.671534 0.561761
0.452247 0.672724 0.563897
0.468086 0.674434 0.566552
0.486000 0.676539 0.569879
0.505791 0.679011 0.573602
0.527031 0.681697 0.577844
0.549371 0.684504 0.582147
0.572839 0.687434 0.586877
0.596918 0.690578 0.591791
0.621576 0.693935 0.597131
0.646784 0.697536 0.602747
0.672328 0.701503 0.608667
0.697993 0.705745 0.615076
0.723690 0.710506 0.621973
0.749142 0.715602 0.629267
0.774075 0.721157 0.636988
0.798245 0.727016 0.645136
0.821408 0.733211 0.653803
0.840482 0.736751 0.660426
0.863828 0.746548 0.673304
0.886534 0.758389 0.687587
0.908141 0.771969 0.703517
0.928527 0.787320 0.721065
0.947478 0.804349 0.740383
0.964691 0.823026 0.761563
0.980102 0.843412 0.784756
0.455207 0.705959 0.580591
0.457588 0.706813 0.581262
0.460243 0.707362 0.581903
0.464485 0.707851 0.582696
0.470558 0.708217 0.583459
0.478523 0.708644 0.584649
0.488258 0.709102 0.585962
0.500008 0.709712 0.587732
0.513634 0.710597 0.589868
0.529198 0.711818 0.592401
0.546441 0.713375 0.595453
0.565362 0.715267 0.598932
0.585443 0.717372 0.602655
0.606409 0.719539 0.606683
0.627832 0.721767 0.611078
0.649928 0.724178 0.615625
0.672480 0.726894 0.620600
0.695613 0.730037 0.626184
0.719203 0.733883 0.632380
0.743130 0.738308 0.639246
0.766873 0.743252 0.646632
0.790066 0.748470 0.654536
0.812192 0.753902 0.662593
0.833249 0.759365 0.670619
0.853086 0.764950 0.678706
0.872007 0.770932 0.687282
0.893126 0.781430 0.701106
0.913329 0.793820 0.716487
0.932464 0.807950 0.733639
0.950347 0.823697 0.752468
0.966705 0.841215 0.773342
0.981384 0.860349 0.796139
0.504631 0.738643 0.602625
0.506798 0.739406 0.603296
0.509300 0.739925 0.603815
0.513146 0.740352 0.604395
0.518547 0.740719 0.605280
0.525750 0.741024 0.606317
0.534600 0.741512 0.607691
0.545281 0.742153 0.609339
0.557855 0.743008 0.611444
0.572229 0.744259 0.614099
0.588159 0.745724 0.617090
0.605524 0.747524 0.620447
0.624079 0.749508 0.624231
0.643427 0.751614 0.628382
0.663264 0.753780 0.632685
0.683467 0.756100 0.637415
0.704189 0.758602 0.642512
0.725338 0.761593 0.648035
0.746822 0.765103 0.654292
0.768429 0.769162 0.661189
0.789700 0.773648 0.668421
0.810513 0.778470 0.675929
0.830533 0.783536 0.683711
0.849546 0.788724 0.691585
0.867613 0.794034 0.699611
0.884642 0.799435 0.707698
0.900786 0.805142 0.716121
0.919707 0.816434 0.731228
0.937652 0.829557 0.748165
0.954376 0.844297 0.766781
0.969818 0.860716 0.787350
0.983551 0.878508 0.809720
0.558862 0.771511 0.626398
0.560723 0.772000 0.626886
0.562615 0.772274 0.627253
0.565637 0.772457 0.627771
0.570123 0.772549 0.628412
0.576165 0.772671 0.629358
0.583673 0.772946 0.630549
0.593011 0.773373 0.632105
0.604150 0.774136 0.634089
0.616907 0.775174 0.636622
0.631220 0.776455 0.639551
0.647059 0.778164 0.643030
0.663874 0.779995 0.646967
0.681300 0.781888 0.651179
0.699031 0.783871 0.655543
0.717128 0.785946 0.660090
0.735470 0.788266 0.665095
0.754177 0.790921 0.670466
0.773190 0.794125 0.676387
0.792325 0.797848 0.682979
0.811307 0.801999 0.689967
0.829892 0.806485 0.697292
0.847776 0.811154 0.704768
0.864897 0.816037 0.712612
0.881193 0.821042 0.720455
0.896574 0.826108 0.728481
0.911192 0.831418 0.736629
0.924987 0.836973 0.745022
0.941466 0.848417 0.760830
0.957366 0.862181 0.779202
0.971893 0.877470 0.799344
0.984833 0.893919 0.821164
0.612696 0.801572 0.650904
0.614160 0.801846 0.651301
0.615747 0.802090 0.651759
0.618494 0.802304 0.652216
0.622766 0.802579 0.653071
0.628717 0.803067 0.654353
0.636500 0.803891 0.656092
0.645930 0.805020 0.658381
0.657099 0.806516 0.661158
0.669703 0.808286 0.664485
0.683528 0.810300 0.668269
0.698268 0.812558 0.672328
0.713558 0.814847 0.676692
0.729152 0.817136 0.681239
0.744839 0.819333 0.685786
0.760403 0.821469 0.690455
0.776181 0.823697 0.695338
0.792081 0.826200 0.700679
0.808316 0.829191 0.706416
0.824613 0.832547 0.712734
0.840757 0.836271 0.719478
0.856596 0.840360 0.726528
0.871855 0.844541 0.733852
0.886534 0.848966 0.741299
0.900511 0.853483 0.749020
0.913756 0.858152 0.756771
0.926390 0.862974 0.764645
0.938354 0.867979 0.772793
0.949706 0.873411 0.781308
0.963378 0.884672 0.797604
0.976501 0.898375 0.817105
0.988098 0.913146 0.837980
0.675593 0.835355 0.682216
0.676631 0.835508 0.682521
0.677638 0.835599 0.682704
0.679652 0.835660 0.683101
0.682887 0.835752 0.683803
0.687312 0.835966 0.684718
0.693141 0.836362 0.686122
0.700252 0.837064 0.687861
0.708736 0.837949 0.690089
0.718563 0.839078 0.692775
0.729244 0.840421 0.695857
0.740932 0.842008 0.699306
0.753262 0.843656 0.703090
0.766018 0.845457 0.707118
0.779080 0.847318 0.711330
0.792477 0.849271 0.715785
