其他预设/【232】美食博客调色预设124款/1.3D LUT预设（视频调色-PR-AE-PS-FCPX-达芬奇用）/Food Art #62.cube
# Created by Adobe Lightroom plugin Export LUT (1.17.0)
# www.johnrellis.com/lightroom/exportlut.htm
# Preset: Food Art #62
# Color profile: /Library/Application Support/Adobe/Color/Profiles/Recommended/AdobeRGB1998.icc
LUT_3D_SIZE 32
0.000000 0.000000 0.000000
0.000977 0.000977 0.000977
0.014435 0.003082 0.011261
0.051514 0.011048 0.036652
0.073610 0.038453 0.068544
0.092775 0.062470 0.085756
0.114168 0.074311 0.098878
0.137026 0.085237 0.110842
0.160891 0.096071 0.124575
0.186099 0.107607 0.139040
0.212589 0.119112 0.154818
0.239536 0.131380 0.171572
0.267124 0.144198 0.189700
0.295476 0.157504 0.208988
0.324254 0.170779 0.228733
0.353796 0.183871 0.247837
0.384009 0.196811 0.267094
0.415015 0.209781 0.285863
0.446632 0.222446 0.303929
0.484749 0.236362 0.324468
0.525261 0.250401 0.343908
0.566461 0.264256 0.362432
0.607050 0.278294 0.379889
0.647303 0.292515 0.396246
0.687160 0.307317 0.411872
0.726192 0.323583 0.426886
0.764614 0.341436 0.441444
0.802457 0.361761 0.455604
0.839597 0.385138 0.469398
0.875608 0.412116 0.483101
0.910124 0.443610 0.497322
0.942596 0.480354 0.512963
0.000824 0.002167 0.000885
0.001404 0.007721 0.006897
0.015900 0.015381 0.021057
0.051972 0.038300 0.056214
0.073671 0.060365 0.076387
0.093538 0.071473 0.090578
0.114961 0.081788 0.101808
0.137545 0.091615 0.114015
0.161349 0.101961 0.127138
0.186465 0.112551 0.141451
0.212558 0.123812 0.156832
0.239353 0.135622 0.173709
0.266789 0.148074 0.191409
0.295048 0.160891 0.210300
0.323644 0.173678 0.229587
0.353033 0.186709 0.249088
0.383093 0.199435 0.267887
0.413825 0.212009 0.286687
0.445472 0.224338 0.304692
0.483253 0.238102 0.324254
0.522972 0.251774 0.343664
0.563806 0.265446 0.361761
0.604181 0.279240 0.379187
0.644251 0.293278 0.395575
0.684108 0.307988 0.411048
0.723293 0.323980 0.426215
0.761990 0.341619 0.440742
0.800076 0.361852 0.454994
0.837400 0.384985 0.468757
0.873716 0.411872 0.482490
0.908385 0.443153 0.496712
0.941100 0.479561 0.512230
0.000122 0.038788 0.029297
0.003296 0.045106 0.035187
0.019745 0.052766 0.050172
0.053834 0.064759 0.068971
0.074800 0.073457 0.084657
0.094972 0.082460 0.095918
0.116182 0.090730 0.106538
0.138705 0.099763 0.118135
0.162325 0.108949 0.130770
0.187228 0.119448 0.144656
0.213138 0.130037 0.160037
0.239841 0.141390 0.176699
0.267185 0.153292 0.194491
0.295232 0.165682 0.212955
0.323735 0.178378 0.231815
0.353063 0.190677 0.250797
0.383062 0.203220 0.269596
0.413703 0.215488 0.287846
0.445289 0.227512 0.306065
0.482887 0.241306 0.325322
0.522240 0.254795 0.344366
0.562829 0.267918 0.362341
0.603174 0.281559 0.379553
0.643030 0.295445 0.395697
0.682948 0.309911 0.411292
0.722103 0.325628 0.426246
0.760830 0.343389 0.440711
0.799008 0.363317 0.454963
0.836423 0.386328 0.468666
0.872831 0.413001 0.482368
0.907591 0.444068 0.496498
0.940368 0.480323 0.512108
0.000793 0.080446 0.072206
0.008301 0.081971 0.075868
0.024537 0.084688 0.081056
0.056550 0.089937 0.090028
0.078004 0.096223 0.098787
0.098329 0.102541 0.107271
0.119509 0.108919 0.116854
0.141634 0.116274 0.127352
0.165072 0.124361 0.138979
0.189456 0.133242 0.152712
0.215122 0.143099 0.167208
0.241489 0.153506 0.183413
0.268528 0.164645 0.201022
0.296300 0.176272 0.219120
0.324834 0.187839 0.237125
0.353857 0.199619 0.255985
0.383734 0.211460 0.273930
0.414191 0.223148 0.291600
0.446326 0.234897 0.309392
0.482918 0.247745 0.328191
0.521569 0.260716 0.346471
0.561517 0.273472 0.363928
0.601617 0.286870 0.380774
0.641810 0.300450 0.396857
0.682094 0.314855 0.412360
0.721889 0.330694 0.427314
0.761013 0.348211 0.441749
0.799344 0.368261 0.455909
0.836820 0.391058 0.469612
0.873045 0.417487 0.483131
0.907591 0.448066 0.497200
0.940063 0.483772 0.512627
0.003845 0.109773 0.096834
0.015717 0.111177 0.098604
0.031098 0.113344 0.101717
0.060334 0.117342 0.108034
0.082216 0.123781 0.116854
0.103334 0.128695 0.124758
0.124208 0.132967 0.132235
0.145754 0.138796 0.141054
0.168612 0.145022 0.151919
0.192508 0.152987 0.164614
0.217716 0.161105 0.178592
0.243687 0.170779 0.194217
0.270451 0.180636 0.211063
0.298192 0.191226 0.228000
0.326543 0.201968 0.245579
0.355566 0.212802 0.263401
0.385504 0.223728 0.280980
0.416022 0.234836 0.297948
0.449042 0.246250 0.315465
0.485084 0.258488 0.333440
0.523125 0.270695 0.350591
0.562585 0.283024 0.367346
0.602197 0.295842 0.383673
0.642206 0.309087 0.399573
0.682338 0.323308 0.414679
0.722103 0.338689 0.429175
0.761074 0.355901 0.443488
0.799374 0.375372 0.457221
0.836698 0.397864 0.470680
0.872770 0.423804 0.484077
0.907286 0.453956 0.497963
0.939696 0.489143 0.513420
0.003937 0.140017 0.118166
0.017029 0.141207 0.119570
0.034180 0.142824 0.121645
0.062440 0.146151 0.126955
0.084840 0.151064 0.134310
0.108156 0.157656 0.144259
0.130404 0.162020 0.152071
0.151583 0.165530 0.159854
0.173892 0.170596 0.169162
0.197452 0.176974 0.180545
0.222110 0.184176 0.194125
0.247776 0.192172 0.208408
0.274083 0.201022 0.224247
0.301671 0.210117 0.240208
0.329717 0.219852 0.256748
0.358801 0.229801 0.273472
0.388495 0.239811 0.290410
0.419043 0.249973 0.306676
0.453132 0.261173 0.323857
0.488838 0.272465 0.340520
0.526848 0.284276 0.356939
0.566033 0.295995 0.373297
0.625910 0.316808 0.397711
0.665675 0.330144 0.412329
0.704616 0.344274 0.426307
0.742519 0.359533 0.439918
0.779568 0.376745 0.452857
0.815763 0.396124 0.465583
0.851011 0.418341 0.478126
0.885130 0.444312 0.490883
0.917571 0.474434 0.504631
0.947967 0.508659 0.519951
0.005371 0.172610 0.141329
0.019623 0.173678 0.142458
0.039063 0.174868 0.144472
0.066194 0.177554 0.149111
0.088136 0.181796 0.155764
0.111879 0.187106 0.164431
0.137301 0.193515 0.174990
0.160647 0.197848 0.184695
0.182834 0.200961 0.192538
0.206119 0.205966 0.202914
0.230442 0.212070 0.215396
0.255955 0.218814 0.228336
0.282200 0.226261 0.242893
0.309483 0.234134 0.257450
0.337346 0.242435 0.272709
0.365850 0.251102 0.287816
0.395453 0.260044 0.302983
0.427649 0.269993 0.319280
0.462013 0.280400 0.335546
0.498634 0.291447 0.351537
0.537957 0.302983 0.367803
0.578790 0.315343 0.383795
0.620233 0.328252 0.399359
0.661769 0.341619 0.414557
0.702480 0.356115 0.428717
0.741421 0.371496 0.442145
0.778836 0.388373 0.455024
0.815152 0.407355 0.467414
0.850370 0.429053 0.479683
0.884306 0.454292 0.492287
0.916655 0.483528 0.505852
0.947051 0.516930 0.521141
0.012024 0.203372 0.164797
0.025818 0.204135 0.166140
0.044587 0.205112 0.168215
0.069795 0.207248 0.171847
0.091737 0.210636 0.177615
0.114778 0.214969 0.185458
0.139193 0.220249 0.195438
0.165255 0.226535 0.206485
0.189548 0.231144 0.217227
0.212467 0.234379 0.225864
0.236484 0.239200 0.236515
0.261570 0.244999 0.248234
0.287633 0.251377 0.260655
0.314427 0.258091 0.274205
0.342138 0.265263 0.287938
0.370611 0.272770 0.301793
0.400763 0.281102 0.316136
0.433448 0.290471 0.331151
0.466957 0.299901 0.345739
0.502739 0.309789 0.360601
0.541405 0.320775 0.375372
0.581292 0.332311 0.390295
0.621942 0.344610 0.405005
0.662928 0.357519 0.419135
0.703090 0.371252 0.432654
0.741634 0.386114 0.445472
0.778836 0.402319 0.457801
0.815000 0.420661 0.469795
0.850095 0.441810 0.481727
0.883909 0.466316 0.494087
0.916136 0.495094 0.507622
0.946471 0.527520 0.522881
0.025574 0.234287 0.191012
0.041382 0.234775 0.192599
0.058747 0.235599 0.193668
0.075898 0.237400 0.197269
0.097108 0.240116 0.202426
0.119051 0.243748 0.209567
0.143374 0.248234 0.217777
0.168338 0.253483 0.227848
0.194461 0.259281 0.239628
0.220401 0.264561 0.250553
0.244022 0.267887 0.259312
0.268925 0.272465 0.269718
0.294499 0.277836 0.280949
0.321172 0.283787 0.292790
0.348608 0.290166 0.304936
0.377386 0.296971 0.317662
0.408698 0.305150 0.331212
0.440681 0.313359 0.344305
0.473487 0.321538 0.357519
0.508751 0.330694 0.371038
0.546563 0.340856 0.384558
0.585718 0.351629 0.398169
0.625574 0.363348 0.411872
0.665919 0.375860 0.425025
0.705409 0.388952 0.437690
0.743404 0.403143 0.449683
0.780179 0.418891 0.461402
0.815976 0.436622 0.472847
0.850767 0.457160 0.484443
0.884276 0.480903 0.496559
0.916136 0.508782 0.510033
0.946258 0.540124 0.525292
0.050690 0.264958 0.218662
0.060822 0.265385 0.219883
0.069917 0.266056 0.220798
0.084840 0.267521 0.224002
0.104646 0.269780 0.228244
0.125704 0.272801 0.234653
0.148745 0.276432 0.241642
0.173037 0.280858 0.250919
0.198611 0.286015 0.260838
0.225528 0.291875 0.272251
0.252110 0.297246 0.283421
0.276677 0.300633 0.292058
0.302312 0.304936 0.301549
0.328740 0.310155 0.311864
0.357183 0.316564 0.323308
0.387304 0.323674 0.335180
0.418128 0.330694 0.346990
0.449592 0.337835 0.358862
0.482185 0.345495 0.370428
0.516960 0.353765 0.382544
0.553674 0.363165 0.394690
0.591455 0.373175 0.406806
0.629908 0.383795 0.419074
0.668879 0.395392 0.430945
0.707210 0.407660 0.442664
0.744533 0.421302 0.453925
0.781155 0.436500 0.464973
0.816800 0.453834 0.476081
0.851560 0.473884 0.487434
0.885039 0.497353 0.499550
0.916869 0.524681 0.513146
0.946868 0.555322 0.528679
0.070069 0.294804 0.246036
0.075654 0.295262 0.246708
0.082765 0.295903 0.247990
0.096162 0.297093 0.250614
0.114137 0.299046 0.254490
0.134340 0.301762 0.260044
0.156588 0.305119 0.266514
0.180240 0.309026 0.274357
0.205081 0.313542 0.283116
0.231327 0.318639 0.293156
0.258579 0.324285 0.303685
0.286351 0.329747 0.314153
0.312078 0.333532 0.322728
0.339605 0.338720 0.332372
0.368109 0.344457 0.342473
0.397284 0.350469 0.352636
0.427436 0.356817 0.362799
0.458259 0.363287 0.372961
0.490303 0.370001 0.383032
0.524620 0.377630 0.393591
0.560479 0.386328 0.404608
0.597528 0.395727 0.415747
0.635401 0.405859 0.426917
0.673671 0.416968 0.437781
0.711208 0.428870 0.448585
0.747829 0.441810 0.459052
0.783658 0.456397 0.469459
0.818723 0.473091 0.479927
0.852934 0.492470 0.490944
0.885893 0.515190 0.502922
0.917418 0.541588 0.516411
0.947112 0.571221 0.532158
0.087831 0.325078 0.273320
0.092866 0.325536 0.273808
0.098726 0.325963 0.275242
0.110231 0.327001 0.277409
0.126223 0.328740 0.280644
0.145541 0.331151 0.285222
0.166537 0.334081 0.291112
0.189395 0.337652 0.297765
0.213779 0.341711 0.305547
0.239475 0.346410 0.314092
0.266300 0.351537 0.323461
0.295659 0.358404 0.334569
0.334661 0.372564 0.351751
0.363012 0.376867 0.359838
0.391821 0.381659 0.368078
0.421241 0.386816 0.376654
0.451484 0.392309 0.385229
0.482216 0.397955 0.393683
0.514031 0.404181 0.402106
0.547539 0.410986 0.411017
0.582116 0.418524 0.420294
0.617578 0.426856 0.429755
0.653712 0.436011 0.439124
0.689876 0.446113 0.448737
0.725399 0.457069 0.458076
0.760342 0.469429 0.467506
0.794583 0.483284 0.476967
0.828031 0.499184 0.486854
0.860624 0.517906 0.497414
0.892180 0.539818 0.509209
0.922301 0.564904 0.522728
0.950896 0.593133 0.538720
0.108705 0.358099 0.301915
0.112581 0.358556 0.302342
0.117617 0.358770 0.303319
0.127810 0.359564 0.304936
0.142336 0.360845 0.307591
0.159792 0.362554 0.311192
0.179904 0.364996 0.315831
0.201694 0.367956 0.321477
0.225498 0.371740 0.328466
0.251865 0.377508 0.337072
0.280247 0.383948 0.346624
0.310246 0.390906 0.356664
0.341527 0.398322 0.367315
0.374029 0.405737 0.377722
0.402991 0.410071 0.384894
0.432319 0.414740 0.392157
0.461982 0.419501 0.399298
0.492042 0.424384 0.406531
0.523186 0.429877 0.413672
0.555596 0.436194 0.421332
0.589136 0.443458 0.429541
0.623743 0.451148 0.437934
0.658991 0.459754 0.446509
0.694179 0.469276 0.454932
0.728817 0.479622 0.463508
0.762997 0.491371 0.472328
0.796628 0.504631 0.481270
0.829557 0.520104 0.490852
0.861723 0.538170 0.501274
0.892912 0.559411 0.513176
0.922789 0.583490 0.526787
0.951110 0.610864 0.543206
0.128420 0.387976 0.326055
0.131991 0.388281 0.326360
0.135988 0.388556 0.327123
0.145113 0.389288 0.328466
0.158022 0.390295 0.330846
0.174807 0.392340 0.334142
0.194186 0.395178 0.338781
0.215763 0.398627 0.344152
0.239353 0.402686 0.350500
0.264897 0.407507 0.357855
0.292302 0.413153 0.365698
0.321386 0.419379 0.374182
0.351690 0.425910 0.383001
0.383124 0.432624 0.392004
0.415259 0.439246 0.400702
0.444221 0.443091 0.406714
0.473274 0.447120 0.412787
0.502708 0.451484 0.418647
0.532952 0.456184 0.424872
0.564385 0.461860 0.431556
0.597162 0.468605 0.438666
0.631006 0.476326 0.446113
0.665431 0.484657 0.453651
0.699702 0.493629 0.461402
0.733547 0.503532 0.469368
0.766995 0.514702 0.477607
0.799954 0.527550 0.486183
0.832273 0.542473 0.495460
0.863920 0.560052 0.505913
0.894621 0.580468 0.517784
0.924071 0.603693 0.531762
0.951995 0.630152 0.548730
0.150912 0.420539 0.350408
0.153811 0.420905 0.351019
0.157778 0.421210 0.351415
0.165988 0.421912 0.352605
0.177737 0.423072 0.354864
0.193393 0.424689 0.357641
0.211276 0.426917 0.361273
0.231754 0.429664 0.365637
0.254459 0.433204 0.370733
0.278996 0.437537 0.376837
0.305547 0.442512 0.383429
0.333715 0.448127 0.390478
0.363378 0.454139 0.398047
0.394049 0.460426 0.405707
0.425391 0.466499 0.413123
0.457038 0.472236 0.420233
0.486030 0.475776 0.425513
0.514611 0.479438 0.430182
0.543816 0.483314 0.435554
0.574334 0.488380 0.441352
0.606104 0.494453 0.447578
0.639002 0.501640 0.454078
0.672419 0.509667 0.460792
0.705715 0.518486 0.467872
0.738796 0.528008 0.475257
0.771633 0.538933 0.483070
0.804135 0.551568 0.491432
0.836240 0.566461 0.500847
0.867613 0.583886 0.511528
0.898039 0.603906 0.523827
0.927184 0.626703 0.538537
0.954681 0.652522 0.556359
0.174563 0.453529 0.372625
0.177005 0.453986 0.373327
0.180728 0.454231 0.373632
0.187839 0.454871 0.374914
0.199283 0.455940 0.376532
0.213748 0.457527 0.378882
0.230777 0.459510 0.381903
0.250278 0.462165 0.385809
0.272068 0.465461 0.390204
0.295903 0.469215 0.395056
0.321416 0.473487 0.400366
0.348425 0.478218 0.406348
0.376837 0.483253 0.412177
0.406104 0.488472 0.418341
0.436347 0.493751 0.424506
0.467079 0.499092 0.430488
0.498268 0.504295 0.436408
0.526970 0.507530 0.441077
0.555505 0.511070 0.445563
0.585565 0.515862 0.450752
0.616754 0.521630 0.456275
0.649104 0.528496 0.462074
0.681666 0.536065 0.468299
0.714046 0.544579 0.474739
0.746242 0.554131 0.481666
0.778347 0.565057 0.489235
0.810086 0.577325 0.497536
0.841398 0.591852 0.506981
0.871977 0.608545 0.517754
0.901549 0.627558 0.530327
0.929808 0.649287 0.545525
0.956420 0.673884 0.563897
0.197848 0.485420 0.392218
0.200198 0.485634 0.392554
0.203372 0.485817 0.393011
0.210239 0.486397 0.393805
0.220432 0.487373 0.395300
0.233890 0.488716 0.397070
0.250034 0.490547 0.399756
0.268498 0.492897 0.402808
0.289464 0.495735 0.406256
0.312047 0.499123 0.410315
0.336797 0.503136 0.415076
0.363195 0.507591 0.419806
0.390661 0.512230 0.424964
0.419379 0.516991 0.430030
0.448554 0.521721 0.435248
0.478157 0.526329 0.440467
0.508202 0.530877 0.445380
0.538720 0.535607 0.450507
0.567559 0.539117 0.454810
0.596582 0.543084 0.459205
0.626856 0.548455 0.464027
0.658289 0.554772 0.469398
0.689723 0.561913 0.475044
0.721157 0.569940 0.481086
0.752529 0.579065 0.487739
0.783841 0.589685 0.495155
0.814908 0.602197 0.503502
0.845579 0.616419 0.512963
0.875578 0.632441 0.524041
0.904540 0.650874 0.537163
0.932219 0.671901 0.553033
0.958373 0.695491 0.572168
0.222477 0.517845 0.409735
0.224887 0.518242 0.410040
0.234775 0.527367 0.414832
0.241093 0.527825 0.415625
0.250706 0.528557 0.416724
0.263127 0.529503 0.418158
0.278233 0.530846 0.419989
0.295872 0.532586 0.422339
0.315801 0.534874 0.425086
0.337835 0.537652 0.428229
0.361547 0.540887 0.431800
0.386725 0.544427 0.435676
0.413153 0.548058 0.439704
0.440711 0.551934 0.443824
0.468818 0.555718 0.448096
0.497322 0.559503 0.452247
0.526421 0.563470 0.456489
0.555688 0.567437 0.460700
0.585412 0.571679 0.464820
0.614191 0.575372 0.468910
0.643091 0.579553 0.473091
0.672694 0.584985 0.477729
0.702602 0.591241 0.482979
0.732479 0.598474 0.488685
0.762142 0.606653 0.495003
0.791806 0.616388 0.502159
0.821225 0.627741 0.510307
0.850553 0.640986 0.519707
0.879423 0.656458 0.530846
0.907561 0.674098 0.544549
0.934569 0.694240 0.560998
0.960052 0.716609 0.580682
0.250095 0.552880 0.426307
0.253147 0.554223 0.427008
0.256931 0.555657 0.427832
0.263706 0.557183 0.429053
0.273289 0.558648 0.430274
0.285344 0.559960 0.431861
0.299809 0.561303 0.433387
0.316442 0.562860 0.435309
0.335393 0.564935 0.437842
0.356237 0.567315 0.440467
0.379095 0.570184 0.443397
0.403235 0.573297 0.446632
0.428748 0.576593 0.450080
0.455207 0.579950 0.453559
0.482246 0.583398 0.457191
0.509819 0.586847 0.460792
0.537896 0.590356 0.464393
0.566491 0.594049 0.468116
0.595361 0.598016 0.472023
0.624689 0.602502 0.475929
0.653559 0.606683 0.479988
0.682277 0.611475 0.484443
0.711299 0.617334 0.489448
0.740261 0.624170 0.495125
0.769192 0.632136 0.501488
0.798093 0.641382 0.508751
0.826810 0.652338 0.517021
0.855375 0.665064 0.526726
0.883513 0.679957 0.538506
0.910857 0.697200 0.552728
0.937133 0.716640 0.569787
0.961944 0.737942 0.590051
0.276707 0.584497 0.439796
0.279637 0.585748 0.440558
0.283085 0.587121 0.441291
0.289525 0.588495 0.442145
0.298436 0.589837 0.443336
0.309880 0.590967 0.444495
0.323369 0.592187 0.445899
0.339117 0.593591 0.447547
0.357214 0.595361 0.449470
0.377050 0.597589 0.451728
0.398871 0.600214 0.454353
0.422187 0.603052 0.457130
0.446540 0.606012 0.460029
0.471992 0.609064 0.463050
0.498177 0.612177 0.466163
0.524834 0.615290 0.469276
0.552026 0.618524 0.472511
0.579614 0.621942 0.475929
0.607507 0.625544 0.479408
0.635798 0.629572 0.483131
0.664240 0.633875 0.486976
0.692439 0.638483 0.491279
0.720577 0.643671 0.496284
0.748592 0.650050 0.501915
0.776608 0.657588 0.508324
0.804593 0.666407 0.515648
0.832486 0.676661 0.524132
0.860136 0.688808 0.534234
0.887419 0.703029 0.546532
0.913970 0.719448 0.561334
0.939513 0.737911 0.578973
0.963684 0.758389 0.599634
0.305425 0.616419 0.452247
0.308141 0.617639 0.452796
0.311498 0.618860 0.453407
0.317601 0.620203 0.454292
0.325963 0.621454 0.455207
0.336706 0.622492 0.456184
0.349187 0.623529 0.457313
0.363989 0.624750 0.458747
0.380926 0.626368 0.460426
0.399878 0.628290 0.462318
0.420539 0.630549 0.464424
0.442756 0.632990 0.466865
0.466102 0.635645 0.469398
0.490517 0.638392 0.471992
0.515801 0.641199 0.474861
0.541711 0.644221 0.477790
0.568231 0.647486 0.480995
0.595453 0.650965 0.484230
0.623011 0.654780 0.487770
0.650782 0.658900 0.491554
0.678767 0.663447 0.495674
0.706661 0.668269 0.499916
0.734157 0.673304 0.504784
0.761532 0.679316 0.510765
0.788876 0.686641 0.517540
0.816037 0.695186 0.525414
0.842954 0.705196 0.534569
0.869566 0.716854 0.545464
0.895689 0.730526 0.558709
0.921111 0.746059 0.574334
0.945495 0.763485 0.592706
0.968475 0.782712 0.614099
0.340673 0.652827 0.465278
0.342779 0.653437 0.465492
0.345342 0.653986 0.465766
0.350317 0.654627 0.466285
0.357916 0.655329 0.466957
0.367590 0.656031 0.467781
0.379217 0.656916 0.468788
0.393317 0.658015 0.470039
0.409491 0.659541 0.471412
0.427527 0.661311 0.473213
0.447364 0.663416 0.475227
0.468666 0.665705 0.477333
0.491005 0.667933 0.479622
0.514305 0.670314 0.482124
0.538323 0.672724 0.484688
0.563012 0.675319 0.487404
0.588342 0.678035 0.490364
0.614099 0.681025 0.493538
0.640223 0.684291 0.497017
0.666529 0.687831 0.500633
0.692805 0.691646 0.504540
0.718898 0.695735 0.508751
0.744717 0.700038 0.513237
0.770230 0.704768 0.518273
0.796445 0.711208 0.525200
0.822660 0.719265 0.533440
0.848753 0.728817 0.543053
0.874540 0.739986 0.554681
0.899901 0.752895 0.568475
0.924529 0.767575 0.584466
0.948119 0.783993 0.603265
0.970489 0.802365 0.625269
0.374365 0.684352 0.475898
0.376226 0.684901 0.476234
0.378820 0.685451 0.476570
0.383581 0.686061 0.476967
0.390387 0.686610 0.477607
0.399115 0.687190 0.478187
0.410071 0.687861 0.479103
0.422858 0.688716 0.480201
0.437903 0.689906 0.481514
0.454871 0.691341 0.483040
0.473487 0.693111 0.484901
0.493568 0.695003 0.486946
0.514580 0.697017 0.489082
0.536797 0.699123 0.491432
0.559686 0.701381 0.493965
0.583337 0.703731 0.496742
0.607599 0.706294 0.499794
0.632197 0.709133 0.502953
0.657160 0.712245 0.506462
0.682338 0.715633 0.510216
0.707515 0.719326 0.514366
0.732570 0.723293 0.518791
0.757412 0.727596 0.523491
0.781765 0.732052 0.528649
0.803037 0.734524 0.532952
0.828336 0.741756 0.541527
0.853635 0.750820 0.551751
0.878630 0.761410 0.563836
0.903227 0.773678 0.577874
0.927214 0.787625 0.594385
0.950225 0.803342 0.613672
0.972137 0.820920 0.636316
0.414923 0.718379 0.487953
0.416999 0.718929 0.488289
0.419196 0.719356 0.488533
0.423438 0.719661 0.488869
0.429328 0.719966 0.489387
0.437232 0.720241 0.489937
0.446998 0.720607 0.490639
0.458442 0.721065 0.491493
0.472023 0.721675 0.492683
0.487221 0.722560 0.494118
0.504112 0.723659 0.495674
0.522362 0.725002 0.497566
0.541955 0.726497 0.499611
0.562249 0.728084 0.501732
0.583337 0.729732 0.504204
0.605005 0.731472 0.506737
0.627253 0.733394 0.509575
0.650172 0.735714 0.512688
0.673671 0.738552 0.516289
0.697597 0.741787 0.520256
0.721645 0.745357 0.524529
0.745510 0.749233 0.529290
0.769009 0.753140 0.534325
0.791928 0.757137 0.539544
0.814054 0.761196 0.545190
0.835721 0.765530 0.551293
0.859922 0.773587 0.561883
0.883879 0.783322 0.574243
0.907530 0.794797 0.588586
0.930602 0.807858 0.605432
0.952911 0.822751 0.625208
0.974182 0.839536 0.648341
0.453803 0.747921 0.499153
0.455879 0.748409 0.499519
0.457954 0.748806 0.499794
0.461677 0.749142 0.500145
0.467079 0.749386 0.500572
0.474403 0.749660 0.501213
0.483375 0.749996 0.501976
0.493965 0.750423 0.502983
0.506523 0.751125 0.504051
0.520745 0.752010 0.505516
0.536370 0.753109 0.507164
0.553521 0.754452 0.509148
0.571771 0.755947 0.511254
0.590814 0.757473 0.513603
0.610590 0.759060 0.516197
0.630945 0.760800 0.518883
0.651850 0.762722 0.521965
0.673365 0.764920 0.525261
0.695399 0.767483 0.529076
0.717800 0.770504 0.533318
0.740383 0.773800 0.538018
0.762783 0.777340 0.543145
0.784878 0.781064 0.548669
0.806424 0.784848 0.554467
0.827359 0.788754 0.560510
0.847654 0.792782 0.566888
0.867369 0.797024 0.573602
0.890440 0.805997 0.586358
0.913176 0.816770 0.601373
0.935363 0.829129 0.618738
0.956939 0.843351 0.639185
0.977325 0.859220 0.662867
0.496620 0.778103 0.512139
0.498299 0.778500 0.512413
0.499947 0.778714 0.512596
0.503105 0.778866 0.512963
0.507774 0.778897 0.513390
0.513970 0.779019 0.513939
0.521843 0.779232 0.514580
0.531518 0.779538 0.515587
0.542779 0.780117 0.516777
0.555657 0.780911 0.518242
0.570031 0.781888 0.520012
0.585901 0.783169 0.522057
0.602686 0.784604 0.524346
0.620417 0.786038 0.526940
0.638697 0.787533 0.529625
0.657557 0.789090 0.532586
0.676997 0.790799 0.535882
0.696925 0.792782 0.539513
0.717403 0.795132 0.543572
0.738216 0.797910 0.548211
0.759243 0.800961 0.553307
0.780179 0.804257 0.558801
0.800717 0.807736 0.564660
0.820920 0.811368 0.570855
0.840543 0.815091 0.577325
0.859648 0.818936 0.584009
0.878141 0.822965 0.591119
0.896086 0.827237 0.598596
0.917601 0.836698 0.613306
0.939117 0.848356 0.631159
0.959808 0.861784 0.652003
0.979461 0.876707 0.675959
0.539300 0.806790 0.526513
0.540520 0.807034 0.526757
0.542077 0.807218 0.526970
0.544884 0.807401 0.527337
0.549310 0.807614 0.527794
0.555444 0.808011 0.528588
0.563378 0.808652 0.529656
0.572900 0.809537 0.531090
0.584222 0.810697 0.532891
0.596948 0.812100 0.534966
0.611078 0.813657 0.537407
0.626276 0.815396 0.540124
0.642359 0.817105 0.543053
0.659113 0.818845 0.546227
0.676173 0.820493 0.549554
0.693538 0.822080 0.553002
0.711330 0.823728 0.556695
0.729458 0.825589 0.560815
0.748104 0.827756 0.565301
0.767025 0.830289 0.570397
0.786069 0.833097 0.575860
0.805051 0.836149 0.581811
0.823789 0.839322 0.587945
0.842161 0.842679 0.594568
0.860105 0.846128 0.601404
0.877531 0.849699 0.608637
0.894530 0.853483 0.616144
0.910979 0.857450 0.624109
0.927031 0.861784 0.632563
0.946471 0.871519 0.649500
0.965942 0.883787 0.670710
0.984253 0.897520 0.695003
0.590539 0.838895 0.546746
0.591577 0.839078 0.546990
0.592798 0.839109 0.547173
0.595148 0.839139 0.547448
0.598810 0.839200 0.547967
0.603906 0.839353 0.548669
0.610468 0.839689 0.549676
0.618433 0.840177 0.551049
0.627893 0.840848 0.552697
0.638727 0.841733 0.554742
0.650629 0.842771 0.557031
0.663783 0.843931 0.559716
0.677668 0.845212 0.562615
0.692256 0.846555 0.565759
0.707424 0.847898 0.569116
0.723018 0.849363 0.572808
