其他预设/【232】美食博客调色预设124款/1.3D LUT预设（视频调色-PR-AE-PS-FCPX-达芬奇用）/Food Art #32.cube
# Created by Adobe Lightroom plugin Export LUT (1.17.0)
# www.johnrellis.com/lightroom/exportlut.htm
# Preset: Food Art #32
# Color profile: /Library/Application Support/Adobe/Color/Profiles/Recommended/AdobeRGB1998.icc
LUT_3D_SIZE 32
0.258152 0.240482 0.213809
0.258152 0.240482 0.213809
0.258152 0.240482 0.213809
0.281254 0.238956 0.215702
0.306004 0.238102 0.218479
0.329046 0.236362 0.220737
0.352605 0.236790 0.221744
0.377020 0.237705 0.221714
0.402899 0.237736 0.220645
0.429694 0.237613 0.218967
0.457771 0.237308 0.216800
0.486305 0.238315 0.215274
0.514336 0.242771 0.218723
0.542779 0.246952 0.222538
0.571405 0.250401 0.225711
0.600092 0.253574 0.228702
0.628473 0.256931 0.231724
0.655634 0.260441 0.234897
0.680507 0.264286 0.238346
0.703944 0.268284 0.242008
0.726619 0.272618 0.245975
0.750301 0.277104 0.249882
0.775418 0.281895 0.254032
0.801816 0.286900 0.258396
0.829465 0.292088 0.262852
0.858122 0.297795 0.267796
0.887419 0.303777 0.272892
0.917266 0.310277 0.278355
0.947570 0.317327 0.284215
0.978119 0.324956 0.290593
1.000000 0.333562 0.297673
1.000000 0.343267 0.305791
0.258152 0.240482 0.213809
0.258152 0.240482 0.213809
0.258152 0.240482 0.213809
0.282872 0.238926 0.215824
0.306981 0.238346 0.218540
0.329503 0.240452 0.220432
0.353246 0.241642 0.221347
0.377874 0.242374 0.221256
0.403845 0.242069 0.220218
0.430915 0.241855 0.218509
0.459144 0.241459 0.216220
0.487739 0.242618 0.215366
0.515892 0.247257 0.219516
0.544549 0.250980 0.223056
0.573358 0.254063 0.225956
0.602106 0.257328 0.229099
0.630549 0.260472 0.232090
0.657679 0.263798 0.235294
0.682429 0.267613 0.238804
0.705776 0.271489 0.242466
0.728420 0.275731 0.246342
0.752163 0.280095 0.250309
0.777310 0.284764 0.254459
0.803708 0.289647 0.258885
0.831327 0.294835 0.263462
0.859922 0.300542 0.268376
0.889128 0.306462 0.273472
0.918914 0.313054 0.279118
0.949096 0.320043 0.284886
0.979583 0.327672 0.291386
1.000000 0.336248 0.298405
1.000000 0.345953 0.306584
0.258152 0.240482 0.213809
0.258152 0.240482 0.213809
0.258183 0.241550 0.213809
0.284123 0.244816 0.215427
0.307408 0.246555 0.218021
0.330083 0.247837 0.219821
0.353826 0.248356 0.220706
0.378637 0.248447 0.220645
0.404761 0.248020 0.219608
0.431861 0.247593 0.217899
0.460182 0.247166 0.215610
0.488594 0.248814 0.216068
0.516869 0.252750 0.220066
0.545556 0.256046 0.223423
0.574365 0.259068 0.226474
0.603296 0.261906 0.229374
0.631769 0.265080 0.232517
0.658808 0.268284 0.235630
0.683528 0.271702 0.239170
0.706752 0.275547 0.242832
0.729366 0.279576 0.246799
0.753140 0.283665 0.250706
0.778286 0.288334 0.254887
0.804685 0.293034 0.259220
0.832273 0.298283 0.263890
0.860838 0.303777 0.268803
0.890043 0.309667 0.273869
0.919768 0.316197 0.279515
0.949920 0.323095 0.285344
0.980316 0.330755 0.291814
1.000000 0.339086 0.298894
1.000000 0.348882 0.307134
0.258457 0.266880 0.214481
0.258396 0.267796 0.214481
0.260960 0.268742 0.214603
0.283513 0.267948 0.214389
0.307500 0.264866 0.216495
0.330327 0.263310 0.218509
0.354223 0.262333 0.219425
0.379278 0.261540 0.219425
0.405432 0.260533 0.218357
0.432807 0.259586 0.216587
0.461067 0.259434 0.215030
0.489296 0.261479 0.217441
0.517693 0.264378 0.221103
0.546502 0.266972 0.224308
0.575616 0.269291 0.227024
0.604517 0.271977 0.230076
0.633082 0.274723 0.233158
0.660121 0.277531 0.236271
0.684840 0.280705 0.239811
0.708095 0.284062 0.243565
0.730922 0.287724 0.247501
0.754757 0.291630 0.251469
0.779812 0.295933 0.255680
0.806027 0.300389 0.260014
0.833310 0.305180 0.264408
0.861540 0.310430 0.269261
0.890410 0.316106 0.274388
0.919982 0.322393 0.279881
0.950072 0.329046 0.285710
0.980529 0.336522 0.292180
1.000000 0.344854 0.299351
1.000000 0.354467 0.307683
0.259495 0.290013 0.215763
0.259495 0.290593 0.215793
0.264775 0.290776 0.215793
0.281895 0.290135 0.215549
0.306401 0.289189 0.215122
0.331060 0.285954 0.216403
0.355383 0.283085 0.217350
0.380529 0.281102 0.217288
0.407019 0.279301 0.216281
0.434394 0.278172 0.215091
0.462196 0.278416 0.216800
0.490486 0.279637 0.219547
0.519158 0.281193 0.222507
0.548119 0.283024 0.225345
0.576989 0.284794 0.228122
0.605768 0.286809 0.230961
0.634089 0.288853 0.233982
0.660792 0.291264 0.237217
0.685420 0.293736 0.240726
0.708644 0.296544 0.244327
0.731502 0.299657 0.248386
0.755489 0.303136 0.252262
0.780636 0.306920 0.256474
0.806851 0.311101 0.260807
0.834073 0.315648 0.265324
0.862272 0.320562 0.270054
0.891112 0.326024 0.275120
0.920684 0.331853 0.280583
0.950805 0.338506 0.286503
0.981231 0.345769 0.292943
1.000000 0.353826 0.300145
1.000000 0.363195 0.308507
0.259159 0.312932 0.215976
0.261082 0.313207 0.215976
0.267704 0.313054 0.215763
0.282170 0.312688 0.215579
0.303624 0.311986 0.215061
0.329503 0.311131 0.214389
0.355657 0.308232 0.214420
0.381109 0.305058 0.214542
0.407263 0.302831 0.215640
0.434180 0.301610 0.217502
0.462104 0.301183 0.219242
0.490669 0.301091 0.221317
0.519432 0.301762 0.224002
0.548516 0.302678 0.226719
0.577508 0.303838 0.229313
0.606195 0.305272 0.232181
0.634424 0.306706 0.235080
0.660945 0.308476 0.238285
0.685359 0.310185 0.241672
0.708492 0.312261 0.245335
0.731319 0.314794 0.249149
0.755245 0.317540 0.253178
0.769223 0.317235 0.254795
0.795499 0.320958 0.259007
0.823056 0.324987 0.263310
0.851652 0.329564 0.267948
0.881163 0.334600 0.272862
0.911345 0.340246 0.278233
0.942168 0.346410 0.283970
0.973358 0.353277 0.290288
1.000000 0.361089 0.297398
1.000000 0.370123 0.305577
0.259800 0.334203 0.214847
0.264042 0.334173 0.214725
0.270024 0.334051 0.214542
0.282750 0.333745 0.214328
0.301610 0.333257 0.213779
0.324895 0.332555 0.213596
0.351354 0.331701 0.214359
0.377508 0.329442 0.216190
0.403113 0.326848 0.218357
0.429786 0.325017 0.219944
0.457282 0.323766 0.221378
0.485573 0.323095 0.222904
0.514366 0.323278 0.225345
0.543633 0.323735 0.227726
0.572961 0.324407 0.230259
0.602106 0.325383 0.233066
0.630732 0.326482 0.235874
0.657618 0.327489 0.238956
0.682155 0.328557 0.242313
0.705135 0.329747 0.245823
0.727352 0.331304 0.249485
0.750362 0.333043 0.253117
0.774258 0.335393 0.256870
0.799405 0.338109 0.260777
0.825834 0.341466 0.264897
0.853727 0.345464 0.269352
0.882872 0.350195 0.274205
0.912932 0.355444 0.279576
0.943664 0.361334 0.285252
0.974853 0.368048 0.291722
1.000000 0.375494 0.298863
1.000000 0.384314 0.307164
0.265446 0.358068 0.216068
0.269444 0.358038 0.216129
0.274968 0.357946 0.216342
0.286595 0.357702 0.216648
0.303807 0.357397 0.217288
0.325048 0.356878 0.218021
0.349493 0.356176 0.218967
0.375982 0.355596 0.219760
0.403082 0.353857 0.220890
0.429877 0.351629 0.222049
0.457679 0.350042 0.223301
0.486091 0.348974 0.224796
0.515099 0.348608 0.226993
0.544457 0.348577 0.229313
0.573907 0.348791 0.231876
0.603082 0.349248 0.234531
0.631678 0.349828 0.237369
0.658473 0.350256 0.240421
0.682918 0.350561 0.243687
0.705928 0.350988 0.247318
0.728267 0.351751 0.251102
0.751461 0.352941 0.254765
0.775570 0.354772 0.258396
0.800839 0.357061 0.262272
0.827390 0.359960 0.266331
0.855344 0.363653 0.270909
0.884459 0.367926 0.275731
0.914488 0.372869 0.281010
0.945129 0.378546 0.286839
0.976257 0.384863 0.293156
1.000000 0.392218 0.300389
1.000000 0.400641 0.308843
0.271763 0.382635 0.220371
0.275303 0.382635 0.220432
0.280339 0.382574 0.220645
0.290806 0.382422 0.220768
0.306432 0.382300 0.221042
0.326055 0.382025 0.221439
0.348974 0.381659 0.221897
0.374395 0.381140 0.222385
0.401709 0.380438 0.223148
0.429633 0.379217 0.223941
0.457435 0.377447 0.225132
0.485939 0.376043 0.226566
0.515099 0.375402 0.228794
0.544579 0.374945 0.231052
0.573968 0.374853 0.233555
0.603235 0.374914 0.236149
0.631861 0.374884 0.238865
0.658625 0.374731 0.241886
0.683009 0.374304 0.245212
0.705989 0.373999 0.248936
0.728511 0.374029 0.252598
0.751919 0.374609 0.256107
0.776181 0.375860 0.259953
0.801633 0.377783 0.263798
0.828305 0.380316 0.267887
0.856321 0.383581 0.272374
0.885466 0.387640 0.277226
0.915557 0.392279 0.282536
0.946227 0.397620 0.288243
0.977386 0.403754 0.294682
1.000000 0.410712 0.302098
1.000000 0.418799 0.310552
0.276524 0.408759 0.223239
0.280064 0.408728 0.223392
0.284581 0.408759 0.223423
0.294438 0.408759 0.223545
0.309178 0.408698 0.223728
0.327794 0.408606 0.224033
0.349828 0.408392 0.224491
0.374426 0.408026 0.224979
0.400946 0.407599 0.225559
0.428931 0.406867 0.226078
0.457649 0.405921 0.227024
0.486366 0.404486 0.228458
0.515404 0.403510 0.230625
0.544701 0.402747 0.232853
0.574029 0.402075 0.235080
0.602991 0.401617 0.237644
0.631373 0.401099 0.240299
0.657801 0.400214 0.243351
0.682124 0.399115 0.246677
0.705196 0.398016 0.250340
0.728145 0.397559 0.254063
0.752010 0.397803 0.257786
0.776883 0.398657 0.261570
0.802762 0.400244 0.265537
0.829801 0.402533 0.269718
0.857969 0.405554 0.274296
0.887083 0.409277 0.279057
0.916991 0.413550 0.284245
0.947478 0.418494 0.290043
0.978363 0.424231 0.296391
1.000000 0.430762 0.303624
1.000000 0.438331 0.312139
0.281346 0.436713 0.226108
0.284489 0.436774 0.226169
0.289006 0.436774 0.226108
0.298283 0.436713 0.226352
0.312444 0.436591 0.226566
0.330297 0.436439 0.226810
0.351507 0.436164 0.227207
0.375189 0.435798 0.227634
0.401007 0.435340 0.228092
0.428412 0.434821 0.228702
0.456947 0.434180 0.229313
0.486366 0.433417 0.230320
0.515496 0.432349 0.232334
0.544793 0.431373 0.234409
0.574121 0.430457 0.236667
0.603021 0.429664 0.239292
0.631281 0.428656 0.241917
0.657588 0.427222 0.245029
0.681971 0.425360 0.248417
0.705104 0.423682 0.252049
0.728206 0.422553 0.255833
0.752224 0.422187 0.259434
0.777188 0.422705 0.263310
0.803220 0.423926 0.267247
0.830350 0.425910 0.271489
0.858671 0.428626 0.275944
0.887907 0.432013 0.280827
0.917906 0.436133 0.286107
0.948516 0.440833 0.291875
0.979431 0.446296 0.298314
1.000000 0.452583 0.305669
1.000000 0.459876 0.314214
0.286625 0.465126 0.229282
0.289708 0.465095 0.229374
0.294041 0.465064 0.229404
0.302861 0.464973 0.229557
0.316381 0.464881 0.229770
0.333501 0.464698 0.230014
0.353826 0.464485 0.230381
0.376806 0.464118 0.230838
0.401831 0.463600 0.231296
0.428504 0.463081 0.231785
0.456336 0.462379 0.232456
0.485176 0.461707 0.233036
0.507012 0.454139 0.233005
0.535912 0.453346 0.235050
0.564843 0.452613 0.237339
0.593713 0.451789 0.239750
0.622187 0.450996 0.242283
0.649104 0.449653 0.245212
0.674067 0.447822 0.248600
0.697932 0.446021 0.252140
0.721401 0.444556 0.255924
0.745815 0.444099 0.259678
0.771328 0.444373 0.263554
0.797879 0.445563 0.267613
0.825559 0.447456 0.271794
0.854276 0.450019 0.276219
0.883909 0.453346 0.281041
0.914366 0.457404 0.286259
0.945403 0.462104 0.292088
0.976776 0.467445 0.298589
1.000000 0.473671 0.306004
1.000000 0.480629 0.314549
0.291661 0.489631 0.232425
0.294591 0.489723 0.232486
0.298558 0.489906 0.232486
0.307042 0.490120 0.232670
0.319738 0.490486 0.232853
0.336095 0.490761 0.233188
0.355657 0.490852 0.233494
0.377752 0.490669 0.233951
0.401831 0.490150 0.234379
0.427436 0.489357 0.234714
0.454047 0.488197 0.235294
0.481514 0.486793 0.235752
0.509514 0.485542 0.236301
0.538323 0.484321 0.236851
0.566552 0.482673 0.238987
0.594903 0.481392 0.241337
0.623102 0.480049 0.243992
0.649714 0.478187 0.246891
0.674556 0.475685 0.250370
0.698421 0.473335 0.254063
0.722072 0.471473 0.257969
0.746700 0.470527 0.261692
0.772427 0.470649 0.265751
0.799191 0.471473 0.269688
0.827054 0.473182 0.273899
0.855833 0.475624 0.278355
0.885557 0.478798 0.283238
0.916045 0.482643 0.288609
0.947051 0.487098 0.294438
0.978332 0.492287 0.301061
1.000000 0.498085 0.308324
1.000000 0.504723 0.317082
0.297459 0.519097 0.236088
0.300420 0.519066 0.236088
0.304143 0.519280 0.236088
0.312261 0.519524 0.236362
0.324468 0.519799 0.236454
0.340368 0.520043 0.236790
0.359319 0.520134 0.237125
0.380621 0.519982 0.237491
0.404059 0.519493 0.237858
0.429114 0.518700 0.238193
0.455207 0.517571 0.238651
0.482246 0.516228 0.239048
0.509911 0.514885 0.239536
0.538354 0.513695 0.240024
0.567346 0.512718 0.240787
0.595880 0.511223 0.242924
0.623896 0.509545 0.245640
0.650233 0.507164 0.248814
0.674983 0.504143 0.252323
0.698726 0.501152 0.256138
0.722560 0.498909 0.260075
0.747311 0.497719 0.263951
0.773220 0.497414 0.267857
0.800137 0.498085 0.271855
0.828000 0.499580 0.276127
0.856901 0.501762 0.280583
0.886687 0.504692 0.285435
0.917144 0.508415 0.290806
0.948180 0.512749 0.296696
0.979400 0.517662 0.303227
1.000000 0.523308 0.310887
1.000000 0.529534 0.319493
0.303593 0.547906 0.239750
0.306157 0.547906 0.239811
0.309728 0.548028 0.239841
0.317571 0.548241 0.239933
0.329320 0.548577 0.240177
0.344610 0.548974 0.240452
0.362860 0.549035 0.240787
0.383612 0.548821 0.241093
0.406409 0.548394 0.241459
0.430762 0.547601 0.241825
0.456306 0.546471 0.242130
0.482795 0.545129 0.242588
0.510033 0.543786 0.242954
0.538048 0.542626 0.243442
0.566766 0.541650 0.244175
0.596155 0.541009 0.244877
0.624201 0.539208 0.247379
0.650355 0.536278 0.250584
0.675074 0.532769 0.254276
0.698848 0.529381 0.258183
0.722866 0.526757 0.262242
0.747921 0.525261 0.266117
0.773953 0.524834 0.270085
0.801022 0.525261 0.274144
0.829007 0.526482 0.278447
0.857847 0.528557 0.282811
0.887449 0.531212 0.287633
0.917693 0.534630 0.293034
0.948394 0.538628 0.298741
0.979278 0.543175 0.305150
1.000000 0.548333 0.312413
1.000000 0.554070 0.321019
0.309483 0.576226 0.243473
0.312078 0.576104 0.243565
0.315404 0.576104 0.243534
0.322820 0.576165 0.243748
0.334081 0.576257 0.243900
0.348760 0.576318 0.244053
0.366125 0.576165 0.244297
0.386053 0.575891 0.244663
0.408087 0.575341 0.244999
0.431708 0.574670 0.245396
0.456825 0.573785 0.245731
0.482948 0.572869 0.246189
0.509850 0.571862 0.246769
0.537621 0.570916 0.247257
0.565972 0.570092 0.247959
0.594842 0.569360 0.248722
0.623926 0.568597 0.249668
0.650507 0.565698 0.252384
0.675013 0.561608 0.256229
0.698604 0.557580 0.260380
0.722713 0.554620 0.264164
0.747768 0.552819 0.268162
0.773861 0.552087 0.272160
0.800900 0.552331 0.276066
0.828885 0.553368 0.280400
0.857755 0.555200 0.284916
0.887266 0.557763 0.289616
0.917510 0.561028 0.294835
0.948272 0.564904 0.300725
0.979248 0.569329 0.307134
1.000000 0.574395 0.314611
1.000000 0.580041 0.323400
0.315923 0.603723 0.247745
0.318334 0.603754 0.247654
0.321599 0.603754 0.247868
0.328649 0.603815 0.247929
0.339452 0.603754 0.248112
0.353460 0.603723 0.248386
0.370123 0.603479 0.248753
0.389288 0.603113 0.248905
0.410498 0.602502 0.249271
0.433448 0.601740 0.249699
0.457771 0.600732 0.250126
0.483101 0.599695 0.250584
0.509239 0.598566 0.251072
0.536217 0.597467 0.251713
0.563836 0.596460 0.252445
0.591974 0.595575 0.253300
0.620447 0.594720 0.254337
0.649165 0.593896 0.255283
0.674952 0.590692 0.258305
0.698665 0.586328 0.262516
0.723018 0.583124 0.266545
0.748287 0.581140 0.270481
0.774502 0.580285 0.274510
0.801663 0.580407 0.278538
0.829709 0.581323 0.282780
0.858518 0.583001 0.287297
0.888060 0.585382 0.292088
0.918212 0.588495 0.297337
0.948852 0.592157 0.303166
0.979736 0.596399 0.309636
1.000000 0.601221 0.316991
1.000000 0.606500 0.325872
0.322576 0.628565 0.252476
0.324895 0.628351 0.252445
0.326055 0.622797 0.251255
0.332738 0.622797 0.251347
0.342809 0.622827 0.251499
0.355810 0.622889 0.251804
0.371649 0.622858 0.252201
0.389837 0.622675 0.252445
0.410163 0.622339 0.252873
0.432044 0.621759 0.253391
0.455421 0.621057 0.253819
0.479835 0.620294 0.254337
0.505303 0.619501 0.255039
0.531640 0.618738 0.255741
0.558526 0.618067 0.256535
0.585992 0.617395 0.257298
0.613916 0.616785 0.258488
0.641993 0.616175 0.259617
0.670222 0.615473 0.260777
0.696040 0.612726 0.263798
0.720760 0.609644 0.268040
0.746304 0.607660 0.272068
0.772793 0.606836 0.276066
0.800259 0.607080 0.280308
0.828702 0.608240 0.284703
0.858000 0.610224 0.289403
0.887999 0.612879 0.294377
0.918578 0.616144 0.299779
0.949401 0.619898 0.305638
0.980316 0.624079 0.312230
1.000000 0.628687 0.319707
1.000000 0.633753 0.328649
0.329412 0.650690 0.257481
0.331243 0.650019 0.257267
0.333898 0.649256 0.257023
0.339849 0.648615 0.257053
0.349096 0.648096 0.257084
0.361547 0.647822 0.257359
0.376562 0.647608 0.257603
0.393957 0.647364 0.258030
0.413428 0.646998 0.258488
0.434394 0.646479 0.258946
0.456916 0.645777 0.259312
0.480598 0.645014 0.259953
0.505272 0.644282 0.260655
0.530816 0.643580 0.261326
0.557122 0.642908 0.262181
0.583978 0.642359 0.263157
0.611322 0.641840 0.264256
0.638941 0.641382 0.265354
0.666804 0.640864 0.266667
0.694728 0.640314 0.267826
0.721279 0.638575 0.270542
0.746914 0.636530 0.274662
0.773495 0.635492 0.278721
0.800992 0.635645 0.282841
0.829404 0.636652 0.287358
0.858671 0.638544 0.291875
0.888640 0.641138 0.296910
0.919127 0.644343 0.302464
0.949920 0.648005 0.308324
0.980804 0.652094 0.314977
1.000000 0.656519 0.322484
1.000000 0.661372 0.331579
0.337194 0.674464 0.263340
0.339025 0.673793 0.263310
0.341527 0.673152 0.263066
0.347112 0.672572 0.263005
0.355871 0.672084 0.263035
0.367498 0.671839 0.263279
0.381933 0.671656 0.263584
0.398444 0.671473 0.263920
0.416968 0.671138 0.264317
0.437263 0.670710 0.264714
0.458991 0.670192 0.265354
0.481910 0.669642 0.265812
0.505974 0.669032 0.266453
0.530907 0.668574 0.267216
0.556664 0.668116 0.268070
0.583032 0.667781 0.269047
0.609979 0.667536 0.269932
0.637263 0.667292 0.271092
0.664851 0.667048 0.272313
0.692531 0.666682 0.273533
0.720241 0.666316 0.274784
0.747280 0.665278 0.277195
0.773922 0.664240 0.281376
0.801480 0.664271 0.285527
0.829984 0.665278 0.290013
0.859312 0.667170 0.294682
0.889342 0.669764 0.299687
0.919890 0.673030 0.305241
0.950713 0.676692 0.311254
0.981537 0.680690 0.318059
1.000000 0.685023 0.325628
1.000000 0.689570 0.334813
0.345159 0.699367 0.269505
0.346838 0.698726 0.269230
0.349218 0.698116 0.269017
0.354467 0.697536 0.268986
0.362829 0.697108 0.269078
0.373968 0.696895 0.269291
0.387579 0.696803 0.269535
0.403479 0.696712 0.269841
0.421424 0.696498 0.270298
0.441016 0.696284 0.270787
0.462074 0.695949 0.271275
0.484504 0.695521 0.271824
0.507897 0.695186 0.272435
0.532341 0.694820 0.273167
0.557549 0.694514 0.274083
0.583368 0.694240 0.274815
0.609766 0.693904 0.275853
0.636439 0.693599 0.276799
0.663386 0.693172 0.277745
0.690486 0.692592 0.278874
0.717617 0.692042 0.279911
0.744869 0.691463 0.280980
0.772000 0.690791 0.283116
0.799344 0.690639 0.287175
0.827604 0.691432 0.291508
0.856779 0.693233 0.296025
0.886687 0.695766 0.300938
0.917205 0.698939 0.306340
0.948058 0.702602 0.312200
0.978973 0.706691 0.318791
1.000000 0.710994 0.326482
1.000000 0.715480 0.335607
0.352087 0.723018 0.274571
0.353796 0.722713 0.274449
0.356085 0.722469 0.274418
0.361273 0.722286 0.274510
0.369451 0.722164 0.274662
0.380194 0.722133 0.274907
0.393317 0.722103 0.275273
0.408576 0.722011 0.275608
0.425757 0.721889 0.275914
0.444709 0.721584 0.276280
0.465095 0.721279 0.276768
0.486915 0.720943 0.277256
0.509758 0.720699 0.277897
0.533562 0.720516 0.278630
0.558373 0.720394 0.279423
0.583825 0.720302 0.280278
0.609796 0.720211 0.281285
0.636255 0.720119 0.282200
0.663050 0.719966 0.283268
0.690028 0.719814 0.284367
0.717311 0.719631 0.285496
0.744625 0.719417 0.286656
0.772122 0.719326 0.288029
0.799832 0.719387 0.290043
0.828305 0.720394 0.294438
0.857511 0.722225 0.298985
0.887419 0.724758 0.303960
0.917906 0.727993 0.309361
0.948730 0.731624 0.315312
0.979644 0.735653 0.321965
1.000000 0.739864 0.329778
1.000000 0.744167 0.339117
0.360418 0.750423 0.280858
0.362005 0.750149 0.280735
0.364111 0.749905 0.280644
0.369207 0.749660 0.280674
0.376989 0.749569 0.280827
0.387335 0.749630 0.281041
0.399969 0.749752 0.281437
0.414710 0.749783 0.281743
0.431525 0.749752 0.282170
0.449958 0.749630 0.282628
0.469947 0.749447 0.283085
0.491188 0.749233 0.283604
0.513573 0.749142 0.284154
0.537133 0.748989 0.284916
0.561425 0.748989 0.285679
0.586481 0.748959 0.286503
0.612085 0.748928 0.287358
0.638209 0.748867 0.288334
0.664698 0.748775 0.289372
0.691463 0.748684 0.290440
0.718410 0.748531 0.291569
0.745541 0.748348 0.292638
0.772763 0.748226 0.293858
0.800168 0.748165 0.295079
0.829648 0.750149 0.297856
0.858976 0.752071 0.302556
0.888914 0.754665 0.307530
0.919432 0.757900 0.312993
0.950195 0.761593 0.319036
0.980987 0.765499 0.325902
1.000000 0.769497 0.333684
1.000000 0.773465 0.343206
0.367773 0.776883 0.286320
0.369238 0.776547 0.286137
0.371405 0.776303 0.286137
0.376257 0.776242 0.286259
0.383825 0.776364 0.286412
0.393866 0.776577 0.286687
0.406134 0.776852 0.287083
0.420630 0.777188 0.287510
0.437140 0.777462 0.288029
0.455238 0.777646 0.288609
0.474922 0.777890 0.289220
0.495827 0.778012 0.289860
0.517998 0.778134 0.290471
0.541253 0.778378 0.291264
0.565393 0.778714 0.292210
0.590387 0.779080 0.293248
0.616022 0.779477 0.294316
0.642084 0.779721 0.295415
0.668421 0.779873 0.296452
0.694972 0.779782 0.297429
0.721706 0.779660 0.298497
0.748653 0.779538 0.299596
0.775906 0.779599 0.300847
0.803433 0.779751 0.302159
0.831174 0.780179 0.303716
0.859312 0.780941 0.305486
0.889403 0.783749 0.310613
0.920073 0.787228 0.316289
0.950988 0.791073 0.322484
0.981781 0.795041 0.329412
1.000000 0.798978 0.337560
1.000000 0.802670 0.347143
0.376745 0.807095 0.293095
0.378088 0.806760 0.293004
0.380224 0.806546 0.292912
0.384924 0.806516 0.293034
0.392218 0.806607 0.293156
0.401892 0.806821 0.293523
0.413947 0.807065 0.293919
0.427985 0.807309 0.294347
0.444007 0.807553 0.294835
0.461677 0.807736 0.295384
0.480842 0.807889 0.295933
0.501335 0.807980 0.296452
0.523095 0.808103 0.297185
0.545830 0.808286 0.297887
0.569604 0.808621 0.298772
0.594171 0.808988 0.299687
0.619471 0.809354 0.300755
0.645228 0.809659 0.301915
0.671321 0.809842 0.302892
0.697688 0.809934 0.303929
0.724269 0.809903 0.304967
0.751156 0.809934 0.306126
0.778256 0.810056 0.307256
0.805661 0.810361 0.308629
0.833310 0.810849 0.310124
0.861143 0.811490 0.311711
0.889128 0.812222 0.313420
0.919707 0.815671 0.318944
0.950561 0.819516 0.325139
0.981323 0.823484 0.332097
1.000000 0.827359 0.340307
1.000000 0.830869 0.350072
0.385657 0.837552 0.300053
0.387152 0.837308 0.299992
0.389105 0.837247 0.299931
0.393805 0.837339 0.300084
0.400885 0.837522 0.300359
0.410407 0.837858 0.300694
0.422065 0.838224 0.301091
0.435859 0.838560 0.301549
0.451484 0.838865 0.302129
0.468727 0.839048 0.302617
0.487556 0.839231 0.303136
0.507713 0.839353 0.303807
0.529046 0.839445 0.304326
0.551507 0.839689 0.305150
0.574945 0.840024 0.306004
0.599237 0.840482 0.307042
0.624292 0.840940 0.308141
0.649836 0.841398 0.309239
0.675746 0.841703 0.310246
0.701961 0.841886 0.311345
0.728450 0.842008 0.312413
0.755215 0.842130 0.313573
0.782223 0.842374 0.314824
0.809537 0.842741 0.316136
0.837095 0.843259 0.317571
0.864836 0.843931 0.319280
0.892729 0.844694 0.321019
0.920745 0.845609 0.322911
0.951324 0.849210 0.328710
0.982025 0.853208 0.335882
1.000000 0.856992 0.344244
1.000000 0.860258 0.354345
0.395544 0.869841 0.307897
0.396979 0.869688 0.307897
0.398932 0.869627 0.307836
0.403388 0.869657 0.307866
0.410285 0.869749 0.308080
0.419409 0.869871 0.308354
0.430549 0.869810 0.308507
0.443671 0.869688 0.308782
0.458625 0.869444 0.308995
0.475135 0.869139 0.309178
0.493172 0.868772 0.309422
0.512596 0.868467 0.309728
0.533257 0.868223 0.310094
0.555077 0.868132 0.310674
0.577966 0.868284 0.311345
0.601801 0.868650 0.312200
0.626490 0.869108 0.313298
0.651667 0.869566 0.314336
0.677333 0.869963 0.315465
0.703304 0.870237 0.316472
0.729580 0.870481 0.317632
0.756222 0.870787 0.318791
0.783108 0.871153 0.319982
0.810269 0.871611 0.321355
0.837705 0.872251 0.322911
0.865324 0.872984 0.324590
0.893065 0.873808 0.326299
0.920958 0.874723 0.328191
0.948852 0.875731 0.330175
0.979095 0.879271 0.336248
1.000000 0.883268 0.344671
1.000000 0.886656 0.354925
0.403723 0.899535 0.314275
0.405158 0.899474 0.314244
0.407111 0.899474 0.314275
0.411475 0.899626 0.314458
0.418280 0.899870 0.314763
0.427253 0.900114 0.315099
0.438270 0.900328 0.315404
0.451209 0.900511 0.315770
0.465919 0.900633 0.316106
0.482460 0.900664 0.316625
0.500389 0.900725 0.317021
0.519677 0.900816 0.317571
0.540246 0.900938 0.318120
0.561975 0.901122 0.318853
0.584680 0.901457 0.319677
0.608301 0.901884 0.320714
