其他预设/【232】美食博客调色预设124款/1.3D LUT预设（视频调色-PR-AE-PS-FCPX-达芬奇用）/Food Art #3 ().cube
# Created by Adobe Lightroom plugin Export LUT (1.17.0)
# www.johnrellis.com/lightroom/exportlut.htm
# Preset: Food Art #3 (素锦印象)
# Color profile: /Library/Application Support/Adobe/Color/Profiles/Recommended/AdobeRGB1998.icc
LUT_3D_SIZE 8
DOMAIN_MIN 0.000000 0.000000 0.000000
DOMAIN_MAX 0.903226 0.903226 0.903226
0.000000 0.000000 0.000000
0.118624 0.000000 0.000000
0.260533 0.000000 0.000000
0.386816 0.000000 0.000000
0.527214 0.000000 0.000000
0.656641 0.000000 0.000000
0.786465 0.000000 0.027436
0.915190 0.006836 0.060487
0.000000 0.124453 0.000000
0.119020 0.126680 0.000000
0.259068 0.120668 0.000000
0.385565 0.119722 0.000000
0.526177 0.121798 0.000000
0.655543 0.124544 0.000000
0.785489 0.129122 0.032929
0.914549 0.134737 0.061372
0.000000 0.265812 0.000000
0.108034 0.265385 0.000000
0.253483 0.263859 0.000000
0.382849 0.260044 0.000000
0.523949 0.265049 0.000000
0.653834 0.265232 0.012634
0.784665 0.266392 0.047822
0.914031 0.267735 0.064393
0.000000 0.397467 0.000000
0.090517 0.397559 0.000000
0.246250 0.398108 0.000000
0.384527 0.400031 0.000000
0.520928 0.402136 0.012634
0.651331 0.400824 0.042298
0.782315 0.400763 0.059449
0.912322 0.400580 0.065492
0.000000 0.538872 0.004334
0.051850 0.538750 0.005798
0.239994 0.538354 0.012085
0.381140 0.537713 0.023407
0.516075 0.536461 0.038849
0.646815 0.534020 0.054688
0.778897 0.533776 0.059510
0.910033 0.533471 0.061494
0.000000 0.668116 0.034943
0.000000 0.668299 0.035615
0.225650 0.667964 0.038331
0.370916 0.667536 0.041932
0.507683 0.666835 0.046784
0.641382 0.666194 0.049317
0.775692 0.667109 0.046693
0.907897 0.666804 0.045655
0.000000 0.796963 0.028016
0.000000 0.796963 0.028443
0.207462 0.796658 0.029572
0.359838 0.796292 0.031830
0.498787 0.795804 0.033173
0.633539 0.795377 0.038300
0.766537 0.795102 0.044373
0.905486 0.800778 0.014343
0.000000 0.924529 0.010163
0.000000 0.924468 0.010864
0.188907 0.924315 0.012909
0.349554 0.924224 0.016968
0.490486 0.923491 0.019867
0.626184 0.923186 0.030304
0.759335 0.922850 0.049683
0.890715 0.922240 0.066072
0.000000 0.000000 0.131044
0.123201 0.000000 0.132174
0.258946 0.000000 0.130709
0.384955 0.000000 0.136080
0.525719 0.000000 0.138582
0.655024 0.000000 0.142000
0.785122 0.000000 0.144930
0.914305 0.004150 0.146914
0.000000 0.127352 0.132357
0.119081 0.126589 0.132662
0.256962 0.126894 0.134066
0.384039 0.128115 0.136782
0.524926 0.127657 0.138949
0.654292 0.129091 0.142428
0.784390 0.130922 0.144961
0.913695 0.133761 0.146639
0.000000 0.264866 0.131868
0.112795 0.264286 0.136568
0.252049 0.263432 0.137087
0.381628 0.262119 0.139681
0.522820 0.266545 0.140536
0.652705 0.265843 0.143557
0.783322 0.266026 0.145205
0.913115 0.266484 0.146334
0.000000 0.396277 0.142367
0.098390 0.396582 0.140841
0.246738 0.397528 0.140902
0.383215 0.399176 0.141695
0.519524 0.401617 0.141909
0.649928 0.400031 0.143679
0.781094 0.399542 0.144564
0.911498 0.399420 0.144808
0.000000 0.538079 0.149630
0.030274 0.538384 0.139345
0.237858 0.537865 0.139712
0.379644 0.537041 0.140200
0.514946 0.535760 0.140749
0.646204 0.533379 0.142153
0.778347 0.532921 0.142214
0.909606 0.532525 0.142336
0.000000 0.667475 0.145907
0.000000 0.667659 0.138888
0.221836 0.667384 0.138796
0.368963 0.667018 0.138949
0.506554 0.666468 0.139254
0.640864 0.665949 0.139651
0.775448 0.666804 0.138796
0.907622 0.666255 0.138613
0.000000 0.796445 0.136873
0.000000 0.796353 0.136172
0.203677 0.796139 0.136110
0.358068 0.795926 0.136385
0.497810 0.795529 0.136995
0.632959 0.795071 0.137789
0.766049 0.794705 0.138918
0.905058 0.800290 0.134859
0.000000 0.924224 0.134218
0.000000 0.924224 0.134127
0.187381 0.924132 0.134585
0.349004 0.923980 0.135714
0.490547 0.923705 0.136965
0.626276 0.923247 0.139315
0.759396 0.922728 0.142794
0.890654 0.922057 0.148226
0.000000 0.000000 0.274998
0.115175 0.000000 0.274907
0.257511 0.000000 0.274266
0.384161 0.017304 0.273167
0.524529 0.000000 0.279271
0.654353 0.000000 0.277653
0.785092 0.000000 0.273167
0.914366 0.000000 0.272892
0.000000 0.124331 0.274296
0.116274 0.126925 0.274052
0.255009 0.131685 0.273564
0.383001 0.137179 0.274449
0.524163 0.125521 0.278050
0.654261 0.108492 0.273106
0.784482 0.111604 0.272862
0.913939 0.118105 0.272679
0.000000 0.263828 0.273106
0.116854 0.263462 0.273045
0.250217 0.262882 0.272953
0.381659 0.261326 0.272984
0.523278 0.259068 0.272618
0.652796 0.258549 0.272557
0.783291 0.258732 0.272465
0.913054 0.260410 0.272313
0.000000 0.395758 0.274693
0.104372 0.395941 0.275792
0.242100 0.397498 0.274327
0.381292 0.399268 0.271702
0.519921 0.399512 0.271336
0.650202 0.396704 0.271794
0.781308 0.396033 0.271702
0.911589 0.396399 0.272007
0.000000 0.537407 0.280674
0.051514 0.537469 0.280034
0.226413 0.537926 0.272740
0.373816 0.537255 0.269902
0.513390 0.535760 0.269902
0.646418 0.532769 0.270542
0.778378 0.531426 0.271061
0.909545 0.531182 0.271672
0.000000 0.666835 0.280095
0.000000 0.666896 0.278843
0.210605 0.667292 0.270787
0.363378 0.666835 0.269688
0.503838 0.666194 0.270024
0.639643 0.665522 0.270603
0.775143 0.666316 0.271122
0.907469 0.665797 0.272435
0.000000 0.796078 0.275731
0.000000 0.796078 0.274296
0.198062 0.796017 0.270298
0.355810 0.795682 0.270726
0.496742 0.795224 0.271427
0.632563 0.794827 0.272770
0.766018 0.794675 0.274723
0.905028 0.800290 0.274876
0.000000 0.924315 0.264134
0.000000 0.924254 0.263371
0.194766 0.923613 0.273716
0.352789 0.923583 0.274968
0.493111 0.923278 0.276310
0.628229 0.922881 0.278660
0.760647 0.922484 0.281865
0.891203 0.921965 0.286168
0.000000 0.000000 0.416693
0.110353 0.000000 0.416602
0.256382 0.000000 0.416022
0.390784 0.000000 0.415351
0.523339 0.000000 0.416297
0.652918 0.000000 0.414313
0.783352 0.000000 0.411810
0.913085 0.000000 0.409461
0.000000 0.126192 0.416205
0.111208 0.127413 0.416083
0.255589 0.130129 0.415717
0.389563 0.130282 0.415351
0.522911 0.123140 0.416144
0.652491 0.115389 0.413733
0.782925 0.109834 0.411444
0.912657 0.121523 0.410285
0.000000 0.266789 0.415534
0.103670 0.266331 0.415381
0.245243 0.261540 0.415503
0.385351 0.259068 0.415564
0.521599 0.256260 0.414923
0.651423 0.257328 0.413062
0.781888 0.263249 0.413825
0.911254 0.274357 0.416419
0.000000 0.401465 0.415351
0.080903 0.401251 0.415320
0.235142 0.400336 0.415534
0.377630 0.398871 0.415686
0.517510 0.398901 0.415656
0.647974 0.399573 0.415961
0.779171 0.401434 0.416297
0.909758 0.404273 0.416663
0.000000 0.536767 0.416114
0.000000 0.536797 0.415808
0.223392 0.536980 0.414527
0.373022 0.536156 0.415656
0.511650 0.534966 0.416144
0.644678 0.533928 0.416541
0.776638 0.534325 0.416907
0.907958 0.535729 0.417273
0.000000 0.666499 0.413489
0.000000 0.666743 0.413184
0.212497 0.666682 0.412116
0.368566 0.665797 0.415808
0.506126 0.665309 0.416999
0.639185 0.664973 0.417517
0.773678 0.666835 0.417731
0.906035 0.667781 0.418189
0.000000 0.795682 0.409552
0.000000 0.795712 0.409094
0.199588 0.795621 0.408911
0.366033 0.794644 0.415839
0.503258 0.794278 0.417945
0.635523 0.794156 0.418555
0.766476 0.794247 0.419440
0.903990 0.800046 0.419104
0.000000 0.924224 0.402167
0.000000 0.924193 0.401862
0.183169 0.923919 0.402655
0.369329 0.922362 0.418677
0.502678 0.922179 0.419196
0.633753 0.922026 0.420050
0.763638 0.921904 0.421515
0.892363 0.921691 0.423621
0.000000 0.000000 0.558160
0.102968 0.000000 0.557946
0.254551 0.000000 0.557275
0.390387 0.000000 0.556298
0.523247 0.000000 0.555688
0.651148 0.000000 0.551324
0.781674 0.000000 0.549004
0.911681 0.000000 0.546563
0.000000 0.126009 0.557549
0.103639 0.126802 0.557397
0.253330 0.128054 0.556878
0.388739 0.126192 0.556085
0.522118 0.117952 0.555505
0.650813 0.112032 0.551263
0.781369 0.108064 0.548913
0.911345 0.121920 0.546960
0.000000 0.264225 0.556359
0.069245 0.262516 0.556268
0.240391 0.259831 0.556023
0.381659 0.257633 0.555596
0.518486 0.254856 0.554864
0.649195 0.256229 0.551110
0.779782 0.262547 0.549706
0.910124 0.268254 0.547997
0.000000 0.400366 0.554986
0.000732 0.399634 0.554925
0.227817 0.397070 0.554772
0.376226 0.397864 0.554223
0.514000 0.399603 0.553521
0.645930 0.401709 0.552544
0.777584 0.402472 0.550927
0.909239 0.400458 0.546502
0.000000 0.534966 0.553246
0.000000 0.534783 0.553246
0.217960 0.534081 0.553063
0.373938 0.533593 0.552667
0.510124 0.533440 0.552209
0.642969 0.533837 0.551659
0.775051 0.535485 0.551202
0.906676 0.537987 0.550744
0.000000 0.665278 0.549004
0.000000 0.665309 0.549004
0.209598 0.665003 0.549004
0.369055 0.664088 0.550500
0.505547 0.663905 0.549462
0.638972 0.663783 0.550988
0.772763 0.665888 0.550744
0.905241 0.667750 0.550591
0.000000 0.794888 0.545068
0.000000 0.794827 0.545037
0.202060 0.794461 0.545739
0.362463 0.793973 0.546715
0.503075 0.793606 0.546380
0.637964 0.793179 0.550317
0.767422 0.793515 0.550652
0.903441 0.798520 0.550378
0.000000 0.923491 0.539422
0.000000 0.923430 0.539513
0.187320 0.923095 0.540124
0.351415 0.923095 0.538659
0.506401 0.921599 0.546532
0.638941 0.921172 0.550622
0.766934 0.921202 0.551629
0.894224 0.921172 0.553246
0.000000 0.000000 0.687922
0.096498 0.000000 0.687739
0.249058 0.000000 0.687129
0.384039 0.000000 0.686549
0.515404 0.000000 0.685786
0.646082 0.000000 0.684932
0.779690 0.000000 0.685786
0.910002 0.000000 0.683070
0.000000 0.126772 0.687221
0.096834 0.127169 0.687068
0.247715 0.127871 0.686671
0.382422 0.126070 0.686183
0.514153 0.120241 0.685451
0.645258 0.112978 0.684627
0.779355 0.105745 0.685664
0.909667 0.122469 0.683162
0.000000 0.259251 0.686549
0.055695 0.258976 0.686458
0.236912 0.258183 0.686183
0.376318 0.256931 0.685695
0.510735 0.256260 0.684993
0.643366 0.257847 0.684138
0.778103 0.262516 0.685695
0.908812 0.267979 0.683284
0.000000 0.394049 0.685481
0.000000 0.393500 0.685359
0.228916 0.393805 0.685023
0.376135 0.397498 0.684535
0.510735 0.399756 0.683925
0.641444 0.402350 0.683223
0.776516 0.401678 0.685389
0.908202 0.399725 0.681819
0.000000 0.527825 0.683803
0.000000 0.527703 0.683772
0.223636 0.528161 0.683467
0.376501 0.531060 0.682887
0.510307 0.532219 0.682429
0.639918 0.532341 0.682033
0.774960 0.531182 0.682429
0.907256 0.530327 0.678309
0.000000 0.660487 0.682155
0.000000 0.660517 0.682155
0.217990 0.660487 0.682002
0.371038 0.660609 0.681666
0.505211 0.661189 0.681392
0.639796 0.662562 0.681117
0.772763 0.664637 0.680751
0.904875 0.667811 0.680659
0.000000 0.794095 0.681666
0.000000 0.794064 0.681758
0.207279 0.793637 0.681880
0.361852 0.793393 0.681239
0.499977 0.793362 0.679133
0.637690 0.792996 0.677363
0.769680 0.792935 0.680659
0.903563 0.797086 0.680842
0.000000 0.922881 0.676722
0.000000 0.922759 0.676753
0.191989 0.922545 0.676448
0.351232 0.922545 0.674556
0.494484 0.922332 0.671778
0.639887 0.920989 0.674708
0.772366 0.920378 0.681453
0.897154 0.920714 0.682979
0.000000 0.000000 0.813962
0.091646 0.000000 0.813840
0.244480 0.000000 0.813474
0.378149 0.000000 0.812955
0.508385 0.000000 0.812284
0.637903 0.000000 0.811551
0.767391 0.000000 0.810849
0.907836 0.000000 0.818662
0.000000 0.126558 0.813626
0.091157 0.126650 0.813535
0.243015 0.126650 0.813260
0.376745 0.124819 0.812741
0.507469 0.120821 0.812161
0.637476 0.117556 0.811460
0.767147 0.123781 0.810758
0.907622 0.123445 0.818540
0.000000 0.256870 0.812955
0.059113 0.256657 0.812894
0.234928 0.256229 0.812680
0.372473 0.255924 0.812253
0.505455 0.256382 0.811673
0.636805 0.260075 0.811002
0.766598 0.269230 0.810239
0.907012 0.267277 0.818051
0.000000 0.390021 0.811978
0.016358 0.390723 0.811856
0.239902 0.394537 0.811490
0.376959 0.396551 0.811063
0.508843 0.399084 0.810544
0.638239 0.401770 0.810025
0.766323 0.403937 0.809598
0.906554 0.398291 0.816495
0.000000 0.522667 0.810758
0.000000 0.523339 0.810666
0.238804 0.526055 0.810361
0.380194 0.528893 0.809964
0.511528 0.530755 0.809567
0.639307 0.531304 0.809293
0.767025 0.532403 0.809049
0.906035 0.529778 0.813779
0.000000 0.654383 0.809598
0.000000 0.654719 0.809506
0.232486 0.655848 0.809323
0.374121 0.656886 0.809110
0.508080 0.658106 0.808896
0.642481 0.661677 0.808499
0.769070 0.662562 0.808530
0.905547 0.661402 0.809873
0.000000 0.785061 0.808713
0.000000 0.785153 0.808652
0.222690 0.785458 0.808591
0.366308 0.786160 0.808530
0.503593 0.787411 0.808438
0.638544 0.789334 0.808316
0.772274 0.792081 0.808347
0.904112 0.796231 0.808804
0.000000 0.922271 0.813046
0.000000 0.922240 0.812924
0.194583 0.922210 0.812375
0.352361 0.922240 0.811063
0.496620 0.921996 0.809171
0.635340 0.921599 0.806332
0.774380 0.920470 0.804990
0.901457 0.920439 0.811582
0.000000 0.000000 0.935546
0.090150 0.000000 0.935454
0.240574 0.000000 0.935210
0.372717 0.000000 0.934813
0.501884 0.000000 0.934356
0.630335 0.000000 0.933867
0.758785 0.005158 0.933318
0.886809 0.092378 0.932769
0.000000 0.126223 0.935332
0.088563 0.126253 0.935271
0.239536 0.125582 0.935058
0.372015 0.124392 0.934691
0.501457 0.122774 0.934264
0.630243 0.123781 0.933745
0.758968 0.135286 0.933227
0.886870 0.160830 0.932677
0.000000 0.255039 0.934874
0.072633 0.255070 0.934813
0.235447 0.255070 0.934600
0.370397 0.255650 0.934295
0.501457 0.257725 0.933867
0.631373 0.263432 0.933318
0.760067 0.273533 0.932738
0.887205 0.282719 0.932341
0.000000 0.392706 0.933806
0.113313 0.393164 0.933776
0.250156 0.394263 0.933593
0.380224 0.396460 0.933257
0.508476 0.399268 0.932860
0.635584 0.402289 0.932433
0.761929 0.404944 0.932097
0.888151 0.406989 0.931945
0.000000 0.522881 0.932708
0.129061 0.523827 0.932616
0.263066 0.526421 0.932403
0.391211 0.528832 0.932158
0.514672 0.529839 0.931884
0.639399 0.531090 0.931640
0.764645 0.532982 0.931426
0.890074 0.535607 0.931395
0.000000 0.650324 0.931731
0.116915 0.650813 0.931670
0.255833 0.652003 0.931518
0.385626 0.653346 0.931365
0.517082 0.656367 0.931060
0.646723 0.661250 0.930663
0.769986 0.662898 0.930632
0.893400 0.665370 0.930816
0.000000 0.778531 0.930907
0.093294 0.778744 0.930877
0.244755 0.779324 0.930816
0.379583 0.780453 0.930724
0.513481 0.782681 0.930510
0.645808 0.785946 0.930266
0.779110 0.792966 0.929900
0.898741 0.796597 0.930449
0.000000 0.910124 0.930297
0.000000 0.910277 0.930297
0.228397 0.910765 0.930297
0.371923 0.911742 0.930266
0.509209 0.913207 0.930236
0.643793 0.915282 0.930297
0.779904 0.917937 0.930510
0.909361 0.921752 0.931273
