其他预设/【232】美食博客调色预设124款/1.3D LUT预设（视频调色-PR-AE-PS-FCPX-达芬奇用）/Food Art #50.cube
# Created by Adobe Lightroom plugin Export LUT (1.17.0)
# www.johnrellis.com/lightroom/exportlut.htm
# Preset: Food Art #50
# Color profile: /Library/Application Support/Adobe/Color/Profiles/Recommended/AdobeRGB1998.icc
LUT_3D_SIZE 8
DOMAIN_MIN 0.000000 0.000000 0.000000
DOMAIN_MAX 0.903226 0.903226 0.903226
0.000000 0.000000 0.000000
0.143496 0.000000 0.000397
0.316197 0.000000 0.000000
0.482277 0.000000 0.000000
0.625147 0.015625 0.000000
0.740810 0.113802 0.000000
0.847807 0.175174 0.100404
0.956756 0.236698 0.170260
0.040192 0.134554 0.000000
0.154299 0.137087 0.000000
0.318273 0.142092 0.000000
0.480598 0.146181 0.000000
0.622217 0.159243 0.000000
0.736629 0.183902 0.000000
0.843076 0.220188 0.102388
0.953491 0.268620 0.172641
0.068513 0.307378 0.000000
0.176394 0.308232 0.000000
0.334722 0.311803 0.000000
0.488777 0.316320 0.000000
0.626673 0.319951 0.000000
0.738674 0.322942 0.055940
0.847593 0.338476 0.128450
0.956756 0.365972 0.196750
0.114107 0.481941 0.000000
0.197116 0.481575 0.000000
0.344884 0.482887 0.000000
0.502495 0.495033 0.000000
0.639216 0.490822 0.000000
0.742550 0.474861 0.108827
0.846799 0.473243 0.165774
0.954314 0.485328 0.230594
0.172427 0.635645 0.000000
0.228855 0.635157 0.000000
0.353002 0.635035 0.000000
0.490852 0.636774 0.038239
0.626795 0.636988 0.097658
0.738521 0.618402 0.147860
0.841886 0.607294 0.209751
0.950408 0.611505 0.278111
0.238834 0.749111 0.128237
0.275242 0.751125 0.134096
0.367559 0.750240 0.144076
0.482643 0.749599 0.162478
0.603967 0.748867 0.187503
0.728054 0.749325 0.219425
0.842222 0.741268 0.264866
0.949248 0.737148 0.335027
0.309148 0.858946 0.236484
0.332128 0.859281 0.239384
0.399451 0.858152 0.246220
0.494209 0.857511 0.260716
0.601007 0.856535 0.280186
0.714717 0.856840 0.308476
0.832517 0.857572 0.343175
0.945739 0.853910 0.395880
0.390021 0.963348 0.357244
0.405249 0.963134 0.359167
0.454749 0.962799 0.366644
0.531365 0.963012 0.381384
0.619684 0.959350 0.394232
0.721981 0.959411 0.422187
0.829953 0.959472 0.457893
0.939391 0.957824 0.496651
0.040955 0.000000 0.099519
0.149569 0.000000 0.103853
0.316381 0.000000 0.109377
0.480018 0.000000 0.110109
0.621241 0.043702 0.116823
0.734127 0.132174 0.137362
0.839994 0.191653 0.171206
0.950042 0.250462 0.220127
0.055665 0.133364 0.104463
0.158938 0.135744 0.107118
0.320531 0.136934 0.109041
0.480598 0.142794 0.110353
0.620478 0.162570 0.117739
0.732235 0.194369 0.139101
0.836667 0.232334 0.172335
0.946807 0.279210 0.220890
0.076814 0.304814 0.107881
0.175357 0.306859 0.104799
0.335210 0.310216 0.106752
0.486580 0.314366 0.114046
0.623011 0.320073 0.125551
0.732570 0.325933 0.151400
0.838193 0.341985 0.188205
0.948852 0.370886 0.239933
0.117403 0.478004 0.103395
0.197726 0.478645 0.102602
0.345190 0.481117 0.107179
0.496834 0.487739 0.118502
0.629053 0.482582 0.140047
0.732387 0.470436 0.176455
0.836790 0.471473 0.214542
0.946654 0.486488 0.267765
0.179904 0.633539 0.129885
0.233127 0.632715 0.131441
0.354040 0.631678 0.138033
0.488380 0.631373 0.151583
0.621698 0.631037 0.171939
0.732723 0.614282 0.202976
0.836179 0.605982 0.253422
0.945251 0.611902 0.311498
0.247654 0.745480 0.191806
0.280491 0.745388 0.194339
0.369635 0.744686 0.201236
0.482551 0.744900 0.215763
0.602502 0.745449 0.236057
0.726040 0.747311 0.263676
0.839017 0.739864 0.301884
0.945434 0.736599 0.363531
0.315312 0.854154 0.273991
0.336370 0.853422 0.275090
0.401923 0.852995 0.281437
0.495399 0.853483 0.294835
0.601129 0.853696 0.313817
0.713161 0.854002 0.338598
0.828977 0.854246 0.368078
0.941222 0.851041 0.415381
0.394507 0.960540 0.381933
0.409735 0.960632 0.384283
0.458259 0.960571 0.391394
0.533745 0.961059 0.405615
0.624537 0.960662 0.424323
0.724147 0.959655 0.447730
0.829770 0.958618 0.477821
0.937835 0.956603 0.512016
0.089326 0.000000 0.240909
0.171481 0.000000 0.247776
0.325566 0.000000 0.262638
0.483680 0.000000 0.271489
0.621973 0.075807 0.276219
0.732753 0.191043 0.297307
0.838102 0.251682 0.320653
0.947814 0.304326 0.352850
0.072480 0.130220 0.247288
0.168399 0.128450 0.253605
0.329259 0.129000 0.265904
0.483833 0.139925 0.271702
0.621057 0.175540 0.279057
0.730617 0.236118 0.298558
0.835691 0.281621 0.320867
0.945983 0.327672 0.354376
0.097688 0.300877 0.264469
0.182589 0.303105 0.267369
0.337621 0.308171 0.273411
0.487587 0.315923 0.280522
0.623987 0.331090 0.292546
0.730465 0.349432 0.308812
0.834958 0.372686 0.331426
0.944823 0.403510 0.365576
0.132509 0.478828 0.280064
0.204318 0.479896 0.280644
0.347295 0.483345 0.282994
0.498848 0.489509 0.292058
0.627405 0.487190 0.309087
0.729885 0.483925 0.328222
0.834348 0.491554 0.352178
0.943694 0.509392 0.387640
0.188479 0.632105 0.291539
0.241794 0.632136 0.294133
0.363104 0.631739 0.304021
0.492683 0.632502 0.313146
0.622522 0.632898 0.325963
0.729702 0.618524 0.344823
0.831846 0.616266 0.379980
0.941192 0.625483 0.419226
0.260472 0.744228 0.318486
0.297551 0.743832 0.325231
0.387884 0.742611 0.340581
0.491402 0.742367 0.349248
0.604761 0.742885 0.362219
0.722774 0.745083 0.381659
0.833646 0.740871 0.408759
0.941405 0.743343 0.458473
0.333806 0.853574 0.377234
0.359380 0.852720 0.384314
0.422889 0.851438 0.394263
0.507805 0.851286 0.402869
0.607263 0.851499 0.415808
0.715175 0.852750 0.434730
0.828519 0.854917 0.459632
0.940032 0.854459 0.498207
0.412818 0.958770 0.462562
0.429938 0.958068 0.467842
0.474067 0.957763 0.472541
0.545861 0.959045 0.485328
0.631983 0.958770 0.499367
0.728328 0.958465 0.518059
0.831266 0.958129 0.541650
0.937591 0.956909 0.568292
0.102358 0.000000 0.406287
0.177859 0.000000 0.413397
0.323552 0.000000 0.433265
0.480323 0.000000 0.448981
0.617548 0.073396 0.445716
0.726223 0.191196 0.440925
0.829587 0.277379 0.457496
0.938048 0.351995 0.491676
0.079988 0.119417 0.414221
0.171084 0.118074 0.419440
0.323766 0.118624 0.436347
0.482368 0.130343 0.452033
0.618006 0.175174 0.448310
0.724605 0.245029 0.445014
0.827481 0.313817 0.462928
0.936431 0.378515 0.497597
0.082979 0.283024 0.417060
0.167910 0.282719 0.419806
0.323186 0.292393 0.439094
0.486305 0.310521 0.458900
0.618341 0.337133 0.458869
0.722988 0.376928 0.466804
0.827451 0.421607 0.492561
0.937407 0.450843 0.514122
0.126772 0.465888 0.449042
0.197238 0.467811 0.451331
0.339239 0.474281 0.458930
0.491585 0.485298 0.470222
0.615869 0.494545 0.478492
0.718013 0.506004 0.489662
0.823911 0.520836 0.505150
0.935576 0.540246 0.527764
0.191867 0.631769 0.464668
0.243351 0.631098 0.465400
0.364141 0.630060 0.470069
0.497658 0.630243 0.484352
0.618372 0.632410 0.492744
0.719997 0.627283 0.508080
0.823972 0.633112 0.526513
0.934447 0.644465 0.549401
0.268559 0.744411 0.465644
0.305547 0.745571 0.470985
0.398993 0.743160 0.483955
0.509331 0.741665 0.506157
0.611505 0.743130 0.514519
0.720058 0.745541 0.526177
0.827481 0.745388 0.541741
0.935149 0.752407 0.575433
0.338476 0.852293 0.494972
0.363989 0.852110 0.500206
0.437079 0.851164 0.517418
0.527794 0.850675 0.537926
0.618524 0.851591 0.546075
0.719112 0.852995 0.557336
0.826444 0.854948 0.571649
0.936278 0.856199 0.594934
0.417090 0.958892 0.554986
0.435096 0.958648 0.559869
0.488136 0.957549 0.573388
0.557916 0.957183 0.585077
0.638819 0.957153 0.593530
0.731197 0.957275 0.605188
0.831632 0.957488 0.620935
0.936736 0.956909 0.640040
0.087373 0.000000 0.565698
0.165499 0.000000 0.570336
0.304479 0.000000 0.584436
0.456947 0.000000 0.607721
0.605432 0.077852 0.619043
0.717464 0.193576 0.597284
0.823667 0.279271 0.594720
0.934203 0.353307 0.611749
0.065766 0.109285 0.569238
0.158938 0.109163 0.573754
0.303929 0.112276 0.586664
0.457282 0.136446 0.608362
0.605707 0.174319 0.620233
0.716884 0.246586 0.599390
0.822812 0.316045 0.598413
0.933257 0.380041 0.615747
0.043580 0.268742 0.569848
0.155367 0.271092 0.575189
0.305516 0.280858 0.587304
0.459846 0.304784 0.609888
0.605768 0.330846 0.622217
0.712947 0.371344 0.605097
0.818570 0.414649 0.610132
0.929259 0.456397 0.627832
0.108980 0.430121 0.579889
0.179751 0.431434 0.581292
0.315038 0.437507 0.586389
0.466621 0.464454 0.608362
0.606500 0.491005 0.627161
0.709041 0.513420 0.621485
0.814542 0.534936 0.631678
0.927276 0.553063 0.645075
0.177157 0.603754 0.609857
0.228946 0.604944 0.611261
0.348852 0.608789 0.615167
0.483711 0.615991 0.622370
0.606653 0.625757 0.631983
0.706416 0.631769 0.637446
0.813565 0.639582 0.645502
0.927214 0.649348 0.656916
0.269078 0.738491 0.613825
0.302983 0.738064 0.615259
0.393927 0.736049 0.619196
0.504906 0.734463 0.628901
0.607477 0.735500 0.637751
0.711940 0.741146 0.645747
0.818631 0.745998 0.658595
0.929564 0.753719 0.674678
0.341375 0.848997 0.624018
0.364843 0.848417 0.626246
0.434791 0.847074 0.634699
0.525628 0.846555 0.647425
0.616083 0.848112 0.654139
0.715175 0.850370 0.660761
0.821744 0.852628 0.669245
0.931853 0.853880 0.682734
0.415839 0.955200 0.657923
0.432380 0.954833 0.660334
0.482704 0.953918 0.667414
0.553979 0.955291 0.676997
0.634211 0.955535 0.681605
0.727138 0.955688 0.689479
0.828305 0.955871 0.700649
0.934203 0.955352 0.714565
0.019379 0.000000 0.700343
0.142031 0.000000 0.702785
0.280064 0.000000 0.710201
0.422461 0.000000 0.725216
0.568719 0.133577 0.744381
0.703548 0.199954 0.747585
0.816800 0.282353 0.735622
0.930114 0.356512 0.738857
0.000000 0.104036 0.699336
0.138918 0.104707 0.701381
0.279881 0.113283 0.709041
0.423011 0.143404 0.723995
0.568933 0.199680 0.743282
0.702541 0.248569 0.746700
0.815488 0.316747 0.736172
0.928893 0.381537 0.740352
0.052094 0.261723 0.700862
0.149935 0.263981 0.702968
0.288548 0.274266 0.710719
0.429908 0.297734 0.724514
0.573022 0.338537 0.743679
0.702663 0.370520 0.748074
0.813718 0.414588 0.741176
0.926909 0.457923 0.747463
0.101534 0.403174 0.693935
0.172061 0.406287 0.696315
0.307012 0.422034 0.706233
0.445441 0.449775 0.722866
0.581140 0.485237 0.743435
0.704372 0.511284 0.752438
0.812863 0.534295 0.751156
0.926207 0.553033 0.756924
0.175692 0.557794 0.709895
0.221073 0.559197 0.710384
0.328893 0.564660 0.712245
0.452003 0.575494 0.715236
0.581842 0.604303 0.734218
0.702846 0.627771 0.753170
0.810361 0.637263 0.755215
0.924315 0.646815 0.761379
0.252750 0.711788 0.732631
0.286564 0.712978 0.733822
0.376532 0.715419 0.736019
0.487556 0.719814 0.740017
0.593072 0.726436 0.746181
0.704982 0.738399 0.758206
0.812497 0.744625 0.764462
0.925963 0.751522 0.772549
0.343847 0.845640 0.751888
0.367559 0.846067 0.753506
0.436591 0.846281 0.757687
0.522271 0.846677 0.761929
0.610712 0.847807 0.763943
0.709865 0.849546 0.766537
0.818784 0.852049 0.771908
0.929229 0.854429 0.783291
0.418372 0.953613 0.768215
0.433417 0.953246 0.769162
0.480171 0.952636 0.771786
0.546654 0.953124 0.774716
0.627588 0.953735 0.777218
0.721096 0.954284 0.780941
0.824979 0.954742 0.788754
0.932647 0.954314 0.798154
0.000000 0.000000 0.822660
0.112795 0.000000 0.824491
0.259037 0.000000 0.829526
0.397620 0.039216 0.838437
0.536950 0.142367 0.850156
0.675746 0.223178 0.860502
0.805417 0.283513 0.861936
0.923857 0.355077 0.857725
0.000000 0.099489 0.821958
0.111330 0.102327 0.823606
0.259556 0.114687 0.828519
0.398596 0.145510 0.837003
0.537499 0.199252 0.848783
0.675807 0.264530 0.859525
0.804257 0.315526 0.860868
0.922332 0.378088 0.857206
0.000000 0.254063 0.821714
0.128359 0.256474 0.823056
0.268803 0.266300 0.827543
0.405707 0.288090 0.835843
0.542840 0.325383 0.847440
0.679866 0.375311 0.859861
0.804715 0.409857 0.861540
0.922057 0.453773 0.860166
0.090181 0.395148 0.817380
0.162539 0.398260 0.818540
0.289830 0.410620 0.823606
0.419348 0.430243 0.832303
0.551812 0.461280 0.844572
0.686854 0.505272 0.860594
0.805570 0.525017 0.862943
0.921935 0.546166 0.863279
0.138216 0.530602 0.815000
0.186069 0.531334 0.814755
0.291691 0.534234 0.814298
0.420905 0.551080 0.822538
0.553613 0.579431 0.837430
0.685542 0.612879 0.856168
0.806180 0.628931 0.864012
0.922210 0.641444 0.865293
0.227207 0.680049 0.830655
0.257816 0.680812 0.830686
0.341375 0.683345 0.830930
0.444190 0.687282 0.831327
0.547692 0.689540 0.831724
0.675593 0.710994 0.849302
0.809751 0.737881 0.867735
0.923552 0.745968 0.869230
0.315923 0.823178 0.849546
0.338231 0.823636 0.849912
0.404273 0.824857 0.850797
0.489631 0.827298 0.852628
0.583246 0.830838 0.855436
0.690852 0.836728 0.860533
0.813901 0.848295 0.871550
0.925750 0.852476 0.876249
0.409552 0.948302 0.867460
0.424384 0.948425 0.867948
0.471138 0.949401 0.869718
0.539086 0.951019 0.871885
0.623865 0.952544 0.874266
0.718288 0.953124 0.875853
0.823117 0.953124 0.879118
0.932341 0.953002 0.884306
0.000000 0.000000 0.943969
0.101320 0.000000 0.944610
0.250828 0.000000 0.946319
0.387030 0.069062 0.949706
0.522210 0.150423 0.954223
0.658869 0.232853 0.959594
0.792172 0.305669 0.962341
0.919982 0.360204 0.961883
0.000000 0.098695 0.943359
0.100526 0.102419 0.943999
0.251682 0.117342 0.945800
0.388220 0.150057 0.949004
0.523400 0.201511 0.953552
0.659724 0.269688 0.958892
0.792386 0.334417 0.961761
0.919432 0.382666 0.961364
0.000000 0.250065 0.942107
0.111879 0.252506 0.942657
0.257664 0.261906 0.944213
0.394171 0.283116 0.947814
0.528588 0.317754 0.952148
0.663508 0.367590 0.957366
0.794705 0.418189 0.960906
0.919219 0.452308 0.960723
0.004944 0.389654 0.939422
0.136202 0.392187 0.940002
0.269688 0.400458 0.941711
0.402869 0.417792 0.945037
0.535668 0.445350 0.949645
0.668849 0.483986 0.955261
0.798611 0.524102 0.960174
0.919921 0.540581 0.960510
0.058228 0.521355 0.934691
0.141878 0.522850 0.935241
0.267582 0.527764 0.936889
0.396948 0.537896 0.940307
0.533288 0.560632 0.945373
0.667445 0.590204 0.951934
0.800534 0.624659 0.959686
0.921324 0.635004 0.960510
0.179629 0.666224 0.938048
0.212253 0.666163 0.937835
0.294957 0.665644 0.937163
0.394202 0.663111 0.936156
0.511498 0.666072 0.938689
0.652155 0.687373 0.947539
0.798032 0.723140 0.957641
0.924468 0.739895 0.961181
0.287907 0.809262 0.945464
0.307958 0.809354 0.945373
0.366888 0.809598 0.945098
0.447517 0.809293 0.944823
0.537743 0.806912 0.944488
0.639460 0.801602 0.943633
0.785367 0.819699 0.951781
0.927733 0.847898 0.961273
0.386236 0.938323 0.953429
0.399512 0.938384 0.953429
0.441627 0.938811 0.953582
0.507500 0.939727 0.953979
0.592248 0.940948 0.954589
0.692714 0.942473 0.955444
0.808469 0.944549 0.957061
0.934142 0.950958 0.962799
