其他预设/【232】美食博客调色预设124款/1.3D LUT预设（视频调色-PR-AE-PS-FCPX-达芬奇用）/Food Art #13 ().cube
# Created by Adobe Lightroom plugin Export LUT (1.17.0)
# www.johnrellis.com/lightroom/exportlut.htm
# Preset: Food Art #13 (素锦印象)
# Color profile: /Library/Application Support/Adobe/Color/Profiles/Recommended/AdobeRGB1998.icc
LUT_3D_SIZE 32
0.000000 0.000000 0.000000
0.000000 0.000000 0.000000
0.036652 0.000000 0.000000
0.135988 0.000000 0.000000
0.240299 0.000000 0.000000
0.328283 0.000000 0.000000
0.409796 0.000000 0.000000
0.482673 0.000000 0.000000
0.543755 0.000000 0.000000
0.599847 0.000000 0.000000
0.651942 0.000000 0.000000
0.699001 0.000000 0.000000
0.741573 0.000000 0.000000
0.779934 0.000000 0.000000
0.813352 0.000000 0.000000
0.842344 0.000000 0.000000
0.867521 0.000000 0.000000
0.889158 0.000000 0.000000
0.907622 0.000000 0.000000
0.924010 0.000000 0.000000
0.938842 0.000000 0.000000
0.952483 0.056031 0.000000
0.965057 0.080720 0.000000
0.976593 0.099428 0.000000
0.987091 0.114412 0.019318
0.996521 0.128603 0.074159
1.000000 0.141726 0.098390
1.000000 0.153719 0.117861
1.000000 0.164675 0.134859
1.000000 0.174899 0.149813
1.000000 0.184634 0.163485
1.000000 0.193606 0.176089
0.000000 0.000000 0.000000
0.000000 0.000000 0.000000
0.049378 0.000000 0.000000
0.141482 0.000000 0.000000
0.242985 0.000000 0.000000
0.330724 0.000000 0.000000
0.412970 0.000000 0.000000
0.485634 0.000000 0.000000
0.546654 0.000000 0.000000
0.603021 0.000000 0.000000
0.655085 0.000000 0.000000
0.702235 0.000000 0.000000
0.744747 0.000000 0.000000
0.782925 0.000000 0.000000
0.816129 0.000000 0.000000
0.844846 0.000000 0.000000
0.869749 0.000000 0.000000
0.891173 0.000000 0.000000
0.909422 0.000000 0.000000
0.925566 0.027710 0.000000
0.940185 0.067018 0.000000
0.953643 0.085145 0.000000
0.966033 0.100923 0.000000
0.977386 0.114900 0.000000
0.987732 0.127871 0.035798
0.997009 0.140352 0.080018
1.000000 0.151339 0.102571
1.000000 0.162753 0.122255
1.000000 0.172763 0.138491
1.000000 0.182437 0.153353
1.000000 0.191409 0.166720
1.000000 0.200076 0.179171
0.000000 0.048707 0.000000
0.000000 0.056855 0.000000
0.056855 0.059297 0.000000
0.146395 0.078614 0.000000
0.246220 0.087861 0.000000
0.333837 0.086336 0.000000
0.415625 0.080232 0.000000
0.487922 0.075257 0.000000
0.548852 0.072450 0.000000
0.605066 0.074159 0.000000
0.657069 0.066316 0.000000
0.704036 0.052827 0.000000
0.746365 0.027253 0.000000
0.784268 0.013214 0.000000
0.817136 0.011566 0.000000
0.845853 0.014893 0.000000
0.870542 0.039155 0.000000
0.891844 0.060945 0.000000
0.910002 0.074037 0.000000
0.925994 0.087465 0.000000
0.940520 0.099153 0.000000
0.953887 0.109712 0.000000
0.966186 0.121035 0.000000
0.977478 0.131289 0.000000
0.987762 0.142123 0.047578
0.997009 0.152163 0.083619
1.000000 0.162325 0.105745
1.000000 0.172091 0.124788
1.000000 0.181277 0.140871
1.000000 0.190127 0.155642
1.000000 0.198367 0.168978
1.000000 0.206485 0.181521
0.000000 0.145724 0.000000
0.000000 0.148623 0.000000
0.083070 0.150393 0.000000
0.157595 0.154055 0.000000
0.249302 0.169741 0.000000
0.335302 0.175357 0.000000
0.416541 0.176455 0.000000
0.488319 0.174777 0.000000
0.549157 0.170962 0.000000
0.605676 0.165469 0.000000
0.657618 0.158419 0.000000
0.704646 0.150881 0.000000
0.746853 0.144289 0.000000
0.784604 0.138491 0.000000
0.817472 0.133486 0.000000
0.845884 0.131197 0.000000
0.870603 0.130312 0.000000
0.891844 0.131868 0.000000
0.910002 0.134615 0.000000
0.926085 0.138705 0.000000
0.940673 0.143130 0.000000
0.953948 0.148287 0.000000
0.966125 0.154421 0.000000
0.977173 0.160494 0.000000
0.987274 0.166995 0.059998
0.996338 0.174166 0.087984
1.000000 0.181064 0.108705
1.000000 0.188998 0.127321
1.000000 0.196170 0.143038
1.000000 0.203525 0.157656
1.000000 0.210880 0.171176
1.000000 0.218082 0.183810
0.000000 0.246036 0.000000
0.000000 0.246067 0.000000
0.100587 0.246403 0.000000
0.179446 0.247074 0.000000
0.255283 0.247593 0.000000
0.339391 0.255558 0.000000
0.420233 0.259251 0.000000
0.490761 0.257145 0.000000
0.551446 0.249699 0.000000
0.607630 0.242374 0.000000
0.659236 0.234104 0.000000
0.705867 0.225895 0.000000
0.747768 0.217929 0.000000
0.784878 0.210697 0.000000
0.817044 0.204074 0.000000
0.844907 0.198672 0.000000
0.869200 0.194064 0.000000
0.890135 0.191287 0.000000
0.908293 0.189364 0.000000
0.924468 0.188876 0.000000
0.939178 0.189151 0.000000
0.952605 0.190433 0.000000
0.964843 0.192447 0.000000
0.975952 0.195346 0.006806
0.986053 0.198703 0.068666
0.995148 0.202731 0.093812
1.000000 0.207431 0.113924
1.000000 0.212314 0.131563
1.000000 0.217807 0.147311
1.000000 0.223392 0.161685
1.000000 0.228946 0.175082
1.000000 0.234836 0.187686
0.000000 0.329076 0.000000
0.000763 0.328740 0.000000
0.111513 0.328618 0.000000
0.189487 0.328527 0.000000
0.265476 0.328008 0.000000
0.338567 0.327153 0.000000
0.419257 0.332921 0.000000
0.488899 0.329595 0.000000
0.549187 0.321111 0.000000
0.605310 0.312322 0.000000
0.656672 0.303380 0.000000
0.703212 0.293828 0.000000
0.744961 0.284703 0.000000
0.781979 0.275517 0.000000
0.813993 0.266972 0.000000
0.841855 0.259037 0.000000
0.866056 0.252140 0.000000
0.886992 0.246403 0.000000
0.905119 0.241489 0.000000
0.921447 0.237613 0.000000
0.936278 0.234775 0.000000
0.949798 0.232761 0.000000
0.954162 0.223575 0.000000
0.966644 0.223392 0.000000
0.978088 0.223819 0.017945
0.988434 0.225010 0.072480
0.997681 0.227115 0.096986
1.000000 0.229740 0.117067
1.000000 0.233036 0.134035
1.000000 0.236515 0.149538
1.000000 0.240482 0.163882
1.000000 0.244907 0.177584
0.000000 0.393927 0.000000
0.006073 0.393652 0.000000
0.111208 0.393530 0.000000
0.187015 0.393042 0.000000
0.260990 0.392218 0.000000
0.332677 0.390661 0.000000
0.402594 0.388617 0.000000
0.473579 0.388434 0.000000
0.533562 0.380255 0.000000
0.589349 0.371374 0.000000
0.640436 0.361913 0.000000
0.687160 0.351995 0.000000
0.729793 0.342229 0.000000
0.768276 0.332433 0.000000
0.802060 0.322728 0.000000
0.831571 0.313542 0.000000
0.857053 0.304967 0.000000
0.878965 0.296757 0.000000
0.897704 0.289494 0.000000
0.914336 0.282933 0.000000
0.929198 0.277379 0.000000
0.942657 0.272129 0.000000
0.954925 0.267979 0.000000
0.966369 0.264378 0.000000
0.976989 0.262058 0.058747
0.986969 0.260716 0.085328
0.996063 0.260563 0.106966
1.000000 0.261295 0.125490
1.000000 0.262455 0.141726
1.000000 0.264469 0.157198
1.000000 0.266697 0.171054
1.000000 0.269718 0.184695
0.000000 0.462989 0.000000
0.000000 0.462776 0.000000
0.110018 0.462501 0.000000
0.187045 0.461555 0.000000
0.261021 0.460060 0.000000
0.331945 0.457862 0.000000
0.400855 0.454719 0.000000
0.467231 0.450935 0.000000
0.530999 0.445594 0.000000
0.586297 0.435523 0.000000
0.637171 0.424720 0.000000
0.683619 0.413550 0.000000
0.726162 0.402411 0.000000
0.764401 0.391089 0.000000
0.798123 0.379828 0.000000
0.827634 0.368780 0.000000
0.853117 0.358160 0.000000
0.875151 0.348058 0.000000
0.894133 0.338750 0.000000
0.910979 0.330236 0.000000
0.926085 0.322515 0.000000
0.939788 0.315496 0.000000
0.952300 0.309453 0.000000
0.963928 0.304173 0.032685
0.974731 0.299870 0.074495
0.984771 0.297063 0.097719
0.993988 0.294987 0.116945
1.000000 0.293797 0.134249
1.000000 0.293462 0.150179
1.000000 0.293675 0.164981
1.000000 0.294621 0.178988
1.000000 0.296025 0.192355
0.000000 0.520439 0.000000
0.022583 0.520043 0.000000
0.113069 0.519707 0.000000
0.186099 0.518578 0.000000
0.257664 0.517052 0.000000
0.326329 0.514763 0.000000
0.393439 0.511772 0.000000
0.458320 0.507836 0.000000
0.521263 0.502861 0.000000
0.580743 0.496376 0.000000
0.631189 0.484443 0.000000
0.677455 0.471901 0.000000
0.720058 0.459724 0.000000
0.758297 0.447059 0.000000
0.791989 0.434363 0.000000
0.821653 0.421759 0.000000
0.847440 0.409369 0.000000
0.869749 0.397589 0.000000
0.889067 0.386389 0.000000
0.906279 0.376074 0.000000
0.921782 0.366735 0.000000
0.935882 0.357885 0.000000
0.948760 0.350134 0.000000
0.960632 0.343450 0.062867
0.971649 0.337743 0.087922
0.981933 0.333013 0.108492
0.991302 0.329503 0.126589
0.999695 0.326818 0.143160
1.000000 0.324834 0.158480
1.000000 0.323766 0.173251
1.000000 0.323308 0.187198
1.000000 0.323552 0.200473
0.000000 0.572808 0.000000
0.066926 0.572564 0.000000
0.121492 0.572259 0.000000
0.188357 0.571252 0.000000
0.255772 0.569726 0.000000
0.322026 0.567468 0.000000
0.386664 0.564446 0.000000
0.449683 0.560540 0.000000
0.510857 0.555718 0.000000
0.569879 0.549798 0.000000
0.625330 0.542016 0.000000
0.671687 0.528710 0.000000
0.714046 0.515129 0.000000
0.751736 0.500938 0.000000
0.785122 0.486580 0.000000
0.814511 0.472297 0.000000
0.840269 0.458259 0.000000
0.862791 0.444709 0.000000
0.882475 0.432074 0.000000
0.900237 0.420294 0.000000
0.916472 0.409522 0.000000
0.931212 0.399634 0.000000
0.944762 0.390570 0.044068
0.957122 0.382666 0.080598
0.968536 0.375647 0.102022
0.978973 0.369665 0.120943
0.988464 0.364660 0.137758
0.996948 0.360479 0.153323
1.000000 0.357153 0.168246
1.000000 0.354406 0.181918
1.000000 0.352514 0.195254
1.000000 0.351232 0.208042
0.009735 0.621790 0.000000
0.091493 0.621454 0.000000
0.134371 0.620966 0.000000
0.192935 0.619745 0.000000
0.255741 0.617792 0.000000
0.318090 0.615229 0.000000
0.379889 0.611810 0.000000
0.440070 0.607660 0.000000
0.499153 0.602625 0.000000
0.556634 0.597009 0.000000
0.612299 0.590814 0.000000
0.664424 0.582452 0.000000
0.706722 0.567956 0.000000
0.744411 0.552575 0.000000
0.777798 0.536919 0.000000
0.807279 0.521355 0.000000
0.833310 0.505943 0.000000
0.856138 0.491218 0.000000
0.876280 0.477089 0.000000
0.894560 0.463935 0.000000
0.911162 0.451850 0.000000
0.926329 0.440558 0.012970
0.940154 0.430396 0.070680
0.952880 0.421088 0.094911
0.964569 0.412879 0.114565
0.975341 0.405646 0.132235
0.985077 0.399420 0.148287
0.993774 0.394079 0.163668
1.000000 0.389502 0.178103
1.000000 0.385595 0.191745
1.000000 0.382544 0.204959
1.000000 0.380285 0.217899
0.081056 0.663783 0.000000
0.114748 0.663416 0.000000
0.148287 0.662837 0.000000
0.198550 0.661555 0.000000
0.256046 0.659602 0.000000
0.314397 0.656916 0.000000
0.372839 0.653590 0.000000
0.430457 0.649439 0.000000
0.487160 0.644495 0.000000
0.542535 0.638941 0.000000
0.596490 0.632746 0.000000
0.648890 0.626154 0.000000
0.683162 0.604211 0.000000
0.722011 0.589807 0.000000
0.756771 0.574640 0.000000
0.787808 0.559258 0.000000
0.815427 0.544060 0.000000
0.839872 0.529107 0.000000
0.861540 0.514641 0.000000
0.881315 0.501061 0.000000
0.899382 0.488228 0.000000
0.915892 0.476448 0.000122
0.931060 0.465461 0.066865
0.944915 0.455451 0.093812
0.957641 0.446357 0.114473
0.969207 0.438209 0.132876
0.979675 0.430915 0.149569
0.989014 0.424475 0.165347
0.997253 0.418952 0.180301
1.000000 0.414038 0.194491
1.000000 0.410101 0.208560
1.000000 0.406714 0.221592
0.106538 0.692531 0.000000
0.130312 0.692287 0.000000
0.157290 0.692195 0.000000
0.201663 0.691646 0.000000
0.253819 0.690669 0.000000
0.308415 0.689052 0.000000
0.363622 0.686488 0.000000
0.418372 0.682887 0.000000
0.472450 0.678126 0.000000
0.524987 0.672328 0.000000
0.576135 0.665553 0.000000
0.625696 0.657954 0.000000
0.673732 0.650233 0.000000
0.718196 0.640253 0.000000
0.751614 0.622919 0.000000
0.782010 0.606012 0.000000
0.809445 0.589319 0.000000
0.833982 0.573175 0.000000
0.855894 0.557641 0.000000
0.876005 0.543023 0.000000
0.894377 0.529351 0.000000
0.911223 0.516381 0.055970
0.926696 0.504540 0.088472
0.940856 0.493507 0.110567
0.953826 0.483467 0.129519
0.965606 0.474281 0.146700
0.976287 0.466072 0.162997
0.985748 0.458717 0.178561
0.994110 0.452064 0.192996
1.000000 0.446235 0.207248
1.000000 0.441138 0.220523
1.000000 0.436774 0.233524
0.130770 0.726650 0.000000
0.149783 0.726284 0.000000
0.171298 0.726131 0.000000
0.209262 0.725521 0.000000
0.256260 0.724361 0.000000
0.306889 0.722652 0.000000
0.358618 0.720058 0.000000
0.410407 0.716579 0.000000
0.461830 0.712032 0.000000
0.512352 0.706569 0.000000
0.561822 0.700160 0.000000
0.609918 0.693172 0.000000
0.656855 0.685847 0.000000
0.702907 0.678553 0.000000
0.745083 0.668849 0.000000
0.775967 0.651148 0.000000
0.803494 0.633509 0.000000
0.828122 0.616358 0.000000
0.850309 0.599725 0.000000
0.870634 0.584131 0.000000
0.889281 0.569451 0.030060
0.906401 0.555688 0.082002
0.922118 0.542870 0.106813
0.936584 0.530907 0.126162
0.949767 0.519890 0.143832
0.961761 0.509819 0.160433
0.972625 0.500572 0.176059
0.982300 0.492317 0.191104
0.990784 0.484810 0.205600
0.998138 0.478004 0.219272
1.000000 0.472084 0.232822
1.000000 0.466712 0.245518
0.152193 0.754788 0.000000
0.166629 0.754391 0.000000
0.184268 0.754116 0.000000
0.217441 0.753536 0.000000
0.259648 0.752468 0.000000
0.305791 0.750881 0.000000
0.353887 0.748440 0.000000
0.402594 0.745113 0.000000
0.451301 0.740932 0.000000
0.499702 0.735897 0.000000
0.547051 0.730037 0.000000
0.593652 0.723568 0.000000
0.639277 0.716793 0.000000
0.684199 0.710048 0.000000
0.728573 0.703487 0.000000
0.769192 0.694514 0.000000
0.797391 0.676417 0.000000
0.822263 0.658320 0.000000
0.844724 0.640864 0.000000
0.865446 0.624414 0.000000
0.884367 0.608881 0.070192
0.901793 0.594263 0.100069
0.917815 0.580652 0.122896
0.932464 0.567895 0.142184
0.945830 0.555962 0.158938
0.958007 0.544976 0.174380
0.968933 0.534752 0.189242
0.978698 0.525444 0.203647
0.987274 0.516808 0.217075
0.994751 0.508904 0.229984
1.000000 0.501701 0.242496
1.000000 0.495186 0.254643
0.171176 0.778592 0.000000
0.183047 0.778164 0.000000
0.197238 0.777798 0.000000
0.225711 0.776944 0.000000
0.262943 0.775662 0.000000
0.304997 0.773831 0.000000
0.348943 0.771328 0.000000
0.394385 0.768185 0.000000
0.440497 0.764279 0.000000
0.486305 0.759854 0.000000
0.532097 0.754788 0.000000
0.577234 0.749416 0.000000
0.621729 0.743709 0.000000
0.665858 0.737942 0.000000
0.709285 0.732174 0.000000
0.752255 0.726619 0.000000
0.791501 0.718441 0.000000
0.817044 0.699916 0.000000
0.839658 0.681422 0.000000
0.860441 0.663935 0.039185
0.879484 0.647456 0.088991
0.897032 0.631922 0.115572
0.913207 0.617395 0.136660
0.928069 0.603784 0.154635
0.941619 0.591089 0.171695
0.953948 0.579248 0.187076
0.965118 0.568139 0.201266
0.975067 0.557946 0.215183
0.983825 0.548547 0.228916
0.991485 0.539849 0.241703
0.998016 0.531945 0.254612
1.000000 0.524804 0.267185
0.189944 0.799527 0.000000
0.199252 0.799252 0.000000
0.211704 0.798917 0.000000
0.235935 0.798184 0.000000
0.268681 0.796963 0.000000
0.306462 0.795224 0.000000
0.346960 0.792905 0.000000
0.389319 0.790036 0.000000
0.432502 0.786557 0.000000
0.475990 0.782528 0.000000
0.519493 0.778012 0.000000
0.562768 0.773068 0.000000
0.605585 0.767910 0.000000
0.648096 0.762631 0.000000
0.690333 0.757412 0.000000
0.732082 0.752407 0.000000
0.773556 0.747524 0.000000
0.811826 0.740414 0.000000
0.835416 0.721889 0.002838
0.856413 0.703609 0.079896
0.875761 0.686275 0.108553
0.893462 0.669886 0.132265
0.909758 0.654536 0.152377
0.924712 0.640101 0.170260
0.938354 0.626551 0.186465
0.950744 0.613916 0.201968
0.961913 0.602075 0.216495
0.971954 0.591028 0.230045
0.980804 0.580743 0.243137
0.988464 0.571252 0.255924
0.995087 0.562402 0.268162
1.000000 0.554376 0.280400
0.207065 0.817197 0.000000
0.215061 0.816739 0.000000
0.218173 0.810086 0.000000
0.239597 0.809415 0.000000
0.269108 0.808408 0.000000
0.303319 0.807034 0.000000
0.340887 0.805264 0.000000
0.380255 0.802976 0.000000
0.421027 0.800168 0.000000
0.462287 0.796841 0.000000
0.503655 0.793118 0.000000
0.545129 0.789059 0.000000
0.586572 0.784848 0.000000
0.627832 0.780484 0.000000
0.668818 0.776211 0.000000
0.709499 0.771969 0.000000
0.750088 0.767880 0.000000
0.790280 0.763973 0.006348
0.828000 0.758297 0.050538
0.850248 0.740291 0.094453
0.870176 0.722591 0.121370
0.888426 0.705653 0.142580
0.905150 0.689631 0.162264
0.920531 0.674678 0.180728
0.934630 0.660639 0.198032
0.947387 0.647547 0.214542
0.958892 0.635279 0.230014
0.969116 0.623774 0.244785
0.978027 0.612909 0.258457
0.985779 0.602686 0.271244
0.992401 0.593103 0.283482
0.997925 0.584253 0.295445
0.222385 0.831907 0.048920
0.227848 0.830961 0.039307
0.235904 0.829892 0.029786
0.253086 0.828580 0.024506
0.278111 0.827115 0.021881
0.308629 0.825559 0.026856
0.342718 0.823880 0.030182
0.379187 0.821805 0.038270
0.417182 0.819333 0.045777
0.455848 0.816434 0.052308
0.495186 0.813169 0.056550
0.534783 0.809598 0.061585
0.574517 0.805936 0.067231
0.614252 0.802182 0.072541
0.653956 0.798489 0.079011
0.693538 0.794797 0.086610
0.732998 0.791287 0.094667
0.772183 0.787900 0.103304
0.811154 0.784604 0.112642
0.848356 0.780117 0.122499
0.868467 0.761685 0.144869
0.886595 0.743862 0.163943
0.903288 0.726864 0.180728
0.918608 0.710903 0.197604
0.932555 0.695979 0.214603
0.945312 0.681971 0.230472
0.956756 0.668849 0.245792
0.966888 0.656550 0.260685
0.975799 0.644953 0.274449
0.983459 0.634028 0.287633
0.990021 0.623682 0.299565
0.995544 0.613977 0.310979
0.240085 0.847898 0.108919
0.244877 0.847074 0.107179
0.251408 0.846220 0.104829
0.266056 0.845090 0.103182
0.287999 0.843809 0.102632
0.315190 0.842466 0.103548
0.346288 0.840909 0.105074
0.379706 0.839109 0.106874
0.414893 0.836942 0.108553
0.451301 0.834379 0.110567
0.488502 0.831540 0.112825
0.526146 0.828458 0.115236
0.564111 0.825284 0.118349
0.602289 0.822049 0.122347
0.640620 0.818814 0.126955
0.678889 0.815671 0.132418
0.717128 0.812680 0.138186
0.755276 0.809781 0.145388
0.793240 0.806943 0.152651
0.830961 0.804227 0.160220
0.867826 0.801114 0.168429
0.885679 0.782162 0.185733
0.902190 0.764248 0.201541
0.917357 0.747311 0.216800
0.931334 0.731441 0.232029
0.943969 0.716579 0.248020
0.955322 0.702632 0.263249
0.965393 0.689540 0.278050
0.974182 0.677150 0.291936
0.981720 0.665431 0.304723
0.988190 0.654292 0.316472
0.993591 0.643854 0.327825
0.258000 0.862760 0.146883
0.261723 0.862058 0.145144
0.267277 0.861295 0.143343
0.279850 0.860319 0.142214
0.299107 0.859190 0.141848
0.323369 0.858030 0.142611
0.351354 0.856687 0.143893
0.381933 0.855161 0.145449
0.414771 0.853269 0.147280
0.448768 0.851133 0.149294
0.483742 0.848753 0.151186
0.519524 0.846128 0.153658
0.555688 0.843412 0.156313
0.592248 0.840604 0.159854
0.628992 0.837797 0.163882
0.665797 0.834989 0.168368
0.702541 0.832120 0.173434
0.739193 0.829374 0.178561
0.775662 0.826596 0.184085
0.811948 0.823880 0.190127
0.848020 0.821286 0.196292
0.883970 0.818845 0.202853
0.900023 0.799619 0.217014
0.915038 0.781643 0.230716
0.928893 0.764736 0.244388
0.941588 0.748898 0.258030
0.952972 0.734035 0.272984
0.963134 0.719997 0.287236
0.972015 0.706630 0.300450
0.979767 0.694026 0.312749
0.986297 0.682002 0.324437
0.991821 0.671046 0.335485
0.271763 0.874662 0.172274
0.275425 0.874266 0.171664
0.280583 0.873899 0.171145
0.292119 0.873320 0.171054
0.309514 0.872557 0.171633
0.331487 0.871641 0.172824
0.356847 0.870512 0.174105
0.384894 0.869108 0.175692
0.414984 0.867491 0.176944
0.446662 0.865537 0.178439
0.479438 0.863371 0.180301
0.513207 0.861082 0.182376
0.547601 0.858701 0.185092
0.582422 0.856321 0.188388
0.617578 0.853910 0.192355
0.653071 0.851530 0.196872
0.688533 0.849180 0.201877
0.724056 0.846860 0.207156
0.759457 0.844633 0.212924
0.794827 0.842435 0.218997
0.830137 0.840452 0.225895
0.865324 0.838590 0.232975
0.900481 0.837064 0.240940
0.915770 0.818631 0.254124
0.929412 0.800870 0.267185
0.941894 0.784054 0.280003
0.953124 0.768093 0.292363
0.963073 0.753048 0.305547
0.971740 0.738796 0.318364
0.979217 0.725185 0.330022
0.985565 0.712581 0.341314
0.990875 0.701198 0.352056
0.290532 0.887785 0.203220
0.293523 0.887480 0.202640
0.297765 0.887114 0.201999
0.307805 0.886595 0.201938
0.323033 0.885954 0.202609
0.342596 0.885191 0.203616
0.365515 0.884276 0.205051
0.390997 0.883146 0.206546
0.418921 0.881773 0.208499
0.448341 0.880156 0.210300
0.479011 0.878355 0.212222
0.510674 0.876432 0.214542
0.543114 0.874418 0.217105
0.576287 0.872343 0.220462
0.609796 0.870298 0.224277
0.643671 0.868223 0.228397
0.677699 0.866178 0.233066
0.711757 0.864134 0.238071
0.745937 0.862181 0.243748
0.780026 0.860288 0.249546
0.814084 0.858488 0.255619
0.848081 0.856840 0.262150
0.881987 0.855436 0.269047
0.915953 0.854276 0.276402
0.931670 0.837888 0.292485
0.943694 0.820005 0.304295
0.954559 0.803006 0.315862
0.964172 0.786893 0.327062
0.972534 0.771572 0.338445
0.979644 0.757137 0.349706
0.985687 0.743801 0.360052
0.990692 0.731899 0.370245
0.306004 0.898711 0.227665
0.308446 0.898375 0.226871
0.312261 0.898100 0.226413
0.321202 0.897734 0.226658
0.334874 0.897276 0.227481
0.352544 0.896696 0.228946
0.373541 0.896025 0.230900
0.397253 0.895201 0.233005
0.423163 0.894163 0.235447
0.450721 0.892973 0.237980
0.479744 0.891630 0.240909
0.509545 0.890166 0.243687
0.540368 0.888609 0.247013
0.571954 0.886992 0.250919
0.604120 0.885466 0.255467
0.636683 0.883940 0.260594
0.669490 0.882444 0.266117
0.702358 0.880919 0.271641
0.735195 0.879362 0.276890
0.767910 0.877745 0.282139
0.800595 0.876219 0.287633
0.833341 0.874815 0.293431
0.866239 0.873686 0.300114
0.899229 0.872862 0.307439
0.932219 0.872435 0.315679
0.945892 0.855283 0.325841
0.956359 0.837339 0.336919
0.965698 0.820279 0.347753
0.973816 0.804074 0.357824
0.980713 0.788785 0.367651
0.986419 0.774777 0.377905
0.991119 0.762356 0.387640
0.327153 0.910521 0.258274
0.329076 0.910216 0.257542
0.332280 0.909972 0.257145
0.340093 0.909667 0.257511
0.352026 0.909270 0.258244
0.367651 0.908782 0.259678
0.386450 0.908171 0.261509
0.407752 0.907439 0.263462
0.431281 0.906554 0.265690
0.456489 0.905486 0.268070
0.483070 0.904295 0.270512
0.510887 0.903014 0.273075
0.539635 0.901640 0.276036
0.569146 0.900237 0.279454
0.599481 0.898894 0.283604
0.630243 0.897551 0.288029
0.661494 0.896269 0.293065
0.692805 0.894987 0.298161
0.724147 0.893645 0.303136
0.755612 0.892332 0.308110
0.787045 0.891051 0.313329
0.818601 0.889891 0.318853
0.850278 0.888945 0.324834
0.882017 0.888273 0.331487
0.913878 0.887877 0.339025
0.945800 0.887755 0.347173
0.958740 0.871214 0.355993
0.967559 0.852995 0.365576
0.975311 0.835813 0.374884
0.981933 0.819699 0.383703
0.987518 0.804837 0.392370
0.991974 0.791836 0.401770
0.347265 0.921050 0.286412
0.349248 0.920836 0.285985
0.352148 0.920684 0.285954
0.359106 0.920470 0.286473
0.369757 0.920195 0.287572
0.383764 0.919829 0.289158
0.400488 0.919371 0.290898
0.419806 0.918791 0.292973
0.441230 0.918059 0.295201
0.464118 0.917174 0.297398
0.488594 0.916167 0.299718
0.514244 0.915068 0.302129
0.540917 0.913878 0.304753
0.568688 0.912718 0.308080
0.597131 0.911589 0.311833
0.626246 0.910521 0.316167
0.655818 0.909453 0.320958
0.685634 0.908385 0.325902
0.715572 0.907317 0.330632
0.745602 0.906249 0.335363
0.775692 0.905180 0.340215
0.805966 0.904265 0.345464
0.836332 0.903471 0.351141
0.866789 0.902892 0.357336
0.897337 0.902525 0.363958
0.928008 0.902342 0.371374
0.958618 0.902403 0.379400
0.971099 0.886778 0.387213
0.978027 0.868284 0.395819
0.984192 0.851286 0.404364
0.989380 0.835721 0.412573
0.993622 0.822141 0.420996
0.368994 0.931121 0.315496
0.370764 0.930999 0.315282
0.373327 0.930877 0.315251
0.379187 0.930694 0.315526
0.388434 0.930388 0.316228
0.400336 0.930022 0.317235
0.414679 0.929442 0.317937
0.431159 0.928740 0.318669
0.449775 0.927855 0.319493
0.469947 0.926879 0.320104
0.491737 0.925750 0.320958
0.514885 0.924559 0.321935
0.539300 0.923369 0.323461
0.564996 0.922210 0.325628
0.591608 0.921080 0.328557
0.619074 0.920073 0.332219
0.647211 0.919158 0.336614
0.675593 0.918212 0.341070
0.704280 0.917266 0.345678
0.733028 0.916350 0.350103
0.761959 0.915435 0.354772
0.791043 0.914611 0.359655
0.820279 0.913909 0.364904
0.849638 0.913359 0.370581
0.879118 0.912993 0.377111
0.908782 0.912810 0.384161
0.938415 0.912779 0.391638
0.967834 0.912902 0.399817
0.980133 0.898436 0.407141
0.985595 0.880034 0.414771
0.990692 0.863767 0.423011
0.994873 0.849607 0.431434
0.383368 0.939025 0.334936
0.384955 0.938933 0.334783
0.387549 0.938872 0.335180
0.393042 0.938720 0.335729
0.401526 0.938537 0.336706
0.412604 0.938262 0.338018
0.425940 0.937865 0.339300
0.441260 0.937377 0.340581
0.458534 0.936767 0.341955
0.477607 0.936065 0.343603
0.498085 0.935271 0.345251
0.519921 0.934417 0.347112
0.542931 0.933532 0.349279
0.567102 0.932647 0.351995
0.592126 0.931792 0.355077
