其他预设/【232】美食博客调色预设124款/1.3D LUT预设（视频调色-PR-AE-PS-FCPX-达芬奇用）/Food Art #43.cube
# Created by Adobe Lightroom plugin Export LUT (1.17.0)
# www.johnrellis.com/lightroom/exportlut.htm
# Preset: Food Art #43
# Color profile: /Library/Application Support/Adobe/Color/Profiles/Recommended/AdobeRGB1998.icc
LUT_3D_SIZE 5
DOMAIN_MIN 0.000000 0.000000 0.000000
DOMAIN_MAX 0.903226 0.903226 0.903226
0.271855 0.189883 0.200412
0.447822 0.193057 0.217746
0.647456 0.217227 0.248478
0.841489 0.279423 0.297520
0.997314 0.360479 0.359930
0.317723 0.355383 0.228641
0.447578 0.347448 0.235996
0.643183 0.340032 0.264652
0.838102 0.371344 0.307164
0.997314 0.426490 0.370092
0.395026 0.566888 0.284794
0.471351 0.566125 0.288670
0.654383 0.575525 0.303380
0.834012 0.573175 0.334997
0.988769 0.586725 0.395056
0.465187 0.785946 0.344945
0.517357 0.785702 0.348363
0.655207 0.784451 0.359594
0.824369 0.784207 0.380224
0.980346 0.778683 0.443610
0.562158 0.958312 0.452369
0.593744 0.957427 0.455879
0.686244 0.952880 0.465614
0.820310 0.952178 0.495583
0.965148 0.951934 0.539269
0.302953 0.200229 0.346319
0.441413 0.213931 0.345495
0.632929 0.264439 0.359289
0.824918 0.317418 0.389166
0.986511 0.393530 0.433326
0.347234 0.344793 0.346990
0.453437 0.347478 0.353094
0.632776 0.358526 0.366705
0.823880 0.391089 0.393072
0.985290 0.449134 0.439338
0.410529 0.559350 0.368200
0.483803 0.557305 0.375463
0.644587 0.562646 0.383124
0.822324 0.571923 0.408118
0.981628 0.599176 0.461219
0.479164 0.780850 0.412543
0.532158 0.779873 0.420569
0.660060 0.779416 0.429236
0.821317 0.780453 0.445655
0.975311 0.782345 0.503410
0.584649 0.954498 0.510582
0.613123 0.953765 0.513451
0.701869 0.952758 0.526024
0.826627 0.951659 0.548821
0.965057 0.951995 0.585321
0.354894 0.223453 0.541466
0.451667 0.239811 0.539727
0.633539 0.270207 0.539208
0.819211 0.332525 0.550561
0.975982 0.444068 0.583490
0.401831 0.353643 0.537591
0.472999 0.356725 0.537133
0.636347 0.365881 0.541833
0.815915 0.412055 0.555444
0.972930 0.506126 0.596246
0.431373 0.555901 0.545586
0.495155 0.555962 0.546105
0.653407 0.571557 0.560571
0.812772 0.591424 0.576471
0.968048 0.637232 0.616083
0.490791 0.772854 0.561395
0.543267 0.769650 0.565789
0.675776 0.769375 0.587335
0.816953 0.775753 0.599115
0.964294 0.791714 0.638148
0.593164 0.949065 0.614954
0.631464 0.947814 0.626154
0.725216 0.945830 0.649653
0.834562 0.946258 0.662623
0.961425 0.948699 0.685389
0.406867 0.261326 0.747890
0.474830 0.272129 0.747097
0.632776 0.300877 0.747250
0.809751 0.343938 0.746242
0.968627 0.453590 0.745876
0.440772 0.370459 0.743984
0.495796 0.373907 0.744106
0.638117 0.388952 0.744106
0.807309 0.418952 0.743740
0.964904 0.508843 0.748714
0.474342 0.556085 0.742702
0.527794 0.561425 0.741665
0.658595 0.579034 0.741054
0.805478 0.593439 0.743069
0.959197 0.646448 0.760830
0.513603 0.763241 0.748257
0.560082 0.762356 0.747189
0.676814 0.764828 0.748562
0.817136 0.778714 0.760311
0.955901 0.800443 0.779965
0.605402 0.944305 0.763821
0.638209 0.943206 0.767330
0.726986 0.942046 0.777554
0.840421 0.942748 0.793179
0.957916 0.946777 0.806302
0.449165 0.312963 0.935515
0.497993 0.321813 0.934997
0.628199 0.351965 0.933715
0.789334 0.403388 0.931884
0.954742 0.474098 0.930327
0.477211 0.401617 0.933227
0.519951 0.407416 0.932830
0.639765 0.429267 0.931792
0.793484 0.470527 0.930114
0.953399 0.526268 0.929198
0.537621 0.585260 0.929015
0.578698 0.595148 0.928069
0.675502 0.608240 0.927245
0.805783 0.627314 0.926726
0.950896 0.654994 0.927947
0.578088 0.763577 0.928740
0.611536 0.767147 0.928069
0.703029 0.776883 0.926787
0.821561 0.790707 0.926635
0.950286 0.806058 0.930175
0.631098 0.937469 0.932250
0.656550 0.937591 0.932158
0.733669 0.938689 0.932525
0.840299 0.941314 0.934112
0.956054 0.948913 0.941253
