其他预设/【232】美食博客调色预设124款/1.3D LUT预设（视频调色-PR-AE-PS-FCPX-达芬奇用）/Food Art #9 ().cube
# Created by Adobe Lightroom plugin Export LUT (1.17.0)
# www.johnrellis.com/lightroom/exportlut.htm
# Preset: Food Art #9 (素锦印象)
# Color profile: /Library/Application Support/Adobe/Color/Profiles/Recommended/AdobeRGB1998.icc
LUT_3D_SIZE 8
DOMAIN_MIN 0.000000 0.000000 0.000000
DOMAIN_MAX 0.903226 0.903226 0.903226
0.000000 0.000000 0.000000
0.169223 0.000000 0.000000
0.552667 0.000000 0.000000
0.811063 0.000000 0.000000
0.950896 0.000000 0.000000
1.000000 0.000000 0.000000
1.000000 0.000000 0.155703
1.000000 0.151736 0.233494
0.000000 0.160342 0.000000
0.178164 0.175021 0.000000
0.537255 0.187655 0.000000
0.796963 0.128786 0.000000
0.941436 0.000000 0.000000
1.000000 0.000000 0.000000
1.000000 0.123781 0.154940
1.000000 0.207523 0.233280
0.000000 0.524407 0.000000
0.196323 0.521416 0.000000
0.522026 0.509636 0.000000
0.779385 0.475776 0.000000
0.927184 0.410681 0.000000
1.000000 0.362463 0.084565
1.000000 0.346136 0.197055
1.000000 0.352087 0.265751
0.000000 0.763149 0.000000
0.143862 0.758267 0.000000
0.478462 0.745174 0.000000
0.748013 0.733516 0.000000
0.911315 0.658656 0.000000
0.993500 0.578729 0.167147
1.000000 0.525963 0.242649
1.000000 0.496773 0.300694
0.000000 0.890074 0.000000
0.174929 0.886900 0.000000
0.428229 0.877195 0.053101
0.651453 0.862394 0.102876
0.854978 0.840452 0.141573
0.968017 0.763088 0.220310
1.000000 0.689265 0.288243
1.000000 0.639521 0.346166
0.193393 0.957183 0.232761
0.269352 0.957061 0.240757
0.420691 0.950439 0.246860
0.590906 0.939391 0.259098
0.759792 0.924315 0.277409
0.921416 0.907927 0.306188
1.000000 0.844999 0.361242
1.000000 0.779019 0.415167
0.338384 1.000000 0.354681
0.369451 0.999359 0.357702
0.454932 0.994873 0.360937
0.574548 0.987488 0.370825
0.705531 0.977325 0.385473
0.838743 0.965972 0.411109
0.966339 0.954467 0.446448
1.000000 0.904692 0.489906
0.456641 1.000000 0.463539
0.471595 1.000000 0.464515
0.522210 1.000000 0.469734
0.602716 1.000000 0.482673
0.690425 1.000000 0.484352
0.795224 1.000000 0.510582
0.898131 0.992584 0.543511
0.993164 0.983429 0.575982
0.000000 0.000000 0.226627
0.196017 0.000000 0.227787
0.532586 0.000000 0.250858
0.791897 0.000000 0.232395
0.935241 0.000000 0.235477
1.000000 0.000000 0.261112
1.000000 0.158816 0.295171
1.000000 0.251102 0.333135
0.000000 0.188388 0.228367
0.181765 0.163546 0.229831
0.529351 0.099825 0.228428
0.784665 0.000000 0.225437
0.929168 0.084840 0.235111
1.000000 0.161044 0.261082
1.000000 0.222507 0.292760
1.000000 0.280613 0.329992
0.000000 0.509667 0.238376
0.156741 0.508324 0.231296
0.514458 0.499214 0.221073
0.767361 0.464576 0.222751
0.914275 0.415839 0.240848
0.996063 0.385199 0.273411
1.000000 0.378820 0.310277
1.000000 0.391760 0.350774
0.000000 0.750423 0.231083
0.142702 0.747036 0.225925
0.474983 0.736568 0.225742
0.734035 0.718715 0.227268
0.893187 0.648707 0.256077
0.979034 0.581140 0.294316
1.000000 0.538903 0.333440
1.000000 0.518822 0.373877
0.000000 0.883268 0.270268
0.220798 0.879698 0.271366
0.439796 0.869596 0.272740
0.650416 0.853513 0.277714
0.846555 0.831968 0.286503
0.958404 0.760952 0.326116
1.000000 0.696315 0.370916
1.000000 0.654170 0.414282
0.260472 0.950530 0.339818
0.312139 0.948852 0.341100
0.442725 0.942779 0.344488
0.601312 0.932982 0.353948
0.762722 0.919707 0.368902
0.918669 0.905547 0.393683
1.000000 0.847166 0.435126
1.000000 0.787045 0.473671
0.383795 0.994507 0.422736
0.406500 0.993133 0.422004
0.482307 0.989166 0.425360
0.593164 0.982757 0.435920
0.716518 0.973754 0.450050
0.842191 0.963226 0.469612
0.963745 0.952331 0.496101
1.000000 0.905272 0.530449
0.492317 1.000000 0.511589
0.506615 1.000000 0.513542
0.552056 1.000000 0.518669
0.625849 1.000000 0.530846
0.713313 1.000000 0.544854
0.807675 0.999725 0.563378
0.902434 0.991455 0.586572
0.992187 0.982940 0.612360
0.000000 0.000000 0.591791
0.203372 0.000000 0.588830
0.532525 0.000000 0.576989
0.775235 0.000000 0.540917
0.915496 0.000000 0.504051
0.986297 0.320012 0.522118
1.000000 0.436347 0.553857
1.000000 0.482795 0.565209
0.000000 0.147494 0.583673
0.169284 0.145296 0.579431
0.521141 0.104738 0.569146
0.765957 0.113802 0.537835
0.907347 0.246891 0.513298
0.979461 0.383490 0.533074
1.000000 0.451453 0.550011
1.000000 0.493233 0.562951
0.000000 0.505730 0.565576
0.129091 0.499519 0.563287
0.504448 0.486885 0.555535
0.747402 0.480446 0.543999
0.890105 0.491615 0.543236
0.969421 0.504601 0.546044
1.000000 0.522210 0.554589
1.000000 0.544030 0.568383
0.000000 0.741543 0.524895
0.163821 0.738186 0.526726
0.497505 0.725887 0.541375
0.727779 0.712734 0.539849
0.873655 0.669795 0.544213
0.956573 0.639124 0.552880
1.000000 0.626215 0.565789
1.000000 0.624720 0.581811
0.107027 0.875090 0.487648
0.275120 0.870756 0.500053
0.513420 0.856382 0.545342
0.678187 0.844938 0.548150
0.842832 0.829618 0.549737
0.940551 0.778744 0.562646
0.998352 0.740597 0.580377
1.000000 0.719081 0.600641
0.316777 0.944182 0.496284
0.392828 0.940215 0.517571
0.546014 0.929076 0.567590
0.657252 0.921386 0.570184
0.783719 0.911559 0.575891
0.913237 0.901823 0.588830
0.987701 0.859800 0.611536
1.000000 0.821836 0.635645
0.460975 0.988220 0.552331
0.504692 0.984863 0.572107
0.591699 0.977722 0.604730
0.666682 0.972717 0.608453
0.759365 0.966064 0.615412
0.860777 0.958923 0.628992
0.961883 0.952422 0.650050
1.000000 0.917662 0.674647
0.581872 1.000000 0.628534
0.610040 1.000000 0.645106
0.647486 1.000000 0.654047
0.702968 1.000000 0.665156
0.767697 1.000000 0.673945
0.841703 0.994659 0.687770
0.917510 0.988891 0.704341
0.990478 0.983062 0.723171
0.000000 0.000000 0.806394
0.164034 0.000000 0.805020
0.472877 0.000000 0.795926
0.732723 0.000000 0.781796
0.891905 0.000000 0.714199
0.969329 0.315801 0.665736
1.000000 0.465309 0.664729
1.000000 0.579431 0.693874
0.000000 0.136477 0.801785
0.151644 0.133944 0.799557
0.471901 0.126802 0.790982
0.728725 0.127077 0.777951
0.886259 0.249973 0.715358
0.962921 0.391302 0.674067
1.000000 0.507073 0.675624
1.000000 0.605554 0.704494
0.000000 0.455329 0.784726
0.189181 0.459144 0.781827
0.488075 0.473335 0.773342
0.717800 0.476265 0.763729
0.868040 0.509239 0.724392
0.945861 0.568933 0.708522
0.992706 0.634424 0.721889
1.000000 0.692531 0.747127
0.000000 0.703120 0.764675
0.210636 0.701595 0.762692
0.502922 0.699672 0.756680
0.713069 0.700984 0.749508
0.844816 0.701900 0.740841
0.924773 0.713283 0.742245
0.979675 0.723781 0.745388
1.000000 0.736507 0.751949
0.189639 0.864408 0.707240
0.313695 0.859556 0.709377
0.530663 0.846159 0.719905
0.714748 0.832181 0.742000
0.835599 0.825467 0.744778
0.918700 0.807462 0.747860
0.974395 0.798276 0.753719
1.000000 0.795102 0.761318
0.372808 0.937743 0.663264
0.440558 0.935302 0.675593
0.587030 0.923430 0.706325
0.729519 0.910460 0.747738
0.817197 0.905638 0.752682
0.910063 0.901579 0.757748
0.970336 0.880156 0.767636
1.000000 0.863615 0.778744
0.499123 0.983459 0.665980
0.539727 0.980652 0.679438
0.644800 0.972107 0.718746
0.753872 0.962493 0.764889
0.815305 0.959258 0.768856
0.886046 0.955901 0.775509
0.960174 0.953277 0.786313
1.000000 0.931853 0.799771
0.616419 1.000000 0.707271
0.642023 1.000000 0.719570
0.711849 1.000000 0.754574
0.784726 0.994995 0.790402
0.828305 0.992462 0.795682
0.880308 0.989624 0.804349
0.935149 0.986633 0.815000
0.989014 0.983795 0.827726
0.000000 0.000000 0.912169
0.107271 0.000000 0.910613
0.401801 0.000000 0.904051
0.629358 0.000000 0.894072
0.835233 0.129763 0.882567
0.948394 0.323003 0.820157
0.998688 0.469734 0.774777
1.000000 0.583856 0.767788
0.000000 0.146273 0.906981
0.162509 0.154665 0.905913
0.415961 0.177249 0.899992
0.633509 0.216953 0.890227
0.832822 0.279149 0.879026
0.943969 0.397681 0.821592
0.994598 0.513970 0.781155
1.000000 0.611078 0.775479
0.221530 0.445258 0.892515
0.322911 0.460212 0.890105
0.481727 0.471168 0.884916
0.657404 0.487312 0.877165
0.826505 0.510094 0.867460
0.929076 0.560082 0.825345
0.981964 0.624231 0.799527
1.000000 0.683619 0.797116
0.266606 0.631739 0.877440
0.359136 0.639734 0.875090
0.547570 0.667231 0.868284
0.702388 0.693385 0.860777
0.823911 0.699245 0.855650
0.913787 0.715633 0.835752
0.968139 0.742489 0.825742
1.000000 0.773251 0.828763
0.326207 0.806882 0.860716
0.399481 0.807492 0.859709
0.564660 0.809506 0.855985
0.718593 0.814054 0.851957
0.826047 0.818479 0.849210
0.904448 0.822507 0.846311
0.958007 0.835050 0.851194
0.992981 0.845274 0.856168
0.420294 0.925475 0.819608
0.471626 0.922454 0.821256
0.598901 0.912840 0.826383
0.728969 0.902678 0.835386
0.828519 0.897093 0.845396
0.905180 0.898924 0.853361
0.959075 0.895598 0.860899
0.992370 0.894560 0.868070
0.543999 0.977142 0.786130
0.575677 0.974640 0.791562
0.663355 0.967498 0.808957
0.763027 0.959533 0.832792
0.847898 0.953887 0.857664
0.902556 0.953368 0.864378
0.958679 0.953826 0.871580
0.992432 0.942992 0.879881
0.645289 1.000000 0.788235
0.666133 1.000000 0.795010
0.726528 0.999237 0.815854
0.805051 0.992950 0.847379
0.872404 0.987457 0.877195
0.909422 0.986450 0.882933
0.949004 0.985473 0.889952
0.988190 0.984741 0.898405
0.000000 0.000000 0.967926
0.118044 0.000000 0.966644
0.357275 0.000000 0.961883
0.554162 0.155123 0.955016
0.733730 0.258946 0.945953
0.893980 0.362463 0.936065
0.983062 0.482521 0.891081
1.000000 0.594781 0.851987
0.043488 0.184085 0.962646
0.195926 0.193393 0.961456
0.383154 0.224277 0.957397
0.566033 0.275212 0.950774
0.738216 0.343023 0.942199
0.892515 0.422583 0.933135
0.979797 0.521965 0.891539
1.000000 0.619196 0.855406
0.343877 0.462043 0.950256
0.380713 0.465522 0.949187
0.486244 0.479072 0.945708
0.622187 0.503258 0.940215
0.761288 0.535515 0.933288
0.891539 0.576104 0.926604
0.971160 0.632563 0.895293
1.000000 0.693690 0.868009
0.440497 0.626093 0.938201
0.487343 0.638544 0.936095
0.610620 0.679622 0.930083
0.703731 0.697383 0.927123
0.798367 0.710719 0.924041
0.894438 0.726223 0.921202
0.962432 0.750942 0.902708
0.996094 0.782010 0.886259
0.473518 0.751461 0.926848
0.515679 0.757839 0.925689
0.625635 0.777646 0.922148
0.741329 0.803738 0.918303
0.824338 0.818967 0.916381
0.896574 0.824857 0.916381
0.955596 0.836912 0.908202
0.988800 0.855467 0.903441
0.522332 0.875364 0.918029
0.558740 0.876982 0.917998
0.651240 0.880644 0.916869
0.753292 0.886198 0.915923
0.837552 0.892668 0.915831
0.905303 0.900999 0.918395
0.954955 0.909514 0.921386
0.985077 0.921721 0.928618
0.602441 0.972442 0.903258
0.628931 0.970855 0.904387
0.699275 0.965576 0.906920
0.782162 0.959625 0.910918
0.856168 0.955413 0.916197
0.916747 0.954314 0.924773
0.960113 0.957061 0.931670
0.987427 0.956451 0.937926
0.689143 1.000000 0.876036
0.705501 1.000000 0.878843
0.754635 0.997559 0.887999
0.819059 0.992370 0.901854
0.880919 0.987854 0.917906
0.933745 0.985168 0.937346
0.961791 0.985779 0.942718
0.988647 0.986664 0.948363
0.000000 0.000000 0.997833
0.163088 0.078065 0.997345
0.337407 0.151766 0.994263
0.504326 0.231907 0.989319
0.662684 0.318975 0.982666
0.807767 0.412573 0.975219
0.932982 0.501122 0.968627
1.000000 0.594659 0.936492
0.156527 0.214450 0.993317
0.226200 0.226200 0.992859
0.365972 0.257206 0.990112
0.519066 0.307286 0.985290
0.669459 0.372747 0.978851
0.808194 0.445747 0.971588
0.929992 0.519005 0.965179
1.000000 0.599054 0.933898
0.379919 0.460761 0.983825
0.406012 0.465003 0.983124
0.483894 0.479164 0.980529
0.593591 0.505791 0.976471
0.710872 0.538964 0.971130
0.826352 0.581415 0.965820
0.932158 0.631128 0.962188
0.995972 0.687953 0.938170
0.554833 0.656153 0.971099
0.582208 0.667506 0.969512
0.628717 0.677577 0.967285
0.694301 0.689815 0.965179
0.771359 0.704158 0.962432
0.855100 0.725154 0.960449
0.937163 0.751247 0.959960
0.990234 0.781064 0.943389
0.570855 0.738155 0.963897
0.594537 0.744625 0.962646
0.666316 0.766964 0.959411
0.755032 0.799069 0.956176
0.813107 0.809232 0.955261
0.874449 0.818418 0.955169
0.939330 0.832364 0.956451
0.985321 0.855314 0.948028
0.604181 0.831540 0.958373
0.626795 0.835569 0.957885
0.691981 0.848112 0.956573
0.772457 0.866209 0.955657
0.846250 0.885374 0.955505
0.903685 0.900816 0.957519
0.950225 0.909880 0.960693
0.984070 0.921202 0.957855
0.660304 0.926360 0.957794
0.680262 0.927855 0.958068
0.733486 0.931334 0.958129
0.801328 0.936919 0.958892
0.865141 0.943023 0.959808
0.919768 0.950347 0.962036
0.960449 0.958587 0.966125
0.985687 0.966033 0.970092
0.722133 1.000000 0.953796
0.735775 0.999268 0.954040
0.783597 0.996521 0.956390
0.839231 0.992554 0.958618
0.893278 0.988861 0.961761
0.938293 0.986755 0.966552
0.970855 0.986877 0.973388
0.989654 0.988647 0.977630
0.108797 0.124727 1.000000
0.182742 0.141909 1.000000
0.315343 0.183474 1.000000
0.459236 0.248722 1.000000
0.600793 0.325597 1.000000
0.734798 0.411383 0.997192
0.856382 0.499702 0.991913
0.959289 0.580621 0.987823
0.191348 0.230411 1.000000
0.238132 0.240299 1.000000
0.346807 0.266331 1.000000
0.478035 0.312810 1.000000
0.612726 0.375830 1.000000
0.741176 0.448554 0.995300
0.858061 0.523491 0.990326
0.958679 0.595789 0.986603
0.366491 0.432868 1.000000
0.389105 0.438025 1.000000
0.453223 0.450416 1.000000
0.556420 0.485695 0.998047
0.662593 0.522118 0.994141
0.768124 0.563958 0.989899
0.869718 0.614496 0.986297
0.959564 0.666011 0.984100
0.552636 0.632837 0.991150
0.565332 0.636286 0.990845
0.599603 0.641871 0.989685
0.659998 0.656733 0.987884
0.732815 0.676020 0.985687
0.810025 0.698116 0.983490
0.888914 0.725978 0.982055
0.962707 0.758358 0.981933
0.614679 0.729854 0.984344
0.635279 0.738674 0.983703
0.688594 0.760922 0.981506
0.742153 0.778988 0.979889
0.789517 0.786679 0.979065
0.845640 0.798276 0.978515
0.907713 0.817044 0.979004
0.967651 0.844022 0.981109
0.641505 0.803861 0.980682
0.655756 0.807645 0.980133
0.701503 0.820798 0.978637
0.766354 0.841733 0.976959
0.836576 0.868620 0.975952
0.886290 0.884215 0.977356
0.934356 0.901488 0.980285
0.976623 0.921050 0.984070
0.690974 0.885161 0.979553
0.703212 0.887297 0.979309
0.742214 0.894591 0.978759
0.800626 0.907469 0.978515
0.863218 0.923827 0.979004
0.919463 0.942321 0.980957
0.958465 0.957244 0.984283
0.983001 0.963928 0.986816
0.757595 0.960052 0.982147
0.766842 0.960632 0.982116
0.798459 0.963043 0.982269
0.846555 0.967498 0.983032
0.896788 0.972992 0.984344
0.939757 0.978882 0.986236
0.971374 0.984527 0.988678
0.989624 0.989105 0.991028
