其他预设/【232】美食博客调色预设124款/1.3D LUT预设（视频调色-PR-AE-PS-FCPX-达芬奇用）/Food Art #39.cube
# Created by Adobe Lightroom plugin Export LUT (1.17.0)
# www.johnrellis.com/lightroom/exportlut.htm
# Preset: Food Art #39
# Color profile: /Library/Application Support/Adobe/Color/Profiles/Recommended/AdobeRGB1998.icc
LUT_3D_SIZE 8
DOMAIN_MIN 0.000000 0.000000 0.000000
DOMAIN_MAX 0.903226 0.903226 0.903226
0.155550 0.143252 0.228092
0.206455 0.138186 0.228244
0.318029 0.153506 0.236362
0.425696 0.176394 0.248142
0.537743 0.216861 0.265995
0.657984 0.265476 0.286412
0.782193 0.324407 0.314183
0.899779 0.401709 0.362066
0.165438 0.193027 0.229984
0.221988 0.196414 0.232914
0.323278 0.197635 0.240421
0.427802 0.213321 0.252201
0.538689 0.246250 0.269169
0.657404 0.288884 0.288579
0.780667 0.343603 0.315984
0.898650 0.417273 0.364446
0.221073 0.294347 0.246342
0.254154 0.295567 0.248295
0.342504 0.300053 0.254582
0.441108 0.306615 0.265324
0.548913 0.328466 0.279789
0.665248 0.362524 0.297765
0.787198 0.409979 0.326574
0.902190 0.474189 0.378973
0.287968 0.402441 0.269200
0.309239 0.403479 0.270603
0.374304 0.408270 0.275303
0.467201 0.420996 0.284276
0.571008 0.440162 0.296696
0.679896 0.466529 0.314183
0.793912 0.504021 0.345006
0.904204 0.557000 0.403906
0.351995 0.530602 0.294072
0.368444 0.531792 0.295140
0.421393 0.536675 0.299229
0.500938 0.546715 0.306737
0.593042 0.560296 0.318120
0.693812 0.580560 0.336767
0.800961 0.610163 0.373388
0.906676 0.654475 0.444373
0.415137 0.668452 0.326665
0.429358 0.670832 0.328496
0.473457 0.674189 0.333074
0.541405 0.680629 0.342260
0.623529 0.689937 0.356329
0.714290 0.702632 0.377508
0.812436 0.722225 0.420172
0.911315 0.755612 0.502586
0.496681 0.801114 0.393378
0.507042 0.801968 0.395575
0.540887 0.803555 0.402350
0.595880 0.807218 0.415381
0.665126 0.812650 0.435309
0.743862 0.820584 0.463752
0.827848 0.830533 0.501305
0.916075 0.848814 0.573571
0.606256 0.914672 0.525444
0.613214 0.914946 0.527947
0.637201 0.916075 0.536675
0.678126 0.918608 0.553582
0.729732 0.920378 0.573938
0.793179 0.925353 0.606622
0.861662 0.931518 0.646632
0.930724 0.938170 0.691676
0.154665 0.142245 0.246128
0.210269 0.140230 0.248478
0.316442 0.172824 0.256870
0.422065 0.205875 0.270603
0.534295 0.238254 0.285374
0.653346 0.277989 0.302953
0.777554 0.332067 0.328862
0.896117 0.407782 0.375708
0.173342 0.192264 0.250706
0.228244 0.197848 0.253849
0.323033 0.212863 0.262242
0.425635 0.233310 0.273167
0.536431 0.262181 0.287510
0.654231 0.299413 0.304723
0.776852 0.350347 0.330510
0.894987 0.422614 0.377844
0.233677 0.292241 0.262913
0.269932 0.293370 0.267674
0.344427 0.299535 0.272587
0.439673 0.311315 0.282322
0.546532 0.334356 0.295384
0.661524 0.366888 0.312383
0.781888 0.412604 0.339879
0.898009 0.477150 0.391455
0.297948 0.399939 0.283268
0.320134 0.400977 0.285832
0.379492 0.406531 0.290043
0.465400 0.417731 0.297551
0.565820 0.437201 0.309270
0.674067 0.464576 0.326238
0.788479 0.503197 0.356817
0.900237 0.558282 0.415686
0.359014 0.528771 0.307469
0.374365 0.529808 0.308324
0.424781 0.534356 0.311955
0.500816 0.543389 0.319005
0.590417 0.556512 0.329686
0.690791 0.578241 0.348547
0.798093 0.609552 0.385657
0.904051 0.655268 0.455970
0.419074 0.665919 0.339117
0.432136 0.666896 0.340520
0.475013 0.670436 0.345068
0.541833 0.677485 0.354040
0.623163 0.687678 0.368444
0.713436 0.701289 0.389990
0.810880 0.721675 0.432624
0.909422 0.755703 0.513359
0.499489 0.798123 0.405035
0.509178 0.798337 0.406714
0.542504 0.800320 0.413367
0.596979 0.804746 0.426764
0.665675 0.810880 0.446784
0.743343 0.818906 0.474403
0.826139 0.828641 0.510613
0.913970 0.847471 0.580926
0.608301 0.912993 0.534966
0.615290 0.913420 0.537652
0.639002 0.914733 0.546288
0.679500 0.917479 0.562890
0.732540 0.920958 0.586297
0.794430 0.925414 0.616754
0.861601 0.931090 0.654353
0.930022 0.937591 0.697475
0.176547 0.145480 0.293584
0.221530 0.153323 0.294438
0.323735 0.178805 0.298192
0.426764 0.215793 0.307134
0.536797 0.254917 0.323827
0.655116 0.298222 0.345495
0.778042 0.351659 0.373754
0.894926 0.430823 0.423865
0.214603 0.201266 0.295018
0.249485 0.207797 0.296391
0.331090 0.220096 0.300725
0.430213 0.246616 0.310613
0.539025 0.279301 0.326940
0.655940 0.317479 0.346990
0.777829 0.368688 0.375372
0.894530 0.445167 0.426551
0.254337 0.292088 0.303136
0.284398 0.294713 0.304875
0.360204 0.308598 0.313176
0.446265 0.321813 0.321111
0.550439 0.346502 0.335485
0.663355 0.379370 0.354192
0.781735 0.426215 0.384131
0.895842 0.495277 0.439063
0.310155 0.400366 0.318334
0.332158 0.401892 0.320745
0.392767 0.409766 0.328008
0.471962 0.421241 0.335302
0.569604 0.442725 0.348516
0.676112 0.472145 0.368139
0.788846 0.513664 0.401953
0.898589 0.572992 0.463600
0.366552 0.528527 0.342321
0.383886 0.529839 0.344610
0.435431 0.535332 0.351110
0.507469 0.544976 0.358404
0.593774 0.558709 0.369726
0.691981 0.581781 0.390723
0.797299 0.616052 0.431128
0.902007 0.664576 0.501183
0.426551 0.665461 0.376562
0.441230 0.666316 0.379309
0.485115 0.669459 0.386816
0.548241 0.676204 0.395789
0.626123 0.686336 0.410376
0.713039 0.700160 0.432197
0.808957 0.723262 0.475624
0.907439 0.760891 0.555047
0.509392 0.797635 0.444953
0.521263 0.797604 0.449042
0.554498 0.799008 0.457343
0.605371 0.803128 0.469581
0.670588 0.809384 0.488228
0.745632 0.818021 0.514824
0.826261 0.829007 0.550072
0.913481 0.850248 0.617731
0.616693 0.911711 0.570031
0.624445 0.911620 0.573816
0.646754 0.912840 0.581445
0.685847 0.916075 0.597284
0.736690 0.919768 0.618433
0.796902 0.924712 0.646693
0.862577 0.930846 0.681544
0.929870 0.937896 0.721523
0.210391 0.159548 0.353399
0.247318 0.169009 0.354009
0.335607 0.193149 0.356603
0.434730 0.222202 0.362829
0.542077 0.259068 0.378729
0.657740 0.301488 0.402502
0.777462 0.361120 0.435370
0.891142 0.451698 0.490730
0.249699 0.215610 0.354162
0.275425 0.219760 0.354925
0.347051 0.232425 0.358190
0.438941 0.251621 0.365087
0.544915 0.283238 0.381598
0.659052 0.322789 0.405005
0.777554 0.380133 0.438331
0.890684 0.467689 0.495094
0.287633 0.299443 0.360601
0.311162 0.303532 0.361761
0.373297 0.314092 0.366522
0.454932 0.326757 0.374578
0.556481 0.353124 0.391882
0.667231 0.389746 0.416083
0.782315 0.445289 0.453620
0.892973 0.518090 0.510277
0.328130 0.402960 0.374731
0.346960 0.404852 0.376196
0.403510 0.413397 0.382513
0.489479 0.435615 0.398901
0.577722 0.451881 0.410620
0.678614 0.482307 0.433356
0.787259 0.527703 0.471412
0.895262 0.589807 0.532708
0.378058 0.529992 0.401251
0.393927 0.531060 0.402747
0.443641 0.537133 0.409125
0.518700 0.551293 0.422431
0.600702 0.564782 0.435096
0.694881 0.589258 0.459419
0.796719 0.625971 0.500999
0.899138 0.676600 0.567803
0.435187 0.666865 0.438514
0.449836 0.668727 0.441535
0.494453 0.671565 0.449500
0.560754 0.678767 0.464973
0.633631 0.688930 0.479469
0.715267 0.702449 0.499886
0.808164 0.727993 0.542870
0.905028 0.767300 0.614801
0.515099 0.797421 0.503014
0.526787 0.797818 0.506676
0.563775 0.799344 0.518853
0.617487 0.803098 0.536584
0.678767 0.809751 0.553979
0.749447 0.818601 0.577447
0.826078 0.829587 0.607446
0.912139 0.852903 0.669154
0.620233 0.912078 0.617426
0.628290 0.912230 0.621118
0.653925 0.912688 0.632685
0.692500 0.914794 0.648157
0.741146 0.918730 0.666407
0.799252 0.924071 0.691066
0.863279 0.930632 0.721431
0.929473 0.938231 0.756558
0.255863 0.184207 0.435767
0.283757 0.191257 0.436561
0.359075 0.210880 0.439429
0.452125 0.236393 0.445869
0.550011 0.265812 0.457496
0.662013 0.307195 0.484230
0.779416 0.367773 0.519249
0.891691 0.459602 0.570642
0.283665 0.231022 0.436744
0.305852 0.234958 0.437964
0.370397 0.246555 0.441230
0.456916 0.264591 0.447822
0.552575 0.289311 0.459907
0.663722 0.328496 0.486824
0.780026 0.387091 0.522148
0.891508 0.475502 0.574426
0.321630 0.316197 0.443488
0.341405 0.319890 0.444709
0.394476 0.326818 0.448676
0.471992 0.338872 0.456733
0.562310 0.357549 0.469093
0.669154 0.392859 0.495521
0.781613 0.448219 0.532616
0.890684 0.525170 0.586725
0.352575 0.415015 0.458900
0.369635 0.417212 0.460182
0.421820 0.425483 0.465705
0.497078 0.440040 0.477058
0.582391 0.457008 0.490059
0.681331 0.489845 0.515496
0.786526 0.536431 0.553277
0.891630 0.598413 0.608911
0.391241 0.532555 0.482765
0.405951 0.534112 0.484230
0.452827 0.540185 0.489937
0.524926 0.553826 0.502708
0.612909 0.578973 0.526604
0.698146 0.597528 0.544305
0.794705 0.632624 0.581262
0.895628 0.681636 0.638727
0.442481 0.665126 0.520958
0.455634 0.666072 0.522667
0.498238 0.669306 0.528771
0.562860 0.677241 0.541711
0.637964 0.690944 0.560967
0.716732 0.705348 0.580926
0.807279 0.732113 0.619623
0.902708 0.770596 0.680018
0.520378 0.796384 0.581994
0.531029 0.796628 0.584283
0.565911 0.798001 0.592767
0.619318 0.801877 0.607935
0.681147 0.809018 0.625910
0.749844 0.818448 0.646326
0.824735 0.829801 0.671962
0.910643 0.854582 0.726070
0.621241 0.910674 0.679316
0.628656 0.910765 0.681788
0.653223 0.911345 0.690272
0.692836 0.914061 0.704707
0.741024 0.917662 0.720363
0.798581 0.923278 0.741115
0.862242 0.930144 0.766690
0.928435 0.938079 0.796201
0.295171 0.208927 0.559869
0.318517 0.214084 0.560693
0.385382 0.229343 0.563317
0.473701 0.252049 0.570001
0.569085 0.280827 0.580377
0.667353 0.316503 0.594446
0.780301 0.377630 0.627863
0.891295 0.471077 0.672694
0.313603 0.248325 0.559869
0.333593 0.251377 0.560754
0.393713 0.261723 0.563989
0.477607 0.279118 0.570703
0.570764 0.304051 0.581353
0.668147 0.336980 0.595727
0.780453 0.396246 0.629541
0.890929 0.486030 0.675013
0.346410 0.334081 0.566949
0.362585 0.335790 0.567926
0.414466 0.342229 0.571496
0.490639 0.354559 0.578820
0.579065 0.374090 0.589441
0.673640 0.401587 0.603876
0.782559 0.457069 0.638056
0.890745 0.535424 0.685176
0.375128 0.435157 0.582300
0.390845 0.437079 0.583032
0.440436 0.444587 0.586969
0.511894 0.457099 0.595422
0.595117 0.474586 0.606683
0.684810 0.498268 0.621027
0.787778 0.544335 0.654749
0.891905 0.606744 0.702174
0.410132 0.549889 0.603265
0.424140 0.551415 0.604303
0.469429 0.557397 0.608301
0.537865 0.569360 0.616693
0.615290 0.584771 0.629297
0.699062 0.603326 0.644221
0.794461 0.638117 0.675807
0.893980 0.685206 0.722316
0.454322 0.670924 0.631159
0.467140 0.672206 0.632746
0.507652 0.675929 0.636805
0.568048 0.683345 0.644984
0.640131 0.695857 0.658991
0.724483 0.718563 0.685908
0.808011 0.738033 0.709804
0.900816 0.772457 0.754147
0.525200 0.797024 0.680842
0.535576 0.797665 0.682582
0.568994 0.799405 0.687831
0.619654 0.803433 0.697414
0.680568 0.810666 0.710750
0.751034 0.821836 0.730251
0.825315 0.833280 0.750668
0.910948 0.858000 0.793393
0.623255 0.910613 0.757015
0.630274 0.910735 0.758572
0.653590 0.911498 0.763790
0.690883 0.913817 0.772732
0.739193 0.917540 0.784512
0.796689 0.923095 0.800168
0.861234 0.930449 0.820706
0.928161 0.938750 0.844144
0.318791 0.235660 0.722133
0.339635 0.239933 0.723323
0.401526 0.253269 0.725490
0.486305 0.275059 0.729946
0.580041 0.305608 0.736446
0.677790 0.344854 0.745418
0.778164 0.392676 0.756924
0.887480 0.482734 0.787625
0.330938 0.268864 0.721004
0.349981 0.271946 0.722042
0.407630 0.282139 0.724544
0.489265 0.300237 0.728817
0.581201 0.327611 0.735409
0.677699 0.363745 0.744198
0.777035 0.408759 0.755459
0.885832 0.494484 0.786679
0.357977 0.352361 0.726040
0.374273 0.354131 0.726680
0.425605 0.361364 0.728786
0.501152 0.375525 0.733303
0.588861 0.397284 0.739590
0.682643 0.428321 0.748745
0.779873 0.468299 0.760922
0.887144 0.544121 0.794064
0.391333 0.457679 0.736049
0.406134 0.459602 0.736019
0.452888 0.466407 0.737270
0.521904 0.478676 0.742123
0.603906 0.497353 0.748836
0.692744 0.522362 0.758541
0.785336 0.552758 0.771054
0.889128 0.613214 0.804654
0.430060 0.571832 0.749844
0.443122 0.573327 0.749844
0.485786 0.579278 0.750851
0.548058 0.588952 0.753872
0.621546 0.601770 0.760006
0.704128 0.620203 0.769802
0.791531 0.642695 0.782712
0.891997 0.690272 0.817380
0.479957 0.689784 0.769589
0.491066 0.690944 0.770077
0.527337 0.694942 0.771817
0.582269 0.701778 0.775479
0.648127 0.710872 0.781491
0.723964 0.724514 0.792264
0.805875 0.741451 0.806241
0.898955 0.774838 0.837156
0.537560 0.802121 0.795163
0.547082 0.802884 0.795987
0.577081 0.804807 0.798001
0.622797 0.808621 0.802121
0.680659 0.814328 0.808530
0.749355 0.824063 0.819883
0.829404 0.841398 0.840848
0.910887 0.860594 0.864317
0.622980 0.909667 0.839384
0.629664 0.909972 0.840269
0.653071 0.911772 0.844083
0.689601 0.914336 0.849393
0.737972 0.918181 0.856962
0.795773 0.923796 0.867277
0.861357 0.931579 0.881651
0.929076 0.940276 0.898070
0.333837 0.272587 0.882017
0.352544 0.276432 0.882536
0.409644 0.289433 0.883177
0.491096 0.312871 0.885344
0.583978 0.347234 0.888334
0.682460 0.392035 0.892210
0.783780 0.446998 0.897307
0.884031 0.504387 0.903075
0.343084 0.300542 0.881498
0.360876 0.303807 0.881987
0.415564 0.314977 0.882841
0.494850 0.336248 0.884794
0.586450 0.368109 0.887846
0.683803 0.410437 0.891814
0.784146 0.462257 0.896727
0.883513 0.516655 0.902647
0.368658 0.378271 0.882109
0.384222 0.380743 0.882475
0.433692 0.389502 0.883055
0.508446 0.407752 0.885924
0.596094 0.434699 0.888731
0.690333 0.471168 0.892302
0.787442 0.514061 0.897459
0.884184 0.560143 0.903716
0.407752 0.483345 0.884245
0.421424 0.485725 0.884733
0.464973 0.493355 0.885557
0.532525 0.508141 0.887755
0.613611 0.529656 0.890837
0.701900 0.557122 0.894835
0.793942 0.589593 0.900237
0.886687 0.623590 0.907073
0.457252 0.599115 0.890898
0.468788 0.601007 0.891051
0.505150 0.605951 0.890806
0.559808 0.612757 0.890684
0.632807 0.627771 0.893797
0.714595 0.647303 0.898161
0.801602 0.671015 0.904326
0.890929 0.698085 0.912352
0.515557 0.714900 0.900328
0.524559 0.715816 0.900145
0.554131 0.718898 0.899931
0.599817 0.723110 0.900084
0.658747 0.728969 0.901030
0.732143 0.741146 0.905333
0.814969 0.760037 0.913054
0.899748 0.781247 0.922179
0.580652 0.823117 0.913085
0.587488 0.823575 0.913085
0.610559 0.825101 0.913298
0.648798 0.828031 0.914244
0.699947 0.832334 0.916014
0.761898 0.838560 0.919219
0.834653 0.849393 0.925658
0.911803 0.863554 0.934234
0.647639 0.917632 0.928740
0.652949 0.917815 0.928862
0.671382 0.918639 0.929473
0.703487 0.920439 0.930938
0.747097 0.923156 0.933318
0.800900 0.927184 0.936980
0.863890 0.933410 0.942992
0.933532 0.943999 0.953338
