其他预设/【232】美食博客调色预设124款/1.3D LUT预设（视频调色-PR-AE-PS-FCPX-达芬奇用）/Food Art #71.cube
# Created by Adobe Lightroom plugin Export LUT (1.17.0)
# www.johnrellis.com/lightroom/exportlut.htm
# Preset: Food Art #71
# Color profile: /Library/Application Support/Adobe/Color/Profiles/Recommended/AdobeRGB1998.icc
LUT_3D_SIZE 5
DOMAIN_MIN 0.000000 0.000000 0.000000
DOMAIN_MAX 0.903226 0.903226 0.903226
0.000000 0.000000 0.000000
0.255650 0.000000 0.000519
0.504143 0.000000 0.000000
0.748257 0.000000 0.013733
0.963897 0.000000 0.089235
0.078157 0.193790 0.008331
0.259678 0.182986 0.001556
0.500084 0.169741 0.000000
0.745418 0.177249 0.011810
0.965026 0.203525 0.090425
0.154208 0.425879 0.003693
0.291905 0.423041 0.000000
0.511376 0.425849 0.000000
0.742947 0.443183 0.000000
0.958495 0.453712 0.076997
0.221958 0.689815 0.000000
0.329320 0.689296 0.000000
0.530724 0.687861 0.000000
0.741085 0.687465 0.000000
0.953399 0.692226 0.019684
0.287327 0.926970 0.000000
0.364660 0.925933 0.000000
0.538293 0.920897 0.000000
0.738735 0.920775 0.001709
0.942687 0.920684 0.068330
0.086244 0.000000 0.196719
0.257694 0.000000 0.193393
0.493324 0.000000 0.203250
0.733547 0.000000 0.213107
0.956054 0.000000 0.227787
0.113008 0.187289 0.193118
0.267674 0.180972 0.195865
0.492073 0.168551 0.202182
0.732967 0.172335 0.211398
0.955596 0.205325 0.226780
0.174075 0.418921 0.202029
0.296818 0.414160 0.201266
0.501244 0.412390 0.199741
0.732448 0.433967 0.204196
0.954253 0.453162 0.222690
0.230808 0.684810 0.200992
0.332403 0.683589 0.200076
0.529473 0.682490 0.197421
0.737911 0.682673 0.193851
0.951049 0.690822 0.214817
0.302220 0.924498 0.213596
0.374701 0.923552 0.213321
0.545373 0.922301 0.214511
0.741756 0.920989 0.218021
0.943450 0.920867 0.228336
0.181430 0.000000 0.403571
0.304173 0.000000 0.400610
0.503593 0.000000 0.395148
0.735561 0.000000 0.414618
0.953033 0.000000 0.427741
0.196902 0.195224 0.396948
0.307805 0.186618 0.394934
0.503807 0.168551 0.393866
0.732876 0.168643 0.411902
0.951843 0.233646 0.430518
0.222568 0.417212 0.394293
0.320043 0.413764 0.392828
0.518029 0.422065 0.402197
0.732265 0.431708 0.409308
0.948913 0.466224 0.433783
0.258122 0.676936 0.408698
0.344610 0.673610 0.406622
0.532036 0.673487 0.407874
0.735897 0.676539 0.409400
0.945678 0.691493 0.431586
0.319524 0.919188 0.417182
0.393896 0.918364 0.421241
0.565026 0.916136 0.434516
0.748257 0.915465 0.436439
0.941497 0.916655 0.443366
0.262608 0.000000 0.641444
0.352819 0.000000 0.640284
0.538994 0.000000 0.638544
0.739315 0.000000 0.634119
0.951080 0.000000 0.642359
0.267979 0.198734 0.636530
0.354101 0.192874 0.636042
0.536858 0.179232 0.634272
0.736263 0.168460 0.630426
0.948363 0.234226 0.641260
0.277348 0.436072 0.631922
0.357244 0.433448 0.630243
0.534874 0.430488 0.628016
0.732723 0.429572 0.626001
0.944305 0.473091 0.644373
0.291020 0.673762 0.630701
0.364904 0.671473 0.628779
0.537896 0.670283 0.627771
0.743557 0.682155 0.638087
0.940398 0.700984 0.653712
0.342443 0.914641 0.638880
0.409369 0.913542 0.640070
0.572473 0.911803 0.645747
0.759487 0.910887 0.658076
0.939055 0.913573 0.663294
0.306401 0.000000 0.890013
0.377173 0.000000 0.889525
0.544640 0.000000 0.888548
0.739559 0.000000 0.886931
0.940459 0.094514 0.885313
0.314488 0.220005 0.888090
0.382269 0.218570 0.887724
0.546471 0.218051 0.886870
0.739467 0.225498 0.885222
0.939117 0.251133 0.884092
0.337591 0.454505 0.885130
0.404608 0.458167 0.884306
0.558160 0.461677 0.883268
0.742184 0.466255 0.882109
0.936309 0.479438 0.882536
0.350439 0.681025 0.884581
0.413581 0.682216 0.883757
0.569879 0.687404 0.882200
0.751766 0.697749 0.881529
0.934051 0.706752 0.884001
0.371191 0.908080 0.886687
0.427863 0.907744 0.886290
0.579553 0.907683 0.885924
0.757717 0.908690 0.886046
0.935210 0.916014 0.892821
