其他预设/【232】美食博客调色预设124款/1.3D LUT预设（视频调色-PR-AE-PS-FCPX-达芬奇用）/Food Art #69.cube
# Created by Adobe Lightroom plugin Export LUT (1.17.0)
# www.johnrellis.com/lightroom/exportlut.htm
# Preset: Food Art #69
# Color profile: /Library/Application Support/Adobe/Color/Profiles/Recommended/AdobeRGB1998.icc
LUT_3D_SIZE 5
DOMAIN_MIN 0.000000 0.000000 0.000000
DOMAIN_MAX 0.903226 0.903226 0.903226
0.000000 0.000000 0.000000
0.080110 0.125643 0.094911
0.295445 0.235966 0.180850
0.570489 0.333379 0.259403
0.858885 0.452522 0.361089
0.000000 0.239811 0.129763
0.105653 0.268620 0.158694
0.320012 0.318395 0.213657
0.589044 0.387121 0.275151
0.868284 0.500328 0.381811
0.148898 0.451240 0.244633
0.231601 0.459937 0.253269
0.429908 0.493080 0.283268
0.656001 0.531304 0.327123
0.885008 0.624323 0.443519
0.391791 0.669398 0.343114
0.439399 0.674250 0.350866
0.574975 0.688533 0.378332
0.743557 0.712276 0.429389
0.913756 0.776333 0.550317
0.698695 0.873716 0.552636
0.719265 0.875395 0.560266
0.779873 0.879789 0.583673
0.870542 0.895781 0.635309
0.957031 0.919951 0.705196
0.000000 0.069520 0.160861
0.058137 0.144442 0.189914
0.298161 0.263249 0.243839
0.567895 0.348913 0.297459
0.852995 0.462196 0.390600
0.000000 0.244785 0.208408
0.109773 0.277470 0.227695
0.326574 0.333196 0.261967
0.586938 0.396429 0.309483
0.860075 0.505486 0.407538
0.166842 0.451484 0.277592
0.248539 0.461189 0.287297
0.426215 0.488563 0.310826
0.650660 0.530968 0.354376
0.882444 0.628809 0.468055
0.404211 0.668360 0.370367
0.453590 0.673274 0.380224
0.582238 0.687312 0.406012
0.743801 0.711177 0.453223
0.913024 0.777676 0.568170
0.703883 0.872526 0.569360
0.723659 0.874266 0.576471
0.787045 0.882078 0.603571
0.873167 0.897063 0.650538
0.957733 0.921050 0.716945
0.000000 0.130312 0.295293
0.074800 0.182132 0.303624
0.315618 0.276463 0.328130
0.584009 0.358618 0.379004
0.856962 0.478035 0.470619
0.000000 0.275731 0.312230
0.143618 0.296574 0.319188
0.349310 0.345495 0.343084
0.603174 0.407874 0.391485
0.862913 0.519585 0.484565
0.204776 0.457374 0.357122
0.276188 0.467262 0.365057
0.458259 0.502159 0.396002
0.665278 0.543633 0.437995
0.882658 0.636439 0.533593
0.422980 0.666651 0.443671
0.469703 0.669886 0.451179
0.599145 0.686580 0.479652
0.749996 0.712734 0.521447
0.913237 0.779934 0.616907
0.706905 0.870024 0.613519
0.728054 0.872313 0.621302
0.787808 0.880461 0.643305
0.872038 0.895720 0.684016
0.956420 0.920256 0.743587
0.000000 0.205600 0.434791
0.166110 0.236210 0.441505
0.378485 0.302708 0.464637
0.610437 0.369848 0.502525
0.866850 0.494026 0.590784
0.121462 0.313542 0.448890
0.214054 0.327092 0.455146
0.404669 0.365270 0.476600
0.626184 0.416938 0.512749
0.869810 0.530632 0.598291
0.267704 0.480232 0.490486
0.328222 0.487556 0.496651
0.485786 0.509880 0.516625
0.677974 0.547143 0.549004
0.885649 0.634363 0.627497
0.462684 0.672206 0.562127
0.502373 0.675380 0.566278
0.614862 0.689448 0.583886
0.764523 0.721248 0.622339
0.915587 0.774746 0.686152
0.715938 0.869963 0.693935
0.734005 0.871977 0.698695
0.788327 0.880491 0.714473
0.867216 0.896880 0.741665
0.956298 0.922240 0.793973
0.185763 0.279789 0.689235
0.278050 0.297551 0.692744
0.475654 0.347112 0.705318
0.692683 0.420264 0.726772
0.879911 0.525231 0.756466
0.224277 0.356359 0.694911
0.305455 0.367315 0.698238
0.492897 0.403113 0.710353
0.702724 0.466407 0.730800
0.882994 0.559197 0.760555
0.344579 0.518364 0.715969
0.390875 0.518975 0.716793
0.547539 0.540612 0.726711
0.733089 0.585321 0.746273
0.895171 0.652216 0.777615
0.566400 0.719020 0.761593
0.591363 0.720150 0.762478
0.663600 0.722103 0.766232
0.779751 0.733089 0.778897
0.919158 0.781521 0.815854
0.747463 0.884977 0.826474
0.759976 0.886137 0.828305
0.801846 0.891386 0.836149
0.869139 0.902861 0.852750
0.956451 0.929015 0.889891
