其他预设/【232】美食博客调色预设124款/1.3D LUT预设（视频调色-PR-AE-PS-FCPX-达芬奇用）/Food Art #62.cube
# Created by Adobe Lightroom plugin Export LUT (1.17.0)
# www.johnrellis.com/lightroom/exportlut.htm
# Preset: Food Art #62
# Color profile: /Library/Application Support/Adobe/Color/Profiles/Recommended/AdobeRGB1998.icc
LUT_3D_SIZE 5
DOMAIN_MIN 0.000000 0.000000 0.000000
DOMAIN_MAX 0.903226 0.903226 0.903226
0.000000 0.000000 0.000000
0.137026 0.085237 0.110842
0.324254 0.170779 0.228733
0.566461 0.264256 0.362432
0.839597 0.385138 0.469398
0.012024 0.203372 0.164797
0.165255 0.226535 0.206485
0.342138 0.265263 0.287938
0.581292 0.332311 0.390295
0.850095 0.441810 0.481727
0.150912 0.420539 0.350408
0.231754 0.429664 0.365637
0.425391 0.466499 0.413123
0.639002 0.501640 0.454078
0.867613 0.583886 0.511528
0.340673 0.652827 0.465278
0.393317 0.658015 0.470039
0.538323 0.672724 0.484688
0.718898 0.695735 0.508751
0.899901 0.752895 0.568475
0.635279 0.866239 0.567803
0.660182 0.867674 0.572625
0.732601 0.870634 0.587396
0.841917 0.886198 0.624933
0.946502 0.910063 0.681514
0.000000 0.010254 0.203250
0.112184 0.098573 0.251011
0.316991 0.195346 0.335912
0.558801 0.277653 0.418280
0.832822 0.389105 0.488655
0.000000 0.204898 0.285649
0.142184 0.227665 0.312566
0.337255 0.277012 0.370245
0.574823 0.338842 0.434516
0.840452 0.441535 0.497139
0.150240 0.419776 0.402289
0.234470 0.428901 0.414740
0.414740 0.457893 0.443763
0.630671 0.498482 0.474922
0.865141 0.586053 0.525658
0.350988 0.651392 0.483925
0.404303 0.656550 0.488685
0.544182 0.670802 0.501061
0.718929 0.693690 0.522972
0.899168 0.753597 0.581628
0.641199 0.864836 0.580529
0.665187 0.866300 0.585168
0.741939 0.873655 0.603754
0.845579 0.887724 0.638514
0.947662 0.911376 0.693019
0.000000 0.078706 0.410620
0.000000 0.119631 0.427192
0.313603 0.206058 0.462898
0.569177 0.285679 0.499641
0.839078 0.396674 0.537591
0.000000 0.219516 0.443519
0.115236 0.237888 0.452949
0.343236 0.286748 0.477913
0.586328 0.346075 0.506157
0.845914 0.446906 0.543328
0.167361 0.423682 0.489601
0.248539 0.432868 0.494148
0.426246 0.460487 0.507256
0.641596 0.503319 0.526268
0.867277 0.586755 0.567041
0.371130 0.648402 0.529717
0.419776 0.651087 0.532464
0.556878 0.666316 0.544305
0.723903 0.692256 0.565759
0.899718 0.753597 0.619440
0.645106 0.861112 0.617121
0.670405 0.863401 0.622522
0.741817 0.871183 0.637446
0.843870 0.885405 0.668666
0.946197 0.909545 0.718563
0.000000 0.125124 0.536156
0.117433 0.152132 0.540887
0.357763 0.218601 0.555535
0.594079 0.295079 0.575891
0.851652 0.410803 0.619715
0.000000 0.240055 0.546685
0.174136 0.253605 0.550225
0.382116 0.294469 0.562066
0.608240 0.352605 0.580713
0.854673 0.454688 0.623224
0.220005 0.434485 0.568322
0.286473 0.441505 0.571527
0.450385 0.462257 0.581415
0.654444 0.501854 0.598291
0.871672 0.576959 0.639704
0.410712 0.650690 0.606775
0.453223 0.653498 0.608759
0.571801 0.665858 0.617731
0.730068 0.690059 0.636622
0.902556 0.740536 0.678706
0.657130 0.860136 0.689845
0.678492 0.861967 0.693202
0.742824 0.870146 0.704494
0.836606 0.885344 0.723445
0.946319 0.910338 0.768856
0.152041 0.166629 0.701167
0.248631 0.185550 0.704616
0.444648 0.240116 0.716243
0.664149 0.321660 0.735103
0.867277 0.437232 0.760006
0.172335 0.260319 0.707607
0.262913 0.271977 0.710628
0.455146 0.310277 0.721340
0.671717 0.376562 0.738796
0.870634 0.478157 0.763394
0.256413 0.451270 0.726619
0.307836 0.448157 0.727749
0.487282 0.469520 0.735988
0.696559 0.517082 0.751736
0.883299 0.590631 0.777218
0.484077 0.683284 0.763546
0.513268 0.683803 0.764340
0.599298 0.683558 0.767483
0.738766 0.690822 0.777279
0.907469 0.742184 0.808103
0.689113 0.872953 0.818448
0.704494 0.874052 0.819974
0.755856 0.879026 0.826688
0.837675 0.889586 0.840574
0.944884 0.913298 0.871092
