其他预设/【232】美食博客调色预设124款/1.3D LUT预设（视频调色-PR-AE-PS-FCPX-达芬奇用）/Food Art #79.cube
# Created by Adobe Lightroom plugin Export LUT (1.17.0)
# www.johnrellis.com/lightroom/exportlut.htm
# Preset: Food Art #79
# Color profile: /Library/Application Support/Adobe/Color/Profiles/Recommended/AdobeRGB1998.icc
LUT_3D_SIZE 8
DOMAIN_MIN 0.000000 0.000000 0.000000
DOMAIN_MAX 0.903226 0.903226 0.903226
0.000000 0.000000 0.000000
0.050416 0.000000 0.000000
0.201785 0.000000 0.000000
0.325322 0.000000 0.000000
0.465888 0.000000 0.000000
0.604700 0.000000 0.000000
0.747311 0.000000 0.000000
0.890593 0.000000 0.000000
0.000000 0.066621 0.000000
0.051484 0.074647 0.000000
0.201877 0.030823 0.000000
0.324468 0.010468 0.000000
0.465064 0.047272 0.000000
0.603845 0.025788 0.000000
0.746487 0.000000 0.000000
0.890074 0.000000 0.000000
0.000000 0.210269 0.000000
0.000000 0.212070 0.000000
0.199710 0.211368 0.000000
0.322881 0.210636 0.000000
0.464118 0.220371 0.000000
0.603143 0.223301 0.000000
0.746426 0.224613 0.000000
0.890074 0.223789 0.000000
0.000000 0.337407 0.000000
0.000000 0.337896 0.000000
0.197238 0.339117 0.000000
0.326909 0.341833 0.000000
0.463264 0.351720 0.000000
0.602167 0.358984 0.000000
0.745174 0.365026 0.000000
0.889158 0.368750 0.000000
0.000000 0.483497 0.000000
0.000000 0.483680 0.000000
0.191348 0.484291 0.000000
0.333837 0.485176 0.000000
0.465644 0.485817 0.000000
0.599420 0.490120 0.000000
0.743130 0.499519 0.000000
0.888029 0.506401 0.000000
0.000000 0.623194 0.000000
0.000000 0.623621 0.000000
0.170871 0.624048 0.000000
0.329168 0.624781 0.000000
0.467750 0.625727 0.000000
0.601831 0.626947 0.000000
0.741604 0.633845 0.000000
0.887419 0.643061 0.000000
0.000000 0.765499 0.000000
0.000000 0.765682 0.000000
0.132692 0.765927 0.000000
0.318761 0.766506 0.000000
0.465309 0.767239 0.000000
0.603998 0.768399 0.000000
0.740414 0.769924 0.000000
0.886717 0.780575 0.000000
0.000000 0.907988 0.000000
0.000000 0.908049 0.000000
0.032441 0.908324 0.000000
0.303258 0.908934 0.000000
0.459052 0.909148 0.000000
0.602655 0.910063 0.000000
0.741848 0.911162 0.000000
0.878965 0.912016 0.000000
0.000000 0.000000 0.075746
0.061952 0.000000 0.077058
0.203372 0.000000 0.080201
0.325322 0.000000 0.079255
0.465949 0.000000 0.075135
0.604395 0.000000 0.068330
0.746853 0.000000 0.052369
0.890318 0.000000 0.002808
0.000000 0.065217 0.079164
0.066468 0.073823 0.079561
0.203006 0.068452 0.079561
0.324834 0.060487 0.078767
0.465461 0.021515 0.073976
0.603876 0.000000 0.066896
0.746242 0.000000 0.047578
0.889799 0.000000 0.000000
0.000000 0.210330 0.080720
0.029023 0.211185 0.079896
0.200168 0.211337 0.076997
0.323186 0.210697 0.077485
0.464485 0.217777 0.070314
0.602991 0.219089 0.061341
0.745754 0.219028 0.027710
0.889708 0.217014 0.000000
0.000000 0.336858 0.085542
0.000000 0.337835 0.074311
0.194705 0.339178 0.072602
0.325994 0.341314 0.071656
0.462776 0.350713 0.062043
0.601404 0.356878 0.039460
0.744472 0.361944 0.000000
0.888853 0.365118 0.000000
0.000000 0.483040 0.076265
0.000000 0.483742 0.036194
0.185855 0.484169 0.032990
0.331670 0.484749 0.026001
0.464637 0.485267 0.013886
0.599298 0.489357 0.000000
0.743069 0.497993 0.000000
0.888060 0.504204 0.000000
0.000000 0.622797 0.000000
0.000000 0.623255 0.000000
0.160983 0.623651 0.000000
0.325505 0.624506 0.000000
0.465980 0.625513 0.000000
0.601404 0.626825 0.000000
0.741878 0.633478 0.000000
0.887572 0.641901 0.000000
0.000000 0.765255 0.000000
0.000000 0.765347 0.000000
0.115908 0.765652 0.000000
0.313909 0.766323 0.000000
0.462898 0.767147 0.000000
0.602808 0.768246 0.000000
0.739895 0.769589 0.000000
0.886687 0.779995 0.000000
0.000000 0.907958 0.000000
0.000000 0.908080 0.000000
0.000000 0.908385 0.000000
0.298192 0.908995 0.000000
0.456947 0.909636 0.000000
0.601556 0.910369 0.000000
0.741421 0.911192 0.000000
0.878904 0.911925 0.000000
0.000000 0.000000 0.220462
0.000000 0.000000 0.220615
0.205386 0.000000 0.220981
0.325780 0.000000 0.221408
0.466865 0.000000 0.229618
0.605951 0.000000 0.225895
0.749111 0.000000 0.215732
0.892485 0.000000 0.210605
0.000000 0.074617 0.220981
0.047425 0.071443 0.221012
0.203281 0.066102 0.221103
0.325109 0.062715 0.221927
0.466835 0.000000 0.227451
0.606195 0.000000 0.218479
0.748623 0.000000 0.214908
0.892149 0.000000 0.209842
0.000000 0.211521 0.220676
0.006806 0.211307 0.220737
0.198062 0.210758 0.220615
0.323919 0.208865 0.220493
0.466987 0.203861 0.219059
0.605310 0.198489 0.216831
0.747921 0.192142 0.212833
0.891630 0.185611 0.207340
0.000000 0.336950 0.222873
0.000000 0.337560 0.223301
0.188357 0.339574 0.221103
0.324559 0.341680 0.218051
0.465064 0.347723 0.216068
0.603723 0.349248 0.213565
0.746792 0.350805 0.208896
0.890929 0.351537 0.202823
0.000000 0.482765 0.231907
0.000000 0.483284 0.230106
0.161746 0.485145 0.216617
0.322454 0.485786 0.211093
0.463386 0.485695 0.209781
0.601526 0.488014 0.206790
0.745052 0.493202 0.202518
0.889891 0.497383 0.195895
0.000000 0.622492 0.230381
0.000000 0.622950 0.226566
0.117433 0.624720 0.205875
0.311376 0.625330 0.201907
0.460395 0.626001 0.200229
0.600305 0.626825 0.198123
0.743404 0.632502 0.192844
0.889189 0.638911 0.186038
0.000000 0.765225 0.217685
0.000000 0.765560 0.211795
0.000000 0.766751 0.189548
0.298009 0.767178 0.188449
0.455756 0.767788 0.186770
0.599969 0.768673 0.184878
0.739895 0.769955 0.182498
0.888304 0.779782 0.173739
0.000000 0.908415 0.185611
0.000000 0.908659 0.177798
0.000000 0.909026 0.172457
0.284459 0.909636 0.172152
0.450660 0.910155 0.171054
0.598810 0.910796 0.170108
0.740658 0.911498 0.169619
0.879454 0.912139 0.170077
0.000000 0.000000 0.356451
0.000000 0.000000 0.356573
0.207523 0.000000 0.356512
0.333471 0.000000 0.356603
0.467750 0.000000 0.365209
0.606043 0.000000 0.369360
0.749111 0.000000 0.367010
0.893767 0.000000 0.357641
0.000000 0.068116 0.356725
0.000000 0.065675 0.356786
0.204135 0.055116 0.356786
0.332525 0.026825 0.356909
0.467689 0.000000 0.364965
0.605982 0.000000 0.367681
0.749111 0.000000 0.364538
0.893797 0.000000 0.355474
0.000000 0.215152 0.356970
0.000000 0.214176 0.357031
0.191287 0.208499 0.357336
0.328893 0.204837 0.357610
0.467628 0.194888 0.362615
0.606500 0.179294 0.362158
0.749874 0.156649 0.358373
0.893492 0.145785 0.355901
0.000000 0.344244 0.357641
0.000000 0.344213 0.357702
0.178592 0.343572 0.358099
0.319860 0.341375 0.358282
0.465736 0.339666 0.358038
0.605005 0.338933 0.357733
0.748165 0.338445 0.356786
0.892485 0.338445 0.355108
0.000000 0.482765 0.366308
0.000000 0.483131 0.365820
0.151553 0.484688 0.363134
0.310765 0.486122 0.358312
0.460792 0.485512 0.356970
0.602625 0.486122 0.357000
0.746334 0.488930 0.356176
0.891295 0.491737 0.354131
0.000000 0.622675 0.369757
0.000000 0.623377 0.368322
0.105592 0.624720 0.362615
0.299626 0.626032 0.355901
0.455879 0.626429 0.355138
0.599481 0.626886 0.354955
0.744594 0.631708 0.353338
0.890288 0.636683 0.352361
0.000000 0.765286 0.366796
0.000000 0.765713 0.364416
0.000000 0.766934 0.356390
0.287877 0.767819 0.351324
0.452247 0.768307 0.351934
0.599023 0.769009 0.351751
0.740261 0.770016 0.351598
0.889372 0.779080 0.348638
0.000000 0.908751 0.354803
0.000000 0.909087 0.351690
0.000000 0.909941 0.341894
0.280491 0.909850 0.347631
0.449561 0.910307 0.347631
0.598871 0.910887 0.347631
0.741512 0.911559 0.348089
0.880674 0.912230 0.348943
0.000000 0.000000 0.506188
0.000000 0.000000 0.506096
0.210178 0.000000 0.505852
0.344305 0.000000 0.505455
0.473823 0.000000 0.505364
0.606226 0.000000 0.507561
0.748928 0.000000 0.511589
0.893523 0.000000 0.509911
0.000000 0.049134 0.506126
0.000000 0.040925 0.506126
0.204807 0.007019 0.505882
0.342046 0.000000 0.505547
0.472816 0.000000 0.505455
0.606256 0.000000 0.507347
0.749050 0.000000 0.510582
0.893614 0.000000 0.508751
0.000000 0.214176 0.505943
0.000000 0.210361 0.506035
0.180331 0.204776 0.506004
0.331945 0.198367 0.505852
0.469276 0.187991 0.505547
0.605982 0.173220 0.506249
0.749020 0.150301 0.507805
0.893492 0.121645 0.506004
0.000000 0.353155 0.505303
0.000000 0.351812 0.505364
0.150027 0.345953 0.505638
0.313909 0.338598 0.505791
0.463600 0.338415 0.505241
0.604456 0.338048 0.505791
0.748257 0.332860 0.505333
0.893950 0.320653 0.499306
0.000000 0.486244 0.504448
0.000000 0.486091 0.504540
0.124788 0.485359 0.504601
0.308202 0.484382 0.504540
0.458045 0.483589 0.503868
0.602014 0.483406 0.503075
0.746761 0.484077 0.502129
0.892302 0.485359 0.500633
0.000000 0.622187 0.506218
0.000000 0.622614 0.505943
0.066377 0.623713 0.504784
0.297154 0.624598 0.504082
0.450935 0.625513 0.500511
0.598749 0.625818 0.501030
0.745205 0.629267 0.500420
0.891356 0.632868 0.499611
0.000000 0.765194 0.508263
0.000000 0.765499 0.507317
0.000000 0.766415 0.504387
0.279484 0.767422 0.500999
0.444373 0.768521 0.495247
0.598047 0.768734 0.498085
0.741146 0.769619 0.497963
0.890593 0.776761 0.496162
0.000000 0.908690 0.503838
0.000000 0.908934 0.502434
0.000000 0.909575 0.498451
0.251347 0.910857 0.491127
0.442969 0.910765 0.491859
0.598657 0.910887 0.495460
0.742550 0.911467 0.496040
0.882567 0.912016 0.497139
0.000000 0.000000 0.647578
0.000000 0.000000 0.647517
0.204440 0.000000 0.647181
0.344823 0.000000 0.647028
0.476814 0.000000 0.646723
0.607416 0.000000 0.646418
0.748775 0.000000 0.653223
0.893217 0.000000 0.655970
0.000000 0.000397 0.647303
0.000000 0.000000 0.647211
0.198093 0.000000 0.647028
0.341711 0.000000 0.646876
0.474952 0.000000 0.646571
0.606622 0.000000 0.646326
0.748775 0.000000 0.652949
0.893217 0.000000 0.655421
0.000000 0.204288 0.647578
0.000000 0.203250 0.647547
0.168276 0.199557 0.647395
0.328893 0.192264 0.647211
0.468727 0.181003 0.646876
0.604639 0.166629 0.646571
0.748775 0.142336 0.652430
0.893309 0.112337 0.653986
0.000000 0.349065 0.647211
0.000000 0.346838 0.647211
0.112947 0.340032 0.647395
0.310063 0.336248 0.647456
0.461952 0.336034 0.647089
0.602350 0.335668 0.646601
0.748440 0.329381 0.651514
0.893919 0.317296 0.650172
0.000000 0.487312 0.646235
0.000000 0.486549 0.646296
0.078370 0.484138 0.646418
0.303258 0.483192 0.646326
0.455818 0.480964 0.646204
0.600000 0.480049 0.645869
0.747860 0.476936 0.647364
0.894224 0.472114 0.643488
0.000000 0.622980 0.645350
0.000000 0.623011 0.645441
0.000000 0.622858 0.645502
0.293370 0.622919 0.645441
0.448463 0.623285 0.645289
0.598688 0.624201 0.644831
0.745937 0.626093 0.644221
0.892546 0.629023 0.643793
0.000000 0.765438 0.649470
0.000000 0.765743 0.649348
0.000000 0.766354 0.648920
0.272831 0.767300 0.647547
0.438758 0.768521 0.643946
0.594812 0.768948 0.640101
0.743252 0.769131 0.643030
0.891844 0.774289 0.642878
0.000000 0.908934 0.649256
0.000000 0.909117 0.648798
0.000000 0.909606 0.647059
0.243107 0.910735 0.642603
0.426520 0.911772 0.636103
0.594781 0.911437 0.635401
0.746242 0.911131 0.642176
0.885710 0.911772 0.643549
0.000000 0.000000 0.787442
0.000000 0.000000 0.787381
0.195834 0.000000 0.787198
0.342596 0.000000 0.786954
0.477058 0.000000 0.786648
0.608972 0.000000 0.786404
0.741543 0.000000 0.786313
0.892515 0.000000 0.799466
0.000000 0.000000 0.787411
0.000000 0.000000 0.787320
0.188693 0.000000 0.787198
0.339086 0.000000 0.786954
0.474861 0.000000 0.786709
0.607965 0.000000 0.786496
0.741299 0.000000 0.786404
0.892576 0.000000 0.799313
0.000000 0.197452 0.787472
0.000000 0.196109 0.787442
0.154513 0.191928 0.787350
0.324834 0.183810 0.787167
0.467659 0.171237 0.786954
0.604883 0.156161 0.786740
0.740658 0.143557 0.786526
0.892729 0.098207 0.798703
0.000000 0.339239 0.787442
0.000000 0.337224 0.787442
0.073304 0.333532 0.787472
0.306737 0.332769 0.787228
0.460883 0.332219 0.786954
0.602716 0.331212 0.786679
0.740322 0.328588 0.786557
0.893248 0.312291 0.796841
0.000000 0.483742 0.786740
0.000000 0.482979 0.786770
0.000000 0.481605 0.786831
0.296788 0.479774 0.786893
0.454810 0.477821 0.786831
0.600244 0.476875 0.786679
0.740902 0.476020 0.786618
0.893858 0.469459 0.793454
0.000000 0.623041 0.786221
0.000000 0.622827 0.786221
0.000000 0.622644 0.786282
0.284855 0.621851 0.786404
0.446571 0.620600 0.786557
0.599908 0.622034 0.786374
0.742672 0.622431 0.786435
0.894133 0.620050 0.788479
0.000000 0.760830 0.785977
0.000000 0.760922 0.786038
0.000000 0.761257 0.786069
0.268376 0.761959 0.786191
0.439124 0.763272 0.786313
0.594446 0.765225 0.786313
0.745510 0.767880 0.786191
0.892882 0.772335 0.786496
0.000000 0.909148 0.794003
0.000000 0.909331 0.793820
0.000000 0.909941 0.793057
0.234287 0.910948 0.791348
0.425574 0.911803 0.788602
0.588373 0.912261 0.784543
0.746761 0.911528 0.781735
0.890318 0.911559 0.788754
0.000000 0.000000 0.923369
0.000000 0.000000 0.923308
0.185214 0.000000 0.923186
0.338170 0.000000 0.923003
0.474800 0.000000 0.922850
0.607813 0.000000 0.922789
0.740749 0.000000 0.922789
0.874510 0.000000 0.922850
0.000000 0.000000 0.923339
0.000000 0.000000 0.923308
0.177523 0.000000 0.923217
0.334478 0.000000 0.923095
0.472602 0.000000 0.922942
0.606683 0.000000 0.922850
0.740383 0.000000 0.922820
0.874571 0.000000 0.922881
0.000000 0.188693 0.923491
0.000000 0.187381 0.923461
0.140749 0.182712 0.923400
0.320500 0.174105 0.923278
0.465522 0.161288 0.923125
0.603632 0.146151 0.923003
0.739834 0.135164 0.922911
0.874937 0.127443 0.922911
0.000000 0.330968 0.923613
0.000000 0.330785 0.923583
0.066133 0.330236 0.923491
0.305974 0.329747 0.923339
0.460426 0.329076 0.923095
0.602319 0.327672 0.922942
0.739864 0.324773 0.922881
0.875975 0.319890 0.923064
0.000000 0.479866 0.922942
0.000000 0.479744 0.922942
0.000000 0.478981 0.922972
0.297032 0.475654 0.923095
0.456031 0.475135 0.922972
0.600641 0.474464 0.922881
0.740414 0.474006 0.922881
0.878050 0.474037 0.923064
0.000000 0.620417 0.922362
0.000000 0.620356 0.922393
0.000000 0.619806 0.922454
0.285222 0.618097 0.922606
0.450752 0.617395 0.922637
0.603021 0.620294 0.922484
0.743923 0.621180 0.922576
0.881590 0.622797 0.922911
0.000000 0.758968 0.922026
0.000000 0.758968 0.922026
0.000000 0.758846 0.922148
0.270787 0.758755 0.922271
0.444190 0.759548 0.922332
0.599573 0.761471 0.922362
0.752010 0.767910 0.922087
0.887297 0.771664 0.922698
0.000000 0.900175 0.921904
0.000000 0.900328 0.921935
0.000000 0.900877 0.922026
0.251316 0.901915 0.922148
0.436103 0.903593 0.922301
0.596002 0.905882 0.922484
0.752316 0.908751 0.922789
0.898863 0.912840 0.923552
