其他预设/【232】美食博客调色预设124款/1.3D LUT预设（视频调色-PR-AE-PS-FCPX-达芬奇用）/Food Art #27.cube
# Created by Adobe Lightroom plugin Export LUT (1.17.0)
# www.johnrellis.com/lightroom/exportlut.htm
# Preset: Food Art #27
# Color profile: /Library/Application Support/Adobe/Color/Profiles/Recommended/AdobeRGB1998.icc
LUT_3D_SIZE 5
DOMAIN_MIN 0.000000 0.000000 0.000000
DOMAIN_MAX 0.903226 0.903226 0.903226
0.269749 0.157443 0.289677
0.381750 0.144778 0.302617
0.601831 0.112886 0.333898
0.845090 0.151675 0.380133
1.000000 0.279057 0.456611
0.300755 0.260349 0.318791
0.400122 0.255589 0.329870
0.612482 0.254612 0.353979
0.846830 0.292912 0.394202
1.000000 0.371130 0.471809
0.367895 0.505119 0.379004
0.456703 0.508659 0.384588
0.661738 0.535637 0.406317
0.854673 0.549920 0.439612
0.997284 0.574365 0.512932
0.456306 0.793088 0.452430
0.521630 0.793515 0.457740
0.677424 0.795926 0.476265
0.851896 0.802823 0.508873
0.988525 0.796872 0.580774
0.630701 0.962890 0.581903
0.659419 0.962127 0.586725
0.742214 0.958923 0.601556
0.859281 0.958923 0.636652
0.975463 0.960937 0.685298
0.272038 0.155489 0.386664
0.377295 0.151736 0.398047
0.598474 0.116365 0.426490
0.836912 0.130861 0.456153
0.997070 0.300816 0.513787
0.309819 0.255039 0.408057
0.397955 0.252781 0.415473
0.611749 0.248356 0.434211
0.839445 0.284306 0.465766
0.996063 0.385901 0.523827
0.366339 0.502220 0.455451
0.448676 0.506859 0.454841
0.652094 0.524773 0.470680
0.846952 0.544793 0.497719
0.992065 0.587488 0.558282
0.463996 0.790524 0.506462
0.530266 0.790890 0.512810
0.681331 0.793271 0.527276
0.850828 0.800717 0.553918
0.985016 0.801907 0.615778
0.652796 0.959747 0.615808
0.678676 0.959197 0.620020
0.758450 0.958495 0.636652
0.866026 0.958495 0.666224
0.975952 0.961120 0.708888
0.304967 0.147768 0.561700
0.401984 0.138399 0.567498
0.606287 0.102937 0.583459
0.834440 0.130800 0.605371
0.990021 0.355383 0.626001
0.325536 0.255222 0.575433
0.413703 0.246708 0.579461
0.621515 0.240818 0.593042
0.836881 0.286198 0.608331
0.987335 0.448188 0.637446
0.382605 0.504723 0.600885
0.459693 0.508110 0.603815
0.656001 0.524407 0.613001
0.841886 0.562097 0.628931
0.981811 0.632013 0.663844
0.484718 0.784604 0.621027
0.548516 0.783017 0.624414
0.703456 0.785306 0.644099
0.851591 0.797848 0.662226
0.977508 0.813657 0.701625
0.665187 0.955779 0.680690
0.700069 0.954589 0.690974
0.782254 0.953185 0.713710
0.874937 0.954955 0.733639
0.974853 0.959442 0.764767
0.382879 0.119600 0.741970
0.459083 0.102602 0.744350
0.634852 0.062196 0.752773
0.831632 0.155245 0.763058
0.985168 0.375738 0.753933
0.379706 0.240970 0.747982
0.458045 0.235843 0.749813
0.637537 0.239139 0.755947
0.833066 0.297704 0.764279
0.981903 0.457649 0.758083
0.424720 0.496345 0.758175
0.493935 0.498726 0.759365
0.664118 0.522942 0.762539
0.837308 0.565057 0.769009
0.975006 0.644648 0.775326
0.525597 0.771389 0.773068
0.579797 0.772213 0.773342
0.712245 0.779232 0.776638
0.850401 0.794522 0.785031
0.970733 0.821317 0.804013
0.683406 0.952148 0.790341
0.711696 0.951293 0.794461
0.787289 0.950744 0.806424
0.880888 0.952514 0.824552
0.973266 0.958770 0.844816
0.423713 0.110811 0.920623
0.479896 0.107301 0.921172
0.623407 0.133181 0.923156
0.795346 0.244297 0.925811
0.967926 0.411261 0.928252
0.425788 0.236820 0.921660
0.483040 0.239597 0.922057
0.628412 0.267033 0.923522
0.799283 0.351202 0.925353
0.966705 0.485023 0.927611
0.485695 0.489204 0.922820
0.538720 0.499550 0.922301
0.666468 0.529747 0.922454
0.816953 0.583490 0.923705
0.963836 0.655146 0.927489
0.596338 0.746029 0.925750
0.632227 0.751614 0.925292
0.727962 0.768582 0.924437
0.844785 0.793393 0.925353
0.963287 0.825406 0.932525
0.709773 0.942351 0.934783
0.730526 0.942962 0.934997
0.793423 0.945586 0.936461
0.879820 0.950439 0.939910
0.969421 0.959106 0.948058
