其他预设/【232】美食博客调色预设124款/1.3D LUT预设（视频调色-PR-AE-PS-FCPX-达芬奇用）/Food Art #76.cube
# Created by Adobe Lightroom plugin Export LUT (1.17.0)
# www.johnrellis.com/lightroom/exportlut.htm
# Preset: Food Art #76
# Color profile: /Library/Application Support/Adobe/Color/Profiles/Recommended/AdobeRGB1998.icc
LUT_3D_SIZE 5
DOMAIN_MIN 0.000000 0.000000 0.000000
DOMAIN_MAX 0.903226 0.903226 0.903226
0.157504 0.194888 0.212833
0.147189 0.181033 0.199527
0.305333 0.183932 0.194095
0.667567 0.212161 0.208225
0.929717 0.308812 0.305760
0.144045 0.185580 0.198093
0.156130 0.190555 0.196292
0.329870 0.235019 0.190158
0.679896 0.282841 0.202335
0.937255 0.363439 0.309850
0.157687 0.376745 0.191592
0.212833 0.385229 0.189853
0.394903 0.427649 0.186191
0.733639 0.471107 0.183413
0.947662 0.489509 0.306462
0.250797 0.681056 0.227573
0.311254 0.686183 0.228214
0.490791 0.696956 0.231357
0.760922 0.699489 0.256687
0.959258 0.684688 0.370336
0.482155 0.883665 0.430610
0.519585 0.883116 0.431861
0.624689 0.879423 0.433021
0.779324 0.879576 0.458595
0.963287 0.872862 0.504448
0.150423 0.184604 0.199313
0.148928 0.176974 0.203372
0.312779 0.173007 0.227695
0.652186 0.203098 0.259739
0.918242 0.333806 0.373571
0.138369 0.187808 0.202976
0.166323 0.198581 0.211398
0.345220 0.230747 0.225284
0.669734 0.273045 0.256229
0.923156 0.378943 0.374212
0.126406 0.384131 0.216892
0.212131 0.399451 0.228183
0.397955 0.427649 0.229313
0.727871 0.459998 0.242130
0.941558 0.500008 0.378729
0.257755 0.686183 0.298283
0.322271 0.691371 0.304387
0.500053 0.700862 0.308965
0.764797 0.702296 0.336065
0.958404 0.687922 0.420600
0.515221 0.882139 0.470863
0.548882 0.881651 0.471839
0.650477 0.881895 0.479011
0.789334 0.881254 0.498939
0.964996 0.874540 0.542992
0.081666 0.188449 0.306767
0.126558 0.175601 0.313115
0.298772 0.179751 0.352514
0.631434 0.233616 0.460456
0.907195 0.403723 0.519707
0.074403 0.239170 0.334874
0.114046 0.209842 0.344335
0.341222 0.233188 0.389136
0.661341 0.306157 0.458625
0.914641 0.455329 0.522972
0.100130 0.385016 0.348302
0.193301 0.413458 0.374395
0.453254 0.470680 0.434638
0.734188 0.484749 0.458991
0.933135 0.548516 0.523766
0.242679 0.681300 0.432044
0.327428 0.691463 0.448005
0.552697 0.710872 0.483223
0.784482 0.717067 0.495552
0.958282 0.700649 0.535241
0.550378 0.877958 0.542046
0.612940 0.877623 0.565606
0.703212 0.879057 0.587243
0.810391 0.880644 0.600153
0.964385 0.876097 0.635462
0.000000 0.241855 0.559564
0.000000 0.193301 0.562737
0.289097 0.178561 0.567681
0.618921 0.232944 0.591913
0.879576 0.471077 0.677028
0.000000 0.312016 0.570245
0.000000 0.265080 0.572961
0.297765 0.238224 0.576806
0.645502 0.312169 0.600946
0.884947 0.505821 0.676265
0.000000 0.494270 0.581201
0.052308 0.490608 0.588800
0.376806 0.461311 0.607660
0.711635 0.508385 0.626917
0.909422 0.623713 0.682124
0.245121 0.680171 0.576287
0.336950 0.689021 0.586175
0.601678 0.713039 0.626520
0.807675 0.737972 0.673487
0.947692 0.746395 0.695857
0.601709 0.870573 0.642329
0.645441 0.871214 0.655207
0.751614 0.875975 0.694881
0.857847 0.881132 0.725948
0.964294 0.882200 0.743557
0.000000 0.329717 0.774929
0.000000 0.283421 0.775692
0.183444 0.257084 0.775387
0.583093 0.282506 0.770748
0.858213 0.439612 0.776577
0.000000 0.391241 0.773983
0.000000 0.357397 0.774868
0.189609 0.313085 0.775601
0.593225 0.339544 0.770443
0.864744 0.478798 0.777554
0.000000 0.560845 0.773342
0.123629 0.557702 0.774136
0.298894 0.497383 0.777310
0.633814 0.493751 0.774990
0.894011 0.613672 0.785672
0.210819 0.744686 0.773587
0.299809 0.740871 0.774411
0.529198 0.728725 0.779477
0.737484 0.715023 0.789609
0.936950 0.775479 0.804044
0.593011 0.883787 0.759792
0.632502 0.881926 0.762875
0.742702 0.880095 0.776699
0.883909 0.880674 0.801938
0.962554 0.891997 0.832975
