其他预设/【232】美食博客调色预设124款/1.3D LUT预设（视频调色-PR-AE-PS-FCPX-达芬奇用）/Food Art #16.cube
# Created by Adobe Lightroom plugin Export LUT (1.17.0)
# www.johnrellis.com/lightroom/exportlut.htm
# Preset: Food Art #16
# Color profile: /Library/Application Support/Adobe/Color/Profiles/Recommended/AdobeRGB1998.icc
LUT_3D_SIZE 8
DOMAIN_MIN 0.000000 0.000000 0.000000
DOMAIN_MAX 0.903226 0.903226 0.903226
0.307195 0.242130 0.272740
0.294591 0.236057 0.268833
0.352331 0.226993 0.264714
0.470283 0.211551 0.260349
0.597864 0.201205 0.260441
0.708431 0.218082 0.269017
0.820371 0.266606 0.283391
0.927428 0.349157 0.303014
0.298039 0.231846 0.267460
0.298436 0.234073 0.266484
0.354131 0.240635 0.263157
0.467597 0.235630 0.259861
0.593713 0.231388 0.260899
0.702419 0.246372 0.269352
0.813077 0.288792 0.282994
0.923003 0.366125 0.302525
0.291508 0.302495 0.260502
0.308324 0.303960 0.260288
0.368841 0.308385 0.259770
0.476814 0.316228 0.259709
0.599695 0.322362 0.263279
0.706172 0.335576 0.273228
0.820798 0.374945 0.287816
0.927459 0.442390 0.307286
0.299046 0.432776 0.258122
0.319646 0.432929 0.258427
0.386572 0.435950 0.259556
0.498024 0.452155 0.262181
0.616907 0.458717 0.268376
0.714504 0.459724 0.279545
0.821317 0.487068 0.292882
0.924590 0.540948 0.311833
0.328649 0.574304 0.263249
0.347753 0.574334 0.263706
0.410285 0.575769 0.265446
0.505180 0.580072 0.269108
0.611810 0.582330 0.274205
0.711177 0.581292 0.284276
0.816831 0.602655 0.297856
0.920897 0.649592 0.318517
0.379370 0.689052 0.276890
0.397101 0.692927 0.278111
0.447333 0.693385 0.279820
0.525841 0.695033 0.283055
0.619501 0.697322 0.287785
0.719326 0.703334 0.294621
0.822416 0.721096 0.307836
0.922210 0.757717 0.331090
0.452491 0.814267 0.296666
0.465736 0.815152 0.297551
0.506554 0.814267 0.299077
0.573480 0.814786 0.302617
0.655909 0.815396 0.307866
0.746853 0.819089 0.316045
0.836271 0.825589 0.326757
0.923491 0.843534 0.346349
0.550408 0.921904 0.333562
0.560113 0.921599 0.334051
0.594171 0.921111 0.336339
0.651575 0.921294 0.341283
0.716304 0.916320 0.344060
0.795987 0.917082 0.353704
0.874113 0.919585 0.367926
0.942260 0.922545 0.385901
0.301762 0.237613 0.265507
0.296422 0.233463 0.266423
0.350072 0.219150 0.269718
0.462531 0.209354 0.271519
0.588983 0.209140 0.275853
0.697108 0.231510 0.284337
0.807889 0.276555 0.296452
0.918761 0.353033 0.313512
0.295720 0.233036 0.267063
0.298894 0.234287 0.267948
0.354040 0.235019 0.269413
0.463813 0.234287 0.271824
0.588128 0.237705 0.276249
0.694728 0.257572 0.284642
0.802945 0.297246 0.296056
0.914244 0.368475 0.312627
0.290898 0.298985 0.270359
0.306889 0.301030 0.270054
0.367620 0.305547 0.271183
0.472480 0.314397 0.273625
0.593133 0.323735 0.278294
0.696651 0.338750 0.287236
0.806424 0.374029 0.299077
0.917510 0.439216 0.316289
0.302556 0.425666 0.271977
0.323400 0.426429 0.272831
0.388159 0.431312 0.274113
0.489845 0.440864 0.276463
0.602838 0.447303 0.281315
0.699458 0.451087 0.290837
0.806546 0.478859 0.302464
0.915221 0.534539 0.319707
0.336339 0.569665 0.277714
0.354314 0.569055 0.277928
0.413428 0.569482 0.279210
0.502800 0.571283 0.281926
0.604974 0.572961 0.285740
0.703120 0.573816 0.294987
0.809323 0.597314 0.307439
0.915282 0.645167 0.326421
0.386267 0.682307 0.288762
0.400885 0.682704 0.289281
0.448920 0.683558 0.290776
0.525200 0.686671 0.293828
0.617365 0.691035 0.298528
0.716793 0.699367 0.305089
0.818967 0.717891 0.317388
0.918578 0.754147 0.338140
0.454749 0.806058 0.305577
0.465827 0.805142 0.305852
0.505943 0.805447 0.307439
0.572595 0.808042 0.311162
0.654749 0.810605 0.316503
0.743740 0.814389 0.323613
0.831205 0.820127 0.332799
0.918730 0.838499 0.350378
0.549554 0.918334 0.339483
0.559777 0.918486 0.340276
0.593622 0.918364 0.342565
0.650629 0.918975 0.347326
0.721248 0.918456 0.353368
0.797910 0.917723 0.361456
0.873411 0.918669 0.373693
0.940612 0.921050 0.390265
0.300694 0.231449 0.298955
0.309575 0.226810 0.299962
0.357641 0.217288 0.302525
0.467506 0.209689 0.309697
0.590539 0.220157 0.315007
0.697658 0.268894 0.325689
0.808927 0.318456 0.336217
0.919677 0.388861 0.350256
0.290776 0.236484 0.300786
0.304875 0.235172 0.301610
0.360937 0.234226 0.303838
0.467933 0.236210 0.309911
0.589929 0.250553 0.315923
0.695125 0.290593 0.325383
0.805478 0.335760 0.335393
0.917327 0.403967 0.349615
0.294957 0.300145 0.304875
0.312566 0.301823 0.305699
0.378912 0.311223 0.309880
0.478065 0.318730 0.312749
0.597406 0.336828 0.319249
0.697505 0.362432 0.327001
0.806180 0.400916 0.336675
0.916381 0.462470 0.350805
0.311406 0.424994 0.309667
0.332616 0.426398 0.310399
0.400153 0.433539 0.313573
0.497322 0.443000 0.315923
0.606409 0.453407 0.321172
0.701442 0.465766 0.329259
0.808713 0.498238 0.339117
0.916289 0.552544 0.353765
0.346258 0.566613 0.312444
0.367712 0.566705 0.313878
0.431159 0.567468 0.318334
0.514733 0.570977 0.320653
0.610956 0.574365 0.323735
0.704891 0.579095 0.331273
0.809873 0.606287 0.341711
0.915526 0.653803 0.357488
0.400610 0.679591 0.319280
0.419562 0.679377 0.321843
0.471168 0.679042 0.326940
0.539055 0.681453 0.329046
0.623346 0.685939 0.332433
0.716060 0.694728 0.337743
0.817105 0.717189 0.347997
0.919188 0.756985 0.365179
0.472602 0.805142 0.335515
0.487251 0.804227 0.337682
0.526116 0.803189 0.340154
0.585657 0.804562 0.342351
0.661585 0.807156 0.345953
0.747036 0.812558 0.351446
0.833921 0.821103 0.359319
0.922484 0.842252 0.375799
0.556970 0.917052 0.363897
0.565972 0.916411 0.364080
0.597772 0.915892 0.365576
0.654475 0.917632 0.370611
0.723384 0.917082 0.375952
0.799741 0.917082 0.384161
0.874784 0.918669 0.396582
0.941894 0.921782 0.413550
0.306340 0.223606 0.359136
0.321202 0.220035 0.359930
0.377935 0.213474 0.360784
0.474830 0.210086 0.362066
0.594415 0.222324 0.365332
0.696803 0.269841 0.367742
0.804379 0.332799 0.377874
0.914916 0.407813 0.393347
0.300908 0.236515 0.360601
0.319188 0.236057 0.360876
0.380499 0.235599 0.361364
0.477668 0.237003 0.362493
0.595758 0.253330 0.365820
0.695460 0.297673 0.368444
0.802335 0.355444 0.378515
0.913695 0.424506 0.393561
0.309606 0.307286 0.361181
0.329107 0.308690 0.361334
0.392157 0.313542 0.362127
0.487556 0.320897 0.363897
0.601221 0.344091 0.368048
0.699062 0.384894 0.373846
0.808530 0.435157 0.385718
0.917266 0.483253 0.396216
0.328374 0.425483 0.362799
0.348363 0.426947 0.363012
0.413275 0.433509 0.364538
0.513512 0.450599 0.369451
0.609216 0.462074 0.371527
0.700008 0.484047 0.377295
0.806973 0.516167 0.385290
0.916381 0.562371 0.396246
0.364508 0.565087 0.362585
0.383948 0.564477 0.362921
0.445655 0.565057 0.365148
0.535424 0.570611 0.371710
0.619623 0.575921 0.374029
0.708644 0.588067 0.379461
0.812650 0.616785 0.386786
0.917327 0.658228 0.397650
0.419013 0.679683 0.363104
0.438666 0.682033 0.365515
0.492348 0.680232 0.370336
0.565148 0.682002 0.377417
0.639033 0.687587 0.379492
0.722194 0.695979 0.382269
0.820371 0.720241 0.388861
0.920897 0.758083 0.402930
0.485573 0.803006 0.375250
0.499825 0.803281 0.376959
0.542626 0.803769 0.381415
0.600977 0.806058 0.384466
0.672297 0.809354 0.386633
0.753353 0.814176 0.390265
0.836667 0.821500 0.396307
0.924498 0.843351 0.413184
0.565942 0.917571 0.403479
0.575555 0.917632 0.404120
0.606104 0.917082 0.405158
0.657527 0.916838 0.407416
0.725551 0.916320 0.412360
0.801175 0.916472 0.420264
0.875853 0.918456 0.432746
0.942809 0.922179 0.450050
0.321538 0.218204 0.423651
0.338537 0.216678 0.423926
0.396460 0.214389 0.423499
0.488899 0.216403 0.423255
0.600977 0.228397 0.424292
0.700252 0.274418 0.420691
0.807492 0.336095 0.428107
0.917205 0.410773 0.444831
0.322606 0.238315 0.423468
0.341161 0.238743 0.423957
0.400549 0.240146 0.423529
0.491524 0.244785 0.422766
0.601770 0.258824 0.423896
0.700282 0.302586 0.420874
0.807370 0.359930 0.428809
0.916777 0.428077 0.445106
0.338994 0.314549 0.422309
0.358709 0.317571 0.422187
0.415351 0.322057 0.421607
0.502861 0.331182 0.422248
0.604395 0.345464 0.422126
0.698390 0.381964 0.420600
0.805051 0.428779 0.430182
0.914549 0.477485 0.444129
0.359838 0.425849 0.421485
0.378912 0.427863 0.421241
0.439277 0.436316 0.421057
0.524804 0.451240 0.421180
0.613519 0.464210 0.421302
0.702480 0.489631 0.423529
0.807858 0.517052 0.432166
0.916503 0.549493 0.441993
0.389502 0.555138 0.418860
0.407477 0.556054 0.418830
0.463630 0.558526 0.418708
0.545525 0.565057 0.419593
0.628931 0.577813 0.423041
0.710964 0.587243 0.424475
0.812772 0.609155 0.430274
0.917693 0.646082 0.441810
0.436164 0.669978 0.413764
0.451850 0.669795 0.414343
0.500542 0.668788 0.415930
0.568841 0.671229 0.419623
0.639796 0.679744 0.421851
0.723323 0.691585 0.425299
0.822751 0.716976 0.433417
0.921996 0.752499 0.448554
0.499641 0.797757 0.426123
0.511620 0.797238 0.426734
0.549157 0.797086 0.428717
0.602869 0.799924 0.430335
0.669764 0.805295 0.430426
0.752316 0.810880 0.434363
0.836149 0.818173 0.440314
0.924498 0.840299 0.457862
0.569635 0.912688 0.454170
0.578149 0.912413 0.454383
0.606775 0.912016 0.454719
0.657160 0.914519 0.457465
0.719631 0.914763 0.457465
0.797238 0.914824 0.465095
0.873320 0.916747 0.477211
0.941283 0.920562 0.494148
0.344945 0.219760 0.487404
0.361547 0.220157 0.487251
0.415778 0.222507 0.486030
0.501976 0.231205 0.486000
0.604059 0.250462 0.485756
0.706661 0.283299 0.484596
0.813413 0.342748 0.492195
0.920928 0.417090 0.513115
0.350530 0.244388 0.484993
0.366735 0.245426 0.484779
0.420325 0.249332 0.484016
0.504662 0.259312 0.484230
0.604181 0.278233 0.483711
0.705196 0.308873 0.483009
0.812009 0.364324 0.491524
0.919890 0.432563 0.512627
0.378027 0.327764 0.483894
0.393072 0.329320 0.483833
0.442969 0.335149 0.483558
0.520684 0.346319 0.483284
0.612360 0.363409 0.482307
0.707057 0.388617 0.481666
0.812314 0.433417 0.492439
0.919707 0.482795 0.512902
0.404578 0.434882 0.483467
0.421180 0.437842 0.482673
0.475532 0.450141 0.481453
0.548791 0.465705 0.482063
0.629847 0.479622 0.482338
0.714321 0.495613 0.482551
0.817197 0.521141 0.495216
0.921904 0.554650 0.513024
0.431159 0.551873 0.479774
0.446845 0.553826 0.479591
0.496773 0.560601 0.478920
0.567041 0.571862 0.478828
0.638727 0.579217 0.480171
0.719020 0.587396 0.481697
0.819028 0.606378 0.492378
0.921233 0.637537 0.507988
0.465736 0.669947 0.477302
0.480446 0.671321 0.477852
0.523857 0.672999 0.477882
0.583246 0.676509 0.478706
0.649104 0.682795 0.480934
0.735409 0.698207 0.488411
0.828885 0.713649 0.495277
0.924804 0.743435 0.511528
0.518364 0.796262 0.491096
0.529534 0.797055 0.491920
0.562493 0.797665 0.492866
0.611475 0.800320 0.494057
0.675135 0.805081 0.495399
0.754482 0.812345 0.498024
0.840391 0.819425 0.504875
0.928496 0.840818 0.525322
0.578393 0.910826 0.524071
0.586236 0.910582 0.524071
0.613031 0.910216 0.524285
0.658137 0.911254 0.525444
0.717891 0.912352 0.525872
0.790768 0.913787 0.527977
0.870481 0.915984 0.541192
0.940093 0.919921 0.558740
0.375799 0.226535 0.574182
0.391852 0.227939 0.574456
0.444587 0.233005 0.574304
0.526635 0.244877 0.574243
0.623804 0.266545 0.573236
0.724086 0.301122 0.572381
0.818265 0.347967 0.572412
0.920409 0.419165 0.598108
0.383185 0.253849 0.572930
0.398871 0.255406 0.573175
0.450263 0.260990 0.572961
0.530083 0.272740 0.572412
0.625452 0.293706 0.571649
0.724178 0.325628 0.570947
0.817075 0.368688 0.571038
0.919249 0.433509 0.597040
0.409918 0.338842 0.571893
0.424201 0.340581 0.571801
0.471351 0.346563 0.571374
0.545403 0.358221 0.570855
0.634638 0.376165 0.570153
0.728359 0.402228 0.570001
0.818021 0.435126 0.571069
0.919860 0.483009 0.598688
0.443122 0.452705 0.570672
0.457740 0.455482 0.569879
0.503227 0.464118 0.568902
0.568597 0.473182 0.568872
0.648554 0.485420 0.568963
0.734768 0.500633 0.570001
0.820584 0.517906 0.572595
0.920958 0.551934 0.600244
0.468879 0.570306 0.569512
0.482246 0.572045 0.569085
0.524376 0.577691 0.568200
0.582910 0.582238 0.568017
0.653254 0.584314 0.569177
0.737209 0.592279 0.571252
0.823545 0.604822 0.574670
0.921904 0.637659 0.601221
0.500633 0.690791 0.570733
0.511894 0.691524 0.570703
0.547173 0.693477 0.570703
0.597436 0.694850 0.571557
0.661616 0.695460 0.573541
0.742733 0.699245 0.577539
0.831235 0.710384 0.582483
0.924163 0.737423 0.605432
0.534844 0.801205 0.576989
0.543786 0.801511 0.577295
0.572198 0.802152 0.577874
0.617914 0.803616 0.579431
0.679713 0.805997 0.581903
0.756619 0.810941 0.587366
0.844755 0.822110 0.600183
0.928466 0.837247 0.618219
0.583337 0.907683 0.611505
0.590936 0.907774 0.611872
0.617304 0.908568 0.613947
0.660334 0.909514 0.616480
0.718929 0.910704 0.619898
0.789700 0.912596 0.625116
0.865873 0.915587 0.634394
0.937255 0.919707 0.652338
0.410498 0.241337 0.714107
0.426215 0.243076 0.714290
0.477974 0.250004 0.713863
0.558556 0.264561 0.713832
0.654749 0.290013 0.713863
0.754025 0.327947 0.714321
0.846128 0.378271 0.715999
0.923400 0.431647 0.719173
0.417517 0.269749 0.713222
0.432929 0.271580 0.713344
0.483467 0.278386 0.713100
0.562493 0.292607 0.712947
0.656977 0.316625 0.713039
0.754879 0.351781 0.713558
0.845884 0.397589 0.715236
0.922820 0.445655 0.718654
0.439918 0.355505 0.711879
0.454170 0.357336 0.711940
0.501030 0.363622 0.711513
0.575433 0.376837 0.712184
0.665003 0.396643 0.712337
0.758419 0.423987 0.712886
0.846189 0.456062 0.715236
0.922271 0.490242 0.719478
0.470222 0.473304 0.710719
0.482887 0.474769 0.710903
0.524834 0.479500 0.710811
0.591760 0.488197 0.711330
0.673823 0.500053 0.712184
0.761135 0.514397 0.713924
0.846067 0.531945 0.717250
0.921996 0.556939 0.722377
0.494911 0.596704 0.712337
0.505852 0.597314 0.712398
0.540093 0.597040 0.712123
0.590112 0.590417 0.712581
0.669947 0.595911 0.713954
0.757839 0.604913 0.716335
0.844388 0.619562 0.720546
0.921447 0.642176 0.726986
0.521874 0.719997 0.716854
0.530571 0.719722 0.716732
0.559136 0.718196 0.716640
0.605585 0.714321 0.717159
0.669276 0.708431 0.718502
0.754238 0.709987 0.722042
0.843961 0.722927 0.728115
0.921904 0.741512 0.736507
0.553246 0.830655 0.727047
0.560906 0.830442 0.727077
0.586755 0.829587 0.727352
0.630671 0.828183 0.728450
0.691096 0.826291 0.730465
0.764736 0.824796 0.734005
0.846769 0.827756 0.740932
0.923919 0.838621 0.751278
0.597131 0.917296 0.745174
0.603876 0.917144 0.745296
0.627283 0.916686 0.746120
0.667903 0.916075 0.748104
0.723507 0.915312 0.751308
0.790066 0.914977 0.756313
0.861936 0.916350 0.765011
0.932250 0.921782 0.781735
