其他预设/【232】美食博客调色预设124款/1.3D LUT预设（视频调色-PR-AE-PS-FCPX-达芬奇用）/Food Art #1 ().cube
# Created by Adobe Lightroom plugin Export LUT (1.17.0)
# www.johnrellis.com/lightroom/exportlut.htm
# Preset: Food Art #1 (素锦印象)
# Color profile: /Library/Application Support/Adobe/Color/Profiles/Recommended/AdobeRGB1998.icc
LUT_3D_SIZE 8
DOMAIN_MIN 0.000000 0.000000 0.000000
DOMAIN_MAX 0.903226 0.903226 0.903226
0.000000 0.000000 0.000000
0.092653 0.000000 0.000000
0.271641 0.000000 0.000000
0.448890 0.000000 0.000000
0.607294 0.000000 0.000000
0.747433 0.000000 0.000000
0.875975 0.000000 0.000000
0.985779 0.000000 0.000000
0.000000 0.101564 0.000000
0.099184 0.106630 0.000000
0.276951 0.124941 0.000000
0.456550 0.131380 0.000000
0.613794 0.119051 0.000000
0.753445 0.103853 0.000000
0.879850 0.101534 0.000000
0.987488 0.116274 0.000000
0.000000 0.287358 0.000000
0.108186 0.288975 0.000000
0.280430 0.292515 0.000000
0.453559 0.302281 0.000000
0.611322 0.298405 0.000000
0.749722 0.289372 0.000000
0.873228 0.280980 0.000000
0.982696 0.277012 0.000000
0.000000 0.469703 0.000000
0.000000 0.471290 0.000000
0.280339 0.472389 0.000000
0.448951 0.468208 0.000000
0.599878 0.457954 0.000000
0.741054 0.448188 0.000000
0.869505 0.437568 0.000000
0.980224 0.426337 0.000000
0.000000 0.626520 0.000000
0.000000 0.626734 0.000000
0.259251 0.625849 0.000000
0.433631 0.622156 0.000000
0.594476 0.618891 0.000000
0.739986 0.608148 0.000000
0.867948 0.591791 0.000000
0.977020 0.572595 0.071992
0.000000 0.761654 0.000000
0.000000 0.759152 0.000000
0.237308 0.758419 0.000000
0.412696 0.756680 0.000000
0.571283 0.754391 0.000000
0.722225 0.750576 0.000000
0.860868 0.739986 0.000000
0.970825 0.714870 0.110079
0.000000 0.879026 0.006928
0.000000 0.878325 0.008453
0.228061 0.877928 0.036194
0.396857 0.876280 0.064668
0.549279 0.873930 0.086061
0.694179 0.869780 0.106752
0.833768 0.864561 0.128267
0.965667 0.856138 0.157259
0.000000 0.977020 0.148104
0.000000 0.976806 0.149844
0.242039 0.975677 0.154238
0.389746 0.973114 0.160037
0.532372 0.972259 0.179202
0.666896 0.967498 0.191653
0.797269 0.961639 0.206912
0.924285 0.955657 0.228122
0.000000 0.000000 0.113161
0.106142 0.000000 0.114321
0.283391 0.000000 0.128023
0.462104 0.000000 0.115206
0.617426 0.000000 0.115419
0.756558 0.000000 0.120729
0.881804 0.000000 0.131746
0.988769 0.000000 0.150027
0.000000 0.112245 0.117067
0.101198 0.110536 0.117556
0.284794 0.104891 0.117433
0.463600 0.095949 0.115023
0.619257 0.092805 0.116274
0.758511 0.097230 0.122560
0.884184 0.112093 0.135103
0.990448 0.137636 0.154238
0.000000 0.293736 0.132143
0.070161 0.295323 0.118074
0.281498 0.296361 0.113649
0.460700 0.302373 0.111849
0.617609 0.298283 0.116182
0.755734 0.291661 0.124453
0.880186 0.287327 0.136934
0.986572 0.286259 0.156405
0.000000 0.477211 0.128664
0.000000 0.478065 0.109285
0.277379 0.477516 0.106813
0.455329 0.475868 0.107424
0.610773 0.466438 0.115084
0.750912 0.455146 0.127687
0.876860 0.444038 0.143740
0.983886 0.433112 0.166140
0.000000 0.628382 0.129213
0.000000 0.629541 0.110903
0.258030 0.629236 0.113283
0.436500 0.627436 0.115938
0.599756 0.624842 0.121004
0.744900 0.612818 0.134005
0.871275 0.595636 0.153719
0.978820 0.576928 0.179904
0.000000 0.764370 0.138918
0.000000 0.764187 0.133516
0.241520 0.763210 0.135500
0.416175 0.760586 0.138766
0.573999 0.757259 0.144717
0.723812 0.752285 0.151522
0.862028 0.741787 0.166903
0.971740 0.717617 0.197879
0.000000 0.881987 0.170779
0.000000 0.882200 0.172641
0.240879 0.881285 0.175784
0.403510 0.878691 0.179873
0.553429 0.875486 0.187503
0.697200 0.871550 0.198093
0.836301 0.866911 0.211948
0.967132 0.858610 0.232395
0.000000 0.977844 0.222812
0.107210 0.977386 0.223148
0.260929 0.976165 0.225895
0.400061 0.973480 0.229709
0.536248 0.970367 0.237583
0.669642 0.966552 0.249516
0.799405 0.961669 0.263615
0.925353 0.956268 0.281315
0.000000 0.000000 0.309361
0.124086 0.000000 0.308965
0.289128 0.000000 0.309422
0.460426 0.000000 0.314672
0.613458 0.000000 0.310826
0.751186 0.000000 0.312718
0.875761 0.048066 0.315373
0.982605 0.144533 0.323522
0.000000 0.115755 0.310613
0.085267 0.106233 0.311009
0.287114 0.099611 0.311528
0.463050 0.082948 0.316289
0.616144 0.090181 0.312963
0.753079 0.123171 0.313878
0.877256 0.160311 0.317906
0.983185 0.200656 0.325994
0.000000 0.298833 0.310674
0.036774 0.297887 0.310674
0.278233 0.296666 0.311101
0.460456 0.294316 0.311101
0.612512 0.295506 0.312139
0.750301 0.298711 0.315038
0.875242 0.305882 0.320348
0.981567 0.318425 0.329595
0.000000 0.475868 0.316899
0.000000 0.475624 0.315709
0.266819 0.476417 0.312230
0.451453 0.474159 0.310216
0.606500 0.464637 0.312779
0.745449 0.457710 0.317693
0.870970 0.453193 0.324224
0.978027 0.451301 0.335332
0.000000 0.628901 0.313298
0.000000 0.628656 0.313390
0.260197 0.627527 0.315251
0.435554 0.624872 0.315770
0.596338 0.622065 0.318273
0.740688 0.613031 0.324285
0.866850 0.600885 0.333074
0.973816 0.588312 0.345434
0.000000 0.763821 0.313329
0.000000 0.763210 0.315892
0.265110 0.761776 0.326604
0.427649 0.760067 0.329747
0.579553 0.757504 0.332830
0.725124 0.753353 0.336065
0.859861 0.743893 0.342473
0.967315 0.722866 0.355505
0.000000 0.880461 0.318975
0.036378 0.880095 0.324956
0.285954 0.878447 0.346197
0.426947 0.876860 0.349035
0.566400 0.874357 0.353002
0.702998 0.870481 0.357519
0.835935 0.865446 0.362341
0.961975 0.857115 0.370916
0.000000 0.977325 0.333471
0.160250 0.976745 0.342351
0.317021 0.974182 0.370184
0.431678 0.971252 0.370520
0.555505 0.968566 0.374517
0.680537 0.964904 0.379889
0.804257 0.960327 0.386389
0.925689 0.955169 0.395361
0.000000 0.000000 0.498573
0.113710 0.000000 0.496803
0.294865 0.000000 0.495888
0.463508 0.000000 0.494728
0.614160 0.000000 0.483650
0.751369 0.000000 0.475227
0.874388 0.137758 0.474617
0.977996 0.234195 0.481117
0.000000 0.101717 0.495155
0.053254 0.098299 0.494820
0.287816 0.089082 0.494820
0.461158 0.074403 0.494118
0.613703 0.091310 0.484230
0.751217 0.143496 0.477760
0.873960 0.213046 0.479408
0.977417 0.276646 0.485359
0.000000 0.302495 0.495491
0.000000 0.300755 0.495399
0.274479 0.296605 0.495521
0.457069 0.296788 0.494728
0.609552 0.305791 0.486671
0.744381 0.324376 0.484993
0.866514 0.345434 0.486366
0.972320 0.377325 0.494270
0.000000 0.474556 0.492195
0.000000 0.474617 0.492531
0.267491 0.474189 0.492836
0.452338 0.474372 0.492012
0.603479 0.473976 0.492073
0.740841 0.475685 0.492714
0.864805 0.479591 0.493965
0.970153 0.486549 0.497383
0.000000 0.627436 0.481666
0.000000 0.627710 0.482429
0.268559 0.626368 0.485389
0.445747 0.622217 0.491218
0.594629 0.620294 0.490730
0.734951 0.615961 0.492470
0.860044 0.610895 0.495369
0.966339 0.606867 0.501091
0.000000 0.761379 0.471382
0.000000 0.759304 0.471778
0.278325 0.757992 0.481056
0.443671 0.755367 0.491585
0.585626 0.753475 0.494270
0.724147 0.751400 0.495644
0.854734 0.744930 0.498573
0.961151 0.730709 0.505241
0.000000 0.879606 0.466041
0.101320 0.878660 0.469368
0.296757 0.876036 0.480781
0.451850 0.872343 0.497200
0.581964 0.870024 0.502647
0.709804 0.867399 0.505333
0.836576 0.864103 0.508721
0.956634 0.856931 0.514397
0.101534 0.975555 0.462928
0.181338 0.974762 0.466804
0.318090 0.972656 0.478676
0.474311 0.967620 0.512566
0.583429 0.965393 0.515465
0.697536 0.962310 0.518914
0.812802 0.958404 0.523186
0.927092 0.953918 0.528954
0.000000 0.000000 0.652522
0.078920 0.000000 0.651392
0.282444 0.000000 0.650904
0.448493 0.000000 0.648890
0.608453 0.000000 0.647181
0.748135 0.000000 0.633387
0.870787 0.151797 0.620691
0.974060 0.242557 0.611048
0.000000 0.097200 0.650935
0.000000 0.095491 0.649287
0.277287 0.093141 0.648890
0.446845 0.092958 0.648585
0.607538 0.099794 0.647181
0.747158 0.150423 0.633906
0.869627 0.219547 0.622339
0.973236 0.282078 0.613031
0.000000 0.294408 0.648615
0.000000 0.295140 0.648127
0.273503 0.297246 0.648463
0.445624 0.301640 0.648066
0.605585 0.311040 0.647028
0.745113 0.330571 0.637903
0.867338 0.353796 0.628016
0.970977 0.386816 0.620661
0.000000 0.462684 0.647120
0.000000 0.463508 0.647242
0.283391 0.468330 0.646357
0.452522 0.475441 0.644984
0.600946 0.477058 0.644312
0.739559 0.482307 0.639612
0.861936 0.493385 0.634119
0.965270 0.511833 0.631525
0.000000 0.622553 0.644068
0.000000 0.622370 0.643854
0.283330 0.622400 0.643580
0.449928 0.622095 0.643000
0.598474 0.623102 0.642908
0.734768 0.625360 0.642969
0.856321 0.629267 0.643610
0.959289 0.635309 0.645716
0.000000 0.763882 0.632593
0.062684 0.763302 0.633356
0.295323 0.761929 0.636316
0.453223 0.759731 0.639033
0.599054 0.756985 0.642115
0.729091 0.753658 0.643397
0.851408 0.749355 0.643091
0.954864 0.743832 0.646448
0.000000 0.879423 0.615534
0.156130 0.878996 0.617365
0.311986 0.877287 0.622004
0.458564 0.873991 0.628138
0.601373 0.869505 0.639399
0.723842 0.866636 0.646815
0.840604 0.864652 0.648829
0.951934 0.859251 0.653193
0.167422 0.975921 0.600458
0.220737 0.975372 0.602502
0.338262 0.973480 0.608637
0.469215 0.968750 0.617670
0.615930 0.962554 0.646235
0.722103 0.959686 0.653773
0.826139 0.956817 0.656764
0.930755 0.953552 0.660975
0.000000 0.000000 0.779232
0.011872 0.000000 0.778958
0.266575 0.000000 0.779446
0.428565 0.000000 0.778592
0.582818 0.000000 0.777584
0.732570 0.052186 0.776211
0.865232 0.166934 0.764858
0.968353 0.251804 0.742611
0.000000 0.101991 0.781613
0.000000 0.103059 0.781552
0.267613 0.108705 0.781216
0.429969 0.119417 0.780148
0.584070 0.139925 0.778622
0.732967 0.175479 0.776791
0.864988 0.230106 0.765713
0.967956 0.290166 0.743801
0.000000 0.295201 0.778073
0.080110 0.296422 0.778378
0.276921 0.300389 0.778317
0.435401 0.308171 0.777462
0.586694 0.322026 0.776455
0.731197 0.338293 0.775051
0.862181 0.356756 0.766049
0.965240 0.390387 0.746426
0.000000 0.453071 0.775937
0.129824 0.456641 0.776059
0.311192 0.468482 0.775082
0.453193 0.474403 0.772854
0.590051 0.477760 0.771664
0.727230 0.483772 0.771054
0.856748 0.493385 0.764981
0.960143 0.512993 0.750210
0.000000 0.603876 0.774990
0.147219 0.605341 0.774716
0.313848 0.609583 0.773892
0.461707 0.615076 0.772671
0.602258 0.623346 0.771664
0.729915 0.625910 0.771481
0.854246 0.630091 0.766995
0.955505 0.641749 0.758785
0.024475 0.749569 0.773037
0.163272 0.749142 0.772427
0.314641 0.749233 0.772091
0.462165 0.749813 0.771664
0.602014 0.751614 0.771542
0.732601 0.753475 0.770596
0.848814 0.756435 0.769955
0.948150 0.761776 0.771328
0.121950 0.877348 0.759976
0.190982 0.876555 0.759823
0.323919 0.875059 0.760342
0.466194 0.872282 0.761074
0.603418 0.868986 0.762234
0.733730 0.865354 0.766537
0.844511 0.863859 0.772183
0.945892 0.861936 0.774563
0.211154 0.974609 0.734890
0.253056 0.974151 0.735775
0.359747 0.972290 0.738735
0.485512 0.968536 0.743130
0.614984 0.963714 0.750973
0.744106 0.957519 0.768856
0.842649 0.954589 0.777707
0.935027 0.952911 0.780636
0.000000 0.000000 0.892699
0.024048 0.000000 0.892210
0.257969 0.000000 0.891600
0.412268 0.000000 0.890318
0.559442 0.083803 0.889036
0.702632 0.151705 0.887449
0.840421 0.215824 0.885588
0.963439 0.269841 0.875212
0.000000 0.121889 0.893034
0.071015 0.124331 0.892607
0.263432 0.134188 0.891966
0.416022 0.152102 0.890959
0.562432 0.181003 0.889677
0.704982 0.222324 0.888121
0.841520 0.266972 0.886473
0.963958 0.308629 0.876371
0.045624 0.303868 0.890135
0.150362 0.305303 0.889982
0.290898 0.311284 0.889616
0.432776 0.322820 0.888701
0.573114 0.340246 0.887602
0.708980 0.359442 0.886229
0.840421 0.377691 0.884611
0.960784 0.403052 0.875120
0.188266 0.462562 0.886351
0.239658 0.467231 0.886259
0.349950 0.477577 0.885710
0.464363 0.481758 0.884947
0.588464 0.488624 0.884184
0.714595 0.497658 0.882994
0.839506 0.508354 0.881621
0.956603 0.522667 0.873686
0.204166 0.594659 0.884886
0.250126 0.597101 0.884825
0.359991 0.604395 0.884367
0.490639 0.617548 0.882963
0.612543 0.628840 0.881773
0.726528 0.633631 0.881132
0.842283 0.639643 0.880461
0.952483 0.648066 0.873472
0.217777 0.726284 0.882567
0.258610 0.727138 0.882383
0.364752 0.730465 0.881834
0.491768 0.736416 0.880735
0.619409 0.744839 0.879484
0.741207 0.756497 0.877897
0.845090 0.759792 0.877653
0.947662 0.765286 0.873686
0.229862 0.855680 0.879393
0.268009 0.855650 0.879179
0.370367 0.856107 0.878813
0.493111 0.857084 0.878233
0.620630 0.859129 0.877897
0.742702 0.862058 0.877653
0.851164 0.865721 0.877775
0.943908 0.870542 0.878843
0.263737 0.974273 0.869261
0.297642 0.973693 0.869230
0.387701 0.971069 0.868223
0.504356 0.967559 0.867674
0.629084 0.963134 0.868162
0.748043 0.958343 0.870115
0.855314 0.954162 0.875395
0.940520 0.953216 0.882078
0.000000 0.000000 0.979706
0.093202 0.000000 0.979461
0.257511 0.066590 0.979126
0.399786 0.112062 0.978119
0.537926 0.160891 0.976776
0.673243 0.216373 0.975067
0.803372 0.271153 0.973022
0.927428 0.316381 0.971405
0.000000 0.152987 0.979492
0.124208 0.156283 0.979248
0.268284 0.168673 0.978820
0.406683 0.191257 0.977905
0.543084 0.224430 0.976532
0.676814 0.267765 0.974823
0.805051 0.309880 0.972992
0.927977 0.347997 0.971466
0.169924 0.319799 0.977508
0.211765 0.321935 0.977325
0.314885 0.330236 0.976989
0.436011 0.343694 0.975708
0.562036 0.363043 0.974517
0.687007 0.384649 0.973236
0.809293 0.407599 0.971740
0.928527 0.435676 0.970306
0.297612 0.483009 0.973632
0.319219 0.483803 0.973449
0.386328 0.487404 0.973175
0.481025 0.493446 0.972412
0.589319 0.502708 0.971435
0.703029 0.515618 0.970336
0.817075 0.530480 0.969146
0.929503 0.547356 0.968109
0.320592 0.597650 0.971435
0.347784 0.600793 0.971069
0.429358 0.612909 0.970184
0.535729 0.631983 0.968597
0.626825 0.637873 0.968017
0.726223 0.645350 0.967315
0.828916 0.654536 0.966461
0.931914 0.665919 0.965698
0.334234 0.711971 0.969116
0.361028 0.714290 0.968994
0.439094 0.721859 0.968414
0.542077 0.733730 0.967254
0.654078 0.750546 0.965515
0.755062 0.764950 0.963806
0.843900 0.769772 0.963043
0.935149 0.776883 0.962829
0.349737 0.827939 0.966400
0.374487 0.829068 0.966339
0.447700 0.832731 0.965972
0.547936 0.838804 0.965148
0.658747 0.847868 0.963989
0.766567 0.859281 0.962707
0.863706 0.872343 0.961608
0.941314 0.877073 0.961975
0.367224 0.945800 0.963867
0.390204 0.946014 0.963867
0.458778 0.946654 0.963622
0.555505 0.947478 0.962982
0.663691 0.948913 0.962249
0.769680 0.950958 0.961730
0.867460 0.953491 0.961669
0.949767 0.956939 0.962463
