其他预设/【232】美食博客调色预设124款/1.3D LUT预设（视频调色-PR-AE-PS-FCPX-达芬奇用）/Food Art #35.cube
# Created by Adobe Lightroom plugin Export LUT (1.17.0)
# www.johnrellis.com/lightroom/exportlut.htm
# Preset: Food Art #35
# Color profile: /Library/Application Support/Adobe/Color/Profiles/Recommended/AdobeRGB1998.icc
LUT_3D_SIZE 32
0.258152 0.240482 0.213809
0.258152 0.240482 0.213809
0.258152 0.240482 0.213809
0.250584 0.240635 0.213077
0.240055 0.240085 0.211276
0.235447 0.238743 0.209842
0.234745 0.236759 0.208469
0.238743 0.234165 0.207065
0.248203 0.231571 0.205783
0.263005 0.229435 0.204654
0.282231 0.227512 0.203403
0.304509 0.226108 0.201999
0.329442 0.224338 0.200198
0.356329 0.221103 0.197543
0.384771 0.217533 0.194430
0.414191 0.213840 0.191501
0.444099 0.210330 0.188754
0.474159 0.206912 0.185946
0.503838 0.204013 0.183505
0.533806 0.201236 0.181369
0.563287 0.199069 0.179721
0.592248 0.197635 0.178714
0.620874 0.196963 0.178317
0.650629 0.197360 0.178714
0.682582 0.198550 0.179873
0.716518 0.200870 0.182101
0.752163 0.204623 0.185306
0.789425 0.209720 0.189487
0.828122 0.216617 0.195163
0.868132 0.225315 0.202274
0.909300 0.236423 0.211337
0.951385 0.250431 0.223026
0.258152 0.240482 0.213809
0.258152 0.240482 0.213809
0.258152 0.240482 0.213809
0.249699 0.240696 0.212985
0.239841 0.240024 0.211276
0.235508 0.238102 0.209598
0.235050 0.235691 0.208133
0.239322 0.233310 0.206821
0.248936 0.231449 0.205661
0.264042 0.229526 0.204410
0.283452 0.228122 0.203281
0.306157 0.226780 0.201877
0.331243 0.224857 0.199863
0.358343 0.221653 0.196963
0.386938 0.218265 0.194034
0.416510 0.214908 0.191043
0.446632 0.211368 0.188235
0.476661 0.208438 0.185611
0.506371 0.205570 0.183139
0.536370 0.202945 0.181094
0.565728 0.200900 0.179538
0.594568 0.199802 0.178500
0.623102 0.199130 0.178225
0.652949 0.199741 0.178683
0.684840 0.201053 0.180087
0.718776 0.203677 0.182498
0.754360 0.207431 0.185641
0.791562 0.212802 0.190005
0.830167 0.219577 0.195773
0.870146 0.228458 0.203128
0.911223 0.239750 0.212222
0.953216 0.253758 0.223911
0.258152 0.240482 0.213809
0.258152 0.240482 0.213809
0.258152 0.240482 0.213809
0.248661 0.239689 0.213016
0.239780 0.237888 0.211185
0.235630 0.236027 0.209415
0.235325 0.234226 0.207858
0.239872 0.232639 0.206668
0.249760 0.231022 0.205264
0.265049 0.229831 0.204227
0.284611 0.228672 0.202976
0.307347 0.227695 0.201511
0.332647 0.225711 0.199283
0.359747 0.222873 0.196567
0.388342 0.219577 0.193484
0.418097 0.216312 0.190677
0.448188 0.213321 0.187808
0.478309 0.210452 0.185183
0.508049 0.207736 0.182895
0.537835 0.205539 0.180819
0.567132 0.203494 0.179385
0.595941 0.202396 0.178347
0.624292 0.202365 0.178134
0.654170 0.202670 0.178866
0.686061 0.204349 0.180331
0.720058 0.207065 0.182589
0.755612 0.211002 0.185702
0.792782 0.216373 0.190402
0.831388 0.223178 0.196139
0.871244 0.232212 0.203555
0.912322 0.243320 0.212802
0.954314 0.257420 0.224582
0.257298 0.230381 0.212924
0.257237 0.229892 0.212955
0.257053 0.229129 0.212924
0.248112 0.229465 0.212406
0.239902 0.231144 0.210910
0.235904 0.231785 0.209079
0.235996 0.231632 0.207492
0.240787 0.231235 0.206149
0.251011 0.230900 0.204929
0.266453 0.230625 0.203891
0.286076 0.230320 0.202457
0.309056 0.229679 0.200717
0.334356 0.227848 0.198337
0.361639 0.225528 0.195529
0.390356 0.222904 0.192721
0.420020 0.220310 0.189822
0.450263 0.217655 0.187015
0.480446 0.215274 0.184543
0.510277 0.212863 0.182315
0.540215 0.211093 0.180270
0.569451 0.209415 0.178927
0.598138 0.208652 0.178225
0.626368 0.208591 0.178134
0.655970 0.209323 0.178988
0.687556 0.211215 0.180301
0.721096 0.213962 0.182712
0.756283 0.217899 0.186221
0.793271 0.223362 0.190890
0.831754 0.230259 0.196475
0.871702 0.239170 0.203952
0.912902 0.250401 0.213474
0.955138 0.264500 0.225620
0.254887 0.222477 0.210910
0.254826 0.222385 0.210941
0.253910 0.222293 0.210666
0.248692 0.222782 0.210300
0.241215 0.223392 0.209689
0.236576 0.225956 0.208286
0.237064 0.228183 0.206760
0.242313 0.229831 0.205509
0.253147 0.231022 0.204318
0.268833 0.232212 0.203037
0.288914 0.232914 0.201480
0.311894 0.232517 0.199252
0.337194 0.231724 0.196872
0.364477 0.230076 0.194064
0.393042 0.228458 0.191318
0.422370 0.226535 0.188602
0.452277 0.224430 0.185946
0.482155 0.222599 0.183536
0.511833 0.221012 0.181460
0.541680 0.219730 0.179629
0.570947 0.218357 0.178470
0.599573 0.218143 0.177829
0.627771 0.218173 0.178103
0.657404 0.219303 0.178988
0.688930 0.221378 0.180667
0.722377 0.224582 0.183108
0.757534 0.228763 0.186679
0.794491 0.234073 0.191409
0.833036 0.241184 0.197238
0.872984 0.250004 0.204929
0.914214 0.261173 0.214542
0.956359 0.275181 0.226749
0.252232 0.219516 0.208682
0.252171 0.219425 0.208591
0.250980 0.219669 0.208499
0.248020 0.220127 0.208042
0.243717 0.220951 0.207706
0.239078 0.221836 0.206973
0.238376 0.225010 0.205997
0.244144 0.228855 0.204623
0.255131 0.232212 0.203433
0.271336 0.234714 0.201663
0.291234 0.236271 0.199680
0.314183 0.237064 0.197421
0.339391 0.237186 0.195010
0.366522 0.236881 0.192355
0.394995 0.236027 0.189761
0.424353 0.235172 0.187076
0.453986 0.233860 0.184726
0.483619 0.232761 0.182437
0.513085 0.231785 0.180575
0.542626 0.230930 0.178927
0.571618 0.230320 0.177981
0.600000 0.230228 0.177432
0.615534 0.228794 0.177523
0.644923 0.229892 0.178195
0.676448 0.231693 0.179599
0.710048 0.234745 0.181918
0.745663 0.238743 0.185061
0.783108 0.243870 0.189425
0.822202 0.250767 0.194980
0.862821 0.259251 0.202457
0.904814 0.270085 0.211673
0.948028 0.283543 0.223697
0.250004 0.220829 0.206790
0.249393 0.220951 0.206699
0.248783 0.221164 0.206607
0.247257 0.221775 0.206394
0.245182 0.222568 0.205997
0.243198 0.223545 0.205570
0.241794 0.224826 0.204959
0.244938 0.228458 0.203799
0.255589 0.233433 0.201938
0.270939 0.237369 0.199924
0.290105 0.240452 0.197910
0.312322 0.242618 0.195743
0.337011 0.243900 0.193423
0.364050 0.244846 0.190982
0.392493 0.245274 0.188449
0.421820 0.245243 0.185916
0.451575 0.245121 0.183536
0.481300 0.244785 0.181521
0.510460 0.244236 0.179751
0.539605 0.243870 0.178347
0.567803 0.243656 0.177432
0.595209 0.243595 0.177157
0.621942 0.244297 0.177432
0.650080 0.245365 0.178439
0.680354 0.247349 0.180056
0.713222 0.250462 0.182528
0.748409 0.254765 0.185977
0.785641 0.260288 0.190646
0.824704 0.267277 0.196323
0.865324 0.276036 0.204105
0.907347 0.286778 0.213718
0.950469 0.300328 0.226047
0.247044 0.227543 0.204562
0.246921 0.227756 0.204532
0.246799 0.228092 0.204410
0.246372 0.228672 0.204044
0.246128 0.229709 0.203433
0.246372 0.230930 0.202701
0.247715 0.232273 0.201907
0.250706 0.233860 0.200900
0.258549 0.237583 0.199405
0.274083 0.243107 0.197513
0.293462 0.247715 0.195499
0.315618 0.251133 0.193362
0.340398 0.253758 0.191043
0.367224 0.255650 0.188663
0.395544 0.257206 0.186282
0.424964 0.258274 0.183932
0.454566 0.259129 0.181857
0.484047 0.259403 0.179995
0.513207 0.259648 0.178439
0.542199 0.259709 0.177340
0.570336 0.259983 0.176730
0.597589 0.260349 0.176761
0.624353 0.261265 0.177371
0.652644 0.262669 0.178744
0.682979 0.265049 0.180636
0.715938 0.268589 0.183322
0.751064 0.273106 0.187137
0.788357 0.278843 0.191897
0.827298 0.286076 0.198032
0.867887 0.294926 0.205844
0.909789 0.305882 0.215732
0.952789 0.319249 0.228550
0.243259 0.240391 0.200809
0.243412 0.240635 0.200778
0.243717 0.240970 0.200534
0.244388 0.241611 0.200229
0.245945 0.242557 0.199771
0.248356 0.243687 0.199130
0.252201 0.245243 0.198306
0.257786 0.246891 0.197421
0.265293 0.248539 0.196323
0.277226 0.251743 0.194949
0.296483 0.257481 0.192935
0.318608 0.261967 0.190829
0.343236 0.265904 0.188663
0.369970 0.268956 0.186435
0.398199 0.271427 0.184115
0.427375 0.273533 0.182040
0.456916 0.274907 0.180209
0.486336 0.276158 0.178531
0.515312 0.276921 0.177279
0.544152 0.277592 0.176455
0.572137 0.278233 0.176028
0.599329 0.278843 0.176394
0.626093 0.279789 0.177584
0.654536 0.281651 0.179110
0.685054 0.284276 0.181369
0.718044 0.288090 0.184298
0.753323 0.292943 0.188296
0.790494 0.299046 0.193454
0.829496 0.306493 0.199832
0.870146 0.315557 0.207919
0.912016 0.326696 0.218326
0.955016 0.340124 0.231266
0.239292 0.258305 0.196780
0.239902 0.258579 0.196628
0.240665 0.258885 0.196567
0.242374 0.259464 0.196231
0.245243 0.260472 0.195804
0.249546 0.261570 0.195193
0.255406 0.262882 0.194522
0.263157 0.264378 0.193606
0.272862 0.266056 0.192599
0.284642 0.267613 0.191592
0.299992 0.270298 0.190249
0.322148 0.275853 0.188144
0.346746 0.280583 0.186130
0.373175 0.284581 0.183932
0.401007 0.287785 0.182040
0.429694 0.290471 0.180117
0.458747 0.292638 0.178500
0.487617 0.294224 0.177157
0.516472 0.295598 0.176181
0.545220 0.296788 0.175631
0.573327 0.297887 0.175601
0.600763 0.298894 0.176486
0.628016 0.300298 0.177890
0.657008 0.302373 0.179629
0.687984 0.305394 0.182406
0.721096 0.309545 0.185641
0.756222 0.314824 0.189822
0.793332 0.321111 0.195254
0.832029 0.328862 0.201999
0.872313 0.337926 0.210208
0.913909 0.348943 0.220768
0.956573 0.362219 0.234073
0.235386 0.280583 0.192355
0.235996 0.280797 0.192203
0.237339 0.281010 0.192142
0.239994 0.281407 0.191989
0.244236 0.282200 0.191531
0.250156 0.283116 0.191073
0.257786 0.284367 0.190402
0.267277 0.285679 0.189639
0.278752 0.286961 0.188785
0.292088 0.288518 0.187869
0.307408 0.290013 0.186862
0.325444 0.292241 0.185550
0.349981 0.297734 0.183658
0.376379 0.302403 0.181643
0.403998 0.306340 0.179934
0.432410 0.309575 0.178347
0.461158 0.312200 0.176974
0.489967 0.314305 0.175906
0.518730 0.316136 0.175143
0.547265 0.317601 0.175051
0.575219 0.319066 0.175448
0.602472 0.320287 0.176547
0.629755 0.321782 0.178256
0.658808 0.324132 0.180514
0.689845 0.327611 0.183383
0.723079 0.332067 0.187045
0.758389 0.337560 0.191592
0.795590 0.344274 0.197238
0.834440 0.352270 0.204227
0.874723 0.361639 0.213046
0.916320 0.372778 0.223850
0.958831 0.386236 0.237644
0.231724 0.305303 0.187961
0.232670 0.305455 0.187930
0.234379 0.305608 0.187839
0.237613 0.306065 0.187533
0.243015 0.306615 0.187259
0.250065 0.307378 0.186801
0.259312 0.308446 0.186282
0.270390 0.309514 0.185550
0.283299 0.310674 0.184848
0.298100 0.311925 0.184085
0.314519 0.313207 0.183230
0.332525 0.314549 0.182315
0.345159 0.310033 0.182437
0.370672 0.315465 0.180575
0.397467 0.320134 0.178897
0.425330 0.324163 0.177462
0.453895 0.327672 0.176120
0.482612 0.330541 0.175174
0.511406 0.333074 0.174563
0.540368 0.335332 0.174563
0.568902 0.337316 0.175082
0.596796 0.339086 0.176150
0.624537 0.341100 0.178225
0.653986 0.343847 0.180606
0.685512 0.347662 0.183474
0.719020 0.352514 0.187442
0.754665 0.358495 0.191958
0.792203 0.365606 0.197940
0.831510 0.373938 0.205234
0.872282 0.383673 0.214023
0.914275 0.395239 0.225254
0.957214 0.408637 0.239292
0.228824 0.328130 0.184207
0.229984 0.328313 0.184115
0.231662 0.328710 0.183993
0.235660 0.329229 0.183780
0.241733 0.330175 0.183536
0.249821 0.331395 0.183017
0.260075 0.332525 0.182559
0.272221 0.333623 0.181979
0.286137 0.334569 0.181460
0.301701 0.335363 0.180819
0.318578 0.335973 0.180240
0.336584 0.336553 0.179538
0.355810 0.337224 0.178897
0.376379 0.338140 0.178195
0.402472 0.342504 0.176883
0.429694 0.346563 0.175753
0.457740 0.350195 0.174838
0.486091 0.353338 0.174166
0.514885 0.356146 0.173953
0.543633 0.358587 0.174258
0.571862 0.360754 0.175235
0.599512 0.362676 0.176852
0.627405 0.364843 0.179202
0.657069 0.367926 0.182010
0.688685 0.372137 0.185275
0.722377 0.377295 0.189364
0.758114 0.383642 0.194491
0.795682 0.391119 0.200839
0.834897 0.399725 0.208347
0.875547 0.409766 0.217929
0.917388 0.421454 0.229313
0.960052 0.435004 0.243748
0.226017 0.356878 0.180117
0.227451 0.356970 0.180056
0.229465 0.357366 0.179904
0.233890 0.357946 0.179751
0.240879 0.358740 0.179477
0.250065 0.359838 0.179171
0.261326 0.360876 0.178744
0.274723 0.361761 0.178378
0.289891 0.362554 0.177890
0.306462 0.363195 0.177462
0.324437 0.363684 0.177035
0.343359 0.364050 0.176638
0.363378 0.364508 0.176089
0.384649 0.365270 0.175692
0.407019 0.366278 0.175296
0.433814 0.370214 0.174502
0.461616 0.373968 0.173831
0.489876 0.377356 0.173678
0.518303 0.380285 0.173800
0.546746 0.382849 0.174411
0.574731 0.385016 0.175845
0.602045 0.386938 0.177829
0.629969 0.389349 0.180636
0.659754 0.392615 0.183780
0.691463 0.397040 0.187320
0.725185 0.402564 0.191989
0.760922 0.409186 0.197391
0.798550 0.417060 0.203738
0.837736 0.426032 0.211887
0.878264 0.436378 0.221469
0.919921 0.448188 0.233738
0.962402 0.461860 0.248417
0.224094 0.386175 0.176455
0.225772 0.386236 0.176394
0.228061 0.386450 0.176394
0.233127 0.387030 0.176211
0.240635 0.387915 0.175998
0.250584 0.388952 0.175753
0.263035 0.389807 0.175540
0.277287 0.390631 0.175265
0.293278 0.391333 0.174960
0.310857 0.391821 0.174594
0.329320 0.392157 0.174533
0.349126 0.392370 0.174075
0.369818 0.392615 0.173983
0.391485 0.393164 0.173800
0.414282 0.394049 0.173739
0.438087 0.395270 0.173648
0.465156 0.398627 0.173434
0.493263 0.402167 0.173434
0.521508 0.405249 0.174075
0.549676 0.407874 0.175021
0.577386 0.410040 0.176791
0.604547 0.411994 0.179324
0.632685 0.414496 0.182254
0.662531 0.418097 0.185916
0.694331 0.422705 0.189822
0.727993 0.428504 0.194705
0.763546 0.435309 0.200229
0.800717 0.443244 0.207065
0.839445 0.452338 0.215183
0.879515 0.462654 0.225254
0.920684 0.474464 0.237339
0.962737 0.487953 0.252445
0.223575 0.415656 0.173587
0.225345 0.415717 0.173617
0.227695 0.415717 0.173556
0.232914 0.416144 0.173495
0.240970 0.416693 0.173434
0.251804 0.417334 0.173251
0.264561 0.417945 0.173190
0.279362 0.418585 0.173007
0.295781 0.419013 0.172976
0.313848 0.419501 0.172824
0.333318 0.419898 0.172671
0.353735 0.420386 0.172732
0.374975 0.420935 0.172610
0.397498 0.421668 0.172549
0.420783 0.422583 0.172763
0.444953 0.423804 0.172946
0.469795 0.425147 0.173190
0.496803 0.427924 0.173770
0.524712 0.430854 0.174533
0.552300 0.433234 0.176028
0.579553 0.435279 0.178073
0.606378 0.437018 0.181094
0.634424 0.439612 0.184268
0.664271 0.443336 0.188022
0.695979 0.448249 0.192416
0.729641 0.454231 0.197299
0.765042 0.461311 0.203281
0.802182 0.469520 0.210361
0.840848 0.478950 0.218967
0.880980 0.489601 0.229252
0.922271 0.501701 0.241794
0.964416 0.515557 0.257420
0.223972 0.445563 0.171817
0.225956 0.445686 0.171695
0.228580 0.445808 0.171695
0.234104 0.446174 0.171664
0.242557 0.446571 0.171725
0.253666 0.447120 0.171664
0.266880 0.447578 0.171725
0.282200 0.448066 0.171786
0.299351 0.448524 0.171725
0.317784 0.448798 0.171817
0.337682 0.449195 0.171847
0.358373 0.449409 0.172061
0.380133 0.449836 0.172183
0.402716 0.450355 0.172488
0.426154 0.451148 0.172824
0.450507 0.452277 0.173220
0.475502 0.453590 0.173648
0.500938 0.454902 0.174533
0.527916 0.457160 0.175479
0.555352 0.459541 0.177401
0.582330 0.461372 0.179934
0.609003 0.463142 0.183261
0.637201 0.465858 0.186862
0.667140 0.469856 0.191165
0.698939 0.474983 0.195560
0.732479 0.481178 0.200809
0.767788 0.488441 0.207156
0.804776 0.496956 0.214542
0.843320 0.506554 0.223453
0.883238 0.517479 0.234195
0.924285 0.529717 0.247105
0.966125 0.543664 0.263188
0.225986 0.474800 0.170932
0.227970 0.474556 0.170932
0.229679 0.467964 0.171023
0.235172 0.468238 0.171115
0.243656 0.468727 0.171054
0.254673 0.469368 0.171176
0.267918 0.470069 0.171298
0.283299 0.470771 0.171298
0.300420 0.471473 0.171267
0.318822 0.472084 0.171542
0.338689 0.472633 0.171756
0.359472 0.473243 0.172000
0.381384 0.473884 0.172396
0.404181 0.474800 0.172702
0.427741 0.475837 0.173312
0.451942 0.476997 0.174075
0.476967 0.478370 0.174807
0.502434 0.479835 0.175845
0.528313 0.481239 0.176852
0.555047 0.483253 0.178744
0.582116 0.485481 0.181613
0.608942 0.487373 0.185275
0.637354 0.490425 0.189151
0.667567 0.494789 0.193637
0.699763 0.500450 0.198550
0.733852 0.507408 0.204501
0.769680 0.515373 0.211063
0.807065 0.524559 0.219120
0.845792 0.534661 0.228244
0.885710 0.545830 0.239445
0.926665 0.558343 0.252781
0.968383 0.572503 0.269291
0.228916 0.502220 0.171359
0.230655 0.501427 0.171267
0.233127 0.500664 0.171298
0.238743 0.500084 0.171359
0.247318 0.499886 0.171206
0.258427 0.500053 0.171450
0.271977 0.500542 0.171603
0.287510 0.501091 0.171878
0.304814 0.501671 0.172091
0.323522 0.502129 0.172488
0.343542 0.502525 0.172854
0.364569 0.502983 0.173312
0.386572 0.503685 0.173922
0.409430 0.504356 0.174472
0.433112 0.505241 0.175174
0.457374 0.506371 0.176394
0.482246 0.507500 0.177523
0.507622 0.508659 0.178714
0.533227 0.509880 0.180301
0.559014 0.511009 0.182101
0.585138 0.512291 0.184695
0.611933 0.514275 0.188571
0.640406 0.517479 0.192691
0.670558 0.521996 0.197513
0.702693 0.527825 0.202670
0.736721 0.534936 0.208743
0.772488 0.543267 0.215702
0.809751 0.552636 0.224125
0.848417 0.563073 0.233646
0.888212 0.574609 0.245243
0.928985 0.587396 0.259098
0.970489 0.601617 0.276219
0.233707 0.531884 0.173037
0.235264 0.531182 0.173068
0.237980 0.530541 0.172915
0.243381 0.529961 0.173007
0.251957 0.529717 0.173129
0.263127 0.529839 0.173373
0.276890 0.530175 0.173526
0.292241 0.530632 0.174044
0.309575 0.530999 0.174411
0.328405 0.531426 0.174777
0.348486 0.531792 0.175235
0.369482 0.532067 0.175967
0.391516 0.532586 0.176699
0.414282 0.533196 0.177737
0.437964 0.533928 0.178683
0.462104 0.534813 0.179995
0.486793 0.535760 0.181613
0.511864 0.536797 0.183230
0.537224 0.537804 0.185061
0.562737 0.538781 0.187076
0.588464 0.539727 0.189242
0.614801 0.541222 0.192142
0.643275 0.544579 0.196933
0.673487 0.549371 0.201663
0.705684 0.555505 0.207309
0.739681 0.562951 0.213596
0.775479 0.571557 0.221103
0.812802 0.581384 0.229618
0.851408 0.592126 0.239689
0.891112 0.603967 0.251835
0.931792 0.616968 0.266209
0.973083 0.631464 0.283909
0.240208 0.560662 0.176516
0.241733 0.560052 0.176394
0.244144 0.559350 0.176394
0.249668 0.558923 0.176333
0.258091 0.558679 0.176455
0.269169 0.558740 0.176699
0.282475 0.559045 0.177096
0.298009 0.559380 0.177615
0.315251 0.559716 0.178103
0.333806 0.560021 0.178958
0.353643 0.560327 0.179538
0.374701 0.560693 0.180423
0.396612 0.561089 0.181369
0.419257 0.561639 0.182620
0.442725 0.562249 0.183780
0.466590 0.563043 0.185306
0.491005 0.563775 0.187015
0.515770 0.564569 0.188540
0.540887 0.565423 0.190463
0.566033 0.566125 0.192447
0.591333 0.566857 0.194736
0.616846 0.567681 0.196933
0.643458 0.569482 0.200046
0.673365 0.574182 0.205173
0.705135 0.580255 0.210727
0.738857 0.587854 0.217166
0.774350 0.596612 0.224491
0.811429 0.606622 0.233188
0.849943 0.617609 0.243656
0.889616 0.629786 0.255680
0.930297 0.643153 0.270329
0.971588 0.657862 0.288365
0.246799 0.586542 0.180911
0.248539 0.586328 0.180667
0.251011 0.586053 0.180789
0.256474 0.585962 0.180850
0.264866 0.586084 0.181064
0.275669 0.586358 0.181582
0.288945 0.586664 0.181857
0.304082 0.586938 0.182467
0.320836 0.587304 0.183169
0.339330 0.587610 0.183719
0.358801 0.587915 0.184756
0.379644 0.588281 0.185489
0.401434 0.588769 0.186587
0.423987 0.589441 0.188052
0.447272 0.590265 0.189303
0.471229 0.591241 0.190921
0.495674 0.592218 0.192691
0.520592 0.593317 0.194675
0.545830 0.594415 0.196597
0.571221 0.595514 0.198795
0.596979 0.596765 0.201266
0.622797 0.597955 0.203922
0.649012 0.599359 0.206668
0.676417 0.601831 0.210239
0.708400 0.608423 0.216129
0.742153 0.616327 0.222904
0.777615 0.625391 0.230777
0.814633 0.635615 0.239750
0.852964 0.646998 0.250523
0.892607 0.659480 0.263096
0.933104 0.673121 0.278447
0.974243 0.688045 0.296880
0.255833 0.617151 0.186709
0.257603 0.616846 0.186740
0.259861 0.616602 0.186862
0.265232 0.616510 0.186801
0.273289 0.616602 0.187137
0.284031 0.616938 0.187594
0.297093 0.617395 0.188113
0.311925 0.617914 0.188632
0.328801 0.618372 0.189334
0.347051 0.618799 0.190158
0.366644 0.619196 0.191196
0.387152 0.619715 0.192355
0.408820 0.620356 0.193332
0.431495 0.621088 0.194675
0.454749 0.622004 0.196353
0.478676 0.623011 0.198123
0.503105 0.624079 0.199863
0.527947 0.625238 0.201999
0.553155 0.626398 0.204288
0.578698 0.627588 0.206485
0.604456 0.628809 0.209110
0.630365 0.630030 0.211856
0.656519 0.631464 0.214847
0.682887 0.632959 0.217807
0.712642 0.637568 0.222599
0.746517 0.645869 0.229892
0.781918 0.655207 0.237858
0.818875 0.665888 0.247532
0.857176 0.677546 0.258610
0.896635 0.690242 0.271519
0.936889 0.704036 0.287388
0.977569 0.718990 0.306676
0.264897 0.647242 0.192996
0.266545 0.646937 0.192813
0.268803 0.646693 0.193027
0.274144 0.646754 0.193118
0.282139 0.647089 0.193454
0.292668 0.647578 0.193942
0.305486 0.648219 0.194491
0.320348 0.649073 0.195254
0.337133 0.649805 0.196231
0.355352 0.650660 0.197269
0.374945 0.651545 0.198367
0.395575 0.652430 0.199649
0.417395 0.653376 0.201175
0.440070 0.654566 0.202670
0.463600 0.655909 0.204562
0.487892 0.657343 0.206638
0.512688 0.658930 0.208835
0.537926 0.660426 0.211276
0.563378 0.661830 0.213565
0.589014 0.663081 0.216220
0.614862 0.664302 0.218906
0.640986 0.665675 0.221653
0.667445 0.667262 0.224796
0.694270 0.669093 0.228367
0.721401 0.671290 0.232059
0.749477 0.674250 0.236362
0.785031 0.684108 0.244785
0.822171 0.695247 0.254948
0.860594 0.707424 0.266575
0.899992 0.720546 0.280095
0.940124 0.734585 0.296513
0.980499 0.749660 0.316533
0.276707 0.682551 0.201450
0.278233 0.682185 0.201205
0.280461 0.681971 0.201419
0.285588 0.682063 0.201602
0.293553 0.682338 0.201816
0.303868 0.682918 0.202426
0.316442 0.683528 0.203250
0.331090 0.684260 0.203891
0.347631 0.684993 0.204990
0.365667 0.685786 0.205966
0.385016 0.686610 0.207401
0.405646 0.687404 0.208682
0.427222 0.688380 0.210056
0.449744 0.689448 0.211856
0.473274 0.690761 0.213809
0.497444 0.692256 0.215793
0.522210 0.693812 0.218296
0.547478 0.695430 0.220676
0.572992 0.696864 0.223423
0.598779 0.698268 0.226017
0.624720 0.699641 0.228794
0.651057 0.701137 0.232090
0.677638 0.702846 0.235355
0.704585 0.704829 0.238865
0.731899 0.707057 0.242771
0.759548 0.709621 0.247257
0.787381 0.712337 0.251835
0.824216 0.723537 0.262028
0.862486 0.736019 0.273777
0.901732 0.749386 0.287938
0.941680 0.763638 0.304723
0.981842 0.778836 0.325109
0.289677 0.719020 0.211124
0.291203 0.718746 0.211154
0.293492 0.718715 0.211185
0.298558 0.718959 0.211307
0.306218 0.719417 0.211795
0.316442 0.720058 0.212558
0.328985 0.720821 0.213321
0.343389 0.721675 0.214206
0.359899 0.722499 0.215366
0.377630 0.723323 0.216434
0.397009 0.724147 0.217746
0.417304 0.724971 0.219272
0.438880 0.725887 0.220829
0.461402 0.727016 0.222812
0.484810 0.728420 0.224735
0.509026 0.729976 0.227054
0.533928 0.731624 0.229831
0.559258 0.733333 0.232578
0.584955 0.734951 0.235355
0.610895 0.736538 0.238163
0.637079 0.738033 0.241245
0.663508 0.739681 0.244602
0.690333 0.741512 0.248112
0.717372 0.743557 0.252201
0.744839 0.745876 0.256413
0.772580 0.748470 0.260868
0.800595 0.751278 0.265873
0.828794 0.754330 0.271031
0.865995 0.766140 0.282567
0.905150 0.779812 0.297246
0.944945 0.794339 0.314733
0.984863 0.809628 0.335760
0.304936 0.758602 0.223087
0.306340 0.758450 0.223087
0.308751 0.758389 0.223087
0.313512 0.758602 0.223117
0.321111 0.758877 0.223636
0.330877 0.759274 0.224216
0.342809 0.759518 0.224826
0.356756 0.759731 0.225681
0.372442 0.759884 0.226535
0.389624 0.760067 0.227207
0.408179 0.760220 0.228458
0.428016 0.760525 0.229618
0.448981 0.760952 0.230991
0.471077 0.761715 0.232609
0.494118 0.762783 0.234684
0.518090 0.764248 0.237034
0.542840 0.765957 0.239689
0.568109 0.767697 0.242649
0.593713 0.769375 0.245731
0.619654 0.771054 0.248875
0.645869 0.772702 0.252171
0.672419 0.774533 0.255680
0.699275 0.776547 0.259373
0.726528 0.778744 0.263493
0.754086 0.781216 0.267979
0.781857 0.783902 0.273045
0.809873 0.786831 0.278050
0.838132 0.789914 0.283513
0.866484 0.793210 0.289281
0.903624 0.805295 0.302617
0.943481 0.820249 0.320500
0.983642 0.835966 0.341680
0.319432 0.795712 0.234623
0.320989 0.795682 0.234653
0.323247 0.795743 0.234989
0.328008 0.796048 0.234958
0.335393 0.796536 0.235538
0.345159 0.797086 0.236423
0.356939 0.797726 0.237369
0.370825 0.798306 0.238102
0.386481 0.798917 0.239322
0.403754 0.799557 0.240726
0.422461 0.800229 0.241947
0.442390 0.800961 0.243503
0.463508 0.801907 0.245274
0.485725 0.803037 0.247501
0.508904 0.804349 0.249729
0.532891 0.805905 0.252323
