其他预设/【232】美食博客调色预设124款/1.3D LUT预设（视频调色-PR-AE-PS-FCPX-达芬奇用）/Food Art #80.cube
# Created by Adobe Lightroom plugin Export LUT (1.17.0)
# www.johnrellis.com/lightroom/exportlut.htm
# Preset: Food Art #80
# Color profile: /Library/Application Support/Adobe/Color/Profiles/Recommended/AdobeRGB1998.icc
LUT_3D_SIZE 32
0.191684 0.154116 0.146181
0.191684 0.154116 0.146181
0.191684 0.154116 0.146181
0.191684 0.154116 0.146181
0.191684 0.154116 0.146181
0.191684 0.154116 0.146181
0.191684 0.154116 0.146181
0.192996 0.154147 0.146456
0.196201 0.153902 0.146670
0.200748 0.153506 0.147127
0.207370 0.152590 0.147433
0.217044 0.150668 0.147646
0.231785 0.147189 0.147616
0.253025 0.141146 0.147372
0.282383 0.130434 0.146914
0.320592 0.111818 0.145907
0.367071 0.079072 0.144259
0.418128 0.000000 0.141665
0.469337 0.000000 0.138338
0.518700 0.000000 0.134768
0.566705 0.000000 0.130007
0.612818 0.000000 0.124788
0.656611 0.000000 0.118685
0.696651 0.000000 0.112764
0.734005 0.000000 0.106538
0.767269 0.000000 0.100557
0.796262 0.000000 0.096620
0.822477 0.000000 0.094423
0.846494 0.000000 0.095460
0.868528 0.000000 0.102663
0.888762 0.000000 0.115145
0.907347 0.051087 0.134279
0.191684 0.154116 0.146181
0.191684 0.154116 0.146181
0.191684 0.154116 0.146181
0.191684 0.154116 0.146181
0.191684 0.154116 0.146181
0.191684 0.154116 0.146181
0.191684 0.154116 0.146181
0.193393 0.154208 0.146426
0.196719 0.153964 0.146792
0.201663 0.153475 0.147097
0.208713 0.152407 0.147524
0.219547 0.150179 0.147585
0.235599 0.146242 0.147646
0.258732 0.139223 0.147402
0.290410 0.126986 0.146700
0.331395 0.105440 0.145510
0.379980 0.071229 0.143648
0.432227 0.000000 0.140719
0.483864 0.000000 0.137240
0.532982 0.000000 0.133272
0.580163 0.000000 0.128267
0.624964 0.000000 0.122774
0.667018 0.000000 0.116793
0.705898 0.000000 0.110689
0.741756 0.000000 0.104372
0.773709 0.000000 0.098970
0.801663 0.000000 0.095338
0.827176 0.000000 0.093538
0.850614 0.000000 0.096437
0.872129 0.000000 0.104738
0.891844 0.000000 0.118563
0.910124 0.079927 0.138888
0.191684 0.154116 0.146181
0.191684 0.154116 0.146181
0.191684 0.154116 0.146181
0.191684 0.154116 0.146181
0.191684 0.154116 0.146181
0.191684 0.154116 0.146181
0.191836 0.154086 0.146181
0.193820 0.154116 0.146426
0.197238 0.153841 0.146792
0.202457 0.153292 0.147097
0.209995 0.152102 0.147524
0.221408 0.149691 0.147707
0.238529 0.145388 0.147585
0.262882 0.137758 0.147280
0.295933 0.124666 0.146670
0.338476 0.102449 0.145327
0.388251 0.069215 0.143008
0.441108 0.000000 0.140017
0.492775 0.000000 0.136263
0.541375 0.000000 0.131868
0.587640 0.000000 0.127138
0.631403 0.000000 0.121553
0.672358 0.000000 0.115480
0.710567 0.000000 0.109255
0.745693 0.000000 0.103182
0.777066 0.000000 0.097810
0.804562 0.000000 0.094087
0.829648 0.000000 0.093263
0.852750 0.000000 0.096681
0.873960 0.000000 0.105684
0.893492 0.015595 0.120760
0.911559 0.096895 0.142092
0.191684 0.154116 0.146181
0.191684 0.154116 0.146181
0.191684 0.154116 0.146181
0.191684 0.154116 0.146181
0.191684 0.154116 0.146181
0.191684 0.154116 0.146181
0.191806 0.154269 0.146181
0.194217 0.154055 0.146426
0.197757 0.153872 0.146914
0.203342 0.153079 0.147219
0.211460 0.151919 0.147463
0.223850 0.149203 0.147646
0.242130 0.144472 0.147494
0.268070 0.135866 0.147311
0.303197 0.121584 0.146273
0.347448 0.102846 0.144656
0.398749 0.073243 0.142092
0.452644 0.000000 0.138613
0.504692 0.000000 0.134646
0.553429 0.000000 0.129854
0.599725 0.000000 0.124666
0.642237 0.000000 0.118959
0.681300 0.000000 0.113008
0.717281 0.000000 0.106661
0.750149 0.000000 0.100771
0.779629 0.000000 0.096101
0.805875 0.000000 0.092836
0.830411 0.000000 0.091615
0.853208 0.000000 0.096376
0.874479 0.000000 0.105837
0.894194 0.075898 0.121706
0.912535 0.118318 0.144564
0.191684 0.154116 0.146181
0.191684 0.154116 0.146181
0.191684 0.154116 0.146181
0.191684 0.154116 0.146181
0.191684 0.154116 0.146181
0.191684 0.154116 0.146181
0.192203 0.154177 0.146334
0.195010 0.154025 0.146700
0.199222 0.153719 0.146883
0.205234 0.152956 0.147311
0.214389 0.151339 0.147555
0.228305 0.148165 0.147677
0.248569 0.142611 0.147494
0.276555 0.134829 0.146914
0.313146 0.123873 0.145785
0.357977 0.108827 0.143679
0.408911 0.087434 0.140749
0.461067 0.057221 0.136995
0.511925 0.000000 0.132906
0.560388 0.000000 0.127749
0.606104 0.000000 0.122377
0.648402 0.000000 0.116243
0.686549 0.000000 0.109895
0.721889 0.000000 0.103517
0.753780 0.000000 0.097932
0.782498 0.000000 0.093202
0.808286 0.000000 0.090089
0.832517 0.001648 0.090211
0.855161 0.057038 0.096071
0.876219 0.085206 0.107210
0.895750 0.113100 0.124544
0.913848 0.145113 0.148165
0.191684 0.154116 0.146181
0.191684 0.154116 0.146181
0.191684 0.154116 0.146181
0.191684 0.154116 0.146181
0.191684 0.154116 0.146181
0.191684 0.154116 0.146181
0.192599 0.154238 0.146304
0.195651 0.154025 0.146670
0.199985 0.153689 0.147005
0.206485 0.152804 0.147280
0.216373 0.151492 0.147616
0.231357 0.149264 0.147616
0.252873 0.145663 0.147189
0.282231 0.140230 0.146334
0.320073 0.132479 0.144869
0.365484 0.121767 0.142428
0.415839 0.108858 0.139101
0.467201 0.093782 0.135164
0.516258 0.076936 0.130678
0.563622 0.058808 0.125490
0.608392 0.032624 0.119631
0.649317 0.015625 0.113436
0.626551 0.000000 0.118196
0.669459 0.000000 0.111299
0.708980 0.000000 0.104372
0.745052 0.000000 0.097719
0.777188 0.000000 0.092195
0.805783 0.047028 0.088350
0.832212 0.075898 0.087739
0.856596 0.093843 0.093019
0.879271 0.113893 0.105379
0.900542 0.138857 0.125154
0.191806 0.154421 0.146151
0.191806 0.154421 0.146151
0.191806 0.154421 0.146151
0.191745 0.154574 0.146304
0.191745 0.154726 0.146304
0.191867 0.154879 0.146273
0.192081 0.155306 0.146395
0.194736 0.155337 0.146609
0.198398 0.155154 0.146944
0.203891 0.154971 0.147189
0.212009 0.154604 0.147524
0.224277 0.153445 0.147402
0.242588 0.151736 0.147189
0.268589 0.148989 0.146395
0.303868 0.145052 0.144961
0.348333 0.139254 0.142641
0.398627 0.132265 0.139284
0.449989 0.124392 0.135164
0.498573 0.116976 0.130739
0.544305 0.109834 0.125704
0.585840 0.104280 0.120272
0.623316 0.099580 0.115023
0.657801 0.095857 0.109712
0.690425 0.094575 0.103822
0.722530 0.097383 0.097810
0.753994 0.102388 0.091890
0.783536 0.110475 0.086702
0.810849 0.120851 0.083894
0.836545 0.130648 0.085115
0.860563 0.140993 0.093599
0.882872 0.154879 0.108980
0.903685 0.175113 0.131716
0.192111 0.156985 0.146548
0.192111 0.156985 0.146548
0.192111 0.157137 0.146548
0.192081 0.157290 0.146517
0.192172 0.157565 0.146639
0.192264 0.158022 0.146609
0.192721 0.158511 0.146700
0.195621 0.158816 0.146700
0.199771 0.158968 0.146853
0.205814 0.159152 0.147219
0.215000 0.159426 0.147280
0.228611 0.159579 0.147005
0.248631 0.159487 0.146517
0.276738 0.159091 0.145388
0.314092 0.158267 0.143465
0.360540 0.157107 0.140475
0.411536 0.155917 0.136324
0.462684 0.153902 0.131685
0.511131 0.152193 0.126528
0.556023 0.151492 0.120974
0.597009 0.150179 0.115114
0.633936 0.149294 0.109071
0.667445 0.148531 0.103273
0.699336 0.149111 0.097261
0.730617 0.151308 0.091066
0.760922 0.155306 0.084993
0.789212 0.161044 0.080140
0.815854 0.166781 0.079072
0.840818 0.172549 0.083589
0.864256 0.180392 0.094972
0.886046 0.191836 0.113375
0.906310 0.209445 0.139101
0.192538 0.161105 0.146761
0.192508 0.161257 0.146761
0.192508 0.161410 0.146761
0.192447 0.161715 0.146883
0.192508 0.162295 0.146822
0.192569 0.162875 0.146914
0.193301 0.163607 0.146822
0.196567 0.163973 0.146975
0.201328 0.164279 0.146914
0.207706 0.164645 0.146944
0.217533 0.165927 0.146883
0.232120 0.167483 0.146548
0.253696 0.169467 0.145785
0.283116 0.171817 0.144259
0.321996 0.174777 0.141787
0.369207 0.178225 0.138064
0.420142 0.181521 0.133425
0.471229 0.184817 0.127718
0.519066 0.186923 0.122042
0.563653 0.188815 0.115572
0.604120 0.190372 0.108949
0.640528 0.190921 0.102693
0.673793 0.191714 0.096132
0.705470 0.192996 0.089387
0.735958 0.194858 0.083131
0.765530 0.198032 0.076783
0.793240 0.201877 0.072999
0.819333 0.205478 0.074372
0.843931 0.209842 0.082185
0.867063 0.216556 0.097108
0.888548 0.226871 0.118196
0.908507 0.243015 0.147127
0.192691 0.168032 0.147036
0.192691 0.168185 0.147036
0.192630 0.168460 0.147005
0.192721 0.169009 0.146944
0.192660 0.169589 0.146883
0.192477 0.170748 0.146944
0.194125 0.171664 0.146944
0.198520 0.172457 0.146853
0.204318 0.173220 0.146700
0.211643 0.173922 0.146670
0.221286 0.175113 0.146456
0.237552 0.178500 0.145663
0.260472 0.182834 0.144381
0.291142 0.188052 0.142519
0.330114 0.194186 0.139315
0.375799 0.200931 0.135256
0.424903 0.207584 0.129854
0.474098 0.213535 0.123812
0.521080 0.218814 0.117403
0.565850 0.223026 0.110262
0.607721 0.226932 0.102571
0.645624 0.229831 0.094545
0.680354 0.232181 0.086793
0.713008 0.234104 0.078950
0.743587 0.236606 0.071443
0.772244 0.238621 0.066133
0.798734 0.240360 0.065217
0.823789 0.242222 0.071015
0.847349 0.245975 0.082063
0.869535 0.251347 0.099855
0.890196 0.260288 0.123018
0.909483 0.274662 0.153719
0.191989 0.180758 0.146548
0.191958 0.180880 0.146548
0.191897 0.181277 0.146487
0.191836 0.181827 0.146456
0.191867 0.182712 0.146365
0.191806 0.183993 0.146365
0.195041 0.185214 0.146120
0.200809 0.186191 0.145937
0.208347 0.187289 0.145693
0.217594 0.188388 0.145480
0.228580 0.189609 0.145174
0.242618 0.191623 0.144625
0.266941 0.198672 0.142824
0.298985 0.206760 0.140200
0.338811 0.216373 0.136385
0.384863 0.226627 0.131228
0.433722 0.236454 0.125002
0.482429 0.245548 0.117830
0.529137 0.252995 0.110231
0.573602 0.259434 0.101656
0.614527 0.264408 0.092714
0.651728 0.267735 0.083894
0.685481 0.270420 0.074769
0.717494 0.272282 0.065980
0.747494 0.273777 0.058839
0.775692 0.274846 0.052674
0.801877 0.275822 0.057862
0.826810 0.277775 0.067323
0.850187 0.280766 0.083497
0.872068 0.285985 0.104189
0.892393 0.294377 0.131380
0.911223 0.308324 0.165194
0.190341 0.200046 0.145052
0.190280 0.200412 0.145022
0.190249 0.200748 0.144961
0.190127 0.201450 0.145052
0.189914 0.202731 0.144900
0.191257 0.204013 0.144686
0.196567 0.205325 0.144503
0.203983 0.206668 0.144198
0.213535 0.207950 0.143801
0.224887 0.209262 0.143282
0.238102 0.210483 0.142824
0.252934 0.211887 0.142061
0.244724 0.194064 0.144228
0.268589 0.201633 0.142367
0.299870 0.210788 0.139773
0.339055 0.221439 0.135805
0.384649 0.233310 0.130373
0.432929 0.244938 0.123751
0.481880 0.255985 0.116182
0.530114 0.265934 0.107485
0.576410 0.275029 0.097627
0.619867 0.282475 0.086763
0.659785 0.288579 0.075196
0.696437 0.293462 0.063020
0.730648 0.297276 0.045899
0.761868 0.299657 0.032532
0.790463 0.301549 0.034394
0.817227 0.303868 0.052155
0.842374 0.306981 0.072236
0.865751 0.311589 0.096193
0.887419 0.319310 0.125093
0.907286 0.331762 0.161166
0.188571 0.213993 0.143832
0.188479 0.214450 0.143771
0.188327 0.215518 0.143648
0.188022 0.217227 0.143435
0.187716 0.219974 0.143069
0.190524 0.223056 0.142702
0.196994 0.225467 0.142275
0.206027 0.227543 0.141787
0.216739 0.228855 0.141299
0.228794 0.229099 0.140871
0.241459 0.228489 0.140505
0.254643 0.227268 0.140169
0.268650 0.226413 0.139834
0.284306 0.226322 0.139101
0.315465 0.236515 0.135622
0.354406 0.249332 0.130739
0.399542 0.263493 0.124269
0.447486 0.277592 0.116121
0.495521 0.290715 0.106813
0.543389 0.302739 0.096040
0.589044 0.312902 0.083772
0.631037 0.321111 0.069947
0.669581 0.327306 0.052796
0.705318 0.331395 0.024964
0.738308 0.334356 0.007507
0.768490 0.336309 0.001678
0.796201 0.337865 0.014313
0.822263 0.339757 0.049073
0.846769 0.342596 0.076997
0.869383 0.347082 0.105562
0.890288 0.354620 0.137545
0.909361 0.367132 0.177279
0.182864 0.249973 0.139376
0.182925 0.250309 0.139315
0.182650 0.251743 0.139071
0.182315 0.254124 0.138705
0.184421 0.257053 0.138277
0.190677 0.260655 0.137575
0.200107 0.263554 0.136873
0.212284 0.266026 0.136049
0.226322 0.267369 0.135317
0.241642 0.267643 0.134676
0.257389 0.266819 0.134127
0.273747 0.265446 0.133577
0.290471 0.264103 0.132937
0.309087 0.263981 0.132021
0.330022 0.265354 0.130495
0.369177 0.280064 0.124269
0.414527 0.296666 0.116091
0.462196 0.312840 0.106264
0.509453 0.327367 0.094759
0.556176 0.340642 0.080446
0.600061 0.350988 0.064668
0.640375 0.358648 0.037110
0.677363 0.363958 0.005280
0.712001 0.367834 0.000000
0.743801 0.370245 0.000000
0.773098 0.371740 0.000000
0.800107 0.372992 0.000000
0.825650 0.374670 0.047822
0.849546 0.377295 0.083650
0.871672 0.381598 0.115084
0.891936 0.388983 0.150820
0.910430 0.401373 0.193362
0.173617 0.294438 0.132174
0.173556 0.294652 0.132143
0.173831 0.295933 0.131838
0.176486 0.298558 0.131167
0.182498 0.302190 0.130312
0.191989 0.306401 0.129152
0.204654 0.309819 0.127962
0.220096 0.312688 0.126741
0.237797 0.314183 0.125429
0.256107 0.314275 0.124697
0.275090 0.312993 0.123781
0.293980 0.311009 0.123293
0.313695 0.309453 0.122347
0.334783 0.309270 0.120974
0.358129 0.310521 0.118898
0.384771 0.314214 0.115724
0.427466 0.330571 0.106050
0.474464 0.348363 0.093721
0.521202 0.364111 0.079011
0.566735 0.377783 0.060883
0.609552 0.388342 0.021271
0.648737 0.395941 0.000000
0.684779 0.401038 0.000000
0.718410 0.404639 0.000000
0.749081 0.406317 0.000000
0.777005 0.407263 0.000000
0.802853 0.407660 0.000000
0.827207 0.408515 0.049775
0.850034 0.410163 0.088380
0.871214 0.413397 0.121401
0.890745 0.419409 0.157778
0.908721 0.430274 0.201114
0.164309 0.344854 0.120729
0.165682 0.344701 0.120699
0.168093 0.345251 0.120455
0.173068 0.346807 0.119997
0.181399 0.349401 0.119081
0.193973 0.351934 0.117739
0.209018 0.354223 0.116518
0.226413 0.355993 0.115175
0.246036 0.356939 0.114076
0.266789 0.357671 0.112367
0.288670 0.357702 0.111086
0.311528 0.357977 0.109224
0.334997 0.358404 0.107240
0.360082 0.359899 0.104433
0.386603 0.362554 0.100923
0.415137 0.366339 0.096651
0.445075 0.371130 0.091066
0.486702 0.385534 0.077913
0.531548 0.401129 0.058778
0.574762 0.414099 0.011261
0.615503 0.423926 0.000000
0.652888 0.430823 0.000000
0.687892 0.435676 0.000000
0.720485 0.438666 0.000000
0.750271 0.440131 0.000000
0.777493 0.440284 0.000000
0.802884 0.440314 0.000000
0.826963 0.440864 0.052064
0.849638 0.442359 0.093294
0.870787 0.445441 0.129885
0.890440 0.451667 0.170291
0.908446 0.462989 0.217685
0.159976 0.400671 0.103059
0.162020 0.401068 0.102815
0.164706 0.401709 0.102663
0.172519 0.403357 0.101595
0.183505 0.405432 0.100374
0.198672 0.407630 0.098756
0.216190 0.409522 0.097047
0.236698 0.410925 0.095125
0.258640 0.411902 0.093355
0.281773 0.412268 0.091524
0.305760 0.411872 0.089693
0.329992 0.411566 0.087770
0.355077 0.411292 0.085389
0.381262 0.412055 0.082094
0.409186 0.414252 0.077089
0.438727 0.418158 0.070405
0.470008 0.422889 0.061707
0.501854 0.427802 0.045075
0.542107 0.440040 0.000000
0.584680 0.453376 0.000000
0.624140 0.462928 0.000000
0.660395 0.469306 0.000000
0.694484 0.473548 0.000000
0.725856 0.475746 0.000000
0.754513 0.476417 0.000000
0.780728 0.475898 0.000000
0.805356 0.475349 0.000000
0.828763 0.475166 0.066224
0.850797 0.476204 0.106569
0.871397 0.479011 0.144900
0.890440 0.484871 0.187015
0.907958 0.495674 0.235874
0.154177 0.452583 0.080018
0.156985 0.451514 0.080568
0.163485 0.411505 0.098665
0.170321 0.412879 0.097963
0.180789 0.415229 0.096590
0.195132 0.418463 0.094423
0.212070 0.421698 0.092226
0.231754 0.424781 0.089662
0.253361 0.427405 0.086915
0.276280 0.429053 0.084565
0.300542 0.430579 0.081453
0.325536 0.432074 0.078096
0.352117 0.434424 0.073701
0.379583 0.437568 0.068116
0.408515 0.441535 0.060731
0.438880 0.446357 0.044892
0.470832 0.452338 0.018585
0.503838 0.458808 0.000000
0.537316 0.465156 0.000000
0.576623 0.476600 0.000000
0.618006 0.489113 0.000000
0.655360 0.497139 0.000000
0.690120 0.502556 0.000000
0.722499 0.506035 0.000000
0.752407 0.507683 0.000000
0.779812 0.508171 0.000000
0.805509 0.508507 0.000000
0.829557 0.508904 0.079835
0.851713 0.510155 0.122194
0.872007 0.512993 0.163058
0.890654 0.518853 0.208072
0.907774 0.529839 0.259922
0.147066 0.493690 0.046235
0.151522 0.488960 0.052003
0.157290 0.484047 0.058503
0.165713 0.480354 0.061402
0.179660 0.478340 0.062074
0.196139 0.479042 0.060212
0.216342 0.481086 0.055329
0.238193 0.483467 0.048371
0.262303 0.485603 0.038514
0.287694 0.487312 0.027741
0.314000 0.488502 0.017670
0.341100 0.489906 0.005493
0.369329 0.492134 0.000000
0.398688 0.494972 0.000000
0.428962 0.498787 0.000000
0.460456 0.503227 0.000000
0.492836 0.508507 0.000000
0.525750 0.514031 0.000000
0.559075 0.519188 0.000000
0.591943 0.523674 0.000000
0.627405 0.530449 0.000000
0.662989 0.537072 0.000000
0.696376 0.541344 0.000000
0.727169 0.543420 0.000000
0.755825 0.544060 0.000000
0.782223 0.543633 0.000000
0.807309 0.543297 0.023957
0.830747 0.543359 0.096925
0.852384 0.544244 0.140902
0.872282 0.546899 0.184176
0.890562 0.552514 0.230228
0.907256 0.563500 0.285161
0.135988 0.549096 0.000000
0.141634 0.545006 0.000000
0.147280 0.540734 0.000000
0.158968 0.537530 0.000000
0.175418 0.535790 0.000000
0.194888 0.536095 0.000000
0.218173 0.537621 0.000000
0.242283 0.539513 0.000000
0.268528 0.540948 0.000000
0.296208 0.542382 0.000000
0.324102 0.543206 0.000000
0.352697 0.544396 0.000000
0.382177 0.546044 0.000000
0.412390 0.548272 0.000000
0.443458 0.551263 0.000000
0.475105 0.554986 0.000000
0.507439 0.559197 0.000000
0.540276 0.563531 0.000000
0.572869 0.567407 0.000000
0.605097 0.570703 0.000000
0.636866 0.573388 0.000000
0.669001 0.576440 0.000000
0.701167 0.579522 0.000000
0.730800 0.580468 0.000000
0.758572 0.580194 0.000000
0.784451 0.579187 0.000000
0.809049 0.578424 0.069642
0.832120 0.578302 0.120516
0.853391 0.578882 0.165194
0.872862 0.581476 0.209720
0.890684 0.587213 0.258610
0.906828 0.598383 0.316503
0.126864 0.599329 0.000000
0.132265 0.595758 0.000000
0.139406 0.592126 0.000000
0.153170 0.589471 0.000000
0.172244 0.587762 0.000000
0.193210 0.587945 0.000000
0.218540 0.589075 0.000000
0.244816 0.590600 0.000000
0.272892 0.591760 0.000000
0.301762 0.592920 0.000000
0.331304 0.593835 0.000000
0.360998 0.594659 0.000000
0.391547 0.595972 0.000000
0.422217 0.597375 0.000000
0.453254 0.599207 0.000000
0.484382 0.601312 0.000000
0.515648 0.603143 0.000000
0.546685 0.604913 0.000000
0.577386 0.606134 0.000000
0.607507 0.606958 0.000000
0.637171 0.607233 0.000000
0.666468 0.607233 0.000000
0.695979 0.607691 0.000000
0.724819 0.607904 0.000000
0.751949 0.606897 0.000000
0.777554 0.605432 0.000000
0.802090 0.604211 0.058991
0.825345 0.603540 0.115480
0.847013 0.603693 0.161776
0.867094 0.605737 0.208530
0.885649 0.610773 0.259831
0.902586 0.621210 0.319860
0.122866 0.630365 0.000000
0.127443 0.628992 0.000000
0.134890 0.627741 0.000000
0.148806 0.627222 0.000000
0.169284 0.627253 0.000000
0.192264 0.628016 0.000000
0.218601 0.628931 0.000000
0.245762 0.629877 0.000000
0.273991 0.630426 0.000000
0.303197 0.630640 0.000000
0.332769 0.630762 0.000000
0.362646 0.631037 0.000000
0.392950 0.631861 0.000000
0.423560 0.632990 0.000000
0.454780 0.634668 0.000000
0.485847 0.636408 0.000000
0.516899 0.638209 0.000000
0.548028 0.639704 0.000000
0.578637 0.641138 0.000000
0.609033 0.642145 0.000000
0.639246 0.643000 0.000000
0.668971 0.643549 0.000000
0.698665 0.644282 0.000000
0.727993 0.644678 0.000000
0.754665 0.643061 0.000000
0.779782 0.640955 0.000000
0.803738 0.639124 0.094850
0.826444 0.637873 0.144045
0.847684 0.637690 0.190066
0.867399 0.639429 0.237888
0.885496 0.644678 0.292027
0.901427 0.653498 0.350561
0.122225 0.672267 0.000000
0.127047 0.671015 0.000000
0.135439 0.669825 0.000000
0.149630 0.669154 0.000000
0.170474 0.669123 0.000000
0.194308 0.669734 0.000000
0.220768 0.670771 0.000000
0.248966 0.671717 0.000000
0.278202 0.672328 0.000000
0.307561 0.672572 0.000000
0.337682 0.672694 0.000000
0.367742 0.672724 0.000000
0.397986 0.673060 0.000000
0.428901 0.673610 0.000000
0.459571 0.674434 0.000000
0.490364 0.675227 0.000000
0.520745 0.675959 0.000000
0.551232 0.676570 0.000000
0.581201 0.676967 0.000000
0.610864 0.677150 0.000000
0.640070 0.676997 0.000000
0.668910 0.676631 0.000000
0.697505 0.676326 0.000000
0.725948 0.676020 0.000000
0.759152 0.681331 0.000000
0.783749 0.678492 0.081544
0.807034 0.675746 0.134768
0.829099 0.673915 0.181186
0.849699 0.673426 0.227451
0.868681 0.674922 0.277165
0.885985 0.679805 0.333074
0.900237 0.685573 0.384894
0.126467 0.700282 0.000000
0.131350 0.698939 0.000000
0.138491 0.698116 0.000000
0.153323 0.697993 0.000000
0.173556 0.698543 0.000000
0.197147 0.699519 0.000000
0.223514 0.700893 0.000000
0.251713 0.702419 0.000000
0.280827 0.703731 0.000000
0.310796 0.704829 0.000000
0.341039 0.705806 0.000000
0.371130 0.706600 0.000000
0.401678 0.707332 0.000000
0.432593 0.708309 0.000000
0.463508 0.709621 0.000000
0.494697 0.711055 0.000000
0.525505 0.712245 0.000000
0.555840 0.713100 0.000000
0.585534 0.713283 0.000000
0.614588 0.712795 0.000000
0.643000 0.712001 0.000000
0.671077 0.711269 0.000000
0.699275 0.710811 0.008301
0.727596 0.710750 0.064698
0.756100 0.711238 0.090486
0.784360 0.711879 0.117128
0.807645 0.709041 0.165988
0.829679 0.707088 0.213779
0.850126 0.706447 0.261936
0.868772 0.707881 0.314153
0.885008 0.711177 0.367620
0.898436 0.715114 0.416510
0.146670 0.735164 0.000000
0.149691 0.733974 0.000000
0.155825 0.733272 0.000000
0.168734 0.733150 0.000000
0.187106 0.733455 0.000000
0.209751 0.734127 0.000000
0.234714 0.734890 0.000000
0.261662 0.735714 0.000000
0.290013 0.736416 0.000000
0.318425 0.736843 0.000000
0.347417 0.737240 0.000000
0.376715 0.737301 0.000000
0.406287 0.737453 0.000000
0.436133 0.737789 0.000000
0.466194 0.738460 0.000000
0.496376 0.739223 0.000000
0.526268 0.739956 0.000000
0.555901 0.740414 0.000000
0.584863 0.740383 0.042359
0.613245 0.739925 0.071260
0.641047 0.739223 0.088045
0.668696 0.738460 0.102571
0.696284 0.737942 0.118410
0.723781 0.737758 0.134829
0.751431 0.737972 0.152255
0.778927 0.738552 0.171756
0.806180 0.739254 0.191623
0.828122 0.736690 0.237736
0.848325 0.735531 0.287449
0.866941 0.736416 0.340764
0.882017 0.736599 0.387030
0.895415 0.739254 0.435187
0.173587 0.763638 0.000000
0.176974 0.762875 0.000000
0.181643 0.762631 0.000000
0.193027 0.762814 0.000000
0.209384 0.763363 0.000000
0.229892 0.764157 0.000000
0.253239 0.765011 0.000000
0.278447 0.765805 0.000000
0.304692 0.766354 0.000000
0.331426 0.766659 0.000000
0.359106 0.766812 0.000000
0.387060 0.766659 0.000000
0.415259 0.766506 0.029297
0.444038 0.766567 0.059144
0.473030 0.766964 0.076936
0.502159 0.767544 0.094972
0.531395 0.768063 0.111452
0.560174 0.768429 0.126101
0.588342 0.768368 0.139834
0.615900 0.767941 0.151919
0.643061 0.767300 0.163485
0.669917 0.766567 0.175265
0.696590 0.766110 0.188907
0.723232 0.765835 0.203555
0.749874 0.765927 0.219699
0.776303 0.766354 0.237125
0.802457 0.766995 0.257023
0.828183 0.767941 0.277806
0.848569 0.766476 0.325566
0.865629 0.764858 0.373022
0.880369 0.764126 0.418494
0.893553 0.765743 0.465339
0.214755 0.792081 0.075532
0.217044 0.791653 0.074159
0.220920 0.791440 0.073732
0.229435 0.791470 0.075654
0.242802 0.791562 0.077821
0.259373 0.791592 0.082734
0.277989 0.791196 0.086030
0.298558 0.790524 0.088289
0.320256 0.789548 0.089662
0.343206 0.788296 0.090639
0.367010 0.786893 0.091981
0.391821 0.785489 0.094728
0.417273 0.784268 0.097841
0.443793 0.783413 0.105928
0.470985 0.783047 0.114870
0.498878 0.783230 0.127687
0.527031 0.783566 0.141024
0.554894 0.783841 0.154574
0.582361 0.783841 0.166751
0.609277 0.783566 0.178927
0.635859 0.783200 0.190799
0.662226 0.782773 0.203281
0.688533 0.782589 0.217227
0.714687 0.782650 0.232395
0.740810 0.783017 0.249760
0.766690 0.783688 0.268925
0.792294 0.784634 0.289250
0.817441 0.785763 0.311833
0.841062 0.785885 0.329229
0.859190 0.783230 0.368231
0.874632 0.781582 0.414496
0.888579 0.782223 0.462745
0.242130 0.809751 0.128206
0.244175 0.809537 0.127352
0.247868 0.809567 0.127657
0.255894 0.809812 0.130434
0.268193 0.810178 0.134646
0.283574 0.810513 0.138643
0.301030 0.810727 0.143069
0.320317 0.810758 0.147677
0.341039 0.810605 0.152071
0.363195 0.810239 0.156954
0.386053 0.809873 0.161624
0.409949 0.809384 0.167971
0.434638 0.808988 0.174441
0.460060 0.808743 0.181796
0.486213 0.808682 0.191592
0.512688 0.808804 0.202182
