其他预设/【232】美食博客调色预设124款/1.3D LUT预设（视频调色-PR-AE-PS-FCPX-达芬奇用）/Food Art #31.cube
# Created by Adobe Lightroom plugin Export LUT (1.17.0)
# www.johnrellis.com/lightroom/exportlut.htm
# Preset: Food Art #31
# Color profile: /Library/Application Support/Adobe/Color/Profiles/Recommended/AdobeRGB1998.icc
LUT_3D_SIZE 5
DOMAIN_MIN 0.000000 0.000000 0.000000
DOMAIN_MAX 0.903226 0.903226 0.903226
0.206363 0.176791 0.124086
0.269078 0.171695 0.121065
0.491066 0.158145 0.105928
0.718074 0.138094 0.065827
0.880552 0.129152 0.000000
0.205844 0.241917 0.117464
0.273838 0.242771 0.115908
0.495277 0.262638 0.091890
0.718074 0.257053 0.013886
0.879362 0.241886 0.000000
0.196475 0.473030 0.023224
0.299016 0.474006 0.000000
0.502892 0.473854 0.000000
0.715450 0.467994 0.000000
0.876921 0.439582 0.000000
0.180606 0.695857 0.000000
0.288884 0.694423 0.000000
0.491432 0.690272 0.000000
0.701686 0.683894 0.000000
0.871611 0.648646 0.000000
0.209232 0.856962 0.000000
0.292546 0.855924 0.000000
0.468452 0.852995 0.000000
0.659785 0.847868 0.000000
0.849241 0.839719 0.000000
0.210452 0.174258 0.184634
0.277531 0.172580 0.183932
0.501640 0.107271 0.190524
0.723445 0.000000 0.169223
0.882261 0.103578 0.162295
0.212070 0.244724 0.183352
0.280064 0.243687 0.182803
0.505180 0.236454 0.175784
0.722560 0.230167 0.163882
0.881193 0.234104 0.159396
0.183261 0.475807 0.180545
0.279637 0.477607 0.160647
0.507622 0.476478 0.151858
0.718837 0.463386 0.144564
0.877348 0.439582 0.150515
0.170443 0.696620 0.132753
0.283299 0.695186 0.128420
0.491493 0.690730 0.124636
0.703212 0.684108 0.120455
0.871153 0.649653 0.144930
0.238193 0.855985 0.146487
0.312047 0.854978 0.147494
0.477852 0.851621 0.151553
0.664088 0.846891 0.163088
0.849546 0.839200 0.176425
0.227970 0.165255 0.425177
0.315465 0.151705 0.425513
0.512871 0.084840 0.426612
0.722713 0.000000 0.411383
0.877836 0.180453 0.397528
0.188632 0.250767 0.426612
0.292943 0.239750 0.427405
0.513542 0.223636 0.427039
0.721462 0.230045 0.411536
0.874784 0.296208 0.409583
0.172396 0.479011 0.426337
0.282444 0.478523 0.426215
0.512718 0.476478 0.424781
0.714290 0.476570 0.424323
0.868864 0.479866 0.426703
0.187839 0.696376 0.406348
0.299992 0.694820 0.407813
0.514366 0.688075 0.425818
0.704311 0.683406 0.426612
0.863340 0.663050 0.434943
0.269139 0.854856 0.391913
0.353002 0.852567 0.404242
0.525994 0.846525 0.440650
0.683680 0.843442 0.447364
0.849058 0.838285 0.453162
0.223728 0.148165 0.668360
0.309514 0.134554 0.668269
0.497383 0.083650 0.667018
0.710658 0.015564 0.664759
0.869902 0.197757 0.621912
0.192142 0.239780 0.668757
0.294285 0.236667 0.668269
0.495552 0.231418 0.666560
0.709926 0.239872 0.664118
0.867430 0.307408 0.626337
0.197269 0.460822 0.665614
0.306523 0.463233 0.664363
0.511162 0.476600 0.660975
0.701656 0.479408 0.655329
0.858183 0.508415 0.640833
0.219638 0.685389 0.660212
0.322789 0.685023 0.659968
0.523827 0.683864 0.658808
0.701961 0.683375 0.657893
0.851011 0.685328 0.659541
0.305730 0.852293 0.625330
0.380163 0.850217 0.629603
0.545190 0.844236 0.644617
0.704524 0.839170 0.663508
0.846006 0.837247 0.665461
0.213169 0.136507 0.828305
0.287938 0.127596 0.827848
0.455940 0.106142 0.827512
0.647944 0.116030 0.825803
0.842100 0.177371 0.823423
0.199344 0.226810 0.825864
0.281437 0.225864 0.825406
0.456031 0.227695 0.824826
0.647303 0.241032 0.822110
0.839414 0.278996 0.820554
0.243687 0.432990 0.821286
0.325414 0.440650 0.820188
0.479713 0.447059 0.818296
0.653925 0.454444 0.815579
0.835904 0.481575 0.817472
0.268620 0.629999 0.818509
0.340642 0.632013 0.816983
0.508965 0.644129 0.814755
0.677241 0.660700 0.814572
0.838254 0.679042 0.821927
0.330022 0.829862 0.822141
0.390417 0.829221 0.821439
0.540154 0.829435 0.821530
0.694820 0.829496 0.821225
0.835691 0.829343 0.820645
