其他预设/【232】美食博客调色预设124款/1.3D LUT预设（视频调色-PR-AE-PS-FCPX-达芬奇用）/Food Art #53.cube
# Created by Adobe Lightroom plugin Export LUT (1.17.0)
# www.johnrellis.com/lightroom/exportlut.htm
# Preset: Food Art #53
# Color profile: /Library/Application Support/Adobe/Color/Profiles/Recommended/AdobeRGB1998.icc
LUT_3D_SIZE 5
DOMAIN_MIN 0.000000 0.000000 0.000000
DOMAIN_MAX 0.903226 0.903226 0.903226
0.139162 0.126650 0.145602
0.292180 0.124239 0.154360
0.507958 0.149203 0.199496
0.740291 0.189853 0.255344
0.942321 0.269780 0.322118
0.150820 0.289586 0.177646
0.296086 0.290898 0.189761
0.508873 0.287663 0.223484
0.739773 0.308598 0.270390
0.942748 0.358251 0.334173
0.186648 0.524346 0.256443
0.298711 0.525719 0.258061
0.525536 0.536614 0.280552
0.742428 0.536584 0.311894
0.937224 0.552911 0.368017
0.239139 0.759152 0.327642
0.326238 0.759945 0.329229
0.522332 0.761044 0.344488
0.732906 0.763516 0.371038
0.931334 0.770809 0.425177
0.380987 0.944793 0.420661
0.442908 0.943145 0.434089
0.571496 0.939757 0.447547
0.737148 0.938476 0.479469
0.900938 0.938170 0.526726
0.127108 0.117098 0.329107
0.291600 0.141573 0.335943
0.502800 0.182589 0.351934
0.732204 0.211673 0.377874
0.935241 0.296666 0.413123
0.162509 0.288670 0.340948
0.292088 0.289464 0.346105
0.506737 0.296544 0.360540
0.733211 0.315221 0.381964
0.934600 0.375250 0.420264
0.201938 0.520775 0.369482
0.307134 0.522423 0.376532
0.518090 0.530266 0.384192
0.736049 0.535393 0.403876
0.932403 0.561944 0.445411
0.258152 0.756741 0.411627
0.342596 0.757412 0.416419
0.528740 0.758602 0.427100
0.732967 0.761532 0.447028
0.927825 0.772549 0.491585
0.382940 0.944060 0.465156
0.452583 0.941741 0.481392
0.597009 0.938476 0.512139
0.749660 0.937133 0.537591
0.904051 0.937713 0.575647
0.174441 0.132326 0.555871
0.298375 0.147372 0.558862
0.518273 0.176059 0.568719
0.731746 0.226841 0.573754
0.930846 0.312932 0.580682
0.186648 0.285008 0.562493
0.300633 0.288273 0.564721
0.517906 0.299657 0.573541
0.731624 0.329900 0.578729
0.929808 0.393713 0.584985
0.215183 0.524559 0.577050
0.316533 0.524743 0.578943
0.520714 0.529046 0.585565
0.732876 0.546868 0.593652
0.922362 0.598230 0.616632
0.277836 0.752316 0.585687
0.359289 0.751431 0.588525
0.546227 0.752499 0.598535
0.739712 0.757626 0.617792
0.920104 0.777646 0.640223
0.403357 0.939971 0.601007
0.460761 0.938964 0.605554
0.614557 0.934783 0.625330
0.773739 0.931456 0.662226
0.909606 0.934447 0.685176
0.217380 0.150057 0.765225
0.310704 0.162417 0.766781
0.502434 0.195560 0.770474
0.707668 0.248875 0.774899
0.923033 0.323186 0.790555
0.236301 0.286320 0.767422
0.321294 0.290593 0.768154
0.506065 0.308141 0.770871
0.707637 0.343359 0.774838
0.921233 0.398413 0.789487
0.275334 0.501549 0.771084
0.355413 0.507012 0.771420
0.533318 0.526055 0.772763
0.716823 0.546227 0.775998
0.918975 0.576379 0.785733
0.333349 0.723415 0.779965
0.400153 0.724636 0.779873
0.563653 0.732967 0.781155
0.744686 0.750942 0.784665
0.916533 0.776181 0.788388
0.439429 0.934905 0.792569
0.489296 0.933867 0.792416
0.615869 0.932158 0.789364
0.775723 0.929961 0.786984
0.917693 0.931701 0.815640
0.246738 0.183474 0.940276
0.318151 0.194919 0.940337
0.481910 0.231785 0.940764
0.667048 0.292576 0.941253
0.848478 0.374609 0.942046
0.278294 0.295506 0.939635
0.341161 0.302098 0.939666
0.495033 0.326207 0.940002
0.674189 0.370581 0.940307
0.851682 0.437415 0.941283
0.384283 0.512230 0.937743
0.430854 0.517327 0.937469
0.546990 0.526848 0.937713
0.704097 0.553765 0.938048
0.865232 0.594202 0.940124
0.446448 0.699916 0.939208
0.491066 0.705348 0.938689
0.608850 0.721553 0.937682
0.757321 0.749508 0.937194
0.890745 0.773129 0.940337
0.527214 0.886564 0.942779
0.559228 0.888640 0.942626
0.655543 0.896513 0.942687
0.788113 0.911131 0.943053
0.926513 0.932067 0.945861
