其他预设/【232】美食博客调色预设124款/1.3D LUT预设（视频调色-PR-AE-PS-FCPX-达芬奇用）/Food Art #8 ().cube
# Created by Adobe Lightroom plugin Export LUT (1.17.0)
# www.johnrellis.com/lightroom/exportlut.htm
# Preset: Food Art #8 (素锦印象)
# Color profile: /Library/Application Support/Adobe/Color/Profiles/Recommended/AdobeRGB1998.icc
LUT_3D_SIZE 8
DOMAIN_MIN 0.000000 0.000000 0.000000
DOMAIN_MAX 0.903226 0.903226 0.903226
0.000000 0.000000 0.000000
0.092653 0.000000 0.000000
0.271641 0.000000 0.000000
0.449042 0.000000 0.000000
0.608026 0.000000 0.000000
0.748409 0.000000 0.000000
0.876982 0.000000 0.000000
0.986694 0.000000 0.000000
0.000000 0.101564 0.000000
0.099184 0.106630 0.000000
0.276951 0.124941 0.000000
0.457069 0.131044 0.000000
0.614649 0.117433 0.000000
0.754513 0.098146 0.000000
0.880919 0.088838 0.000000
0.988434 0.098421 0.000000
0.000000 0.287999 0.000000
0.107759 0.289677 0.000000
0.281376 0.293492 0.000000
0.454902 0.302800 0.000000
0.612604 0.298039 0.000000
0.751034 0.287663 0.000000
0.874449 0.277348 0.000000
0.983734 0.270939 0.000000
0.000000 0.471565 0.000000
0.000000 0.473152 0.000000
0.280003 0.474281 0.000000
0.450507 0.469978 0.000000
0.602045 0.458686 0.000000
0.742733 0.447639 0.000000
0.870939 0.435615 0.000000
0.981384 0.422736 0.000000
0.000000 0.628840 0.000000
0.000000 0.629053 0.000000
0.254765 0.628168 0.000000
0.433112 0.624414 0.000000
0.596246 0.621027 0.000000
0.742580 0.609033 0.000000
0.869780 0.590906 0.000000
0.978302 0.570397 0.000000
0.000000 0.764096 0.000000
0.000000 0.761563 0.000000
0.226047 0.760830 0.000000
0.408820 0.758968 0.000000
0.570581 0.756527 0.000000
0.723659 0.752468 0.000000
0.863249 0.740688 0.000000
0.972564 0.713497 0.000000
0.000000 0.881163 0.000000
0.000000 0.880461 0.000000
0.208042 0.880064 0.000000
0.388556 0.878264 0.000000
0.545281 0.875792 0.000000
0.692866 0.871427 0.000000
0.834653 0.865904 0.022797
0.967712 0.856443 0.093751
0.000000 0.978820 0.082307
0.000000 0.978576 0.084871
0.213260 0.977417 0.091585
0.375677 0.974823 0.099672
0.524071 0.973816 0.125277
0.662165 0.968902 0.139956
0.795254 0.962737 0.157107
0.924498 0.956451 0.181247
0.000000 0.000000 0.113161
0.106142 0.000000 0.114321
0.284886 0.000000 0.127718
0.464149 0.000000 0.110628
0.619379 0.000000 0.106844
0.758389 0.000000 0.107942
0.883391 0.000000 0.115358
0.990051 0.000000 0.131044
0.000000 0.112490 0.117250
0.100801 0.110567 0.117983
0.286107 0.102968 0.115846
0.465675 0.089174 0.109895
0.621241 0.080049 0.107057
0.760372 0.078737 0.109560
0.885801 0.090333 0.118471
0.991730 0.115450 0.135164
0.000000 0.295323 0.131502
0.047333 0.298283 0.111330
0.283574 0.298985 0.103975
0.462898 0.302403 0.104433
0.619654 0.296513 0.105470
0.757687 0.287938 0.109773
0.881865 0.281376 0.119142
0.987915 0.277897 0.136294
0.000000 0.479744 0.121004
0.000000 0.481392 0.090242
0.274601 0.480659 0.085145
0.457465 0.478523 0.082826
0.613886 0.466896 0.090394
0.752956 0.454047 0.110903
0.878630 0.441199 0.124453
0.985321 0.428351 0.144930
0.000000 0.631281 0.109194
0.000000 0.632776 0.077089
0.249607 0.632410 0.078523
0.435126 0.630365 0.079774
0.601862 0.627466 0.083375
0.748104 0.613642 0.096925
0.873381 0.594385 0.127840
0.980316 0.574151 0.157443
0.000000 0.767239 0.105928
0.000000 0.767208 0.093080
0.225834 0.766140 0.095003
0.410651 0.763394 0.097719
0.572747 0.759792 0.103304
0.725429 0.754452 0.109285
0.864836 0.742458 0.125521
0.973724 0.715908 0.165286
0.000000 0.884520 0.130495
0.000000 0.884733 0.132204
0.216526 0.883757 0.135225
0.392950 0.881010 0.139254
0.548302 0.877653 0.146883
0.695491 0.873381 0.157565
0.837186 0.868376 0.171511
0.969482 0.858854 0.192447
0.000000 0.979980 0.182681
0.000000 0.979492 0.183108
0.229129 0.978180 0.185763
0.383642 0.975433 0.189487
0.526604 0.972137 0.197452
0.664179 0.968109 0.209781
0.797055 0.962921 0.224491
0.925536 0.957122 0.243565
0.000000 0.000000 0.309361
0.123781 0.000000 0.309178
0.290684 0.000000 0.311315
0.462989 0.000000 0.314763
0.616022 0.000000 0.308293
0.753719 0.000000 0.307347
0.878111 0.000000 0.306676
0.984649 0.102052 0.311406
0.000000 0.113466 0.312566
0.075196 0.099763 0.313512
0.289158 0.084810 0.314427
0.465797 0.060700 0.315953
0.618616 0.062745 0.310124
0.755581 0.097475 0.308324
0.879637 0.134615 0.309148
0.985229 0.175265 0.313817
0.000000 0.300847 0.312963
0.000000 0.300084 0.313420
0.276219 0.296483 0.312413
0.461433 0.293645 0.310613
0.614496 0.292363 0.309453
0.752773 0.292393 0.309331
0.877562 0.296117 0.311284
0.983581 0.305303 0.317144
0.000000 0.479103 0.316258
0.000000 0.479438 0.313970
0.255894 0.480781 0.305882
0.453407 0.477455 0.301518
0.609461 0.464332 0.307134
0.747738 0.455726 0.311803
0.873259 0.448554 0.314946
0.980072 0.443793 0.322545
0.000000 0.632227 0.308171
0.000000 0.632380 0.306584
0.240238 0.632227 0.302098
0.430426 0.629206 0.300511
0.598810 0.625635 0.301976
0.745418 0.613153 0.305486
0.869322 0.598840 0.321813
0.975738 0.584222 0.332555
0.000000 0.766995 0.302831
0.000000 0.766720 0.303441
0.236454 0.766171 0.307164
0.416358 0.764157 0.309239
0.576257 0.761074 0.311742
0.727047 0.756222 0.314275
0.863706 0.744259 0.319188
0.969787 0.720363 0.336522
0.000000 0.883207 0.301793
0.000000 0.883085 0.305699
0.252964 0.881987 0.322515
0.410834 0.880156 0.325231
0.558465 0.877256 0.328954
0.700221 0.872892 0.333257
0.837003 0.867308 0.337835
0.964813 0.857267 0.345525
0.000000 0.979644 0.308934
0.036347 0.979217 0.316686
0.283787 0.976806 0.344488
0.412024 0.973724 0.344671
0.543786 0.970794 0.348730
0.673976 0.966796 0.354009
0.801541 0.961791 0.360540
0.925933 0.956176 0.369390
0.000000 0.000000 0.498878
0.112673 0.000000 0.497414
0.294591 0.000000 0.497444
0.465461 0.000000 0.497292
0.617304 0.000000 0.484260
0.754330 0.000000 0.473121
0.877012 0.091524 0.469612
0.980163 0.209934 0.474006
0.000000 0.092042 0.497047
0.000732 0.085756 0.496864
0.285374 0.063081 0.497353
0.463386 0.000000 0.497169
0.617060 0.008545 0.484688
0.754208 0.111818 0.475349
0.876585 0.190219 0.474464
0.979522 0.258335 0.478614
0.000000 0.299840 0.498207
0.000000 0.296605 0.498512
0.263645 0.287938 0.499214
0.458595 0.285801 0.498329
0.612818 0.297124 0.486397
0.747036 0.316320 0.482612
0.868742 0.336858 0.482399
0.974273 0.366827 0.488136
0.000000 0.476875 0.495003
0.000000 0.477089 0.495583
0.251713 0.476326 0.496071
0.450141 0.474250 0.493385
0.604089 0.473701 0.491920
0.742214 0.474189 0.491432
0.866636 0.475898 0.490639
0.972015 0.480049 0.491218
0.000000 0.631342 0.481575
0.000000 0.631922 0.481941
0.245121 0.631312 0.483162
0.437263 0.626581 0.486671
0.596216 0.623468 0.484443
0.737881 0.615747 0.488014
0.861692 0.609522 0.491981
0.968109 0.603143 0.494820
0.000000 0.765011 0.466865
0.000000 0.763180 0.466377
0.248234 0.762570 0.472969
0.429358 0.760067 0.481331
0.580682 0.757565 0.482643
0.726040 0.754604 0.483314
0.859068 0.744778 0.483711
0.963287 0.728420 0.496101
0.000000 0.882658 0.456153
0.000000 0.881956 0.458442
0.263493 0.879728 0.468055
0.432410 0.876341 0.481819
0.571710 0.873625 0.486488
0.706081 0.870359 0.488716
0.837705 0.866331 0.491432
0.960021 0.856718 0.495216
0.000000 0.978058 0.447700
0.095674 0.977325 0.451148
0.283238 0.975372 0.461891
0.450996 0.970764 0.492836
0.568627 0.968200 0.495430
0.689052 0.964691 0.498512
0.809140 0.960204 0.502281
0.927306 0.955108 0.507561
0.000000 0.000000 0.653193
0.073365 0.000000 0.652308
0.280156 0.000000 0.652369
0.447608 0.000000 0.651087
0.610498 0.000000 0.650111
0.751492 0.000000 0.634241
0.873686 0.095857 0.618372
0.976379 0.214054 0.606470
0.000000 0.079591 0.652644
0.000000 0.074647 0.651087
0.271885 0.059052 0.651057
0.445136 0.008057 0.651301
0.609796 0.000000 0.650446
0.750698 0.100832 0.634638
0.872557 0.189273 0.619989
0.975494 0.259770 0.608545
0.000000 0.285191 0.651667
0.000000 0.283818 0.651423
0.257115 0.283421 0.652064
0.440497 0.285130 0.651850
0.607721 0.291173 0.650996
0.748867 0.314549 0.638392
0.870115 0.340490 0.625849
0.973175 0.373175 0.616236
0.000000 0.460304 0.650202
0.000000 0.460487 0.650568
0.258671 0.462806 0.650263
0.443214 0.468147 0.648859
0.601923 0.468818 0.647913
0.742580 0.476173 0.639643
0.864103 0.487770 0.632166
0.967010 0.505150 0.627924
0.000000 0.624994 0.647150
0.000000 0.624842 0.647120
0.255894 0.624872 0.647120
0.438727 0.624079 0.646265
0.596368 0.622889 0.644282
0.735256 0.625147 0.642878
0.857237 0.628321 0.642756
0.960510 0.632563 0.643122
0.000000 0.768063 0.632654
0.000000 0.767697 0.633173
0.264897 0.766598 0.635706
0.437568 0.764370 0.637354
0.592004 0.760647 0.638300
0.730068 0.756130 0.638422
0.853819 0.748836 0.638941
0.955932 0.742611 0.643793
0.000000 0.882872 0.610651
0.000855 0.882536 0.612268
0.279149 0.881010 0.616327
0.437934 0.878019 0.620569
0.589044 0.873259 0.629908
0.719081 0.869688 0.636835
0.841611 0.866850 0.638178
0.955322 0.858335 0.640040
0.028412 0.978546 0.591394
0.157656 0.978027 0.593256
0.302861 0.976318 0.598260
0.444160 0.971923 0.604913
0.599481 0.965698 0.632166
0.712490 0.962280 0.639490
0.821897 0.958770 0.642054
0.930968 0.954803 0.645808
0.000000 0.000000 0.779995
0.000000 0.000000 0.779812
0.261723 0.000000 0.780636
0.425269 0.000000 0.780240
0.581476 0.000000 0.779782
0.734249 0.000000 0.778927
0.868315 0.097444 0.765469
0.970794 0.217105 0.740352
0.000000 0.076204 0.782925
0.000000 0.075380 0.782956
0.259129 0.073091 0.782834
0.425360 0.073335 0.782132
0.582269 0.085908 0.781094
0.734676 0.119692 0.779690
0.868132 0.189700 0.766354
0.970367 0.262364 0.741543
0.000000 0.279606 0.780667
0.000000 0.280430 0.780972
0.256718 0.282872 0.781064
0.425635 0.287877 0.780423
0.582910 0.298772 0.779660
0.732967 0.314000 0.778378
0.865415 0.335851 0.766659
0.967742 0.371527 0.743893
0.000000 0.444587 0.778805
0.000000 0.447089 0.779080
0.282933 0.457069 0.778470
0.439277 0.462165 0.776455
0.584710 0.464576 0.775235
0.728634 0.469429 0.774563
0.859953 0.480842 0.765225
0.962432 0.501701 0.747616
0.000000 0.600977 0.777829
0.000000 0.602106 0.777676
0.284367 0.605921 0.777127
0.444984 0.610163 0.776089
0.594263 0.616968 0.774807
0.730251 0.619104 0.774319
0.856535 0.625025 0.766751
0.957061 0.637171 0.756863
0.000000 0.751461 0.775662
0.056794 0.751034 0.775143
0.283543 0.751247 0.774960
0.443977 0.751675 0.774624
0.592981 0.752956 0.774044
0.731044 0.753384 0.771603
0.849088 0.756313 0.769894
0.948699 0.761044 0.770687
0.000000 0.880980 0.760006
0.111666 0.880247 0.759792
0.288914 0.878935 0.760037
0.444343 0.876280 0.760098
0.590539 0.872618 0.760189
0.728481 0.867887 0.763424
0.845029 0.865446 0.768521
0.947509 0.861204 0.771084
0.136538 0.977356 0.730526
0.196811 0.976959 0.731167
0.323064 0.975280 0.733333
0.459846 0.971710 0.736568
0.597894 0.966766 0.743343
0.735073 0.959930 0.761349
0.838834 0.956359 0.770230
0.935271 0.953979 0.772763
0.000000 0.000000 0.893339
0.000000 0.000000 0.892882
0.249607 0.000000 0.892424
0.406500 0.000000 0.891447
0.555291 0.000000 0.890440
0.700435 0.073671 0.889250
0.841367 0.160311 0.887694
0.965789 0.229099 0.875486
0.000000 0.093324 0.893950
0.000000 0.094606 0.893553
0.251499 0.101076 0.893034
0.408484 0.114260 0.892271
0.557305 0.139071 0.891295
0.702388 0.177981 0.890105
0.842466 0.225986 0.888670
0.966369 0.274266 0.876616
0.000000 0.284916 0.891844
0.085908 0.285863 0.891722
0.267582 0.290379 0.891447
0.418982 0.299474 0.890715
0.565026 0.315007 0.889769
0.705776 0.333837 0.888518
0.841428 0.351354 0.886992
0.963409 0.377264 0.875273
0.113161 0.447913 0.888609
0.190097 0.452308 0.888609
0.321599 0.462196 0.888182
0.446937 0.465736 0.887449
0.578302 0.471534 0.886748
0.710262 0.479500 0.885618
0.840391 0.489204 0.884245
0.959258 0.504723 0.873625
0.136110 0.586755 0.887053
0.201419 0.589044 0.887053
0.329656 0.595422 0.886748
0.469612 0.606806 0.885649
0.599817 0.617334 0.884459
0.721004 0.621881 0.883787
0.842863 0.627710 0.882902
0.954772 0.637751 0.873075
0.153475 0.723293 0.884550
0.209689 0.724056 0.884428
0.332433 0.726833 0.884062
0.469734 0.732082 0.883116
0.605890 0.739956 0.881865
0.735378 0.751644 0.879942
0.845151 0.754879 0.879484
0.949065 0.761654 0.873228
0.164401 0.856748 0.881193
0.215915 0.856718 0.881010
0.335882 0.857206 0.880766
0.469886 0.858152 0.880247
0.606531 0.860105 0.879850
0.736477 0.862791 0.879210
0.850340 0.865629 0.878264
0.944030 0.870451 0.878813
0.202121 0.977264 0.868894
0.245670 0.976715 0.868772
0.350683 0.974182 0.867552
0.478462 0.970703 0.866606
0.612238 0.966033 0.866606
0.739040 0.960540 0.868070
0.852293 0.955413 0.873259
0.940703 0.953887 0.879881
0.000000 0.000000 0.980163
0.034150 0.000000 0.979919
0.245274 0.000000 0.979675
0.391180 0.023835 0.978790
0.530968 0.108766 0.977661
0.667781 0.168307 0.976226
0.800565 0.228519 0.974365
0.927733 0.277867 0.972808
0.000000 0.124666 0.980072
0.081331 0.127260 0.979858
0.252598 0.137819 0.979522
0.396063 0.157534 0.978729
0.534752 0.187442 0.977569
0.670741 0.228916 0.976074
0.802152 0.273716 0.974365
0.928252 0.312627 0.972930
0.106752 0.297612 0.978607
0.168093 0.299290 0.978454
0.289006 0.306188 0.978180
0.418769 0.317967 0.977020
0.550683 0.336736 0.975891
0.680110 0.358526 0.974670
0.805966 0.380194 0.973266
0.928740 0.406683 0.971893
0.255894 0.464973 0.975189
0.281773 0.465705 0.975006
0.358007 0.468879 0.974762
0.460792 0.474220 0.974029
0.575311 0.482582 0.973114
0.694148 0.494453 0.972045
0.812833 0.508476 0.970855
0.929656 0.524804 0.969787
0.278599 0.585046 0.972961
0.309300 0.587823 0.972656
0.398505 0.598749 0.971893
0.512200 0.616571 0.970459
0.610437 0.622309 0.969848
0.715999 0.629694 0.969116
0.824155 0.638880 0.968170
0.932006 0.650446 0.967285
0.291295 0.704128 0.970550
0.321660 0.706203 0.970428
0.407477 0.713100 0.969970
0.518181 0.724269 0.968902
0.637751 0.740963 0.967163
0.745449 0.755947 0.965362
0.839445 0.761013 0.964508
0.935149 0.768582 0.964111
0.305852 0.824277 0.967620
0.334142 0.825315 0.967559
0.415106 0.828672 0.967285
0.523491 0.834501 0.966491
0.642267 0.843534 0.965332
0.757534 0.855497 0.963897
0.860441 0.869474 0.962463
0.941222 0.874388 0.962737
0.322545 0.946075 0.964813
0.348852 0.946319 0.964813
0.425299 0.946960 0.964599
0.530663 0.947814 0.963958
0.647059 0.949248 0.963226
0.760616 0.951293 0.962554
0.864256 0.953735 0.962219
0.949615 0.956939 0.962585
