其他预设/【232】美食博客调色预设124款/1.3D LUT预设（视频调色-PR-AE-PS-FCPX-达芬奇用）/Food Art #46.cube
# Created by Adobe Lightroom plugin Export LUT (1.17.0)
# www.johnrellis.com/lightroom/exportlut.htm
# Preset: Food Art #46
# Color profile: /Library/Application Support/Adobe/Color/Profiles/Recommended/AdobeRGB1998.icc
LUT_3D_SIZE 8
DOMAIN_MIN 0.000000 0.000000 0.000000
DOMAIN_MAX 0.903226 0.903226 0.903226
0.293462 0.244968 0.086000
0.347478 0.252171 0.090303
0.441169 0.255863 0.087221
0.551019 0.262821 0.081575
0.666621 0.281132 0.083436
0.783749 0.306920 0.093812
0.889921 0.335821 0.117037
0.985657 0.367651 0.154696
0.305913 0.297063 0.085451
0.346166 0.295354 0.083742
0.435615 0.291691 0.082856
0.543206 0.295720 0.079225
0.658747 0.310002 0.081483
0.774929 0.330877 0.091066
0.881529 0.355047 0.113100
0.980468 0.383337 0.151186
0.322087 0.384436 0.076448
0.351781 0.382605 0.075257
0.431739 0.377813 0.072328
0.537896 0.380407 0.070863
0.656519 0.391638 0.073060
0.774594 0.407019 0.085695
0.886534 0.425025 0.115023
0.984375 0.443915 0.157656
0.345586 0.488777 0.066163
0.369940 0.486915 0.065431
0.441138 0.483589 0.061738
0.544610 0.489937 0.051026
0.664912 0.503105 0.052399
0.776883 0.510430 0.077974
0.882200 0.517510 0.112917
0.979522 0.526329 0.158907
0.372625 0.610742 0.046998
0.394598 0.609552 0.044434
0.461402 0.607843 0.035767
0.555108 0.608240 0.024933
0.655634 0.606287 0.014160
0.763180 0.610468 0.058534
0.870665 0.615778 0.105501
0.972625 0.621088 0.160800
0.401038 0.726680 0.061952
0.421729 0.730129 0.064240
0.480903 0.727810 0.062837
0.565423 0.725277 0.061097
0.660243 0.722103 0.061463
0.760616 0.721157 0.065736
0.866941 0.724086 0.107576
0.969329 0.725582 0.171450
0.435431 0.840330 0.113252
0.451667 0.840726 0.114473
0.501366 0.837888 0.113741
0.576196 0.835325 0.115267
0.663508 0.831907 0.117678
0.758633 0.830716 0.125490
0.859098 0.830625 0.137392
0.961669 0.829831 0.179934
0.478370 0.946380 0.191318
0.490730 0.945861 0.191409
0.531945 0.944945 0.193545
0.597528 0.944884 0.200015
0.671931 0.937713 0.194308
0.761227 0.937987 0.206760
0.857328 0.939269 0.225193
0.956451 0.938628 0.242924
0.310033 0.254002 0.138949
0.348577 0.254246 0.135866
0.429267 0.269718 0.135225
0.532891 0.281804 0.140200
0.650019 0.294285 0.142763
0.766934 0.314672 0.149447
0.875395 0.340917 0.164309
0.975433 0.372107 0.192233
0.313512 0.294041 0.131930
0.349981 0.294438 0.131746
0.426581 0.300359 0.135653
0.530510 0.307073 0.137728
0.646693 0.318761 0.140475
0.762631 0.336828 0.147127
0.869383 0.358892 0.160830
0.970214 0.386297 0.188174
0.332952 0.376471 0.126253
0.362676 0.373053 0.131502
0.428290 0.371466 0.129183
0.528252 0.378485 0.131014
0.644617 0.390967 0.134554
0.760555 0.405768 0.142885
0.870085 0.422644 0.160311
0.972595 0.443427 0.192050
0.354253 0.478462 0.124605
0.377996 0.476234 0.126955
0.442237 0.475532 0.125307
0.533135 0.476722 0.122866
0.644770 0.488289 0.125612
0.756954 0.499153 0.135958
0.865354 0.510063 0.156313
0.968200 0.522972 0.191531
0.379583 0.602594 0.124849
0.399695 0.600916 0.124056
0.461707 0.598169 0.122255
0.548699 0.595880 0.119783
0.644160 0.593164 0.116884
0.751919 0.600977 0.126955
0.861448 0.610132 0.153872
0.965332 0.618189 0.195651
0.404974 0.717922 0.130312
0.423133 0.717525 0.130068
0.479622 0.715816 0.129366
0.561883 0.715053 0.129519
0.655695 0.714290 0.130526
0.756252 0.715877 0.134279
0.862028 0.720058 0.159091
0.964111 0.722560 0.206210
0.437293 0.831174 0.159365
0.451850 0.829709 0.158236
0.500481 0.828031 0.158236
0.574609 0.827604 0.161013
0.661494 0.826230 0.164370
0.755123 0.824949 0.169131
0.853300 0.823972 0.176028
0.955077 0.823880 0.208652
0.481178 0.941253 0.222660
0.493690 0.941344 0.223819
0.534325 0.940887 0.225956
0.598993 0.941283 0.232395
0.677150 0.940246 0.238346
0.763577 0.938476 0.245304
0.856748 0.937560 0.256413
0.954131 0.935973 0.269230
0.329168 0.259342 0.233555
0.360754 0.262119 0.229923
0.435889 0.272435 0.220218
0.534783 0.287388 0.225895
0.645930 0.305303 0.237125
0.761807 0.333623 0.255131
0.871916 0.364599 0.274235
0.973297 0.400793 0.300999
0.343023 0.301244 0.221317
0.368536 0.303044 0.218692
0.432624 0.304173 0.214755
0.529717 0.314488 0.223575
0.641657 0.329717 0.236118
0.757443 0.352789 0.252354
0.867582 0.379889 0.270603
0.970459 0.413458 0.298131
0.349615 0.373632 0.213382
0.374212 0.372381 0.212253
0.443305 0.380011 0.220584
0.528557 0.383062 0.223178
0.642481 0.398047 0.236820
0.756344 0.415198 0.250828
0.865476 0.436042 0.269596
0.968292 0.461891 0.297917
0.366033 0.475349 0.216709
0.388891 0.473304 0.217685
0.452461 0.473365 0.222477
0.535454 0.475166 0.223362
0.643488 0.489235 0.234104
0.754452 0.503410 0.248692
0.863432 0.519005 0.269596
0.966247 0.536919 0.300145
0.388067 0.597650 0.227451
0.409339 0.595483 0.228824
0.470436 0.591547 0.232242
0.552056 0.591608 0.232578
0.644007 0.590906 0.232547
0.749203 0.600397 0.244358
0.857847 0.612818 0.267582
0.962188 0.625788 0.302129
0.413977 0.713436 0.238407
0.433539 0.711849 0.240879
0.489143 0.707942 0.245243
0.564874 0.706477 0.245365
0.653468 0.705806 0.246281
0.749996 0.707912 0.250156
0.855711 0.716335 0.271275
0.960937 0.726101 0.311803
0.450019 0.828916 0.265537
0.467079 0.826963 0.269047
0.513939 0.823606 0.271946
0.581964 0.821897 0.272526
0.664027 0.820493 0.274174
0.755123 0.820890 0.279118
0.852903 0.823056 0.287694
0.955596 0.827329 0.318029
0.498787 0.937896 0.318395
0.512902 0.936461 0.322759
0.549279 0.935546 0.323308
0.611109 0.937469 0.331334
0.684627 0.936553 0.335363
0.768093 0.936004 0.341894
0.858793 0.936248 0.352148
0.954284 0.936126 0.364080
0.353826 0.268254 0.355200
0.381567 0.272068 0.353063
0.453315 0.281071 0.344305
0.538476 0.289982 0.335088
0.646784 0.306859 0.348882
0.757229 0.333745 0.364294
0.862119 0.372808 0.383307
0.962249 0.427802 0.417670
0.368078 0.311192 0.345098
0.390448 0.311833 0.343633
0.453986 0.313451 0.338231
0.536370 0.316625 0.331975
0.644984 0.331701 0.347967
0.753811 0.355718 0.363104
0.858854 0.391638 0.383215
0.960052 0.444373 0.420111
0.375799 0.384527 0.334508
0.397253 0.384558 0.331945
0.455970 0.385138 0.328740
0.534813 0.385748 0.328161
0.642512 0.401404 0.347967
0.752621 0.424842 0.368811
0.860746 0.460975 0.399481
0.961730 0.496651 0.431434
0.382483 0.475502 0.329747
0.402350 0.474311 0.328679
0.461372 0.474250 0.329564
0.553429 0.489509 0.348638
0.643305 0.492500 0.351751
0.746792 0.508568 0.369604
0.854246 0.531426 0.395758
0.958648 0.559777 0.430671
0.399878 0.593927 0.345800
0.419074 0.591333 0.344701
0.476997 0.587762 0.345129
0.560266 0.591333 0.354345
0.646540 0.591669 0.355779
0.747158 0.603082 0.371893
0.852964 0.620661 0.398688
0.956298 0.640803 0.433600
0.424475 0.712245 0.360052
0.444282 0.713649 0.363531
0.499580 0.708003 0.365972
0.577111 0.704707 0.374517
0.659022 0.704768 0.376287
0.748806 0.705928 0.379309
0.851102 0.717464 0.402716
0.955138 0.733272 0.440955
0.457374 0.825772 0.379492
0.474495 0.825010 0.382300
0.527214 0.822110 0.392096
0.599573 0.819425 0.405737
0.674586 0.818967 0.407507
0.759060 0.819150 0.410742
0.850553 0.820554 0.416205
0.951080 0.828489 0.444007
0.507561 0.937804 0.421759
0.522850 0.937224 0.426642
0.569665 0.934478 0.441230
0.630426 0.932708 0.453986
0.696986 0.932280 0.456367
0.774624 0.932464 0.460700
0.860929 0.933806 0.468818
0.953002 0.935271 0.478828
0.381476 0.282994 0.501061
0.405005 0.285649 0.499519
0.471138 0.292271 0.492378
0.556573 0.300542 0.484108
0.649470 0.310826 0.480049
0.754299 0.336126 0.490486
0.858396 0.374701 0.503990
0.959136 0.429999 0.527672
0.390723 0.320958 0.492744
0.411872 0.321874 0.492744
0.473152 0.323888 0.487587
0.555261 0.327337 0.479744
0.647272 0.334966 0.477028
0.752560 0.358312 0.489509
0.857053 0.394751 0.504631
0.957824 0.447456 0.529900
0.401129 0.398047 0.480049
0.420905 0.398718 0.477852
0.475685 0.398169 0.473945
0.554406 0.399420 0.472602
0.641596 0.401984 0.469154
0.745083 0.421454 0.484108
0.850797 0.453895 0.505241
0.952300 0.498970 0.534966
0.405921 0.489967 0.476051
0.424537 0.489296 0.474037
0.480842 0.489082 0.470863
0.558740 0.492103 0.471504
0.642908 0.493324 0.471046
0.742458 0.511345 0.487770
0.846189 0.539635 0.514153
0.948791 0.575311 0.548425
0.413062 0.589197 0.471626
0.430640 0.588190 0.470680
0.484108 0.585534 0.468208
0.561700 0.587427 0.471717
0.657099 0.602777 0.491737
0.742519 0.605585 0.494759
0.842832 0.624567 0.518364
0.946441 0.650935 0.552331
0.430610 0.699672 0.479622
0.447120 0.698421 0.479286
0.497963 0.694179 0.477943
0.572503 0.692073 0.481605
0.656703 0.695491 0.491615
0.743252 0.700252 0.498421
0.843839 0.716762 0.524041
0.947112 0.737881 0.559380
0.463142 0.818814 0.501030
0.478370 0.817350 0.501396
0.527092 0.813870 0.504753
0.599023 0.811063 0.513878
0.676997 0.810727 0.523766
0.756771 0.812222 0.527092
0.843748 0.814084 0.531151
0.943053 0.825895 0.557336
0.508873 0.930632 0.530022
0.522698 0.929717 0.532219
0.566217 0.927214 0.539818
0.633631 0.927703 0.557427
0.703853 0.926207 0.568322
0.776761 0.926848 0.571221
0.859037 0.928740 0.577111
0.947906 0.930907 0.584558
0.404334 0.301396 0.651362
0.424598 0.303410 0.650080
0.484047 0.308812 0.644343
0.567071 0.317601 0.640467
0.658717 0.328893 0.635554
0.751705 0.342229 0.628351
0.854246 0.379004 0.635767
0.955596 0.435309 0.650874
0.410956 0.334020 0.642115
0.429297 0.334783 0.640864
0.485603 0.337316 0.637201
0.566217 0.343114 0.634485
0.656031 0.351598 0.629694
0.748501 0.362615 0.623835
0.851774 0.397284 0.633753
0.953735 0.451148 0.650843
0.425452 0.413733 0.634028
0.441718 0.413764 0.633295
0.493446 0.414557 0.631586
0.568994 0.416693 0.628931
0.654810 0.420539 0.624201
0.745022 0.426825 0.619471
0.848356 0.457771 0.633661
0.950683 0.504723 0.655085
0.432898 0.505516 0.631403
0.449958 0.505547 0.629023
0.503655 0.508141 0.624903
0.577142 0.512810 0.625330
0.658686 0.515373 0.624048
0.745052 0.518456 0.620996
0.846372 0.545037 0.639063
0.948180 0.580865 0.663935
0.437171 0.600855 0.623011
0.453651 0.600610 0.621973
0.504997 0.600427 0.619043
0.579492 0.603235 0.617243
0.659602 0.607385 0.618158
0.741634 0.608087 0.617517
0.839963 0.628656 0.637263
0.941924 0.658747 0.667079
0.443671 0.699763 0.616449
0.459632 0.699947 0.616968
0.508232 0.697963 0.615015
0.579461 0.696468 0.613733
0.658839 0.698451 0.616632
0.753231 0.714443 0.637354
0.841001 0.722286 0.647211
0.941009 0.744961 0.676661
0.470710 0.815213 0.631830
0.485878 0.815061 0.632746
0.532647 0.812436 0.633143
0.599756 0.809934 0.635096
0.676143 0.809140 0.639338
0.758968 0.812039 0.648829
0.841337 0.813993 0.651820
0.939666 0.830198 0.678370
0.514611 0.926909 0.652399
0.527092 0.926024 0.653132
0.567254 0.923888 0.656031
0.628382 0.922667 0.662745
0.700465 0.921569 0.671199
0.777798 0.921965 0.681422
0.857176 0.924926 0.687251
0.943053 0.927886 0.693507
0.422858 0.324468 0.786893
0.439918 0.326360 0.786862
0.492866 0.332006 0.785031
0.569543 0.341009 0.782406
0.657099 0.352941 0.777737
0.749508 0.367468 0.772457
0.844602 0.384039 0.767453
0.946624 0.435096 0.774685
0.428840 0.353307 0.783078
0.445045 0.354437 0.782986
0.495735 0.358068 0.781399
0.570245 0.364630 0.778378
0.656580 0.374395 0.774166
0.748043 0.386694 0.769223
0.842252 0.401099 0.764279
0.944427 0.449378 0.772702
0.445258 0.430060 0.777798
0.459724 0.430426 0.777371
0.506035 0.431983 0.775662
0.575952 0.435584 0.773159
0.658534 0.441169 0.769467
0.747524 0.449409 0.765652
0.840299 0.460151 0.762325
0.943023 0.503258 0.775051
0.462593 0.522026 0.772854
0.477913 0.523369 0.771328
0.524498 0.527703 0.768612
0.587793 0.529595 0.767025
0.664454 0.532677 0.764553
0.748806 0.537346 0.762295
0.837949 0.542779 0.760464
0.940642 0.576623 0.777646
0.466621 0.612543 0.767880
0.481331 0.613123 0.766781
0.528862 0.616022 0.764004
0.597345 0.621759 0.761074
0.670039 0.624475 0.759365
0.748867 0.625605 0.757992
0.834409 0.627802 0.757046
0.937255 0.657893 0.779660
0.473274 0.709743 0.764645
0.487495 0.709834 0.764034
0.533165 0.710536 0.762234
0.598322 0.712062 0.760311
0.673304 0.714748 0.759152
0.753750 0.719661 0.760739
0.835660 0.721218 0.761257
0.935424 0.745144 0.784939
0.482887 0.811215 0.763699
0.496559 0.811002 0.763546
0.538933 0.809873 0.762295
0.600427 0.808713 0.760983
0.673762 0.807889 0.759915
0.754238 0.809964 0.762325
0.844541 0.821958 0.777401
0.935241 0.833585 0.792111
0.514672 0.921111 0.774868
0.526482 0.920745 0.775113
0.565576 0.920378 0.776944
0.624048 0.919402 0.778958
0.695064 0.918639 0.782132
0.773129 0.919402 0.787778
0.855100 0.922454 0.796445
0.938109 0.925750 0.801480
0.445533 0.362219 0.918273
0.459724 0.363867 0.918181
0.505211 0.369238 0.916838
0.574548 0.378759 0.915282
0.657313 0.392157 0.913085
0.747402 0.408667 0.910582
0.841917 0.428016 0.908232
0.939025 0.448463 0.905608
0.451606 0.386938 0.916472
0.465278 0.388342 0.916350
0.509300 0.392493 0.915282
0.577020 0.400549 0.913664
0.658625 0.412238 0.911650
0.747799 0.427070 0.909239
0.841459 0.444495 0.906828
0.937926 0.462959 0.904326
0.470497 0.458015 0.912840
0.482856 0.458839 0.912657
0.523064 0.461219 0.911467
0.587030 0.467323 0.910887
0.664790 0.475502 0.908965
0.750729 0.486091 0.906615
0.841886 0.499214 0.904631
0.936339 0.511650 0.902770
0.503014 0.553765 0.908537
0.513725 0.554376 0.908507
0.548699 0.555749 0.907683
0.605402 0.559106 0.906889
0.676509 0.563745 0.905638
0.756649 0.569268 0.904082
0.843168 0.575525 0.902800
0.934783 0.581506 0.901701
0.509789 0.636347 0.906279
0.522942 0.638270 0.906096
0.563531 0.643610 0.904784
0.623438 0.651392 0.903349
0.687098 0.652613 0.902342
0.761532 0.654597 0.901274
0.844083 0.657649 0.900694
0.932952 0.661769 0.900725
0.515862 0.725917 0.904814
0.527642 0.726589 0.904326
0.565667 0.728969 0.903014
0.623224 0.732845 0.901610
0.693294 0.738460 0.900450
0.767849 0.743130 0.900572
0.847105 0.745968 0.901366
0.932738 0.748989 0.902312
0.524346 0.821897 0.905119
0.535271 0.822110 0.904784
0.570794 0.822721 0.903868
0.626581 0.824277 0.902922
0.695125 0.826658 0.902007
0.770993 0.830167 0.901793
0.850828 0.834867 0.903441
0.932403 0.836240 0.904051
0.534630 0.922667 0.907317
0.544671 0.922484 0.907103
0.578302 0.922118 0.906584
0.632197 0.921904 0.906096
0.699001 0.921752 0.905577
0.773190 0.921904 0.905272
0.852262 0.923278 0.906462
0.938018 0.930114 0.914549
