其他预设/【232】美食博客调色预设124款/1.3D LUT预设（视频调色-PR-AE-PS-FCPX-达芬奇用）/Food Art #13 ().cube
# Created by Adobe Lightroom plugin Export LUT (1.17.0)
# www.johnrellis.com/lightroom/exportlut.htm
# Preset: Food Art #13 (素锦印象)
# Color profile: /Library/Application Support/Adobe/Color/Profiles/Recommended/AdobeRGB1998.icc
LUT_3D_SIZE 8
DOMAIN_MIN 0.000000 0.000000 0.000000
DOMAIN_MAX 0.903226 0.903226 0.903226
0.000000 0.000000 0.000000
0.240299 0.000000 0.000000
0.543755 0.000000 0.000000
0.741573 0.000000 0.000000
0.867521 0.000000 0.000000
0.938842 0.000000 0.000000
0.987091 0.114412 0.019318
1.000000 0.164675 0.134859
0.000000 0.246036 0.000000
0.255283 0.247593 0.000000
0.551446 0.249699 0.000000
0.747768 0.217929 0.000000
0.869200 0.194064 0.000000
0.939178 0.189151 0.000000
0.986053 0.198703 0.068666
1.000000 0.217807 0.147311
0.000000 0.520439 0.000000
0.257664 0.517052 0.000000
0.521263 0.502861 0.000000
0.720058 0.459724 0.000000
0.847440 0.409369 0.000000
0.921782 0.366735 0.000000
0.971649 0.337743 0.087922
1.000000 0.324834 0.158480
0.106538 0.692531 0.000000
0.253819 0.690669 0.000000
0.472450 0.678126 0.000000
0.673732 0.650233 0.000000
0.809445 0.589319 0.000000
0.894377 0.529351 0.000000
0.953826 0.483467 0.129519
0.994110 0.452064 0.192996
0.189944 0.799527 0.000000
0.268681 0.796963 0.000000
0.432502 0.786557 0.000000
0.605585 0.767910 0.000000
0.773556 0.747524 0.000000
0.875761 0.686275 0.108553
0.938354 0.626551 0.186465
0.980804 0.580743 0.243137
0.258000 0.862760 0.146883
0.299107 0.859190 0.141848
0.414771 0.853269 0.147280
0.555688 0.843412 0.156313
0.702541 0.832120 0.173434
0.848020 0.821286 0.196292
0.928893 0.764736 0.244388
0.972015 0.706630 0.300450
0.327153 0.910521 0.258274
0.352026 0.909270 0.258244
0.431281 0.906554 0.265690
0.539635 0.901640 0.276036
0.661494 0.896269 0.293065
0.787045 0.891051 0.313329
0.913878 0.887877 0.339025
0.975311 0.835813 0.374884
0.404608 0.947448 0.362097
0.420539 0.947051 0.363745
0.471046 0.945434 0.368139
0.547417 0.942565 0.373693
0.646693 0.941192 0.396704
0.747677 0.938109 0.411078
0.853269 0.935637 0.429786
0.961608 0.935210 0.459480
0.000000 0.000000 0.217502
0.263340 0.000000 0.225406
0.563317 0.000000 0.182895
0.748287 0.000000 0.175998
0.866667 0.108553 0.172122
0.935760 0.161532 0.186099
0.981903 0.199069 0.209781
1.000000 0.234470 0.241276
0.000000 0.254582 0.220981
0.271092 0.255558 0.206882
0.554528 0.251682 0.190249
0.744869 0.238895 0.174319
0.863554 0.233524 0.174533
0.933196 0.239353 0.191409
0.980133 0.253178 0.217777
1.000000 0.273899 0.250584
0.000000 0.531121 0.165896
0.272221 0.522728 0.173404
0.527550 0.506523 0.160739
0.721675 0.466255 0.161593
0.845335 0.423072 0.175601
0.918425 0.388495 0.198184
0.968597 0.368048 0.225132
1.000000 0.360784 0.257847
0.136599 0.699977 0.146822
0.276921 0.694789 0.159335
0.481575 0.680964 0.152895
0.683375 0.658778 0.143343
0.815793 0.599542 0.172854
0.896513 0.543511 0.212039
0.952850 0.502708 0.246342
0.990295 0.476448 0.283452
0.229160 0.797391 0.186282
0.295323 0.795346 0.187411
0.445991 0.786374 0.188876
0.613794 0.770871 0.190433
0.779202 0.753140 0.197421
0.877165 0.693080 0.234287
0.937194 0.637507 0.278721
0.977874 0.596612 0.319860
0.299199 0.861784 0.252506
0.335851 0.860075 0.253147
0.438270 0.854551 0.255802
0.569482 0.845090 0.260105
0.709590 0.834226 0.269810
0.849943 0.823728 0.283482
0.928435 0.769924 0.317174
0.970825 0.716030 0.361608
0.368414 0.910704 0.330999
0.391730 0.910277 0.333593
0.460304 0.907622 0.337896
0.558312 0.902770 0.343420
0.672541 0.897704 0.354711
0.793576 0.893675 0.371557
0.917357 0.892119 0.395361
0.976165 0.842039 0.426978
0.434852 0.947539 0.408667
0.448219 0.947021 0.409064
0.493904 0.945586 0.412482
0.564691 0.942992 0.417090
0.654200 0.940368 0.427924
0.753689 0.938384 0.445350
0.857572 0.937194 0.467689
0.962982 0.937621 0.498512
0.000000 0.000000 0.483040
0.254734 0.000000 0.477546
0.541619 0.000000 0.461524
0.730312 0.017456 0.409308
0.839841 0.243351 0.399115
0.905211 0.319432 0.405829
0.954467 0.347265 0.408423
0.988434 0.372900 0.419165
0.000000 0.244968 0.474311
0.263981 0.241672 0.469642
0.539300 0.238590 0.451820
0.724544 0.272770 0.417639
0.835386 0.325292 0.409522
0.903166 0.358618 0.409979
0.952850 0.376013 0.413062
0.986877 0.394324 0.423651
0.000000 0.515099 0.447761
0.268833 0.511131 0.440925
0.520043 0.497444 0.428931
0.700282 0.478706 0.417212
0.817838 0.461677 0.409308
0.892149 0.452125 0.409888
0.945190 0.448646 0.416815
0.981445 0.451789 0.429938
0.157321 0.688472 0.392279
0.294438 0.681880 0.397009
0.495583 0.667781 0.405798
0.674647 0.650355 0.396368
0.796536 0.606867 0.402014
0.876188 0.572442 0.412299
0.933959 0.548486 0.423560
0.973541 0.534905 0.440558
0.278080 0.789670 0.380072
0.352972 0.784573 0.395239
0.485664 0.774472 0.406287
0.625788 0.761929 0.403693
0.773220 0.748592 0.404364
0.865141 0.702205 0.419837
0.925231 0.662989 0.441413
0.966674 0.633936 0.461555
0.376410 0.853483 0.415595
0.409155 0.851469 0.420294
0.495094 0.846738 0.429725
0.602411 0.840726 0.432593
0.724697 0.834043 0.438056
0.852140 0.827878 0.446082
0.924193 0.782223 0.462440
0.964752 0.738186 0.487129
0.443458 0.905089 0.459937
0.462867 0.904601 0.463325
0.518914 0.903319 0.469429
0.600488 0.900908 0.475502
0.699580 0.898436 0.485023
0.807309 0.896513 0.497566
0.918975 0.896056 0.513848
0.972229 0.851621 0.532158
0.510246 0.945464 0.519188
0.519249 0.945495 0.518669
0.556329 0.944823 0.522759
0.612177 0.942870 0.524224
0.689235 0.941680 0.534234
0.776516 0.940917 0.548180
0.869627 0.940978 0.566400
0.964904 0.942351 0.591241
0.000000 0.000000 0.673854
0.240879 0.000000 0.665278
0.496590 0.000000 0.647181
0.710689 0.083253 0.612634
0.824735 0.256413 0.556481
0.887938 0.368292 0.539696
0.928313 0.462226 0.562127
0.960632 0.515557 0.584985
0.090974 0.238407 0.654292
0.263005 0.239170 0.649683
0.498299 0.243961 0.636316
0.702754 0.267277 0.605768
0.816922 0.339422 0.559899
0.881651 0.418585 0.550042
0.923827 0.497108 0.575891
0.960357 0.525170 0.585687
0.172793 0.479622 0.631647
0.306828 0.483345 0.626734
0.508568 0.486244 0.614038
0.684718 0.482948 0.593194
0.793729 0.499977 0.571740
0.863401 0.524926 0.571221
0.917906 0.537469 0.573205
0.958282 0.551476 0.581872
0.212772 0.670802 0.593439
0.317510 0.667536 0.591485
0.502251 0.656977 0.585260
0.666194 0.643854 0.578058
0.777066 0.628656 0.577050
0.855497 0.619104 0.578424
0.914336 0.613367 0.583093
0.955627 0.612268 0.591730
0.311772 0.778958 0.541619
0.374426 0.775692 0.546471
0.518242 0.764614 0.563714
0.646204 0.753506 0.572198
0.768307 0.746578 0.572198
0.851347 0.719875 0.581750
0.911986 0.700862 0.593408
0.954681 0.688045 0.606409
0.402472 0.847776 0.531518
0.440650 0.843809 0.539055
0.552789 0.837186 0.575189
0.643366 0.833799 0.584314
0.742824 0.831693 0.589441
0.852354 0.831601 0.598505
0.917937 0.800900 0.609857
0.958038 0.773739 0.626978
0.493843 0.903227 0.566278
0.523278 0.901793 0.578851
0.597070 0.899016 0.609979
0.655116 0.898436 0.611536
0.735042 0.898711 0.619745
0.826078 0.900328 0.631830
0.922759 0.903685 0.648005
0.968963 0.869566 0.659663
0.582147 0.944884 0.625025
0.602899 0.944518 0.636744
0.642969 0.944335 0.652949
0.675990 0.944457 0.647059
0.737789 0.944915 0.655970
0.809567 0.945861 0.667567
0.887541 0.947417 0.682185
0.968200 0.949920 0.701198
0.082338 0.000000 0.788602
0.239078 0.036561 0.782925
0.453101 0.112856 0.768490
0.651911 0.174350 0.746365
0.801755 0.268406 0.702724
0.873960 0.377417 0.653010
0.920500 0.471656 0.644068
0.951476 0.557336 0.666102
0.175113 0.249027 0.774655
0.273930 0.251438 0.769345
0.462806 0.265904 0.757473
0.652369 0.294377 0.739651
0.796506 0.344671 0.699916
0.868864 0.423926 0.656580
0.916838 0.503349 0.651972
0.949615 0.579309 0.675227
0.289220 0.465858 0.747616
0.361791 0.473884 0.742672
0.499550 0.480049 0.734371
0.654047 0.483711 0.722530
0.782559 0.502922 0.694942
0.856107 0.545098 0.673671
0.908415 0.592401 0.679957
0.945708 0.645991 0.706447
0.314183 0.627588 0.723781
0.376806 0.629328 0.721401
0.521508 0.634638 0.713375
0.660395 0.641810 0.704891
0.768185 0.647395 0.696559
0.844388 0.664424 0.699580
0.902953 0.684382 0.712642
0.945556 0.695796 0.721614
0.358831 0.769650 0.693629
0.409674 0.767147 0.692988
0.538231 0.760189 0.693355
0.667903 0.753384 0.698299
0.770260 0.752926 0.703334
0.848142 0.748135 0.710933
0.908080 0.745724 0.718685
0.949523 0.745785 0.728023
0.449866 0.848417 0.660761
0.486213 0.846708 0.666072
0.585321 0.842832 0.685176
0.693446 0.839933 0.712551
0.772274 0.841947 0.720211
0.860349 0.843931 0.725887
0.917021 0.825711 0.733181
0.955779 0.812924 0.744076
0.532586 0.906065 0.665095
0.559411 0.905547 0.673976
0.634058 0.904326 0.700893
0.723201 0.904143 0.737697
0.775875 0.906249 0.738369
0.849943 0.910002 0.748989
0.930419 0.915831 0.763943
0.968811 0.892210 0.772732
0.617517 0.949798 0.700404
0.636774 0.949767 0.709682
0.693507 0.949981 0.738338
0.761471 0.950134 0.773800
0.787594 0.951141 0.763699
0.845304 0.953429 0.774472
0.908354 0.956298 0.787564
0.973266 0.959899 0.803891
0.160647 0.133486 0.855680
0.249668 0.146853 0.852140
0.420203 0.186648 0.842100
0.593683 0.243076 0.825834
0.753567 0.307134 0.808560
0.859770 0.389044 0.766720
0.912505 0.483162 0.732326
0.947784 0.568200 0.730983
0.232944 0.271550 0.847837
0.296391 0.277592 0.845029
0.442847 0.298924 0.835782
0.603296 0.333471 0.821286
0.754696 0.371588 0.806180
0.857572 0.435859 0.767544
0.910582 0.515953 0.737819
0.946777 0.591089 0.738552
0.367803 0.473579 0.820554
0.401831 0.475746 0.819059
0.498054 0.482033 0.813443
0.623072 0.492714 0.804685
0.755062 0.511223 0.796719
0.849851 0.550103 0.769711
0.905455 0.599939 0.753628
0.944579 0.653315 0.760342
0.398474 0.601953 0.803555
0.441108 0.608087 0.801633
0.551141 0.627680 0.795468
0.654322 0.639551 0.790005
0.758511 0.646876 0.788724
0.843565 0.666468 0.777066
0.902464 0.694881 0.777279
0.944457 0.730526 0.791531
0.435126 0.733669 0.793606
0.471962 0.735470 0.793057
0.571313 0.741848 0.792172
0.680537 0.751217 0.792844
0.773556 0.759976 0.796872
0.851102 0.771511 0.800320
0.909483 0.790341 0.814145
0.950408 0.816159 0.835752
0.497292 0.851499 0.783536
0.526116 0.849912 0.783932
0.609247 0.847379 0.788235
0.706538 0.846098 0.796872
0.793515 0.848905 0.810727
0.866392 0.854459 0.821134
0.920317 0.852750 0.829953
0.957397 0.853117 0.838834
0.572137 0.910399 0.763516
0.593194 0.909728 0.767453
0.658106 0.909361 0.782437
0.739254 0.910399 0.804807
0.817655 0.914275 0.831907
0.872618 0.919951 0.841428
0.937530 0.927276 0.854398
0.969146 0.914366 0.861479
0.651392 0.955474 0.776333
0.668269 0.955596 0.782650
0.718563 0.956054 0.802274
0.783047 0.957122 0.829465
0.850614 0.960052 0.862730
0.882628 0.962249 0.864530
0.929992 0.965698 0.874784
0.978454 0.969940 0.887663
0.226505 0.209018 0.907622
0.281468 0.219699 0.905089
0.412207 0.253910 0.896849
0.559991 0.306340 0.884428
0.701808 0.364202 0.872068
0.834165 0.423529 0.864866
0.909392 0.507408 0.828031
0.945922 0.590478 0.804654
0.285374 0.306554 0.899199
0.327733 0.313420 0.897032
0.439368 0.336767 0.889982
0.573175 0.371923 0.879454
0.706447 0.413062 0.869261
0.834806 0.463020 0.864012
0.908568 0.536553 0.830014
0.945586 0.610834 0.809262
0.412757 0.485206 0.877989
0.436133 0.487495 0.876768
0.508263 0.496193 0.872740
0.610071 0.512139 0.867247
0.723445 0.536584 0.863005
0.838468 0.569451 0.863462
0.907591 0.617945 0.837919
0.945617 0.671168 0.824735
0.480537 0.610224 0.864347
0.510460 0.618799 0.863157
0.592584 0.644923 0.860319
0.664088 0.653437 0.860227
0.751675 0.666865 0.862242
0.847471 0.686152 0.868101
0.910124 0.714748 0.853117
0.948333 0.749050 0.849119
0.512016 0.715145 0.860685
0.538231 0.719875 0.860685
0.612757 0.734859 0.861540
0.702998 0.756161 0.864805
0.782101 0.772580 0.870451
0.860258 0.785824 0.878843
0.917784 0.804532 0.874662
0.954772 0.828885 0.880217
0.558190 0.829252 0.867674
0.580713 0.831174 0.868589
0.646601 0.837491 0.871916
0.728908 0.846708 0.877653
0.808560 0.857542 0.885405
0.877592 0.869566 0.894804
0.930297 0.882811 0.901335
0.964355 0.899779 0.914580
0.623285 0.926787 0.870146
0.641413 0.926543 0.871611
0.695705 0.925963 0.876646
0.766201 0.926055 0.885130
0.837736 0.928008 0.897002
0.899596 0.932921 0.911864
0.945800 0.939849 0.923552
0.973449 0.939574 0.930236
0.691127 0.963531 0.854643
0.704799 0.963561 0.858000
0.746883 0.963745 0.868925
0.805295 0.964752 0.886107
0.867277 0.967132 0.907866
0.921111 0.971252 0.931060
0.951049 0.974945 0.939055
0.983703 0.979309 0.947906
0.278874 0.267338 0.937316
0.315373 0.276249 0.935546
0.415320 0.307347 0.929625
0.538781 0.354742 0.920867
0.662531 0.407172 0.912566
0.782162 0.466285 0.908690
0.895995 0.533013 0.912322
0.946685 0.608850 0.879210
0.331090 0.343755 0.930755
0.360388 0.350408 0.929198
0.444678 0.372168 0.924193
0.554772 0.405829 0.916991
0.671138 0.448249 0.910521
0.786526 0.500420 0.908324
0.897276 0.560113 0.913207
0.946990 0.628443 0.881865
0.445594 0.497383 0.914763
0.463172 0.500389 0.913939
0.519341 0.510948 0.911498
0.603204 0.530266 0.908415
0.700710 0.558618 0.906859
0.802029 0.594659 0.909239
0.902159 0.637171 0.917052
0.948699 0.686915 0.891112
0.543084 0.629480 0.905180
0.570031 0.642023 0.904692
0.612329 0.652491 0.904814
0.670710 0.663600 0.905943
0.744259 0.680354 0.909087
0.826200 0.702846 0.915282
0.910887 0.731075 0.925078
0.953033 0.763058 0.906371
0.567620 0.710292 0.905852
0.587366 0.716274 0.906249
0.645991 0.735378 0.908202
0.722683 0.763241 0.912657
0.789242 0.783291 0.918883
0.853849 0.799008 0.926452
0.922667 0.819455 0.936645
0.960266 0.841337 0.926390
0.608972 0.804532 0.913542
0.626398 0.808194 0.914488
0.678920 0.819974 0.917906
0.749508 0.837736 0.923796
0.823758 0.860380 0.932158
0.885679 0.881071 0.941466
0.937560 0.895476 0.950713
0.969574 0.909453 0.948302
0.664302 0.903929 0.929961
0.679011 0.905425 0.931060
0.724025 0.910216 0.934691
0.787137 0.917998 0.940673
0.853727 0.928130 0.948333
0.911315 0.939483 0.956725
0.953338 0.950256 0.964660
0.979400 0.958923 0.968536
0.727749 0.979187 0.935424
0.739376 0.978973 0.936584
0.776028 0.978363 0.940490
0.829068 0.977752 0.947112
0.885069 0.977905 0.955688
0.932982 0.979339 0.965240
0.967651 0.982330 0.974823
0.987610 0.986145 0.982147
