其他预设/【232】美食博客调色预设124款/1.3D LUT预设（视频调色-PR-AE-PS-FCPX-达芬奇用）/Food Art #21.cube
# Created by Adobe Lightroom plugin Export LUT (1.17.0)
# www.johnrellis.com/lightroom/exportlut.htm
# Preset: Food Art #21
# Color profile: /Library/Application Support/Adobe/Color/Profiles/Recommended/AdobeRGB1998.icc
LUT_3D_SIZE 5
DOMAIN_MIN 0.000000 0.000000 0.000000
DOMAIN_MAX 0.903226 0.903226 0.903226
0.000000 0.000000 0.000000
0.151827 0.000000 0.000000
0.489326 0.059693 0.000000
0.863951 0.000000 0.000000
1.000000 0.000000 0.000000
0.000000 0.191501 0.000000
0.157931 0.204288 0.000000
0.497475 0.263218 0.000000
0.864683 0.249180 0.000000
1.000000 0.221378 0.000000
0.000000 0.524712 0.000000
0.208225 0.529137 0.000000
0.546075 0.542687 0.000000
0.872618 0.531212 0.000000
1.000000 0.487984 0.000000
0.000000 0.821347 0.000000
0.221103 0.821103 0.000000
0.562646 0.815915 0.000000
0.872129 0.803525 0.000000
1.000000 0.741115 0.000000
0.000000 1.000000 0.000000
0.257145 1.000000 0.000000
0.536370 1.000000 0.000000
0.804868 0.988098 0.000000
1.000000 0.972381 0.000000
0.000000 0.000000 0.150484
0.151614 0.000000 0.166903
0.499641 0.000000 0.170199
0.863066 0.000000 0.133700
1.000000 0.000000 0.130983
0.000000 0.189303 0.162997
0.159762 0.205417 0.163180
0.509606 0.224338 0.153109
0.864530 0.194675 0.124056
1.000000 0.189792 0.129000
0.000000 0.526696 0.155947
0.159152 0.532677 0.120790
0.545251 0.538323 0.103334
0.870848 0.519310 0.089174
1.000000 0.482734 0.126009
0.000000 0.823270 0.000000
0.180972 0.822660 0.000000
0.557824 0.816434 0.000000
0.874022 0.802823 0.000000
1.000000 0.740383 0.117067
0.071046 1.000000 0.078035
0.274571 1.000000 0.081117
0.547845 1.000000 0.093812
0.810788 0.987823 0.118441
1.000000 0.972412 0.162844
0.000000 0.000000 0.352575
0.201938 0.000000 0.367376
0.528740 0.000000 0.393713
0.873442 0.000000 0.382635
1.000000 0.000000 0.365209
0.000000 0.187442 0.354040
0.161288 0.180575 0.369024
0.543450 0.159213 0.392737
0.874540 0.092134 0.375128
1.000000 0.270359 0.376226
0.000000 0.512291 0.375097
0.127352 0.525933 0.378973
0.568231 0.533776 0.374853
0.876463 0.518486 0.373571
1.000000 0.513054 0.377173
0.000000 0.821805 0.358465
0.184482 0.820920 0.353033
0.576715 0.813535 0.355505
0.883482 0.801236 0.354498
1.000000 0.752987 0.383520
0.241520 1.000000 0.343816
0.387152 1.000000 0.359777
0.608576 0.996094 0.373236
0.835569 0.983215 0.381872
1.000000 0.970764 0.400916
0.105592 0.000000 0.571099
0.260746 0.000000 0.583581
0.565911 0.000000 0.626368
0.884184 0.000000 0.627222
1.000000 0.000000 0.567559
0.000000 0.153902 0.571130
0.202884 0.148043 0.583093
0.555474 0.108949 0.624262
0.884977 0.000000 0.624598
1.000000 0.271336 0.572808
0.000000 0.464973 0.559991
0.000000 0.454963 0.562432
0.528496 0.476051 0.606104
0.882719 0.518090 0.621698
1.000000 0.570367 0.606104
0.000000 0.804685 0.617090
0.210605 0.805844 0.618189
0.601556 0.802274 0.623438
0.883574 0.795132 0.634516
1.000000 0.788113 0.644892
0.338567 1.000000 0.578119
0.448829 0.999176 0.585992
0.682033 0.986847 0.617548
0.869780 0.976074 0.645960
1.000000 0.969390 0.656703
0.000000 0.000000 0.869749
0.229831 0.000000 0.874083
0.519432 0.000000 0.888975
0.819760 0.000000 0.910552
1.000000 0.000000 0.867033
0.000000 0.115297 0.868437
0.148074 0.100313 0.872709
0.503105 0.000000 0.887572
0.819120 0.134524 0.909972
1.000000 0.270481 0.867277
0.000000 0.411780 0.858061
0.000000 0.399145 0.863188
0.457832 0.418311 0.878965
0.821042 0.493599 0.903807
1.000000 0.559472 0.873014
0.000000 0.712917 0.870176
0.000000 0.707973 0.869322
0.410681 0.691218 0.865385
0.812467 0.734310 0.885893
1.000000 0.803342 0.890196
0.243870 0.998535 0.901030
0.373663 0.996094 0.901213
0.632532 0.987182 0.902831
0.862547 0.971221 0.902190
0.993439 0.967895 0.921508
