其他预设/【232】美食博客调色预设124款/1.3D LUT预设（视频调色-PR-AE-PS-FCPX-达芬奇用）/Food Art #56.cube
# Created by Adobe Lightroom plugin Export LUT (1.17.0)
# www.johnrellis.com/lightroom/exportlut.htm
# Preset: Food Art #56
# Color profile: /Library/Application Support/Adobe/Color/Profiles/Recommended/AdobeRGB1998.icc
LUT_3D_SIZE 8
DOMAIN_MIN 0.000000 0.000000 0.000000
DOMAIN_MAX 0.903226 0.903226 0.903226
0.000000 0.000000 0.000000
0.087343 0.014710 0.042481
0.192538 0.080049 0.090181
0.315740 0.113588 0.133577
0.451057 0.146853 0.189700
0.608667 0.179507 0.252781
0.767330 0.214389 0.318120
0.905577 0.264591 0.386419
0.000000 0.115846 0.067231
0.088289 0.124849 0.084901
0.194095 0.141299 0.109071
0.314580 0.163424 0.148989
0.448524 0.188540 0.200778
0.602808 0.214664 0.259251
0.760525 0.243748 0.320989
0.901488 0.287694 0.388251
0.000000 0.247745 0.137453
0.082979 0.251041 0.144808
0.204196 0.261967 0.170382
0.325322 0.274052 0.202090
0.460182 0.290105 0.243595
0.614130 0.309697 0.292760
0.773007 0.333684 0.348943
0.908812 0.367224 0.408728
0.000000 0.378454 0.223514
0.082460 0.379767 0.228092
0.211612 0.385565 0.244816
0.348730 0.403326 0.278599
0.491127 0.417395 0.310033
0.635706 0.430213 0.342260
0.780301 0.445075 0.383490
0.910063 0.468971 0.432532
0.000000 0.514427 0.307225
0.113191 0.515312 0.310155
0.235935 0.520073 0.321141
0.368505 0.529747 0.340642
0.506981 0.538445 0.363897
0.646204 0.546532 0.387213
0.784207 0.559655 0.418036
0.911803 0.581170 0.458381
0.121889 0.651759 0.376074
0.171969 0.656062 0.379675
0.276249 0.658167 0.386053
0.400427 0.662104 0.397528
0.532341 0.666346 0.412543
0.667933 0.672541 0.430549
0.799252 0.680720 0.453407
0.918944 0.697444 0.486244
0.235325 0.786618 0.436439
0.263584 0.787533 0.437995
0.341039 0.787320 0.441413
0.448096 0.788449 0.448524
0.566827 0.789517 0.458045
0.690608 0.792874 0.470863
0.811887 0.798123 0.486213
0.923827 0.807584 0.512505
0.390509 0.908202 0.491859
0.406561 0.908049 0.492714
0.459541 0.908171 0.496101
0.542809 0.909422 0.503044
0.633112 0.905608 0.508782
0.738766 0.908110 0.522362
0.843015 0.912596 0.541161
0.937346 0.917601 0.564233
0.000000 0.000000 0.145754
0.064698 0.021210 0.155062
0.182559 0.082918 0.181369
0.307439 0.123964 0.217136
0.442786 0.156435 0.255985
0.596033 0.184726 0.300328
0.754635 0.215000 0.349248
0.896788 0.262943 0.404852
0.000000 0.115541 0.164981
0.065034 0.124666 0.174533
0.185397 0.144961 0.196445
0.308782 0.169986 0.226841
0.443122 0.194491 0.263767
0.594568 0.218265 0.305608
0.750210 0.243687 0.351781
0.892638 0.285344 0.405829
0.000000 0.245365 0.210544
0.060151 0.249454 0.219760
0.193820 0.260441 0.237491
0.317479 0.274601 0.261723
0.452735 0.290562 0.292790
0.602991 0.308202 0.328740
0.757931 0.329259 0.371466
0.898558 0.362707 0.421942
0.000000 0.374578 0.273289
0.065675 0.376532 0.278538
0.205264 0.383581 0.291936
0.336797 0.395697 0.315190
0.473121 0.407568 0.338262
0.617029 0.421027 0.364080
0.764706 0.437354 0.398535
0.900481 0.463386 0.441993
0.000000 0.511955 0.340337
0.104250 0.512322 0.342138
0.230503 0.515709 0.350469
0.360296 0.522454 0.364782
0.495705 0.529900 0.383490
0.635889 0.539940 0.403693
0.776455 0.555016 0.430549
0.906157 0.577447 0.466407
0.115999 0.646815 0.395239
0.164126 0.647669 0.396796
0.269749 0.650172 0.402289
0.394629 0.655451 0.412604
0.527489 0.661463 0.426398
0.664668 0.669612 0.442756
0.795834 0.678096 0.463111
0.915312 0.694789 0.492500
0.231296 0.780209 0.445899
0.257694 0.779568 0.446387
0.336126 0.780301 0.449805
0.444526 0.783139 0.456977
0.564385 0.785794 0.466316
0.687495 0.788968 0.477882
0.807218 0.793393 0.491524
0.919127 0.802945 0.516136
0.390265 0.904631 0.497322
0.407080 0.904967 0.498390
0.460243 0.905425 0.501793
0.543359 0.907012 0.508751
0.640223 0.907866 0.517815
0.742031 0.908812 0.529808
0.842924 0.911528 0.546624
0.935943 0.915801 0.568231
0.000000 0.003204 0.299351
0.000000 0.038972 0.305638
0.157351 0.088502 0.324285
0.296788 0.128573 0.347906
0.439246 0.161471 0.372992
0.599725 0.185946 0.401892
0.758572 0.216312 0.430213
0.899535 0.268986 0.462654
0.000000 0.121736 0.313725
0.000000 0.128908 0.319066
0.160342 0.148836 0.332952
0.298131 0.174441 0.353307
0.440711 0.198428 0.376959
0.598016 0.219394 0.403601
0.755673 0.245487 0.430915
0.897673 0.292058 0.463478
0.000000 0.247349 0.342412
0.000000 0.251225 0.346288
0.170596 0.261723 0.357122
0.308690 0.276371 0.373236
0.453864 0.294102 0.394537
0.606500 0.310124 0.416236
0.759945 0.330388 0.440711
0.899016 0.366217 0.470863
0.000000 0.376196 0.378119
0.000000 0.378515 0.381476
0.190921 0.386542 0.390784
0.331548 0.397986 0.404791
0.474006 0.411200 0.419623
0.621118 0.423713 0.435859
0.768948 0.440436 0.456733
0.903014 0.468421 0.483742
0.000000 0.511345 0.417731
0.073640 0.512871 0.419471
0.223087 0.517632 0.424720
0.359319 0.525261 0.433845
0.498177 0.533043 0.445136
0.638727 0.542504 0.457069
0.778164 0.557610 0.474128
0.907347 0.581109 0.498939
0.109651 0.646509 0.449775
0.161288 0.647578 0.450752
0.269230 0.649805 0.454261
0.394324 0.653681 0.460029
0.526818 0.659022 0.468238
0.662806 0.666743 0.478981
0.794461 0.677180 0.494026
0.916197 0.698329 0.519219
0.243748 0.781094 0.480964
0.270970 0.780758 0.481849
0.346899 0.780484 0.484291
0.451423 0.781796 0.488777
0.568902 0.783902 0.495369
0.691157 0.788022 0.504906
0.811002 0.794675 0.517754
0.922850 0.807309 0.541497
0.407355 0.903441 0.520745
0.423682 0.902831 0.521904
0.473182 0.902800 0.524559
0.554864 0.905455 0.531518
0.648066 0.906249 0.539666
0.747799 0.907958 0.551507
0.846708 0.911498 0.568231
0.938109 0.916777 0.589502
0.000000 0.039307 0.434821
0.000000 0.060792 0.438727
0.121401 0.094392 0.447456
0.284886 0.133028 0.459236
0.435279 0.163973 0.474037
0.595453 0.186252 0.489509
0.754086 0.210971 0.502525
0.896483 0.262974 0.517205
0.000000 0.129976 0.444282
0.000000 0.135653 0.446357
0.129030 0.152834 0.452735
0.289220 0.177798 0.462745
0.439307 0.200870 0.476661
0.596551 0.218845 0.490364
0.753628 0.239811 0.502647
0.896056 0.287053 0.517601
0.000000 0.250767 0.456397
0.000000 0.254154 0.458442
0.146151 0.263462 0.463722
0.302159 0.277684 0.472511
0.452949 0.293919 0.484627
0.610163 0.308202 0.496498
0.766171 0.329015 0.508812
0.902037 0.368597 0.523674
0.000000 0.378698 0.474891
0.000000 0.380835 0.476204
0.179385 0.387518 0.480720
0.327886 0.397620 0.487556
0.472969 0.408270 0.494820
0.622065 0.420111 0.503166
0.769924 0.438361 0.514061
0.904448 0.471504 0.530541
0.000000 0.513237 0.494606
0.065217 0.513817 0.494911
0.222904 0.517845 0.497261
0.361669 0.526452 0.501976
0.502861 0.534325 0.507683
0.644648 0.544976 0.514092
0.782864 0.560204 0.524407
0.909758 0.585962 0.541558
0.130007 0.649226 0.509300
0.178897 0.652491 0.510826
0.281651 0.653681 0.511986
0.405707 0.657343 0.515221
0.537163 0.662196 0.519982
0.669520 0.668391 0.526574
0.798245 0.679774 0.537530
0.917845 0.702510 0.557824
0.260563 0.780484 0.524315
0.287327 0.781064 0.525170
0.365728 0.782193 0.528252
0.471534 0.783871 0.533349
0.584558 0.786160 0.538384
0.701411 0.789639 0.545830
0.815671 0.795346 0.556176
0.924804 0.809537 0.578485
0.424445 0.904265 0.555718
0.441657 0.904326 0.557183
0.494118 0.903838 0.561425
0.570581 0.904051 0.567742
0.659388 0.904967 0.575280
0.755123 0.907012 0.586175
0.850980 0.911223 0.601953
0.940337 0.917479 0.622309
0.000000 0.068086 0.527855
0.000000 0.077729 0.529229
0.125185 0.103548 0.532708
0.293370 0.135744 0.537835
0.444312 0.167453 0.545495
0.602289 0.188083 0.555108
0.758785 0.212985 0.563592
0.899992 0.267063 0.572625
0.000000 0.138705 0.531243
0.000000 0.143801 0.532647
0.134005 0.158328 0.535332
0.297765 0.179599 0.539391
0.447730 0.203708 0.546593
0.605035 0.220859 0.555840
0.760281 0.242893 0.563958
0.900359 0.291814 0.573083
0.000000 0.256779 0.537255
0.000000 0.259251 0.538170
0.154513 0.266880 0.540093
0.312902 0.279545 0.544579
0.458320 0.293828 0.549584
0.610620 0.305821 0.556847
0.762997 0.324041 0.564508
0.900175 0.362890 0.574060
0.000000 0.381964 0.544640
0.000000 0.383551 0.545312
0.190616 0.389197 0.547814
0.336919 0.397253 0.551537
0.479774 0.406806 0.555566
0.627070 0.416999 0.561059
0.772030 0.433997 0.567956
0.904479 0.463691 0.578271
0.000000 0.511498 0.553826
0.108156 0.512902 0.554406
0.238224 0.516472 0.555871
0.369726 0.522667 0.558648
0.505821 0.529198 0.561700
0.645716 0.538140 0.565972
0.782620 0.552819 0.573297
0.909606 0.579431 0.586847
0.160769 0.642969 0.562280
0.197818 0.643641 0.562646
0.290929 0.644923 0.563256
0.409094 0.648524 0.565301
0.536034 0.653834 0.568231
0.670710 0.663264 0.575067
0.800076 0.677913 0.585657
0.918639 0.700465 0.603265
0.282628 0.777340 0.575006
0.305699 0.777127 0.575341
0.377600 0.777340 0.577050
0.478614 0.779019 0.580682
0.589227 0.782071 0.585229
0.704952 0.786374 0.592401
0.817014 0.792386 0.601984
0.924804 0.807553 0.621759
0.433845 0.899840 0.601373
0.449042 0.899565 0.602228
0.498268 0.899138 0.605249
0.576898 0.901640 0.612543
0.662226 0.902617 0.618341
0.756710 0.904875 0.628260
0.851560 0.909300 0.642451
0.940337 0.915862 0.661036
0.000000 0.086000 0.602747
0.000000 0.092653 0.603449
0.178042 0.111208 0.604913
0.328832 0.137728 0.609033
0.473610 0.164004 0.614313
0.617517 0.189853 0.619593
0.768093 0.217624 0.629358
0.905974 0.274968 0.639246
0.000000 0.147860 0.603021
0.000000 0.151461 0.603449
0.180606 0.163180 0.605127
0.330297 0.180850 0.609125
0.473793 0.200412 0.613886
0.617639 0.221439 0.619257
0.768032 0.245701 0.629114
0.905577 0.297551 0.639216
0.000000 0.262974 0.608667
0.000000 0.264683 0.609064
0.195224 0.271153 0.610712
0.342077 0.281407 0.613764
0.483742 0.293431 0.617334
0.626215 0.307500 0.622095
0.772885 0.327550 0.630884
0.907195 0.370397 0.641199
0.000000 0.390845 0.614862
0.046418 0.391241 0.615045
0.219181 0.393622 0.616876
0.361730 0.400763 0.620813
0.503593 0.409857 0.624659
0.643885 0.420905 0.628687
0.783291 0.438880 0.635798
0.911589 0.469917 0.645747
0.100130 0.517327 0.620172
0.153170 0.518120 0.620752
0.262211 0.520775 0.622339
0.387304 0.524895 0.624994
0.519707 0.529229 0.627863
0.656092 0.537285 0.631830
0.789273 0.551049 0.638422
0.913237 0.575158 0.649561
0.203220 0.645136 0.628046
0.234745 0.646601 0.628962
0.318730 0.648646 0.630182
0.430640 0.651728 0.632258
0.550225 0.655360 0.634852
0.678767 0.662409 0.640162
0.803861 0.674281 0.648646
0.920775 0.693782 0.662501
0.313451 0.777432 0.642542
0.335973 0.778134 0.643336
0.402197 0.778531 0.644587
0.494606 0.779721 0.646937
0.599939 0.781857 0.650385
0.711055 0.785824 0.655848
0.821988 0.792599 0.664790
0.928832 0.808865 0.682338
0.452216 0.898466 0.666407
0.466041 0.898192 0.666865
0.511315 0.897795 0.668788
0.581384 0.898802 0.672908
0.664454 0.900359 0.677638
0.755612 0.903197 0.684291
0.851896 0.908324 0.697658
0.941161 0.915404 0.714504
0.000000 0.097566 0.693324
0.069947 0.102541 0.694270
0.226627 0.117403 0.696101
0.362921 0.138369 0.699367
0.499977 0.161349 0.702998
0.637873 0.187747 0.707424
0.773404 0.220005 0.712795
0.907164 0.278386 0.724147
0.000000 0.154635 0.693904
0.070802 0.157504 0.694606
0.226932 0.166690 0.696345
0.362982 0.180789 0.699001
0.499977 0.198184 0.702541
0.637598 0.219150 0.706813
0.772671 0.246677 0.712032
0.906004 0.299046 0.723262
0.000000 0.265324 0.698421
0.071534 0.266880 0.698817
0.230259 0.272007 0.699977
0.367529 0.280308 0.702235
0.504967 0.291264 0.705226
0.642634 0.305821 0.709377
0.777310 0.327428 0.714809
0.908629 0.371771 0.726101
0.000000 0.391058 0.704036
0.103548 0.390387 0.704036
0.237797 0.390631 0.705013
0.376623 0.396765 0.707210
0.514794 0.404883 0.709957
0.652338 0.416907 0.714076
0.785092 0.435279 0.719356
0.912078 0.468055 0.729946
0.146914 0.521080 0.709255
0.185611 0.521080 0.709346
0.280705 0.521324 0.710170
0.397436 0.521569 0.711818
0.528252 0.525078 0.714260
0.663478 0.534569 0.718074
0.792630 0.548699 0.723476
0.915373 0.575280 0.734890
0.243320 0.649348 0.717433
0.268894 0.649714 0.717708
0.344121 0.650965 0.718654
0.446601 0.652857 0.720363
0.561151 0.654871 0.722560
0.684230 0.660029 0.726223
0.806088 0.670680 0.732479
0.921050 0.688136 0.743587
0.342687 0.775051 0.728908
0.361975 0.775448 0.729397
0.420905 0.776272 0.730404
0.505791 0.777798 0.732296
0.606714 0.779812 0.734798
0.713924 0.783322 0.738888
0.823148 0.790097 0.745907
0.928923 0.803403 0.758389
0.465003 0.895537 0.749081
0.478126 0.895628 0.749508
0.522332 0.896513 0.751736
0.588159 0.897551 0.754543
0.668757 0.899260 0.758419
0.757351 0.902342 0.763760
0.850034 0.907286 0.771847
0.941070 0.915190 0.786618
0.015381 0.111757 0.817624
0.128267 0.115633 0.818143
0.254307 0.127901 0.819028
0.385351 0.146456 0.821134
0.519463 0.170748 0.823941
0.654047 0.200595 0.827451
0.785397 0.240055 0.831998
0.908232 0.292393 0.837064
0.000000 0.162753 0.817807
0.125673 0.165194 0.818296
0.253513 0.173220 0.819272
0.385168 0.186679 0.821134
0.519585 0.205509 0.823911
0.654200 0.230411 0.827359
0.785367 0.265080 0.831724
0.907927 0.312993 0.836728
0.000000 0.267552 0.819852
0.114595 0.269017 0.820157
0.250919 0.273564 0.820737
0.385901 0.282567 0.823148
0.521508 0.295140 0.825620
0.656519 0.312932 0.828641
0.787381 0.340032 0.832853
0.908934 0.379522 0.837949
0.000000 0.384436 0.823362
0.100893 0.385626 0.823728
0.249393 0.388952 0.824399
0.388190 0.395514 0.826169
0.526299 0.405432 0.828580
0.662074 0.420111 0.831571
0.792020 0.442267 0.835660
0.911406 0.471473 0.841001
0.160708 0.521965 0.828275
0.196414 0.521630 0.828611
0.285344 0.519524 0.828916
0.395361 0.514702 0.829587
0.534447 0.522789 0.831662
0.669673 0.534691 0.834684
0.797848 0.552514 0.839200
0.914733 0.577111 0.845426
0.278233 0.654536 0.835477
0.299535 0.654414 0.835416
0.364080 0.654078 0.835477
0.454078 0.652583 0.835966
0.561822 0.651179 0.836912
0.684779 0.656519 0.840116
0.808652 0.670954 0.846067
0.920562 0.689784 0.853696
0.390570 0.781308 0.845975
0.405249 0.781369 0.845975
0.452613 0.781430 0.846250
0.526696 0.781918 0.847196
0.617243 0.782712 0.848661
0.716518 0.783963 0.851072
0.822782 0.789212 0.855863
0.927184 0.802762 0.864317
0.498573 0.898131 0.860380
0.509148 0.898131 0.860472
0.544762 0.898436 0.861143
0.602808 0.899260 0.862699
0.676509 0.900633 0.865141
0.759579 0.902983 0.868711
0.848997 0.907256 0.874357
0.938537 0.915282 0.883970
