其他预设/【232】美食博客调色预设124款/1.3D LUT预设（视频调色-PR-AE-PS-FCPX-达芬奇用）/Food Art #73.cube
# Created by Adobe Lightroom plugin Export LUT (1.17.0)
# www.johnrellis.com/lightroom/exportlut.htm
# Preset: Food Art #73
# Color profile: /Library/Application Support/Adobe/Color/Profiles/Recommended/AdobeRGB1998.icc
LUT_3D_SIZE 5
DOMAIN_MIN 0.000000 0.000000 0.000000
DOMAIN_MAX 0.903226 0.903226 0.903226
0.000000 0.000000 0.000000
0.170199 0.083009 0.049958
0.425330 0.128969 0.086000
0.720058 0.166873 0.141054
0.961242 0.240604 0.210300
0.000000 0.227939 0.058900
0.172580 0.236973 0.071626
0.425116 0.258518 0.105592
0.719966 0.283726 0.151064
0.963256 0.329839 0.219059
0.000000 0.460395 0.128115
0.206638 0.463142 0.133852
0.457679 0.476417 0.150607
0.729152 0.494209 0.175967
0.959716 0.517571 0.241398
0.172702 0.714900 0.180728
0.286992 0.716121 0.184085
0.509392 0.717342 0.194156
0.744839 0.718593 0.213443
0.959564 0.729091 0.288334
0.378698 0.934600 0.293339
0.436683 0.933776 0.298009
0.587854 0.929259 0.310796
0.778225 0.928771 0.347936
0.957733 0.930755 0.405097
0.000000 0.045411 0.198184
0.163058 0.091310 0.200687
0.413916 0.153384 0.222171
0.704555 0.184848 0.245792
0.953124 0.260624 0.287327
0.000000 0.226017 0.202548
0.174624 0.240604 0.210422
0.417578 0.264317 0.225986
0.707179 0.287816 0.248081
0.953521 0.340368 0.292088
0.022309 0.455634 0.228092
0.215396 0.457038 0.231876
0.447456 0.465644 0.238804
0.718502 0.488808 0.257633
0.955169 0.523308 0.311192
0.191104 0.710872 0.260136
0.299443 0.711330 0.263951
0.512932 0.712886 0.271275
0.743069 0.714778 0.285924
0.956756 0.731044 0.352697
0.409735 0.931151 0.357671
0.461982 0.930449 0.361364
0.607568 0.929351 0.377081
0.786313 0.928283 0.406897
0.958648 0.930938 0.456458
0.000000 0.089113 0.380774
0.198001 0.116854 0.380407
0.429969 0.159365 0.381872
0.711482 0.190494 0.410834
0.950622 0.296452 0.445899
0.022522 0.251652 0.378576
0.208438 0.257359 0.378882
0.436225 0.269535 0.384375
0.711818 0.292485 0.411810
0.949615 0.378576 0.454780
0.111208 0.458350 0.387671
0.240024 0.460029 0.388769
0.476875 0.478737 0.406104
0.722469 0.495094 0.423774
0.949096 0.548669 0.474220
0.223301 0.704738 0.420447
0.319677 0.702998 0.421698
0.530846 0.705074 0.435096
0.745510 0.710597 0.448920
0.950805 0.738338 0.503807
0.430823 0.925963 0.483558
0.493416 0.924712 0.493660
0.640589 0.922179 0.518334
0.798489 0.922759 0.537743
0.956970 0.927703 0.571374
0.116945 0.139071 0.608850
0.255406 0.152193 0.608881
0.486427 0.175204 0.610986
0.723049 0.198489 0.613397
0.950958 0.310735 0.635737
0.139498 0.275425 0.606134
0.264134 0.278386 0.606806
0.488502 0.285863 0.609003
0.722377 0.297124 0.611994
0.948333 0.385199 0.637781
0.189578 0.482734 0.609339
0.294408 0.483589 0.608881
0.506859 0.488808 0.610498
0.728603 0.495827 0.615167
0.945953 0.557763 0.649958
0.274662 0.702846 0.622217
0.357305 0.701717 0.621485
0.546441 0.702968 0.624598
0.760281 0.718013 0.643397
0.947234 0.745998 0.674403
0.462043 0.921416 0.660822
0.515099 0.920134 0.664424
0.650599 0.918486 0.676081
0.807553 0.919463 0.694942
0.954955 0.926238 0.716945
0.191012 0.204074 0.865904
0.298955 0.211276 0.865812
0.511864 0.232547 0.866026
0.736355 0.270695 0.866575
0.942229 0.340917 0.868528
0.217777 0.310338 0.864408
0.314885 0.313909 0.864378
0.519799 0.326513 0.864714
0.739406 0.354101 0.865293
0.941314 0.408942 0.867826
0.299870 0.511376 0.863432
0.379858 0.516258 0.862608
0.554711 0.524498 0.862699
0.752590 0.539483 0.864012
0.940337 0.570123 0.868833
0.397742 0.718502 0.869139
0.456031 0.720058 0.868406
0.604120 0.725277 0.867308
0.775875 0.734890 0.868559
0.942382 0.753506 0.876921
0.514885 0.917571 0.881712
0.554437 0.917235 0.881651
0.666926 0.917235 0.882811
0.808896 0.919188 0.886320
0.951537 0.930266 0.900572
