其他预设/【232】美食博客调色预设124款/1.3D LUT预设（视频调色-PR-AE-PS-FCPX-达芬奇用）/Food Art #28.cube
# Created by Adobe Lightroom plugin Export LUT (1.17.0)
# www.johnrellis.com/lightroom/exportlut.htm
# Preset: Food Art #28
# Color profile: /Library/Application Support/Adobe/Color/Profiles/Recommended/AdobeRGB1998.icc
LUT_3D_SIZE 32
0.000000 0.000000 0.000000
0.000000 0.000000 0.000000
0.000000 0.000000 0.000000
0.000000 0.000000 0.000000
0.098024 0.018158 0.007507
0.139345 0.033387 0.014435
0.182528 0.006439 0.016388
0.227298 0.000000 0.014099
0.273442 0.000000 0.009461
0.319371 0.000000 0.000916
0.365606 0.000000 0.000000
0.411048 0.000000 0.000000
0.455787 0.000000 0.000000
0.499458 0.000000 0.000000
0.541833 0.000000 0.000000
0.583001 0.000000 0.000000
0.623560 0.000000 0.000000
0.662867 0.000000 0.000000
0.696712 0.000000 0.000000
0.727413 0.059022 0.000000
0.757778 0.100221 0.000000
0.788388 0.131106 0.000000
0.818479 0.158083 0.040406
0.848051 0.183566 0.082521
0.876890 0.208042 0.110567
0.904784 0.232547 0.136995
0.931609 0.257816 0.163821
0.957000 0.283940 0.191836
0.980865 0.311223 0.221469
1.000000 0.340337 0.253300
1.000000 0.371008 0.287114
1.000000 0.403693 0.323552
0.000000 0.000000 0.000000
0.000000 0.000000 0.000000
0.000000 0.000000 0.000000
0.000000 0.000000 0.000000
0.098878 0.019898 0.007263
0.139742 0.032929 0.014405
0.182834 0.006012 0.016358
0.227298 0.000000 0.014099
0.273014 0.000000 0.008972
0.319005 0.000000 0.000000
0.364813 0.000000 0.000000
0.410163 0.000000 0.000000
0.454871 0.000000 0.000000
0.498329 0.000000 0.000000
0.540551 0.000000 0.000000
0.581598 0.000000 0.000000
0.622309 0.000000 0.000000
0.661128 0.000000 0.000000
0.694667 0.000000 0.000000
0.725246 0.073884 0.000000
0.755550 0.107729 0.000000
0.786007 0.135897 0.000000
0.816220 0.161532 0.035004
0.845914 0.185885 0.080781
0.874876 0.210056 0.108888
0.902953 0.234195 0.135348
0.929992 0.258915 0.162387
0.955566 0.284977 0.190707
0.979644 0.312047 0.219944
1.000000 0.340795 0.252018
1.000000 0.371283 0.285740
1.000000 0.403662 0.321996
0.000000 0.000000 0.000000
0.000000 0.000000 0.000000
0.000000 0.000000 0.000000
0.000000 0.000000 0.000000
0.100343 0.019989 0.008179
0.140932 0.032807 0.014191
0.183261 0.005341 0.016297
0.227268 0.000000 0.013825
0.273075 0.000000 0.007446
0.318730 0.000000 0.000000
0.364477 0.000000 0.000000
0.409644 0.000000 0.000000
0.454078 0.000000 0.000000
0.497658 0.000000 0.000000
0.539849 0.000000 0.000000
0.580896 0.000000 0.000000
0.621729 0.000000 0.000000
0.660121 0.000000 0.000000
0.693446 0.047944 0.000000
0.724056 0.090272 0.000000
0.754299 0.118196 0.000000
0.784817 0.143832 0.000000
0.815030 0.168063 0.034546
0.844785 0.191348 0.080385
0.873808 0.214450 0.108431
0.901946 0.237980 0.135195
0.929076 0.262303 0.162234
0.954772 0.287633 0.190066
0.978973 0.314458 0.219760
1.000000 0.342809 0.251469
1.000000 0.372992 0.285496
1.000000 0.404974 0.321599
0.000000 0.000000 0.000000
0.000000 0.000000 0.000000
0.000641 0.003388 0.000793
0.015747 0.017304 0.000336
0.103609 0.043305 0.008057
0.143526 0.055299 0.012757
0.185489 0.047547 0.013397
0.229068 0.023896 0.009674
0.274113 0.000000 0.002228
0.319310 0.000000 0.000000
0.364599 0.000000 0.000000
0.409613 0.000000 0.000000
0.453925 0.000000 0.000000
0.497230 0.000000 0.000000
0.539300 0.000000 0.000000
0.580255 0.000000 0.000000
0.621332 0.012207 0.000000
0.659052 0.070405 0.000000
0.691829 0.094850 0.000000
0.722133 0.117464 0.000000
0.752193 0.138857 0.000000
0.782620 0.160311 0.000000
0.812985 0.181918 0.033021
0.843046 0.203281 0.079866
0.872526 0.224887 0.108614
0.901122 0.247318 0.135714
0.928557 0.270634 0.162875
0.954437 0.295445 0.191287
0.978698 0.321294 0.221012
1.000000 0.348882 0.252628
1.000000 0.378241 0.286534
1.000000 0.409430 0.322362
0.063416 0.081605 0.003693
0.064759 0.082429 0.004456
0.065858 0.083925 0.005035
0.072236 0.086305 0.006012
0.108156 0.086336 0.005554
0.147646 0.089906 0.007996
0.188663 0.090547 0.006470
0.231174 0.087587 0.001831
0.275334 0.082124 0.000000
0.319982 0.074678 0.000000
0.364752 0.065705 0.000000
0.409522 0.060334 0.000000
0.453407 0.061616 0.000000
0.496651 0.069123 0.000000
0.538598 0.078859 0.000000
0.579644 0.091005 0.000000
0.621180 0.105592 0.000000
0.658350 0.120516 0.000000
0.691035 0.134798 0.000000
0.721187 0.150027 0.000000
0.751034 0.166476 0.000000
0.781399 0.183932 0.000000
0.811673 0.201938 0.036316
0.841886 0.221134 0.081361
0.871427 0.240665 0.110140
0.900175 0.261601 0.137331
0.927672 0.283421 0.164309
0.953643 0.306615 0.192660
0.977905 0.331304 0.222354
1.000000 0.357824 0.254032
1.000000 0.386114 0.287755
1.000000 0.416358 0.323583
0.083253 0.116152 0.005951
0.083436 0.116976 0.005554
0.083864 0.118227 0.006043
0.089540 0.119966 0.004730
0.119326 0.120668 0.002899
0.152224 0.120943 0.000488
0.193545 0.125307 0.000000
0.235172 0.126528 0.000000
0.278233 0.126070 0.000000
0.322087 0.124422 0.000000
0.366369 0.123049 0.000000
0.410529 0.122774 0.000000
0.454139 0.125521 0.000000
0.497200 0.130495 0.000000
0.538964 0.136172 0.000000
0.580865 0.144625 0.000000
0.621668 0.154025 0.000000
0.657984 0.163485 0.000000
0.690486 0.173312 0.000000
0.720760 0.184573 0.000000
0.750698 0.197574 0.000000
0.781186 0.211856 0.000000
0.824552 0.237797 0.070375
0.854093 0.254551 0.099763
0.882689 0.272160 0.126589
0.910185 0.290806 0.152865
0.936339 0.310704 0.179263
0.960937 0.331975 0.207279
0.983948 0.354894 0.236637
1.000000 0.379675 0.267765
1.000000 0.406317 0.300938
1.000000 0.434943 0.336339
0.089357 0.155550 0.000000
0.089174 0.156191 0.000000
0.089204 0.157107 0.000000
0.101839 0.158267 0.000000
0.131838 0.158785 0.000000
0.165255 0.159152 0.000000
0.199924 0.159213 0.000000
0.242679 0.164370 0.000000
0.285100 0.166415 0.000000
0.328405 0.167758 0.000000
0.372229 0.169192 0.000000
0.416205 0.171115 0.000000
0.459358 0.174746 0.000000
0.501762 0.178866 0.000000
0.543938 0.184329 0.000000
0.586328 0.191592 0.000000
0.625818 0.198489 0.000000
0.661402 0.205173 0.000000
0.693660 0.212894 0.000000
0.724056 0.222019 0.000000
0.754818 0.233219 0.000000
0.786526 0.245914 0.000000
0.818143 0.260502 0.067201
0.849332 0.276219 0.099092
0.879362 0.292882 0.127077
0.907774 0.310246 0.154330
0.934417 0.328893 0.181582
0.959228 0.348669 0.209415
0.982483 0.369879 0.238804
1.000000 0.393225 0.269871
1.000000 0.418280 0.302708
1.000000 0.445716 0.338140
0.088869 0.194308 0.000000
0.088624 0.194919 0.000000
0.092164 0.195407 0.000000
0.113588 0.195895 0.000000
0.143465 0.196109 0.000000
0.176150 0.196353 0.000000
0.210666 0.196414 0.000000
0.245792 0.196872 0.000000
0.289220 0.202609 0.000000
0.331487 0.205600 0.000000
0.374548 0.208591 0.000000
0.417731 0.211887 0.000000
0.460517 0.216068 0.000000
0.502983 0.220615 0.000000
0.545708 0.226383 0.000000
0.586267 0.231846 0.000000
0.624903 0.237339 0.000000
0.660029 0.242863 0.000000
0.692012 0.249058 0.000000
0.722194 0.256138 0.000000
0.752895 0.265263 0.000000
0.784421 0.276036 0.007660
0.816007 0.288609 0.071778
0.847105 0.302281 0.102876
0.877165 0.317021 0.130556
0.905699 0.332738 0.157839
0.932494 0.349584 0.184421
0.957549 0.367620 0.212131
0.980865 0.387579 0.241703
1.000000 0.409064 0.272404
1.000000 0.433021 0.305791
1.000000 0.458991 0.341161
0.088014 0.234379 0.000000
0.095491 0.234623 0.000000
0.106355 0.234653 0.000000
0.128634 0.234836 0.000000
0.157137 0.235019 0.000000
0.188876 0.235080 0.000000
0.222568 0.235264 0.000000
0.257023 0.235508 0.000000
0.292363 0.235782 0.000000
0.335668 0.242069 0.000000
0.378027 0.246372 0.000000
0.420478 0.250736 0.000000
0.463508 0.255802 0.000000
0.506004 0.260807 0.000000
0.546838 0.265660 0.000000
0.586633 0.270634 0.000000
0.624567 0.275517 0.000000
0.659266 0.280034 0.000000
0.690974 0.284886 0.000000
0.721157 0.290593 0.000000
0.751736 0.298253 0.000000
0.783108 0.307439 0.021271
0.814572 0.318364 0.077668
0.845640 0.330449 0.107759
0.875639 0.343633 0.135683
0.904173 0.357580 0.161776
0.931029 0.372808 0.188785
0.956115 0.389258 0.216281
0.979553 0.407538 0.245731
1.000000 0.427558 0.276646
1.000000 0.449805 0.309697
1.000000 0.474342 0.345190
0.107362 0.274388 0.000000
0.115724 0.274388 0.000000
0.125460 0.274418 0.000000
0.145663 0.274479 0.000000
0.172488 0.274479 0.000000
0.202823 0.274510 0.000000
0.235050 0.274418 0.000000
0.268833 0.274723 0.000000
0.303532 0.274998 0.000000
0.338537 0.275517 0.000000
0.381598 0.282383 0.000000
0.424018 0.287968 0.000000
0.466041 0.293278 0.000000
0.507408 0.298405 0.000000
0.547936 0.303349 0.000000
0.587304 0.308385 0.000000
0.625116 0.313207 0.000000
0.659632 0.317082 0.000000
0.691096 0.321233 0.000000
0.720912 0.325658 0.000000
0.751217 0.331823 0.000000
0.782101 0.339788 0.040558
0.813046 0.348821 0.084779
0.843656 0.359289 0.113375
0.873472 0.370733 0.140017
0.901976 0.383459 0.166537
0.929046 0.397009 0.192935
0.954345 0.412299 0.220951
0.978027 0.429206 0.250645
0.999969 0.447974 0.281682
1.000000 0.468879 0.315099
1.000000 0.492164 0.350744
0.130526 0.314000 0.000000
0.137423 0.314122 0.000000
0.146365 0.314244 0.000000
0.164614 0.314153 0.000000
0.189212 0.314183 0.000000
0.217533 0.314153 0.000000
0.248508 0.314000 0.000000
0.280797 0.314061 0.000000
0.314397 0.314153 0.000000
0.349279 0.315282 0.000000
0.384466 0.316442 0.000000
0.427405 0.324041 0.000000
0.468391 0.329595 0.000000
0.508873 0.334844 0.000000
0.548760 0.339910 0.000000
0.587671 0.344854 0.000000
0.624933 0.349371 0.000000
0.658930 0.353002 0.000000
0.690211 0.356054 0.000000
0.719875 0.359686 0.000000
0.750118 0.364965 0.000000
0.780972 0.371832 0.059388
0.811887 0.380102 0.092866
0.842405 0.389471 0.120882
0.872160 0.399847 0.147219
0.900664 0.411078 0.172915
0.927581 0.423407 0.199649
0.952911 0.437110 0.226871
0.976562 0.452461 0.256229
0.998505 0.469642 0.287602
1.000000 0.489082 0.320745
1.000000 0.510918 0.356451
0.153201 0.353338 0.000000
0.159335 0.353277 0.000000
0.167269 0.353216 0.000000
0.183352 0.353155 0.000000
0.205936 0.353216 0.000000
0.232609 0.353277 0.000000
0.262211 0.353582 0.000000
0.293980 0.354162 0.000000
0.327031 0.355077 0.000000
0.360967 0.356023 0.000000
0.395422 0.357092 0.000000
0.430030 0.358221 0.000000
0.482277 0.375097 0.000000
0.522667 0.380957 0.000000
0.562066 0.386084 0.000000
0.600580 0.390753 0.000000
0.636316 0.394293 0.000000
0.668879 0.396551 0.000000
0.698756 0.398322 0.000000
0.727840 0.400916 0.000000
0.757687 0.405097 0.037385
0.787747 0.410773 0.083772
0.817868 0.417548 0.110719
0.847562 0.425605 0.136568
0.876463 0.434485 0.161532
0.904173 0.444373 0.186831
0.930449 0.455207 0.212772
0.955047 0.467262 0.240116
0.978058 0.480964 0.268742
0.999481 0.496559 0.299535
1.000000 0.514305 0.332647
1.000000 0.534508 0.368109
0.179019 0.396582 0.000000
0.184176 0.396643 0.000000
0.191226 0.396521 0.000000
0.205692 0.396582 0.000000
0.226413 0.396643 0.000000
0.251286 0.396704 0.000000
0.279515 0.397009 0.000000
0.309728 0.397406 0.000000
0.341802 0.398016 0.000000
0.375097 0.399451 0.000000
0.409247 0.401038 0.000000
0.444373 0.403082 0.000000
0.479652 0.405310 0.000000
0.521538 0.413825 0.000000
0.561425 0.420111 0.000000
0.599878 0.425483 0.000000
0.635279 0.428931 0.000000
0.667506 0.430793 0.000000
0.697078 0.431891 0.000000
0.726070 0.433875 0.000000
0.755764 0.437476 0.061677
0.785824 0.442420 0.093050
0.815763 0.448524 0.119234
0.845396 0.455573 0.144411
0.874266 0.463600 0.168856
0.902007 0.472358 0.193576
0.928313 0.482216 0.219486
0.952941 0.493233 0.246647
0.976074 0.505577 0.275425
0.997589 0.519982 0.306340
1.000000 0.536339 0.339300
1.000000 0.555291 0.375097
0.203403 0.437964 0.000000
0.208316 0.437812 0.000000
0.214267 0.437781 0.000000
0.227176 0.437629 0.000000
0.245701 0.437263 0.000000
0.268833 0.436957 0.000000
0.295018 0.436988 0.000000
0.323552 0.437201 0.000000
0.353948 0.437751 0.000000
0.385992 0.438849 0.000000
0.419074 0.440345 0.000000
0.453010 0.442237 0.000000
0.487251 0.444282 0.000000
0.521477 0.446326 0.000000
0.561334 0.453620 0.000000
0.599603 0.459541 0.000000
0.634394 0.462745 0.000000
0.666194 0.464271 0.000000
0.695644 0.464973 0.000000
0.724544 0.466560 0.014313
0.754208 0.469673 0.075013
0.784176 0.474128 0.103944
0.814084 0.479622 0.129427
0.843717 0.486061 0.153109
0.872526 0.493294 0.177707
0.900298 0.501335 0.202426
0.926604 0.510124 0.227970
0.951293 0.520073 0.255009
0.974426 0.531487 0.283787
0.996033 0.544579 0.314488
1.000000 0.559899 0.347967
1.000000 0.577508 0.383642
0.227054 0.478248 0.000000
0.231296 0.478309 0.000000
0.236637 0.478065 0.000000
0.248203 0.477882 0.000000
0.265232 0.477333 0.000000
0.286351 0.476905 0.000000
0.310674 0.476753 0.000000
0.337682 0.476722 0.000000
0.366613 0.477180 0.000000
0.397498 0.478187 0.000000
0.429236 0.479530 0.000000
0.462013 0.481331 0.000000
0.495247 0.483223 0.000000
0.528679 0.485237 0.000000
0.561944 0.486793 0.000000
0.599237 0.492622 0.000000
0.634302 0.496437 0.000000
0.665492 0.497475 0.000000
0.694545 0.497841 0.000000
0.723384 0.498939 0.052033
0.752834 0.501579 0.088991
0.782712 0.505547 0.115053
0.812528 0.510491 0.139223
0.842069 0.516442 0.162905
0.870939 0.523095 0.186801
0.898772 0.530480 0.211307
0.925200 0.538720 0.237339
0.950134 0.548058 0.264897
0.973449 0.558618 0.293950
0.995117 0.571099 0.325719
1.000000 0.585443 0.359472
1.000000 0.602075 0.395636
0.250278 0.517937 0.000000
0.254246 0.517998 0.000000
0.259068 0.517937 0.000000
0.269566 0.517723 0.000000
0.285100 0.517540 0.000000
0.304753 0.517357 0.000000
0.327611 0.517388 0.000000
0.353277 0.517693 0.000000
0.380957 0.518090 0.000000
0.410224 0.518822 0.000000
0.440772 0.519768 0.000000
0.471992 0.520806 0.000000
0.503563 0.521782 0.000000
0.535393 0.522881 0.000000
0.567224 0.523735 0.000000
0.598810 0.524407 0.000000
0.632959 0.528008 0.000000
0.664881 0.529992 0.000000
0.693874 0.529992 0.013458
0.722744 0.531121 0.075257
0.752377 0.533684 0.103304
0.782284 0.537530 0.127871
0.812100 0.542260 0.151553
0.841672 0.547692 0.174563
0.870481 0.553887 0.198184
0.898253 0.560723 0.222904
0.924651 0.568261 0.248875
0.949432 0.576776 0.276493
0.972625 0.586481 0.305699
0.994141 0.597864 0.337407
1.000000 0.610925 0.370977
1.000000 0.626184 0.406989
0.272618 0.555566 0.000000
0.275761 0.555688 0.000000
0.280339 0.555474 0.000000
0.289921 0.555322 0.000000
0.304143 0.555108 0.000000
0.322210 0.554894 0.000000
0.343389 0.554742 0.000000
0.367254 0.554864 0.000000
0.393408 0.555108 0.000000
0.421118 0.555413 0.000000
0.450019 0.555993 0.000000
0.479774 0.556664 0.000000
0.510185 0.557336 0.000000
0.540764 0.557946 0.000000
0.571283 0.558373 0.000000
0.601587 0.558679 0.000000
0.631769 0.558740 0.000000
0.663355 0.560784 0.000000
0.693172 0.561700 0.058991
0.721950 0.562524 0.091310
0.751400 0.564874 0.116396
0.781186 0.568322 0.139712
0.810880 0.572747 0.162753
0.840360 0.577966 0.185702
0.869169 0.583673 0.209140
0.896910 0.590021 0.233921
0.923308 0.597040 0.259983
0.948150 0.604822 0.287480
0.971313 0.613825 0.317296
0.992859 0.624262 0.349004
1.000000 0.636469 0.383032
1.000000 0.650202 0.418250
0.294652 0.590906 0.000000
0.297917 0.590936 0.000000
0.307134 0.598596 0.000000
0.315709 0.598322 0.000000
0.328557 0.597925 0.000000
0.344854 0.597467 0.000000
0.364385 0.596979 0.000000
0.386450 0.596490 0.000000
0.410742 0.596124 0.000000
0.436713 0.596063 0.000000
0.463874 0.596033 0.000000
0.492073 0.596094 0.000000
0.520745 0.596033 0.000000
0.549798 0.595972 0.000000
0.579004 0.595758 0.000000
0.608087 0.595483 0.012879
0.637110 0.595209 0.045167
0.666102 0.594903 0.064851
0.695399 0.595544 0.086152
0.724819 0.596918 0.111757
0.753750 0.598840 0.134371
0.783139 0.601801 0.156405
0.812558 0.605676 0.178256
0.841581 0.610193 0.200595
0.869718 0.615076 0.223667
0.896910 0.620539 0.247349
0.922728 0.626398 0.272709
0.947112 0.633234 0.300175
0.970092 0.641138 0.329381
0.991547 0.650752 0.361364
1.000000 0.661921 0.395392
1.000000 0.674037 0.429511
0.317937 0.625299 0.000000
0.321355 0.626215 0.000000
0.325658 0.627100 0.000000
0.333959 0.627802 0.000000
0.346014 0.628107 0.000000
0.361181 0.628046 0.000000
0.379156 0.627680 0.000000
0.399481 0.627253 0.000000
0.422156 0.626978 0.000000
0.446357 0.626703 0.000000
0.471962 0.626612 0.000000
0.498726 0.626520 0.020569
0.525963 0.626368 0.045075
0.553735 0.626184 0.062928
0.581750 0.626032 0.072389
0.609888 0.625727 0.083284
0.638056 0.625452 0.092592
0.666255 0.625238 0.101869
0.694545 0.625330 0.111635
0.723507 0.626429 0.126436
0.752926 0.628717 0.148409
0.782254 0.631739 0.169406
0.811612 0.635523 0.191043
0.840574 0.639826 0.213046
0.868711 0.644495 0.236088
0.895872 0.649592 0.260136
0.921691 0.655024 0.285588
0.946014 0.661219 0.312902
0.968902 0.668513 0.342443
0.990234 0.677272 0.374701
1.000000 0.687373 0.408301
1.000000 0.698024 0.441474
0.339239 0.655451 0.025452
0.342260 0.656245 0.030915
0.346166 0.657099 0.035676
0.353643 0.657710 0.041505
0.364538 0.658015 0.049012
0.378302 0.658045 0.054566
0.394812 0.657740 0.060792
0.413428 0.657404 0.065248
0.434516 0.657221 0.070588
0.457252 0.657099 0.075776
0.481422 0.657069 0.082673
0.506767 0.657160 0.089723
0.532860 0.657130 0.096559
0.559503 0.657130 0.103853
0.586542 0.657008 0.110964
0.613794 0.656886 0.117830
0.641169 0.656825 0.125277
0.668757 0.656794 0.132753
0.696437 0.656977 0.140871
0.724361 0.657465 0.149874
0.752743 0.658717 0.162356
0.781827 0.661585 0.183261
0.811093 0.665278 0.204593
0.839994 0.669398 0.226352
0.868009 0.673762 0.249332
0.894987 0.678370 0.273259
0.920623 0.683284 0.298741
0.944793 0.688930 0.326360
0.967559 0.695552 0.356023
0.988830 0.703426 0.388098
1.000000 0.712123 0.420447
1.000000 0.721645 0.453162
0.360632 0.686427 0.093202
0.363378 0.687160 0.094789
0.367041 0.687922 0.095949
0.373693 0.688594 0.098299
0.383734 0.688899 0.100191
0.396277 0.688960 0.102541
0.411414 0.688746 0.105348
0.428717 0.688594 0.107607
0.448310 0.688350 0.111208
0.469520 0.688228 0.115236
0.492317 0.688319 0.120150
0.516258 0.688380 0.125093
0.541131 0.688441 0.130709
0.566735 0.688533 0.135927
0.592920 0.688624 0.142245
0.619409 0.688838 0.148836
0.646326 0.689113 0.156100
0.673518 0.689631 0.163363
0.701045 0.690364 0.171572
0.728847 0.691371 0.179965
0.756832 0.692683 0.188968
0.785031 0.694453 0.201816
0.813443 0.697292 0.222477
0.842344 0.701442 0.244907
0.870268 0.705745 0.267979
0.897093 0.710018 0.292149
0.922393 0.714504 0.317998
0.946197 0.719539 0.346166
0.968627 0.725490 0.376074
0.989471 0.732357 0.407477
1.000000 0.739651 0.438697
1.000000 0.748135 0.470375
0.385107 0.721309 0.134463
0.387335 0.721675 0.135561
0.390234 0.721920 0.136324
0.396063 0.722133 0.137179
0.404883 0.722194 0.138949
0.416236 0.722042 0.140414
0.430152 0.721920 0.142000
0.446326 0.721736 0.144778
0.464515 0.721736 0.147677
0.484596 0.721920 0.151186
0.506188 0.722133 0.155337
0.529107 0.722347 0.160189
0.552880 0.722530 0.165103
0.577325 0.722683 0.169986
0.602411 0.722744 0.175814
0.628016 0.722896 0.181521
0.654078 0.723201 0.187930
0.680446 0.723629 0.195071
0.707179 0.724239 0.202029
0.734096 0.725063 0.210025
0.761227 0.726040 0.218418
0.788449 0.727199 0.227481
0.815640 0.728603 0.239231
0.842130 0.730251 0.259709
0.869810 0.734096 0.282444
0.896361 0.738064 0.306950
0.921508 0.742123 0.332921
0.945220 0.746639 0.361151
0.967559 0.751949 0.391058
0.988128 0.757656 0.421149
1.000000 0.764157 0.451667
1.000000 0.771878 0.482673
0.407355 0.753262 0.168551
0.409461 0.753628 0.169528
0.412085 0.753994 0.169894
0.417517 0.754116 0.171237
0.425513 0.754177 0.172244
0.435920 0.754055 0.173617
0.448707 0.753872 0.175448
0.463478 0.753689 0.177768
0.480446 0.753658 0.180362
0.499153 0.753719 0.183352
0.519554 0.753933 0.187137
0.541161 0.754147 0.191775
0.563684 0.754360 0.195895
0.587243 0.754543 0.201297
0.611353 0.754788 0.206455
0.636164 0.755062 0.212192
0.661372 0.755428 0.218509
0.687037 0.755947 0.225040
0.713069 0.756649 0.232395
0.739406 0.757534 0.240452
0.765957 0.758663 0.248569
0.792721 0.759884 0.257481
0.819547 0.761318 0.267155
0.845975 0.762631 0.279026
0.868833 0.761288 0.296483
0.895109 0.764828 0.321080
0.920165 0.768521 0.347265
0.943816 0.772641 0.375525
0.965911 0.777066 0.404486
0.986450 0.782040 0.433814
1.000000 0.787961 0.463874
1.000000 0.795132 0.494423
0.432532 0.787716 0.205814
0.434485 0.788113 0.206638
0.436866 0.788296 0.207126
0.441596 0.788388 0.207797
0.448829 0.788266 0.208988
0.458228 0.787991 0.210086
0.469734 0.787655 0.211307
0.483345 0.787289 0.213107
0.498817 0.786954 0.215244
0.516167 0.786740 0.218112
0.534936 0.786557 0.221134
0.555016 0.786526 0.224643
0.576379 0.786496 0.228733
0.598505 0.786465 0.233188
0.621332 0.786374 0.237980
0.644770 0.786313 0.242832
0.668910 0.786313 0.248569
0.693477 0.786526 0.254978
0.718563 0.787137 0.261936
0.744198 0.788052 0.269657
0.770047 0.789120 0.278233
0.796078 0.790372 0.287266
0.822080 0.791592 0.296666
0.848051 0.792844 0.306157
0.873289 0.793637 0.317662
0.895140 0.792386 0.337591
0.919799 0.795468 0.363775
0.943084 0.798825 0.391180
0.964813 0.802365 0.419013
0.985138 0.806638 0.447639
1.000000 0.811887 0.476936
1.000000 0.818448 0.506859
0.455573 0.818387 0.239567
0.457404 0.818753 0.240360
0.459663 0.818967 0.241184
0.464027 0.819028 0.242008
0.470588 0.818906 0.242771
0.479225 0.818692 0.243839
0.489845 0.818479 0.245121
0.502464 0.818173 0.247105
0.516960 0.817990 0.249302
0.533227 0.817868 0.252171
0.550866 0.817838 0.255100
0.570031 0.817899 0.259129
0.590265 0.817960 0.263279
0.611353 0.817990 0.267765
0.633204 0.818021 0.272618
0.655726 0.818051 0.277623
0.678889 0.818143 0.283513
0.702571 0.818418 0.289494
0.726802 0.818875 0.296696
0.751431 0.819669 0.304387
0.776394 0.820584 0.312871
0.801541 0.821592 0.321782
0.826719 0.822721 0.331273
0.851804 0.823819 0.341009
0.876829 0.824918 0.351141
0.901122 0.825650 0.362524
0.920409 0.822751 0.382361
0.943114 0.825162 0.408484
0.964599 0.828153 0.435645
0.984741 0.831785 0.463600
1.000000 0.836362 0.492103
1.000000 0.842405 0.521904
0.480415 0.848875 0.276249
0.482155 0.849058 0.277104
0.484047 0.849149 0.277623
0.487861 0.849119 0.277928
0.493721 0.848905 0.278782
0.501488 0.848661 0.279515
0.511192 0.848325 0.280949
0.522759 0.848051 0.282567
0.536187 0.847807 0.284703
0.551171 0.847715 0.287327
0.567803 0.847654 0.290593
0.585779 0.847715 0.294682
0.604822 0.847807 0.298741
0.624903 0.847868 0.303258
0.645655 0.847837 0.308202
0.667018 0.847807 0.313268
0.689052 0.847837 0.318975
0.711696 0.847959 0.325170
0.734890 0.848325 0.332311
0.758480 0.848905 0.340063
0.782437 0.849668 0.348486
0.806638 0.850523 0.357488
0.830838 0.851438 0.366979
0.855009 0.852415 0.376654
0.879057 0.853361 0.386419
0.902831 0.854124 0.396094
0.926116 0.854673 0.406439
0.943053 0.850523 0.424872
0.963806 0.852293 0.450385
0.983795 0.855314 0.477394
1.000000 0.859281 0.505394
1.000000 0.864836 0.535454
0.505730 0.876951 0.314183
0.507134 0.877104 0.314641
0.508873 0.877134 0.314855
0.512322 0.877134 0.315496
0.517845 0.877012 0.316472
0.525231 0.877012 0.317662
0.534447 0.877073 0.319677
0.545586 0.877226 0.322026
0.558526 0.877501 0.325261
0.573053 0.877867 0.329046
0.589044 0.878233 0.333349
0.606134 0.878721 0.337682
0.624353 0.879118 0.342779
0.643427 0.879393 0.347936
0.663203 0.879515 0.353368
0.683467 0.879545 0.358953
0.704402 0.879576 0.364782
0.725765 0.879637 0.370977
0.747707 0.879911 0.377996
0.770108 0.880339 0.385657
0.792813 0.880888 0.393683
0.815732 0.881559 0.402258
0.838621 0.882078 0.410651
0.861479 0.882689 0.419287
0.884306 0.883238 0.428077
0.907073 0.883818 0.437263
0.929808 0.884459 0.446479
0.952056 0.885039 0.456123
0.966796 0.879911 0.472908
0.985199 0.880858 0.497200
1.000000 0.884062 0.525048
1.000000 0.888884 0.555413
0.536492 0.906035 0.359899
0.537713 0.906096 0.360479
0.539147 0.906096 0.360571
0.542199 0.905974 0.361151
0.546960 0.905852 0.361669
0.553491 0.905608 0.362982
0.561608 0.905516 0.364355
0.571435 0.905425 0.366522
0.582879 0.905364 0.369024
0.595850 0.905394 0.372076
0.610163 0.905425 0.375616
0.625666 0.905516 0.379400
0.642237 0.905608 0.383795
0.659724 0.905638 0.388495
0.678004 0.905638 0.393317
0.696986 0.905638 0.398505
