其他预设/【232】美食博客调色预设124款/1.3D LUT预设（视频调色-PR-AE-PS-FCPX-达芬奇用）/Food Art #33.cube
# Created by Adobe Lightroom plugin Export LUT (1.17.0)
# www.johnrellis.com/lightroom/exportlut.htm
# Preset: Food Art #33
# Color profile: /Library/Application Support/Adobe/Color/Profiles/Recommended/AdobeRGB1998.icc
LUT_3D_SIZE 8
DOMAIN_MIN 0.000000 0.000000 0.000000
DOMAIN_MAX 0.903226 0.903226 0.903226
0.112520 0.228611 0.327947
0.153597 0.240330 0.342321
0.226017 0.261875 0.368536
0.327947 0.289952 0.401709
0.462470 0.324315 0.440040
0.626978 0.366094 0.477760
0.786831 0.426825 0.509697
0.909056 0.525475 0.539269
0.129854 0.267491 0.354681
0.166567 0.275669 0.364813
0.236393 0.286839 0.383062
0.336645 0.311040 0.412421
0.468971 0.343084 0.447120
0.628717 0.382727 0.481361
0.785275 0.440497 0.511101
0.908019 0.536278 0.540429
0.171145 0.344274 0.402319
0.197696 0.349248 0.408179
0.277531 0.366186 0.426581
0.379156 0.383124 0.447089
0.509117 0.409369 0.471839
0.660304 0.445167 0.496895
0.806790 0.501213 0.520897
0.918029 0.588495 0.550774
0.243900 0.453285 0.456550
0.265934 0.456611 0.459510
0.336919 0.469459 0.470192
0.457435 0.498390 0.488350
0.587732 0.521263 0.502403
0.712428 0.544762 0.515862
0.830533 0.588373 0.534447
0.927123 0.658625 0.568505
0.353582 0.587518 0.498634
0.372259 0.589899 0.500023
0.434668 0.599329 0.504845
0.534630 0.616358 0.512718
0.652277 0.636042 0.522026
0.757839 0.651728 0.533440
0.854398 0.682155 0.554742
0.938109 0.736538 0.597925
0.495979 0.711910 0.525444
0.513451 0.715480 0.527001
0.559503 0.719631 0.530297
0.632532 0.727352 0.536797
0.718563 0.737881 0.547112
0.805936 0.752926 0.563409
0.884184 0.774472 0.591455
0.952239 0.812924 0.641016
0.665217 0.815030 0.568505
0.674311 0.816068 0.570275
0.701137 0.817746 0.574823
0.745998 0.822049 0.584314
0.800504 0.828550 0.598413
0.858793 0.839017 0.619074
0.913542 0.853117 0.645991
0.964508 0.877165 0.690303
0.808865 0.901366 0.652064
0.813077 0.901762 0.653651
0.828000 0.903563 0.659663
0.853727 0.907591 0.671656
0.882017 0.910430 0.684199
0.917845 0.918791 0.707149
0.952850 0.929839 0.736202
0.983215 0.942077 0.768765
0.102174 0.230808 0.355657
0.145144 0.241855 0.366583
0.223178 0.270115 0.392523
0.328954 0.301549 0.425635
0.463020 0.333654 0.457221
0.621973 0.372137 0.487617
0.779873 0.429755 0.514305
0.904173 0.525963 0.541772
0.123018 0.267521 0.376898
0.161166 0.276341 0.386755
0.235050 0.294865 0.407141
0.338842 0.320439 0.433875
0.471351 0.351232 0.462898
0.626978 0.388617 0.490974
0.779995 0.443580 0.515770
0.903075 0.536187 0.542748
0.173037 0.343847 0.418769
0.201480 0.349432 0.426368
0.275181 0.365576 0.441535
0.377844 0.385504 0.460487
0.507774 0.412512 0.482155
0.654963 0.446815 0.503105
0.797696 0.499428 0.523644
0.912230 0.585534 0.552178
0.247440 0.451148 0.466712
0.270512 0.455024 0.470314
0.339269 0.468482 0.479683
0.449958 0.492287 0.493935
0.574548 0.513909 0.506004
0.699855 0.538781 0.518364
0.820920 0.583062 0.535882
0.921813 0.654383 0.569085
0.358862 0.586145 0.504326
0.376501 0.588067 0.505394
0.436194 0.596307 0.509453
0.531029 0.610895 0.516075
0.644709 0.629633 0.524559
0.751553 0.647272 0.535668
0.850065 0.679347 0.556756
0.935149 0.734066 0.599054
0.498329 0.708583 0.528557
0.511955 0.709895 0.529473
0.557336 0.714351 0.532708
0.630152 0.722957 0.539208
0.716518 0.734737 0.549706
0.804410 0.751034 0.566308
0.882414 0.773007 0.594018
0.950469 0.811124 0.642176
0.662928 0.811063 0.570001
0.670161 0.811185 0.571008
0.697627 0.813474 0.575799
0.743709 0.818784 0.585779
0.799161 0.826291 0.600366
0.856931 0.836728 0.620417
0.911070 0.850309 0.646052
0.962402 0.874388 0.689357
0.807187 0.899382 0.652766
0.811765 0.900053 0.654627
0.826932 0.902068 0.660853
0.852811 0.906310 0.672908
0.884489 0.911925 0.689418
0.918669 0.919371 0.710689
0.952483 0.929351 0.737697
0.982574 0.941131 0.769100
0.087465 0.237919 0.403540
0.126955 0.246830 0.411292
0.218723 0.274449 0.435492
0.331701 0.306676 0.462043
0.471870 0.342443 0.488533
0.636316 0.386511 0.511833
0.788632 0.448219 0.530449
0.907469 0.544518 0.555810
0.123384 0.272526 0.422675
0.154940 0.280430 0.429511
0.233310 0.299718 0.446784
0.343389 0.327306 0.469459
0.482033 0.361059 0.493080
0.640650 0.402380 0.513756
0.789670 0.461891 0.531456
0.907713 0.555535 0.557366
0.174258 0.346014 0.456977
0.202335 0.351720 0.461463
0.276555 0.367620 0.473579
0.384344 0.391363 0.489754
0.521263 0.422187 0.506676
0.666773 0.458930 0.521355
0.803464 0.514519 0.537560
0.913451 0.598352 0.565881
0.255344 0.453559 0.492500
0.279026 0.457862 0.495186
0.350225 0.472267 0.502892
0.457740 0.494972 0.512749
0.583978 0.519463 0.522118
0.709071 0.548486 0.532525
0.826596 0.595666 0.549767
0.923674 0.665095 0.584161
0.368231 0.586328 0.518608
0.388281 0.589288 0.520043
0.450965 0.598596 0.523980
0.543450 0.613519 0.529534
0.653193 0.632380 0.537407
0.756283 0.651637 0.548730
0.852476 0.685725 0.570947
0.935912 0.739376 0.612909
0.510155 0.708248 0.539178
0.526421 0.709590 0.540703
0.573388 0.713680 0.545098
0.640345 0.721492 0.551415
0.721309 0.733059 0.561883
0.804746 0.749386 0.578546
0.881956 0.773465 0.606378
0.950835 0.813657 0.654627
0.673457 0.811246 0.582452
0.682399 0.811460 0.584344
0.708705 0.813107 0.589410
0.750515 0.817807 0.598322
0.802762 0.825284 0.612177
0.858885 0.836423 0.632044
0.912535 0.851469 0.658320
0.963928 0.877379 0.702358
0.810300 0.898985 0.662989
0.814298 0.899107 0.664393
0.828580 0.900877 0.669978
0.854612 0.905821 0.682460
0.885374 0.911437 0.698238
0.919280 0.919341 0.719356
0.952850 0.929747 0.746120
0.982818 0.942016 0.777432
0.078920 0.248722 0.460731
0.122713 0.256718 0.466712
0.216678 0.279484 0.482551
0.336522 0.310826 0.501946
0.479255 0.345769 0.519280
0.640375 0.388617 0.533654
0.790066 0.454536 0.547967
0.906279 0.552361 0.573754
0.125704 0.281529 0.476051
0.155276 0.286870 0.479805
0.235904 0.303960 0.491279
0.350774 0.331334 0.507134
0.491615 0.364813 0.522393
0.647333 0.406378 0.535271
0.792630 0.470924 0.549523
0.907073 0.564569 0.575952
0.183017 0.349279 0.497932
0.209476 0.354986 0.501061
0.284642 0.370977 0.509239
0.394232 0.394842 0.519890
0.532219 0.426764 0.531182
0.677943 0.468696 0.542046
0.811063 0.531701 0.558160
0.915099 0.610346 0.587060
0.271763 0.456458 0.521752
0.293919 0.460731 0.523278
0.363012 0.474495 0.527916
0.467994 0.496223 0.534508
0.591699 0.523003 0.542016
0.715114 0.557275 0.552117
0.828977 0.605646 0.570153
0.924193 0.672114 0.604791
0.387488 0.588983 0.539147
0.405768 0.591089 0.539910
0.466194 0.599695 0.542901
0.560540 0.614923 0.549279
0.662654 0.634180 0.557397
0.762539 0.657221 0.570214
0.855894 0.693324 0.593622
0.936828 0.744106 0.633448
0.527886 0.710170 0.558129
0.545678 0.713008 0.560204
0.591760 0.716243 0.564904
0.660060 0.723476 0.573693
0.734096 0.735256 0.584894
0.809903 0.751125 0.600824
0.884154 0.776547 0.628107
0.951415 0.816098 0.673335
0.681453 0.811032 0.601160
0.690822 0.811765 0.603326
0.719997 0.814176 0.610163
0.762051 0.819150 0.620661
0.810880 0.827024 0.634119
0.863340 0.838041 0.652674
0.914000 0.852567 0.676844
0.964660 0.879240 0.719448
0.814633 0.899931 0.680934
0.819089 0.900481 0.682765
0.833127 0.902037 0.688258
0.856138 0.905638 0.698085
0.886168 0.911345 0.712978
0.919585 0.919432 0.733211
0.952911 0.930205 0.759213
0.982849 0.942931 0.790036
0.109316 0.262272 0.514488
0.145571 0.268528 0.517418
0.234684 0.287144 0.525414
0.351446 0.314855 0.535912
0.495369 0.351019 0.547570
0.652064 0.393591 0.559045
0.796902 0.460822 0.573541
0.909850 0.558953 0.601312
0.147341 0.290196 0.522026
0.175723 0.294926 0.524285
0.254215 0.310033 0.530297
0.365728 0.334844 0.538933
0.507073 0.369604 0.549676
0.660151 0.411688 0.560693
0.800717 0.478065 0.575525
0.911070 0.571527 0.603845
0.211185 0.358221 0.535058
0.236240 0.363378 0.536797
0.305303 0.376287 0.540764
0.411749 0.398901 0.547478
0.544030 0.429511 0.555993
0.683070 0.469612 0.565881
0.811429 0.530694 0.582147
0.914397 0.609888 0.611810
0.294408 0.458259 0.548058
0.315496 0.462501 0.549187
0.382422 0.476570 0.553155
0.483803 0.498451 0.559197
0.602228 0.525628 0.566735
0.721767 0.560815 0.577630
0.830747 0.608606 0.596277
0.922850 0.667506 0.627161
0.408301 0.586450 0.564263
0.426154 0.589319 0.565240
0.483680 0.598383 0.568475
0.571435 0.613153 0.574395
0.667414 0.631861 0.582940
0.763577 0.656672 0.596124
0.854765 0.691310 0.617884
0.935332 0.738979 0.653681
0.541527 0.706538 0.585260
0.555108 0.707698 0.586419
0.597742 0.711086 0.590356
0.662928 0.718471 0.598108
0.734859 0.730251 0.609186
0.810452 0.748806 0.626123
0.884733 0.776211 0.652857
0.951049 0.814176 0.693629
0.689570 0.809476 0.628626
0.697414 0.809812 0.630091
0.723598 0.811856 0.635370
0.763821 0.816739 0.644648
0.810788 0.824887 0.656855
0.863218 0.836759 0.674922
0.913634 0.851713 0.697902
0.964355 0.878752 0.738033
0.814908 0.898039 0.702724
0.818814 0.898405 0.704097
0.832151 0.899962 0.708736
0.855497 0.904814 0.718685
0.883146 0.910369 0.729976
0.917266 0.918669 0.749416
0.951385 0.929656 0.774411
0.981964 0.942718 0.804196
0.172244 0.276066 0.557183
0.199649 0.280949 0.558648
0.276921 0.296178 0.563073
0.388769 0.321263 0.570977
0.524102 0.355871 0.581628
0.669245 0.401312 0.595087
0.806577 0.470832 0.613428
0.914672 0.569574 0.643336
0.196139 0.300175 0.560418
0.219944 0.304082 0.561608
0.291844 0.317388 0.565667
0.400183 0.340734 0.573114
0.532341 0.373968 0.583246
0.674769 0.418311 0.596551
0.808927 0.486397 0.615015
0.915282 0.580804 0.645258
0.253452 0.368658 0.570886
0.273991 0.371984 0.571862
0.340032 0.383978 0.575433
0.441932 0.405188 0.581933
0.566155 0.435431 0.591272
0.698604 0.477302 0.604150
0.820371 0.539055 0.622644
0.919463 0.619226 0.653742
0.332952 0.469306 0.583886
0.351781 0.472541 0.584924
0.413733 0.484718 0.589075
0.509697 0.505425 0.596277
0.622675 0.533623 0.605859
0.735958 0.568597 0.618402
0.839445 0.616358 0.637598
0.927428 0.675044 0.668666
0.438880 0.588373 0.601801
0.455360 0.591211 0.602991
0.509850 0.600977 0.606897
0.590692 0.616449 0.613367
0.679286 0.634424 0.621942
0.771115 0.659327 0.634943
0.858396 0.692287 0.655421
0.936004 0.735317 0.686488
0.567254 0.707271 0.627649
0.580377 0.709224 0.629053
0.620111 0.713985 0.632837
0.679194 0.721981 0.639277
0.744289 0.732937 0.648463
0.814969 0.749996 0.663294
0.885557 0.774411 0.685817
0.950439 0.808469 0.719875
0.702571 0.810208 0.669184
0.710536 0.811246 0.670802
0.734432 0.813535 0.675013
0.770809 0.818296 0.682399
0.814633 0.825925 0.692744
0.863828 0.837308 0.707485
0.914977 0.853178 0.729610
0.965515 0.879942 0.766506
0.818662 0.898283 0.736416
0.822202 0.898619 0.737423
0.834531 0.900206 0.741238
0.855192 0.904112 0.748562
0.881621 0.909819 0.758419
0.913359 0.918029 0.772519
0.949340 0.929778 0.797147
0.981140 0.943420 0.826139
0.241123 0.288426 0.611170
0.263249 0.292515 0.612909
0.331853 0.306157 0.618219
0.434791 0.329900 0.627283
0.559045 0.365240 0.639185
0.691066 0.414740 0.653773
0.813626 0.482002 0.670924
0.916777 0.578637 0.699367
0.254368 0.310307 0.614649
0.275517 0.313970 0.616205
0.342016 0.326513 0.621118
0.442908 0.349157 0.629419
0.565301 0.383307 0.640864
0.695277 0.431342 0.655085
0.815274 0.496284 0.671901
0.916838 0.588312 0.700313
0.294469 0.376471 0.626154
0.314061 0.379644 0.627314
0.377111 0.391028 0.631342
0.474159 0.412116 0.638788
0.591485 0.443824 0.649042
0.714626 0.489357 0.662440
0.826108 0.546777 0.679042
0.921386 0.625879 0.708217
0.367437 0.477760 0.641932
0.383703 0.479957 0.642695
0.438697 0.488808 0.646113
0.529076 0.508202 0.652705
0.636744 0.537072 0.662104
0.745693 0.574517 0.674861
0.842710 0.619440 0.691341
0.928405 0.678614 0.720821
0.478218 0.597711 0.661677
0.492226 0.599847 0.662379
0.537591 0.607202 0.665126
0.604791 0.618067 0.669734
0.688380 0.635309 0.677516
0.779202 0.662440 0.690486
0.861601 0.694575 0.707698
0.937346 0.739101 0.738003
0.605921 0.714656 0.688563
0.616052 0.716091 0.689357
0.649042 0.720912 0.692256
0.697444 0.728176 0.697169
0.753933 0.737026 0.704128
0.818692 0.750942 0.715419
0.886564 0.774533 0.734279
0.949432 0.806088 0.763668
0.719753 0.812711 0.723445
0.726101 0.813504 0.724453
0.746609 0.816037 0.727504
0.778286 0.820615 0.733059
0.818387 0.827481 0.741329
0.864714 0.837827 0.753658
0.914611 0.853483 0.772580
0.964019 0.876799 0.801755
0.820615 0.897917 0.778683
0.824125 0.898466 0.779690
0.836484 0.900816 0.783841
0.855924 0.904692 0.790249
0.881621 0.910491 0.799496
0.912200 0.918761 0.812467
0.945983 0.929931 0.830442
0.979675 0.944579 0.858152
0.295109 0.304265 0.707088
0.315129 0.308080 0.708553
0.378637 0.322057 0.712947
0.476173 0.347936 0.720851
0.593713 0.388159 0.731502
0.717464 0.445533 0.744533
0.831052 0.519860 0.759762
0.920287 0.598108 0.777554
0.303655 0.324468 0.709590
0.323247 0.328283 0.710994
0.386114 0.341527 0.715145
0.482612 0.366583 0.722713
0.599329 0.405646 0.733028
0.721736 0.461677 0.745693
0.833219 0.532891 0.760708
0.920958 0.607538 0.778378
0.332555 0.387060 0.717922
0.351415 0.390509 0.719051
0.412360 0.402808 0.722560
0.507286 0.426642 0.729793
0.620630 0.463264 0.739101
0.737667 0.514702 0.750729
0.841886 0.576165 0.765438
0.924224 0.639918 0.783291
0.387884 0.480415 0.729732
0.405676 0.483803 0.730831
0.463020 0.495216 0.733883
0.552667 0.517144 0.739925
0.657984 0.549462 0.748501
0.762966 0.590814 0.759792
0.855619 0.638727 0.774411
0.930175 0.687922 0.792630
0.513939 0.609430 0.748592
0.524834 0.610651 0.749081
0.558556 0.613703 0.750149
0.608942 0.615717 0.751614
0.699763 0.639979 0.759945
0.790127 0.670527 0.771572
0.871214 0.706264 0.787137
0.938293 0.745663 0.806851
0.648066 0.730709 0.773861
0.654810 0.731350 0.774105
0.677302 0.733486 0.775174
0.711757 0.735744 0.777157
0.756741 0.738369 0.780117
0.821042 0.752468 0.789670
0.890990 0.780148 0.807401
0.949371 0.811063 0.829038
0.756710 0.829984 0.806760
0.760861 0.830350 0.807187
0.774655 0.831785 0.808713
0.797818 0.834318 0.811734
0.829282 0.838163 0.816495
0.867674 0.843870 0.823667
0.913878 0.855619 0.836637
0.962066 0.878752 0.859739
0.836240 0.907469 0.846555
0.838804 0.907805 0.847074
0.847807 0.909178 0.849149
0.863615 0.911955 0.853330
0.885466 0.916258 0.859800
0.912627 0.922698 0.869352
0.944060 0.932250 0.883665
0.976959 0.946471 0.905241
