其他预设/【232】美食博客调色预设124款/1.3D LUT预设（视频调色-PR-AE-PS-FCPX-达芬奇用）/Food Art #55.cube
# Created by Adobe Lightroom plugin Export LUT (1.17.0)
# www.johnrellis.com/lightroom/exportlut.htm
# Preset: Food Art #55
# Color profile: /Library/Application Support/Adobe/Color/Profiles/Recommended/AdobeRGB1998.icc
LUT_3D_SIZE 32
0.186984 0.153933 0.111208
0.189395 0.154360 0.111452
0.192721 0.154726 0.111879
0.200046 0.155734 0.112673
0.211337 0.156832 0.113619
0.226596 0.157504 0.114321
0.246830 0.157717 0.114687
0.271550 0.157473 0.114839
0.299809 0.156985 0.114565
0.330999 0.156283 0.114382
0.364935 0.155093 0.113832
0.400702 0.154604 0.113832
0.437934 0.154726 0.113771
0.475898 0.155642 0.114626
0.514092 0.157748 0.115846
0.552514 0.160983 0.117922
0.591211 0.165133 0.120821
0.629816 0.170871 0.124849
0.666835 0.178042 0.129915
0.709834 0.188113 0.137179
0.750912 0.200351 0.146304
0.788876 0.213840 0.156771
0.823270 0.228183 0.168887
0.854704 0.243931 0.182132
0.883726 0.260472 0.196963
0.910735 0.278447 0.213504
0.936034 0.298528 0.232181
0.959777 0.320806 0.253666
0.982116 0.345708 0.278111
1.000000 0.373724 0.305974
1.000000 0.405524 0.338354
1.000000 0.441382 0.375280
0.187747 0.156558 0.111482
0.189883 0.156863 0.111757
0.193240 0.157107 0.112001
0.200656 0.158206 0.112764
0.211917 0.159304 0.113710
0.227115 0.160098 0.114382
0.247166 0.160494 0.114748
0.271458 0.160525 0.114900
0.299504 0.160250 0.114595
0.330571 0.159823 0.114199
0.363958 0.159213 0.113863
0.399603 0.158846 0.113680
0.436469 0.159091 0.113863
0.473945 0.160189 0.114778
0.512108 0.162509 0.115969
0.550408 0.165713 0.118105
0.588739 0.169955 0.121279
0.627253 0.175448 0.124758
0.664332 0.182589 0.129824
0.706905 0.192203 0.136904
0.747372 0.203616 0.145632
0.785153 0.216464 0.155734
0.819516 0.230411 0.167605
0.851102 0.245274 0.180545
0.880400 0.261479 0.195346
0.907683 0.279240 0.211795
0.933410 0.298650 0.230228
0.957458 0.320775 0.251652
0.980163 0.345312 0.275731
1.000000 0.373144 0.303716
1.000000 0.404395 0.335607
1.000000 0.439918 0.372442
0.188754 0.160128 0.112062
0.191073 0.160250 0.112154
0.193973 0.160555 0.112612
0.201236 0.161532 0.113375
0.212711 0.162661 0.114076
0.227848 0.163760 0.114504
0.247593 0.164340 0.114839
0.271763 0.164553 0.114778
0.299565 0.164645 0.114656
0.330266 0.164340 0.114290
0.363592 0.164401 0.113893
0.398932 0.164218 0.113710
0.435615 0.164858 0.114076
0.473182 0.166354 0.114748
0.511070 0.168795 0.116182
0.549187 0.171847 0.118318
0.587518 0.176547 0.121218
0.625879 0.181704 0.125154
0.662959 0.188418 0.130068
0.705592 0.198062 0.137087
0.745663 0.208835 0.145937
0.783200 0.221042 0.155947
0.817685 0.234653 0.167391
0.849271 0.249180 0.180392
0.878660 0.265019 0.194766
0.906126 0.281987 0.211215
0.931945 0.301213 0.229404
0.956207 0.322911 0.250767
0.979095 0.347082 0.275029
1.000000 0.374456 0.302922
1.000000 0.405402 0.334752
1.000000 0.440558 0.371496
0.191348 0.167910 0.113283
0.193576 0.168154 0.113527
0.196597 0.168399 0.113558
0.203464 0.168978 0.113954
0.214542 0.170260 0.114443
0.229862 0.171511 0.114839
0.249607 0.172549 0.114900
0.273411 0.173342 0.114961
0.300908 0.174014 0.114565
0.331334 0.174319 0.114321
0.364202 0.174777 0.114107
0.399145 0.175692 0.113832
0.435584 0.176791 0.114351
0.472786 0.179019 0.115175
0.510399 0.181308 0.116640
0.548272 0.185214 0.118898
0.586419 0.189273 0.122042
0.624537 0.194858 0.125673
0.662623 0.201328 0.130709
0.703731 0.210147 0.137850
0.742947 0.220493 0.145998
0.780056 0.231754 0.155856
0.814603 0.244358 0.167239
0.846677 0.258152 0.180453
0.876799 0.273259 0.195041
0.904906 0.290105 0.211643
0.931273 0.308873 0.230503
0.955810 0.330144 0.252110
0.978759 0.353735 0.276432
1.000000 0.380468 0.304234
1.000000 0.410529 0.335698
1.000000 0.444739 0.372137
0.194064 0.179995 0.114382
0.196414 0.180209 0.114443
0.199771 0.180484 0.114443
0.206607 0.181125 0.114839
0.217533 0.182162 0.115114
0.232731 0.183413 0.115297
0.252232 0.185031 0.115236
0.275639 0.186404 0.115023
0.302525 0.187778 0.114778
0.332280 0.188937 0.114443
0.364721 0.190188 0.114137
0.399237 0.191775 0.114199
0.435248 0.193790 0.114626
0.472206 0.196384 0.115785
0.509667 0.199435 0.117494
0.547662 0.203342 0.119661
0.585962 0.207828 0.123232
0.624170 0.213535 0.126894
0.663752 0.220157 0.132174
0.703822 0.228550 0.139162
0.742214 0.237736 0.147555
0.778744 0.248386 0.157229
0.813016 0.259831 0.168856
0.845151 0.272709 0.181552
0.875303 0.286778 0.196414
0.903624 0.302617 0.212772
0.930053 0.320562 0.231876
0.954711 0.340581 0.253117
0.977661 0.363073 0.277531
0.999023 0.388861 0.305486
1.000000 0.417975 0.336980
1.000000 0.451148 0.373205
0.196750 0.196780 0.114656
0.199344 0.196933 0.114717
0.202853 0.197391 0.114870
0.210208 0.197971 0.115023
0.221927 0.198947 0.115236
0.237278 0.200443 0.115328
0.256626 0.202029 0.115450
0.279728 0.203952 0.115114
0.305913 0.205570 0.114809
0.335241 0.207523 0.114534
0.367224 0.209659 0.114473
0.401312 0.211978 0.114809
0.436805 0.214725 0.115541
0.473487 0.217807 0.116793
0.510704 0.221500 0.118532
0.548638 0.225620 0.121309
0.586725 0.230411 0.125063
0.624872 0.235752 0.128817
0.665858 0.243320 0.134493
0.705287 0.251347 0.141512
0.743282 0.260258 0.149996
0.779721 0.269780 0.160189
0.836454 0.293217 0.182528
0.866880 0.306065 0.197086
0.894896 0.319707 0.213016
0.920714 0.334966 0.230838
0.944671 0.351904 0.250492
0.966979 0.370947 0.272679
0.987823 0.392676 0.297826
1.000000 0.417426 0.325994
1.000000 0.445594 0.358007
1.000000 0.477424 0.394232
0.199741 0.220829 0.114595
0.202792 0.221103 0.114412
0.206638 0.221347 0.114565
0.215000 0.222049 0.114809
0.227848 0.223087 0.114931
0.244602 0.224338 0.115084
0.264683 0.225864 0.115297
0.287877 0.227543 0.115328
0.314244 0.229496 0.115236
0.343664 0.232029 0.115145
0.375616 0.234684 0.115450
0.409888 0.237919 0.115846
0.445167 0.241276 0.117098
0.481392 0.244907 0.118685
0.518090 0.248692 0.121035
0.555138 0.253178 0.123842
0.592737 0.258061 0.127565
0.633387 0.264378 0.132326
0.674189 0.271885 0.138735
0.713893 0.279942 0.146426
0.752956 0.289494 0.155764
0.790829 0.299657 0.167544
0.826535 0.311284 0.181033
0.859648 0.323796 0.196414
0.889982 0.337713 0.213413
0.917205 0.352361 0.232059
0.941863 0.368414 0.252323
0.964599 0.386236 0.274388
0.985748 0.406500 0.299321
1.000000 0.429786 0.327398
1.000000 0.456489 0.359442
1.000000 0.487098 0.395514
0.203250 0.246708 0.114199
0.206241 0.246860 0.114229
0.210330 0.247196 0.114351
0.219364 0.247715 0.114351
0.232609 0.248417 0.114656
0.249668 0.249485 0.115023
0.270115 0.250797 0.115175
0.293248 0.252415 0.115724
0.318944 0.254429 0.116213
0.347692 0.257053 0.116457
0.379278 0.260349 0.116579
0.412726 0.263951 0.117464
0.447547 0.267826 0.119112
0.483192 0.271794 0.120943
0.519371 0.276005 0.123690
0.556085 0.280613 0.126497
0.594751 0.286107 0.130556
0.636072 0.293126 0.135622
0.675166 0.300084 0.141909
0.713588 0.307530 0.149844
0.751797 0.316106 0.159091
0.788846 0.325658 0.170565
0.824063 0.336126 0.183902
0.856901 0.347478 0.199191
0.887083 0.359747 0.216373
0.914458 0.373175 0.234836
0.939269 0.387701 0.254887
0.962127 0.404089 0.277043
0.983490 0.423072 0.301915
1.000000 0.444831 0.330144
1.000000 0.470130 0.362036
1.000000 0.499336 0.398199
0.207858 0.275578 0.114229
0.211002 0.275731 0.114229
0.215518 0.275883 0.114351
0.224491 0.276310 0.114565
0.238346 0.277043 0.114809
0.255680 0.278019 0.115297
0.276402 0.279118 0.115602
0.299718 0.280705 0.116274
0.325353 0.282597 0.117281
0.353399 0.285222 0.118257
0.384222 0.288701 0.118868
0.417151 0.292638 0.120333
0.451362 0.296757 0.121981
0.486580 0.301122 0.123934
0.522240 0.305425 0.126894
0.559564 0.310857 0.130068
0.599939 0.317540 0.134646
0.639460 0.324132 0.139834
0.677150 0.330449 0.146212
0.714656 0.337316 0.153994
0.751919 0.345312 0.163699
0.788357 0.353887 0.175051
0.822934 0.363439 0.188327
0.855375 0.373754 0.203799
0.885374 0.384924 0.220615
0.912566 0.396796 0.239048
0.937407 0.409979 0.259007
0.960296 0.424994 0.281254
0.981659 0.442481 0.306249
1.000000 0.462837 0.334508
1.000000 0.486580 0.366522
1.000000 0.514122 0.402380
0.214176 0.307012 0.114687
0.217288 0.307225 0.114870
0.221683 0.307286 0.114809
0.231022 0.307744 0.115175
0.245060 0.308202 0.115419
0.262608 0.309056 0.116060
0.283207 0.310002 0.116732
0.306737 0.311406 0.117708
0.332250 0.313329 0.118624
0.359899 0.315465 0.120363
0.389441 0.318456 0.122194
0.421668 0.322606 0.123507
0.455329 0.327001 0.125490
0.490059 0.331456 0.127993
0.527550 0.337469 0.131228
0.566613 0.344335 0.134981
0.606043 0.350958 0.139590
0.644373 0.357183 0.144900
0.681086 0.363195 0.151797
0.717494 0.369421 0.159884
0.753597 0.376440 0.169284
0.788510 0.384009 0.180697
0.821836 0.392096 0.193393
0.853208 0.400946 0.208286
0.882567 0.410712 0.224857
0.909667 0.421271 0.243198
0.934691 0.433326 0.263340
0.957946 0.447242 0.285801
0.979614 0.463600 0.311284
0.999695 0.482765 0.339940
1.000000 0.505516 0.372412
1.000000 0.532128 0.409155
0.221317 0.339910 0.116304
0.224582 0.340032 0.116304
0.229404 0.340337 0.116335
0.238621 0.340612 0.116701
0.252689 0.341161 0.117037
0.270420 0.342107 0.117769
0.291447 0.343236 0.118685
0.314794 0.344762 0.120119
0.340490 0.346532 0.121431
0.368109 0.348699 0.123201
0.397009 0.351232 0.125582
0.427497 0.354314 0.127840
0.461250 0.359380 0.130434
0.497658 0.365667 0.133120
0.534813 0.372045 0.136538
0.572442 0.378454 0.140810
0.610468 0.384497 0.145174
0.647425 0.390356 0.150790
0.683192 0.395605 0.157382
0.718715 0.401404 0.165530
0.754086 0.407874 0.175113
0.788388 0.414801 0.186648
0.821347 0.422187 0.199985
0.852354 0.430182 0.214817
0.881407 0.438941 0.231449
0.908263 0.448402 0.249454
0.933043 0.459052 0.269535
0.956115 0.471656 0.292271
0.977661 0.486488 0.317632
0.997742 0.504204 0.346349
1.000000 0.525475 0.378851
1.000000 0.550622 0.415778
0.230747 0.375341 0.119203
0.234165 0.375525 0.118929
0.238651 0.375738 0.119203
0.247837 0.376013 0.119509
0.262028 0.376654 0.120150
0.279606 0.377600 0.120974
0.300725 0.378729 0.121950
0.324102 0.380133 0.123415
0.349615 0.381872 0.125154
0.377111 0.384131 0.127260
0.406012 0.386725 0.129885
0.438361 0.391699 0.132845
0.485328 0.409247 0.139284
0.522332 0.415930 0.142977
0.559991 0.422370 0.147066
0.597833 0.428473 0.151431
0.634913 0.433906 0.156954
0.670222 0.438300 0.163241
0.704128 0.442267 0.170901
0.738003 0.446754 0.179843
0.771176 0.451789 0.190249
0.803128 0.457069 0.202182
0.833494 0.462745 0.215824
0.862425 0.469093 0.230686
0.889616 0.476234 0.247623
0.914855 0.484382 0.265995
0.938293 0.493538 0.286259
0.960113 0.504540 0.308751
0.980560 0.517876 0.334142
0.999634 0.534173 0.363043
1.000000 0.553826 0.395666
1.000000 0.577295 0.432441
0.243046 0.417273 0.123384
0.246342 0.417426 0.123537
0.250736 0.417365 0.123659
0.260227 0.417304 0.124239
0.273869 0.417334 0.124819
0.291234 0.417578 0.125765
0.311986 0.418341 0.126894
0.335119 0.419532 0.128634
0.360998 0.421302 0.130465
0.390448 0.426123 0.133150
0.422156 0.431617 0.136385
0.455695 0.437598 0.140200
0.490791 0.443977 0.144808
0.526574 0.450294 0.149722
0.564050 0.457343 0.154086
0.601404 0.463691 0.158846
0.637476 0.468666 0.164431
0.671656 0.472389 0.170596
0.704799 0.475685 0.178195
0.737758 0.479438 0.187259
0.770199 0.483742 0.197696
0.801572 0.488411 0.209293
0.831479 0.493172 0.222751
0.860014 0.498665 0.237827
0.886961 0.504784 0.254398
0.912108 0.511742 0.272587
0.935485 0.519921 0.293095
0.957336 0.529839 0.315984
0.977844 0.541985 0.341436
0.997040 0.557000 0.370275
1.000000 0.575341 0.403113
1.000000 0.597467 0.440192
0.254643 0.454841 0.129000
0.258091 0.454902 0.128969
0.262089 0.454932 0.129244
0.271153 0.454871 0.129580
0.284550 0.454749 0.130373
0.302098 0.455726 0.131258
0.323033 0.457710 0.133028
0.346838 0.460090 0.134585
0.373144 0.463020 0.137057
0.401923 0.466957 0.139681
0.432746 0.471534 0.143191
0.465400 0.476936 0.147066
0.499397 0.482521 0.151522
0.534142 0.488106 0.156558
0.569055 0.493202 0.161898
0.605035 0.498878 0.166812
0.639826 0.503166 0.172305
0.673060 0.506249 0.179202
0.705409 0.509056 0.186648
0.737728 0.512413 0.195468
0.769650 0.516075 0.205661
0.800565 0.520226 0.217777
0.830137 0.524376 0.231113
0.858427 0.529168 0.246036
0.885130 0.534478 0.262852
0.910094 0.540581 0.281621
0.933410 0.547784 0.301884
0.955230 0.556634 0.324773
0.975738 0.567712 0.350469
0.994903 0.581659 0.379950
1.000000 0.598871 0.413184
1.000000 0.619593 0.450355
0.268956 0.498085 0.136233
0.271977 0.498421 0.136599
0.276066 0.498360 0.136538
0.284916 0.498573 0.137057
0.298405 0.498909 0.137728
0.315435 0.499397 0.138857
0.335912 0.500481 0.140230
0.359014 0.502098 0.142031
0.384802 0.504417 0.144594
0.412940 0.507836 0.147372
0.443000 0.511894 0.150820
0.474891 0.516686 0.155093
0.508080 0.521874 0.159792
0.542016 0.526909 0.164706
0.576013 0.531426 0.169955
0.609583 0.535119 0.175784
0.643000 0.538415 0.181399
0.675196 0.540795 0.187900
0.706783 0.543084 0.195560
0.738369 0.545708 0.204440
0.769528 0.548791 0.214786
0.799863 0.552026 0.226810
0.828946 0.555627 0.240116
0.856840 0.559655 0.255253
0.883391 0.564324 0.272282
0.908354 0.569787 0.291325
0.931853 0.576440 0.312139
0.953887 0.584924 0.336095
0.974578 0.595575 0.362951
0.993866 0.608972 0.393591
1.000000 0.625666 0.428077
1.000000 0.645411 0.465949
0.283574 0.542535 0.144900
0.286900 0.542809 0.145357
0.290837 0.542931 0.145388
0.299474 0.543145 0.145876
0.312718 0.543420 0.146944
0.329564 0.544152 0.147829
0.349523 0.545159 0.149508
0.372442 0.546746 0.151644
0.398047 0.548882 0.153933
0.425452 0.551537 0.156954
0.454627 0.554467 0.160678
0.485145 0.557977 0.164736
0.516564 0.561395 0.169406
0.548730 0.564721 0.174289
0.581048 0.567681 0.179477
0.613428 0.570489 0.185031
0.645624 0.573114 0.190890
0.677180 0.575128 0.197574
0.708522 0.577111 0.205570
0.739895 0.579614 0.214817
0.770748 0.582513 0.225528
0.800839 0.585504 0.237736
0.829648 0.588525 0.251560
0.857298 0.592035 0.266972
0.883543 0.596094 0.284733
0.908263 0.600977 0.304082
0.931548 0.606928 0.325658
0.953338 0.614618 0.350103
0.973754 0.624323 0.377325
0.992676 0.636683 0.408423
1.000000 0.651728 0.442512
1.000000 0.669642 0.479622
0.298589 0.584039 0.155428
0.301427 0.584131 0.155215
0.305364 0.583978 0.155612
0.313420 0.584192 0.156344
0.326055 0.584314 0.157076
0.342260 0.584680 0.158145
0.361669 0.585443 0.159884
0.383642 0.586481 0.162173
0.408270 0.588006 0.164706
0.434913 0.590051 0.167514
0.463111 0.592493 0.171237
0.492744 0.595270 0.175662
0.523217 0.598199 0.180484
0.554345 0.600885 0.185550
0.585718 0.603326 0.190890
0.616846 0.605280 0.196231
0.648096 0.607111 0.202304
0.679408 0.609186 0.208591
0.710262 0.610895 0.215976
0.740841 0.612787 0.225498
0.771023 0.614984 0.236271
0.800443 0.617365 0.248508
0.828824 0.619867 0.262547
0.856168 0.622858 0.278325
0.882231 0.626368 0.295842
0.906828 0.630549 0.315862
0.929992 0.635950 0.338109
0.951751 0.642939 0.363073
0.972076 0.651911 0.390906
0.990906 0.663447 0.422736
1.000000 0.677424 0.457008
1.000000 0.694087 0.494301
0.314031 0.623743 0.167910
0.317388 0.624109 0.167971
0.327489 0.638453 0.174044
0.335546 0.638422 0.174868
0.347784 0.638209 0.175723
0.363226 0.638056 0.176699
0.381842 0.637995 0.178592
0.403113 0.638148 0.180484
0.426978 0.638849 0.182834
0.452705 0.639918 0.186343
0.479988 0.641352 0.189883
0.508537 0.643000 0.194430
0.537896 0.644465 0.198795
0.567926 0.645960 0.203769
0.598016 0.647364 0.209140
0.628229 0.648463 0.214786
0.658503 0.649500 0.220462
0.688716 0.650477 0.226474
0.718959 0.651637 0.233341
0.748562 0.652491 0.241489
0.777249 0.653101 0.252567
0.805447 0.654261 0.265019
0.832853 0.655604 0.279026
0.859098 0.657404 0.294865
0.883879 0.659449 0.312322
0.907347 0.662287 0.331792
0.929503 0.666194 0.353307
0.950561 0.671809 0.377783
0.970428 0.679591 0.405890
0.989044 0.689906 0.437293
1.000000 0.702693 0.471565
1.000000 0.717830 0.508415
0.332738 0.665156 0.184268
0.336156 0.667018 0.185489
0.340734 0.668940 0.186465
0.349035 0.670588 0.188052
0.361120 0.671809 0.189303
0.376013 0.672297 0.190951
0.393835 0.672480 0.192813
0.414130 0.672602 0.195010
0.436774 0.673152 0.197543
0.461311 0.673945 0.200778
0.487465 0.675044 0.204257
0.514855 0.676295 0.208774
0.543084 0.677424 0.213138
0.571954 0.678553 0.218051
0.601038 0.679500 0.223392
0.630274 0.680171 0.228794
0.659571 0.680842 0.234684
0.689052 0.681575 0.240635
0.718593 0.682490 0.247562
0.748318 0.683833 0.254795
0.777340 0.684779 0.264408
0.805203 0.685512 0.277256
0.832303 0.686519 0.291722
0.858274 0.687892 0.308171
0.882963 0.689479 0.325963
0.906218 0.691798 0.345830
0.928252 0.695125 0.368109
0.949065 0.700069 0.393225
0.968780 0.707088 0.421668
0.987274 0.716304 0.453010
1.000000 0.727810 0.486915
1.000000 0.741726 0.523461
0.349432 0.699825 0.200565
0.352911 0.701503 0.201450
0.357122 0.703182 0.202823
0.364782 0.704677 0.204471
0.376196 0.705715 0.205844
0.390326 0.706050 0.207401
0.406897 0.706111 0.209445
0.426032 0.706264 0.211368
0.447608 0.706630 0.213931
0.470832 0.707210 0.217258
0.495949 0.708064 0.221256
0.522362 0.709041 0.225223
0.549371 0.709895 0.229770
0.577050 0.710689 0.234958
0.605219 0.711238 0.240085
0.633509 0.711666 0.245487
0.661982 0.712093 0.251255
0.690455 0.712581 0.257694
0.719203 0.713252 0.264439
0.748196 0.714351 0.272099
0.777218 0.715755 0.280186
0.805631 0.716945 0.291112
0.832273 0.717464 0.305852
0.857939 0.718257 0.322637
0.882231 0.719326 0.340887
0.905211 0.720912 0.361028
0.926879 0.723537 0.383368
0.947448 0.727687 0.408972
0.966949 0.733761 0.437324
0.985229 0.741878 0.468360
1.000000 0.752163 0.502007
1.000000 0.764767 0.538201
0.367376 0.733150 0.218997
0.370733 0.734585 0.220127
0.374731 0.736202 0.221439
0.381964 0.737453 0.223178
0.392493 0.738369 0.224826
0.405615 0.738613 0.226444
0.421149 0.738643 0.228244
0.439185 0.738643 0.230289
0.459419 0.738735 0.233005
0.481544 0.739010 0.235874
0.505180 0.739590 0.239628
0.530236 0.740200 0.243870
0.556085 0.740780 0.248478
0.582757 0.741360 0.253544
0.609949 0.741909 0.258976
0.637598 0.742428 0.264683
0.665583 0.743160 0.271153
0.693843 0.744137 0.278264
0.722377 0.745327 0.286198
0.751125 0.746914 0.294621
0.780087 0.748775 0.303899
0.808896 0.750851 0.314214
0.836728 0.752468 0.326879
0.862089 0.752926 0.344579
0.886015 0.753567 0.364355
0.908476 0.754726 0.385718
0.929656 0.756802 0.409491
0.949676 0.760250 0.435401
0.968597 0.765438 0.463783
0.986297 0.772488 0.494697
1.000000 0.781613 0.528038
1.000000 0.792844 0.563684
0.391180 0.770626 0.244602
0.393744 0.771237 0.245304
0.396979 0.771725 0.246067
0.403143 0.772122 0.247227
0.412482 0.772244 0.248447
0.424384 0.772244 0.249821
0.439002 0.772122 0.251408
0.455756 0.772091 0.253880
0.474800 0.772305 0.256840
0.495827 0.772671 0.260136
0.518547 0.773281 0.264317
0.542504 0.773831 0.268528
0.567254 0.774258 0.273259
0.592676 0.774533 0.278325
0.618677 0.774777 0.284092
0.645197 0.775021 0.289799
0.671931 0.775387 0.296361
0.699062 0.775875 0.303319
0.726375 0.776608 0.311131
0.753872 0.777493 0.319585
0.781338 0.778622 0.328527
0.808713 0.779904 0.338659
0.835904 0.781247 0.349096
0.862028 0.782254 0.361639
0.885313 0.782010 0.381292
0.907408 0.782528 0.402930
0.928344 0.783932 0.426856
0.948180 0.786648 0.452735
0.966888 0.790951 0.481086
0.984436 0.796963 0.511467
1.000000 0.804929 0.544427
1.000000 0.814969 0.579614
0.412696 0.800320 0.268772
0.415045 0.800931 0.269505
0.418097 0.801480 0.270237
0.423896 0.801816 0.271580
0.432441 0.801907 0.272801
0.443305 0.801755 0.273991
0.456458 0.801541 0.275822
0.471901 0.801358 0.277653
0.489693 0.801297 0.280674
0.509270 0.801419 0.284123
0.530632 0.801755 0.287968
0.553063 0.802090 0.292607
0.576471 0.802396 0.297307
0.600855 0.802579 0.302464
0.625757 0.802792 0.308232
0.651148 0.803037 0.314275
0.676936 0.803372 0.321080
0.703059 0.803799 0.328710
0.729458 0.804471 0.336980
0.756008 0.805325 0.345678
0.782650 0.806363 0.355291
0.809140 0.807523 0.366003
0.835416 0.808927 0.377081
0.861357 0.810361 0.388708
0.883757 0.808560 0.397040
0.905516 0.808286 0.418616
0.926268 0.809110 0.442176
0.945983 0.811063 0.468025
0.964569 0.814481 0.495888
0.981994 0.819577 0.526268
0.998108 0.826627 0.559075
1.000000 0.835721 0.594293
0.440497 0.832456 0.300938
0.442817 0.833127 0.301823
0.445533 0.833433 0.302647
0.450599 0.833463 0.303380
0.457984 0.833280 0.304479
0.467597 0.832883 0.305455
0.479347 0.832364 0.306859
0.493141 0.831754 0.308476
0.509056 0.831174 0.310765
0.526757 0.830777 0.313390
0.546044 0.830350 0.316716
0.566766 0.830167 0.320928
0.588525 0.829953 0.325261
0.611078 0.829648 0.330022
0.634150 0.829252 0.335119
0.657801 0.828824 0.340642
0.681849 0.828489 0.346960
0.706508 0.828428 0.354009
0.731655 0.828794 0.362005
0.757168 0.829496 0.371191
0.782803 0.830503 0.381506
0.808286 0.831571 0.392279
0.833402 0.832609 0.403571
0.858000 0.833555 0.414649
0.882017 0.834379 0.426032
0.905272 0.835080 0.438209
0.925475 0.834897 0.461189
0.944701 0.835904 0.486183
0.962951 0.838315 0.513390
0.980133 0.842344 0.543145
0.996155 0.848356 0.575372
1.000000 0.856321 0.610040
0.465553 0.857694 0.330205
0.467659 0.858274 0.331334
0.470253 0.858549 0.332128
0.474800 0.858610 0.333013
0.481453 0.858427 0.333837
0.490242 0.858061 0.335119
0.501030 0.857603 0.336553
0.513664 0.857145 0.338506
0.528405 0.856718 0.340856
0.544976 0.856443 0.343969
0.562890 0.856229 0.347662
0.582391 0.856077 0.352148
0.602869 0.855955 0.356878
0.624109 0.855711 0.362158
0.646052 0.855406 0.367864
0.668421 0.855100 0.373693
0.691279 0.854795 0.380072
0.714748 0.854673 0.387518
0.738582 0.854917 0.395850
0.762753 0.855406 0.405158
0.787045 0.856077 0.415473
0.811276 0.856931 0.426184
0.835142 0.857755 0.437079
0.858579 0.858579 0.448310
0.881529 0.859312 0.459724
0.903868 0.860044 0.471321
0.925780 0.860899 0.483040
0.944732 0.861204 0.507744
0.962615 0.862852 0.534905
0.979461 0.866056 0.564355
0.995270 0.871183 0.596338
1.000000 0.878019 0.630060
0.494942 0.882383 0.365087
0.496834 0.882750 0.366064
0.498878 0.882811 0.366705
0.502647 0.882719 0.367254
0.508385 0.882353 0.368017
0.515984 0.881926 0.368811
0.525414 0.881376 0.370092
0.536828 0.880858 0.371710
0.550225 0.880369 0.374426
0.565118 0.880095 0.377386
0.581781 0.879789 0.381415
0.599817 0.879728 0.385870
0.618982 0.879606 0.391150
0.638849 0.879393 0.396399
0.659236 0.879088 0.402167
0.680140 0.878691 0.408240
0.701564 0.878294 0.414466
0.723415 0.878080 0.421790
0.745907 0.878111 0.429877
0.768612 0.878447 0.439063
0.791501 0.878996 0.448737
0.814389 0.879606 0.459388
0.837034 0.880278 0.470222
0.859281 0.881010 0.481361
0.881071 0.881651 0.492500
0.902373 0.882292 0.503899
0.923156 0.883055 0.515618
0.943481 0.883879 0.527703
0.961334 0.884825 0.552880
0.978027 0.887266 0.582025
0.993683 0.891356 0.613092
1.000000 0.897032 0.645991
0.525170 0.904234 0.401404
0.526696 0.904417 0.402319
0.528588 0.904479 0.402869
0.532006 0.904417 0.403479
0.537346 0.904265 0.404517
0.544610 0.904173 0.406317
0.553948 0.904173 0.408759
0.565209 0.904326 0.411780
0.578302 0.904570 0.415808
0.593103 0.904936 0.420874
0.609094 0.905394 0.426123
0.626429 0.905791 0.432136
0.644495 0.906126 0.438544
0.663233 0.906279 0.444953
0.682277 0.906249 0.451209
0.701625 0.905974 0.457557
0.721309 0.905669 0.464179
0.741512 0.905394 0.471260
0.762173 0.905364 0.479469
0.783139 0.905547 0.488228
0.804257 0.905852 0.497932
0.825406 0.906279 0.508080
0.846281 0.906706 0.518486
0.866880 0.907195 0.529198
0.887053 0.907652 0.540154
0.906859 0.908171 0.551141
0.926146 0.908782 0.562371
0.945037 0.909453 0.574029
0.963439 0.910430 0.586236
0.979828 0.912016 0.611536
0.994842 0.914946 0.641260
1.000000 0.919249 0.672328
0.565667 0.928557 0.450752
0.566949 0.928618 0.451392
0.568322 0.928588 0.451667
0.571130 0.928405 0.452033
0.575433 0.928161 0.452583
0.581445 0.927825 0.453864
0.589044 0.927550 0.455390
0.598383 0.927367 0.457832
0.609369 0.927214 0.460883
0.621851 0.927123 0.464637
0.635554 0.927031 0.468818
0.650477 0.926970 0.473762
0.666316 0.926879 0.479042
0.682856 0.926696 0.484443
0.700038 0.926452 0.490211
0.717769 0.926177 0.496437
