其他预设/【232】美食博客调色预设124款/1.3D LUT预设（视频调色-PR-AE-PS-FCPX-达芬奇用）/Food Art #26.cube
# Created by Adobe Lightroom plugin Export LUT (1.17.0)
# www.johnrellis.com/lightroom/exportlut.htm
# Preset: Food Art #26
# Color profile: /Library/Application Support/Adobe/Color/Profiles/Recommended/AdobeRGB1998.icc
LUT_3D_SIZE 5
DOMAIN_MIN 0.000000 0.000000 0.000000
DOMAIN_MAX 0.903226 0.903226 0.903226
0.125338 0.121492 0.102510
0.211582 0.135500 0.115114
0.345159 0.165560 0.134554
0.511406 0.207370 0.166018
0.727749 0.264591 0.209903
0.156191 0.219760 0.121645
0.233738 0.227726 0.128573
0.356481 0.233036 0.148745
0.519432 0.262638 0.175753
0.738766 0.316838 0.219974
0.205844 0.366491 0.148836
0.260472 0.370550 0.153017
0.404669 0.389868 0.168582
0.551720 0.398596 0.202487
0.757259 0.449439 0.250767
0.273045 0.541253 0.185885
0.317266 0.544579 0.189425
0.438758 0.554528 0.201816
0.599847 0.571771 0.224460
0.802365 0.619898 0.281163
0.391760 0.777371 0.261112
0.429053 0.779873 0.265690
0.536584 0.784970 0.280034
0.696101 0.808225 0.314580
0.874754 0.841337 0.366583
0.127626 0.120943 0.159823
0.215610 0.143008 0.170443
0.347387 0.181643 0.183993
0.507866 0.217136 0.206363
0.722194 0.261418 0.240116
0.167239 0.218357 0.177554
0.234684 0.224674 0.181979
0.357763 0.242313 0.194827
0.516014 0.267002 0.213474
0.729610 0.311650 0.248112
0.209964 0.365972 0.192142
0.259586 0.370092 0.192294
0.399390 0.383093 0.203738
0.544671 0.396277 0.237522
0.755306 0.447700 0.278111
0.271946 0.540948 0.219547
0.314244 0.544549 0.220798
0.437659 0.553704 0.231876
0.599176 0.570001 0.252781
0.801846 0.619196 0.310124
0.385657 0.777249 0.285893
0.423621 0.779690 0.290135
0.538231 0.790982 0.306706
0.697444 0.811429 0.336736
0.877348 0.843565 0.387152
0.158267 0.133944 0.249912
0.216312 0.143801 0.258183
0.357916 0.164431 0.277379
0.518273 0.209018 0.293156
0.731441 0.242344 0.325597
0.174838 0.204257 0.267063
0.229007 0.207889 0.272068
0.371679 0.223850 0.286351
0.525505 0.261479 0.298192
0.738338 0.292088 0.329381
0.221286 0.364569 0.293523
0.266758 0.368505 0.296483
0.398688 0.375280 0.301640
0.547967 0.397009 0.319310
0.760342 0.435065 0.351049
0.279423 0.538933 0.315496
0.315679 0.540642 0.314946
0.429053 0.550164 0.315709
0.600580 0.567163 0.334661
0.802304 0.614832 0.388617
0.385931 0.773281 0.376318
0.415320 0.777829 0.375189
0.510033 0.791318 0.367864
0.684627 0.809903 0.393591
0.875761 0.840513 0.440650
0.191745 0.143313 0.368139
0.239231 0.147921 0.374121
0.365240 0.160372 0.391424
0.532280 0.178836 0.413794
0.748653 0.217166 0.457740
0.195315 0.199802 0.382177
0.243778 0.202914 0.386267
0.371344 0.212772 0.399481
0.538964 0.228550 0.418616
0.752224 0.265934 0.459022
0.220127 0.347997 0.405951
0.258793 0.347082 0.409461
0.379614 0.344274 0.418921
0.559014 0.359716 0.432807
0.771511 0.396063 0.467506
0.287907 0.537438 0.442084
0.322576 0.539055 0.443641
0.429847 0.546166 0.450385
0.594965 0.554498 0.458595
0.808774 0.587762 0.490974
0.388342 0.773922 0.512993
0.414679 0.777523 0.513329
0.497200 0.791470 0.511437
0.649012 0.812650 0.501152
0.877623 0.840452 0.545617
0.227787 0.137850 0.565850
0.275700 0.138338 0.569909
0.404211 0.139132 0.584405
0.574456 0.139376 0.607752
0.770169 0.152987 0.639063
0.212192 0.190738 0.573968
0.264897 0.191165 0.577539
0.399969 0.191928 0.590723
0.574304 0.193545 0.611810
0.773678 0.207828 0.642786
0.151186 0.331365 0.598291
0.194614 0.316777 0.600275
0.368750 0.312779 0.610315
0.571038 0.318822 0.628748
0.790097 0.341497 0.661097
0.238437 0.553765 0.642664
0.272099 0.549737 0.643641
0.371313 0.532738 0.649256
0.553002 0.503044 0.663783
0.824704 0.534691 0.702449
0.370275 0.791562 0.711574
0.393896 0.792874 0.713222
0.477119 0.799619 0.722011
0.629694 0.811246 0.737484
0.867369 0.830320 0.762417
