其他预设/【232】美食博客调色预设124款/1.3D LUT预设（视频调色-PR-AE-PS-FCPX-达芬奇用）/Food Art #57.cube
# Created by Adobe Lightroom plugin Export LUT (1.17.0)
# www.johnrellis.com/lightroom/exportlut.htm
# Preset: Food Art #57
# Color profile: /Library/Application Support/Adobe/Color/Profiles/Recommended/AdobeRGB1998.icc
LUT_3D_SIZE 8
DOMAIN_MIN 0.000000 0.000000 0.000000
DOMAIN_MAX 0.903226 0.903226 0.903226
0.000000 0.000000 0.000000
0.041352 0.044404 0.075776
0.117372 0.098451 0.139590
0.212222 0.148562 0.215244
0.323796 0.202426 0.299229
0.463691 0.258061 0.377020
0.634516 0.319524 0.438666
0.803799 0.407568 0.482643
0.000000 0.099794 0.107515
0.038849 0.115389 0.131441
0.124300 0.139345 0.171908
0.216953 0.178408 0.238499
0.327092 0.224521 0.313634
0.463539 0.274449 0.383398
0.631098 0.332738 0.440772
0.801633 0.418616 0.483589
0.000000 0.214298 0.216190
0.030182 0.221439 0.228733
0.150301 0.243748 0.269596
0.246403 0.265476 0.313359
0.357458 0.296361 0.364080
0.494820 0.336919 0.414588
0.662318 0.393194 0.458778
0.820768 0.475532 0.494148
0.070222 0.332586 0.333654
0.107912 0.336095 0.339757
0.191928 0.349493 0.360784
0.307774 0.380194 0.398444
0.425544 0.405280 0.427375
0.552148 0.434394 0.452155
0.697230 0.479774 0.477668
0.838254 0.552972 0.508812
0.195315 0.457893 0.420203
0.215427 0.460395 0.422919
0.278691 0.470802 0.432563
0.375677 0.490974 0.447913
0.490608 0.514794 0.463844
0.606653 0.537560 0.477607
0.733272 0.576928 0.496559
0.859770 0.642451 0.532158
0.329931 0.590204 0.468177
0.348882 0.595758 0.470375
0.397192 0.602289 0.474311
0.475257 0.614496 0.481025
0.571344 0.630304 0.490364
0.676112 0.651209 0.503441
0.782010 0.681422 0.525353
0.887572 0.735286 0.571038
0.503868 0.724697 0.506493
0.515282 0.726558 0.507897
0.548333 0.729458 0.511345
0.605127 0.736416 0.518730
0.675929 0.746120 0.530266
0.755032 0.761013 0.548363
0.832547 0.780423 0.573327
0.911559 0.815335 0.618616
0.693172 0.846677 0.581353
0.699031 0.847257 0.582788
0.720394 0.850004 0.588830
0.757839 0.856291 0.601068
0.797330 0.859495 0.612726
0.850706 0.871824 0.637232
0.904204 0.887999 0.669368
0.951354 0.905699 0.705989
0.000000 0.002045 0.111360
0.000000 0.052003 0.132815
0.107485 0.109590 0.192081
0.207034 0.164858 0.264591
0.320256 0.214420 0.331579
0.455879 0.263859 0.393042
0.623438 0.320378 0.444892
0.794949 0.404700 0.484627
0.000000 0.100465 0.156008
0.000000 0.116701 0.177920
0.114260 0.150027 0.223606
0.213413 0.191165 0.282200
0.325780 0.234562 0.342901
0.459602 0.280308 0.399359
0.622675 0.333654 0.447089
0.792660 0.415167 0.485389
0.000000 0.213901 0.249821
0.000000 0.221927 0.265812
0.140902 0.243168 0.298924
0.240970 0.268254 0.337896
0.353521 0.299413 0.381720
0.486946 0.337377 0.423835
0.647425 0.388617 0.461402
0.809873 0.468879 0.494728
0.066835 0.330144 0.350927
0.108766 0.334417 0.358038
0.191287 0.348577 0.377020
0.297948 0.373205 0.405982
0.409400 0.396216 0.430915
0.534630 0.425666 0.454078
0.681056 0.470924 0.478279
0.828031 0.545037 0.508537
0.199405 0.456428 0.429053
0.218173 0.458381 0.431098
0.278416 0.467445 0.439033
0.369512 0.484321 0.451820
0.480018 0.506523 0.465949
0.596887 0.531090 0.479469
0.725765 0.571923 0.497902
0.854063 0.637476 0.532525
0.329778 0.585870 0.471412
0.344335 0.587945 0.472511
0.392035 0.594781 0.476265
0.470130 0.608118 0.483070
0.567193 0.625666 0.492439
0.673274 0.648432 0.505699
0.778866 0.678920 0.527306
0.884123 0.731960 0.571527
0.498421 0.718502 0.507408
0.507103 0.718715 0.508019
0.541314 0.722560 0.511650
0.600122 0.731197 0.519524
0.672694 0.742519 0.531609
0.751247 0.757259 0.549096
0.827665 0.775692 0.572656
0.907225 0.810422 0.616449
0.689082 0.843259 0.581262
0.695827 0.844327 0.583185
0.717678 0.847440 0.589288
0.755520 0.854063 0.601770
0.801907 0.862303 0.618799
0.852323 0.872862 0.641169
0.903410 0.887114 0.670527
0.949950 0.903929 0.705531
0.000000 0.026703 0.211124
0.000000 0.065339 0.228367
0.073793 0.117586 0.280644
0.199435 0.173739 0.334234
0.322759 0.226810 0.386847
0.468971 0.279606 0.434546
0.636683 0.333349 0.469001
0.803128 0.417273 0.498756
0.000000 0.111055 0.253178
0.000000 0.124453 0.267613
0.086000 0.157778 0.303929
0.207187 0.201480 0.349096
0.330114 0.247715 0.396277
0.472389 0.294804 0.438209
0.637446 0.346654 0.470466
0.803433 0.429297 0.499947
0.000000 0.218051 0.324987
0.000000 0.225834 0.334325
0.124941 0.246494 0.358160
0.239078 0.275456 0.390051
0.362402 0.310796 0.424537
0.499550 0.348852 0.453620
0.657069 0.398322 0.479255
0.814145 0.477729 0.507134
0.041444 0.333715 0.395727
0.103426 0.338293 0.401221
0.195682 0.353429 0.417121
0.302068 0.376898 0.437385
0.417548 0.403021 0.456275
0.546044 0.434180 0.473518
0.691371 0.480659 0.492683
0.833768 0.553796 0.521416
0.204990 0.457313 0.450935
0.226902 0.460548 0.453590
0.290257 0.471046 0.460853
0.380224 0.488624 0.470253
0.489143 0.510826 0.480964
0.604303 0.536065 0.492226
0.731014 0.577813 0.509911
0.857023 0.642573 0.545098
0.339483 0.586694 0.483406
0.355627 0.588983 0.484718
0.404273 0.595575 0.488563
0.478096 0.607355 0.494240
0.570916 0.624018 0.502922
0.673182 0.646235 0.515648
0.778897 0.678981 0.538018
0.886015 0.734951 0.583612
0.509575 0.720027 0.518303
0.519951 0.720546 0.519493
0.552544 0.723384 0.523186
0.607019 0.730526 0.530358
0.676570 0.741329 0.542199
0.753933 0.757015 0.559930
0.830869 0.777676 0.584771
0.911376 0.815366 0.630640
0.692805 0.842985 0.591333
0.698024 0.843168 0.592401
0.718593 0.845792 0.597894
0.757443 0.853513 0.611170
0.802670 0.861601 0.627466
0.853300 0.872923 0.650019
0.904448 0.887846 0.679530
0.951110 0.905486 0.714839
0.000000 0.067842 0.325933
0.000000 0.083864 0.337774
0.000000 0.127047 0.368719
0.188205 0.180972 0.405951
0.323400 0.231815 0.438605
0.470802 0.281773 0.467811
0.638331 0.335271 0.491188
0.802701 0.416693 0.515251
0.000000 0.126986 0.356390
0.000000 0.136599 0.363592
0.000000 0.165988 0.385351
0.200778 0.208164 0.415808
0.333593 0.253086 0.445045
0.477760 0.298680 0.470863
0.641901 0.349828 0.492622
0.804410 0.429450 0.516564
0.000000 0.222873 0.398413
0.000000 0.230686 0.404273
0.109682 0.251469 0.419989
0.239841 0.280339 0.440833
0.368658 0.316472 0.462867
0.511559 0.356176 0.482521
0.670741 0.406958 0.501061
0.820188 0.482216 0.525261
0.043305 0.337926 0.445533
0.106050 0.342321 0.448402
0.200626 0.356664 0.457313
0.307530 0.379004 0.469795
0.423835 0.405707 0.482216
0.553704 0.438270 0.494759
0.696864 0.485359 0.510918
0.837156 0.556542 0.539269
0.221836 0.461494 0.479072
0.241367 0.463783 0.480323
0.302586 0.473487 0.484749
0.393622 0.492073 0.492073
0.499550 0.514000 0.500420
0.614496 0.542168 0.511162
0.738857 0.583856 0.529046
0.860868 0.646174 0.564294
0.357427 0.591028 0.502007
0.375677 0.595575 0.503899
0.423255 0.601099 0.507195
0.497566 0.612543 0.513512
0.585534 0.628779 0.522026
0.681300 0.649348 0.534722
0.784085 0.683040 0.558007
0.888701 0.737667 0.602075
0.519585 0.720485 0.535576
0.530907 0.721950 0.537194
0.566766 0.726314 0.542321
0.621546 0.733974 0.550805
0.688045 0.745022 0.562799
0.761166 0.760067 0.579919
0.834287 0.779538 0.603235
0.914061 0.818173 0.648432
0.700099 0.844999 0.610559
0.706325 0.845914 0.612299
0.725673 0.848295 0.617212
0.758907 0.853605 0.626825
0.803525 0.861723 0.642512
0.853819 0.873167 0.664393
0.905089 0.888579 0.693294
0.952148 0.906981 0.728481
0.000000 0.094850 0.422278
0.000000 0.106935 0.427771
0.000000 0.141909 0.442695
0.185794 0.189090 0.461952
0.333471 0.239597 0.482185
0.482704 0.287022 0.499428
0.648981 0.340124 0.517235
0.810666 0.423651 0.542046
0.000000 0.143160 0.436255
0.000000 0.151644 0.440589
0.000000 0.177371 0.451667
0.201602 0.214908 0.467292
0.343877 0.259983 0.485359
0.491432 0.304204 0.501579
0.654719 0.355810 0.518791
0.813199 0.436957 0.543603
0.000000 0.235966 0.460487
0.000000 0.242924 0.463569
0.118135 0.259434 0.470680
0.249302 0.286320 0.481941
0.376959 0.320104 0.494453
0.516136 0.356786 0.507500
0.670832 0.404944 0.523583
0.820035 0.477852 0.548516
0.086915 0.340124 0.483558
0.127779 0.344671 0.485267
0.216220 0.359838 0.490822
0.320195 0.382086 0.498665
0.433997 0.408148 0.507286
0.562249 0.440070 0.518120
0.701228 0.483528 0.533776
0.836576 0.544640 0.559686
0.241154 0.461189 0.504723
0.260227 0.464393 0.505821
0.317937 0.474281 0.509087
0.403449 0.491066 0.514672
0.503990 0.511528 0.521935
0.616541 0.538415 0.532372
0.738338 0.577173 0.550042
0.859831 0.635187 0.582940
0.369970 0.587396 0.524437
0.383795 0.589288 0.525322
0.428351 0.594659 0.528191
0.498634 0.605859 0.533898
0.582818 0.622126 0.542107
0.681971 0.646082 0.556878
0.786282 0.682033 0.581048
0.889555 0.733516 0.622004
0.529534 0.719081 0.560784
0.538750 0.719753 0.561730
0.571160 0.723140 0.565820
0.623102 0.730617 0.573510
0.686366 0.742184 0.583948
0.760678 0.758114 0.601221
0.834165 0.777920 0.623896
0.914702 0.817044 0.667231
0.699947 0.841855 0.632959
0.705257 0.842405 0.634089
0.723629 0.844724 0.638300
0.757656 0.852354 0.648432
0.797940 0.860227 0.659449
0.850004 0.871855 0.680568
0.902861 0.887480 0.708553
0.951293 0.906188 0.742855
0.000000 0.123049 0.489326
0.000000 0.132540 0.491463
0.000000 0.160678 0.497414
0.218021 0.201602 0.507134
0.360601 0.246830 0.518517
0.504143 0.294316 0.531243
0.665553 0.348363 0.551202
0.822232 0.434974 0.581964
0.000000 0.162234 0.493751
0.000000 0.169070 0.495399
0.055940 0.191165 0.500572
0.231327 0.225376 0.509331
0.368627 0.265751 0.520012
0.509789 0.310033 0.532433
0.669001 0.362585 0.552422
0.823606 0.446754 0.583185
0.000000 0.251347 0.506706
0.000000 0.255406 0.507866
0.159152 0.270329 0.511772
0.279118 0.294835 0.518669
0.404242 0.326116 0.527642
0.537041 0.363714 0.539055
0.686702 0.413001 0.558709
0.832181 0.488960 0.589593
0.148409 0.354314 0.520684
0.174960 0.357794 0.521630
0.248234 0.370214 0.525566
0.347662 0.390417 0.532372
0.461860 0.416236 0.540948
0.583673 0.448768 0.551843
0.717372 0.492348 0.571252
0.847868 0.554742 0.602014
0.271275 0.469612 0.536553
0.288365 0.472541 0.537591
0.342321 0.482094 0.541100
0.423835 0.497383 0.546990
0.519768 0.515251 0.554589
0.629267 0.541192 0.566247
0.746426 0.577325 0.585443
0.863615 0.627527 0.616327
0.396948 0.593286 0.558801
0.411292 0.596033 0.560235
0.454108 0.602502 0.563684
0.519127 0.613092 0.569482
0.597375 0.626886 0.577752
0.690120 0.647944 0.591516
0.789700 0.678218 0.613001
0.890654 0.722621 0.648280
0.547265 0.721553 0.598535
0.557275 0.723140 0.600031
0.587579 0.726741 0.603784
0.634852 0.733639 0.610559
0.693507 0.744198 0.620081
0.762509 0.759335 0.633967
0.838224 0.780087 0.656611
0.919249 0.818906 0.697780
0.706569 0.842557 0.668544
0.711391 0.842985 0.669398
0.728420 0.845274 0.672938
0.757931 0.851041 0.680293
0.796201 0.859251 0.689998
0.843290 0.870878 0.704128
0.900237 0.887480 0.732265
0.951385 0.907012 0.766140
0.000000 0.148623 0.542351
0.000000 0.156100 0.543877
0.143404 0.179294 0.548516
0.278019 0.213718 0.556481
0.409796 0.254459 0.567254
0.546471 0.301091 0.581384
0.681971 0.356207 0.598718
0.829923 0.443702 0.635035
0.000000 0.181552 0.545251
0.000000 0.187320 0.546593
0.161074 0.206180 0.550866
0.287327 0.235752 0.558160
0.416144 0.273045 0.568750
0.550622 0.316625 0.582544
0.684230 0.369482 0.599512
0.830198 0.453773 0.635401
0.066865 0.262272 0.555200
0.116548 0.266117 0.556207
0.211124 0.279301 0.559869
0.321447 0.301732 0.566766
0.443122 0.331762 0.576715
0.572137 0.369879 0.590051
0.700526 0.419257 0.606897
0.839445 0.495979 0.642847
0.190433 0.366003 0.569726
0.210513 0.367559 0.570520
0.273533 0.374853 0.573877
0.371405 0.392645 0.580499
0.485298 0.417700 0.589990
0.607080 0.451759 0.602930
0.726009 0.494301 0.619501
0.853025 0.558434 0.654749
0.307073 0.485786 0.589075
0.321202 0.487404 0.589837
0.367468 0.492866 0.592798
0.438392 0.500847 0.597681
0.533959 0.516167 0.605676
0.646143 0.544091 0.618524
0.754879 0.579583 0.635523
0.869780 0.632288 0.670802
0.437507 0.611139 0.615839
0.448554 0.612665 0.616663
0.485237 0.617548 0.619715
0.541527 0.624903 0.624811
0.612238 0.634089 0.631800
0.698329 0.649226 0.643122
0.794217 0.677577 0.662348
0.892058 0.717128 0.695674
0.570367 0.727779 0.651148
0.578576 0.728939 0.652125
0.605005 0.732326 0.655268
0.646876 0.738369 0.660975
0.701045 0.747097 0.669368
0.765957 0.760128 0.682124
0.840024 0.780117 0.702113
0.919524 0.811887 0.735103
0.710597 0.842008 0.712734
0.715541 0.842802 0.713802
0.733181 0.846372 0.718379
0.760952 0.851957 0.725277
0.798184 0.860197 0.735256
0.843259 0.871855 0.749020
0.895445 0.887510 0.768185
0.951263 0.908446 0.801541
0.095735 0.174411 0.633417
0.139895 0.180301 0.634974
0.235050 0.199832 0.639704
0.349462 0.230961 0.648280
0.474952 0.271977 0.660304
0.605707 0.323064 0.675227
0.733486 0.387945 0.693172
0.846067 0.464729 0.713497
0.113405 0.202182 0.635981
0.152193 0.207095 0.637446
0.242893 0.223941 0.641962
0.355169 0.251865 0.650172
0.479316 0.289921 0.661891
0.609094 0.338537 0.676539
0.735592 0.401343 0.694087
0.847074 0.475074 0.714290
0.154910 0.274876 0.644739
0.185153 0.278660 0.645960
0.266636 0.291142 0.649866
0.374914 0.314092 0.658137
0.496040 0.346349 0.668910
0.622583 0.389471 0.682643
0.745571 0.446662 0.699611
0.852995 0.512291 0.719692
0.201266 0.368139 0.658045
0.227176 0.371283 0.659236
0.301274 0.381384 0.662928
0.404639 0.400244 0.670069
0.522972 0.428351 0.680232
0.645808 0.466804 0.693324
0.762173 0.514427 0.709834
0.863737 0.569940 0.729976
0.336370 0.503380 0.680018
0.348089 0.503624 0.680659
0.384863 0.502739 0.681971
0.439796 0.497475 0.683864
0.554498 0.521294 0.693477
0.671962 0.553246 0.706477
0.782437 0.593866 0.723568
0.878172 0.640833 0.745388
0.485878 0.639033 0.708858
0.493660 0.639277 0.709133
0.519768 0.639826 0.710323
0.561486 0.639429 0.712367
0.617823 0.637720 0.715480
0.706966 0.651148 0.725795
0.809995 0.684932 0.745480
0.898070 0.723964 0.769741
0.625940 0.760006 0.745663
0.631312 0.760403 0.746059
0.649104 0.761532 0.747646
0.679774 0.763729 0.750851
0.722011 0.766842 0.755825
0.774807 0.771084 0.763119
0.843442 0.782956 0.776974
0.921111 0.813870 0.803830
0.739528 0.859678 0.790738
0.742977 0.860105 0.791287
0.755459 0.861814 0.793545
0.777646 0.865293 0.798184
0.808621 0.870756 0.805417
0.847898 0.878813 0.816068
0.895781 0.891173 0.832395
0.950195 0.910887 0.858854
