其他预设/【232】美食博客调色预设124款/1.3D LUT预设（视频调色-PR-AE-PS-FCPX-达芬奇用）/Food Art #48.cube
# Created by Adobe Lightroom plugin Export LUT (1.17.0)
# www.johnrellis.com/lightroom/exportlut.htm
# Preset: Food Art #48
# Color profile: /Library/Application Support/Adobe/Color/Profiles/Recommended/AdobeRGB1998.icc
LUT_3D_SIZE 32
0.143832 0.167971 0.196109
0.138430 0.167727 0.196017
0.131411 0.167361 0.195499
0.120607 0.166506 0.194736
0.113832 0.165164 0.193271
0.114565 0.163699 0.191592
0.124819 0.161898 0.189425
0.144472 0.159823 0.186709
0.173678 0.157259 0.183474
0.210788 0.155245 0.180301
0.254154 0.152590 0.176761
0.302373 0.149691 0.172641
0.354314 0.146365 0.167941
0.408728 0.141360 0.162264
0.463996 0.135592 0.156008
0.519371 0.128054 0.149172
0.574212 0.119265 0.141665
0.627527 0.109071 0.133669
0.678645 0.096742 0.125490
0.732937 0.079622 0.116030
0.782681 0.059174 0.107027
0.827298 0.014710 0.099062
0.865965 0.000000 0.093843
0.898894 0.000000 0.091798
0.926726 0.000000 0.093629
0.949859 0.000000 0.099672
0.968933 0.000000 0.110109
0.984527 0.012848 0.123751
0.997040 0.066346 0.141390
1.000000 0.096010 0.161715
1.000000 0.124849 0.185397
1.000000 0.154543 0.212222
0.143709 0.162814 0.195804
0.138369 0.162387 0.195499
0.131258 0.162325 0.195071
0.121218 0.162570 0.194125
0.114473 0.162356 0.192691
0.115236 0.161898 0.190921
0.125429 0.160952 0.188815
0.144930 0.159335 0.186069
0.173526 0.157900 0.183078
0.210239 0.156466 0.179995
0.253208 0.154940 0.176516
0.301335 0.152682 0.172366
0.352850 0.149538 0.167544
0.406958 0.145632 0.161990
0.461921 0.141360 0.155673
0.517113 0.134768 0.148836
0.571649 0.127077 0.141482
0.625086 0.118288 0.133455
0.676234 0.107546 0.125277
0.730190 0.093629 0.115877
0.779507 0.079011 0.106966
0.824125 0.060578 0.099153
0.862943 0.031098 0.093263
0.896300 0.000244 0.091279
0.924590 0.000000 0.092683
0.948119 0.000000 0.098238
0.967620 0.007324 0.108583
0.983520 0.050507 0.122744
0.996277 0.077974 0.140200
1.000000 0.103426 0.160128
1.000000 0.129671 0.183352
1.000000 0.157504 0.210208
0.143374 0.155978 0.195071
0.138552 0.155917 0.194827
0.131899 0.155947 0.194278
0.121920 0.157412 0.193240
0.115602 0.158816 0.191806
0.116335 0.159579 0.190066
0.126345 0.159396 0.187655
0.145418 0.158999 0.185153
0.173892 0.158633 0.182315
0.210147 0.158206 0.179294
0.252873 0.157534 0.175845
0.300603 0.156252 0.171633
0.352117 0.154208 0.166873
0.406073 0.151705 0.161196
0.460945 0.147433 0.155032
0.516197 0.142458 0.148196
0.570520 0.136324 0.140780
0.623804 0.128603 0.132906
0.675074 0.120211 0.124575
0.728847 0.108278 0.115358
0.778103 0.096407 0.106447
0.822568 0.084047 0.098573
0.861479 0.071534 0.093050
0.894987 0.061646 0.090669
0.923400 0.052461 0.092042
0.947173 0.052247 0.097902
0.966827 0.062196 0.108248
0.982910 0.075929 0.121920
0.995789 0.093172 0.139651
1.000000 0.113558 0.159823
1.000000 0.136538 0.183139
1.000000 0.162936 0.209628
0.142123 0.147311 0.192966
0.138643 0.147524 0.192569
0.134005 0.147738 0.192203
0.124208 0.148196 0.191226
0.117372 0.151705 0.189761
0.118471 0.155123 0.188052
0.128481 0.157229 0.185672
0.147402 0.158938 0.183352
0.175296 0.160555 0.180819
0.211215 0.161898 0.177768
0.253666 0.163058 0.174289
0.301061 0.163943 0.170260
0.352056 0.164096 0.165316
0.405646 0.163302 0.159609
0.460273 0.161227 0.153536
0.515190 0.158572 0.146822
0.569451 0.154147 0.139406
0.622492 0.148531 0.131411
0.674586 0.142489 0.122896
0.727199 0.135225 0.113802
0.775662 0.125460 0.105287
0.819852 0.118227 0.097353
0.859007 0.110597 0.091341
0.893034 0.104158 0.089143
0.922118 0.100099 0.090883
0.946410 0.098054 0.097597
0.966369 0.100923 0.108125
0.982605 0.108400 0.122805
0.995514 0.120119 0.140230
1.000000 0.135225 0.160678
1.000000 0.153567 0.184146
1.000000 0.176120 0.210544
0.139437 0.143008 0.189578
0.137514 0.143160 0.189273
0.134707 0.143618 0.188724
0.129335 0.144289 0.187869
0.121920 0.145388 0.186435
0.121492 0.150149 0.185000
0.131075 0.155612 0.183169
0.149599 0.160037 0.181216
0.176974 0.164431 0.178836
0.212589 0.168460 0.175753
0.254246 0.172213 0.172152
0.301274 0.175418 0.167880
0.351934 0.178073 0.162905
0.405097 0.179904 0.157473
0.459693 0.180331 0.151217
0.514580 0.179782 0.144350
0.569146 0.177829 0.136721
0.622217 0.174990 0.128817
0.675593 0.170413 0.120180
0.727260 0.166140 0.111055
0.774990 0.160800 0.102419
0.818784 0.154788 0.094942
0.857816 0.149416 0.089662
0.891875 0.144564 0.087465
0.921050 0.141421 0.089601
0.945525 0.139467 0.096407
0.965606 0.140352 0.107851
0.981903 0.144350 0.122438
0.994873 0.151217 0.140902
1.000000 0.162020 0.161837
1.000000 0.176150 0.185092
1.000000 0.194644 0.211521
0.135836 0.145663 0.185153
0.134829 0.145968 0.184909
0.133761 0.146487 0.184665
0.131472 0.147341 0.184054
0.128969 0.148562 0.182986
0.127443 0.150301 0.181949
0.134371 0.155886 0.180362
0.152804 0.163668 0.178256
0.180362 0.170901 0.175784
0.215366 0.177951 0.172915
0.256901 0.184787 0.169162
0.303410 0.190921 0.164889
0.353643 0.196201 0.159792
0.406561 0.200137 0.154238
0.460914 0.203494 0.147768
0.515618 0.205142 0.140932
0.569879 0.204929 0.133242
0.622797 0.204501 0.125185
0.677516 0.202792 0.115999
0.728573 0.200137 0.106844
0.775906 0.196414 0.098756
0.819577 0.192477 0.091066
0.876066 0.191043 0.085756
0.907317 0.187716 0.087800
0.933471 0.184634 0.094301
0.954986 0.183322 0.104768
0.972595 0.183841 0.118013
0.986847 0.186130 0.134859
0.998199 0.191104 0.153841
1.000000 0.199039 0.175631
1.000000 0.210758 0.199283
1.000000 0.226169 0.225772
0.131563 0.158114 0.180636
0.131563 0.158267 0.180484
0.131533 0.158877 0.180209
0.132174 0.159731 0.179660
0.133791 0.161349 0.178805
0.137240 0.163302 0.177737
0.143435 0.165682 0.176455
0.158816 0.172244 0.174624
0.187015 0.182895 0.172091
0.222995 0.193240 0.168704
0.265049 0.202884 0.164950
0.311955 0.211704 0.160311
0.362097 0.219394 0.155001
0.414771 0.225895 0.149203
0.468544 0.230808 0.142733
0.522332 0.234318 0.135592
0.575952 0.236179 0.127871
0.631098 0.237491 0.119295
0.685481 0.237217 0.109834
0.736507 0.236484 0.100679
0.784390 0.234623 0.092073
0.828885 0.231846 0.085664
0.868254 0.228916 0.082856
0.902098 0.225589 0.084779
0.930144 0.223453 0.091798
0.952758 0.221042 0.103639
0.970916 0.220127 0.118318
0.985443 0.220890 0.135866
0.997009 0.223392 0.155459
1.000000 0.228733 0.177127
1.000000 0.237217 0.201114
1.000000 0.249577 0.227451
0.126314 0.179324 0.175814
0.127169 0.179629 0.175662
0.128481 0.180148 0.175326
0.131441 0.181003 0.174838
0.136477 0.182773 0.174075
0.144015 0.184817 0.173129
0.154604 0.187381 0.171908
0.168704 0.190555 0.170260
0.191073 0.197940 0.168002
0.226688 0.210697 0.164797
0.268315 0.222843 0.160616
0.314641 0.234226 0.155978
0.364508 0.244205 0.150607
0.416663 0.252689 0.144625
0.469886 0.259373 0.137850
0.523369 0.264469 0.130556
0.577813 0.268254 0.122408
0.633478 0.271397 0.113375
0.686275 0.272770 0.104097
0.736110 0.272923 0.094911
0.783230 0.271733 0.086915
0.827176 0.269902 0.080751
0.866209 0.267491 0.078553
0.899962 0.264347 0.082338
0.928099 0.261509 0.090761
0.950896 0.258640 0.103853
0.969238 0.256474 0.119539
0.983978 0.255528 0.137453
0.995697 0.256626 0.157198
1.000000 0.259739 0.179385
1.000000 0.265904 0.203586
1.000000 0.275517 0.230320
0.118929 0.210300 0.169741
0.120760 0.210575 0.169680
0.123293 0.211124 0.169314
0.128756 0.212131 0.168856
0.137728 0.213779 0.168215
0.149233 0.215671 0.167239
0.164309 0.218296 0.165927
0.182071 0.221347 0.164553
0.203006 0.225040 0.162905
0.231388 0.232609 0.160372
0.272770 0.246952 0.155978
0.318730 0.260044 0.151247
0.368292 0.271916 0.145449
0.420081 0.282017 0.139162
0.472602 0.290349 0.132296
0.526787 0.297185 0.124453
0.582544 0.303166 0.115602
0.636774 0.307073 0.106386
0.688106 0.309056 0.097139
0.736904 0.309789 0.088258
0.783261 0.309667 0.080354
0.826658 0.308232 0.075044
0.865263 0.306035 0.074372
0.898650 0.303471 0.079225
0.926665 0.299901 0.090150
0.949401 0.296330 0.104829
0.967803 0.293400 0.121584
0.982605 0.291234 0.140108
0.994415 0.290501 0.160281
1.000000 0.291844 0.182681
1.000000 0.295750 0.207614
1.000000 0.303014 0.234134
0.109163 0.248966 0.162722
0.112306 0.249210 0.162509
0.116457 0.249668 0.162387
0.125032 0.250492 0.161959
0.137514 0.251987 0.161379
0.153323 0.253788 0.160342
0.172244 0.256199 0.159213
0.193668 0.259129 0.157687
0.217899 0.262730 0.155978
0.244633 0.266728 0.154086
0.277226 0.273869 0.151156
0.322850 0.288457 0.145998
0.372015 0.301701 0.139986
0.423316 0.313268 0.133333
0.477577 0.323980 0.125490
0.533257 0.333013 0.116701
0.588037 0.339910 0.107485
0.641413 0.344366 0.098024
0.691676 0.347173 0.088594
0.739437 0.348119 0.079988
0.784695 0.347997 0.072755
0.826688 0.346807 0.068971
0.864134 0.344518 0.070253
0.896788 0.341344 0.077546
0.924529 0.337438 0.090059
0.947295 0.333410 0.105989
0.965881 0.329595 0.123781
0.980926 0.326513 0.143160
0.992920 0.324468 0.164462
1.000000 0.324376 0.187594
1.000000 0.326665 0.212467
1.000000 0.332097 0.239933
0.095674 0.292668 0.154482
0.099794 0.292973 0.154360
0.106538 0.293309 0.154177
0.118654 0.294072 0.153689
0.135592 0.295445 0.153079
0.155856 0.297398 0.152071
0.178561 0.299809 0.150820
0.203922 0.302586 0.149416
0.231174 0.305913 0.147799
0.260655 0.309758 0.145754
0.292149 0.313725 0.143465
0.327916 0.319982 0.140383
0.377234 0.334722 0.133944
0.430182 0.348638 0.126192
0.484382 0.360388 0.117739
0.538506 0.369757 0.108705
0.592004 0.376867 0.099062
0.644160 0.382025 0.089296
0.693446 0.384833 0.079591
0.740383 0.386236 0.071107
0.784848 0.386450 0.064942
0.826291 0.385473 0.062043
0.863432 0.383154 0.066712
0.895811 0.379797 0.077302
0.923278 0.375647 0.091676
0.945922 0.371038 0.108675
0.964385 0.366155 0.127962
0.979400 0.361913 0.147982
0.991363 0.358831 0.169741
1.000000 0.357244 0.192721
1.000000 0.357885 0.218357
1.000000 0.361608 0.246098
0.075349 0.341009 0.144564
0.082582 0.341283 0.144564
0.092103 0.341711 0.144320
0.109468 0.342321 0.143893
0.131228 0.343725 0.143099
0.156374 0.345434 0.142214
0.183719 0.347631 0.140932
0.212253 0.350317 0.139315
0.242832 0.353399 0.137758
0.275120 0.356939 0.135531
0.309026 0.360723 0.133303
0.346502 0.366674 0.129976
0.400366 0.384985 0.122744
0.454536 0.399420 0.113954
0.508965 0.411200 0.104372
0.562890 0.420233 0.094270
0.615839 0.427008 0.083772
0.666255 0.431342 0.073457
0.713069 0.433051 0.064637
0.757748 0.433326 0.057618
0.799710 0.432441 0.054292
0.838315 0.430213 0.060914
0.872557 0.426703 0.070436
0.902464 0.422095 0.085420
0.927825 0.416785 0.101778
0.948852 0.410864 0.121157
0.966125 0.404974 0.140658
0.980102 0.399725 0.160647
0.991272 0.395422 0.182773
1.000000 0.392584 0.206027
1.000000 0.391943 0.231449
1.000000 0.394079 0.258488
0.013458 0.396857 0.131594
0.041596 0.397101 0.131563
0.068788 0.397223 0.131350
0.095003 0.397467 0.131044
0.125521 0.398169 0.130373
0.156039 0.399176 0.129519
0.187350 0.400610 0.128450
0.220249 0.402838 0.126772
0.254063 0.405585 0.124880
0.290623 0.411109 0.122225
0.329442 0.417212 0.118837
0.370520 0.423743 0.114961
0.413336 0.430426 0.111086
0.457679 0.436866 0.106600
0.512322 0.449531 0.095949
0.565759 0.459297 0.084840
0.617853 0.466194 0.073976
0.667231 0.470405 0.062654
0.713283 0.472114 0.052430
0.757137 0.472267 0.044617
0.798520 0.471260 0.044739
0.836606 0.468757 0.058656
0.870481 0.464973 0.072114
0.900175 0.459968 0.088563
0.925444 0.454108 0.106294
0.946502 0.447700 0.125277
0.963806 0.440986 0.145968
0.977905 0.434730 0.166903
0.989197 0.429328 0.188815
0.998016 0.425422 0.212711
1.000000 0.423316 0.237858
1.000000 0.424109 0.266087
0.000000 0.448524 0.117678
0.000000 0.448676 0.117647
0.002258 0.448707 0.117403
0.074708 0.449104 0.116915
0.115145 0.449531 0.116335
0.152651 0.450813 0.115450
0.189303 0.453132 0.113741
0.225589 0.456245 0.111879
0.263035 0.459663 0.109529
0.301976 0.463996 0.106752
0.342168 0.469032 0.103243
0.384009 0.474495 0.099672
0.427314 0.480079 0.095613
0.471717 0.485328 0.091218
0.516686 0.489937 0.087251
0.568505 0.498848 0.075868
0.619623 0.505791 0.063569
0.668055 0.509819 0.049104
0.713405 0.511254 0.037049
0.756588 0.511284 0.031739
0.797604 0.510185 0.041566
0.835264 0.507683 0.059632
0.868864 0.503563 0.075410
0.898375 0.498207 0.093385
0.923491 0.491737 0.112520
0.944457 0.484565 0.132418
0.961761 0.477028 0.153048
0.975860 0.469886 0.174624
0.987182 0.463478 0.197024
0.996002 0.458442 0.220920
1.000000 0.455268 0.247105
1.000000 0.454749 0.275059
0.000000 0.504509 0.099489
0.000000 0.504753 0.099611
0.000000 0.504875 0.099214
0.022004 0.505150 0.098787
0.102632 0.505638 0.098085
0.148135 0.506584 0.096956
0.189090 0.508080 0.095460
0.229252 0.509972 0.093935
0.269139 0.512810 0.091341
0.309972 0.516228 0.088930
0.351690 0.520256 0.085023
0.394476 0.524865 0.081483
0.438575 0.529625 0.076997
0.483223 0.533989 0.072908
0.528222 0.537804 0.068696
0.572961 0.540764 0.065736
0.622034 0.546380 0.052277
0.669337 0.549981 0.032502
0.714015 0.551202 0.023865
0.756497 0.551019 0.026551
0.796902 0.549554 0.041688
0.834043 0.546532 0.063874
0.867247 0.542077 0.080446
0.896452 0.536126 0.100313
0.921477 0.529168 0.119875
0.942443 0.521263 0.140871
0.959808 0.513115 0.161990
0.973968 0.505241 0.184573
0.985290 0.498116 0.207858
0.994110 0.492164 0.232303
1.000000 0.488167 0.259281
1.000000 0.486702 0.287999
0.000000 0.559747 0.077150
0.000000 0.560174 0.077119
0.000000 0.560296 0.076509
0.000000 0.560571 0.075868
0.084749 0.561028 0.075013
0.140780 0.561913 0.074189
0.187442 0.563043 0.072755
0.231632 0.564752 0.070192
0.274296 0.567010 0.067872
0.316960 0.569543 0.065278
0.359991 0.572503 0.060975
0.403418 0.575708 0.058167
0.447120 0.578759 0.051606
0.491646 0.581720 0.045808
0.535943 0.584192 0.041718
0.580529 0.586206 0.033814
0.624811 0.587732 0.034485
0.670375 0.590295 0.024537
0.714839 0.591363 0.019440
0.757229 0.591150 0.032105
0.797269 0.589685 0.052644
0.834104 0.586358 0.072663
0.866941 0.581384 0.090608
0.895811 0.574884 0.110597
0.920470 0.567163 0.131411
0.941131 0.558495 0.152773
0.958251 0.549584 0.173831
0.972229 0.540856 0.196658
0.983368 0.532738 0.220157
0.992004 0.525811 0.244877
0.998291 0.520623 0.271763
1.000000 0.517937 0.300420
0.000000 0.611383 0.041230
0.000000 0.611536 0.038331
0.000000 0.611475 0.039033
0.000000 0.611597 0.038056
0.051057 0.611963 0.037629
0.132021 0.612390 0.034394
0.183749 0.613367 0.031647
0.230747 0.614588 0.028717
0.275456 0.616236 0.024872
0.319432 0.618128 0.020447
0.363958 0.620447 0.014130
0.408026 0.622919 0.008331
0.452277 0.625269 0.007813
0.496651 0.627405 0.007446
0.540826 0.628901 0.008759
0.584771 0.630030 0.011017
0.628351 0.630732 0.016541
0.672023 0.631373 0.020539
0.715358 0.631891 0.027985
0.757137 0.631128 0.047425
0.796536 0.629175 0.065766
0.832822 0.625299 0.082612
0.865324 0.619776 0.101015
0.893858 0.612818 0.121187
0.918395 0.604425 0.141451
0.938903 0.595087 0.163699
0.955993 0.585382 0.185183
0.969909 0.575860 0.208072
0.980987 0.566766 0.232456
0.989563 0.558892 0.257420
0.995819 0.552758 0.284215
1.000000 0.548943 0.313024
0.000000 0.660426 0.000000
0.000000 0.660792 0.000000
0.000000 0.673304 0.000000
0.000000 0.673243 0.000000
0.000000 0.673152 0.000000
0.123903 0.673121 0.000000
0.182193 0.673091 0.000000
0.233066 0.673335 0.000000
0.280522 0.673854 0.000000
0.326299 0.674739 0.000000
0.371557 0.675868 0.000000
0.416449 0.676905 0.000000
0.461128 0.677760 0.000000
0.505516 0.678553 0.000000
0.549584 0.678889 0.001312
0.593164 0.678981 0.013062
0.636530 0.678767 0.027649
0.679500 0.678401 0.039582
0.722103 0.677882 0.056367
0.763058 0.676387 0.068025
0.800931 0.672877 0.082277
0.835843 0.667659 0.099367
0.867094 0.660883 0.117311
0.894560 0.652583 0.137087
0.917906 0.642817 0.157656
0.937621 0.632288 0.178012
0.954040 0.621363 0.199069
0.967590 0.610651 0.221500
0.978485 0.600641 0.245121
0.986938 0.591699 0.270085
0.993133 0.584527 0.296971
0.997253 0.579644 0.326085
0.000000 0.708675 0.000000
0.000000 0.710201 0.000000
0.000000 0.711788 0.000000
0.000000 0.713222 0.000000
0.000000 0.714168 0.000000
0.111452 0.714534 0.000000
0.176364 0.714656 0.000000
0.229313 0.714717 0.000000
0.277684 0.715175 0.000000
0.324376 0.715602 0.000000
0.370306 0.716121 0.000000
0.415198 0.716854 0.000000
0.459754 0.717281 0.000000
0.503899 0.717525 0.008453
0.547662 0.717403 0.020264
0.590997 0.717037 0.038483
0.633814 0.716457 0.054871
0.676295 0.715785 0.063966
0.718563 0.715145 0.073335
0.760433 0.714595 0.082948
0.799802 0.712123 0.094728
0.834287 0.706569 0.111940
0.865324 0.699153 0.130526
0.892546 0.690181 0.150301
0.915709 0.679805 0.170626
0.935271 0.668360 0.191104
0.951568 0.656703 0.212772
0.964996 0.645106 0.234897
0.975799 0.634150 0.258793
0.984131 0.624292 0.284154
0.990265 0.616052 0.310887
0.994324 0.610224 0.339940
0.000000 0.749172 0.000000
0.000000 0.750546 0.000000
0.000000 0.751888 0.000000
0.000000 0.753048 0.000000
0.000000 0.753872 0.000000
0.100740 0.754116 0.000000
0.171023 0.754055 0.000000
0.225620 0.753994 0.000000
0.275059 0.754086 0.000000
0.322332 0.754269 0.000000
0.368017 0.754665 0.005982
0.413214 0.754940 0.016876
0.457649 0.754910 0.032136
0.501579 0.754818 0.048402
0.544884 0.754330 0.061799
0.587823 0.753597 0.069459
0.630182 0.752682 0.077424
0.671992 0.751675 0.086488
0.713619 0.750546 0.094606
0.754788 0.749630 0.103517
0.795590 0.748745 0.114321
0.833097 0.745632 0.127260
0.863798 0.737575 0.145541
0.890562 0.727840 0.164736
0.913451 0.716579 0.185031
0.932769 0.704250 0.205081
0.948882 0.691585 0.226658
0.962158 0.679042 0.248966
0.972839 0.667140 0.273045
0.981109 0.656336 0.297765
0.987152 0.647120 0.324804
0.991180 0.640192 0.353521
0.000000 0.786862 0.000000
0.000000 0.787991 0.000000
0.000000 0.789120 0.000000
0.000000 0.790066 0.001862
0.000000 0.790677 0.008728
0.093111 0.790860 0.015015
0.166751 0.790616 0.018311
0.222293 0.790433 0.025422
0.272374 0.790158 0.035309
0.319463 0.790005 0.050385
0.365301 0.789914 0.058930
0.410193 0.789731 0.067018
0.454200 0.789334 0.074464
0.497658 0.788876 0.080903
0.540520 0.788174 0.089052
0.583032 0.787381 0.096223
0.625208 0.786526 0.103853
0.666865 0.785641 0.112795
0.708125 0.784787 0.121553
0.749111 0.783902 0.131075
0.789578 0.783108 0.140993
0.829343 0.782223 0.152346
0.865202 0.778561 0.166201
0.891417 0.767727 0.185489
0.913634 0.755276 0.206577
0.932250 0.741939 0.227359
0.947753 0.728145 0.248692
0.960418 0.714565 0.271458
0.970611 0.701595 0.294774
0.978424 0.689815 0.320012
0.984100 0.679652 0.346471
0.987732 0.671931 0.375311
0.000000 0.824918 0.068818
0.000000 0.825345 0.069093
0.000000 0.825650 0.071351
0.000000 0.825925 0.072786
0.000000 0.825834 0.073487
0.094697 0.825589 0.076143
0.166293 0.825284 0.079957
0.221866 0.824918 0.082246
0.271550 0.824674 0.087068
0.318822 0.824399 0.090578
0.364080 0.824125 0.097383
0.408545 0.823697 0.103120
0.452094 0.823056 0.108736
0.494972 0.822202 0.114443
0.537011 0.821103 0.121279
0.578820 0.819883 0.128328
0.620020 0.818479 0.134981
0.660792 0.817075 0.143038
0.700923 0.815640 0.151431
0.740688 0.814084 0.159854
0.779690 0.812497 0.169345
0.818051 0.810849 0.179080
0.855558 0.809110 0.188876
0.889250 0.804715 0.202213
0.911009 0.791165 0.221805
0.929381 0.776822 0.243076
0.944671 0.762081 0.264439
0.957244 0.747555 0.286717
0.967315 0.733669 0.310307
0.975036 0.720821 0.335180
0.980621 0.709682 0.361608
0.984253 0.700923 0.390509
0.000000 0.854246 0.104891
0.000000 0.854582 0.105562
0.000000 0.854948 0.107118
0.000000 0.855009 0.108156
0.000000 0.854887 0.109804
0.102235 0.854551 0.111788
0.169192 0.854063 0.114473
0.222843 0.853483 0.116030
0.271214 0.852934 0.120027
0.317174 0.852354 0.124147
0.361547 0.851774 0.128908
0.404883 0.851102 0.133913
0.447395 0.850187 0.139101
0.489326 0.849058 0.144900
0.530724 0.847807 0.150698
0.571466 0.846403 0.157656
0.611780 0.844816 0.164187
0.651606 0.843137 0.172030
0.690883 0.841398 0.179599
0.729549 0.839628 0.188357
0.767422 0.837766 0.198123
0.804776 0.835782 0.207614
0.841184 0.833738 0.218204
0.876738 0.831571 0.228305
0.907683 0.825986 0.236515
0.925902 0.810636 0.257176
0.941161 0.794980 0.278386
0.953674 0.779568 0.300664
0.963684 0.764706 0.324102
0.971405 0.750881 0.349004
0.977020 0.738705 0.375311
0.980652 0.728908 0.404334
0.000000 0.881743 0.144991
0.000000 0.882048 0.146426
0.000000 0.882139 0.147311
0.000000 0.882048 0.148318
0.000000 0.881682 0.149203
0.123171 0.881132 0.150149
0.180056 0.880400 0.151980
0.228824 0.879515 0.153964
0.274754 0.878508 0.155947
0.318700 0.877470 0.158785
0.361089 0.876371 0.162844
0.402808 0.875181 0.166842
0.443793 0.873869 0.170871
0.484199 0.872313 0.176242
0.524102 0.870512 0.181582
0.563378 0.868589 0.187137
0.602197 0.866545 0.192721
0.640620 0.864439 0.199710
0.678645 0.862394 0.206973
0.716152 0.860380 0.215457
0.753048 0.858305 0.224430
0.789181 0.856077 0.233921
0.824399 0.853727 0.244053
0.858671 0.851102 0.253819
0.891814 0.848356 0.263615
0.923033 0.844602 0.274388
0.937926 0.827848 0.295354
0.950225 0.811276 0.317205
0.960082 0.795315 0.340124
0.967742 0.780453 0.364508
0.973297 0.767300 0.390875
0.976898 0.756405 0.419745
0.000000 0.901701 0.178500
0.000000 0.901915 0.179294
0.000000 0.902007 0.179995
0.000000 0.901854 0.181216
0.084993 0.901488 0.182406
0.145052 0.900938 0.183566
0.193942 0.900206 0.184817
0.237552 0.899382 0.187137
0.280278 0.898405 0.189334
0.321660 0.897398 0.192355
0.361852 0.896239 0.195895
0.402167 0.894987 0.199802
0.441413 0.893614 0.204776
0.480293 0.892027 0.209689
0.518822 0.890227 0.214420
0.556756 0.888243 0.219913
0.594324 0.886076 0.226230
0.631403 0.883909 0.232273
0.668086 0.881651 0.239567
0.704280 0.879332 0.247623
0.739712 0.876982 0.256931
0.774563 0.874510 0.265965
0.808530 0.871855 0.275273
0.841520 0.869078 0.284764
0.873564 0.866148 0.294652
0.904631 0.863096 0.304234
0.934600 0.859983 0.314519
0.946990 0.842618 0.335851
0.956603 0.825650 0.359075
0.964019 0.809812 0.383246
0.969451 0.795590 0.409674
0.972900 0.783749 0.438941
0.000000 0.918517 0.214511
0.000000 0.918578 0.215488
0.013794 0.918547 0.215457
0.089570 0.918273 0.216007
0.133089 0.917815 0.216861
0.173281 0.917205 0.217624
0.212589 0.916411 0.218997
0.251255 0.915526 0.220768
0.289555 0.914519 0.222751
0.327367 0.913451 0.226017
0.365393 0.912261 0.228794
0.403174 0.910948 0.233494
0.440620 0.909514 0.237797
0.477729 0.907836 0.242466
0.514427 0.905943 0.247532
0.550835 0.903899 0.252201
0.586694 0.901671 0.258091
0.622248 0.899321 0.264164
0.657435 0.896941 0.271214
0.692134 0.894499 0.279057
0.726284 0.891966 0.287175
0.759731 0.889281 0.296361
0.792416 0.886503 0.305241
0.824155 0.883604 0.314672
0.854917 0.880552 0.324193
0.884825 0.877379 0.333837
0.913634 0.874205 0.343633
0.941527 0.870970 0.353735
0.952789 0.854551 0.375402
0.960143 0.837644 0.399847
0.965515 0.822324 0.425940
0.968872 0.809384 0.455085
0.106172 0.931334 0.248997
0.115938 0.931334 0.249302
0.127840 0.931273 0.249607
0.147768 0.931029 0.250095
0.175082 0.930632 0.251377
0.205356 0.930144 0.252354
0.237797 0.929564 0.254490
0.271427 0.928893 0.257511
0.306188 0.928099 0.261112
0.341100 0.927214 0.265080
0.376257 0.926207 0.269139
0.411658 0.925017 0.274571
0.446906 0.923613 0.279667
0.481910 0.922026 0.284764
0.516503 0.920165 0.290349
0.550866 0.918059 0.295537
0.584741 0.915801 0.301152
0.618341 0.913390 0.307164
0.651698 0.910887 0.313848
0.684596 0.908263 0.321080
0.716884 0.905577 0.329229
0.748623 0.902770 0.337438
0.779599 0.899809 0.346075
0.809689 0.896757 0.355016
0.838926 0.893584 0.364599
0.867247 0.890349 0.373602
0.894560 0.887083 0.383520
0.920958 0.883787 0.393469
0.946227 0.880491 0.403967
0.956359 0.865415 0.425635
0.961334 0.849088 0.451728
0.964355 0.835172 0.480903
0.184909 0.942260 0.291325
0.189914 0.942199 0.291508
0.196048 0.942077 0.292058
0.208072 0.941833 0.292363
0.225864 0.941375 0.292973
0.247654 0.940826 0.294194
0.272435 0.940154 0.295537
0.299657 0.939300 0.297429
0.328588 0.938384 0.299931
0.359014 0.937285 0.302861
0.390143 0.936034 0.306676
0.421790 0.934630 0.310613
0.453834 0.933104 0.314794
0.485969 0.931365 0.319615
0.518181 0.929412 0.324254
0.550195 0.927306 0.329412
