其他预设/【232】美食博客调色预设124款/1.3D LUT预设（视频调色-PR-AE-PS-FCPX-达芬奇用）/Food Art #40.cube
# Created by Adobe Lightroom plugin Export LUT (1.17.0)
# www.johnrellis.com/lightroom/exportlut.htm
# Preset: Food Art #40
# Color profile: /Library/Application Support/Adobe/Color/Profiles/Recommended/AdobeRGB1998.icc
LUT_3D_SIZE 5
DOMAIN_MIN 0.000000 0.000000 0.000000
DOMAIN_MAX 0.903226 0.903226 0.903226
0.122713 0.133150 0.268498
0.278752 0.141695 0.297673
0.548058 0.165408 0.352392
0.812345 0.307683 0.421607
0.980713 0.481880 0.522972
0.159915 0.283665 0.320806
0.300450 0.293492 0.337133
0.557885 0.316533 0.377935
0.812711 0.418280 0.436927
0.980713 0.540856 0.542046
0.273259 0.569299 0.406195
0.376806 0.574823 0.413672
0.618189 0.600885 0.442573
0.823911 0.625605 0.489967
0.973754 0.674861 0.595789
0.462135 0.803861 0.509972
0.525444 0.804044 0.516838
0.676448 0.805600 0.540642
0.837644 0.812711 0.584436
0.968170 0.832090 0.685695
0.689265 0.954803 0.691310
0.712001 0.954345 0.697017
0.777829 0.951904 0.713436
0.873869 0.954467 0.751461
0.966857 0.960296 0.799069
0.092317 0.140444 0.387701
0.266819 0.157321 0.400916
0.538140 0.216007 0.437964
0.797574 0.332067 0.489204
0.970459 0.502037 0.574212
0.168643 0.279423 0.412024
0.304295 0.297917 0.425727
0.552605 0.336248 0.453315
0.800351 0.428626 0.499489
0.969390 0.553765 0.588281
0.286900 0.564599 0.466560
0.388434 0.570275 0.475288
0.606439 0.589746 0.495918
0.812863 0.622705 0.539574
0.967071 0.684260 0.638056
0.475776 0.800137 0.556756
0.539727 0.800046 0.566552
0.681056 0.802152 0.587640
0.834836 0.810269 0.625513
0.964294 0.834928 0.715389
0.702937 0.952056 0.719295
0.723781 0.951751 0.724117
0.789303 0.952300 0.742702
0.878080 0.954559 0.773465
0.967102 0.960723 0.815091
0.100130 0.159792 0.560632
0.278752 0.178347 0.566247
0.546715 0.224857 0.584161
0.794339 0.349096 0.628046
0.960388 0.538964 0.687739
0.217502 0.300847 0.572869
0.328985 0.312688 0.577600
0.565332 0.348486 0.596338
0.795865 0.445655 0.635462
0.958251 0.592157 0.701961
0.315038 0.567254 0.607446
0.408423 0.573236 0.612696
0.622827 0.601984 0.638453
0.807370 0.637293 0.669917
0.955932 0.708949 0.736843
0.492042 0.793484 0.667933
0.552819 0.791562 0.673579
0.695521 0.795377 0.698756
0.832212 0.808194 0.725063
0.957214 0.840726 0.783444
0.707515 0.948119 0.771817
0.734188 0.947692 0.780056
0.801083 0.948028 0.798947
0.881376 0.951507 0.819730
0.965393 0.958984 0.850034
0.230747 0.189914 0.766598
0.357488 0.202518 0.768917
0.590295 0.255558 0.778042
0.792020 0.371466 0.789761
0.954528 0.553552 0.810910
0.292363 0.328832 0.770413
0.391455 0.337896 0.772732
0.599329 0.378180 0.780056
0.792813 0.459449 0.790951
0.951873 0.599145 0.814908
0.386664 0.583734 0.782620
0.464393 0.588617 0.784115
0.636591 0.609064 0.790158
0.803311 0.639918 0.801450
0.949767 0.713741 0.831815
0.532799 0.787106 0.808530
0.581262 0.787045 0.809201
0.701961 0.792538 0.815457
0.835599 0.811887 0.832609
0.953033 0.843900 0.859800
0.718837 0.945037 0.853666
0.741146 0.944732 0.856687
0.803464 0.945800 0.866087
0.884062 0.950011 0.880949
0.964843 0.958648 0.900328
0.372747 0.252720 0.941833
0.449165 0.270634 0.941741
0.618830 0.342931 0.941680
0.791836 0.463447 0.941588
0.947021 0.582727 0.942962
0.406897 0.378210 0.940520
0.473243 0.392279 0.940398
0.629999 0.446021 0.940246
0.796902 0.533227 0.940368
0.946502 0.624475 0.942596
0.505455 0.613550 0.937896
0.554345 0.620752 0.937224
0.675319 0.641962 0.937469
0.816007 0.678523 0.939147
0.947204 0.726894 0.943633
0.635248 0.796414 0.941863
0.664393 0.799283 0.941497
0.742336 0.807126 0.941100
0.845182 0.822171 0.942504
0.952422 0.849790 0.949523
0.751736 0.943633 0.951537
0.767575 0.943999 0.951781
0.817258 0.945953 0.953094
0.888579 0.950561 0.956420
0.966827 0.961456 0.965118
