其他预设/【232】美食博客调色预设124款/1.3D LUT预设（视频调色-PR-AE-PS-FCPX-达芬奇用）/Food Art #30.cube
# Created by Adobe Lightroom plugin Export LUT (1.17.0)
# www.johnrellis.com/lightroom/exportlut.htm
# Preset: Food Art #30
# Color profile: /Library/Application Support/Adobe/Color/Profiles/Recommended/AdobeRGB1998.icc
LUT_3D_SIZE 5
DOMAIN_MIN 0.000000 0.000000 0.000000
DOMAIN_MAX 0.903226 0.903226 0.903226
0.068879 0.132387 0.185275
0.240909 0.169192 0.228763
0.457130 0.226841 0.311345
0.701350 0.284916 0.404913
0.898131 0.364660 0.494179
0.079011 0.310246 0.268132
0.246830 0.320073 0.296635
0.462470 0.331304 0.354253
0.703761 0.362737 0.426795
0.900114 0.422431 0.507561
0.168856 0.518700 0.401495
0.276646 0.522637 0.411719
0.504112 0.539391 0.445502
0.719448 0.538811 0.482399
0.899260 0.564752 0.538750
0.302922 0.719997 0.496834
0.371160 0.721004 0.501457
0.542107 0.722499 0.515862
0.739986 0.724941 0.537957
0.904723 0.733303 0.579095
0.527764 0.878111 0.579004
0.560784 0.877531 0.581659
0.656611 0.874571 0.589929
0.789944 0.875639 0.609461
0.915587 0.880644 0.639002
0.000000 0.141787 0.379431
0.205509 0.185336 0.400610
0.442267 0.255741 0.437324
0.688746 0.304387 0.482124
0.890776 0.381109 0.533379
0.000000 0.306950 0.415869
0.222507 0.318639 0.427924
0.451942 0.342931 0.455879
0.693294 0.372869 0.492683
0.891722 0.433387 0.541009
0.166079 0.515831 0.473365
0.277256 0.519707 0.481361
0.493599 0.531884 0.498970
0.710872 0.537957 0.522972
0.895750 0.572839 0.564202
0.317418 0.717525 0.530816
0.386999 0.718196 0.536034
0.549920 0.719844 0.545983
0.740383 0.722957 0.562188
0.903441 0.735653 0.596735
0.546441 0.875731 0.596094
0.577142 0.875273 0.598413
0.671473 0.874907 0.607691
0.796170 0.875731 0.624964
0.916960 0.881102 0.652766
0.000000 0.174472 0.557488
0.171389 0.205936 0.561791
0.439887 0.261234 0.572808
0.689723 0.312230 0.584375
0.889342 0.406470 0.601831
0.000000 0.311803 0.566369
0.215640 0.322271 0.569268
0.456428 0.347112 0.578454
0.694514 0.382574 0.587610
0.890013 0.460700 0.606806
0.187564 0.514519 0.582879
0.290227 0.518639 0.584771
0.501579 0.530297 0.590631
0.712612 0.548180 0.599939
0.893706 0.590295 0.620050
0.343847 0.712520 0.596918
0.411078 0.711482 0.599359
0.574548 0.713069 0.608698
0.746120 0.720119 0.618738
0.902373 0.739620 0.643000
0.560632 0.871946 0.635584
0.596765 0.871427 0.640009
0.689113 0.871092 0.650416
0.803220 0.872923 0.664424
0.917571 0.879515 0.688075
0.085908 0.211887 0.666712
0.237522 0.230320 0.667933
0.465309 0.271336 0.672358
0.699550 0.319738 0.677913
0.893339 0.415656 0.683223
0.162509 0.321660 0.669154
0.268132 0.329107 0.670192
0.477790 0.351537 0.673610
0.703700 0.386694 0.678523
0.892607 0.464485 0.685023
0.259617 0.508751 0.674525
0.338262 0.513176 0.675319
0.521355 0.527459 0.677607
0.719692 0.546502 0.682246
0.895201 0.589593 0.693233
0.396735 0.705409 0.685786
0.451911 0.705653 0.686061
0.591852 0.708583 0.688716
0.752865 0.716518 0.695216
0.903624 0.737545 0.710933
0.584100 0.868742 0.709712
0.614099 0.868315 0.711818
0.697719 0.868711 0.718166
0.807645 0.871397 0.728786
0.919219 0.879179 0.747982
0.210300 0.246250 0.803403
0.298283 0.258579 0.803830
0.489693 0.294316 0.805509
0.701564 0.349584 0.808347
0.892638 0.433265 0.812711
0.240696 0.332708 0.803861
0.318761 0.340154 0.804257
0.500999 0.364691 0.805814
0.707362 0.409033 0.808377
0.893126 0.478737 0.812985
0.326452 0.510155 0.805966
0.385290 0.513451 0.805814
0.541955 0.527489 0.806851
0.727016 0.553613 0.809537
0.896239 0.595270 0.815640
0.471595 0.701198 0.812924
0.510063 0.702571 0.812802
0.615686 0.705623 0.813016
0.757931 0.713558 0.815213
0.904234 0.738582 0.824369
0.619959 0.865660 0.827420
0.642359 0.865782 0.827787
0.712276 0.866911 0.829831
0.812161 0.870237 0.834348
0.919280 0.879789 0.844755
