其他预设/【232】美食博客调色预设124款/1.3D LUT预设（视频调色-PR-AE-PS-FCPX-达芬奇用）/Food Art #18.cube
# Created by Adobe Lightroom plugin Export LUT (1.17.0)
# www.johnrellis.com/lightroom/exportlut.htm
# Preset: Food Art #18
# Color profile: /Library/Application Support/Adobe/Color/Profiles/Recommended/AdobeRGB1998.icc
LUT_3D_SIZE 8
DOMAIN_MIN 0.000000 0.000000 0.000000
DOMAIN_MAX 0.903226 0.903226 0.903226
0.164675 0.153323 0.136110
0.229404 0.154910 0.138003
0.339635 0.159915 0.142611
0.479072 0.164889 0.148013
0.644984 0.170260 0.153384
0.805631 0.180301 0.160372
0.932708 0.201541 0.176608
1.000000 0.238285 0.207553
0.160800 0.220523 0.129671
0.225376 0.212833 0.133211
0.341680 0.205570 0.133944
0.479011 0.209842 0.142092
0.643519 0.217227 0.147341
0.802396 0.225132 0.153750
0.929595 0.238376 0.169680
1.000000 0.264530 0.200534
0.161593 0.332647 0.122866
0.218326 0.330724 0.121645
0.331029 0.315068 0.136294
0.481086 0.324315 0.126986
0.652705 0.334173 0.119844
0.808286 0.338476 0.126497
0.934539 0.339940 0.145937
1.000000 0.345647 0.180270
0.158053 0.477821 0.100771
0.216709 0.476661 0.098848
0.344640 0.473976 0.090913
0.476997 0.457618 0.124544
0.646998 0.476722 0.108797
0.818814 0.481849 0.000000
0.936614 0.467842 0.070466
1.000000 0.453925 0.125734
0.125338 0.650416 0.000000
0.201053 0.649470 0.000000
0.346380 0.647608 0.000000
0.501427 0.640711 0.000000
0.638514 0.617700 0.065064
0.787625 0.618067 0.076692
0.928252 0.608331 0.000000
1.000000 0.577996 0.000000
0.028321 0.800992 0.000000
0.166995 0.802365 0.000000
0.328130 0.799680 0.000000
0.488441 0.795529 0.000000
0.642725 0.781827 0.000000
0.781430 0.762661 0.000000
0.906950 0.745846 0.068574
1.000000 0.717861 0.000000
0.000000 0.919188 0.000000
0.104036 0.918822 0.000000
0.292912 0.915831 0.000000
0.454200 0.911284 0.000000
0.608026 0.904540 0.000000
0.755489 0.890105 0.000000
0.888945 0.874327 0.000000
0.995361 0.848722 0.131106
0.000000 1.000000 0.000000
0.000000 1.000000 0.000000
0.235355 1.000000 0.000000
0.405890 1.000000 0.000000
0.557916 0.996033 0.000000
0.705135 0.987945 0.000000
0.845212 0.975463 0.000000
0.971130 0.961578 0.000000
0.168368 0.152682 0.199283
0.234745 0.149508 0.197055
0.338109 0.172824 0.193759
0.472786 0.185214 0.203372
0.639002 0.181125 0.205447
0.798245 0.185122 0.208988
0.926574 0.206638 0.220005
1.000000 0.247654 0.245518
0.166049 0.217807 0.194064
0.230930 0.215427 0.191958
0.336614 0.218082 0.194827
0.475013 0.220676 0.197971
0.639887 0.222293 0.199710
0.797482 0.226993 0.203098
0.924590 0.241306 0.213993
1.000000 0.271489 0.238926
0.172152 0.329412 0.181735
0.225803 0.327520 0.183108
0.333959 0.316716 0.188174
0.483589 0.324590 0.177462
0.648219 0.331548 0.177279
0.802029 0.335180 0.181735
0.927611 0.337987 0.194217
1.000000 0.348058 0.221042
0.158785 0.474098 0.164858
0.214267 0.473426 0.161440
0.342718 0.471992 0.155825
0.474464 0.454231 0.174838
0.640955 0.470527 0.162478
0.809110 0.473701 0.127718
0.929625 0.462806 0.146059
1.000000 0.452888 0.177707
0.098177 0.648585 0.108431
0.187289 0.647333 0.105562
0.339391 0.644495 0.096071
0.496559 0.636835 0.091554
0.634424 0.613214 0.139528
0.784848 0.614588 0.142977
0.925933 0.604608 0.076112
1.000000 0.575860 0.057527
0.000000 0.798367 0.000000
0.146151 0.797696 0.000000
0.318975 0.795285 0.000000
0.482795 0.791806 0.000000
0.639857 0.779721 0.000000
0.780697 0.761563 0.078981
0.906249 0.744717 0.142275
1.000000 0.716121 0.060945
0.000000 0.916442 0.000000
0.069856 0.915343 0.000000
0.284398 0.912749 0.000000
0.449470 0.908995 0.000000
0.605158 0.902983 0.000000
0.753841 0.888579 0.000000
0.887205 0.872313 0.000000
0.993347 0.846830 0.178653
0.000000 1.000000 0.000000
0.000000 1.000000 0.000000
0.227390 1.000000 0.000000
0.401953 1.000000 0.000000
0.556664 0.997253 0.000000
0.704341 0.988525 0.000000
0.844816 0.975189 0.000000
0.970642 0.960845 0.000000
0.179934 0.153109 0.309453
0.234409 0.153445 0.307744
0.353124 0.155428 0.301701
0.496010 0.150393 0.302129
0.649500 0.162509 0.308141
0.798367 0.200931 0.322057
0.924743 0.240940 0.334936
1.000000 0.301396 0.359503
0.188479 0.215000 0.304265
0.237644 0.214633 0.302525
0.349889 0.209689 0.297978
0.490517 0.206882 0.298619
0.645258 0.217166 0.306523
0.797269 0.237278 0.317845
0.923613 0.266911 0.329564
1.000000 0.317754 0.354131
0.184939 0.328313 0.295476
0.232334 0.326848 0.294255
0.344121 0.322423 0.290532
0.483619 0.324956 0.293431
0.649805 0.328679 0.297368
0.802396 0.334844 0.302495
0.925566 0.348791 0.314549
1.000000 0.375891 0.338506
0.163821 0.473732 0.290623
0.213626 0.473671 0.287877
0.334264 0.473701 0.276402
0.483986 0.461280 0.283024
0.657710 0.471839 0.271977
0.810117 0.468299 0.271275
0.929076 0.464210 0.284550
1.000000 0.465888 0.307958
0.092195 0.647181 0.276432
0.168704 0.647181 0.269718
0.316899 0.646296 0.249851
0.491524 0.642664 0.242496
0.642267 0.619471 0.266453
0.794064 0.617731 0.266056
0.929564 0.600885 0.236881
1.000000 0.577966 0.252476
0.000000 0.797818 0.239261
0.101076 0.797665 0.230900
0.294621 0.795560 0.214206
0.471656 0.791135 0.205570
0.637018 0.780606 0.209720
0.782010 0.761807 0.248966
0.907713 0.745144 0.273289
1.000000 0.715602 0.238041
0.000000 0.916991 0.183932
0.000000 0.916228 0.176242
0.266545 0.913359 0.165530
0.440650 0.908812 0.152865
0.600427 0.902434 0.131472
0.753628 0.889128 0.174472
0.889158 0.873442 0.239536
0.994141 0.849027 0.301854
0.000000 1.000000 0.053254
0.000000 1.000000 0.023987
0.212253 1.000000 0.000000
0.395392 1.000000 0.000000
0.552331 0.997040 0.000000
0.701503 0.989075 0.000000
0.845518 0.975372 0.104219
0.971466 0.961120 0.233494
0.197024 0.152834 0.457923
0.249210 0.152865 0.457038
0.369390 0.147158 0.452216
0.508385 0.124514 0.445411
0.678737 0.000000 0.452003
0.815518 0.089235 0.442603
0.926238 0.226169 0.448890
1.000000 0.373236 0.491859
0.197787 0.213199 0.455024
0.247135 0.211185 0.454108
0.366064 0.202487 0.450141
0.507012 0.183230 0.444068
0.678065 0.124788 0.448707
0.812619 0.177462 0.440986
0.923491 0.273320 0.451606
1.000000 0.405798 0.499977
0.183383 0.335515 0.447150
0.229160 0.331487 0.446113
0.348943 0.319280 0.443000
0.502098 0.308324 0.438209
0.669368 0.301030 0.438544
0.806638 0.337133 0.444312
0.918242 0.406897 0.473823
1.000000 0.463508 0.503380
0.161349 0.477394 0.437507
0.211307 0.476570 0.436805
0.334966 0.473548 0.434333
0.495766 0.468452 0.429755
0.656458 0.472541 0.434333
0.801816 0.479866 0.441199
0.919646 0.494148 0.454475
1.000000 0.518853 0.477699
0.075624 0.646784 0.436866
0.162844 0.646052 0.434150
0.312566 0.644831 0.425422
0.484840 0.642359 0.415106
0.651759 0.626184 0.423651
0.805295 0.621698 0.417456
0.925628 0.607385 0.417334
1.000000 0.602075 0.436591
0.000000 0.798154 0.414252
0.097963 0.799252 0.411810
0.291447 0.796750 0.402533
0.470192 0.792233 0.396033
0.638788 0.785580 0.389197
0.787442 0.765560 0.417487
0.910094 0.749538 0.427436
1.000000 0.718868 0.397009
0.000000 0.915801 0.375311
0.000000 0.915404 0.373205
0.271672 0.913298 0.369451
0.450599 0.908690 0.371374
0.605982 0.902525 0.362432
0.757900 0.890806 0.372351
0.891203 0.874296 0.415167
0.991852 0.852140 0.449958
0.000000 1.000000 0.323339
0.000000 1.000000 0.322454
0.232975 1.000000 0.324010
0.413947 1.000000 0.327855
0.561364 0.995453 0.314336
0.704219 0.988495 0.294560
0.848997 0.974945 0.343084
0.972045 0.960815 0.413428
0.211856 0.148348 0.630182
0.261387 0.145785 0.629480
0.382391 0.132265 0.625971
0.526299 0.090761 0.621057
0.680537 0.000000 0.616358
0.827817 0.000000 0.600885
0.937346 0.028077 0.573754
1.000000 0.291173 0.572900
0.203494 0.206149 0.627924
0.254063 0.203433 0.627802
0.377081 0.191257 0.624720
0.522942 0.164828 0.619409
0.679133 0.110018 0.614893
0.827115 0.000000 0.599207
0.935790 0.166842 0.573907
1.000000 0.331456 0.577142
0.156893 0.329259 0.622309
0.211734 0.323033 0.621637
0.352911 0.314061 0.618799
0.511986 0.301335 0.615503
0.674342 0.282231 0.609674
0.822843 0.267124 0.592340
0.928832 0.334722 0.576837
1.000000 0.444648 0.594598
0.122560 0.485420 0.614588
0.189425 0.482673 0.613794
0.329900 0.474098 0.611810
0.497078 0.464393 0.607965
0.668055 0.456123 0.602228
0.812619 0.462715 0.588556
0.915557 0.515740 0.596643
0.994293 0.587701 0.632013
0.000000 0.643183 0.603449
0.148348 0.642695 0.602777
0.310979 0.640101 0.600519
0.485298 0.635920 0.596643
0.658106 0.629786 0.590753
0.796139 0.634791 0.595941
0.907652 0.644709 0.605646
0.994690 0.661677 0.622553
0.000000 0.792630 0.581872
0.079561 0.792172 0.580652
0.289799 0.789578 0.576135
0.471412 0.784817 0.572625
0.643946 0.778012 0.574517
0.789273 0.765743 0.585962
0.909483 0.755947 0.583948
1.000000 0.738827 0.579431
0.000000 0.912840 0.543938
0.000000 0.912047 0.542840
0.277928 0.909331 0.540917
0.463020 0.903990 0.545495
0.630976 0.896330 0.559655
0.765957 0.889494 0.553613
0.891173 0.873350 0.584161
0.986664 0.856443 0.595605
0.000000 1.000000 0.493385
0.000000 1.000000 0.493172
0.244022 1.000000 0.494545
0.440711 0.997101 0.508934
0.605097 0.989197 0.530938
0.727169 0.983398 0.518517
0.857359 0.972564 0.533593
0.970977 0.959167 0.583062
0.217502 0.144503 0.778988
0.263096 0.141573 0.778500
0.377447 0.126772 0.776059
0.517388 0.085756 0.773739
0.666163 0.000000 0.770413
0.818723 0.000000 0.765286
0.936645 0.000000 0.728298
1.000000 0.088838 0.687098
0.208896 0.199771 0.776211
0.255650 0.196811 0.775570
0.372107 0.185519 0.773800
0.513481 0.161593 0.771725
0.663539 0.116182 0.768246
0.816983 0.000000 0.763546
0.935424 0.000000 0.727047
1.000000 0.182986 0.687800
0.162783 0.317906 0.773861
0.222110 0.316289 0.773404
0.353857 0.310521 0.772061
0.504051 0.300206 0.769650
0.658778 0.285527 0.765805
0.814572 0.267582 0.760830
0.932647 0.277226 0.725216
1.000000 0.348363 0.693843
0.124697 0.471107 0.769497
0.194583 0.469123 0.768704
0.338811 0.465370 0.767117
0.498756 0.463844 0.765713
0.656489 0.459449 0.762509
0.811398 0.454505 0.757351
0.927306 0.463050 0.726253
1.000000 0.524254 0.711330
0.018067 0.626062 0.760372
0.159182 0.625238 0.760037
0.322179 0.622980 0.758663
0.495155 0.624018 0.756069
0.656733 0.627344 0.752224
0.802274 0.623224 0.747585
0.913603 0.633997 0.729641
0.989654 0.682063 0.739620
0.000000 0.781582 0.749508
0.085176 0.781643 0.749630
0.297856 0.780270 0.748348
0.480385 0.777646 0.745907
0.647974 0.773892 0.742184
0.793820 0.770382 0.738460
0.897887 0.776364 0.744656
0.981476 0.785855 0.754452
0.000000 0.910735 0.714382
0.007416 0.910277 0.714107
0.290257 0.907347 0.712520
0.473915 0.901488 0.712795
0.642084 0.893065 0.717525
0.784573 0.884794 0.728573
0.891936 0.874632 0.736782
0.982605 0.865812 0.733547
0.000000 1.000000 0.657679
0.000000 1.000000 0.657588
0.262974 0.999023 0.658473
0.452430 0.993439 0.665980
0.626551 0.984436 0.685908
0.768826 0.975280 0.711147
0.870665 0.969940 0.705745
0.969207 0.958160 0.734737
0.217044 0.145998 0.891905
0.257542 0.143191 0.891905
0.362188 0.132448 0.890990
0.491920 0.106111 0.889555
0.630884 0.014527 0.887205
0.773434 0.000000 0.884031
0.916838 0.000000 0.880308
1.000000 0.000000 0.832731
0.211612 0.196841 0.890349
0.252995 0.194553 0.890349
0.358618 0.186435 0.889555
0.489357 0.169619 0.887938
0.628992 0.143038 0.885557
0.771939 0.102724 0.882383
0.915343 0.000000 0.878477
1.000000 0.115389 0.831449
0.193027 0.312840 0.889128
0.238407 0.311620 0.888823
0.350408 0.307713 0.887816
0.485054 0.301396 0.886229
0.626917 0.292821 0.883665
0.770657 0.283940 0.880552
0.913817 0.277745 0.877073
1.000000 0.301488 0.832090
0.190097 0.455543 0.886076
0.241184 0.456580 0.885496
0.361730 0.460456 0.884154
0.493141 0.459297 0.882658
0.631830 0.457923 0.880247
0.772213 0.457801 0.877348
0.910613 0.459388 0.874052
1.000000 0.472267 0.834043
0.159731 0.596277 0.880247
0.218753 0.596704 0.879728
0.354314 0.600244 0.878386
0.512749 0.613581 0.876158
0.650080 0.622095 0.873625
0.776944 0.621759 0.870848
0.904265 0.622553 0.867704
0.996307 0.631403 0.838407
0.098207 0.739925 0.873564
0.183261 0.740078 0.873320
0.336370 0.741299 0.872374
0.500694 0.746151 0.870634
0.657343 0.756069 0.868009
0.788907 0.767117 0.865171
0.898558 0.766110 0.862333
0.984283 0.773739 0.848142
0.000000 0.886351 0.866148
0.116670 0.886168 0.866117
0.310155 0.885344 0.865293
0.483833 0.883848 0.863951
0.646418 0.881559 0.861631
0.783871 0.879118 0.858885
0.892027 0.876768 0.856016
0.971283 0.881590 0.861021
0.000000 0.998718 0.822812
0.000000 0.997955 0.822538
0.282841 0.995392 0.822629
0.467048 0.989563 0.823819
0.635828 0.980804 0.829038
0.776150 0.971954 0.838193
0.884306 0.965576 0.848112
0.967132 0.958251 0.855192
0.211978 0.150576 0.983307
0.248051 0.148592 0.983246
0.342870 0.141054 0.982574
0.462654 0.125216 0.981750
0.591730 0.096742 0.980438
0.724483 0.034211 0.978668
0.858305 0.000000 0.976593
0.991028 0.000000 0.973907
0.210544 0.196963 0.982574
0.246525 0.195468 0.982544
0.341802 0.189761 0.981964
0.462013 0.179538 0.981018
0.591363 0.165133 0.979736
0.724239 0.147585 0.977966
0.857877 0.131716 0.975769
0.990265 0.123415 0.973053
0.212009 0.308476 0.981079
0.248051 0.307988 0.980957
0.343328 0.305669 0.980255
0.464118 0.302983 0.979675
0.593469 0.299229 0.978241
0.725612 0.295720 0.976257
0.857939 0.294987 0.974029
0.988403 0.298009 0.971374
0.262272 0.454292 0.978210
0.291417 0.454475 0.978119
0.373663 0.454231 0.977478
0.484871 0.454688 0.976593
0.607507 0.455818 0.975189
0.733883 0.457862 0.973297
0.860563 0.461616 0.971099
0.985260 0.465858 0.968597
0.249149 0.575982 0.974853
0.290349 0.578943 0.974640
0.400885 0.590997 0.973449
0.538415 0.615534 0.971405
0.641169 0.616236 0.970062
0.752255 0.617884 0.968292
0.866514 0.621302 0.966369
0.980377 0.626734 0.964294
0.214542 0.701259 0.970764
0.260594 0.702632 0.970428
0.379553 0.708858 0.969329
0.523186 0.722560 0.967468
0.668452 0.746639 0.964874
0.780362 0.761440 0.963073
0.876982 0.763546 0.961944
0.975586 0.765866 0.960479
0.149966 0.831846 0.966217
0.213077 0.832334 0.965942
0.350561 0.834531 0.965087
0.505425 0.840238 0.963653
0.657527 0.850889 0.961547
0.786252 0.863951 0.959442
0.886381 0.874144 0.958068
0.970459 0.873381 0.956146
0.000000 0.967468 0.960967
0.102235 0.967254 0.960754
0.305699 0.966583 0.960143
0.481544 0.965454 0.959106
0.643427 0.964019 0.957580
0.776822 0.962554 0.955932
0.882078 0.961334 0.954223
0.965606 0.959899 0.952087
