其他预设/【232】美食博客调色预设124款/1.3D LUT预设（视频调色-PR-AE-PS-FCPX-达芬奇用）/Food Art #20.cube
# Created by Adobe Lightroom plugin Export LUT (1.17.0)
# www.johnrellis.com/lightroom/exportlut.htm
# Preset: Food Art #20
# Color profile: /Library/Application Support/Adobe/Color/Profiles/Recommended/AdobeRGB1998.icc
LUT_3D_SIZE 5
DOMAIN_MIN 0.000000 0.000000 0.000000
DOMAIN_MAX 0.903226 0.903226 0.903226
0.000000 0.000000 0.185428
0.101259 0.055451 0.203372
0.338231 0.000000 0.222324
0.683772 0.000000 0.257267
0.971130 0.000000 0.291875
0.000000 0.145632 0.210056
0.092470 0.147982 0.214328
0.329870 0.161868 0.233371
0.680140 0.150851 0.260716
0.971954 0.242100 0.291966
0.000000 0.366094 0.245304
0.070588 0.370764 0.247105
0.338415 0.390692 0.252598
0.679133 0.443793 0.261692
0.963531 0.507073 0.284337
0.000000 0.704524 0.254093
0.000000 0.708553 0.254002
0.399512 0.716030 0.252750
0.694545 0.720546 0.248203
0.956481 0.753262 0.271214
0.098390 0.961883 0.276829
0.254154 0.960815 0.277256
0.497841 0.953979 0.277043
0.754665 0.946471 0.283116
0.957855 0.941375 0.297276
0.000000 0.044770 0.284855
0.042573 0.063661 0.280766
0.301823 0.072328 0.301274
0.644831 0.000000 0.323705
0.958984 0.117342 0.345495
0.000000 0.140291 0.280980
0.062348 0.151369 0.288548
0.297185 0.171054 0.304540
0.646326 0.174594 0.323064
0.958495 0.268315 0.343786
0.000000 0.352819 0.302464
0.079713 0.349493 0.306340
0.313725 0.364843 0.308324
0.652583 0.430823 0.316991
0.956390 0.514824 0.336187
0.000000 0.692317 0.306523
0.073579 0.692622 0.308476
0.400885 0.701595 0.306645
0.685512 0.709010 0.302068
0.952453 0.753262 0.324376
0.202274 0.956970 0.328588
0.304784 0.955901 0.328923
0.527031 0.952148 0.331334
0.765621 0.944518 0.336919
0.959014 0.940642 0.351110
0.000000 0.070680 0.409644
0.087312 0.079622 0.405524
0.322240 0.068910 0.398444
0.657465 0.000000 0.422522
0.955230 0.232609 0.451148
0.000000 0.175814 0.398505
0.104128 0.179690 0.396277
0.317540 0.181155 0.395270
0.649958 0.196841 0.420630
0.951812 0.351476 0.454231
0.000000 0.357397 0.395087
0.110811 0.357336 0.393500
0.375402 0.408484 0.409949
0.654627 0.441169 0.418097
0.947387 0.556847 0.454047
0.000000 0.682002 0.406989
0.149020 0.677363 0.406775
0.427070 0.683040 0.411109
0.684657 0.695338 0.411200
0.945800 0.760342 0.448524
0.268040 0.950988 0.430030
0.377722 0.947906 0.437324
0.592645 0.939879 0.454719
0.788449 0.935210 0.460761
0.957946 0.935332 0.474281
0.000000 0.109895 0.574853
0.204623 0.108339 0.572625
0.446509 0.069245 0.567254
0.698207 0.000000 0.558495
0.962615 0.268559 0.592767
0.092561 0.223117 0.563867
0.219730 0.224155 0.562737
0.444617 0.219883 0.559014
0.690455 0.203708 0.552361
0.957733 0.370947 0.591852
0.113039 0.438941 0.554498
0.236118 0.440833 0.550744
0.452491 0.449042 0.546105
0.685786 0.451759 0.543175
0.948821 0.582910 0.594354
0.100069 0.692988 0.547173
0.241764 0.689693 0.544152
0.472236 0.690639 0.542290
0.745968 0.731868 0.568933
0.944793 0.779416 0.606928
0.352422 0.944640 0.585077
0.434272 0.941650 0.587640
0.624872 0.933928 0.598199
0.813260 0.927855 0.618799
0.955657 0.931304 0.633875
0.222599 0.196841 0.831785
0.321569 0.199100 0.830961
0.540215 0.205386 0.828946
0.774014 0.236332 0.825315
0.958923 0.330388 0.821775
0.267613 0.309422 0.826322
0.351324 0.312444 0.825681
0.553277 0.322850 0.824033
0.776089 0.349767 0.820371
0.955688 0.417029 0.818112
0.355230 0.544366 0.817288
0.432868 0.554772 0.814633
0.596124 0.563653 0.812528
0.784787 0.575799 0.810605
0.948425 0.608911 0.812863
0.392218 0.763210 0.818296
0.461158 0.765011 0.815915
0.629755 0.771267 0.811063
0.802792 0.781674 0.809567
0.944518 0.795254 0.817777
0.466224 0.942840 0.829404
0.522087 0.940612 0.828214
0.667811 0.934813 0.826535
0.821042 0.929381 0.826535
0.953429 0.938293 0.850980
