其他预设/【232】美食博客调色预设124款/1.3D LUT预设（视频调色-PR-AE-PS-FCPX-达芬奇用）/Food Art #35.cube
# Created by Adobe Lightroom plugin Export LUT (1.17.0)
# www.johnrellis.com/lightroom/exportlut.htm
# Preset: Food Art #35
# Color profile: /Library/Application Support/Adobe/Color/Profiles/Recommended/AdobeRGB1998.icc
LUT_3D_SIZE 5
DOMAIN_MIN 0.000000 0.000000 0.000000
DOMAIN_MAX 0.903226 0.903226 0.903226
0.258152 0.240482 0.213809
0.238743 0.234165 0.207065
0.384771 0.217533 0.194430
0.592248 0.197635 0.178714
0.828122 0.216617 0.195163
0.247044 0.227543 0.204562
0.250706 0.233860 0.200900
0.395544 0.257206 0.186282
0.597589 0.260349 0.176761
0.827298 0.286076 0.198032
0.224094 0.386175 0.176455
0.277287 0.390631 0.175265
0.414282 0.394049 0.173739
0.604547 0.411994 0.179324
0.839445 0.452338 0.215183
0.246799 0.586542 0.180911
0.304082 0.586938 0.182467
0.447272 0.590265 0.189303
0.622797 0.597955 0.203922
0.852964 0.646998 0.250523
0.338994 0.839109 0.251316
0.389044 0.841367 0.254887
0.529534 0.852689 0.271489
0.706447 0.862913 0.295262
0.899870 0.880980 0.334203
0.251743 0.234257 0.203433
0.248051 0.224247 0.205539
0.396033 0.189975 0.220066
0.600793 0.188907 0.230564
0.835782 0.228489 0.263310
0.235874 0.234043 0.207980
0.254795 0.237339 0.211063
0.402258 0.244694 0.218357
0.603418 0.259403 0.232731
0.837522 0.297490 0.267033
0.219730 0.390112 0.222873
0.273381 0.392584 0.220890
0.420905 0.399054 0.225071
0.609949 0.416480 0.241947
0.843381 0.459052 0.281041
0.254520 0.586633 0.241520
0.312016 0.586358 0.244877
0.451820 0.590051 0.251957
0.624537 0.598505 0.265873
0.855406 0.650782 0.310430
0.351049 0.839048 0.309545
0.398932 0.841398 0.312871
0.531640 0.847929 0.323766
0.707057 0.860655 0.344976
0.899229 0.879820 0.375921
0.245914 0.218723 0.347478
0.283482 0.205722 0.347631
0.411383 0.185977 0.350011
0.606165 0.194064 0.370703
0.842344 0.247471 0.413031
0.217319 0.246372 0.346319
0.271153 0.244114 0.347601
0.415015 0.245212 0.352422
0.607630 0.268803 0.374151
0.842618 0.314672 0.416602
0.226200 0.396246 0.356298
0.283909 0.397681 0.357916
0.440620 0.412665 0.372320
0.612848 0.429084 0.388556
0.849577 0.469184 0.426368
0.272618 0.590082 0.380102
0.331670 0.590845 0.384070
0.472999 0.592340 0.397314
0.629938 0.600549 0.407019
0.864805 0.657771 0.443549
0.368505 0.844938 0.446448
0.414527 0.845274 0.448707
0.531518 0.851102 0.446174
0.708217 0.865110 0.459236
0.904753 0.884764 0.481239
0.246708 0.199008 0.541253
0.300847 0.193454 0.540978
0.444038 0.188815 0.541497
0.619440 0.204593 0.544610
0.858610 0.258244 0.598749
0.238712 0.256443 0.540612
0.299413 0.257359 0.541100
0.447272 0.262760 0.542535
0.621729 0.279881 0.546441
0.861692 0.326268 0.602899
0.263249 0.419196 0.545342
0.324041 0.421973 0.545312
0.467720 0.432227 0.546960
0.630457 0.443549 0.553613
0.869200 0.463600 0.604334
0.305180 0.599542 0.553063
0.359106 0.600549 0.554101
0.488930 0.603326 0.557336
0.652430 0.619409 0.573999
0.883177 0.648096 0.602960
0.383978 0.850004 0.621668
0.423682 0.851743 0.622553
0.528771 0.858335 0.620142
0.694301 0.871611 0.615564
0.910246 0.890043 0.637537
0.266545 0.205142 0.829435
0.334112 0.206424 0.830076
0.498756 0.215549 0.831571
0.693782 0.242344 0.835172
0.892149 0.286320 0.841672
0.272221 0.287694 0.831357
0.339727 0.290135 0.831998
0.503685 0.299413 0.833616
0.697505 0.320378 0.838102
0.894469 0.348119 0.844785
0.304540 0.472969 0.836240
0.363226 0.473335 0.836454
0.514519 0.475685 0.839261
0.701350 0.478706 0.845365
0.899809 0.481209 0.852110
0.350530 0.678737 0.848539
0.395605 0.678248 0.849668
0.512016 0.670039 0.851774
0.690669 0.658869 0.855344
0.907195 0.666407 0.863218
0.396704 0.892576 0.869749
0.433051 0.893462 0.870909
0.542290 0.893797 0.871519
0.709224 0.896941 0.875486
0.925353 0.911040 0.891569
