其他预设/【232】美食博客调色预设124款/1.3D LUT预设（视频调色-PR-AE-PS-FCPX-达芬奇用）/Food Art #31.cube
# Created by Adobe Lightroom plugin Export LUT (1.17.0)
# www.johnrellis.com/lightroom/exportlut.htm
# Preset: Food Art #31
# Color profile: /Library/Application Support/Adobe/Color/Profiles/Recommended/AdobeRGB1998.icc
LUT_3D_SIZE 8
DOMAIN_MIN 0.000000 0.000000 0.000000
DOMAIN_MAX 0.903226 0.903226 0.903226
0.206363 0.176791 0.124086
0.225864 0.173587 0.123476
0.291325 0.170779 0.119600
0.417639 0.163333 0.112154
0.563989 0.151797 0.097108
0.690974 0.140352 0.072999
0.792538 0.132692 0.023560
0.880552 0.129152 0.000000
0.204074 0.197269 0.121401
0.225986 0.196323 0.120394
0.293248 0.195163 0.117861
0.420539 0.196567 0.109743
0.566491 0.192599 0.092042
0.692439 0.184695 0.065766
0.793362 0.177005 0.005982
0.880888 0.171695 0.000000
0.206729 0.265782 0.115297
0.230045 0.266331 0.114687
0.299687 0.268132 0.111513
0.423560 0.283513 0.097505
0.567529 0.291844 0.071107
0.691402 0.287785 0.009003
0.791409 0.277745 0.000000
0.879240 0.268376 0.000000
0.202457 0.397406 0.084535
0.234073 0.398322 0.082338
0.320806 0.400122 0.074189
0.432258 0.400885 0.056306
0.566369 0.410925 0.000000
0.689082 0.407843 0.000000
0.789761 0.394873 0.000000
0.877806 0.380926 0.000000
0.189700 0.545403 0.000000
0.228061 0.545434 0.000000
0.325750 0.545098 0.000000
0.444129 0.543908 0.000000
0.568780 0.542870 0.000000
0.688350 0.536156 0.000000
0.788113 0.518090 0.000000
0.875669 0.498939 0.000000
0.180636 0.669703 0.000000
0.220249 0.668757 0.000000
0.318090 0.667475 0.000000
0.435187 0.665278 0.000000
0.556573 0.662348 0.000000
0.677821 0.658564 0.000000
0.784390 0.642695 0.000000
0.872374 0.618524 0.000000
0.186282 0.770047 0.000000
0.221439 0.769558 0.000000
0.311925 0.768399 0.000000
0.422248 0.766232 0.000000
0.537774 0.763302 0.000000
0.653773 0.759518 0.000000
0.768887 0.755123 0.000000
0.869383 0.738857 0.000000
0.209232 0.856962 0.000000
0.237430 0.856657 0.000000
0.314885 0.855558 0.000000
0.414618 0.853544 0.000000
0.522637 0.851652 0.000000
0.632258 0.848661 0.000000
0.741329 0.844511 0.000000
0.849241 0.839719 0.000000
0.205417 0.176516 0.141787
0.227756 0.173648 0.141421
0.295171 0.171084 0.141054
0.423346 0.149660 0.134218
0.569116 0.127169 0.121950
0.694606 0.112764 0.105898
0.794888 0.109987 0.089723
0.882017 0.114839 0.073976
0.206912 0.196841 0.140841
0.228153 0.196414 0.140444
0.296544 0.193912 0.138552
0.424811 0.186435 0.131624
0.570275 0.176028 0.118410
0.695033 0.167239 0.101961
0.795377 0.162600 0.085359
0.882322 0.162509 0.070375
0.208225 0.267002 0.137728
0.228519 0.267826 0.134615
0.301854 0.268986 0.131746
0.427924 0.280552 0.121279
0.571252 0.284916 0.104128
0.694240 0.279759 0.085512
0.793973 0.271336 0.067964
0.880858 0.264286 0.048554
0.194644 0.400427 0.116945
0.224216 0.401282 0.110231
0.317967 0.402167 0.105104
0.435309 0.403204 0.094423
0.571221 0.411017 0.068757
0.692744 0.405646 0.021332
0.792294 0.392554 0.000000
0.879240 0.379614 0.000000
0.172000 0.547112 0.029419
0.215183 0.547204 0.022431
0.320012 0.546807 0.000000
0.443366 0.545861 0.000000
0.571069 0.544701 0.000000
0.690364 0.536156 0.000000
0.789487 0.517510 0.000000
0.876493 0.498878 0.000000
0.169406 0.670985 0.000000
0.212009 0.670558 0.000000
0.314519 0.669123 0.000000
0.434089 0.666560 0.000000
0.556909 0.663203 0.000000
0.678706 0.658991 0.000000
0.785061 0.642695 0.000000
0.872801 0.618921 0.000000
0.186526 0.770962 0.000000
0.221897 0.770718 0.000000
0.312566 0.769436 0.000000
0.423072 0.766964 0.000000
0.538689 0.763790 0.000000
0.654719 0.760006 0.000000
0.769802 0.755734 0.000000
0.869871 0.739437 0.000000
0.216770 0.857145 0.000000
0.243870 0.856779 0.000000
0.319402 0.855650 0.000000
0.417700 0.853605 0.000000
0.524315 0.851102 0.000000
0.633478 0.848356 0.000000
0.742184 0.844480 0.000000
0.849668 0.839841 0.000000
0.212833 0.173617 0.207889
0.236362 0.172824 0.207675
0.303746 0.168673 0.207553
0.430030 0.136873 0.219883
0.573999 0.053834 0.214511
0.697078 0.000000 0.200198
0.795529 0.049409 0.196048
0.881621 0.110079 0.194766
0.212345 0.197665 0.208011
0.234470 0.195285 0.208072
0.304997 0.189853 0.208072
0.432563 0.166476 0.215976
0.575769 0.125948 0.208804
0.697383 0.114443 0.199130
0.795712 0.137148 0.195590
0.881590 0.160647 0.194614
0.210849 0.270451 0.207462
0.231022 0.270329 0.207523
0.307439 0.269352 0.207004
0.436255 0.266239 0.204501
0.575860 0.262181 0.199527
0.696223 0.260166 0.195010
0.794614 0.261479 0.192813
0.880552 0.265354 0.193210
0.195163 0.401282 0.215061
0.220371 0.402228 0.210910
0.308263 0.403967 0.199252
0.438361 0.403265 0.195743
0.574945 0.404303 0.190463
0.694087 0.397742 0.187778
0.792325 0.388830 0.187930
0.878447 0.381903 0.190951
0.171542 0.547814 0.203342
0.205753 0.548119 0.197360
0.307744 0.548089 0.185061
0.440131 0.546166 0.181979
0.572503 0.544182 0.178073
0.691371 0.533593 0.177859
0.789395 0.516594 0.182345
0.875578 0.501488 0.189303
0.168521 0.671138 0.181552
0.208164 0.670832 0.178408
0.312108 0.669459 0.175601
0.434211 0.666896 0.174350
0.558221 0.663508 0.172702
0.680323 0.659236 0.170901
0.785031 0.642512 0.177096
0.871672 0.620722 0.189578
0.197269 0.770382 0.171603
0.233768 0.769924 0.174380
0.323186 0.768612 0.178470
0.430060 0.766415 0.178866
0.543267 0.763363 0.179385
0.657343 0.759548 0.180880
0.770352 0.755276 0.183597
0.868162 0.739315 0.198032
0.244907 0.856077 0.188022
0.274235 0.855558 0.194858
0.341192 0.854520 0.195926
0.432105 0.852445 0.197086
0.533867 0.850126 0.200687
0.639521 0.847471 0.207065
0.745022 0.843717 0.213046
0.849851 0.839322 0.220462
0.224430 0.169406 0.344549
0.252598 0.166873 0.344274
0.331762 0.154513 0.344610
0.440558 0.126833 0.345373
0.578241 0.019867 0.353460
0.697841 0.000000 0.342382
0.795193 0.081117 0.332128
0.879026 0.176669 0.335912
0.213687 0.193332 0.344396
0.243473 0.190494 0.344549
0.327642 0.180026 0.345159
0.441260 0.160006 0.345953
0.578698 0.121675 0.351568
0.697841 0.110567 0.341314
0.794797 0.154910 0.333745
0.878264 0.219272 0.340337
0.198154 0.282933 0.346258
0.224277 0.278416 0.346593
0.315465 0.268254 0.347417
0.443275 0.262425 0.347112
0.579217 0.254673 0.346441
0.695949 0.260105 0.339971
0.791409 0.284428 0.341222
0.876097 0.306157 0.344610
0.188602 0.405921 0.346258
0.218479 0.405829 0.346227
0.312291 0.405127 0.346044
0.443275 0.403540 0.344976
0.577996 0.402167 0.343633
0.693263 0.402380 0.343236
0.789364 0.404364 0.344213
0.874113 0.407446 0.346380
0.169894 0.547967 0.348058
0.207675 0.548211 0.346715
0.311101 0.548089 0.343053
0.443091 0.545861 0.341894
0.574456 0.543694 0.341009
0.689662 0.534417 0.342290
0.785916 0.524346 0.345068
0.871122 0.517082 0.349401
0.175906 0.670344 0.334752
0.215671 0.669551 0.333654
0.319982 0.668147 0.334508
0.446021 0.664729 0.342870
0.563622 0.661738 0.343053
0.680934 0.658320 0.343633
0.781765 0.644312 0.347509
0.867369 0.628931 0.354314
0.210941 0.769711 0.322972
0.245853 0.769100 0.324712
0.340764 0.766812 0.333898
0.453071 0.763333 0.349462
0.556237 0.760830 0.350622
0.663111 0.757809 0.352453
0.770474 0.754513 0.355444
0.864073 0.741207 0.364965
0.259281 0.855070 0.324285
0.287724 0.854429 0.328496
0.370031 0.852110 0.345678
0.464576 0.849332 0.362951
0.555200 0.847440 0.366003
0.652247 0.845396 0.370977
0.750576 0.842130 0.374701
0.849424 0.838468 0.379248
0.228672 0.160128 0.504051
0.258427 0.156008 0.503838
0.342229 0.139345 0.504356
0.453773 0.103517 0.504662
0.578759 0.000000 0.504021
0.695491 0.000000 0.490272
0.792416 0.093355 0.470832
0.876188 0.184482 0.460761
0.214023 0.185611 0.504387
0.246586 0.182162 0.504021
0.335515 0.169833 0.504417
0.451728 0.147158 0.505150
0.578820 0.116243 0.504143
0.695186 0.113375 0.489815
0.791775 0.160952 0.471595
0.875364 0.225071 0.463447
0.176303 0.275700 0.505425
0.212467 0.270939 0.505577
0.319249 0.266178 0.506065
0.446601 0.260319 0.505211
0.578759 0.254887 0.504051
0.694087 0.263279 0.489815
0.789487 0.289769 0.476753
0.872435 0.328252 0.474372
0.170535 0.409308 0.504845
0.209659 0.407904 0.504875
0.314244 0.404364 0.504448
0.445533 0.403632 0.503410
0.577264 0.403723 0.502342
0.689998 0.411078 0.492866
0.784176 0.426703 0.489418
0.866667 0.448127 0.494209
0.164431 0.546899 0.502556
0.206851 0.546654 0.502434
0.315038 0.546014 0.502129
0.447181 0.544976 0.501305
0.575616 0.544305 0.500633
0.685023 0.544457 0.500511
0.779263 0.545220 0.500877
0.863096 0.546990 0.502312
0.183017 0.670466 0.488289
0.223728 0.670039 0.488167
0.328435 0.668269 0.488685
0.455146 0.664637 0.492714
0.575982 0.660578 0.501732
0.680781 0.658289 0.501152
0.775906 0.650660 0.502129
0.860105 0.644221 0.505364
0.226993 0.768856 0.468299
0.260410 0.768307 0.469581
0.352239 0.766110 0.475074
0.467262 0.762051 0.487831
0.577325 0.757900 0.504173
0.671931 0.756039 0.505089
0.769741 0.754177 0.506920
0.857969 0.745724 0.513695
0.278721 0.854337 0.459083
0.305638 0.853696 0.461921
0.383642 0.851438 0.472755
0.484901 0.847318 0.492256
0.583154 0.843839 0.512474
0.668605 0.842588 0.515953
0.757290 0.840360 0.517906
0.848264 0.837858 0.520348
0.225101 0.150210 0.637781
0.254124 0.146120 0.637812
0.335576 0.130709 0.638239
0.443275 0.100771 0.637995
0.562646 0.041627 0.636988
0.686976 0.000000 0.635676
0.786923 0.107179 0.611139
0.871244 0.194034 0.589380
0.212528 0.177951 0.639002
0.243778 0.175174 0.639033
0.329900 0.164828 0.639185
0.441169 0.147860 0.638453
0.562341 0.130831 0.637232
0.686976 0.123537 0.635737
0.786526 0.169619 0.611505
0.870573 0.233158 0.590906
0.183047 0.268315 0.638636
0.221805 0.267552 0.638605
0.319463 0.265446 0.638239
0.437720 0.263005 0.637324
0.561517 0.263096 0.636194
0.685878 0.267979 0.634699
0.784207 0.294255 0.612757
0.867674 0.332677 0.596490
0.183749 0.397528 0.636774
0.223362 0.397620 0.636744
0.326848 0.400336 0.636042
0.445136 0.404181 0.634577
0.564233 0.407172 0.633295
0.683131 0.412940 0.631983
0.779416 0.428565 0.616175
0.862455 0.450355 0.606928
0.190585 0.529656 0.634791
0.229831 0.529808 0.634607
0.332219 0.531273 0.633936
0.456672 0.536706 0.632593
0.574456 0.544701 0.631220
0.680934 0.547173 0.630365
0.774411 0.553552 0.623407
0.856840 0.563867 0.621332
0.202640 0.660639 0.632105
0.240543 0.660395 0.631830
0.339971 0.659846 0.631373
0.460975 0.659022 0.630640
0.577539 0.658473 0.629969
0.679072 0.658106 0.629328
0.770352 0.658198 0.629084
0.852811 0.659571 0.630274
0.243931 0.767025 0.611719
0.275334 0.766323 0.611994
0.363287 0.764126 0.613581
0.473518 0.760464 0.617334
0.581842 0.756680 0.623590
0.678553 0.754330 0.630030
0.767941 0.753780 0.631037
0.851560 0.750027 0.634852
0.299779 0.852750 0.592370
0.324559 0.852110 0.593988
0.397742 0.849973 0.599786
0.494057 0.846433 0.610163
0.592279 0.842802 0.623713
0.682307 0.840146 0.636164
0.762600 0.838743 0.637018
0.846433 0.837308 0.638300
0.219577 0.143130 0.748135
0.247105 0.140108 0.749355
0.324468 0.128969 0.748928
0.426886 0.110536 0.748135
0.540307 0.095430 0.747158
0.657557 0.099763 0.745357
0.774716 0.128603 0.742885
0.863401 0.201480 0.715846
0.210300 0.172183 0.743648
0.239384 0.170260 0.744686
0.319188 0.163394 0.744533
0.423468 0.153841 0.743709
0.537011 0.147738 0.742031
0.653285 0.151339 0.739376
0.769284 0.168429 0.736416
0.858396 0.220676 0.710231
0.201389 0.266789 0.746304
0.233249 0.266514 0.746029
0.317845 0.265568 0.744717
0.425147 0.266148 0.743496
0.538872 0.268620 0.740902
0.654566 0.276829 0.738705
0.770077 0.293828 0.737697
0.858976 0.330297 0.715602
0.228031 0.394690 0.746304
0.260472 0.396551 0.745480
0.345098 0.402258 0.743404
0.444312 0.405859 0.742885
0.551171 0.410193 0.740871
0.661311 0.419165 0.739864
0.770901 0.432197 0.739498
0.856626 0.452552 0.721248
0.233036 0.511528 0.740017
0.263462 0.511955 0.738857
0.350042 0.516136 0.736751
0.462043 0.528283 0.735409
0.565057 0.536980 0.734005
0.663600 0.540703 0.732753
0.764218 0.546654 0.732357
0.850584 0.560327 0.723354
0.245518 0.631067 0.735866
0.275608 0.631647 0.735653
0.360357 0.634119 0.735042
0.469032 0.640009 0.734737
0.576898 0.647791 0.733913
0.674281 0.655299 0.734585
0.765408 0.658045 0.735073
0.847501 0.662959 0.730159
0.271275 0.752010 0.735622
0.300175 0.752499 0.736172
0.379065 0.752255 0.735988
0.481178 0.752255 0.735958
0.581659 0.751125 0.734585
0.675410 0.750637 0.733791
0.764187 0.751827 0.734859
0.845182 0.753933 0.736965
0.313756 0.848234 0.717983
0.336461 0.847654 0.718318
0.410132 0.847410 0.722194
0.501823 0.844816 0.725643
0.594690 0.841611 0.729274
0.683314 0.838590 0.733425
0.766415 0.836728 0.738888
0.843656 0.836088 0.739162
0.213169 0.136507 0.828305
0.238102 0.134096 0.828733
0.308568 0.124880 0.827634
0.403815 0.111757 0.827634
0.509697 0.103212 0.827024
0.619928 0.110048 0.825895
0.731899 0.139010 0.825223
0.842100 0.177371 0.823423
0.206088 0.165042 0.826261
0.232059 0.163668 0.826719
0.305058 0.158083 0.826017
0.401831 0.151705 0.825498
0.508537 0.149783 0.824918
0.618830 0.156924 0.823758
0.730068 0.177310 0.822599
0.839841 0.206790 0.820829
0.199680 0.252720 0.824582
0.227665 0.252750 0.824643
0.303166 0.251438 0.823178
0.404181 0.255375 0.824552
0.511009 0.259190 0.823331
0.619867 0.266545 0.821317
0.729732 0.281865 0.820249
0.838132 0.302770 0.819120
0.237247 0.377630 0.822904
0.261692 0.378729 0.823178
0.328069 0.379034 0.822171
0.420874 0.383001 0.821988
0.522759 0.388678 0.821286
0.627161 0.395850 0.819913
0.732692 0.407324 0.819089
0.837247 0.422400 0.818631
0.246769 0.487617 0.819699
0.275303 0.490272 0.820035
0.350988 0.496803 0.818906
0.451575 0.510552 0.817929
0.540581 0.513054 0.816709
0.636316 0.517754 0.815518
0.735592 0.526787 0.815640
0.835599 0.540795 0.817563
0.257389 0.599207 0.816922
0.281102 0.599573 0.816220
0.351934 0.602136 0.814664
0.449042 0.608972 0.813321
0.555077 0.621820 0.812589
0.651606 0.633082 0.814359
0.744869 0.642664 0.817685
0.838437 0.654597 0.821866
0.283482 0.714321 0.817411
0.305486 0.714443 0.817014
0.371527 0.715541 0.816007
0.466377 0.719539 0.815549
0.566247 0.725399 0.815396
0.662318 0.732906 0.816373
0.754574 0.743587 0.820066
0.836301 0.745693 0.820340
0.330022 0.829862 0.822141
0.348852 0.829587 0.821805
0.409003 0.829191 0.821378
0.494942 0.829343 0.821469
0.584833 0.829435 0.821439
0.673213 0.829496 0.821256
0.757412 0.829557 0.821134
0.835691 0.829343 0.820645
