其他预设/【232】美食博客调色预设124款/1.3D LUT预设（视频调色-PR-AE-PS-FCPX-达芬奇用）/Food Art #79.cube
# Created by Adobe Lightroom plugin Export LUT (1.17.0)
# www.johnrellis.com/lightroom/exportlut.htm
# Preset: Food Art #79
# Color profile: /Library/Application Support/Adobe/Color/Profiles/Recommended/AdobeRGB1998.icc
LUT_3D_SIZE 5
DOMAIN_MIN 0.000000 0.000000 0.000000
DOMAIN_MAX 0.903226 0.903226 0.903226
0.000000 0.000000 0.000000
0.168582 0.000000 0.000000
0.392889 0.000000 0.000000
0.640345 0.000000 0.000000
0.890593 0.000000 0.000000
0.000000 0.177768 0.000000
0.167819 0.180362 0.000000
0.391455 0.181521 0.000000
0.639307 0.187320 0.000000
0.890379 0.183902 0.000000
0.000000 0.410803 0.000000
0.158785 0.412207 0.000000
0.398627 0.416266 0.000000
0.636469 0.426886 0.000000
0.888579 0.437934 0.000000
0.000000 0.658930 0.000000
0.103883 0.659449 0.000000
0.398535 0.660731 0.000000
0.636347 0.662593 0.000000
0.887205 0.677272 0.000000
0.000000 0.907988 0.000000
0.000000 0.908232 0.000000
0.383642 0.908751 0.000000
0.637751 0.910369 0.000000
0.878965 0.912016 0.000000
0.000000 0.000000 0.187747
0.174624 0.000000 0.188754
0.393744 0.000000 0.192569
0.641169 0.000000 0.185153
0.891569 0.000000 0.175418
0.000000 0.180392 0.188602
0.167910 0.179599 0.188693
0.393530 0.175021 0.187869
0.640284 0.162997 0.183108
0.891173 0.147158 0.172366
0.000000 0.410254 0.195315
0.139925 0.412696 0.186191
0.396399 0.415717 0.180392
0.637568 0.421973 0.174502
0.890013 0.428595 0.160800
0.000000 0.658595 0.191012
0.000000 0.660456 0.162325
0.389380 0.661402 0.159060
0.635492 0.662684 0.153628
0.888640 0.674861 0.135286
0.000000 0.908568 0.131411
0.000000 0.909026 0.118379
0.373846 0.909850 0.115419
0.635218 0.910979 0.110475
0.879423 0.912291 0.107149
0.000000 0.000000 0.433845
0.176089 0.000000 0.433631
0.405859 0.000000 0.433387
0.641688 0.000000 0.439612
0.893645 0.000000 0.435035
0.000000 0.181491 0.433936
0.153170 0.174838 0.434028
0.402655 0.160983 0.434180
0.641840 0.120485 0.436011
0.893858 0.000000 0.431006
0.000000 0.417792 0.433692
0.102968 0.417121 0.433906
0.390356 0.414557 0.433722
0.639094 0.413794 0.432776
0.892180 0.414313 0.430121
0.000000 0.658259 0.438636
0.000000 0.659419 0.434974
0.376654 0.661341 0.429389
0.634394 0.662226 0.429114
0.890379 0.670802 0.426429
0.000000 0.908629 0.430152
0.000000 0.909545 0.423560
0.365332 0.910246 0.420935
0.634638 0.911009 0.422034
0.881407 0.912047 0.423133
0.000000 0.000000 0.682551
0.161959 0.000000 0.682307
0.411231 0.000000 0.681971
0.640803 0.000000 0.681453
0.892943 0.000000 0.691951
0.000000 0.168704 0.682490
0.125185 0.164096 0.682399
0.402289 0.144656 0.682033
0.638941 0.102144 0.681453
0.892943 0.000000 0.690578
0.000000 0.417395 0.681666
0.000000 0.412909 0.681849
0.384771 0.409857 0.681575
0.635706 0.407477 0.681117
0.893828 0.394415 0.684138
0.000000 0.657527 0.680659
0.000000 0.657343 0.680659
0.368597 0.657862 0.680629
0.634791 0.659754 0.680018
0.892454 0.664576 0.679286
0.000000 0.908965 0.685481
0.000000 0.909545 0.684138
0.339117 0.911406 0.677363
0.632654 0.911589 0.671687
0.886656 0.911681 0.679805
0.000000 0.000000 0.923369
0.136812 0.000000 0.923247
0.407263 0.000000 0.922911
0.640986 0.000000 0.922759
0.874510 0.000000 0.922850
0.000000 0.151034 0.923430
0.084413 0.144961 0.923369
0.397559 0.119997 0.923156
0.638361 0.061372 0.922942
0.874784 0.000000 0.922911
0.000000 0.407294 0.923278
0.000000 0.406622 0.923247
0.383856 0.404669 0.923095
0.636164 0.401404 0.922911
0.876890 0.398016 0.923064
0.000000 0.655055 0.922240
0.000000 0.654719 0.922332
0.368811 0.652918 0.922545
0.639948 0.656916 0.922362
0.882750 0.659693 0.922881
0.000000 0.900175 0.921904
0.000000 0.900664 0.921996
0.349584 0.902678 0.922240
0.634821 0.906554 0.922545
0.898863 0.912840 0.923552
