其他预设/【232】美食博客调色预设124款/1.3D LUT预设（视频调色-PR-AE-PS-FCPX-达芬奇用）/Food Art #2 ().cube
# Created by Adobe Lightroom plugin Export LUT (1.17.0)
# www.johnrellis.com/lightroom/exportlut.htm
# Preset: Food Art #2 (素锦印象)
# Color profile: /Library/Application Support/Adobe/Color/Profiles/Recommended/AdobeRGB1998.icc
LUT_3D_SIZE 32
0.000000 0.000000 0.000000
0.000000 0.000000 0.000000
0.000000 0.000000 0.000000
0.016297 0.000000 0.000000
0.092287 0.000000 0.000000
0.130800 0.000000 0.000000
0.174502 0.000000 0.000000
0.223514 0.000000 0.000000
0.278416 0.000000 0.000000
0.340490 0.000000 0.000000
0.410285 0.000000 0.000000
0.484474 0.000000 0.000000
0.559442 0.000000 0.000000
0.632288 0.000000 0.000000
0.700038 0.000000 0.000000
0.757351 0.000000 0.000000
0.804349 0.000000 0.000000
0.843076 0.000000 0.000000
0.875334 0.000000 0.000000
0.915984 0.000000 0.000000
0.948394 0.000000 0.000000
0.973663 0.000000 0.000000
0.993591 0.000000 0.000000
1.000000 0.000000 0.000000
1.000000 0.000000 0.000000
1.000000 0.000000 0.000000
1.000000 0.000000 0.000000
1.000000 0.000000 0.000000
1.000000 0.000000 0.000000
1.000000 0.000000 0.000000
1.000000 0.000000 0.000000
1.000000 0.000000 0.000000
0.000000 0.000000 0.000000
0.000000 0.000000 0.000000
0.000000 0.000000 0.000000
0.016297 0.000000 0.000000
0.091951 0.000000 0.000000
0.129458 0.000000 0.000000
0.171969 0.000000 0.000000
0.219669 0.000000 0.000000
0.272892 0.000000 0.000000
0.333623 0.000000 0.000000
0.401526 0.000000 0.000000
0.474250 0.000000 0.000000
0.548058 0.000000 0.000000
0.620294 0.000000 0.000000
0.687984 0.000000 0.000000
0.746792 0.000000 0.000000
0.795132 0.000000 0.000000
0.835142 0.000000 0.000000
0.868559 0.000000 0.000000
0.909422 0.000000 0.000000
0.941680 0.000000 0.000000
0.967193 0.000000 0.000000
0.987579 0.000000 0.000000
1.000000 0.000000 0.000000
1.000000 0.000000 0.000000
1.000000 0.000000 0.000000
1.000000 0.000000 0.000000
1.000000 0.000000 0.000000
1.000000 0.000000 0.000000
1.000000 0.000000 0.000000
1.000000 0.000000 0.000000
1.000000 0.000000 0.000000
0.000000 0.000000 0.000000
0.000000 0.000000 0.000000
0.000000 0.000000 0.000000
0.019013 0.000000 0.000000
0.091615 0.000000 0.000000
0.128328 0.000000 0.000000
0.169558 0.000000 0.000000
0.215854 0.000000 0.000000
0.268162 0.000000 0.000000
0.327611 0.000000 0.000000
0.394751 0.000000 0.000000
0.466773 0.000000 0.000000
0.540276 0.000000 0.000000
0.612421 0.000000 0.000000
0.680171 0.000000 0.000000
0.740169 0.000000 0.000000
0.789303 0.000000 0.000000
0.830106 0.000000 0.000000
0.864439 0.000000 0.000000
0.905821 0.000000 0.000000
0.937987 0.000000 0.000000
0.963653 0.000000 0.000000
0.984283 0.000000 0.000000
1.000000 0.000000 0.000000
1.000000 0.000000 0.000000
1.000000 0.000000 0.000000
1.000000 0.000000 0.000000
1.000000 0.000000 0.000000
1.000000 0.000000 0.000000
1.000000 0.000000 0.000000
1.000000 0.000000 0.000000
1.000000 0.000000 0.000000
0.000000 0.023621 0.000000
0.000000 0.030823 0.000000
0.000000 0.039246 0.000000
0.029877 0.051240 0.000000
0.090883 0.031769 0.000000
0.127382 0.012634 0.000000
0.167758 0.000000 0.000000
0.213321 0.000000 0.000000
0.264469 0.000000 0.000000
0.322850 0.000000 0.000000
0.388434 0.000000 0.000000
0.459266 0.000000 0.000000
0.531640 0.000000 0.000000
0.603021 0.000000 0.000000
0.670832 0.000000 0.000000
0.731930 0.000000 0.000000
0.782132 0.000000 0.000000
0.823636 0.000000 0.000000
0.860990 0.000000 0.000000
0.900237 0.000000 0.000000
0.931518 0.000000 0.000000
0.957122 0.000000 0.000000
0.978485 0.000000 0.000000
0.996796 0.000000 0.000000
1.000000 0.000000 0.000000
1.000000 0.000000 0.000000
1.000000 0.000000 0.000000
1.000000 0.000000 0.000000
1.000000 0.000000 0.000000
1.000000 0.000000 0.000000
1.000000 0.000000 0.000000
1.000000 0.000000 0.000000
0.000000 0.088991 0.000000
0.000000 0.090211 0.000000
0.000000 0.091432 0.000000
0.015717 0.093599 0.000000
0.089357 0.093050 0.000000
0.125460 0.088136 0.000000
0.162844 0.083955 0.000000
0.206973 0.082795 0.000000
0.256748 0.082765 0.000000
0.313176 0.084627 0.000000
0.377050 0.087800 0.000000
0.446448 0.094026 0.000000
0.518181 0.101869 0.000000
0.589654 0.110964 0.000000
0.658778 0.116945 0.000000
0.722530 0.114199 0.000000
0.775296 0.106142 0.000000
0.818540 0.095583 0.000000
0.860136 0.081819 0.000000
0.897734 0.064179 0.000000
0.928038 0.017243 0.000000
0.953246 0.000000 0.000000
0.974609 0.000000 0.000000
0.993225 0.000000 0.000000
1.000000 0.000000 0.000000
1.000000 0.000000 0.000000
1.000000 0.000000 0.000000
1.000000 0.000000 0.000000
1.000000 0.000000 0.000000
1.000000 0.000000 0.000000
1.000000 0.000000 0.000000
1.000000 0.000000 0.000000
0.000000 0.127382 0.000000
0.000000 0.128725 0.000000
0.000000 0.129732 0.000000
0.014191 0.131472 0.000000
0.095430 0.133059 0.000000
0.132753 0.133577 0.000000
0.170199 0.133852 0.000000
0.208591 0.132265 0.000000
0.253330 0.134310 0.000000
0.308843 0.141421 0.000000
0.371740 0.150454 0.000000
0.440162 0.160739 0.000000
0.511040 0.171298 0.000000
0.582513 0.180850 0.000000
0.652216 0.185245 0.000000
0.716945 0.185824 0.000000
0.770748 0.182315 0.000000
0.814939 0.175845 0.000000
0.860685 0.169772 0.000000
0.897154 0.161044 0.000000
0.927214 0.150668 0.000000
0.952605 0.138643 0.000000
1.000000 0.140108 0.000000
1.000000 0.128206 0.000000
1.000000 0.115084 0.000000
1.000000 0.100710 0.000000
1.000000 0.085512 0.000000
1.000000 0.067231 0.000000
1.000000 0.033845 0.000000
1.000000 0.000000 0.000000
1.000000 0.000000 0.000000
1.000000 0.000000 0.000000
0.000000 0.186893 0.000000
0.000000 0.187625 0.000000
0.000000 0.188632 0.000000
0.050477 0.190982 0.000000
0.116457 0.194644 0.000000
0.162692 0.197147 0.000000
0.200076 0.197879 0.000000
0.243717 0.202853 0.000000
0.288762 0.203769 0.000000
0.336522 0.206912 0.000000
0.394598 0.215610 0.000000
0.465461 0.229801 0.000000
0.537377 0.240940 0.000000
0.608057 0.248508 0.000000
0.674800 0.252476 0.000000
0.733547 0.252323 0.000000
0.782773 0.248417 0.000000
0.831601 0.244114 0.000000
0.874937 0.238254 0.000000
0.910613 0.230106 0.000000
0.941375 0.221561 0.000000
0.968322 0.212131 0.000000
0.991577 0.202823 0.000000
1.000000 0.192813 0.000000
1.000000 0.182895 0.000000
1.000000 0.172305 0.000000
1.000000 0.161929 0.000000
1.000000 0.150729 0.000000
1.000000 0.139681 0.000000
1.000000 0.128542 0.000000
1.000000 0.116884 0.000000
1.000000 0.104982 0.000000
0.000000 0.241276 0.000000
0.000000 0.241825 0.000000
0.000000 0.242649 0.000000
0.072053 0.245151 0.000000
0.131106 0.249210 0.000000
0.184848 0.254795 0.000000
0.223453 0.255680 0.000000
0.261997 0.257328 0.000000
0.311559 0.267613 0.000000
0.362310 0.271580 0.000000
0.414221 0.275944 0.000000
0.464851 0.278477 0.000000
0.527459 0.286717 0.000000
0.597406 0.296574 0.000000
0.663935 0.302770 0.000000
0.723751 0.304448 0.000000
0.778408 0.303349 0.000000
0.829862 0.300755 0.000000
0.870298 0.294438 0.000000
0.904723 0.286076 0.000000
0.934997 0.277012 0.000000
0.961791 0.267582 0.000000
0.985138 0.258183 0.000000
1.000000 0.248234 0.000000
1.000000 0.237888 0.000000
1.000000 0.227665 0.000000
1.000000 0.217227 0.000000
1.000000 0.206668 0.000000
1.000000 0.196414 0.000000
1.000000 0.186343 0.000000
1.000000 0.176486 0.000000
1.000000 0.166567 0.000000
0.000000 0.305455 0.000000
0.000000 0.306432 0.000000
0.028473 0.307713 0.000000
0.102571 0.310582 0.000000
0.156344 0.315526 0.000000
0.209751 0.321904 0.000000
0.257633 0.326848 0.000000
0.297002 0.328344 0.000000
0.338476 0.330907 0.000000
0.393378 0.344457 0.000000
0.450446 0.351019 0.000000
0.501762 0.351476 0.000000
0.549462 0.349554 0.000000
0.593286 0.345220 0.000000
0.657649 0.352026 0.000000
0.721614 0.357153 0.000000
0.781827 0.359350 0.000000
0.828946 0.355352 0.000000
0.867277 0.347723 0.000000
0.900694 0.338811 0.000000
0.930388 0.329442 0.000000
0.956939 0.319402 0.000000
0.980194 0.309148 0.000000
1.000000 0.298833 0.000000
1.000000 0.288304 0.000000
1.000000 0.277165 0.000000
1.000000 0.266300 0.000000
1.000000 0.255589 0.000000
1.000000 0.245212 0.000000
1.000000 0.234989 0.000000
1.000000 0.225132 0.000000
1.000000 0.215366 0.000000
0.000000 0.380774 0.000000
0.051575 0.381537 0.000000
0.087373 0.382635 0.000000
0.132967 0.385565 0.000000
0.182681 0.390326 0.000000
0.235508 0.397009 0.000000
0.291905 0.405615 0.000000
0.334844 0.407782 0.000000
0.377478 0.409766 0.000000
0.422889 0.413184 0.000000
0.478096 0.423896 0.000000
0.539330 0.431800 0.000000
0.587182 0.426825 0.000000
0.631006 0.419715 0.000000
0.678767 0.415961 0.000000
0.729763 0.414130 0.000000
0.785885 0.414954 0.000000
0.830777 0.409522 0.000000
0.867643 0.401007 0.000000
0.899565 0.390784 0.000000
0.927672 0.380011 0.000000
0.952605 0.368750 0.000000
0.974578 0.357336 0.000000
0.993835 0.345769 0.000000
1.000000 0.334234 0.000000
1.000000 0.322606 0.000000
1.000000 0.311376 0.000000
1.000000 0.300206 0.000000
1.000000 0.289555 0.000000
1.000000 0.279240 0.000000
1.000000 0.269200 0.000000
1.000000 0.259403 0.000000
0.027985 0.456001 0.000000
0.076112 0.457130 0.000000
0.106325 0.458564 0.000000
0.150637 0.461982 0.000000
0.201633 0.467445 0.000000
0.256504 0.475196 0.000000
0.315435 0.485054 0.000000
0.374395 0.494972 0.000000
0.418708 0.496468 0.000000
0.465644 0.499245 0.000000
0.514153 0.502220 0.000000
0.567254 0.507805 0.000000
0.634668 0.519036 0.000000
0.686519 0.513725 0.000000
0.728481 0.502434 0.000000
0.762631 0.487556 0.000000
0.791409 0.471046 0.000000
0.826719 0.460060 0.000000
0.862669 0.450416 0.000000
0.894133 0.439460 0.000000
0.922179 0.427863 0.000000
0.947173 0.415930 0.000000
0.969421 0.403876 0.000000
0.988952 0.391577 0.000000
1.000000 0.379309 0.000000
1.000000 0.366888 0.000000
1.000000 0.354772 0.000000
1.000000 0.342962 0.000000
1.000000 0.331670 0.000000
1.000000 0.320806 0.000000
1.000000 0.310277 0.000000
1.000000 0.300053 0.000000
0.064454 0.538445 0.000000
0.092988 0.539574 0.000000
0.122164 0.541009 0.000000
0.166659 0.544366 0.000000
0.219516 0.550042 0.000000
0.276066 0.557580 0.000000
0.336828 0.567559 0.000000
0.401862 0.579522 0.000000
0.458473 0.586633 0.000000
0.506798 0.588922 0.000000
0.557305 0.591821 0.000000
0.621424 0.606714 0.000000
0.753567 0.679866 0.000000
0.805753 0.670680 0.000000
0.831540 0.638117 0.000000
0.852018 0.606256 0.000000
0.869047 0.576287 0.000000
0.883818 0.548516 0.000000
0.897520 0.523186 0.000000
0.922087 0.506493 0.000000
0.944823 0.490517 0.000000
0.965240 0.474891 0.000000
0.983398 0.459480 0.000000
0.999756 0.444587 0.000000
1.000000 0.430060 0.000000
1.000000 0.415991 0.000000
1.000000 0.402258 0.000000
1.000000 0.389136 0.000000
1.000000 0.376471 0.000000
1.000000 0.364446 0.000000
1.000000 0.352911 0.000000
1.000000 0.341863 0.000000
0.082887 0.652216 0.000000
0.111208 0.652979 0.000000
0.141207 0.652766 0.000000
0.187991 0.653498 0.000000
0.243046 0.655268 0.000000
0.301061 0.658350 0.000000
0.362768 0.664057 0.000000
0.427771 0.672053 0.000000
0.497719 0.683131 0.000000
0.558770 0.696742 0.000000
0.620508 0.709377 0.000000
0.684627 0.721309 0.000000
0.749020 0.731106 0.000000
0.806851 0.732845 0.000000
0.850828 0.718593 0.000000
0.869993 0.681453 0.000000
0.884947 0.645930 0.000000
0.897429 0.613306 0.000000
0.909148 0.583764 0.000000
0.920897 0.557366 0.000000
0.935821 0.535546 0.000000
0.956634 0.518975 0.000000
0.975158 0.502770 0.000000
0.991913 0.486976 0.000000
1.000000 0.471595 0.000000
1.000000 0.456672 0.000000
1.000000 0.442267 0.000000
1.000000 0.428443 0.000000
1.000000 0.415167 0.000000
1.000000 0.402533 0.000000
1.000000 0.390509 0.000000
1.000000 0.378943 0.000000
0.092317 0.716884 0.000000
0.121004 0.717494 0.000000
0.148806 0.717342 0.000000
0.194461 0.717739 0.000000
0.248753 0.718532 0.000000
0.307713 0.723262 0.000000
0.370794 0.731685 0.000000
0.437018 0.741482 0.000000
0.506859 0.752712 0.000000
0.575738 0.763607 0.000000
0.630304 0.769070 0.000000
0.687007 0.774716 0.000000
0.744076 0.778958 0.000000
0.800107 0.780911 0.000000
0.852354 0.778561 0.000000
0.884428 0.756435 0.000000
0.897704 0.715541 0.000000
0.908873 0.678248 0.000000
0.919310 0.644678 0.000000
0.929778 0.614923 0.000000
0.940612 0.588220 0.000000
0.951537 0.564294 0.000000
0.967376 0.545312 0.000000
0.984710 0.528740 0.000000
1.000000 0.512688 0.000000
1.000000 0.496986 0.000000
1.000000 0.481788 0.000000
1.000000 0.467262 0.000000
1.000000 0.453376 0.000000
1.000000 0.440192 0.000000
1.000000 0.427680 0.000000
1.000000 0.415564 0.000000
0.107790 0.783932 0.000000
0.132174 0.784878 0.000000
0.158358 0.784939 0.000000
0.203891 0.785550 0.000000
0.257755 0.786404 0.000000
0.314855 0.788052 0.000000
0.374884 0.791012 0.000000
0.437354 0.795438 0.000000
0.502312 0.801389 0.000000
0.570245 0.808682 0.000000
0.629267 0.813504 0.000000
0.680964 0.815885 0.000000
0.733181 0.817411 0.000000
0.784909 0.817258 0.000000
0.835050 0.814908 0.000000
0.882689 0.810117 0.000000
0.909392 0.786252 0.000000
0.919646 0.744350 0.000000
0.929198 0.706783 0.000000
0.938567 0.673304 0.000000
0.948150 0.643427 0.000000
0.957916 0.616510 0.000000
0.967529 0.592004 0.000000
0.977203 0.569543 0.000000
0.993317 0.552697 0.000000
1.000000 0.536492 0.000000
1.000000 0.520958 0.000000
1.000000 0.506035 0.000000
1.000000 0.491829 0.000000
1.000000 0.478370 0.000000
1.000000 0.465431 0.000000
1.000000 0.452918 0.000000
0.121248 0.833890 0.000000
0.143038 0.834653 0.000000
0.167117 0.834867 0.000000
0.209445 0.835264 0.000000
0.261082 0.835752 0.000000
0.316899 0.836759 0.000000
0.374609 0.838651 0.000000
0.434363 0.841337 0.000000
0.496468 0.844633 0.000000
0.559686 0.848386 0.000000
0.624445 0.852079 0.000000
0.673365 0.851560 0.000000
0.720241 0.849729 0.000000
0.767147 0.846830 0.000000
0.813199 0.842741 0.000000
0.858122 0.837400 0.000000
0.901854 0.831174 0.000000
0.926970 0.808469 0.000000
0.937804 0.769253 0.000000
0.947417 0.732876 0.000000
0.956847 0.700313 0.000000
0.966094 0.670832 0.000000
0.975158 0.643915 0.000000
0.984161 0.619257 0.000000
0.993103 0.596612 0.000000
1.000000 0.576898 0.000000
1.000000 0.560601 0.000000
1.000000 0.545037 0.000000
1.000000 0.530083 0.000000
1.000000 0.515740 0.000000
1.000000 0.501946 0.000000
1.000000 0.488716 0.000000
0.133028 0.867094 0.000000
0.151431 0.867247 0.000000
0.172976 0.867033 0.000000
0.212192 0.867033 0.000000
0.260166 0.867033 0.000000
0.312657 0.867338 0.000000
0.367376 0.868162 0.000000
0.424231 0.869474 0.000000
0.482551 0.871214 0.000000
0.542138 0.873350 0.000000
0.602899 0.875669 0.000000
0.660761 0.877012 0.000000
0.704921 0.874876 0.000000
0.748989 0.871794 0.000000
0.792630 0.867521 0.000000
0.835172 0.862089 0.000000
0.876890 0.855802 0.000000
0.917998 0.849210 0.000000
0.941741 0.827207 0.000000
0.953735 0.791714 0.000000
0.962707 0.756039 0.000000
0.971435 0.723781 0.000000
0.979919 0.694392 0.000000
0.988403 0.667628 0.000000
0.996887 0.642969 0.000000
1.000000 0.620356 0.000000
1.000000 0.599481 0.000000
1.000000 0.582361 0.000000
1.000000 0.566888 0.000000
1.000000 0.552026 0.000000
1.000000 0.537743 0.000000
1.000000 0.523980 0.000000
0.144839 0.894591 0.000000
0.161837 0.895293 0.000000
0.193881 0.918517 0.000000
0.228641 0.918181 0.000000
0.273014 0.917510 0.000000
0.321813 0.916625 0.000000
0.373663 0.915740 0.000000
0.427466 0.915007 0.000000
0.482795 0.914580 0.000000
0.539239 0.914427 0.000000
0.596368 0.914305 0.000000
0.653986 0.913878 0.000000
0.702541 0.911284 0.000000
0.743618 0.906828 0.000000
0.784360 0.901579 0.000000
0.824643 0.895598 0.000000
0.864378 0.888914 0.000000
0.903441 0.881773 0.000000
0.942046 0.874449 0.000000
0.963867 0.852232 0.000000
0.975341 0.818723 0.000000
0.982879 0.782712 0.000000
0.990265 0.750027 0.000000
0.997375 0.720180 0.000000
1.000000 0.692592 0.000000
1.000000 0.667292 0.000000
1.000000 0.643915 0.000000
1.000000 0.622553 0.000000
1.000000 0.603174 0.000000
1.000000 0.587671 0.000000
1.000000 0.572808 0.000000
1.000000 0.558434 0.000000
0.161166 0.922332 0.000000
0.176333 0.925048 0.000000
0.195560 0.927672 0.000000
0.228031 0.929778 0.000000
0.269688 0.931029 0.000000
0.315831 0.931090 0.000000
0.364599 0.930571 0.000000
0.415229 0.929778 0.000000
0.467414 0.929198 0.000000
0.520378 0.928649 0.000000
0.574578 0.928130 0.000000
0.629023 0.927398 0.000000
0.683467 0.926055 0.000000
0.724147 0.922087 0.000000
0.762661 0.917113 0.000000
0.801022 0.911467 0.000000
0.838987 0.905303 0.000000
0.876585 0.898772 0.000000
0.914000 0.892119 0.000000
0.951202 0.885527 0.000000
0.973327 0.865385 0.000000
0.986084 0.835630 0.000000
0.993591 0.800778 0.000000
1.000000 0.768887 0.000000
1.000000 0.739467 0.000000
1.000000 0.712398 0.000000
1.000000 0.687465 0.000000
1.000000 0.664607 0.000000
1.000000 0.643702 0.000000
1.000000 0.624445 0.000000
1.000000 0.607507 0.000000
1.000000 0.592615 0.000000
0.170993 0.937896 0.000000
0.184512 0.940063 0.000000
0.201236 0.942229 0.000000
0.230472 0.943908 0.000000
0.268833 0.944854 0.000000
0.311376 0.944854 0.000000
0.357244 0.944244 0.000000
0.404669 0.943420 0.000000
0.453834 0.942718 0.000000
0.504204 0.941985 0.000000
0.555352 0.941283 0.000000
0.606989 0.940368 0.000000
0.658717 0.938872 0.000000
0.707301 0.936522 0.000000
0.743893 0.931884 0.000000
0.780362 0.926665 0.000000
0.816678 0.921019 0.000000
0.852842 0.915007 0.000000
0.888945 0.908904 0.000000
0.924987 0.902861 0.000000
0.960845 0.896849 0.000000
0.983368 0.878843 0.000000
0.996765 0.851957 0.000000
1.000000 0.818051 0.000000
1.000000 0.786618 0.000000
1.000000 0.757656 0.000000
1.000000 0.730953 0.000000
1.000000 0.706477 0.000000
1.000000 0.684047 0.000000
1.000000 0.663416 0.000000
1.000000 0.644343 0.000000
1.000000 0.626581 0.000000
0.180056 0.951904 0.000000
0.192111 0.953735 0.000000
0.207370 0.955535 0.000000
0.233860 0.956909 0.000000
0.268956 0.957641 0.000000
0.308537 0.957488 0.000000
0.350927 0.956847 0.000000
0.395544 0.955901 0.000000
0.441993 0.954986 0.000000
0.489509 0.954040 0.000000
0.537865 0.953063 0.000000
0.586877 0.951904 0.000000
0.636011 0.950347 0.000000
0.685206 0.948425 0.000000
0.726802 0.945159 0.000000
0.761868 0.940764 0.000000
0.797269 0.936126 0.000000
0.832670 0.931426 0.000000
0.868284 0.926635 0.000000
0.903929 0.921874 0.000000
0.939483 0.917113 0.000000
0.974823 0.912261 0.000000
0.997772 0.896117 0.000000
1.000000 0.871580 0.000000
1.000000 0.838407 0.000000
1.000000 0.807645 0.000000
1.000000 0.779141 0.000000
1.000000 0.752956 0.000000
1.000000 0.728817 0.000000
1.000000 0.706600 0.000000
1.000000 0.686000 0.000000
1.000000 0.666865 0.000000
0.197848 0.971344 0.000000
0.207492 0.971984 0.000000
0.219486 0.972473 0.000000
0.242100 0.972686 0.000000
0.273167 0.972503 0.000000
0.309209 0.971923 0.000000
0.348577 0.971130 0.000000
0.390539 0.970306 0.000000
0.434363 0.969512 0.000000
0.479622 0.968719 0.000000
0.525750 0.967834 0.000000
0.572534 0.966644 0.000000
0.619409 0.965057 0.000000
0.666224 0.963043 0.000000
0.713008 0.960632 0.000000
0.748287 0.956664 0.000000
0.781735 0.952270 0.000000
0.815549 0.947662 0.000000
0.849363 0.942962 0.000000
0.883299 0.938170 0.000000
0.917113 0.933257 0.000000
0.950774 0.928191 0.000000
0.984070 0.922972 0.000000
1.000000 0.907836 0.000000
1.000000 0.885039 0.000000
1.000000 0.852598 0.000000
1.000000 0.822538 0.000000
1.000000 0.794797 0.000000
1.000000 0.769314 0.000000
1.000000 0.745663 0.000000
1.000000 0.723842 0.000000
1.000000 0.703548 0.000000
0.207095 0.982147 0.000000
0.215549 0.982727 0.000000
0.226352 0.983215 0.000000
0.247013 0.983368 0.000000
0.275181 0.983154 0.000000
0.308263 0.982483 0.000000
0.344854 0.981598 0.000000
0.383825 0.980621 0.000000
0.425177 0.979614 0.000000
0.467903 0.978637 0.000000
0.511650 0.977569 0.000000
0.556023 0.976318 0.000000
0.600610 0.974762 0.000000
0.645594 0.972869 0.000000
0.690394 0.970642 0.000000
0.732906 0.967926 0.000000
0.764981 0.964019 0.000000
0.797391 0.959930 0.000000
0.830014 0.955749 0.000000
0.862730 0.951446 0.000000
0.895476 0.947051 0.000000
0.928191 0.942565 0.000000
0.960601 0.937896 0.000000
0.992798 0.933074 0.000000
1.000000 0.916991 0.000000
1.000000 0.895659 0.000000
1.000000 0.864775 0.000000
1.000000 0.835630 0.000000
1.000000 0.808682 0.000000
1.000000 0.783780 0.000000
1.000000 0.760861 0.000000
1.000000 0.739651 0.000000
0.223575 0.996246 0.000000
0.231296 0.996796 0.000000
0.240604 0.997040 0.000000
0.258305 0.996887 0.000000
0.283055 0.996368 0.000000
0.312596 0.995483 0.000000
0.345861 0.994324 0.000000
0.381842 0.992950 0.000000
0.420172 0.991485 0.000000
0.459968 0.989960 0.000000
0.500786 0.988281 0.000000
0.542473 0.986603 0.000000
0.584741 0.984680 0.000000
0.627161 0.982483 0.000000
0.669581 0.979889 0.000000
0.712093 0.977020 0.000000
0.748318 0.973449 0.000000
0.778958 0.969360 0.000000
0.810086 0.965423 0.000000
0.841642 0.961517 0.000000
0.873320 0.957610 0.000000
0.904967 0.953552 0.000000
0.936278 0.949126 0.000000
0.967254 0.944396 0.000000
0.997742 0.939300 0.000000
1.000000 0.927123 0.000000
1.000000 0.905943 0.000000
1.000000 0.877348 0.000000
1.000000 0.848905 0.000000
1.000000 0.822599 0.000000
1.000000 0.798398 0.000000
1.000000 0.776089 0.000000
0.230228 1.000000 0.000000
0.237064 1.000000 0.000000
0.245731 1.000000 0.000000
0.261723 1.000000 0.000000
0.284428 1.000000 0.000000
0.311864 1.000000 0.000000
0.343023 1.000000 0.000000
0.376898 1.000000 0.000000
0.413123 1.000000 0.000000
0.451026 0.998657 0.000000
0.489937 0.997253 0.000000
0.530022 0.995727 0.000000
0.570489 0.994049 0.000000
0.611200 0.992035 0.000000
0.652033 0.989715 0.000000
0.692866 0.987121 0.000000
0.733822 0.984344 0.000000
0.765011 0.980774 0.000000
0.794797 0.977111 0.000000
0.825010 0.973480 0.000000
0.855375 0.969757 0.000000
0.885801 0.965881 0.000000
0.916045 0.961761 0.000000
0.946014 0.957397 0.000000
0.975708 0.952728 0.000000
1.000000 0.947814 0.000000
1.000000 0.937438 0.000000
1.000000 0.916503 0.000000
1.000000 0.890257 0.000000
1.000000 0.862791 0.000000
1.000000 0.837400 0.000000
1.000000 0.813962 0.000000
0.239078 1.000000 0.000000
0.245274 1.000000 0.000000
0.252537 1.000000 0.000000
0.266667 1.000000 0.000000
0.286961 1.000000 0.000000
0.311955 1.000000 0.000000
0.340673 1.000000 0.000000
0.372351 1.000000 0.000000
0.406622 1.000000 0.000000
0.442359 1.000000 0.000000
0.479561 1.000000 0.000000
0.517723 1.000000 0.000000
0.556573 1.000000 0.000000
0.595727 1.000000 0.000000
0.634821 0.998047 0.000000
0.674098 0.995575 0.000000
0.713436 0.992889 0.000000
0.750942 0.989990 0.000000
0.779416 0.986572 0.000000
0.808286 0.983124 0.000000
0.837461 0.979614 0.000000
0.866758 0.976013 0.000000
0.895903 0.972168 0.000000
0.924956 0.968139 0.000000
0.953796 0.963836 0.000000
0.982361 0.959289 0.000000
1.000000 0.954650 0.000000
1.000000 0.946349 0.000000
1.000000 0.925414 0.000000
1.000000 0.901335 0.000000
1.000000 0.874846 0.000000
1.000000 0.850340 0.000000
0.244236 1.000000 0.000000
0.249546 1.000000 0.000000
0.256138 1.000000 0.000000
0.269169 1.000000 0.000000
0.288365 1.000000 0.000000
0.312230 1.000000 0.000000
0.340154 1.000000 0.000000
0.371069 1.000000 0.000000
0.404517 1.000000 0.000000
0.439521 1.000000 0.000000
0.475776 1.000000 0.000000
0.512902 1.000000 0.000000
0.550469 1.000000 0.000000
0.588220 1.000000 0.000000
0.626001 1.000000 0.000000
0.663539 1.000000 0.000000
0.701198 1.000000 0.000000
0.738857 1.000000 0.000000
0.771298 0.999451 0.000000
0.798642 0.996216 0.000000
0.826322 0.992920 0.000000
0.854215 0.989471 0.000000
0.882048 0.985840 0.000000
0.909880 0.982055 0.000000
0.937621 0.978058 0.000000
0.965209 0.973907 0.000000
0.992676 0.969635 0.000000
1.000000 0.965270 0.000000
1.000000 0.959167 0.000000
1.000000 0.938170 0.000000
1.000000 0.916136 0.000000
1.000000 0.890806 0.000000
0.261967 1.000000 0.000000
0.266392 1.000000 0.000000
0.271824 1.000000 0.000000
0.282933 1.000000 0.000000
0.299596 1.000000 0.000000
0.320684 1.000000 0.000000
0.345434 1.000000 0.000000
0.373266 1.000000 0.000000
0.403723 1.000000 0.000000
0.436042 1.000000 0.000000
0.469612 1.000000 0.000000
0.504234 1.000000 0.000000
0.539452 1.000000 0.000000
0.575189 1.000000 0.000000
0.611170 1.000000 0.000000
