其他预设/【232】美食博客调色预设124款/1.3D LUT预设（视频调色-PR-AE-PS-FCPX-达芬奇用）/Food Art #70.cube
# Created by Adobe Lightroom plugin Export LUT (1.17.0)
# www.johnrellis.com/lightroom/exportlut.htm
# Preset: Food Art #70
# Color profile: /Library/Application Support/Adobe/Color/Profiles/Recommended/AdobeRGB1998.icc
LUT_3D_SIZE 32
0.094484 0.183810 0.195804
0.100740 0.185794 0.197421
0.109255 0.187991 0.199496
0.125032 0.193881 0.204685
0.140047 0.201602 0.212131
0.155520 0.208652 0.218814
0.172213 0.214969 0.224643
0.190219 0.221469 0.230594
0.209720 0.228122 0.236606
0.230716 0.235325 0.243107
0.253330 0.243015 0.250401
0.277562 0.251194 0.257847
0.302617 0.259770 0.266087
0.328740 0.268833 0.274876
0.355444 0.278111 0.284306
0.382544 0.287510 0.293492
0.409949 0.297093 0.303258
0.437568 0.306706 0.313237
0.465248 0.316411 0.323064
0.496498 0.327459 0.334386
0.528588 0.338811 0.346044
0.559838 0.350408 0.357855
0.589502 0.362371 0.370184
0.617731 0.374975 0.382544
0.644953 0.388098 0.395300
0.672297 0.402075 0.408637
0.700099 0.417273 0.422736
0.728450 0.433845 0.437659
0.757321 0.452216 0.453895
0.786801 0.472755 0.471534
0.816556 0.495979 0.490944
0.846616 0.522026 0.512383
0.095705 0.191287 0.199100
0.102174 0.193271 0.200565
0.110689 0.195712 0.202670
0.125063 0.200961 0.208225
0.140291 0.207401 0.215030
0.156161 0.213230 0.220798
0.172976 0.218875 0.226352
0.190799 0.224887 0.231815
0.210025 0.231266 0.237736
0.230961 0.238224 0.244297
0.253605 0.245731 0.251072
0.277531 0.253513 0.258762
0.302525 0.262181 0.267002
0.328527 0.271000 0.275914
0.355200 0.280064 0.284825
0.382177 0.289342 0.294224
0.409461 0.298833 0.303929
0.436927 0.308354 0.313603
0.464485 0.318059 0.323400
0.495521 0.328832 0.334722
0.527245 0.339849 0.345983
0.558282 0.351293 0.357733
0.587854 0.363134 0.369818
0.616114 0.375433 0.381994
0.643336 0.388495 0.394842
0.670771 0.402411 0.408179
0.698634 0.417426 0.422156
0.727016 0.433967 0.437140
0.755947 0.452247 0.453407
0.785489 0.472755 0.470893
0.815366 0.495766 0.490364
0.845487 0.521721 0.511772
0.097566 0.201450 0.203098
0.104250 0.203403 0.204929
0.112367 0.205386 0.207126
0.125673 0.209537 0.213016
0.141176 0.214389 0.218387
0.156954 0.219120 0.223575
0.173770 0.224094 0.228458
0.191623 0.229526 0.233738
0.210727 0.235386 0.239445
0.231662 0.242130 0.245792
0.254215 0.249393 0.252537
0.277958 0.257145 0.260227
0.303014 0.265415 0.268223
0.328893 0.274144 0.276951
0.355261 0.283116 0.286046
0.382330 0.292149 0.295201
0.409522 0.301396 0.304784
0.436927 0.310857 0.314336
0.464485 0.320256 0.324224
0.495308 0.330938 0.335180
0.526879 0.341863 0.346502
0.557671 0.353002 0.358251
0.587274 0.364813 0.370092
0.615442 0.376989 0.382300
0.642664 0.389899 0.395087
0.670039 0.403601 0.408240
0.697932 0.418555 0.422339
0.726314 0.435035 0.437354
0.755398 0.453162 0.453407
0.784909 0.473610 0.471046
0.814786 0.496529 0.490364
0.844938 0.522362 0.511742
0.103609 0.218723 0.214206
0.108888 0.219944 0.215488
0.115084 0.221469 0.217319
0.127810 0.224857 0.220951
0.143374 0.228092 0.224918
0.159396 0.231296 0.228672
0.176089 0.235019 0.233066
0.193759 0.239414 0.237919
0.212924 0.244633 0.243198
0.233616 0.250614 0.249241
0.256016 0.257359 0.255802
0.279606 0.264775 0.263310
0.304417 0.272679 0.271305
0.330114 0.281071 0.279911
0.356481 0.289555 0.288640
0.383276 0.298375 0.297642
0.410285 0.307317 0.307134
0.437568 0.316320 0.316442
0.465400 0.325505 0.326360
0.495583 0.335790 0.337011
0.526543 0.346227 0.347997
0.557031 0.357183 0.359258
0.586511 0.368597 0.371221
0.614801 0.380591 0.383246
0.642298 0.393408 0.396002
0.669917 0.407141 0.409400
0.698054 0.422034 0.423407
0.726589 0.438453 0.438544
0.755642 0.456519 0.454658
0.785092 0.476631 0.472053
0.814786 0.499306 0.491371
0.844724 0.524743 0.512505
0.109133 0.237613 0.223911
0.113527 0.238499 0.224979
0.119203 0.239750 0.226261
0.130373 0.242283 0.229068
0.146670 0.246311 0.232792
0.163302 0.248814 0.236240
0.179507 0.250767 0.239719
0.196994 0.254002 0.244022
0.216098 0.258122 0.248875
0.236423 0.263523 0.254765
0.258640 0.269474 0.260899
0.282109 0.276310 0.268162
0.306645 0.283635 0.275853
0.332219 0.291478 0.283970
0.358343 0.299504 0.292607
0.385107 0.307836 0.301488
0.412085 0.316197 0.310735
0.439246 0.324926 0.319738
0.467567 0.333806 0.329747
0.497292 0.343633 0.340185
0.527703 0.353674 0.350713
0.557855 0.364172 0.361852
0.586908 0.375128 0.373480
0.615076 0.386908 0.385382
0.642451 0.399237 0.398108
0.670069 0.412726 0.411322
0.698146 0.427283 0.425238
0.726650 0.443366 0.440101
0.755581 0.461128 0.456153
0.784939 0.481086 0.473640
0.814603 0.503441 0.492714
0.844541 0.528527 0.513848
0.114412 0.257267 0.233188
0.118441 0.258091 0.233951
0.123201 0.259068 0.235111
0.133669 0.261204 0.237217
0.148653 0.264469 0.240574
0.166873 0.268742 0.244999
0.184878 0.271183 0.248753
0.201968 0.272831 0.252232
0.220706 0.275792 0.256657
0.241001 0.279973 0.261967
0.262882 0.285344 0.267979
0.286107 0.291356 0.274754
0.310399 0.298070 0.282017
0.335790 0.305119 0.289830
0.361578 0.312444 0.298161
0.388251 0.320195 0.306676
0.415106 0.328069 0.315465
0.442054 0.336217 0.324620
0.470741 0.345037 0.334203
0.500114 0.354070 0.344396
0.530358 0.363775 0.354711
0.560143 0.373816 0.365606
0.600488 0.390082 0.382483
0.627863 0.401709 0.394568
0.654688 0.413855 0.407050
0.681697 0.426978 0.420172
0.708980 0.441352 0.433936
0.736660 0.457008 0.448554
0.764736 0.474464 0.464332
0.793332 0.494118 0.481605
0.822049 0.516167 0.500664
0.851072 0.540398 0.521172
0.120272 0.279026 0.243442
0.123903 0.279728 0.244083
0.128817 0.280613 0.244846
0.138155 0.282414 0.246952
0.152560 0.285283 0.249912
0.170016 0.289006 0.253788
0.190036 0.293431 0.258701
0.209781 0.296208 0.262974
0.228244 0.297917 0.266911
0.248539 0.301152 0.271763
0.270451 0.305486 0.277501
0.293553 0.310765 0.283818
0.317754 0.316503 0.290929
0.342748 0.322698 0.298253
0.368261 0.329320 0.305913
0.394293 0.336156 0.314061
0.420691 0.343297 0.322271
0.448493 0.351080 0.331456
0.477272 0.359472 0.340856
0.506920 0.368292 0.350835
0.537560 0.377844 0.361364
0.567895 0.387884 0.372595
0.597345 0.398749 0.384466
0.625788 0.410254 0.396735
0.653620 0.422583 0.409552
0.681147 0.435523 0.422797
0.708644 0.449653 0.436591
0.736324 0.464912 0.451209
0.764431 0.481971 0.466835
0.792844 0.501030 0.483894
0.821530 0.522637 0.502770
0.850462 0.546319 0.523064
0.127321 0.300816 0.254032
0.130556 0.301366 0.254551
0.134798 0.302068 0.255314
0.144045 0.303655 0.256992
0.157046 0.306035 0.259709
0.173587 0.309239 0.263371
0.192782 0.313176 0.267765
0.214054 0.317906 0.273259
0.235203 0.321294 0.278111
0.255100 0.323400 0.282353
0.276616 0.326726 0.287327
0.299474 0.330999 0.293187
0.323247 0.335943 0.299718
0.347814 0.341283 0.306523
0.373144 0.347082 0.313725
0.398779 0.353033 0.321386
0.425422 0.359716 0.329595
0.453315 0.367071 0.338231
0.481239 0.374578 0.347234
0.510185 0.382635 0.356725
0.540093 0.391516 0.366674
0.569635 0.400977 0.377630
0.598535 0.411139 0.389014
0.626459 0.422034 0.401038
0.654017 0.433600 0.413489
0.681331 0.446082 0.426551
0.708705 0.459571 0.440040
0.736324 0.474372 0.454475
0.764340 0.491035 0.470039
0.792660 0.509606 0.486946
0.821256 0.530694 0.505577
0.850217 0.553735 0.525719
0.136080 0.323949 0.265934
0.138949 0.324346 0.266392
0.143099 0.325048 0.267033
0.151431 0.326390 0.268650
0.163760 0.328649 0.271122
0.179324 0.331304 0.274266
0.197482 0.334813 0.278416
0.218021 0.338933 0.282994
0.240543 0.343664 0.288548
0.263066 0.347814 0.294194
0.284215 0.350195 0.298680
0.306676 0.353521 0.303807
0.330205 0.357519 0.309789
0.354437 0.362066 0.316075
0.379217 0.366918 0.322881
0.404974 0.372442 0.330297
0.431983 0.378729 0.338109
0.459022 0.385107 0.346227
0.486213 0.391730 0.354711
0.514672 0.399176 0.363470
0.543664 0.407263 0.373266
0.572564 0.415961 0.383520
0.600763 0.425452 0.394659
0.628168 0.435584 0.406287
0.655360 0.446632 0.418463
0.682429 0.458442 0.431220
0.709621 0.471412 0.444434
0.736995 0.485695 0.458717
0.764858 0.501732 0.474067
0.793027 0.519860 0.490883
0.821439 0.540307 0.509331
0.850248 0.562524 0.529076
0.146181 0.348211 0.278569
0.148867 0.348577 0.278843
0.152529 0.349096 0.279545
0.160555 0.350256 0.280858
0.172183 0.352148 0.283238
0.186679 0.354559 0.286076
0.204135 0.357671 0.289647
0.223880 0.361242 0.294041
0.245548 0.365545 0.299046
0.268833 0.370275 0.304906
0.292729 0.374670 0.310704
0.314733 0.377111 0.315282
0.337865 0.380377 0.320653
0.361669 0.384100 0.326543
0.386938 0.388769 0.333104
0.413184 0.393988 0.340154
0.439551 0.399390 0.347631
0.465949 0.404944 0.355230
0.492714 0.410895 0.363012
0.520439 0.417365 0.371557
0.548394 0.424659 0.380682
0.576196 0.432593 0.390387
0.603357 0.441047 0.400946
0.629847 0.450355 0.412055
0.656489 0.460578 0.423835
0.683253 0.471748 0.436103
0.710292 0.484138 0.449226
0.737697 0.497993 0.463325
0.765530 0.513603 0.478614
0.793698 0.531365 0.495430
0.822171 0.551354 0.513817
0.851041 0.572900 0.533257
0.157351 0.372900 0.291539
0.160159 0.373236 0.291875
0.163668 0.373754 0.292515
0.171115 0.374823 0.293645
0.181827 0.376471 0.295903
0.195865 0.378607 0.298405
0.212650 0.381476 0.301732
0.231479 0.384680 0.305852
0.252384 0.388464 0.310460
0.275181 0.392767 0.315648
0.299229 0.397467 0.321752
0.324132 0.402045 0.327703
0.346899 0.404700 0.332677
0.371283 0.408209 0.338354
0.396185 0.412146 0.344457
0.421485 0.416419 0.350927
0.447089 0.420874 0.357610
0.472816 0.425544 0.364508
0.498970 0.430610 0.371771
0.525933 0.436469 0.379675
0.553094 0.442969 0.388495
0.580072 0.450111 0.397925
0.606592 0.458045 0.407996
0.632654 0.466712 0.418860
0.658869 0.476204 0.430304
0.685298 0.486793 0.442359
0.711971 0.498512 0.455055
0.739071 0.511833 0.468910
0.766598 0.526879 0.483955
0.794491 0.543969 0.500542
0.822812 0.563165 0.518578
0.851560 0.583917 0.537743
0.170687 0.398352 0.305058
0.172976 0.398718 0.305577
0.176120 0.399054 0.306065
0.182925 0.400031 0.307256
0.193423 0.401495 0.309026
0.206821 0.403357 0.311437
0.222629 0.405951 0.314641
0.240909 0.408911 0.318334
0.261143 0.412360 0.322667
0.283085 0.416236 0.327520
0.306645 0.420447 0.332982
0.332311 0.425879 0.339269
0.365270 0.436072 0.349004
0.389441 0.438972 0.354131
0.414160 0.442054 0.359899
0.439185 0.445319 0.365881
0.464332 0.448920 0.371862
0.489509 0.452735 0.378424
0.514916 0.456855 0.385107
0.540520 0.461585 0.392523
0.566155 0.467018 0.400793
0.591638 0.473121 0.409705
0.616571 0.479957 0.419287
0.641657 0.487739 0.429603
0.667048 0.496498 0.440528
0.692744 0.506340 0.452125
0.718685 0.517479 0.464607
0.745083 0.529961 0.478004
0.771908 0.544335 0.492714
0.799130 0.560723 0.508934
0.826810 0.578729 0.526360
0.855100 0.598413 0.544884
0.185916 0.426093 0.320012
0.188205 0.426246 0.320439
0.191135 0.426581 0.320714
0.197665 0.427314 0.321752
0.207309 0.428351 0.323339
0.219944 0.429816 0.325444
0.235019 0.431922 0.328191
0.252384 0.434394 0.331487
0.272007 0.437537 0.335515
0.294133 0.441993 0.340581
0.318273 0.446876 0.346258
0.343969 0.452125 0.352361
0.370947 0.457832 0.359197
0.399084 0.463508 0.366094
0.423529 0.466255 0.371466
0.448096 0.469032 0.376867
0.472541 0.471809 0.382483
0.496986 0.474739 0.388342
0.521386 0.478004 0.394507
0.546014 0.482002 0.401678
0.570764 0.486671 0.409430
0.595453 0.492012 0.417823
0.619715 0.498116 0.427008
0.644251 0.505150 0.436957
0.669276 0.513329 0.447547
0.694575 0.522576 0.458808
0.720241 0.533104 0.470985
0.746334 0.545068 0.484199
0.772885 0.558892 0.498878
0.800015 0.574548 0.514702
0.827604 0.591791 0.531670
0.855802 0.610712 0.549950
0.201511 0.451484 0.333928
0.203769 0.451728 0.334142
0.206119 0.451942 0.334661
0.212284 0.452583 0.335515
0.221286 0.453468 0.336767
0.233494 0.454963 0.338872
0.248173 0.457191 0.341680
0.265202 0.459876 0.344915
0.284276 0.463081 0.348821
0.305455 0.466804 0.353277
0.328496 0.471015 0.358404
0.353124 0.475685 0.364202
0.379004 0.480629 0.370123
0.405982 0.485634 0.376593
0.433448 0.490608 0.383185
0.457435 0.492897 0.388098
0.481117 0.494942 0.393194
0.504784 0.497200 0.398688
0.528222 0.499580 0.404456
0.551995 0.502831 0.411109
0.575860 0.506737 0.418524
0.599756 0.511467 0.426642
0.623407 0.516960 0.435523
0.647669 0.523430 0.445045
0.672236 0.531060 0.455329
0.697230 0.539696 0.466316
0.722591 0.549706 0.478309
0.748379 0.561212 0.491432
0.774685 0.574517 0.505699
0.801633 0.589410 0.521294
0.829068 0.605890 0.537865
0.857176 0.624079 0.555749
0.219242 0.478309 0.348577
0.221103 0.478553 0.348943
0.223667 0.478798 0.349218
0.229496 0.479408 0.350011
0.238010 0.480323 0.351507
0.249271 0.481575 0.353246
0.263096 0.483192 0.355688
0.279057 0.485359 0.358465
0.297276 0.488075 0.362127
0.317540 0.491279 0.366247
0.339635 0.494972 0.370642
0.363165 0.499123 0.375952
0.388128 0.503502 0.381415
0.413947 0.507988 0.387396
0.440436 0.512413 0.393500
0.467170 0.516625 0.399481
0.490700 0.518517 0.404425
0.513207 0.519921 0.409216
0.535637 0.521599 0.414649
0.558434 0.524041 0.420844
0.581415 0.527245 0.427985
0.604395 0.531273 0.435737
0.627588 0.536126 0.444282
0.651392 0.542046 0.453529
0.675624 0.549126 0.463539
0.700343 0.557427 0.474342
0.725521 0.567102 0.486336
0.751308 0.578363 0.499397
0.777615 0.591272 0.513695
0.804593 0.605615 0.528893
0.832090 0.621607 0.545373
0.860166 0.639216 0.562982
0.238163 0.504814 0.363195
0.239994 0.505089 0.363653
0.242313 0.505364 0.363897
0.247593 0.505882 0.364813
0.255680 0.506645 0.365911
0.266361 0.507774 0.367559
0.279484 0.509331 0.369757
0.294713 0.511315 0.372534
0.312200 0.513634 0.375677
0.331426 0.516411 0.379431
0.352361 0.519463 0.383581
0.374762 0.522850 0.388067
0.398169 0.526452 0.393103
0.422736 0.530114 0.398260
0.447883 0.533867 0.403632
0.473457 0.537499 0.409277
0.499245 0.541131 0.415076
0.521874 0.542565 0.419989
0.543481 0.543603 0.425086
0.565484 0.545495 0.431128
0.587762 0.548150 0.437995
0.610224 0.551659 0.445655
0.633082 0.556115 0.453834
0.656458 0.561669 0.462928
0.680446 0.568292 0.472755
0.704799 0.576226 0.483589
0.729702 0.585565 0.495369
0.755154 0.596307 0.508232
0.781186 0.608484 0.522087
0.807767 0.622095 0.536797
0.834867 0.637201 0.552697
0.862486 0.654017 0.570031
0.257176 0.530083 0.377295
0.258854 0.530205 0.377569
0.261021 0.530419 0.377935
0.265934 0.530877 0.378607
0.273625 0.531487 0.379706
0.283696 0.532494 0.381170
0.295720 0.533806 0.383215
0.310155 0.535424 0.385657
0.326696 0.537469 0.388373
0.344854 0.539849 0.391913
0.364843 0.542535 0.395544
0.386297 0.545556 0.399725
0.408759 0.548699 0.404425
0.432074 0.551812 0.409247
0.455940 0.554894 0.414221
0.480171 0.557916 0.419501
0.504692 0.560845 0.424750
0.529290 0.564019 0.430549
0.551354 0.565393 0.435798
0.572473 0.566583 0.441444
0.593866 0.568597 0.448005
0.615686 0.571466 0.455238
0.638056 0.575494 0.463416
0.661067 0.580682 0.472206
0.684565 0.586969 0.481880
0.708675 0.594507 0.492531
0.733272 0.603418 0.504234
0.758541 0.613703 0.516716
0.784329 0.625299 0.530144
0.810758 0.638300 0.544549
0.837675 0.652827 0.560113
0.865080 0.669245 0.577417
0.277317 0.554864 0.391333
0.279088 0.555108 0.391516
0.285801 0.560571 0.395026
0.290501 0.560845 0.395514
0.297368 0.561334 0.396551
0.306706 0.562066 0.397864
0.318212 0.562951 0.399573
0.331579 0.564080 0.401709
0.347082 0.565515 0.404211
0.364324 0.567376 0.407263
0.383124 0.569451 0.410651
0.403174 0.571618 0.414435
0.424323 0.573877 0.418555
0.446357 0.576257 0.423011
0.468849 0.578607 0.427619
0.491707 0.580957 0.432441
0.514916 0.583307 0.437507
0.538170 0.585718 0.442817
0.561517 0.588220 0.448219
0.582879 0.589624 0.453925
0.603113 0.590845 0.460090
0.624170 0.593194 0.466987
0.645899 0.596704 0.474800
0.668238 0.601312 0.483223
0.690883 0.606958 0.492500
0.714107 0.613825 0.502708
0.737972 0.621881 0.513634
0.762539 0.631342 0.525475
0.787839 0.642206 0.538384
0.813870 0.654536 0.552392
0.840543 0.668482 0.567651
0.867552 0.684535 0.584955
0.299687 0.580072 0.406134
0.301884 0.580835 0.406714
0.304601 0.581598 0.407324
0.309575 0.582513 0.408331
0.316320 0.583398 0.409644
0.325322 0.584161 0.410986
0.335943 0.585046 0.412665
0.348669 0.585992 0.414679
0.363165 0.587213 0.417029
0.379370 0.588647 0.419806
0.396979 0.590295 0.422980
0.415869 0.592157 0.426551
0.435828 0.594049 0.430549
0.456519 0.595972 0.434638
0.477882 0.597925 0.438941
0.499580 0.599908 0.443488
0.521538 0.601923 0.448280
0.543664 0.603937 0.453346
0.566003 0.606165 0.458625
0.588342 0.608576 0.464332
0.609583 0.610468 0.470314
0.630213 0.612604 0.477119
0.651545 0.615808 0.484688
0.673518 0.620172 0.493080
0.695796 0.625544 0.502342
0.718807 0.632074 0.512169
0.742397 0.639734 0.522820
0.766629 0.648707 0.534264
0.791684 0.659083 0.546807
0.817380 0.670893 0.560388
0.843717 0.684443 0.575586
0.870329 0.700069 0.592981
0.321843 0.602136 0.420081
0.323949 0.602808 0.420722
0.326299 0.603540 0.421271
0.330846 0.604273 0.422217
0.337194 0.605066 0.423468
0.345464 0.605707 0.424720
0.355474 0.606378 0.426276
0.367193 0.607172 0.428199
0.380682 0.608179 0.430365
0.395880 0.609369 0.432959
0.412360 0.610803 0.436072
0.430274 0.612299 0.439429
0.448951 0.613855 0.443000
0.468513 0.615503 0.446906
0.488624 0.617121 0.451057
0.509178 0.618799 0.455360
0.529961 0.620508 0.459998
0.551171 0.622400 0.464881
0.572595 0.624414 0.470008
0.594141 0.626703 0.475502
0.615717 0.629236 0.481331
0.636835 0.631800 0.487648
0.657740 0.634791 0.495186
0.679225 0.638849 0.503349
0.701228 0.643946 0.512169
0.723781 0.650080 0.521660
0.746975 0.657282 0.531792
0.770871 0.665797 0.542992
0.795499 0.675685 0.555108
0.820859 0.687068 0.568505
0.846738 0.700252 0.583642
0.873045 0.715541 0.601007
0.345495 0.623377 0.434424
0.347356 0.623957 0.435065
0.349706 0.624567 0.435767
0.353857 0.625299 0.436530
0.359899 0.625879 0.437720
0.367529 0.626459 0.438941
0.376562 0.627008 0.440406
0.387457 0.627619 0.442176
0.399969 0.628412 0.444190
0.413916 0.629389 0.446784
0.429328 0.630518 0.449531
0.445991 0.631800 0.452674
0.463508 0.633143 0.456245
0.481941 0.634638 0.459846
0.501091 0.636103 0.463905
0.520714 0.637812 0.468147
0.540887 0.639612 0.472847
0.561425 0.641627 0.477668
0.582361 0.643854 0.482856
0.603449 0.646326 0.488533
0.624628 0.649042 0.494514
0.645808 0.652003 0.500633
0.666773 0.655177 0.507439
0.688106 0.659205 0.515404
0.709895 0.664210 0.523980
0.732204 0.670161 0.533165
0.755093 0.677180 0.543145
0.778622 0.685359 0.553948
0.802884 0.694911 0.565881
0.827695 0.705989 0.579309
0.852995 0.718837 0.594537
0.878691 0.733761 0.612116
0.373510 0.645991 0.451179
0.374945 0.646326 0.451423
0.376684 0.646571 0.451881
0.380163 0.646937 0.452552
0.385412 0.647303 0.453376
0.392187 0.647669 0.454536
0.400671 0.648127 0.455940
0.410681 0.648676 0.457557
0.422370 0.649470 0.459602
0.435523 0.650446 0.462013
0.450019 0.651606 0.464790
0.465705 0.652827 0.467964
0.482246 0.654078 0.471229
0.499519 0.655421 0.474769
0.517571 0.656855 0.478614
0.536095 0.658350 0.482826
0.555200 0.659968 0.487190
0.574670 0.661799 0.491890
0.594476 0.663813 0.496834
0.614466 0.666072 0.502159
0.634577 0.668513 0.507622
0.654627 0.671138 0.513268
0.674617 0.673945 0.519127
0.694606 0.677180 0.525475
0.715908 0.681819 0.533623
0.737789 0.687526 0.542535
0.760281 0.694240 0.552148
0.783474 0.702174 0.562737
0.807309 0.711421 0.574578
0.831693 0.722255 0.587976
0.856504 0.734768 0.603296
0.881743 0.749325 0.620874
0.400336 0.666560 0.466682
0.401678 0.666896 0.467109
0.403265 0.667201 0.467506
0.406531 0.667475 0.468116
0.411383 0.667781 0.468910
0.417609 0.668086 0.470008
0.425269 0.668482 0.471168
0.434424 0.668971 0.472847
0.445197 0.669612 0.474739
0.457282 0.670466 0.477028
0.470771 0.671473 0.479744
0.485389 0.672602 0.482673
0.500786 0.673762 0.485847
0.517144 0.675044 0.489296
0.534203 0.676417 0.493080
0.551843 0.677913 0.497108
0.569940 0.679530 0.501457
0.588525 0.681331 0.505943
0.607416 0.683345 0.510704
0.626520 0.685634 0.515679
0.645838 0.688014 0.520958
0.665217 0.690669 0.526452
0.684565 0.693507 0.532067
0.703883 0.696498 0.537774
0.721431 0.698543 0.542687
0.742855 0.703975 0.551232
0.764981 0.710506 0.560632
0.787778 0.718227 0.571099
0.811185 0.727230 0.582940
0.835203 0.737758 0.596399
0.859678 0.750057 0.611841
0.884581 0.764370 0.629541
0.431342 0.688991 0.484474
0.432685 0.689326 0.484840
0.434211 0.689540 0.485298
0.437049 0.689723 0.485786
0.441169 0.689937 0.486427
0.446693 0.690150 0.487343
0.453620 0.690364 0.488502
0.461830 0.690639 0.489845
0.471504 0.691066 0.491585
0.482368 0.691615 0.493660
0.494545 0.692317 0.495979
0.507774 0.693202 0.498604
0.522118 0.694148 0.501549
0.537011 0.695186 0.504753
0.552605 0.696315 0.508080
0.568780 0.697505 0.511589
0.585534 0.698848 0.515404
0.602808 0.700435 0.519524
0.620600 0.702388 0.524041
0.638880 0.704555 0.528771
0.657404 0.706996 0.533776
0.675990 0.709621 0.539055
0.694545 0.712337 0.544335
0.713008 0.715145 0.549645
0.731167 0.717952 0.555016
0.749416 0.721096 0.560662
0.770932 0.727321 0.569818
0.793057 0.734676 0.580224
0.815915 0.743404 0.591974
0.839353 0.753628 0.605463
0.863371 0.765621 0.620874
0.887846 0.779629 0.638758
0.460822 0.709529 0.501335
0.462043 0.709865 0.501732
0.463539 0.710109 0.502068
0.466011 0.710292 0.502556
0.469886 0.710475 0.503166
0.474983 0.710658 0.504143
0.481300 0.710903 0.505180
0.488838 0.711238 0.506462
0.497719 0.711696 0.508141
0.507805 0.712306 0.510155
0.519127 0.713069 0.512413
0.531487 0.713985 0.514977
0.544732 0.715023 0.517784
0.558679 0.716121 0.520714
0.573358 0.717250 0.523980
0.588556 0.718471 0.527337
0.604273 0.719875 0.530938
0.620600 0.721492 0.534874
0.637446 0.723323 0.539055
0.654719 0.725429 0.543572
0.672267 0.727810 0.548272
0.690059 0.730343 0.553185
0.707759 0.732967 0.558251
0.725490 0.735714 0.563378
0.743160 0.738552 0.568811
0.760586 0.741482 0.574243
0.777890 0.744564 0.579980
0.799527 0.751736 0.590295
0.821897 0.760311 0.602167
0.844846 0.770321 0.615747
0.868376 0.782071 0.631312
0.892302 0.795773 0.649409
0.491737 0.731136 0.519005
0.492866 0.731350 0.519280
0.493996 0.731502 0.519585
0.496254 0.731594 0.519951
0.499489 0.731685 0.520439
0.503960 0.731838 0.521202
0.509575 0.732021 0.522179
0.516411 0.732326 0.523339
0.524437 0.732753 0.524865
0.533715 0.733333 0.526696
0.544060 0.734096 0.528801
0.555535 0.735012 0.531212
0.567803 0.736049 0.533928
0.580865 0.737148 0.536706
0.594446 0.738308 0.539757
0.608698 0.739528 0.542931
0.623468 0.740810 0.546258
0.638697 0.742367 0.549981
0.654597 0.744167 0.553918
0.670924 0.746242 0.558190
0.687587 0.748501 0.562676
0.704524 0.750942 0.567529
0.721614 0.753536 0.572534
0.738643 0.756222 0.577752
0.755581 0.759030 0.583062
0.772427 0.761898 0.588617
0.789090 0.764950 0.594354
0.805631 0.768154 0.600275
0.826963 0.776089 0.611719
0.849454 0.785885 0.625299
0.872465 0.797299 0.640955
0.895811 0.810636 0.659174
0.521843 0.752651 0.536248
0.522667 0.752804 0.536553
0.523705 0.752926 0.536706
0.525750 0.753048 0.537163
0.528954 0.753231 0.537682
0.533257 0.753536 0.538537
0.538781 0.754025 0.539757
0.545617 0.754726 0.541192
0.553521 0.755550 0.542931
0.562646 0.756558 0.545037
0.572747 0.757717 0.547417
0.583795 0.758968 0.549981
0.595544 0.760311 0.552728
0.607935 0.761624 0.555596
0.620874 0.762936 0.558709
0.634241 0.764248 0.561791
0.648157 0.765621 0.565148
0.662562 0.767147 0.568688
0.677577 0.768887 0.572625
0.693050 0.770871 0.576837
0.708858 0.773037 0.581415
0.724941 0.775387 0.586206
0.741085 0.777890 0.591241
0.757290 0.780484 0.596460
0.773434 0.783200 0.601892
0.789425 0.786038 0.607477
0.805386 0.789059 0.613306
0.821164 0.792233 0.619379
0.836820 0.795621 0.625666
0.857450 0.804135 0.638209
0.879698 0.815244 0.654047
0.902190 0.828092 0.672450
0.555718 0.777340 0.556207
0.556451 0.777432 0.556359
0.557275 0.777493 0.556512
0.559014 0.777554 0.556817
0.561791 0.777646 0.557305
0.565484 0.777829 0.558007
0.570367 0.778164 0.558984
0.576257 0.778592 0.560143
0.583246 0.779202 0.561639
0.591302 0.779904 0.563470
0.600275 0.780758 0.565515
0.610163 0.781735 0.567773
0.620874 0.782803 0.570245
0.632227 0.783932 0.572992
0.644221 0.785122 0.575860
0.656794 0.786374 0.578973
