其他预设/【232】美食博客调色预设124款/1.3D LUT预设（视频调色-PR-AE-PS-FCPX-达芬奇用）/Food Art #65.cube
# Created by Adobe Lightroom plugin Export LUT (1.17.0)
# www.johnrellis.com/lightroom/exportlut.htm
# Preset: Food Art #65
# Color profile: /Library/Application Support/Adobe/Color/Profiles/Recommended/AdobeRGB1998.icc
LUT_3D_SIZE 8
DOMAIN_MIN 0.000000 0.000000 0.000000
DOMAIN_MAX 0.903226 0.903226 0.903226
0.000000 0.000000 0.000000
0.111299 0.000000 0.047364
0.220340 0.000000 0.093416
0.342473 0.031678 0.141054
0.454932 0.120119 0.191501
0.557702 0.208499 0.244968
0.663416 0.316014 0.310918
0.777157 0.458473 0.408942
0.126741 0.052277 0.071565
0.172641 0.058198 0.087098
0.256168 0.057801 0.114046
0.362890 0.085725 0.154971
0.466072 0.144411 0.200198
0.562676 0.223575 0.250706
0.665064 0.326177 0.314733
0.778042 0.466835 0.412818
0.260807 0.134737 0.140871
0.285435 0.139071 0.148531
0.358221 0.156069 0.172915
0.431800 0.177218 0.199130
0.511223 0.220096 0.233921
0.594202 0.286534 0.278996
0.691890 0.384863 0.344640
0.796262 0.516960 0.444160
0.398840 0.236698 0.210910
0.411109 0.240726 0.215061
0.452338 0.256748 0.230076
0.519646 0.295506 0.260197
0.580957 0.334844 0.290959
0.645686 0.386481 0.329381
0.726497 0.469581 0.392248
0.817502 0.584070 0.488838
0.513634 0.360388 0.282597
0.520928 0.364355 0.285710
0.546288 0.379706 0.297948
0.589105 0.409949 0.321172
0.642084 0.451209 0.353552
0.696590 0.495674 0.392340
0.764401 0.564080 0.453101
0.843595 0.661555 0.547051
0.610498 0.501457 0.366674
0.617914 0.508110 0.372168
0.635859 0.520165 0.383764
0.666651 0.542412 0.404974
0.706935 0.573327 0.434974
0.754025 0.612238 0.474922
0.808255 0.664515 0.530999
0.874418 0.742458 0.617304
0.714839 0.653803 0.485969
0.719112 0.656977 0.489601
0.731380 0.664515 0.499214
0.753536 0.679622 0.517906
0.782712 0.700526 0.543999
0.817899 0.728511 0.578912
0.855558 0.761227 0.620874
0.902647 0.812406 0.686732
0.821256 0.797665 0.634424
0.823606 0.799191 0.636744
0.832364 0.805081 0.645624
0.848295 0.816770 0.663020
0.865599 0.827573 0.680751
0.890959 0.848234 0.712184
0.918517 0.872831 0.750393
0.945068 0.898375 0.791653
0.025635 0.000092 0.043671
0.117586 0.000000 0.068360
0.234165 0.010712 0.111910
0.356634 0.074800 0.159487
0.462165 0.137301 0.203799
0.558221 0.216068 0.252079
0.660029 0.316533 0.314122
0.772824 0.454719 0.408637
0.132876 0.051728 0.085298
0.179294 0.058900 0.101106
0.271092 0.071778 0.132601
0.375280 0.104250 0.170901
0.473304 0.158236 0.211704
0.564752 0.231510 0.258244
0.662898 0.327520 0.318395
0.773617 0.462654 0.412146
0.268498 0.134463 0.150393
0.296269 0.139956 0.160006
0.361028 0.156649 0.180941
0.435248 0.181918 0.207279
0.513420 0.225284 0.241123
0.592889 0.288518 0.283543
0.685817 0.379980 0.344335
0.790463 0.509880 0.441047
0.402228 0.235935 0.216281
0.416083 0.240696 0.221530
0.455543 0.257389 0.235904
0.515587 0.290410 0.261906
0.573999 0.327245 0.290471
0.638270 0.378546 0.327764
0.718868 0.460609 0.388678
0.811917 0.576165 0.484291
0.516289 0.360662 0.287266
0.522789 0.364050 0.290043
0.546746 0.378119 0.301366
0.586511 0.405310 0.322301
0.637293 0.444251 0.352575
0.692287 0.489937 0.391485
0.760830 0.559625 0.451942
0.840421 0.657099 0.544762
0.610071 0.498756 0.368627
0.615259 0.502342 0.371801
0.632959 0.514427 0.383215
0.664118 0.537560 0.404761
0.704891 0.569726 0.435187
0.752621 0.610163 0.475685
0.806760 0.662531 0.531273
0.872496 0.739590 0.615747
0.711818 0.648798 0.484016
0.714931 0.650324 0.486091
0.727687 0.658747 0.496284
0.750851 0.675349 0.516106
0.780941 0.697719 0.543236
0.815824 0.725429 0.577508
0.852842 0.757259 0.618006
0.900053 0.808438 0.683131
0.819089 0.794736 0.632380
0.821836 0.796719 0.635309
0.830777 0.802945 0.644465
0.846921 0.814908 0.662074
0.867674 0.830381 0.685512
0.891722 0.849363 0.714656
0.918059 0.872190 0.750393
0.944182 0.897002 0.790372
0.092439 0.001709 0.087861
0.136080 0.002014 0.100771
0.249699 0.018799 0.140200
0.369512 0.087160 0.181796
0.475502 0.155856 0.225315
0.572717 0.240543 0.276036
0.670741 0.336187 0.336217
0.778836 0.468025 0.427283
0.166690 0.056794 0.120027
0.200839 0.062654 0.131228
0.287053 0.078553 0.158572
0.390234 0.118105 0.193942
0.487953 0.178134 0.234379
0.578424 0.254368 0.281437
0.674067 0.347295 0.340734
0.780941 0.477729 0.432258
0.285893 0.136934 0.174014
0.310643 0.142824 0.181491
0.373907 0.162295 0.201724
0.448432 0.193759 0.228336
0.527092 0.243076 0.263035
0.604150 0.306798 0.304875
0.693477 0.394812 0.364111
0.793881 0.518364 0.456062
0.412604 0.240055 0.232792
0.426825 0.245609 0.238102
0.468238 0.265202 0.254673
0.523369 0.297246 0.278630
0.581842 0.337469 0.308141
0.646845 0.391913 0.346899
0.725948 0.473701 0.407691
0.815824 0.584802 0.499214
0.520897 0.363104 0.299687
0.529473 0.368292 0.304143
0.555505 0.385107 0.317815
0.593805 0.412543 0.338750
0.642878 0.451301 0.368475
0.696895 0.497383 0.407019
0.764492 0.566644 0.466285
0.842710 0.661860 0.555596
0.614069 0.501518 0.380804
0.620233 0.505730 0.385046
0.638697 0.518395 0.397498
0.667567 0.539849 0.417090
0.706508 0.570672 0.445655
0.752682 0.609918 0.484230
0.807248 0.663874 0.539452
0.874113 0.742672 0.624231
0.715633 0.651911 0.495277
0.719234 0.654047 0.498085
0.731441 0.661616 0.507408
0.752895 0.676661 0.525139
0.781949 0.698268 0.550805
0.816831 0.726467 0.584771
0.854582 0.759945 0.626184
0.903105 0.813474 0.693172
0.819760 0.795377 0.638239
0.821744 0.796506 0.639918
0.830320 0.802213 0.648310
0.847074 0.815122 0.666773
0.867552 0.830381 0.689509
0.891966 0.849943 0.718990
0.918608 0.873259 0.754879
0.945098 0.898680 0.795346
0.142855 0.004486 0.134859
0.176150 0.007355 0.145022
0.269200 0.035309 0.173373
0.382849 0.095888 0.209873
0.483803 0.163699 0.248508
0.576501 0.245426 0.295567
0.673854 0.342657 0.356786
0.779110 0.469062 0.443549
0.208469 0.065522 0.161746
0.232761 0.069306 0.168612
0.305577 0.086305 0.189425
0.403418 0.125856 0.220645
0.496742 0.186404 0.257450
0.584161 0.262394 0.302678
0.678614 0.355810 0.362768
0.781888 0.479103 0.448676
0.309483 0.140139 0.202823
0.330846 0.146975 0.209171
0.387182 0.167544 0.226749
0.459297 0.201236 0.252476
0.536217 0.253513 0.286503
0.614160 0.321386 0.330327
0.702571 0.410681 0.391119
0.797452 0.523735 0.474800
0.426886 0.245182 0.257542
0.439551 0.250950 0.262150
0.478187 0.270726 0.277256
0.532891 0.305577 0.302403
0.589288 0.347326 0.331640
0.653834 0.403326 0.370886
0.730404 0.482368 0.429175
0.817960 0.588006 0.514794
0.530175 0.369787 0.322271
0.537560 0.373968 0.325780
0.562524 0.390600 0.338720
0.602686 0.421485 0.362371
0.649409 0.459205 0.391516
0.703273 0.507256 0.430060
0.769436 0.575433 0.487129
0.845304 0.665766 0.570062
0.621149 0.508141 0.402228
0.628443 0.514336 0.407599
0.646601 0.526635 0.419532
0.676234 0.549187 0.440223
0.713436 0.579095 0.467445
0.757015 0.615991 0.503166
0.810758 0.669612 0.556085
0.876249 0.745907 0.636286
0.718715 0.654414 0.510552
0.722927 0.657374 0.514031
0.736385 0.666804 0.524926
0.758114 0.682582 0.542748
0.786526 0.704067 0.567437
0.820157 0.731228 0.599390
0.856626 0.763149 0.638025
0.905486 0.817319 0.704311
0.822446 0.798550 0.650996
0.824857 0.800290 0.653376
0.832609 0.805631 0.660517
0.846860 0.816037 0.674647
0.867369 0.831205 0.696773
0.891997 0.850889 0.725765
0.919036 0.874571 0.761532
0.946075 0.900603 0.802304
0.200107 0.011963 0.185977
0.225925 0.019013 0.192721
0.300511 0.060304 0.212192
0.397467 0.108248 0.241123
0.495979 0.175631 0.279454
0.584588 0.255253 0.324376
0.680262 0.352056 0.386603
0.784543 0.479133 0.473335
0.250523 0.074800 0.203830
0.271183 0.079652 0.209018
0.332433 0.097658 0.225040
0.416815 0.136172 0.250858
0.507866 0.197299 0.287541
0.592828 0.272679 0.331731
0.685969 0.366430 0.393042
0.787716 0.489784 0.478676
0.346136 0.152956 0.239506
0.363592 0.160159 0.244999
0.407111 0.177249 0.258000
0.471290 0.210208 0.281163
0.543389 0.260685 0.313695
0.617609 0.325475 0.355200
0.703273 0.412268 0.414374
0.797452 0.522972 0.495247
0.441718 0.248966 0.285222
0.453437 0.255131 0.289555
0.489693 0.276463 0.304631
0.540154 0.310948 0.328466
0.595453 0.353979 0.357916
0.659022 0.410590 0.397681
0.733028 0.485054 0.452216
0.816159 0.578790 0.526421
0.538109 0.372839 0.348516
0.545586 0.377935 0.352209
0.569390 0.394965 0.364904
0.607172 0.424781 0.386938
0.653864 0.464149 0.416602
0.705684 0.509850 0.451881
0.769223 0.573175 0.503410
0.843473 0.657496 0.578180
0.624994 0.508904 0.425330
0.630243 0.512535 0.428626
0.647395 0.524468 0.439094
0.676020 0.546715 0.458320
0.712978 0.577722 0.484901
0.758083 0.617182 0.521111
0.812619 0.671656 0.572656
0.876616 0.744045 0.646387
0.721492 0.656031 0.530358
0.724910 0.658167 0.532830
0.737179 0.666407 0.541802
0.757900 0.681910 0.558190
0.785306 0.703639 0.580499
0.819913 0.731624 0.612055
0.856931 0.763882 0.649744
0.906554 0.818418 0.714412
0.821683 0.797299 0.662623
0.823758 0.798672 0.664424
0.831174 0.803830 0.670985
0.845792 0.815915 0.685634
0.864195 0.830137 0.703304
0.889860 0.850187 0.732143
0.917937 0.874357 0.767697
0.945922 0.900877 0.808408
0.261418 0.039612 0.239292
0.281743 0.052827 0.243961
0.342412 0.080781 0.258640
0.426429 0.127993 0.284031
0.513664 0.192386 0.318944
0.596948 0.269871 0.362524
0.689967 0.366491 0.425971
0.792630 0.494484 0.513359
0.298741 0.088777 0.250858
0.315404 0.093568 0.254826
0.367346 0.113649 0.268009
0.442420 0.153170 0.292210
0.523430 0.211704 0.325597
0.603449 0.285222 0.368505
0.694453 0.379400 0.431281
0.795102 0.503746 0.517418
0.385168 0.171145 0.284398
0.396918 0.175601 0.287633
0.434333 0.192416 0.299596
0.491402 0.225254 0.320958
0.557794 0.274479 0.351934
0.628962 0.338750 0.393011
0.712276 0.425849 0.452644
0.805600 0.538140 0.534447
0.469581 0.267582 0.328161
0.478981 0.272923 0.331853
0.509941 0.292851 0.345495
0.554803 0.324590 0.367742
0.608789 0.368109 0.397742
0.669490 0.424353 0.435584
0.741909 0.498238 0.489784
0.823667 0.592065 0.563500
0.552544 0.385809 0.387121
0.559380 0.390936 0.390753
0.581811 0.408087 0.403388
0.617151 0.436347 0.423896
0.659968 0.471199 0.449592
0.711543 0.517327 0.484138
0.773190 0.577386 0.532403
0.844450 0.653315 0.598383
0.636194 0.520256 0.461860
0.641657 0.524681 0.465431
0.658320 0.537346 0.475746
0.685054 0.558373 0.493019
0.719509 0.586389 0.516594
0.763912 0.625513 0.550835
0.814725 0.672633 0.594018
0.875944 0.736843 0.657343
0.727687 0.662165 0.559319
0.731594 0.665095 0.562219
0.743221 0.673304 0.570489
0.762509 0.687770 0.584985
0.788296 0.708186 0.605219
0.821256 0.735683 0.633082
0.860014 0.769009 0.670466
0.910033 0.822416 0.732113
0.823941 0.800198 0.683253
0.825895 0.801480 0.684810
0.832853 0.806424 0.690791
0.845670 0.816495 0.702571
0.863188 0.830564 0.718868
0.886381 0.849638 0.741787
0.916899 0.875273 0.778378
0.946685 0.902922 0.819669
0.328466 0.072663 0.305303
0.345098 0.080751 0.309331
0.396002 0.107942 0.322911
0.467414 0.154177 0.346410
0.544793 0.217838 0.380041
0.623407 0.294896 0.423651
0.701534 0.383551 0.474006
0.799374 0.508721 0.557946
0.355077 0.108888 0.314366
0.369543 0.114992 0.318181
0.414160 0.136660 0.330785
0.479438 0.177096 0.353246
0.552819 0.235813 0.385992
0.628656 0.308934 0.428656
0.704829 0.394812 0.477821
0.800687 0.515831 0.560174
0.421057 0.188876 0.343572
0.431373 0.193515 0.346777
0.465583 0.211002 0.358251
0.518212 0.244511 0.379522
0.581292 0.294377 0.410742
0.650263 0.360143 0.450782
0.721767 0.439490 0.497841
0.811551 0.550256 0.576837
0.495857 0.289799 0.388098
0.502953 0.293614 0.390997
0.527153 0.307866 0.401373
0.569085 0.337377 0.421576
0.622492 0.381109 0.450141
0.683925 0.439643 0.486793
0.748013 0.506920 0.530388
0.828214 0.600824 0.602625
0.574334 0.413672 0.448157
0.579614 0.417212 0.450629
0.597528 0.429297 0.459327
0.625879 0.448219 0.473457
0.666957 0.479347 0.496040
0.721096 0.527886 0.529870
0.778073 0.584680 0.570092
0.849210 0.662074 0.636744
0.658045 0.551415 0.521508
0.662165 0.554314 0.523735
0.676081 0.564172 0.531609
0.698421 0.579919 0.544427
0.727779 0.600214 0.561517
0.767361 0.630488 0.587396
0.817319 0.676204 0.626184
0.876524 0.735225 0.683894
0.739254 0.676936 0.600763
0.742336 0.679133 0.602930
0.752499 0.686213 0.609552
0.769345 0.698329 0.621210
0.792691 0.715633 0.638209
0.823362 0.739956 0.662806
0.862760 0.774105 0.698726
0.910094 0.819211 0.749203
0.825223 0.802182 0.706874
0.827237 0.803708 0.708583
0.834836 0.809781 0.715663
0.847074 0.819577 0.726864
0.864317 0.833555 0.743099
0.886687 0.852323 0.765225
0.914855 0.876493 0.794858
0.947845 0.906157 0.837278
0.408759 0.109438 0.413977
0.421942 0.117678 0.418036
0.463722 0.146090 0.430915
0.524987 0.196048 0.454505
0.595087 0.264042 0.487129
0.669612 0.346899 0.527825
0.745144 0.442420 0.573144
0.814694 0.537896 0.620996
0.424109 0.140017 0.421363
0.436286 0.147066 0.425208
0.474983 0.171603 0.437751
0.533013 0.216617 0.460304
0.600855 0.280644 0.492256
0.673854 0.360388 0.532036
0.747982 0.452705 0.576349
0.816495 0.545464 0.623560
0.465064 0.214755 0.445045
0.474983 0.220310 0.448463
0.507164 0.239902 0.459632
0.558495 0.278264 0.481392
0.620478 0.333837 0.511223
0.689113 0.406348 0.547936
0.759274 0.489448 0.589960
0.824552 0.573816 0.635492
0.513542 0.307805 0.480232
0.521904 0.312657 0.483375
0.548760 0.330022 0.493782
0.593103 0.362707 0.513268
0.649805 0.412207 0.540368
0.713100 0.475166 0.573938
0.777737 0.546288 0.613031
0.838437 0.618677 0.656733
0.597589 0.451179 0.540154
0.601343 0.452796 0.541558
0.612848 0.455695 0.544854
0.629480 0.456367 0.549096
0.681300 0.498482 0.573571
0.740017 0.552148 0.605127
0.800168 0.612940 0.643153
0.857267 0.676081 0.686915
0.689052 0.600519 0.610285
0.691615 0.601556 0.611048
0.700221 0.604791 0.613977
0.713863 0.608759 0.618677
0.733028 0.613336 0.625299
0.773556 0.640436 0.646998
0.829740 0.692348 0.686091
0.882475 0.746181 0.730251
0.773404 0.728511 0.686152
0.775265 0.729427 0.687068
0.781613 0.732570 0.690272
0.792844 0.738308 0.696376
0.809293 0.746670 0.705715
0.831510 0.758175 0.718868
0.865660 0.780636 0.743160
0.912444 0.824186 0.786954
0.843534 0.829313 0.764126
0.844907 0.830167 0.765042
0.849882 0.833433 0.768856
0.859129 0.839689 0.776272
0.872801 0.849241 0.787686
0.891417 0.862852 0.804227
0.916625 0.882536 0.828977
0.949432 0.911345 0.866819
