其他预设/【232】美食博客调色预设124款/1.3D LUT预设（视频调色-PR-AE-PS-FCPX-达芬奇用）/Food Art #68.cube
# Created by Adobe Lightroom plugin Export LUT (1.17.0)
# www.johnrellis.com/lightroom/exportlut.htm
# Preset: Food Art #68
# Color profile: /Library/Application Support/Adobe/Color/Profiles/Recommended/AdobeRGB1998.icc
LUT_3D_SIZE 8
DOMAIN_MIN 0.000000 0.000000 0.000000
DOMAIN_MAX 0.903226 0.903226 0.903226
0.000000 0.000000 0.000000
0.059815 0.042786 0.063996
0.128511 0.094331 0.117403
0.214969 0.145632 0.180453
0.314122 0.204227 0.246769
0.435981 0.268589 0.308568
0.592767 0.346136 0.370672
0.764584 0.459510 0.456641
0.044038 0.088289 0.087739
0.082368 0.103273 0.107546
0.143709 0.128267 0.143343
0.225010 0.170657 0.198276
0.321538 0.222385 0.257511
0.439734 0.281834 0.314153
0.593164 0.356634 0.373968
0.764462 0.469154 0.460212
0.109316 0.190005 0.177493
0.131258 0.197391 0.187839
0.194553 0.221469 0.219852
0.267796 0.246677 0.254704
0.359319 0.284733 0.295903
0.474891 0.336065 0.341466
0.627741 0.410895 0.399542
0.785306 0.521416 0.489296
0.196933 0.299321 0.268742
0.211398 0.303471 0.273808
0.259709 0.319249 0.290684
0.343236 0.353124 0.321843
0.433875 0.385290 0.351385
0.538903 0.426184 0.385626
0.671931 0.492775 0.440101
0.807462 0.593164 0.531701
0.303471 0.420508 0.343969
0.314824 0.423804 0.346838
0.354498 0.436622 0.357794
0.422675 0.461524 0.378149
0.510246 0.494484 0.405341
0.605158 0.530541 0.438941
0.718441 0.589197 0.495705
0.833829 0.677302 0.589929
0.426215 0.558312 0.417700
0.439002 0.564324 0.422278
0.472175 0.574090 0.432013
0.528618 0.592248 0.450690
0.601831 0.617517 0.478035
0.684230 0.649409 0.515435
0.772183 0.693660 0.571954
0.865599 0.762814 0.659297
0.585840 0.708675 0.527794
0.593896 0.711147 0.531426
0.617578 0.716548 0.540764
0.658839 0.727779 0.559564
0.710994 0.743526 0.585718
0.769802 0.765316 0.620630
0.828733 0.791562 0.661860
0.894224 0.834623 0.725582
0.753689 0.840635 0.676661
0.757687 0.841672 0.678859
0.772244 0.845853 0.687373
0.798062 0.854368 0.703975
0.825895 0.861631 0.720485
0.864012 0.877165 0.749783
0.903258 0.896086 0.784482
0.939055 0.915831 0.820829
0.000000 0.008301 0.074372
0.055818 0.050782 0.093843
0.130587 0.106325 0.147524
0.219181 0.162051 0.209873
0.316991 0.215915 0.265599
0.433875 0.274510 0.318578
0.586175 0.347112 0.375616
0.757900 0.456794 0.458473
0.035920 0.089693 0.113741
0.080995 0.105867 0.133089
0.147036 0.140230 0.174044
0.229496 0.183810 0.223880
0.325353 0.232700 0.274723
0.440101 0.287999 0.324407
0.588556 0.358099 0.379431
0.757717 0.465980 0.461677
0.112093 0.190982 0.195468
0.136477 0.199710 0.208438
0.194400 0.222324 0.235477
0.268650 0.250523 0.268284
0.360113 0.288884 0.306340
0.471656 0.337682 0.347845
0.617426 0.407080 0.401404
0.776883 0.515282 0.488197
0.199802 0.298650 0.278264
0.215732 0.303716 0.284001
0.262394 0.319707 0.299809
0.338201 0.348455 0.326146
0.423865 0.378576 0.353063
0.526970 0.419257 0.386297
0.659693 0.484840 0.438941
0.799680 0.585901 0.528771
0.307103 0.420417 0.350500
0.317754 0.423224 0.352880
0.355200 0.434943 0.363012
0.419074 0.456886 0.381079
0.503105 0.487861 0.406592
0.598260 0.525139 0.440162
0.713008 0.584985 0.496407
0.829648 0.673182 0.588830
0.426093 0.555291 0.421149
0.435706 0.558251 0.423865
0.468238 0.568200 0.433509
0.524926 0.587213 0.452369
0.598657 0.613794 0.480110
0.682185 0.647303 0.517998
0.770047 0.691737 0.573663
0.863127 0.760159 0.658717
0.581476 0.703578 0.527367
0.587640 0.704555 0.529534
0.612146 0.710842 0.539269
0.655024 0.723598 0.559045
0.708553 0.740719 0.586328
0.766995 0.762356 0.620356
0.825162 0.787778 0.659968
0.891051 0.830930 0.722774
0.750729 0.837919 0.675563
0.755276 0.839384 0.678279
0.770230 0.843839 0.687068
0.796292 0.852689 0.703792
0.828855 0.864012 0.725826
0.865080 0.878111 0.752773
0.902708 0.895476 0.785031
0.938018 0.914611 0.820096
0.000000 0.040986 0.136446
0.044007 0.066194 0.151003
0.131228 0.114412 0.197543
0.223423 0.171237 0.248203
0.326299 0.229343 0.298253
0.449561 0.292607 0.348272
0.600122 0.362036 0.401465
0.765225 0.469886 0.482155
0.043793 0.103334 0.173190
0.081697 0.116152 0.186069
0.149325 0.149020 0.219608
0.235904 0.195346 0.262028
0.336400 0.247532 0.307317
0.455238 0.304967 0.353094
0.603479 0.373236 0.405035
0.767025 0.480598 0.486427
0.116670 0.196262 0.237491
0.140536 0.204654 0.246433
0.200778 0.229618 0.270970
0.277440 0.261173 0.300023
0.373266 0.302892 0.335180
0.485542 0.351751 0.373327
0.627680 0.418982 0.424811
0.780789 0.524071 0.508232
0.206821 0.302953 0.303807
0.223667 0.308598 0.309453
0.274052 0.327337 0.326329
0.346441 0.354833 0.348974
0.433631 0.387213 0.375311
0.538842 0.430243 0.409003
0.669673 0.496681 0.462318
0.804257 0.595239 0.548913
0.312535 0.422370 0.367742
0.325719 0.426795 0.371649
0.366705 0.440986 0.383764
0.429206 0.463325 0.401465
0.511498 0.494148 0.426490
0.605158 0.531945 0.460395
0.717891 0.591791 0.515557
0.832090 0.678492 0.604273
0.432319 0.557458 0.437476
0.443549 0.560937 0.441260
0.477607 0.571221 0.452186
0.531121 0.588769 0.469490
0.601648 0.614252 0.495583
0.682368 0.646876 0.531670
0.770413 0.692988 0.586725
0.864836 0.763302 0.670405
0.588739 0.705928 0.543114
0.596063 0.707393 0.546197
0.619776 0.712825 0.555566
0.659602 0.724208 0.572961
0.710842 0.740780 0.598169
0.768765 0.763058 0.631403
0.827543 0.790158 0.671229
0.894560 0.835538 0.734798
0.752438 0.838224 0.684016
0.756008 0.838926 0.685786
0.770199 0.842985 0.693660
0.797086 0.852689 0.710994
0.829129 0.863890 0.731991
0.865629 0.878508 0.758877
0.903471 0.896330 0.790799
0.939086 0.916045 0.825895
0.000000 0.072053 0.213138
0.035340 0.086061 0.224247
0.133059 0.126467 0.254246
0.227726 0.179324 0.292912
0.331853 0.235416 0.332280
0.453223 0.296056 0.375769
0.603601 0.366552 0.429450
0.765133 0.470802 0.506706
0.053590 0.122133 0.241611
0.085664 0.131014 0.248814
0.153658 0.159548 0.271092
0.241550 0.202762 0.303838
0.343420 0.253819 0.340490
0.461799 0.310735 0.381750
0.609216 0.379248 0.434119
0.767971 0.481941 0.511101
0.127932 0.204166 0.284947
0.149783 0.212528 0.291417
0.206943 0.235691 0.309636
0.285191 0.267887 0.334722
0.382422 0.310979 0.366674
0.498512 0.362799 0.405402
0.640986 0.431189 0.458320
0.785458 0.529870 0.535180
0.217899 0.308659 0.339086
0.233585 0.314244 0.343359
0.282780 0.332555 0.357641
0.358404 0.363073 0.380804
0.443610 0.395666 0.405554
0.548791 0.439338 0.439429
0.675929 0.504143 0.491432
0.806760 0.599695 0.572808
0.323644 0.428107 0.396887
0.335485 0.431525 0.399786
0.375799 0.445441 0.411139
0.442267 0.471382 0.431830
0.522026 0.501518 0.456611
0.615290 0.541192 0.491127
0.724880 0.600275 0.544335
0.835203 0.682979 0.625422
0.443305 0.563104 0.465797
0.456306 0.568597 0.470710
0.490608 0.578485 0.481514
0.545647 0.597314 0.500633
0.613184 0.621973 0.525292
0.689296 0.652399 0.558770
0.775204 0.698543 0.610468
0.867338 0.766567 0.687282
0.594629 0.707607 0.565545
0.602808 0.709865 0.569177
0.629114 0.716945 0.580377
0.669276 0.729122 0.598108
0.718746 0.745724 0.621485
0.774044 0.767117 0.651667
0.830259 0.792905 0.687800
0.897307 0.838956 0.749020
0.756893 0.840635 0.700679
0.761074 0.841917 0.702998
0.774258 0.845731 0.709773
0.797513 0.853330 0.722774
0.829343 0.864500 0.742733
0.865904 0.879240 0.768460
0.904051 0.897368 0.799649
0.940185 0.917601 0.834195
0.000000 0.098604 0.287755
0.060945 0.110109 0.293950
0.145205 0.143526 0.312016
0.236790 0.190524 0.338903
0.342382 0.244572 0.372992
0.463050 0.303105 0.413428
0.612787 0.373571 0.469093
0.771969 0.479988 0.547051
0.072694 0.140352 0.304082
0.100404 0.148623 0.309117
0.166262 0.173983 0.323949
0.251011 0.212894 0.347570
0.353460 0.262303 0.379889
0.472816 0.318212 0.419654
0.619989 0.387335 0.474556
0.775357 0.491737 0.551720
0.152163 0.221225 0.337072
0.171756 0.228824 0.341894
0.221317 0.246738 0.353674
0.296147 0.276707 0.374182
0.389715 0.316533 0.401984
0.502770 0.365545 0.439155
0.641627 0.431922 0.492134
0.785306 0.528740 0.566094
0.232944 0.314946 0.377539
0.247745 0.320348 0.381231
0.295140 0.338872 0.394354
0.366461 0.367346 0.415015
0.451575 0.400793 0.440345
0.556542 0.444770 0.475410
0.680140 0.505699 0.525078
0.805264 0.590936 0.594568
0.334447 0.430823 0.431556
0.346441 0.435096 0.434699
0.385412 0.449134 0.445777
0.448920 0.473854 0.465339
0.530510 0.506767 0.492348
0.620050 0.543481 0.523339
0.725093 0.598138 0.571191
0.833707 0.675135 0.641810
0.450050 0.562585 0.498604
0.460060 0.565576 0.501396
0.492561 0.575280 0.510948
0.545739 0.594018 0.528557
0.613214 0.620569 0.552880
0.691646 0.653468 0.586816
0.777981 0.700465 0.635065
0.868162 0.764675 0.703456
0.600397 0.708125 0.595026
0.607294 0.709590 0.597375
0.631128 0.715755 0.606134
0.669734 0.727840 0.621759
0.717678 0.745205 0.642390
0.774105 0.767361 0.671168
0.830869 0.793362 0.705165
0.898680 0.839689 0.763027
0.756313 0.839017 0.717983
0.759945 0.839963 0.719570
0.772549 0.843687 0.725490
0.796323 0.853025 0.738521
0.825254 0.863737 0.753750
0.863249 0.878721 0.778653
0.902770 0.897124 0.808804
0.940063 0.917723 0.842374
0.068574 0.128756 0.358099
0.101503 0.137850 0.361975
0.173159 0.166140 0.374060
0.262303 0.208255 0.395636
0.365087 0.257725 0.424933
0.480140 0.313512 0.461707
0.626917 0.384497 0.520714
0.782132 0.494209 0.599695
0.108461 0.163180 0.367285
0.130648 0.169863 0.370397
0.191440 0.192477 0.381659
0.274968 0.228489 0.401892
0.374273 0.273991 0.430182
0.487709 0.327092 0.466621
0.632319 0.397101 0.524926
0.784451 0.504601 0.603052
0.182834 0.242039 0.395361
0.197818 0.246708 0.398169
0.245304 0.262730 0.408209
0.318639 0.290288 0.426429
0.411048 0.327977 0.452705
0.519371 0.375372 0.487892
0.655207 0.442847 0.543328
0.795529 0.543084 0.617487
0.260807 0.334142 0.432593
0.273991 0.338628 0.435554
0.317845 0.354589 0.447242
0.385870 0.379522 0.466804
0.472633 0.412696 0.492744
0.572381 0.456062 0.525109
0.692988 0.517082 0.575586
0.814572 0.603540 0.642908
0.354223 0.445106 0.482795
0.365515 0.449195 0.486091
0.403235 0.462593 0.496773
0.464210 0.484718 0.514855
0.539879 0.512169 0.537713
0.629664 0.549523 0.568322
0.731136 0.601740 0.612512
0.835904 0.670710 0.672419
0.468879 0.572992 0.547417
0.479103 0.576776 0.550744
0.510399 0.587182 0.559960
0.560296 0.604669 0.575830
0.623987 0.628168 0.597314
0.701869 0.661982 0.629053
0.781918 0.701442 0.666957
0.868589 0.757656 0.722805
0.612055 0.712581 0.635492
0.619562 0.714900 0.638239
0.641901 0.721126 0.645655
0.677455 0.732448 0.658564
0.722530 0.748836 0.676448
0.776638 0.771237 0.700923
0.835233 0.797940 0.732906
0.903166 0.843107 0.785458
0.760372 0.840909 0.745327
0.763729 0.841794 0.746670
0.775570 0.845396 0.751705
0.796475 0.853056 0.761593
0.824094 0.863859 0.774929
0.858824 0.878508 0.793393
0.901518 0.897978 0.823239
0.941009 0.919341 0.856046
0.132479 0.160494 0.441871
0.155550 0.168154 0.445441
0.218814 0.192416 0.456733
0.306065 0.229191 0.477211
0.409277 0.275486 0.505608
0.524041 0.330785 0.541405
0.644648 0.397253 0.583795
0.789883 0.507378 0.658473
0.155581 0.188937 0.449042
0.175235 0.195163 0.452399
0.232914 0.215305 0.463172
0.316197 0.248020 0.482521
0.416999 0.291051 0.510124
0.529686 0.343847 0.545220
0.648249 0.408667 0.586816
0.790799 0.515709 0.659876
0.212009 0.260807 0.474067
0.227298 0.264958 0.476814
0.276432 0.280095 0.486671
0.352453 0.306371 0.504845
0.447364 0.343297 0.530449
0.555718 0.391699 0.563897
0.669306 0.453895 0.603754
0.802426 0.554559 0.673426
0.285222 0.355535 0.512291
0.296727 0.358221 0.514611
0.336584 0.368353 0.523186
0.406500 0.390845 0.539879
0.495949 0.423560 0.563806
0.598199 0.468818 0.595117
0.701595 0.524254 0.631189
0.819791 0.611475 0.694392
0.383001 0.472328 0.562310
0.392645 0.474830 0.564294
0.425422 0.483436 0.571832
0.477821 0.496651 0.584070
0.552605 0.519646 0.603021
0.645716 0.558953 0.630915
0.738003 0.607782 0.663905
0.841520 0.678553 0.721553
0.504936 0.603265 0.624018
0.513024 0.605524 0.625818
0.540002 0.613001 0.632380
0.582879 0.625147 0.643030
0.638239 0.641169 0.657404
0.707301 0.665827 0.679103
0.785641 0.704036 0.710719
0.869810 0.755642 0.758999
0.632654 0.724727 0.689204
0.638575 0.726497 0.690883
0.657801 0.731868 0.696376
0.688533 0.741299 0.706050
0.729335 0.754910 0.720027
0.779782 0.774533 0.740322
0.839780 0.802976 0.770108
0.904173 0.840024 0.809903
0.762966 0.841886 0.776852
0.766415 0.843015 0.778286
0.778958 0.847715 0.783963
0.798856 0.855192 0.792874
0.825895 0.865965 0.805509
0.859464 0.880522 0.822416
0.899229 0.899290 0.844816
0.942473 0.921935 0.876463
0.203128 0.195926 0.583398
0.223789 0.202182 0.586572
0.285008 0.223392 0.596551
0.374182 0.258640 0.614740
0.479713 0.307042 0.639155
0.593744 0.369146 0.668482
0.707393 0.448219 0.701106
0.808103 0.535943 0.735225
0.215366 0.219852 0.588861
0.234806 0.225315 0.591882
0.293797 0.244114 0.601526
0.381109 0.276616 0.618799
0.485359 0.322606 0.642634
0.598169 0.382849 0.671260
0.710292 0.459602 0.703182
0.809689 0.544915 0.736873
0.249088 0.284703 0.607080
0.266606 0.289067 0.609674
0.321050 0.304082 0.618158
0.405249 0.332311 0.634730
0.505852 0.373236 0.656367
0.615167 0.429114 0.682704
0.722774 0.499519 0.712886
0.817716 0.577813 0.745388
0.294224 0.371221 0.633906
0.310399 0.375128 0.636316
0.361517 0.388006 0.644007
0.441505 0.412573 0.658076
0.539178 0.450141 0.677638
0.643244 0.500572 0.701656
0.743709 0.562036 0.729671
0.831846 0.628473 0.760708
0.415106 0.506859 0.677668
0.423133 0.507744 0.678706
0.447913 0.508446 0.681117
0.484779 0.505608 0.684321
0.577691 0.538415 0.701778
0.676143 0.582727 0.724147
0.769345 0.635248 0.751369
0.850980 0.691371 0.782589
0.558251 0.647761 0.728054
0.563653 0.648432 0.728603
0.581811 0.650538 0.730617
0.610559 0.652766 0.734005
0.649653 0.654871 0.738918
0.718807 0.676051 0.754696
0.803372 0.719234 0.782620
0.876829 0.765316 0.813993
0.689723 0.770047 0.782254
0.693263 0.770718 0.782895
0.705104 0.772854 0.785183
0.725673 0.776974 0.789578
0.754726 0.782956 0.796292
0.792264 0.791226 0.806027
0.844327 0.808652 0.823575
0.907225 0.843961 0.854002
0.790799 0.864256 0.837522
0.793088 0.864836 0.838163
0.801358 0.867216 0.840848
0.816403 0.871824 0.846098
0.837919 0.878904 0.854063
0.865995 0.889067 0.865660
0.901762 0.904051 0.882841
0.944884 0.926390 0.908843
