其他预设/【232】美食博客调色预设124款/1.3D LUT预设（视频调色-PR-AE-PS-FCPX-达芬奇用）/Food Art #37.cube
# Created by Adobe Lightroom plugin Export LUT (1.17.0)
# www.johnrellis.com/lightroom/exportlut.htm
# Preset: Food Art #37
# Color profile: /Library/Application Support/Adobe/Color/Profiles/Recommended/AdobeRGB1998.icc
LUT_3D_SIZE 8
DOMAIN_MIN 0.000000 0.000000 0.000000
DOMAIN_MAX 0.903226 0.903226 0.903226
0.000000 0.000000 0.000000
0.102663 0.000000 0.000000
0.222446 0.000000 0.000000
0.347326 0.000000 0.000000
0.476539 0.000000 0.000000
0.610925 0.000000 0.000000
0.755093 0.000000 0.000000
0.899290 0.000000 0.000000
0.000000 0.105440 0.000000
0.104860 0.105745 0.000000
0.224552 0.103609 0.000000
0.351446 0.105592 0.000000
0.481178 0.104036 0.000000
0.616632 0.095857 0.000000
0.759518 0.079286 0.000000
0.901946 0.031769 0.000000
0.000000 0.228611 0.000000
0.106508 0.229618 0.000000
0.232059 0.232181 0.000000
0.346960 0.227665 0.000000
0.471107 0.228489 0.000000
0.605615 0.230503 0.000000
0.745968 0.229953 0.000000
0.892576 0.227512 0.000000
0.000000 0.360540 0.000000
0.100252 0.362219 0.000000
0.236637 0.364233 0.000000
0.362005 0.362188 0.000000
0.475196 0.352361 0.000000
0.583185 0.342535 0.000000
0.732876 0.354009 0.000000
0.886107 0.361364 0.000000
0.000000 0.500389 0.000000
0.078523 0.501152 0.000000
0.236240 0.501946 0.000000
0.369635 0.500999 0.000000
0.501946 0.502129 0.000000
0.625238 0.495644 0.000000
0.738552 0.483528 0.000000
0.877104 0.487098 0.000000
0.000000 0.643000 0.000000
0.000000 0.640223 0.000000
0.229252 0.641260 0.000000
0.371893 0.642420 0.000000
0.509422 0.644434 0.000000
0.645167 0.645411 0.000000
0.773037 0.639368 0.000000
0.892088 0.627405 0.000000
0.000000 0.783627 0.000000
0.000000 0.783139 0.000000
0.217868 0.784543 0.000000
0.370123 0.785580 0.000000
0.512139 0.787228 0.000000
0.650294 0.787472 0.000000
0.786923 0.787106 0.000000
0.919463 0.783474 0.000000
0.000000 0.920378 0.000000
0.000000 0.920592 0.000000
0.199954 0.920714 0.000000
0.361303 0.919951 0.000000
0.508659 0.924224 0.000000
0.647700 0.922972 0.000000
0.783963 0.921080 0.000000
0.920195 0.920439 0.000000
0.000000 0.000000 0.107057
0.107393 0.000000 0.107576
0.234165 0.000000 0.108034
0.363317 0.000000 0.099641
0.493172 0.000000 0.091066
0.628504 0.000000 0.076997
0.768734 0.000000 0.040223
0.908843 0.000000 0.000000
0.000000 0.108370 0.108522
0.107912 0.107912 0.107912
0.233829 0.105135 0.105257
0.362371 0.097597 0.098421
0.493050 0.087770 0.089418
0.629145 0.070924 0.074769
0.771084 0.015900 0.031586
0.911467 0.000000 0.000000
0.000000 0.235080 0.106905
0.099214 0.236271 0.099245
0.236484 0.236637 0.097017
0.353429 0.228733 0.091341
0.483497 0.229313 0.081331
0.619104 0.228733 0.062745
0.761196 0.226505 0.000000
0.903716 0.221225 0.000000
0.000000 0.369604 0.089479
0.079744 0.370459 0.080446
0.236393 0.370825 0.077485
0.371191 0.371252 0.071351
0.487892 0.359716 0.058228
0.600641 0.349859 0.011780
0.748440 0.357519 0.000000
0.896971 0.361151 0.000000
0.000000 0.504967 0.026947
0.021454 0.506096 0.023621
0.232395 0.507530 0.014862
0.373144 0.508629 0.000000
0.510246 0.510399 0.000000
0.632868 0.500298 0.000000
0.744778 0.485451 0.000000
0.884672 0.488411 0.000000
0.000000 0.648524 0.000000
0.000000 0.648554 0.000000
0.224521 0.649165 0.000000
0.372595 0.649104 0.000000
0.512108 0.649378 0.000000
0.648341 0.648524 0.000000
0.776211 0.641108 0.000000
0.895872 0.628473 0.000000
0.000000 0.789822 0.000000
0.000000 0.790707 0.000000
0.212070 0.791287 0.000000
0.369116 0.790768 0.000000
0.512749 0.790921 0.000000
0.652644 0.791165 0.000000
0.791196 0.791409 0.000000
0.924132 0.786984 0.000000
0.000000 0.923827 0.000000
0.000000 0.923583 0.000000
0.191775 0.923461 0.000000
0.358434 0.922332 0.000000
0.504875 0.922179 0.000000
0.645930 0.922454 0.000000
0.784360 0.922179 0.000000
0.921874 0.922118 0.000000
0.000000 0.000000 0.232822
0.107454 0.000000 0.233066
0.234958 0.000000 0.234989
0.365789 0.000000 0.235630
0.500389 0.000000 0.231785
0.641321 0.000000 0.224033
0.777920 0.000000 0.213260
0.914244 0.000000 0.201358
0.000000 0.105226 0.235782
0.100862 0.101289 0.236515
0.237400 0.093965 0.237430
0.369482 0.078096 0.235904
0.504662 0.017121 0.231632
0.642145 0.000000 0.223545
0.778958 0.000000 0.212924
0.914977 0.000000 0.200687
0.000000 0.236851 0.236759
0.088045 0.237003 0.237034
0.234684 0.234684 0.234684
0.365118 0.231205 0.231296
0.496010 0.224979 0.225010
0.631678 0.216617 0.217044
0.771633 0.205539 0.206516
0.910979 0.192447 0.193942
0.000000 0.369879 0.235386
0.035920 0.370459 0.232273
0.222812 0.372320 0.222782
0.371130 0.371221 0.220890
0.483619 0.352667 0.213504
0.612390 0.349218 0.204929
0.756954 0.349706 0.193118
0.902434 0.347814 0.179507
0.000000 0.507378 0.229038
0.000000 0.508324 0.224674
0.212009 0.510155 0.212131
0.366766 0.509422 0.210269
0.509575 0.509697 0.207828
0.631403 0.494911 0.193240
0.742794 0.477394 0.174289
0.891173 0.482277 0.154177
0.000000 0.650416 0.217105
0.000000 0.651057 0.211032
0.198337 0.652888 0.198611
0.364080 0.653407 0.196841
0.511254 0.653681 0.193912
0.652247 0.652399 0.189090
0.778592 0.639887 0.168673
0.895659 0.622431 0.131411
0.000000 0.790402 0.195163
0.000000 0.791409 0.187533
0.179141 0.793088 0.179568
0.356878 0.793576 0.177920
0.507958 0.793881 0.175174
0.651392 0.793027 0.170596
0.790951 0.791104 0.163516
0.921965 0.782834 0.142489
0.000000 0.925444 0.163638
0.000000 0.926177 0.155947
0.154574 0.926390 0.155245
0.344091 0.924285 0.150423
0.497688 0.924132 0.147127
0.642267 0.923613 0.142611
0.782742 0.922606 0.136172
0.921477 0.921660 0.129580
0.000000 0.000000 0.369024
0.109071 0.000000 0.368048
0.239902 0.000000 0.369329
0.370947 0.000000 0.370916
0.506493 0.000000 0.371832
0.647364 0.000000 0.371679
0.789975 0.000000 0.366766
0.927520 0.000000 0.355993
0.000000 0.095216 0.368566
0.091218 0.091920 0.368688
0.236057 0.078157 0.370123
0.371466 0.029694 0.371466
0.507652 0.000000 0.371588
0.649165 0.000000 0.371191
0.791714 0.000000 0.365972
0.928527 0.000000 0.354833
0.000000 0.235508 0.372107
0.012665 0.232395 0.372808
0.224887 0.224826 0.374060
0.373999 0.220706 0.373999
0.508141 0.219913 0.369177
0.646906 0.207492 0.365484
0.787015 0.183444 0.357061
0.922423 0.153414 0.345373
0.000000 0.371649 0.371771
0.000000 0.372381 0.372503
0.217197 0.372869 0.372961
0.368322 0.368322 0.368322
0.501427 0.363653 0.363745
0.638544 0.356268 0.356390
0.777340 0.345434 0.345739
0.915068 0.332555 0.333104
0.000000 0.508324 0.370245
0.000000 0.509789 0.369787
0.201724 0.511955 0.365820
0.355261 0.510643 0.355352
0.509148 0.509178 0.353094
0.624384 0.484993 0.337713
0.754604 0.475074 0.322393
0.902617 0.473854 0.311681
0.000000 0.649866 0.367102
0.000000 0.648402 0.363622
0.176791 0.651698 0.356359
0.342840 0.653651 0.342992
0.502922 0.653223 0.341283
0.652338 0.652399 0.338750
0.776944 0.632136 0.314702
0.894255 0.610315 0.287633
0.000000 0.791684 0.359106
0.000000 0.791867 0.355993
0.142184 0.792996 0.345068
0.330297 0.793942 0.330419
0.494972 0.793698 0.329137
0.646204 0.793027 0.327245
0.791531 0.791653 0.324468
0.921935 0.778439 0.304417
0.000000 0.924773 0.344152
0.000000 0.924926 0.340520
0.083925 0.926116 0.328161
0.315862 0.926635 0.316167
0.483955 0.926268 0.315251
0.635462 0.925322 0.313420
0.780301 0.923705 0.310674
0.921599 0.921752 0.307744
0.000000 0.000000 0.507012
0.103212 0.000000 0.506401
0.242252 0.000000 0.507958
0.374670 0.000000 0.508782
0.510216 0.000000 0.510216
0.651179 0.000000 0.512932
0.792477 0.000000 0.511833
0.928649 0.000000 0.505089
0.000000 0.085206 0.507866
0.077943 0.080079 0.506401
0.235843 0.060456 0.507652
0.373602 0.000000 0.510002
0.511376 0.000000 0.511467
0.651820 0.000000 0.512657
0.792813 0.000000 0.510948
0.929046 0.000000 0.504082
0.000000 0.226261 0.510277
0.000000 0.221561 0.510582
0.217380 0.217472 0.512383
0.369818 0.211795 0.513756
0.514794 0.202457 0.514824
0.655726 0.195804 0.513268
0.795438 0.176761 0.509453
0.931304 0.149538 0.502251
0.000000 0.372168 0.512322
0.000000 0.371313 0.513207
0.199191 0.366461 0.514336
0.358495 0.358556 0.514366
0.514153 0.355322 0.514122
0.655085 0.356298 0.509636
0.795132 0.349065 0.505272
0.930785 0.338384 0.497810
0.000000 0.513085 0.513207
0.000000 0.513268 0.513390
0.189883 0.514031 0.514092
0.352483 0.513207 0.513237
0.508537 0.508537 0.508537
0.646967 0.501579 0.501640
0.784482 0.491005 0.491096
0.921263 0.477760 0.477913
0.000000 0.657191 0.514763
0.000000 0.657832 0.514336
0.166110 0.660426 0.512902
0.340520 0.662135 0.507958
0.498543 0.661341 0.498573
0.656794 0.656794 0.493812
0.770413 0.620661 0.461769
0.902434 0.602625 0.437690
0.000000 0.795315 0.508232
0.000000 0.796139 0.507286
0.124849 0.797848 0.503075
0.321202 0.799069 0.493843
0.482856 0.799069 0.482918
0.643488 0.797208 0.481209
0.795041 0.795102 0.479316
0.923125 0.772671 0.447272
0.000000 0.929076 0.498329
0.000000 0.929503 0.496803
0.059480 0.930632 0.491188
0.300053 0.929656 0.477943
0.469154 0.929900 0.469245
0.629389 0.928588 0.468696
0.779294 0.926543 0.467292
0.923919 0.924041 0.465858
0.000000 0.000000 0.645930
0.088869 0.000000 0.646082
0.240909 0.000000 0.648615
0.377539 0.000000 0.650202
0.514611 0.000000 0.652308
0.654200 0.000000 0.654231
0.793851 0.000000 0.653590
0.928832 0.000000 0.647761
0.000000 0.065126 0.651484
0.048127 0.057038 0.651820
0.235172 0.000000 0.652918
0.376684 0.000000 0.653956
0.515801 0.000000 0.655116
0.656214 0.000000 0.656214
0.795285 0.000000 0.654231
0.929778 0.000000 0.647822
0.000000 0.214847 0.652277
0.000000 0.214084 0.653010
0.209720 0.210208 0.654200
0.366918 0.202274 0.655055
0.512840 0.189975 0.656428
0.657404 0.170871 0.657404
0.796231 0.154330 0.653040
0.930480 0.125277 0.645808
0.000000 0.366217 0.653803
0.000000 0.364294 0.654810
0.168856 0.355840 0.656214
0.347265 0.347295 0.655177
0.504265 0.341894 0.654932
0.655634 0.335210 0.655604
0.795102 0.333440 0.649042
0.929931 0.325658 0.641779
0.000000 0.513542 0.657008
0.000000 0.512779 0.657252
0.156680 0.509911 0.657984
0.335271 0.503807 0.658442
0.496376 0.496315 0.658534
0.658381 0.494392 0.658381
0.797147 0.497902 0.650263
0.930694 0.495888 0.644862
0.000000 0.658564 0.658717
0.000000 0.658076 0.658198
0.135744 0.658534 0.658625
0.329473 0.658900 0.658961
0.493538 0.658503 0.658503
0.652979 0.652949 0.652979
0.785763 0.641962 0.641993
0.920317 0.630091 0.630152
0.000000 0.796445 0.652735
0.000000 0.796353 0.652003
0.082246 0.797665 0.650904
0.311803 0.799069 0.648035
0.479744 0.799374 0.644221
0.640650 0.797421 0.640681
0.794980 0.795010 0.638788
0.912963 0.759823 0.599237
0.000000 0.930632 0.644160
0.000000 0.931060 0.643641
0.000000 0.932097 0.641108
0.296910 0.932433 0.635676
0.469429 0.932097 0.631373
0.629541 0.930510 0.629572
0.780117 0.927916 0.627832
0.925139 0.925170 0.626429
0.000000 0.000000 0.794614
0.065064 0.000000 0.794125
0.239261 0.000000 0.794491
0.379736 0.000000 0.794736
0.517967 0.000000 0.795743
0.657099 0.000000 0.796902
0.798062 0.000000 0.798093
0.932372 0.000000 0.791806
0.000000 0.007080 0.797177
0.000000 0.000000 0.796750
0.232090 0.000000 0.796994
0.377630 0.000000 0.797543
0.518151 0.000000 0.798520
0.658869 0.000000 0.799802
0.801053 0.000000 0.801083
0.935271 0.000000 0.794125
0.000000 0.210880 0.797330
0.000000 0.209476 0.797452
0.204227 0.205142 0.798032
0.365789 0.196262 0.798611
0.512902 0.182528 0.799710
0.657008 0.161959 0.800595
0.800717 0.129885 0.800748
0.934020 0.105928 0.791684
0.000000 0.357092 0.797482
0.000000 0.354467 0.798245
0.141665 0.347417 0.799435
0.343572 0.343755 0.799496
0.502251 0.338537 0.800137
0.652277 0.330846 0.800229
0.799802 0.320348 0.799832
0.933440 0.318090 0.789181
0.000000 0.509300 0.799588
0.000000 0.508354 0.800229
0.117037 0.504204 0.801480
0.322423 0.495827 0.802365
0.490242 0.490242 0.802762
0.649531 0.488289 0.802731
0.802243 0.485634 0.802243
0.933684 0.488685 0.789487
0.000000 0.655451 0.800198
0.000000 0.655024 0.800351
0.085084 0.653376 0.800839
0.315221 0.650019 0.801114
0.483772 0.646815 0.801205
0.644434 0.644343 0.799985
0.799039 0.643305 0.799039
0.930724 0.647669 0.790249
0.000000 0.798520 0.798703
0.000000 0.798337 0.798489
0.000000 0.798581 0.798703
0.305547 0.798672 0.798764
0.480720 0.799191 0.799222
0.643519 0.798734 0.798734
0.795102 0.795071 0.795102
0.922301 0.783993 0.784024
0.000000 0.935058 0.791592
0.000000 0.935241 0.791348
0.000000 0.934173 0.788968
0.293797 0.934020 0.787045
0.472175 0.933654 0.785763
0.633387 0.931945 0.784726
0.784543 0.929076 0.784573
0.926696 0.926696 0.783261
0.000000 0.000000 0.932403
0.000000 0.000000 0.932189
0.234592 0.000000 0.932738
0.378363 0.000000 0.932769
0.517144 0.000000 0.933013
0.655268 0.000000 0.933379
0.793759 0.000000 0.933471
0.934081 0.000000 0.934112
0.000000 0.000000 0.933532
0.000000 0.000000 0.933349
0.227512 0.000000 0.933684
0.375525 0.000000 0.933867
0.515984 0.000000 0.934081
0.655055 0.000000 0.934417
0.794522 0.000000 0.934691
0.935363 0.000000 0.935393
0.000000 0.208621 0.934844
0.000000 0.207431 0.934783
0.201968 0.203464 0.935393
0.363653 0.194095 0.934630
0.509972 0.181155 0.934997
0.652613 0.163272 0.935607
0.794095 0.136538 0.935790
0.936156 0.098634 0.936217
0.000000 0.349493 0.935760
0.000000 0.348791 0.935607
0.146731 0.347326 0.935943
0.343420 0.343786 0.935821
0.499489 0.338811 0.935790
0.647242 0.332647 0.936034
0.792050 0.324956 0.936065
0.936278 0.317632 0.936278
0.000000 0.502647 0.936156
0.000000 0.501061 0.936034
0.090181 0.496712 0.936553
0.318181 0.489479 0.936980
0.488563 0.488655 0.937163
0.643183 0.487953 0.937255
0.791348 0.486732 0.936950
0.936461 0.486183 0.936492
0.000000 0.649134 0.936065
0.000000 0.648798 0.936370
0.074586 0.647181 0.937133
0.319890 0.644648 0.937652
0.488319 0.643458 0.937560
0.642939 0.642878 0.936400
0.790005 0.641657 0.935058
0.934508 0.642390 0.934508
0.000000 0.792020 0.934997
0.000000 0.791989 0.935241
0.000000 0.791653 0.935851
0.316655 0.791043 0.936156
0.488624 0.791196 0.936248
0.646296 0.792355 0.935882
0.794156 0.794095 0.934905
0.934386 0.794797 0.934356
0.000000 0.933989 0.934112
0.000000 0.934234 0.934356
0.000000 0.934447 0.934569
0.313725 0.934051 0.934142
0.487007 0.933623 0.933715
0.644892 0.933257 0.933318
0.794003 0.932647 0.932677
0.931243 0.931243 0.931243
