其他预设/【232】美食博客调色预设124款/1.3D LUT预设（视频调色-PR-AE-PS-FCPX-达芬奇用）/Food Art #3 ().cube
# Created by Adobe Lightroom plugin Export LUT (1.17.0)
# www.johnrellis.com/lightroom/exportlut.htm
# Preset: Food Art #3 (素锦印象)
# Color profile: /Library/Application Support/Adobe/Color/Profiles/Recommended/AdobeRGB1998.icc
LUT_3D_SIZE 32
0.000000 0.000000 0.000000
0.000000 0.000000 0.000000
0.000000 0.000000 0.000000
0.074891 0.000000 0.000000
0.118624 0.000000 0.000000
0.159091 0.000000 0.000000
0.195712 0.000000 0.000000
0.229068 0.000000 0.000000
0.260533 0.000000 0.000000
0.291203 0.000000 0.000000
0.322301 0.000000 0.000000
0.353918 0.000000 0.000000
0.386816 0.000000 0.000000
0.421271 0.000000 0.000000
0.457404 0.000000 0.000000
0.493019 0.000000 0.000000
0.527214 0.000000 0.000000
0.560082 0.000000 0.000000
0.591821 0.000000 0.000000
0.624079 0.000000 0.000000
0.656641 0.000000 0.000000
0.689326 0.000000 0.000000
0.721889 0.000000 0.006378
0.754208 0.000000 0.018372
0.786465 0.000000 0.027436
0.818601 0.000000 0.038575
0.850767 0.000000 0.048157
0.882963 0.000000 0.055543
0.915190 0.006836 0.060487
0.947356 0.018738 0.063905
0.979278 0.029633 0.067231
1.000000 0.041993 0.070771
0.000000 0.000000 0.000000
0.000000 0.000000 0.000000
0.000000 0.000000 0.000000
0.076600 0.000000 0.000000
0.119142 0.000000 0.000000
0.158907 0.000000 0.000000
0.195529 0.000000 0.000000
0.228824 0.000000 0.000000
0.260349 0.000000 0.000000
0.291112 0.000000 0.000000
0.322148 0.000000 0.000000
0.353796 0.000000 0.000000
0.386603 0.000000 0.000000
0.421088 0.000000 0.000000
0.457252 0.000000 0.000000
0.492836 0.000000 0.000000
0.527001 0.000000 0.000000
0.559838 0.000000 0.000000
0.591608 0.000000 0.000000
0.623804 0.000000 0.000000
0.656367 0.000000 0.000000
0.689052 0.000000 0.000000
0.721614 0.000000 0.006897
0.753964 0.000000 0.017914
0.786191 0.006561 0.027985
0.818387 0.016754 0.039002
0.850553 0.025116 0.047730
0.882750 0.036530 0.055879
0.914977 0.045472 0.060670
0.947173 0.053529 0.064118
0.979095 0.060853 0.066987
1.000000 0.065614 0.070161
0.000000 0.001190 0.000000
0.000000 0.006012 0.000000
0.000000 0.014435 0.000000
0.077089 0.017639 0.000000
0.119051 0.012268 0.000000
0.158755 0.005554 0.000000
0.195254 0.000000 0.000000
0.228611 0.000000 0.000000
0.260075 0.000000 0.000000
0.290898 0.000000 0.000000
0.321843 0.004059 0.000000
0.353582 0.005646 0.000000
0.386419 0.009186 0.000000
0.420905 0.013489 0.000000
0.456977 0.013184 0.000000
0.492683 0.011048 0.000000
0.526848 0.013092 0.000000
0.559686 0.014679 0.000000
0.591516 0.017090 0.000000
0.623621 0.024720 0.000000
0.656245 0.030030 0.000000
0.688899 0.035248 0.000000
0.721401 0.044343 0.007050
0.753780 0.050202 0.018158
0.786038 0.056336 0.028199
0.818235 0.060609 0.038331
0.850401 0.064851 0.048707
0.882597 0.068605 0.056123
0.914885 0.071138 0.060822
0.947082 0.074891 0.064240
0.978973 0.078035 0.067170
1.000000 0.081880 0.070314
0.000000 0.080720 0.000000
0.000000 0.082429 0.000000
0.000000 0.084443 0.000000
0.076051 0.084382 0.000000
0.118837 0.083436 0.000000
0.158389 0.082277 0.000000
0.194827 0.080293 0.000000
0.228183 0.078157 0.000000
0.259648 0.077028 0.000000
0.290532 0.077455 0.000000
0.321477 0.077790 0.000000
0.353216 0.078614 0.000000
0.386023 0.080110 0.000000
0.420569 0.081025 0.000000
0.456794 0.081147 0.000000
0.492378 0.081331 0.000000
0.526574 0.081575 0.000000
0.559380 0.082094 0.000000
0.591211 0.083467 0.000000
0.623316 0.084718 0.000000
0.655909 0.085878 0.000000
0.688533 0.087709 0.000000
0.721096 0.089693 0.008881
0.753506 0.091402 0.019959
0.785794 0.093385 0.029969
0.818021 0.095521 0.040009
0.850248 0.097108 0.049348
0.882506 0.099641 0.056641
0.914763 0.102113 0.061006
0.946960 0.103883 0.064088
0.978882 0.106203 0.067018
1.000000 0.108705 0.070161
0.000000 0.124453 0.000000
0.000000 0.125673 0.000000
0.000000 0.126406 0.000000
0.073579 0.126497 0.000000
0.119020 0.126680 0.000000
0.157748 0.125338 0.000000
0.194186 0.123995 0.000000
0.227451 0.122194 0.000000
0.259068 0.120668 0.000000
0.289769 0.119692 0.000000
0.320806 0.119020 0.000000
0.352605 0.119295 0.000000
0.385565 0.119722 0.000000
0.420111 0.120333 0.000000
0.456336 0.120821 0.000000
0.491920 0.121431 0.000000
0.526177 0.121798 0.000000
0.558953 0.122377 0.000000
0.590936 0.122683 0.000000
0.623041 0.123445 0.000000
0.655543 0.124544 0.000000
0.688228 0.125673 0.000763
0.720760 0.126833 0.011719
0.753201 0.127962 0.022797
0.785489 0.129122 0.032929
0.817746 0.130343 0.041962
0.849973 0.131838 0.050690
0.882261 0.133028 0.057374
0.914549 0.134737 0.061372
0.946777 0.136202 0.064424
0.978698 0.137545 0.067384
1.000000 0.139223 0.070192
0.000000 0.165042 0.000000
0.000000 0.165896 0.000000
0.000000 0.165866 0.000000
0.070680 0.165896 0.000000
0.117708 0.165713 0.000000
0.158053 0.165560 0.000000
0.193240 0.163210 0.000000
0.226566 0.161044 0.000000
0.258030 0.158785 0.000000
0.288853 0.157137 0.000000
0.320012 0.156344 0.000000
0.351934 0.156069 0.000000
0.384924 0.156252 0.000000
0.419623 0.156771 0.000000
0.455879 0.157931 0.000000
0.491432 0.158694 0.000000
0.525658 0.158999 0.000000
0.558434 0.159457 0.000000
0.590478 0.159640 0.000000
0.622644 0.160189 0.000000
0.655177 0.160983 0.000000
0.687922 0.161501 0.005921
0.721798 0.162631 0.016083
0.754208 0.163607 0.027070
0.786465 0.164431 0.037171
0.818692 0.165225 0.046296
0.850889 0.166354 0.053132
0.883085 0.167178 0.059754
0.915282 0.168276 0.062837
0.947417 0.169284 0.065827
0.979278 0.170260 0.068391
1.000000 0.171542 0.071199
0.000000 0.201755 0.000000
0.000000 0.201724 0.000000
0.000000 0.201785 0.000000
0.069978 0.201602 0.000000
0.115450 0.201358 0.000000
0.155337 0.200900 0.000000
0.192386 0.200443 0.000000
0.225193 0.197574 0.000000
0.256901 0.194949 0.000000
0.288029 0.193149 0.000000
0.319310 0.191897 0.000000
0.351446 0.191318 0.000000
0.384588 0.191531 0.000000
0.419348 0.192294 0.000000
0.455665 0.193668 0.000000
0.491127 0.194553 0.000000
0.525292 0.195071 0.000000
0.558282 0.195315 0.000000
0.590326 0.195468 0.000000
0.622522 0.195651 0.000000
0.655207 0.196292 0.000519
0.688045 0.196719 0.010254
0.720790 0.197360 0.019928
0.753384 0.197910 0.029816
0.785824 0.198581 0.039765
0.818143 0.199130 0.048341
0.850401 0.199863 0.055909
0.882628 0.200626 0.060304
0.914916 0.201236 0.063447
0.947051 0.202182 0.066346
0.978912 0.202762 0.068574
1.000000 0.203769 0.071015
0.000000 0.234440 0.000000
0.000000 0.234409 0.000000
0.000000 0.234379 0.000000
0.065156 0.234195 0.000000
0.111757 0.233982 0.000000
0.151308 0.233524 0.000000
0.188144 0.233005 0.000000
0.223270 0.232578 0.000000
0.255344 0.229831 0.000000
0.286625 0.227512 0.000000
0.318242 0.226139 0.000000
0.350439 0.225559 0.000000
0.383734 0.225834 0.000000
0.418555 0.226963 0.000000
0.454932 0.228458 0.000000
0.490394 0.229618 0.000000
0.524590 0.230259 0.000000
0.557610 0.230259 0.000000
0.589624 0.230442 0.000000
0.621881 0.230472 0.000000
0.654536 0.230838 0.006836
0.687404 0.231205 0.015503
0.720150 0.231662 0.025299
0.752773 0.232090 0.035187
0.785245 0.232486 0.043153
0.817594 0.233036 0.051606
0.849851 0.233494 0.057710
0.882170 0.233982 0.061280
0.914458 0.234562 0.063966
0.946654 0.235050 0.066499
0.978546 0.235721 0.068666
1.000000 0.236179 0.071229
0.000000 0.265812 0.000000
0.000000 0.265812 0.000000
0.000000 0.265721 0.000000
0.059785 0.265507 0.000000
0.108034 0.265385 0.000000
0.147097 0.265080 0.000000
0.183780 0.264744 0.000000
0.219059 0.264317 0.000000
0.253483 0.263859 0.000000
0.285283 0.261662 0.000000
0.316960 0.260197 0.000000
0.349340 0.259525 0.000000
0.382849 0.260044 0.000000
0.417823 0.261326 0.000000
0.454139 0.263127 0.000000
0.489693 0.264439 0.000000
0.523949 0.265049 0.000000
0.556878 0.265110 0.000000
0.588861 0.264866 0.000000
0.621149 0.264836 0.003784
0.653834 0.265232 0.012634
0.686793 0.265354 0.021485
0.719539 0.265782 0.030182
0.752163 0.266087 0.039094
0.784665 0.266392 0.047822
0.817014 0.266636 0.053986
0.849363 0.267063 0.059327
0.881712 0.267308 0.062135
0.914031 0.267735 0.064393
0.946258 0.268132 0.066499
0.978149 0.268528 0.068757
1.000000 0.268925 0.071290
0.000000 0.297185 0.000000
0.000000 0.297154 0.000000
0.000000 0.297093 0.000000
0.048951 0.297002 0.000000
0.103304 0.296910 0.000000
0.143465 0.296635 0.000000
0.180270 0.296422 0.000000
0.215610 0.296117 0.000000
0.250156 0.295933 0.000000
0.283970 0.295567 0.000000
0.316014 0.294041 0.000000
0.348150 0.293095 0.000000
0.381781 0.293614 0.000000
0.416907 0.295201 0.000000
0.453437 0.297551 0.000000
0.489021 0.298955 0.000000
0.523217 0.299596 0.000000
0.556146 0.299443 0.000000
0.588098 0.299199 0.002380
0.620417 0.299046 0.011231
0.653223 0.299199 0.020203
0.686030 0.299474 0.027955
0.718837 0.299596 0.035859
0.751461 0.299840 0.043824
0.783963 0.299992 0.050721
0.816342 0.300175 0.056886
0.848722 0.300420 0.060090
0.881163 0.300603 0.062440
0.913573 0.300877 0.065126
0.945830 0.301122 0.066835
0.977783 0.301457 0.068666
1.000000 0.301640 0.070558
0.000000 0.329076 0.000000
0.000000 0.329076 0.000000
0.000000 0.329137 0.000000
0.030823 0.329015 0.000000
0.099184 0.328923 0.000000
0.140230 0.328862 0.000000
0.177615 0.328801 0.000000
0.213046 0.328710 0.000000
0.247807 0.328496 0.000000
0.281895 0.328435 0.000000
0.315496 0.328344 0.000000
0.348058 0.327520 0.000000
0.380743 0.327276 0.000000
0.416205 0.329198 0.000000
0.452735 0.331701 0.000000
0.488106 0.333257 0.000000
0.522240 0.333715 0.000000
0.555047 0.333593 0.001007
0.587152 0.333104 0.010529
0.619562 0.332952 0.019348
0.652369 0.333074 0.027375
0.685267 0.333165 0.034211
0.718074 0.333349 0.042054
0.750698 0.333501 0.048493
0.783261 0.333623 0.054658
0.815702 0.333684 0.058991
0.848142 0.333745 0.061433
0.880583 0.333928 0.063355
0.913024 0.334081 0.065217
0.945342 0.334234 0.066529
0.977356 0.334356 0.068421
1.000000 0.334539 0.070344
0.000000 0.362280 0.000000
0.000000 0.362371 0.000000
0.000000 0.362310 0.000000
0.014343 0.362249 0.000000
0.095216 0.362280 0.000000
0.137636 0.362280 0.000000
0.175631 0.362341 0.000000
0.211551 0.362402 0.000000
0.246525 0.362402 0.000000
0.280949 0.362432 0.000000
0.314977 0.362676 0.000000
0.348791 0.362921 0.000000
0.382849 0.363531 0.000000
0.416266 0.363714 0.000000
0.452735 0.366400 0.000000
0.488075 0.367895 0.000000
0.522148 0.368383 0.003113
0.554955 0.368109 0.010559
0.586999 0.367529 0.019318
0.619532 0.367315 0.028168
0.652369 0.367285 0.035279
0.685237 0.367315 0.042237
0.718013 0.367346 0.047883
0.750637 0.367437 0.053223
0.783200 0.367376 0.057923
0.815640 0.367376 0.060761
0.848051 0.367376 0.062837
0.880491 0.367437 0.064424
0.912902 0.367529 0.065797
0.945251 0.367498 0.066835
0.977203 0.367651 0.068757
1.000000 0.367590 0.070405
0.000000 0.397467 0.000000
0.000000 0.397467 0.000000
0.000000 0.397467 0.000000
0.000000 0.397528 0.000000
0.090517 0.397559 0.000000
0.135042 0.397650 0.000000
0.173983 0.397711 0.000000
0.210575 0.397864 0.000000
0.246250 0.398108 0.000000
0.281163 0.398505 0.000000
0.315862 0.398962 0.000000
0.350286 0.399390 0.000000
0.384527 0.400031 0.000000
0.418769 0.400580 0.000000
0.451606 0.400031 0.005524
0.486854 0.401709 0.007477
0.520928 0.402136 0.012634
0.553674 0.401770 0.018280
0.585809 0.401129 0.028290
0.618402 0.400855 0.035187
0.651331 0.400824 0.042298
0.684230 0.400793 0.047120
0.717037 0.400824 0.052430
0.749752 0.400763 0.056336
0.782315 0.400763 0.059449
0.814817 0.400671 0.061189
0.847318 0.400641 0.062806
0.879820 0.400641 0.064393
0.912322 0.400580 0.065492
0.944671 0.400641 0.066865
0.976654 0.400641 0.067689
1.000000 0.400458 0.069398
0.000000 0.434241 0.000000
0.000000 0.434241 0.000000
0.000000 0.434302 0.000000
0.000000 0.434363 0.000000
0.084199 0.434363 0.000000
0.132052 0.434455 0.000000
0.172335 0.434699 0.000000
0.209903 0.434852 0.000000
0.246098 0.435096 0.000000
0.281529 0.435401 0.000000
0.316472 0.435645 0.000000
0.351141 0.435981 0.000000
0.385473 0.436286 0.000000
0.419745 0.436530 0.002014
0.453742 0.436774 0.007568
0.485634 0.435218 0.016327
0.519554 0.435645 0.021607
0.552270 0.435248 0.028565
0.584558 0.434546 0.035584
0.617243 0.434241 0.041505
0.650263 0.434211 0.048157
0.683223 0.434211 0.051850
0.716091 0.434211 0.055543
0.748836 0.434150 0.058625
0.781460 0.434058 0.060304
0.814023 0.433906 0.062074
0.846586 0.433814 0.062898
0.879149 0.433814 0.064027
0.911711 0.433753 0.065126
0.944121 0.433722 0.065766
0.976165 0.433692 0.066987
1.000000 0.433448 0.068391
0.000000 0.470710 0.000000
0.000000 0.470771 0.000000
0.000000 0.470710 0.000000
0.000000 0.470741 0.000000
0.076905 0.470771 0.000000
0.128023 0.470802 0.000000
0.169863 0.470771 0.000000
0.208225 0.470832 0.000000
0.244846 0.470924 0.000000
0.280735 0.471015 0.000000
0.315862 0.471107 0.000000
0.350622 0.471168 0.002075
0.385077 0.471290 0.005402
0.419287 0.471382 0.008972
0.453315 0.471382 0.012818
0.487037 0.471290 0.018250
0.518120 0.469001 0.029877
0.550866 0.468482 0.036164
0.583215 0.467842 0.043214
0.616052 0.467597 0.047639
0.649104 0.467567 0.051362
0.682185 0.467506 0.054261
0.715084 0.467506 0.056397
0.747890 0.467384 0.059571
0.780575 0.467231 0.060883
0.813230 0.467140 0.061738
0.845884 0.467018 0.062531
0.878508 0.467018 0.064057
0.911162 0.467018 0.064240
0.943664 0.466987 0.064485
0.975769 0.466865 0.065797
1.000000 0.466499 0.067262
0.000000 0.505638 0.000000
0.000000 0.505638 0.000000
0.000000 0.505577 0.000000
0.000000 0.505577 0.000000
0.067475 0.505486 0.000000
0.123415 0.505516 0.000000
0.166323 0.505486 0.000000
0.205509 0.505455 0.000000
0.242771 0.505394 0.001740
0.278843 0.505333 0.003784
0.314275 0.505241 0.006195
0.349096 0.505241 0.009674
0.383490 0.505089 0.013855
0.417731 0.504936 0.016938
0.451606 0.504723 0.020508
0.485328 0.504509 0.024201
0.518669 0.504173 0.029572
0.549340 0.501610 0.041901
0.581903 0.500999 0.048402
0.614832 0.500786 0.051850
0.648035 0.500847 0.053742
0.681147 0.500816 0.056611
0.714168 0.500786 0.058656
0.747036 0.500694 0.059480
0.779812 0.500542 0.060365
0.812528 0.500420 0.061616
0.845212 0.500298 0.061585
0.877958 0.500267 0.062226
0.910643 0.500237 0.063264
0.943175 0.500206 0.063111
0.975311 0.499977 0.064637
1.000000 0.499611 0.066194
0.000000 0.538872 0.004334
0.000000 0.538872 0.003388
0.000000 0.538811 0.005432
0.000000 0.538811 0.004761
0.051850 0.538750 0.005798
0.117739 0.538689 0.007416
0.162478 0.538567 0.009644
0.202335 0.538445 0.010163
0.239994 0.538354 0.012085
0.276249 0.538201 0.014466
0.311833 0.538048 0.018189
0.346715 0.537896 0.020050
0.381140 0.537713 0.023407
0.415259 0.537499 0.026978
0.449134 0.537163 0.031006
0.482673 0.536858 0.034241
0.516075 0.536461 0.038849
0.549340 0.536156 0.042329
0.580499 0.534081 0.050294
0.613581 0.533959 0.053590
0.646815 0.534020 0.054688
0.680018 0.534051 0.055848
0.713100 0.533959 0.057282
0.746029 0.533928 0.059083
0.778897 0.533776 0.059510
0.811673 0.533623 0.060365
0.844450 0.533532 0.060731
0.877287 0.533501 0.061341
0.910033 0.533471 0.061494
0.942626 0.533349 0.062226
0.974823 0.533135 0.062470
1.000000 0.532677 0.064698
0.000000 0.571099 0.016388
0.000000 0.571038 0.016632
0.000000 0.571771 0.017578
0.000000 0.571679 0.018158
0.025269 0.571618 0.019287
0.111696 0.571466 0.020050
0.158297 0.571344 0.021302
0.198764 0.571191 0.022065
0.237034 0.571038 0.024201
0.273594 0.570855 0.026795
0.309148 0.570703 0.028534
0.344182 0.570520 0.031739
0.378759 0.570275 0.034180
0.413031 0.570062 0.036805
0.446906 0.569848 0.039643
0.480537 0.569543 0.041901
0.514092 0.569268 0.045167
0.547417 0.568994 0.047425
0.580621 0.568688 0.048524
0.612726 0.567498 0.053254
0.645960 0.567498 0.054536
0.679164 0.567468 0.055848
0.712337 0.567376 0.056458
0.745327 0.567315 0.057069
0.778134 0.567102 0.058808
0.810971 0.566918 0.059266
0.843748 0.566796 0.059236
0.876616 0.566735 0.059449
0.909422 0.566674 0.059205
0.942077 0.566583 0.059480
0.974304 0.566339 0.060182
1.000000 0.565789 0.062593
0.000000 0.603326 0.026398
0.000000 0.603418 0.027344
0.000000 0.603479 0.026947
0.000000 0.603571 0.028168
0.000000 0.603571 0.028077
0.103944 0.603510 0.029725
0.153140 0.603418 0.029816
0.194858 0.603265 0.031647
0.233524 0.603204 0.032563
0.270298 0.603082 0.034058
0.306249 0.602930 0.034821
0.341405 0.602808 0.036866
0.376165 0.602655 0.040284
0.410529 0.602472 0.040681
0.444587 0.602289 0.043610
0.478370 0.602045 0.044617
0.511955 0.601801 0.046845
0.545342 0.601556 0.047883
0.578668 0.601312 0.049805
0.611872 0.601099 0.050843
0.644770 0.600641 0.052705
0.678004 0.600641 0.053956
0.711208 0.600610 0.053681
0.744289 0.600488 0.054444
0.777188 0.600336 0.055329
0.810117 0.600153 0.055360
0.843015 0.600061 0.055207
0.875944 0.600000 0.055604
0.908812 0.599939 0.055879
0.941527 0.599817 0.056458
0.973754 0.599512 0.057069
1.000000 0.598901 0.059876
0.000000 0.635737 0.031739
0.000000 0.635798 0.033783
0.000000 0.635889 0.033265
0.000000 0.635950 0.033539
0.000000 0.635950 0.033387
0.094728 0.635920 0.033906
0.147341 0.635798 0.035279
0.190280 0.635706 0.035981
0.229648 0.635645 0.036957
0.267063 0.635492 0.037446
0.303288 0.635431 0.039124
0.338750 0.635309 0.040101
0.373693 0.635157 0.041474
0.408148 0.634974 0.044190
0.442267 0.634821 0.044892
0.476143 0.634577 0.046143
0.509819 0.634363 0.046235
0.543297 0.634150 0.048280
0.576654 0.633906 0.049409
0.609979 0.633692 0.049714
0.643153 0.633478 0.050935
0.676509 0.633570 0.051057
0.710109 0.633814 0.049775
0.743221 0.633753 0.050477
0.776242 0.633570 0.051423
0.809232 0.633417 0.050538
0.842222 0.633295 0.050416
0.875242 0.633265 0.049836
0.908202 0.633234 0.050904
0.940917 0.633112 0.050660
0.973205 0.632776 0.051423
1.000000 0.632074 0.056428
0.000000 0.668116 0.034943
0.000000 0.668177 0.036011
0.000000 0.668269 0.035401
0.000000 0.668330 0.035645
0.000000 0.668299 0.035615
0.083650 0.668269 0.037201
0.140505 0.668208 0.037476
0.185183 0.668116 0.037110
0.225650 0.667964 0.038331
0.263615 0.667872 0.039826
0.300084 0.667811 0.040497
0.335851 0.667689 0.040528
0.370916 0.667536 0.041932
0.405615 0.667384 0.042573
0.439918 0.667201 0.044495
0.473854 0.667048 0.045502
0.507683 0.666835 0.046784
0.541283 0.666682 0.046906
0.574762 0.666499 0.048005
0.608118 0.666316 0.049134
0.641382 0.666194 0.049317
0.674556 0.666011 0.051270
0.708309 0.666438 0.049470
0.742519 0.667262 0.045686
0.775692 0.667109 0.046693
0.808743 0.667018 0.046479
0.841794 0.666926 0.046082
0.874876 0.666896 0.046357
0.907897 0.666804 0.045655
0.940703 0.666682 0.045289
0.972992 0.666285 0.049104
1.000000 0.665522 0.053712
0.000000 0.700679 0.035096
0.000000 0.700740 0.036164
0.000000 0.700710 0.036042
0.000000 0.700740 0.035340
0.000000 0.700740 0.036286
0.068910 0.700679 0.036988
0.133425 0.700587 0.037232
0.180148 0.700496 0.039155
0.221347 0.700435 0.038056
0.259983 0.700343 0.038483
0.297002 0.700252 0.039246
0.333074 0.700130 0.040375
0.368322 0.700038 0.040620
0.403143 0.699886 0.042420
0.437537 0.699702 0.043488
0.471717 0.699519 0.043488
0.505486 0.699336 0.044862
0.539269 0.699153 0.045197
0.572747 0.699031 0.046601
0.606165 0.698787 0.046174
0.639490 0.698665 0.047456
0.672694 0.698482 0.047944
0.705806 0.698329 0.049897
0.739590 0.698817 0.047761
0.774685 0.700465 0.038911
0.807889 0.700374 0.038575
0.841062 0.700313 0.038025
0.874205 0.700282 0.038270
0.907286 0.700252 0.038422
0.940093 0.700069 0.038270
0.972412 0.699611 0.042023
1.000000 0.698756 0.048157
0.000000 0.732815 0.034638
0.000000 0.732845 0.034699
0.000000 0.732876 0.034333
0.000000 0.732845 0.034852
0.000000 0.732815 0.034943
0.042573 0.732753 0.035645
0.125246 0.732723 0.035828
0.174258 0.732631 0.035584
0.216892 0.732540 0.036774
0.256107 0.732448 0.037232
0.293645 0.732387 0.036896
0.329931 0.732296 0.038087
0.365362 0.732174 0.038575
0.400488 0.732021 0.040375
0.435035 0.731899 0.040192
0.469306 0.731746 0.040223
0.503258 0.731563 0.040620
0.537041 0.731411 0.040925
0.570672 0.731258 0.043519
0.604120 0.731136 0.043946
0.637507 0.730953 0.044556
0.670771 0.730831 0.046113
0.703975 0.730709 0.047456
0.737057 0.730617 0.047791
0.770535 0.730861 0.046479
0.806912 0.733700 0.029236
0.840146 0.733669 0.029664
0.873411 0.733669 0.029633
0.906584 0.733639 0.028595
0.939483 0.733425 0.030762
0.971832 0.732906 0.033692
1.000000 0.731991 0.042847
0.000000 0.765072 0.032288
0.000000 0.765133 0.033356
0.000000 0.765133 0.032044
0.000000 0.765103 0.033661
0.000000 0.765072 0.032593
0.000000 0.765011 0.032349
0.116609 0.764920 0.033783
0.168429 0.764828 0.033570
0.212222 0.764706 0.033875
0.252262 0.764614 0.033448
0.290227 0.764492 0.034455
0.326757 0.764401 0.034699
0.362646 0.764248 0.035279
0.397772 0.764096 0.035065
0.432471 0.763943 0.036194
0.466835 0.763760 0.036469
0.500908 0.763607 0.037995
0.534783 0.763455 0.038422
0.568444 0.763333 0.038911
0.602014 0.763210 0.039338
0.635401 0.763088 0.040986
0.668727 0.762997 0.041413
0.701961 0.762905 0.044099
0.735103 0.762783 0.045747
0.768124 0.762661 0.047242
0.801511 0.762905 0.045960
0.839414 0.767147 0.020905
0.872740 0.767147 0.020752
0.905974 0.767086 0.020874
0.938903 0.766903 0.021942
0.971283 0.766354 0.027222
1.000000 0.765316 0.037140
0.000000 0.796963 0.028016
0.000000 0.796994 0.029175
0.000000 0.797024 0.027771
0.000000 0.796994 0.028351
0.000000 0.796963 0.028443
0.000000 0.796902 0.028199
0.106996 0.796841 0.029541
0.162264 0.796750 0.029358
0.207462 0.796658 0.029572
0.248234 0.796597 0.031250
0.286595 0.796506 0.030030
0.323827 0.796414 0.031312
0.359838 0.796292 0.031830
0.395239 0.796201 0.031556
0.430060 0.796078 0.032624
0.464546 0.795926 0.032837
0.498787 0.795804 0.033173
0.532677 0.795682 0.034760
0.566461 0.795560 0.035248
0.600061 0.795468 0.036713
0.633539 0.795377 0.038300
0.666957 0.795315 0.039826
0.700221 0.795254 0.040284
0.733394 0.795193 0.041779
0.766537 0.795102 0.044373
0.799557 0.795041 0.045899
0.832578 0.794980 0.047120
0.872221 0.800839 0.012085
0.905486 0.800778 0.014343
0.938476 0.800534 0.015564
0.970886 0.799954 0.022339
1.000000 0.798795 0.034119
0.000000 0.828916 0.024323
0.000000 0.828946 0.024384
0.000000 0.828946 0.024170
0.000000 0.828916 0.023651
0.000000 0.828885 0.023865
0.000000 0.828855 0.024628
0.095766 0.828763 0.023926
0.155856 0.828702 0.024811
0.202731 0.828611 0.025025
0.244144 0.828550 0.025666
0.283238 0.828458 0.025605
0.320623 0.828397 0.025666
0.357031 0.828305 0.026215
0.392706 0.828214 0.026917
0.427649 0.828153 0.027924
0.462257 0.828031 0.028107
0.496590 0.827878 0.029633
0.530632 0.827787 0.030060
0.564508 0.827695 0.030457
0.598138 0.827634 0.030915
0.631708 0.827573 0.032410
0.665156 0.827543 0.034974
0.698482 0.827481 0.036530
0.731685 0.827451 0.039033
0.764858 0.827420 0.040406
0.797940 0.827359 0.043030
0.830961 0.827359 0.046479
0.863951 0.827329 0.049104
0.904906 0.834440 0.006012
0.937957 0.834165 0.009583
0.970397 0.833494 0.016815
1.000000 0.832212 0.030610
0.000000 0.860807 0.018494
0.000000 0.860807 0.018647
0.000000 0.860807 0.018433
0.000000 0.860807 0.017853
0.000000 0.860777 0.017945
0.000000 0.860777 0.018616
0.084199 0.860746 0.018830
0.149477 0.860716 0.019440
0.198062 0.860716 0.020478
0.240482 0.860716 0.020722
0.280034 0.860685 0.022553
0.317845 0.860716 0.022339
0.354498 0.860685 0.022614
0.390356 0.860655 0.023163
0.425635 0.860594 0.025116
0.460365 0.860502 0.025208
0.494850 0.860410 0.026581
0.528954 0.860349 0.026917
0.562921 0.860258 0.029511
0.596612 0.860197 0.029969
0.630213 0.860136 0.031586
0.663722 0.860136 0.034089
0.697078 0.860075 0.036744
0.730373 0.860014 0.039368
0.763546 0.859953 0.043122
0.796597 0.859922 0.045808
0.829648 0.859892 0.047944
0.862638 0.859861 0.052186
0.895567 0.859831 0.056336
0.936675 0.867185 0.013306
0.970245 0.867430 0.017487
1.000000 0.865995 0.033661
0.000000 0.892943 0.014130
0.000000 0.892973 0.014221
0.000000 0.892973 0.015167
0.000000 0.892943 0.014679
0.000000 0.892912 0.014893
0.000000 0.892851 0.015656
0.071168 0.892851 0.015869
0.143099 0.892790 0.014496
0.193301 0.892760 0.015686
0.236881 0.892729 0.017273
0.276890 0.892699 0.017090
0.315068 0.892638 0.018250
0.351965 0.892607 0.018647
0.388006 0.892546 0.019409
0.423407 0.892485 0.020325
