其他预设/【232】美食博客调色预设124款/1.3D LUT预设（视频调色-PR-AE-PS-FCPX-达芬奇用）/Food Art #54.cube
# Created by Adobe Lightroom plugin Export LUT (1.17.0)
# www.johnrellis.com/lightroom/exportlut.htm
# Preset: Food Art #54
# Color profile: /Library/Application Support/Adobe/Color/Profiles/Recommended/AdobeRGB1998.icc
LUT_3D_SIZE 32
0.116976 0.130434 0.108705
0.125978 0.131716 0.109621
0.137667 0.133516 0.110811
0.162112 0.137667 0.113497
0.190219 0.143709 0.117586
0.217838 0.150118 0.122194
0.245396 0.156588 0.126741
0.272740 0.163272 0.131533
0.300175 0.170016 0.136416
0.327489 0.177035 0.141787
0.355108 0.184451 0.147555
0.382727 0.192325 0.153964
0.410315 0.200900 0.160616
0.438117 0.209873 0.168643
0.465858 0.219333 0.176455
0.493507 0.228580 0.184756
0.521386 0.237675 0.192874
0.549432 0.247135 0.201114
0.577630 0.256199 0.209506
0.609979 0.266514 0.219211
0.641810 0.276982 0.228946
0.672786 0.287388 0.238621
0.702571 0.297704 0.248508
0.731075 0.308171 0.258640
0.758572 0.318975 0.268742
0.785611 0.330236 0.279728
0.812467 0.342473 0.291508
0.839109 0.355932 0.304448
0.865507 0.370855 0.319005
0.891569 0.387701 0.335332
0.917052 0.406836 0.354040
0.941680 0.428626 0.375311
0.118654 0.140932 0.110384
0.127474 0.142275 0.111482
0.139651 0.144167 0.112154
0.163424 0.148501 0.115175
0.191073 0.153811 0.119234
0.218540 0.159121 0.123476
0.245792 0.164370 0.127871
0.272892 0.170047 0.132540
0.300023 0.176181 0.137423
0.327306 0.182681 0.142458
0.354528 0.189517 0.148287
0.382055 0.197055 0.154543
0.409644 0.205325 0.161440
0.437293 0.213809 0.169070
0.464912 0.222873 0.177035
0.492561 0.231876 0.185092
0.520287 0.240787 0.193210
0.548180 0.249790 0.201358
0.576318 0.258549 0.209873
0.608515 0.268711 0.219303
0.639918 0.278874 0.228733
0.670527 0.288792 0.238254
0.700252 0.299046 0.247990
0.728756 0.309209 0.257786
0.756344 0.319829 0.268254
0.783505 0.331060 0.279057
0.810452 0.343145 0.290623
0.837308 0.356573 0.303685
0.863859 0.371313 0.318334
0.890043 0.388037 0.334569
0.915709 0.406928 0.353002
0.940459 0.428626 0.374212
0.120790 0.154940 0.112367
0.130343 0.156191 0.113191
0.141695 0.157778 0.114687
0.165103 0.162142 0.117586
0.192416 0.166354 0.121431
0.219669 0.170260 0.125704
0.246403 0.174258 0.129610
0.273198 0.178958 0.133944
0.300237 0.184146 0.138491
0.327337 0.190005 0.143862
0.354589 0.196170 0.149508
0.381903 0.203403 0.155550
0.409461 0.210941 0.162478
0.436957 0.219242 0.170321
0.464424 0.227695 0.178134
0.492134 0.236301 0.185916
0.519768 0.244907 0.194125
0.547631 0.253666 0.202152
0.575830 0.262181 0.210239
0.607843 0.272038 0.219760
0.639002 0.281926 0.229221
0.669520 0.291722 0.238468
0.699153 0.301610 0.248234
0.727687 0.311650 0.257877
0.755245 0.322087 0.268193
0.782437 0.333043 0.279118
0.809476 0.345037 0.290867
0.836332 0.358251 0.303624
0.863005 0.372961 0.318181
0.889281 0.389471 0.334447
0.914977 0.408179 0.352880
0.939788 0.429694 0.374060
0.127230 0.182498 0.117861
0.136263 0.183383 0.118654
0.147616 0.184665 0.120272
0.169284 0.187533 0.122774
0.195865 0.190005 0.126009
0.222324 0.191623 0.129274
0.248692 0.193790 0.132876
0.275120 0.196841 0.136904
0.301579 0.200443 0.141176
0.328252 0.204929 0.146395
0.355291 0.210086 0.151827
0.382483 0.216342 0.158114
0.409674 0.223270 0.165072
0.437079 0.230686 0.172427
0.464454 0.238254 0.179965
0.491951 0.246036 0.187839
0.519493 0.254124 0.195865
0.547173 0.262089 0.203647
0.575921 0.270237 0.211917
0.607050 0.279515 0.220920
0.637690 0.288609 0.230167
0.667842 0.297917 0.239231
0.697383 0.307500 0.248753
0.726162 0.317266 0.258671
0.754177 0.327428 0.268772
0.781765 0.338323 0.279911
0.809140 0.350011 0.291539
0.836210 0.363165 0.304723
0.862913 0.377661 0.319280
0.889128 0.393805 0.335454
0.914672 0.412177 0.353704
0.939330 0.433204 0.374823
0.135012 0.213077 0.124910
0.142916 0.213779 0.125490
0.153445 0.214664 0.126680
0.172671 0.216648 0.128786
0.199466 0.219638 0.131868
0.226108 0.220279 0.134859
0.251743 0.220066 0.137758
0.277317 0.221042 0.141543
0.303288 0.222843 0.145571
0.329564 0.225986 0.150423
0.356146 0.230014 0.155795
0.383032 0.234958 0.162020
0.410040 0.240635 0.168978
0.437263 0.246860 0.176120
0.464576 0.253513 0.183627
0.492042 0.260441 0.191257
0.519707 0.267735 0.198917
0.547448 0.274815 0.206516
0.576898 0.282750 0.214847
0.607568 0.291081 0.223514
0.637659 0.299474 0.232364
0.667475 0.308263 0.241215
0.696834 0.317174 0.250706
0.725490 0.326452 0.260166
0.753506 0.336004 0.270329
0.781094 0.346471 0.281163
0.808469 0.357916 0.293126
0.835569 0.370397 0.306157
0.862242 0.384497 0.320531
0.888457 0.400275 0.336645
0.914000 0.418189 0.354986
0.938628 0.438819 0.376013
0.143099 0.243473 0.131807
0.150118 0.244083 0.132540
0.158938 0.244694 0.133516
0.176883 0.246006 0.135073
0.201053 0.248142 0.137972
0.229282 0.250950 0.141176
0.256382 0.250980 0.144289
0.281163 0.249882 0.147433
0.306371 0.249943 0.151339
0.332158 0.251408 0.156039
0.358282 0.254154 0.161471
0.384833 0.257847 0.167544
0.411475 0.262242 0.174350
0.438605 0.267247 0.181094
0.465736 0.272618 0.187991
0.493172 0.278660 0.195651
0.520745 0.284733 0.202914
0.548425 0.291173 0.210361
0.578790 0.298650 0.218631
0.608942 0.306218 0.226902
0.638880 0.314031 0.235599
0.668574 0.321996 0.244541
0.712337 0.336614 0.259312
0.740414 0.345617 0.269261
0.767544 0.354803 0.279576
0.794186 0.364782 0.290349
0.820371 0.375677 0.302251
0.846220 0.387732 0.315496
0.871641 0.401312 0.329961
0.896696 0.416693 0.346288
0.921019 0.434241 0.364752
0.944427 0.454261 0.385595
0.151888 0.274968 0.139925
0.158389 0.275273 0.140322
0.166445 0.275731 0.140963
0.182559 0.276890 0.142916
0.205112 0.278569 0.144930
0.231632 0.280461 0.148257
0.260716 0.283024 0.152255
0.287938 0.282933 0.156039
0.312657 0.281346 0.159823
0.338140 0.281285 0.164431
0.363897 0.282719 0.169924
0.390295 0.284947 0.175296
0.416815 0.288273 0.181704
0.443519 0.291875 0.188022
0.470466 0.296117 0.194919
0.497322 0.300755 0.201785
0.524651 0.305821 0.208652
0.553857 0.311864 0.216281
0.584222 0.318639 0.224277
0.614588 0.325658 0.232609
0.645228 0.333043 0.241245
0.676051 0.341070 0.250370
0.706538 0.349340 0.260288
0.736141 0.358160 0.270573
0.764645 0.367376 0.281193
0.792081 0.377203 0.292424
0.818723 0.387610 0.304326
0.844694 0.399207 0.317327
0.870268 0.412146 0.331945
0.895293 0.426886 0.348180
0.919615 0.443641 0.366461
0.943053 0.462959 0.387366
0.162203 0.303502 0.148379
0.167391 0.303777 0.148928
0.174533 0.304173 0.149386
0.188937 0.304936 0.151156
0.209506 0.306126 0.153140
0.233677 0.307561 0.156344
0.260685 0.309545 0.160128
0.289433 0.311864 0.164553
0.316808 0.312261 0.168826
0.341650 0.310918 0.172976
0.366949 0.311009 0.178256
0.392828 0.312169 0.183474
0.419013 0.314153 0.188907
0.445380 0.316777 0.195041
0.472023 0.319951 0.201358
0.498787 0.323552 0.207858
0.526604 0.328038 0.214664
0.556176 0.333562 0.222202
0.585718 0.339147 0.229282
0.615320 0.345220 0.237278
0.645319 0.351812 0.245701
0.675654 0.358831 0.254368
0.705715 0.366461 0.263676
0.735012 0.374395 0.273777
0.763333 0.382818 0.284215
0.790677 0.391974 0.295354
0.817258 0.401678 0.307103
0.843320 0.412604 0.320165
0.868925 0.424933 0.334478
0.893980 0.438972 0.350805
0.918364 0.455146 0.369085
0.941863 0.473732 0.389929
0.174044 0.331518 0.158846
0.178714 0.331640 0.159365
0.185031 0.332006 0.159945
0.197726 0.332464 0.161379
0.216007 0.333471 0.163394
0.238010 0.334630 0.166079
0.263157 0.336217 0.169558
0.289860 0.338079 0.173556
0.318364 0.340337 0.178164
0.346044 0.341497 0.183261
0.370947 0.340520 0.187442
0.396429 0.340612 0.192081
0.422248 0.341619 0.197513
0.448341 0.343359 0.203220
0.474556 0.345525 0.209049
0.501701 0.348669 0.215061
0.530419 0.352819 0.221683
0.559258 0.357122 0.228550
0.588006 0.361852 0.235416
0.616968 0.366888 0.242802
0.646387 0.372534 0.250797
0.676295 0.378759 0.259251
0.705959 0.385657 0.268376
0.734829 0.392889 0.278080
0.762875 0.400702 0.288304
0.790036 0.408942 0.299138
0.816556 0.418006 0.311009
0.842496 0.428229 0.323796
0.868040 0.439796 0.338018
0.893065 0.453101 0.354192
0.917327 0.468513 0.372564
0.940795 0.486488 0.393469
0.187228 0.359045 0.170260
0.191287 0.359045 0.170779
0.196628 0.359442 0.171054
0.207980 0.359838 0.172519
0.224216 0.360510 0.174350
0.244480 0.361517 0.176608
0.267430 0.362768 0.179721
0.292638 0.364263 0.183444
0.319402 0.366308 0.187686
0.347387 0.368536 0.192386
0.375189 0.370092 0.197574
0.400153 0.369451 0.201755
0.425635 0.369604 0.206699
0.451453 0.370581 0.211704
0.478676 0.372747 0.217258
0.506645 0.375738 0.223484
0.534936 0.378943 0.229374
0.563287 0.382422 0.235813
0.591455 0.386236 0.242283
0.619867 0.390326 0.249271
0.648585 0.395148 0.256809
0.677546 0.400488 0.264775
0.706233 0.406226 0.273411
0.734310 0.412604 0.282719
0.761837 0.419409 0.292454
0.788815 0.426978 0.303288
0.815274 0.435431 0.314977
0.841398 0.445045 0.327672
0.867094 0.456184 0.342321
0.892241 0.468940 0.358618
0.916686 0.483894 0.377111
0.940215 0.501274 0.398322
0.200473 0.385840 0.182010
0.204044 0.385992 0.182345
0.208927 0.386175 0.182498
0.218875 0.386572 0.183658
0.233799 0.387152 0.185489
0.252201 0.388251 0.187594
0.273503 0.389410 0.190616
0.297063 0.390814 0.193912
0.322484 0.392401 0.197574
0.349310 0.394476 0.201938
0.376928 0.396674 0.206912
0.404913 0.398627 0.211948
0.430274 0.398535 0.216251
0.457008 0.399603 0.221286
0.484016 0.401221 0.226413
0.511254 0.403204 0.232120
0.538781 0.405524 0.237552
0.566613 0.408209 0.243137
0.594049 0.411017 0.249393
0.621881 0.414343 0.255772
0.650141 0.418433 0.262943
0.678645 0.423041 0.270726
0.707057 0.428290 0.279240
0.734859 0.433906 0.288304
0.762051 0.440162 0.297948
0.788724 0.447059 0.308537
0.814969 0.454688 0.319890
0.840879 0.463600 0.332677
0.866361 0.474006 0.347082
0.891386 0.486061 0.363256
0.915770 0.500206 0.381994
0.939239 0.516960 0.403265
0.214420 0.412940 0.193606
0.217624 0.413062 0.193912
0.221958 0.413245 0.194614
0.230808 0.413581 0.195590
0.244266 0.414252 0.197086
0.261326 0.415015 0.199008
0.281132 0.416114 0.201541
0.303227 0.417456 0.204532
0.327245 0.419013 0.207980
0.352819 0.420813 0.212070
0.379614 0.422919 0.216495
0.408392 0.426368 0.221744
0.444923 0.435859 0.230198
0.471870 0.436500 0.235111
0.499001 0.437354 0.240024
0.526390 0.438575 0.244877
0.553857 0.440131 0.249912
0.581140 0.441779 0.255222
0.607660 0.443336 0.260807
0.634699 0.445686 0.267063
0.661952 0.448676 0.273960
0.689296 0.452277 0.281437
0.716304 0.456245 0.289494
0.742885 0.460975 0.298253
0.769100 0.466133 0.307805
0.794888 0.472175 0.318151
0.820340 0.479072 0.329412
0.845365 0.487221 0.342199
0.870085 0.496712 0.356451
0.894377 0.507927 0.372808
0.918029 0.521324 0.391272
0.940826 0.537255 0.412787
0.229465 0.442573 0.206516
0.232273 0.442695 0.207004
0.236088 0.442664 0.207187
0.244297 0.442786 0.208133
0.256535 0.443122 0.209262
0.272068 0.443641 0.210941
0.290501 0.444343 0.213291
0.311345 0.445380 0.215854
0.334356 0.446906 0.218906
0.359869 0.449989 0.223301
0.387304 0.453376 0.227939
0.415900 0.457038 0.233127
0.445686 0.460853 0.238743
0.476020 0.464759 0.244511
0.503105 0.465644 0.249088
0.530236 0.466529 0.253605
0.557305 0.467475 0.258488
0.583795 0.468238 0.263279
0.609766 0.469215 0.268650
0.636164 0.470802 0.274296
0.662898 0.473152 0.280949
0.689815 0.476081 0.288029
0.716365 0.479500 0.295964
0.742611 0.483467 0.304387
0.768429 0.488014 0.313725
0.794034 0.493355 0.323919
0.819333 0.499733 0.335180
0.844236 0.507225 0.347967
0.868894 0.516075 0.362005
0.893156 0.526757 0.378546
0.916808 0.539513 0.397131
0.939635 0.554833 0.419013
0.243107 0.469245 0.218112
0.245792 0.469276 0.218296
0.249119 0.469337 0.218662
0.256626 0.469520 0.219425
0.267613 0.469734 0.220554
0.282506 0.470436 0.222049
0.300145 0.471809 0.224491
0.320195 0.473365 0.227176
0.342473 0.475349 0.230381
0.366827 0.477821 0.233982
0.392859 0.480690 0.238132
0.420264 0.483955 0.242893
0.448737 0.487251 0.247776
0.477974 0.490700 0.252964
0.507561 0.493843 0.258427
0.534386 0.494453 0.262730
0.560845 0.494789 0.266850
0.586603 0.494942 0.271611
0.612085 0.495216 0.276402
0.637964 0.496284 0.282048
0.664332 0.498054 0.288487
0.690822 0.500511 0.295354
0.717006 0.503380 0.302892
0.742947 0.506737 0.311284
0.768582 0.510887 0.320470
0.793942 0.515679 0.330541
0.819028 0.521447 0.341863
0.843809 0.528405 0.354559
0.868315 0.536736 0.368811
0.892485 0.546929 0.385321
0.916045 0.559136 0.404334
0.938842 0.573846 0.426459
0.257725 0.498329 0.230259
0.260136 0.498512 0.230838
0.263401 0.498543 0.230838
0.270237 0.498756 0.231662
0.280888 0.499123 0.232578
0.294408 0.499733 0.234104
0.310826 0.500481 0.235996
0.329747 0.501640 0.238224
0.350805 0.503288 0.241154
0.373999 0.505364 0.244572
0.398840 0.507897 0.248142
0.425238 0.510735 0.252506
0.452735 0.513848 0.256870
0.481117 0.516899 0.261784
0.509789 0.519799 0.266636
0.538659 0.522301 0.271702
0.564874 0.522515 0.275883
0.589929 0.521935 0.280064
0.614862 0.521660 0.284794
0.640253 0.522148 0.290135
0.666072 0.523369 0.296269
0.692073 0.525200 0.302861
0.717830 0.527581 0.310430
0.743435 0.530480 0.318730
0.768795 0.534081 0.327794
0.794095 0.538567 0.337957
0.819211 0.543999 0.349371
0.844114 0.550713 0.362280
0.868772 0.558923 0.377173
0.893004 0.568811 0.394202
0.916625 0.580835 0.413916
0.939330 0.595270 0.436591
0.272068 0.527703 0.242466
0.274418 0.527886 0.242771
0.277409 0.527916 0.242771
0.283909 0.528130 0.243503
0.293797 0.528435 0.244480
0.306676 0.529046 0.245914
0.322240 0.529870 0.247593
0.340307 0.531029 0.249851
0.360510 0.532494 0.252415
0.382666 0.534234 0.255283
0.406287 0.536217 0.258732
0.431617 0.538476 0.262303
0.457649 0.540764 0.266331
0.484779 0.543114 0.270756
0.512169 0.545251 0.275151
0.540002 0.547234 0.279881
0.567987 0.549065 0.284550
0.593317 0.548821 0.288823
0.618006 0.548272 0.293462
0.643183 0.548455 0.298802
0.668849 0.549401 0.304814
0.694636 0.550896 0.311589
0.720089 0.552850 0.318914
0.745357 0.555474 0.327245
0.770565 0.558618 0.336461
0.795682 0.562737 0.346624
0.820584 0.567803 0.358251
0.845243 0.574151 0.371466
0.869627 0.581811 0.386419
0.893492 0.591211 0.403693
0.916747 0.602502 0.423590
0.939025 0.616266 0.446509
0.285954 0.555901 0.253666
0.287877 0.555962 0.254002
0.290654 0.555962 0.254307
0.296757 0.556207 0.254856
0.305974 0.556451 0.255619
0.318242 0.556847 0.256779
0.332799 0.557519 0.258335
0.349798 0.558465 0.260410
0.369146 0.559594 0.262730
0.390295 0.561059 0.265385
0.413031 0.562737 0.268559
0.437232 0.564660 0.272038
0.462409 0.566613 0.275914
0.488350 0.568536 0.279759
0.514916 0.570214 0.284092
0.541588 0.571771 0.288609
0.568688 0.573175 0.293095
0.595880 0.574762 0.297887
0.621210 0.574670 0.302434
0.645960 0.574456 0.307683
0.671077 0.574945 0.313420
0.696254 0.576013 0.320073
0.721370 0.577539 0.327245
0.746426 0.579706 0.335576
0.771359 0.582544 0.344823
0.796201 0.586328 0.355108
0.820981 0.591089 0.366827
0.845548 0.597070 0.380377
0.869810 0.604395 0.395605
0.893553 0.613458 0.413214
0.916625 0.624414 0.433692
0.938811 0.637537 0.456886
0.299626 0.583581 0.265049
0.301701 0.583795 0.265385
0.308324 0.591089 0.268894
0.313970 0.591119 0.269535
0.322942 0.591211 0.270176
0.334234 0.591333 0.271183
0.348302 0.591577 0.272648
0.364477 0.591974 0.274296
0.382879 0.592645 0.276432
0.403082 0.593591 0.279088
0.424933 0.594751 0.281743
0.448127 0.596002 0.285161
0.472236 0.597192 0.288487
0.497200 0.598474 0.292363
0.522728 0.599603 0.296330
0.548577 0.600671 0.300359
0.574823 0.601678 0.304509
0.601221 0.602777 0.309026
0.627802 0.603876 0.313909
0.652949 0.603906 0.318914
0.677150 0.603571 0.324529
0.701625 0.603876 0.330968
0.726009 0.604791 0.338201
0.750332 0.606287 0.346319
0.774411 0.608331 0.355352
0.798459 0.611292 0.365454
0.822416 0.615290 0.376959
0.846311 0.620508 0.390234
0.870115 0.627283 0.405585
0.893553 0.635798 0.423560
0.916411 0.646296 0.444221
0.938354 0.658625 0.467231
0.314733 0.612177 0.277806
0.317144 0.613184 0.278386
0.320226 0.614221 0.279057
0.326085 0.615167 0.279881
0.334630 0.615869 0.280888
0.345617 0.616327 0.282109
0.358953 0.616632 0.283543
0.374273 0.617029 0.285161
0.391791 0.617609 0.287053
0.410895 0.618341 0.289647
0.431891 0.619348 0.292119
0.453956 0.620356 0.295384
0.477211 0.621424 0.298741
0.501183 0.622431 0.302220
0.525841 0.623438 0.305882
0.550927 0.624262 0.309819
0.576440 0.625086 0.313909
0.602075 0.626062 0.318303
0.628077 0.627100 0.323186
0.654322 0.628321 0.328191
0.679469 0.628779 0.333654
0.703548 0.628840 0.340154
0.727718 0.629480 0.347417
0.751705 0.630671 0.355627
0.775631 0.632502 0.364935
0.799496 0.635218 0.375158
0.823270 0.638972 0.386999
0.846983 0.643885 0.400488
0.870512 0.650294 0.416114
0.893706 0.658412 0.434516
0.916320 0.668299 0.455207
0.938048 0.679957 0.478401
0.328801 0.637720 0.289281
0.330999 0.638666 0.289891
0.334020 0.639612 0.290501
0.339300 0.640497 0.291569
0.347417 0.641169 0.292576
0.357794 0.641535 0.293675
0.370367 0.641810 0.295018
0.384924 0.642176 0.296544
0.401465 0.642695 0.298405
0.419837 0.643336 0.300633
0.439857 0.644129 0.303349
0.461097 0.645106 0.306371
0.483436 0.645991 0.309453
0.506615 0.646845 0.312840
0.530388 0.647578 0.316533
0.554620 0.648310 0.320348
0.579339 0.648981 0.324437
0.604303 0.649744 0.328801
0.629541 0.650599 0.333440
0.655207 0.651728 0.338445
0.680934 0.653040 0.343786
0.706020 0.653925 0.349950
0.729824 0.654292 0.357458
0.753506 0.655177 0.365637
0.777127 0.656703 0.375067
0.800687 0.659083 0.385351
0.824094 0.662440 0.397345
0.847501 0.667018 0.411200
0.870756 0.673030 0.427253
0.893645 0.680659 0.445624
0.916045 0.689876 0.466316
0.937560 0.700862 0.489418
0.343389 0.663294 0.301640
0.345617 0.664149 0.302281
0.348302 0.664973 0.302922
0.353491 0.665766 0.303746
0.361181 0.666377 0.304723
0.370825 0.666743 0.305882
0.382605 0.666957 0.307164
0.396429 0.667201 0.308629
0.412268 0.667536 0.310460
0.429664 0.667994 0.312505
0.448554 0.668696 0.315129
0.468971 0.669368 0.317967
0.490364 0.670100 0.320958
0.512657 0.670802 0.324315
0.535729 0.671504 0.328099
0.559350 0.672297 0.331945
0.583612 0.673121 0.336248
0.608270 0.674159 0.340703
0.633295 0.675319 0.345678
0.658778 0.676753 0.351232
0.684321 0.678370 0.357000
0.710079 0.680079 0.363134
0.735103 0.681514 0.370214
0.758694 0.682307 0.379004
0.782193 0.683803 0.388861
0.805478 0.686030 0.399817
0.828611 0.689174 0.412482
0.851591 0.693477 0.426917
0.874418 0.699214 0.443458
0.896849 0.706294 0.461830
0.918639 0.714900 0.482612
0.939574 0.725124 0.505821
0.361395 0.691615 0.316686
0.363104 0.692042 0.316991
0.365240 0.692348 0.317449
0.369970 0.692622 0.318120
0.376898 0.692836 0.318761
0.385962 0.692958 0.319890
0.397040 0.693080 0.321050
0.410132 0.693294 0.322606
0.425177 0.693721 0.324346
0.441962 0.694209 0.326757
0.460212 0.694881 0.329198
0.479866 0.695521 0.332006
0.500359 0.696162 0.335271
0.521874 0.696712 0.338506
0.544030 0.697292 0.342046
0.566888 0.697871 0.345953
0.590234 0.698512 0.350164
0.614099 0.699306 0.354681
0.638239 0.700191 0.359472
0.662745 0.701198 0.364782
0.687373 0.702449 0.370397
0.712062 0.703761 0.376593
0.736751 0.705226 0.383093
0.760861 0.706508 0.390295
0.783871 0.707515 0.400092
0.806821 0.709468 0.411414
0.829679 0.712337 0.424292
0.852415 0.716396 0.439002
0.874937 0.721614 0.455512
0.897063 0.728206 0.474037
0.918608 0.736202 0.494667
0.939330 0.745815 0.517967
0.378088 0.716213 0.330694
0.379736 0.716579 0.331273
0.381811 0.716945 0.331701
0.386206 0.717189 0.332158
0.392645 0.717403 0.333043
0.401129 0.717433 0.334051
0.411566 0.717494 0.335241
0.423774 0.717556 0.336675
0.437964 0.717800 0.338445
0.453773 0.718166 0.340551
0.471260 0.718685 0.343084
0.489815 0.719265 0.345953
0.509545 0.719753 0.349035
0.530266 0.720272 0.352392
0.551629 0.720821 0.356054
0.573632 0.721401 0.359960
0.596277 0.722042 0.364233
0.619471 0.722805 0.368719
0.643061 0.723690 0.373846
0.666896 0.724819 0.379400
0.690944 0.726009 0.385138
0.715145 0.727352 0.391485
0.739315 0.728878 0.398260
0.763333 0.730465 0.405493
0.784878 0.730190 0.411292
0.807462 0.731777 0.422553
0.830045 0.734401 0.435706
0.852537 0.738064 0.450385
0.874815 0.742916 0.466926
0.896757 0.748989 0.485359
0.918120 0.756527 0.506157
0.938750 0.765774 0.529747
0.398291 0.742977 0.348302
0.399939 0.743404 0.348699
0.401953 0.743618 0.349035
0.405798 0.743771 0.349706
0.411841 0.743709 0.350286
0.419532 0.743618 0.351080
0.429175 0.743465 0.352148
0.440467 0.743313 0.353399
0.453620 0.743191 0.354894
0.468391 0.743191 0.356909
0.484504 0.743282 0.359197
0.501976 0.743496 0.361730
0.520684 0.743771 0.364660
0.540185 0.743984 0.367681
0.560388 0.744106 0.371069
0.581292 0.744289 0.374945
0.602869 0.744564 0.378790
0.624964 0.745052 0.383337
0.647669 0.745815 0.388464
0.670832 0.746883 0.394018
0.694331 0.748104 0.400214
0.717830 0.749477 0.406714
0.741238 0.750820 0.413642
0.764340 0.752163 0.420661
0.787137 0.753475 0.428107
0.809537 0.754849 0.435798
0.831601 0.756985 0.448737
0.853605 0.760128 0.463142
0.875486 0.764431 0.479530
0.897032 0.770016 0.497841
0.918151 0.777035 0.518669
0.938567 0.785672 0.542260
0.417365 0.766506 0.364904
0.418982 0.766842 0.365301
0.420874 0.767147 0.365667
0.424598 0.767208 0.366186
0.430060 0.767208 0.366979
0.437446 0.767117 0.367681
0.446387 0.766995 0.368811
0.457099 0.766903 0.370184
0.469490 0.766903 0.371832
0.483650 0.766995 0.373999
0.498970 0.767178 0.376226
0.515801 0.767422 0.379126
0.533684 0.767758 0.382147
0.552392 0.768002 0.385412
0.571862 0.768276 0.389136
0.592065 0.768490 0.392828
0.612787 0.768795 0.397070
0.634150 0.769284 0.401831
0.656062 0.769986 0.407111
0.678462 0.770932 0.412787
0.701076 0.772030 0.419226
0.723812 0.773251 0.425940
0.746426 0.774533 0.433021
0.768826 0.775845 0.440284
0.790982 0.777127 0.447700
0.812711 0.778500 0.455268
0.834226 0.779904 0.463233
0.855863 0.782742 0.477638
0.877409 0.786709 0.494057
0.898589 0.791836 0.512505
0.919402 0.798459 0.533654
0.939422 0.806424 0.557031
0.439338 0.790646 0.384161
0.440711 0.790890 0.384588
0.442420 0.791012 0.384802
0.445716 0.791012 0.385321
0.450782 0.790860 0.385931
0.457313 0.790677 0.386664
0.465644 0.790494 0.387640
0.475654 0.790341 0.388861
0.487312 0.790249 0.390478
0.500481 0.790341 0.392706
0.515068 0.790494 0.395117
0.531060 0.790768 0.398047
0.548058 0.791104 0.401312
0.566003 0.791379 0.404761
0.584619 0.791592 0.408423
0.603876 0.791775 0.412451
0.623682 0.792020 0.416785
0.644190 0.792416 0.421454
0.665156 0.793027 0.426886
0.686610 0.793881 0.432715
0.708339 0.794888 0.439185
0.730220 0.796017 0.446082
0.751980 0.797208 0.453101
0.773648 0.798459 0.460395
0.794980 0.799741 0.467750
0.816068 0.800992 0.475410
0.836851 0.802396 0.483406
0.857298 0.803922 0.491646
0.878355 0.807309 0.507286
0.899290 0.812100 0.525872
0.919768 0.818112 0.546654
0.939452 0.825437 0.570062
0.462623 0.813687 0.404913
0.463844 0.813840 0.405249
0.465431 0.813931 0.405463
0.468482 0.813962 0.405951
0.473243 0.813931 0.406653
0.479683 0.813993 0.407721
0.487922 0.814176 0.409277
0.497841 0.814511 0.411170
0.509422 0.814969 0.413672
0.522515 0.815549 0.416510
0.536919 0.816220 0.419745
0.552544 0.816922 0.423316
0.569207 0.817563 0.427314
0.586511 0.818112 0.431312
0.604456 0.818540 0.435615
0.622827 0.818814 0.439887
0.641749 0.819089 0.444404
0.661158 0.819486 0.449287
0.681056 0.820005 0.454688
0.701411 0.820737 0.460517
0.722072 0.821622 0.466926
0.742855 0.822629 0.473640
0.763577 0.823667 0.480690
0.784146 0.824765 0.488045
0.804532 0.825895 0.495521
0.824674 0.827085 0.503227
0.844480 0.828397 0.511192
0.864012 0.829770 0.519402
0.883299 0.831449 0.528222
0.903380 0.835325 0.545159
0.923156 0.840635 0.565820
0.942077 0.847013 0.588739
0.493263 0.839536 0.432563
0.494362 0.839597 0.432898
0.495674 0.839628 0.433051
0.498360 0.839536 0.433478
0.502556 0.839445 0.434058
0.508293 0.839292 0.434974
0.515557 0.839292 0.436164
0.524376 0.839322 0.437781
0.534722 0.839414 0.439918
0.546471 0.839658 0.442481
0.559472 0.839902 0.445167
0.573602 0.840208 0.448493
0.588739 0.840543 0.451911
0.604669 0.840818 0.455634
0.621363 0.841093 0.459602
0.638666 0.841337 0.463966
