其他预设/【232】美食博客调色预设124款/1.3D LUT预设（视频调色-PR-AE-PS-FCPX-达芬奇用）/Food Art #27.cube
# Created by Adobe Lightroom plugin Export LUT (1.17.0)
# www.johnrellis.com/lightroom/exportlut.htm
# Preset: Food Art #27
# Color profile: /Library/Application Support/Adobe/Color/Profiles/Recommended/AdobeRGB1998.icc
LUT_3D_SIZE 32
0.269749 0.157443 0.289677
0.274510 0.157137 0.290196
0.280858 0.156527 0.290867
0.295079 0.155215 0.292393
0.315496 0.152895 0.294652
0.336431 0.150912 0.297276
0.358587 0.147982 0.299779
0.381750 0.144778 0.302617
0.406592 0.141482 0.305791
0.433448 0.137789 0.309514
0.463111 0.133272 0.313756
0.495430 0.127932 0.318242
0.529717 0.122652 0.323003
0.565332 0.117281 0.328374
0.601831 0.112886 0.333898
0.638544 0.110018 0.339483
0.675380 0.108827 0.345373
0.711147 0.111391 0.351293
0.744717 0.117433 0.357336
0.780331 0.126040 0.364630
0.814267 0.138643 0.372015
0.845090 0.151675 0.380133
0.873045 0.166567 0.388495
0.898680 0.182010 0.397528
0.922454 0.198642 0.407111
0.944762 0.216190 0.417762
0.965759 0.235233 0.429419
0.985657 0.256107 0.442176
1.000000 0.279057 0.456611
1.000000 0.304479 0.472236
1.000000 0.332921 0.489601
1.000000 0.364721 0.508537
0.270878 0.161837 0.290837
0.275608 0.161532 0.291295
0.281834 0.160983 0.291905
0.296300 0.159915 0.293584
0.316472 0.157870 0.295750
0.337194 0.155581 0.298131
0.359045 0.152560 0.300572
0.381933 0.149416 0.303410
0.406531 0.146029 0.306676
0.433478 0.142428 0.310246
0.462989 0.138247 0.314397
0.495064 0.133333 0.318791
0.529137 0.128359 0.323613
0.564813 0.123476 0.328893
0.600977 0.119783 0.334356
0.637690 0.117159 0.340124
0.674189 0.116579 0.345769
0.710048 0.119173 0.351629
0.743557 0.124300 0.357733
0.778927 0.133425 0.364813
0.812589 0.144015 0.372137
0.843351 0.157046 0.379889
0.871336 0.171115 0.388220
0.897032 0.185763 0.397223
0.920928 0.201724 0.406775
0.943359 0.218875 0.417365
0.964538 0.237522 0.428809
0.984527 0.258244 0.441779
1.000000 0.280674 0.456062
1.000000 0.305791 0.471778
1.000000 0.333806 0.488960
1.000000 0.365118 0.507683
0.272374 0.167788 0.292393
0.277073 0.167361 0.292821
0.283238 0.166812 0.293706
0.297917 0.166293 0.295201
0.317601 0.164340 0.297398
0.338323 0.161532 0.299443
0.359808 0.158480 0.301701
0.382574 0.155245 0.304387
0.407019 0.151919 0.307652
0.433631 0.148470 0.311406
0.463111 0.144320 0.315373
0.495186 0.140047 0.319799
0.529168 0.135592 0.324651
0.564691 0.131777 0.329717
0.600763 0.128450 0.335271
0.637354 0.126467 0.340581
0.673884 0.126284 0.346441
0.709560 0.129152 0.352056
0.743069 0.134035 0.358129
0.778408 0.142153 0.365179
0.811887 0.152590 0.372412
0.842557 0.164706 0.380224
0.870481 0.177890 0.388586
0.896178 0.191806 0.397406
0.920165 0.207401 0.406958
0.942626 0.223850 0.417334
0.963867 0.241794 0.428901
0.983917 0.261997 0.441840
1.000000 0.283970 0.456153
1.000000 0.308659 0.471809
1.000000 0.336156 0.488869
1.000000 0.367285 0.507774
0.276341 0.181308 0.295750
0.281132 0.181094 0.296239
0.287785 0.180606 0.297032
0.301671 0.179873 0.298558
0.320684 0.177584 0.300298
0.340764 0.174166 0.301915
0.361852 0.170626 0.304234
0.384314 0.167300 0.306950
0.408484 0.163912 0.310063
0.435035 0.160616 0.313542
0.464271 0.157107 0.317571
0.496132 0.153475 0.321965
0.529931 0.150240 0.326635
0.565148 0.147585 0.331670
0.601129 0.145113 0.336858
0.637507 0.144259 0.342382
0.673823 0.144869 0.347906
0.709316 0.147646 0.353521
0.743252 0.152499 0.359594
0.777798 0.160098 0.366369
0.810788 0.169253 0.373449
0.841184 0.180117 0.381048
0.869169 0.192050 0.389258
0.895079 0.205020 0.398199
0.919341 0.219272 0.407691
0.942077 0.234897 0.418280
0.963500 0.252079 0.429847
0.983703 0.271458 0.442908
1.000000 0.292668 0.457221
1.000000 0.316442 0.472847
1.000000 0.343175 0.489967
1.000000 0.373297 0.508507
0.281193 0.199130 0.300298
0.285801 0.198886 0.300725
0.291966 0.198398 0.301396
0.304845 0.197513 0.302464
0.324010 0.195956 0.304387
0.344274 0.192416 0.306188
0.364721 0.188205 0.308293
0.386725 0.184512 0.310735
0.410559 0.181064 0.313573
0.436744 0.178103 0.317205
0.465888 0.175143 0.320897
0.497536 0.172549 0.325200
0.531090 0.170291 0.329808
0.566094 0.168521 0.334783
0.601892 0.167666 0.339788
0.638117 0.167849 0.344976
0.674525 0.169131 0.350378
0.709895 0.172641 0.355779
0.744411 0.177432 0.361913
0.778378 0.184421 0.368383
0.810819 0.192752 0.375280
0.840909 0.202304 0.382818
0.868620 0.212619 0.390906
0.894469 0.224552 0.399756
0.918669 0.237278 0.409216
0.941497 0.251347 0.419837
0.962921 0.267460 0.431525
0.983093 0.285252 0.444282
1.000000 0.305394 0.458625
1.000000 0.327977 0.474098
1.000000 0.353521 0.491279
1.000000 0.382544 0.509758
0.286351 0.218021 0.305333
0.290562 0.217777 0.305730
0.296452 0.217380 0.306188
0.308263 0.216495 0.307378
0.325780 0.215152 0.309392
0.347295 0.213565 0.311772
0.368994 0.209934 0.313970
0.390478 0.205692 0.316045
0.414008 0.202121 0.318700
0.440009 0.199313 0.321965
0.468910 0.197086 0.325566
0.500298 0.195346 0.329717
0.533440 0.194247 0.334112
0.568231 0.193698 0.338750
0.603845 0.193729 0.343389
0.639948 0.194980 0.348577
0.676081 0.197482 0.353582
0.711147 0.201205 0.359014
0.746273 0.206516 0.364904
0.779690 0.213046 0.371252
0.811826 0.220706 0.378180
0.841672 0.229129 0.385595
0.879789 0.245304 0.397772
0.904662 0.256107 0.407019
0.927825 0.268070 0.416785
0.949432 0.280888 0.427649
0.969726 0.295567 0.439490
0.988830 0.311894 0.452491
1.000000 0.330632 0.466682
1.000000 0.351995 0.482063
1.000000 0.376379 0.498970
1.000000 0.404089 0.517235
0.293339 0.239048 0.311772
0.297337 0.238651 0.312108
0.302525 0.238437 0.312627
0.313573 0.237736 0.313939
0.329839 0.236698 0.315404
0.350103 0.235447 0.317754
0.373449 0.233860 0.320470
0.396826 0.230777 0.322881
0.420172 0.227115 0.325536
0.446571 0.224765 0.328435
0.475471 0.223148 0.332006
0.506981 0.222324 0.335637
0.540063 0.222171 0.339788
0.574548 0.222568 0.343938
0.609735 0.223728 0.348608
0.645167 0.225742 0.353277
0.680812 0.229099 0.358160
0.716793 0.233707 0.363378
0.751431 0.239445 0.369421
0.784787 0.245914 0.375738
0.817044 0.253666 0.382757
0.847318 0.261967 0.390417
0.875364 0.271122 0.399084
0.901427 0.280949 0.408606
0.925566 0.291905 0.418891
0.947753 0.303868 0.429969
0.968383 0.317174 0.441840
0.987579 0.332280 0.454749
1.000000 0.349401 0.468849
1.000000 0.369390 0.484382
1.000000 0.392096 0.501061
1.000000 0.418372 0.519127
0.300755 0.260349 0.318791
0.304295 0.260227 0.319310
0.309117 0.259983 0.319707
0.319432 0.259403 0.320623
0.334508 0.258640 0.322057
0.353491 0.257664 0.324254
0.375555 0.256504 0.326818
0.400122 0.255589 0.329870
0.425147 0.253574 0.333013
0.451057 0.251469 0.335576
0.479927 0.250492 0.338781
0.510979 0.250462 0.342107
0.543694 0.251194 0.345769
0.577783 0.252476 0.349584
0.612482 0.254612 0.353979
0.647578 0.257572 0.358160
0.683589 0.261753 0.362860
0.719387 0.266972 0.368078
0.753017 0.272557 0.373541
0.785489 0.278752 0.379644
0.817136 0.285557 0.386572
0.846830 0.292912 0.394202
0.874510 0.301061 0.402472
0.900328 0.309667 0.411963
0.924254 0.319249 0.422004
0.946410 0.329992 0.432929
0.967010 0.341833 0.444770
0.986267 0.355322 0.457740
1.000000 0.371130 0.471809
1.000000 0.389380 0.487129
1.000000 0.410803 0.503807
1.000000 0.435615 0.521965
0.309483 0.284123 0.327031
0.312688 0.284031 0.327367
0.317266 0.284001 0.327703
0.326757 0.283574 0.328679
0.340917 0.283238 0.329992
0.358831 0.282597 0.331914
0.380133 0.281956 0.334203
0.403967 0.281468 0.336858
0.429816 0.281041 0.340337
0.456916 0.280644 0.343511
0.485451 0.280308 0.346105
0.516197 0.280949 0.349126
0.548486 0.282506 0.352544
0.582147 0.284672 0.355993
0.616297 0.287541 0.359960
0.651575 0.291569 0.364019
0.688106 0.297032 0.368536
0.722713 0.302403 0.373419
0.755184 0.307408 0.378698
0.787015 0.313207 0.384436
0.817929 0.319768 0.390936
0.847044 0.326238 0.398413
0.874266 0.333257 0.406714
0.899779 0.340948 0.416022
0.923491 0.349310 0.426062
0.945495 0.358556 0.437018
0.965972 0.369085 0.448829
0.985168 0.381231 0.461494
1.000000 0.395392 0.475502
1.000000 0.412177 0.490700
1.000000 0.432074 0.507347
1.000000 0.455268 0.525322
0.318700 0.311498 0.335576
0.321904 0.311406 0.335790
0.326055 0.311345 0.336095
0.335149 0.311040 0.337011
0.348760 0.310857 0.338140
0.366217 0.310674 0.339849
0.386694 0.310399 0.342016
0.409979 0.310338 0.344549
0.435492 0.310491 0.347326
0.462867 0.310979 0.350622
0.491432 0.311742 0.354253
0.521691 0.313115 0.356786
0.553674 0.315373 0.359747
0.586847 0.318334 0.363073
0.621851 0.322911 0.366491
0.657740 0.328435 0.370611
0.693202 0.334112 0.374792
0.726833 0.339269 0.379278
0.758511 0.344335 0.384283
0.789456 0.349645 0.389929
0.819425 0.355200 0.396307
0.847562 0.360845 0.403632
0.874052 0.366827 0.411505
0.898863 0.373175 0.420600
0.922210 0.380255 0.430549
0.944030 0.388312 0.441260
0.964508 0.397559 0.453010
0.983825 0.408453 0.465766
1.000000 0.421515 0.479866
1.000000 0.437049 0.495064
1.000000 0.455695 0.511742
1.000000 0.477638 0.529747
0.328130 0.342168 0.344121
0.330968 0.342077 0.344427
0.335241 0.342168 0.344701
0.343999 0.342077 0.345495
0.357427 0.342107 0.346502
0.374548 0.342199 0.348028
0.394720 0.342443 0.350042
0.417700 0.342718 0.352270
0.443030 0.343328 0.354803
0.470130 0.344274 0.357916
0.498512 0.345525 0.361364
0.528222 0.347387 0.364843
0.560113 0.350744 0.367498
0.593988 0.355352 0.370611
0.628595 0.360723 0.373846
0.663416 0.366430 0.377508
0.697597 0.372045 0.381353
0.730098 0.377081 0.385565
0.760891 0.381445 0.390509
0.791226 0.386267 0.395850
0.820432 0.391333 0.402106
0.848051 0.396307 0.409033
0.874113 0.401495 0.417090
0.898558 0.406928 0.426215
0.921660 0.413062 0.436011
0.943267 0.419989 0.446571
0.963561 0.427985 0.458289
0.982666 0.437629 0.470771
1.000000 0.449256 0.484688
1.000000 0.463508 0.499855
1.000000 0.480598 0.516472
1.000000 0.501244 0.534447
0.337621 0.376806 0.352972
0.340703 0.376776 0.353094
0.344854 0.376837 0.353491
0.353491 0.376928 0.354040
0.366583 0.377264 0.355047
0.383459 0.377508 0.356481
0.403662 0.377966 0.358068
0.426581 0.378637 0.360174
0.451759 0.379614 0.362646
0.478614 0.380987 0.365362
0.507134 0.382727 0.368505
0.537713 0.386175 0.372259
0.576684 0.397711 0.378088
0.610590 0.403510 0.380835
0.645045 0.409522 0.384039
0.679408 0.415503 0.387121
0.712184 0.420630 0.390875
0.743160 0.424659 0.395239
0.772702 0.428138 0.399786
0.801724 0.431861 0.405219
0.829252 0.435431 0.411414
0.855283 0.438880 0.418647
0.879881 0.442512 0.426459
0.903258 0.446662 0.435309
0.925292 0.451362 0.445167
0.946105 0.456977 0.455726
0.965698 0.463661 0.467140
0.984222 0.471962 0.479530
1.000000 0.482246 0.493294
1.000000 0.495064 0.508141
1.000000 0.510796 0.524468
1.000000 0.529870 0.542229
0.348058 0.417884 0.362036
0.351110 0.417945 0.362310
0.355138 0.417823 0.362554
0.363867 0.417792 0.363043
0.376898 0.417823 0.363897
0.393622 0.418036 0.364996
0.413642 0.418402 0.366522
0.436561 0.419196 0.368292
0.461769 0.420417 0.370642
0.489876 0.423774 0.373449
0.519707 0.427649 0.376898
0.551080 0.432288 0.380560
0.583398 0.437507 0.384436
0.616144 0.443214 0.388891
0.650172 0.449928 0.391547
0.683742 0.456123 0.394781
0.715602 0.460792 0.398138
0.745571 0.464118 0.402167
0.774380 0.467048 0.406592
0.802579 0.469978 0.411933
0.829404 0.472786 0.417975
0.854948 0.475410 0.424903
0.879088 0.478218 0.432990
0.902129 0.481361 0.441657
0.923949 0.485084 0.451179
0.944610 0.489601 0.461555
0.964080 0.495338 0.472969
0.982513 0.502525 0.485267
0.999908 0.511681 0.498878
1.000000 0.523308 0.513664
1.000000 0.537713 0.529931
1.000000 0.555596 0.547814
0.357702 0.458839 0.370367
0.360662 0.458839 0.370581
0.364752 0.458747 0.370764
0.373480 0.458747 0.371130
0.386206 0.458869 0.372045
0.403174 0.459419 0.373114
0.423529 0.460822 0.374670
0.446662 0.462501 0.376410
0.472297 0.464790 0.378668
0.499977 0.467781 0.381353
0.529381 0.471443 0.384222
0.560143 0.476112 0.387579
0.591699 0.481117 0.391241
0.623774 0.486580 0.395239
0.655848 0.492073 0.399512
0.688045 0.497597 0.402502
0.718715 0.501518 0.405768
0.747829 0.504234 0.409644
0.775998 0.506401 0.413916
0.803464 0.508690 0.419165
0.829709 0.510643 0.425147
0.854795 0.512505 0.431983
0.878599 0.514519 0.439826
0.901335 0.516869 0.448585
0.922942 0.519738 0.457893
0.943420 0.523308 0.468238
0.962737 0.528008 0.479591
0.981079 0.534264 0.491798
0.998413 0.542321 0.505333
1.000000 0.552850 0.520165
1.000000 0.566247 0.536492
1.000000 0.582879 0.554345
0.367895 0.505119 0.379004
0.370703 0.505272 0.379309
0.374975 0.505364 0.379278
0.383642 0.505547 0.379889
0.396735 0.505791 0.380468
0.413611 0.506340 0.381567
0.433722 0.507256 0.382940
0.456703 0.508659 0.384588
0.482063 0.510613 0.386419
0.509392 0.513573 0.388861
0.538323 0.517021 0.391760
0.568475 0.521324 0.394934
0.599390 0.525963 0.398291
0.630610 0.530846 0.402167
0.661738 0.535637 0.406317
0.692592 0.540154 0.410468
0.722255 0.543297 0.413886
0.750423 0.545098 0.417456
0.777920 0.546624 0.421729
0.804593 0.547875 0.426795
0.830167 0.548943 0.432685
0.854673 0.549920 0.439612
0.878080 0.551110 0.447150
0.900511 0.552544 0.455787
0.921904 0.554528 0.465278
0.942229 0.557427 0.475471
0.961578 0.561364 0.486915
0.979950 0.566979 0.499275
0.997284 0.574365 0.512932
1.000000 0.584161 0.527977
1.000000 0.596796 0.544549
1.000000 0.612634 0.562890
0.378241 0.553460 0.387396
0.381292 0.553704 0.387732
0.385260 0.553704 0.387915
0.393866 0.553979 0.388220
0.406897 0.554192 0.389136
0.423865 0.554742 0.389868
0.443854 0.555657 0.391211
0.466529 0.557031 0.392828
0.491676 0.558770 0.394781
0.518547 0.561059 0.397101
0.546777 0.563622 0.399634
0.575860 0.566888 0.402747
0.605493 0.570123 0.406012
0.635401 0.573632 0.409583
0.665339 0.577264 0.413245
0.695277 0.580987 0.417334
0.724910 0.584619 0.421729
0.752865 0.586297 0.425574
0.779904 0.587152 0.429938
0.806058 0.587762 0.434882
0.831205 0.588159 0.440864
0.855314 0.588281 0.447822
0.878416 0.588678 0.455512
0.900542 0.589349 0.464118
0.921691 0.590600 0.473426
0.941833 0.592676 0.483925
0.960967 0.595789 0.495247
0.979126 0.600488 0.507591
0.996277 0.607080 0.521416
1.000000 0.615717 0.536339
1.000000 0.627161 0.552911
1.000000 0.641749 0.571283
0.388556 0.598962 0.396094
0.391424 0.598993 0.396246
0.395087 0.599023 0.396551
0.403876 0.599054 0.396796
0.416754 0.599237 0.397436
0.433021 0.599542 0.398413
0.452491 0.600214 0.399695
0.474891 0.601099 0.401099
0.499184 0.602411 0.403052
0.525231 0.604059 0.405249
0.552728 0.606348 0.407782
0.580896 0.608820 0.410651
0.609644 0.611719 0.413947
0.638697 0.614557 0.417487
0.667750 0.617517 0.421210
0.696712 0.620356 0.425025
0.725551 0.623316 0.429389
0.754574 0.626673 0.433936
0.781674 0.627710 0.438178
0.807034 0.627222 0.443091
0.831601 0.626612 0.449165
0.855222 0.625940 0.455909
0.877958 0.625391 0.463539
0.899840 0.625299 0.472114
0.920745 0.625788 0.481544
0.940703 0.627070 0.492073
0.959716 0.629511 0.503380
0.977783 0.633356 0.515892
0.994812 0.639094 0.529656
1.000000 0.646967 0.544823
1.000000 0.657496 0.561608
1.000000 0.670802 0.579919
0.399237 0.642084 0.405402
0.402228 0.642359 0.405554
0.408789 0.651362 0.407965
0.417060 0.651331 0.408362
0.429572 0.651301 0.409064
0.445624 0.651179 0.409827
0.464637 0.651209 0.411017
0.486091 0.651545 0.412451
0.509941 0.652216 0.414130
0.535210 0.653346 0.416327
0.561791 0.654780 0.418891
0.589136 0.656519 0.421607
0.616968 0.658289 0.424659
0.644984 0.660334 0.428107
0.673152 0.662287 0.431769
0.701259 0.664302 0.435370
0.729274 0.666377 0.439582
0.757259 0.668421 0.443824
0.785275 0.670802 0.448493
0.811093 0.670527 0.453620
0.834653 0.668330 0.459358
0.857542 0.666285 0.466011
0.879606 0.664576 0.473579
0.900816 0.663325 0.482124
0.921080 0.662501 0.491371
0.940429 0.662593 0.501427
0.958923 0.663752 0.512383
0.976593 0.666468 0.524773
0.993347 0.671077 0.538415
1.000000 0.678065 0.553704
1.000000 0.687465 0.570550
1.000000 0.699336 0.588830
0.411933 0.685542 0.415808
0.415015 0.686671 0.416327
0.419318 0.687861 0.416663
0.427314 0.688869 0.417609
0.439338 0.689631 0.418402
0.454658 0.689967 0.419532
0.472908 0.690120 0.420600
0.493538 0.690333 0.422004
0.516228 0.690852 0.423865
0.540612 0.691585 0.425818
0.565911 0.692592 0.428382
0.592370 0.693812 0.430945
0.619135 0.695125 0.434150
0.646204 0.696468 0.437324
0.673396 0.697871 0.440833
0.700587 0.699306 0.444678
0.727749 0.700801 0.448707
0.754910 0.702419 0.452949
0.782254 0.704250 0.457465
0.809598 0.706325 0.462470
0.834836 0.705989 0.468055
0.857298 0.703273 0.474922
0.879149 0.700740 0.482399
0.900114 0.698756 0.490913
0.920195 0.697292 0.500145
0.939391 0.696651 0.510277
0.957733 0.697078 0.521386
0.975219 0.699062 0.533959
0.991821 0.702907 0.547723
1.000000 0.708919 0.563104
1.000000 0.717159 0.579980
1.000000 0.727626 0.598199
0.424689 0.722988 0.426246
0.427588 0.723903 0.426825
0.431464 0.724910 0.427436
0.439002 0.725765 0.428168
0.450446 0.726375 0.428992
0.464698 0.726558 0.430091
0.482033 0.726589 0.431342
0.501518 0.726650 0.432715
0.522972 0.726925 0.434455
0.546197 0.727382 0.436408
0.570642 0.728115 0.438788
0.595789 0.729030 0.441566
0.621515 0.729915 0.444617
0.647578 0.730922 0.447791
0.673854 0.731868 0.451209
0.700160 0.732815 0.455024
0.726497 0.733913 0.458808
0.752834 0.735134 0.463142
0.779324 0.736507 0.467689
0.805936 0.738186 0.472480
0.832578 0.740078 0.477852
0.857389 0.739986 0.483925
0.878904 0.736721 0.491524
0.899596 0.733913 0.500084
0.919402 0.731685 0.509422
0.938354 0.730220 0.519524
0.956481 0.729854 0.530755
0.973754 0.731014 0.543267
0.990112 0.734035 0.557275
1.000000 0.738949 0.572717
1.000000 0.745907 0.589380
1.000000 0.755032 0.607691
0.438697 0.757687 0.438056
0.441291 0.758541 0.438666
0.445045 0.759335 0.439063
0.452125 0.760098 0.439857
0.462715 0.760494 0.440864
0.476295 0.760586 0.441779
0.492195 0.760555 0.443000
0.510369 0.760555 0.444190
0.530724 0.760555 0.446021
0.552636 0.760830 0.447974
0.575616 0.761257 0.450416
0.599664 0.761807 0.453101
0.624201 0.762417 0.455970
0.649256 0.763027 0.459083
0.674525 0.763821 0.462745
0.700038 0.764675 0.466346
0.725795 0.765713 0.470558
0.751583 0.766964 0.474952
0.777554 0.768429 0.479622
0.803647 0.770138 0.484779
0.829831 0.772122 0.490303
0.856046 0.774166 0.496193
0.880583 0.774472 0.502831
0.901061 0.770993 0.511681
0.920623 0.768124 0.521355
0.939300 0.766049 0.531853
0.957092 0.764981 0.543542
0.974060 0.765408 0.556237
0.990112 0.767453 0.570367
1.000000 0.771359 0.585840
1.000000 0.777127 0.602594
1.000000 0.784787 0.620905
0.456306 0.793088 0.452430
0.458625 0.793423 0.452613
0.461646 0.793668 0.453101
0.467994 0.793851 0.453559
0.477546 0.793881 0.454322
0.489876 0.793759 0.455268
0.504601 0.793637 0.456275
0.521630 0.793515 0.457740
0.540612 0.793637 0.459510
0.561181 0.793851 0.461646
0.583093 0.794247 0.464118
0.605890 0.794675 0.466712
0.629358 0.795041 0.469612
0.653193 0.795499 0.472938
0.677424 0.795926 0.476265
0.701961 0.796475 0.480018
0.726650 0.797116 0.483955
0.751522 0.797940 0.488350
0.776516 0.798947 0.492927
0.801572 0.800107 0.497963
0.826749 0.801389 0.503258
0.851896 0.802823 0.508873
0.876982 0.804349 0.514824
0.900633 0.804532 0.521721
0.919829 0.800748 0.531365
0.938293 0.797910 0.542016
0.955871 0.796139 0.553826
0.972625 0.795743 0.566674
0.988525 0.796872 0.580774
1.000000 0.799649 0.596155
1.000000 0.804227 0.612970
1.000000 0.810697 0.631556
0.474006 0.822812 0.466255
0.476112 0.823117 0.466651
0.478950 0.823392 0.466957
0.484565 0.823575 0.467597
0.493324 0.823514 0.468421
0.504448 0.823362 0.469123
0.517845 0.823178 0.470344
0.533440 0.822965 0.471717
0.551080 0.822873 0.473426
0.570245 0.822904 0.475380
0.590661 0.823087 0.477852
0.612116 0.823362 0.480476
0.634272 0.823606 0.483345
0.657099 0.823880 0.486580
0.680232 0.824247 0.489967
0.703761 0.824643 0.493538
0.727474 0.825132 0.497597
0.751461 0.825803 0.501915
0.775631 0.826596 0.506767
0.799863 0.827604 0.511864
0.824186 0.828702 0.517296
0.848508 0.829892 0.522972
0.872740 0.831296 0.529168
0.896788 0.832670 0.535485
0.918669 0.831693 0.541161
0.936858 0.828031 0.551904
0.954284 0.825498 0.563775
0.970886 0.824338 0.576684
0.986633 0.824552 0.590692
1.000000 0.826352 0.606226
1.000000 0.829831 0.623133
1.000000 0.835264 0.642145
0.495583 0.852689 0.483101
0.497597 0.852995 0.483436
0.500053 0.853178 0.483711
0.505180 0.853178 0.484199
0.512810 0.852995 0.484779
0.522637 0.852720 0.485634
0.534783 0.852293 0.486549
0.548791 0.851926 0.487709
0.564813 0.851530 0.489204
0.582177 0.851255 0.491066
0.600977 0.851011 0.493294
0.620813 0.850889 0.495766
0.641474 0.850828 0.498482
0.662745 0.850767 0.501427
0.684535 0.850675 0.504662
0.706691 0.850645 0.508080
0.729152 0.850675 0.511833
0.751980 0.850950 0.516075
0.775051 0.851469 0.520714
0.798428 0.852232 0.525719
0.821805 0.853208 0.531395
0.845243 0.854246 0.537316
0.868528 0.855253 0.543481
0.891539 0.856229 0.549889
0.914214 0.857237 0.556268
0.936248 0.857877 0.563226
0.953368 0.854520 0.574823
0.969665 0.852384 0.587671
0.985168 0.851621 0.601587
0.999634 0.852354 0.617090
1.000000 0.854826 0.634333
1.000000 0.858976 0.653315
0.516930 0.877775 0.499092
0.518791 0.878050 0.499489
0.521141 0.878233 0.499702
0.525597 0.878233 0.500175
0.532372 0.878080 0.500786
0.541344 0.877806 0.501640
0.552331 0.877470 0.502617
0.565026 0.877134 0.503990
0.579644 0.876829 0.505455
0.595636 0.876616 0.507469
0.613001 0.876432 0.509514
0.631556 0.876341 0.512047
0.650935 0.876310 0.515007
0.670954 0.876219 0.518059
0.691554 0.876158 0.521263
0.712551 0.876066 0.524895
0.733913 0.876066 0.528832
0.755612 0.876188 0.533043
0.777676 0.876555 0.537713
0.799954 0.877104 0.543053
0.822293 0.877745 0.548699
0.844694 0.878538 0.554528
0.866850 0.879332 0.560662
0.888853 0.880125 0.567071
0.910552 0.880949 0.573632
0.931914 0.881743 0.580285
0.952941 0.882658 0.587213
0.969116 0.879820 0.599939
0.984314 0.878264 0.614191
0.998535 0.878111 0.629847
1.000000 0.879545 0.647364
1.000000 0.882444 0.666194
0.541497 0.901732 0.516960
0.543175 0.901884 0.517388
0.545129 0.901915 0.517662
0.548943 0.901823 0.517967
0.554833 0.901579 0.518456
0.562646 0.901274 0.519158
0.572320 0.900877 0.520226
0.583673 0.900572 0.521324
0.596918 0.900206 0.522972
0.611475 0.899992 0.524865
0.627497 0.899748 0.527092
0.644526 0.899657 0.529625
0.662531 0.899596 0.532616
0.681300 0.899474 0.535790
0.700496 0.899321 0.539025
0.720241 0.899168 0.542718
0.740383 0.899046 0.546685
0.760830 0.899046 0.550927
0.781674 0.899199 0.555657
0.802701 0.899565 0.560845
0.823941 0.900053 0.566369
0.845151 0.900633 0.572320
0.866209 0.901244 0.578363
0.887175 0.901854 0.584771
0.907805 0.902464 0.591272
0.928099 0.903166 0.597955
0.948058 0.903868 0.605005
0.967651 0.904662 0.612268
0.983032 0.902708 0.626001
0.997070 0.901701 0.641871
1.000000 0.902037 0.659144
1.000000 0.903716 0.677790
0.567773 0.923186 0.535943
0.569146 0.923278 0.536248
0.570825 0.923308 0.536400
0.574243 0.923247 0.536858
0.579644 0.923095 0.537621
0.586694 0.923003 0.538384
0.595727 0.922942 0.539727
0.606470 0.922911 0.541497
0.618830 0.922972 0.543542
0.632593 0.923095 0.545983
0.647547 0.923247 0.548760
0.663569 0.923400 0.551843
0.680415 0.923552 0.555230
0.697871 0.923583 0.558740
0.715785 0.923522 0.562371
0.734035 0.923400 0.566094
0.752712 0.923247 0.570031
0.771695 0.923186 0.574273
0.791135 0.923217 0.579126
0.810758 0.923369 0.584222
0.830533 0.923644 0.589654
0.850370 0.924010 0.595544
0.870085 0.924376 0.601556
0.889677 0.924743 0.608026
0.908995 0.925170 0.614557
0.927977 0.925628 0.621515
0.946715 0.926116 0.628565
0.964996 0.926726 0.636011
0.982910 0.927459 0.643824
0.997192 0.926177 0.658259
1.000000 0.925414 0.675166
1.000000 0.925811 0.693446
0.600702 0.945037 0.559777
0.601831 0.945068 0.559930
0.603235 0.945006 0.560235
0.606043 0.944915 0.560510
0.610559 0.944701 0.561059
0.616510 0.944488 0.561791
0.624109 0.944274 0.562921
0.633265 0.944091 0.564416
0.643824 0.943908 0.566155
0.655787 0.943786 0.568292
0.668788 0.943633 0.570733
0.682918 0.943542 0.573358
0.697841 0.943420 0.576379
0.713558 0.943267 0.579675
0.729824 0.943084 0.583124
0.746609 0.942870 0.586908
