其他预设/【232】美食博客调色预设124款/1.3D LUT预设（视频调色-PR-AE-PS-FCPX-达芬奇用）/Food Art #4 ().cube
# Created by Adobe Lightroom plugin Export LUT (1.17.0)
# www.johnrellis.com/lightroom/exportlut.htm
# Preset: Food Art #4 (素锦印象)
# Color profile: /Library/Application Support/Adobe/Color/Profiles/Recommended/AdobeRGB1998.icc
LUT_3D_SIZE 5
DOMAIN_MIN 0.000000 0.000000 0.000000
DOMAIN_MAX 0.903226 0.903226 0.903226
0.000000 0.000000 0.000000
0.332280 0.000000 0.000000
0.707912 0.000000 0.000000
0.938170 0.000000 0.000000
1.000000 0.156374 0.157595
0.000000 0.342412 0.000000
0.351110 0.351232 0.000000
0.721645 0.348333 0.000000
0.940429 0.312108 0.000000
1.000000 0.307164 0.171786
0.000000 0.717098 0.000000
0.348302 0.719661 0.000000
0.699977 0.700038 0.000000
0.931029 0.625757 0.130007
1.000000 0.563287 0.238926
0.185458 0.920134 0.185763
0.346777 0.916655 0.191165
0.620081 0.906706 0.212284
0.890532 0.890623 0.249638
1.000000 0.809934 0.327276
0.360510 1.000000 0.360693
0.428595 1.000000 0.365942
0.604700 1.000000 0.392798
0.801358 1.000000 0.416052
0.993927 0.993988 0.445716
0.000000 0.000000 0.366400
0.363867 0.000000 0.363806
0.730617 0.000000 0.356573
0.943084 0.243534 0.380133
1.000000 0.338872 0.412970
0.000000 0.365209 0.365148
0.365362 0.365362 0.365362
0.730861 0.369451 0.369482
0.940978 0.387640 0.387793
1.000000 0.420356 0.420508
0.000000 0.727901 0.358434
0.379156 0.725887 0.379065
0.715969 0.716091 0.384833
0.930541 0.653315 0.411139
1.000000 0.611872 0.445380
0.283207 0.918273 0.396490
0.422400 0.913146 0.422431
0.647486 0.904753 0.431891
0.891386 0.891478 0.450202
1.000000 0.824796 0.490028
0.460304 1.000000 0.505821
0.509453 1.000000 0.509514
0.644221 1.000000 0.518334
0.817807 1.000000 0.536431
0.992248 0.992309 0.555383
0.000000 0.000000 0.726528
0.351324 0.000000 0.724941
0.720546 0.018006 0.720577
0.929351 0.324285 0.657984
1.000000 0.509697 0.671565
0.024842 0.360998 0.720638
0.373297 0.373205 0.720943
0.719783 0.396277 0.719814
0.922179 0.486152 0.679286
1.000000 0.592523 0.697383
0.159792 0.718166 0.718196
0.415900 0.718624 0.718624
0.717372 0.717372 0.717372
0.905211 0.719722 0.719722
1.000000 0.726223 0.726253
0.360662 0.918059 0.660853
0.499977 0.913054 0.680690
0.723293 0.898558 0.723232
0.891447 0.891478 0.725093
1.000000 0.863279 0.739895
0.522087 1.000000 0.672023
0.597498 1.000000 0.696315
0.744656 1.000000 0.744656
0.862760 1.000000 0.753140
0.990600 0.990600 0.759884
0.085481 0.087129 0.917266
0.325017 0.135073 0.915648
0.628809 0.242283 0.911894
0.906950 0.372839 0.906950
1.000000 0.536339 0.842863
0.279240 0.392798 0.913481
0.405982 0.405982 0.912718
0.657160 0.449226 0.909453
0.905425 0.515984 0.905425
1.000000 0.618860 0.854368
0.411170 0.669917 0.907439
0.529198 0.690242 0.905241
0.728328 0.728298 0.900786
0.897795 0.739010 0.897765
1.000000 0.771481 0.876616
0.472389 0.897612 0.897612
0.567712 0.897826 0.897826
0.747799 0.896544 0.896574
0.895872 0.895842 0.895872
0.998169 0.898558 0.898558
0.589929 1.000000 0.850706
0.649165 1.000000 0.858457
0.778256 1.000000 0.877195
0.900938 0.993896 0.900938
0.989044 0.989044 0.904021
0.213413 0.213779 1.000000
0.337499 0.243626 1.000000
0.572778 0.332219 1.000000
0.804959 0.446632 1.000000
1.000000 0.553429 1.000000
0.358129 0.419745 1.000000
0.434363 0.434302 1.000000
0.618433 0.482155 1.000000
0.818784 0.548882 1.000000
0.999023 0.620905 0.999023
0.550896 0.680934 1.000000
0.615595 0.703395 1.000000
0.721492 0.721431 0.998169
0.853178 0.739437 0.995453
0.993225 0.767239 0.993194
0.593652 0.836637 0.996338
0.646174 0.844938 0.994903
0.770291 0.867124 0.991669
0.890318 0.890257 0.988952
0.989349 0.903166 0.989319
0.655146 0.990631 0.990661
0.694636 0.990051 0.990082
0.798611 0.988861 0.988891
0.907866 0.987488 0.987488
0.986725 0.986694 0.986725
