其他预设/【232】美食博客调色预设124款/1.3D LUT预设（视频调色-PR-AE-PS-FCPX-达芬奇用）/Food Art #57.cube
# Created by Adobe Lightroom plugin Export LUT (1.17.0)
# www.johnrellis.com/lightroom/exportlut.htm
# Preset: Food Art #57
# Color profile: /Library/Application Support/Adobe/Color/Profiles/Recommended/AdobeRGB1998.icc
LUT_3D_SIZE 32
0.000000 0.000000 0.000000
0.000000 0.001190 0.001007
0.006317 0.004425 0.011383
0.023224 0.014527 0.044739
0.041352 0.044404 0.075776
0.062074 0.064363 0.095094
0.078889 0.075715 0.109621
0.097169 0.087098 0.123995
0.117372 0.098451 0.139590
0.138949 0.110262 0.156985
0.162356 0.122652 0.175235
0.186740 0.135073 0.194461
0.212222 0.148562 0.215244
0.238712 0.162173 0.236362
0.266178 0.175814 0.257939
0.294621 0.189059 0.278782
0.323796 0.202426 0.299229
0.354101 0.215579 0.319036
0.385321 0.228305 0.337713
0.423285 0.243198 0.357916
0.463691 0.258061 0.377020
0.506035 0.272740 0.394812
0.549096 0.287694 0.410864
0.591760 0.303258 0.425513
0.634516 0.319524 0.438666
0.677699 0.337438 0.450813
0.720455 0.357488 0.462013
0.762570 0.380682 0.472450
0.803799 0.407568 0.482643
0.843778 0.439033 0.493263
0.881804 0.475593 0.505333
0.917418 0.515984 0.520134
0.000824 0.002167 0.000885
0.000000 0.006744 0.008118
0.006104 0.014527 0.024628
0.020020 0.037354 0.064240
0.039521 0.060426 0.085054
0.062257 0.071565 0.100252
0.079622 0.081697 0.113344
0.097719 0.092256 0.127230
0.117617 0.102937 0.143191
0.139315 0.114168 0.159426
0.162417 0.126162 0.177615
0.186740 0.138552 0.196780
0.212131 0.151217 0.217411
0.238529 0.164584 0.238224
0.265721 0.177981 0.259159
0.294072 0.191257 0.279911
0.323156 0.204257 0.299992
0.353216 0.217380 0.319432
0.384405 0.230137 0.337987
0.421881 0.244541 0.357977
0.461585 0.258946 0.376837
0.503502 0.273472 0.394263
0.546136 0.288212 0.410285
0.588708 0.303502 0.424842
0.631464 0.319646 0.437934
0.674708 0.337438 0.450233
0.717647 0.357336 0.461463
0.759976 0.380377 0.471992
0.801511 0.407080 0.482185
0.841733 0.438422 0.492775
0.880003 0.474739 0.504845
0.915831 0.514916 0.519432
0.000000 0.030793 0.038666
0.000000 0.037568 0.044617
0.003723 0.046326 0.059754
0.016297 0.061372 0.078004
0.038544 0.071351 0.094148
0.062989 0.080354 0.106508
0.080201 0.089601 0.118593
0.098604 0.098787 0.132540
0.118532 0.108949 0.147036
0.140017 0.119692 0.163760
0.162997 0.131106 0.181430
0.187472 0.143099 0.200137
0.212619 0.155673 0.220310
0.238865 0.168521 0.240818
0.266056 0.181552 0.261875
0.294255 0.194553 0.282048
0.323247 0.207462 0.301884
0.353246 0.220035 0.321233
0.384436 0.232761 0.339269
0.421912 0.246891 0.358984
0.461219 0.261112 0.377417
0.502831 0.275334 0.394751
0.545281 0.290043 0.410620
0.587732 0.305241 0.424903
0.630426 0.321202 0.438117
0.673518 0.338750 0.450263
0.716518 0.358618 0.461433
0.758907 0.381628 0.471962
0.800565 0.408148 0.482124
0.840909 0.439307 0.492683
0.879210 0.475319 0.504692
0.915099 0.515404 0.519310
0.000000 0.073121 0.082216
0.000000 0.075105 0.085084
0.000000 0.077790 0.090791
0.011170 0.083894 0.100343
0.038483 0.090913 0.110445
0.064942 0.097658 0.120089
0.082460 0.104555 0.130709
0.100954 0.112703 0.143252
0.120760 0.121431 0.157015
0.142245 0.131289 0.172427
0.165164 0.141848 0.189822
0.189181 0.153353 0.208011
0.214450 0.164920 0.227329
0.240421 0.177066 0.247807
0.267491 0.189425 0.267338
0.295567 0.201694 0.287327
0.324407 0.214084 0.306767
0.354314 0.226291 0.324987
0.386084 0.238743 0.342870
0.422400 0.252232 0.361700
0.461097 0.266087 0.379431
0.502037 0.279942 0.396033
0.544305 0.294408 0.411536
0.586908 0.309331 0.425971
0.629999 0.325444 0.439033
0.673762 0.343084 0.451087
0.717067 0.363073 0.462196
0.759701 0.385962 0.472724
0.801297 0.412482 0.482765
0.841398 0.443397 0.493263
0.879423 0.479011 0.505272
0.914977 0.518395 0.519799
0.000000 0.099794 0.107515
0.000000 0.101625 0.110231
0.000000 0.103822 0.113649
0.006531 0.108339 0.120851
0.038849 0.115389 0.131441
0.067170 0.120943 0.140627
0.085237 0.125887 0.149111
0.104158 0.132204 0.159701
0.124300 0.139345 0.171908
0.145510 0.147890 0.186679
0.168276 0.157382 0.202182
0.191897 0.167575 0.220127
0.216953 0.178408 0.238499
0.243107 0.189700 0.257389
0.270085 0.201297 0.276280
0.298039 0.212863 0.295079
0.327092 0.224521 0.313634
0.357122 0.236149 0.331395
0.389776 0.248325 0.348821
0.425544 0.261143 0.366796
0.463539 0.274449 0.383398
0.504082 0.287938 0.399481
0.545830 0.301976 0.414191
0.588220 0.316747 0.428138
0.631098 0.332738 0.440772
0.674769 0.350072 0.452552
0.717891 0.369757 0.463386
0.760281 0.392432 0.473671
0.801633 0.418616 0.483589
0.841520 0.449195 0.494026
0.879423 0.484260 0.505974
0.914824 0.523247 0.520653
0.000000 0.127108 0.132113
0.000000 0.128634 0.134371
0.000000 0.130434 0.137087
0.000000 0.134249 0.142885
0.034150 0.139864 0.151797
0.069184 0.147158 0.162936
0.090028 0.152438 0.172671
0.109071 0.156497 0.181460
0.129061 0.162295 0.191806
0.150271 0.169375 0.204776
0.172854 0.177401 0.219730
0.196628 0.186282 0.235996
0.221225 0.195865 0.253269
0.247257 0.206027 0.270756
0.274327 0.216526 0.288151
0.302281 0.227237 0.306004
0.331456 0.238071 0.323186
0.361334 0.248997 0.339849
0.395056 0.261112 0.357061
0.430488 0.273289 0.373663
0.468482 0.286168 0.389685
0.509026 0.299138 0.404639
0.572290 0.321935 0.426429
0.614466 0.337072 0.438911
0.656703 0.353155 0.450202
0.698451 0.370794 0.460639
0.739376 0.390753 0.470375
0.779324 0.413519 0.479652
0.818265 0.439887 0.489174
0.855741 0.470588 0.499672
0.891234 0.504967 0.511925
0.924285 0.542748 0.527276
0.000000 0.157107 0.159060
0.000000 0.158267 0.160891
0.000000 0.159609 0.163485
0.000000 0.162814 0.168704
0.031067 0.167636 0.176059
0.069551 0.173709 0.186740
0.094972 0.180972 0.198795
0.117281 0.186282 0.209323
0.137545 0.189975 0.218753
0.159152 0.195651 0.229923
0.181613 0.202579 0.243442
0.205509 0.210117 0.257755
0.230381 0.218540 0.273381
0.256352 0.227329 0.289281
0.283268 0.236545 0.304906
0.310918 0.245945 0.320928
0.339818 0.255833 0.336309
0.371527 0.266606 0.352544
0.405554 0.278202 0.368658
0.442023 0.290227 0.384253
0.481605 0.303044 0.399451
0.524071 0.316808 0.414130
0.567712 0.331426 0.427863
0.611658 0.346715 0.440589
0.655695 0.363409 0.452033
0.698421 0.381323 0.462348
0.739651 0.401129 0.471839
0.779599 0.423651 0.481025
0.818387 0.449561 0.490333
0.855528 0.479622 0.500816
0.890806 0.513054 0.513176
0.923735 0.550103 0.528557
0.000000 0.185367 0.186954
0.000000 0.186313 0.188205
0.000000 0.187533 0.190249
0.000000 0.190036 0.194308
0.027893 0.193851 0.201205
0.069734 0.199008 0.210452
0.095644 0.205203 0.221195
0.121248 0.212467 0.233890
0.144717 0.217899 0.245731
0.166232 0.221836 0.255009
0.188754 0.227329 0.266575
0.212589 0.233829 0.278996
0.237400 0.241062 0.292271
0.263096 0.248783 0.306340
0.289799 0.256809 0.320714
0.317510 0.265354 0.334874
0.346990 0.274632 0.349218
0.379278 0.284794 0.364324
0.412512 0.295415 0.378637
0.448066 0.306523 0.392737
0.487068 0.318761 0.406561
0.528710 0.331884 0.419867
0.571374 0.345892 0.432654
0.614618 0.360845 0.444373
0.657862 0.377020 0.454994
0.700130 0.394507 0.464729
0.740871 0.413825 0.473854
0.780484 0.435889 0.482704
0.818997 0.461311 0.491951
0.855924 0.490639 0.502403
0.890959 0.523461 0.514916
0.923674 0.559533 0.530510
0.000000 0.214298 0.216190
0.000000 0.214969 0.217563
0.000000 0.215976 0.219364
0.000000 0.218112 0.223148
0.030182 0.221439 0.228733
0.072541 0.225467 0.236667
0.098543 0.230869 0.245945
0.124300 0.236973 0.257084
0.150301 0.243748 0.269596
0.175479 0.249912 0.281651
0.197940 0.254093 0.291112
0.221622 0.259312 0.301915
0.246403 0.265476 0.313359
0.271946 0.272343 0.325475
0.298558 0.279393 0.337743
0.326604 0.287358 0.350469
0.357458 0.296361 0.364080
0.388739 0.305577 0.377295
0.421302 0.314977 0.389715
0.456428 0.325383 0.402350
0.494820 0.336919 0.414588
0.535607 0.349432 0.426673
0.577325 0.363012 0.438178
0.619806 0.377600 0.448890
0.662318 0.393194 0.458778
0.703700 0.410193 0.467842
0.743801 0.429145 0.476478
0.782864 0.450629 0.484901
0.820768 0.475532 0.494148
0.857176 0.504112 0.504631
0.891814 0.535851 0.517174
0.924102 0.571008 0.533104
0.000000 0.243229 0.246159
0.000000 0.243778 0.247349
0.000000 0.244633 0.248631
0.000000 0.246372 0.252140
0.046479 0.249088 0.257084
0.079469 0.252720 0.263737
0.104891 0.257084 0.271672
0.130343 0.262242 0.281163
0.155917 0.268376 0.292241
0.182376 0.275212 0.304265
0.208743 0.281529 0.315923
0.231998 0.285649 0.324865
0.256596 0.290806 0.334417
0.282200 0.296757 0.344915
0.310002 0.303990 0.356085
0.339300 0.311986 0.368139
0.369574 0.320073 0.379461
0.400610 0.328344 0.390845
0.432746 0.337102 0.401831
0.467414 0.346624 0.412634
0.504936 0.357519 0.423407
0.544060 0.369177 0.434028
0.584314 0.381811 0.444038
0.625147 0.395636 0.453529
0.666285 0.410498 0.462470
0.706783 0.426947 0.470863
0.746456 0.445441 0.478981
0.785214 0.466773 0.487404
0.822873 0.491341 0.496651
0.859068 0.519402 0.507286
0.893431 0.550530 0.520287
0.925505 0.585046 0.536828
0.000000 0.271672 0.275578
0.000000 0.272221 0.276646
0.000000 0.272953 0.277867
0.023774 0.274418 0.280735
0.065980 0.276768 0.284794
0.090578 0.280064 0.290837
0.115084 0.284001 0.297612
0.139193 0.288670 0.306004
0.164431 0.294011 0.315068
0.190524 0.300145 0.325536
0.217472 0.306889 0.336675
0.244938 0.313451 0.347570
0.269627 0.317937 0.355932
0.296544 0.323857 0.365148
0.324224 0.330358 0.374884
0.352819 0.337316 0.384741
0.382208 0.344488 0.394324
0.412573 0.352056 0.403845
0.444129 0.359960 0.413245
0.478401 0.368902 0.422644
0.515099 0.379126 0.432136
0.553368 0.390387 0.441230
0.592706 0.402533 0.450324
0.632837 0.415869 0.458778
0.673060 0.430457 0.466865
0.712428 0.446387 0.474556
0.751003 0.464393 0.482307
0.788846 0.484993 0.490394
0.825711 0.508934 0.499611
0.861204 0.535912 0.510369
0.894987 0.566155 0.523796
0.926543 0.599634 0.540795
0.007507 0.300603 0.304448
0.020264 0.301152 0.305333
0.038300 0.301732 0.306218
0.064027 0.303014 0.308507
0.084779 0.305089 0.312322
0.105898 0.308049 0.317174
0.128634 0.311559 0.322820
0.151614 0.315801 0.330144
0.176059 0.320775 0.338140
0.201480 0.326360 0.346929
0.228183 0.332525 0.356329
0.257572 0.340490 0.367315
0.297337 0.355688 0.383917
0.324620 0.360784 0.391608
0.352575 0.366491 0.399512
0.381262 0.372473 0.407202
0.410803 0.378882 0.414923
0.441016 0.385595 0.422339
0.472389 0.392981 0.429633
0.506218 0.401221 0.437140
0.541314 0.410498 0.444800
0.577813 0.420722 0.452430
0.615076 0.431952 0.459632
0.653162 0.444526 0.466743
0.691035 0.458228 0.473732
0.728328 0.473671 0.480659
0.764858 0.491127 0.487953
0.800687 0.511101 0.495949
0.835569 0.533989 0.505211
0.869291 0.559716 0.516442
0.901366 0.588525 0.530419
0.931487 0.620569 0.548272
0.070222 0.332586 0.333654
0.074952 0.333043 0.334417
0.081178 0.333410 0.334966
0.092287 0.334478 0.336767
0.107912 0.336095 0.339757
0.126345 0.338262 0.343236
0.146426 0.341283 0.348333
0.168643 0.344915 0.353796
0.191928 0.349493 0.360784
0.218326 0.356146 0.369268
0.246525 0.363531 0.378729
0.276432 0.371557 0.388281
0.307774 0.380194 0.398444
0.340337 0.388922 0.407996
0.368322 0.394110 0.414618
0.396735 0.399634 0.421118
0.425544 0.405280 0.427375
0.454963 0.411200 0.433295
0.485725 0.417853 0.439338
0.518181 0.425605 0.445655
0.552148 0.434394 0.452155
0.587518 0.443977 0.458564
0.623713 0.454688 0.464942
0.660609 0.466682 0.471290
0.697230 0.479774 0.477668
0.733425 0.494667 0.484260
0.769131 0.511559 0.491371
0.804044 0.530999 0.499428
0.838254 0.552972 0.508812
0.871458 0.577844 0.520378
0.902953 0.605768 0.534966
0.932677 0.636683 0.553338
0.101015 0.361761 0.357916
0.104280 0.362127 0.358495
0.108522 0.362402 0.359136
0.117739 0.363378 0.360632
0.131044 0.364721 0.362707
0.147311 0.367193 0.366339
0.166567 0.370459 0.370886
0.187533 0.374609 0.376226
0.210941 0.379431 0.382086
0.236088 0.385107 0.389136
0.263005 0.391669 0.396735
0.291844 0.399023 0.404639
0.322026 0.406653 0.412787
0.353399 0.414740 0.420630
0.385382 0.422736 0.428382
0.413397 0.427405 0.433631
0.441474 0.432349 0.438544
0.470100 0.437629 0.443336
0.499977 0.443488 0.448310
0.531273 0.450599 0.453620
0.564172 0.458808 0.459113
0.598444 0.468330 0.464607
0.633753 0.478737 0.470314
0.669429 0.490211 0.476051
0.704952 0.502892 0.481910
0.740047 0.517235 0.488289
0.774746 0.533715 0.495338
0.808804 0.552392 0.503502
0.842252 0.573571 0.513207
0.874632 0.597620 0.525322
0.905486 0.624598 0.540520
0.934569 0.654414 0.559625
0.132815 0.393652 0.381567
0.135744 0.394079 0.382086
0.139162 0.394446 0.382696
0.146761 0.395361 0.383978
0.158358 0.396857 0.386114
0.173098 0.398871 0.388586
0.190280 0.401556 0.392126
0.209598 0.404974 0.396246
0.231449 0.409216 0.401099
0.255436 0.414282 0.406622
0.281346 0.420294 0.412757
0.308995 0.426917 0.419165
0.338170 0.434058 0.425940
0.368688 0.441505 0.432380
0.399817 0.449042 0.438605
0.431312 0.456123 0.444556
0.459266 0.460639 0.448646
0.486946 0.465187 0.452552
0.515435 0.470283 0.456489
0.545647 0.476600 0.461006
0.577325 0.484260 0.465614
0.610407 0.493111 0.470466
0.644495 0.503227 0.475471
0.678920 0.514397 0.480629
0.713191 0.526726 0.486336
0.747433 0.540764 0.492622
0.781369 0.556970 0.499855
0.814969 0.575311 0.508446
0.847868 0.596185 0.518791
0.879698 0.619837 0.531792
0.909972 0.646357 0.548211
0.938476 0.675105 0.568200
0.164523 0.426184 0.402716
0.167086 0.426703 0.403204
0.170199 0.427070 0.403510
0.176852 0.427893 0.404700
0.187167 0.429267 0.406256
0.200473 0.431189 0.408515
0.216373 0.433722 0.411292
0.234684 0.436988 0.414679
0.255436 0.440833 0.418616
0.277989 0.445472 0.422858
0.302678 0.450660 0.427680
0.328923 0.456397 0.432746
0.356451 0.462470 0.437842
0.385351 0.468879 0.442817
0.415015 0.475502 0.447700
0.445411 0.482246 0.452552
0.476387 0.488899 0.457099
0.504173 0.493172 0.460639
0.531823 0.497810 0.463966
0.561273 0.503777 0.467811
0.592248 0.511040 0.471901
0.624659 0.519615 0.476265
0.657710 0.529290 0.480903
0.690822 0.540124 0.485847
0.723934 0.552392 0.491402
0.757046 0.566430 0.497871
0.789944 0.581903 0.505333
0.822446 0.599664 0.514336
0.854246 0.619745 0.525353
0.884886 0.642359 0.539055
0.914000 0.667414 0.556115
0.941436 0.694728 0.576623
0.195315 0.457893 0.420203
0.197452 0.458137 0.420478
0.200137 0.458442 0.420844
0.206302 0.459236 0.421607
0.215427 0.460395 0.422919
0.227543 0.462104 0.424628
0.242191 0.464424 0.426764
0.259312 0.467292 0.429328
0.278691 0.470802 0.432563
0.300237 0.475013 0.435950
0.323674 0.479866 0.439887
0.348882 0.485267 0.443824
0.375677 0.490974 0.447913
0.403388 0.496956 0.452033
0.432136 0.502953 0.456001
0.461097 0.508873 0.460029
0.490608 0.514794 0.463844
0.520684 0.520928 0.467597
0.548638 0.525628 0.470741
0.576837 0.530846 0.474006
0.606653 0.537560 0.477607
0.637842 0.545586 0.481636
0.669429 0.554742 0.485939
0.701350 0.565087 0.490883
0.733272 0.576928 0.496559
0.765316 0.590387 0.503075
0.797330 0.605737 0.510887
0.828916 0.623011 0.520348
0.859770 0.642451 0.532158
0.889525 0.664302 0.546777
0.917876 0.688319 0.564508
0.944579 0.714473 0.585809
0.226963 0.490211 0.435096
0.229068 0.490639 0.435431
0.240360 0.499886 0.439429
0.245853 0.500481 0.440009
0.254215 0.501518 0.440894
0.265232 0.502861 0.442023
0.278508 0.504662 0.443580
0.294377 0.506981 0.445472
0.312779 0.510002 0.447730
0.333196 0.513512 0.450324
0.355413 0.517662 0.453193
0.379400 0.522118 0.456184
0.404517 0.526818 0.459236
0.431006 0.531762 0.462470
0.458076 0.536797 0.465583
0.485664 0.541802 0.468635
0.513970 0.546990 0.471839
0.542473 0.552331 0.474922
0.571435 0.557946 0.478096
0.599420 0.562951 0.481086
0.627405 0.568597 0.484352
0.656641 0.575708 0.488045
0.686427 0.583886 0.492317
0.716335 0.593408 0.497322
0.746181 0.604028 0.502922
0.776242 0.616327 0.509606
0.806180 0.630396 0.517601
0.836088 0.646540 0.527428
0.865507 0.665248 0.539910
0.894194 0.686000 0.555138
0.921660 0.708888 0.573571
0.947478 0.733822 0.595392
0.261936 0.525597 0.448524
0.264714 0.527062 0.449165
0.268437 0.528527 0.449836
0.274571 0.530297 0.450752
0.283024 0.531975 0.451820
0.293767 0.533715 0.452857
0.306523 0.535454 0.454200
0.321355 0.537530 0.455665
0.338628 0.540215 0.457527
0.357855 0.543328 0.459541
0.379095 0.546960 0.461830
0.401770 0.550958 0.464393
0.425879 0.555261 0.466865
0.450874 0.559655 0.469490
0.476844 0.564202 0.472145
0.503197 0.568780 0.474861
0.530236 0.573541 0.477638
0.557702 0.578485 0.480415
0.585687 0.583825 0.483406
0.614252 0.589624 0.486488
0.642084 0.595270 0.489815
0.670100 0.601740 0.493599
0.698573 0.609491 0.497932
0.727352 0.618433 0.503075
0.756252 0.628656 0.508934
0.785275 0.640406 0.516045
0.814267 0.653986 0.524712
0.843076 0.669612 0.535332
0.871489 0.687526 0.548455
0.899138 0.707546 0.564355
0.925628 0.729549 0.583398
0.950622 0.753292 0.605890
0.294896 0.557763 0.458961
0.297734 0.559075 0.459571
0.301183 0.560479 0.460029
0.306828 0.562036 0.460792
0.314885 0.563653 0.461646
0.324620 0.565179 0.462470
0.336706 0.566766 0.463569
0.350622 0.568627 0.464759
0.366857 0.570977 0.466255
0.385016 0.573816 0.467933
0.404974 0.577203 0.469917
0.426795 0.580865 0.471962
0.449592 0.584710 0.474098
0.473579 0.588739 0.476356
0.498268 0.592859 0.478737
0.523613 0.597040 0.481178
0.549493 0.601465 0.483650
0.575830 0.606073 0.486305
0.602625 0.610956 0.489235
0.629725 0.616266 0.492317
0.656886 0.621881 0.495735
0.684047 0.628077 0.499550
0.711391 0.635126 0.504082
0.738949 0.643519 0.509422
0.766659 0.653162 0.515740
0.794491 0.664332 0.523247
0.822293 0.677241 0.532494
0.849912 0.692195 0.543816
0.877256 0.709163 0.557580
0.903868 0.728176 0.574060
0.929442 0.749142 0.593591
0.953491 0.772000 0.616602
0.329931 0.590204 0.468177
0.332708 0.591516 0.468605
0.335943 0.592767 0.469093
0.341436 0.594324 0.469642
0.348882 0.595758 0.470375
0.358129 0.597101 0.471168
0.369085 0.598535 0.472053
0.382086 0.600244 0.473060
0.397192 0.602289 0.474311
0.414343 0.604852 0.475685
0.433234 0.607782 0.477302
0.453712 0.610986 0.479164
0.475257 0.614496 0.481025
0.498116 0.618128 0.483162
0.521843 0.621973 0.485359
0.546197 0.626032 0.487739
0.571344 0.630304 0.490364
0.597131 0.634943 0.493263
0.623224 0.639979 0.496345
0.649592 0.645380 0.499702
0.676112 0.651209 0.503441
0.702449 0.657343 0.507469
0.728603 0.663935 0.512200
0.755276 0.671931 0.518181
0.782010 0.681422 0.525353
0.808682 0.692409 0.533959
0.835264 0.704891 0.544182
0.861601 0.719173 0.556451
0.887572 0.735286 0.571038
0.912779 0.753353 0.588464
0.936858 0.773159 0.608850
0.959533 0.794705 0.632502
0.372717 0.627314 0.477760
0.374517 0.628016 0.477974
0.376867 0.628656 0.478218
0.381384 0.629419 0.478584
0.387762 0.630335 0.479103
0.396094 0.631312 0.479713
0.406348 0.632563 0.480507
0.418647 0.634058 0.481453
0.433082 0.636103 0.482551
0.449226 0.638422 0.483925
0.467353 0.641138 0.485481
0.486793 0.644129 0.487282
0.507317 0.647181 0.489174
0.528801 0.650355 0.491310
0.550958 0.653620 0.493446
0.573938 0.657160 0.495918
0.597406 0.660945 0.498543
0.621332 0.664973 0.501427
0.645624 0.669398 0.504631
0.670100 0.674128 0.508110
0.694606 0.679164 0.511955
0.718959 0.684474 0.516197
0.742916 0.690120 0.520897
0.766842 0.696315 0.526268
0.792233 0.704891 0.533898
0.817746 0.715236 0.543084
0.843259 0.727138 0.553887
0.868589 0.740719 0.566705
0.893492 0.756130 0.581994
0.917693 0.773220 0.599786
0.940826 0.792050 0.620661
0.962646 0.812650 0.644800
0.412879 0.659663 0.486030
0.414679 0.660243 0.486244
0.417029 0.660883 0.486519
0.421118 0.661585 0.486854
0.427008 0.662348 0.487343
0.434638 0.663142 0.487953
0.444099 0.664118 0.488624
0.455329 0.665339 0.489509
0.468513 0.666957 0.490669
0.483589 0.668910 0.492073
0.500267 0.671260 0.493599
0.518303 0.673854 0.495399
0.537407 0.676570 0.497292
0.557488 0.679408 0.499458
0.578332 0.682490 0.501823
0.599878 0.685756 0.504326
0.621881 0.689296 0.507195
0.644465 0.693141 0.510307
0.667384 0.697261 0.513848
0.690578 0.701778 0.517723
0.713802 0.706691 0.522057
0.736904 0.711818 0.526787
0.759731 0.717342 0.532067
0.782010 0.723049 0.537774
0.801266 0.726894 0.542657
0.825681 0.736385 0.552239
0.850217 0.747707 0.563500
0.874540 0.760678 0.576867
0.898497 0.775296 0.592493
0.921782 0.791623 0.610864
0.944152 0.809689 0.632197
0.965362 0.829557 0.656947
0.460548 0.694392 0.496193
0.462440 0.695064 0.496437
0.464485 0.695521 0.496681
0.467994 0.695949 0.497047
0.473121 0.696407 0.497505
0.479652 0.696895 0.497963
0.487922 0.697505 0.498634
0.497627 0.698329 0.499519
0.509178 0.699336 0.500481
0.522393 0.700710 0.501732
0.537041 0.702358 0.503258
0.553063 0.704280 0.504997
0.570336 0.706447 0.506920
0.588403 0.708736 0.509087
0.607050 0.711177 0.511437
0.626459 0.713710 0.514092
0.646418 0.716579 0.517021
0.667140 0.719783 0.520287
0.688441 0.723598 0.524102
0.710231 0.727871 0.528466
0.732174 0.732540 0.533196
0.753933 0.737545 0.538567
0.775174 0.742611 0.544152
0.795865 0.747799 0.550134
0.815793 0.753048 0.556420
0.835294 0.758694 0.563195
0.858518 0.769009 0.574823
0.881590 0.781064 0.588495
0.904356 0.794827 0.604486
0.926574 0.810269 0.623194
0.948028 0.827481 0.644892
0.968414 0.846464 0.670161
0.503868 0.724697 0.506493
0.505608 0.725277 0.506828
0.507530 0.725765 0.507012
0.510704 0.726162 0.507408
0.515282 0.726558 0.507897
0.521233 0.727047 0.508507
0.528710 0.727626 0.509209
0.537743 0.728420 0.510124
0.548333 0.729458 0.511345
0.560601 0.730770 0.512749
0.574151 0.732357 0.514458
0.589105 0.734279 0.516472
0.605127 0.736416 0.518730
0.621881 0.738582 0.521141
0.639307 0.740902 0.523919
0.657343 0.743374 0.526940
0.675929 0.746120 0.530266
0.695094 0.749203 0.534081
0.714839 0.752712 0.538262
0.734890 0.756680 0.543084
0.755032 0.761013 0.548363
0.775113 0.765652 0.554101
0.794827 0.770443 0.560174
0.813962 0.775387 0.566613
0.832547 0.780423 0.573327
0.850523 0.785611 0.580438
0.867918 0.791012 0.587945
0.889830 0.802243 0.602106
0.911559 0.815335 0.618616
0.932708 0.830014 0.637781
0.953185 0.846464 0.660151
0.972534 0.864530 0.685847
0.550195 0.755734 0.519585
0.551751 0.756161 0.519829
0.553124 0.756405 0.520073
0.555749 0.756649 0.520378
0.559625 0.756832 0.520806
0.564752 0.757137 0.521477
0.571252 0.757565 0.522210
0.579400 0.758175 0.523247
0.588952 0.759060 0.524529
0.599878 0.760281 0.526207
0.612268 0.761715 0.528130
0.625971 0.763546 0.530388
0.640650 0.765499 0.533013
0.656062 0.767605 0.535790
0.671931 0.769772 0.538872
0.688441 0.772030 0.542229
0.705318 0.774533 0.545892
0.722713 0.777340 0.550011
0.740688 0.780575 0.554620
0.758999 0.784268 0.559686
0.777432 0.788327 0.565393
0.795804 0.792660 0.571496
0.813962 0.797147 0.577935
0.831632 0.801846 0.584802
0.848844 0.806638 0.591974
0.865507 0.811551 0.599481
0.881590 0.816709 0.607416
0.897215 0.822049 0.615625
0.917357 0.833707 0.631830
0.937652 0.847654 0.651423
0.957183 0.863279 0.674098
0.975555 0.880369 0.700008
0.596002 0.785153 0.535332
0.597131 0.785458 0.535607
0.598444 0.785672 0.535882
0.600763 0.785916 0.536217
0.604456 0.786282 0.536797
0.609552 0.786831 0.537713
0.616297 0.787686 0.538994
0.624414 0.788876 0.540581
0.634089 0.790402 0.542504
0.644984 0.792203 0.544823
0.657099 0.794217 0.547570
0.670192 0.796475 0.550561
0.684016 0.798795 0.553857
0.698299 0.801144 0.557366
0.712856 0.803464 0.561059
0.727687 0.805722 0.564935
0.742855 0.808133 0.568994
0.758450 0.810788 0.573541
0.774472 0.813809 0.578607
0.790768 0.817227 0.584161
0.807218 0.820920 0.590326
0.823667 0.824918 0.596826
0.839811 0.829068 0.603784
0.855650 0.833433 0.611017
0.871061 0.837858 0.618647
0.886046 0.842466 0.626581
0.900542 0.847257 0.634882
0.914611 0.852262 0.643580
0.928283 0.857572 0.652888
0.946105 0.869352 0.671229
0.964202 0.883848 0.694270
0.981109 0.899687 0.720363
0.648737 0.818296 0.557946
0.649653 0.818479 0.558160
0.650568 0.818570 0.558434
0.652461 0.818692 0.558770
0.655451 0.818875 0.559289
0.659571 0.819211 0.560113
0.664912 0.819730 0.561212
0.671504 0.820493 0.562707
0.679316 0.821500 0.564508
0.688319 0.822751 0.566796
0.698329 0.824186 0.569360
0.709316 0.825864 0.572259
0.721004 0.827665 0.575525
0.733303 0.829587 0.579095
0.746029 0.831571 0.582849
0.759213 0.833646 0.586969
