其他预设/【232】美食博客调色预设124款/1.3D LUT预设（视频调色-PR-AE-PS-FCPX-达芬奇用）/Food Art #80.cube
# Created by Adobe Lightroom plugin Export LUT (1.17.0)
# www.johnrellis.com/lightroom/exportlut.htm
# Preset: Food Art #80
# Color profile: /Library/Application Support/Adobe/Color/Profiles/Recommended/AdobeRGB1998.icc
LUT_3D_SIZE 8
DOMAIN_MIN 0.000000 0.000000 0.000000
DOMAIN_MAX 0.903226 0.903226 0.903226
0.191684 0.154116 0.146181
0.191684 0.154116 0.146181
0.196201 0.153902 0.146670
0.231785 0.147189 0.147616
0.367071 0.079072 0.144259
0.566705 0.000000 0.130007
0.734005 0.000000 0.106538
0.846494 0.000000 0.095460
0.191684 0.154116 0.146181
0.191684 0.154116 0.146181
0.199222 0.153719 0.146883
0.248569 0.142611 0.147494
0.408911 0.087434 0.140749
0.606104 0.000000 0.122377
0.753780 0.000000 0.097932
0.855161 0.057038 0.096071
0.192538 0.161105 0.146761
0.192508 0.162295 0.146822
0.201328 0.164279 0.146914
0.253696 0.169467 0.145785
0.420142 0.181521 0.133425
0.604120 0.190372 0.108949
0.735958 0.194858 0.083131
0.843931 0.209842 0.082185
0.188571 0.213993 0.143832
0.187716 0.219974 0.143069
0.216739 0.228855 0.141299
0.268650 0.226413 0.139834
0.399542 0.263493 0.124269
0.589044 0.312902 0.083772
0.738308 0.334356 0.007507
0.846769 0.342596 0.076997
0.159976 0.400671 0.103059
0.183505 0.405432 0.100374
0.258640 0.411902 0.093355
0.355077 0.411292 0.085389
0.470008 0.422889 0.061707
0.624140 0.462928 0.000000
0.754513 0.476417 0.000000
0.850797 0.476204 0.106569
0.126864 0.599329 0.000000
0.172244 0.587762 0.000000
0.272892 0.591760 0.000000
0.391547 0.595972 0.000000
0.515648 0.603143 0.000000
0.637171 0.607233 0.000000
0.751949 0.606897 0.000000
0.847013 0.603693 0.161776
0.146670 0.735164 0.000000
0.187106 0.733455 0.000000
0.290013 0.736416 0.000000
0.406287 0.737453 0.000000
0.526268 0.739956 0.000000
0.641047 0.739223 0.088045
0.751431 0.737972 0.152255
0.848325 0.735531 0.287449
0.298650 0.833921 0.207950
0.319219 0.834134 0.213779
0.378302 0.833768 0.227268
0.458747 0.831327 0.244236
0.571435 0.838407 0.323705
0.663508 0.836454 0.367651
0.749966 0.832761 0.409247
0.833310 0.831815 0.468818
0.191684 0.154116 0.146181
0.191684 0.154116 0.146181
0.201144 0.153567 0.147127
0.255497 0.140322 0.147311
0.423560 0.067933 0.140108
0.621973 0.000000 0.122499
0.762631 0.000000 0.108064
0.861753 0.000000 0.126925
0.191684 0.154116 0.146181
0.191684 0.154116 0.146181
0.202304 0.153323 0.147097
0.263737 0.144442 0.146883
0.442420 0.105715 0.136904
0.636835 0.000000 0.118135
0.774624 0.000000 0.106416
0.869566 0.082887 0.136599
0.192630 0.164462 0.146914
0.192660 0.165194 0.147005
0.205112 0.166506 0.147036
0.272709 0.178317 0.144198
0.458930 0.199557 0.128878
0.639185 0.207431 0.106081
0.768215 0.207553 0.095186
0.862058 0.222843 0.130709
0.185031 0.236484 0.142214
0.190738 0.238315 0.141726
0.228275 0.243839 0.140108
0.299260 0.253056 0.136538
0.463142 0.305516 0.113619
0.642664 0.343359 0.078584
0.770596 0.350439 0.078218
0.863249 0.359014 0.147005
0.145174 0.411475 0.107240
0.174411 0.418219 0.104250
0.259281 0.428748 0.097505
0.372442 0.439490 0.085206
0.500908 0.455024 0.061799
0.649470 0.483284 0.000000
0.769314 0.487068 0.063813
0.859525 0.489601 0.179263
0.088350 0.614649 0.000000
0.152956 0.614862 0.000000
0.272496 0.616907 0.000000
0.398962 0.616022 0.000000
0.524834 0.617182 0.000000
0.644282 0.614984 0.000000
0.758389 0.613123 0.064637
0.851957 0.614038 0.228916
0.162936 0.748928 0.046174
0.206729 0.750942 0.064912
0.305150 0.751369 0.083833
0.417700 0.748440 0.100343
0.534722 0.747127 0.133608
0.649317 0.746700 0.176852
0.759762 0.747433 0.232883
0.853147 0.746670 0.360204
0.336126 0.838315 0.273472
0.351049 0.837705 0.274327
0.403388 0.836759 0.285252
0.476417 0.833951 0.298161
0.567834 0.833097 0.333165
0.664546 0.834195 0.388647
0.753384 0.833677 0.442573
0.835325 0.834470 0.503502
0.191836 0.155337 0.155306
0.191836 0.155337 0.155154
0.202640 0.153079 0.155825
0.259373 0.138399 0.166537
0.414832 0.000000 0.178958
0.606836 0.000000 0.163851
0.752346 0.000000 0.170413
0.854185 0.000000 0.213474
0.191867 0.155306 0.156008
0.191806 0.155306 0.156313
0.204593 0.153048 0.157321
0.268101 0.140536 0.168368
0.434089 0.000000 0.174350
0.622034 0.000000 0.164889
0.761501 0.000000 0.176150
0.858000 0.052796 0.224460
0.191073 0.166018 0.157687
0.192416 0.166323 0.157626
0.207340 0.167361 0.158999
0.272923 0.168002 0.162905
0.436622 0.155703 0.162203
0.624475 0.142367 0.161471
0.762478 0.161318 0.177859
0.858061 0.231479 0.236484
0.182620 0.234073 0.172152
0.188083 0.232486 0.169619
0.215518 0.237308 0.162570
0.290379 0.243198 0.162142
0.447059 0.280125 0.156710
0.628046 0.312169 0.156008
0.760891 0.329473 0.181033
0.855406 0.366094 0.255741
0.132235 0.417609 0.187259
0.149325 0.416571 0.178653
0.221134 0.418280 0.152743
0.349401 0.422583 0.150423
0.483009 0.434546 0.148836
0.641199 0.468421 0.156832
0.764340 0.481270 0.204501
0.853269 0.501305 0.297948
0.000000 0.615595 0.179263
0.103059 0.614405 0.169100
0.244266 0.615686 0.155001
0.390417 0.618280 0.161105
0.525780 0.621027 0.171725
0.649317 0.619806 0.183505
0.759701 0.616663 0.235233
0.845884 0.622248 0.342809
0.170840 0.744778 0.213260
0.219120 0.744961 0.221561
0.323095 0.746456 0.241245
0.433783 0.746670 0.258335
0.546715 0.746792 0.283146
0.654170 0.745174 0.309941
0.755520 0.742763 0.340154
0.843442 0.743496 0.435676
0.383276 0.834775 0.373816
0.408972 0.834592 0.389075
0.453986 0.834684 0.401495
0.508904 0.830808 0.403174
0.590845 0.830900 0.433234
0.676692 0.831815 0.473701
0.756619 0.831327 0.510552
0.832425 0.832090 0.552789
0.177340 0.155917 0.230961
0.180789 0.155520 0.225864
0.223636 0.145693 0.227085
0.285496 0.126406 0.229618
0.448768 0.000000 0.284825
0.630671 0.000000 0.313512
0.765011 0.000000 0.321538
0.853941 0.179568 0.382116
0.180056 0.155886 0.221683
0.188968 0.154086 0.221683
0.225528 0.146273 0.225193
0.282994 0.133425 0.227176
0.450629 0.000000 0.282780
0.635981 0.000000 0.311345
0.767880 0.000000 0.327184
0.853391 0.239841 0.396948
0.177829 0.183993 0.231144
0.184360 0.180575 0.229343
0.217746 0.171359 0.230594
0.293034 0.163516 0.235691
0.454383 0.119387 0.271977
0.625666 0.015717 0.290562
0.751186 0.148867 0.316381
0.845640 0.305394 0.394446
0.172427 0.247684 0.236423
0.180148 0.247898 0.236606
0.216312 0.250248 0.239445
0.320287 0.266850 0.258824
0.473945 0.274662 0.271336
0.636957 0.303197 0.301671
0.757931 0.350378 0.348455
0.844541 0.421637 0.421241
0.110109 0.415076 0.290440
0.132479 0.418585 0.289586
0.210788 0.423743 0.281651
0.338750 0.426734 0.272129
0.483040 0.432258 0.278386
0.635981 0.461067 0.310307
0.754086 0.488716 0.366400
0.840818 0.534783 0.451575
0.000000 0.608545 0.321782
0.079225 0.599603 0.312383
0.231418 0.603784 0.308507
0.384771 0.604334 0.317174
0.518883 0.607446 0.329473
0.642756 0.611994 0.346410
0.750912 0.618769 0.397375
0.835294 0.641260 0.485939
0.194522 0.744930 0.354589
0.234348 0.743099 0.357214
0.341955 0.738552 0.375036
0.459083 0.733822 0.405249
0.558282 0.734829 0.423407
0.656916 0.736599 0.447181
0.751125 0.739223 0.475441
0.834806 0.748623 0.549493
0.391363 0.831510 0.452735
0.412696 0.830106 0.460914
0.480018 0.827024 0.493111
0.550439 0.824918 0.522759
0.618402 0.826383 0.543969
0.692073 0.828763 0.572137
0.761379 0.829038 0.594079
0.829526 0.830289 0.620081
0.110933 0.148440 0.431739
0.161044 0.141360 0.427070
0.265934 0.108309 0.431281
0.369451 0.000000 0.428046
0.476478 0.000000 0.425849
0.640589 0.000000 0.468757
0.766018 0.000000 0.475837
0.851621 0.220096 0.506920
0.153384 0.142794 0.427192
0.185092 0.137758 0.418372
0.262791 0.116152 0.419806
0.364874 0.045624 0.425696
0.477577 0.000000 0.427008
0.640742 0.000000 0.466865
0.765103 0.000000 0.476905
0.850004 0.265812 0.514305
0.092561 0.191989 0.418463
0.119234 0.180331 0.414771
0.227176 0.166629 0.422248
0.353765 0.143832 0.428870
0.486366 0.106386 0.436744
0.649561 0.102205 0.473274
0.764767 0.232273 0.492592
0.845823 0.390204 0.547326
0.013550 0.312627 0.434455
0.091249 0.309209 0.434668
0.199496 0.295354 0.433417
0.345464 0.285771 0.438209
0.496315 0.289860 0.447852
0.646845 0.331853 0.479316
0.755550 0.407843 0.517601
0.835630 0.500328 0.577996
0.000000 0.448676 0.447333
0.051118 0.447364 0.446174
0.207034 0.448005 0.447517
0.364050 0.454902 0.456275
0.533135 0.487800 0.493019
0.652399 0.503990 0.510124
0.751553 0.540703 0.548577
0.831998 0.589960 0.601099
0.000000 0.630396 0.490944
0.105623 0.630243 0.490791
0.276127 0.632349 0.496162
0.433021 0.632013 0.509453
0.563836 0.635248 0.533806
0.657008 0.631403 0.531945
0.747372 0.638941 0.559319
0.828031 0.669215 0.614893
0.242832 0.749416 0.505577
0.283360 0.749172 0.510399
0.385626 0.746456 0.525902
0.499245 0.740810 0.550652
0.594690 0.737850 0.575799
0.673396 0.740352 0.588312
0.753780 0.745327 0.606348
0.832090 0.762478 0.659297
0.443458 0.835752 0.576318
0.463539 0.835050 0.583307
0.519921 0.832700 0.603998
0.578302 0.825956 0.619013
0.647181 0.825406 0.645197
0.709255 0.829068 0.663478
0.769528 0.830716 0.677058
0.830716 0.833249 0.693690
0.081453 0.120851 0.617090
0.155337 0.108125 0.617029
0.279545 0.008515 0.625025
0.395972 0.000000 0.625788
0.517723 0.000000 0.627375
0.644343 0.000000 0.629694
0.761257 0.000000 0.625360
0.845975 0.255253 0.630488
0.116457 0.115633 0.634150
0.166995 0.106325 0.634852
0.274296 0.059754 0.636255
0.395087 0.000000 0.635615
0.520714 0.000000 0.634882
0.648737 0.000000 0.635065
0.762631 0.000000 0.628809
0.845365 0.302098 0.637079
0.000000 0.176761 0.620478
0.000000 0.173800 0.623163
0.228367 0.161166 0.626307
0.374548 0.138216 0.627436
0.513756 0.116976 0.630854
0.647028 0.126802 0.633509
0.758480 0.252110 0.631708
0.839780 0.401617 0.650202
0.000000 0.322484 0.623957
0.000000 0.319799 0.625696
0.203067 0.312383 0.624475
0.365301 0.306920 0.617426
0.506889 0.312657 0.617762
0.638270 0.333013 0.623224
0.747677 0.409003 0.634211
0.830533 0.503899 0.664393
0.000000 0.479286 0.638605
0.000000 0.478218 0.637903
0.246983 0.477943 0.635828
0.408850 0.485206 0.634119
0.543938 0.504356 0.638575
0.653559 0.518914 0.645106
0.748379 0.561089 0.661494
0.826749 0.615412 0.694911
0.080232 0.631495 0.648707
0.157076 0.628717 0.645808
0.300816 0.627649 0.644862
0.444007 0.628748 0.646113
0.568139 0.636835 0.654383
0.672541 0.654078 0.671778
0.747219 0.662379 0.679713
0.823209 0.691188 0.709529
0.276860 0.746548 0.642847
0.306310 0.744533 0.642420
0.399176 0.741970 0.647974
0.505943 0.738827 0.657649
0.602564 0.738460 0.671839
0.684993 0.742763 0.689631
0.754269 0.748684 0.699489
0.827329 0.767544 0.731716
0.474495 0.835080 0.679866
0.491768 0.834684 0.683711
0.540429 0.833219 0.694697
0.599817 0.830228 0.706905
0.663233 0.829191 0.722499
0.723079 0.830106 0.738094
0.775662 0.831937 0.745632
0.831144 0.835142 0.756435
0.121157 0.064240 0.774716
0.171939 0.027649 0.776852
0.276646 0.000000 0.776242
0.393805 0.000000 0.774441
0.515953 0.000000 0.774075
0.638605 0.000000 0.772396
0.756924 0.000000 0.769528
0.841428 0.314977 0.753933
0.096437 0.092195 0.766384
0.154177 0.082094 0.768276
0.265446 0.003388 0.768276
0.386358 0.000000 0.767330
0.509117 0.000000 0.765255
0.630426 0.000000 0.761807
0.747524 0.069398 0.758206
0.834195 0.302953 0.743648
0.000000 0.191226 0.769894
0.089540 0.189334 0.769528
0.246433 0.183749 0.767636
0.382635 0.182650 0.766201
0.510765 0.191684 0.762631
0.633173 0.226291 0.760128
0.748592 0.287999 0.760250
0.833707 0.422889 0.755215
0.122042 0.350652 0.769894
0.188418 0.354559 0.768734
0.309148 0.365515 0.764645
0.426276 0.378607 0.764462
0.538903 0.394354 0.762142
0.648737 0.423072 0.762081
0.750484 0.460121 0.763912
0.830442 0.535821 0.766110
0.185397 0.484108 0.762905
0.226627 0.484535 0.760647
0.336736 0.492409 0.756222
0.464729 0.515618 0.753292
0.564294 0.532921 0.751980
0.653376 0.544945 0.752346
0.741817 0.563165 0.754910
0.823667 0.620356 0.770260
0.265324 0.615534 0.760037
0.298894 0.616907 0.759548
0.389685 0.622278 0.758022
0.497627 0.633692 0.757351
0.593652 0.647089 0.757168
0.678218 0.664363 0.761807
0.750423 0.674739 0.766873
0.823484 0.704555 0.783139
0.367224 0.740780 0.765530
0.393317 0.741695 0.766354
0.458412 0.741573 0.765957
0.539422 0.742611 0.766415
0.617121 0.742672 0.765774
0.689723 0.746792 0.769162
0.763790 0.762020 0.783902
0.826566 0.776761 0.798215
0.494331 0.832059 0.770779
0.507195 0.831479 0.771542
0.556909 0.832456 0.778500
0.612909 0.831662 0.784146
0.670832 0.831144 0.790158
0.727016 0.830991 0.796384
0.781613 0.833341 0.805112
0.831388 0.836484 0.810849
0.127535 0.038392 0.845457
0.169223 0.009949 0.846220
0.262211 0.000000 0.844633
0.371283 0.000000 0.844968
0.485084 0.000000 0.844511
0.600153 0.000000 0.843229
0.713954 0.173037 0.842435
0.817868 0.280339 0.840055
0.107027 0.086702 0.842069
0.155337 0.080385 0.842893
0.254795 0.040650 0.841917
0.366705 0.000000 0.841489
0.482490 0.000000 0.841062
0.598077 0.093507 0.839719
0.710689 0.198001 0.838254
0.814176 0.290837 0.836088
0.010010 0.186313 0.839109
0.124910 0.186374 0.839261
0.242283 0.182040 0.837095
0.370001 0.196597 0.839719
0.488777 0.217044 0.838102
0.602045 0.252079 0.835294
0.711391 0.311315 0.834073
0.811276 0.377142 0.833158
0.192569 0.343694 0.835874
0.227817 0.347295 0.836362
0.305272 0.350317 0.834897
0.411322 0.365606 0.834806
0.518456 0.387762 0.833982
0.620752 0.414557 0.832273
0.719051 0.451331 0.831815
0.810147 0.491981 0.832670
0.255619 0.469764 0.832120
0.291081 0.476020 0.832425
0.371801 0.489113 0.830076
0.473793 0.514153 0.827665
0.552728 0.523491 0.826413
0.637049 0.537377 0.825528
0.724331 0.561425 0.827268
0.809232 0.595850 0.832486
0.323796 0.592065 0.829740
0.342351 0.592737 0.828489
0.402625 0.597436 0.825589
0.487617 0.608911 0.822934
0.578485 0.627466 0.821592
0.663081 0.649653 0.825284
0.741848 0.672267 0.832700
0.817350 0.699031 0.842191
0.419989 0.713558 0.833555
0.433234 0.713924 0.832853
0.476539 0.715724 0.831205
0.543297 0.721767 0.830533
0.616907 0.730434 0.830594
0.688472 0.741665 0.833066
0.760647 0.760159 0.841215
0.818296 0.766964 0.843809
0.528099 0.821103 0.845457
0.535943 0.820706 0.844999
0.565057 0.820432 0.844450
0.611597 0.821195 0.844755
0.663630 0.822110 0.845060
0.717769 0.823239 0.845548
0.772000 0.825589 0.847227
0.826505 0.831968 0.852903
