其他预设/【232】美食博客调色预设124款/1.3D LUT预设（视频调色-PR-AE-PS-FCPX-达芬奇用）/Food Art #39.cube
# Created by Adobe Lightroom plugin Export LUT (1.17.0)
# www.johnrellis.com/lightroom/exportlut.htm
# Preset: Food Art #39
# Color profile: /Library/Application Support/Adobe/Color/Profiles/Recommended/AdobeRGB1998.icc
LUT_3D_SIZE 32
0.155550 0.143252 0.228092
0.155550 0.143252 0.228092
0.155550 0.143252 0.228092
0.175051 0.139742 0.227909
0.206455 0.138186 0.228244
0.235386 0.142123 0.230198
0.263523 0.145602 0.231907
0.290806 0.149447 0.233951
0.318029 0.153506 0.236362
0.344732 0.157961 0.238804
0.371588 0.162753 0.241489
0.398596 0.168887 0.244572
0.425696 0.176394 0.248142
0.453285 0.185611 0.252293
0.481086 0.195651 0.256779
0.509270 0.206027 0.261387
0.537743 0.216861 0.265995
0.566583 0.228336 0.270756
0.595727 0.239658 0.275608
0.626795 0.252201 0.280919
0.657984 0.265476 0.286412
0.689601 0.279179 0.292393
0.721157 0.293523 0.298894
0.751888 0.308721 0.306157
0.782193 0.324407 0.314183
0.812100 0.341405 0.323461
0.841733 0.359747 0.334264
0.871000 0.379675 0.346777
0.899779 0.401709 0.362066
0.927886 0.426276 0.380224
0.955138 0.453895 0.402289
0.980957 0.485237 0.429511
0.155550 0.143252 0.228092
0.155550 0.143252 0.228092
0.155550 0.143252 0.228092
0.177829 0.143496 0.227695
0.208042 0.145022 0.228611
0.236454 0.148348 0.230594
0.264500 0.151492 0.232303
0.291569 0.154879 0.234440
0.318303 0.158785 0.236759
0.344976 0.162600 0.239231
0.371710 0.167330 0.241947
0.398535 0.173190 0.244999
0.425666 0.180331 0.248508
0.453162 0.189395 0.252628
0.480995 0.198947 0.256992
0.509056 0.209384 0.261570
0.537407 0.220005 0.266270
0.566247 0.230930 0.270970
0.595392 0.242313 0.275822
0.626184 0.254643 0.281071
0.657252 0.267704 0.286564
0.688746 0.281071 0.292454
0.720241 0.295262 0.298802
0.751034 0.310216 0.306035
0.781277 0.325994 0.314000
0.811276 0.342962 0.323278
0.840940 0.360967 0.333928
0.870237 0.380926 0.346807
0.899077 0.402808 0.361791
0.927276 0.427222 0.380011
0.954559 0.454597 0.401984
0.980468 0.485817 0.429114
0.155550 0.143252 0.228092
0.155642 0.143923 0.228061
0.158846 0.146059 0.227909
0.181369 0.150423 0.227298
0.210544 0.153964 0.229282
0.238376 0.156527 0.231022
0.265629 0.159030 0.232853
0.292241 0.162051 0.235111
0.318975 0.165164 0.237278
0.345464 0.168856 0.239811
0.371893 0.173342 0.242527
0.398779 0.178805 0.245518
0.425818 0.185733 0.249088
0.453346 0.194583 0.253117
0.481086 0.203891 0.257603
0.509148 0.213626 0.261997
0.537438 0.224125 0.266667
0.566186 0.234867 0.271305
0.595392 0.246098 0.276127
0.626123 0.258244 0.281285
0.657008 0.270848 0.286900
0.688472 0.284062 0.292638
0.719844 0.298222 0.299107
0.750607 0.312963 0.306279
0.780911 0.328527 0.314244
0.810880 0.345190 0.323461
0.840543 0.363287 0.334203
0.869902 0.382971 0.346807
0.898772 0.404761 0.362127
0.926970 0.428992 0.380163
0.954253 0.456275 0.402319
0.980163 0.487404 0.429572
0.153109 0.166751 0.227207
0.159365 0.167514 0.227329
0.169100 0.168185 0.227848
0.188907 0.169955 0.228885
0.215610 0.171969 0.230320
0.242313 0.173220 0.232242
0.268437 0.174563 0.234318
0.294530 0.176394 0.236332
0.320714 0.178378 0.238621
0.346868 0.181460 0.241032
0.373083 0.185367 0.243717
0.399725 0.190463 0.246708
0.426581 0.197055 0.250309
0.453864 0.205203 0.254429
0.481514 0.213687 0.258701
0.509575 0.223087 0.263035
0.537835 0.232914 0.267643
0.566552 0.243168 0.272313
0.595727 0.254063 0.277043
0.626093 0.265537 0.282139
0.656886 0.277897 0.287449
0.688014 0.290867 0.293339
0.719417 0.304570 0.299687
0.750210 0.318975 0.306798
0.780667 0.334356 0.314916
0.810788 0.350866 0.324132
0.840543 0.368658 0.335088
0.869963 0.388190 0.347814
0.898833 0.409796 0.362982
0.926970 0.433753 0.381323
0.954162 0.460639 0.403357
0.979980 0.491310 0.430671
0.165438 0.193027 0.229984
0.171633 0.193332 0.230198
0.180179 0.193973 0.230625
0.197513 0.194858 0.231540
0.221988 0.196414 0.232914
0.247745 0.196567 0.234592
0.272709 0.196109 0.236423
0.297917 0.196536 0.238346
0.323278 0.197635 0.240421
0.348913 0.199863 0.242832
0.374762 0.202853 0.245487
0.401038 0.207340 0.248539
0.427802 0.213321 0.252201
0.454994 0.220310 0.256229
0.482460 0.228275 0.260349
0.510430 0.236942 0.264683
0.538689 0.246250 0.269169
0.567315 0.255833 0.273655
0.596796 0.266178 0.278325
0.626947 0.277134 0.283207
0.657404 0.288884 0.288579
0.688380 0.301488 0.294316
0.719631 0.314580 0.300694
0.750301 0.328679 0.307836
0.780667 0.343603 0.315984
0.810758 0.359655 0.325292
0.840482 0.377111 0.336248
0.869841 0.396155 0.349096
0.898650 0.417273 0.364446
0.926757 0.440864 0.382910
0.953918 0.467323 0.405097
0.979706 0.497505 0.432532
0.178286 0.218540 0.233616
0.183780 0.219059 0.234012
0.191073 0.219272 0.234195
0.206149 0.220005 0.234958
0.227665 0.220981 0.236118
0.253269 0.222354 0.237583
0.278752 0.221836 0.239170
0.302739 0.220829 0.241001
0.327092 0.220798 0.243168
0.352087 0.221958 0.245365
0.377478 0.224460 0.248081
0.403418 0.228061 0.251194
0.429816 0.233097 0.254704
0.456825 0.239353 0.258610
0.484138 0.246494 0.262547
0.511925 0.254459 0.266758
0.540154 0.262852 0.271122
0.568658 0.271916 0.275517
0.598322 0.281682 0.280125
0.628229 0.292088 0.284977
0.658534 0.303319 0.290288
0.689509 0.315343 0.295964
0.726864 0.331609 0.304021
0.757290 0.345434 0.311376
0.787228 0.359899 0.319768
0.816831 0.375463 0.329259
0.846006 0.392401 0.340551
0.874723 0.410925 0.353918
0.902922 0.431495 0.369512
0.930480 0.454505 0.388434
0.956939 0.480690 0.411505
0.982086 0.510124 0.439338
0.191470 0.244572 0.237552
0.196506 0.244755 0.237675
0.202853 0.245090 0.237949
0.215915 0.245518 0.238743
0.234928 0.246433 0.239658
0.258244 0.247440 0.240909
0.284306 0.248722 0.242527
0.309422 0.248295 0.244419
0.332891 0.247196 0.246464
0.357122 0.247471 0.248783
0.381994 0.249058 0.251499
0.407568 0.252110 0.254520
0.433692 0.256413 0.257969
0.460578 0.261845 0.261601
0.487678 0.267979 0.265507
0.515129 0.275151 0.269596
0.543084 0.282841 0.273625
0.572045 0.291447 0.277989
0.601648 0.300786 0.282414
0.631647 0.310735 0.287388
0.662196 0.321721 0.292790
0.693599 0.333562 0.298680
0.725124 0.346197 0.305150
0.756100 0.359655 0.312810
0.786496 0.373999 0.321355
0.816342 0.389227 0.331212
0.845640 0.405585 0.342565
0.874388 0.423590 0.355962
0.902556 0.443580 0.371954
0.929992 0.465980 0.391211
0.956420 0.491249 0.414252
0.981506 0.520073 0.442329
0.205722 0.269383 0.241703
0.209751 0.269535 0.241855
0.215122 0.269810 0.242222
0.226627 0.270237 0.242649
0.243473 0.270817 0.243595
0.264256 0.271733 0.244785
0.287816 0.272648 0.246403
0.313359 0.274174 0.248295
0.338354 0.274388 0.250370
0.361700 0.273777 0.252567
0.386053 0.274784 0.255222
0.411139 0.277165 0.258061
0.436988 0.280705 0.261326
0.463416 0.285405 0.264836
0.490303 0.291051 0.268559
0.517540 0.297246 0.272526
0.545495 0.304570 0.276493
0.574456 0.312688 0.280674
0.603601 0.321263 0.285039
0.633112 0.330632 0.289830
0.663355 0.340978 0.295171
0.694514 0.352392 0.300969
0.725673 0.364355 0.307530
0.756405 0.377142 0.314946
0.786648 0.390814 0.323644
0.816312 0.405493 0.333593
0.845457 0.421241 0.345251
0.874144 0.438514 0.358740
0.902220 0.457740 0.375128
0.929595 0.479500 0.394507
0.955962 0.504204 0.418158
0.980987 0.532036 0.446418
0.221073 0.294347 0.246342
0.224521 0.294530 0.246494
0.229282 0.294743 0.246860
0.239261 0.295048 0.247410
0.254154 0.295567 0.248295
0.272648 0.296300 0.249485
0.293980 0.297429 0.250919
0.317571 0.298650 0.252506
0.342504 0.300053 0.254582
0.367498 0.301213 0.256870
0.391119 0.301671 0.259373
0.415717 0.303410 0.262028
0.441108 0.306615 0.265324
0.467140 0.310674 0.268589
0.493721 0.315709 0.272190
0.520836 0.321569 0.275853
0.548913 0.328466 0.279789
0.577508 0.335943 0.283787
0.606073 0.344030 0.287999
0.635309 0.352789 0.292607
0.665248 0.362524 0.297765
0.696010 0.373388 0.303655
0.726772 0.384802 0.310307
0.757198 0.396979 0.317876
0.787198 0.409979 0.326574
0.816709 0.423865 0.336706
0.845701 0.439063 0.348547
0.874205 0.455604 0.362249
0.902190 0.474189 0.378973
0.929412 0.495125 0.398871
0.955596 0.519066 0.422889
0.980499 0.546044 0.451637
0.237003 0.319738 0.251621
0.240238 0.319768 0.251682
0.244236 0.319921 0.251987
0.253025 0.320287 0.252506
0.266209 0.320775 0.253239
0.282811 0.321538 0.254337
0.302251 0.322484 0.255619
0.324010 0.323613 0.257298
0.347448 0.325200 0.259251
0.371923 0.327214 0.261387
0.396704 0.329046 0.263859
0.420844 0.330510 0.266484
0.445808 0.333257 0.269505
0.471443 0.336950 0.272709
0.497963 0.341833 0.276036
0.525200 0.347539 0.279667
0.553033 0.354009 0.283391
0.581292 0.361028 0.287114
0.609400 0.368505 0.291417
0.638148 0.376715 0.295872
0.667720 0.385992 0.301030
0.697902 0.396124 0.306737
0.728176 0.406958 0.313390
0.758022 0.418402 0.321019
0.787655 0.430671 0.329931
0.816922 0.443885 0.340185
0.845823 0.458350 0.352148
0.874235 0.474311 0.366491
0.902159 0.492256 0.383551
0.929320 0.512566 0.403906
0.955413 0.535790 0.428656
0.980224 0.561852 0.457862
0.253269 0.345495 0.257115
0.256107 0.345647 0.257176
0.259739 0.345861 0.257450
0.267643 0.346166 0.257847
0.279393 0.346715 0.258610
0.294621 0.347448 0.259709
0.312413 0.348547 0.260960
0.332555 0.349828 0.262516
0.354437 0.351354 0.264134
0.377722 0.353491 0.266300
0.402075 0.355749 0.268650
0.426947 0.358404 0.271092
0.451331 0.360937 0.273991
0.476905 0.364630 0.276921
0.503075 0.369116 0.280217
0.529808 0.374487 0.283696
0.557122 0.380438 0.287144
0.584894 0.387152 0.290990
0.612726 0.394018 0.294987
0.640986 0.401862 0.299443
0.670130 0.410681 0.304631
0.700038 0.420356 0.310307
0.729885 0.430640 0.317113
0.759426 0.441505 0.324956
0.788785 0.453254 0.333928
0.817746 0.465797 0.344457
0.846342 0.479561 0.356817
0.874571 0.494820 0.371435
0.902220 0.511986 0.388922
0.929168 0.531487 0.409827
0.955108 0.553948 0.435309
0.979767 0.578912 0.464942
0.270237 0.372778 0.262974
0.272801 0.372930 0.262974
0.276158 0.373083 0.263218
0.283268 0.373388 0.263767
0.293919 0.374029 0.264439
0.307774 0.374792 0.265354
0.324224 0.375952 0.266636
0.342931 0.377264 0.268070
0.363561 0.378943 0.269718
0.385779 0.380987 0.271550
0.408972 0.383368 0.273686
0.433417 0.386511 0.276127
0.461372 0.392706 0.279515
0.486641 0.396429 0.282536
0.512596 0.400824 0.285527
0.539086 0.405951 0.288762
0.566278 0.411810 0.292302
0.593591 0.417945 0.295872
0.620661 0.424323 0.299931
0.648524 0.431678 0.304540
0.677241 0.439857 0.309758
0.706386 0.448890 0.315740
0.735378 0.458350 0.322484
0.764279 0.468574 0.330632
0.792905 0.479469 0.340002
0.821347 0.491310 0.350896
0.849454 0.504295 0.363806
0.877104 0.518761 0.378943
0.904234 0.535119 0.397040
0.930724 0.553857 0.418799
0.956115 0.575250 0.444800
0.980407 0.598962 0.474739
0.287968 0.402441 0.269200
0.290105 0.402502 0.269352
0.293156 0.402594 0.269566
0.299474 0.402960 0.269993
0.309239 0.403479 0.270603
0.321904 0.404211 0.271336
0.337224 0.405280 0.272374
0.354711 0.406592 0.273716
0.374304 0.408270 0.275303
0.395697 0.410742 0.277165
0.418524 0.413672 0.279423
0.442481 0.417029 0.281804
0.467201 0.420996 0.284276
0.492470 0.425055 0.287205
0.518059 0.429419 0.290166
0.544274 0.434607 0.293339
0.571008 0.440162 0.296696
0.597650 0.445930 0.300267
0.624262 0.451850 0.304204
0.651667 0.458747 0.308812
0.679896 0.466529 0.314183
0.708583 0.475044 0.320104
0.737057 0.484138 0.327184
0.765530 0.493660 0.335332
0.793912 0.504021 0.345006
0.822019 0.515190 0.356207
0.849851 0.527520 0.369574
0.877287 0.541375 0.385321
0.904204 0.557000 0.403906
0.930480 0.575128 0.426612
0.955779 0.595422 0.452949
0.979858 0.618067 0.483467
0.304417 0.431952 0.275395
0.306493 0.432136 0.275364
0.309270 0.432258 0.275639
0.315068 0.432685 0.276036
0.324010 0.433173 0.276493
0.335851 0.433936 0.277379
0.350439 0.435218 0.278264
0.366949 0.436774 0.279606
0.385657 0.438727 0.281041
0.405890 0.441077 0.282872
0.427771 0.443885 0.284916
0.450843 0.447150 0.287083
0.474678 0.450813 0.289525
0.499214 0.454871 0.292210
0.524193 0.459083 0.294987
0.549859 0.463935 0.298100
0.576013 0.469276 0.301305
0.602014 0.474617 0.304967
0.628107 0.480140 0.308904
0.654994 0.486549 0.313634
0.682887 0.494148 0.318853
0.711055 0.502159 0.325109
0.739162 0.510582 0.332464
0.767269 0.519707 0.340978
0.795224 0.529564 0.350866
0.823056 0.540215 0.362554
0.850645 0.551904 0.376287
0.877775 0.565087 0.392615
0.904448 0.580255 0.412268
0.930449 0.597467 0.435523
0.955535 0.616846 0.462593
0.979461 0.638453 0.493568
0.320745 0.463722 0.281498
0.322606 0.463905 0.281621
0.325139 0.464057 0.281743
0.330785 0.464454 0.282139
0.339208 0.465003 0.282689
0.350256 0.465827 0.283391
0.363897 0.466896 0.284367
0.379583 0.468299 0.285588
0.397223 0.470161 0.286992
0.416754 0.472419 0.288548
0.437690 0.475196 0.290410
0.459876 0.478401 0.292668
0.483070 0.482002 0.294865
0.506950 0.485878 0.297520
0.531395 0.489998 0.300298
0.556176 0.494392 0.303197
0.581537 0.499214 0.306401
0.606867 0.503990 0.309972
0.632319 0.509117 0.314122
0.658839 0.515251 0.318730
0.686244 0.522332 0.324193
0.713832 0.529931 0.330755
0.741421 0.537926 0.338109
0.769162 0.546471 0.347143
0.796780 0.555688 0.357549
0.824308 0.565911 0.369696
0.851621 0.577173 0.384192
0.878691 0.589929 0.401282
0.905150 0.604547 0.421790
0.930999 0.621118 0.445960
0.955932 0.639612 0.473884
0.979614 0.660304 0.505821
0.336706 0.496834 0.287785
0.338567 0.497017 0.287907
0.340826 0.497169 0.288151
0.346105 0.497536 0.288396
0.354009 0.498116 0.289006
0.364660 0.498939 0.289616
0.377508 0.500084 0.290532
0.392645 0.501640 0.291630
0.409644 0.503441 0.292973
0.428229 0.505638 0.294621
0.448432 0.508141 0.296300
0.469825 0.511131 0.298405
0.492073 0.514458 0.300694
0.515251 0.517906 0.303044
0.538842 0.521599 0.305699
0.562860 0.525536 0.308629
0.587213 0.529595 0.311864
0.611780 0.533806 0.315557
0.636988 0.538659 0.319738
0.663142 0.544640 0.324590
0.690120 0.551446 0.330205
0.717250 0.558556 0.336980
0.744442 0.566094 0.344976
0.771756 0.574182 0.354223
0.799039 0.583001 0.365118
0.826261 0.592615 0.378058
0.853239 0.603418 0.393347
0.879881 0.615656 0.411383
0.906065 0.629511 0.432837
0.931518 0.645167 0.457527
0.956115 0.662654 0.486030
0.979400 0.682246 0.518578
0.351995 0.530602 0.294072
0.353643 0.530785 0.294133
0.356054 0.530877 0.294377
0.360937 0.531182 0.294621
0.368444 0.531792 0.295140
0.378485 0.532586 0.295781
0.390753 0.533715 0.296727
0.405097 0.535027 0.297765
0.421393 0.536675 0.299229
0.439338 0.538750 0.300633
0.458808 0.541131 0.302403
0.479377 0.543755 0.304417
0.500938 0.546715 0.306737
0.523217 0.549828 0.309209
0.546075 0.553155 0.311955
0.569390 0.556603 0.315007
0.593042 0.560296 0.318120
0.617151 0.564202 0.321630
0.641779 0.568719 0.325780
0.667536 0.574273 0.330785
0.693812 0.580560 0.336767
0.720455 0.587091 0.343938
0.747097 0.594141 0.352148
0.774014 0.601831 0.361883
0.800961 0.610163 0.373388
0.827787 0.619348 0.387121
0.854459 0.629633 0.403235
0.880827 0.641352 0.422278
0.906676 0.654475 0.444373
0.931945 0.669184 0.469673
0.956237 0.685817 0.498878
0.979248 0.704433 0.532311
0.367132 0.564569 0.300755
0.368872 0.564782 0.300877
0.372778 0.568627 0.301884
0.377417 0.568872 0.302190
0.384741 0.569299 0.302708
0.394171 0.569970 0.303410
0.405921 0.570733 0.304265
0.419654 0.571801 0.305364
0.435279 0.573236 0.306676
0.452491 0.574914 0.308324
0.471168 0.576959 0.310002
0.490974 0.579278 0.312047
0.511803 0.581781 0.314427
0.533379 0.584588 0.316838
0.555566 0.587518 0.319738
0.578210 0.590570 0.322728
0.601434 0.594018 0.326116
0.624933 0.597620 0.329717
0.648951 0.601434 0.333593
0.673854 0.606134 0.338415
0.699397 0.611597 0.344823
0.725246 0.617548 0.352300
0.751369 0.623865 0.361089
0.777646 0.630854 0.371374
0.803922 0.638392 0.383520
0.830106 0.646937 0.397833
0.856168 0.656397 0.414588
0.881956 0.667292 0.434150
0.907439 0.679500 0.456764
0.932341 0.693416 0.482887
0.956298 0.709071 0.512749
0.978973 0.726619 0.546685
0.383032 0.599603 0.308598
0.384802 0.600183 0.308690
0.387060 0.600855 0.308995
0.391791 0.601556 0.309575
0.398840 0.602319 0.310063
0.408057 0.603113 0.310765
0.419257 0.603967 0.311772
0.432288 0.604974 0.312840
0.447333 0.606409 0.314153
0.463752 0.607996 0.315770
0.481697 0.609888 0.317662
0.500847 0.612055 0.319768
0.520897 0.614435 0.322210
0.541802 0.617060 0.324865
0.563470 0.619806 0.327611
0.585565 0.622705 0.330938
0.608179 0.625879 0.334325
0.631281 0.629145 0.338109
0.654749 0.632746 0.342412
0.678676 0.636591 0.346990
0.703334 0.641047 0.352850
0.728725 0.646448 0.360723
0.754360 0.652308 0.370031
0.780270 0.658839 0.381048
0.806088 0.665949 0.394018
0.831968 0.673915 0.408972
0.857664 0.682918 0.426734
0.883116 0.693080 0.447089
0.908232 0.704616 0.470497
0.932799 0.717678 0.497230
0.956420 0.732418 0.527764
0.978820 0.748775 0.561883
0.398749 0.633814 0.316930
0.400397 0.634394 0.317235
0.402564 0.635065 0.317418
0.407019 0.635706 0.317967
0.413703 0.636500 0.318517
0.422370 0.637263 0.319310
0.433204 0.638056 0.320287
0.445716 0.639033 0.321416
0.459968 0.640345 0.322942
0.475837 0.641871 0.324529
0.493080 0.643610 0.326604
0.511528 0.645655 0.328771
0.530907 0.647791 0.331395
0.551202 0.650141 0.334020
0.572137 0.652552 0.337255
0.593530 0.655146 0.340673
0.615595 0.657954 0.344305
0.638025 0.660945 0.348455
0.660945 0.664088 0.352911
0.684260 0.667506 0.357794
0.708003 0.671168 0.363134
0.732479 0.675441 0.370275
0.757656 0.680873 0.380346
0.783047 0.686793 0.391943
0.808499 0.693446 0.405676
0.833860 0.700893 0.421698
0.859190 0.709163 0.439918
0.884306 0.718624 0.460792
0.909087 0.729335 0.484718
0.933227 0.741634 0.512291
0.956481 0.755428 0.543297
0.978607 0.770626 0.577600
0.415137 0.668452 0.326665
0.416785 0.669001 0.327031
0.418860 0.669520 0.327367
0.423072 0.670222 0.327855
0.429358 0.670832 0.328496
0.437720 0.671504 0.329351
0.447913 0.672236 0.330358
0.459785 0.673121 0.331640
0.473457 0.674189 0.333074
0.488472 0.675471 0.335027
0.505089 0.676997 0.337072
0.522728 0.678737 0.339422
0.541405 0.680629 0.342260
0.560937 0.682673 0.345220
0.581140 0.684901 0.348638
0.602075 0.687343 0.352300
0.623529 0.689937 0.356329
0.645533 0.692775 0.360906
0.668055 0.695827 0.365942
0.691005 0.699123 0.371527
0.714290 0.702632 0.377508
0.738064 0.706355 0.384192
0.762325 0.710536 0.392645
0.787320 0.716091 0.405493
0.812436 0.722225 0.420172
0.837461 0.729152 0.436957
0.862333 0.736843 0.455940
0.886992 0.745602 0.477760
0.911315 0.755612 0.502586
0.935027 0.767025 0.530907
0.957794 0.779751 0.562371
0.979461 0.793698 0.596704
0.433722 0.703944 0.339391
0.435096 0.704280 0.339544
0.436896 0.704494 0.339849
0.440894 0.704891 0.340185
0.446784 0.705318 0.340887
0.454536 0.705776 0.341741
0.464088 0.706416 0.342870
0.475349 0.707149 0.344366
0.488350 0.708156 0.345922
0.502831 0.709377 0.347997
0.518578 0.710780 0.350439
0.535607 0.712367 0.353063
0.553552 0.714107 0.356023
0.572259 0.715877 0.359319
0.591730 0.717830 0.363012
0.611994 0.719905 0.366979
0.632685 0.722194 0.371588
0.654047 0.724697 0.376471
0.675807 0.727352 0.381994
0.698085 0.730190 0.387762
0.720638 0.733272 0.394476
0.743557 0.736446 0.401495
0.766812 0.739773 0.409461
0.790402 0.743557 0.419043
0.814969 0.749050 0.434150
0.839567 0.755337 0.451545
0.864103 0.762387 0.471168
0.888365 0.770535 0.493721
0.912291 0.779782 0.519341
0.935607 0.790341 0.547967
0.958099 0.801999 0.579370
0.979370 0.814817 0.613581
0.452735 0.736904 0.353674
0.453986 0.737179 0.353887
0.455726 0.737453 0.354314
0.459358 0.737728 0.354803
0.464942 0.738125 0.355444
0.472175 0.738552 0.356481
0.481147 0.739071 0.357794
0.491676 0.739712 0.359258
0.503960 0.740536 0.361028
0.517601 0.741543 0.363165
0.532616 0.742855 0.365759
0.548760 0.744198 0.368658
0.565789 0.745663 0.372015
0.583886 0.747341 0.375708
0.602655 0.749081 0.379736
0.622126 0.751003 0.384192
0.642206 0.753048 0.389075
0.662898 0.755337 0.394568
0.684016 0.757778 0.400519
0.705592 0.760403 0.407324
0.727565 0.763180 0.414496
0.749844 0.766079 0.422248
0.772396 0.769162 0.430579
0.795163 0.772366 0.439429
0.817319 0.774960 0.448829
0.841489 0.780575 0.466590
0.865629 0.787015 0.486885
0.889525 0.794522 0.509850
0.913085 0.803067 0.536065
0.936095 0.812711 0.564904
0.958282 0.823453 0.596429
0.979217 0.835233 0.630426
0.474250 0.770352 0.372168
0.475563 0.770596 0.372503
0.477119 0.770779 0.372686
0.480446 0.771023 0.373327
0.485512 0.771267 0.374151
0.492195 0.771542 0.375128
0.500511 0.771908 0.376349
0.510338 0.772366 0.377874
0.521752 0.772915 0.379950
0.534508 0.773709 0.382208
0.548547 0.774594 0.384955
0.563745 0.775662 0.388098
0.579919 0.776883 0.391577
0.597040 0.778225 0.395453
0.614862 0.779629 0.399939
0.633417 0.781155 0.404608
0.652613 0.782803 0.409918
0.672389 0.784695 0.415900
0.692714 0.786862 0.422217
0.713527 0.789181 0.429328
0.734737 0.791775 0.436927
0.756283 0.794461 0.445197
0.778073 0.797208 0.453895
0.799985 0.799954 0.462989
0.821958 0.802792 0.472663
0.844114 0.805814 0.483375
0.867674 0.811582 0.504204
0.891142 0.818296 0.527886
0.914244 0.826047 0.554070
0.936858 0.834775 0.582879
0.958679 0.844511 0.614160
0.979248 0.855222 0.647974
0.496681 0.801114 0.393378
0.497810 0.801389 0.393805
0.499306 0.801572 0.394141
0.502373 0.801755 0.394751
0.507042 0.801968 0.395575
0.513237 0.802243 0.396674
0.520989 0.802579 0.398322
0.530205 0.802976 0.400092
0.540887 0.803555 0.402350
0.552911 0.804257 0.404822
0.566094 0.805112 0.407813
0.580529 0.806119 0.411414
0.595880 0.807218 0.415381
0.612116 0.808438 0.419715
0.629114 0.809720 0.424567
0.646723 0.811124 0.429603
0.665126 0.812650 0.435309
0.683986 0.814359 0.441505
0.703456 0.816251 0.448310
0.723507 0.818357 0.455756
0.743862 0.820584 0.463752
0.764584 0.822965 0.472450
0.785550 0.825406 0.481453
0.806638 0.827970 0.491157
0.827848 0.830533 0.501305
0.849058 0.833158 0.511986
0.870329 0.835843 0.523461
0.893339 0.841825 0.547112
0.916075 0.848814 0.573571
0.938293 0.856779 0.602258
0.959625 0.865476 0.633417
0.979797 0.875151 0.666896
0.521599 0.831266 0.419684
0.522667 0.831449 0.420111
0.524010 0.831540 0.420264
0.526757 0.831662 0.420966
0.530938 0.831785 0.421881
0.536584 0.831968 0.423072
0.543633 0.832242 0.424537
0.552117 0.832578 0.426368
0.561913 0.833066 0.428779
0.572992 0.833677 0.431525
0.585351 0.834440 0.434821
0.598779 0.835355 0.438575
0.613153 0.836362 0.442817
0.628504 0.837430 0.447425
0.644495 0.838621 0.452399
0.661250 0.839811 0.457862
0.678614 0.841154 0.463783
0.696620 0.842618 0.470314
0.715206 0.844266 0.477485
0.734279 0.846128 0.485206
0.753841 0.848142 0.493690
0.773678 0.850248 0.502708
0.793790 0.852415 0.512322
0.813993 0.854734 0.522545
0.834348 0.857023 0.533165
0.854704 0.859373 0.544060
0.875090 0.861875 0.555535
0.895415 0.864408 0.567498
0.917540 0.870359 0.592401
0.939361 0.877409 0.621088
0.960296 0.885252 0.651850
0.980072 0.893889 0.684932
0.547631 0.859861 0.449592
0.548547 0.859983 0.449897
0.549737 0.860075 0.450202
0.552270 0.860197 0.450782
0.556115 0.860380 0.451820
0.561395 0.860655 0.453285
0.568017 0.861021 0.455085
0.576043 0.861570 0.457496
0.585382 0.862242 0.460304
0.595911 0.863066 0.463752
0.607568 0.863981 0.467506
0.620294 0.864988 0.471748
0.633906 0.866056 0.476631
0.648402 0.867155 0.481636
0.663569 0.868254 0.487160
0.679408 0.869352 0.493141
0.695918 0.870573 0.499458
0.712978 0.871855 0.506493
0.730556 0.873289 0.514122
0.748684 0.874907 0.522240
0.767239 0.876616 0.531090
0.786069 0.878447 0.540520
0.805142 0.880369 0.550195
0.824308 0.882353 0.560510
0.843687 0.884398 0.571160
0.863035 0.886473 0.582116
0.882444 0.888670 0.593561
0.901823 0.890929 0.605432
0.921111 0.893309 0.617792
0.941894 0.898772 0.643275
0.962249 0.905669 0.673732
0.981445 0.913176 0.705959
0.576959 0.888731 0.486213
0.577783 0.888823 0.486519
0.578882 0.888853 0.486763
0.581079 0.888914 0.487495
0.584558 0.889006 0.488441
0.589227 0.889158 0.489662
0.595239 0.889433 0.491707
0.602319 0.889799 0.493965
0.610712 0.890257 0.496742
0.620294 0.890837 0.499977
0.630915 0.891447 0.503899
0.642573 0.892180 0.508080
0.655146 0.893004 0.513024
0.668482 0.893858 0.518120
0.682673 0.894743 0.523888
0.697505 0.895689 0.530053
