其他预设/【232】美食博客调色预设124款/1.3D LUT预设（视频调色-PR-AE-PS-FCPX-达芬奇用）/Food Art #65.cube
# Created by Adobe Lightroom plugin Export LUT (1.17.0)
# www.johnrellis.com/lightroom/exportlut.htm
# Preset: Food Art #65
# Color profile: /Library/Application Support/Adobe/Color/Profiles/Recommended/AdobeRGB1998.icc
LUT_3D_SIZE 5
DOMAIN_MIN 0.000000 0.000000 0.000000
DOMAIN_MAX 0.903226 0.903226 0.903226
0.000000 0.000000 0.000000
0.191531 0.000000 0.082399
0.401007 0.081514 0.166629
0.583795 0.233707 0.260136
0.777157 0.458473 0.408942
0.225711 0.112764 0.123201
0.314153 0.128328 0.151766
0.454749 0.171786 0.203830
0.609400 0.290837 0.285222
0.793027 0.504997 0.437018
0.459113 0.295842 0.245823
0.490822 0.310948 0.258640
0.584863 0.373754 0.306096
0.687465 0.455482 0.371099
0.829587 0.621607 0.515953
0.637537 0.541711 0.395209
0.654353 0.553460 0.406653
0.706325 0.591760 0.445014
0.780636 0.651087 0.509972
0.881498 0.760616 0.634394
0.821256 0.797665 0.634424
0.829465 0.803037 0.642634
0.854429 0.819089 0.667842
0.897795 0.854154 0.721218
0.945068 0.898375 0.791653
0.078309 0.000000 0.077607
0.214328 0.006256 0.121401
0.421607 0.117769 0.197757
0.590723 0.254520 0.281651
0.775418 0.462043 0.420020
0.247410 0.113649 0.152804
0.327672 0.132418 0.177737
0.469642 0.191379 0.228946
0.614069 0.304479 0.303655
0.788815 0.503380 0.443946
0.467292 0.298253 0.260624
0.500298 0.315068 0.275029
0.582300 0.369299 0.315740
0.685786 0.455695 0.381476
0.829099 0.622858 0.524041
0.641505 0.543359 0.407019
0.658808 0.555718 0.419348
0.708553 0.592737 0.455543
0.780636 0.650904 0.517540
0.881682 0.761471 0.640131
0.821469 0.797635 0.639338
0.829587 0.803006 0.647303
0.857420 0.823056 0.677028
0.899138 0.856321 0.727443
0.945953 0.900023 0.796475
0.171023 0.007019 0.160678
0.259312 0.032532 0.185397
0.440955 0.133242 0.243503
0.603388 0.272404 0.322545
0.781521 0.473610 0.457252
0.303624 0.126009 0.211063
0.359594 0.144015 0.226841
0.489540 0.208530 0.273259
0.627771 0.325170 0.346258
0.793362 0.510307 0.476692
0.485908 0.307134 0.301518
0.515862 0.324773 0.314458
0.595636 0.383490 0.356878
0.695796 0.472419 0.422156
0.830594 0.623102 0.546136
0.647517 0.546410 0.438270
0.663142 0.556878 0.448310
0.713405 0.596246 0.485176
0.783597 0.654963 0.543145
0.883085 0.762997 0.656519
0.821225 0.796811 0.654994
0.829343 0.802853 0.662776
0.854826 0.822232 0.687678
0.897368 0.855558 0.736172
0.945434 0.899840 0.803799
0.276097 0.048920 0.252903
0.336278 0.078004 0.267063
0.477241 0.163180 0.312627
0.621485 0.294682 0.386542
0.793423 0.496498 0.522728
0.370520 0.151553 0.286656
0.410468 0.167971 0.298161
0.516808 0.231357 0.338293
0.643091 0.343603 0.408057
0.802029 0.527459 0.536797
0.514733 0.326635 0.365759
0.539513 0.343511 0.377844
0.607568 0.394781 0.414923
0.703059 0.481178 0.474311
0.832486 0.619989 0.585626
0.662440 0.561242 0.496010
0.676173 0.570916 0.504082
0.720119 0.604486 0.532891
0.789334 0.663386 0.585901
0.883146 0.755123 0.676844
0.824338 0.800717 0.688808
0.831388 0.805905 0.695003
0.854643 0.824430 0.716579
0.893492 0.856474 0.754574
0.946715 0.903258 0.822782
0.408759 0.109438 0.413977
0.450965 0.137026 0.426642
0.559319 0.227939 0.469734
0.688624 0.370062 0.538933
0.814694 0.537896 0.620996
0.453559 0.194003 0.438087
0.487739 0.213809 0.449622
0.581689 0.286839 0.489174
0.702510 0.413367 0.553307
0.822263 0.565515 0.632105
0.553124 0.375769 0.508019
0.565820 0.378119 0.511742
0.636988 0.429938 0.542321
0.740902 0.527123 0.596796
0.846983 0.645594 0.670283
0.712093 0.636042 0.629603
0.719966 0.639368 0.632532
0.743801 0.647547 0.641810
0.796628 0.675532 0.668330
0.889403 0.764736 0.742794
0.843534 0.829313 0.764126
0.848234 0.832303 0.767575
0.865415 0.844083 0.781460
0.897063 0.867094 0.809506
0.949432 0.911345 0.866819
