其他预设/【232】美食博客调色预设124款/1.3D LUT预设（视频调色-PR-AE-PS-FCPX-达芬奇用）/Food Art #45.cube
# Created by Adobe Lightroom plugin Export LUT (1.17.0)
# www.johnrellis.com/lightroom/exportlut.htm
# Preset: Food Art #45
# Color profile: /Library/Application Support/Adobe/Color/Profiles/Recommended/AdobeRGB1998.icc
LUT_3D_SIZE 8
DOMAIN_MIN 0.000000 0.000000 0.000000
DOMAIN_MAX 0.903226 0.903226 0.903226
0.071443 0.079866 0.155734
0.122805 0.085481 0.167514
0.225834 0.124483 0.202670
0.331273 0.174044 0.244572
0.437049 0.235233 0.293004
0.556054 0.303319 0.345678
0.696071 0.383368 0.407507
0.831907 0.492744 0.493568
0.105409 0.135592 0.182467
0.155215 0.147494 0.194919
0.241886 0.166720 0.219059
0.339452 0.205478 0.256626
0.441840 0.257694 0.301427
0.557336 0.319493 0.350774
0.694545 0.395727 0.410651
0.830655 0.502770 0.496620
0.188357 0.247929 0.242100
0.216129 0.253696 0.248753
0.292363 0.273564 0.271000
0.375616 0.294926 0.297795
0.470619 0.331090 0.333135
0.582422 0.382116 0.376837
0.716915 0.454475 0.436774
0.842557 0.555169 0.524041
0.280888 0.365606 0.309514
0.297154 0.368902 0.313420
0.349554 0.382269 0.327611
0.435370 0.413031 0.355810
0.526360 0.442298 0.385412
0.626856 0.479774 0.421180
0.742794 0.538659 0.476234
0.853727 0.626001 0.562066
0.374090 0.493568 0.378302
0.385931 0.496193 0.381231
0.426673 0.507256 0.392065
0.494301 0.528588 0.412451
0.579187 0.556390 0.439704
0.669337 0.586023 0.473121
0.769131 0.633997 0.527764
0.867918 0.706905 0.611414
0.472175 0.630365 0.453162
0.484321 0.635462 0.457618
0.517205 0.642908 0.466957
0.572290 0.656733 0.484535
0.642817 0.675624 0.510094
0.721462 0.699733 0.544549
0.803372 0.733394 0.594141
0.887480 0.788418 0.669306
0.600519 0.764614 0.557122
0.608270 0.766384 0.560204
0.631769 0.770047 0.568231
0.672450 0.777859 0.584100
0.724392 0.788754 0.606409
0.783352 0.804318 0.636133
0.842710 0.823423 0.670375
0.906889 0.856199 0.722438
0.745357 0.876555 0.683864
0.749599 0.877195 0.685603
0.764889 0.879942 0.692531
0.791836 0.885801 0.705867
0.821805 0.890105 0.718868
0.862333 0.901030 0.742031
0.904570 0.914611 0.769131
0.943969 0.929137 0.797147
0.061555 0.082521 0.183017
0.122744 0.088319 0.193423
0.228611 0.139834 0.229313
0.333837 0.195377 0.271244
0.437507 0.250278 0.312718
0.551934 0.311101 0.358587
0.689021 0.385687 0.415473
0.825925 0.491524 0.497505
0.104707 0.136019 0.206851
0.157290 0.149630 0.219425
0.246098 0.180606 0.246647
0.342748 0.221653 0.280858
0.443671 0.270390 0.319799
0.555840 0.327123 0.364019
0.689174 0.398199 0.418982
0.824613 0.501030 0.500298
0.194888 0.247807 0.260044
0.225284 0.254917 0.269413
0.293187 0.274144 0.287938
0.375555 0.299229 0.313451
0.469856 0.335973 0.346258
0.577966 0.384192 0.386419
0.707393 0.451423 0.440955
0.835447 0.550500 0.525017
0.285344 0.364050 0.321050
0.302983 0.368261 0.326055
0.352850 0.382208 0.339574
0.430610 0.407843 0.363195
0.516747 0.435370 0.389929
0.615839 0.473091 0.424201
0.732448 0.531945 0.477211
0.847135 0.620203 0.561273
0.378149 0.492866 0.387732
0.389166 0.495186 0.390173
0.427832 0.504906 0.399969
0.491432 0.523552 0.418036
0.572900 0.549767 0.443336
0.663233 0.581048 0.476448
0.764309 0.630457 0.530236
0.864164 0.703609 0.611933
0.472816 0.627131 0.458808
0.482307 0.629389 0.461433
0.514672 0.637140 0.470588
0.569604 0.651820 0.488228
0.640375 0.672114 0.514092
0.719753 0.697780 0.548577
0.801328 0.731777 0.597162
0.885222 0.786252 0.669978
0.597620 0.759945 0.558404
0.603876 0.760494 0.560113
0.627832 0.764889 0.568597
0.669703 0.774014 0.585290
0.722560 0.786160 0.608331
0.781064 0.801663 0.637140
0.839597 0.820127 0.669795
0.904051 0.853025 0.720974
0.743069 0.874174 0.683894
0.747799 0.875181 0.686122
0.763333 0.878202 0.693172
0.790555 0.884276 0.706569
0.824826 0.892027 0.723964
0.863462 0.901732 0.745052
0.904082 0.914092 0.770108
0.942992 0.928069 0.796994
0.075929 0.088289 0.241154
0.128389 0.101717 0.249607
0.234348 0.147951 0.277256
0.339208 0.205753 0.310369
0.444770 0.266361 0.349340
0.562921 0.332189 0.396307
0.697536 0.403296 0.449439
0.829526 0.507622 0.526970
0.133608 0.148440 0.262272
0.170199 0.160159 0.270237
0.252903 0.189425 0.290898
0.349310 0.234775 0.320378
0.452064 0.287968 0.357458
0.566308 0.346807 0.400519
0.698573 0.415656 0.452827
0.829801 0.518425 0.530755
0.207492 0.251682 0.302739
0.234501 0.259037 0.308904
0.302434 0.281834 0.327276
0.383734 0.310643 0.350378
0.479866 0.351385 0.382300
0.587518 0.399573 0.420325
0.713252 0.464668 0.471595
0.836790 0.561761 0.550072
0.293584 0.367590 0.352483
0.311559 0.372503 0.357458
0.364599 0.389380 0.373266
0.437873 0.414191 0.394263
0.524071 0.444190 0.420752
0.623896 0.484291 0.454810
0.738369 0.543938 0.506340
0.849546 0.630365 0.584619
0.383154 0.494362 0.412146
0.396674 0.497932 0.416266
0.438300 0.510002 0.428748
0.499977 0.529290 0.446204
0.579400 0.555535 0.470161
0.667903 0.587304 0.502434
0.766934 0.637354 0.554040
0.865385 0.709499 0.629908
0.478401 0.628504 0.480873
0.489540 0.631220 0.484474
0.523461 0.639033 0.495186
0.575494 0.652461 0.511101
0.643214 0.671901 0.534997
0.719539 0.697017 0.566522
0.801022 0.732876 0.613397
0.886320 0.789364 0.683070
0.604852 0.761501 0.577020
0.612482 0.762356 0.579828
0.635859 0.765927 0.587762
0.674861 0.774014 0.602197
0.725551 0.785763 0.623102
0.782956 0.801938 0.650416
0.841642 0.821988 0.682551
0.907012 0.856931 0.733120
0.745815 0.874144 0.693843
0.749722 0.874510 0.695277
0.764431 0.877165 0.701442
0.792142 0.884031 0.715114
0.825711 0.891691 0.731411
0.864378 0.901915 0.752041
0.905028 0.914702 0.776455
0.944091 0.929168 0.802945
0.111086 0.108431 0.309300
0.152499 0.122499 0.315709
0.242954 0.161929 0.333867
0.344793 0.214420 0.360510
0.449500 0.272679 0.393164
0.565057 0.335790 0.434668
0.698207 0.408911 0.487312
0.827787 0.512810 0.558801
0.163088 0.166964 0.325902
0.190494 0.174929 0.330297
0.262882 0.201175 0.344945
0.356146 0.242466 0.369055
0.457954 0.294469 0.400671
0.570703 0.352972 0.440375
0.701076 0.423072 0.491585
0.828885 0.524468 0.562737
0.227817 0.258701 0.354406
0.250675 0.266636 0.359472
0.310704 0.287785 0.373632
0.390906 0.317601 0.394995
0.486732 0.360235 0.425177
0.596674 0.411444 0.463508
0.721401 0.479042 0.514611
0.838926 0.571160 0.583459
0.306035 0.372656 0.398627
0.322271 0.377569 0.402502
0.372717 0.394141 0.415808
0.448920 0.423468 0.439216
0.531518 0.452979 0.462776
0.629969 0.493843 0.495430
0.741054 0.553399 0.543847
0.850431 0.636866 0.613184
0.392889 0.499092 0.453071
0.405097 0.501884 0.455909
0.445869 0.513787 0.467079
0.511345 0.536828 0.487617
0.587823 0.562646 0.510277
0.674647 0.596338 0.541833
0.771206 0.646021 0.588190
0.867124 0.715023 0.654505
0.487587 0.633051 0.517205
0.500114 0.637568 0.521996
0.534508 0.644923 0.532006
0.589197 0.659266 0.549981
0.653346 0.678187 0.571099
0.724880 0.701625 0.598352
0.804227 0.737942 0.640711
0.888060 0.792752 0.701991
0.610376 0.762448 0.603052
0.618463 0.764065 0.606104
0.644862 0.768917 0.615808
0.685115 0.777523 0.631006
0.733547 0.789456 0.649622
0.787961 0.805020 0.673182
0.844022 0.824063 0.701045
0.909331 0.859739 0.748135
0.750362 0.875853 0.711208
0.754910 0.876707 0.713100
0.769253 0.879179 0.718685
0.793637 0.884306 0.728756
0.826719 0.892027 0.743679
0.865141 0.902342 0.762936
0.905882 0.915465 0.786069
0.945342 0.930388 0.811582
0.153597 0.135378 0.380438
0.183993 0.146792 0.384619
0.260197 0.180606 0.397375
0.354314 0.228000 0.418524
0.457893 0.282536 0.448493
0.572229 0.343145 0.487007
0.703822 0.416114 0.537926
0.831632 0.521569 0.603418
0.191928 0.184695 0.391394
0.215274 0.192477 0.395087
0.279576 0.216556 0.406439
0.365667 0.254643 0.425635
0.465888 0.303441 0.454688
0.578759 0.360571 0.492622
0.708095 0.431250 0.542535
0.833280 0.533623 0.607233
0.257176 0.276097 0.416602
0.276524 0.283513 0.420722
0.326299 0.299931 0.430762
0.401129 0.327855 0.449226
0.491859 0.365667 0.474678
0.598718 0.414160 0.510094
0.720394 0.479591 0.557366
0.837888 0.571130 0.618860
0.322911 0.378882 0.452338
0.337926 0.383856 0.455726
0.385199 0.400916 0.467689
0.455207 0.427497 0.487221
0.537194 0.458106 0.510307
0.634943 0.499458 0.542138
0.743008 0.556512 0.585016
0.849149 0.631678 0.641077
0.402777 0.500938 0.501701
0.414893 0.504631 0.504723
0.454017 0.516838 0.514611
0.516411 0.538720 0.532525
0.595361 0.568536 0.557061
0.677852 0.599329 0.582574
0.770871 0.645258 0.620996
0.866056 0.709682 0.676081
0.493477 0.631586 0.559838
0.503410 0.633906 0.562249
0.536309 0.641199 0.570275
0.589380 0.655665 0.585382
0.653925 0.676722 0.605493
0.726772 0.702449 0.631830
0.806241 0.739773 0.669276
0.888853 0.791501 0.721065
0.615808 0.762203 0.636896
0.622858 0.763180 0.638727
0.647059 0.767391 0.645899
0.686091 0.775967 0.658534
0.733577 0.788693 0.674495
0.788479 0.804959 0.695857
0.844663 0.824216 0.720821
0.910613 0.860197 0.763607
0.750484 0.874113 0.730465
0.754452 0.874723 0.731746
0.768124 0.877134 0.736324
0.793149 0.883848 0.746181
0.823514 0.891325 0.757107
0.863035 0.901884 0.774990
0.904875 0.915129 0.796628
0.945403 0.930327 0.820676
0.199496 0.167453 0.462684
0.223239 0.176791 0.465644
0.288945 0.205112 0.475380
0.377295 0.247623 0.494026
0.477211 0.297948 0.519799
0.585046 0.354101 0.551568
0.712917 0.427192 0.599969
0.837827 0.535088 0.658808
0.226871 0.207919 0.469276
0.246159 0.214572 0.471839
0.304387 0.236240 0.481239
0.387060 0.271855 0.499153
0.483589 0.317174 0.523949
0.589715 0.370031 0.555291
0.715755 0.441138 0.602930
0.838804 0.545800 0.661097
0.287022 0.297765 0.493111
0.301518 0.301976 0.495430
0.348638 0.316747 0.504387
0.421088 0.342962 0.520653
0.510338 0.378973 0.543572
0.610620 0.424201 0.572381
0.729061 0.490364 0.616449
0.844663 0.583978 0.671565
0.348638 0.399023 0.526360
0.361822 0.403143 0.528893
0.405371 0.417731 0.538903
0.471962 0.440864 0.555932
0.554467 0.471107 0.576837
0.646571 0.510307 0.601831
0.751797 0.567102 0.640314
0.855741 0.642817 0.689662
0.421363 0.515190 0.568261
0.432685 0.518578 0.570764
0.470130 0.530053 0.579278
0.529839 0.549493 0.593530
0.602380 0.573419 0.611200
0.684810 0.604761 0.633722
0.775357 0.648951 0.666072
0.868254 0.706844 0.709804
0.510094 0.639734 0.617395
0.520409 0.642756 0.619959
0.552270 0.650813 0.626825
0.601678 0.664393 0.638331
0.662501 0.682948 0.654139
0.735927 0.710536 0.677852
0.809903 0.741207 0.704463
0.890013 0.786160 0.744137
0.626520 0.765286 0.680812
0.634028 0.766964 0.682918
0.656947 0.771267 0.688258
0.693019 0.779355 0.697597
0.738033 0.791470 0.710353
0.791379 0.808225 0.727657
0.848814 0.827970 0.749660
0.915068 0.862943 0.786465
0.755032 0.875212 0.758877
0.758694 0.875792 0.759792
0.771511 0.878141 0.763333
0.793729 0.883574 0.770230
0.822904 0.891234 0.779324
0.859373 0.901793 0.791775
0.904021 0.915831 0.812222
0.946624 0.931487 0.834745
0.247501 0.200504 0.571374
0.267826 0.208133 0.574243
0.328374 0.232609 0.583093
0.413642 0.270573 0.598138
0.511986 0.318486 0.618250
0.617365 0.374975 0.642847
0.723537 0.440955 0.670008
0.842252 0.547387 0.718410
0.266178 0.234348 0.576623
0.284215 0.240330 0.579278
0.340124 0.260227 0.587396
0.421454 0.293095 0.601556
0.517388 0.336950 0.621118
0.620935 0.390295 0.645136
0.725399 0.453773 0.671595
0.842496 0.556390 0.719265
0.311864 0.317052 0.595239
0.326696 0.320897 0.597162
0.374731 0.335241 0.604334
0.448646 0.360632 0.617182
0.538720 0.396551 0.634882
0.637751 0.443275 0.657191
0.737575 0.501884 0.682094
0.849058 0.594263 0.727718
0.370672 0.420966 0.622553
0.382422 0.423560 0.623896
0.422339 0.433021 0.629786
0.489235 0.453681 0.641230
0.572961 0.483680 0.656947
0.665431 0.524804 0.676509
0.757198 0.573663 0.698939
0.859190 0.649531 0.740841
0.448005 0.540398 0.656062
0.457862 0.542565 0.657313
0.491066 0.550164 0.661952
0.543420 0.562158 0.669429
0.613794 0.582208 0.681300
0.697414 0.614862 0.698726
0.780453 0.654292 0.719326
0.872709 0.713405 0.757656
0.544610 0.664271 0.694453
0.552789 0.666072 0.695552
0.579889 0.672175 0.699519
0.622034 0.681758 0.706081
0.675624 0.694575 0.715145
0.740749 0.713985 0.729061
0.813138 0.743313 0.748898
0.891752 0.784634 0.780819
0.646052 0.773983 0.734829
0.652155 0.775265 0.735866
0.671870 0.779080 0.739254
0.703243 0.786007 0.745357
0.744381 0.796017 0.754208
0.794553 0.810758 0.767330
0.853849 0.832578 0.786984
0.917113 0.860594 0.812528
0.758572 0.875578 0.791287
0.762264 0.876371 0.792203
0.775479 0.879637 0.795834
0.796597 0.884916 0.801541
0.825284 0.892607 0.809567
0.860624 0.903197 0.820340
0.902556 0.916991 0.834531
0.948669 0.933501 0.855009
0.303075 0.241672 0.715602
0.321508 0.248356 0.717220
0.378759 0.270390 0.721981
0.462593 0.307774 0.730770
0.560510 0.358221 0.742580
0.663630 0.420752 0.756863
0.764736 0.495674 0.772854
0.854551 0.574426 0.789761
0.314366 0.269413 0.717983
0.332067 0.275151 0.719448
0.386816 0.294560 0.724147
0.468513 0.328496 0.732540
0.564782 0.375738 0.744137
0.666743 0.435554 0.758053
0.766598 0.507866 0.773648
0.855344 0.583551 0.790494
0.345830 0.343847 0.726436
0.361273 0.348241 0.727718
0.411261 0.363195 0.731777
0.488594 0.391363 0.740017
0.580682 0.431678 0.750607
0.678920 0.484871 0.763333
0.774746 0.549157 0.778256
0.860014 0.616144 0.794644
0.388128 0.439765 0.739223
0.402106 0.443458 0.740475
0.447700 0.455634 0.744167
0.519310 0.478767 0.751095
0.606744 0.513542 0.760586
0.699367 0.558648 0.772488
0.788571 0.610590 0.786587
0.868528 0.665370 0.802548
0.483162 0.572168 0.760555
0.491371 0.573266 0.761074
0.517327 0.575250 0.762142
0.556390 0.575128 0.763607
0.636957 0.602838 0.772305
0.722805 0.638788 0.783566
0.805783 0.680537 0.797543
0.880705 0.724941 0.814084
0.594720 0.701656 0.785702
0.600305 0.702296 0.785916
0.619135 0.704311 0.786831
0.649165 0.706630 0.788479
0.689509 0.708919 0.791012
0.753262 0.725185 0.799283
0.829435 0.757870 0.814145
0.898466 0.792844 0.831113
0.699763 0.809964 0.813748
0.703517 0.810452 0.814115
0.716335 0.812100 0.815274
0.738308 0.815091 0.817655
0.768917 0.819455 0.821317
0.807828 0.825345 0.826658
0.859709 0.837919 0.836515
0.921111 0.863981 0.853513
0.786313 0.892668 0.843809
0.788876 0.893095 0.844175
0.798032 0.894713 0.845670
0.814450 0.897917 0.848600
0.837797 0.902861 0.853178
0.868070 0.910033 0.859831
0.906340 0.920806 0.869871
0.952483 0.937407 0.885496
