其他预设/【232】美食博客调色预设124款/1.3D LUT预设（视频调色-PR-AE-PS-FCPX-达芬奇用）/Food Art #36.cube
# Created by Adobe Lightroom plugin Export LUT (1.17.0)
# www.johnrellis.com/lightroom/exportlut.htm
# Preset: Food Art #36
# Color profile: /Library/Application Support/Adobe/Color/Profiles/Recommended/AdobeRGB1998.icc
LUT_3D_SIZE 5
DOMAIN_MIN 0.000000 0.000000 0.000000
DOMAIN_MAX 0.903226 0.903226 0.903226
0.129671 0.171054 0.214817
0.234226 0.180453 0.223789
0.401617 0.200168 0.245670
0.647364 0.218082 0.273075
0.906310 0.233890 0.306981
0.133822 0.273198 0.234073
0.231662 0.275212 0.241489
0.401465 0.279911 0.259495
0.648035 0.299687 0.281682
0.909667 0.316503 0.314702
0.143130 0.444495 0.274876
0.233371 0.446845 0.278294
0.422614 0.460761 0.291020
0.659052 0.480232 0.305852
0.908324 0.497017 0.335912
0.134218 0.681331 0.310094
0.245640 0.683436 0.312627
0.451270 0.688014 0.320775
0.678126 0.693477 0.335210
0.913664 0.705226 0.369299
0.184054 0.918151 0.368353
0.281956 0.918090 0.371099
0.478553 0.915312 0.379065
0.700099 0.917815 0.401038
0.918608 0.920531 0.435889
0.104829 0.173739 0.324346
0.217288 0.188571 0.329656
0.392432 0.210452 0.339544
0.637324 0.205325 0.351965
0.899901 0.209567 0.372198
0.121767 0.270390 0.333898
0.218723 0.273503 0.336339
0.394537 0.281895 0.344488
0.639673 0.289220 0.356176
0.901030 0.299474 0.376959
0.126589 0.442725 0.352850
0.219516 0.445655 0.350988
0.411963 0.454017 0.358679
0.650141 0.472023 0.371038
0.905364 0.489937 0.393988
0.085206 0.680507 0.377264
0.220706 0.683131 0.373877
0.442512 0.687129 0.380011
0.675349 0.691798 0.391028
0.912230 0.702815 0.420386
0.156527 0.917937 0.417731
0.267491 0.917815 0.419989
0.476600 0.918578 0.429297
0.700526 0.919188 0.447303
0.919585 0.921324 0.478126
0.027497 0.184268 0.489693
0.192203 0.193423 0.492470
0.387335 0.206119 0.499947
0.637659 0.187778 0.522271
0.899962 0.147311 0.530388
0.059785 0.269078 0.496407
0.192782 0.269871 0.498146
0.393042 0.274815 0.504906
0.640497 0.266789 0.520348
0.902159 0.253178 0.527886
0.061311 0.444556 0.508873
0.192874 0.446479 0.510246
0.402869 0.450568 0.513268
0.651148 0.457557 0.520195
0.905150 0.471077 0.533501
0.000000 0.676692 0.532006
0.184390 0.677729 0.528832
0.416602 0.684321 0.522240
0.672755 0.689357 0.529808
0.909972 0.697688 0.549920
0.137942 0.914183 0.549920
0.251682 0.915404 0.548974
0.464363 0.917266 0.549004
0.697383 0.916899 0.559625
0.918730 0.918700 0.579431
0.052003 0.189151 0.673335
0.209293 0.191012 0.674678
0.419989 0.188357 0.679469
0.648005 0.168765 0.684810
0.902983 0.130129 0.698238
0.000000 0.265232 0.676539
0.192172 0.264714 0.677668
0.415778 0.261601 0.681086
0.649500 0.250919 0.685298
0.902831 0.239384 0.696010
0.000000 0.453559 0.681727
0.147463 0.449012 0.682795
0.397833 0.438056 0.685573
0.656306 0.438361 0.688075
0.906615 0.450050 0.694087
0.000000 0.677241 0.691279
0.173312 0.677302 0.691218
0.414130 0.679652 0.692958
0.671809 0.681270 0.694453
0.911315 0.690791 0.702266
0.154940 0.912016 0.704707
0.261753 0.912535 0.704494
0.466468 0.914611 0.704189
0.697261 0.915587 0.706752
0.921386 0.917052 0.717678
0.103822 0.181888 0.879484
0.234165 0.179171 0.879881
0.445350 0.165438 0.881682
0.672053 0.132662 0.884428
0.904173 0.094850 0.888121
0.000000 0.255589 0.880339
0.203952 0.253483 0.880674
0.434699 0.244938 0.882322
0.668513 0.229068 0.884520
0.904387 0.220371 0.888243
0.000000 0.437293 0.883482
0.000000 0.426825 0.884001
0.395850 0.421881 0.884977
0.659022 0.421454 0.886503
0.907042 0.432410 0.890593
0.000000 0.675959 0.888090
0.125368 0.673274 0.888121
0.397528 0.665278 0.889067
0.660151 0.662226 0.890776
0.913054 0.677180 0.896239
0.179171 0.908354 0.896880
0.271977 0.908415 0.897032
0.471809 0.909239 0.898314
0.696925 0.910307 0.900298
0.919860 0.913024 0.903716
