其他预设/【232】美食博客调色预设124款/1.3D LUT预设（视频调色-PR-AE-PS-FCPX-达芬奇用）/Food Art #15 ().cube
# Created by Adobe Lightroom plugin Export LUT (1.17.0)
# www.johnrellis.com/lightroom/exportlut.htm
# Preset: Food Art #15 (素锦印象)
# Color profile: /Library/Application Support/Adobe/Color/Profiles/Recommended/AdobeRGB1998.icc
LUT_3D_SIZE 8
DOMAIN_MIN 0.000000 0.000000 0.000000
DOMAIN_MAX 0.903226 0.903226 0.903226
0.157504 0.194888 0.212833
0.143069 0.188388 0.205844
0.201236 0.178195 0.198978
0.337133 0.188602 0.200320
0.488197 0.225956 0.219883
0.659785 0.268162 0.264866
0.794217 0.328679 0.329381
0.888273 0.409796 0.411810
0.150912 0.180697 0.205447
0.144961 0.181399 0.204379
0.208530 0.192844 0.197665
0.339757 0.212680 0.197574
0.488930 0.248722 0.218265
0.651637 0.283787 0.260929
0.788449 0.337896 0.324163
0.885405 0.415076 0.408026
0.144656 0.242130 0.194888
0.160403 0.246525 0.194339
0.225956 0.258915 0.193210
0.367529 0.297978 0.193423
0.516472 0.324773 0.217594
0.670985 0.345525 0.262547
0.802762 0.392828 0.331731
0.894224 0.450721 0.414710
0.171145 0.391424 0.205142
0.194461 0.393378 0.205081
0.270359 0.405951 0.206638
0.393286 0.427863 0.214359
0.558831 0.448188 0.233066
0.705684 0.445197 0.265354
0.813962 0.465522 0.334783
0.899962 0.499916 0.415503
0.236545 0.543938 0.250034
0.255650 0.544518 0.250156
0.315526 0.548577 0.251591
0.417975 0.555383 0.259556
0.559777 0.555657 0.271916
0.710292 0.552850 0.301274
0.820401 0.552178 0.343786
0.908171 0.568658 0.415900
0.315038 0.656184 0.324926
0.331853 0.660822 0.328618
0.378210 0.662959 0.330022
0.458076 0.666865 0.333227
0.588434 0.666163 0.344457
0.719631 0.667445 0.361212
0.823392 0.667964 0.399390
0.915343 0.665034 0.442359
0.420050 0.766018 0.414282
0.432410 0.766690 0.415290
0.470436 0.765896 0.415381
0.538201 0.765530 0.417456
0.629053 0.763577 0.421881
0.731014 0.762509 0.433906
0.827817 0.764187 0.449409
0.917693 0.755337 0.481331
0.555291 0.846036 0.488533
0.562707 0.845914 0.488716
0.588983 0.846128 0.489815
0.633906 0.847776 0.493233
0.683284 0.845518 0.492256
0.755337 0.847837 0.502342
0.837675 0.850614 0.518486
0.933227 0.850309 0.537469
0.157015 0.189181 0.199802
0.145113 0.187381 0.199649
0.203220 0.175326 0.204349
0.337957 0.195071 0.219211
0.485084 0.236057 0.245579
0.643397 0.277287 0.286046
0.781979 0.334081 0.346319
0.879973 0.413764 0.422431
0.153017 0.180728 0.201053
0.147341 0.182284 0.200076
0.215427 0.192386 0.204349
0.344030 0.217288 0.218387
0.489143 0.257176 0.244511
0.642512 0.292424 0.284031
0.778531 0.343603 0.342260
0.877043 0.418280 0.418433
0.137575 0.245457 0.200900
0.162387 0.253483 0.206363
0.233371 0.265446 0.207889
0.370520 0.298436 0.215030
0.509667 0.325628 0.242496
0.658747 0.348058 0.284092
0.788785 0.391760 0.345586
0.884520 0.451209 0.422919
0.173556 0.391760 0.225772
0.200198 0.395758 0.228122
0.272557 0.406867 0.229526
0.386633 0.420569 0.235996
0.540368 0.438025 0.251713
0.685512 0.438025 0.283024
0.799954 0.460945 0.346563
0.890623 0.498573 0.422950
0.243687 0.543725 0.273686
0.261357 0.543755 0.273259
0.318303 0.546471 0.273838
0.414710 0.550408 0.279210
0.550713 0.549798 0.289891
0.701534 0.547997 0.317632
0.814115 0.549096 0.357671
0.902251 0.568231 0.425818
0.319677 0.652430 0.343450
0.333074 0.653254 0.343938
0.377996 0.655818 0.345342
0.456886 0.661097 0.349004
0.586175 0.662501 0.360601
0.718166 0.665888 0.377600
0.820981 0.666743 0.411414
0.911955 0.663935 0.449836
0.421302 0.760891 0.422736
0.431006 0.760220 0.422278
0.469337 0.760250 0.422950
0.537957 0.761379 0.426062
0.628687 0.760983 0.431159
0.729152 0.759884 0.441810
0.824155 0.760769 0.455177
0.913176 0.752316 0.484810
0.556909 0.843229 0.493843
0.564965 0.843534 0.494362
0.591272 0.844083 0.495827
0.635859 0.845975 0.499367
0.690547 0.848020 0.503532
0.758511 0.849027 0.511650
0.838132 0.850156 0.525200
0.932006 0.849241 0.542535
0.134737 0.189700 0.237095
0.141482 0.182406 0.237369
0.198001 0.177737 0.252781
0.332006 0.207004 0.296574
0.493446 0.254002 0.320958
0.651209 0.316808 0.367071
0.783230 0.376837 0.418524
0.879789 0.446601 0.471809
0.127108 0.196231 0.245487
0.134279 0.186587 0.249271
0.214786 0.197818 0.264256
0.344793 0.232120 0.295659
0.498726 0.284611 0.322148
0.650416 0.328161 0.364508
0.781521 0.384070 0.415198
0.878813 0.451331 0.469795
0.134524 0.250095 0.247837
0.161593 0.261631 0.256992
0.256992 0.287419 0.278141
0.382055 0.315160 0.297429
0.522515 0.346624 0.326879
0.666163 0.375555 0.365728
0.788296 0.421332 0.415412
0.882506 0.475471 0.469368
0.167727 0.399054 0.278843
0.200870 0.409461 0.287297
0.292058 0.426825 0.307652
0.409339 0.441321 0.315373
0.558099 0.447913 0.331823
0.692012 0.455329 0.367651
0.801266 0.481544 0.417395
0.890684 0.519280 0.470008
0.233158 0.548119 0.320470
0.272679 0.551568 0.340368
0.340002 0.555901 0.353857
0.432349 0.560723 0.358801
0.571588 0.559747 0.369238
0.710323 0.556207 0.388769
0.815793 0.558740 0.417517
0.901396 0.582727 0.469520
0.341802 0.656886 0.403021
0.357519 0.657893 0.405585
0.404334 0.660090 0.409552
0.479103 0.663600 0.410773
0.598535 0.664820 0.417487
0.722011 0.668421 0.429236
0.821347 0.669947 0.452155
0.913939 0.669856 0.483131
0.453620 0.762844 0.463630
0.464332 0.762478 0.463874
0.499306 0.761654 0.463783
0.560266 0.761593 0.464546
0.639979 0.761624 0.466835
0.735653 0.761746 0.475593
0.829709 0.764828 0.487922
0.918639 0.758236 0.515862
0.582025 0.842741 0.522362
0.586450 0.842496 0.521294
0.609339 0.842741 0.522057
0.651972 0.845731 0.526848
0.702052 0.847868 0.530510
0.765438 0.850065 0.538537
0.843778 0.851713 0.552728
0.935241 0.851682 0.570764
0.038849 0.196414 0.338628
0.064240 0.181338 0.342840
0.185122 0.180179 0.350011
0.321050 0.209323 0.377081
0.465278 0.284642 0.433753
0.632288 0.334447 0.456489
0.772152 0.403510 0.484901
0.872007 0.481697 0.524376
0.047456 0.220676 0.354528
0.073610 0.205875 0.357092
0.194888 0.202518 0.361700
0.334844 0.238712 0.388464
0.476051 0.306279 0.435859
0.637598 0.352361 0.456092
0.773617 0.416022 0.483589
0.872465 0.485267 0.522972
0.081910 0.305760 0.368933
0.130434 0.307012 0.376165
0.231357 0.296178 0.390326
0.370214 0.335851 0.414679
0.514580 0.376196 0.441016
0.667292 0.417090 0.460578
0.788083 0.465980 0.493599
0.880644 0.508721 0.525414
0.163821 0.402197 0.369299
0.199619 0.409888 0.377874
0.302739 0.435309 0.407507
0.433387 0.461646 0.434577
0.562463 0.469184 0.446479
0.690089 0.483528 0.465095
0.797116 0.508141 0.490913
0.887938 0.545556 0.524315
0.249302 0.547570 0.408331
0.275090 0.550744 0.414679
0.357519 0.562554 0.438331
0.467231 0.572473 0.459937
0.601160 0.573541 0.466194
0.721920 0.569268 0.471870
0.815305 0.578393 0.492012
0.900420 0.603357 0.524529
0.340429 0.659266 0.448981
0.365362 0.664668 0.456977
0.442420 0.671046 0.478187
0.528008 0.674464 0.486732
0.628016 0.676844 0.488655
0.736904 0.679652 0.494362
0.827024 0.678004 0.507073
0.917205 0.678218 0.530236
0.451667 0.764279 0.492256
0.469978 0.765347 0.496407
0.547295 0.765255 0.519158
0.598322 0.766323 0.519127
0.664515 0.767483 0.520256
0.748714 0.768002 0.526635
0.837369 0.770291 0.537224
0.922728 0.764523 0.561425
0.605615 0.844236 0.558434
0.621515 0.844114 0.565576
0.651911 0.844236 0.575433
0.677607 0.846220 0.572717
0.721065 0.848722 0.575952
0.776242 0.851926 0.582422
0.852323 0.853910 0.596033
0.939055 0.854917 0.613184
0.000000 0.221897 0.468574
0.000000 0.205142 0.470924
0.128359 0.198795 0.474250
0.295720 0.215183 0.476905
0.459876 0.276402 0.500816
0.609949 0.371008 0.532982
0.756954 0.430396 0.557336
0.862882 0.495033 0.584466
0.000000 0.253056 0.476204
0.000000 0.238804 0.478553
0.140169 0.224186 0.481147
0.306004 0.242588 0.482826
0.470253 0.301091 0.504875
0.617609 0.388220 0.534295
0.760433 0.442542 0.557763
0.864500 0.503685 0.584558
0.040284 0.349065 0.488472
0.132235 0.350134 0.491951
0.189212 0.315007 0.496315
0.339971 0.329473 0.497871
0.505608 0.377691 0.516960
0.639460 0.438544 0.536584
0.770382 0.477577 0.556939
0.868956 0.531487 0.583703
0.121828 0.452918 0.493660
0.169558 0.454749 0.496590
0.282811 0.461341 0.507225
0.411902 0.463111 0.518242
0.552178 0.494911 0.530236
0.683589 0.508568 0.542107
0.791104 0.535393 0.557488
0.879881 0.583734 0.588098
0.243320 0.542748 0.484382
0.273289 0.546746 0.488808
0.365087 0.557702 0.503136
0.499245 0.574670 0.528099
0.625177 0.581933 0.539696
0.723232 0.580407 0.543359
0.809140 0.596246 0.558129
0.893889 0.626520 0.586023
0.361273 0.649195 0.505028
0.381262 0.651759 0.508995
0.445167 0.659205 0.521050
0.547631 0.673091 0.540673
0.643061 0.680446 0.550713
0.747555 0.687251 0.559716
0.830625 0.684382 0.568017
0.914855 0.691279 0.592981
0.472236 0.758938 0.537072
0.488167 0.759365 0.539971
0.542321 0.761471 0.551202
0.627680 0.765713 0.575433
0.687953 0.768612 0.581781
0.758480 0.771542 0.586694
0.842954 0.774380 0.596796
0.924559 0.769924 0.614496
0.606592 0.840116 0.587121
0.617151 0.840269 0.590570
0.651362 0.841398 0.602899
0.714229 0.845518 0.633997
0.740993 0.848966 0.629725
0.788083 0.853117 0.633661
0.860410 0.855436 0.644343
0.941253 0.857267 0.658442
0.000000 0.265629 0.567132
0.000000 0.251987 0.568017
0.000000 0.234409 0.568627
0.271641 0.251225 0.570428
0.427131 0.286961 0.567529
0.614252 0.349340 0.585138
0.744808 0.456764 0.625422
0.850858 0.523186 0.655634
0.000000 0.294652 0.567437
0.000000 0.282780 0.568048
0.000000 0.258030 0.569696
0.278691 0.274296 0.570611
0.433173 0.307378 0.567803
0.619440 0.367681 0.586114
0.745693 0.467933 0.625696
0.851835 0.530388 0.655329
0.088838 0.389227 0.575952
0.112276 0.381018 0.576318
0.169619 0.350713 0.578302
0.312993 0.351934 0.579217
0.466896 0.377966 0.576379
0.645441 0.430945 0.595209
0.756008 0.503990 0.629877
0.858305 0.559747 0.656855
0.155154 0.482429 0.580011
0.195010 0.482856 0.581201
0.306950 0.491096 0.587060
0.382574 0.469642 0.594476
0.536187 0.485023 0.594385
0.685756 0.514946 0.612665
0.778561 0.561089 0.637232
0.871458 0.610346 0.661067
0.238529 0.582361 0.580835
0.267124 0.583581 0.582757
0.353765 0.587213 0.589593
0.478737 0.590417 0.602472
0.607691 0.582269 0.614618
0.715755 0.608820 0.626673
0.801053 0.630701 0.640436
0.887388 0.665034 0.662165
0.359045 0.652094 0.568231
0.382086 0.655329 0.571893
0.453010 0.662867 0.581903
0.563592 0.674525 0.599756
0.678737 0.690852 0.627008
0.762631 0.701076 0.641505
0.831174 0.700954 0.646937
0.910674 0.713985 0.666041
0.506249 0.755581 0.592798
0.522728 0.756771 0.596246
0.572168 0.759152 0.606531
0.643549 0.764096 0.625086
0.718349 0.772946 0.650202
0.776242 0.780331 0.660945
0.855100 0.784482 0.669459
0.931151 0.782010 0.678157
0.627100 0.837308 0.633021
0.636255 0.837552 0.635706
0.666621 0.838956 0.645533
0.712856 0.843412 0.662837
0.765255 0.850156 0.684321
0.808621 0.855192 0.691066
0.872984 0.859159 0.698177
0.945586 0.862242 0.709682
0.000000 0.322057 0.664454
0.000000 0.312749 0.665980
0.000000 0.284794 0.666743
0.240269 0.300359 0.666255
0.411658 0.321172 0.664912
0.586725 0.358404 0.657282
0.740261 0.430579 0.673732
0.842832 0.531334 0.712001
0.000000 0.344762 0.661372
0.000000 0.336461 0.662776
0.000000 0.303105 0.664179
0.246128 0.317021 0.663233
0.413886 0.335821 0.661707
0.585779 0.370214 0.653803
0.737484 0.437140 0.670253
0.838590 0.533379 0.708309
0.000000 0.425483 0.667109
0.069856 0.418524 0.667323
0.146059 0.392676 0.667872
0.281163 0.381079 0.668055
0.442359 0.396582 0.665766
0.609766 0.426184 0.659144
0.751949 0.479194 0.677790
0.846128 0.572076 0.713558
0.214725 0.524132 0.671717
0.245518 0.524559 0.671748
0.314214 0.519768 0.672969
0.358465 0.487251 0.675746
0.497749 0.487984 0.674861
0.649012 0.502678 0.671534
0.774777 0.544701 0.690394
0.855680 0.629603 0.720180
0.257145 0.602747 0.669581
0.280003 0.601862 0.669734
0.351873 0.599756 0.672023
0.471290 0.598596 0.678218
0.551049 0.571527 0.683558
0.685145 0.582177 0.682521
0.792325 0.624567 0.698177
0.872862 0.681361 0.724147
0.349126 0.698878 0.670863
0.368841 0.698970 0.671901
0.432685 0.698878 0.675654
0.532677 0.698177 0.682887
0.645045 0.697108 0.693233
0.740230 0.695644 0.705165
0.821317 0.720699 0.716030
0.902434 0.739498 0.733150
0.484443 0.759518 0.657130
0.502037 0.760372 0.659449
0.555657 0.761715 0.665919
0.633570 0.764858 0.678035
0.716060 0.770748 0.695064
0.796689 0.784298 0.719387
0.868467 0.794583 0.733425
0.931365 0.795834 0.738857
0.644739 0.832120 0.679164
0.653315 0.832792 0.681453
0.683497 0.836271 0.690730
0.724849 0.841154 0.704036
0.774594 0.848234 0.721248
0.834958 0.857542 0.742275
0.890196 0.864439 0.752987
0.950408 0.869200 0.762325
0.000000 0.384375 0.752377
0.000000 0.378027 0.752987
0.000000 0.351781 0.752834
0.213443 0.357610 0.752193
0.397406 0.375311 0.750332
0.571801 0.394446 0.747768
0.715145 0.442939 0.740414
0.831083 0.506340 0.751736
0.000000 0.403143 0.750637
0.000000 0.397192 0.751247
0.000000 0.372839 0.751522
0.222324 0.371252 0.750759
0.402228 0.388159 0.749020
0.574365 0.406012 0.746578
0.715358 0.450385 0.739040
0.830808 0.511894 0.750759
0.031403 0.467536 0.749477
0.084169 0.462409 0.749813
0.149538 0.441321 0.749538
0.260044 0.422675 0.751675
0.427985 0.436683 0.749508
0.590265 0.448859 0.746700
0.723507 0.482033 0.740444
0.837308 0.541436 0.752804
0.274723 0.559350 0.749416
0.285100 0.556390 0.749935
0.308446 0.541436 0.750118
0.351019 0.514763 0.751858
0.468849 0.504753 0.751797
0.617182 0.510063 0.750179
0.740444 0.535515 0.745724
0.851377 0.596216 0.758236
0.284855 0.620417 0.748745
0.308751 0.620935 0.749386
0.377661 0.619654 0.749966
0.481361 0.616297 0.751888
0.524376 0.580468 0.754147
0.646601 0.580499 0.753750
0.761471 0.608637 0.751949
0.872862 0.665888 0.766537
0.366033 0.709895 0.747616
0.380438 0.708644 0.747646
0.429145 0.704646 0.748379
0.509758 0.698054 0.750820
0.618952 0.694362 0.755062
0.693294 0.678676 0.761959
0.798276 0.702571 0.765988
0.902129 0.736294 0.779446
0.487343 0.796201 0.752682
0.499825 0.795468 0.752987
0.541588 0.793332 0.754360
0.608789 0.791043 0.758053
0.687312 0.789883 0.763973
0.767086 0.791196 0.772976
0.843503 0.787198 0.781979
0.924926 0.811032 0.791104
0.623041 0.850217 0.741665
0.631189 0.849851 0.742336
0.659663 0.849424 0.745357
0.705898 0.850034 0.751736
0.762600 0.853483 0.762051
0.830625 0.858549 0.776059
0.907042 0.866636 0.795773
0.954070 0.877379 0.813596
