其他预设/【232】美食博客调色预设124款/1.3D LUT预设（视频调色-PR-AE-PS-FCPX-达芬奇用）/Food Art #29.cube
# Created by Adobe Lightroom plugin Export LUT (1.17.0)
# www.johnrellis.com/lightroom/exportlut.htm
# Preset: Food Art #29
# Color profile: /Library/Application Support/Adobe/Color/Profiles/Recommended/AdobeRGB1998.icc
LUT_3D_SIZE 8
DOMAIN_MIN 0.000000 0.000000 0.000000
DOMAIN_MAX 0.903226 0.903226 0.903226
0.098024 0.075105 0.025086
0.172549 0.057282 0.020752
0.313237 0.037751 0.000000
0.464210 0.008789 0.000000
0.616571 0.030243 0.000000
0.775540 0.092378 0.000000
0.915679 0.158236 0.034516
1.000000 0.238224 0.135348
0.102419 0.149172 0.005432
0.184421 0.149599 0.000153
0.318273 0.142153 0.000000
0.464790 0.140139 0.000000
0.615167 0.146670 0.000000
0.771054 0.167666 0.000000
0.911070 0.208316 0.034791
1.000000 0.270024 0.136965
0.151339 0.282109 0.000000
0.210971 0.282689 0.000000
0.340795 0.284428 0.000000
0.480720 0.284337 0.000000
0.627253 0.290898 0.000000
0.780331 0.307012 0.000000
0.918700 0.332433 0.074037
1.000000 0.368566 0.158724
0.212100 0.427955 0.000000
0.255985 0.427802 0.000000
0.367132 0.429664 0.000000
0.509819 0.441627 0.000000
0.655177 0.450904 0.000000
0.796628 0.460487 0.013764
0.921935 0.471778 0.108339
1.000000 0.489357 0.189212
0.274632 0.586114 0.000000
0.308904 0.586358 0.000000
0.405646 0.588800 0.000000
0.533165 0.595666 0.000000
0.669581 0.603449 0.039857
0.802914 0.609216 0.090150
0.921508 0.612268 0.150454
1.000000 0.618280 0.233188
0.335790 0.744900 0.022675
0.365148 0.748196 0.042634
0.447089 0.748653 0.066865
0.560021 0.750454 0.090486
0.684230 0.752895 0.120607
0.811368 0.757717 0.156588
0.925689 0.755917 0.211429
1.000000 0.749142 0.296330
0.413153 0.880766 0.170413
0.433722 0.881163 0.174197
0.496559 0.879759 0.182071
0.589624 0.878721 0.198764
0.696284 0.877317 0.222599
0.807767 0.877317 0.255924
0.916899 0.878416 0.298161
1.000000 0.870298 0.371038
0.520439 0.977783 0.318242
0.533349 0.977325 0.320592
0.576928 0.976104 0.330022
0.646418 0.974578 0.348638
0.725948 0.969635 0.366644
0.816800 0.967254 0.404028
0.906310 0.965209 0.453285
0.987121 0.963043 0.508385
0.098390 0.074159 0.082429
0.178897 0.055299 0.083558
0.314519 0.068757 0.083406
0.463233 0.071260 0.085451
0.613581 0.079438 0.086397
0.767758 0.107668 0.094087
0.908141 0.163729 0.119966
1.000000 0.241855 0.173556
0.117586 0.147097 0.083040
0.191836 0.148623 0.083864
0.321630 0.149508 0.084535
0.466224 0.150881 0.084749
0.614527 0.156924 0.086152
0.766751 0.174807 0.094362
0.905089 0.211307 0.120089
1.000000 0.272007 0.173831
0.166445 0.279423 0.079072
0.222934 0.280308 0.082338
0.343023 0.282719 0.083925
0.479957 0.285222 0.084749
0.624384 0.292302 0.089052
0.773587 0.306554 0.100191
0.909545 0.329656 0.131350
1.000000 0.367651 0.190890
0.222293 0.423804 0.078431
0.264622 0.424353 0.081544
0.371038 0.427344 0.085634
0.504356 0.434211 0.093782
0.643427 0.441535 0.101747
0.784268 0.452155 0.115114
0.912383 0.465766 0.151553
1.000000 0.486824 0.215427
0.281193 0.583490 0.090791
0.313725 0.583215 0.092103
0.407019 0.584497 0.096986
0.529747 0.588647 0.107240
0.662531 0.594995 0.122194
0.796445 0.602991 0.143771
0.916716 0.608698 0.186801
1.000000 0.616815 0.257389
0.338231 0.740352 0.122225
0.365270 0.740658 0.124636
0.445686 0.741573 0.131533
0.557763 0.744533 0.145296
0.681941 0.748623 0.166537
0.809537 0.755154 0.195499
0.923339 0.753841 0.241581
1.000000 0.747982 0.317235
0.413825 0.875853 0.203189
0.433021 0.875090 0.204410
0.495583 0.874418 0.212314
0.588891 0.874662 0.227604
0.695766 0.874418 0.250217
0.806332 0.874510 0.280064
0.914305 0.875151 0.317601
1.000000 0.867552 0.385321
0.523125 0.975433 0.336980
0.536431 0.975250 0.340093
0.579706 0.974212 0.349248
0.648737 0.972900 0.367895
0.731472 0.970397 0.393042
0.819547 0.967285 0.425910
0.906645 0.964446 0.469551
0.986236 0.962127 0.520348
0.138216 0.060792 0.175601
0.198032 0.060090 0.177707
0.327703 0.070924 0.184543
0.471809 0.077363 0.193576
0.620264 0.090364 0.203647
0.775448 0.114870 0.217472
0.912200 0.178531 0.238682
1.000000 0.265904 0.276707
0.160891 0.147829 0.180484
0.214298 0.149355 0.182498
0.334142 0.151675 0.187320
0.474434 0.155276 0.195193
0.621698 0.162051 0.204959
0.774136 0.178958 0.217807
0.910063 0.222538 0.238865
1.000000 0.293919 0.277775
0.195407 0.279149 0.190066
0.242435 0.280247 0.191623
0.353399 0.282902 0.195651
0.487678 0.287236 0.201938
0.633295 0.296300 0.212131
0.780179 0.310033 0.224582
0.911772 0.336126 0.247105
1.000000 0.381292 0.288334
0.242283 0.424231 0.202060
0.280858 0.425269 0.203799
0.381933 0.429236 0.208377
0.511376 0.435889 0.216464
0.650080 0.444465 0.225315
0.789853 0.455695 0.238315
0.915190 0.471962 0.263706
1.000000 0.498177 0.310307
0.293187 0.582086 0.220737
0.324865 0.583062 0.222141
0.415015 0.585657 0.225772
0.536034 0.590753 0.233249
0.668055 0.597833 0.243748
0.799496 0.605097 0.258732
0.917082 0.611994 0.289586
1.000000 0.624414 0.343511
0.347051 0.739528 0.244846
0.373907 0.739986 0.246891
0.452949 0.740597 0.251621
0.561608 0.742550 0.260441
0.683131 0.746059 0.273899
0.808469 0.752468 0.294865
0.920806 0.753079 0.331548
1.000000 0.752773 0.395514
0.426001 0.875731 0.299321
0.447089 0.875059 0.302647
0.508293 0.873594 0.309972
0.597131 0.872892 0.320592
0.700587 0.872496 0.337346
0.808927 0.873320 0.362707
0.915129 0.875731 0.396826
1.000000 0.870573 0.459174
0.541100 0.973388 0.406836
0.556115 0.972503 0.412177
0.596185 0.971252 0.419287
0.663020 0.970520 0.437446
0.741573 0.968170 0.458991
0.826200 0.965698 0.489174
0.909514 0.963622 0.526940
0.985809 0.962158 0.571252
0.182315 0.059846 0.300420
0.230320 0.063539 0.303197
0.344671 0.067811 0.310033
0.480110 0.078767 0.319310
0.625177 0.091646 0.333959
0.775357 0.115328 0.350805
0.908843 0.180240 0.366491
1.000000 0.283726 0.393988
0.198611 0.149203 0.307866
0.242008 0.149508 0.309636
0.351354 0.150637 0.314153
0.484382 0.155520 0.322698
0.628229 0.163790 0.336492
0.775692 0.178897 0.351843
0.908049 0.225406 0.367346
1.000000 0.313787 0.396979
0.224765 0.279545 0.317327
0.264225 0.280308 0.318822
0.366918 0.282414 0.323735
0.496315 0.287297 0.331701
0.638514 0.295872 0.344762
0.784390 0.310307 0.360052
0.913848 0.346441 0.380865
1.000000 0.404822 0.412573
0.265080 0.424811 0.334142
0.298833 0.425727 0.335546
0.393072 0.428809 0.340154
0.517296 0.434638 0.348119
0.652491 0.442390 0.357855
0.790524 0.454902 0.370947
0.913237 0.477424 0.392645
1.000000 0.515007 0.429908
0.310124 0.582666 0.357458
0.339086 0.582696 0.357855
0.424018 0.584894 0.361120
0.542229 0.591119 0.368872
0.672389 0.598718 0.378790
0.801907 0.607172 0.392767
0.916228 0.618097 0.417762
1.000000 0.637934 0.460090
0.360418 0.740810 0.381537
0.387091 0.743282 0.384283
0.463325 0.743038 0.387671
0.571374 0.744717 0.396490
0.690089 0.748135 0.407935
0.810849 0.753414 0.424201
0.918608 0.755489 0.453834
1.000000 0.761563 0.505272
0.435340 0.874388 0.415259
0.456550 0.874357 0.418189
0.522271 0.873655 0.428901
0.615229 0.872770 0.446357
0.713100 0.872679 0.460395
0.815305 0.873381 0.480415
0.914946 0.875578 0.507164
0.996155 0.872984 0.556207
0.551873 0.972839 0.491890
0.567956 0.972198 0.497261
0.618860 0.969635 0.515557
0.685786 0.967102 0.536553
0.757107 0.965209 0.552758
0.835019 0.963439 0.575494
0.912749 0.962280 0.605219
0.984527 0.961883 0.641047
0.221592 0.060090 0.449134
0.260868 0.060273 0.451453
0.364172 0.061128 0.456428
0.492653 0.069795 0.465003
0.631373 0.093568 0.478553
0.776883 0.118746 0.497322
0.907073 0.185702 0.507652
1.000000 0.290440 0.519219
0.230381 0.147433 0.454749
0.268467 0.147921 0.456825
0.369085 0.147921 0.460975
0.495827 0.151980 0.468116
0.633783 0.164614 0.480903
0.778470 0.181613 0.498939
0.907500 0.231205 0.509148
1.000000 0.320928 0.521782
0.249638 0.280644 0.465248
0.284825 0.280949 0.466865
0.381323 0.282017 0.470130
0.506279 0.286320 0.477852
0.640589 0.295109 0.487556
0.780972 0.307713 0.502678
0.907195 0.342138 0.513725
1.000000 0.407446 0.530205
0.282414 0.425452 0.479683
0.313237 0.426062 0.480903
0.402686 0.428321 0.485603
0.522850 0.433082 0.492988
0.654170 0.440986 0.501884
0.789242 0.453468 0.513970
0.908629 0.480751 0.527489
1.000000 0.530449 0.553399
0.323644 0.579034 0.500420
0.350805 0.579889 0.501640
0.431800 0.582086 0.504936
0.544549 0.586694 0.511284
0.670192 0.593225 0.519188
0.796963 0.603876 0.530663
0.909056 0.621912 0.549493
0.997345 0.650538 0.579309
0.369055 0.734157 0.521691
0.392706 0.734371 0.522362
0.465064 0.734432 0.524071
0.569665 0.736263 0.529351
0.688258 0.739742 0.540337
0.807065 0.748501 0.556359
0.912596 0.756344 0.579950
0.994293 0.768582 0.614557
0.444221 0.870848 0.544610
0.463661 0.870298 0.545892
0.525994 0.869108 0.551171
0.619623 0.867948 0.564294
0.721004 0.867765 0.582391
0.817594 0.869780 0.597192
0.911955 0.872984 0.615717
0.989441 0.873136 0.650965
0.557458 0.969116 0.589441
0.572290 0.968383 0.592615
0.620386 0.966064 0.604273
0.693324 0.964202 0.626459
0.768460 0.961517 0.647364
0.840940 0.960418 0.663905
0.913909 0.960021 0.685939
0.981811 0.960510 0.712642
0.250095 0.032959 0.624598
0.286076 0.030549 0.625818
0.382757 0.026001 0.628260
0.507652 0.042329 0.635309
0.641962 0.080964 0.644221
0.777401 0.124849 0.653895
0.903807 0.195621 0.658320
1.000000 0.301823 0.655055
0.254398 0.142885 0.625147
0.289067 0.142367 0.625940
0.384588 0.142123 0.628840
0.508690 0.145632 0.635401
0.641962 0.158450 0.643824
0.777218 0.184512 0.653590
0.903319 0.237491 0.658320
1.000000 0.329931 0.656062
0.265171 0.280278 0.635676
0.298833 0.280430 0.636225
0.393469 0.281468 0.638911
0.516075 0.285344 0.644007
0.647761 0.294041 0.650568
0.781491 0.310887 0.659083
0.904295 0.347723 0.662348
0.999817 0.416968 0.662562
0.293462 0.429572 0.647517
0.323064 0.429297 0.647669
0.409461 0.429969 0.650629
0.529503 0.435096 0.657099
0.659724 0.443854 0.663783
0.790372 0.457862 0.671077
0.906462 0.486976 0.672663
0.996582 0.538231 0.677760
0.332464 0.579980 0.658412
0.358618 0.580407 0.659266
0.437263 0.582300 0.661616
0.547753 0.586175 0.666102
0.670680 0.592889 0.670924
0.794827 0.604639 0.677729
0.904326 0.625666 0.683192
0.990295 0.659998 0.696345
0.380468 0.731167 0.673274
0.403632 0.732235 0.674647
0.473884 0.733639 0.676875
0.575769 0.736080 0.680140
0.690486 0.739681 0.684535
0.804898 0.747341 0.693080
0.905730 0.759609 0.706050
0.985779 0.777737 0.725734
0.455482 0.869322 0.686885
0.475044 0.869474 0.688106
0.535332 0.868467 0.690455
0.625147 0.867094 0.696010
0.723537 0.866514 0.704250
0.821256 0.867765 0.718257
0.909300 0.872465 0.730770
0.982910 0.877043 0.753628
0.569116 0.966552 0.704250
0.582910 0.965850 0.705959
0.627314 0.963806 0.711910
0.693599 0.961578 0.722683
0.770352 0.958984 0.738186
0.847013 0.957244 0.757778
0.915190 0.958068 0.773465
0.978637 0.959686 0.792325
0.264134 0.011261 0.789303
0.296971 0.014862 0.790555
0.388495 0.022004 0.792142
0.507805 0.058808 0.795254
0.636072 0.097169 0.798856
0.765408 0.146700 0.803159
0.891936 0.206149 0.808377
0.992187 0.308537 0.794095
0.266300 0.138369 0.788479
0.298894 0.138796 0.789456
0.389593 0.140047 0.791073
0.507988 0.147127 0.793729
0.635584 0.164950 0.797024
0.764218 0.196231 0.801114
0.890105 0.242252 0.806027
0.990326 0.330816 0.792233
0.275669 0.277256 0.794095
0.307256 0.277562 0.794369
0.396307 0.279149 0.795163
0.513359 0.284489 0.797269
0.639490 0.295659 0.799832
0.767056 0.316258 0.803830
0.891936 0.349615 0.809323
0.989776 0.419196 0.796750
0.302220 0.424140 0.800473
0.329717 0.423804 0.800290
0.411749 0.424933 0.800687
0.525383 0.430579 0.802823
0.648737 0.440497 0.805264
0.773556 0.457984 0.809201
0.894469 0.484993 0.814542
0.987213 0.537682 0.803616
0.345892 0.571862 0.804776
0.369451 0.571954 0.804593
0.442420 0.573297 0.804776
0.546380 0.577813 0.806027
0.663203 0.587030 0.807980
0.781216 0.601801 0.811521
0.894163 0.622400 0.816648
0.982361 0.659846 0.812314
0.401343 0.717281 0.812161
0.421790 0.717739 0.812406
0.486671 0.719692 0.813107
0.582177 0.724117 0.814542
0.690913 0.731960 0.816251
0.798947 0.744472 0.819669
0.898009 0.757839 0.825681
0.977661 0.779232 0.827939
0.470008 0.856413 0.823148
0.487861 0.856779 0.823636
0.544457 0.857359 0.824460
0.627649 0.858610 0.826078
0.721706 0.860349 0.827939
0.816800 0.863737 0.831479
0.903532 0.869932 0.837858
0.974426 0.880125 0.848905
0.575250 0.962524 0.824399
0.588251 0.962066 0.824949
0.631922 0.961273 0.828000
0.695155 0.959411 0.831937
0.769924 0.957153 0.838071
0.846220 0.955627 0.847440
0.916167 0.955840 0.861051
0.974578 0.958923 0.872801
0.268620 0.059510 0.924132
0.298589 0.062684 0.924468
0.383154 0.074800 0.924529
0.495674 0.100679 0.925475
0.617243 0.139712 0.926574
0.740200 0.189975 0.927825
0.860288 0.252506 0.929534
0.973327 0.324376 0.930907
0.271580 0.143740 0.923552
0.301366 0.144991 0.923919
0.385260 0.150393 0.924163
0.496742 0.164370 0.924865
0.617884 0.190097 0.925933
0.740505 0.228885 0.927123
0.860044 0.282231 0.928618
0.972564 0.347387 0.930022
0.283177 0.274327 0.924010
0.311254 0.275578 0.924163
0.392584 0.279026 0.923980
0.502922 0.289036 0.925444
0.622492 0.305699 0.926116
0.743343 0.332341 0.926787
0.861173 0.372259 0.928191
0.971588 0.425299 0.929747
0.310002 0.413458 0.925017
0.336034 0.414710 0.925292
0.411841 0.418067 0.925170
0.517021 0.426337 0.925841
0.633051 0.440497 0.926574
0.750607 0.462135 0.927306
0.864652 0.494331 0.928527
0.970306 0.537377 0.930144
0.364141 0.558587 0.925963
0.385595 0.559564 0.926146
0.449958 0.562310 0.925780
0.543542 0.568048 0.925475
0.652338 0.580591 0.925780
0.763363 0.599542 0.926360
0.870298 0.625544 0.927916
0.968414 0.658656 0.930602
0.431800 0.699306 0.927642
0.448524 0.699886 0.927398
0.503197 0.702388 0.926787
0.587060 0.708431 0.926146
0.686397 0.719905 0.925628
0.787137 0.736721 0.926787
0.881682 0.756283 0.929839
0.967590 0.779446 0.933776
0.514397 0.831876 0.931121
0.528496 0.832425 0.930938
0.573571 0.834226 0.930602
0.643397 0.838071 0.930480
0.727535 0.844572 0.930541
0.814939 0.854276 0.931090
0.896666 0.867582 0.933379
0.966796 0.879576 0.937224
0.605402 0.947387 0.936858
0.615564 0.947387 0.936797
0.649866 0.947448 0.936858
0.705837 0.948058 0.937346
0.773617 0.949065 0.938140
0.844785 0.950683 0.939483
0.912474 0.953399 0.941863
0.969635 0.957763 0.946227
