其他预设/【232】美食博客调色预设124款/1.3D LUT预设（视频调色-PR-AE-PS-FCPX-达芬奇用）/Food Art #66.cube
# Created by Adobe Lightroom plugin Export LUT (1.17.0)
# www.johnrellis.com/lightroom/exportlut.htm
# Preset: Food Art #66
# Color profile: /Library/Application Support/Adobe/Color/Profiles/Recommended/AdobeRGB1998.icc
LUT_3D_SIZE 5
DOMAIN_MIN 0.000000 0.000000 0.000000
DOMAIN_MAX 0.903226 0.903226 0.903226
0.000000 0.000000 0.000000
0.006409 0.146120 0.118532
0.226169 0.289433 0.228275
0.475410 0.407019 0.311467
0.778408 0.538445 0.429938
0.000000 0.255009 0.169528
0.073304 0.296849 0.206516
0.267857 0.362768 0.264775
0.509056 0.445960 0.329351
0.796078 0.575341 0.454566
0.205295 0.462562 0.298070
0.262608 0.473823 0.307652
0.427863 0.514885 0.342687
0.616541 0.562402 0.394720
0.834836 0.673243 0.526268
0.484474 0.651942 0.415595
0.517693 0.658930 0.425391
0.616541 0.680781 0.458778
0.745083 0.716640 0.518059
0.889311 0.795529 0.637995
0.779599 0.847898 0.638636
0.792599 0.851225 0.646418
0.831083 0.861051 0.670253
0.892332 0.885405 0.721157
0.952667 0.918242 0.788449
0.000000 0.073976 0.136416
0.000000 0.169863 0.190066
0.236881 0.317357 0.269688
0.482094 0.420325 0.333623
0.774960 0.543084 0.445533
0.000000 0.263798 0.223087
0.078798 0.306859 0.250065
0.281407 0.378943 0.293889
0.513848 0.454841 0.349035
0.789700 0.576013 0.466255
0.219120 0.464393 0.315221
0.278569 0.477028 0.326390
0.424750 0.511833 0.356207
0.613519 0.562860 0.409339
0.833829 0.675105 0.538231
0.493263 0.652369 0.430945
0.527764 0.659693 0.441871
0.621729 0.680934 0.473548
0.745480 0.716304 0.529656
0.889433 0.796323 0.646448
0.780880 0.847623 0.646235
0.793637 0.850950 0.653712
0.835538 0.864103 0.681666
0.894133 0.887083 0.729244
0.953552 0.919554 0.794705
0.000000 0.149508 0.266514
0.000000 0.212680 0.284001
0.254246 0.332921 0.322698
0.502159 0.430915 0.380499
0.782834 0.552697 0.493172
0.000000 0.297856 0.300114
0.112245 0.326970 0.310826
0.305364 0.393072 0.342535
0.535302 0.467262 0.398291
0.795773 0.583215 0.510460
0.249821 0.471473 0.361425
0.303899 0.484108 0.371618
0.452644 0.523430 0.406928
0.631434 0.575158 0.460273
0.836118 0.676722 0.571252
0.506432 0.653162 0.472389
0.538170 0.659022 0.481422
0.633967 0.682704 0.514824
0.751369 0.719295 0.566064
0.891142 0.797696 0.670466
0.781460 0.846372 0.668971
0.794400 0.850370 0.676448
0.833188 0.863462 0.699397
0.892302 0.886473 0.743923
0.952880 0.919341 0.806485
0.000000 0.235752 0.362310
0.098817 0.275822 0.370825
0.305425 0.362188 0.401312
0.532280 0.443488 0.457862
0.798367 0.568322 0.573602
0.108614 0.341833 0.382055
0.183932 0.360876 0.390051
0.350469 0.412696 0.419898
0.560754 0.478004 0.474220
0.807187 0.594873 0.585077
0.301366 0.489357 0.441230
0.347539 0.499886 0.450843
0.475837 0.530419 0.480354
0.645136 0.580041 0.528740
0.839872 0.673671 0.626032
0.537346 0.661799 0.546777
0.564874 0.667292 0.553246
0.647181 0.687617 0.577844
0.763272 0.726864 0.625238
0.892821 0.791318 0.704219
0.787167 0.848478 0.714900
0.798337 0.851926 0.720363
0.833494 0.864805 0.739284
0.887968 0.887846 0.772549
0.953948 0.922148 0.832944
0.171786 0.326513 0.550286
0.248539 0.349798 0.558526
0.428077 0.409491 0.586908
0.639857 0.489723 0.633082
0.823941 0.597864 0.691493
0.225437 0.391455 0.565484
0.290043 0.406073 0.573083
0.456184 0.450446 0.599664
0.657343 0.522728 0.642878
0.831601 0.621912 0.699794
0.372076 0.526482 0.612482
0.401526 0.527367 0.614954
0.535576 0.556237 0.635798
0.706874 0.613397 0.674220
0.856962 0.692164 0.729335
0.629664 0.714382 0.699153
0.644831 0.716091 0.701350
0.690120 0.719966 0.708583
0.777035 0.736446 0.729793
0.899962 0.798581 0.788144
0.813748 0.868925 0.803922
0.821103 0.870939 0.806790
0.847044 0.879088 0.818326
0.891875 0.895811 0.841978
0.956359 0.929351 0.890105
