其他预设/【232】美食博客调色预设124款/1.3D LUT预设（视频调色-PR-AE-PS-FCPX-达芬奇用）/Food Art #22.cube
# Created by Adobe Lightroom plugin Export LUT (1.17.0)
# www.johnrellis.com/lightroom/exportlut.htm
# Preset: Food Art #22
# Color profile: /Library/Application Support/Adobe/Color/Profiles/Recommended/AdobeRGB1998.icc
LUT_3D_SIZE 32
0.295903 0.199130 0.079316
0.299626 0.199374 0.079744
0.304784 0.199588 0.079988
0.315984 0.200351 0.080842
0.331853 0.201511 0.082124
0.348180 0.202579 0.083497
0.365423 0.203525 0.084657
0.383764 0.205051 0.086427
0.403357 0.206760 0.088655
0.424537 0.208591 0.090852
0.447883 0.210361 0.093538
0.473487 0.212650 0.096101
0.501488 0.215000 0.099306
0.532158 0.217594 0.102480
0.564843 0.220768 0.106020
0.599115 0.224216 0.109468
0.634455 0.228275 0.113680
0.670527 0.233310 0.117861
0.706813 0.239261 0.122530
0.748257 0.247623 0.129122
0.787900 0.257969 0.137118
0.824857 0.269718 0.146700
0.857755 0.283299 0.158572
0.886748 0.298558 0.172854
0.912840 0.315435 0.189578
0.936584 0.334447 0.209110
0.958495 0.356298 0.232334
0.978698 0.381445 0.259556
0.997253 0.410346 0.291539
1.000000 0.443946 0.329168
1.000000 0.483284 0.374029
1.000000 0.528801 0.426520
0.297612 0.203128 0.079713
0.301274 0.203494 0.080110
0.306432 0.203677 0.080354
0.317662 0.204623 0.081453
0.333165 0.205600 0.082460
0.349279 0.206271 0.083680
0.366339 0.206973 0.085176
0.384283 0.208286 0.086763
0.403754 0.209781 0.089052
0.424933 0.211368 0.091279
0.448035 0.213291 0.093660
0.473426 0.215213 0.096590
0.501274 0.217716 0.099519
0.531762 0.220462 0.102937
0.564233 0.223423 0.106294
0.598230 0.227054 0.109957
0.633356 0.231113 0.113985
0.669245 0.236027 0.118044
0.705440 0.241917 0.122927
0.746517 0.250187 0.129213
0.785733 0.260319 0.136843
0.822385 0.271977 0.146334
0.855406 0.285069 0.157900
0.884611 0.299718 0.172061
0.910857 0.316411 0.188266
0.934813 0.335302 0.207858
0.956939 0.356695 0.230625
0.977356 0.381506 0.258030
0.996124 0.410163 0.289586
1.000000 0.443610 0.327550
1.000000 0.482399 0.371832
1.000000 0.527672 0.424292
0.299840 0.208530 0.080293
0.303593 0.208743 0.080690
0.308415 0.209018 0.081239
0.319768 0.210178 0.082246
0.335058 0.210849 0.083040
0.350958 0.211093 0.084382
0.367651 0.211551 0.085634
0.385229 0.212497 0.087617
0.404639 0.213748 0.089357
0.425544 0.215274 0.091920
0.448615 0.216922 0.094301
0.473915 0.219150 0.096925
0.501610 0.221347 0.099916
0.532036 0.224277 0.103273
0.564324 0.227420 0.106813
0.598260 0.230747 0.110323
0.633265 0.235172 0.114260
0.669032 0.239963 0.118532
0.705257 0.245731 0.123201
0.746151 0.254154 0.129488
0.785000 0.263981 0.137179
0.821469 0.275395 0.146731
0.854459 0.288457 0.158083
0.883665 0.302892 0.171969
0.909941 0.319310 0.188449
0.933959 0.337743 0.207858
0.956146 0.358953 0.230533
0.976654 0.383581 0.257755
0.995514 0.411810 0.289525
1.000000 0.444953 0.327153
1.000000 0.483528 0.371496
1.000000 0.528466 0.423957
0.305303 0.220645 0.082338
0.308904 0.220768 0.082460
0.314000 0.221225 0.082887
0.324834 0.221897 0.083436
0.339330 0.221958 0.084474
0.354559 0.221408 0.085695
0.370703 0.221225 0.087434
0.388128 0.221500 0.088991
0.406989 0.222202 0.090852
0.427771 0.223392 0.092897
0.450507 0.224949 0.095552
0.475685 0.226993 0.098360
0.503227 0.229587 0.101472
0.533501 0.232395 0.104768
0.565576 0.235294 0.108095
0.599268 0.239109 0.111666
0.633997 0.243290 0.115602
0.669612 0.248386 0.119356
0.706355 0.254368 0.124331
0.746151 0.262669 0.130556
0.784146 0.272251 0.138003
0.820127 0.283330 0.147280
0.853025 0.296086 0.158877
0.882475 0.310124 0.172549
0.909178 0.326207 0.189212
0.933532 0.344488 0.209049
0.955962 0.365515 0.232303
0.976532 0.389837 0.259892
0.995361 0.417914 0.291966
1.000000 0.450324 0.329473
1.000000 0.488289 0.373877
1.000000 0.532128 0.425422
0.311559 0.236179 0.083955
0.315068 0.236301 0.084382
0.319860 0.236576 0.084901
0.329686 0.236912 0.085573
0.344335 0.237613 0.086885
0.359808 0.236667 0.088136
0.375189 0.235264 0.089387
0.392035 0.234684 0.091157
0.410529 0.234714 0.092927
0.430884 0.235691 0.094942
0.453498 0.236942 0.097597
0.478340 0.238926 0.100374
0.505852 0.241398 0.103609
0.535760 0.244205 0.106813
0.567773 0.247623 0.109895
0.601404 0.251438 0.113527
0.636103 0.255924 0.117250
0.671504 0.261204 0.121248
0.709407 0.267857 0.126223
0.748135 0.275975 0.132479
0.785183 0.285557 0.139712
0.820584 0.296269 0.149081
0.853086 0.308385 0.160739
0.882231 0.322148 0.174594
0.908843 0.337407 0.191653
0.933165 0.355200 0.211490
0.955535 0.375586 0.234958
0.976074 0.398932 0.262364
0.994812 0.426337 0.294621
1.000000 0.458045 0.332311
1.000000 0.495308 0.376867
1.000000 0.538384 0.428351
0.319219 0.252567 0.087068
0.322301 0.252659 0.087251
0.326390 0.252781 0.087556
0.335363 0.253086 0.088319
0.348425 0.253605 0.089509
0.365148 0.254246 0.091188
0.381689 0.253269 0.092653
0.397925 0.251682 0.093874
0.415808 0.251041 0.096040
0.435859 0.251316 0.098146
0.458167 0.252506 0.100465
0.482856 0.254368 0.103334
0.510124 0.256901 0.106386
0.539940 0.259861 0.109377
0.571832 0.263462 0.112673
0.605219 0.267552 0.115908
0.639704 0.272343 0.119783
0.674861 0.277806 0.123934
0.713771 0.285191 0.129030
0.751614 0.293492 0.135256
0.788083 0.302983 0.142763
0.823056 0.313664 0.152407
0.870054 0.334356 0.172519
0.897246 0.348333 0.188418
0.921843 0.363958 0.206851
0.944274 0.381415 0.228428
0.964813 0.401556 0.253452
0.983642 0.424628 0.281926
1.000000 0.451759 0.315496
1.000000 0.483345 0.354192
1.000000 0.520104 0.399542
1.000000 0.561761 0.450690
0.328099 0.270909 0.090333
0.330816 0.271061 0.090761
0.334661 0.271122 0.091096
0.342687 0.271458 0.091890
0.354864 0.272007 0.092836
0.370367 0.272587 0.094545
0.388769 0.273503 0.096651
0.406928 0.272862 0.098512
0.424598 0.271489 0.100252
0.444709 0.271427 0.102510
0.467140 0.272465 0.105074
0.492073 0.274235 0.107668
0.519554 0.276829 0.110597
0.549310 0.280095 0.113436
0.580804 0.283909 0.116426
0.613672 0.287999 0.119814
0.647669 0.293187 0.123384
0.684779 0.299626 0.127687
0.723232 0.307683 0.132967
0.760678 0.316594 0.139803
0.797391 0.326543 0.148592
0.832914 0.337987 0.159396
0.864988 0.350683 0.173190
0.893858 0.364416 0.190158
0.919707 0.380041 0.209689
0.942748 0.397253 0.231937
0.963592 0.416663 0.257420
0.982452 0.438880 0.286320
0.999634 0.464790 0.319951
1.000000 0.495155 0.358923
1.000000 0.530724 0.404028
1.000000 0.571069 0.455024
0.337163 0.289403 0.094728
0.339696 0.289494 0.094911
0.343145 0.289677 0.095216
0.350469 0.289952 0.096040
0.361639 0.290379 0.097047
0.375952 0.291020 0.098756
0.393042 0.291875 0.100893
0.412512 0.293187 0.103334
0.432288 0.293400 0.105806
0.451911 0.292943 0.107393
0.474128 0.293736 0.110048
0.498878 0.295720 0.112367
0.526116 0.298466 0.114809
0.555505 0.301854 0.117617
0.586664 0.305730 0.120577
0.619013 0.310369 0.123476
0.653681 0.316014 0.127413
0.691249 0.323522 0.131868
0.727962 0.331273 0.137148
0.763943 0.340002 0.143984
0.799527 0.349706 0.152865
0.833921 0.360784 0.163821
0.865232 0.372595 0.178164
0.893492 0.385626 0.195102
0.918944 0.400092 0.214878
0.941833 0.416327 0.237613
0.962524 0.434607 0.262943
0.981323 0.455634 0.292241
0.998413 0.480446 0.326055
1.000000 0.509636 0.365240
1.000000 0.544030 0.410529
1.000000 0.582849 0.461219
0.347723 0.309728 0.099916
0.349950 0.309789 0.100130
0.353185 0.309972 0.100649
0.359960 0.310277 0.101442
0.370275 0.310826 0.102388
0.383551 0.311589 0.103822
0.399634 0.312505 0.105837
0.418219 0.313970 0.107912
0.439063 0.315679 0.110964
0.460792 0.317205 0.113680
0.482795 0.317998 0.115663
0.507439 0.319921 0.117769
0.534447 0.322850 0.120119
0.563531 0.326513 0.122805
0.594171 0.330755 0.125429
0.626917 0.336095 0.128817
0.662928 0.342992 0.132326
0.698848 0.350439 0.136965
0.733852 0.357855 0.142458
0.768612 0.366430 0.149355
0.803067 0.375921 0.158572
0.836271 0.386328 0.170016
0.866636 0.397498 0.184573
0.894133 0.409796 0.201785
0.919066 0.423346 0.221958
0.941558 0.438300 0.244846
0.961944 0.455482 0.270817
0.980529 0.475471 0.300389
0.997406 0.499001 0.334417
1.000000 0.526970 0.374029
1.000000 0.559899 0.419348
1.000000 0.597070 0.469581
0.358984 0.332433 0.105684
0.361181 0.332525 0.106081
0.363989 0.332708 0.106386
0.370397 0.333074 0.106905
0.380133 0.333562 0.108034
0.392798 0.334417 0.109346
0.408148 0.335668 0.111208
0.426032 0.336980 0.113405
0.446235 0.339086 0.116152
0.468605 0.341558 0.119051
0.492317 0.344152 0.122225
0.516869 0.346319 0.124025
0.543603 0.349554 0.126040
0.572320 0.353460 0.128359
0.604120 0.359014 0.131350
0.638209 0.365789 0.134585
0.673060 0.373022 0.138521
0.707820 0.380316 0.143069
0.741482 0.387762 0.149020
0.774838 0.395819 0.156252
0.807828 0.404791 0.165805
0.839261 0.414435 0.177646
0.868132 0.424598 0.192111
0.894499 0.435462 0.209659
0.918669 0.447791 0.229892
0.940734 0.461738 0.252873
0.960967 0.477699 0.279149
0.979461 0.496773 0.309392
0.996246 0.519402 0.344396
1.000000 0.546441 0.384436
1.000000 0.578363 0.430518
1.000000 0.614099 0.480842
0.370672 0.357610 0.112001
0.372717 0.357763 0.112154
0.375555 0.358007 0.112184
0.381598 0.358343 0.113100
0.390967 0.359106 0.113863
0.403296 0.360204 0.115389
0.418341 0.361700 0.116762
0.435798 0.363470 0.119081
0.455848 0.365698 0.121523
0.477943 0.368566 0.124239
0.501946 0.371862 0.127626
0.527550 0.375555 0.130892
0.554620 0.379431 0.132906
0.584741 0.385046 0.135378
0.616419 0.391180 0.138125
0.649165 0.397772 0.141573
0.682643 0.404639 0.145480
0.715846 0.411872 0.150240
0.748013 0.418799 0.156435
0.780209 0.426429 0.164157
0.811948 0.434943 0.174166
0.842252 0.443854 0.186435
0.870146 0.453376 0.201938
0.895750 0.463539 0.219852
0.919310 0.474891 0.240543
0.940856 0.487739 0.263798
0.960571 0.502617 0.290532
0.978668 0.520409 0.321019
0.995148 0.541802 0.356176
1.000000 0.567437 0.396551
1.000000 0.597650 0.442359
1.000000 0.631678 0.492226
0.382971 0.386725 0.118013
0.384955 0.386847 0.118166
0.387732 0.387060 0.118563
0.393622 0.387579 0.119142
0.402777 0.388556 0.119966
0.414893 0.389746 0.121126
0.429755 0.391455 0.122652
0.447303 0.393439 0.124636
0.467048 0.396033 0.127108
0.489174 0.399115 0.129641
0.513115 0.402777 0.132906
0.540795 0.408759 0.137057
0.579370 0.423713 0.143435
0.609979 0.429908 0.146304
0.641627 0.436439 0.149416
0.674128 0.443183 0.153170
0.706600 0.449989 0.157443
0.737789 0.456001 0.163333
0.768002 0.461921 0.170565
0.798154 0.468727 0.179446
0.827512 0.475959 0.190646
0.854856 0.483314 0.204501
0.880156 0.491035 0.220493
0.903685 0.499886 0.239139
0.925475 0.509819 0.260655
0.945617 0.521477 0.284855
0.964111 0.535271 0.312047
0.981079 0.551812 0.342901
0.996460 0.571954 0.378485
1.000000 0.596307 0.419287
1.000000 0.624292 0.463966
1.000000 0.656092 0.512810
0.396735 0.422675 0.124544
0.398688 0.422858 0.124849
0.401587 0.422919 0.124880
0.407294 0.423285 0.125429
0.416327 0.423926 0.126467
0.428351 0.424964 0.127321
0.443122 0.426520 0.129091
0.460487 0.428473 0.131014
0.480507 0.431373 0.133364
0.504234 0.436683 0.136324
0.530632 0.442908 0.140169
0.559167 0.449897 0.144533
0.589471 0.457557 0.149538
0.621088 0.465614 0.155215
0.652461 0.472663 0.158877
0.684199 0.479652 0.162509
0.715175 0.485817 0.167697
0.744900 0.491096 0.173526
0.773831 0.496315 0.180972
0.802670 0.502129 0.190646
0.830655 0.508476 0.202304
0.856870 0.514885 0.216190
0.881254 0.521691 0.232914
0.904051 0.529381 0.251865
0.925231 0.538323 0.273503
0.944884 0.548852 0.297765
0.963012 0.561517 0.325322
0.979614 0.577081 0.356756
0.994751 0.595972 0.392828
1.000000 0.618799 0.433356
1.000000 0.645136 0.477668
1.000000 0.675257 0.526146
0.409583 0.458381 0.130831
0.411597 0.458595 0.130892
0.414343 0.458717 0.131258
0.420111 0.459205 0.131716
0.429145 0.459724 0.132479
0.441382 0.461372 0.133669
0.456703 0.463996 0.135470
0.474830 0.467170 0.137453
0.495491 0.471107 0.140200
0.518791 0.475990 0.143221
0.544549 0.481758 0.146914
0.572412 0.488380 0.151553
0.601862 0.495674 0.156893
0.632502 0.503471 0.162814
0.663844 0.511162 0.169314
0.694209 0.517510 0.173831
0.723568 0.522728 0.179141
0.751888 0.527245 0.185580
0.779629 0.531609 0.193484
0.807340 0.536614 0.203311
0.834043 0.541955 0.215396
0.859220 0.547601 0.230137
0.882750 0.553460 0.246952
0.904845 0.560235 0.266667
0.925444 0.568109 0.288579
0.944579 0.577752 0.313451
0.962249 0.589380 0.341344
0.978485 0.603815 0.373388
0.993256 0.621668 0.409705
1.000000 0.642908 0.450050
1.000000 0.667689 0.494148
1.000000 0.695979 0.541955
0.424048 0.500877 0.138125
0.426307 0.501244 0.138399
0.428870 0.501427 0.138552
0.435096 0.502129 0.138979
0.444221 0.503014 0.140139
0.456550 0.504356 0.141238
0.471717 0.506340 0.143008
0.489509 0.508934 0.145266
0.509941 0.512566 0.147921
0.533043 0.517113 0.151064
0.558221 0.522545 0.155032
0.585534 0.528954 0.159762
0.614282 0.535912 0.165347
0.644007 0.543053 0.171695
0.674189 0.550134 0.178622
0.704280 0.556817 0.186374
0.732448 0.561303 0.192477
0.759365 0.564691 0.199313
0.785916 0.568048 0.207584
0.812345 0.572198 0.217838
0.837644 0.576349 0.230747
0.861631 0.580713 0.245792
0.884276 0.585595 0.263005
0.905638 0.591455 0.282902
0.925628 0.598444 0.305455
0.944335 0.607294 0.330846
0.961669 0.618250 0.359960
0.977600 0.632074 0.393103
0.992187 0.649012 0.429877
1.000000 0.669245 0.470649
1.000000 0.692836 0.514824
1.000000 0.719631 0.562463
0.439368 0.546288 0.146761
0.441535 0.546654 0.147005
0.444190 0.546868 0.147280
0.450263 0.547478 0.147982
0.459663 0.548363 0.148959
0.472175 0.549767 0.150271
0.487221 0.551812 0.152224
0.505150 0.554437 0.154543
0.525689 0.557794 0.157321
0.548180 0.561700 0.160861
0.572656 0.566278 0.165347
0.598871 0.571344 0.170291
0.626062 0.576715 0.176150
0.654139 0.582300 0.182986
0.682582 0.588006 0.190249
0.711360 0.593683 0.198154
0.740078 0.599329 0.207095
0.766567 0.602625 0.215091
0.792233 0.605341 0.223758
0.817624 0.608515 0.234958
0.841947 0.611780 0.248234
0.865049 0.615290 0.264073
0.886839 0.619257 0.282109
0.907439 0.624231 0.302770
0.926757 0.630488 0.325933
0.944884 0.638453 0.352422
0.961608 0.648585 0.382025
0.977050 0.661433 0.415473
0.991119 0.677058 0.452399
1.000000 0.695583 0.492164
1.000000 0.717189 0.535424
1.000000 0.741634 0.581201
0.454719 0.590417 0.157198
0.456611 0.590692 0.157351
0.459541 0.590784 0.157748
0.465583 0.591180 0.158267
0.474769 0.591943 0.159335
0.486885 0.593042 0.161013
0.501732 0.594629 0.162875
0.519219 0.596704 0.165408
0.539025 0.599420 0.168887
0.560906 0.602716 0.172885
0.584710 0.606531 0.177493
0.609827 0.610925 0.183261
0.635981 0.615595 0.189731
0.662959 0.620417 0.196597
0.690211 0.625177 0.204593
0.717586 0.629969 0.212924
0.745083 0.634638 0.221958
0.772732 0.639796 0.232181
0.798367 0.642725 0.241642
0.822232 0.644465 0.253361
0.845304 0.646448 0.267277
0.867399 0.648798 0.283207
0.888334 0.651820 0.301671
0.908232 0.655879 0.322911
0.926970 0.661189 0.346685
0.944518 0.668360 0.373480
0.960815 0.677699 0.404059
0.975891 0.689357 0.437232
0.989654 0.703731 0.473701
1.000000 0.720943 0.513359
1.000000 0.740963 0.555993
1.000000 0.763241 0.600031
0.471107 0.633143 0.170626
0.473274 0.633631 0.171267
0.480781 0.644862 0.176272
0.486702 0.645075 0.176913
0.495827 0.645533 0.178256
0.507561 0.646052 0.179873
0.522271 0.646906 0.182040
0.538903 0.648157 0.185183
0.558251 0.649958 0.188663
0.579461 0.652338 0.193271
0.602228 0.655146 0.198306
0.626337 0.658381 0.204379
0.651240 0.661707 0.211032
0.676814 0.665309 0.218570
0.702785 0.668849 0.226871
0.728847 0.672480 0.235630
0.754971 0.676051 0.245396
0.781064 0.679622 0.255406
0.807034 0.683497 0.266545
0.830686 0.685054 0.278660
0.851957 0.685115 0.292912
0.872587 0.685847 0.309453
0.892302 0.687404 0.328161
0.910979 0.690181 0.349310
0.928557 0.694087 0.372900
0.945037 0.699825 0.399634
0.960449 0.707362 0.428687
0.974823 0.717372 0.460883
0.988098 0.730159 0.496407
1.000000 0.745693 0.535088
1.000000 0.763912 0.576196
1.000000 0.783871 0.618128
0.490120 0.676844 0.189792
0.492714 0.678401 0.190799
0.496132 0.679957 0.191836
0.502251 0.681575 0.193729
0.511345 0.682918 0.195438
0.522881 0.683894 0.198032
0.536919 0.684749 0.200137
0.552911 0.685817 0.203616
0.571191 0.687404 0.207523
0.591241 0.689265 0.212009
0.612970 0.691524 0.217685
0.635828 0.694057 0.223819
0.659480 0.696681 0.231083
0.683803 0.699428 0.238682
0.708339 0.702083 0.247044
0.733150 0.704768 0.256382
0.757900 0.707576 0.266270
0.782712 0.710414 0.276707
0.807523 0.713558 0.288304
0.832242 0.717006 0.300938
0.854734 0.718532 0.315099
0.874510 0.718410 0.332341
0.893523 0.719142 0.351476
0.911589 0.721004 0.373327
0.928618 0.724117 0.397589
0.944640 0.728878 0.423743
0.959625 0.735500 0.452796
0.973602 0.744411 0.484657
0.986542 0.755886 0.519432
0.998260 0.769986 0.557336
1.000000 0.786191 0.596582
1.000000 0.804074 0.636439
0.508598 0.714412 0.211063
0.511284 0.715633 0.212192
0.514366 0.717037 0.213443
0.520195 0.718318 0.215488
0.528771 0.719387 0.217441
0.539696 0.720150 0.219791
0.552758 0.720760 0.222782
0.567834 0.721523 0.226139
0.585138 0.722652 0.229923
0.603967 0.724025 0.235142
0.624384 0.725673 0.241032
0.645930 0.727657 0.247654
0.668269 0.729610 0.254978
0.691218 0.731685 0.263279
0.714473 0.733639 0.271885
0.737911 0.735683 0.281163
0.761379 0.737850 0.291356
0.784970 0.740047 0.302129
0.808499 0.742550 0.313817
0.832029 0.745449 0.326940
0.855253 0.748562 0.340948
0.876616 0.750362 0.357305
0.894865 0.750149 0.377020
0.912230 0.751156 0.399176
0.928710 0.753414 0.423102
0.944152 0.757107 0.449012
0.958709 0.762600 0.477363
0.972259 0.770321 0.508385
0.984863 0.780453 0.542473
0.996338 0.792905 0.578729
1.000000 0.807279 0.616114
1.000000 0.823209 0.653925
0.529107 0.748623 0.236942
0.531456 0.749722 0.238407
0.534600 0.750820 0.239811
0.540063 0.751949 0.241794
0.547936 0.752804 0.243900
0.558038 0.753323 0.246708
0.570031 0.753719 0.249485
0.584009 0.754208 0.252873
0.600031 0.754940 0.257115
0.617548 0.755856 0.262394
0.636469 0.757076 0.268437
0.656703 0.758419 0.275120
0.677546 0.759854 0.282780
0.699123 0.761410 0.290929
0.721157 0.763058 0.300359
0.743404 0.764858 0.309911
0.765988 0.766781 0.321019
0.788571 0.769039 0.332555
0.811246 0.771542 0.345739
0.833829 0.774350 0.359716
0.856138 0.777493 0.375219
0.878080 0.780850 0.391302
0.898253 0.783078 0.409461
0.915007 0.783383 0.432013
0.930846 0.784939 0.456123
0.945708 0.787961 0.482338
0.959625 0.792630 0.510582
0.972595 0.799344 0.541192
0.984680 0.808133 0.573816
0.995789 0.818906 0.607813
1.000000 0.831296 0.642481
1.000000 0.845243 0.677974
0.554925 0.783566 0.272221
0.556939 0.784054 0.272984
0.559167 0.784451 0.273747
0.563806 0.784817 0.275547
0.570764 0.785092 0.277195
0.579736 0.785275 0.279698
0.590661 0.785489 0.282628
0.603601 0.785855 0.286412
0.618250 0.786465 0.290959
0.634516 0.787289 0.296696
0.652186 0.788296 0.302983
0.670985 0.789364 0.310491
0.690517 0.790494 0.318151
0.710536 0.791653 0.326940
0.730953 0.792813 0.336004
0.751827 0.794095 0.346105
0.772854 0.795499 0.357336
0.794034 0.797177 0.368902
0.815152 0.799069 0.382086
0.836179 0.801144 0.395880
0.856901 0.803494 0.410437
0.877256 0.806027 0.425666
0.897185 0.808743 0.441474
0.915618 0.810849 0.459236
0.930785 0.811368 0.482795
0.945129 0.813443 0.508080
0.958648 0.817166 0.535668
0.971313 0.822782 0.565270
0.983185 0.830320 0.596338
0.994171 0.839506 0.628199
1.000000 0.850340 0.661158
1.000000 0.862669 0.694850
0.579858 0.811551 0.307652
0.581628 0.811978 0.308629
0.583764 0.812375 0.309728
0.588006 0.812680 0.311040
0.594202 0.812863 0.313146
0.602106 0.812955 0.315557
0.611994 0.813016 0.318517
0.623438 0.813169 0.322087
0.636835 0.813504 0.326757
0.651575 0.814023 0.332525
0.667750 0.814755 0.339025
0.684932 0.815549 0.346380
0.702968 0.816373 0.354192
0.721584 0.817258 0.363256
0.740688 0.818235 0.372625
0.760159 0.819303 0.382940
0.779782 0.820523 0.394049
0.799557 0.821927 0.406226
0.819364 0.823575 0.419104
0.839048 0.825467 0.432685
0.858549 0.827543 0.447089
0.877714 0.829862 0.462287
0.896391 0.832334 0.478004
0.914488 0.834989 0.494240
0.930297 0.835508 0.507530
0.944213 0.836637 0.532097
0.957397 0.839475 0.558892
0.969818 0.844083 0.586999
0.981537 0.850340 0.616114
0.992432 0.858244 0.646571
1.000000 0.867765 0.678004
1.000000 0.878843 0.710567
0.610285 0.839750 0.352453
0.611963 0.840146 0.353826
0.613977 0.840391 0.354833
0.617487 0.840482 0.356329
0.622766 0.840452 0.357977
0.629633 0.840330 0.359960
0.638025 0.840177 0.362737
0.648096 0.840024 0.366064
0.659632 0.839963 0.370092
0.672663 0.840024 0.375341
0.686854 0.840177 0.381292
0.702174 0.840543 0.387976
0.718227 0.840940 0.395544
0.734981 0.841398 0.403815
0.752163 0.841825 0.412573
0.769650 0.842374 0.421820
0.787503 0.843076 0.431769
0.805600 0.843992 0.443000
0.823880 0.845304 0.455055
0.842252 0.846952 0.468605
0.860502 0.848844 0.482704
0.878386 0.850889 0.497414
0.895811 0.853025 0.512749
0.912627 0.855161 0.527916
0.928740 0.857359 0.542962
0.944091 0.859525 0.558740
0.956847 0.861387 0.583520
0.968933 0.864805 0.609552
0.980377 0.869871 0.636896
0.991058 0.876524 0.665461
1.000000 0.884764 0.695308
1.000000 0.894530 0.726436
0.639063 0.862425 0.396277
0.640681 0.862760 0.397620
0.642390 0.863005 0.398596
0.645472 0.863127 0.399878
0.650111 0.863066 0.401770
0.656123 0.862974 0.403815
0.663569 0.862852 0.406531
0.672450 0.862760 0.410010
0.682795 0.862760 0.414313
0.694453 0.862852 0.419562
0.707118 0.863066 0.425269
0.721035 0.863401 0.432410
0.735653 0.863828 0.439918
0.750790 0.864225 0.447944
0.766384 0.864683 0.456458
0.782406 0.865202 0.465766
0.798703 0.865782 0.475868
0.815274 0.866606 0.486488
0.832059 0.867704 0.498238
0.848875 0.869078 0.511162
0.865599 0.870665 0.524712
0.882109 0.872404 0.538689
0.898161 0.874266 0.553155
0.913634 0.876188 0.567376
0.928618 0.878202 0.581415
0.943053 0.880247 0.595270
0.956847 0.882475 0.609277
0.968719 0.885100 0.633600
0.979889 0.889220 0.659449
0.990326 0.894865 0.686427
0.999939 0.901976 0.714839
1.000000 0.910430 0.744442
0.670192 0.884092 0.444770
0.671534 0.884337 0.445838
0.672786 0.884428 0.446387
0.675380 0.884398 0.447517
0.679164 0.884245 0.448981
0.684230 0.884062 0.450813
0.690517 0.883909 0.453254
0.698207 0.883757 0.456306
0.707179 0.883696 0.460304
0.717342 0.883787 0.465339
0.728664 0.883940 0.471107
0.740993 0.884276 0.477882
0.754086 0.884642 0.485084
0.767727 0.885008 0.492988
0.781796 0.885374 0.501366
0.796201 0.885771 0.510155
0.810849 0.886259 0.519463
0.825864 0.886900 0.529778
0.841062 0.887816 0.540826
0.856413 0.888975 0.552880
0.871641 0.890349 0.565576
0.886687 0.891905 0.578424
0.901335 0.893553 0.591394
0.915618 0.895323 0.604364
0.929473 0.897093 0.617151
0.942809 0.898985 0.629969
0.955688 0.900969 0.642786
0.968078 0.903105 0.655421
0.979126 0.906340 0.678737
0.989380 0.911040 0.704341
0.998810 0.917052 0.731319
1.000000 0.924315 0.759396
0.700679 0.903441 0.493172
0.701717 0.903563 0.494118
0.702937 0.903624 0.494789
0.705104 0.903624 0.495796
0.708553 0.903593 0.497414
0.713161 0.903624 0.499733
0.719265 0.903777 0.503075
0.726528 0.904051 0.507347
0.735103 0.904448 0.512444
0.744686 0.904906 0.518486
0.755276 0.905486 0.525383
0.766629 0.906126 0.532891
0.778500 0.906737 0.540856
0.790860 0.907317 0.549157
0.803403 0.907836 0.557519
0.816159 0.908232 0.566064
0.829068 0.908721 0.574670
0.842191 0.909331 0.583856
0.855589 0.910124 0.593896
0.869047 0.911131 0.604334
0.882475 0.912291 0.615290
0.895811 0.913634 0.626551
0.908873 0.915038 0.637995
0.921691 0.916533 0.649439
0.934142 0.918090 0.660914
0.946166 0.919738 0.672297
0.957855 0.921477 0.683742
0.969116 0.923339 0.695216
0.979980 0.925383 0.706905
0.989899 0.928923 0.728664
0.998901 0.933806 0.753719
1.000000 0.939727 0.779873
0.736782 0.923735 0.551659
0.737545 0.923796 0.552300
0.738399 0.923796 0.552758
0.740108 0.923735 0.553552
0.742855 0.923644 0.554742
0.746517 0.923552 0.556481
0.751308 0.923522 0.558984
0.757107 0.923583 0.562219
0.763973 0.923705 0.566125
0.771817 0.923888 0.571038
0.780453 0.924163 0.576349
0.789792 0.924468 0.582391
0.799741 0.924834 0.588739
0.810147 0.925200 0.595605
0.820920 0.925566 0.602594
0.832029 0.925963 0.610040
