其他预设/【232】美食博客调色预设124款/1.3D LUT预设（视频调色-PR-AE-PS-FCPX-达芬奇用）/Food Art #81.cube
# Created by Adobe Lightroom plugin Export LUT (1.17.0)
# www.johnrellis.com/lightroom/exportlut.htm
# Preset: Food Art #81
# Color profile: /Library/Application Support/Adobe/Color/Profiles/Recommended/AdobeRGB1998.icc
LUT_3D_SIZE 5
DOMAIN_MIN 0.000000 0.000000 0.000000
DOMAIN_MAX 0.903226 0.903226 0.903226
0.231632 0.240604 0.102296
0.267247 0.240299 0.099641
0.386419 0.248631 0.102449
0.654078 0.261997 0.108522
0.911833 0.276982 0.148348
0.231113 0.283330 0.097566
0.274937 0.286870 0.100191
0.393286 0.297063 0.110994
0.661738 0.325750 0.112001
0.914824 0.343359 0.160311
0.248997 0.418769 0.115816
0.296818 0.423255 0.118898
0.442359 0.446509 0.128573
0.695369 0.489235 0.127749
0.915129 0.499733 0.204013
0.264988 0.682643 0.118257
0.337804 0.685389 0.123354
0.517632 0.691402 0.141390
0.736172 0.696315 0.181460
0.917510 0.681819 0.309239
0.389258 0.859068 0.315343
0.438758 0.857450 0.325261
0.572137 0.850767 0.357519
0.742916 0.842649 0.435767
0.898344 0.833433 0.550286
0.232578 0.239689 0.149416
0.269017 0.239445 0.157931
0.386908 0.251652 0.173465
0.649165 0.232670 0.183688
0.908354 0.247684 0.220005
0.234562 0.282414 0.162417
0.275669 0.285893 0.166354
0.394903 0.295720 0.176974
0.657862 0.304234 0.187106
0.909514 0.322850 0.229770
0.248173 0.417456 0.188083
0.289830 0.422889 0.182620
0.434791 0.439124 0.192294
0.688746 0.477546 0.204715
0.912749 0.493904 0.275914
0.240299 0.682429 0.217655
0.312322 0.685908 0.206699
0.508049 0.691005 0.223239
0.734371 0.694667 0.260014
0.914122 0.682155 0.381170
0.398657 0.857450 0.384009
0.447425 0.855772 0.393194
0.583276 0.850584 0.430213
0.748287 0.841855 0.497963
0.897459 0.833219 0.598535
0.233677 0.237644 0.297215
0.273991 0.239597 0.305119
0.394507 0.248203 0.326574
0.658167 0.203189 0.403906
0.906371 0.193576 0.426459
0.233097 0.283513 0.314763
0.275212 0.283909 0.320623
0.405097 0.288609 0.340612
0.667720 0.260807 0.399695
0.907286 0.286473 0.430335
0.238193 0.422919 0.355138
0.279789 0.426642 0.360327
0.431891 0.436316 0.375494
0.695399 0.452125 0.406287
0.905211 0.493935 0.477516
0.210788 0.678737 0.447761
0.278508 0.680934 0.440711
0.479438 0.688472 0.435554
0.730251 0.691676 0.473823
0.900999 0.688746 0.570214
0.399542 0.853696 0.536400
0.458412 0.851682 0.549554
0.607874 0.844358 0.594507
0.757565 0.836851 0.638636
0.892973 0.830900 0.701259
0.211276 0.229709 0.606867
0.278691 0.228183 0.613367
0.445472 0.215854 0.634882
0.665827 0.176608 0.662745
0.894774 0.194736 0.676967
0.166659 0.277256 0.622980
0.252537 0.274846 0.628107
0.439094 0.264439 0.644831
0.670985 0.240513 0.669154
0.894072 0.282902 0.677424
0.058198 0.451606 0.655390
0.179202 0.442969 0.659907
0.409094 0.422950 0.672694
0.687465 0.430304 0.690333
0.890837 0.494392 0.697749
0.112673 0.677974 0.704219
0.229374 0.678401 0.705867
0.460273 0.681147 0.713893
0.717037 0.683833 0.727321
0.883360 0.701442 0.760433
0.407904 0.849149 0.733028
0.464790 0.846891 0.737789
0.613489 0.839719 0.757687
0.767971 0.831510 0.790585
0.887938 0.828977 0.818997
0.134279 0.217594 0.895781
0.239933 0.213748 0.896696
0.433295 0.198886 0.900114
0.647211 0.176913 0.905333
0.868376 0.207980 0.911284
0.000000 0.265354 0.897795
0.195926 0.262333 0.898619
0.418280 0.252781 0.901701
0.643458 0.245762 0.906065
0.868315 0.290318 0.911559
0.000000 0.421851 0.903655
0.000000 0.409369 0.904295
0.377203 0.410193 0.906004
0.641840 0.431708 0.908568
0.868681 0.489754 0.913176
0.133852 0.647181 0.911498
0.247959 0.646601 0.911437
0.464210 0.649439 0.911284
0.694423 0.670222 0.911589
0.871550 0.698177 0.918517
0.458778 0.831296 0.922606
0.503288 0.830533 0.922698
0.626978 0.828458 0.923766
0.765652 0.826261 0.926299
0.881498 0.826688 0.932341
