其他预设/【232】美食博客调色预设124款/1.3D LUT预设（视频调色-PR-AE-PS-FCPX-达芬奇用）/Food Art #18.cube
# Created by Adobe Lightroom plugin Export LUT (1.17.0)
# www.johnrellis.com/lightroom/exportlut.htm
# Preset: Food Art #18
# Color profile: /Library/Application Support/Adobe/Color/Profiles/Recommended/AdobeRGB1998.icc
LUT_3D_SIZE 5
DOMAIN_MIN 0.000000 0.000000 0.000000
DOMAIN_MAX 0.903226 0.903226 0.903226
0.164675 0.153323 0.136110
0.310460 0.158450 0.141299
0.560113 0.167880 0.150759
0.841733 0.184207 0.163607
1.000000 0.238285 0.207553
0.159854 0.302983 0.123476
0.302312 0.287236 0.135012
0.565850 0.296757 0.128359
0.843168 0.308080 0.139712
1.000000 0.322759 0.188418
0.145968 0.562890 0.062928
0.311131 0.561089 0.033967
0.559930 0.539330 0.102907
0.842313 0.550927 0.000000
1.000000 0.514244 0.048096
0.000000 0.835233 0.000000
0.279911 0.833280 0.000000
0.560601 0.825315 0.000000
0.811765 0.793912 0.000000
1.000000 0.751766 0.000000
0.000000 1.000000 0.000000
0.184817 1.000000 0.000000
0.482612 0.998932 0.000000
0.741390 0.984955 0.000000
0.971130 0.961578 0.000000
0.176486 0.152865 0.278416
0.320470 0.155093 0.272313
0.562127 0.174014 0.275853
0.832059 0.198123 0.290776
1.000000 0.280308 0.324346
0.182406 0.297826 0.267033
0.312932 0.292851 0.262913
0.560845 0.296452 0.266972
0.835233 0.305882 0.275395
1.000000 0.345495 0.309270
0.137819 0.559747 0.249821
0.291295 0.559106 0.230289
0.560143 0.537682 0.242374
0.842863 0.541711 0.212894
1.000000 0.516716 0.245762
0.000000 0.834287 0.176181
0.249821 0.832792 0.155825
0.552575 0.824399 0.131807
0.812894 0.794064 0.205966
1.000000 0.750881 0.215244
0.000000 1.000000 0.000000
0.157076 1.000000 0.000000
0.476570 1.000000 0.000000
0.739803 0.986114 0.000000
0.971984 0.961852 0.189364
0.205600 0.150973 0.545678
0.344732 0.143191 0.541466
0.595911 0.065919 0.530785
0.854826 0.000000 0.513939
1.000000 0.338445 0.528405
0.175448 0.298924 0.538079
0.322301 0.285924 0.534997
0.592889 0.257542 0.527123
0.847684 0.270665 0.510704
1.000000 0.449561 0.552514
0.115938 0.562493 0.521477
0.284306 0.559472 0.518761
0.579126 0.550500 0.510643
0.830411 0.562310 0.522606
1.000000 0.593469 0.552636
0.000000 0.829465 0.490394
0.240360 0.826871 0.483772
0.557763 0.818418 0.484260
0.817502 0.795926 0.504204
1.000000 0.757687 0.487465
0.000000 1.000000 0.409857
0.180758 1.000000 0.410315
0.510399 0.995575 0.430579
0.745418 0.984436 0.402838
0.971344 0.959655 0.497810
0.217899 0.144472 0.808652
0.342443 0.132174 0.807340
0.584009 0.027344 0.803799
0.845792 0.000000 0.796262
1.000000 0.000000 0.721126
0.182956 0.283085 0.805295
0.323552 0.276768 0.804257
0.576593 0.254917 0.800412
0.842618 0.218418 0.792660
1.000000 0.259190 0.721492
0.111299 0.540887 0.795926
0.295232 0.538598 0.794491
0.575586 0.543481 0.789639
0.832731 0.536797 0.782010
1.000000 0.584314 0.744442
0.000000 0.811551 0.782254
0.252079 0.809751 0.780575
0.565087 0.805509 0.776547
0.821286 0.799710 0.770291
0.978180 0.810941 0.781888
0.000000 1.000000 0.698756
0.217014 0.999329 0.699214
0.545434 0.988647 0.712490
0.802609 0.972625 0.750149
0.968536 0.957916 0.767147
0.211978 0.150576 0.983307
0.315801 0.143526 0.982757
0.526482 0.112825 0.981170
0.757961 0.000519 0.978210
0.991028 0.000000 0.973907
0.209506 0.276982 0.981720
0.314549 0.274235 0.981201
0.526940 0.266056 0.979583
0.758236 0.256657 0.976379
0.989166 0.256779 0.972107
0.260807 0.515587 0.976593
0.376074 0.529259 0.975402
0.564050 0.536492 0.973297
0.771450 0.538720 0.970123
0.982910 0.547234 0.966491
0.204776 0.733883 0.970001
0.340612 0.738399 0.968994
0.595117 0.761105 0.965667
0.809751 0.792477 0.961578
0.974273 0.795224 0.959411
0.000000 0.967468 0.960967
0.259281 0.966796 0.960327
0.565454 0.964782 0.958404
0.805509 0.962249 0.955505
0.965606 0.959899 0.952087
