其他预设/【232】美食博客调色预设124款/1.3D LUT预设（视频调色-PR-AE-PS-FCPX-达芬奇用）/Food Art #40.cube
# Created by Adobe Lightroom plugin Export LUT (1.17.0)
# www.johnrellis.com/lightroom/exportlut.htm
# Preset: Food Art #40
# Color profile: /Library/Application Support/Adobe/Color/Profiles/Recommended/AdobeRGB1998.icc
LUT_3D_SIZE 8
DOMAIN_MIN 0.000000 0.000000 0.000000
DOMAIN_MAX 0.903226 0.903226 0.903226
0.122713 0.133150 0.268498
0.185000 0.139101 0.281407
0.312718 0.142031 0.303868
0.465370 0.149630 0.333776
0.628656 0.191989 0.370855
0.778592 0.281132 0.410498
0.895079 0.384100 0.457832
0.980713 0.481880 0.522972
0.136507 0.189944 0.289647
0.195682 0.194736 0.297673
0.317144 0.192477 0.315312
0.465217 0.203372 0.342992
0.626123 0.241428 0.376928
0.773251 0.317174 0.413397
0.889769 0.406500 0.459022
0.977722 0.495766 0.524559
0.171206 0.318151 0.332586
0.216129 0.321233 0.337102
0.338415 0.330755 0.351507
0.484413 0.341650 0.372747
0.640436 0.375769 0.398901
0.780850 0.431312 0.431403
0.895659 0.492164 0.478859
0.979370 0.556115 0.546441
0.233829 0.482399 0.382177
0.269474 0.484016 0.384619
0.374182 0.491768 0.393835
0.526085 0.515770 0.412604
0.673701 0.541222 0.434577
0.795560 0.564294 0.463416
0.897124 0.592370 0.508476
0.976165 0.632929 0.576562
0.320409 0.649470 0.431495
0.350988 0.649866 0.433417
0.443824 0.652735 0.440558
0.569238 0.659632 0.454505
0.691920 0.667750 0.473762
0.801694 0.676753 0.500877
0.895964 0.690272 0.546807
0.971893 0.719326 0.618585
0.429267 0.774411 0.489998
0.454963 0.777096 0.493965
0.522667 0.776669 0.500511
0.616480 0.777523 0.512932
0.715450 0.779873 0.531304
0.812863 0.786038 0.557427
0.900359 0.793545 0.602350
0.969268 0.810880 0.672511
0.556023 0.876860 0.575860
0.569970 0.877165 0.578637
0.610895 0.875944 0.584649
0.674403 0.875578 0.597406
0.747677 0.875822 0.615473
0.825254 0.878630 0.641138
0.900786 0.883665 0.673304
0.965911 0.891417 0.724880
0.689265 0.954803 0.691310
0.696010 0.954620 0.692866
0.719631 0.954345 0.699245
0.759548 0.954681 0.712123
0.803952 0.952209 0.722530
0.859648 0.953826 0.744961
0.915679 0.956847 0.771756
0.966857 0.960296 0.799069
0.111635 0.136629 0.320775
0.175235 0.138705 0.327794
0.303471 0.161410 0.347326
0.454932 0.187289 0.377050
0.618860 0.220584 0.404303
0.766690 0.292241 0.435401
0.885161 0.387427 0.476081
0.974182 0.484321 0.536492
0.125948 0.188540 0.334691
0.190799 0.195285 0.342473
0.310735 0.209262 0.359960
0.459174 0.227695 0.382696
0.620142 0.261570 0.408545
0.765164 0.326818 0.438239
0.881468 0.409674 0.477424
0.971221 0.497292 0.537224
0.178500 0.314031 0.364874
0.227726 0.317601 0.373999
0.336095 0.328618 0.384588
0.478584 0.345464 0.402014
0.633082 0.379736 0.424079
0.770993 0.430976 0.451820
0.884489 0.488716 0.492836
0.972229 0.554681 0.556023
0.242771 0.475868 0.405798
0.279149 0.478248 0.409827
0.377447 0.488106 0.417823
0.515679 0.505486 0.432044
0.657191 0.528985 0.450538
0.780728 0.554742 0.476387
0.885924 0.586114 0.518059
0.969604 0.630152 0.583764
0.326909 0.645838 0.451026
0.355444 0.645686 0.452369
0.443854 0.647517 0.458534
0.563104 0.651972 0.470008
0.682551 0.659236 0.486732
0.793698 0.670802 0.512749
0.890013 0.687129 0.557214
0.967681 0.717830 0.626184
0.431220 0.769528 0.504295
0.453101 0.769589 0.506004
0.519738 0.769528 0.512200
0.613062 0.771542 0.524620
0.712306 0.775509 0.543175
0.810178 0.783413 0.569665
0.897276 0.791714 0.612879
0.966400 0.809567 0.679042
0.555779 0.871519 0.584466
0.567468 0.870726 0.585565
0.608850 0.870268 0.591913
0.673121 0.871214 0.605432
0.746761 0.872709 0.624170
0.823270 0.875578 0.648310
0.897642 0.880186 0.677699
0.962951 0.888273 0.726894
0.689662 0.952239 0.696376
0.696895 0.952331 0.698543
0.720546 0.952300 0.705013
0.760159 0.952911 0.717617
0.808682 0.953307 0.733516
0.861631 0.954070 0.752773
0.915496 0.956176 0.776242
0.965942 0.959258 0.801572
0.084321 0.141604 0.411383
0.156466 0.146700 0.414649
0.302434 0.166018 0.425452
0.457893 0.198032 0.443305
0.620508 0.241215 0.469551
0.768307 0.317998 0.500969
0.883726 0.414740 0.538079
0.970550 0.513787 0.593317
0.140139 0.196048 0.418677
0.192538 0.203311 0.421851
0.311772 0.216495 0.431342
0.461677 0.242374 0.448920
0.622614 0.281315 0.473548
0.766598 0.349004 0.502373
0.881285 0.434668 0.538842
0.968933 0.526482 0.594903
0.187045 0.314488 0.437263
0.233890 0.319280 0.440406
0.346960 0.337835 0.453071
0.483803 0.356695 0.466072
0.638758 0.394537 0.487556
0.772335 0.445563 0.513298
0.881987 0.505058 0.550652
0.967468 0.575189 0.608301
0.251408 0.477302 0.464820
0.288853 0.480476 0.468269
0.390509 0.493477 0.478614
0.522332 0.510155 0.490761
0.661036 0.535332 0.509056
0.782071 0.563134 0.534325
0.884764 0.598474 0.573846
0.966094 0.646876 0.633753
0.333928 0.644099 0.503807
0.365026 0.645075 0.506462
0.454566 0.648280 0.514183
0.569543 0.653986 0.525017
0.685786 0.662318 0.540215
0.793362 0.674281 0.565026
0.887205 0.693965 0.606958
0.963989 0.728237 0.667811
0.440711 0.767910 0.550439
0.464607 0.767788 0.553826
0.532036 0.767239 0.562249
0.618860 0.768582 0.572808
0.713222 0.772549 0.589166
0.807095 0.780636 0.612512
0.893004 0.792081 0.651911
0.963348 0.815213 0.712673
0.570794 0.870451 0.623804
0.585962 0.869505 0.627588
0.625818 0.868193 0.634882
0.683375 0.868559 0.645167
0.752102 0.870207 0.660761
0.825559 0.874205 0.682826
0.897917 0.880827 0.710292
0.962463 0.891814 0.755093
0.701289 0.950286 0.722774
0.708949 0.949676 0.725399
0.730159 0.949493 0.730190
0.768521 0.950988 0.742397
0.813993 0.951629 0.755764
0.864927 0.953124 0.773159
0.917082 0.955932 0.794339
0.966247 0.959716 0.817563
0.077333 0.151339 0.507408
0.159823 0.158633 0.510155
0.305943 0.177615 0.516808
0.462165 0.203159 0.528069
0.622614 0.246220 0.551049
0.764065 0.321386 0.577813
0.876463 0.423713 0.607904
0.961883 0.536034 0.657130
0.156832 0.209903 0.513420
0.203891 0.214298 0.515343
0.322881 0.226932 0.521202
0.469062 0.246952 0.532006
0.626825 0.286961 0.554894
0.764157 0.355077 0.579797
0.874998 0.447608 0.610437
0.960571 0.551690 0.660975
0.212131 0.323369 0.525200
0.252781 0.329107 0.527276
0.356786 0.342962 0.533989
0.491493 0.361761 0.545190
0.641474 0.400732 0.567468
0.772122 0.457404 0.592859
0.878782 0.531579 0.630610
0.961212 0.603052 0.677516
0.268254 0.481422 0.546960
0.302342 0.484718 0.548882
0.400763 0.496498 0.556664
0.537102 0.521141 0.574151
0.663142 0.540398 0.587823
0.778500 0.571893 0.611414
0.878447 0.613367 0.646662
0.959686 0.666163 0.695979
0.349126 0.644587 0.581994
0.377722 0.644556 0.583062
0.463661 0.647700 0.589105
0.580835 0.656947 0.603784
0.690242 0.665949 0.617609
0.792752 0.680629 0.640070
0.883726 0.704799 0.675013
0.958984 0.742306 0.723323
0.455634 0.768338 0.619989
0.480873 0.770169 0.624018
0.547662 0.768734 0.631586
0.636500 0.769986 0.646509
0.722194 0.774624 0.659693
0.808225 0.782254 0.677363
0.889952 0.796597 0.710079
0.959716 0.822019 0.756710
0.579492 0.868833 0.674006
0.594873 0.868650 0.677577
0.641291 0.867826 0.689021
0.702937 0.868040 0.704891
0.764614 0.870512 0.717189
0.831235 0.874723 0.733303
0.897917 0.881193 0.753170
0.960540 0.893980 0.789609
0.708339 0.950286 0.755459
0.716823 0.950072 0.758419
0.742702 0.949096 0.766964
0.779019 0.949004 0.777462
0.821042 0.950011 0.787961
0.868925 0.952056 0.802060
0.918791 0.955474 0.819852
0.966369 0.960021 0.839872
0.131930 0.168460 0.616510
0.196109 0.173861 0.618280
0.332586 0.189364 0.622858
0.484779 0.212985 0.631403
0.629786 0.255436 0.646113
0.763363 0.330327 0.668025
0.873289 0.431373 0.688716
0.958862 0.542535 0.721065
0.186679 0.223026 0.620203
0.232975 0.226810 0.622248
0.349248 0.238102 0.626551
0.491524 0.256901 0.633967
0.632898 0.295506 0.648402
0.764614 0.363989 0.669917
0.873167 0.456550 0.691066
0.958068 0.558648 0.724269
0.246464 0.342260 0.629908
0.283665 0.346685 0.631434
0.381323 0.355871 0.635279
0.512505 0.374243 0.644343
0.642603 0.404761 0.655940
0.766506 0.457282 0.675074
0.871519 0.528038 0.698878
0.954925 0.606073 0.733730
0.297154 0.495186 0.646113
0.329198 0.497780 0.647395
0.422675 0.507134 0.652857
0.544762 0.523278 0.662593
0.663874 0.543114 0.673396
0.775906 0.576684 0.691157
0.873075 0.621149 0.716670
0.953124 0.675410 0.752712
0.369970 0.641321 0.668696
0.396887 0.642359 0.670069
0.476600 0.645655 0.674434
0.585443 0.653956 0.684047
0.695460 0.669795 0.700191
0.789120 0.683528 0.713588
0.877195 0.709590 0.738216
0.953277 0.747585 0.772793
0.466560 0.761349 0.695827
0.486946 0.761196 0.697108
0.549187 0.760494 0.700954
0.634668 0.762570 0.710262
0.723018 0.769162 0.724575
0.805936 0.780056 0.739925
0.886442 0.798215 0.765042
0.955993 0.824826 0.799069
0.588617 0.865232 0.735012
0.601709 0.864622 0.736599
0.643946 0.863523 0.742947
0.705013 0.863859 0.754665
0.768765 0.866941 0.767666
0.832273 0.872282 0.779965
0.896086 0.879393 0.794919
0.957855 0.893675 0.823606
0.709865 0.947051 0.792691
0.717342 0.946685 0.794400
0.741695 0.945892 0.800107
0.781460 0.947021 0.811460
0.823941 0.947814 0.821317
0.870115 0.950256 0.832456
0.918608 0.954101 0.846738
0.965362 0.959045 0.863249
0.211673 0.185580 0.739376
0.259831 0.189700 0.740261
0.378668 0.202457 0.741878
0.519036 0.228397 0.747890
0.649348 0.277165 0.755795
0.765347 0.345800 0.764279
0.871366 0.444007 0.776150
0.956207 0.553429 0.793606
0.241764 0.236973 0.738735
0.281437 0.239902 0.739284
0.388922 0.249973 0.741695
0.522576 0.272343 0.747677
0.649805 0.314916 0.755062
0.764797 0.376349 0.763912
0.870420 0.466285 0.776425
0.955169 0.567590 0.794858
0.292943 0.361730 0.745968
0.325109 0.364080 0.746609
0.418647 0.373449 0.749233
0.539239 0.392737 0.753933
0.658198 0.424872 0.760037
0.768734 0.468544 0.768154
0.870665 0.537255 0.781308
0.953521 0.615869 0.801816
0.345220 0.514580 0.756222
0.373541 0.516258 0.756344
0.458595 0.524193 0.758724
0.568750 0.540093 0.764584
0.677852 0.560571 0.771176
0.779721 0.585809 0.778805
0.874052 0.629175 0.792508
0.952667 0.683009 0.814084
0.413519 0.647456 0.766659
0.437171 0.648341 0.767330
0.508568 0.652125 0.769619
0.605005 0.660914 0.774319
0.700191 0.672602 0.780697
0.790097 0.686671 0.788663
0.876188 0.713527 0.803342
0.950927 0.751522 0.825711
0.496529 0.759579 0.781949
0.515801 0.760433 0.783169
0.571405 0.761654 0.785367
0.647944 0.764797 0.789487
0.728878 0.771389 0.796139
0.811795 0.786099 0.809415
0.885527 0.801389 0.822690
0.953399 0.827054 0.844755
0.604700 0.863828 0.805447
0.617731 0.864012 0.806760
0.656580 0.863493 0.809812
0.711330 0.864134 0.815122
0.772091 0.867002 0.822477
0.835996 0.873045 0.833097
0.897246 0.880827 0.843809
0.957641 0.896513 0.865171
0.717311 0.945617 0.841001
0.723934 0.945312 0.841917
0.746212 0.944701 0.845090
0.781552 0.945129 0.850980
0.824186 0.946258 0.858427
0.871122 0.948791 0.868009
0.919066 0.953368 0.879454
0.965087 0.958892 0.892546
0.294011 0.208408 0.849332
0.329168 0.212589 0.849943
0.426184 0.227512 0.851011
0.544762 0.259342 0.853056
0.659785 0.313237 0.855253
0.766445 0.383825 0.858152
0.866361 0.458656 0.862119
0.951568 0.560967 0.867155
0.311559 0.256657 0.849119
0.343511 0.260014 0.849607
0.433997 0.272831 0.850645
0.547936 0.300572 0.852262
0.660792 0.348516 0.854520
0.766415 0.411475 0.857481
0.865537 0.478981 0.861418
0.950439 0.573693 0.867033
0.350958 0.380194 0.850950
0.377661 0.383032 0.851133
0.457069 0.393774 0.851804
0.561273 0.416083 0.853239
0.668238 0.451057 0.855253
0.770504 0.496010 0.858396
0.866789 0.545830 0.862882
0.949828 0.621180 0.870634
0.405341 0.528985 0.853574
0.427985 0.530999 0.853330
0.497047 0.539391 0.853574
0.588586 0.553491 0.855161
0.685756 0.574334 0.857511
0.780362 0.600793 0.861234
0.869993 0.631281 0.866300
0.949371 0.684627 0.876066
0.472328 0.654444 0.857939
0.491249 0.655695 0.857847
0.549279 0.660670 0.858000
0.627955 0.669459 0.858824
0.710719 0.680812 0.861051
0.793912 0.696071 0.865202
0.874601 0.715236 0.870878
0.949371 0.754299 0.882963
0.551873 0.761288 0.865721
0.566033 0.762020 0.865873
0.610315 0.764828 0.866423
0.673426 0.770077 0.867674
0.742367 0.777279 0.869871
0.814084 0.788144 0.874266
0.884367 0.801633 0.880705
0.951476 0.827573 0.893339
0.630426 0.859861 0.876249
0.640894 0.860136 0.876555
0.673213 0.860990 0.877348
0.720211 0.862913 0.879088
0.776089 0.866239 0.881895
0.836881 0.872435 0.886900
0.899565 0.883665 0.896147
0.956512 0.897795 0.907897
0.723384 0.943359 0.893339
0.729702 0.943359 0.893797
0.751369 0.943694 0.895750
0.784390 0.944274 0.898619
0.825834 0.945617 0.902770
0.872160 0.948425 0.908782
0.920165 0.953063 0.917296
0.965209 0.959258 0.926848
0.372747 0.252720 0.941833
0.397467 0.257939 0.941894
0.470771 0.276982 0.941741
0.567895 0.315770 0.941711
0.669429 0.374365 0.941619
0.767788 0.445167 0.941558
0.861845 0.517571 0.941894
0.947021 0.582727 0.942962
0.384222 0.295415 0.941253
0.407721 0.300053 0.941314
0.477485 0.317357 0.941192
0.571893 0.352087 0.941100
0.671656 0.405097 0.941009
0.769131 0.468940 0.940978
0.862303 0.534783 0.941405
0.946624 0.595209 0.942596
0.416541 0.411414 0.940002
0.436988 0.415351 0.939971
0.499001 0.428809 0.939696
0.586877 0.456001 0.939879
0.681636 0.494087 0.939788
0.775753 0.540520 0.939910
0.865293 0.588739 0.940795
0.946319 0.636530 0.942443
0.472023 0.551598 0.937987
0.488808 0.554284 0.938018
0.541161 0.562921 0.937926
0.617548 0.579156 0.938079
0.702663 0.601953 0.938445
0.788693 0.629908 0.939239
0.871366 0.661646 0.940734
0.946807 0.694545 0.943084
0.540856 0.669490 0.938415
0.554589 0.671290 0.938323
0.596979 0.676722 0.937774
0.657801 0.684993 0.937011
0.729427 0.697902 0.937804
0.804685 0.714961 0.939178
0.878752 0.736324 0.941405
0.948089 0.761227 0.944610
0.615503 0.771389 0.940764
0.625513 0.772427 0.940581
0.657191 0.775814 0.940185
0.703853 0.780697 0.939788
0.760342 0.787472 0.939605
0.823941 0.798581 0.941009
0.889433 0.814328 0.944244
0.951385 0.832456 0.948333
0.687770 0.865019 0.945006
0.694545 0.865507 0.944976
0.716823 0.866972 0.944945
0.752499 0.869657 0.945098
0.797879 0.873686 0.945617
0.849149 0.879423 0.946746
0.903593 0.888487 0.949523
0.956725 0.900389 0.954253
0.751736 0.943633 0.951537
0.756527 0.943725 0.951598
0.772793 0.944182 0.951873
0.800229 0.945190 0.952575
0.836057 0.946868 0.953796
0.877592 0.949615 0.955749
0.922454 0.954040 0.959106
0.966827 0.961456 0.965118
