其他预设/【232】美食博客调色预设124款/1.3D LUT预设（视频调色-PR-AE-PS-FCPX-达芬奇用）/Food Art #56.cube
# Created by Adobe Lightroom plugin Export LUT (1.17.0)
# www.johnrellis.com/lightroom/exportlut.htm
# Preset: Food Art #56
# Color profile: /Library/Application Support/Adobe/Color/Profiles/Recommended/AdobeRGB1998.icc
LUT_3D_SIZE 32
0.000000 0.000000 0.000000
0.001343 0.000000 0.000000
0.021668 0.000000 0.004944
0.063508 0.000000 0.017731
0.087343 0.014710 0.042481
0.111513 0.036103 0.060060
0.137514 0.058869 0.070008
0.164492 0.070192 0.079316
0.192538 0.080049 0.090181
0.221775 0.088746 0.100038
0.252262 0.097261 0.110567
0.283543 0.105135 0.121828
0.315740 0.113588 0.133577
0.348577 0.122347 0.147127
0.382086 0.130983 0.161044
0.416114 0.138949 0.175235
0.451057 0.146853 0.189700
0.486641 0.154940 0.204044
0.522850 0.162509 0.218875
0.565728 0.170932 0.235813
0.608667 0.179507 0.252781
0.650660 0.188022 0.269108
0.691463 0.196414 0.285557
0.730282 0.205142 0.302037
0.767330 0.214389 0.318120
0.803220 0.224521 0.334356
0.838193 0.236027 0.351080
0.872343 0.249546 0.368322
0.905577 0.264591 0.386419
0.937713 0.282322 0.404944
0.968566 0.303075 0.424201
0.997803 0.327153 0.443610
0.000641 0.003388 0.000793
0.000702 0.007965 0.003662
0.022309 0.013550 0.010224
0.063172 0.026734 0.026184
0.087404 0.046052 0.049775
0.111574 0.060609 0.063355
0.137545 0.070314 0.072786
0.164096 0.079866 0.082673
0.192172 0.088228 0.092317
0.221439 0.096040 0.102144
0.251743 0.103761 0.112062
0.282902 0.111666 0.123110
0.314855 0.119509 0.134951
0.347570 0.127504 0.148379
0.380926 0.135714 0.161898
0.414893 0.144015 0.175998
0.449561 0.151675 0.190066
0.485054 0.159304 0.204623
0.521111 0.166690 0.219333
0.563653 0.174685 0.236027
0.605951 0.182986 0.252415
0.647578 0.190982 0.268986
0.688258 0.199252 0.285161
0.727199 0.207614 0.301152
0.764370 0.216770 0.316930
0.800412 0.226902 0.333288
0.835660 0.238071 0.349859
0.870024 0.250950 0.367498
0.903502 0.266056 0.385443
0.935882 0.283574 0.404150
0.966979 0.303990 0.423102
0.996368 0.327764 0.442695
0.000000 0.043580 0.012757
0.001221 0.048981 0.015381
0.022431 0.054078 0.022919
0.063081 0.061952 0.039887
0.087526 0.068330 0.058595
0.111940 0.075837 0.067292
0.137667 0.083162 0.076204
0.164248 0.090852 0.085359
0.192233 0.098695 0.094881
0.221286 0.105440 0.104463
0.251469 0.112428 0.114351
0.282567 0.119905 0.124971
0.314458 0.127199 0.136965
0.347173 0.135073 0.150118
0.380346 0.142702 0.164065
0.414343 0.150210 0.177493
0.448829 0.157626 0.192081
0.484230 0.165072 0.206088
0.520348 0.172152 0.220645
0.562799 0.180209 0.237064
0.604730 0.188296 0.252995
0.646235 0.195743 0.269322
0.686793 0.204074 0.285374
0.725704 0.211948 0.301366
0.762905 0.220920 0.317418
0.799008 0.230472 0.333379
0.834348 0.241520 0.349828
0.868833 0.254246 0.367407
0.902434 0.268986 0.385321
0.934966 0.286168 0.403906
0.966094 0.306218 0.423072
0.995605 0.329717 0.442573
0.000000 0.084138 0.044129
0.001190 0.085817 0.048280
0.022797 0.087312 0.053193
0.062715 0.090486 0.063050
0.088167 0.095125 0.069703
0.113252 0.100435 0.076295
0.138430 0.105837 0.084382
0.165255 0.111421 0.092592
0.193027 0.117006 0.100649
0.222049 0.123171 0.109346
0.251987 0.129702 0.118898
0.282872 0.136080 0.129610
0.314519 0.142794 0.141756
0.347051 0.149599 0.154757
0.380133 0.156619 0.167697
0.413855 0.163668 0.181277
0.448432 0.170504 0.195224
0.483650 0.177157 0.209201
0.520287 0.184176 0.223453
0.561730 0.191318 0.239384
0.602930 0.199008 0.255039
0.643885 0.205905 0.270909
0.684382 0.213596 0.286870
0.723751 0.221500 0.302525
0.761471 0.229923 0.318456
0.798093 0.239170 0.334813
0.833921 0.249851 0.351385
0.868681 0.262211 0.368719
0.902342 0.276585 0.386511
0.934752 0.293248 0.404944
0.965728 0.312657 0.423774
0.995056 0.335393 0.443091
0.000000 0.115846 0.067231
0.000702 0.116884 0.068849
0.023499 0.118105 0.071107
0.062226 0.120790 0.077241
0.088289 0.124849 0.084901
0.114076 0.128603 0.090425
0.139925 0.132601 0.095583
0.166384 0.137118 0.101534
0.194095 0.141299 0.109071
0.222812 0.146639 0.117006
0.252384 0.151888 0.126619
0.283085 0.157717 0.136934
0.314580 0.163424 0.148989
0.346929 0.169711 0.161410
0.380041 0.176028 0.174105
0.413886 0.182040 0.187259
0.448524 0.188540 0.200778
0.483833 0.194400 0.214694
0.521630 0.200900 0.229007
0.562249 0.207950 0.243839
0.602808 0.214664 0.259251
0.643305 0.221378 0.274388
0.683558 0.228641 0.289952
0.722774 0.235874 0.305241
0.760525 0.243748 0.320989
0.797269 0.252445 0.337072
0.833066 0.262516 0.353521
0.867857 0.274052 0.370672
0.901488 0.287694 0.388251
0.933928 0.303593 0.406439
0.964935 0.322210 0.424994
0.994324 0.344182 0.444007
0.000000 0.148165 0.085420
0.000000 0.148928 0.086915
0.016236 0.150027 0.088899
0.060304 0.152010 0.092348
0.088075 0.155062 0.097078
0.115450 0.158999 0.103334
0.142123 0.162356 0.109010
0.168612 0.165438 0.113771
0.195895 0.169375 0.120333
0.224399 0.173404 0.128176
0.253971 0.178042 0.137514
0.284428 0.182742 0.147677
0.315709 0.187961 0.158602
0.347997 0.193393 0.170443
0.380987 0.198856 0.182528
0.414862 0.204410 0.195712
0.449470 0.209964 0.208682
0.484749 0.215640 0.221805
0.523766 0.221866 0.236332
0.564019 0.228183 0.250584
0.604303 0.234562 0.265507
0.644739 0.240879 0.280186
0.704891 0.253788 0.304204
0.742916 0.260838 0.319829
0.779263 0.268437 0.335027
0.814389 0.276677 0.350317
0.848417 0.286351 0.366186
0.881376 0.297276 0.382513
0.913237 0.310338 0.399420
0.944060 0.325475 0.416663
0.973388 0.343633 0.434424
1.000000 0.364599 0.452186
0.000000 0.182773 0.101991
0.000000 0.183444 0.102724
0.004852 0.184268 0.104341
0.057343 0.185855 0.106966
0.087678 0.188418 0.111543
0.116548 0.191653 0.117433
0.145571 0.195438 0.123629
0.173587 0.198154 0.129793
0.200992 0.200839 0.135805
0.229618 0.204410 0.143526
0.259159 0.208499 0.151980
0.289708 0.212436 0.161990
0.321080 0.216831 0.172427
0.353338 0.221378 0.183413
0.386236 0.225864 0.195102
0.419715 0.230533 0.206943
0.454017 0.235386 0.219669
0.491279 0.240879 0.232670
0.530755 0.246983 0.246799
0.571466 0.253025 0.261051
0.612818 0.259525 0.275395
0.654902 0.265995 0.290806
0.696864 0.272984 0.306371
0.737118 0.279850 0.321935
0.775387 0.287449 0.337713
0.811643 0.295445 0.353368
0.846250 0.304448 0.369024
0.879454 0.314946 0.385229
0.911559 0.326848 0.401740
0.942351 0.341131 0.418616
0.971771 0.357946 0.435950
0.999634 0.377996 0.453590
0.000000 0.215305 0.118532
0.000000 0.215732 0.119356
0.000000 0.216373 0.120516
0.048005 0.217563 0.122744
0.085542 0.219425 0.126680
0.115328 0.222110 0.131594
0.144564 0.225101 0.137881
0.174228 0.228733 0.145754
0.203311 0.231388 0.153262
0.231693 0.233799 0.159915
0.261082 0.237278 0.167910
0.291569 0.241093 0.176455
0.322637 0.244938 0.186618
0.354711 0.248783 0.196994
0.387366 0.252842 0.207553
0.420813 0.256992 0.218601
0.456031 0.261601 0.230381
0.493782 0.266850 0.243534
0.532403 0.272313 0.256229
0.572168 0.277775 0.269627
0.612818 0.283635 0.283360
0.654261 0.289830 0.297826
0.695705 0.296086 0.312657
0.735622 0.302525 0.327642
0.773617 0.309483 0.342504
0.809812 0.316899 0.357824
0.844388 0.325139 0.372930
0.877745 0.334661 0.388556
0.909880 0.345892 0.404669
0.940764 0.359167 0.421180
0.970306 0.375036 0.438209
0.998260 0.393866 0.455604
0.000000 0.247745 0.137453
0.000000 0.247990 0.138003
0.000000 0.248539 0.139284
0.036652 0.249516 0.141299
0.082979 0.251041 0.144808
0.113802 0.253056 0.149508
0.143893 0.255650 0.155215
0.173648 0.258701 0.162387
0.204196 0.261967 0.170382
0.234470 0.265019 0.178286
0.263737 0.267399 0.185763
0.294163 0.270420 0.193271
0.325322 0.274052 0.202090
0.357183 0.277867 0.211612
0.389776 0.281437 0.221622
0.423682 0.285191 0.232425
0.460182 0.290105 0.243595
0.497200 0.294713 0.255650
0.535119 0.299504 0.267155
0.574121 0.304448 0.279484
0.614130 0.309697 0.292760
0.655024 0.315312 0.305913
0.695888 0.321263 0.320073
0.735348 0.327367 0.334417
0.773007 0.333684 0.348943
0.808957 0.340490 0.363470
0.843473 0.348119 0.378119
0.876707 0.356847 0.393072
0.908812 0.367224 0.408728
0.939635 0.379553 0.424842
0.969146 0.394415 0.441382
0.997101 0.412177 0.458167
0.000000 0.279881 0.157839
0.000000 0.280156 0.157992
0.000000 0.280552 0.159091
0.026795 0.281315 0.160983
0.080903 0.282628 0.164126
0.113161 0.284306 0.168185
0.143740 0.286320 0.173709
0.173892 0.288731 0.180148
0.204379 0.291722 0.187228
0.235325 0.294957 0.195743
0.266453 0.297948 0.204349
0.296696 0.300298 0.211521
0.327764 0.303105 0.219394
0.359838 0.306554 0.227970
0.393774 0.310796 0.237125
0.429053 0.315496 0.247898
0.465187 0.319738 0.258183
0.501793 0.323919 0.268772
0.539330 0.328161 0.279881
0.577600 0.332677 0.291020
0.616754 0.337438 0.303105
0.656580 0.342473 0.315373
0.696223 0.347601 0.328313
0.734585 0.353094 0.341558
0.771603 0.358679 0.354986
0.807279 0.364935 0.368902
0.841855 0.371923 0.383246
0.875334 0.380133 0.397925
0.907652 0.389899 0.413214
0.938720 0.401709 0.428992
0.968444 0.415900 0.445075
0.996551 0.432776 0.461524
0.000000 0.311376 0.178622
0.000000 0.311620 0.178744
0.000000 0.312078 0.179690
0.018280 0.312810 0.181796
0.079438 0.313848 0.184848
0.113252 0.315435 0.188235
0.144259 0.317235 0.193515
0.174777 0.319524 0.198856
0.205570 0.321996 0.205478
0.236576 0.324926 0.213046
0.268132 0.327977 0.221714
0.300206 0.330938 0.230198
0.331670 0.333471 0.237736
0.364965 0.337285 0.246128
0.399115 0.341283 0.254612
0.433753 0.345312 0.263890
0.469184 0.349371 0.273167
0.505333 0.353246 0.282689
0.542321 0.357031 0.292302
0.580041 0.361059 0.302800
0.618585 0.365332 0.314061
0.658015 0.370092 0.325292
0.697230 0.375067 0.337499
0.735225 0.380102 0.350011
0.771878 0.385473 0.362707
0.807248 0.391028 0.375982
0.841459 0.397467 0.389563
0.874662 0.405097 0.403479
0.906798 0.414191 0.418311
0.937774 0.425147 0.433265
0.967407 0.438422 0.449012
0.995483 0.454475 0.465034
0.000000 0.343359 0.199954
0.000000 0.343725 0.200687
0.000000 0.343938 0.201205
0.018189 0.344488 0.202945
0.080293 0.345495 0.205417
0.113985 0.346899 0.209110
0.145815 0.348638 0.213443
0.176638 0.350561 0.218875
0.207645 0.352850 0.224613
0.238926 0.355474 0.231510
0.270634 0.358343 0.239506
0.304356 0.362799 0.248203
0.347356 0.374243 0.263310
0.381689 0.377325 0.271305
0.416449 0.380743 0.278996
0.451759 0.384131 0.286992
0.487617 0.387610 0.295323
0.523980 0.391211 0.303441
0.560143 0.394507 0.312322
0.597101 0.397711 0.321721
0.634699 0.401282 0.331243
0.672572 0.405158 0.341985
0.709834 0.409003 0.352697
0.745968 0.413214 0.364202
0.781155 0.417639 0.375921
0.815305 0.422705 0.387976
0.848386 0.428412 0.400641
0.880430 0.435157 0.413794
0.911467 0.443397 0.427314
0.941527 0.453498 0.441596
0.970275 0.465888 0.456245
0.997589 0.481025 0.471504
0.000000 0.378454 0.223514
0.000000 0.378637 0.224155
0.000000 0.378820 0.224430
0.023133 0.379187 0.226047
0.082460 0.379767 0.228092
0.117220 0.380499 0.230869
0.148898 0.381872 0.234684
0.180270 0.383368 0.239445
0.211612 0.385565 0.244816
0.244297 0.389471 0.252232
0.278264 0.393896 0.260410
0.312963 0.398505 0.269413
0.348730 0.403326 0.278599
0.385046 0.407874 0.288243
0.420203 0.410986 0.295537
0.455482 0.414343 0.302892
0.491127 0.417395 0.310033
0.526909 0.420417 0.317144
0.562463 0.423255 0.325170
0.598718 0.426551 0.333288
0.635706 0.430213 0.342260
0.673121 0.433783 0.351812
0.709804 0.437354 0.361975
0.745510 0.441047 0.372473
0.780301 0.445075 0.383490
0.814176 0.449683 0.394965
0.847044 0.454963 0.407080
0.879026 0.461280 0.419501
0.910063 0.468971 0.432532
0.940154 0.478523 0.446204
0.968963 0.490181 0.460365
0.996368 0.504570 0.475135
0.000000 0.410346 0.244755
0.000000 0.410468 0.245090
0.000000 0.410468 0.245701
0.034668 0.410773 0.246647
0.085969 0.411292 0.248569
0.120790 0.412451 0.251316
0.153353 0.414252 0.255039
0.184665 0.416571 0.260014
0.216770 0.419135 0.265232
0.249424 0.422339 0.271641
0.282902 0.426062 0.278752
0.317449 0.430091 0.286320
0.352697 0.434241 0.294713
0.388434 0.438331 0.303105
0.424537 0.442115 0.311742
0.459571 0.444556 0.318303
0.494759 0.447272 0.324529
0.530022 0.449866 0.330846
0.565118 0.452216 0.337743
0.600855 0.455177 0.345434
0.637415 0.458595 0.353735
0.674342 0.462501 0.362402
0.710567 0.466194 0.371832
0.745998 0.469612 0.381476
0.780392 0.473396 0.391852
0.814023 0.477516 0.402686
0.846738 0.482521 0.414099
0.878538 0.488350 0.425849
0.909514 0.495674 0.438270
0.939452 0.504692 0.451484
0.968231 0.515770 0.465095
0.995636 0.529564 0.479591
0.000000 0.445014 0.266606
0.000000 0.445289 0.267185
0.000000 0.445380 0.267338
0.053559 0.445777 0.268650
0.094392 0.446296 0.270268
0.127169 0.447211 0.272618
0.159152 0.448402 0.275914
0.190524 0.450111 0.279850
0.222202 0.452308 0.284764
0.254795 0.454994 0.290227
0.288090 0.458320 0.296208
0.322240 0.461830 0.303349
0.357336 0.465675 0.310613
0.392828 0.469490 0.317876
0.428687 0.472877 0.325719
0.464363 0.475685 0.333104
0.499306 0.477729 0.338933
0.533837 0.479774 0.344671
0.568414 0.481788 0.350652
0.603632 0.484260 0.357488
0.639643 0.487404 0.364813
0.676020 0.490974 0.372869
0.711604 0.494575 0.381567
0.746578 0.498360 0.390661
0.780758 0.501854 0.400397
0.814298 0.505913 0.410620
0.847044 0.510765 0.421302
0.879026 0.516625 0.432959
0.910155 0.523796 0.444953
0.940307 0.532677 0.457771
0.969146 0.543664 0.471290
0.996521 0.557061 0.485512
0.000000 0.480293 0.288151
0.000000 0.480537 0.288273
0.008942 0.480690 0.288853
0.068574 0.481025 0.289982
0.103456 0.481544 0.291234
0.135134 0.482399 0.293736
0.166445 0.483619 0.296178
0.197696 0.485206 0.300023
0.229587 0.487160 0.304021
0.261967 0.489509 0.308629
0.294835 0.492134 0.314244
0.328740 0.494972 0.319799
0.362921 0.497963 0.326116
0.397833 0.500786 0.332494
0.432868 0.503532 0.338994
0.468208 0.506157 0.345647
0.503441 0.508385 0.352209
0.537743 0.509758 0.357641
0.572168 0.511589 0.363470
0.607416 0.514122 0.369635
0.643275 0.517205 0.376287
0.679347 0.520623 0.383856
0.714656 0.523949 0.392126
0.749203 0.527520 0.400519
0.783078 0.531365 0.409583
0.816312 0.535790 0.419348
0.848844 0.540307 0.429664
0.880552 0.545892 0.440558
0.911406 0.552758 0.452155
0.941100 0.561059 0.464271
0.969512 0.571405 0.477089
0.996460 0.584131 0.490791
0.000000 0.514427 0.307225
0.013550 0.514488 0.307439
0.050019 0.514641 0.307866
0.082399 0.514916 0.308782
0.113191 0.515312 0.310155
0.143191 0.516014 0.312078
0.173465 0.517082 0.314702
0.204746 0.518364 0.317266
0.235935 0.520073 0.321141
0.268040 0.522087 0.325048
0.301030 0.524559 0.330022
0.334569 0.527123 0.334936
0.368505 0.529747 0.340642
0.403021 0.532372 0.346227
0.437781 0.534630 0.352209
0.472328 0.536584 0.357855
0.506981 0.538445 0.363897
0.541802 0.540246 0.370123
0.576135 0.541619 0.375372
0.610742 0.543633 0.381262
0.646204 0.546532 0.387213
0.681666 0.549584 0.394202
0.716457 0.552697 0.401465
0.750637 0.555993 0.409491
0.784207 0.559655 0.418036
0.817166 0.563867 0.427161
0.849546 0.568933 0.436927
0.881102 0.574578 0.447364
0.911803 0.581170 0.458381
0.941375 0.589258 0.470130
0.969726 0.599268 0.482612
0.996490 0.611597 0.496284
0.035859 0.549065 0.325780
0.059419 0.549340 0.326238
0.079652 0.558679 0.331701
0.102724 0.558831 0.332311
0.129915 0.559075 0.333379
0.158145 0.559319 0.334966
0.187564 0.559777 0.337072
0.217960 0.560571 0.339055
0.249271 0.561608 0.342351
0.281224 0.563073 0.345739
0.313634 0.564782 0.349798
0.346868 0.566552 0.354162
0.380591 0.568261 0.358740
0.414710 0.570001 0.363439
0.448920 0.571588 0.368383
0.483070 0.572930 0.373632
0.517510 0.574273 0.378698
0.551751 0.575525 0.384161
0.586084 0.576837 0.389593
0.620356 0.578088 0.394751
0.654658 0.579950 0.400183
0.688960 0.582177 0.406378
0.722774 0.584619 0.412848
0.756008 0.587335 0.420111
0.788357 0.590173 0.427771
0.820279 0.593683 0.436194
0.851560 0.597925 0.444892
0.882322 0.603204 0.454414
0.912413 0.609857 0.464790
0.941680 0.617548 0.476112
0.969757 0.627131 0.488228
0.996216 0.639002 0.501762
0.076204 0.585473 0.344427
0.085084 0.586877 0.345434
0.096864 0.588159 0.346441
0.116701 0.589471 0.347753
0.141238 0.590478 0.349187
0.168643 0.591241 0.350713
0.197024 0.591791 0.352514
0.226139 0.592432 0.354833
0.256687 0.593469 0.357397
0.288060 0.594568 0.360418
0.320134 0.596002 0.363867
0.352697 0.597528 0.367895
0.386084 0.599054 0.371923
0.419532 0.600488 0.376013
0.453285 0.601923 0.380682
0.487160 0.603052 0.385199
0.521019 0.604120 0.389837
0.554986 0.605249 0.394537
0.589166 0.606531 0.399542
0.623560 0.608118 0.404730
0.657740 0.609613 0.409827
0.691676 0.611505 0.415564
0.725154 0.613764 0.421820
0.757931 0.616236 0.428687
0.790158 0.618982 0.435889
0.821866 0.622278 0.443641
0.852964 0.626368 0.452003
0.883421 0.631403 0.461189
0.913207 0.637812 0.471260
0.942199 0.645686 0.482063
0.969940 0.655299 0.494026
0.996155 0.666682 0.507591
0.099458 0.618433 0.360449
0.107301 0.619654 0.361364
0.116487 0.620905 0.362310
0.133028 0.622095 0.363500
0.155764 0.623102 0.364569
0.180606 0.623713 0.366094
0.207980 0.624231 0.367681
0.235966 0.624811 0.369757
0.265934 0.625605 0.371923
0.296330 0.626673 0.374640
0.327977 0.627955 0.377722
0.360113 0.629328 0.381323
0.392920 0.630640 0.384802
0.425910 0.631952 0.388769
0.459297 0.633082 0.392767
0.492592 0.634058 0.396887
0.526177 0.635004 0.400946
0.559716 0.635981 0.405219
0.593378 0.637018 0.409918
0.627314 0.638392 0.414679
0.661250 0.639826 0.419532
0.695003 0.641535 0.424689
0.728023 0.643275 0.430701
0.760464 0.645472 0.436957
0.792325 0.648005 0.443793
0.823606 0.651026 0.451118
0.854307 0.654780 0.458991
0.884428 0.659541 0.467750
0.913878 0.665583 0.477455
0.942473 0.673152 0.488045
0.969940 0.682368 0.499825
0.995819 0.693782 0.513390
0.121889 0.651759 0.376074
0.128756 0.652918 0.376684
0.136904 0.654078 0.377539
0.151858 0.655207 0.378454
0.171969 0.656062 0.379675
0.194827 0.656641 0.381079
0.220462 0.657038 0.382361
0.247379 0.657496 0.384283
0.276249 0.658167 0.386053
0.305974 0.658961 0.388708
0.336706 0.659937 0.391333
0.368200 0.661036 0.394415
0.400427 0.662104 0.397528
0.433021 0.663142 0.400977
0.465949 0.664179 0.404639
0.498939 0.665217 0.408637
0.532341 0.666346 0.412543
0.565972 0.667567 0.416846
0.599817 0.669062 0.421027
0.633906 0.670619 0.425666
0.667933 0.672541 0.430549
0.701930 0.674556 0.435401
0.735348 0.676509 0.440620
0.767605 0.678279 0.446784
0.799252 0.680720 0.453407
0.830198 0.683711 0.460517
0.860441 0.687282 0.468299
0.890074 0.691737 0.476814
0.918944 0.697444 0.486244
0.946838 0.704616 0.496834
0.973449 0.713497 0.508812
0.998566 0.724208 0.522545
0.150027 0.689052 0.393194
0.155062 0.689540 0.393530
0.161166 0.690059 0.394018
0.173739 0.690455 0.394659
0.191348 0.690822 0.395514
0.212833 0.691066 0.396490
0.236362 0.691341 0.397650
0.262303 0.691707 0.399268
0.290074 0.692378 0.401160
0.319005 0.693172 0.403388
0.349157 0.694148 0.405921
0.380194 0.695094 0.408820
0.411566 0.696010 0.411658
0.443519 0.696834 0.414832
0.475685 0.697566 0.418006
0.508324 0.698299 0.421302
0.540978 0.699153 0.424964
0.573877 0.700008 0.428748
0.607019 0.701076 0.432593
0.640070 0.702235 0.436622
0.673152 0.703609 0.440742
0.706050 0.705013 0.445167
0.738674 0.706600 0.449561
0.770687 0.708095 0.454231
0.801755 0.709712 0.460548
0.832242 0.712367 0.467353
0.862150 0.715663 0.474769
0.891447 0.719905 0.483162
0.919921 0.725368 0.492500
0.947448 0.732113 0.503075
0.973663 0.740444 0.515312
0.998474 0.750515 0.529137
0.175692 0.721248 0.407538
0.180179 0.721736 0.407904
0.185428 0.722225 0.408423
0.196597 0.722591 0.408942
0.212345 0.722866 0.409613
0.231418 0.723018 0.410651
0.253422 0.723171 0.411719
0.277531 0.723384 0.413001
0.303990 0.723751 0.414618
0.331762 0.724331 0.416602
0.360723 0.725093 0.418891
0.390723 0.725856 0.421393
0.421363 0.726589 0.423804
0.452461 0.727260 0.426734
0.484077 0.728023 0.429633
0.516106 0.728695 0.432624
0.548150 0.729458 0.436072
0.580529 0.730312 0.439429
0.613153 0.731319 0.443183
0.645747 0.732509 0.446815
0.678401 0.733883 0.450935
0.710811 0.735348 0.454871
0.743038 0.737026 0.459113
0.774899 0.738735 0.463355
0.803281 0.738064 0.466651
0.833371 0.739895 0.473335
0.862943 0.743008 0.480690
0.891905 0.746975 0.488930
0.920073 0.752041 0.498299
0.947295 0.758389 0.509056
0.973358 0.766323 0.521263
0.998077 0.775998 0.535729
0.206516 0.756130 0.423316
0.210636 0.756649 0.423651
0.215305 0.757015 0.423987
0.224552 0.757168 0.424445
0.238285 0.757168 0.424994
0.255131 0.757107 0.425727
0.275181 0.756985 0.426520
0.297459 0.756802 0.427527
0.322148 0.756710 0.428748
0.348241 0.756771 0.430213
0.375555 0.756954 0.432136
0.404089 0.757259 0.433936
0.433509 0.757595 0.436194
0.463478 0.757839 0.438575
0.493782 0.758053 0.441016
0.524376 0.758206 0.443671
0.555444 0.758419 0.446448
0.586847 0.758938 0.449439
0.618524 0.759762 0.452674
0.650477 0.760922 0.456306
0.682551 0.762295 0.460090
0.714382 0.763760 0.463966
0.745876 0.765194 0.467842
0.776699 0.766567 0.471778
0.806851 0.767941 0.475807
0.836362 0.769314 0.479957
0.865293 0.771389 0.487190
0.893614 0.774716 0.495369
0.921172 0.779294 0.504814
0.947906 0.785122 0.515526
0.973632 0.792447 0.528099
0.998016 0.801572 0.543053
0.235325 0.786618 0.436439
0.238987 0.787076 0.436774
0.243137 0.787442 0.436988
0.251469 0.787564 0.437476
0.263584 0.787533 0.437995
0.278904 0.787503 0.438636
0.297398 0.787381 0.439338
0.318181 0.787289 0.440345
0.341039 0.787320 0.441413
0.365972 0.787442 0.443000
0.392096 0.787686 0.444587
0.419684 0.788052 0.446479
0.448096 0.788449 0.448524
0.477089 0.788785 0.450721
0.506645 0.789029 0.453010
0.536492 0.789212 0.455482
0.566827 0.789517 0.458045
0.597314 0.789944 0.460945
0.628321 0.790677 0.463966
0.659449 0.791684 0.467292
0.690608 0.792874 0.470863
0.721645 0.794156 0.474556
0.752285 0.795468 0.478309
0.782437 0.796811 0.482216
0.811887 0.798123 0.486213
0.840665 0.799466 0.490242
0.868833 0.800931 0.494636
0.896696 0.803555 0.502922
0.923827 0.807584 0.512505
0.950042 0.812894 0.523522
0.975341 0.819760 0.536675
0.999145 0.828244 0.552544
0.268376 0.817777 0.449836
0.271427 0.818112 0.450050
0.275029 0.818265 0.450202
0.281926 0.818265 0.450599
0.292576 0.818051 0.450904
0.306188 0.817868 0.451423
0.322728 0.817624 0.452033
0.341680 0.817441 0.452796
0.363104 0.817380 0.453895
0.386175 0.817472 0.455177
0.411048 0.817655 0.456794
0.437263 0.818021 0.458625
0.464515 0.818387 0.460487
0.492561 0.818692 0.462531
0.520867 0.818906 0.464790
0.549737 0.818997 0.467018
0.578943 0.819181 0.469459
0.608545 0.819516 0.472084
0.638453 0.820096 0.474952
0.668605 0.820920 0.478157
0.698848 0.821958 0.481605
0.728969 0.823087 0.485206
0.758724 0.824308 0.488899
0.787991 0.825528 0.492897
0.816617 0.826780 0.496956
0.844602 0.828061 0.501213
0.871946 0.829465 0.505516
0.898528 0.831022 0.510063
0.925200 0.834165 0.519432
0.951080 0.838865 0.530907
0.975891 0.845090 0.544579
0.999207 0.852842 0.561181
0.302892 0.847349 0.462593
0.305394 0.847532 0.462745
0.308507 0.847654 0.462959
0.314672 0.847715 0.463111
0.324407 0.847654 0.463600
0.336980 0.847745 0.464179
0.352605 0.847990 0.465095
0.370733 0.848447 0.466163
0.391394 0.848997 0.467567
0.413886 0.849760 0.469154
0.438025 0.850523 0.471015
0.463416 0.851377 0.473091
0.489815 0.852140 0.475288
0.516960 0.852750 0.477363
0.544457 0.853147 0.479774
0.572198 0.853330 0.482002
0.600305 0.853513 0.484382
0.628687 0.853788 0.487007
0.657465 0.854246 0.489876
0.686397 0.854887 0.493141
0.715419 0.855680 0.496620
0.744320 0.856657 0.500298
0.772732 0.857603 0.504112
0.800717 0.858671 0.508202
0.828153 0.859739 0.512383
0.854887 0.860899 0.516808
0.880980 0.862150 0.521416
0.906462 0.863584 0.526238
0.931273 0.865354 0.531548
0.956146 0.868894 0.542779
0.979950 0.874022 0.557458
1.000000 0.880674 0.574945
0.348150 0.880308 0.477974
0.350195 0.880430 0.478218
0.352728 0.880430 0.478340
0.358007 0.880339 0.478462
0.366217 0.880156 0.478798
0.377081 0.880034 0.479255
0.390539 0.879942 0.479927
0.406470 0.879973 0.480842
0.424628 0.880095 0.481910
0.444770 0.880308 0.483223
0.466682 0.880552 0.484810
0.489784 0.880858 0.486488
0.514092 0.881163 0.488350
0.539239 0.881407 0.490394
0.565057 0.881529 0.492592
0.591333 0.881651 0.494881
