其他预设/【232】美食博客调色预设124款/1.3D LUT预设（视频调色-PR-AE-PS-FCPX-达芬奇用）/Food Art #9 ().cube
# Created by Adobe Lightroom plugin Export LUT (1.17.0)
# www.johnrellis.com/lightroom/exportlut.htm
# Preset: Food Art #9 (素锦印象)
# Color profile: /Library/Application Support/Adobe/Color/Profiles/Recommended/AdobeRGB1998.icc
LUT_3D_SIZE 5
DOMAIN_MIN 0.000000 0.000000 0.000000
DOMAIN_MAX 0.903226 0.903226 0.903226
0.000000 0.000000 0.000000
0.467994 0.000000 0.000000
0.893614 0.000000 0.000000
1.000000 0.000000 0.046662
1.000000 0.151736 0.233494
0.000000 0.445960 0.000000
0.448157 0.437049 0.000000
0.870603 0.372747 0.000000
1.000000 0.299474 0.110567
1.000000 0.318669 0.261357
0.000000 0.837278 0.000000
0.384100 0.825284 0.000000
0.811917 0.797208 0.000000
0.996796 0.654475 0.212039
1.000000 0.568139 0.320653
0.239200 0.971038 0.269078
0.389715 0.965789 0.276707
0.663905 0.947845 0.299199
0.934661 0.921508 0.342779
1.000000 0.811673 0.432471
0.456641 1.000000 0.463539
0.506035 1.000000 0.467506
0.640253 1.000000 0.475135
0.821653 0.999237 0.519158
0.993164 0.983429 0.575982
0.000000 0.000000 0.509514
0.460182 0.000000 0.501122
0.860838 0.000000 0.455482
1.000000 0.314702 0.477699
1.000000 0.419593 0.503044
0.000000 0.437232 0.494118
0.433631 0.415259 0.486458
0.840574 0.406867 0.471443
0.995300 0.435950 0.480873
1.000000 0.483314 0.511376
0.000000 0.822446 0.438849
0.429755 0.807126 0.470314
0.794461 0.779873 0.470161
0.971099 0.685603 0.499611
1.000000 0.648371 0.543114
0.359716 0.960906 0.480842
0.513909 0.951446 0.533318
0.708248 0.937804 0.541558
0.929931 0.918547 0.560876
1.000000 0.838804 0.605921
0.581628 1.000000 0.617945
0.616938 1.000000 0.623438
0.717006 1.000000 0.636469
0.853544 0.994629 0.662165
0.991241 0.983429 0.699550
0.000000 0.000000 0.869352
0.369177 0.000000 0.861906
0.792142 0.000000 0.840940
0.973724 0.360967 0.732845
1.000000 0.581231 0.729183
0.000000 0.382849 0.852781
0.410559 0.397650 0.845731
0.783963 0.424659 0.829099
0.957092 0.537133 0.753170
1.000000 0.665492 0.760769
0.171878 0.761929 0.820371
0.470832 0.761501 0.815091
0.776425 0.766812 0.805570
0.926970 0.778866 0.802701
1.000000 0.798428 0.811337
0.432837 0.946868 0.735683
0.572717 0.936217 0.755856
0.790677 0.919036 0.806119
0.923125 0.916228 0.817105
0.997467 0.893095 0.829587
0.627100 1.000000 0.744930
0.699397 1.000000 0.775418
0.832090 0.990509 0.837369
0.906401 0.987182 0.847868
0.988281 0.983948 0.864317
0.000000 0.000000 0.976287
0.298955 0.000000 0.972564
0.627466 0.225101 0.960998
0.904662 0.399268 0.945342
1.000000 0.593225 0.872343
0.290684 0.393927 0.963653
0.416510 0.410193 0.960479
0.667201 0.467811 0.950652
0.902953 0.551690 0.938445
1.000000 0.668208 0.881010
0.478035 0.683619 0.942138
0.594568 0.714809 0.937194
0.764034 0.758511 0.929778
0.902098 0.770565 0.925536
0.990753 0.815000 0.904356
0.566400 0.891051 0.930419
0.649928 0.893950 0.929046
0.805509 0.903868 0.928527
0.921324 0.917723 0.932311
0.984344 0.934539 0.940673
0.699672 1.000000 0.896727
0.749294 0.998444 0.903960
0.856138 0.990204 0.923156
0.945556 0.985565 0.948821
0.988830 0.987121 0.957214
0.108797 0.124727 1.000000
0.280339 0.170535 1.000000
0.530785 0.286259 1.000000
0.766659 0.434241 0.995819
0.959289 0.580621 0.987823
0.321782 0.381903 1.000000
0.401465 0.399145 1.000000
0.590539 0.461158 0.998352
0.787625 0.546715 0.990478
0.959625 0.649256 0.985016
0.605646 0.696651 0.986450
0.655146 0.717037 0.984314
0.728939 0.725887 0.982483
0.841764 0.749966 0.980072
0.964599 0.800778 0.981109
0.659052 0.827176 0.980468
0.703334 0.838712 0.979156
0.812070 0.872221 0.977081
0.906737 0.904875 0.978241
0.978058 0.933043 0.984527
0.757595 0.960052 0.982147
0.788449 0.962219 0.982177
0.872251 0.970153 0.983642
0.948791 0.980316 0.986816
0.989624 0.989105 0.991028
