其他预设/【232】美食博客调色预设124款/1.3D LUT预设（视频调色-PR-AE-PS-FCPX-达芬奇用）/Food Art #69.cube
# Created by Adobe Lightroom plugin Export LUT (1.17.0)
# www.johnrellis.com/lightroom/exportlut.htm
# Preset: Food Art #69
# Color profile: /Library/Application Support/Adobe/Color/Profiles/Recommended/AdobeRGB1998.icc
LUT_3D_SIZE 8
DOMAIN_MIN 0.000000 0.000000 0.000000
DOMAIN_MAX 0.903226 0.903226 0.903226
0.000000 0.000000 0.000000
0.000000 0.075685 0.062562
0.107698 0.140841 0.106294
0.229374 0.203952 0.154299
0.365026 0.266056 0.205173
0.525200 0.320378 0.248783
0.702205 0.373877 0.293370
0.858885 0.452522 0.361089
0.000000 0.133486 0.078462
0.000000 0.153475 0.093904
0.113619 0.188846 0.124300
0.234012 0.236851 0.167544
0.368322 0.288457 0.212802
0.525017 0.336095 0.252537
0.699275 0.386481 0.295384
0.857053 0.463111 0.363653
0.000000 0.272709 0.148135
0.000000 0.280003 0.156252
0.146548 0.302251 0.179965
0.265812 0.325353 0.207340
0.398169 0.356512 0.238010
0.552239 0.392554 0.270542
0.722499 0.439765 0.314275
0.869108 0.513481 0.386969
0.063966 0.393439 0.216739
0.111971 0.396338 0.220310
0.207919 0.407355 0.231937
0.332128 0.431189 0.253391
0.462287 0.452827 0.275029
0.600214 0.477790 0.301030
0.747677 0.517510 0.344244
0.879393 0.584100 0.421607
0.217655 0.510826 0.269932
0.238834 0.512902 0.271916
0.305211 0.520745 0.279362
0.405676 0.535882 0.293492
0.522972 0.553399 0.312810
0.645380 0.573083 0.339117
0.773526 0.607782 0.386908
0.892241 0.667506 0.470039
0.351568 0.634943 0.324102
0.370123 0.639124 0.327581
0.420722 0.644007 0.334752
0.501152 0.652979 0.348577
0.598718 0.664759 0.369512
0.703273 0.680720 0.399817
0.808927 0.707088 0.449531
0.909911 0.755978 0.534264
0.517662 0.760952 0.414679
0.529229 0.762234 0.417517
0.563867 0.764279 0.425238
0.621912 0.769314 0.440589
0.693812 0.776516 0.463203
0.772610 0.788052 0.495186
0.849088 0.803677 0.534386
0.926085 0.834257 0.600031
0.698695 0.873716 0.552636
0.704707 0.874113 0.554681
0.726223 0.876097 0.563104
0.763302 0.880735 0.579583
0.804440 0.883330 0.596002
0.857084 0.892851 0.626459
0.909819 0.905608 0.664118
0.957031 0.919951 0.705196
0.000000 0.032746 0.096407
0.000000 0.081666 0.109224
0.101717 0.155062 0.149203
0.227390 0.223514 0.192203
0.363256 0.279271 0.229007
0.518486 0.327184 0.263035
0.693172 0.376501 0.302861
0.852140 0.452674 0.367651
0.000000 0.135714 0.122011
0.000000 0.157321 0.136110
0.110079 0.202243 0.166537
0.234318 0.251591 0.200473
0.368963 0.299199 0.234073
0.521965 0.342504 0.266636
0.692317 0.388952 0.305241
0.850248 0.462715 0.369604
0.000000 0.272740 0.176822
0.000000 0.281498 0.187137
0.145846 0.302708 0.204471
0.265202 0.328801 0.226963
0.396490 0.360082 0.252873
0.545983 0.394141 0.281376
0.710811 0.437995 0.320897
0.861021 0.510521 0.390814
0.079194 0.391669 0.231693
0.123537 0.395361 0.236057
0.212680 0.406989 0.246067
0.326177 0.426551 0.263096
0.449531 0.446937 0.282322
0.586206 0.472419 0.306828
0.735286 0.512108 0.348028
0.871946 0.579614 0.423377
0.225040 0.509789 0.280369
0.244572 0.511406 0.282017
0.307286 0.518364 0.288762
0.402075 0.531151 0.301061
0.515343 0.547692 0.318853
0.637903 0.568688 0.344884
0.767788 0.604730 0.391882
0.888029 0.664759 0.472908
0.353368 0.631617 0.331670
0.368475 0.633143 0.333623
0.418158 0.638239 0.340612
0.498207 0.648219 0.354498
0.596124 0.661280 0.375738
0.701289 0.678767 0.406348
0.806577 0.705440 0.454841
0.907317 0.753872 0.536828
0.515068 0.756100 0.418158
0.524559 0.756252 0.419867
0.559747 0.758999 0.427863
0.619135 0.765286 0.443885
0.692073 0.773739 0.467353
0.770108 0.785183 0.498054
0.845579 0.800137 0.535302
0.922911 0.830808 0.599329
0.696498 0.871092 0.554253
0.703120 0.871885 0.556878
0.724941 0.874174 0.565454
0.762142 0.879026 0.581964
0.808164 0.885283 0.604028
0.858457 0.893553 0.631830
0.909300 0.904967 0.666499
0.955993 0.918669 0.705898
0.000000 0.078889 0.183505
0.000000 0.102968 0.190982
0.096345 0.166171 0.214145
0.232242 0.234195 0.240726
0.371954 0.292882 0.269017
0.532219 0.342657 0.300938
0.702907 0.390326 0.338872
0.856260 0.468513 0.402869
0.000000 0.157809 0.200900
0.000000 0.174319 0.207645
0.109316 0.213138 0.224338
0.240787 0.264134 0.247440
0.379278 0.313542 0.273930
0.535180 0.356695 0.303410
0.703304 0.402564 0.340948
0.856168 0.479469 0.405829
0.000000 0.278202 0.231632
0.000000 0.286870 0.236576
0.159243 0.312566 0.251499
0.276402 0.338994 0.267430
0.410101 0.371954 0.289769
0.558099 0.405158 0.315953
0.717556 0.448493 0.354650
0.862638 0.521874 0.422583
0.099092 0.394781 0.266880
0.139895 0.399023 0.270603
0.230503 0.413336 0.281804
0.338018 0.431830 0.295872
0.460853 0.453651 0.314488
0.596765 0.480690 0.339666
0.742519 0.522271 0.381842
0.874693 0.589990 0.454200
0.235080 0.510582 0.307530
0.257664 0.513237 0.310582
0.323461 0.522057 0.319585
0.414984 0.535424 0.331731
0.525139 0.551965 0.349340
0.644709 0.573724 0.375616
0.771267 0.610895 0.422400
0.889128 0.671290 0.499397
0.363470 0.632136 0.357946
0.380865 0.633906 0.361151
0.432197 0.639033 0.370031
0.507652 0.647791 0.382910
0.600885 0.660395 0.402960
0.701778 0.677638 0.431373
0.806394 0.706447 0.478950
0.908141 0.757443 0.558160
0.526635 0.756924 0.443366
0.538231 0.757229 0.446418
0.572534 0.759213 0.454444
0.627527 0.764492 0.468544
0.696986 0.772732 0.489845
0.772976 0.785092 0.519219
0.847929 0.801846 0.555993
0.925658 0.834958 0.619684
0.701534 0.870603 0.571313
0.707424 0.870695 0.573297
0.727871 0.872648 0.580682
0.765347 0.878386 0.597589
0.809903 0.884672 0.618097
0.859800 0.893553 0.645380
0.910216 0.905486 0.679164
0.956725 0.919860 0.717861
0.000000 0.111391 0.261479
0.000000 0.131594 0.265415
0.103792 0.184451 0.276127
0.240513 0.243412 0.291722
0.380529 0.298344 0.313787
0.537041 0.345098 0.342962
0.704585 0.394659 0.382544
0.854734 0.474922 0.444282
0.000000 0.184543 0.270756
0.000000 0.195682 0.273503
0.122438 0.228489 0.282170
0.251408 0.272313 0.296483
0.389471 0.318761 0.318212
0.542687 0.360967 0.346563
0.706935 0.408423 0.385779
0.855558 0.486793 0.447822
0.000000 0.290227 0.286809
0.028473 0.298222 0.289708
0.172732 0.319036 0.298802
0.288548 0.345129 0.312444
0.421668 0.378363 0.333898
0.570550 0.413519 0.362554
0.727535 0.461128 0.404639
0.865385 0.532525 0.466804
0.129335 0.399786 0.313542
0.161959 0.403906 0.316197
0.245731 0.417487 0.325566
0.359106 0.441230 0.343664
0.474434 0.460548 0.360327
0.605890 0.488167 0.386206
0.746395 0.530724 0.427955
0.875792 0.597864 0.494850
0.253422 0.513970 0.351598
0.273472 0.515984 0.353796
0.337133 0.524804 0.362310
0.433539 0.541650 0.378576
0.539025 0.557824 0.396582
0.655146 0.581170 0.423377
0.777005 0.618982 0.467384
0.890959 0.677668 0.536339
0.379400 0.635370 0.401617
0.398169 0.638880 0.405859
0.449958 0.643458 0.414710
0.528161 0.652949 0.430732
0.615717 0.665278 0.449165
0.709682 0.681331 0.474556
0.810483 0.711299 0.518853
0.909636 0.761257 0.589227
0.536004 0.757137 0.479500
0.548058 0.758175 0.482765
0.586481 0.761196 0.493324
0.643091 0.767056 0.509392
0.708400 0.775662 0.528710
0.779721 0.787686 0.554314
0.850706 0.803677 0.586358
0.927428 0.837949 0.646235
0.707973 0.871977 0.599451
0.714504 0.872587 0.602014
0.735103 0.874266 0.609430
0.768490 0.878294 0.622248
0.811917 0.884642 0.641108
0.860899 0.893767 0.666438
0.910887 0.906157 0.698421
0.957336 0.921141 0.735775
0.000000 0.151858 0.328496
0.000000 0.167025 0.330755
0.133700 0.209049 0.337896
0.262486 0.259098 0.350042
0.395727 0.306462 0.369329
0.548943 0.350103 0.400092
0.712825 0.399695 0.441810
0.859678 0.481880 0.500725
0.000000 0.211063 0.333898
0.000000 0.220737 0.336217
0.153017 0.248661 0.342596
0.273289 0.285924 0.354131
0.404059 0.325994 0.373266
0.555627 0.365942 0.403937
0.716762 0.414313 0.445472
0.861082 0.494148 0.504204
0.058747 0.311101 0.347753
0.111971 0.317784 0.350225
0.201816 0.332464 0.356603
0.310063 0.355322 0.369055
0.432258 0.382208 0.386938
0.575525 0.414771 0.416114
0.727932 0.460731 0.457343
0.864775 0.532555 0.515099
0.168185 0.408637 0.370581
0.194797 0.412451 0.373053
0.270115 0.425086 0.381781
0.371832 0.444038 0.396857
0.485573 0.463966 0.414832
0.614527 0.492500 0.441749
0.750088 0.533257 0.480812
0.874998 0.594293 0.536858
0.273808 0.515709 0.406714
0.292973 0.518364 0.409186
0.352880 0.527031 0.417212
0.444434 0.542382 0.432380
0.554650 0.564080 0.454688
0.662257 0.583886 0.476295
0.777920 0.618860 0.513817
0.890166 0.673365 0.572137
0.391730 0.632685 0.454505
0.406744 0.634211 0.456764
0.455695 0.638880 0.463691
0.530907 0.648798 0.477516
0.619928 0.663691 0.496834
0.713863 0.682033 0.522026
0.813474 0.713069 0.562036
0.910246 0.760311 0.622461
0.545739 0.755856 0.527337
0.556023 0.756313 0.529351
0.591272 0.758816 0.536858
0.645899 0.764736 0.550439
0.710018 0.774533 0.567681
0.781003 0.787259 0.591119
0.851286 0.803525 0.619989
0.928069 0.838254 0.674922
0.708736 0.869627 0.632715
0.714595 0.869993 0.634424
0.734096 0.871702 0.640375
0.768307 0.877440 0.653223
0.808713 0.883787 0.667201
0.858488 0.893095 0.690578
0.909331 0.905669 0.720485
0.956573 0.920897 0.755673
0.000000 0.195712 0.410437
0.039185 0.206943 0.412482
0.181704 0.237980 0.418433
0.303410 0.278752 0.431403
0.433112 0.318975 0.449866
0.568048 0.357610 0.472877
0.724788 0.407843 0.516258
0.866728 0.492958 0.572473
0.000000 0.241123 0.413672
0.089082 0.248325 0.415351
0.195773 0.270634 0.421546
0.312230 0.302525 0.434363
0.438788 0.337011 0.452277
0.572198 0.372381 0.475410
0.727047 0.421332 0.518395
0.867338 0.503960 0.574701
0.132021 0.333165 0.429694
0.161837 0.336889 0.431342
0.241398 0.349157 0.437903
0.346471 0.368811 0.449805
0.465858 0.392889 0.466529
0.593439 0.421698 0.488594
0.739315 0.468727 0.529870
0.872313 0.543450 0.585077
0.215122 0.428138 0.454231
0.237644 0.430793 0.455940
0.305394 0.440497 0.463325
0.402045 0.455818 0.476600
0.513848 0.475105 0.493324
0.632013 0.500206 0.514153
0.761624 0.541497 0.551507
0.882109 0.603723 0.603632
0.309117 0.529412 0.485725
0.326757 0.531670 0.487770
0.383124 0.539178 0.494636
0.468788 0.552178 0.506828
0.566766 0.567407 0.522911
0.672419 0.587854 0.542779
0.784329 0.621668 0.575952
0.892699 0.671015 0.624506
0.419440 0.639307 0.527031
0.434455 0.641382 0.529351
0.480476 0.646540 0.535485
0.549828 0.655451 0.546197
0.632654 0.668574 0.561791
0.727993 0.690608 0.587732
0.818784 0.714778 0.616175
0.911467 0.755642 0.663661
0.561913 0.757534 0.589837
0.572747 0.758724 0.592035
0.605493 0.761471 0.597772
0.655421 0.767208 0.607843
0.715877 0.776608 0.622034
0.785122 0.790677 0.642176
0.855741 0.807401 0.668208
0.931731 0.841245 0.716457
0.714778 0.870054 0.680690
0.720089 0.870420 0.681941
0.738186 0.872160 0.686519
0.768551 0.876677 0.695430
0.807492 0.883391 0.707301
0.854154 0.893065 0.723903
0.907591 0.906340 0.752193
0.956542 0.922087 0.785306
0.100130 0.236118 0.530571
0.144778 0.244053 0.532616
0.241550 0.267552 0.538720
0.357641 0.299626 0.549340
0.483436 0.334752 0.563836
0.612696 0.372778 0.582177
0.737392 0.418097 0.604242
0.870634 0.502617 0.654078
0.124819 0.271458 0.533104
0.161898 0.277043 0.535027
0.251560 0.294804 0.540826
0.363928 0.321172 0.550896
0.487587 0.352056 0.565179
0.615229 0.387060 0.583215
0.738399 0.430549 0.604822
0.870268 0.511925 0.654383
0.180758 0.352270 0.546166
0.208377 0.355352 0.547509
0.285374 0.365972 0.552636
0.389899 0.383459 0.562097
0.508110 0.406622 0.575402
0.631098 0.436622 0.592889
0.749752 0.476967 0.614343
0.876036 0.551476 0.663630
0.256077 0.446906 0.566613
0.275456 0.448280 0.567468
0.337407 0.454078 0.571710
0.432990 0.467079 0.580682
0.543664 0.486091 0.593164
0.658839 0.512566 0.609857
0.768460 0.546136 0.630640
0.884794 0.608881 0.677913
0.354376 0.550927 0.593011
0.369665 0.552209 0.593866
0.419623 0.556786 0.597345
0.493690 0.563806 0.603662
0.586328 0.575555 0.614282
0.690669 0.597253 0.630396
0.790127 0.625330 0.651057
0.896025 0.676387 0.696712
0.470680 0.660304 0.627222
0.482490 0.661402 0.628199
0.521141 0.665217 0.631861
0.580133 0.671473 0.638300
0.651637 0.679713 0.647669
0.734646 0.693477 0.662745
0.821958 0.716182 0.684565
0.912108 0.754208 0.724910
0.588556 0.764431 0.668421
0.597223 0.765347 0.669673
0.625116 0.767941 0.673335
0.668238 0.772824 0.680140
0.723293 0.780331 0.690333
0.788052 0.792508 0.706355
0.861173 0.813016 0.732601
0.932647 0.839780 0.766751
0.718410 0.869566 0.737209
0.723629 0.870176 0.738399
0.741970 0.873014 0.743343
0.770748 0.877562 0.750881
0.808652 0.884398 0.761746
0.853880 0.894255 0.776699
0.904906 0.907774 0.797574
0.956451 0.924346 0.827756
0.185763 0.279789 0.689235
0.217563 0.285344 0.690486
0.302770 0.303197 0.693904
0.414893 0.330602 0.700771
0.537926 0.365118 0.710506
0.662257 0.407721 0.723079
0.779385 0.462623 0.738613
0.879911 0.525231 0.756466
0.198734 0.306462 0.690486
0.228122 0.311070 0.691737
0.310521 0.325780 0.695186
0.420417 0.349767 0.701778
0.541985 0.381445 0.711513
0.665156 0.422065 0.723964
0.780850 0.474678 0.739162
0.880308 0.534874 0.757015
0.235019 0.375891 0.696529
0.260685 0.378943 0.697597
0.335454 0.388952 0.700679
0.440681 0.407538 0.707851
0.558007 0.433600 0.716976
0.677089 0.469795 0.728756
0.788113 0.515709 0.743771
0.883879 0.569390 0.761776
0.289403 0.462776 0.707057
0.311498 0.465217 0.708156
0.378027 0.472877 0.711238
0.475166 0.487770 0.717433
0.586023 0.510216 0.726406
0.697200 0.540032 0.738064
0.800809 0.578119 0.753048
0.890837 0.621637 0.771389
0.407507 0.576562 0.726833
0.420081 0.577173 0.727352
0.459144 0.577966 0.728206
0.516747 0.576440 0.729610
0.617426 0.594079 0.738277
0.720058 0.618463 0.750149
0.816068 0.649348 0.765927
0.900664 0.686122 0.785855
0.534112 0.690822 0.753170
0.542443 0.691188 0.753323
0.570397 0.692287 0.754147
0.613550 0.693019 0.755947
0.669856 0.693477 0.758938
0.749355 0.705013 0.768917
0.837583 0.730983 0.787045
0.915221 0.761776 0.809018
0.651270 0.795743 0.786526
0.656855 0.796048 0.786923
0.675471 0.797086 0.788235
0.706783 0.799130 0.791196
0.749203 0.802274 0.796017
0.801205 0.807218 0.803433
0.865049 0.819089 0.817563
0.932830 0.843198 0.840726
0.747463 0.884977 0.826474
0.751156 0.885283 0.826963
0.764157 0.886595 0.828977
0.787045 0.889372 0.833127
0.818601 0.893828 0.839719
0.858030 0.900633 0.849546
0.904936 0.911437 0.864927
0.956451 0.929015 0.889891
