其他预设/【232】美食博客调色预设124款/1.3D LUT预设（视频调色-PR-AE-PS-FCPX-达芬奇用）/Food Art #37.cube
# Created by Adobe Lightroom plugin Export LUT (1.17.0)
# www.johnrellis.com/lightroom/exportlut.htm
# Preset: Food Art #37
# Color profile: /Library/Application Support/Adobe/Color/Profiles/Recommended/AdobeRGB1998.icc
LUT_3D_SIZE 5
DOMAIN_MIN 0.000000 0.000000 0.000000
DOMAIN_MAX 0.903226 0.903226 0.903226
0.000000 0.000000 0.000000
0.191806 0.000000 0.000000
0.411231 0.000000 0.000000
0.646113 0.000000 0.000000
0.899290 0.000000 0.000000
0.000000 0.195682 0.000000
0.198428 0.198550 0.000000
0.407782 0.197574 0.000000
0.641688 0.198428 0.000000
0.892607 0.191012 0.000000
0.000000 0.430488 0.000000
0.204105 0.433570 0.000000
0.430610 0.430762 0.000000
0.630823 0.413489 0.000000
0.882628 0.425299 0.000000
0.000000 0.676570 0.000000
0.187015 0.676539 0.000000
0.440742 0.678218 0.000000
0.680751 0.680903 0.000000
0.899229 0.665827 0.000000
0.000000 0.920378 0.000000
0.149447 0.920775 0.000000
0.437385 0.924407 0.000000
0.681880 0.922484 0.000000
0.920195 0.920439 0.000000
0.000000 0.000000 0.202182
0.202579 0.000000 0.202579
0.433997 0.000000 0.200809
0.674556 0.000000 0.185977
0.914488 0.000000 0.164736
0.000000 0.203616 0.203616
0.201968 0.201968 0.201968
0.430457 0.194553 0.194644
0.666407 0.179477 0.180362
0.909972 0.155062 0.157198
0.000000 0.438300 0.197696
0.182986 0.441993 0.182986
0.441596 0.441718 0.179416
0.638911 0.412177 0.158114
0.893645 0.418433 0.123079
0.000000 0.680903 0.165866
0.150576 0.681605 0.150942
0.436011 0.682734 0.146059
0.684382 0.684504 0.136690
0.901427 0.662776 0.059205
0.000000 0.922881 0.092287
0.089265 0.923217 0.091096
0.425330 0.922820 0.082338
0.677790 0.922087 0.063844
0.919799 0.920012 0.000000
0.000000 0.000000 0.437201
0.208774 0.000000 0.438178
0.440070 0.000000 0.440101
0.684932 0.000000 0.442237
0.928099 0.000000 0.431708
0.000000 0.194705 0.439826
0.186282 0.186526 0.441474
0.442878 0.173251 0.442908
0.687587 0.151766 0.440223
0.928374 0.066072 0.426795
0.000000 0.442512 0.442603
0.163241 0.443763 0.443824
0.438117 0.438117 0.438117
0.677790 0.425727 0.425788
0.918181 0.403693 0.403967
0.000000 0.687587 0.438849
0.102022 0.690791 0.434791
0.414771 0.692470 0.414740
0.689296 0.689357 0.410254
0.902373 0.646448 0.360967
0.000000 0.927825 0.423255
0.000000 0.928099 0.414649
0.391211 0.928740 0.391363
0.669947 0.927245 0.390051
0.923583 0.923735 0.386847
0.000000 0.000000 0.687709
0.206394 0.000000 0.687678
0.447913 0.000000 0.688991
0.691646 0.000000 0.691737
0.930419 0.000000 0.684474
0.000000 0.180148 0.691218
0.173800 0.174746 0.691707
0.443275 0.153170 0.692653
0.694728 0.100832 0.694759
0.932769 0.000000 0.684321
0.000000 0.441657 0.694820
0.086336 0.436316 0.696132
0.422126 0.422126 0.697841
0.699306 0.415930 0.699275
0.933440 0.414282 0.681636
0.000000 0.692866 0.692988
0.000000 0.694301 0.694423
0.406958 0.694911 0.694972
0.689235 0.689174 0.689235
0.921569 0.670466 0.670558
0.000000 0.931334 0.680690
0.000000 0.931945 0.678462
0.384131 0.932067 0.671168
0.667781 0.929534 0.667781
0.925719 0.925750 0.666621
0.000000 0.000000 0.932403
0.196048 0.000000 0.932616
0.447944 0.000000 0.932799
0.689784 0.000000 0.933379
0.934081 0.000000 0.934112
0.000000 0.170687 0.934142
0.162875 0.165072 0.934295
0.440284 0.142458 0.934356
0.688472 0.089662 0.935180
0.935485 0.000000 0.935515
0.000000 0.426978 0.936034
0.000000 0.420966 0.936614
0.415442 0.415595 0.937102
0.682704 0.410376 0.937682
0.936706 0.404181 0.936706
0.000000 0.684199 0.934997
0.000000 0.682979 0.935760
0.403815 0.679896 0.936553
0.681331 0.681300 0.936034
0.934752 0.681758 0.934752
0.000000 0.933989 0.934112
0.000000 0.934447 0.934569
0.403143 0.933806 0.933898
0.682948 0.933104 0.933165
0.931243 0.931243 0.931243
