其他预设/【232】美食博客调色预设124款/1.3D LUT预设（视频调色-PR-AE-PS-FCPX-达芬奇用）/Food Art #9 ().cube
# Created by Adobe Lightroom plugin Export LUT (1.17.0)
# www.johnrellis.com/lightroom/exportlut.htm
# Preset: Food Art #9 (素锦印象)
# Color profile: /Library/Application Support/Adobe/Color/Profiles/Recommended/AdobeRGB1998.icc
LUT_3D_SIZE 32
0.000000 0.000000 0.000000
0.000000 0.000000 0.000000
0.000000 0.000000 0.000000
0.000000 0.000000 0.000000
0.169223 0.000000 0.000000
0.281987 0.000000 0.000000
0.379156 0.000000 0.000000
0.467994 0.000000 0.000000
0.552667 0.000000 0.000000
0.630030 0.000000 0.000000
0.698421 0.000000 0.000000
0.758297 0.000000 0.000000
0.811063 0.000000 0.000000
0.856199 0.000000 0.000000
0.893614 0.000000 0.000000
0.924712 0.000000 0.000000
0.950896 0.000000 0.000000
0.972992 0.000000 0.000000
0.991791 0.000000 0.000000
1.000000 0.000000 0.000000
1.000000 0.000000 0.000000
1.000000 0.000000 0.046662
1.000000 0.000000 0.100526
1.000000 0.000000 0.131594
1.000000 0.000000 0.155703
1.000000 0.000000 0.177096
1.000000 0.048890 0.196475
1.000000 0.114137 0.215213
1.000000 0.151736 0.233494
1.000000 0.183413 0.251774
1.000000 0.211704 0.270054
1.000000 0.238254 0.288670
0.000000 0.000000 0.000000
0.000000 0.000000 0.000000
0.000000 0.000000 0.000000
0.000000 0.000000 0.000000
0.170687 0.000000 0.000000
0.281712 0.000000 0.000000
0.377935 0.000000 0.000000
0.465400 0.000000 0.000000
0.549462 0.000000 0.000000
0.627039 0.000000 0.000000
0.695247 0.000000 0.000000
0.755215 0.000000 0.000000
0.808133 0.000000 0.000000
0.853452 0.000000 0.000000
0.891081 0.000000 0.000000
0.922393 0.000000 0.000000
0.948791 0.000000 0.000000
0.971130 0.000000 0.000000
0.990265 0.000000 0.000000
1.000000 0.000000 0.000000
1.000000 0.000000 0.000000
1.000000 0.000000 0.031983
1.000000 0.000000 0.096284
1.000000 0.000000 0.128145
1.000000 0.000000 0.152468
1.000000 0.000000 0.174105
1.000000 0.063020 0.193484
1.000000 0.119020 0.212863
1.000000 0.154391 0.230961
1.000000 0.184634 0.249180
1.000000 0.211978 0.267216
1.000000 0.237919 0.285893
0.000000 0.000000 0.000000
0.000000 0.000000 0.000000
0.000000 0.000000 0.000000
0.012207 0.000000 0.000000
0.172457 0.000000 0.000000
0.281682 0.000000 0.000000
0.375830 0.000000 0.000000
0.462654 0.000000 0.000000
0.546471 0.000000 0.000000
0.623926 0.000000 0.000000
0.692378 0.000000 0.000000
0.752499 0.000000 0.000000
0.805722 0.000000 0.000000
0.851286 0.000000 0.000000
0.889036 0.000000 0.000000
0.920653 0.000000 0.000000
0.947173 0.000000 0.000000
0.969665 0.000000 0.000000
0.989197 0.000000 0.000000
1.000000 0.000000 0.000000
1.000000 0.000000 0.000000
1.000000 0.000000 0.030091
1.000000 0.000000 0.095430
1.000000 0.000000 0.126955
1.000000 0.000000 0.151736
1.000000 0.000000 0.173068
1.000000 0.086427 0.192782
1.000000 0.129824 0.212009
1.000000 0.161807 0.230106
1.000000 0.190188 0.248417
1.000000 0.216007 0.266423
1.000000 0.240940 0.284947
0.000000 0.000000 0.000000
0.000000 0.008423 0.000000
0.000000 0.030060 0.000000
0.059724 0.059907 0.000000
0.175265 0.091218 0.000000
0.281132 0.091005 0.000000
0.373877 0.070985 0.000000
0.460121 0.008270 0.000000
0.543206 0.000000 0.000000
0.620508 0.000000 0.000000
0.688746 0.000000 0.000000
0.749081 0.000000 0.000000
0.802243 0.000000 0.000000
0.848020 0.000000 0.000000
0.886015 0.000000 0.000000
0.917876 0.000000 0.000000
0.944640 0.000000 0.000000
0.967315 0.000000 0.000000
0.987243 0.000000 0.000000
1.000000 0.000000 0.000000
1.000000 0.000000 0.000000
1.000000 0.000000 0.033509
1.000000 0.000000 0.095796
1.000000 0.000000 0.127535
1.000000 0.000000 0.152102
1.000000 0.087953 0.174166
1.000000 0.125429 0.194125
1.000000 0.156008 0.213535
1.000000 0.181949 0.231815
1.000000 0.205661 0.249638
1.000000 0.228428 0.267399
1.000000 0.250401 0.285130
0.000000 0.160342 0.000000
0.000000 0.163546 0.000000
0.000000 0.167971 0.000000
0.091371 0.171695 0.000000
0.178164 0.175021 0.000000
0.278233 0.192477 0.000000
0.369635 0.195285 0.000000
0.454719 0.192447 0.000000
0.537255 0.187655 0.000000
0.614130 0.183536 0.000000
0.682612 0.173983 0.000000
0.743313 0.154788 0.000000
0.796963 0.128786 0.000000
0.843046 0.098939 0.000000
0.881651 0.062745 0.000000
0.914061 0.000000 0.000000
0.941436 0.000000 0.000000
0.964508 0.000000 0.000000
0.985168 0.000000 0.000000
1.000000 0.000000 0.000000
1.000000 0.000000 0.000000
1.000000 0.000000 0.050355
1.000000 0.066896 0.100069
1.000000 0.098726 0.130526
1.000000 0.123781 0.154940
1.000000 0.146426 0.176608
1.000000 0.167788 0.196384
1.000000 0.187747 0.215152
1.000000 0.207523 0.233280
1.000000 0.226871 0.251072
1.000000 0.245823 0.268345
1.000000 0.265202 0.286137
0.000000 0.266026 0.000000
0.000000 0.268254 0.000000
0.000000 0.270146 0.000000
0.095583 0.270939 0.000000
0.196262 0.271153 0.000000
0.277134 0.271092 0.000000
0.366796 0.280705 0.000000
0.450813 0.283513 0.000000
0.532403 0.283787 0.000000
0.609216 0.279545 0.000000
0.677699 0.269627 0.000000
0.738460 0.255253 0.000000
0.792081 0.239475 0.000000
0.838407 0.223911 0.000000
0.877379 0.207248 0.000000
0.910185 0.191073 0.000000
0.937926 0.176486 0.000000
0.961517 0.165225 0.000000
0.982696 0.158297 0.000000
1.000000 0.155306 0.000000
1.000000 0.156435 0.000000
1.000000 0.160372 0.070619
1.000000 0.188052 0.137942
1.000000 0.198215 0.163272
1.000000 0.208743 0.184756
1.000000 0.220035 0.204196
1.000000 0.232120 0.222202
1.000000 0.245090 0.239658
1.000000 0.258640 0.256382
1.000000 0.272862 0.272984
1.000000 0.287572 0.289464
1.000000 0.302800 0.305852
0.000000 0.364569 0.000000
0.000000 0.365393 0.000000
0.000000 0.365637 0.000000
0.104005 0.365423 0.000000
0.209659 0.364721 0.000000
0.293706 0.363134 0.000000
0.370611 0.361242 0.000000
0.454841 0.367224 0.000000
0.536431 0.368017 0.000000
0.612665 0.363684 0.000000
0.680568 0.354162 0.000000
0.740688 0.342351 0.000000
0.793576 0.328679 0.000000
0.839017 0.313420 0.000000
0.877165 0.297337 0.000000
0.909209 0.282109 0.000000
0.936492 0.268193 0.000000
0.961181 0.256870 0.000000
0.982330 0.248356 0.000000
1.000000 0.242405 0.000000
1.000000 0.239841 0.035126
1.000000 0.239719 0.100282
1.000000 0.242618 0.134524
1.000000 0.247349 0.162081
1.000000 0.253666 0.185489
1.000000 0.260746 0.205875
1.000000 0.268864 0.224521
1.000000 0.277745 0.241917
1.000000 0.287388 0.258427
1.000000 0.298253 0.274784
1.000000 0.309545 0.290532
1.000000 0.322057 0.306737
0.000000 0.445960 0.000000
0.000000 0.445930 0.000000
0.000000 0.445747 0.000000
0.100587 0.445045 0.000000
0.209781 0.443885 0.000000
0.294469 0.442084 0.000000
0.372839 0.439643 0.000000
0.448157 0.437049 0.000000
0.529931 0.440101 0.000000
0.605280 0.437110 0.000000
0.672969 0.429145 0.000000
0.733120 0.417762 0.000000
0.786374 0.404211 0.000000
0.832059 0.388922 0.000000
0.870603 0.372747 0.000000
0.903166 0.356756 0.000000
0.931823 0.342382 0.000000
0.956695 0.329595 0.000000
0.977783 0.318639 0.000000
0.996399 0.309758 0.000000
1.000000 0.303502 0.066285
1.000000 0.299474 0.110567
1.000000 0.297887 0.141512
1.000000 0.298131 0.167849
1.000000 0.299840 0.190066
1.000000 0.303075 0.210300
1.000000 0.307042 0.228061
1.000000 0.312108 0.244816
1.000000 0.318669 0.261357
1.000000 0.326116 0.277104
1.000000 0.335027 0.293095
1.000000 0.344854 0.309026
0.000000 0.524407 0.000000
0.000000 0.524102 0.000000
0.000000 0.523827 0.000000
0.028962 0.522759 0.000000
0.196323 0.521416 0.000000
0.288304 0.519158 0.000000
0.370367 0.516381 0.000000
0.447547 0.513268 0.000000
0.522026 0.509636 0.000000
0.598322 0.508965 0.000000
0.665766 0.501091 0.000000
0.725978 0.489448 0.000000
0.779385 0.475776 0.000000
0.825315 0.459846 0.000000
0.864073 0.442878 0.000000
0.897856 0.426429 0.000000
0.927184 0.410681 0.000000
0.951904 0.396094 0.000000
0.973022 0.382666 0.000000
0.991882 0.371435 0.000000
1.000000 0.362463 0.084565
1.000000 0.355383 0.121736
1.000000 0.350500 0.150790
1.000000 0.347509 0.175174
1.000000 0.346136 0.197055
1.000000 0.345647 0.216251
1.000000 0.346624 0.233677
1.000000 0.348699 0.250065
1.000000 0.352087 0.265751
1.000000 0.356878 0.281407
1.000000 0.362890 0.296910
1.000000 0.370123 0.312383
0.000000 0.595331 0.000000
0.000000 0.594873 0.000000
0.000000 0.594354 0.000000
0.000000 0.593133 0.000000
0.182254 0.591272 0.000000
0.279759 0.588708 0.000000
0.363012 0.585534 0.000000
0.440558 0.581842 0.000000
0.514824 0.577935 0.000000
0.586725 0.573602 0.000000
0.657313 0.569207 0.000000
0.717494 0.557519 0.000000
0.771206 0.543297 0.000000
0.817502 0.526757 0.000000
0.858244 0.509850 0.000000
0.892912 0.492439 0.000000
0.922301 0.475105 0.000000
0.947204 0.458473 0.000000
0.968536 0.443427 0.000000
0.987549 0.429938 0.054749
1.000000 0.418463 0.103609
1.000000 0.408911 0.135195
1.000000 0.400977 0.160311
1.000000 0.394934 0.182956
1.000000 0.390387 0.203159
1.000000 0.387335 0.221714
1.000000 0.385473 0.238590
1.000000 0.385168 0.254917
1.000000 0.386419 0.271000
1.000000 0.388861 0.286564
1.000000 0.392889 0.302251
1.000000 0.398169 0.317906
0.000000 0.655879 0.000000
0.000000 0.655512 0.000000
0.000000 0.655024 0.000000
0.000000 0.653864 0.000000
0.165103 0.652033 0.000000
0.267430 0.649683 0.000000
0.352361 0.646754 0.000000
0.429694 0.643244 0.000000
0.503563 0.639155 0.000000
0.574731 0.634760 0.000000
0.643549 0.629816 0.000000
0.709438 0.623346 0.000000
0.763851 0.609247 0.000000
0.811521 0.592584 0.000000
0.852049 0.574212 0.000000
0.886473 0.555047 0.000000
0.915892 0.535821 0.000000
0.940948 0.517540 0.000000
0.962676 0.500420 0.000000
0.982055 0.485054 0.080934
0.999359 0.471626 0.119142
1.000000 0.459876 0.147005
1.000000 0.450050 0.171450
1.000000 0.441779 0.192844
1.000000 0.435035 0.212406
1.000000 0.429541 0.229923
1.000000 0.425360 0.246220
1.000000 0.422736 0.261936
1.000000 0.421454 0.277317
1.000000 0.421637 0.292363
1.000000 0.423407 0.307683
1.000000 0.426703 0.323278
0.000000 0.710048 0.000000
0.000000 0.709743 0.000000
0.000000 0.709163 0.000000
0.000000 0.708003 0.000000
0.150362 0.706355 0.000000
0.256046 0.704097 0.000000
0.340795 0.701350 0.000000
0.417731 0.697993 0.000000
0.490608 0.694118 0.000000
0.560632 0.689876 0.000000
0.628687 0.685420 0.000000
0.695949 0.681727 0.000000
0.772488 0.687617 0.000000
0.818875 0.668238 0.000000
0.858091 0.646876 0.000000
0.891356 0.624842 0.000000
0.919646 0.603204 0.000000
0.943755 0.582330 0.003326
0.964569 0.562921 0.093019
0.983215 0.545373 0.127993
0.999817 0.529656 0.154879
1.000000 0.515892 0.178286
1.000000 0.503655 0.198459
1.000000 0.493233 0.217350
1.000000 0.484230 0.234562
1.000000 0.476753 0.250767
1.000000 0.470558 0.265843
1.000000 0.465736 0.280156
1.000000 0.462409 0.294377
1.000000 0.460487 0.308476
1.000000 0.460273 0.323064
1.000000 0.461311 0.337499
0.000000 0.763149 0.000000
0.000000 0.762783 0.000000
0.000000 0.761990 0.000000
0.000000 0.760464 0.000000
0.143862 0.758267 0.000000
0.248417 0.755428 0.000000
0.331548 0.752255 0.000000
0.406744 0.748653 0.000000
0.478462 0.745174 0.000000
0.548241 0.742763 0.000000
0.616480 0.740108 0.000000
0.683162 0.737026 0.000000
0.748013 0.733516 0.000000
0.807950 0.726345 0.000000
0.848447 0.704677 0.000000
0.882444 0.681788 0.000000
0.911315 0.658656 0.000000
0.935912 0.636255 0.064851
0.957305 0.615259 0.111757
0.976410 0.596002 0.142214
0.993500 0.578729 0.167147
1.000000 0.563073 0.188663
1.000000 0.549218 0.208347
1.000000 0.536828 0.226261
1.000000 0.525963 0.242649
1.000000 0.516594 0.258061
1.000000 0.508598 0.272801
1.000000 0.502037 0.287083
1.000000 0.496773 0.300694
1.000000 0.493263 0.314946
1.000000 0.491035 0.328832
1.000000 0.490486 0.343511
0.000000 0.801968 0.000000
0.000000 0.801572 0.000000
0.000000 0.800900 0.000000
0.000000 0.799557 0.000000
0.139010 0.797452 0.000000
0.240970 0.795407 0.000000
0.321813 0.793027 0.000000
0.394934 0.790311 0.000000
0.464332 0.787289 0.000000
0.531426 0.784176 0.000000
0.596735 0.780850 0.000000
0.660670 0.777340 0.000000
0.722774 0.773281 0.000000
0.783108 0.768521 0.000000
0.838529 0.760311 0.000000
0.873381 0.736416 0.000000
0.902647 0.711940 0.000000
0.927733 0.688289 0.091585
0.949737 0.665797 0.128450
0.969390 0.645197 0.156039
0.987060 0.626398 0.179812
1.000000 0.609400 0.200534
1.000000 0.593896 0.219394
1.000000 0.580041 0.236515
1.000000 0.567620 0.252567
1.000000 0.556603 0.267735
1.000000 0.546929 0.281773
1.000000 0.538720 0.295537
1.000000 0.532006 0.309300
1.000000 0.526787 0.322972
1.000000 0.523217 0.337285
1.000000 0.521111 0.351690
0.000000 0.837278 0.000000
0.000000 0.837034 0.000000
0.000000 0.836454 0.000000
0.000000 0.835294 0.000000
0.146609 0.833402 0.000000
0.238773 0.831052 0.000000
0.314519 0.828336 0.000000
0.384100 0.825284 0.000000
0.450233 0.822110 0.000000
0.514458 0.818814 0.000000
0.576928 0.815396 0.000000
0.638087 0.811673 0.000000
0.697719 0.807553 0.000000
0.755734 0.802792 0.000000
0.811917 0.797208 0.000000
0.863920 0.788937 0.000000
0.894224 0.763821 0.062440
0.919799 0.738796 0.112093
0.942290 0.715114 0.144503
0.962463 0.693141 0.170230
0.980591 0.672938 0.192538
0.996796 0.654475 0.212039
1.000000 0.637598 0.229953
1.000000 0.622278 0.247135
1.000000 0.608484 0.263066
1.000000 0.596124 0.277806
1.000000 0.585260 0.292149
1.000000 0.575982 0.306645
1.000000 0.568139 0.320653
1.000000 0.561883 0.335027
1.000000 0.557305 0.349828
1.000000 0.554314 0.365240
0.000000 0.866606 0.000000
0.000000 0.866392 0.000000
0.000000 0.865965 0.000000
0.000000 0.864927 0.000000
0.159091 0.863310 0.000000
0.240940 0.861265 0.000000
0.310887 0.858854 0.000000
0.376135 0.856138 0.000000
0.439094 0.853056 0.000000
0.499855 0.849699 0.000000
0.559350 0.845975 0.000000
0.617426 0.841886 0.000000
0.673945 0.837308 0.000000
0.729213 0.832212 0.005097
0.782925 0.826566 0.052644
0.835111 0.820432 0.073579
0.884733 0.813046 0.091493
0.911681 0.787686 0.130495
0.934936 0.762966 0.160830
0.955779 0.740078 0.185641
0.974517 0.718837 0.206760
0.991272 0.699245 0.226596
1.000000 0.681209 0.244388
1.000000 0.664668 0.260716
1.000000 0.649653 0.276463
1.000000 0.636133 0.291569
1.000000 0.623957 0.305577
1.000000 0.613458 0.319738
1.000000 0.604425 0.334081
1.000000 0.596765 0.347845
1.000000 0.590692 0.362280
1.000000 0.586175 0.376989
0.000000 0.890074 0.000000
0.000000 0.889830 0.000000
0.000000 0.889311 0.000000
0.081910 0.888365 0.000000
0.174929 0.886900 0.000000
0.245029 0.885008 0.002228
0.308721 0.882750 0.017517
0.369360 0.880125 0.031281
0.428229 0.877195 0.053101
0.485664 0.873991 0.067262
0.542077 0.870451 0.080201
0.597375 0.866636 0.091371
0.651453 0.862394 0.102876
0.704341 0.857664 0.113436
0.755978 0.852384 0.123171
0.806058 0.846616 0.132204
0.854978 0.840452 0.141573
0.902708 0.834226 0.150423
0.927550 0.809506 0.175937
0.948852 0.785428 0.199588
0.968017 0.763088 0.220310
0.985229 0.742306 0.238834
1.000000 0.723079 0.256413
1.000000 0.705470 0.272862
1.000000 0.689265 0.288243
1.000000 0.674586 0.303319
1.000000 0.661372 0.317723
1.000000 0.649744 0.331914
1.000000 0.639521 0.346166
1.000000 0.630854 0.360479
1.000000 0.623590 0.374731
1.000000 0.618067 0.389960
0.000000 0.910277 0.112947
0.000000 0.910155 0.113741
0.094789 0.916228 0.136812
0.152499 0.915312 0.137026
0.209567 0.913878 0.138064
0.264897 0.911986 0.139101
0.319799 0.909667 0.140993
0.373754 0.907012 0.142702
0.427619 0.904051 0.146365
0.480964 0.900816 0.150912
0.533501 0.897307 0.155703
0.585382 0.893431 0.161563
0.636378 0.889158 0.167453
0.686549 0.884459 0.173404
0.735561 0.879362 0.179446
0.783566 0.873930 0.185000
0.830564 0.868132 0.191531
0.876463 0.862150 0.197879
0.921386 0.856107 0.204257
0.945006 0.832731 0.223453
0.964019 0.808927 0.242283
0.981201 0.786801 0.260044
0.996582 0.766293 0.276280
1.000000 0.747372 0.291783
1.000000 0.729763 0.306096
1.000000 0.713680 0.319799
1.000000 0.699001 0.332860
1.000000 0.685908 0.345892
1.000000 0.674342 0.359228
1.000000 0.664454 0.373297
1.000000 0.656123 0.387671
1.000000 0.649439 0.402838
0.087953 0.929198 0.166323
0.114015 0.929747 0.168765
0.140810 0.930144 0.171206
0.181247 0.930083 0.174350
0.227268 0.929381 0.176547
0.275151 0.927977 0.178775
0.323674 0.926055 0.179965
0.372778 0.923705 0.181857
0.422339 0.921080 0.184665
0.471626 0.918151 0.188022
0.520928 0.914946 0.191531
0.569848 0.911437 0.196201
0.618189 0.907561 0.201266
0.665827 0.903288 0.205661
0.712673 0.898680 0.210575
0.758663 0.893706 0.215579
0.803830 0.888457 0.220768
0.848142 0.883085 0.226413
0.891691 0.877592 0.233066
0.934478 0.872221 0.239841
0.957733 0.850858 0.256443
0.975341 0.827909 0.273960
0.991180 0.806455 0.290166
1.000000 0.786587 0.305699
1.000000 0.768093 0.320165
1.000000 0.751034 0.333684
1.000000 0.735409 0.346715
1.000000 0.721340 0.360052
1.000000 0.708797 0.373571
1.000000 0.697871 0.387610
1.000000 0.688502 0.401923
1.000000 0.680842 0.417212
0.149691 0.943877 0.201328
0.164828 0.944305 0.203952
0.182010 0.944640 0.206088
0.210941 0.944518 0.208286
0.247807 0.943877 0.210330
0.288090 0.942657 0.211887
0.330907 0.940917 0.213443
0.374853 0.938872 0.214878
0.419928 0.936522 0.217136
0.465644 0.933898 0.219760
0.511650 0.931029 0.223575
0.557610 0.927886 0.227481
0.603174 0.924346 0.231388
0.648402 0.920531 0.235935
0.693019 0.916350 0.240330
0.736965 0.911833 0.244663
0.780209 0.907164 0.248966
0.822873 0.902281 0.254398
0.864897 0.897337 0.260014
0.906310 0.892424 0.266728
0.946990 0.887602 0.274327
0.969940 0.868345 0.289525
0.986114 0.846036 0.305943
1.000000 0.825223 0.321263
1.000000 0.805814 0.335515
1.000000 0.787778 0.348852
1.000000 0.771145 0.361669
1.000000 0.756100 0.374731
1.000000 0.742611 0.388220
1.000000 0.730678 0.402075
1.000000 0.720272 0.416327
1.000000 0.711574 0.431525
0.193393 0.957183 0.232761
0.203922 0.957519 0.234775
0.216831 0.957763 0.236790
0.239445 0.957671 0.238865
0.269352 0.957061 0.240757
0.303502 0.955962 0.242313
0.340520 0.954406 0.243442
0.379614 0.952575 0.244846
0.420691 0.950439 0.246860
0.462593 0.948058 0.249241
0.505089 0.945464 0.252049
0.548058 0.942565 0.255680
0.590906 0.939391 0.259098
0.633631 0.935973 0.263127
0.676051 0.932250 0.267643
0.718074 0.928344 0.272038
0.759792 0.924315 0.277409
0.800961 0.920195 0.283207
0.841672 0.916075 0.289830
0.881865 0.911955 0.297673
0.921416 0.907927 0.306188
0.960296 0.903960 0.315618
0.982879 0.886656 0.330541
0.997406 0.865110 0.346410
1.000000 0.844999 0.361242
1.000000 0.826352 0.375128
1.000000 0.809049 0.388495
1.000000 0.793301 0.401770
1.000000 0.779019 0.415167
1.000000 0.766354 0.428748
1.000000 0.755276 0.443122
1.000000 0.745785 0.458076
0.239200 0.971038 0.269078
0.246128 0.971069 0.270085
0.254673 0.971008 0.270939
0.271305 0.970642 0.271916
0.294865 0.969909 0.272923
0.323217 0.968811 0.274083
0.355077 0.967437 0.275120
0.389715 0.965789 0.276707
0.426520 0.963989 0.278569
0.464820 0.961913 0.281102
0.504143 0.959655 0.284428
0.543999 0.957122 0.287846
0.584009 0.954314 0.291417
0.623987 0.951202 0.295201
0.663905 0.947845 0.299199
0.703761 0.944335 0.303593
0.743191 0.940642 0.308476
0.782437 0.936858 0.313603
0.821225 0.933043 0.319890
0.859617 0.929168 0.326604
0.897459 0.925353 0.334417
0.934661 0.921508 0.342779
0.971191 0.917754 0.352056
0.993164 0.902068 0.365301
1.000000 0.881010 0.379431
1.000000 0.861479 0.393072
1.000000 0.843351 0.406287
1.000000 0.826780 0.419318
1.000000 0.811673 0.432471
1.000000 0.798001 0.445686
1.000000 0.785946 0.459754
1.000000 0.775143 0.473335
0.272129 0.981598 0.296574
0.277775 0.981659 0.297612
0.284733 0.981628 0.298589
0.298497 0.981262 0.299535
0.318059 0.980591 0.300664
0.341894 0.979614 0.301335
0.369329 0.978363 0.302220
0.399542 0.976898 0.303288
0.432685 0.975189 0.305272
0.467414 0.973297 0.307561
0.503410 0.971252 0.310521
0.540246 0.968963 0.313848
0.577417 0.966430 0.317144
0.615137 0.963653 0.320989
0.652735 0.960693 0.324926
0.690394 0.957549 0.329290
0.727932 0.954284 0.334081
0.765316 0.950927 0.339635
0.802487 0.947478 0.346227
0.839261 0.944060 0.353368
0.875608 0.940642 0.361273
0.911437 0.937224 0.370092
0.946593 0.933898 0.379797
0.981048 0.930571 0.389746
1.000000 0.915618 0.396399
1.000000 0.895201 0.409369
1.000000 0.876310 0.422400
1.000000 0.858854 0.435004
1.000000 0.842863 0.447761
1.000000 0.828367 0.461036
1.000000 0.815427 0.474952
1.000000 0.803372 0.487129
0.310277 0.992218 0.329839
0.315129 0.992279 0.331090
0.320653 0.992187 0.331792
0.331395 0.991791 0.332494
0.346838 0.991150 0.332799
0.366369 0.990204 0.333165
0.389380 0.989014 0.333684
0.415320 0.987610 0.334112
0.444007 0.985962 0.335149
0.474678 0.984131 0.336736
0.506920 0.982116 0.338720
0.540246 0.979950 0.341100
0.574487 0.977569 0.343847
0.609155 0.974975 0.346807
0.644068 0.972137 0.349889
0.679225 0.969146 0.353338
0.714473 0.966033 0.357305
0.749783 0.962890 0.362219
0.785092 0.959747 0.368048
0.820340 0.956634 0.375097
0.855253 0.953552 0.383368
0.889647 0.950469 0.392187
0.923400 0.947326 0.401434
0.956512 0.944152 0.410559
0.988800 0.940978 0.419867
1.000000 0.928801 0.430518
1.000000 0.909026 0.442542
1.000000 0.890715 0.454292
1.000000 0.873838 0.466224
1.000000 0.858488 0.478950
1.000000 0.844419 0.491402
1.000000 0.831327 0.502586
0.338384 1.000000 0.354681
0.342504 1.000000 0.355840
0.347265 1.000000 0.356664
0.356329 0.999939 0.357305
0.369451 0.999359 0.357702
0.386206 0.998566 0.358129
0.406409 0.997498 0.358831
0.429297 0.996277 0.359625
0.454932 0.994873 0.360937
0.482765 0.993286 0.362829
0.512016 0.991516 0.364935
0.542870 0.989593 0.367681
0.574548 0.987488 0.370825
0.606714 0.985229 0.373938
0.639429 0.982727 0.377508
0.672297 0.980102 0.381079
0.705531 0.977325 0.385473
0.738796 0.974517 0.390295
0.772244 0.971649 0.396338
0.805631 0.968811 0.403265
0.838743 0.965972 0.411109
0.871519 0.963134 0.419593
0.903746 0.960266 0.428199
0.935363 0.957397 0.437110
0.966339 0.954467 0.446448
0.996582 0.951598 0.455818
1.000000 0.941222 0.466407
1.000000 0.922179 0.477943
1.000000 0.904692 0.489906
1.000000 0.888640 0.502190
1.000000 0.873564 0.512993
1.000000 0.859709 0.523491
0.368444 1.000000 0.381903
0.371923 1.000000 0.382849
0.375616 1.000000 0.383215
0.382910 1.000000 0.383581
0.393652 1.000000 0.383703
0.407721 1.000000 0.383886
0.424811 1.000000 0.384070
0.444831 1.000000 0.384771
0.467567 1.000000 0.386053
0.492317 1.000000 0.387732
0.518944 0.999725 0.390021
0.547143 0.997986 0.392981
0.576257 0.996124 0.396033
0.606226 0.994079 0.399603
0.636469 0.991852 0.402960
0.667140 0.989502 0.406531
0.698146 0.986969 0.410529
0.729458 0.984405 0.415229
0.760922 0.981811 0.420752
0.792447 0.979187 0.427283
0.823911 0.976562 0.434699
0.855100 0.973938 0.443000
0.885832 0.971283 0.451423
0.916045 0.968597 0.460273
0.945678 0.965911 0.469154
0.974640 0.963256 0.478553
1.000000 0.960632 0.488472
1.000000 0.952117 0.498878
1.000000 0.933715 0.510369
1.000000 0.916655 0.520806
1.000000 0.900755 0.530419
1.000000 0.886107 0.540032
0.395270 1.000000 0.406287
0.397955 1.000000 0.406958
0.401160 1.000000 0.407294
0.407294 1.000000 0.407568
0.416938 1.000000 0.408057
0.429694 1.000000 0.409033
0.445624 1.000000 0.410651
0.464332 1.000000 0.412848
0.485695 1.000000 0.415839
0.508934 1.000000 0.419287
0.533776 1.000000 0.423346
0.559899 1.000000 0.427527
0.586877 1.000000 0.431983
0.614466 1.000000 0.436378
0.642420 1.000000 0.440681
0.670527 0.998901 0.444526
0.699062 0.996674 0.448798
0.727871 0.994354 0.453437
0.757076 0.992004 0.459174
0.786282 0.989624 0.465400
0.815549 0.987213 0.472633
0.844633 0.984771 0.480476
0.873320 0.982330 0.488563
0.901610 0.979828 0.496986
0.929412 0.977325 0.505974
0.956573 0.974884 0.515160
0.983124 0.972473 0.524773
1.000000 0.970092 0.534997
1.000000 0.963348 0.544640
1.000000 0.945373 0.553277
1.000000 0.929015 0.562097
1.000000 0.913787 0.570367
0.431861 1.000000 0.440467
0.434028 1.000000 0.440925
0.436500 1.000000 0.441199
0.441352 1.000000 0.441169
0.449012 1.000000 0.441291
0.459388 1.000000 0.441779
0.472358 1.000000 0.442603
0.487739 1.000000 0.443732
0.505486 1.000000 0.445563
0.525475 1.000000 0.448127
0.546899 1.000000 0.450752
0.569818 1.000000 0.453864
0.593744 1.000000 0.457252
0.618647 1.000000 0.460883
0.644038 1.000000 0.464485
