其他预设/【232】美食博客调色预设124款/1.3D LUT预设（视频调色-PR-AE-PS-FCPX-达芬奇用）/Food Art #73.cube
# Created by Adobe Lightroom plugin Export LUT (1.17.0)
# www.johnrellis.com/lightroom/exportlut.htm
# Preset: Food Art #73
# Color profile: /Library/Application Support/Adobe/Color/Profiles/Recommended/AdobeRGB1998.icc
LUT_3D_SIZE 32
0.000000 0.000000 0.000000
0.000977 0.000977 0.000977
0.016938 0.004089 0.004639
0.055482 0.012085 0.015869
0.081086 0.041169 0.030091
0.108553 0.062074 0.040864
0.138552 0.073671 0.046723
0.170199 0.083009 0.049958
0.203372 0.091066 0.054139
0.237705 0.097932 0.058991
0.273228 0.103487 0.062165
0.309880 0.109773 0.065736
0.347539 0.116426 0.070954
0.386267 0.122377 0.078431
0.425330 0.128969 0.086000
0.465278 0.134859 0.093355
0.505882 0.140200 0.100984
0.547082 0.144930 0.109041
0.587884 0.150027 0.116426
0.632746 0.155550 0.124544
0.677089 0.160830 0.133089
0.720058 0.166873 0.141054
0.760067 0.173922 0.149752
0.797665 0.181338 0.158389
0.833280 0.190188 0.167117
0.867369 0.199802 0.176638
0.899992 0.211612 0.186709
0.931273 0.225010 0.197787
0.961242 0.240604 0.210300
0.989776 0.258549 0.224277
1.000000 0.279118 0.240177
1.000000 0.302678 0.258518
0.000000 0.004822 0.000702
0.000732 0.009155 0.002472
0.017060 0.019257 0.005554
0.053529 0.044099 0.017670
0.080842 0.062806 0.029664
0.108309 0.074281 0.040253
0.138338 0.084260 0.046021
0.169863 0.092409 0.050263
0.202823 0.099397 0.055360
0.237034 0.105715 0.059205
0.272465 0.111574 0.062287
0.308995 0.116823 0.066377
0.346654 0.122683 0.071595
0.384985 0.129183 0.078645
0.424140 0.135225 0.085939
0.463813 0.140536 0.094179
0.504295 0.145632 0.101778
0.545556 0.150607 0.108858
0.586267 0.155337 0.116518
0.630854 0.160555 0.124727
0.674739 0.165774 0.132815
0.717433 0.171176 0.141085
0.757565 0.177676 0.149081
0.795193 0.185000 0.157778
0.830991 0.193362 0.166567
0.865202 0.202884 0.175875
0.898070 0.214054 0.186007
0.929595 0.227329 0.197299
0.959747 0.242466 0.209659
0.988464 0.260227 0.223484
1.000000 0.280491 0.239506
1.000000 0.303624 0.257603
0.000000 0.049836 0.004578
0.000000 0.054749 0.005066
0.014740 0.059724 0.008331
0.052491 0.067903 0.018555
0.080293 0.078157 0.031464
0.108217 0.087861 0.039673
0.138033 0.096254 0.046540
0.169406 0.103365 0.052277
0.202243 0.109865 0.055726
0.236423 0.115541 0.059419
0.271946 0.120638 0.062959
0.308385 0.126101 0.066499
0.345892 0.131197 0.072511
0.384314 0.137057 0.079530
0.423285 0.142855 0.087007
0.463142 0.148104 0.094575
0.503380 0.153292 0.102388
0.544549 0.157778 0.109682
0.585443 0.161898 0.117311
0.629908 0.167269 0.124880
0.673610 0.172213 0.132845
0.716213 0.177432 0.140810
0.756313 0.183383 0.149325
0.793973 0.190341 0.157748
0.829770 0.198489 0.166415
0.864073 0.207645 0.175601
0.897032 0.218448 0.185977
0.928679 0.231174 0.197086
0.958953 0.246128 0.209506
0.987762 0.263371 0.223453
1.000000 0.283085 0.239170
1.000000 0.306096 0.257359
0.000000 0.089845 0.016480
0.000000 0.091188 0.016876
0.012268 0.092592 0.019257
0.050446 0.096071 0.022461
0.079683 0.103151 0.032105
0.108278 0.110719 0.040101
0.138216 0.117372 0.047669
0.169345 0.123293 0.054108
0.202152 0.128817 0.058289
0.236210 0.133791 0.061158
0.271489 0.138552 0.063813
0.307988 0.143221 0.068025
0.345220 0.148257 0.074189
0.383490 0.153445 0.081666
0.422644 0.158511 0.088685
0.462318 0.163455 0.096071
0.502556 0.167697 0.103822
0.543572 0.172030 0.110780
0.585016 0.176089 0.118013
0.628626 0.180453 0.126101
0.671687 0.185153 0.133913
0.714046 0.190036 0.141573
0.754116 0.195773 0.149874
0.792172 0.202029 0.158236
0.828519 0.209354 0.166934
0.863279 0.217899 0.176303
0.896635 0.228244 0.186221
0.928435 0.240513 0.197574
0.958770 0.254856 0.209964
0.987549 0.271153 0.223636
1.000000 0.290349 0.239506
1.000000 0.312322 0.257572
0.000000 0.124483 0.025757
0.000000 0.125307 0.027161
0.008148 0.126619 0.029358
0.048341 0.128817 0.033722
0.079438 0.132540 0.039673
0.107698 0.137942 0.045716
0.137758 0.143313 0.052613
0.169009 0.148348 0.056458
0.201877 0.152987 0.059663
0.235569 0.157443 0.063661
0.270817 0.161746 0.066468
0.306950 0.165927 0.071626
0.344335 0.170291 0.077424
0.382666 0.174990 0.084810
0.421759 0.179263 0.091554
0.461433 0.183871 0.098665
0.502068 0.187869 0.105837
0.543053 0.191714 0.112886
0.585504 0.195285 0.120363
0.628595 0.199710 0.127596
0.671168 0.203799 0.135073
0.713191 0.208286 0.142824
0.753140 0.213291 0.150820
0.791165 0.218906 0.158999
0.827512 0.225620 0.167544
0.862455 0.233555 0.176699
0.895781 0.243137 0.187045
0.927672 0.254002 0.198093
0.958068 0.267399 0.210239
0.986847 0.282933 0.224460
1.000000 0.300999 0.240208
1.000000 0.321965 0.258213
0.000000 0.158907 0.039551
0.000000 0.159823 0.040772
0.000000 0.160586 0.041932
0.042420 0.162325 0.045045
0.078920 0.164950 0.048371
0.107912 0.168093 0.052583
0.138003 0.172213 0.057649
0.169345 0.176272 0.060578
0.201938 0.180209 0.063600
0.235782 0.183871 0.066529
0.270817 0.187839 0.070680
0.307012 0.191592 0.075410
0.344121 0.195468 0.082094
0.382452 0.199832 0.088380
0.421576 0.203738 0.095277
0.461433 0.207584 0.102327
0.502068 0.211398 0.109377
0.543145 0.215030 0.115694
0.586572 0.218753 0.122896
0.629297 0.222660 0.130343
0.671809 0.226474 0.137301
0.713741 0.230472 0.144594
0.769253 0.239658 0.156435
0.806302 0.245304 0.165011
0.841459 0.251469 0.173831
0.874937 0.258701 0.183322
0.906828 0.267613 0.193362
0.937194 0.278050 0.204807
0.966186 0.290349 0.217227
0.993774 0.305058 0.231083
1.000000 0.321904 0.247196
1.000000 0.341711 0.265202
0.000000 0.195010 0.049866
0.000000 0.195346 0.050172
0.000000 0.196017 0.050935
0.030488 0.197299 0.053254
0.077760 0.199252 0.056031
0.109377 0.201358 0.059937
0.140383 0.204227 0.062715
0.171878 0.207248 0.065583
0.204776 0.210269 0.068696
0.238773 0.213504 0.072694
0.274144 0.216861 0.076631
0.310430 0.220493 0.081392
0.347936 0.224186 0.087343
0.386236 0.227848 0.093690
0.425238 0.231174 0.100404
0.464851 0.234653 0.106966
0.505180 0.237858 0.113497
0.548150 0.241581 0.120058
0.591516 0.245457 0.126986
0.634760 0.249149 0.133944
0.678187 0.253056 0.141329
0.721279 0.257420 0.148623
0.762387 0.262150 0.156832
0.801328 0.267369 0.165225
0.838102 0.273320 0.174380
0.872496 0.280217 0.183658
0.904936 0.288121 0.194186
0.935576 0.297673 0.205447
0.964752 0.308843 0.217838
0.992340 0.322210 0.232029
1.000000 0.337865 0.247776
1.000000 0.356298 0.265904
0.000000 0.227939 0.058900
0.000000 0.228275 0.059876
0.000000 0.228733 0.059449
0.015412 0.229648 0.061128
0.075257 0.230961 0.063081
0.108614 0.232609 0.065309
0.140505 0.234562 0.068299
0.172580 0.236973 0.071626
0.205051 0.239292 0.075624
0.239017 0.242161 0.079164
0.274388 0.245243 0.082979
0.310765 0.248508 0.087556
0.347997 0.251835 0.093568
0.386206 0.255314 0.099641
0.425116 0.258518 0.105592
0.464820 0.261631 0.111574
0.505974 0.265110 0.117739
0.549371 0.268864 0.124056
0.591821 0.272465 0.130282
0.634455 0.275975 0.136934
0.677272 0.279576 0.144198
0.719966 0.283726 0.151064
0.760800 0.287907 0.158907
0.799527 0.292607 0.167086
0.836179 0.297887 0.175814
0.870665 0.304051 0.185122
0.903136 0.311192 0.195254
0.933959 0.319615 0.206455
0.963256 0.329839 0.219059
0.990967 0.341924 0.233127
1.000000 0.356481 0.249088
1.000000 0.373571 0.267155
0.000000 0.260288 0.067567
0.000000 0.260563 0.067292
0.000000 0.261021 0.068025
0.004089 0.261662 0.068757
0.072358 0.262760 0.070863
0.108278 0.263828 0.073152
0.141268 0.265537 0.075471
0.173678 0.267216 0.079133
0.206699 0.269230 0.082612
0.240208 0.271336 0.086549
0.275425 0.274266 0.090211
0.311650 0.277226 0.094881
0.349035 0.280461 0.100496
0.387366 0.283696 0.105531
0.425971 0.286839 0.111269
0.466133 0.290166 0.117098
0.508507 0.293919 0.122774
0.551141 0.297581 0.128450
0.592889 0.300694 0.134707
0.634943 0.303868 0.140841
0.677394 0.307439 0.147280
0.719692 0.311192 0.153719
0.760128 0.315404 0.161135
0.798642 0.319554 0.169100
0.835142 0.324346 0.177890
0.869505 0.329778 0.187106
0.902037 0.336126 0.197238
0.932830 0.343694 0.208164
0.962127 0.353002 0.220584
0.989868 0.363928 0.234745
1.000000 0.377203 0.250706
1.000000 0.393072 0.269108
0.000000 0.292302 0.076265
0.000000 0.292546 0.076997
0.000000 0.292699 0.077028
0.000000 0.293278 0.077943
0.071260 0.294072 0.080140
0.108614 0.295171 0.081697
0.142489 0.296361 0.084688
0.175784 0.297734 0.087282
0.208865 0.299260 0.090181
0.242222 0.300938 0.094301
0.276585 0.302983 0.098329
0.312810 0.305913 0.102693
0.350103 0.309148 0.107515
0.388373 0.312291 0.112337
0.428229 0.315953 0.117647
0.469734 0.319951 0.123232
0.511681 0.323583 0.128328
0.553857 0.326940 0.133730
0.595270 0.330022 0.138827
0.636652 0.333196 0.144930
0.678492 0.336584 0.150729
0.719875 0.340032 0.156863
0.759548 0.343511 0.163607
0.797269 0.347326 0.171328
0.833341 0.351507 0.179843
0.867643 0.356390 0.188998
0.900298 0.362066 0.198795
0.931334 0.369024 0.209903
0.960906 0.377417 0.222660
0.988830 0.387579 0.236881
1.000000 0.400000 0.253239
1.000000 0.414771 0.271855
0.000000 0.323919 0.086336
0.000000 0.324132 0.086397
0.000000 0.324437 0.086915
0.000000 0.324773 0.088045
0.072633 0.325414 0.089326
0.110750 0.326452 0.090944
0.145388 0.327550 0.093202
0.178866 0.328832 0.096010
0.212192 0.330022 0.099336
0.245945 0.331487 0.102724
0.280003 0.333135 0.105959
0.314916 0.334905 0.110323
0.352392 0.338293 0.114748
0.391730 0.342229 0.119753
0.431708 0.346105 0.124117
0.472419 0.349767 0.129213
0.513970 0.353246 0.133669
0.555596 0.356664 0.138582
0.596399 0.359442 0.143557
0.637507 0.362463 0.148684
0.678950 0.365759 0.154299
0.719936 0.369146 0.159976
0.759365 0.372656 0.166690
0.796872 0.376196 0.174136
0.832761 0.380102 0.182376
0.866941 0.384466 0.191440
0.899413 0.389532 0.201480
0.930358 0.395666 0.212467
0.959808 0.403296 0.224979
0.987701 0.412482 0.239200
1.000000 0.423774 0.255619
1.000000 0.437507 0.274510
0.000000 0.356268 0.097078
0.000000 0.356359 0.097169
0.000000 0.356573 0.097902
0.000000 0.356909 0.098573
0.076905 0.357580 0.099611
0.114900 0.358404 0.101259
0.149691 0.359380 0.103456
0.183536 0.360601 0.105623
0.217075 0.361791 0.108492
0.250950 0.363073 0.111299
0.285313 0.364477 0.114809
0.321050 0.366979 0.118563
0.365423 0.375280 0.124636
0.405493 0.379400 0.128939
0.446052 0.383093 0.133150
0.487221 0.386786 0.137331
0.528862 0.390356 0.141665
0.570062 0.393378 0.145846
0.610132 0.395605 0.150240
0.650507 0.398260 0.155184
0.690913 0.401160 0.160311
0.730404 0.404059 0.166018
0.768124 0.406714 0.172580
0.804349 0.409644 0.179812
0.839109 0.412848 0.187930
0.872282 0.416663 0.196933
0.903838 0.421088 0.207004
0.933959 0.426490 0.218082
0.962615 0.433173 0.230747
0.989868 0.441444 0.245090
1.000000 0.451759 0.261631
1.000000 0.464332 0.280705
0.000000 0.391547 0.108400
0.000000 0.391730 0.108431
0.000000 0.391791 0.108888
0.019593 0.391913 0.109529
0.084932 0.392248 0.110719
0.121706 0.392645 0.111818
0.156405 0.393347 0.113588
0.190005 0.394141 0.115969
0.223880 0.395270 0.118257
0.259129 0.397742 0.120943
0.295201 0.400427 0.124208
0.332006 0.403235 0.127962
0.369543 0.406043 0.131838
0.407263 0.408545 0.135409
0.447944 0.412940 0.139223
0.489113 0.416846 0.143008
0.530449 0.420417 0.146761
0.570977 0.423224 0.150546
0.610590 0.425605 0.154574
0.650477 0.428199 0.159274
0.690517 0.431067 0.163943
0.729610 0.433692 0.169467
0.766964 0.436347 0.175784
0.802976 0.439002 0.182650
0.837552 0.441932 0.190585
0.870603 0.445289 0.199405
0.902190 0.449409 0.209415
0.932280 0.454261 0.220676
0.961028 0.460243 0.233219
0.988342 0.467903 0.247959
1.000000 0.477302 0.264805
1.000000 0.488930 0.284031
0.000000 0.424567 0.118563
0.000000 0.424659 0.118593
0.000000 0.424720 0.118807
0.048798 0.424842 0.119173
0.094087 0.425055 0.120027
0.129824 0.425605 0.121492
0.164034 0.426795 0.123201
0.197726 0.428229 0.125063
0.232120 0.429816 0.127230
0.267002 0.431739 0.129549
0.302525 0.434028 0.132753
0.339117 0.436469 0.135531
0.376074 0.438911 0.139010
0.413428 0.441260 0.142000
0.450752 0.443183 0.145449
0.491096 0.446876 0.148470
0.531975 0.450477 0.151400
0.571954 0.453346 0.154726
0.611139 0.455665 0.158511
0.650690 0.458228 0.162661
0.690547 0.461219 0.167300
0.729274 0.463905 0.172671
0.766415 0.466377 0.178866
0.802243 0.468940 0.185946
0.836667 0.471687 0.193606
0.869627 0.474769 0.202518
0.901122 0.478370 0.212528
0.931212 0.482765 0.223819
0.959930 0.488350 0.236851
0.987243 0.495338 0.251713
1.000000 0.504051 0.268803
1.000000 0.514885 0.288487
0.000000 0.460395 0.128115
0.000000 0.460487 0.128481
0.008759 0.460517 0.128664
0.070985 0.460792 0.129274
0.106996 0.461067 0.129824
0.140444 0.461494 0.130770
0.173190 0.462165 0.132296
0.206638 0.463142 0.133852
0.240452 0.464454 0.135348
0.275090 0.466072 0.137850
0.310430 0.468116 0.140108
0.346593 0.470344 0.142855
0.383429 0.472511 0.145144
0.420539 0.474617 0.148104
0.457679 0.476417 0.150607
0.494575 0.477821 0.153414
0.534173 0.480964 0.156100
0.573419 0.483680 0.159243
0.612299 0.486091 0.162570
0.651484 0.488655 0.166690
0.690883 0.491524 0.170840
0.729152 0.494209 0.175967
0.765988 0.496651 0.182040
0.801572 0.499001 0.189029
0.835904 0.501549 0.196902
0.868864 0.504570 0.205814
0.900542 0.507927 0.216190
0.930816 0.512291 0.227726
0.959716 0.517571 0.241398
0.987121 0.524285 0.256687
1.000000 0.532555 0.274449
1.000000 0.542870 0.295201
0.000000 0.497047 0.137179
0.021881 0.497230 0.137331
0.058961 0.497353 0.137423
0.088502 0.497505 0.137667
0.119875 0.497749 0.138643
0.151766 0.498268 0.139437
0.183932 0.498909 0.140414
0.216831 0.499855 0.141817
0.250340 0.500938 0.143313
0.284611 0.502342 0.145174
0.319738 0.503929 0.147189
0.355444 0.505608 0.149081
0.391455 0.507103 0.151125
0.427893 0.508751 0.153475
0.464363 0.509941 0.156008
0.500786 0.511009 0.158206
0.537041 0.511864 0.160433
0.575036 0.513939 0.163424
0.613794 0.516533 0.166842
0.653010 0.519463 0.170626
0.692226 0.522606 0.174777
0.730373 0.525383 0.179934
0.767025 0.527764 0.185946
0.802426 0.530083 0.192782
0.836545 0.532555 0.200900
0.869444 0.535363 0.210300
0.900938 0.538598 0.220615
0.931090 0.542535 0.232547
0.959808 0.547448 0.246525
0.986969 0.553521 0.262181
1.000000 0.561120 0.280461
1.000000 0.570550 0.301457
0.050690 0.533227 0.144686
0.067536 0.533379 0.144656
0.080995 0.533379 0.144961
0.104768 0.533501 0.145174
0.132753 0.533837 0.145876
0.163088 0.534020 0.146548
0.194217 0.534600 0.147585
0.226352 0.535332 0.148623
0.259312 0.536217 0.149905
0.293187 0.537346 0.151369
0.327916 0.538659 0.152987
0.363134 0.540093 0.154971
0.398840 0.541436 0.156771
0.434730 0.542596 0.158968
0.470741 0.543511 0.161044
0.506554 0.544213 0.163272
0.542290 0.544640 0.165652
0.577996 0.545281 0.167636
0.615442 0.547112 0.170626
0.654170 0.550103 0.174289
0.692988 0.553155 0.178470
0.730617 0.555840 0.183291
0.766964 0.558221 0.189425
0.802182 0.560632 0.196384
0.836210 0.562982 0.204623
0.868986 0.565606 0.214145
0.900450 0.568688 0.224796
0.930541 0.572412 0.237339
0.959258 0.576989 0.251408
0.986358 0.582696 0.267887
1.000000 0.589776 0.286442
1.000000 0.598596 0.308293
0.081697 0.569451 0.151492
0.090761 0.569665 0.151888
0.106386 0.577356 0.153689
0.126345 0.577356 0.154055
0.151797 0.577356 0.154452
0.179812 0.577356 0.155123
0.209903 0.577417 0.155917
0.241062 0.577600 0.156558
0.273594 0.578088 0.157687
0.307195 0.578729 0.158968
0.341314 0.579492 0.160616
0.376104 0.580346 0.162173
0.411292 0.580987 0.163760
0.446815 0.581567 0.165682
0.482277 0.582086 0.167849
0.517815 0.582361 0.169528
0.553185 0.582605 0.171572
0.588434 0.582696 0.173617
0.623560 0.582849 0.175845
0.660426 0.584588 0.178927
0.698054 0.587091 0.183078
0.734890 0.589349 0.188357
0.770504 0.591394 0.194400
0.804959 0.593256 0.201663
0.838163 0.595117 0.209873
0.870115 0.597192 0.219516
0.900847 0.599603 0.230076
0.930388 0.602747 0.242802
0.958740 0.606775 0.257023
0.985687 0.611963 0.273716
1.000000 0.618524 0.293156
1.000000 0.626703 0.315435
0.106020 0.607019 0.159091
0.113680 0.608118 0.159213
0.123598 0.609155 0.159426
0.141299 0.610163 0.160189
0.164828 0.610864 0.160678
0.191623 0.611231 0.161257
0.220310 0.611444 0.162081
0.250706 0.611658 0.162936
0.282719 0.612024 0.163851
0.315190 0.612573 0.165103
0.348913 0.613184 0.166567
0.383215 0.613886 0.167788
0.417945 0.614466 0.169558
0.452979 0.614984 0.171023
0.487984 0.615320 0.172793
0.523064 0.615503 0.174441
0.558099 0.615625 0.176699
0.593042 0.615747 0.178653
0.628016 0.615930 0.180880
0.662959 0.616327 0.183200
0.698878 0.617792 0.186587
0.735348 0.620172 0.191928
0.770809 0.622095 0.198184
0.805112 0.623957 0.205692
0.838132 0.625757 0.214389
0.870054 0.627741 0.224155
0.900694 0.630030 0.235294
0.930083 0.632959 0.248295
0.958312 0.636652 0.263188
0.985046 0.641444 0.280430
1.000000 0.647456 0.300298
1.000000 0.655085 0.323461
0.127291 0.642054 0.165133
0.133822 0.643061 0.165774
0.142214 0.644099 0.166110
0.157931 0.645014 0.166415
0.179660 0.645686 0.166873
0.204562 0.646021 0.167422
0.232395 0.646143 0.168063
0.261662 0.646326 0.168978
0.292515 0.646723 0.169833
0.324468 0.646998 0.170962
0.357549 0.647639 0.172183
0.391241 0.648188 0.173770
0.425360 0.648615 0.175357
0.459846 0.649012 0.176791
0.494545 0.649195 0.178653
0.529107 0.649226 0.180392
0.563653 0.649165 0.182376
0.598199 0.649226 0.184298
0.632563 0.649195 0.186770
0.667170 0.649500 0.189181
0.701503 0.649897 0.191928
0.736416 0.651240 0.196109
0.771572 0.653132 0.202609
0.805600 0.654932 0.210452
0.838376 0.656672 0.219211
0.870054 0.658381 0.229282
0.900420 0.660456 0.240848
0.929686 0.663020 0.254154
0.957641 0.666438 0.269657
0.984222 0.670771 0.287480
1.000000 0.676295 0.308019
1.000000 0.683314 0.331762
0.147860 0.677241 0.172152
0.153750 0.678096 0.172305
0.161257 0.679011 0.172763
0.175448 0.679866 0.173037
0.195407 0.680446 0.173739
0.218845 0.680690 0.174136
0.245090 0.680751 0.174899
0.272953 0.680873 0.175662
0.302953 0.680995 0.176425
0.334112 0.681147 0.177768
0.366339 0.681544 0.178622
0.399329 0.681849 0.180240
0.432837 0.682063 0.181949
0.466651 0.682307 0.183505
0.500755 0.682460 0.185397
0.535149 0.682612 0.187350
0.569512 0.682765 0.189364
0.603998 0.683009 0.191745
0.638544 0.683467 0.194217
0.672999 0.684047 0.197116
0.707393 0.684749 0.200320
0.741573 0.685664 0.203830
0.775662 0.686946 0.208835
0.809628 0.688777 0.217197
0.842283 0.690486 0.226627
0.873655 0.692134 0.237522
0.903716 0.693965 0.249760
0.932555 0.696284 0.263859
0.960113 0.699245 0.280400
0.986114 0.703182 0.299107
1.000000 0.708125 0.320623
1.000000 0.714504 0.345434
0.172702 0.714900 0.180728
0.177737 0.715328 0.181155
0.183780 0.715633 0.181094
0.196017 0.715908 0.181369
0.214023 0.716060 0.181827
0.235477 0.716091 0.182498
0.259983 0.716060 0.183017
0.286992 0.716121 0.184085
0.315892 0.716274 0.185000
0.346349 0.716487 0.185855
0.377539 0.716915 0.187320
0.409888 0.717189 0.188815
0.442786 0.717342 0.190311
0.475929 0.717403 0.192386
0.509392 0.717342 0.194156
0.543084 0.717311 0.196292
0.576806 0.717220 0.198398
0.610559 0.717311 0.200839
0.644282 0.717433 0.203738
0.678096 0.717678 0.206546
0.711604 0.718074 0.209751
0.744839 0.718593 0.213443
0.777798 0.719173 0.217166
0.810391 0.719936 0.222690
0.842649 0.721340 0.232242
0.873747 0.722774 0.243503
0.903593 0.724331 0.256565
0.932250 0.726375 0.271427
0.959564 0.729091 0.288334
0.985382 0.732509 0.307500
1.000000 0.736965 0.330022
1.000000 0.742794 0.355718
0.195682 0.748165 0.189609
0.199893 0.748562 0.190005
0.205325 0.748959 0.190005
0.216678 0.749142 0.190707
0.232700 0.749264 0.191165
0.252567 0.749203 0.191623
0.275792 0.749050 0.192111
0.300908 0.748989 0.192752
0.328527 0.749020 0.193759
0.357610 0.749050 0.195102
0.387945 0.749294 0.196536
0.419196 0.749416 0.198123
0.451087 0.749538 0.199863
0.483772 0.749508 0.201541
0.516381 0.749538 0.203616
0.549462 0.749508 0.205631
0.582574 0.749447 0.208347
0.615778 0.749569 0.211063
0.649073 0.749691 0.213993
0.682277 0.750027 0.217288
0.715358 0.750454 0.220768
0.748226 0.750973 0.224643
0.780728 0.751675 0.228977
0.812833 0.752407 0.233829
0.842283 0.751278 0.238102
0.873075 0.752499 0.249699
0.902800 0.753902 0.262913
0.931243 0.755703 0.278294
0.958373 0.758053 0.295842
0.984039 0.761105 0.315923
1.000000 0.765133 0.339025
1.000000 0.770443 0.365728
0.222843 0.783413 0.201663
0.226444 0.783810 0.202029
0.231388 0.784054 0.202182
0.241367 0.784115 0.202365
0.255589 0.784024 0.202884
0.273686 0.783810 0.203128
0.294682 0.783474 0.204013
0.318425 0.783108 0.204379
0.344335 0.782742 0.205386
0.371771 0.782437 0.206363
0.400488 0.782193 0.207828
0.430457 0.782010 0.209445
0.461219 0.781796 0.211032
0.492561 0.781491 0.212741
0.524132 0.781094 0.214572
0.555993 0.780667 0.216770
0.588037 0.780301 0.219303
0.620325 0.780056 0.221958
0.652796 0.780117 0.225071
0.685359 0.780392 0.228580
0.717830 0.780850 0.232517
0.750057 0.781430 0.236973
0.781857 0.781949 0.241733
0.813107 0.782376 0.246555
0.843778 0.782834 0.251469
0.873838 0.783322 0.257328
0.903044 0.784298 0.270970
0.931060 0.785611 0.286870
0.957824 0.787472 0.304906
0.983154 0.789975 0.325719
1.000000 0.793484 0.349859
1.000000 0.798123 0.376989
0.247868 0.814664 0.213748
0.251408 0.815091 0.214176
0.255680 0.815305 0.214420
0.264561 0.815366 0.214694
0.277714 0.815244 0.214969
0.294133 0.815030 0.215610
0.313756 0.814755 0.216220
0.335912 0.814420 0.217044
0.360296 0.814176 0.217838
0.386572 0.813993 0.219181
0.414191 0.813809 0.220615
0.443030 0.813657 0.222263
0.472816 0.813565 0.224277
0.503105 0.813321 0.226413
0.533806 0.813016 0.228550
0.564904 0.812680 0.231022
0.596246 0.812314 0.233646
0.627710 0.812100 0.236728
0.659388 0.812100 0.240177
0.691127 0.812284 0.244175
0.722774 0.812589 0.248569
0.754238 0.812985 0.252995
0.785336 0.813443 0.258030
0.815885 0.813870 0.263218
0.845945 0.814298 0.268956
0.875303 0.814755 0.274846
0.904173 0.815274 0.281071
0.931914 0.816251 0.297490
0.958312 0.817685 0.316686
0.983276 0.819699 0.338354
1.000000 0.822721 0.363287
1.000000 0.826596 0.390875
0.276280 0.846067 0.228763
0.279576 0.846311 0.229099
0.283146 0.846372 0.229374
0.290898 0.846311 0.229404
0.302403 0.846067 0.229831
0.317327 0.845762 0.230289
0.335088 0.845396 0.230961
0.355474 0.845029 0.231754
0.378332 0.844724 0.232700
0.402991 0.844480 0.234165
0.429267 0.844266 0.235569
0.456794 0.844175 0.237552
0.485420 0.844053 0.239841
0.514611 0.843870 0.242069
0.544213 0.843534 0.244327
0.574304 0.843137 0.246891
0.604517 0.842741 0.250126
0.635065 0.842435 0.253269
0.665797 0.842344 0.256931
0.696651 0.842435 0.261082
0.727474 0.842649 0.265812
0.758083 0.842954 0.270878
0.788327 0.843320 0.276249
0.818082 0.843687 0.282048
0.847379 0.844022 0.288304
0.876066 0.844450 0.294591
0.904204 0.844938 0.301579
0.931670 0.845548 0.308904
0.957855 0.846555 0.327428
0.982574 0.848142 0.349981
1.000000 0.850431 0.375158
1.000000 0.853574 0.403540
0.306004 0.875639 0.245853
0.308507 0.875792 0.246189
0.311864 0.875853 0.246403
0.318700 0.875822 0.246403
0.329259 0.875669 0.246891
0.342962 0.875608 0.247807
0.359777 0.875639 0.248753
0.379065 0.875792 0.250004
0.401038 0.875944 0.251957
0.424720 0.876280 0.254002
0.450080 0.876555 0.256291
0.476631 0.876860 0.258762
0.504143 0.877073 0.261387
0.532372 0.877134 0.264378
0.561059 0.877012 0.267521
0.589899 0.876677 0.270420
0.619135 0.876341 0.273838
0.648493 0.876036 0.277470
0.678157 0.875822 0.281865
0.707851 0.875792 0.286351
0.737514 0.875853 0.291691
0.767086 0.876005 0.297398
0.796262 0.876188 0.303197
0.824949 0.876402 0.309636
0.853178 0.876616 0.316320
0.880827 0.876890 0.323552
0.907958 0.877287 0.331243
0.934478 0.877745 0.339117
0.960418 0.878477 0.347814
0.984649 0.879393 0.368322
1.000000 0.880797 0.394141
1.000000 0.882872 0.422858
0.343297 0.907347 0.269505
0.345525 0.907469 0.269596
0.348302 0.907408 0.269902
0.354253 0.907286 0.270085
0.363348 0.907073 0.270512
0.375433 0.906798 0.271092
0.390295 0.906584 0.271977
0.407538 0.906432 0.273228
0.427100 0.906279 0.274601
0.448768 0.906188 0.276738
0.472023 0.906065 0.278752
0.496498 0.905974 0.281071
0.522087 0.905852 0.283757
0.548516 0.905638 0.286778
0.575494 0.905333 0.289830
0.602991 0.904967 0.293400
