其他预设/【232】美食博客调色预设124款/1.3D LUT预设（视频调色-PR-AE-PS-FCPX-达芬奇用）/Food Art #44.cube
# Created by Adobe Lightroom plugin Export LUT (1.17.0)
# www.johnrellis.com/lightroom/exportlut.htm
# Preset: Food Art #44
# Color profile: /Library/Application Support/Adobe/Color/Profiles/Recommended/AdobeRGB1998.icc
LUT_3D_SIZE 8
DOMAIN_MIN 0.000000 0.000000 0.000000
DOMAIN_MAX 0.903226 0.903226 0.903226
0.180789 0.139742 0.113741
0.199222 0.139681 0.116152
0.284459 0.139712 0.131502
0.388617 0.144747 0.141451
0.502190 0.169558 0.155001
0.621332 0.210361 0.189212
0.739895 0.269688 0.241093
0.851438 0.352270 0.318730
0.187472 0.162905 0.118135
0.208591 0.167025 0.121157
0.288518 0.168490 0.134310
0.390173 0.177951 0.143404
0.501610 0.198886 0.158968
0.618402 0.234348 0.192660
0.736110 0.287968 0.243320
0.848875 0.366125 0.320775
0.216434 0.248569 0.137087
0.237400 0.250309 0.138430
0.310674 0.255161 0.143862
0.405798 0.263310 0.155154
0.513054 0.280552 0.177096
0.627955 0.310338 0.211093
0.744686 0.357275 0.264622
0.854307 0.424872 0.344030
0.260929 0.355505 0.161318
0.280674 0.356359 0.163027
0.342321 0.360479 0.170504
0.435615 0.375189 0.187808
0.539178 0.392523 0.211826
0.645075 0.415106 0.244572
0.750942 0.449866 0.296635
0.855833 0.505089 0.376287
0.319921 0.478767 0.207645
0.336034 0.479591 0.209659
0.388373 0.483772 0.217350
0.467292 0.493263 0.232639
0.558465 0.505119 0.253727
0.656123 0.522545 0.284794
0.755581 0.550011 0.337896
0.857572 0.597711 0.421241
0.385595 0.606897 0.270512
0.400305 0.610315 0.274418
0.442847 0.612818 0.281926
0.508965 0.618067 0.296178
0.588556 0.625391 0.316991
0.674952 0.636378 0.346075
0.767330 0.656855 0.396216
0.862486 0.695674 0.482307
0.469306 0.731106 0.366094
0.479469 0.732204 0.368719
0.511376 0.733211 0.375677
0.564172 0.736660 0.390173
0.630457 0.741634 0.411048
0.705623 0.750027 0.440772
0.783963 0.761379 0.478737
0.866575 0.783841 0.543236
0.578820 0.847715 0.503471
0.585443 0.847898 0.505516
0.608789 0.849119 0.513298
0.648951 0.852293 0.528801
0.696437 0.852567 0.543175
0.756954 0.858732 0.570947
0.821622 0.866941 0.605432
0.885008 0.875700 0.643610
0.182406 0.142519 0.130953
0.204746 0.139864 0.132876
0.284489 0.148959 0.143954
0.385565 0.165896 0.162173
0.496742 0.186130 0.182986
0.613031 0.221622 0.214023
0.731716 0.275944 0.260899
0.844907 0.355413 0.333074
0.186496 0.161929 0.134829
0.214084 0.166690 0.137545
0.289982 0.178866 0.150942
0.388647 0.191531 0.165927
0.498238 0.211093 0.186465
0.612940 0.243870 0.217350
0.729458 0.293431 0.262821
0.842313 0.368444 0.334508
0.221500 0.246555 0.153628
0.247196 0.247654 0.158816
0.311009 0.253544 0.166201
0.402991 0.265324 0.179843
0.508843 0.284092 0.201236
0.620722 0.312871 0.232486
0.735073 0.356847 0.280064
0.846769 0.423865 0.354681
0.267002 0.351537 0.182864
0.287480 0.352331 0.186282
0.345159 0.357733 0.193393
0.430426 0.369024 0.207401
0.528893 0.385534 0.228916
0.633783 0.409094 0.259464
0.741024 0.445136 0.307836
0.848753 0.502098 0.384497
0.325658 0.475837 0.228183
0.340887 0.476265 0.229831
0.390295 0.479713 0.236454
0.464790 0.487098 0.249454
0.552453 0.498146 0.268162
0.650050 0.517601 0.298344
0.750423 0.547051 0.349554
0.853178 0.595789 0.429847
0.388373 0.602502 0.286473
0.400977 0.603418 0.288334
0.442329 0.606317 0.295445
0.507500 0.612665 0.309514
0.586542 0.621393 0.329961
0.673030 0.633967 0.358831
0.764706 0.655024 0.407446
0.859495 0.693935 0.489693
0.469368 0.725765 0.375738
0.478309 0.725582 0.377142
0.510124 0.727413 0.384314
0.563073 0.732143 0.399298
0.629511 0.738399 0.420722
0.703609 0.746822 0.449104
0.780636 0.757565 0.484230
0.863127 0.780423 0.546166
0.578576 0.844785 0.509483
0.585534 0.845396 0.511894
0.608789 0.846921 0.519677
0.648798 0.850340 0.535027
0.699916 0.854337 0.554833
0.758297 0.859251 0.579492
0.821134 0.866148 0.610590
0.883787 0.874388 0.646540
0.184543 0.151308 0.191592
0.211398 0.148898 0.194003
0.291691 0.152499 0.201938
0.390204 0.171756 0.219272
0.498878 0.200229 0.243717
0.615015 0.245151 0.280156
0.732174 0.300084 0.324865
0.844511 0.378943 0.391028
0.205600 0.170779 0.193637
0.230411 0.175357 0.196506
0.297185 0.183383 0.205509
0.392676 0.199557 0.223239
0.500389 0.225834 0.248142
0.614740 0.264683 0.282353
0.730892 0.316014 0.326390
0.843412 0.391760 0.393194
0.232975 0.245640 0.209140
0.255894 0.247807 0.211704
0.321904 0.259617 0.224552
0.408179 0.272496 0.239109
0.512718 0.296117 0.263981
0.622736 0.327337 0.295171
0.734463 0.372717 0.339666
0.844755 0.440314 0.407568
0.276066 0.352300 0.238102
0.296483 0.353491 0.241276
0.355962 0.360876 0.252232
0.436042 0.372412 0.265599
0.532128 0.391516 0.288212
0.635859 0.418341 0.318791
0.741634 0.457191 0.365026
0.848020 0.515770 0.435340
0.331884 0.475166 0.279545
0.349340 0.476051 0.283055
0.400855 0.480110 0.293858
0.471534 0.488899 0.306035
0.555993 0.500908 0.323064
0.650996 0.521752 0.351751
0.749569 0.553460 0.399908
0.851530 0.604486 0.474556
0.394934 0.601831 0.333806
0.409461 0.602472 0.337835
0.451972 0.604669 0.347570
0.512871 0.610346 0.359289
0.588098 0.619043 0.377203
0.671138 0.631678 0.402899
0.761990 0.655695 0.449317
0.858183 0.698360 0.526085
0.478279 0.725734 0.417670
0.489357 0.725460 0.421302
0.520867 0.726314 0.429450
0.570092 0.730190 0.441718
0.633326 0.736324 0.460365
0.705287 0.745785 0.486793
0.781216 0.758511 0.519371
0.864317 0.784176 0.577386
0.585107 0.843626 0.538964
0.592035 0.843412 0.541344
0.613825 0.844633 0.547631
0.653193 0.849027 0.562310
0.702358 0.853056 0.579492
0.759976 0.858671 0.602655
0.822049 0.866178 0.632136
0.884245 0.875120 0.666102
0.198428 0.148470 0.272007
0.227543 0.144961 0.275944
0.303716 0.157076 0.286076
0.396796 0.175296 0.299138
0.502953 0.204166 0.321996
0.615778 0.247929 0.354284
0.728878 0.309331 0.397253
0.839322 0.394415 0.459266
0.224277 0.178042 0.274601
0.245548 0.180484 0.277531
0.310796 0.188876 0.287968
0.400519 0.203067 0.302190
0.505699 0.230137 0.326085
0.616480 0.270390 0.357671
0.728328 0.327733 0.400305
0.838712 0.409216 0.463020
0.248356 0.246952 0.281743
0.268070 0.249577 0.283696
0.329076 0.261418 0.297276
0.415381 0.277012 0.315923
0.516808 0.303319 0.341161
0.625483 0.339544 0.374701
0.734981 0.392523 0.420478
0.842527 0.460639 0.480659
0.286015 0.348760 0.311711
0.304540 0.350927 0.314031
0.361547 0.360296 0.324895
0.451057 0.385168 0.351598
0.536858 0.400092 0.367834
0.636072 0.427649 0.396399
0.738888 0.469337 0.439155
0.844907 0.530358 0.502770
0.341711 0.476661 0.356847
0.357733 0.477150 0.358709
0.407996 0.481514 0.366857
0.482277 0.494087 0.384894
0.561913 0.506676 0.400366
0.653254 0.528862 0.427619
0.749020 0.563348 0.471748
0.849638 0.614557 0.535241
0.403113 0.603967 0.405493
0.418158 0.606409 0.409766
0.461097 0.607843 0.418433
0.524773 0.613611 0.434302
0.595575 0.622370 0.450080
0.673243 0.634302 0.471748
0.761471 0.660578 0.513085
0.856962 0.703182 0.575830
0.483467 0.725460 0.474678
0.494728 0.725978 0.478370
0.530877 0.727443 0.490028
0.582910 0.731289 0.506645
0.641840 0.738003 0.522057
0.709346 0.747341 0.542443
0.781521 0.759487 0.567712
0.864195 0.786648 0.618616
0.589441 0.844694 0.581079
0.596918 0.845029 0.583795
0.620386 0.845640 0.591333
0.657282 0.848112 0.602502
0.705104 0.852262 0.617365
0.761471 0.858152 0.637598
0.822721 0.866148 0.663813
0.884428 0.875792 0.694667
0.225101 0.148928 0.368170
0.248631 0.152743 0.371252
0.315801 0.163851 0.381537
0.409766 0.183383 0.401831
0.509300 0.211154 0.418891
0.619013 0.253788 0.447913
0.729915 0.315801 0.484596
0.840085 0.401801 0.537438
0.241855 0.183627 0.369055
0.261845 0.186130 0.372564
0.322972 0.194583 0.383001
0.413123 0.211643 0.403174
0.511559 0.236637 0.421210
0.620600 0.276280 0.450721
0.730465 0.334997 0.487739
0.840024 0.417029 0.540703
0.267918 0.254856 0.372778
0.286931 0.258915 0.376684
0.341161 0.267796 0.388006
0.425727 0.285710 0.410315
0.519951 0.307469 0.430518
0.624689 0.340978 0.459541
0.731502 0.392309 0.497353
0.838956 0.464057 0.550591
0.298009 0.344579 0.391089
0.314549 0.346899 0.392920
0.365667 0.355413 0.400702
0.447883 0.379583 0.426886
0.540002 0.404486 0.453376
0.637293 0.432898 0.480385
0.736904 0.476539 0.517571
0.841428 0.533257 0.568505
0.345556 0.463355 0.432380
0.360479 0.465248 0.434607
0.408057 0.472297 0.442420
0.480598 0.488319 0.459998
0.572076 0.517937 0.491798
0.653986 0.534508 0.509209
0.745785 0.567041 0.543145
0.846799 0.613764 0.592401
0.408179 0.599847 0.487098
0.421149 0.600427 0.488624
0.461769 0.602472 0.493751
0.524041 0.608942 0.505425
0.597650 0.620661 0.523857
0.673213 0.634943 0.543267
0.760800 0.662806 0.577203
0.855680 0.703273 0.627100
0.488289 0.723507 0.545678
0.498482 0.723537 0.547478
0.532372 0.724514 0.554681
0.583490 0.728420 0.567285
0.641993 0.736110 0.580987
0.708400 0.746212 0.597589
0.779934 0.758541 0.618189
0.863066 0.786587 0.662928
0.589227 0.841886 0.631037
0.595941 0.841947 0.632624
0.618311 0.842679 0.637751
0.656489 0.846799 0.648676
0.702876 0.850767 0.659602
0.759487 0.856779 0.676905
0.820981 0.864927 0.699397
0.883085 0.874846 0.726009
0.249607 0.161685 0.481239
0.269841 0.164248 0.484230
0.330907 0.173983 0.493660
0.420386 0.193118 0.514275
0.526818 0.226596 0.542901
0.624567 0.263554 0.555566
0.731746 0.325750 0.584527
0.841642 0.413428 0.628748
0.260349 0.192081 0.479805
0.278752 0.194186 0.482460
0.336339 0.202213 0.492653
0.423041 0.220005 0.513329
0.527977 0.251347 0.542535
0.624781 0.284703 0.555688
0.731563 0.343359 0.585443
0.841093 0.427436 0.630243
0.285649 0.265354 0.483528
0.301671 0.267460 0.486458
0.353918 0.275822 0.497475
0.435248 0.293004 0.518090
0.535760 0.322332 0.547601
0.630243 0.349950 0.562646
0.734066 0.401038 0.592737
0.841550 0.474861 0.638056
0.309606 0.348089 0.485878
0.325139 0.351141 0.489204
0.376287 0.363592 0.503166
0.454108 0.384741 0.527794
0.549889 0.415290 0.558740
0.642908 0.442298 0.578729
0.740719 0.485695 0.608057
0.844480 0.542107 0.650996
0.350195 0.458259 0.519005
0.363531 0.459876 0.520531
0.406317 0.465583 0.525628
0.470802 0.476326 0.536034
0.561303 0.506249 0.566857
0.656214 0.540093 0.596155
0.747433 0.571344 0.623468
0.847288 0.613794 0.662715
0.406104 0.584894 0.563806
0.418555 0.586786 0.565820
0.457710 0.591547 0.571038
0.518578 0.600977 0.581140
0.593805 0.616693 0.597894
0.682643 0.647364 0.630457
0.763546 0.666285 0.650050
0.855589 0.701900 0.687587
0.493660 0.721798 0.625849
0.504540 0.723018 0.627985
0.538262 0.725917 0.633875
0.586633 0.730587 0.642054
0.642847 0.738094 0.651789
0.709926 0.749966 0.666255
0.782040 0.762173 0.683223
0.865171 0.790036 0.720363
0.592370 0.841703 0.694881
0.598535 0.841794 0.695735
0.619654 0.842649 0.698878
0.654719 0.845548 0.705196
0.700801 0.849821 0.713558
0.756435 0.856138 0.725795
0.819516 0.864866 0.744839
0.882658 0.875151 0.766842
0.269627 0.173831 0.613245
0.288609 0.176425 0.615839
0.346746 0.186191 0.623835
0.431983 0.206210 0.638514
0.532555 0.241825 0.659327
0.637964 0.291447 0.680476
0.732906 0.338567 0.689876
0.840452 0.423438 0.723140
0.276799 0.201633 0.612024
0.294682 0.204074 0.614527
0.350866 0.212467 0.622614
0.434180 0.230961 0.636927
0.533593 0.264195 0.657801
0.638270 0.311070 0.679652
0.732143 0.354498 0.689021
0.839231 0.435401 0.722652
0.295140 0.273045 0.612543
0.311528 0.275212 0.614771
0.364172 0.283421 0.622553
0.443641 0.300603 0.637140
0.539849 0.330480 0.658350
0.643702 0.374121 0.683131
0.735225 0.410468 0.693233
0.840879 0.482399 0.728206
0.317571 0.359838 0.611872
0.332433 0.361883 0.613886
0.380865 0.370306 0.622370
0.456641 0.387640 0.637720
0.549676 0.416632 0.660151
0.653559 0.461524 0.690028
0.741085 0.491035 0.701198
0.843717 0.546319 0.735927
0.348608 0.457435 0.618372
0.360113 0.457832 0.618494
0.397528 0.459419 0.619471
0.464485 0.472877 0.634089
0.555962 0.501640 0.659510
0.659480 0.545739 0.692164
0.748409 0.575067 0.711177
0.847715 0.618585 0.745205
0.406531 0.580163 0.653407
0.416968 0.580957 0.653956
0.450996 0.583551 0.655787
0.503593 0.588128 0.659510
0.569726 0.595026 0.665217
0.665522 0.629236 0.697505
0.763638 0.668299 0.731228
0.854978 0.702174 0.760311
0.482490 0.707271 0.696407
0.491829 0.708156 0.697292
0.522057 0.710780 0.700008
0.567987 0.715969 0.705409
0.626001 0.724666 0.714382
0.698085 0.740291 0.730587
0.787625 0.770382 0.761990
0.865965 0.790860 0.783261
0.585443 0.836210 0.758267
0.591943 0.836820 0.759213
0.614710 0.839658 0.763241
0.651759 0.844205 0.769589
0.700374 0.850095 0.777951
0.755703 0.856565 0.787076
0.817929 0.865751 0.799771
0.882902 0.876341 0.816403
0.291051 0.194644 0.761532
0.309178 0.197482 0.763149
0.365393 0.208225 0.768032
0.448432 0.230808 0.777554
0.546380 0.269444 0.790921
0.652186 0.327153 0.807614
0.753536 0.390784 0.819699
0.843778 0.447547 0.825284
0.295598 0.219669 0.760433
0.313054 0.222202 0.762142
0.368444 0.232059 0.767208
0.450477 0.253086 0.776577
0.547692 0.289525 0.790036
0.652979 0.344549 0.806912
0.753933 0.405768 0.819242
0.843381 0.459419 0.824949
0.306981 0.286809 0.758602
0.323735 0.289097 0.760189
0.376867 0.298009 0.765133
0.457374 0.317266 0.775418
0.552880 0.349645 0.789059
0.656641 0.399023 0.806027
0.756863 0.455879 0.820005
0.844144 0.499855 0.826047
0.316808 0.370214 0.755459
0.333318 0.372686 0.757198
0.385321 0.381201 0.762539
0.464302 0.399054 0.772793
0.559197 0.429145 0.787350
0.662165 0.474495 0.805417
0.762234 0.527062 0.822660
0.846464 0.558221 0.829343
0.342138 0.468788 0.752163
0.354681 0.469764 0.753628
0.395056 0.472755 0.758114
0.459998 0.479194 0.767239
0.558801 0.508537 0.783078
0.663996 0.550774 0.803250
0.767941 0.602594 0.826841
0.850309 0.627985 0.834531
0.400824 0.590326 0.770901
0.409400 0.589899 0.770504
0.437476 0.588159 0.769558
0.481331 0.583825 0.768032
0.553552 0.590417 0.775662
0.658869 0.624842 0.799893
0.770993 0.677821 0.829160
0.857511 0.709743 0.843809
0.487831 0.719936 0.801175
0.494789 0.720027 0.801144
0.517723 0.720089 0.801083
0.555200 0.720150 0.801511
0.604425 0.719631 0.802243
0.665126 0.718196 0.803403
0.768521 0.750698 0.828092
0.867369 0.794217 0.856168
0.579156 0.835935 0.833463
0.584405 0.836149 0.833616
0.602625 0.837095 0.834562
0.634821 0.839292 0.836637
0.679927 0.842863 0.840024
0.736843 0.848539 0.845548
0.805173 0.858610 0.855619
0.886229 0.881041 0.878538
