其他预设/【232】美食博客调色预设124款/1.3D LUT预设（视频调色-PR-AE-PS-FCPX-达芬奇用）/Food Art #48.cube
# Created by Adobe Lightroom plugin Export LUT (1.17.0)
# www.johnrellis.com/lightroom/exportlut.htm
# Preset: Food Art #48
# Color profile: /Library/Application Support/Adobe/Color/Profiles/Recommended/AdobeRGB1998.icc
LUT_3D_SIZE 5
DOMAIN_MIN 0.000000 0.000000 0.000000
DOMAIN_MAX 0.903226 0.903226 0.903226
0.143832 0.167971 0.196109
0.144472 0.159823 0.186709
0.463996 0.135592 0.156008
0.827298 0.014710 0.099062
0.997040 0.066346 0.141390
0.126314 0.179324 0.175814
0.168704 0.190555 0.170260
0.469886 0.259373 0.137850
0.827176 0.269902 0.080751
0.995697 0.256626 0.157198
0.000000 0.504509 0.099489
0.229252 0.509972 0.093935
0.528222 0.537804 0.068696
0.834043 0.546532 0.063874
0.985290 0.498116 0.207858
0.000000 0.824918 0.068818
0.221866 0.824918 0.082246
0.537011 0.821103 0.121279
0.818051 0.810849 0.179080
0.967315 0.733669 0.310307
0.238926 0.949035 0.326818
0.328801 0.946166 0.333593
0.518822 0.935607 0.350195
0.726802 0.918547 0.399115
0.905211 0.896971 0.466041
0.137301 0.161868 0.200687
0.155764 0.141054 0.209079
0.465675 0.000000 0.253605
0.818784 0.000000 0.237949
0.991119 0.000000 0.288151
0.097200 0.185061 0.215946
0.163851 0.190005 0.220951
0.476905 0.196872 0.227756
0.819760 0.196048 0.241978
0.988556 0.247044 0.298711
0.000000 0.502129 0.272801
0.150454 0.509697 0.235233
0.511040 0.523583 0.244846
0.823972 0.529503 0.264347
0.979156 0.502708 0.339391
0.000000 0.823362 0.286290
0.181247 0.823545 0.284642
0.529839 0.818997 0.299962
0.814939 0.808408 0.327977
0.961120 0.737301 0.410986
0.306798 0.945251 0.422004
0.377783 0.942412 0.426429
0.550835 0.932616 0.445441
0.740658 0.916045 0.479683
0.905547 0.895933 0.533806
0.000000 0.124880 0.499519
0.211337 0.077943 0.503990
0.477668 0.000000 0.515801
0.815915 0.000000 0.535882
0.976867 0.180636 0.524254
0.000000 0.206332 0.510979
0.130770 0.182589 0.514122
0.489204 0.156313 0.524254
0.816617 0.134005 0.532464
0.971466 0.343725 0.541314
0.000000 0.511192 0.528344
0.032868 0.513787 0.530175
0.510918 0.521569 0.536217
0.817197 0.532921 0.546288
0.958068 0.569665 0.575555
0.000000 0.817105 0.540459
0.179294 0.814725 0.539605
0.552941 0.809110 0.559136
0.814084 0.803525 0.573022
0.942016 0.759915 0.609613
0.347356 0.940490 0.555657
0.449775 0.935088 0.574945
0.646540 0.919707 0.626947
0.781827 0.906981 0.644373
0.905516 0.892576 0.674281
0.000000 0.000000 0.764584
0.238224 0.000000 0.766018
0.515221 0.000000 0.771054
0.807767 0.000000 0.774228
0.961791 0.215427 0.707454
0.000000 0.174197 0.768002
0.151369 0.164523 0.769039
0.504082 0.137484 0.771481
0.806668 0.145144 0.772885
0.956695 0.352605 0.711360
0.000000 0.502922 0.769986
0.100923 0.501762 0.770138
0.517693 0.514397 0.769955
0.805173 0.531853 0.769589
0.939086 0.610712 0.736233
0.000000 0.797238 0.773587
0.250462 0.796201 0.772702
0.571801 0.795315 0.772610
0.812894 0.796719 0.774685
0.916472 0.806058 0.783749
0.417578 0.933043 0.721981
0.499458 0.927886 0.728786
0.683284 0.912383 0.754330
0.835538 0.895354 0.796628
0.903777 0.889342 0.805966
0.000000 0.000000 0.900206
0.201511 0.000000 0.900023
0.449897 0.000000 0.899107
0.697200 0.000000 0.896147
0.923186 0.262211 0.890318
0.000000 0.171756 0.899565
0.165072 0.173281 0.899168
0.449775 0.192203 0.897642
0.701289 0.259342 0.893889
0.920806 0.378180 0.887846
0.132692 0.471565 0.893584
0.299809 0.487892 0.892210
0.518486 0.512413 0.889525
0.732082 0.550958 0.885222
0.913115 0.615473 0.879820
0.329992 0.706569 0.884245
0.422248 0.714137 0.882933
0.629328 0.744045 0.878416
0.807065 0.790616 0.872557
0.904082 0.814542 0.870634
0.519982 0.893004 0.873289
0.574517 0.892180 0.872618
0.717708 0.889891 0.870695
0.844846 0.887877 0.868742
0.901793 0.887755 0.868589
