其他预设/【232】美食博客调色预设124款/1.3D LUT预设（视频调色-PR-AE-PS-FCPX-达芬奇用）/Food Art #76.cube
# Created by Adobe Lightroom plugin Export LUT (1.17.0)
# www.johnrellis.com/lightroom/exportlut.htm
# Preset: Food Art #76
# Color profile: /Library/Application Support/Adobe/Color/Profiles/Recommended/AdobeRGB1998.icc
LUT_3D_SIZE 8
DOMAIN_MIN 0.000000 0.000000 0.000000
DOMAIN_MAX 0.903226 0.903226 0.903226
0.157504 0.194888 0.212833
0.141512 0.188785 0.206149
0.157473 0.179049 0.198001
0.235508 0.178408 0.194247
0.392065 0.193942 0.195621
0.608179 0.212009 0.204135
0.805722 0.232212 0.231785
0.929717 0.308812 0.305760
0.151400 0.179171 0.205936
0.141848 0.178775 0.204929
0.160433 0.182528 0.198001
0.238010 0.188449 0.193301
0.393286 0.211398 0.194278
0.596612 0.233524 0.201633
0.797879 0.251011 0.227390
0.926055 0.320500 0.300511
0.142763 0.195651 0.195712
0.146883 0.197421 0.195254
0.169436 0.202823 0.193790
0.264622 0.233127 0.189700
0.426703 0.277867 0.188602
0.626520 0.300053 0.195895
0.817960 0.326085 0.227451
0.937011 0.377264 0.308019
0.147494 0.288121 0.192447
0.159243 0.290532 0.192111
0.204868 0.304875 0.191226
0.298589 0.332616 0.190127
0.479866 0.394903 0.181430
0.681544 0.409064 0.181979
0.833433 0.425818 0.220340
0.943938 0.448585 0.307774
0.173831 0.471260 0.190372
0.194583 0.472847 0.189944
0.256931 0.481514 0.188022
0.357580 0.498146 0.186862
0.490394 0.510948 0.186893
0.695125 0.529107 0.190036
0.843442 0.532280 0.216800
0.953368 0.536980 0.307225
0.230350 0.635279 0.212314
0.252567 0.641871 0.214054
0.313054 0.645899 0.213443
0.405829 0.653834 0.212589
0.554986 0.657832 0.218204
0.718959 0.662623 0.229496
0.851377 0.668055 0.278233
0.959808 0.656306 0.353307
0.323705 0.786069 0.303197
0.340429 0.787198 0.304784
0.391608 0.786954 0.304967
0.481300 0.787533 0.308415
0.605158 0.785367 0.316014
0.736660 0.783932 0.337469
0.856321 0.785763 0.365301
0.958801 0.767453 0.420233
0.482155 0.883665 0.430610
0.493202 0.883421 0.430915
0.532219 0.883116 0.432746
0.597009 0.883513 0.438270
0.664302 0.879789 0.437049
0.755489 0.879576 0.452796
0.855650 0.878233 0.476936
0.963287 0.872862 0.504448
0.157595 0.189151 0.198947
0.144045 0.187930 0.198337
0.159457 0.175387 0.196811
0.237400 0.178286 0.199710
0.390814 0.191257 0.206424
0.587335 0.208774 0.217655
0.791135 0.228641 0.246342
0.920104 0.310521 0.320958
0.153811 0.179477 0.200259
0.142336 0.178225 0.197147
0.164920 0.179507 0.196078
0.242832 0.187900 0.199252
0.395880 0.208927 0.205173
0.586206 0.229526 0.215549
0.786343 0.247623 0.242618
0.916381 0.320958 0.315038
0.138796 0.197299 0.195193
0.145754 0.200534 0.196109
0.173251 0.205692 0.196414
0.268620 0.232547 0.196536
0.420783 0.271855 0.199924
0.610925 0.294133 0.210269
0.801022 0.317601 0.240787
0.925628 0.375280 0.320409
0.145480 0.288914 0.199985
0.159274 0.293339 0.200534
0.204807 0.306218 0.199863
0.291661 0.324834 0.199680
0.459419 0.379431 0.193942
0.653346 0.395178 0.198032
0.816434 0.415656 0.233371
0.933104 0.445655 0.319310
0.170413 0.472175 0.203738
0.191531 0.472755 0.203128
0.254215 0.479255 0.201358
0.351415 0.490944 0.200443
0.479530 0.502007 0.201358
0.683680 0.521599 0.205875
0.836393 0.526390 0.232853
0.946929 0.535241 0.323522
0.228214 0.631098 0.229648
0.247807 0.632471 0.229526
0.307836 0.636866 0.229404
0.400793 0.646479 0.229526
0.550103 0.653285 0.236698
0.717342 0.660639 0.250950
0.848600 0.665919 0.298253
0.956268 0.654688 0.366186
0.322118 0.779934 0.317510
0.336126 0.779263 0.316747
0.387640 0.780148 0.317937
0.478676 0.782681 0.323430
0.603204 0.782376 0.332372
0.733974 0.780758 0.351476
0.851896 0.781643 0.375067
0.954498 0.764004 0.425513
0.484108 0.880735 0.438605
0.496132 0.880919 0.439490
0.535393 0.880888 0.441810
0.599756 0.881651 0.447456
0.673548 0.881956 0.454017
0.759304 0.880522 0.466346
0.856474 0.877714 0.486244
0.962249 0.871977 0.511315
0.146517 0.184451 0.205966
0.146426 0.183078 0.205966
0.157900 0.175174 0.212802
0.235416 0.179232 0.238193
0.407233 0.168673 0.251621
0.608087 0.199741 0.273167
0.799161 0.246708 0.318944
0.920867 0.349889 0.399969
0.137911 0.181765 0.209751
0.137789 0.177951 0.211307
0.164492 0.180209 0.217899
0.247440 0.187381 0.236942
0.414893 0.195010 0.246860
0.606867 0.221714 0.270512
0.796780 0.263035 0.314458
0.919646 0.359197 0.396521
0.136507 0.199283 0.211185
0.144228 0.203983 0.215030
0.185550 0.216373 0.224643
0.285985 0.235447 0.233524
0.443061 0.267948 0.246647
0.631006 0.290105 0.268223
0.805905 0.328069 0.313207
0.924010 0.400275 0.395911
0.134432 0.296544 0.227420
0.147829 0.307988 0.229343
0.212802 0.329046 0.237217
0.318914 0.349035 0.239445
0.486061 0.383185 0.242496
0.671351 0.395850 0.262791
0.822629 0.424598 0.313085
0.933776 0.464485 0.397436
0.123018 0.480323 0.234165
0.171817 0.487678 0.246494
0.258213 0.497383 0.255192
0.362829 0.509758 0.256474
0.507439 0.518517 0.262150
0.701747 0.526421 0.275090
0.841428 0.529168 0.310613
0.945861 0.548302 0.397986
0.228489 0.639673 0.293858
0.252598 0.641413 0.296971
0.318090 0.645563 0.302037
0.411109 0.652766 0.302922
0.560082 0.658015 0.311864
0.723049 0.664302 0.329717
0.849363 0.667933 0.368658
0.957488 0.660395 0.421668
0.348180 0.784237 0.387884
0.363348 0.783932 0.388342
0.412757 0.783536 0.388373
0.499519 0.784024 0.389868
0.613733 0.783627 0.393957
0.740169 0.783322 0.408667
0.858488 0.786526 0.428595
0.958587 0.770687 0.471931
0.521202 0.879667 0.480446
0.527855 0.879332 0.478920
0.561822 0.878996 0.480049
0.622370 0.880766 0.487007
0.688960 0.881224 0.492409
0.768246 0.880949 0.503960
0.863798 0.878447 0.524071
0.964019 0.873747 0.550286
0.119661 0.184451 0.257145
0.119844 0.177707 0.259678
0.154726 0.174197 0.264652
0.231601 0.179110 0.284459
0.380560 0.193027 0.354803
0.586145 0.202884 0.390845
0.786862 0.264591 0.424598
0.911437 0.400580 0.482246
0.112001 0.190921 0.267796
0.115084 0.183963 0.269413
0.158114 0.180667 0.272831
0.243992 0.188937 0.293736
0.393835 0.208255 0.357458
0.594842 0.224796 0.386816
0.789151 0.286076 0.420569
0.912016 0.406653 0.480140
0.110170 0.232639 0.278630
0.121736 0.233005 0.284215
0.168429 0.220615 0.295811
0.281010 0.243992 0.320012
0.440711 0.273014 0.359258
0.641840 0.305211 0.381842
0.807858 0.375982 0.435065
0.921813 0.442908 0.483772
0.124544 0.300633 0.282719
0.140871 0.309606 0.289067
0.214420 0.340063 0.313756
0.350805 0.374334 0.343542
0.498543 0.390784 0.360235
0.675715 0.411414 0.388983
0.818875 0.447944 0.430732
0.930388 0.494667 0.482551
0.126772 0.481971 0.326299
0.157534 0.488258 0.329961
0.253025 0.511284 0.349889
0.384985 0.532006 0.380774
0.548760 0.539208 0.391608
0.721004 0.535912 0.400336
0.841825 0.545190 0.433295
0.943938 0.572381 0.483314
0.204196 0.643824 0.370428
0.238621 0.652003 0.380591
0.339117 0.663722 0.411261
0.451728 0.671199 0.425360
0.593683 0.675563 0.428595
0.742306 0.679500 0.437629
0.856352 0.675990 0.457313
0.959289 0.670130 0.491890
0.334234 0.786526 0.434943
0.358923 0.788357 0.440894
0.469429 0.789425 0.475074
0.547082 0.790402 0.475013
0.643458 0.791043 0.476600
0.754879 0.791135 0.485634
0.868132 0.792966 0.500298
0.960449 0.778470 0.534813
0.559564 0.880186 0.529992
0.583368 0.879515 0.539727
0.626703 0.878569 0.553338
0.660426 0.879820 0.549798
0.715938 0.880766 0.554650
0.783322 0.881590 0.564172
0.875303 0.879179 0.583825
0.965209 0.876066 0.608667
0.000000 0.197848 0.378820
0.000000 0.186038 0.381994
0.113771 0.176699 0.387549
0.233616 0.172976 0.393835
0.377508 0.182773 0.437049
0.556725 0.252842 0.498054
0.767178 0.311376 0.533654
0.900450 0.420966 0.564416
0.000000 0.214023 0.391424
0.000000 0.202792 0.394751
0.107240 0.185946 0.399176
0.239841 0.183352 0.404211
0.388464 0.200839 0.444648
0.568353 0.273136 0.500023
0.771969 0.331853 0.533593
0.902434 0.434272 0.564324
0.000000 0.280674 0.415167
0.000000 0.276982 0.421302
0.078676 0.233371 0.427771
0.260441 0.235080 0.432685
0.426307 0.274235 0.467109
0.601862 0.337774 0.503075
0.785153 0.391516 0.530541
0.907897 0.474983 0.563043
0.000000 0.377142 0.428626
0.000000 0.378485 0.433753
0.157931 0.381628 0.452064
0.317937 0.374792 0.470954
0.482002 0.421851 0.491035
0.667720 0.442603 0.508873
0.811643 0.481514 0.528679
0.920531 0.547814 0.569574
0.079500 0.476112 0.424964
0.129580 0.483650 0.431250
0.250370 0.505394 0.451484
0.411627 0.537896 0.487770
0.583337 0.549981 0.504295
0.723629 0.545922 0.509239
0.834409 0.565423 0.529442
0.935515 0.605432 0.566979
0.223484 0.631739 0.459907
0.252018 0.635889 0.464820
0.336309 0.648341 0.480201
0.470314 0.670771 0.505974
0.612482 0.680842 0.519219
0.756405 0.689479 0.531060
0.860990 0.683101 0.542351
0.954559 0.688838 0.577081
0.358343 0.780667 0.502373
0.380835 0.781582 0.506004
0.460182 0.784848 0.520226
0.590753 0.789303 0.552270
0.675898 0.792142 0.560906
0.767391 0.795315 0.567742
0.875517 0.797604 0.581720
0.959106 0.786282 0.607416
0.562402 0.875700 0.567468
0.578424 0.875486 0.572442
0.628779 0.875303 0.590082
0.714137 0.876677 0.633265
0.745510 0.879179 0.627955
0.801480 0.881041 0.633722
0.886534 0.879118 0.648493
0.964599 0.877653 0.667811
0.000000 0.232242 0.530755
0.000000 0.216464 0.531914
0.000000 0.187442 0.533165
0.214084 0.178683 0.537285
0.367742 0.180240 0.536095
0.567559 0.218875 0.563714
0.752316 0.356390 0.620844
0.885863 0.463203 0.657038
0.000000 0.251011 0.532189
0.000000 0.236271 0.533013
0.000000 0.198489 0.535424
0.213138 0.192172 0.538323
0.371038 0.198245 0.537224
0.574792 0.242252 0.565423
0.753567 0.375372 0.621118
0.887053 0.473518 0.656580
0.000000 0.328313 0.547387
0.000000 0.316350 0.547845
0.000000 0.267826 0.550622
0.219760 0.251499 0.553033
0.396765 0.270146 0.551324
0.613092 0.324559 0.578668
0.767056 0.434730 0.626062
0.894987 0.514549 0.658381
0.000000 0.428138 0.555261
0.000000 0.425360 0.557183
0.145022 0.422950 0.566461
0.265629 0.382910 0.576989
0.464881 0.406134 0.577844
0.672114 0.452399 0.602411
0.796017 0.517296 0.635187
0.909880 0.586389 0.664118
0.000000 0.548730 0.558251
0.000000 0.550256 0.560937
0.203799 0.555322 0.570520
0.377325 0.561547 0.588373
0.558984 0.550103 0.605127
0.714687 0.582910 0.621576
0.824063 0.613489 0.639399
0.925475 0.662165 0.667842
0.205051 0.636164 0.545006
0.240940 0.641321 0.549645
0.339178 0.654231 0.562371
0.492866 0.673121 0.585595
0.664118 0.694453 0.622004
0.775509 0.707240 0.641505
0.861112 0.705989 0.648859
0.946258 0.722896 0.674159
0.404974 0.777401 0.576623
0.429755 0.779049 0.580926
0.506004 0.781979 0.594141
0.615045 0.786954 0.618799
0.718837 0.796689 0.652949
0.791440 0.805295 0.667262
0.888945 0.808804 0.678248
0.959808 0.803220 0.690150
0.594202 0.871794 0.627253
0.607660 0.871733 0.631006
0.651148 0.872007 0.644556
0.713802 0.874357 0.668513
0.781186 0.877958 0.697505
0.832334 0.880278 0.706203
0.902098 0.880552 0.715267
0.964477 0.881285 0.729519
0.000000 0.278904 0.663355
0.000000 0.263340 0.665461
0.000000 0.210941 0.666682
0.135195 0.204501 0.667262
0.357183 0.201572 0.667231
0.550439 0.223636 0.659602
0.747341 0.310979 0.683223
0.875975 0.474861 0.728817
0.000000 0.297032 0.659907
0.000000 0.282872 0.661860
0.000000 0.222843 0.663874
0.127291 0.218387 0.663752
0.354803 0.218235 0.663355
0.547356 0.241032 0.655207
0.743648 0.322484 0.678737
0.870695 0.477790 0.724453
0.000000 0.370397 0.670039
0.000000 0.359350 0.670375
0.000000 0.314733 0.671290
0.118624 0.279454 0.672267
0.367468 0.288487 0.670588
0.574029 0.316320 0.663600
0.761929 0.394232 0.688533
0.880064 0.531884 0.730434
0.000000 0.480262 0.678553
0.000000 0.477638 0.678889
0.089021 0.463355 0.681117
0.202731 0.408606 0.685115
0.412146 0.409369 0.684596
0.624140 0.432471 0.680568
0.790707 0.494636 0.704494
0.890990 0.613123 0.737789
0.000000 0.583337 0.676509
0.000000 0.581415 0.676844
0.163119 0.576684 0.680293
0.356817 0.573877 0.688960
0.473671 0.535943 0.696010
0.672419 0.547631 0.694697
0.813046 0.604974 0.713893
0.908934 0.683101 0.741848
0.123842 0.702754 0.679347
0.174685 0.703151 0.680781
0.289616 0.704158 0.685756
0.444190 0.704158 0.695125
0.617151 0.701686 0.707851
0.746731 0.700557 0.722072
0.849088 0.731991 0.734340
0.935088 0.757748 0.752499
0.367376 0.782193 0.661646
0.395239 0.783474 0.664576
0.480507 0.785122 0.672663
0.601282 0.787869 0.687770
0.716152 0.793973 0.708980
0.818967 0.809415 0.737942
0.901823 0.820127 0.753780
0.955352 0.822354 0.760098
0.620661 0.865599 0.685634
0.632959 0.865965 0.688624
0.675196 0.868315 0.700496
0.729976 0.871427 0.717433
0.793820 0.875425 0.738735
0.867796 0.879576 0.763546
0.920256 0.883146 0.775784
0.963867 0.886259 0.785977
0.000000 0.329717 0.774929
0.000000 0.317510 0.775723
0.000000 0.265537 0.775967
0.000000 0.253819 0.775814
0.311681 0.261723 0.774594
0.528740 0.271519 0.772580
0.713680 0.333471 0.764675
0.858213 0.439612 0.776577
0.000000 0.347356 0.773312
0.000000 0.336309 0.774136
0.000000 0.289372 0.774777
0.000000 0.268040 0.774533
0.311864 0.277501 0.773342
0.530175 0.287907 0.771389
0.713649 0.346136 0.763119
0.858000 0.447852 0.775448
0.000000 0.410712 0.773220
0.000000 0.402136 0.773678
0.000000 0.367163 0.773617
0.000000 0.325414 0.776577
0.325353 0.338231 0.774685
0.545159 0.349371 0.771908
0.722744 0.400000 0.764523
0.866300 0.490181 0.777493
0.000000 0.522210 0.774014
0.000000 0.517327 0.774685
0.000000 0.493599 0.775113
0.154238 0.449348 0.777523
0.360632 0.434607 0.777707
0.576684 0.445075 0.775631
0.742702 0.483314 0.770108
0.883757 0.566979 0.782803
0.000000 0.602747 0.773037
0.000000 0.602686 0.773861
0.189822 0.599756 0.774746
0.366033 0.594934 0.777035
0.433143 0.548180 0.779721
0.617151 0.546593 0.778958
0.769436 0.583978 0.776333
0.907317 0.663661 0.790402
0.139406 0.714046 0.771572
0.177859 0.712581 0.771633
0.275181 0.707851 0.772549
0.409827 0.699641 0.775235
0.582177 0.695003 0.779446
0.687190 0.678187 0.786313
0.817685 0.710079 0.789731
0.933318 0.754421 0.802274
0.372351 0.821653 0.776150
0.393774 0.820768 0.776455
0.464027 0.817716 0.777829
0.570153 0.814054 0.781460
0.681331 0.812314 0.787228
0.784146 0.814817 0.795834
0.875700 0.812253 0.804105
0.947631 0.838590 0.812375
0.593011 0.883787 0.759792
0.604822 0.883116 0.760586
0.645197 0.881498 0.764096
0.707332 0.880034 0.771359
0.780423 0.880186 0.782803
0.863645 0.880308 0.797574
0.933776 0.884215 0.816983
0.962554 0.891997 0.832975
