其他预设/【232】美食博客调色预设124款/1.3D LUT预设（视频调色-PR-AE-PS-FCPX-达芬奇用）/Food Art #28.cube
# Created by Adobe Lightroom plugin Export LUT (1.17.0)
# www.johnrellis.com/lightroom/exportlut.htm
# Preset: Food Art #28
# Color profile: /Library/Application Support/Adobe/Color/Profiles/Recommended/AdobeRGB1998.icc
LUT_3D_SIZE 5
DOMAIN_MIN 0.000000 0.000000 0.000000
DOMAIN_MAX 0.903226 0.903226 0.903226
0.000000 0.000000 0.000000
0.227298 0.000000 0.014099
0.541833 0.000000 0.000000
0.788388 0.131106 0.000000
0.980865 0.311223 0.221469
0.088869 0.194308 0.000000
0.245792 0.196872 0.000000
0.545708 0.226383 0.000000
0.784421 0.276036 0.007660
0.980865 0.387579 0.241703
0.227054 0.478248 0.000000
0.337682 0.476722 0.000000
0.561944 0.486793 0.000000
0.782712 0.505547 0.115053
0.973449 0.558618 0.293950
0.385107 0.721309 0.134463
0.446326 0.721736 0.144778
0.602411 0.722744 0.175814
0.788449 0.727199 0.227481
0.967559 0.751949 0.391058
0.564172 0.930449 0.401495
0.595880 0.930053 0.407965
0.689937 0.927306 0.426703
0.825986 0.928801 0.471077
0.972473 0.931792 0.530968
0.083223 0.069642 0.091493
0.235203 0.000000 0.103395
0.517266 0.048890 0.126375
0.764309 0.214145 0.195346
0.968322 0.361395 0.318791
0.121584 0.182620 0.094972
0.253483 0.192264 0.100465
0.522423 0.239994 0.135012
0.764096 0.309087 0.203128
0.967407 0.421180 0.331029
0.251377 0.458839 0.126436
0.353246 0.455756 0.139742
0.544213 0.465187 0.154269
0.766720 0.505943 0.235233
0.964843 0.576287 0.375494
0.411810 0.710719 0.245640
0.468818 0.710994 0.256596
0.608392 0.713680 0.276432
0.782315 0.720760 0.312932
0.962066 0.756558 0.451606
0.581872 0.926207 0.457527
0.610712 0.926055 0.462318
0.701350 0.926726 0.482216
0.829221 0.928161 0.516197
0.971008 0.931853 0.569970
0.148287 0.000000 0.300542
0.287327 0.000000 0.308110
0.527123 0.086702 0.332433
0.755886 0.260563 0.384314
0.950835 0.457221 0.508904
0.202060 0.205142 0.275029
0.305821 0.218021 0.287785
0.526574 0.255039 0.331151
0.749538 0.360693 0.398993
0.948455 0.506889 0.523583
0.286900 0.440833 0.321721
0.376501 0.448280 0.331456
0.560998 0.478126 0.366400
0.751461 0.532067 0.435218
0.950225 0.611688 0.537011
0.437507 0.699062 0.411780
0.498390 0.694209 0.425635
0.623651 0.698116 0.454688
0.771603 0.712276 0.479225
0.951568 0.764706 0.577173
0.606592 0.917693 0.571466
0.641169 0.916564 0.586328
0.711543 0.919860 0.593347
0.829892 0.922820 0.618647
0.963775 0.928832 0.660609
0.229282 0.079957 0.545281
0.333196 0.095003 0.553063
0.554040 0.171756 0.584100
0.755428 0.281529 0.588312
0.948241 0.471321 0.659968
0.272435 0.241459 0.524193
0.356420 0.251194 0.534356
0.557427 0.299657 0.571405
0.750546 0.373877 0.587121
0.944182 0.519005 0.666865
0.324987 0.434272 0.511864
0.390936 0.437812 0.510369
0.572107 0.491676 0.554742
0.747066 0.547417 0.598962
0.938109 0.641321 0.693324
0.450813 0.684504 0.584527
0.506249 0.684749 0.588586
0.633600 0.699916 0.614405
0.775937 0.723690 0.647913
0.941863 0.777218 0.725826
0.613733 0.914672 0.699763
0.644404 0.913634 0.706538
0.731655 0.913054 0.731014
0.830137 0.919127 0.750759
0.954650 0.927733 0.780209
0.294652 0.173495 0.809934
0.376776 0.187716 0.813687
0.570092 0.250156 0.829343
0.784543 0.362127 0.847837
0.944274 0.481117 0.829984
0.321111 0.286534 0.797299
0.394629 0.297276 0.801907
0.576837 0.345037 0.819821
0.783993 0.436255 0.842191
0.941192 0.524559 0.830411
0.341863 0.460334 0.768673
0.408453 0.468940 0.772366
0.583490 0.513359 0.794369
0.782559 0.583459 0.836240
0.937346 0.646387 0.840879
0.434516 0.689570 0.794156
0.475044 0.686915 0.790585
0.576928 0.676478 0.783017
0.764309 0.720607 0.823880
0.934874 0.798062 0.865537
0.589837 0.917845 0.849729
0.617914 0.916197 0.850126
0.709163 0.913848 0.856321
0.834684 0.916564 0.875669
0.946014 0.931518 0.908568
