其他预设/【232】美食博客调色预设124款/1.3D LUT预设（视频调色-PR-AE-PS-FCPX-达芬奇用）/Food Art #6 ().cube
# Created by Adobe Lightroom plugin Export LUT (1.17.0)
# www.johnrellis.com/lightroom/exportlut.htm
# Preset: Food Art #6 (素锦印象)
# Color profile: /Library/Application Support/Adobe/Color/Profiles/Recommended/AdobeRGB1998.icc
LUT_3D_SIZE 32
0.000000 0.000000 0.000000
0.000000 0.000000 0.000000
0.000000 0.000000 0.000000
0.126284 0.000000 0.000000
0.250187 0.000000 0.000000
0.354101 0.000000 0.000000
0.443458 0.000000 0.000000
0.524895 0.000000 0.000000
0.602991 0.000000 0.000000
0.673213 0.000000 0.000000
0.735439 0.000000 0.000000
0.789944 0.000000 0.000000
0.837827 0.000000 0.000000
0.878599 0.000000 0.000000
0.912474 0.000000 0.000000
0.940795 0.000000 0.000000
0.964538 0.000000 0.000000
0.984558 0.000000 0.000000
1.000000 0.000000 0.000000
1.000000 0.000000 0.085084
1.000000 0.000000 0.125093
1.000000 0.060212 0.154604
1.000000 0.114351 0.179110
1.000000 0.148989 0.200534
1.000000 0.175113 0.219089
1.000000 0.198276 0.236545
1.000000 0.219516 0.253025
1.000000 0.239567 0.269139
1.000000 0.258854 0.285222
1.000000 0.278202 0.301488
1.000000 0.297398 0.317937
1.000000 0.316747 0.334844
0.000000 0.000000 0.000000
0.000000 0.000000 0.000000
0.000000 0.000000 0.000000
0.129458 0.000000 0.000000
0.251499 0.000000 0.000000
0.353216 0.000000 0.000000
0.441444 0.000000 0.000000
0.522240 0.000000 0.000000
0.599908 0.000000 0.000000
0.670375 0.000000 0.000000
0.732448 0.000000 0.000000
0.787015 0.000000 0.000000
0.834989 0.000000 0.000000
0.876005 0.000000 0.000000
0.910155 0.000000 0.000000
0.938598 0.000000 0.000000
0.962554 0.000000 0.000000
0.982788 0.000000 0.000000
1.000000 0.000000 0.000000
1.000000 0.000000 0.083345
1.000000 0.000000 0.122530
1.000000 0.083314 0.152193
1.000000 0.125093 0.176638
1.000000 0.155062 0.198062
1.000000 0.179538 0.216678
1.000000 0.201572 0.234104
1.000000 0.221317 0.250401
1.000000 0.241276 0.267155
1.000000 0.259983 0.283024
1.000000 0.278691 0.299199
1.000000 0.297337 0.315465
1.000000 0.316228 0.332311
0.000000 0.000000 0.000000
0.000000 0.000000 0.000000
0.000000 0.000000 0.000000
0.132876 0.000000 0.000000
0.251499 0.000000 0.000000
0.351934 0.000000 0.000000
0.438941 0.000000 0.000000
0.519402 0.000000 0.000000
0.596979 0.000000 0.000000
0.667384 0.000000 0.000000
0.729671 0.000000 0.000000
0.784421 0.000000 0.000000
0.832609 0.000000 0.000000
0.873899 0.000000 0.000000
0.908171 0.000000 0.000000
0.936950 0.000000 0.000000
0.961028 0.000000 0.000000
0.981384 0.000000 0.000000
0.999054 0.000000 0.000000
1.000000 0.000000 0.084260
1.000000 0.066224 0.123110
1.000000 0.110567 0.152041
1.000000 0.141848 0.176364
1.000000 0.166781 0.197360
1.000000 0.188907 0.216190
1.000000 0.208591 0.233341
1.000000 0.227451 0.249882
1.000000 0.246098 0.266392
1.000000 0.263920 0.282292
1.000000 0.282017 0.298528
1.000000 0.299901 0.314733
1.000000 0.318364 0.331518
0.000000 0.131868 0.000000
0.000000 0.136995 0.000000
0.000000 0.143191 0.000000
0.139559 0.146426 0.000000
0.251743 0.156893 0.000000
0.350164 0.153262 0.000000
0.436378 0.142092 0.000000
0.516442 0.130312 0.000000
0.593530 0.118929 0.000000
0.663935 0.110933 0.000000
0.726040 0.107637 0.000000
0.780941 0.099184 0.000000
0.829160 0.084443 0.000000
0.870603 0.062409 0.000000
0.905241 0.021698 0.000000
0.934203 0.004761 0.000000
0.958495 0.017273 0.000000
0.979095 0.056641 0.000000
0.997162 0.083192 0.000000
1.000000 0.108827 0.088197
1.000000 0.131746 0.124788
1.000000 0.153140 0.153170
1.000000 0.173281 0.176852
1.000000 0.191867 0.198093
1.000000 0.209140 0.216739
1.000000 0.226078 0.234379
1.000000 0.242435 0.251133
1.000000 0.259434 0.267857
1.000000 0.275639 0.283848
1.000000 0.291905 0.299779
1.000000 0.308354 0.315679
1.000000 0.325078 0.331670
0.000000 0.246891 0.000000
0.000000 0.249882 0.000000
0.000000 0.252720 0.000000
0.148501 0.253391 0.000000
0.251225 0.253117 0.000000
0.345800 0.254765 0.000000
0.431281 0.250126 0.000000
0.510704 0.244083 0.000000
0.587488 0.238407 0.000000
0.657649 0.234073 0.000000
0.719997 0.227024 0.000000
0.775113 0.216983 0.000000
0.823819 0.205112 0.000000
0.865751 0.193545 0.000000
0.900969 0.182895 0.000000
0.930449 0.175540 0.000000
0.955352 0.170932 0.000000
0.976318 0.170535 0.000000
0.995056 0.174380 0.025055
1.000000 0.181796 0.096803
1.000000 0.191043 0.130312
1.000000 0.202090 0.157015
1.000000 0.213748 0.180056
1.000000 0.226078 0.200656
1.000000 0.238437 0.219211
1.000000 0.251194 0.236698
1.000000 0.264561 0.253269
1.000000 0.277928 0.269383
1.000000 0.291905 0.285344
1.000000 0.306188 0.301122
1.000000 0.320653 0.316655
1.000000 0.335943 0.332708
0.000000 0.342840 0.000000
0.000000 0.344884 0.000000
0.000000 0.345037 0.000000
0.146242 0.344335 0.000000
0.252201 0.342626 0.000000
0.342077 0.340276 0.000000
0.427375 0.338781 0.000000
0.506126 0.334447 0.000000
0.582300 0.330236 0.000000
0.652338 0.323674 0.000000
0.714656 0.314549 0.000000
0.769986 0.302983 0.000000
0.818784 0.290990 0.000000
0.861112 0.278874 0.000000
0.896635 0.267704 0.000000
0.926543 0.257939 0.000000
0.951781 0.250523 0.000000
0.973266 0.245609 0.000000
0.992493 0.244144 0.063722
1.000000 0.244816 0.108034
1.000000 0.247898 0.139284
1.000000 0.252445 0.164889
1.000000 0.273075 0.206485
1.000000 0.281163 0.226078
1.000000 0.289647 0.243656
1.000000 0.298558 0.260075
1.000000 0.308141 0.275608
1.000000 0.318517 0.291051
1.000000 0.329381 0.305974
1.000000 0.340948 0.320806
1.000000 0.353155 0.335729
1.000000 0.365850 0.350744
0.000000 0.432685 0.000000
0.000000 0.432502 0.000000
0.000000 0.432136 0.000000
0.152773 0.431098 0.000000
0.256779 0.429206 0.000000
0.345953 0.426307 0.000000
0.428443 0.422919 0.000000
0.508568 0.420539 0.000000
0.584558 0.415686 0.000000
0.654200 0.407691 0.000000
0.716182 0.396887 0.000000
0.771176 0.384314 0.000000
0.819547 0.371069 0.000000
0.861082 0.357549 0.000000
0.895903 0.344091 0.000000
0.925170 0.332128 0.000000
0.950072 0.321691 0.000000
0.972564 0.314122 0.000000
0.991821 0.308995 0.090944
1.000000 0.306065 0.127474
1.000000 0.305638 0.156497
1.000000 0.307134 0.181735
1.000000 0.310826 0.204654
1.000000 0.315679 0.225620
1.000000 0.321691 0.244694
1.000000 0.328099 0.261875
1.000000 0.335241 0.277989
1.000000 0.342962 0.293217
1.000000 0.351354 0.307927
1.000000 0.360571 0.322576
1.000000 0.370275 0.336889
1.000000 0.381140 0.351629
0.000000 0.506340 0.000000
0.000000 0.506004 0.000000
0.000000 0.505516 0.000000
0.155795 0.504295 0.000000
0.254856 0.502312 0.000000
0.340978 0.499580 0.000000
0.421942 0.496101 0.000000
0.499641 0.492470 0.000000
0.576959 0.489631 0.000000
0.646265 0.481300 0.000000
0.708339 0.470008 0.000000
0.763485 0.456764 0.000000
0.812222 0.442634 0.000000
0.854063 0.427802 0.000000
0.889342 0.412848 0.000000
0.919127 0.398627 0.000000
0.945312 0.386389 0.000000
0.968078 0.375982 0.059480
0.987304 0.367468 0.106020
1.000000 0.360998 0.138735
1.000000 0.356817 0.165682
1.000000 0.354589 0.189151
1.000000 0.354253 0.210605
1.000000 0.355535 0.230838
1.000000 0.357794 0.248966
1.000000 0.361303 0.265934
1.000000 0.365301 0.281376
1.000000 0.370184 0.296056
1.000000 0.376226 0.310765
1.000000 0.382940 0.324895
1.000000 0.390936 0.339330
1.000000 0.399695 0.353857
0.000000 0.577234 0.000000
0.000000 0.576806 0.000000
0.000000 0.576287 0.000000
0.146883 0.574884 0.000000
0.248325 0.572930 0.000000
0.334051 0.570001 0.000000
0.414557 0.566583 0.000000
0.491646 0.562615 0.000000
0.566613 0.558129 0.000000
0.638758 0.552911 0.000000
0.700710 0.541009 0.000000
0.756069 0.526726 0.000000
0.805051 0.511681 0.000000
0.847196 0.495308 0.000000
0.882750 0.478614 0.000000
0.913695 0.463050 0.000000
0.940581 0.448676 0.000000
0.963226 0.435615 0.086519
0.982574 0.424140 0.123323
0.999817 0.414649 0.151369
1.000000 0.407446 0.175601
1.000000 0.402014 0.197665
1.000000 0.398596 0.218357
1.000000 0.396796 0.237430
1.000000 0.396338 0.255283
1.000000 0.396612 0.271550
1.000000 0.398077 0.286595
1.000000 0.400427 0.300969
1.000000 0.403845 0.314916
1.000000 0.408484 0.328985
1.000000 0.414130 0.342962
1.000000 0.420813 0.357061
0.000000 0.640345 0.000000
0.000000 0.639826 0.000000
0.000000 0.639155 0.000000
0.137331 0.637720 0.000000
0.239658 0.635554 0.000000
0.325322 0.632593 0.000000
0.404395 0.628931 0.000000
0.480232 0.624720 0.000000
0.553460 0.620264 0.000000
0.624628 0.615320 0.000000
0.691951 0.608209 0.000000
0.747372 0.593378 0.000000
0.796750 0.577173 0.000000
0.839292 0.559625 0.000000
0.876738 0.542382 0.000000
0.908598 0.525292 0.000000
0.935576 0.508690 0.065278
0.958465 0.493233 0.109590
0.978058 0.479530 0.140414
0.995453 0.467506 0.165652
1.000000 0.457527 0.187716
1.000000 0.449378 0.208072
1.000000 0.442725 0.226566
1.000000 0.437934 0.244327
1.000000 0.434455 0.260990
1.000000 0.432349 0.276707
1.000000 0.431250 0.291295
1.000000 0.431495 0.305638
1.000000 0.433082 0.319921
1.000000 0.435737 0.333837
1.000000 0.439734 0.347997
1.000000 0.444770 0.362249
0.000000 0.694301 0.000000
0.000000 0.693904 0.000000
0.000000 0.693294 0.000000
0.131991 0.691981 0.000000
0.232914 0.689937 0.000000
0.316289 0.687343 0.000000
0.393774 0.684047 0.000000
0.467353 0.680232 0.000000
0.538872 0.675776 0.000000
0.608362 0.670954 0.000000
0.675837 0.665675 0.000000
0.739071 0.657740 0.000000
0.789242 0.641169 0.000000
0.833097 0.623072 0.000000
0.870451 0.603998 0.000000
0.902098 0.584802 0.022126
0.929168 0.566003 0.094362
0.952239 0.548547 0.128603
0.972229 0.532433 0.155215
0.990051 0.518181 0.177829
1.000000 0.506035 0.198886
1.000000 0.495521 0.217746
1.000000 0.486885 0.236088
1.000000 0.479774 0.253178
1.000000 0.474098 0.269352
1.000000 0.469581 0.284276
1.000000 0.466285 0.298375
1.000000 0.464363 0.312139
1.000000 0.463661 0.325780
1.000000 0.464210 0.339300
1.000000 0.466255 0.353155
1.000000 0.469612 0.367285
0.000000 0.742641 0.000000
0.000000 0.742275 0.000000
0.000000 0.741665 0.000000
0.134768 0.740444 0.000000
0.229404 0.738674 0.000000
0.309209 0.736202 0.000000
0.383795 0.733272 0.000000
0.455146 0.729641 0.000000
0.524376 0.725551 0.000000
0.591852 0.721035 0.000000
0.657801 0.716274 0.000000
0.723140 0.712245 0.000000
0.796231 0.716243 0.000000
0.839017 0.695369 0.000000
0.875212 0.673274 0.055879
0.905882 0.651179 0.106477
0.932006 0.629816 0.138064
0.954223 0.609674 0.163912
0.973419 0.591089 0.186404
0.990600 0.574609 0.206668
1.000000 0.559930 0.225101
1.000000 0.547265 0.242618
1.000000 0.536126 0.258671
1.000000 0.526787 0.274235
1.000000 0.518822 0.288853
1.000000 0.512322 0.302831
1.000000 0.507042 0.316075
1.000000 0.503014 0.328771
1.000000 0.500328 0.341405
1.000000 0.499001 0.354162
1.000000 0.499092 0.367315
1.000000 0.500389 0.380468
0.000000 0.790158 0.000000
0.000000 0.789792 0.000000
0.000000 0.788968 0.000000
0.147829 0.787472 0.000000
0.231815 0.785245 0.000000
0.306065 0.782376 0.000000
0.376745 0.779110 0.000000
0.444923 0.775387 0.000000
0.511833 0.771725 0.000000
0.578088 0.769009 0.000000
0.643458 0.765988 0.000000
0.707668 0.762600 0.000000
0.770260 0.758755 0.000000
0.828397 0.751553 0.000000
0.865751 0.728939 0.085847
0.897185 0.705715 0.125399
0.923857 0.682765 0.153964
0.946593 0.660822 0.177279
0.966339 0.640528 0.198795
0.983948 0.622156 0.217777
0.999725 0.605798 0.235447
1.000000 0.591150 0.251926
1.000000 0.578271 0.267674
1.000000 0.566949 0.282536
1.000000 0.557031 0.296391
1.000000 0.548608 0.309728
1.000000 0.541497 0.322606
1.000000 0.535760 0.335271
1.000000 0.531243 0.347417
1.000000 0.528313 0.360235
1.000000 0.526635 0.372808
1.000000 0.526513 0.386206
0.000000 0.824949 0.000000
0.000000 0.824552 0.000000
0.075807 0.823911 0.000000
0.161379 0.822538 0.000000
0.234287 0.820462 0.000000
0.303319 0.818357 0.000000
0.369818 0.815885 0.000000
0.434638 0.813046 0.000000
0.498421 0.809873 0.000000
0.561273 0.806607 0.000000
0.623285 0.803098 0.000092
0.684352 0.799374 0.049744
0.744015 0.795132 0.075990
0.802121 0.790249 0.091890
0.856077 0.782498 0.109621
0.888304 0.758145 0.141176
0.915373 0.733761 0.167941
0.938598 0.710445 0.190829
0.958953 0.688533 0.210788
0.977142 0.668635 0.228916
0.993439 0.650629 0.246311
1.000000 0.634455 0.262425
1.000000 0.619928 0.277623
1.000000 0.606989 0.291936
1.000000 0.595514 0.305577
1.000000 0.585443 0.318669
1.000000 0.576654 0.330999
1.000000 0.569268 0.343175
1.000000 0.563348 0.355474
1.000000 0.558801 0.367834
1.000000 0.555810 0.380743
1.000000 0.554162 0.393896
0.000000 0.856657 0.060670
0.078676 0.856382 0.062684
0.122133 0.855802 0.061769
0.181277 0.854643 0.063325
0.243198 0.852781 0.066499
0.304540 0.850462 0.069245
0.365393 0.847715 0.075746
0.425788 0.844663 0.081727
0.485634 0.841428 0.089723
0.545068 0.838071 0.098329
0.603784 0.834501 0.107729
0.661799 0.830686 0.118257
0.718685 0.826474 0.129000
0.774289 0.821683 0.138705
0.828305 0.816129 0.148592
0.879149 0.808621 0.158267
0.907164 0.783413 0.182467
0.930846 0.758633 0.203677
0.951690 0.735439 0.223087
0.970367 0.714107 0.240787
0.987121 0.694636 0.257420
1.000000 0.676936 0.272709
1.000000 0.660883 0.287297
1.000000 0.646479 0.301701
1.000000 0.633570 0.315282
1.000000 0.622095 0.328099
1.000000 0.612085 0.340673
1.000000 0.603601 0.353552
1.000000 0.596521 0.366064
1.000000 0.590997 0.379034
1.000000 0.586969 0.392462
1.000000 0.584527 0.406470
0.109987 0.882963 0.127565
0.134524 0.882750 0.128756
0.159091 0.882322 0.128542
0.202792 0.881315 0.129458
0.254490 0.879728 0.130739
0.309026 0.877653 0.132509
0.364172 0.875303 0.134981
0.419898 0.872557 0.139071
0.476020 0.869474 0.143648
0.531609 0.866087 0.148836
0.586969 0.862333 0.154696
0.641596 0.858274 0.161471
0.695186 0.853696 0.168276
0.747951 0.848631 0.175326
0.799313 0.843107 0.182223
0.849454 0.837064 0.188754
0.898009 0.830594 0.196231
0.922972 0.805386 0.216464
0.944518 0.781064 0.235966
0.963836 0.758694 0.253727
0.981170 0.738125 0.269749
0.996674 0.719234 0.285588
1.000000 0.701961 0.300237
1.000000 0.686244 0.314031
1.000000 0.672084 0.327581
1.000000 0.659419 0.340703
1.000000 0.648096 0.353094
1.000000 0.638392 0.365637
1.000000 0.630152 0.378515
1.000000 0.623163 0.390967
1.000000 0.617731 0.404028
1.000000 0.613825 0.417487
0.158419 0.904082 0.170047
0.172580 0.903838 0.169589
0.190738 0.903349 0.170657
0.224308 0.902403 0.170748
0.267094 0.900969 0.171786
0.314458 0.899107 0.173251
0.364172 0.896849 0.175418
0.415198 0.894285 0.177615
0.467018 0.891356 0.180941
0.518914 0.888182 0.185061
0.570977 0.884672 0.190158
0.622522 0.880858 0.195377
0.673487 0.876646 0.201328
0.723598 0.871946 0.207279
0.772793 0.866789 0.213199
0.820645 0.861173 0.218997
0.867582 0.855161 0.225193
0.913359 0.849088 0.231418
0.937316 0.825467 0.248234
0.957061 0.801877 0.265599
0.974823 0.780117 0.281712
0.990753 0.760006 0.296666
1.000000 0.741512 0.311254
1.000000 0.724697 0.325200
1.000000 0.709285 0.338445
1.000000 0.695430 0.351598
1.000000 0.683070 0.364355
1.000000 0.672175 0.377020
1.000000 0.662745 0.389776
1.000000 0.654749 0.402686
1.000000 0.648188 0.415625
1.000000 0.643305 0.429572
0.196689 0.922240 0.205875
0.207950 0.922148 0.206271
0.233921 0.927550 0.220371
0.258885 0.926665 0.220493
0.293034 0.925261 0.221256
0.332341 0.923461 0.222049
0.375525 0.921172 0.223331
0.420661 0.918578 0.224521
0.467659 0.915679 0.227085
0.515373 0.912474 0.230289
0.563348 0.909056 0.233768
0.611444 0.905241 0.238010
0.659083 0.901030 0.242344
0.706355 0.896452 0.246952
0.752804 0.891508 0.251591
0.798398 0.886198 0.255894
0.843290 0.880583 0.260990
0.887144 0.874815 0.266148
0.930205 0.868956 0.271366
0.953094 0.846799 0.285801
0.970764 0.823575 0.300816
0.986694 0.802152 0.315373
1.000000 0.782376 0.329046
1.000000 0.764218 0.342321
1.000000 0.747463 0.354742
1.000000 0.732204 0.366766
1.000000 0.718318 0.378302
1.000000 0.706020 0.389960
1.000000 0.695216 0.401923
1.000000 0.686091 0.414710
1.000000 0.678431 0.427741
1.000000 0.672358 0.441627
0.234043 0.939269 0.240940
0.243565 0.939727 0.242771
0.255619 0.940093 0.244572
0.277440 0.939971 0.246891
0.307042 0.939239 0.248508
0.341924 0.937865 0.250187
0.380102 0.935973 0.251164
0.420935 0.933684 0.252689
0.463752 0.931121 0.254856
0.507530 0.928252 0.257511
0.552239 0.925109 0.260349
0.597162 0.921691 0.264042
0.642115 0.917845 0.268070
0.686702 0.913725 0.271702
0.730831 0.909209 0.275761
0.774411 0.904387 0.279911
0.817288 0.899321 0.284215
0.859495 0.894072 0.288914
0.901122 0.888792 0.294499
0.942016 0.883574 0.300298
0.964630 0.863432 0.313451
0.980957 0.841154 0.328038
0.995636 0.820401 0.341741
1.000000 0.801266 0.355138
1.000000 0.783597 0.367681
1.000000 0.767300 0.379614
1.000000 0.752468 0.391180
1.000000 0.739223 0.403113
1.000000 0.727504 0.415290
1.000000 0.717281 0.427985
1.000000 0.708614 0.441016
1.000000 0.701595 0.455055
0.262303 0.952514 0.267704
0.270420 0.952819 0.269841
0.280217 0.953124 0.271519
0.298253 0.952972 0.273259
0.323461 0.952331 0.274907
0.353460 0.951110 0.276219
0.387274 0.949401 0.277501
0.423774 0.947387 0.278721
0.462501 0.945129 0.280522
0.502831 0.942535 0.282780
0.544244 0.939757 0.285954
0.586206 0.936675 0.289189
0.628290 0.933227 0.292515
0.670375 0.929503 0.296361
0.712215 0.925414 0.300114
0.753597 0.921080 0.303838
0.794553 0.916503 0.307561
0.835019 0.911772 0.312230
0.875029 0.906981 0.317113
0.914488 0.902251 0.322942
0.953307 0.897551 0.329564
0.975677 0.879515 0.342107
0.990661 0.857877 0.356085
1.000000 0.837827 0.369360
1.000000 0.819181 0.381842
1.000000 0.801968 0.393622
1.000000 0.786160 0.405005
1.000000 0.771847 0.416724
1.000000 0.759152 0.428901
1.000000 0.747951 0.441474
1.000000 0.738277 0.454475
1.000000 0.730251 0.468391
0.288945 0.964477 0.293309
0.295659 0.964752 0.294987
0.304021 0.964965 0.296666
0.319280 0.964813 0.298344
0.340856 0.964202 0.300023
0.366796 0.963104 0.301366
0.396338 0.961639 0.302312
0.428870 0.959808 0.303532
0.463966 0.957733 0.305272
0.500755 0.955413 0.307317
0.538781 0.952880 0.309728
0.577813 0.950072 0.312810
0.617090 0.946960 0.315770
0.656672 0.943603 0.319341
0.696284 0.940002 0.323217
0.735683 0.936187 0.327123
0.774990 0.932250 0.331853
0.813931 0.928283 0.336919
0.852506 0.924254 0.342718
0.890715 0.920226 0.349706
0.928344 0.916289 0.357244
0.965362 0.912413 0.365606
0.987366 0.896300 0.378363
1.000000 0.875486 0.392248
1.000000 0.856199 0.405371
1.000000 0.838315 0.417700
1.000000 0.821866 0.429725
1.000000 0.806912 0.441688
1.000000 0.793423 0.453803
1.000000 0.781491 0.466224
1.000000 0.771115 0.479377
1.000000 0.762325 0.493111
0.321141 0.976928 0.324102
0.325963 0.976959 0.325017
0.331975 0.976867 0.325719
0.343999 0.976501 0.326574
0.361761 0.975769 0.327398
0.383886 0.974701 0.328435
0.409613 0.973358 0.329412
0.438453 0.971771 0.330785
0.469978 0.970001 0.332403
0.503471 0.967987 0.334600
0.538506 0.965759 0.337560
0.574578 0.963287 0.340551
0.611109 0.960510 0.343725
0.648005 0.957519 0.347082
0.685054 0.954253 0.350652
0.722225 0.950835 0.354559
0.759274 0.947234 0.358892
0.796201 0.943572 0.363531
0.832853 0.939849 0.369146
0.869230 0.936095 0.375158
0.905119 0.932341 0.382177
0.940490 0.928618 0.389685
0.975189 0.924956 0.398077
0.996582 0.910430 0.409613
1.000000 0.890166 0.422187
1.000000 0.871458 0.434333
1.000000 0.854154 0.446204
1.000000 0.838376 0.457984
1.000000 0.824063 0.469947
1.000000 0.811185 0.482002
1.000000 0.799863 0.494881
1.000000 0.789761 0.507347
0.346075 0.986450 0.348028
0.350286 0.986450 0.348943
0.355505 0.986419 0.349798
0.365911 0.986053 0.350652
0.381079 0.985412 0.351659
0.399939 0.984466 0.352209
0.422431 0.983246 0.353094
0.447730 0.981781 0.354040
0.476112 0.980163 0.355810
0.506462 0.978302 0.357855
0.538445 0.976287 0.360449
0.571588 0.974060 0.363439
0.605432 0.971557 0.366400
0.640009 0.968872 0.369848
0.674800 0.966003 0.373358
0.709804 0.962951 0.377295
0.744930 0.959777 0.381659
0.779995 0.956481 0.386664
0.815000 0.953155 0.392584
0.849729 0.949828 0.399023
0.884154 0.946471 0.406195
0.918090 0.943145 0.414191
0.951446 0.939849 0.422980
0.984131 0.936614 0.432105
1.000000 0.922850 0.437842
1.000000 0.903288 0.449500
1.000000 0.885191 0.461219
1.000000 0.868559 0.472633
1.000000 0.853391 0.484230
1.000000 0.839658 0.496315
1.000000 0.827481 0.509087
1.000000 0.816159 0.520287
0.376532 0.995972 0.377539
0.380255 0.995972 0.378668
0.384619 0.995880 0.379248
0.393072 0.995514 0.379919
0.405371 0.994873 0.380163
0.421180 0.993988 0.380529
0.440253 0.992828 0.380987
0.462165 0.991455 0.381415
0.486824 0.989868 0.382300
0.513603 0.988128 0.383795
0.542199 0.986145 0.385565
0.572107 0.984039 0.387701
0.603143 0.981720 0.390234
0.634852 0.979187 0.392950
0.666957 0.976471 0.395666
0.699550 0.973571 0.398840
0.732387 0.970550 0.402472
0.765438 0.967468 0.406928
0.798581 0.964416 0.412207
0.831754 0.961395 0.418647
0.864683 0.958373 0.426184
0.897185 0.955352 0.434180
0.929168 0.952300 0.442634
0.960571 0.949218 0.450996
0.991180 0.946136 0.459480
1.000000 0.934936 0.469032
1.000000 0.916014 0.479866
1.000000 0.898528 0.490547
1.000000 0.882506 0.501427
1.000000 0.867948 0.513024
1.000000 0.854673 0.524468
1.000000 0.842405 0.534783
0.399542 1.000000 0.399817
0.402869 1.000000 0.400885
0.406744 1.000000 0.401556
0.414038 1.000000 0.402197
0.424750 1.000000 0.402533
0.438575 1.000000 0.402930
0.455451 1.000000 0.403601
0.474952 0.999298 0.404334
0.497047 0.997925 0.405493
0.521386 0.996368 0.407202
0.547295 0.994659 0.409125
0.574914 0.992798 0.411658
0.603601 0.990753 0.414527
0.632898 0.988556 0.417395
0.662959 0.986114 0.420630
0.693324 0.983551 0.423896
0.724147 0.980865 0.427893
0.755215 0.978119 0.432349
0.786496 0.975372 0.437842
0.817838 0.972595 0.444160
0.849027 0.969818 0.451362
0.879942 0.967041 0.459113
0.910369 0.964233 0.467048
0.940246 0.961425 0.475227
0.969574 0.958587 0.483803
0.998199 0.955779 0.492470
1.000000 0.946288 0.502007
1.000000 0.928130 0.512505
1.000000 0.911498 0.523430
1.000000 0.896269 0.534691
1.000000 0.882017 0.544610
1.000000 0.868986 0.554284
0.424933 1.000000 0.424414
0.427741 1.000000 0.425299
0.430793 1.000000 0.425635
0.436835 1.000000 0.425971
0.445686 1.000000 0.426062
0.457465 1.000000 0.426246
0.471901 1.000000 0.426459
0.489021 1.000000 0.427100
0.508721 1.000000 0.428290
0.530388 1.000000 0.429847
0.554070 1.000000 0.431891
0.579248 1.000000 0.434607
0.605585 0.998596 0.437385
0.632868 0.996612 0.440650
0.660548 0.994446 0.443732
0.688777 0.992126 0.447028
0.717525 0.989685 0.450690
0.746578 0.987213 0.455024
0.775967 0.984680 0.460090
0.805509 0.982116 0.466102
0.835019 0.979583 0.472938
0.864347 0.976989 0.480537
0.893309 0.974395 0.488319
0.921813 0.971801 0.496498
0.949798 0.969207 0.504662
0.977173 0.966583 0.513329
1.000000 0.964050 0.522545
1.000000 0.956298 0.532006
1.000000 0.938750 0.542565
1.000000 0.922606 0.552087
1.000000 0.907561 0.560937
1.000000 0.893736 0.569757
0.447852 1.000000 0.446662
0.450172 1.000000 0.447272
0.452827 1.000000 0.447608
0.457923 1.000000 0.447852
0.466041 1.000000 0.448280
0.476844 1.000000 0.449195
0.490517 1.000000 0.450629
0.506706 1.000000 0.452644
0.525322 1.000000 0.455390
0.545830 1.000000 0.458564
0.568017 1.000000 0.462257
0.591424 1.000000 0.466133
0.615808 1.000000 0.470222
0.640894 1.000000 0.474250
0.666499 1.000000 0.478218
0.692317 1.000000 0.481758
0.718685 0.998505 0.485756
0.745388 0.996277 0.490028
0.772549 0.993957 0.495338
0.799863 0.991669 0.501030
0.827237 0.989319 0.507713
0.854520 0.986938 0.515007
0.881498 0.984558 0.522454
0.908110 0.982116 0.530297
0.934264 0.979706 0.538598
0.959899 0.977325 0.547112
0.984985 0.974975 0.556054
1.000000 0.972656 0.565545
1.000000 0.966552 0.574365
1.000000 0.949554 0.582330
1.000000 0.934051 0.590448
1.000000 0.919677 0.598077
0.479774 1.000000 0.477943
0.481575 1.000000 0.478370
0.483680 1.000000 0.478584
0.487800 1.000000 0.478614
0.494392 1.000000 0.478706
0.503258 1.000000 0.479164
0.514488 1.000000 0.479927
0.527794 1.000000 0.480964
0.543481 1.000000 0.482643
0.561181 1.000000 0.485023
0.580224 1.000000 0.487434
0.600793 1.000000 0.490333
0.622461 1.000000 0.493477
0.645014 1.000000 0.496773
0.668238 1.000000 0.500114
