其他预设/【232】美食博客调色预设124款/1.3D LUT预设（视频调色-PR-AE-PS-FCPX-达芬奇用）/Food Art #46.cube
# Created by Adobe Lightroom plugin Export LUT (1.17.0)
# www.johnrellis.com/lightroom/exportlut.htm
# Preset: Food Art #46
# Color profile: /Library/Application Support/Adobe/Color/Profiles/Recommended/AdobeRGB1998.icc
LUT_3D_SIZE 5
DOMAIN_MIN 0.000000 0.000000 0.000000
DOMAIN_MAX 0.903226 0.903226 0.903226
0.293462 0.244968 0.086000
0.416205 0.255497 0.089143
0.608759 0.271336 0.082063
0.812558 0.314183 0.098665
0.985657 0.367651 0.154696
0.317479 0.361975 0.078645
0.409308 0.356085 0.075227
0.597620 0.361791 0.074617
0.806119 0.390539 0.093385
0.986603 0.427558 0.158846
0.358831 0.547692 0.059449
0.430610 0.545251 0.053040
0.603357 0.550713 0.026398
0.796628 0.561425 0.078126
0.975525 0.572198 0.158877
0.410132 0.758419 0.073854
0.468788 0.757473 0.074311
0.614740 0.753536 0.075349
0.786221 0.749477 0.082063
0.967285 0.751308 0.173129
0.478370 0.946380 0.191318
0.518944 0.945098 0.192355
0.630640 0.938079 0.190341
0.784756 0.938323 0.211185
0.956451 0.938628 0.242924
0.324437 0.258488 0.205936
0.412360 0.267735 0.196353
0.587518 0.295415 0.206516
0.788174 0.333776 0.228641
0.971649 0.389471 0.267399
0.341222 0.352087 0.190463
0.418341 0.356542 0.195102
0.581567 0.367895 0.204135
0.785306 0.397620 0.225834
0.970336 0.440589 0.268193
0.373846 0.536217 0.195773
0.439979 0.530266 0.199496
0.587030 0.530449 0.198550
0.779171 0.552789 0.220005
0.967102 0.578241 0.273198
0.423224 0.749996 0.220340
0.480537 0.747616 0.226566
0.616052 0.744717 0.227451
0.780453 0.742184 0.230564
0.961944 0.751492 0.285801
0.499550 0.941588 0.300572
0.536187 0.940490 0.301122
0.644404 0.939300 0.307317
0.790249 0.938140 0.319280
0.956634 0.938720 0.343359
0.368200 0.275456 0.426886
0.442847 0.284184 0.418524
0.592554 0.299351 0.403052
0.782742 0.343359 0.429694
0.960784 0.428779 0.470771
0.388067 0.371374 0.407263
0.448310 0.371466 0.402014
0.589471 0.373846 0.398383
0.776028 0.409918 0.428595
0.957549 0.486336 0.482643
0.397955 0.532036 0.398932
0.455512 0.528527 0.395758
0.606348 0.546105 0.419196
0.768948 0.562066 0.437842
0.952392 0.607294 0.494179
0.435767 0.737606 0.425971
0.489021 0.731868 0.426246
0.623865 0.728939 0.442908
0.771817 0.732113 0.449134
0.948516 0.756039 0.498054
0.506676 0.933074 0.472480
0.554162 0.931609 0.485176
0.667018 0.928923 0.511162
0.795377 0.929137 0.515862
0.949523 0.931884 0.528771
0.408515 0.305821 0.682307
0.468360 0.311528 0.679194
0.612177 0.327611 0.673457
0.774197 0.350652 0.661952
0.952514 0.433448 0.679896
0.425269 0.393774 0.670130
0.477577 0.394995 0.668696
0.611383 0.401160 0.663600
0.768307 0.413581 0.654078
0.947539 0.484352 0.679896
0.439246 0.552178 0.658320
0.491157 0.553216 0.654444
0.617243 0.559594 0.648951
0.760708 0.561456 0.645228
0.941161 0.613794 0.688319
0.453559 0.729549 0.655909
0.500328 0.726162 0.652033
0.621454 0.723903 0.650019
0.775845 0.741054 0.672206
0.937804 0.764736 0.702602
0.515068 0.925505 0.682948
0.555596 0.923949 0.685847
0.663630 0.922240 0.696132
0.798184 0.922728 0.712062
0.941283 0.926635 0.719509
0.445533 0.362219 0.918273
0.491218 0.367498 0.917205
0.614740 0.385046 0.914305
0.770718 0.413397 0.910002
0.939025 0.448463 0.905608
0.464729 0.437293 0.914183
0.506065 0.440253 0.913329
0.622034 0.451698 0.910948
0.772427 0.471839 0.906981
0.937072 0.497444 0.903563
0.507439 0.594537 0.907286
0.549584 0.601648 0.905821
0.646662 0.606592 0.903929
0.778927 0.611566 0.901549
0.933684 0.620417 0.900908
0.518639 0.750057 0.905394
0.556146 0.751949 0.904143
0.658289 0.757870 0.901823
0.788266 0.765805 0.900664
0.932525 0.770596 0.902525
0.534630 0.922667 0.907317
0.567742 0.922210 0.906706
0.664393 0.921813 0.905852
0.792477 0.922087 0.905364
0.938018 0.930114 0.914549
