其他预设/【232】美食博客调色预设124款/1.3D LUT预设（视频调色-PR-AE-PS-FCPX-达芬奇用）/Food Art #8 ().cube
# Created by Adobe Lightroom plugin Export LUT (1.17.0)
# www.johnrellis.com/lightroom/exportlut.htm
# Preset: Food Art #8 (素锦印象)
# Color profile: /Library/Application Support/Adobe/Color/Profiles/Recommended/AdobeRGB1998.icc
LUT_3D_SIZE 5
DOMAIN_MIN 0.000000 0.000000 0.000000
DOMAIN_MAX 0.903226 0.903226 0.903226
0.000000 0.000000 0.000000
0.227451 0.000000 0.000000
0.532860 0.000000 0.000000
0.781582 0.000000 0.000000
0.986694 0.000000 0.000000
0.000000 0.241825 0.000000
0.236881 0.247196 0.000000
0.536828 0.259525 0.000000
0.782712 0.241978 0.000000
0.983490 0.231022 0.000000
0.000000 0.552819 0.000000
0.219089 0.554284 0.000000
0.524651 0.546807 0.000000
0.776547 0.525109 0.000000
0.980285 0.497139 0.000000
0.000000 0.793668 0.000000
0.161135 0.792233 0.000000
0.484443 0.788602 0.000000
0.753048 0.782620 0.000000
0.971557 0.749477 0.020722
0.000000 0.978820 0.082307
0.163424 0.977874 0.089418
0.452674 0.975677 0.118532
0.695857 0.967407 0.144198
0.924498 0.956451 0.181247
0.000000 0.000000 0.264530
0.247684 0.000000 0.265019
0.544366 0.000000 0.267063
0.790066 0.000000 0.260441
0.987701 0.045472 0.267765
0.000000 0.255497 0.265934
0.233555 0.251377 0.265385
0.543023 0.245823 0.262516
0.788388 0.244846 0.262028
0.985718 0.257816 0.270298
0.000000 0.557885 0.267094
0.193637 0.560113 0.255436
0.530785 0.555688 0.251987
0.781094 0.531243 0.266209
0.978973 0.507866 0.280064
0.000000 0.794491 0.257816
0.167330 0.793606 0.256901
0.487434 0.790066 0.260716
0.754513 0.784237 0.269505
0.969482 0.752773 0.292729
0.000000 0.978485 0.273747
0.228336 0.976471 0.300816
0.470497 0.972442 0.306554
0.702968 0.965484 0.317540
0.924834 0.955566 0.333288
0.000000 0.000000 0.578363
0.244755 0.000000 0.577996
0.540612 0.000000 0.576562
0.785214 0.000000 0.550713
0.978454 0.212100 0.539757
0.000000 0.244236 0.577478
0.211673 0.237949 0.578119
0.537072 0.233768 0.577386
0.782162 0.278416 0.557183
0.974914 0.338170 0.548119
0.000000 0.554894 0.575189
0.187503 0.554894 0.575921
0.524773 0.551537 0.572900
0.770565 0.553887 0.570886
0.966003 0.559442 0.570367
0.000000 0.796506 0.544732
0.205051 0.795895 0.549889
0.511345 0.790311 0.559625
0.757290 0.784848 0.563073
0.959808 0.766171 0.573663
0.000000 0.978820 0.520531
0.254795 0.976501 0.527794
0.528252 0.968353 0.564813
0.729183 0.962982 0.571618
0.929442 0.955383 0.578637
0.000000 0.000000 0.813535
0.214908 0.000000 0.812680
0.498909 0.000000 0.810941
0.763607 0.000000 0.809079
0.970062 0.221622 0.774777
0.000000 0.236942 0.813138
0.210605 0.238773 0.812802
0.500572 0.249302 0.811154
0.763424 0.282414 0.809079
0.968444 0.344579 0.777340
0.000000 0.522637 0.810208
0.253178 0.530266 0.809689
0.523125 0.544915 0.808103
0.762875 0.552697 0.807370
0.960357 0.573022 0.783505
0.000000 0.779019 0.803403
0.253239 0.779904 0.803891
0.522148 0.781216 0.803220
0.762997 0.783658 0.800565
0.947295 0.791592 0.800900
0.152407 0.977203 0.765133
0.295476 0.975433 0.766293
0.531579 0.968872 0.770626
0.765408 0.958251 0.790372
0.936675 0.954009 0.801816
0.000000 0.000000 0.980163
0.206210 0.000000 0.979767
0.461494 0.077546 0.978241
0.701503 0.183902 0.975769
0.927733 0.277867 0.972808
0.030915 0.254276 0.979004
0.241154 0.260807 0.978576
0.477821 0.285679 0.976989
0.709499 0.331029 0.974670
0.928405 0.378393 0.972076
0.273533 0.526848 0.973999
0.369390 0.539574 0.973236
0.538628 0.551202 0.972137
0.733272 0.566522 0.970733
0.930755 0.587854 0.968688
0.292699 0.733516 0.969512
0.382818 0.739254 0.969146
0.577447 0.757443 0.967285
0.776333 0.786526 0.964385
0.936584 0.796719 0.963745
0.322545 0.946075 0.964813
0.402472 0.946777 0.964721
0.588312 0.948425 0.963561
0.787350 0.951873 0.962432
0.949615 0.956939 0.962585
