其他预设/【232】美食博客调色预设124款/1.3D LUT预设（视频调色-PR-AE-PS-FCPX-达芬奇用）/Food Art #21.cube
# Created by Adobe Lightroom plugin Export LUT (1.17.0)
# www.johnrellis.com/lightroom/exportlut.htm
# Preset: Food Art #21
# Color profile: /Library/Application Support/Adobe/Color/Profiles/Recommended/AdobeRGB1998.icc
LUT_3D_SIZE 32
0.000000 0.000000 0.000000
0.000000 0.000000 0.000000
0.000000 0.000000 0.000000
0.019989 0.000000 0.000732
0.062715 0.000000 0.000000
0.089326 0.000000 0.000000
0.119112 0.000000 0.000000
0.151827 0.000000 0.000000
0.188144 0.000000 0.000000
0.228031 0.000000 0.000000
0.272404 0.000000 0.000000
0.321080 0.016663 0.000000
0.373877 0.046571 0.000000
0.430335 0.062715 0.000000
0.489326 0.059693 0.000000
0.549767 0.035554 0.000000
0.610010 0.000000 0.000000
0.667292 0.000000 0.000000
0.722866 0.000000 0.000000
0.774594 0.000000 0.000000
0.821530 0.000000 0.000000
0.863951 0.000000 0.000000
0.902220 0.000000 0.000000
0.936858 0.000000 0.000000
0.968200 0.000000 0.000000
0.996521 0.000000 0.000000
1.000000 0.000000 0.000000
1.000000 0.000000 0.000000
1.000000 0.000000 0.000000
1.000000 0.000000 0.000000
1.000000 0.000000 0.000000
1.000000 0.000000 0.000000
0.000000 0.000000 0.000000
0.000000 0.000000 0.000000
0.000000 0.000000 0.000000
0.021332 0.000000 0.000732
0.063325 0.000000 0.000061
0.089662 0.000000 0.000000
0.119112 0.000000 0.000000
0.151858 0.000000 0.000000
0.187808 0.000000 0.000000
0.227756 0.006592 0.000000
0.272038 0.027955 0.000000
0.320623 0.054322 0.000000
0.373144 0.069215 0.000000
0.429603 0.078218 0.000000
0.488502 0.076204 0.000000
0.549004 0.066773 0.000000
0.608850 0.041321 0.000000
0.666255 0.000000 0.000000
0.721401 0.000000 0.000000
0.772946 0.000000 0.000000
0.819791 0.000000 0.000000
0.862272 0.000000 0.000000
0.900664 0.000000 0.000000
0.935454 0.000000 0.000000
0.966949 0.000000 0.000000
0.995453 0.000000 0.000000
1.000000 0.000000 0.000000
1.000000 0.000000 0.000000
1.000000 0.000000 0.000000
1.000000 0.000000 0.000000
1.000000 0.000000 0.000000
1.000000 0.000000 0.000000
0.000000 0.000000 0.000000
0.000000 0.000000 0.000000
0.000000 0.000000 0.000000
0.024048 0.000000 0.000671
0.063752 0.000488 0.000000
0.090059 0.002808 0.000000
0.118990 0.007446 0.000000
0.151705 0.017639 0.000000
0.187625 0.031403 0.000000
0.227543 0.052247 0.000000
0.271733 0.065705 0.000000
0.320317 0.077028 0.000000
0.372992 0.088411 0.000000
0.429267 0.094362 0.000000
0.488045 0.094392 0.000000
0.548577 0.087068 0.000000
0.608392 0.077638 0.000000
0.665888 0.055085 0.000000
0.720699 0.000000 0.000000
0.772061 0.000000 0.000000
0.818997 0.000000 0.000000
0.861509 0.000000 0.000000
0.899962 0.000000 0.000000
0.934783 0.000000 0.000000
0.966369 0.000000 0.000000
0.994903 0.000000 0.000000
1.000000 0.000000 0.000000
1.000000 0.000000 0.000000
1.000000 0.000000 0.000000
1.000000 0.000000 0.000000
1.000000 0.000000 0.000000
1.000000 0.000000 0.000000
0.000000 0.040681 0.000000
0.000000 0.044282 0.000000
0.000000 0.047639 0.000000
0.022827 0.051179 0.000000
0.063203 0.053651 0.000000
0.090211 0.059632 0.000000
0.119295 0.065126 0.000000
0.152163 0.071931 0.000000
0.188113 0.079530 0.000000
0.228031 0.088350 0.000000
0.272190 0.097658 0.000000
0.320684 0.108064 0.000000
0.373205 0.117769 0.000000
0.429328 0.122164 0.000000
0.488228 0.122469 0.000000
0.548608 0.120119 0.000000
0.608362 0.113344 0.000000
0.665949 0.103761 0.000000
0.720150 0.088624 0.000000
0.771023 0.069276 0.000000
0.817685 0.027131 0.000000
0.860166 0.000000 0.000000
0.898772 0.000000 0.000000
0.933806 0.000000 0.000000
0.965698 0.000000 0.000000
0.994507 0.000000 0.000000
1.000000 0.000000 0.000000
1.000000 0.000000 0.000000
1.000000 0.000000 0.000000
1.000000 0.000000 0.000000
1.000000 0.000000 0.000000
1.000000 0.000000 0.000000
0.000000 0.080934 0.000000
0.000000 0.081605 0.000000
0.000000 0.083192 0.000000
0.016938 0.084718 0.000000
0.061982 0.087343 0.000000
0.090089 0.092287 0.000000
0.119722 0.098543 0.000000
0.152377 0.105653 0.000000
0.188510 0.113527 0.000000
0.228244 0.122683 0.000000
0.272374 0.132021 0.000000
0.321019 0.141512 0.000000
0.373693 0.149050 0.000000
0.429877 0.153750 0.000000
0.488594 0.156069 0.000000
0.548852 0.155642 0.000000
0.608667 0.151980 0.000000
0.666865 0.146426 0.000000
0.720577 0.137545 0.000000
0.771084 0.127626 0.000000
0.817441 0.115663 0.000000
0.859739 0.102693 0.000000
0.898283 0.088746 0.000000
0.933318 0.075441 0.000000
0.965179 0.062043 0.000000
0.994049 0.043153 0.000000
1.000000 0.031067 0.000000
1.000000 0.031434 0.000000
1.000000 0.045869 0.000000
1.000000 0.065064 0.000000
1.000000 0.080201 0.000000
1.000000 0.096590 0.000000
0.000000 0.114656 0.000000
0.000000 0.115358 0.000000
0.000000 0.116152 0.000000
0.010376 0.117708 0.000000
0.062593 0.119936 0.000000
0.090150 0.122957 0.000000
0.120516 0.130312 0.000000
0.153353 0.138308 0.000000
0.189548 0.146944 0.000000
0.229526 0.156313 0.000000
0.273808 0.166201 0.000000
0.322515 0.174899 0.000000
0.375097 0.182040 0.000000
0.431434 0.187442 0.000000
0.489998 0.190738 0.000000
0.550347 0.191836 0.000000
0.610895 0.190188 0.000000
0.668360 0.186862 0.000000
0.721706 0.181216 0.000000
0.771908 0.174441 0.000000
0.818112 0.166140 0.000000
0.860319 0.157992 0.000000
0.907897 0.150820 0.000000
0.941802 0.143954 0.000000
0.972442 0.137179 0.000000
1.000000 0.132326 0.000000
1.000000 0.129000 0.000000
1.000000 0.128084 0.000000
1.000000 0.129488 0.000000
1.000000 0.133272 0.000000
1.000000 0.138888 0.000000
1.000000 0.147066 0.000000
0.000000 0.152438 0.000000
0.000000 0.153017 0.000000
0.000000 0.153719 0.000000
0.004700 0.155001 0.000000
0.063783 0.157198 0.000000
0.094087 0.159731 0.000000
0.122560 0.163058 0.000000
0.155917 0.171633 0.000000
0.192660 0.181308 0.000000
0.233219 0.191012 0.000000
0.278172 0.200595 0.000000
0.327459 0.209415 0.000000
0.380438 0.217044 0.000000
0.436683 0.223209 0.000000
0.495369 0.227115 0.000000
0.555261 0.229526 0.000000
0.616541 0.229679 0.000000
0.673548 0.227543 0.000000
0.726436 0.223514 0.000000
0.776486 0.217899 0.000000
0.822751 0.212161 0.000000
0.865202 0.205814 0.000000
0.903990 0.199130 0.000000
0.939117 0.193362 0.000000
0.970703 0.188022 0.000000
0.998840 0.183688 0.000000
1.000000 0.180636 0.000000
1.000000 0.178470 0.000000
1.000000 0.178042 0.000000
1.000000 0.179263 0.000000
1.000000 0.182071 0.000000
1.000000 0.186801 0.000000
0.000000 0.191501 0.000000
0.000000 0.191745 0.000000
0.000000 0.192477 0.000000
0.000671 0.193606 0.000000
0.065614 0.195468 0.000000
0.098268 0.197818 0.000000
0.128359 0.200839 0.000000
0.157931 0.204288 0.000000
0.194369 0.213382 0.000000
0.235447 0.223697 0.000000
0.280552 0.233707 0.000000
0.329808 0.243015 0.000000
0.382635 0.251377 0.000000
0.438941 0.258335 0.000000
0.497475 0.263218 0.000000
0.558862 0.267185 0.000000
0.618830 0.268498 0.000000
0.674861 0.267185 0.000000
0.727077 0.264012 0.000000
0.776577 0.259831 0.000000
0.822416 0.254795 0.000000
0.864683 0.249180 0.000000
0.903197 0.243961 0.000000
0.938170 0.238407 0.000000
0.969726 0.233219 0.000000
0.997864 0.229099 0.000000
1.000000 0.225498 0.000000
1.000000 0.222873 0.000000
1.000000 0.221378 0.000000
1.000000 0.221134 0.000000
1.000000 0.222263 0.000000
1.000000 0.224460 0.000000
0.000000 0.232944 0.000000
0.000000 0.233402 0.000000
0.000000 0.233921 0.000000
0.000000 0.234806 0.000000
0.066102 0.236637 0.000000
0.101076 0.238804 0.000000
0.133547 0.241428 0.000000
0.165377 0.244602 0.000000
0.198032 0.248295 0.000000
0.238376 0.257664 0.000000
0.283726 0.268070 0.000000
0.333288 0.277867 0.000000
0.386206 0.286809 0.000000
0.442481 0.294285 0.000000
0.502464 0.300938 0.000000
0.563165 0.305364 0.000000
0.622004 0.307225 0.000000
0.677089 0.306523 0.000000
0.728573 0.304082 0.000000
0.777646 0.300664 0.000000
0.822965 0.296178 0.000000
0.864805 0.291234 0.000000
0.902983 0.286015 0.000000
0.937774 0.281102 0.000000
0.969146 0.276219 0.000000
0.997223 0.271458 0.000000
1.000000 0.267826 0.000000
1.000000 0.264500 0.000000
1.000000 0.262181 0.000000
1.000000 0.260716 0.000000
1.000000 0.260410 0.000000
1.000000 0.261173 0.000000
0.000000 0.276890 0.000000
0.000000 0.277470 0.000000
0.000000 0.277897 0.000000
0.000000 0.278691 0.000000
0.062104 0.280369 0.000000
0.103426 0.282231 0.000000
0.138430 0.284611 0.000000
0.172671 0.287297 0.000000
0.207401 0.290532 0.000000
0.243351 0.293950 0.000000
0.287236 0.303044 0.000000
0.337011 0.313207 0.000000
0.390906 0.323186 0.000000
0.448157 0.331884 0.000000
0.507469 0.338903 0.000000
0.567651 0.343938 0.000000
0.625940 0.346197 0.000000
0.680323 0.346014 0.000000
0.731319 0.343999 0.000000
0.779507 0.340917 0.000000
0.824216 0.336889 0.000000
0.865263 0.332280 0.000000
0.902831 0.327062 0.000000
0.937133 0.321904 0.000000
0.968231 0.316960 0.000000
0.996216 0.312169 0.000000
1.000000 0.308110 0.000000
1.000000 0.304295 0.000000
1.000000 0.301213 0.000000
1.000000 0.299107 0.000000
1.000000 0.297612 0.000000
1.000000 0.297185 0.000000
0.000000 0.322850 0.000000
0.000000 0.323308 0.000000
0.000000 0.323735 0.000000
0.000000 0.324437 0.000000
0.053803 0.325902 0.000000
0.103822 0.327611 0.000000
0.142977 0.329808 0.000000
0.179782 0.332403 0.000000
0.216861 0.335210 0.000000
0.254856 0.338323 0.000000
0.294438 0.341802 0.000000
0.342870 0.350835 0.000000
0.396948 0.360967 0.000000
0.454017 0.369909 0.000000
0.512688 0.377173 0.000000
0.572198 0.382544 0.000000
0.629145 0.385077 0.000000
0.682795 0.385229 0.000000
0.733211 0.383490 0.000000
0.780880 0.380529 0.000000
0.824979 0.376715 0.000000
0.865660 0.372137 0.000000
0.902953 0.367346 0.000000
0.937041 0.362127 0.000000
0.967895 0.357214 0.000000
0.995727 0.352178 0.000000
1.000000 0.347387 0.000000
1.000000 0.343236 0.000000
1.000000 0.339513 0.000000
1.000000 0.336370 0.000000
1.000000 0.333989 0.000000
1.000000 0.332555 0.000000
0.000000 0.370794 0.000000
0.000000 0.371069 0.000000
0.000000 0.371374 0.000000
0.000000 0.372168 0.000000
0.035004 0.373388 0.000000
0.103792 0.374914 0.000000
0.146883 0.376928 0.000000
0.187045 0.379217 0.000000
0.226688 0.381811 0.000000
0.267247 0.385412 0.000000
0.309178 0.388922 0.000000
0.352483 0.392096 0.000000
0.412055 0.405982 0.000000
0.470130 0.415167 0.000000
0.529259 0.422461 0.000000
0.588037 0.427314 0.000000
0.643702 0.429480 0.000000
0.695796 0.428901 0.000000
0.744686 0.426886 0.000000
0.790616 0.423590 0.000000
0.833127 0.419257 0.000000
0.872251 0.414374 0.000000
0.908171 0.409003 0.000000
0.941100 0.403479 0.000000
0.971038 0.397955 0.000000
0.998077 0.392554 0.000000
1.000000 0.387304 0.000000
1.000000 0.382513 0.000000
1.000000 0.378088 0.000000
1.000000 0.374182 0.000000
1.000000 0.370916 0.000000
1.000000 0.368383 0.000000
0.000000 0.421973 0.000000
0.000000 0.422278 0.000000
0.000000 0.422492 0.000000
0.000000 0.423133 0.000000
0.007568 0.423865 0.000000
0.103609 0.425147 0.000000
0.151858 0.427344 0.000000
0.195224 0.429755 0.000000
0.237888 0.432532 0.000000
0.280919 0.435798 0.000000
0.325475 0.439155 0.000000
0.371374 0.442573 0.000000
0.418799 0.445991 0.000000
0.473610 0.452979 0.000000
0.533288 0.461128 0.000000
0.591913 0.466499 0.000000
0.646754 0.468482 0.000000
0.697932 0.468208 0.000000
0.746212 0.466072 0.000000
0.791470 0.462837 0.000000
0.833402 0.458473 0.000000
0.872099 0.453590 0.000000
0.907744 0.448035 0.000000
0.940398 0.442267 0.000000
0.970153 0.436591 0.000000
0.997040 0.430854 0.000000
1.000000 0.425330 0.000000
1.000000 0.419837 0.000000
1.000000 0.414893 0.000000
1.000000 0.410285 0.000000
1.000000 0.406317 0.000000
1.000000 0.402808 0.000000
0.000000 0.473091 0.000000
0.000000 0.473487 0.000000
0.000000 0.473640 0.000000
0.000000 0.474159 0.000000
0.000000 0.474952 0.000000
0.102876 0.476081 0.000000
0.155673 0.477699 0.000000
0.202182 0.479500 0.000000
0.246921 0.481788 0.000000
0.292027 0.484413 0.000000
0.337804 0.487098 0.000000
0.385016 0.489967 0.000000
0.433234 0.492775 0.000000
0.482582 0.495094 0.000000
0.537255 0.500008 0.000000
0.595758 0.505882 0.000000
0.649928 0.507897 0.000000
0.700435 0.507408 0.000000
0.747982 0.505272 0.000000
0.792538 0.501854 0.000000
0.833982 0.497536 0.000000
0.872282 0.492409 0.000000
0.907561 0.486854 0.000000
0.940002 0.481025 0.000000
0.969543 0.474952 0.000000
0.996277 0.468879 0.000000
1.000000 0.462806 0.000000
1.000000 0.456916 0.000000
1.000000 0.451392 0.000000
1.000000 0.446235 0.000000
1.000000 0.441566 0.000000
1.000000 0.437324 0.000000
0.000000 0.524712 0.000000
0.000000 0.525048 0.000000
0.000000 0.525139 0.000000
0.000000 0.525475 0.000000
0.000000 0.525902 0.000000
0.101137 0.526726 0.000000
0.159426 0.527703 0.000000
0.208225 0.529137 0.000000
0.255009 0.530938 0.000000
0.301915 0.533043 0.000000
0.349004 0.535271 0.000000
0.397253 0.537621 0.000000
0.446326 0.539757 0.000000
0.496010 0.541558 0.000000
0.546075 0.542687 0.000000
0.598810 0.544945 0.000000
0.653468 0.547692 0.000000
0.703334 0.547082 0.000000
0.750240 0.544762 0.000000
0.794156 0.541222 0.000000
0.834897 0.536522 0.000000
0.872618 0.531212 0.000000
0.907500 0.525444 0.000000
0.939574 0.519310 0.000000
0.968902 0.512993 0.000000
0.995544 0.506523 0.000000
1.000000 0.500267 0.000000
1.000000 0.493904 0.000000
1.000000 0.487984 0.000000
1.000000 0.482307 0.000000
1.000000 0.476844 0.000000
1.000000 0.471962 0.000000
0.000000 0.575219 0.000000
0.000000 0.575525 0.000000
0.000000 0.575677 0.000000
0.000000 0.575860 0.000000
0.000000 0.576349 0.000000
0.099489 0.577020 0.000000
0.161654 0.577935 0.000000
0.213870 0.578973 0.000000
0.262852 0.580255 0.000000
0.310948 0.581598 0.000000
0.358862 0.582940 0.000000
0.407385 0.584314 0.000000
0.456153 0.585199 0.000000
0.505455 0.585962 0.000000
0.554894 0.586236 0.000000
0.604456 0.586145 0.000000
0.654994 0.586389 0.000000
0.706050 0.586999 0.000000
0.752712 0.584466 0.000000
0.796109 0.580774 0.000000
0.836454 0.575952 0.000000
0.873777 0.570428 0.000000
0.908202 0.564385 0.000000
0.939971 0.558007 0.000000
0.968994 0.551293 0.000000
0.995392 0.544518 0.000000
1.000000 0.537682 0.000000
1.000000 0.530999 0.000000
1.000000 0.524437 0.000000
1.000000 0.518059 0.000000
1.000000 0.511986 0.000000
1.000000 0.506279 0.000000
0.000000 0.621942 0.000000
0.000000 0.622004 0.000000
0.000000 0.622095 0.000000
0.000000 0.622309 0.000000
0.000000 0.622492 0.000000
0.095888 0.623041 0.000000
0.163241 0.623560 0.000000
0.216800 0.624231 0.000000
0.267063 0.624933 0.000000
0.316045 0.625818 0.000000
0.364660 0.626642 0.000000
0.413397 0.627436 0.000000
0.462257 0.628016 0.000000
0.511376 0.628260 0.000000
0.560632 0.627985 0.000000
0.609552 0.627436 0.000000
0.658259 0.626520 0.000000
0.707057 0.625788 0.000000
0.754879 0.624475 0.000000
0.797726 0.620417 0.000000
0.837491 0.615320 0.000000
0.874296 0.609369 0.000000
0.908324 0.602899 0.000000
0.939788 0.596216 0.000000
0.968536 0.589166 0.000000
0.994690 0.582025 0.000000
1.000000 0.574853 0.000000
1.000000 0.567651 0.000000
1.000000 0.560571 0.000000
1.000000 0.553613 0.000000
1.000000 0.546868 0.000000
1.000000 0.540459 0.000000
0.000000 0.665888 0.000000
0.000000 0.666041 0.000000
0.000000 0.671870 0.000000
0.000000 0.671839 0.000000
0.000000 0.671962 0.000000
0.094362 0.672023 0.000000
0.165866 0.672145 0.000000
0.221469 0.672236 0.000000
0.273136 0.672480 0.000000
0.322789 0.672724 0.000000
0.372107 0.673060 0.000000
0.421118 0.673182 0.000000
0.470039 0.673091 0.000000
0.519158 0.672755 0.000000
0.567956 0.671901 0.000000
0.616510 0.670863 0.000000
0.664668 0.669581 0.000000
0.712306 0.667994 0.000000
0.759121 0.666285 0.000000
0.802274 0.662440 0.000000
0.840970 0.656611 0.000000
0.877012 0.649928 0.000000
0.910369 0.642908 0.000000
0.941039 0.635615 0.000000
0.969055 0.627893 0.000000
0.994659 0.619959 0.000000
1.000000 0.612085 0.000000
1.000000 0.604273 0.000000
1.000000 0.596582 0.000000
1.000000 0.588952 0.000000
1.000000 0.581598 0.000000
1.000000 0.574426 0.000000
0.000000 0.709194 0.000000
0.000000 0.709957 0.000000
0.000000 0.710689 0.000000
0.000000 0.711360 0.000000
0.000000 0.711879 0.000000
0.090272 0.712154 0.000000
0.164736 0.712276 0.000000
0.221897 0.712276 0.000000
0.274327 0.712367 0.000000
0.324132 0.712337 0.000000
0.373480 0.712306 0.000000
0.422522 0.712154 0.000000
0.471382 0.711788 0.000000
0.520012 0.711086 0.000000
0.568475 0.710079 0.000000
0.616449 0.708705 0.000000
0.664057 0.707179 0.000000
0.710933 0.705440 0.000000
0.757198 0.703639 0.000000
0.802579 0.701869 0.000000
0.841642 0.696223 0.000000
0.877287 0.689296 0.000000
0.910430 0.681849 0.000000
0.940887 0.674037 0.000000
0.968627 0.665827 0.000000
0.993988 0.657496 0.000000
1.000000 0.649012 0.000000
1.000000 0.640711 0.000000
1.000000 0.632471 0.000000
1.000000 0.624323 0.000000
1.000000 0.616327 0.000000
1.000000 0.608453 0.000000
0.000000 0.748074 0.000000
0.000000 0.748684 0.000000
0.000000 0.749325 0.000000
0.000000 0.749874 0.000000
0.000000 0.750271 0.000000
0.085969 0.750423 0.000000
0.163882 0.750332 0.000000
0.221653 0.750271 0.000000
0.274327 0.750149 0.000000
0.324773 0.749966 0.000000
0.373846 0.749752 0.000000
0.422766 0.749325 0.000000
0.471260 0.748684 0.000000
0.519463 0.747829 0.000000
0.567407 0.746578 0.000000
0.614923 0.745113 0.000000
0.661921 0.743496 0.000000
0.708186 0.741634 0.000000
0.753841 0.739712 0.000000
0.798489 0.737881 0.000000
0.842069 0.736080 0.000000
0.877745 0.729030 0.000000
0.910460 0.721187 0.000000
0.940642 0.712825 0.000000
0.968200 0.704005 0.000000
0.993286 0.695094 0.000000
1.000000 0.686061 0.000000
1.000000 0.677150 0.000000
1.000000 0.668238 0.000000
1.000000 0.659419 0.000000
1.000000 0.650752 0.000000
1.000000 0.642329 0.000000
0.000000 0.784695 0.000000
0.000000 0.785214 0.000000
0.000000 0.785794 0.000000
0.000000 0.786282 0.000000
0.000000 0.786526 0.000000
0.083009 0.786526 0.000000
0.162203 0.786404 0.000000
0.220920 0.786191 0.000000
0.273747 0.785855 0.000000
0.324010 0.785519 0.000000
0.373053 0.785092 0.000000
0.421607 0.784512 0.000000
0.469673 0.783658 0.000000
0.517479 0.782620 0.000000
0.564935 0.781430 0.000000
0.611963 0.779965 0.000000
0.658564 0.778378 0.000000
0.704585 0.776730 0.000000
0.749783 0.775051 0.000000
0.794247 0.773342 0.000000
0.837430 0.771786 0.000000
0.879454 0.770260 0.000000
0.912169 0.762142 0.000000
0.941985 0.753262 0.000000
0.969207 0.743893 0.000000
0.993988 0.734310 0.000000
1.000000 0.724544 0.000000
1.000000 0.714870 0.000000
1.000000 0.705226 0.000000
1.000000 0.695705 0.000000
1.000000 0.686244 0.000000
1.000000 0.677394 0.000000
0.000000 0.821347 0.000000
0.000000 0.821561 0.000000
0.000000 0.821714 0.000000
0.000000 0.821836 0.000000
0.000000 0.821836 0.000000
0.082460 0.821622 0.000000
0.162203 0.821439 0.000000
0.221103 0.821103 0.000000
0.273594 0.820829 0.000000
0.323705 0.820401 0.000000
0.372656 0.820005 0.000000
0.420966 0.819303 0.000000
0.468696 0.818418 0.000000
0.515801 0.817258 0.000000
0.562646 0.815915 0.000000
0.609247 0.814359 0.000000
0.655085 0.812650 0.000000
0.700435 0.810849 0.000000
0.744930 0.809018 0.000000
0.788479 0.807156 0.000000
0.830991 0.805325 0.000000
0.872129 0.803525 0.000000
0.911864 0.801877 0.000000
0.941497 0.792599 0.000000
0.968383 0.782559 0.000000
0.992889 0.772305 0.000000
1.000000 0.761868 0.000000
1.000000 0.751461 0.000000
1.000000 0.741115 0.000000
1.000000 0.730800 0.000000
1.000000 0.720912 0.000000
1.000000 0.711879 0.000000
0.000000 0.853971 0.000000
0.000000 0.854154 0.000000
0.000000 0.854337 0.000000
0.000000 0.854398 0.000000
0.000000 0.854337 0.000000
0.082124 0.854124 0.000000
0.162417 0.853819 0.000000
0.220493 0.853391 0.000000
0.273136 0.852995 0.000000
0.322637 0.852445 0.000000
0.371160 0.851865 0.000000
0.418677 0.851102 0.000000
0.465644 0.850156 0.000000
0.512444 0.848905 0.000000
0.558618 0.847623 0.000000
0.604486 0.846067 0.000000
0.649714 0.844358 0.000000
0.694453 0.842557 0.000000
0.738369 0.840757 0.000000
0.781338 0.838865 0.000000
0.823270 0.837003 0.000000
0.863920 0.835233 0.000000
0.903166 0.833585 0.000000
0.940826 0.831998 0.000000
0.967041 0.820981 0.000000
0.991363 0.810025 0.000000
1.000000 0.798947 0.000000
1.000000 0.787808 0.000000
1.000000 0.776761 0.000000
1.000000 0.765927 0.000000
1.000000 0.755703 0.000000
1.000000 0.746426 0.000000
0.000000 0.886351 0.000000
0.000000 0.886564 0.000000
0.000000 0.886625 0.000000
0.000000 0.886564 0.000000
0.000000 0.886351 0.000000
0.089509 0.886046 0.000000
0.164767 0.885588 0.000000
0.221683 0.885008 0.000000
0.273442 0.884306 0.000000
0.322271 0.883574 0.000000
0.369970 0.882658 0.000000
0.416693 0.881712 0.000000
0.463020 0.880552 0.000000
0.508721 0.879179 0.000000
0.554192 0.877592 0.000000
0.598993 0.875822 0.000000
0.643427 0.873930 0.000000
0.687221 0.872007 0.000000
0.730373 0.870054 0.000000
0.772793 0.868193 0.000000
0.814023 0.866361 0.000000
0.854063 0.864561 0.000000
0.892760 0.862730 0.000000
0.929870 0.860929 0.000000
0.965301 0.859281 0.000000
0.990173 0.848478 0.000000
1.000000 0.836606 0.000000
1.000000 0.824735 0.000000
1.000000 0.812955 0.000000
1.000000 0.801450 0.000000
1.000000 0.790738 0.000000
1.000000 0.781125 0.000000
0.000000 0.915038 0.000000
0.000000 0.915190 0.000000
0.000000 0.915312 0.000000
0.000000 0.915190 0.000000
0.000000 0.914977 0.000000
0.097627 0.914641 0.000000
0.168215 0.914183 0.000000
0.223697 0.913603 0.000000
0.274083 0.912932 0.000000
0.322210 0.912200 0.000000
0.368597 0.911376 0.000000
0.414893 0.910369 0.000000
0.460243 0.909270 0.000000
0.505303 0.907927 0.000000
0.549767 0.906401 0.000000
0.593988 0.904692 0.000000
0.637690 0.902831 0.000000
0.680720 0.900877 0.000000
0.723140 0.898924 0.000000
0.764736 0.897002 0.000000
0.805356 0.895048 0.000000
0.844724 0.893126 0.000000
0.882841 0.891234 0.000000
0.919402 0.889372 0.000000
0.954467 0.887572 0.000000
0.987823 0.885924 0.000000
1.000000 0.874815 0.000000
1.000000 0.862058 0.000000
1.000000 0.849638 0.000000
1.000000 0.837491 0.000000
1.000000 0.826108 0.000000
1.000000 0.816068 0.000000
0.000000 0.942382 0.000000
0.000000 0.942443 0.000000
0.000000 0.942443 0.000000
0.000000 0.942290 0.000000
0.000000 0.942016 0.000000
0.110780 0.941588 0.000000
0.174716 0.941100 0.000000
0.227146 0.940490 0.000000
0.276127 0.939757 0.000000
0.322606 0.938994 0.000000
0.368078 0.938140 0.000000
0.413092 0.937133 0.000000
0.457710 0.936004 0.000000
0.501915 0.934691 0.000000
0.545403 0.933135 0.000000
0.588739 0.931426 0.000000
0.631525 0.929534 0.000000
0.673671 0.927581 0.000000
0.715267 0.925566 0.000000
0.755978 0.923583 0.000000
0.795834 0.921569 0.000000
0.834592 0.919554 0.000000
0.872007 0.917571 0.000000
0.908049 0.915648 0.000000
0.942626 0.913725 0.000000
0.975616 0.911894 0.000000
1.000000 0.910246 0.000000
1.000000 0.899474 0.000000
1.000000 0.885710 0.000000
1.000000 0.872892 0.000000
1.000000 0.860899 0.000000
1.000000 0.850278 0.000000
0.000000 0.967437 0.000000
0.000000 0.967468 0.000000
0.000000 0.967437 0.000000
0.000000 0.967315 0.000000
0.011109 0.967071 0.000000
0.127321 0.966766 0.000000
0.184298 0.966430 0.000000
0.233860 0.966064 0.000000
0.280766 0.965576 0.000000
0.325963 0.965057 0.000000
0.370336 0.964355 0.000000
0.414038 0.963592 0.000000
0.457588 0.962585 0.000000
0.500816 0.961334 0.000000
0.543481 0.959869 0.000000
0.585687 0.958190 0.000000
0.627497 0.956329 0.000000
0.668696 0.954345 0.000000
0.709407 0.952270 0.000000
0.749203 0.950225 0.000000
0.788113 0.948089 0.000000
0.826078 0.945953 0.000000
0.862699 0.943816 0.000000
0.898070 0.941741 0.000000
0.932006 0.939635 0.000000
0.964599 0.937652 0.000000
0.995605 0.935760 0.000000
1.000000 0.934081 0.000000
1.000000 0.923766 0.000000
1.000000 0.908995 0.000000
1.000000 0.896117 0.000000
1.000000 0.884794 0.000000
0.000000 0.992065 0.000000
0.000000 0.992065 0.000000
0.000000 0.991974 0.000000
0.000000 0.991791 0.000000
0.093690 0.991485 0.000000
0.151461 0.991089 0.000000
0.199405 0.990631 0.000000
0.244480 0.990082 0.000000
0.288090 0.989410 0.000000
0.330938 0.988678 0.000000
0.373327 0.987793 0.000000
0.415412 0.986786 0.000000
0.457374 0.985565 0.000000
0.499001 0.984222 0.000000
0.540398 0.982635 0.000000
0.581353 0.980957 0.000000
