其他预设/【232】美食博客调色预设124款/1.3D LUT预设（视频调色-PR-AE-PS-FCPX-达芬奇用）/Food Art #44.cube
# Created by Adobe Lightroom plugin Export LUT (1.17.0)
# www.johnrellis.com/lightroom/exportlut.htm
# Preset: Food Art #44
# Color profile: /Library/Application Support/Adobe/Color/Profiles/Recommended/AdobeRGB1998.icc
LUT_3D_SIZE 5
DOMAIN_MIN 0.000000 0.000000 0.000000
DOMAIN_MAX 0.903226 0.903226 0.903226
0.180789 0.139742 0.113741
0.262486 0.141726 0.128267
0.445319 0.154665 0.146609
0.653193 0.223667 0.200809
0.851438 0.352270 0.318730
0.211398 0.225406 0.133730
0.283299 0.230808 0.139620
0.454536 0.246647 0.158694
0.657282 0.299474 0.217075
0.854887 0.409369 0.339055
0.289067 0.415564 0.181918
0.346899 0.419532 0.189517
0.499458 0.441444 0.219333
0.675807 0.474556 0.273869
0.856199 0.550072 0.396643
0.405768 0.640375 0.292485
0.446082 0.643214 0.300328
0.558679 0.651820 0.327214
0.702846 0.668177 0.375433
0.863249 0.718502 0.497475
0.578820 0.847715 0.503471
0.601190 0.848661 0.510613
0.669093 0.850309 0.531853
0.772946 0.860655 0.579126
0.885008 0.875700 0.643610
0.185611 0.149722 0.174716
0.267643 0.145907 0.181949
0.441962 0.183078 0.213657
0.642939 0.249516 0.269780
0.843046 0.370275 0.371984
0.220249 0.223209 0.187839
0.292241 0.233127 0.198978
0.452491 0.259159 0.227939
0.648554 0.313512 0.281956
0.844907 0.420356 0.387152
0.300450 0.412421 0.240970
0.358160 0.416052 0.251713
0.493935 0.433753 0.274907
0.667872 0.473945 0.326452
0.851255 0.557366 0.440742
0.415564 0.637507 0.341772
0.456641 0.640009 0.352209
0.562799 0.649012 0.375708
0.700923 0.666011 0.418128
0.860594 0.720424 0.529992
0.586603 0.845670 0.533928
0.607813 0.846738 0.540154
0.676356 0.851926 0.563439
0.775723 0.861326 0.603906
0.885435 0.876432 0.662989
0.210330 0.144137 0.319280
0.288396 0.155550 0.328954
0.452094 0.190280 0.356054
0.646448 0.263798 0.408789
0.839658 0.397681 0.496376
0.251987 0.231785 0.323583
0.311711 0.240909 0.334722
0.463996 0.269871 0.367803
0.650111 0.330846 0.419837
0.840177 0.448646 0.510643
0.315526 0.405737 0.371069
0.368017 0.412665 0.379034
0.512688 0.451148 0.420813
0.668177 0.488594 0.460090
0.845304 0.573846 0.549279
0.424353 0.634272 0.459724
0.464515 0.634913 0.466163
0.573754 0.645533 0.494484
0.700160 0.665827 0.527825
0.856962 0.723629 0.608606
0.588281 0.842527 0.603326
0.612085 0.843809 0.610895
0.679072 0.848936 0.629877
0.775174 0.858762 0.661067
0.883116 0.874601 0.708156
0.254429 0.164096 0.511131
0.316381 0.173098 0.521080
0.474037 0.210452 0.557153
0.651362 0.279423 0.588586
0.840696 0.414649 0.651026
0.280797 0.245975 0.512261
0.334630 0.253483 0.522393
0.481849 0.286320 0.558007
0.654047 0.343023 0.591974
0.839689 0.459815 0.655909
0.327184 0.398596 0.522423
0.370397 0.403204 0.526024
0.503502 0.440284 0.566186
0.668147 0.495155 0.610529
0.843839 0.574823 0.674159
0.424445 0.616297 0.597803
0.460548 0.619104 0.601038
0.564172 0.634363 0.617182
0.708827 0.678279 0.663600
0.856809 0.722530 0.709895
0.592798 0.841489 0.711666
0.613703 0.842557 0.714870
0.677150 0.848081 0.725521
0.771969 0.858732 0.744717
0.882322 0.875029 0.777920
0.291051 0.194644 0.761532
0.348363 0.204623 0.766415
0.496101 0.247837 0.783810
0.679225 0.345068 0.812314
0.843778 0.447547 0.825284
0.303899 0.267582 0.759487
0.358343 0.276219 0.764492
0.502098 0.313359 0.782254
0.682307 0.398749 0.811124
0.844083 0.488106 0.825956
0.328618 0.418921 0.753811
0.371496 0.421729 0.758175
0.510582 0.452613 0.777096
0.689326 0.525200 0.809110
0.848020 0.591241 0.831479
0.421515 0.623743 0.778866
0.448432 0.622889 0.778103
0.526146 0.617426 0.775937
0.684779 0.654841 0.805539
0.859525 0.730678 0.846403
0.579156 0.835935 0.833463
0.596704 0.836790 0.834226
0.655848 0.840879 0.838163
0.752895 0.850492 0.847501
0.886229 0.881041 0.878538
