其他预设/【232】美食博客调色预设124款/1.3D LUT预设（视频调色-PR-AE-PS-FCPX-达芬奇用）/Food Art #32.cube
# Created by Adobe Lightroom plugin Export LUT (1.17.0)
# www.johnrellis.com/lightroom/exportlut.htm
# Preset: Food Art #32
# Color profile: /Library/Application Support/Adobe/Color/Profiles/Recommended/AdobeRGB1998.icc
LUT_3D_SIZE 5
DOMAIN_MIN 0.000000 0.000000 0.000000
DOMAIN_MAX 0.903226 0.903226 0.903226
0.258152 0.240482 0.213809
0.377020 0.237705 0.221714
0.571405 0.250401 0.225711
0.750301 0.277104 0.249882
0.947570 0.317327 0.284215
0.265446 0.358068 0.216068
0.375982 0.355596 0.219760
0.573907 0.348791 0.231876
0.751461 0.352941 0.254765
0.945129 0.378546 0.286839
0.303593 0.547906 0.239750
0.383612 0.548821 0.241093
0.566766 0.541650 0.244175
0.747921 0.525261 0.266117
0.948394 0.538628 0.298741
0.352087 0.723018 0.274571
0.408576 0.722011 0.275608
0.558373 0.720394 0.279423
0.744625 0.719417 0.286656
0.948730 0.731624 0.315312
0.414771 0.933318 0.323461
0.460853 0.934020 0.324865
0.595026 0.938842 0.332097
0.768765 0.939879 0.339452
0.957855 0.943389 0.352239
0.264225 0.250034 0.326268
0.380774 0.256138 0.321569
0.570581 0.285893 0.326696
0.749905 0.326024 0.346380
0.948943 0.362310 0.372137
0.289982 0.356420 0.319493
0.384222 0.359045 0.322210
0.569665 0.368231 0.331518
0.749874 0.385351 0.347997
0.948730 0.414343 0.373816
0.322118 0.548119 0.325017
0.402930 0.545281 0.332982
0.571435 0.543999 0.334722
0.748226 0.537163 0.352880
0.947906 0.555688 0.379370
0.376745 0.720638 0.347936
0.435004 0.718288 0.355901
0.569970 0.717830 0.358892
0.745205 0.718746 0.364752
0.947997 0.737270 0.389654
0.443183 0.931395 0.394385
0.484810 0.932219 0.395697
0.606378 0.933806 0.398962
0.773129 0.937194 0.405585
0.957122 0.942107 0.415900
0.301518 0.263066 0.512810
0.391974 0.274388 0.509087
0.576898 0.292699 0.502434
0.749660 0.346532 0.495430
0.946868 0.413916 0.529229
0.334997 0.369177 0.502464
0.407599 0.373144 0.501244
0.575158 0.377783 0.499947
0.746914 0.417853 0.502525
0.944549 0.468452 0.536828
0.348852 0.546532 0.500420
0.421515 0.545647 0.499763
0.587427 0.554833 0.509331
0.742428 0.564965 0.519677
0.944915 0.588739 0.542535
0.402014 0.721431 0.495827
0.464088 0.719539 0.503105
0.602594 0.715328 0.521569
0.747433 0.718227 0.523796
0.948760 0.749203 0.544121
0.465461 0.934173 0.531456
0.514336 0.932616 0.538628
0.627863 0.932769 0.543877
0.782650 0.937987 0.547326
0.959899 0.944427 0.552361
0.345159 0.298833 0.691707
0.411902 0.307622 0.689876
0.571862 0.329717 0.686122
0.754116 0.360998 0.682826
0.953246 0.424872 0.706233
0.385290 0.394690 0.686610
0.439185 0.398138 0.686091
0.581750 0.409766 0.683955
0.753658 0.430091 0.682094
0.953460 0.478553 0.710750
0.419959 0.551781 0.684291
0.478462 0.558709 0.682765
0.609064 0.573205 0.680873
0.754604 0.576898 0.682765
0.953979 0.593927 0.712428
0.441535 0.723964 0.681727
0.494392 0.723781 0.681697
0.612665 0.723507 0.681697
0.763119 0.733028 0.692042
0.955535 0.752010 0.711635
0.487465 0.935576 0.711940
0.527276 0.935424 0.713558
0.630091 0.936431 0.713161
0.781857 0.940093 0.713985
0.961151 0.946532 0.721859
0.395880 0.355810 0.936584
0.452064 0.362951 0.936400
0.599939 0.384222 0.935210
0.780636 0.415839 0.934264
0.963531 0.450813 0.934325
0.433356 0.440803 0.935851
0.481392 0.444953 0.935729
0.615198 0.458045 0.934997
0.786374 0.479591 0.935027
0.964050 0.498238 0.935576
0.491585 0.604364 0.934844
0.533684 0.608606 0.934630
0.641138 0.610101 0.935302
0.792630 0.611139 0.937041
0.964477 0.611749 0.937804
0.501305 0.767819 0.937621
0.537987 0.768765 0.938140
0.642329 0.768673 0.938537
0.792203 0.768856 0.938903
0.963684 0.770718 0.939971
0.508232 0.953826 0.943450
0.542290 0.954162 0.943938
0.644648 0.953338 0.943114
0.794369 0.953491 0.943267
0.965728 0.958465 0.948516
