其他预设/【232】美食博客调色预设124款/1.3D LUT预设（视频调色-PR-AE-PS-FCPX-达芬奇用）/Food Art #20.cube
# Created by Adobe Lightroom plugin Export LUT (1.17.0)
# www.johnrellis.com/lightroom/exportlut.htm
# Preset: Food Art #20
# Color profile: /Library/Application Support/Adobe/Color/Profiles/Recommended/AdobeRGB1998.icc
LUT_3D_SIZE 32
0.000000 0.000000 0.185428
0.000000 0.000000 0.185428
0.000000 0.000458 0.186862
0.000000 0.008850 0.191257
0.000000 0.021942 0.196078
0.000000 0.037659 0.199771
0.066865 0.049165 0.202182
0.101259 0.055451 0.203372
0.132601 0.056367 0.204166
0.162722 0.054994 0.205509
0.193912 0.049195 0.207034
0.226780 0.034791 0.209110
0.261784 0.013672 0.212131
0.298924 0.000000 0.216953
0.338231 0.000000 0.222324
0.380041 0.000000 0.227634
0.424262 0.000000 0.232761
0.470436 0.000000 0.237858
0.518639 0.000000 0.242649
0.573754 0.000000 0.247715
0.629114 0.000000 0.252628
0.683772 0.000000 0.257267
0.735988 0.000000 0.261692
0.784176 0.000000 0.266117
0.828550 0.000000 0.270451
0.869200 0.000000 0.275273
0.906310 0.000000 0.280156
0.940154 0.000000 0.285710
0.971130 0.000000 0.291875
0.999603 0.090669 0.298802
1.000000 0.165042 0.306920
1.000000 0.222782 0.316411
0.000000 0.000000 0.185428
0.000000 0.000000 0.185519
0.000000 0.002655 0.187076
0.000000 0.018250 0.191287
0.000000 0.035187 0.196201
0.000000 0.050629 0.199649
0.066224 0.058900 0.202090
0.100893 0.061738 0.203281
0.131746 0.062898 0.204501
0.161868 0.061769 0.205936
0.192966 0.058137 0.207462
0.225742 0.048890 0.209506
0.260533 0.029358 0.212467
0.297459 0.003845 0.217258
0.336706 0.000000 0.222538
0.378271 0.000000 0.227939
0.422248 0.000000 0.232975
0.468421 0.000000 0.237980
0.516442 0.000000 0.242771
0.571130 0.000000 0.247715
0.626032 0.000000 0.252445
0.680354 0.000000 0.257023
0.732601 0.000000 0.261418
0.781033 0.000000 0.265721
0.825650 0.000000 0.270207
0.866667 0.000000 0.274784
0.904173 0.000000 0.279759
0.938323 0.000000 0.285222
0.969574 0.000000 0.291356
0.998291 0.096162 0.298314
1.000000 0.167147 0.306340
1.000000 0.223819 0.315770
0.000000 0.016236 0.187106
0.000000 0.018402 0.187442
0.000000 0.020966 0.187716
0.000000 0.034638 0.191379
0.000000 0.051301 0.196170
0.000000 0.061494 0.199619
0.065827 0.065919 0.201938
0.100282 0.068116 0.203342
0.131014 0.069215 0.204776
0.160891 0.068391 0.206424
0.191897 0.065919 0.207950
0.224735 0.061189 0.209995
0.259464 0.049500 0.213046
0.296361 0.025299 0.217929
0.335454 0.000000 0.223056
0.377203 0.000000 0.228275
0.420996 0.000000 0.233402
0.467079 0.000000 0.238224
0.515190 0.000000 0.243076
0.569757 0.000000 0.247837
0.624475 0.000000 0.252567
0.678614 0.000000 0.256992
0.730831 0.000000 0.261387
0.779385 0.000000 0.265599
0.824125 0.000000 0.270085
0.865293 0.000000 0.274601
0.902953 0.000000 0.279545
0.937316 0.000000 0.285008
0.968750 0.000000 0.291081
0.997559 0.107118 0.298039
1.000000 0.172793 0.305974
1.000000 0.227634 0.315373
0.000000 0.061219 0.191653
0.000000 0.061830 0.191836
0.000000 0.062379 0.192142
0.000000 0.063783 0.192813
0.000000 0.068910 0.196201
0.000000 0.073365 0.199466
0.065522 0.076997 0.201785
0.099428 0.079316 0.203922
0.129763 0.080690 0.205753
0.159854 0.080720 0.207584
0.190677 0.079530 0.209171
0.223392 0.076448 0.211215
0.257908 0.071107 0.214328
0.294865 0.063478 0.219059
0.334020 0.044465 0.224063
0.375616 0.004791 0.229221
0.419348 0.000000 0.234226
0.465400 0.000000 0.239017
0.514092 0.000000 0.243717
0.567681 0.000000 0.248417
0.621698 0.000000 0.252811
0.675471 0.000000 0.257176
0.727932 0.000000 0.261448
0.776974 0.000000 0.265599
0.822446 0.000000 0.269932
0.864225 0.000000 0.274510
0.902373 0.000000 0.279393
0.936950 0.000000 0.284947
0.968444 0.024537 0.290990
0.997253 0.130495 0.297887
1.000000 0.187137 0.305791
1.000000 0.237980 0.315099
0.000000 0.082704 0.196292
0.000000 0.082948 0.196353
0.000000 0.083314 0.196536
0.000000 0.083558 0.196872
0.000000 0.084382 0.197391
0.000000 0.087495 0.199832
0.063264 0.091127 0.202762
0.097536 0.093660 0.205173
0.127810 0.095460 0.207279
0.157687 0.096498 0.209171
0.188602 0.096223 0.210941
0.221195 0.094820 0.213230
0.255741 0.091829 0.216281
0.292576 0.087343 0.220859
0.331975 0.080751 0.225711
0.373693 0.070283 0.230594
0.417792 0.047578 0.235508
0.463905 0.000000 0.240055
0.513817 0.000000 0.244694
0.566918 0.000000 0.249180
0.620417 0.000000 0.253483
0.673854 0.000000 0.257633
0.726223 0.000000 0.261601
0.775357 0.000000 0.265812
0.820981 0.000000 0.269993
0.863005 0.000000 0.274449
0.901274 0.000000 0.279362
0.936004 0.000000 0.284703
0.967559 0.103883 0.290715
0.996429 0.159274 0.297581
1.000000 0.207126 0.305364
1.000000 0.253361 0.314611
0.000000 0.102541 0.200320
0.000000 0.102663 0.200412
0.000000 0.102724 0.200473
0.000000 0.102998 0.200931
0.000000 0.103273 0.201663
0.000000 0.104250 0.202518
0.060700 0.106722 0.204623
0.095094 0.109865 0.207279
0.125582 0.112367 0.209628
0.155703 0.113924 0.211582
0.186587 0.114717 0.213474
0.219120 0.114412 0.215824
0.253758 0.113313 0.218784
0.290837 0.111299 0.223178
0.330358 0.107973 0.227726
0.372320 0.102419 0.232517
0.416510 0.094270 0.237156
0.462837 0.082612 0.241672
0.513909 0.064729 0.246220
0.566796 0.017578 0.250340
0.620294 0.000000 0.254429
0.673945 0.000000 0.258488
0.746517 0.000000 0.264317
0.794003 0.000000 0.268437
0.837522 0.000000 0.272648
0.877165 0.000000 0.277104
0.913115 0.085420 0.281956
0.945708 0.128878 0.287297
0.975525 0.168429 0.293370
1.000000 0.207279 0.300237
1.000000 0.246128 0.308141
1.000000 0.286198 0.317449
0.000000 0.124117 0.204990
0.000000 0.124056 0.205081
0.000000 0.124269 0.205234
0.000000 0.124483 0.205783
0.000000 0.124819 0.206363
0.000000 0.125277 0.207431
0.060548 0.126192 0.208499
0.093996 0.127993 0.210361
0.125063 0.131167 0.212711
0.155428 0.133761 0.214755
0.186801 0.135409 0.216770
0.219913 0.136416 0.218997
0.254978 0.136599 0.222019
0.292454 0.136416 0.226261
0.332097 0.135134 0.230747
0.374121 0.132540 0.235142
0.418402 0.128817 0.239536
0.466743 0.123659 0.243870
0.518608 0.116945 0.248173
0.572290 0.108980 0.252201
0.627283 0.099763 0.256168
0.682887 0.091524 0.260105
0.736995 0.087861 0.263951
0.787228 0.091371 0.268040
0.832975 0.104097 0.272282
0.873991 0.123018 0.276677
0.910704 0.147646 0.281498
0.943694 0.175357 0.286717
0.973785 0.205264 0.292668
1.000000 0.237369 0.299474
1.000000 0.271153 0.307286
1.000000 0.307225 0.316564
0.000000 0.145632 0.210056
0.000000 0.145724 0.210117
0.000000 0.145907 0.210269
0.000000 0.146059 0.210605
0.000000 0.146487 0.211154
0.000000 0.146822 0.211978
0.059785 0.147341 0.213138
0.092470 0.147982 0.214328
0.121553 0.149874 0.216129
0.152407 0.153262 0.218082
0.183749 0.156008 0.220188
0.217044 0.158206 0.222293
0.252384 0.159762 0.225223
0.290013 0.161196 0.229099
0.329870 0.161868 0.233371
0.371832 0.161715 0.237522
0.417060 0.160891 0.241642
0.466133 0.159670 0.245792
0.517205 0.157443 0.249638
0.570397 0.154879 0.253513
0.624872 0.152377 0.257176
0.680140 0.150851 0.260716
0.734035 0.152102 0.264378
0.784237 0.156771 0.268132
0.830106 0.165591 0.272068
0.871397 0.178927 0.276310
0.908324 0.196231 0.280949
0.941619 0.217502 0.286046
0.971954 0.242100 0.291966
0.999634 0.269169 0.298650
1.000000 0.299199 0.306432
1.000000 0.331609 0.315679
0.000000 0.168917 0.215061
0.000000 0.169009 0.215122
0.000000 0.168978 0.215488
0.000000 0.169253 0.215793
0.000000 0.169558 0.216342
0.000000 0.169955 0.217014
0.057862 0.170596 0.217929
0.092195 0.171206 0.218997
0.120790 0.172091 0.220218
0.149203 0.173983 0.221866
0.181064 0.177737 0.223667
0.214511 0.181094 0.225834
0.250126 0.184115 0.228489
0.287968 0.186984 0.232303
0.327855 0.189364 0.236240
0.370642 0.191379 0.240177
0.417243 0.193088 0.244114
0.465827 0.194400 0.247776
0.516381 0.194949 0.251408
0.569268 0.195529 0.254795
0.623468 0.196536 0.258061
0.678553 0.198062 0.261295
0.732204 0.201480 0.264683
0.782254 0.206973 0.268193
0.828122 0.215457 0.271946
0.869474 0.226383 0.276005
0.906584 0.240940 0.280400
0.939971 0.258701 0.285405
0.970367 0.279362 0.291142
0.998199 0.302922 0.297765
1.000000 0.329229 0.305516
1.000000 0.358434 0.314733
0.000000 0.194003 0.219944
0.000000 0.194095 0.220127
0.000000 0.194217 0.220157
0.000000 0.194400 0.220462
0.000000 0.194766 0.220981
0.000000 0.195163 0.221653
0.051301 0.195804 0.222446
0.090944 0.196628 0.223331
0.120851 0.197513 0.224430
0.148928 0.198459 0.225711
0.177768 0.200290 0.227268
0.211643 0.204837 0.229221
0.247410 0.209171 0.231907
0.285527 0.213504 0.235325
0.326909 0.217929 0.239078
0.371221 0.222141 0.242893
0.417762 0.225803 0.246372
0.466255 0.228763 0.249821
0.516838 0.231540 0.253117
0.569390 0.234348 0.256138
0.623163 0.237247 0.259129
0.677272 0.241032 0.262028
0.730190 0.245609 0.264866
0.779538 0.251743 0.268101
0.825193 0.259525 0.271519
0.866636 0.269718 0.275334
0.904051 0.282475 0.279576
0.937835 0.298131 0.284489
0.968597 0.316533 0.290196
0.996735 0.337530 0.296788
1.000000 0.361303 0.304662
1.000000 0.387854 0.313848
0.000000 0.221164 0.224765
0.000000 0.221317 0.224826
0.000000 0.221439 0.224887
0.000000 0.221683 0.225162
0.000000 0.222171 0.225650
0.000000 0.222782 0.226169
0.039887 0.223575 0.226932
0.088899 0.224613 0.227756
0.120516 0.225681 0.228702
0.149722 0.226902 0.229831
0.178561 0.228061 0.231113
0.208865 0.229862 0.232547
0.245335 0.235782 0.235080
0.284886 0.242100 0.238560
0.326696 0.248081 0.241886
0.370642 0.253452 0.245335
0.416907 0.258305 0.248569
0.465126 0.262882 0.251621
0.515587 0.267216 0.254551
0.568109 0.271580 0.257176
0.621607 0.276402 0.259892
0.675746 0.281529 0.262364
0.728573 0.287694 0.265019
0.777981 0.294530 0.267857
0.823545 0.302525 0.271092
0.864958 0.311986 0.274693
0.902342 0.323583 0.278843
0.936126 0.337499 0.283574
0.966918 0.353765 0.289128
0.995087 0.372503 0.295689
1.000000 0.393896 0.303410
1.000000 0.417975 0.312779
0.000000 0.251682 0.229496
0.000000 0.251835 0.229648
0.000000 0.251926 0.229770
0.000000 0.252201 0.229953
0.000000 0.252781 0.230320
0.000000 0.253544 0.230808
0.021698 0.254612 0.231479
0.086030 0.255650 0.232364
0.119875 0.256992 0.233249
0.150576 0.258518 0.234257
0.180911 0.260014 0.235355
0.212345 0.262455 0.236820
0.252140 0.271580 0.239414
0.293370 0.279454 0.242649
0.336706 0.286717 0.245823
0.382116 0.293400 0.248814
0.429541 0.299718 0.251713
0.478706 0.305425 0.254276
0.529473 0.311101 0.256718
0.581689 0.316716 0.259037
0.634668 0.322454 0.261326
0.687587 0.328710 0.263584
0.738460 0.335210 0.265843
0.786099 0.342077 0.268528
0.830076 0.349828 0.271519
0.870176 0.358740 0.275029
0.906340 0.369329 0.279026
0.939147 0.381750 0.283665
0.969055 0.396094 0.289281
0.996551 0.412604 0.295872
1.000000 0.431525 0.303685
1.000000 0.453101 0.313115
0.000000 0.287938 0.234958
0.000000 0.288121 0.235111
0.000000 0.288182 0.235233
0.000000 0.288334 0.235416
0.000000 0.288731 0.235691
0.000000 0.289311 0.236149
0.002045 0.290166 0.236820
0.082338 0.291295 0.237552
0.119661 0.292882 0.238407
0.153201 0.295872 0.239536
0.186252 0.299107 0.240909
0.219974 0.302464 0.242191
0.254459 0.305852 0.243656
0.290166 0.308934 0.244907
0.334081 0.317723 0.247807
0.379706 0.325719 0.250523
0.427131 0.333165 0.253117
0.476112 0.339910 0.255283
0.526848 0.346654 0.257511
0.578820 0.353338 0.259434
0.631617 0.360204 0.261448
0.684504 0.367437 0.263218
0.735225 0.374609 0.265263
0.782895 0.381872 0.267582
0.826963 0.389593 0.270329
0.867185 0.398138 0.273655
0.903563 0.408087 0.277440
0.936553 0.419409 0.282078
0.966674 0.432380 0.287602
0.994385 0.447486 0.294224
1.000000 0.464668 0.302037
1.000000 0.484321 0.311650
0.000000 0.324559 0.240482
0.000000 0.324651 0.240452
0.000000 0.324681 0.240574
0.000000 0.324926 0.240726
0.000000 0.325322 0.240970
0.000000 0.326177 0.241489
0.000000 0.327764 0.242008
0.077241 0.329717 0.242741
0.118990 0.331914 0.243534
0.154665 0.334661 0.244419
0.189059 0.337774 0.245457
0.223728 0.341100 0.246464
0.259098 0.344396 0.247654
0.295262 0.347417 0.248661
0.332128 0.349981 0.249760
0.377142 0.358160 0.251957
0.424353 0.366461 0.254124
0.473213 0.374243 0.256138
0.523949 0.382055 0.257939
0.576013 0.389776 0.259525
0.628809 0.397650 0.261173
0.681727 0.405829 0.262669
0.732601 0.413672 0.264378
0.780362 0.421332 0.266453
0.824521 0.429206 0.269017
0.864866 0.437476 0.272190
0.901366 0.446845 0.275853
0.934478 0.457374 0.280400
0.964721 0.469368 0.285924
0.992554 0.483040 0.292546
1.000000 0.498726 0.300572
1.000000 0.516625 0.310277
0.000000 0.366094 0.245304
0.000000 0.366278 0.245426
0.000000 0.366430 0.245457
0.000000 0.366857 0.245579
0.000000 0.367315 0.245975
0.000000 0.368109 0.246189
0.000000 0.369238 0.246616
0.070588 0.370764 0.247105
0.117006 0.372869 0.247837
0.155459 0.375525 0.248569
0.191623 0.378393 0.249271
0.227481 0.381750 0.250156
0.263706 0.385016 0.251041
0.300877 0.388159 0.251835
0.338415 0.390692 0.252598
0.376379 0.392615 0.253239
0.422004 0.400183 0.254978
0.470741 0.408789 0.256535
0.521508 0.417609 0.258000
0.573541 0.426246 0.259312
0.626215 0.434913 0.260502
0.679133 0.443793 0.261692
0.729976 0.452186 0.263096
0.777768 0.460182 0.265019
0.822049 0.468086 0.267399
0.862669 0.476448 0.270359
0.899535 0.485481 0.274022
0.932982 0.495705 0.278721
0.963531 0.507073 0.284337
0.991608 0.519951 0.291173
1.000000 0.534508 0.299474
1.000000 0.551019 0.309697
0.000000 0.410376 0.249393
0.000000 0.410620 0.249516
0.000000 0.410864 0.249607
0.000000 0.411200 0.249699
0.000000 0.411749 0.249912
0.000000 0.412634 0.250156
0.000000 0.413916 0.250523
0.060060 0.415625 0.250919
0.115541 0.417517 0.251438
0.156710 0.419959 0.251926
0.194766 0.422492 0.252506
0.231907 0.425238 0.253117
0.268803 0.427924 0.253758
0.306401 0.430518 0.254368
0.344366 0.432593 0.254765
0.382818 0.434455 0.255161
0.421607 0.435889 0.255558
0.468086 0.443183 0.256626
0.519280 0.453101 0.257694
0.571771 0.462867 0.258732
0.624933 0.472602 0.259556
0.678065 0.482338 0.260533
0.729122 0.491402 0.261662
0.776944 0.499825 0.263249
0.821286 0.507897 0.265568
0.861906 0.516075 0.268498
0.898741 0.524712 0.272282
0.932158 0.534325 0.276921
0.962646 0.544823 0.282719
0.990570 0.556420 0.289647
1.000000 0.569390 0.298222
1.000000 0.584192 0.308568
0.000000 0.455360 0.252567
0.000000 0.455543 0.252506
0.000000 0.455634 0.252689
0.000000 0.455970 0.252720
0.000000 0.456458 0.252903
0.000000 0.457252 0.253117
0.000000 0.458381 0.253391
0.032074 0.459876 0.253696
0.111788 0.461707 0.253971
0.156741 0.463935 0.254337
0.196994 0.466407 0.254826
0.235355 0.469093 0.255283
0.273686 0.471839 0.255650
0.312200 0.474281 0.256016
0.350958 0.476417 0.256291
0.389929 0.478096 0.256474
0.429358 0.479469 0.256626
0.469398 0.480873 0.256626
0.516991 0.488289 0.256992
0.569390 0.498817 0.257694
0.622492 0.509178 0.258274
0.675685 0.519493 0.258762
0.726711 0.528985 0.259770
0.774685 0.537713 0.261204
0.819120 0.545861 0.263310
0.859861 0.553948 0.266239
0.896880 0.562371 0.269963
0.930419 0.571466 0.274662
0.961028 0.581140 0.280583
0.989075 0.591882 0.287846
1.000000 0.603723 0.296605
1.000000 0.617121 0.307530
0.000000 0.502403 0.254704
0.000000 0.502770 0.254765
0.000000 0.513329 0.255222
0.000000 0.513603 0.255222
0.000000 0.513970 0.255406
0.000000 0.514458 0.255467
0.000000 0.515160 0.255680
0.005921 0.516167 0.255833
0.112551 0.517571 0.256016
0.161654 0.519341 0.256260
0.204410 0.521386 0.256535
0.245029 0.523522 0.256718
0.284794 0.525505 0.256901
0.324651 0.527398 0.256962
0.364477 0.529046 0.257053
0.404456 0.530419 0.256901
0.444800 0.531395 0.256901
0.485145 0.532280 0.256687
0.525811 0.533135 0.256321
0.573205 0.539452 0.256382
0.625910 0.549889 0.256687
0.678523 0.560357 0.256901
0.729000 0.569635 0.257664
0.776211 0.577966 0.259007
0.819730 0.585473 0.261082
0.859648 0.592828 0.263920
0.895933 0.600244 0.267674
0.929076 0.608240 0.272435
0.959442 0.616938 0.278416
0.987488 0.626551 0.285863
1.000000 0.637232 0.295018
1.000000 0.649226 0.306249
0.000000 0.554101 0.255772
0.000000 0.555627 0.255802
0.000000 0.557244 0.255924
0.000000 0.558770 0.256046
0.000000 0.560113 0.256077
0.000000 0.561089 0.256260
0.000000 0.562036 0.256291
0.000000 0.562951 0.256474
0.108095 0.564324 0.256596
0.161471 0.565789 0.256687
0.206577 0.567681 0.256748
0.248783 0.569635 0.256870
0.289921 0.571466 0.256901
0.330663 0.573144 0.256779
0.371221 0.574548 0.256657
0.411933 0.575738 0.256443
0.452827 0.576654 0.256199
0.493690 0.577478 0.255833
0.534936 0.578393 0.255436
0.576379 0.579522 0.254826
0.623377 0.585351 0.254459
0.676295 0.596429 0.254551
0.726894 0.606104 0.254978
0.774258 0.614618 0.256229
0.817929 0.622217 0.258335
0.858000 0.629389 0.261143
0.894408 0.636500 0.264897
0.927550 0.643946 0.269932
0.957977 0.651942 0.276188
0.985992 0.660609 0.283970
1.000000 0.670100 0.293462
1.000000 0.680781 0.305211
0.000000 0.602380 0.255863
0.000000 0.603815 0.255985
0.000000 0.605280 0.255985
0.000000 0.606744 0.256016
0.000000 0.608057 0.256077
0.000000 0.608972 0.256168
0.000000 0.609735 0.256199
0.000000 0.610651 0.256260
0.104585 0.611902 0.256260
0.162112 0.613336 0.256260
0.209659 0.615015 0.256291
0.253635 0.616754 0.256260
0.295903 0.618372 0.256107
0.337743 0.619898 0.255985
0.379217 0.621180 0.255711
0.420691 0.622156 0.255436
0.462074 0.623072 0.254948
0.503563 0.623835 0.254490
0.545220 0.624659 0.253849
0.586999 0.625696 0.253117
0.628687 0.626856 0.252293
0.674678 0.632288 0.251682
0.725307 0.642176 0.252201
0.772702 0.650721 0.253330
0.816403 0.658198 0.255283
0.856382 0.665095 0.258244
0.892729 0.671717 0.262150
0.925872 0.678553 0.267308
0.956268 0.685695 0.273869
0.984314 0.693416 0.281895
1.000000 0.701808 0.291814
1.000000 0.711147 0.304021
0.000000 0.651209 0.255161
0.000000 0.652552 0.255253
0.000000 0.653956 0.255161
0.000000 0.655329 0.255253
0.000000 0.656458 0.255314
0.000000 0.657282 0.255314
0.000000 0.658045 0.255283
0.000000 0.658778 0.255314
0.102876 0.659754 0.255253
0.164492 0.661006 0.255314
0.213809 0.662440 0.255070
0.259220 0.663905 0.254948
0.302708 0.665339 0.254826
0.345434 0.666651 0.254490
0.387854 0.667872 0.254185
0.430213 0.668971 0.253758
0.472633 0.670069 0.253269
0.515129 0.671229 0.252628
0.557794 0.672450 0.251957
0.600305 0.673793 0.251255
0.642695 0.675288 0.250462
0.684565 0.676967 0.249546
0.728420 0.681086 0.249149
0.775814 0.689662 0.250492
0.819425 0.696956 0.252781
0.859098 0.703517 0.255924
0.895048 0.709621 0.260410
0.927794 0.715694 0.266087
0.957855 0.721950 0.273198
0.985504 0.728573 0.281895
1.000000 0.735683 0.292576
1.000000 0.743587 0.305699
0.000000 0.704524 0.254093
0.000000 0.705165 0.254093
0.000000 0.705715 0.254124
0.000000 0.706355 0.254063
0.000000 0.706905 0.254063
0.000000 0.707332 0.254124
0.000000 0.707851 0.254093
0.000000 0.708553 0.254002
0.107301 0.709529 0.253971
0.170993 0.710658 0.253941
0.221927 0.712001 0.253788
0.268681 0.713283 0.253605
0.313146 0.714351 0.253361
0.356603 0.715297 0.253086
0.399512 0.716030 0.252750
0.442298 0.716640 0.252262
0.484871 0.717220 0.251804
0.527428 0.717800 0.251164
0.569818 0.718441 0.250553
0.612024 0.719051 0.249790
0.653620 0.719753 0.249027
0.694545 0.720546 0.248203
0.734524 0.721401 0.247410
0.774838 0.723812 0.247288
0.818173 0.730617 0.249577
0.857786 0.736690 0.253056
0.893675 0.742367 0.257725
0.926452 0.747799 0.263737
0.956481 0.753262 0.271214
0.984131 0.758907 0.280430
1.000000 0.764950 0.291661
1.000000 0.771664 0.305333
0.000000 0.750423 0.253025
0.000000 0.751003 0.253056
0.000000 0.751583 0.253025
0.000000 0.752071 0.253056
0.000000 0.752468 0.253178
0.000000 0.752773 0.253056
0.000000 0.753079 0.253086
0.000000 0.753506 0.252934
0.115358 0.754086 0.252934
0.178561 0.754879 0.252781
0.229984 0.755825 0.252750
0.276951 0.756710 0.252598
0.321721 0.757473 0.252293
0.365637 0.758083 0.252049
0.408881 0.758633 0.251743
0.451820 0.759060 0.251225
0.494636 0.759396 0.250767
0.537255 0.759762 0.250278
0.579614 0.760067 0.249699
0.621576 0.760464 0.249119
0.662989 0.760891 0.248447
0.703639 0.761379 0.247898
0.743191 0.762020 0.247318
0.781430 0.762753 0.246677
0.816190 0.762020 0.246403
0.855680 0.767636 0.249943
0.891630 0.772763 0.254917
0.924437 0.777584 0.261265
0.954528 0.782345 0.269169
0.982238 0.787167 0.278782
1.000000 0.792386 0.290562
1.000000 0.798184 0.304906
0.000000 0.796597 0.253056
0.000000 0.797208 0.253056
0.000000 0.797543 0.253117
0.000000 0.797787 0.253117
0.000000 0.797910 0.253117
0.000000 0.797879 0.252995
0.000000 0.797818 0.253025
0.000000 0.797757 0.252903
0.132815 0.797787 0.252781
0.191989 0.797910 0.252628
0.241947 0.798032 0.252537
0.288151 0.798337 0.252354
0.332708 0.798520 0.252110
0.376104 0.798520 0.251835
0.418891 0.798306 0.251499
0.461250 0.798001 0.251133
0.503441 0.797604 0.250675
0.545403 0.797299 0.250217
0.587274 0.797238 0.249668
0.628870 0.797269 0.249180
0.669917 0.797452 0.248844
0.710048 0.797635 0.248386
0.748836 0.797757 0.248081
0.786160 0.797787 0.247715
0.821592 0.797848 0.247410
0.855406 0.798337 0.247532
0.890990 0.802701 0.252781
0.923522 0.806729 0.259495
0.953429 0.810666 0.267704
0.980987 0.814725 0.277867
1.000000 0.819059 0.290135
1.000000 0.823941 0.305150
0.000000 0.835233 0.253788
0.000000 0.835721 0.253788
0.000000 0.836027 0.253910
0.000000 0.836210 0.253849
0.000000 0.836240 0.253880
0.000000 0.836210 0.253788
0.000000 0.836118 0.253788
0.074739 0.836057 0.253727
0.153292 0.836057 0.253666
0.208408 0.836118 0.253635
0.256443 0.836240 0.253574
0.302037 0.836301 0.253391
0.345922 0.836362 0.253269
0.388922 0.836210 0.253086
0.431434 0.835904 0.252903
0.473548 0.835416 0.252537
0.515343 0.834806 0.252201
0.556878 0.834287 0.251865
0.598230 0.833768 0.251621
0.639216 0.833433 0.251377
0.679438 0.833127 0.251133
0.718807 0.832853 0.251011
0.756863 0.832547 0.250950
0.793332 0.832303 0.250919
0.828000 0.832059 0.251011
0.860685 0.831968 0.251164
0.891661 0.832120 0.251438
0.923857 0.835508 0.258640
0.953552 0.838834 0.267460
0.981018 0.842161 0.278264
1.000000 0.845731 0.291325
1.000000 0.849729 0.307256
0.000000 0.871397 0.256291
0.000000 0.871702 0.256352
0.000000 0.871824 0.256382
0.000000 0.871794 0.256352
0.000000 0.871672 0.256291
0.000000 0.871458 0.256260
0.000000 0.871214 0.256199
0.119142 0.870970 0.256107
0.179171 0.870787 0.256138
0.228611 0.870695 0.255955
0.274296 0.870573 0.256016
0.318212 0.870512 0.256016
0.360937 0.870359 0.255924
0.403235 0.870024 0.255894
0.444770 0.869474 0.255680
0.486091 0.868742 0.255528
0.527184 0.867857 0.255314
0.567926 0.867033 0.255161
0.608484 0.866209 0.255009
0.648493 0.865507 0.254948
0.687953 0.864866 0.254978
0.726375 0.864286 0.255192
0.763455 0.863676 0.255375
0.799008 0.863127 0.255711
0.832792 0.862669 0.256107
0.864714 0.862272 0.256687
0.894926 0.862150 0.257420
0.923583 0.862211 0.258366
0.952850 0.864744 0.266911
0.980163 0.867491 0.278233
1.000000 0.870359 0.291783
1.000000 0.873564 0.308415
0.000000 0.903380 0.260319
0.000000 0.903502 0.260410
0.000000 0.903624 0.260441
0.000000 0.903593 0.260410
0.000000 0.903532 0.260441
0.000000 0.903532 0.260472
0.103731 0.903624 0.260594
0.163577 0.903807 0.260746
0.212741 0.904021 0.261021
0.257664 0.904295 0.261265
0.300633 0.904570 0.261570
0.342748 0.904692 0.261784
0.384283 0.904692 0.262119
0.425513 0.904417 0.262303
0.466316 0.903838 0.262425
0.506523 0.902983 0.262425
0.546532 0.901976 0.262516
0.586236 0.900877 0.262608
0.625666 0.899809 0.262760
0.664485 0.898802 0.262974
0.702602 0.897795 0.263401
0.739712 0.896849 0.263920
0.775479 0.895933 0.264500
0.809689 0.895079 0.265232
0.842100 0.894316 0.266209
0.872770 0.893736 0.267185
0.901884 0.893339 0.268406
0.929595 0.893126 0.269841
0.956115 0.893156 0.271519
0.982544 0.894804 0.281926
1.000000 0.896818 0.296544
1.000000 0.899077 0.314244
0.000000 0.935546 0.268101
0.000000 0.935637 0.268254
0.000000 0.935576 0.268223
0.000000 0.935454 0.268254
0.071901 0.935271 0.268132
0.126528 0.935027 0.268162
0.170382 0.934783 0.268223
0.210910 0.934569 0.268345
0.250278 0.934356 0.268376
0.289494 0.934112 0.268681
0.328222 0.933806 0.268864
0.367102 0.933471 0.269108
0.406012 0.932952 0.269413
0.445045 0.932280 0.269596
0.483925 0.931395 0.269810
0.522698 0.930419 0.270115
