其他预设/【232】美食博客调色预设124款/1.3D LUT预设（视频调色-PR-AE-PS-FCPX-达芬奇用）/Food Art #15 ().cube
# Created by Adobe Lightroom plugin Export LUT (1.17.0)
# www.johnrellis.com/lightroom/exportlut.htm
# Preset: Food Art #15 (素锦印象)
# Color profile: /Library/Application Support/Adobe/Color/Profiles/Recommended/AdobeRGB1998.icc
LUT_3D_SIZE 5
DOMAIN_MIN 0.000000 0.000000 0.000000
DOMAIN_MAX 0.903226 0.903226 0.903226
0.157504 0.194888 0.212833
0.176028 0.179568 0.199893
0.411261 0.205753 0.206668
0.699245 0.280461 0.279149
0.888273 0.409796 0.411810
0.143771 0.215579 0.197208
0.194247 0.227390 0.194980
0.432166 0.287022 0.203037
0.706538 0.337285 0.277867
0.894377 0.442451 0.415747
0.201541 0.473854 0.223911
0.270726 0.479225 0.223941
0.477699 0.503136 0.239139
0.740169 0.498238 0.286503
0.903105 0.531060 0.415076
0.339391 0.689174 0.349645
0.383703 0.692103 0.351965
0.534600 0.696254 0.359930
0.750607 0.695094 0.385077
0.915435 0.688228 0.451911
0.555291 0.846036 0.488533
0.580407 0.845975 0.489296
0.653620 0.844266 0.489815
0.774929 0.848661 0.506126
0.933227 0.850309 0.537469
0.143587 0.188144 0.218875
0.173831 0.177188 0.229313
0.412879 0.220615 0.280491
0.682918 0.313970 0.352697
0.877684 0.434852 0.455909
0.135561 0.220157 0.226688
0.218235 0.248234 0.248569
0.439796 0.302708 0.284337
0.694057 0.359869 0.352483
0.881865 0.460273 0.456397
0.193271 0.478706 0.277104
0.287663 0.488502 0.300908
0.479408 0.502403 0.312291
0.732204 0.498726 0.354070
0.897368 0.544732 0.458534
0.365301 0.690913 0.408331
0.411109 0.693751 0.412818
0.551385 0.697536 0.416388
0.753597 0.697139 0.433265
0.915373 0.691737 0.482185
0.578119 0.844999 0.515618
0.600641 0.845060 0.516228
0.672969 0.847501 0.521019
0.782986 0.851133 0.534722
0.936370 0.852628 0.565362
0.000000 0.206638 0.406195
0.120974 0.186679 0.413092
0.387884 0.240574 0.446143
0.662257 0.366217 0.503960
0.868528 0.484138 0.550622
0.029633 0.304753 0.432258
0.156100 0.272892 0.440406
0.428168 0.329259 0.469215
0.680903 0.420142 0.505333
0.874662 0.517876 0.553399
0.195438 0.477272 0.433753
0.296910 0.496620 0.453559
0.528344 0.527977 0.493324
0.731685 0.534569 0.508965
0.890715 0.585534 0.553826
0.376867 0.685817 0.487373
0.439643 0.691402 0.499977
0.602106 0.703059 0.524865
0.769619 0.708644 0.533806
0.917845 0.702022 0.562005
0.599084 0.841947 0.567651
0.640803 0.843137 0.584466
0.708888 0.846983 0.599847
0.797360 0.852506 0.608545
0.939117 0.855100 0.633417
0.000000 0.277317 0.587976
0.000000 0.242161 0.590265
0.343420 0.273289 0.591913
0.648951 0.368078 0.606104
0.845762 0.528649 0.671077
0.000000 0.368414 0.593713
0.085847 0.338598 0.595666
0.370153 0.344549 0.596948
0.667079 0.425055 0.612024
0.850065 0.553429 0.670649
0.194766 0.536706 0.598810
0.288792 0.538079 0.603937
0.474189 0.523186 0.616815
0.713954 0.553643 0.630854
0.871702 0.637018 0.674952
0.391363 0.683711 0.592096
0.455451 0.688380 0.599756
0.635279 0.704799 0.630365
0.788205 0.725551 0.665980
0.914183 0.732296 0.683406
0.632044 0.836332 0.644800
0.662409 0.838102 0.654231
0.741939 0.846647 0.683650
0.829191 0.858030 0.707759
0.946502 0.863493 0.722225
0.000000 0.384375 0.752377
0.000000 0.360266 0.752743
0.309789 0.366339 0.751431
0.613672 0.405676 0.745937
0.831083 0.506340 0.751736
0.000000 0.448432 0.750484
0.071168 0.428687 0.751003
0.336126 0.414649 0.750790
0.624292 0.443885 0.745418
0.836118 0.533349 0.752804
0.276921 0.587366 0.748989
0.348425 0.586755 0.749416
0.434302 0.545861 0.751705
0.658656 0.542290 0.749966
0.860319 0.629267 0.761440
0.397681 0.734218 0.749599
0.444495 0.730861 0.750332
0.583673 0.721431 0.755215
0.731594 0.706996 0.765652
0.907378 0.753262 0.781643
0.623041 0.850217 0.741665
0.650599 0.849424 0.744289
0.733150 0.851560 0.756497
0.849790 0.860105 0.780331
0.954070 0.877379 0.813596
