其他预设/【232】美食博客调色预设124款/1.3D LUT预设（视频调色-PR-AE-PS-FCPX-达芬奇用）/Food Art #42.cube
# Created by Adobe Lightroom plugin Export LUT (1.17.0)
# www.johnrellis.com/lightroom/exportlut.htm
# Preset: Food Art #42
# Color profile: /Library/Application Support/Adobe/Color/Profiles/Recommended/AdobeRGB1998.icc
LUT_3D_SIZE 5
DOMAIN_MIN 0.000000 0.000000 0.000000
DOMAIN_MAX 0.903226 0.903226 0.903226
0.092470 0.081270 0.078920
0.285313 0.095674 0.103822
0.514641 0.119692 0.150423
0.742489 0.161501 0.213230
0.961791 0.249485 0.290074
0.171572 0.272801 0.126772
0.324346 0.275547 0.145418
0.529381 0.261265 0.187259
0.751522 0.271061 0.235386
0.963500 0.327733 0.305608
0.312840 0.481758 0.217746
0.406439 0.487343 0.225132
0.590753 0.477790 0.255222
0.781094 0.470588 0.293187
0.967926 0.505455 0.357092
0.466072 0.705745 0.305364
0.528222 0.710109 0.311101
0.704128 0.723659 0.331731
0.845151 0.699184 0.359380
0.973236 0.699275 0.430579
0.672450 0.886839 0.463569
0.706111 0.887022 0.472847
0.803677 0.887877 0.507164
0.908232 0.887022 0.557763
0.979889 0.881010 0.592370
0.012634 0.086793 0.234684
0.294194 0.116091 0.242832
0.520531 0.162295 0.258610
0.747463 0.189059 0.288273
0.962493 0.257786 0.339300
0.189303 0.279118 0.257389
0.326390 0.273350 0.262150
0.533715 0.276097 0.276341
0.755703 0.284031 0.301854
0.964019 0.333684 0.351568
0.312016 0.476295 0.286900
0.406348 0.478584 0.299931
0.591028 0.475929 0.317266
0.782773 0.475410 0.346624
0.967773 0.509850 0.396918
0.445502 0.702388 0.340002
0.526299 0.704005 0.360113
0.699702 0.718685 0.379278
0.845090 0.698421 0.401404
0.972045 0.702663 0.468421
0.680873 0.883787 0.497261
0.713527 0.884092 0.506249
0.808164 0.885679 0.538781
0.911040 0.886839 0.587823
0.979065 0.881010 0.615290
0.000000 0.137697 0.422095
0.280827 0.148562 0.417334
0.532738 0.181186 0.414862
0.757565 0.217411 0.432746
0.964355 0.260624 0.459754
0.247807 0.325566 0.439185
0.319036 0.286168 0.433722
0.547723 0.284977 0.423224
0.766476 0.294682 0.439063
0.966064 0.324224 0.462470
0.349340 0.493874 0.449683
0.422065 0.489052 0.449928
0.588159 0.467597 0.445808
0.792233 0.468818 0.457069
0.968200 0.508019 0.494972
0.458442 0.684565 0.472663
0.512505 0.687709 0.476112
0.676814 0.697749 0.495064
0.843565 0.695186 0.514305
0.968414 0.711421 0.569329
0.666224 0.879606 0.563195
0.702846 0.879118 0.573358
0.809751 0.878843 0.615534
0.915740 0.887175 0.665461
0.976562 0.881407 0.676539
0.000000 0.196323 0.646235
0.270787 0.201236 0.639460
0.553399 0.201724 0.611688
0.775601 0.219638 0.608484
0.963378 0.313024 0.632654
0.246189 0.353613 0.658686
0.310552 0.316472 0.653437
0.569299 0.299535 0.624506
0.783261 0.298650 0.614649
0.963958 0.374243 0.636927
0.416938 0.585779 0.693568
0.487587 0.583062 0.694789
0.607416 0.500755 0.664210
0.803281 0.472389 0.631189
0.965454 0.521080 0.649317
0.514122 0.728481 0.677272
0.563165 0.725032 0.677028
0.691890 0.712459 0.674403
0.833158 0.683467 0.659449
0.966278 0.706630 0.680964
0.664118 0.866850 0.685969
0.696651 0.866911 0.690211
0.786831 0.868986 0.704891
0.900145 0.878111 0.743160
0.971954 0.882017 0.761166
0.000000 0.266453 0.862547
0.249149 0.270237 0.859312
0.548974 0.273045 0.847471
0.784054 0.258274 0.822141
0.955596 0.329442 0.825559
0.214084 0.377356 0.865110
0.305760 0.358984 0.862760
0.564691 0.353094 0.851041
0.787503 0.330602 0.825498
0.955749 0.384649 0.826505
0.532830 0.618555 0.873564
0.577234 0.610437 0.870268
0.631922 0.545159 0.862882
0.804715 0.511528 0.838163
0.956481 0.530877 0.831022
0.682734 0.785580 0.875883
0.716060 0.787320 0.876097
0.804440 0.794125 0.877958
0.860655 0.743130 0.863767
0.957855 0.714839 0.841520
0.763149 0.893584 0.867247
0.780941 0.892576 0.867430
0.834470 0.890074 0.868345
0.901946 0.887083 0.869566
0.960601 0.875608 0.860624
