其他预设/【232】美食博客调色预设124款/1.3D LUT预设（视频调色-PR-AE-PS-FCPX-达芬奇用）/Food Art #30.cube
# Created by Adobe Lightroom plugin Export LUT (1.17.0)
# www.johnrellis.com/lightroom/exportlut.htm
# Preset: Food Art #30
# Color profile: /Library/Application Support/Adobe/Color/Profiles/Recommended/AdobeRGB1998.icc
LUT_3D_SIZE 32
0.068879 0.132387 0.185275
0.080568 0.133761 0.186923
0.094850 0.135927 0.189181
0.121767 0.140871 0.194888
0.152895 0.147860 0.202731
0.182773 0.154971 0.211185
0.212161 0.161746 0.219303
0.240909 0.169192 0.228763
0.269810 0.176791 0.238224
0.299046 0.184298 0.248508
0.329229 0.192172 0.259739
0.360052 0.200595 0.271672
0.391669 0.208988 0.284215
0.424140 0.217868 0.297704
0.457130 0.226841 0.311345
0.490944 0.235203 0.325292
0.525658 0.243412 0.338201
0.560204 0.251377 0.351415
0.593561 0.259190 0.364050
0.630426 0.267643 0.377966
0.666865 0.276188 0.391608
0.701350 0.284916 0.404913
0.733791 0.293797 0.417639
0.764492 0.303319 0.430243
0.793606 0.313237 0.442817
0.821439 0.324041 0.455421
0.848112 0.336156 0.468025
0.873655 0.349584 0.480964
0.898131 0.364660 0.494179
0.921355 0.381903 0.507744
0.943297 0.401465 0.521416
0.963622 0.423651 0.535393
0.068910 0.142641 0.188937
0.080629 0.144259 0.190311
0.095186 0.146365 0.192508
0.122042 0.151705 0.198276
0.152956 0.157961 0.205844
0.182864 0.163851 0.213718
0.212314 0.169650 0.221866
0.240848 0.176211 0.230869
0.269566 0.182864 0.240604
0.298802 0.190127 0.250278
0.328679 0.197360 0.261387
0.359472 0.205203 0.273228
0.390997 0.213565 0.285710
0.423285 0.221988 0.299199
0.456275 0.230442 0.312352
0.489876 0.238773 0.326024
0.524376 0.246769 0.339025
0.558953 0.254490 0.352026
0.592340 0.261967 0.364752
0.629023 0.270268 0.378119
0.665003 0.278630 0.391577
0.699397 0.286992 0.404669
0.731777 0.295750 0.417365
0.762539 0.304875 0.429969
0.791745 0.314672 0.442298
0.819699 0.325383 0.455024
0.846586 0.337133 0.467506
0.872282 0.350500 0.480568
0.896880 0.365545 0.493782
0.920317 0.382544 0.507317
0.942382 0.401892 0.520958
0.962829 0.423987 0.534997
0.068788 0.156252 0.193698
0.080934 0.157809 0.195560
0.095003 0.159579 0.198032
0.122316 0.165072 0.203952
0.153323 0.170352 0.210452
0.183413 0.174929 0.217563
0.212222 0.179873 0.225498
0.240848 0.185245 0.234287
0.269596 0.191104 0.242985
0.298619 0.197330 0.252842
0.328527 0.204379 0.263737
0.359228 0.211612 0.275486
0.390631 0.219303 0.287785
0.422919 0.227634 0.301030
0.455787 0.235752 0.314336
0.489479 0.243442 0.327398
0.523919 0.251377 0.340764
0.558312 0.258793 0.353307
0.591821 0.265995 0.365728
0.628351 0.274174 0.379034
0.664179 0.282109 0.392279
0.698451 0.290227 0.405035
0.730800 0.298833 0.417853
0.761563 0.307744 0.430152
0.790829 0.317296 0.442695
0.818814 0.327794 0.455024
0.845731 0.339452 0.467659
0.871550 0.352544 0.480629
0.896239 0.367407 0.493874
0.919738 0.384283 0.507347
0.941863 0.403479 0.520958
0.962371 0.425299 0.534936
0.069215 0.184390 0.205173
0.082765 0.185580 0.207034
0.097444 0.187198 0.209201
0.123812 0.190890 0.213870
0.154604 0.194491 0.220035
0.184298 0.196963 0.226108
0.213260 0.199863 0.232822
0.241520 0.203372 0.240604
0.269963 0.207553 0.248875
0.299077 0.212650 0.258488
0.328771 0.218540 0.269017
0.359350 0.224979 0.280522
0.390600 0.231907 0.292912
0.422675 0.239384 0.305669
0.455695 0.246433 0.318364
0.489235 0.254032 0.331121
0.523613 0.260960 0.343938
0.557946 0.267948 0.355993
0.591791 0.274907 0.368505
0.627649 0.282322 0.381262
0.662959 0.289769 0.393988
0.696895 0.297520 0.406439
0.729305 0.305577 0.418891
0.760250 0.314275 0.431220
0.789914 0.323430 0.443641
0.818265 0.333654 0.456062
0.845457 0.345006 0.468727
0.871397 0.357977 0.481819
0.896147 0.372534 0.494911
0.919585 0.389044 0.508232
0.941619 0.407843 0.521660
0.962005 0.429114 0.535485
0.069306 0.216892 0.219272
0.082460 0.217807 0.220432
0.097902 0.218906 0.222446
0.123445 0.221408 0.226658
0.154971 0.224979 0.232822
0.185977 0.226383 0.238010
0.214359 0.226780 0.243565
0.242557 0.228122 0.250126
0.270665 0.230686 0.257939
0.299474 0.234104 0.266972
0.329076 0.238560 0.277165
0.359442 0.244053 0.288304
0.390661 0.249912 0.299901
0.422675 0.256321 0.312291
0.455573 0.262608 0.324498
0.489265 0.269078 0.336675
0.523888 0.275395 0.348882
0.558221 0.281651 0.360601
0.592737 0.288090 0.372869
0.628077 0.294896 0.385016
0.662959 0.301579 0.397162
0.696590 0.308812 0.409308
0.728786 0.316228 0.421485
0.759640 0.324346 0.433448
0.789273 0.333074 0.445686
0.817716 0.342809 0.457984
0.844877 0.353704 0.470588
0.870817 0.366064 0.483223
0.895567 0.380102 0.496162
0.919036 0.396094 0.509300
0.941070 0.414343 0.522789
0.961517 0.435279 0.536370
0.070954 0.248661 0.233982
0.083345 0.249363 0.235233
0.097292 0.250187 0.236881
0.122225 0.251957 0.240146
0.152804 0.254551 0.245243
0.185855 0.257847 0.251835
0.216587 0.258366 0.257450
0.244266 0.257450 0.263371
0.272129 0.258000 0.270420
0.300694 0.259861 0.278843
0.330114 0.263218 0.288304
0.360479 0.267277 0.298833
0.391608 0.272038 0.309667
0.423682 0.277104 0.320958
0.456641 0.282506 0.332280
0.490303 0.287999 0.344091
0.524865 0.293584 0.355627
0.559075 0.299107 0.366796
0.594385 0.305028 0.378790
0.629389 0.311009 0.390387
0.663996 0.317174 0.402014
0.697536 0.323552 0.413886
0.742153 0.335210 0.431220
0.772274 0.343023 0.442878
0.800900 0.351354 0.454780
0.828092 0.360632 0.466560
0.854002 0.371069 0.478492
0.878721 0.382879 0.490669
0.902312 0.396460 0.503075
0.924712 0.411963 0.515618
0.945708 0.429755 0.528527
0.965118 0.449989 0.541558
0.073213 0.280980 0.250645
0.085145 0.281376 0.251652
0.098787 0.281956 0.252781
0.122316 0.283330 0.256229
0.151888 0.285222 0.260533
0.183932 0.287541 0.266453
0.217533 0.290379 0.273503
0.248142 0.290837 0.279973
0.276127 0.289525 0.286412
0.304723 0.290166 0.294469
0.334325 0.292058 0.303105
0.364843 0.294865 0.312566
0.395972 0.298344 0.322789
0.428168 0.302281 0.333165
0.460914 0.306401 0.343511
0.494453 0.310948 0.354162
0.528740 0.315587 0.364508
0.564141 0.320500 0.375616
0.599512 0.325841 0.386786
0.634638 0.331212 0.398138
0.669825 0.337041 0.409644
0.704097 0.343267 0.421363
0.737057 0.350042 0.433295
0.768551 0.357549 0.445350
0.798428 0.365637 0.457130
0.826291 0.374456 0.469032
0.852598 0.384436 0.480903
0.877501 0.395544 0.492866
0.901213 0.408362 0.505028
0.923613 0.423133 0.517479
0.944640 0.440040 0.529992
0.964111 0.459602 0.542931
0.079011 0.310246 0.268132
0.089296 0.310521 0.269139
0.101472 0.310948 0.270207
0.123995 0.311955 0.272618
0.151492 0.313390 0.277012
0.181857 0.315221 0.282444
0.214054 0.317418 0.288945
0.246830 0.320073 0.296635
0.278111 0.320867 0.303746
0.306615 0.320134 0.310643
0.336156 0.320836 0.318181
0.366522 0.322576 0.326635
0.397711 0.324926 0.335332
0.429786 0.327947 0.344701
0.462470 0.331304 0.354253
0.495949 0.334752 0.363714
0.530816 0.338872 0.373907
0.566522 0.343359 0.384131
0.600977 0.347570 0.394202
0.635401 0.352270 0.404883
0.670008 0.357214 0.415747
0.703761 0.362737 0.426795
0.736324 0.368719 0.438117
0.767605 0.375341 0.449500
0.797208 0.382696 0.460914
0.825101 0.390875 0.472541
0.851408 0.399939 0.484016
0.876341 0.410346 0.495674
0.900114 0.422431 0.507561
0.922545 0.436286 0.519646
0.943664 0.452583 0.532036
0.963165 0.471321 0.544762
0.087617 0.339086 0.288121
0.096773 0.339300 0.288792
0.107729 0.339696 0.290105
0.127810 0.340337 0.292302
0.153780 0.341588 0.295628
0.182345 0.343053 0.300114
0.212741 0.344854 0.306157
0.244724 0.347082 0.312627
0.277501 0.349493 0.320226
0.309453 0.351202 0.328008
0.338872 0.350958 0.334447
0.369116 0.351568 0.341802
0.400336 0.353185 0.349737
0.432319 0.355230 0.357916
0.464942 0.357794 0.366430
0.498970 0.360815 0.375067
0.534813 0.364599 0.384558
0.569512 0.368109 0.393835
0.603082 0.371527 0.403204
0.637079 0.375311 0.412634
0.671046 0.379522 0.422827
0.704372 0.384283 0.433143
0.736538 0.389502 0.443702
0.767391 0.395483 0.454719
0.796780 0.401984 0.465797
0.824552 0.409308 0.476753
0.850767 0.417639 0.487831
0.875639 0.427253 0.499092
0.899321 0.438422 0.510643
0.921782 0.451667 0.522484
0.942809 0.466987 0.534569
0.962310 0.484901 0.546990
0.099702 0.367895 0.308263
0.107179 0.368048 0.308751
0.116365 0.368322 0.309545
0.134554 0.368872 0.311498
0.158328 0.369818 0.314580
0.185245 0.371099 0.318730
0.214359 0.372595 0.323583
0.245029 0.374426 0.329473
0.276738 0.376623 0.336126
0.309545 0.379126 0.343694
0.342077 0.381018 0.351354
0.372351 0.381048 0.357336
0.403388 0.381903 0.364416
0.435370 0.383337 0.371496
0.469184 0.385779 0.379248
0.504204 0.388861 0.387366
0.539391 0.391821 0.395697
0.573449 0.394415 0.404150
0.606531 0.397131 0.412665
0.639887 0.399969 0.421515
0.673121 0.403510 0.430549
0.705440 0.407324 0.440345
0.736812 0.411749 0.450202
0.766964 0.416754 0.460212
0.795926 0.422431 0.470710
0.823453 0.428992 0.481147
0.849668 0.436652 0.491859
0.874693 0.445624 0.502861
0.898528 0.456123 0.514122
0.921080 0.468666 0.525719
0.942199 0.483406 0.537652
0.961791 0.500603 0.549920
0.111543 0.396368 0.328038
0.118074 0.396612 0.328557
0.126375 0.396887 0.329168
0.142672 0.397345 0.331060
0.164736 0.398138 0.333623
0.190249 0.399298 0.337011
0.218051 0.400824 0.341650
0.247532 0.402472 0.346624
0.278447 0.404334 0.352483
0.310552 0.406531 0.358892
0.343481 0.408911 0.365850
0.376501 0.411078 0.373175
0.407874 0.411627 0.379309
0.440955 0.413184 0.385901
0.474800 0.415290 0.392645
0.509239 0.417578 0.399939
0.543542 0.419532 0.407050
0.576776 0.421393 0.414527
0.609216 0.423224 0.422339
0.642145 0.425452 0.430152
0.674708 0.428382 0.438758
0.706600 0.431525 0.447761
0.737514 0.435340 0.457038
0.767422 0.439673 0.466560
0.796048 0.444709 0.476600
0.823392 0.450538 0.486458
0.849363 0.457343 0.496742
0.874205 0.465522 0.507317
0.897887 0.475319 0.518090
0.920317 0.487007 0.529320
0.941436 0.500938 0.540948
0.960937 0.517388 0.553033
0.124758 0.425483 0.347478
0.130373 0.425696 0.347845
0.138125 0.425849 0.348577
0.152438 0.426276 0.350042
0.172976 0.427100 0.352178
0.196841 0.428107 0.355413
0.223728 0.429419 0.359014
0.252140 0.430915 0.363378
0.282139 0.432715 0.368750
0.313603 0.434699 0.374151
0.345892 0.436927 0.380468
0.380377 0.440253 0.387701
0.422522 0.448798 0.398474
0.456092 0.450050 0.404181
0.490425 0.451514 0.410376
0.524834 0.453040 0.416632
0.558404 0.454017 0.422797
0.590814 0.454810 0.429358
0.622461 0.455634 0.436194
0.654383 0.457008 0.443397
0.685603 0.458747 0.451118
0.716091 0.460975 0.459266
0.745602 0.463722 0.467689
0.774289 0.467140 0.476448
0.801877 0.471321 0.485573
0.828275 0.476326 0.494911
0.853422 0.482399 0.504448
0.877501 0.489693 0.514244
0.900420 0.498634 0.524468
0.922271 0.509422 0.535180
0.942748 0.522515 0.546288
0.961761 0.538140 0.558038
0.139498 0.457130 0.367224
0.144533 0.457282 0.367712
0.151095 0.457343 0.368200
0.164462 0.457618 0.369238
0.183322 0.458076 0.371099
0.205905 0.458717 0.373541
0.231449 0.459693 0.376471
0.258976 0.460975 0.380407
0.288365 0.462654 0.384863
0.320195 0.465614 0.390417
0.353735 0.468910 0.396490
0.388403 0.472511 0.403265
0.424292 0.476265 0.410346
0.461006 0.479896 0.417426
0.495460 0.481331 0.422797
0.529412 0.482368 0.428443
0.562188 0.482795 0.434058
0.593866 0.482765 0.439704
0.625055 0.483009 0.445686
0.656214 0.483650 0.452216
0.686793 0.484871 0.459358
0.716762 0.486427 0.466773
0.745846 0.488502 0.474739
0.774136 0.491310 0.482856
0.801450 0.494789 0.491371
0.827573 0.499214 0.500237
0.852598 0.504570 0.509331
0.876555 0.511284 0.518853
0.899474 0.519463 0.528771
0.921294 0.529595 0.539117
0.941772 0.541955 0.550011
0.960815 0.556756 0.561456
0.153414 0.486641 0.384375
0.158328 0.486732 0.384497
0.164157 0.486915 0.384955
0.176211 0.487098 0.385962
0.193820 0.487434 0.387396
0.215427 0.488258 0.389746
0.239994 0.489784 0.392798
0.267185 0.491463 0.396429
0.296239 0.493568 0.400519
0.327214 0.495979 0.405127
0.359716 0.498848 0.410529
0.393805 0.501976 0.416236
0.428901 0.505211 0.422461
0.464790 0.508476 0.428779
0.500877 0.511345 0.435096
0.534234 0.511925 0.439979
0.566247 0.511589 0.444739
0.597162 0.511040 0.449928
0.627771 0.510613 0.455268
0.658320 0.510765 0.461158
0.688411 0.511376 0.467628
0.717983 0.512444 0.474525
0.746670 0.513970 0.481941
0.774624 0.516320 0.489723
0.801633 0.519219 0.497688
0.827543 0.523003 0.506157
0.852384 0.527733 0.514763
0.876188 0.533806 0.523857
0.898985 0.541466 0.533379
0.920714 0.551019 0.543481
0.941100 0.562768 0.554223
0.960113 0.576623 0.565362
0.168856 0.518700 0.401495
0.173373 0.518822 0.401617
0.178622 0.518914 0.402136
0.190005 0.519249 0.402899
0.206455 0.519646 0.404517
0.226902 0.520348 0.406226
0.250523 0.521294 0.408759
0.276646 0.522637 0.411719
0.304814 0.524315 0.415198
0.334997 0.526482 0.419135
0.366644 0.528923 0.423926
0.399878 0.531640 0.428809
0.434119 0.534417 0.434211
0.468940 0.537041 0.439826
0.504112 0.539391 0.445502
0.539239 0.541375 0.450965
0.570947 0.540856 0.455543
0.601160 0.539666 0.459876
0.631189 0.538750 0.464729
0.661006 0.538293 0.470100
0.690517 0.538231 0.476081
0.719448 0.538811 0.482399
0.747707 0.539849 0.489143
0.775296 0.541588 0.496498
0.801999 0.544030 0.504112
0.827787 0.547356 0.512169
0.852598 0.551751 0.520500
0.876432 0.557458 0.529412
0.899260 0.564752 0.538750
0.920958 0.574029 0.548730
0.941344 0.585321 0.559289
0.960266 0.598474 0.570275
0.185061 0.550958 0.417304
0.188785 0.551141 0.417731
0.193729 0.551293 0.418036
0.204440 0.551537 0.418769
0.220035 0.551873 0.420081
0.239780 0.552483 0.421668
0.262181 0.553338 0.423774
0.287358 0.554498 0.426459
0.314855 0.555810 0.429633
0.343969 0.557397 0.433082
0.374731 0.559167 0.436957
0.406561 0.561059 0.441260
0.439338 0.562921 0.445930
0.472847 0.564721 0.450507
0.506737 0.566369 0.455390
0.540764 0.567864 0.460243
0.574701 0.569238 0.465248
0.605463 0.568292 0.469551
0.635004 0.567010 0.474128
0.664393 0.566186 0.479103
0.693507 0.565789 0.484535
0.722103 0.565942 0.490578
0.750027 0.566552 0.497017
0.777249 0.567895 0.503807
0.803647 0.569940 0.511070
0.829191 0.572869 0.518700
0.853727 0.576745 0.526757
0.877287 0.582086 0.535332
0.899870 0.588830 0.544396
0.921263 0.597406 0.554040
0.941344 0.607721 0.564233
0.959960 0.619959 0.574884
0.201205 0.581018 0.432136
0.204715 0.581109 0.432136
0.209476 0.581109 0.432532
0.219425 0.581292 0.433204
0.233829 0.581598 0.434302
0.252140 0.581994 0.435584
0.273564 0.582605 0.437507
0.297520 0.583398 0.439796
0.323980 0.584466 0.442329
0.352056 0.585626 0.445441
0.381659 0.587091 0.449042
0.412573 0.588617 0.452766
0.444434 0.590173 0.456733
0.476814 0.591638 0.461097
0.509636 0.592889 0.465370
0.542596 0.593957 0.469612
0.575677 0.594995 0.474159
0.608789 0.596033 0.478828
0.639033 0.595209 0.482948
0.667689 0.593774 0.487495
0.696162 0.592950 0.492592
0.724178 0.592615 0.498146
0.751614 0.592798 0.504204
0.778500 0.593713 0.510613
0.804623 0.595331 0.517571
0.829831 0.597864 0.524834
0.854185 0.601404 0.532647
0.877623 0.606287 0.540978
0.899992 0.612604 0.549828
0.921263 0.620661 0.559289
0.941222 0.630304 0.569177
0.959686 0.641749 0.579706
0.218509 0.609949 0.445960
0.221988 0.610163 0.446174
0.230259 0.616297 0.449561
0.239414 0.616388 0.449958
0.253025 0.616480 0.450813
0.270359 0.616571 0.451942
0.290532 0.616815 0.453529
0.313237 0.617151 0.455329
0.338567 0.617731 0.457618
0.365606 0.618524 0.460273
0.394232 0.619501 0.463111
0.423957 0.620478 0.466407
0.454688 0.621363 0.469795
0.486122 0.622248 0.473457
0.517845 0.622980 0.477089
0.549798 0.623560 0.480873
0.581811 0.624140 0.484993
0.613794 0.624598 0.488869
0.645655 0.625147 0.493019
0.675013 0.624201 0.497169
0.702327 0.622553 0.501762
0.729519 0.621454 0.506950
0.756191 0.621057 0.512444
0.782254 0.621302 0.518486
0.807462 0.622217 0.524865
0.831907 0.623987 0.531609
0.855528 0.626764 0.538872
0.878325 0.630945 0.546838
0.900298 0.636591 0.555383
0.921294 0.643885 0.564416
0.941039 0.652796 0.574060
0.959289 0.663416 0.584619
0.238132 0.639765 0.459754
0.241428 0.640589 0.460304
0.246159 0.641413 0.460945
0.254978 0.642206 0.461860
0.267948 0.642847 0.462928
0.284245 0.643183 0.464027
0.303319 0.643488 0.465553
0.325109 0.643763 0.467140
0.349035 0.644190 0.469062
0.374701 0.644709 0.471473
0.402197 0.645411 0.473915
0.430823 0.646113 0.476753
0.460426 0.646815 0.479896
0.490700 0.647425 0.483070
0.521294 0.647913 0.486397
0.552270 0.648310 0.489876
0.583276 0.648615 0.493538
0.614313 0.648951 0.497230
0.645441 0.649409 0.500999
0.676387 0.649958 0.504997
0.705287 0.649409 0.509178
0.731991 0.648005 0.514122
0.758297 0.647272 0.519280
0.784024 0.647211 0.525109
0.808927 0.647761 0.531151
0.833097 0.649195 0.537804
0.856443 0.651667 0.544884
0.878996 0.655421 0.552575
0.900725 0.660548 0.560876
0.921477 0.667170 0.569665
0.941009 0.675349 0.579248
0.959014 0.685237 0.589776
0.257176 0.666346 0.472084
0.260410 0.667109 0.472602
0.264652 0.667872 0.473182
0.272801 0.668544 0.473823
0.284855 0.669123 0.474769
0.299748 0.669368 0.475929
0.317876 0.669551 0.477089
0.338231 0.669703 0.478676
0.360876 0.670069 0.480415
0.385504 0.670436 0.482338
0.411658 0.670985 0.484688
0.439155 0.671504 0.487373
0.467536 0.671992 0.490120
0.496681 0.672419 0.493019
0.526207 0.672694 0.495979
0.556085 0.672938 0.499153
0.586236 0.673152 0.502403
0.616358 0.673304 0.505699
0.646509 0.673640 0.509239
0.676692 0.674067 0.512932
0.706691 0.674678 0.516747
0.734981 0.674617 0.521050
0.760830 0.673548 0.526177
0.786130 0.673091 0.531609
0.810636 0.673304 0.537621
0.834440 0.674311 0.543938
0.857389 0.676326 0.550805
0.879667 0.679591 0.558251
0.901122 0.684169 0.566247
0.921569 0.690150 0.575006
0.940826 0.697627 0.584436
0.958618 0.706722 0.594995
0.277989 0.692256 0.483894
0.280980 0.692927 0.484352
0.284886 0.693599 0.484962
0.292424 0.694240 0.485603
0.303410 0.694667 0.486427
0.317296 0.694911 0.487495
0.334081 0.694972 0.488472
0.353002 0.695094 0.489845
0.374487 0.695247 0.491341
0.397742 0.695460 0.493233
0.422583 0.695827 0.495247
0.448707 0.696162 0.497627
0.475898 0.696529 0.500008
0.503807 0.696773 0.502739
0.532464 0.697017 0.505486
0.561425 0.697261 0.508415
0.590814 0.697566 0.511498
0.620417 0.698024 0.514824
0.650050 0.698512 0.518242
0.679713 0.699184 0.521904
0.709255 0.700099 0.525689
0.738552 0.701106 0.529564
0.766232 0.701534 0.534020
0.791165 0.700893 0.539483
0.815366 0.700893 0.545312
0.838712 0.701717 0.551659
0.861295 0.703365 0.558373
0.883085 0.706172 0.565606
0.904051 0.710201 0.573449
0.923980 0.715602 0.582147
0.942626 0.722408 0.591760
0.959808 0.730587 0.602441
0.302922 0.719997 0.496834
0.305425 0.720333 0.497078
0.308629 0.720546 0.497353
0.315221 0.720760 0.497993
0.325109 0.720882 0.498573
0.337835 0.720912 0.499336
0.353368 0.720912 0.500237
0.371160 0.721004 0.501457
0.391180 0.721187 0.502983
0.413336 0.721401 0.504570
0.436957 0.721736 0.506554
0.461982 0.722011 0.508721
0.487953 0.722255 0.510918
0.514733 0.722377 0.513390
0.542107 0.722499 0.515862
0.569940 0.722621 0.518608
0.598138 0.722744 0.521355
0.626520 0.722927 0.524468
0.655116 0.723293 0.527520
0.683619 0.723659 0.530846
0.711971 0.724239 0.534386
0.739986 0.724941 0.537957
0.767514 0.725765 0.541680
0.793851 0.726223 0.545922
0.817441 0.725765 0.551507
0.840330 0.726131 0.557610
0.862608 0.727382 0.564141
0.884092 0.729732 0.571283
0.904723 0.733303 0.579095
0.924315 0.738064 0.587823
0.942657 0.744198 0.597589
0.959594 0.751583 0.608331
0.327489 0.744472 0.508141
0.329747 0.744747 0.508507
0.332738 0.744991 0.508751
0.338903 0.745144 0.509178
0.347845 0.745235 0.509850
0.359472 0.745235 0.510430
0.373541 0.745144 0.511345
0.389929 0.745113 0.512383
0.408698 0.745113 0.513634
0.429389 0.745266 0.515221
0.451637 0.745449 0.516869
0.475227 0.745632 0.518853
0.499886 0.745754 0.520928
0.525505 0.745846 0.523156
0.551659 0.745968 0.525566
0.578454 0.746029 0.528038
0.605554 0.746151 0.530724
0.633051 0.746334 0.533532
0.660548 0.746639 0.536614
0.688136 0.747066 0.539818
0.715602 0.747616 0.543206
0.742763 0.748287 0.546654
0.769406 0.749172 0.550378
0.795590 0.750118 0.554009
0.819028 0.749538 0.557183
0.841550 0.749508 0.563104
0.863462 0.750393 0.569574
0.884672 0.752285 0.576623
0.904997 0.755337 0.584527
0.924285 0.759579 0.593317
0.942412 0.765072 0.603174
0.959197 0.771786 0.614221
0.356847 0.770138 0.520500
0.358953 0.770474 0.520806
0.361639 0.770626 0.520958
0.367041 0.770687 0.521355
0.374945 0.770596 0.521813
0.385443 0.770443 0.522332
0.398108 0.770230 0.523033
0.413092 0.769924 0.523919
0.430213 0.769680 0.525017
0.449104 0.769497 0.526238
0.469642 0.769345 0.527642
0.491554 0.769253 0.529290
0.514733 0.769131 0.531151
0.538628 0.768978 0.533104
0.563226 0.768765 0.535241
0.588403 0.768551 0.537469
0.614069 0.768338 0.539818
0.640040 0.768307 0.542473
0.666438 0.768490 0.545373
0.692958 0.768856 0.548394
0.719326 0.769436 0.551598
0.745449 0.770108 0.555016
0.771115 0.770871 0.558434
0.796170 0.771572 0.561883
0.820462 0.772366 0.565454
0.843961 0.773220 0.569207
0.865324 0.773587 0.575555
0.885985 0.774960 0.582574
0.905852 0.777432 0.590509
0.924743 0.781033 0.599390
0.942565 0.785794 0.609277
0.959045 0.791806 0.620569
0.385412 0.792752 0.531304
0.387427 0.793027 0.531670
0.389990 0.793179 0.531853
0.394781 0.793210 0.532250
0.401892 0.793118 0.532586
0.411383 0.792966 0.533165
0.423163 0.792752 0.533806
0.436927 0.792508 0.534691
0.452705 0.792325 0.535637
0.470405 0.792203 0.536858
0.489601 0.792081 0.538262
0.510277 0.792020 0.539879
0.532067 0.791958 0.541741
0.554742 0.791806 0.543572
0.578149 0.791653 0.545678
0.602075 0.791440 0.547784
0.626398 0.791287 0.550072
0.651148 0.791257 0.552605
0.676173 0.791379 0.555200
0.701350 0.791714 0.558099
0.726528 0.792142 0.561212
0.751461 0.792752 0.564446
0.775967 0.793393 0.567742
0.799924 0.794125 0.571160
0.823301 0.794919 0.574701
0.845975 0.795773 0.578332
0.867979 0.796780 0.582147
0.888212 0.797787 0.589319
0.907622 0.799771 0.597345
0.926085 0.802762 0.606348
0.943511 0.806973 0.616571
0.959564 0.812192 0.628077
0.417731 0.815152 0.542870
0.419501 0.815335 0.543023
0.421637 0.815396 0.543175
0.425818 0.815335 0.543450
0.432105 0.815183 0.543755
0.440558 0.814908 0.544213
0.451087 0.814664 0.544762
0.463569 0.814389 0.545617
0.478035 0.814145 0.546502
0.494209 0.813993 0.547692
0.511955 0.813870 0.549004
0.531182 0.813779 0.550561
0.551568 0.813718 0.552239
0.572778 0.813626 0.553979
0.594598 0.813443 0.555932
0.617029 0.813230 0.557946
0.639887 0.813016 0.560113
0.663203 0.812924 0.562463
0.686793 0.813016 0.564996
0.710597 0.813260 0.567742
0.734432 0.813657 0.570764
0.758175 0.814176 0.573907
0.781460 0.814786 0.577203
0.804379 0.815457 0.580682
0.826627 0.816190 0.584314
0.848295 0.816983 0.588037
0.869352 0.817960 0.591974
0.889647 0.819089 0.596033
0.908751 0.820584 0.603754
0.926848 0.823117 0.612940
0.943908 0.826627 0.623346
0.959564 0.831083 0.635126
0.451209 0.836240 0.553979
0.452735 0.836332 0.554192
0.454688 0.836362 0.554376
0.458442 0.836332 0.554589
0.464332 0.836271 0.554894
0.472114 0.836210 0.555474
0.482002 0.836210 0.556207
0.493965 0.836271 0.557153
0.507744 0.836423 0.558343
0.523247 0.836637 0.559625
0.540124 0.836851 0.561212
0.558343 0.837064 0.562860
0.577508 0.837278 0.564599
0.597436 0.837339 0.566491
0.617914 0.837339 0.568475
0.638819 0.837186 0.570489
0.660121 0.837034 0.572625
0.681849 0.836942 0.574975
0.703914 0.836973 0.577569
0.726192 0.837125 0.580316
0.748379 0.837461 0.583337
0.770565 0.837858 0.586542
0.792386 0.838346 0.589929
0.813809 0.838895 0.593500
0.834714 0.839536 0.597192
0.855039 0.840269 0.600977
0.874784 0.841123 0.604944
0.893919 0.842130 0.609155
0.912444 0.843412 0.613672
0.929961 0.845304 0.622309
0.946227 0.848020 0.632990
0.961120 0.851530 0.644984
0.491249 0.858793 0.567010
0.492531 0.858824 0.567163
0.494026 0.858793 0.567285
0.497200 0.858701 0.567407
0.502251 0.858549 0.567742
0.509026 0.858366 0.568200
0.517601 0.858213 0.568811
0.527855 0.858091 0.569543
0.539849 0.858000 0.570489
0.553491 0.857939 0.571649
0.568383 0.857847 0.572930
0.584619 0.857816 0.574426
0.601831 0.857755 0.576104
0.619898 0.857633 0.577874
0.638575 0.857511 0.579675
0.657893 0.857328 0.581750
