其他预设/【232】美食博客调色预设124款/1.3D LUT预设（视频调色-PR-AE-PS-FCPX-达芬奇用）/Food Art #17.cube
# Created by Adobe Lightroom plugin Export LUT (1.17.0)
# www.johnrellis.com/lightroom/exportlut.htm
# Preset: Food Art #17
# Color profile: /Library/Application Support/Adobe/Color/Profiles/Recommended/AdobeRGB1998.icc
LUT_3D_SIZE 5
DOMAIN_MIN 0.000000 0.000000 0.000000
DOMAIN_MAX 0.903226 0.903226 0.903226
0.065248 0.087251 0.090913
0.271214 0.092988 0.085389
0.551202 0.138857 0.116548
0.817319 0.169833 0.161959
1.000000 0.217899 0.222995
0.000000 0.309300 0.094392
0.266575 0.313451 0.108186
0.547265 0.315831 0.134005
0.814084 0.317418 0.174411
1.000000 0.327459 0.235355
0.000000 0.580194 0.157961
0.260349 0.580591 0.163027
0.554681 0.586664 0.181003
0.810086 0.564172 0.212985
1.000000 0.538964 0.265324
0.105592 0.813596 0.230198
0.275425 0.812924 0.234165
0.532769 0.808347 0.245731
0.791958 0.799008 0.264469
0.991638 0.763180 0.311498
0.251194 0.986542 0.321813
0.337041 0.985046 0.323949
0.529290 0.978149 0.330694
0.750576 0.970550 0.351812
0.962036 0.959930 0.383673
0.000000 0.075196 0.309361
0.257603 0.113100 0.312505
0.541344 0.157870 0.317296
0.804044 0.203311 0.329198
1.000000 0.259403 0.350408
0.000000 0.305882 0.314061
0.257023 0.311162 0.315923
0.540368 0.320073 0.320806
0.802548 0.329534 0.332280
0.998871 0.350378 0.355077
0.000000 0.576532 0.323125
0.261357 0.576593 0.326940
0.544335 0.577600 0.332555
0.799649 0.562707 0.343938
0.994812 0.548516 0.370886
0.138308 0.810666 0.347723
0.293828 0.809659 0.354620
0.538079 0.805234 0.360143
0.790219 0.796597 0.369421
0.987640 0.765316 0.398779
0.294133 0.983856 0.405066
0.367620 0.982391 0.406409
0.548241 0.978027 0.413916
0.758328 0.969940 0.428077
0.962676 0.959869 0.452369
0.000000 0.106935 0.553979
0.249241 0.128908 0.554345
0.539361 0.163210 0.554986
0.799039 0.219913 0.545342
0.991638 0.317632 0.543511
0.000000 0.307317 0.554498
0.255406 0.312474 0.554284
0.541527 0.323064 0.555718
0.796201 0.347082 0.547692
0.989075 0.408057 0.552941
0.000000 0.572595 0.555352
0.268284 0.573114 0.555322
0.546044 0.574456 0.556146
0.792020 0.575647 0.558556
0.983612 0.584039 0.567163
0.168856 0.804501 0.546319
0.313359 0.801602 0.548821
0.561242 0.796536 0.562951
0.789761 0.792294 0.567437
0.977630 0.774380 0.578912
0.319066 0.979034 0.551324
0.407416 0.976989 0.561151
0.597314 0.970581 0.587060
0.777859 0.964080 0.593591
0.961761 0.956634 0.606958
0.000000 0.142061 0.765927
0.250065 0.156435 0.765805
0.522393 0.190738 0.765682
0.788754 0.231632 0.763455
0.984436 0.324102 0.732540
0.082399 0.312810 0.764523
0.267033 0.317510 0.764279
0.526940 0.331273 0.763424
0.786770 0.350469 0.761074
0.981079 0.407630 0.734218
0.158846 0.553277 0.761013
0.305303 0.557549 0.760250
0.547723 0.568658 0.758541
0.783169 0.572992 0.756405
0.973785 0.598932 0.745205
0.228580 0.789883 0.760220
0.344091 0.788785 0.759274
0.571527 0.787289 0.758480
0.787991 0.786099 0.758785
0.967285 0.787808 0.761501
0.357733 0.973816 0.738277
0.434058 0.971649 0.741329
0.614832 0.965515 0.752804
0.799680 0.958465 0.768490
0.960662 0.953948 0.774197
0.000000 0.179110 0.949554
0.238834 0.190555 0.949065
0.488563 0.224582 0.947845
0.733700 0.271855 0.945586
0.962066 0.330846 0.942870
0.125765 0.317967 0.947478
0.267063 0.323430 0.947051
0.499397 0.340887 0.945892
0.736751 0.368139 0.943481
0.960510 0.408942 0.941283
0.251133 0.543297 0.943297
0.349981 0.550988 0.942504
0.538231 0.559136 0.941131
0.749752 0.569696 0.939147
0.957427 0.593256 0.938598
0.313298 0.749569 0.940429
0.393256 0.752163 0.939574
0.582544 0.762692 0.937774
0.776791 0.775540 0.936584
0.955962 0.786984 0.938537
0.404273 0.952941 0.939757
0.466590 0.952422 0.939391
0.623590 0.951415 0.939147
0.799619 0.950225 0.939025
0.955383 0.950805 0.940368
