其他预设/【232】美食博客调色预设124款/1.3D LUT预设（视频调色-PR-AE-PS-FCPX-达芬奇用）/Food Art #34.cube
# Created by Adobe Lightroom plugin Export LUT (1.17.0)
# www.johnrellis.com/lightroom/exportlut.htm
# Preset: Food Art #34
# Color profile: /Library/Application Support/Adobe/Color/Profiles/Recommended/AdobeRGB1998.icc
LUT_3D_SIZE 32
0.233799 0.233799 0.233799
0.234562 0.233768 0.233799
0.235752 0.233768 0.233768
0.239322 0.233738 0.233768
0.247532 0.233555 0.233646
0.261357 0.233341 0.233341
0.281376 0.232822 0.232944
0.307622 0.232273 0.232242
0.338445 0.231357 0.231388
0.372259 0.230350 0.230259
0.408301 0.228946 0.229038
0.445380 0.227481 0.227543
0.482704 0.226047 0.225895
0.519524 0.224155 0.224186
0.554955 0.222660 0.222507
0.588708 0.220859 0.220920
0.620661 0.219272 0.219272
0.650050 0.217960 0.217960
0.676478 0.216922 0.216953
0.705409 0.216037 0.216007
0.731960 0.215427 0.215427
0.756802 0.215122 0.215091
0.779965 0.215091 0.215030
0.801755 0.215274 0.215213
0.822416 0.215640 0.215549
0.842313 0.216007 0.215976
0.861753 0.216709 0.216678
0.880888 0.217624 0.217502
0.899840 0.218784 0.218723
0.918639 0.220340 0.220249
0.937255 0.222354 0.222354
0.955627 0.224826 0.224826
0.233829 0.234470 0.233768
0.234562 0.234531 0.233829
0.235721 0.234623 0.233768
0.239384 0.234775 0.233768
0.247440 0.235019 0.233524
0.261051 0.235111 0.233280
0.280980 0.234897 0.232761
0.306737 0.234745 0.232151
0.337285 0.234134 0.231205
0.370764 0.233463 0.230137
0.406500 0.232364 0.228855
0.443427 0.231052 0.227451
0.480476 0.229587 0.225864
0.517113 0.228122 0.224125
0.552422 0.226566 0.222477
0.586206 0.224887 0.220798
0.618067 0.223362 0.219272
0.647639 0.221958 0.217960
0.674250 0.220829 0.216861
0.702968 0.219730 0.215946
0.729152 0.219181 0.215335
0.753780 0.218814 0.214969
0.776883 0.218479 0.214939
0.798764 0.218509 0.214939
0.819577 0.218692 0.215183
0.839658 0.218967 0.215610
0.859342 0.219303 0.216190
0.878691 0.220188 0.217105
0.897856 0.221195 0.218235
0.916838 0.222599 0.219669
0.935637 0.224369 0.221592
0.954162 0.226505 0.223972
0.233738 0.235813 0.233738
0.234592 0.235752 0.233799
0.235843 0.235843 0.233768
0.239384 0.236210 0.233646
0.247410 0.236820 0.233463
0.260838 0.237400 0.233188
0.280491 0.237736 0.232639
0.305943 0.237949 0.231907
0.336187 0.237919 0.231022
0.369512 0.237400 0.229953
0.405066 0.236790 0.228733
0.441901 0.235782 0.227237
0.478920 0.234440 0.225620
0.515496 0.233158 0.224002
0.550774 0.231754 0.222324
0.584619 0.230045 0.220676
0.616541 0.228580 0.219150
0.646143 0.227146 0.217777
0.672877 0.225895 0.216770
0.701625 0.224979 0.215763
0.727626 0.224186 0.215183
0.752163 0.223423 0.214755
0.775265 0.223270 0.214725
0.797177 0.222873 0.214786
0.818021 0.222873 0.215030
0.838163 0.222934 0.215366
0.857969 0.223331 0.215946
0.877470 0.223972 0.216770
0.896788 0.224765 0.217899
0.915862 0.225986 0.219333
0.934752 0.227573 0.221164
0.953307 0.229648 0.223545
0.233616 0.239475 0.233616
0.234775 0.239567 0.233555
0.236240 0.239597 0.233616
0.239811 0.239750 0.233494
0.247532 0.240970 0.233280
0.260960 0.242466 0.232853
0.280278 0.243748 0.232303
0.305577 0.244907 0.231601
0.335424 0.245609 0.230655
0.368536 0.245853 0.229557
0.403815 0.245823 0.228183
0.440436 0.245304 0.226658
0.477211 0.244724 0.225132
0.513634 0.243565 0.223484
0.548913 0.242344 0.221836
0.582635 0.240848 0.220188
0.614557 0.239322 0.218662
0.644160 0.237949 0.217380
0.671656 0.236393 0.216342
0.699519 0.235325 0.215457
0.725032 0.234195 0.214878
0.749294 0.233341 0.214511
0.772488 0.232700 0.214420
0.794766 0.232151 0.214542
0.816190 0.231968 0.214664
0.836973 0.231754 0.215152
0.857237 0.231785 0.215702
0.877012 0.232303 0.216678
0.896422 0.232883 0.217838
0.915496 0.233707 0.219303
0.934234 0.235080 0.221073
0.952667 0.236667 0.223239
0.233249 0.247532 0.233188
0.234653 0.247562 0.233158
0.236637 0.247715 0.233158
0.241123 0.247898 0.233036
0.248295 0.248234 0.232883
0.260563 0.250156 0.232547
0.279576 0.252750 0.231876
0.304417 0.255192 0.230991
0.333928 0.256962 0.230045
0.366583 0.258366 0.228855
0.401495 0.259098 0.227451
0.437842 0.259464 0.225956
0.474525 0.259190 0.224399
0.510887 0.258610 0.222751
0.546319 0.257694 0.221042
0.580407 0.256565 0.219455
0.612696 0.254978 0.217929
0.642603 0.253483 0.216617
0.671229 0.251926 0.215579
0.698573 0.250523 0.214786
0.723598 0.249149 0.214328
0.747616 0.247959 0.214023
0.770687 0.246952 0.213993
0.792996 0.246159 0.214145
0.814603 0.245457 0.214298
0.835569 0.244816 0.214817
0.855924 0.244633 0.215488
0.875792 0.244541 0.216403
0.895232 0.244877 0.217563
0.914366 0.245365 0.218967
0.933196 0.246250 0.220768
0.951690 0.247532 0.222965
0.232395 0.261112 0.232425
0.234195 0.261265 0.232364
0.236759 0.261295 0.232273
0.242161 0.261509 0.232212
0.250767 0.261845 0.232029
0.262242 0.262333 0.231815
0.279728 0.264897 0.231205
0.304356 0.268742 0.230228
0.333440 0.271794 0.229068
0.365789 0.274144 0.227787
0.400458 0.276005 0.226352
0.436591 0.277043 0.224918
0.473030 0.277531 0.223270
0.509453 0.277409 0.221561
0.544823 0.276860 0.219944
0.579034 0.275822 0.218326
0.611383 0.274449 0.216892
0.641444 0.272892 0.215702
0.671168 0.271275 0.214664
0.698238 0.269596 0.213931
0.723232 0.267948 0.213596
0.747372 0.266300 0.213443
0.788449 0.268070 0.214359
0.810056 0.267033 0.215122
0.830503 0.266026 0.215885
0.850095 0.265232 0.216922
0.868956 0.264714 0.218143
0.887388 0.264317 0.219638
0.905455 0.264408 0.221317
0.923369 0.264652 0.223209
0.940978 0.265293 0.225406
0.958221 0.266209 0.227909
0.230869 0.283238 0.230900
0.233341 0.283299 0.230808
0.236515 0.283421 0.230808
0.243351 0.283696 0.230686
0.253971 0.284031 0.230442
0.267948 0.284428 0.230137
0.284947 0.284977 0.229709
0.307774 0.287785 0.228855
0.337346 0.292119 0.227573
0.370336 0.295689 0.226169
0.405432 0.298375 0.224643
0.441810 0.300206 0.222965
0.478279 0.301213 0.221408
0.514336 0.301366 0.219730
0.549310 0.300725 0.218112
0.582666 0.299565 0.216648
0.614405 0.298100 0.215274
0.646052 0.296544 0.214084
0.675715 0.294774 0.213260
0.703029 0.292790 0.212833
0.729000 0.291020 0.212711
0.754665 0.289281 0.212863
0.779538 0.288060 0.213321
0.803342 0.286748 0.213993
0.825742 0.285618 0.215030
0.846555 0.284459 0.216159
0.866117 0.283513 0.217563
0.884855 0.282750 0.219059
0.903227 0.282078 0.220798
0.921202 0.281834 0.222660
0.938933 0.281773 0.224735
0.956329 0.282109 0.227207
0.228977 0.308965 0.228885
0.231601 0.308995 0.228824
0.235355 0.309056 0.228794
0.243381 0.309087 0.228672
0.255314 0.309270 0.228397
0.270665 0.309575 0.228061
0.289128 0.309819 0.227695
0.310338 0.310399 0.227207
0.336461 0.312779 0.226230
0.368963 0.317327 0.224704
0.403815 0.321019 0.223026
0.439887 0.323583 0.221317
0.476173 0.325139 0.219699
0.512016 0.325780 0.218051
0.546838 0.325505 0.216495
0.580163 0.324498 0.215061
0.613031 0.323217 0.213748
0.645228 0.321813 0.212619
0.673945 0.319707 0.211948
0.700740 0.317296 0.211673
0.726406 0.314946 0.211673
0.751766 0.312871 0.211948
0.776425 0.311101 0.212528
0.800168 0.309331 0.213413
0.822568 0.307652 0.214450
0.843503 0.306157 0.215640
0.863279 0.304601 0.217014
0.882292 0.303166 0.218479
0.900847 0.302068 0.220279
0.919036 0.301183 0.222202
0.936950 0.300664 0.224308
0.954528 0.300389 0.226719
0.226291 0.338628 0.226444
0.229526 0.338659 0.226352
0.233646 0.338659 0.226322
0.242374 0.338628 0.226200
0.255619 0.338781 0.225864
0.272313 0.338750 0.225620
0.292180 0.338872 0.225193
0.314702 0.339147 0.224582
0.339635 0.339544 0.223972
0.368475 0.341741 0.222934
0.403021 0.346197 0.221134
0.438819 0.349493 0.219364
0.475013 0.351568 0.217655
0.510704 0.352483 0.216068
0.545281 0.352453 0.214572
0.579370 0.351873 0.213107
0.613581 0.351110 0.211795
0.644678 0.349310 0.210849
0.672755 0.346624 0.210361
0.699214 0.343664 0.210330
0.724575 0.340917 0.210575
0.749660 0.338384 0.210971
0.774228 0.336004 0.211704
0.797787 0.333928 0.212589
0.820188 0.331792 0.213809
0.841184 0.329503 0.215244
0.861082 0.327550 0.216678
0.880186 0.325566 0.218235
0.898833 0.323888 0.220005
0.917144 0.322515 0.221897
0.935119 0.321386 0.224094
0.952789 0.320531 0.226505
0.223545 0.370855 0.223453
0.226780 0.370855 0.223453
0.231449 0.370733 0.223331
0.241032 0.370642 0.223178
0.255222 0.370611 0.222934
0.273106 0.370459 0.222568
0.293980 0.370397 0.222232
0.317571 0.370428 0.221683
0.343359 0.370733 0.221042
0.371130 0.371160 0.220218
0.401740 0.372656 0.219181
0.437263 0.376593 0.217288
0.473274 0.379126 0.215579
0.508934 0.380560 0.213901
0.545220 0.381659 0.212161
0.580804 0.381872 0.210697
0.614405 0.380926 0.209476
0.645045 0.378607 0.208774
0.672724 0.375433 0.208652
0.698756 0.371893 0.208896
0.723537 0.368475 0.209354
0.747921 0.365301 0.209995
0.771725 0.362280 0.210758
0.794705 0.359442 0.211795
0.816770 0.356664 0.213107
0.837827 0.353979 0.214511
0.858000 0.351446 0.215946
0.877531 0.349096 0.217716
0.896605 0.347021 0.219638
0.915282 0.345159 0.221744
0.933623 0.343786 0.224155
0.951598 0.342535 0.226658
0.220127 0.403845 0.220218
0.223697 0.403845 0.220127
0.228733 0.403815 0.220096
0.238834 0.403815 0.219913
0.253910 0.403662 0.219669
0.272709 0.403693 0.219333
0.294835 0.403723 0.218936
0.319310 0.403784 0.218326
0.346044 0.403906 0.217716
0.374578 0.404273 0.216861
0.404547 0.404608 0.216007
0.436378 0.405402 0.214878
0.472602 0.408881 0.212985
0.509850 0.411597 0.211124
0.546075 0.412879 0.209415
0.580713 0.412726 0.208194
0.613519 0.411231 0.207248
0.643580 0.408484 0.206821
0.670924 0.404730 0.206882
0.696742 0.400702 0.207218
0.721401 0.396674 0.207950
0.745724 0.393011 0.208865
0.769528 0.389624 0.209934
0.792538 0.386267 0.211215
0.814603 0.383124 0.212619
0.835660 0.379889 0.214084
0.855833 0.376806 0.215763
0.875364 0.373968 0.217472
0.894469 0.371344 0.219486
0.913237 0.368933 0.221592
0.931701 0.366949 0.224002
0.949767 0.365332 0.226658
0.216648 0.438453 0.216587
0.220371 0.438514 0.216464
0.225528 0.438392 0.216464
0.236240 0.438300 0.216281
0.252049 0.438300 0.215976
0.271824 0.438300 0.215610
0.294682 0.438300 0.215274
0.320195 0.438331 0.214725
0.347631 0.438514 0.214054
0.376928 0.438758 0.213260
0.407568 0.439002 0.212314
0.440955 0.440955 0.211124
0.489265 0.455055 0.207980
0.527306 0.457435 0.206271
0.563684 0.457832 0.204868
0.597925 0.456367 0.204105
0.629633 0.453346 0.203708
0.657954 0.448646 0.204166
0.683742 0.443153 0.205081
0.708064 0.437598 0.206210
0.731777 0.432258 0.207584
0.754971 0.427405 0.209049
0.777493 0.422797 0.210544
0.799374 0.418494 0.212253
0.820401 0.414252 0.214115
0.840635 0.410254 0.216037
0.860075 0.406348 0.218051
0.878904 0.402655 0.220005
0.897337 0.399298 0.222141
0.915526 0.396277 0.224369
0.933410 0.393622 0.226902
0.951110 0.391333 0.229618
0.211978 0.478676 0.212039
0.216190 0.478614 0.211948
0.221653 0.478279 0.211948
0.233249 0.477790 0.211826
0.250187 0.477150 0.211643
0.270756 0.476478 0.211398
0.294743 0.475990 0.211002
0.320989 0.475746 0.210483
0.349462 0.475837 0.209873
0.380957 0.478157 0.208743
0.414496 0.480812 0.207675
0.449836 0.483619 0.206332
0.486397 0.486458 0.204959
0.523674 0.488655 0.203525
0.560571 0.489754 0.202213
0.594934 0.488472 0.201541
0.626490 0.485115 0.201419
0.654597 0.479866 0.201999
0.680293 0.473793 0.203281
0.704494 0.467506 0.204654
0.728054 0.461707 0.206332
0.751217 0.456306 0.207950
0.773709 0.451148 0.209751
0.795590 0.446235 0.211643
0.816709 0.441596 0.213474
0.837034 0.437049 0.215488
0.856626 0.432654 0.217441
0.875669 0.428595 0.219669
0.894316 0.424689 0.221866
0.912779 0.421302 0.224155
0.930968 0.418158 0.226688
0.948913 0.415442 0.229465
0.208072 0.512261 0.208255
0.212650 0.512139 0.208164
0.218204 0.511894 0.208164
0.229984 0.511467 0.208011
0.247227 0.510735 0.207858
0.268467 0.510613 0.207584
0.293248 0.511040 0.207065
0.320378 0.511620 0.206485
0.349859 0.512505 0.205814
0.381384 0.513970 0.204929
0.414557 0.515770 0.203922
0.449317 0.517937 0.202792
0.485023 0.519921 0.201724
0.521386 0.521416 0.200473
0.557671 0.522179 0.199405
0.591699 0.520592 0.198764
0.622827 0.516716 0.199008
0.650813 0.511070 0.199924
0.676509 0.504417 0.201511
0.700801 0.497780 0.203189
0.724453 0.491371 0.205142
0.747707 0.485512 0.207065
0.770291 0.479896 0.209049
0.792325 0.474678 0.211124
0.813565 0.469581 0.213199
0.834073 0.464576 0.215366
0.853819 0.459754 0.217441
0.873045 0.455177 0.219577
0.891905 0.450965 0.221927
0.910552 0.447120 0.224430
0.928923 0.443641 0.227146
0.947112 0.440528 0.229984
0.204227 0.548547 0.204135
0.208530 0.548608 0.204196
0.214450 0.548394 0.204105
0.226902 0.548089 0.203922
0.244663 0.547539 0.203830
0.266545 0.547021 0.203525
0.291569 0.546715 0.203189
0.319036 0.546654 0.202762
0.348608 0.547021 0.202182
0.379980 0.547875 0.201541
0.412879 0.549157 0.200748
0.447120 0.550713 0.199863
0.482338 0.552148 0.198856
0.517906 0.553185 0.197971
0.553460 0.553460 0.197086
0.588403 0.552789 0.196262
0.619623 0.548821 0.196719
0.647395 0.542596 0.198001
0.673060 0.535485 0.199741
0.697322 0.528222 0.201846
0.720943 0.521294 0.204074
0.744167 0.514977 0.206241
0.766812 0.508904 0.208347
0.788907 0.503166 0.210636
0.810361 0.497688 0.212985
0.831174 0.492439 0.215244
0.851408 0.487434 0.217685
0.871122 0.482673 0.220310
0.890501 0.478279 0.222873
0.909606 0.474281 0.225834
0.928405 0.470649 0.228916
0.946899 0.467353 0.232395
0.200717 0.583154 0.200778
0.205325 0.583337 0.200717
0.211093 0.583215 0.200595
0.223850 0.582940 0.200534
0.242069 0.582452 0.200412
0.264439 0.582086 0.200168
0.289769 0.581811 0.199802
0.317540 0.581750 0.199466
0.347387 0.581811 0.199069
0.378698 0.582147 0.198581
0.411170 0.582513 0.198032
0.444587 0.582940 0.197391
0.478492 0.583062 0.196841
0.512779 0.582879 0.196231
0.546990 0.582147 0.195773
0.580926 0.580926 0.195163
0.614557 0.579309 0.194797
0.643671 0.573846 0.195956
0.669642 0.566552 0.198215
0.694331 0.559075 0.200717
0.718288 0.551934 0.203220
0.741848 0.545281 0.205783
0.764736 0.538964 0.208347
0.787045 0.532891 0.210788
0.808713 0.527062 0.213474
0.829740 0.521477 0.216068
0.850126 0.516045 0.218662
0.869993 0.511009 0.221469
0.889464 0.506188 0.224460
0.908507 0.501701 0.227390
0.927245 0.497566 0.230594
0.945647 0.493782 0.234043
0.198367 0.613489 0.198520
0.202945 0.613428 0.198306
0.209049 0.613184 0.198428
0.221653 0.612879 0.198276
0.239628 0.612360 0.198276
0.261784 0.611841 0.198123
0.286900 0.611383 0.197940
0.314580 0.611017 0.197604
0.343877 0.610773 0.197330
0.374670 0.610651 0.197024
0.406622 0.610620 0.196750
0.439399 0.610620 0.196323
0.472602 0.610437 0.196170
0.506004 0.609888 0.195895
0.539483 0.608820 0.195560
0.572473 0.607263 0.195438
0.605249 0.605310 0.195346
0.637934 0.603265 0.195193
0.665980 0.597406 0.196628
0.690608 0.589471 0.199557
0.714626 0.581872 0.202457
0.738216 0.574792 0.205173
0.761257 0.568078 0.207980
0.783749 0.561761 0.210758
0.805631 0.555627 0.213504
0.826902 0.549706 0.216434
0.847593 0.544091 0.219303
0.867735 0.538781 0.222416
0.887449 0.533654 0.225589
0.906767 0.528923 0.228763
0.925719 0.524529 0.232242
0.944366 0.520470 0.235966
0.197604 0.640986 0.197604
0.202243 0.641169 0.197635
0.208896 0.651881 0.198245
0.221805 0.651453 0.198123
0.240116 0.650813 0.198093
0.262242 0.649928 0.198032
0.287663 0.648890 0.198032
0.315251 0.647883 0.197726
0.344610 0.646967 0.197696
0.375250 0.646204 0.197696
0.406744 0.645472 0.197696
0.438941 0.644587 0.197726
0.471504 0.643458 0.197848
0.504234 0.642084 0.197818
0.536828 0.640375 0.197910
0.569238 0.638300 0.197757
0.601404 0.635889 0.197910
0.633295 0.633295 0.197971
0.664912 0.630640 0.198001
0.692103 0.624292 0.200046
0.715633 0.615747 0.203128
0.738918 0.607782 0.206363
0.761715 0.600336 0.209415
0.783841 0.593225 0.212375
0.805173 0.586206 0.215244
0.825895 0.579492 0.218143
0.846067 0.572992 0.220890
0.865873 0.566949 0.223728
0.885466 0.561334 0.226719
0.904845 0.556237 0.230228
0.923980 0.551476 0.233768
0.942718 0.547051 0.237705
0.198764 0.668391 0.198581
0.203037 0.669642 0.198764
0.209079 0.670863 0.198917
0.221408 0.671748 0.199100
0.238895 0.672084 0.199191
0.260502 0.671778 0.199405
0.285069 0.671046 0.199283
0.311772 0.670069 0.199222
0.340215 0.669184 0.199252
0.369879 0.668330 0.199283
0.400519 0.667445 0.199405
0.431800 0.666529 0.199466
0.463569 0.665278 0.199710
0.495308 0.663844 0.199863
0.527092 0.662104 0.199924
0.558801 0.659998 0.200107
0.590295 0.657710 0.200198
0.621576 0.655238 0.200381
0.652766 0.652827 0.200687
0.683986 0.650538 0.200748
0.711543 0.645136 0.202792
0.735042 0.637049 0.206210
0.758114 0.629450 0.209506
0.780545 0.622126 0.212833
0.802213 0.614923 0.215915
0.823209 0.607965 0.218936
0.843656 0.601282 0.221897
0.863676 0.594965 0.224979
0.883482 0.589075 0.228336
0.903014 0.583642 0.231937
0.922271 0.578607 0.235691
0.941161 0.573907 0.239780
0.200259 0.689937 0.200229
0.204685 0.691066 0.200656
0.210605 0.692103 0.200870
0.222080 0.692897 0.201114
0.239078 0.693202 0.201297
0.259648 0.692927 0.201328
0.283330 0.692226 0.201450
0.309026 0.691371 0.201419
0.336492 0.690547 0.201389
0.365270 0.689693 0.201602
0.395087 0.688899 0.201785
0.425544 0.688014 0.202029
0.456428 0.686824 0.202274
0.487526 0.685451 0.202487
0.518608 0.683742 0.202762
0.549615 0.681788 0.202823
0.580529 0.679591 0.203006
0.611322 0.677302 0.203281
0.642084 0.675044 0.203464
0.672877 0.672938 0.203891
0.703639 0.670863 0.204440
0.731594 0.666529 0.206424
0.754879 0.658717 0.210025
0.777523 0.651148 0.213504
0.799344 0.643671 0.216983
0.820523 0.636439 0.220066
0.841093 0.629419 0.223117
0.861265 0.622766 0.226444
0.881132 0.616571 0.229862
0.900786 0.610864 0.233494
0.920195 0.605524 0.237400
0.939269 0.600549 0.241642
0.202670 0.711055 0.202762
0.206912 0.712062 0.203128
0.212406 0.713100 0.203433
0.223575 0.713802 0.203677
0.239811 0.714076 0.204013
0.259556 0.713802 0.204074
0.282139 0.713161 0.204105
0.306859 0.712337 0.204135
0.333471 0.711482 0.204257
0.361364 0.710628 0.204440
0.390173 0.709773 0.204623
0.419867 0.708827 0.204959
0.449928 0.707698 0.205203
0.480323 0.706416 0.205478
0.510826 0.704952 0.205753
0.541436 0.703365 0.206119
0.572168 0.701747 0.206607
0.602991 0.700130 0.207095
0.633875 0.698634 0.207675
0.664851 0.697230 0.208621
0.695888 0.695949 0.209659
0.726955 0.694667 0.210880
0.755550 0.691341 0.213077
0.778592 0.683680 0.217197
0.800839 0.676112 0.221286
0.822202 0.668635 0.225040
0.842924 0.661250 0.228641
0.863096 0.654261 0.232425
0.882963 0.647700 0.236271
0.902495 0.641535 0.240360
0.921721 0.635798 0.244846
0.940612 0.630426 0.249546
0.207340 0.736202 0.207401
0.211154 0.736660 0.207645
0.216312 0.736934 0.207797
0.226627 0.737026 0.207889
0.242008 0.736812 0.208103
0.260807 0.736324 0.208164
0.282506 0.735683 0.208255
0.306462 0.735012 0.208347
0.332280 0.734340 0.208469
0.359533 0.733700 0.208804
0.387732 0.733089 0.209262
0.416846 0.732265 0.209720
0.446265 0.731258 0.210056
0.475990 0.730037 0.210391
0.505852 0.728603 0.210758
0.536004 0.727016 0.211185
0.566094 0.725368 0.211673
0.596277 0.723751 0.212161
0.626551 0.722133 0.212772
0.656886 0.720546 0.213626
0.687190 0.718959 0.214572
0.717372 0.717433 0.215702
0.747494 0.715846 0.217014
0.775662 0.712673 0.218875
0.797879 0.704677 0.222995
0.819394 0.696895 0.226932
0.840299 0.689387 0.230747
0.860685 0.682185 0.234684
0.880705 0.675349 0.238834
0.900389 0.668910 0.243015
0.919738 0.662898 0.247501
0.938659 0.657160 0.252140
0.211368 0.756527 0.211307
0.215000 0.756924 0.211551
0.219608 0.757290 0.211795
0.229618 0.757382 0.211948
0.244175 0.757198 0.212100
0.262089 0.756680 0.212100
0.282750 0.756039 0.212222
0.305638 0.755276 0.212192
0.330571 0.754543 0.212406
0.356847 0.753872 0.212711
0.384314 0.753170 0.213046
0.412512 0.752407 0.213535
0.441138 0.751461 0.213931
0.470253 0.750362 0.214511
0.499580 0.749111 0.214786
0.529107 0.747738 0.215396
0.558770 0.746334 0.215885
0.588556 0.744930 0.216678
0.618463 0.743526 0.217502
0.648402 0.742214 0.218601
0.678431 0.740902 0.219699
0.708370 0.739620 0.221103
0.738277 0.738338 0.222629
0.768063 0.736995 0.224094
0.793912 0.732082 0.224033
0.815549 0.724117 0.227848
0.836698 0.716426 0.232059
0.857298 0.709071 0.236027
0.877531 0.702052 0.240116
0.897429 0.695430 0.244541
0.917082 0.689296 0.249241
0.936156 0.683314 0.253971
0.217838 0.779812 0.217838
0.221378 0.780270 0.218235
0.225803 0.780514 0.218418
0.234989 0.780423 0.218570
0.248631 0.780026 0.218509
0.265476 0.779385 0.218418
0.285130 0.778500 0.218326
0.307042 0.777493 0.218173
0.330846 0.776425 0.218082
0.356054 0.775387 0.218173
0.382330 0.774289 0.218265
0.409522 0.773220 0.218448
0.437232 0.772030 0.218814
0.465492 0.770657 0.218967
0.493812 0.769100 0.219272
0.522393 0.767391 0.219364
0.551110 0.765652 0.219791
0.580133 0.764065 0.220310
0.609369 0.762692 0.221012
0.638880 0.761532 0.222141
0.668482 0.760464 0.223514
0.698054 0.759365 0.224918
0.727413 0.758114 0.226535
0.756588 0.756588 0.228092
0.785367 0.754910 0.229404
0.813382 0.752621 0.230777
0.834440 0.744533 0.234836
0.854978 0.736721 0.238743
0.875151 0.729366 0.242832
0.895140 0.722469 0.247196
0.914794 0.715999 0.251865
0.933928 0.709712 0.256535
0.222293 0.798642 0.222324
0.225620 0.799069 0.222812
0.230076 0.799283 0.222965
0.238743 0.799191 0.223148
0.251438 0.798856 0.223087
0.267582 0.798245 0.223087
0.286412 0.797543 0.222995
0.307439 0.796689 0.222904
0.330388 0.795834 0.223056
0.354925 0.795010 0.223209
0.380438 0.794156 0.223453
0.407019 0.793271 0.223880
0.434150 0.792294 0.224308
0.461738 0.791165 0.224643
0.489570 0.789853 0.224979
0.517662 0.788418 0.225254
0.545983 0.786893 0.225834
0.574487 0.785458 0.226444
0.603296 0.784146 0.227359
0.632288 0.783047 0.228519
0.661402 0.781979 0.229953
0.690486 0.780911 0.231571
0.719478 0.779690 0.233127
0.748226 0.778347 0.234745
0.776761 0.776822 0.236301
0.805020 0.775113 0.237919
0.833097 0.773373 0.239445
0.853941 0.765530 0.243656
0.874266 0.757931 0.248112
0.894347 0.750820 0.252689
0.913848 0.743923 0.257389
0.933013 0.737362 0.262181
0.228214 0.818143 0.228275
0.231449 0.818448 0.228611
0.235386 0.818479 0.228763
0.243412 0.818265 0.228824
0.255253 0.817807 0.228641
0.270390 0.817136 0.228428
0.288151 0.816373 0.228214
0.308354 0.815518 0.228153
0.330419 0.814694 0.228153
0.354009 0.813931 0.228336
0.378851 0.813107 0.228672
0.404578 0.812375 0.229099
0.431067 0.811551 0.229618
0.458106 0.810544 0.230137
0.485298 0.809354 0.230503
0.512779 0.807980 0.230808
0.540490 0.806546 0.231235
0.568444 0.805142 0.231907
0.596643 0.803922 0.232700
0.625086 0.802792 0.233921
0.653681 0.801785 0.235294
0.682307 0.800748 0.237034
0.710842 0.799588 0.238773
0.739223 0.798367 0.240513
0.767391 0.796963 0.242161
0.795346 0.795438 0.243717
0.823148 0.793820 0.245548
0.850828 0.792172 0.247318
0.872038 0.785092 0.251560
0.892027 0.777584 0.256046
0.911589 0.770413 0.260472
0.930785 0.763546 0.265263
0.233616 0.836240 0.233677
0.236545 0.836393 0.233921
0.240269 0.836423 0.234073
0.247807 0.836271 0.234073
0.259159 0.835996 0.234043
0.273716 0.835691 0.234165
0.291173 0.835477 0.234531
0.311009 0.835325 0.235203
0.332921 0.835233 0.236057
0.356176 0.835203 0.236942
0.380743 0.835142 0.238193
0.406256 0.835019 0.239414
0.432410 0.834714 0.240574
0.459052 0.834165 0.241611
0.486000 0.833341 0.242618
0.512932 0.832212 0.243198
0.540185 0.830961 0.243839
0.567651 0.829648 0.244572
0.595392 0.828458 0.245762
0.623285 0.827359 0.247044
0.651362 0.826291 0.248661
0.679469 0.825223 0.250370
0.707546 0.824063 0.252232
0.735470 0.822812 0.254002
0.763241 0.821408 0.255863
0.790860 0.819913 0.257786
0.818357 0.818387 0.259678
0.845701 0.816831 0.261784
0.872801 0.815183 0.263859
0.893889 0.808377 0.267796
0.913146 0.800656 0.272587
0.931914 0.793179 0.277287
0.244602 0.858030 0.244602
0.247166 0.858091 0.244694
0.250462 0.858030 0.244877
0.257267 0.857786 0.244602
0.267735 0.857389 0.244450
0.281254 0.856901 0.244480
0.297368 0.856443 0.244450
0.315862 0.855985 0.244572
0.336370 0.855528 0.244999
0.358465 0.855070 0.245609
0.381750 0.854582 0.246189
0.406043 0.854063 0.247013
0.431067 0.853452 0.247715
0.456733 0.852659 0.248447
0.482765 0.851743 0.249119
0.509117 0.850645 0.249882
