其他预设/【232】美食博客调色预设124款/1.3D LUT预设（视频调色-PR-AE-PS-FCPX-达芬奇用）/Food Art #6 ().cube
# Created by Adobe Lightroom plugin Export LUT (1.17.0)
# www.johnrellis.com/lightroom/exportlut.htm
# Preset: Food Art #6 (素锦印象)
# Color profile: /Library/Application Support/Adobe/Color/Profiles/Recommended/AdobeRGB1998.icc
LUT_3D_SIZE 5
DOMAIN_MIN 0.000000 0.000000 0.000000
DOMAIN_MAX 0.903226 0.903226 0.903226
0.000000 0.000000 0.000000
0.524895 0.000000 0.000000
0.912474 0.000000 0.000000
1.000000 0.060212 0.154604
1.000000 0.258854 0.285222
0.000000 0.506340 0.000000
0.499641 0.492470 0.000000
0.889342 0.412848 0.000000
1.000000 0.354589 0.189151
1.000000 0.376226 0.310765
0.000000 0.856657 0.060670
0.425788 0.844663 0.081727
0.828305 0.816129 0.148592
1.000000 0.676936 0.272709
1.000000 0.596521 0.366064
0.321141 0.976928 0.324102
0.438453 0.971771 0.330785
0.685054 0.954253 0.350652
0.940490 0.928618 0.389685
1.000000 0.824063 0.469947
0.501488 1.000000 0.499153
0.544488 1.000000 0.502861
0.664881 1.000000 0.509972
0.832975 1.000000 0.550713
0.994232 0.984955 0.603571
0.000000 0.000000 0.542260
0.503563 0.000000 0.532799
0.877379 0.123079 0.480568
1.000000 0.389563 0.508782
1.000000 0.472419 0.533196
0.000000 0.486854 0.524071
0.483284 0.472419 0.515801
0.856626 0.465339 0.502190
0.999329 0.487282 0.512016
1.000000 0.526970 0.541192
0.161410 0.842008 0.465400
0.482918 0.826078 0.504021
0.811673 0.800107 0.502647
0.976104 0.709957 0.530449
1.000000 0.674617 0.571344
0.428107 0.966186 0.517174
0.554253 0.957305 0.562737
0.729274 0.944213 0.570550
0.935760 0.925719 0.588800
1.000000 0.850431 0.630671
0.618494 1.000000 0.645289
0.646632 1.000000 0.647364
0.737453 1.000000 0.659541
0.863554 0.995666 0.683619
0.992248 0.984894 0.718624
0.000000 0.000000 0.880125
0.401282 0.000000 0.872221
0.810697 0.176181 0.851102
0.977508 0.437415 0.747738
1.000000 0.623316 0.748074
0.224002 0.440162 0.862150
0.464179 0.457832 0.855192
0.803006 0.485695 0.839170
0.961364 0.584405 0.768154
1.000000 0.697444 0.777646
0.294835 0.784726 0.830991
0.520775 0.784146 0.825925
0.795071 0.787930 0.817044
0.933043 0.798123 0.815091
1.000000 0.814389 0.822812
0.490761 0.952728 0.750362
0.611902 0.942443 0.770352
0.807980 0.926085 0.818631
0.929229 0.923369 0.828336
0.998199 0.901366 0.840085
0.660456 1.000000 0.762142
0.725368 1.000000 0.790738
0.844694 0.991608 0.847471
0.913237 0.988403 0.857359
0.989258 0.985260 0.872801
0.115602 0.138949 0.979583
0.349981 0.200198 0.975647
0.652735 0.323278 0.963928
0.913359 0.467201 0.948486
1.000000 0.633845 0.879850
0.370764 0.453925 0.966186
0.471717 0.469734 0.963043
0.694179 0.522271 0.953552
0.911559 0.596643 0.941894
1.000000 0.699825 0.888182
0.528099 0.711177 0.945495
0.630518 0.739956 0.940764
0.783993 0.780331 0.933715
0.910307 0.791165 0.929808
0.991516 0.831357 0.910399
0.606073 0.901366 0.934447
0.680385 0.903838 0.933165
0.821256 0.912444 0.932738
0.927489 0.924651 0.936370
0.985595 0.939635 0.944305
0.725704 1.000000 0.902800
0.770474 0.998840 0.909728
0.867704 0.991089 0.927947
0.949737 0.986725 0.952148
0.989654 0.988128 0.959869
0.229435 0.239963 1.000000
0.342962 0.272526 1.000000
0.565240 0.366979 1.000000
0.784329 0.494942 0.996002
0.963012 0.622431 0.988281
0.394232 0.443915 1.000000
0.459174 0.460151 1.000000
0.624994 0.516106 0.998413
0.804501 0.591913 0.990814
0.963256 0.682856 0.985626
0.640650 0.723201 0.987091
0.686458 0.742947 0.984924
0.752346 0.750912 0.983246
0.854734 0.772641 0.980957
0.967590 0.818418 0.982025
0.688594 0.841825 0.981445
0.728450 0.852384 0.980224
0.827207 0.882994 0.978302
0.914122 0.912902 0.979461
0.979767 0.938506 0.985382
0.777707 0.963714 0.983093
0.805753 0.965667 0.983154
0.882261 0.972778 0.984558
0.952636 0.981964 0.987610
0.990387 0.989929 0.991577
