其他预设/【232】美食博客调色预设124款/1.3D LUT预设（视频调色-PR-AE-PS-FCPX-达芬奇用）/Food Art #50.cube
# Created by Adobe Lightroom plugin Export LUT (1.17.0)
# www.johnrellis.com/lightroom/exportlut.htm
# Preset: Food Art #50
# Color profile: /Library/Application Support/Adobe/Color/Profiles/Recommended/AdobeRGB1998.icc
LUT_3D_SIZE 32
0.000000 0.000000 0.000000
0.039277 0.000519 0.001099
0.070466 0.000000 0.000916
0.103090 0.000000 0.000885
0.143496 0.000000 0.000397
0.185824 0.000000 0.000000
0.229282 0.000000 0.000000
0.272740 0.000000 0.000000
0.316197 0.000000 0.000000
0.358862 0.000000 0.000000
0.401099 0.000000 0.000000
0.442390 0.000000 0.000000
0.482277 0.000000 0.000000
0.520623 0.000000 0.000000
0.557153 0.000000 0.000000
0.592004 0.000000 0.000000
0.625147 0.015625 0.000000
0.655848 0.059327 0.000000
0.683894 0.077455 0.000000
0.713069 0.097108 0.000000
0.740810 0.113802 0.000000
0.768063 0.130251 0.029053
0.794827 0.145815 0.064912
0.821317 0.160647 0.083558
0.847807 0.175174 0.100404
0.874449 0.189731 0.116915
0.901457 0.204685 0.133761
0.928862 0.220584 0.151553
0.956756 0.236698 0.170260
0.984955 0.254520 0.190768
1.000000 0.273686 0.213809
1.000000 0.294926 0.239139
0.005402 0.033082 0.000397
0.043549 0.033814 0.000427
0.071321 0.033295 0.001251
0.103883 0.035126 0.001099
0.144381 0.035279 0.000397
0.186313 0.032929 0.000000
0.229648 0.026886 0.000000
0.272831 0.017975 0.000000
0.315862 0.007263 0.000000
0.358373 0.000000 0.000000
0.400519 0.000000 0.000000
0.441657 0.000000 0.000000
0.481422 0.000000 0.000000
0.519646 0.000000 0.000000
0.556115 0.008515 0.000000
0.590845 0.038209 0.000000
0.623957 0.062287 0.000000
0.654780 0.077028 0.000000
0.682765 0.091981 0.000000
0.711818 0.106935 0.000000
0.739284 0.122957 0.000000
0.766323 0.137209 0.028840
0.793057 0.151156 0.064210
0.819516 0.165072 0.082856
0.846006 0.179385 0.099123
0.872679 0.193484 0.116091
0.899809 0.207858 0.132570
0.927276 0.223178 0.150698
0.955261 0.239322 0.169345
0.983612 0.256596 0.190097
1.000000 0.275486 0.212436
1.000000 0.296452 0.238010
0.009339 0.064424 0.000000
0.049378 0.064546 0.000000
0.073426 0.064332 0.001862
0.105806 0.065766 0.000397
0.145754 0.067445 0.000397
0.187381 0.068696 0.000000
0.230320 0.067475 0.000000
0.272953 0.065553 0.000000
0.315770 0.062928 0.000000
0.358251 0.058747 0.000000
0.400244 0.052796 0.000000
0.441230 0.051484 0.000000
0.480934 0.050416 0.000000
0.519219 0.059358 0.000000
0.555596 0.067475 0.000000
0.590295 0.076387 0.000000
0.623316 0.085939 0.000000
0.654017 0.097078 0.000000
0.682155 0.107485 0.000000
0.711147 0.120760 0.000000
0.738491 0.133761 0.000000
0.765469 0.146731 0.030121
0.792142 0.159792 0.064302
0.818601 0.172702 0.082399
0.845060 0.185855 0.099062
0.871794 0.199191 0.115663
0.898863 0.213138 0.132753
0.926452 0.228000 0.150546
0.954528 0.243351 0.169253
0.982879 0.260410 0.190005
1.000000 0.278874 0.212558
1.000000 0.299413 0.237797
0.024628 0.095949 0.000000
0.059663 0.096284 0.000397
0.080110 0.096468 0.000946
0.110689 0.097536 0.000458
0.148989 0.100526 0.000000
0.190280 0.102663 0.000000
0.232303 0.103334 0.000000
0.274601 0.103182 0.000000
0.316930 0.102388 0.000000
0.359014 0.101015 0.000000
0.400549 0.100862 0.000000
0.441382 0.101381 0.000000
0.480934 0.102480 0.000000
0.518822 0.105409 0.000000
0.555169 0.109346 0.000000
0.589746 0.114961 0.000000
0.622644 0.120790 0.000000
0.653315 0.127626 0.000000
0.681788 0.135683 0.000000
0.710231 0.145296 0.000000
0.737240 0.155367 0.000000
0.763973 0.165713 0.030091
0.790616 0.176944 0.064851
0.817227 0.188113 0.083101
0.843992 0.200076 0.100069
0.871061 0.212161 0.116823
0.898436 0.225040 0.134188
0.926177 0.239048 0.152041
0.954284 0.253788 0.170932
0.982605 0.269780 0.191073
1.000000 0.287236 0.213748
1.000000 0.306767 0.238621
0.040192 0.134554 0.000000
0.068177 0.134798 0.000000
0.087739 0.135164 0.000000
0.118471 0.135897 0.000000
0.154299 0.137087 0.000000
0.193973 0.139376 0.000000
0.235019 0.140932 0.000000
0.276707 0.142092 0.000000
0.318273 0.142092 0.000000
0.359716 0.142977 0.000000
0.400916 0.143526 0.000000
0.441444 0.144350 0.000000
0.480598 0.146181 0.000000
0.518364 0.148714 0.000000
0.554589 0.151614 0.000000
0.589227 0.155001 0.000000
0.622217 0.159243 0.000000
0.652888 0.164218 0.000000
0.682033 0.169406 0.000000
0.710048 0.176181 0.000000
0.736629 0.183902 0.000000
0.763241 0.191958 0.035706
0.789731 0.200717 0.067567
0.816312 0.210330 0.085542
0.843076 0.220188 0.102388
0.870237 0.230808 0.119203
0.897642 0.242588 0.136355
0.925414 0.254978 0.153414
0.953491 0.268620 0.172641
0.981811 0.283482 0.193027
1.000000 0.299931 0.215579
1.000000 0.318395 0.240574
0.052277 0.175814 0.000000
0.073762 0.176211 0.000000
0.093294 0.176364 0.000000
0.124971 0.177035 0.000000
0.161105 0.178012 0.000000
0.199496 0.179110 0.000000
0.239628 0.180606 0.000000
0.280369 0.181918 0.000000
0.320958 0.182803 0.000000
0.361791 0.183780 0.000000
0.402594 0.185397 0.000000
0.442573 0.186557 0.000000
0.481270 0.188449 0.000000
0.518944 0.190219 0.000000
0.554925 0.192752 0.000000
0.589380 0.195377 0.000000
0.622339 0.198611 0.000000
0.652827 0.201541 0.000000
0.682551 0.205783 0.000000
0.710201 0.210452 0.000000
0.736782 0.216007 0.003082
0.763333 0.222019 0.048829
0.800534 0.235660 0.082094
0.827054 0.243748 0.099306
0.853513 0.252354 0.115785
0.880125 0.261509 0.131838
0.906859 0.271519 0.148470
0.933898 0.282567 0.166476
0.961242 0.294560 0.184573
0.988769 0.308202 0.205264
1.000000 0.323400 0.227543
1.000000 0.340520 0.252293
0.056519 0.220768 0.000000
0.077729 0.220859 0.000000
0.097719 0.221317 0.000000
0.130526 0.221592 0.000000
0.167971 0.222629 0.000000
0.207126 0.223239 0.000000
0.247288 0.224430 0.000000
0.287297 0.225376 0.000000
0.327703 0.226261 0.000000
0.368048 0.227512 0.000000
0.408057 0.229129 0.000000
0.447700 0.230716 0.000000
0.485939 0.232181 0.000000
0.522972 0.233860 0.000000
0.558465 0.235142 0.000000
0.592309 0.237034 0.000000
0.624689 0.238956 0.000000
0.656062 0.241398 0.000000
0.685512 0.244450 0.000000
0.713252 0.247654 0.000000
0.740291 0.252415 0.022461
0.767819 0.257298 0.063661
0.795468 0.263828 0.082460
0.823087 0.270756 0.100832
0.850645 0.278264 0.117983
0.877897 0.286473 0.134646
0.905028 0.295445 0.151705
0.932219 0.305119 0.169375
0.959686 0.315770 0.188083
0.987182 0.328161 0.208408
1.000000 0.341802 0.230381
1.000000 0.357641 0.255161
0.061769 0.263890 0.000000
0.081727 0.263859 0.000000
0.101656 0.264164 0.000000
0.134279 0.264347 0.000000
0.172061 0.264897 0.000000
0.211124 0.265599 0.000000
0.251133 0.266392 0.000000
0.291234 0.267674 0.000000
0.331151 0.268711 0.000000
0.371130 0.269780 0.000000
0.410376 0.271122 0.000000
0.449104 0.272557 0.000000
0.486854 0.274022 0.000000
0.523461 0.275273 0.000000
0.558618 0.276219 0.000000
0.592187 0.277317 0.000000
0.625086 0.278691 0.000000
0.656580 0.280583 0.000000
0.685328 0.282292 0.000000
0.712551 0.284062 0.000000
0.739284 0.286992 0.037598
0.766476 0.290867 0.069123
0.793912 0.295628 0.087861
0.821408 0.301122 0.105806
0.848844 0.307317 0.122316
0.876097 0.314214 0.139101
0.903258 0.321691 0.155428
0.930541 0.330114 0.173190
0.958068 0.339727 0.191714
0.985657 0.350652 0.211856
1.000000 0.363226 0.234073
1.000000 0.377722 0.258946
0.068513 0.307378 0.000000
0.087861 0.307256 0.000000
0.107301 0.307469 0.000000
0.139040 0.307774 0.000000
0.176394 0.308232 0.000000
0.215030 0.308629 0.000000
0.254765 0.309422 0.000000
0.294621 0.310399 0.000000
0.334722 0.311803 0.000000
0.374426 0.313329 0.000000
0.413519 0.314427 0.000000
0.451575 0.315282 0.000000
0.488777 0.316320 0.000000
0.524743 0.317113 0.000000
0.559411 0.317784 0.000000
0.593256 0.318608 0.000000
0.626673 0.319951 0.000000
0.657343 0.320378 0.000000
0.685359 0.320562 0.000000
0.712184 0.321263 0.009064
0.738674 0.322942 0.055940
0.765682 0.325383 0.077363
0.792905 0.329015 0.095247
0.820249 0.333288 0.112032
0.847593 0.338476 0.128450
0.874784 0.343877 0.144900
0.901976 0.350256 0.161288
0.929229 0.357549 0.178439
0.956756 0.365972 0.196750
0.984344 0.375525 0.216922
1.000000 0.386847 0.238895
1.000000 0.400031 0.263951
0.079103 0.351080 0.000000
0.094820 0.351110 0.000000
0.112398 0.351202 0.000000
0.144289 0.351324 0.000000
0.180667 0.351629 0.000000
0.219059 0.352148 0.000000
0.258122 0.352544 0.000000
0.297765 0.353307 0.000000
0.337194 0.354681 0.000000
0.376898 0.356085 0.000000
0.416144 0.357733 0.000000
0.453956 0.358373 0.000000
0.490700 0.358740 0.000000
0.526177 0.359167 0.000000
0.561425 0.359930 0.000000
0.595789 0.360876 0.000000
0.628473 0.361242 0.000000
0.658473 0.360723 0.000000
0.686061 0.359899 0.000000
0.712459 0.359228 0.034302
0.738552 0.359594 0.067872
0.765072 0.360967 0.086122
0.791836 0.363165 0.102296
0.818662 0.366064 0.118929
0.845701 0.369909 0.134493
0.872831 0.374395 0.150423
0.900084 0.379889 0.166903
0.927550 0.385992 0.184115
0.955261 0.393530 0.203067
0.983093 0.402258 0.223087
1.000000 0.412543 0.245151
1.000000 0.424598 0.270054
0.088777 0.393957 0.000000
0.102968 0.394202 0.000000
0.120119 0.394232 0.000000
0.149874 0.394385 0.000000
0.185306 0.394476 0.000000
0.222904 0.395087 0.000000
0.261692 0.395636 0.000000
0.300664 0.396460 0.000000
0.339696 0.397436 0.000000
0.378943 0.398840 0.000000
0.417914 0.400397 0.000000
0.456428 0.401953 0.000000
0.493233 0.402441 0.000000
0.529625 0.402960 0.000000
0.564385 0.403143 0.000000
0.597742 0.402960 0.000000
0.629389 0.402167 0.000000
0.658656 0.400519 0.000000
0.685817 0.398596 0.014923
0.711879 0.396857 0.058717
0.737881 0.396216 0.078553
0.764248 0.396521 0.095186
0.790921 0.397833 0.111788
0.817746 0.399969 0.126772
0.844663 0.402808 0.142641
0.871702 0.406348 0.158206
0.898863 0.410712 0.174472
0.926268 0.415991 0.191501
0.953948 0.422370 0.209995
0.981689 0.430091 0.230076
1.000000 0.439338 0.252354
1.000000 0.450294 0.277317
0.100404 0.436988 0.000000
0.113741 0.437049 0.000000
0.129458 0.437079 0.000000
0.156466 0.437140 0.000000
0.190829 0.437324 0.000000
0.227054 0.437690 0.000000
0.265171 0.438300 0.000000
0.303349 0.439033 0.000000
0.342107 0.439887 0.000000
0.380682 0.441138 0.000000
0.419165 0.442634 0.000000
0.458808 0.445594 0.000000
0.505028 0.455940 0.000000
0.541253 0.455665 0.000000
0.575921 0.454505 0.000000
0.608759 0.452888 0.000000
0.639124 0.450355 0.000000
0.667170 0.447089 0.012818
0.693141 0.443427 0.061921
0.718593 0.440467 0.081331
0.744167 0.438514 0.097230
0.770047 0.437659 0.113069
0.796048 0.437537 0.127718
0.822354 0.438422 0.142245
0.848783 0.440162 0.156832
0.875395 0.442664 0.172244
0.902098 0.445930 0.188327
0.929046 0.450141 0.204776
0.956268 0.455421 0.222599
0.983612 0.461952 0.242374
1.000000 0.470039 0.264744
1.000000 0.479744 0.289158
0.114107 0.481941 0.000000
0.124819 0.481971 0.000000
0.139376 0.481849 0.000000
0.164401 0.481697 0.000000
0.197116 0.481575 0.000000
0.232425 0.481575 0.000000
0.269200 0.481727 0.000000
0.306676 0.482124 0.000000
0.344884 0.482887 0.000000
0.384009 0.485420 0.000000
0.423377 0.488380 0.000000
0.463020 0.491646 0.000000
0.502495 0.495033 0.000000
0.541924 0.498177 0.000000
0.576532 0.496895 0.000000
0.609186 0.494545 0.000000
0.639216 0.490822 0.000000
0.666590 0.486213 0.034668
0.692226 0.481605 0.071626
0.717250 0.477577 0.092287
0.742550 0.474861 0.108827
0.768338 0.473152 0.123140
0.794247 0.472297 0.137850
0.820371 0.472297 0.151827
0.846799 0.473243 0.165774
0.873320 0.474891 0.180819
0.900053 0.477455 0.196292
0.927031 0.480842 0.212924
0.954314 0.485328 0.230594
0.981720 0.491066 0.250645
1.000000 0.498268 0.272557
1.000000 0.507134 0.297642
0.126192 0.521965 0.000000
0.137331 0.521904 0.000000
0.149477 0.521782 0.000000
0.172427 0.521752 0.000000
0.203281 0.521386 0.000000
0.237125 0.521782 0.000000
0.272984 0.522576 0.000000
0.309972 0.523491 0.000000
0.347631 0.524834 0.000000
0.385687 0.526604 0.000000
0.423743 0.528801 0.000000
0.462257 0.531365 0.000000
0.500633 0.533898 0.000000
0.538872 0.536309 0.000000
0.576623 0.538628 0.000000
0.609247 0.535698 0.000000
0.638758 0.530816 0.000000
0.665888 0.525170 0.050111
0.691218 0.519310 0.081575
0.716060 0.514519 0.101534
0.741329 0.510948 0.118471
0.766842 0.508659 0.134005
0.792630 0.507164 0.148928
0.818784 0.506523 0.162692
0.845212 0.506737 0.176059
0.871763 0.507713 0.190982
0.898528 0.509483 0.206088
0.925505 0.512261 0.222690
0.952789 0.516106 0.240543
0.980194 0.521080 0.260288
1.000000 0.527581 0.282628
1.000000 0.535485 0.307347
0.141451 0.562707 0.000000
0.150240 0.562799 0.000000
0.160922 0.562676 0.000000
0.182773 0.562707 0.000000
0.211185 0.562615 0.000000
0.243412 0.562615 0.000000
0.277653 0.562860 0.000000
0.313115 0.563287 0.000000
0.349401 0.564111 0.000000
0.386297 0.565393 0.000000
0.423529 0.567071 0.000000
0.460822 0.569146 0.000000
0.498238 0.571099 0.000000
0.535363 0.572992 0.000000
0.572137 0.574487 0.000000
0.608270 0.575616 0.000000
0.638361 0.570703 0.044038
0.665156 0.563867 0.071260
0.690455 0.557092 0.089845
0.715145 0.551202 0.109804
0.740169 0.546899 0.127474
0.765591 0.543755 0.143404
0.791226 0.541619 0.158419
0.817197 0.540459 0.173251
0.843595 0.540185 0.187747
0.870237 0.540734 0.201938
0.897215 0.542016 0.217380
0.924468 0.544457 0.234257
0.952056 0.547784 0.252262
0.979675 0.552483 0.272587
1.000000 0.558282 0.294957
1.000000 0.565637 0.320439
0.156527 0.601556 0.000000
0.164858 0.601556 0.000000
0.173953 0.601617 0.000000
0.193393 0.601526 0.000000
0.219913 0.601404 0.000000
0.250034 0.601404 0.000000
0.282689 0.601556 0.000000
0.316747 0.601892 0.000000
0.351934 0.602380 0.000000
0.387457 0.603052 0.000000
0.423316 0.603937 0.000000
0.459266 0.604883 0.000000
0.495094 0.605737 0.000000
0.530602 0.606531 0.000000
0.565972 0.607202 0.025849
0.601038 0.607568 0.058412
0.635554 0.607782 0.072724
0.664057 0.601984 0.088777
0.689357 0.594415 0.105318
0.714504 0.587976 0.120150
0.739681 0.583032 0.136812
0.765103 0.579309 0.153567
0.790799 0.576623 0.169192
0.816800 0.574945 0.184115
0.843076 0.574304 0.199710
0.869718 0.574456 0.215213
0.896757 0.575219 0.230411
0.924041 0.577111 0.246647
0.951568 0.579950 0.265232
0.979065 0.583825 0.285252
1.000000 0.588891 0.307713
1.000000 0.595300 0.332982
0.172427 0.635645 0.000000
0.179294 0.635554 0.000000
0.187259 0.635523 0.000000
0.204623 0.635401 0.000000
0.228855 0.635157 0.000000
0.256565 0.635035 0.000000
0.287205 0.634882 0.000000
0.319585 0.634913 0.000000
0.353002 0.635035 0.000000
0.387121 0.635309 0.000000
0.421759 0.635706 0.000000
0.456336 0.636255 0.009674
0.490852 0.636774 0.038239
0.525231 0.637171 0.061830
0.559472 0.637263 0.075563
0.593194 0.637232 0.086915
0.626795 0.636988 0.097658
0.660212 0.636774 0.107820
0.688075 0.631220 0.121004
0.713161 0.624109 0.134707
0.738521 0.618402 0.147860
0.763973 0.613886 0.162600
0.789578 0.610681 0.178531
0.815579 0.608423 0.194186
0.841886 0.607294 0.209751
0.868498 0.606958 0.225834
0.895476 0.607568 0.242405
0.922820 0.609125 0.260044
0.950408 0.611505 0.278111
0.977966 0.614893 0.298497
1.000000 0.619348 0.320867
1.000000 0.625055 0.346258
0.188663 0.666407 0.000000
0.194949 0.666499 0.000000
0.205997 0.672663 0.004700
0.221042 0.672450 0.006470
0.242679 0.672114 0.010498
0.267857 0.671687 0.018219
0.296208 0.671229 0.030060
0.326513 0.670680 0.041962
0.358068 0.670466 0.056092
0.390600 0.670253 0.065705
0.423590 0.670222 0.072877
0.456764 0.670100 0.081300
0.489906 0.670008 0.090181
0.523125 0.669795 0.099428
0.556146 0.669398 0.107698
0.588952 0.668879 0.116426
0.621668 0.668391 0.124636
0.654078 0.667811 0.134066
0.686549 0.667262 0.142580
0.714687 0.662654 0.153475
0.739773 0.656123 0.165286
0.765225 0.650843 0.177890
0.790829 0.646632 0.190860
0.816495 0.643641 0.207340
0.842374 0.641566 0.222995
0.868559 0.640436 0.238834
0.895079 0.640162 0.255039
0.921996 0.640986 0.272801
0.949310 0.642847 0.291661
0.976806 0.645655 0.311803
1.000000 0.649592 0.334691
1.000000 0.654505 0.359747
0.206973 0.696132 0.066316
0.212100 0.696864 0.068666
0.219028 0.697597 0.070497
0.232822 0.698146 0.073365
0.252232 0.698360 0.076570
0.275700 0.698238 0.079286
0.301976 0.697932 0.082399
0.330144 0.697505 0.087282
0.359869 0.697261 0.091951
0.390631 0.696956 0.096620
0.422248 0.696803 0.103029
0.454047 0.696681 0.109224
0.485969 0.696529 0.116670
0.518151 0.696254 0.122560
0.550164 0.695949 0.130159
0.582116 0.695491 0.137392
0.613977 0.695003 0.145174
0.645716 0.694453 0.153017
0.677577 0.694057 0.161410
0.709438 0.693751 0.170047
0.738216 0.690364 0.180026
0.763699 0.684779 0.192050
0.789456 0.680232 0.204349
0.815457 0.676692 0.217380
0.841459 0.674098 0.233463
0.867643 0.672572 0.249943
0.894194 0.671962 0.266941
0.921141 0.672297 0.284794
0.948394 0.673762 0.304326
0.975738 0.676204 0.325689
1.000000 0.679713 0.349035
1.000000 0.683986 0.374273
0.222751 0.722652 0.100526
0.227573 0.723262 0.101595
0.233738 0.723934 0.103670
0.245884 0.724483 0.105562
0.263401 0.724788 0.107210
0.284703 0.724666 0.109804
0.308904 0.724392 0.112245
0.335210 0.724025 0.115328
0.363104 0.723781 0.119417
0.392248 0.723537 0.123354
0.422278 0.723476 0.128328
0.452857 0.723384 0.133944
0.483742 0.723201 0.139712
0.514763 0.722988 0.146029
0.545892 0.722652 0.152590
0.576928 0.722255 0.159152
0.608087 0.721798 0.165988
0.639185 0.721370 0.173037
0.670436 0.720912 0.180941
0.701778 0.720699 0.188968
0.733181 0.720607 0.197299
0.762448 0.718379 0.207523
0.788296 0.713497 0.219730
0.814298 0.709621 0.232334
0.840543 0.706600 0.245609
0.866819 0.704433 0.261051
0.893278 0.703304 0.278538
0.920134 0.703212 0.297063
0.947326 0.704189 0.316655
0.974548 0.706111 0.338476
1.000000 0.709041 0.362249
1.000000 0.712856 0.388464
0.238834 0.749111 0.128237
0.242924 0.749783 0.129915
0.248631 0.750393 0.130770
0.259373 0.750912 0.132265
0.275242 0.751125 0.134096
0.294560 0.751064 0.135775
0.316777 0.750790 0.138582
0.341192 0.750515 0.141054
0.367559 0.750240 0.144076
0.395087 0.750027 0.148104
0.423621 0.749905 0.152132
0.452888 0.749783 0.157443
0.482643 0.749599 0.162478
0.512688 0.749416 0.168124
0.542962 0.749233 0.174105
0.573327 0.748989 0.180728
0.603967 0.748867 0.187503
0.634699 0.748806 0.194644
0.665644 0.748867 0.202396
0.696681 0.749020 0.210544
0.728054 0.749325 0.219425
0.759579 0.749660 0.228489
0.789425 0.748470 0.238621
0.815793 0.744472 0.251469
0.842222 0.741268 0.264866
0.868772 0.738827 0.279057
0.895445 0.737209 0.295323
0.922271 0.736690 0.314549
0.949248 0.737148 0.335027
0.976226 0.738552 0.356909
1.000000 0.740749 0.381140
1.000000 0.743862 0.407996
0.257145 0.778256 0.157839
0.260807 0.778561 0.158206
0.265171 0.778744 0.158877
0.274693 0.778927 0.160128
0.288609 0.778836 0.161227
0.306249 0.778683 0.162814
0.326696 0.778408 0.164889
0.349401 0.778195 0.167575
0.374060 0.778042 0.170321
0.400305 0.777951 0.174136
0.427588 0.777981 0.178531
0.455787 0.777981 0.182620
0.484474 0.777890 0.187686
0.513390 0.777676 0.192691
0.542687 0.777462 0.198520
0.572290 0.777249 0.204288
0.602106 0.777005 0.210666
0.632044 0.776883 0.217685
0.662287 0.776852 0.224887
0.692683 0.776883 0.232609
0.723293 0.776944 0.240848
0.754086 0.777066 0.248997
0.784909 0.777249 0.258000
0.814725 0.776394 0.268254
0.841123 0.772732 0.281193
0.867674 0.770016 0.294865
0.894438 0.768002 0.310277
0.921477 0.766934 0.327306
0.948425 0.766934 0.348089
0.975219 0.767758 0.370550
1.000000 0.769375 0.394934
1.000000 0.771847 0.422065
0.273472 0.804623 0.183047
0.276768 0.804898 0.183719
0.280674 0.805173 0.183993
0.289342 0.805264 0.185336
0.301976 0.805234 0.186618
0.317937 0.805051 0.187533
0.336675 0.804776 0.189334
0.357733 0.804532 0.191806
0.380987 0.804349 0.194553
0.405615 0.804257 0.198062
0.431647 0.804227 0.201846
0.458473 0.804196 0.206149
0.485969 0.804105 0.210636
0.514061 0.804013 0.215518
0.542504 0.803891 0.220737
0.571283 0.803799 0.226780
0.600397 0.803647 0.233005
0.629755 0.803677 0.239689
0.659419 0.803677 0.246677
0.689326 0.803861 0.254398
0.719478 0.804074 0.262608
0.749752 0.804349 0.271183
0.780270 0.804654 0.280186
0.810971 0.804929 0.289220
0.839414 0.802945 0.296818
0.865934 0.799863 0.310460
0.892760 0.797635 0.325566
0.919768 0.796292 0.341955
0.946899 0.795621 0.360235
0.973663 0.795926 0.382940
0.999939 0.797086 0.407813
1.000000 0.799039 0.435492
0.292241 0.833127 0.211337
0.295293 0.833433 0.211795
0.298955 0.833646 0.212467
0.306432 0.833646 0.213443
0.317754 0.833463 0.213901
0.332067 0.833188 0.215457
0.349126 0.832792 0.216983
0.368658 0.832395 0.218601
0.390112 0.831968 0.220829
0.413184 0.831632 0.223819
0.437690 0.831266 0.227268
0.463020 0.831083 0.230900
0.489326 0.830838 0.234928
0.516258 0.830533 0.239353
0.543572 0.830137 0.244327
0.571313 0.829740 0.249454
0.599359 0.829404 0.255100
0.627924 0.829221 0.260990
0.656825 0.829252 0.267887
0.686091 0.829465 0.275242
0.715755 0.829770 0.283391
0.745510 0.830106 0.291875
0.775479 0.830350 0.300633
0.805539 0.830442 0.309575
0.835508 0.830442 0.318608
0.865354 0.830167 0.327672
0.891966 0.827573 0.342718
0.918822 0.825681 0.358862
0.945769 0.824613 0.376806
0.972564 0.824216 0.397345
0.998749 0.824674 0.421576
1.000000 0.826017 0.449653
0.309148 0.858946 0.236484
0.311711 0.859251 0.237156
0.315160 0.859403 0.237736
0.321996 0.859434 0.238590
0.332128 0.859281 0.239384
0.345373 0.859037 0.240818
0.361212 0.858762 0.242130
0.379309 0.858457 0.244053
0.399451 0.858152 0.246220
0.421454 0.857908 0.249454
0.444526 0.857725 0.252476
0.468971 0.857603 0.256138
0.494209 0.857511 0.260716
0.520165 0.857298 0.264775
0.546624 0.857084 0.269688
0.573602 0.856809 0.274632
0.601007 0.856535 0.280186
0.628809 0.856443 0.286259
0.657038 0.856443 0.292973
0.685725 0.856626 0.300542
0.714717 0.856840 0.308476
0.743954 0.857176 0.316625
0.773404 0.857389 0.325292
0.802945 0.857542 0.333989
0.832517 0.857572 0.343175
0.862181 0.857542 0.352117
0.891997 0.857450 0.361547
0.918883 0.855344 0.377661
0.945739 0.853910 0.395880
0.972320 0.853117 0.416205
0.998505 0.852964 0.439521
1.000000 0.853452 0.466682
0.327489 0.885344 0.264012
0.329900 0.885557 0.264775
0.332769 0.885618 0.265110
0.338872 0.885527 0.265599
0.348058 0.885313 0.266270
0.359930 0.885039 0.267552
0.374395 0.884672 0.268711
0.391211 0.884337 0.270451
0.410071 0.884062 0.272679
0.430579 0.883848 0.275059
0.452705 0.883696 0.278477
0.475959 0.883635 0.282322
0.500084 0.883574 0.286137
0.525109 0.883452 0.291020
0.550683 0.883238 0.295659
0.576776 0.882994 0.300572
0.603326 0.882750 0.305852
0.630335 0.882597 0.311864
0.657923 0.882567 0.318242
0.685878 0.882689 0.325475
0.714229 0.882902 0.333257
0.742885 0.883146 0.341650
0.771695 0.883360 0.349950
0.800748 0.883482 0.358770
0.829770 0.883543 0.367620
0.859007 0.883452 0.376623
0.888304 0.883360 0.386206
0.917754 0.883207 0.395972
0.944732 0.881651 0.413275
0.971313 0.880491 0.433570
0.997284 0.879789 0.456703
1.000000 0.879576 0.483101
0.346075 0.910826 0.291814
0.348058 0.910948 0.292119
0.350652 0.911040 0.292607
0.356146 0.910979 0.293126
0.364691 0.910887 0.293797
0.375830 0.910796 0.295109
0.389532 0.910826 0.297063
0.405463 0.910948 0.299443
0.423590 0.911162 0.302647
0.443336 0.911467 0.306310
0.464546 0.911803 0.310307
0.487068 0.912108 0.314336
0.510521 0.912413 0.319158
0.534661 0.912566 0.324163
0.559472 0.912566 0.329137
0.584771 0.912413 0.334203
0.610559 0.912230 0.339971
0.636774 0.912078 0.345678
0.663661 0.912016 0.352300
0.690883 0.912047 0.359136
0.718502 0.912139 0.366796
0.746517 0.912230 0.374914
0.774655 0.912291 0.383337
0.803037 0.912291 0.391882
0.831510 0.912200 0.400763
0.860075 0.912047 0.410071
0.888762 0.911833 0.419440
0.917632 0.911559 0.429053
0.946685 0.911315 0.439307
0.973358 0.909941 0.458076
0.998718 0.908537 0.481300
1.000000 0.907378 0.507042
0.369085 0.938811 0.326085
0.370825 0.938903 0.326604
0.373236 0.938842 0.326940
0.378088 0.938750 0.327184
0.385657 0.938567 0.327855
0.395819 0.938354 0.329137
0.408087 0.938231 0.330449
0.422461 0.938109 0.332341
0.438972 0.938048 0.334752
0.457221 0.938018 0.338018
0.476905 0.938018 0.341070
0.497993 0.938018 0.345068
0.519951 0.938018 0.349340
0.542931 0.937957 0.353826
0.566583 0.937804 0.358312
0.590936 0.937621 0.363714
