其他预设/【232】美食博客调色预设124款/1.3D LUT预设（视频调色-PR-AE-PS-FCPX-达芬奇用）/Yummy #7.cube
# Created by Adobe Lightroom plugin Export LUT (1.17.0)
# www.johnrellis.com/lightroom/exportlut.htm
# Preset: Yummy #7
# Color profile: /Library/Application Support/Adobe/Color/Profiles/Recommended/AdobeRGB1998.icc
LUT_3D_SIZE 5
DOMAIN_MIN 0.000000 0.000000 0.000000
DOMAIN_MAX 0.903226 0.903226 0.903226
0.000000 0.000000 0.000000
0.582788 0.000000 0.060761
0.917082 0.000000 0.188724
1.000000 0.254459 0.313024
1.000000 0.396094 0.389990
0.000000 0.544671 0.079561
0.590295 0.568414 0.135134
0.902220 0.452705 0.252079
1.000000 0.429908 0.340826
1.000000 0.489296 0.408728
0.182650 0.827756 0.257481
0.464698 0.826108 0.278935
0.847868 0.822965 0.343694
0.999847 0.727413 0.406714
1.000000 0.685420 0.456977
0.447242 0.942016 0.372717
0.542382 0.939818 0.384375
0.754055 0.933745 0.420966
0.950988 0.927764 0.473915
1.000000 0.870634 0.514153
0.633814 1.000000 0.472267
0.668147 1.000000 0.478523
0.765499 0.995087 0.498604
0.891814 0.989288 0.542046
1.000000 0.984436 0.599664
0.000000 0.167086 0.422034
0.564202 0.000000 0.486976
0.893919 0.229770 0.444465
1.000000 0.462776 0.472206
1.000000 0.547692 0.497383
0.000000 0.514519 0.445472
0.561364 0.540764 0.479255
0.879210 0.525353 0.469520
0.998169 0.553216 0.480964
1.000000 0.598322 0.506737
0.225132 0.810117 0.403174
0.532403 0.808835 0.436439
0.849607 0.811826 0.475441
0.985199 0.754360 0.511315
1.000000 0.732296 0.539422
0.506004 0.932341 0.441352
0.624262 0.927642 0.475715
0.787045 0.926177 0.504692
0.953460 0.925689 0.548821
1.000000 0.881926 0.583886
0.671412 0.997467 0.520439
0.718685 0.994385 0.541466
0.801999 0.991241 0.563806
0.908080 0.987366 0.603632
1.000000 0.984436 0.657679
0.000000 0.289189 0.622644
0.203861 0.079194 0.652216
0.842039 0.130404 0.700710
0.985748 0.522057 0.631617
1.000000 0.658473 0.643153
0.000000 0.517144 0.600488
0.240574 0.431952 0.636591
0.842527 0.498238 0.697871
0.975555 0.634760 0.654200
1.000000 0.716793 0.669184
0.189761 0.779355 0.619257
0.491035 0.775875 0.631250
0.840482 0.793057 0.688136
0.961120 0.802274 0.699855
1.000000 0.814633 0.710903
0.532189 0.912139 0.580194
0.640070 0.907805 0.602502
0.832609 0.909606 0.670832
0.954955 0.922515 0.717159
1.000000 0.908324 0.744930
0.685786 0.992035 0.603235
0.739620 0.988830 0.627863
0.861814 0.982025 0.705074
0.935851 0.982605 0.740780
1.000000 0.984192 0.786160
0.000000 0.349126 0.763699
0.000000 0.224979 0.777218
0.589990 0.215061 0.811460
0.936919 0.471382 0.835782
1.000000 0.664454 0.775143
0.000000 0.493812 0.751095
0.000000 0.435492 0.765072
0.616510 0.428565 0.803037
0.936278 0.592828 0.834440
1.000000 0.719539 0.788724
0.141543 0.725399 0.716182
0.390356 0.728176 0.719539
0.729732 0.729458 0.775509
0.938201 0.782864 0.838254
1.000000 0.836423 0.827207
0.520623 0.900511 0.765988
0.613214 0.896696 0.771389
0.792630 0.895598 0.795895
0.946075 0.917601 0.855070
0.998779 0.932525 0.878508
0.703273 0.985473 0.751614
0.746822 0.983368 0.762936
0.853391 0.979400 0.800717
0.954986 0.979675 0.873289
0.996918 0.985748 0.909514
0.000000 0.388373 0.877043
0.000000 0.331121 0.882658
0.335546 0.270390 0.897826
0.797299 0.463142 0.917876
0.982025 0.632990 0.931609
0.000000 0.489235 0.870695
0.000000 0.454810 0.876616
0.407385 0.410834 0.893980
0.816007 0.567407 0.915312
0.981994 0.688533 0.932647
0.408148 0.723720 0.850278
0.528923 0.729641 0.856809
0.655482 0.702693 0.880491
0.849577 0.737423 0.913298
0.983185 0.815030 0.939269
0.509789 0.867704 0.859190
0.576898 0.869139 0.861814
0.727230 0.875181 0.872648
0.897704 0.888243 0.917906
0.987579 0.932433 0.956390
0.686641 0.991150 0.914244
0.724208 0.989136 0.917479
0.829343 0.984161 0.929839
0.939117 0.981811 0.951476
0.993561 0.988617 0.977874
