其他预设/【232】美食博客调色预设124款/1.3D LUT预设（视频调色-PR-AE-PS-FCPX-达芬奇用）/Yummy #16.cube
# Created by Adobe Lightroom plugin Export LUT (1.17.0)
# www.johnrellis.com/lightroom/exportlut.htm
# Preset: Yummy #16
# Color profile: /Library/Application Support/Adobe/Color/Profiles/Recommended/AdobeRGB1998.icc
LUT_3D_SIZE 8
DOMAIN_MIN 0.000000 0.000000 0.000000
DOMAIN_MAX 0.903226 0.903226 0.903226
0.000000 0.000000 0.000000
0.035279 0.000000 0.000000
0.103334 0.000641 0.000000
0.243046 0.000000 0.000000
0.481575 0.000000 0.000000
0.743954 0.000000 0.000000
0.935637 0.000000 0.000000
1.000000 0.146181 0.000000
0.000000 0.018036 0.000763
0.038788 0.026520 0.000000
0.106416 0.039399 0.000000
0.244388 0.000000 0.000000
0.478279 0.000000 0.000000
0.729427 0.000000 0.000000
0.922728 0.000000 0.000000
1.000000 0.190280 0.000000
0.006256 0.105226 0.033265
0.038697 0.101839 0.028290
0.109987 0.135592 0.000000
0.289158 0.147158 0.000000
0.546105 0.107424 0.000000
0.775448 0.095766 0.000000
0.955200 0.235325 0.000000
1.000000 0.354192 0.000000
0.000000 0.264469 0.067384
0.000000 0.259220 0.032868
0.091676 0.247013 0.080598
0.323003 0.369360 0.000000
0.633143 0.389868 0.000000
0.840970 0.419287 0.000000
0.975128 0.465614 0.000000
1.000000 0.513542 0.000000
0.000000 0.498177 0.134127
0.000000 0.493843 0.107179
0.000000 0.483406 0.120821
0.282414 0.502831 0.141329
0.593042 0.614160 0.000000
0.829282 0.626642 0.000000
0.970275 0.654780 0.000000
1.000000 0.671382 0.000000
0.000000 0.734005 0.248844
0.000000 0.744778 0.237705
0.000000 0.734829 0.215091
0.355505 0.713924 0.270390
0.558526 0.750393 0.236973
0.811521 0.822660 0.000000
0.971496 0.812619 0.000000
1.000000 0.803738 0.000000
0.130282 0.916991 0.441321
0.174441 0.917449 0.430518
0.261326 0.911467 0.384192
0.475441 0.895476 0.428717
0.628046 0.874540 0.488350
0.781247 0.901213 0.427832
0.944182 0.917784 0.301274
1.000000 0.890013 0.000000
0.520836 0.982849 0.686549
0.529625 0.982086 0.680720
0.563134 0.979797 0.664942
0.661158 0.971313 0.695979
0.743435 0.956390 0.720577
0.829801 0.949950 0.769986
0.911040 0.957092 0.726680
1.000000 0.956909 0.626642
0.007477 0.000000 0.023774
0.038361 0.000000 0.011444
0.100618 0.000000 0.023407
0.230655 0.000000 0.025879
0.460029 0.000000 0.000000
0.707179 0.000000 0.000000
0.908171 0.000000 0.000000
1.000000 0.057527 0.000000
0.000000 0.019684 0.032074
0.039460 0.029664 0.037659
0.104036 0.043091 0.038300
0.240146 0.000000 0.025299
0.467628 0.000000 0.000000
0.706538 0.000000 0.000000
0.900023 0.000000 0.000000
1.000000 0.135714 0.000000
0.000000 0.109957 0.067994
0.041932 0.114290 0.067323
0.111360 0.138003 0.047242
0.284428 0.142550 0.000000
0.522789 0.096803 0.000000
0.744564 0.000000 0.000000
0.924743 0.179171 0.000000
1.000000 0.321447 0.000000
0.000000 0.264286 0.103609
0.000000 0.267460 0.098146
0.094270 0.258427 0.105287
0.298833 0.345556 0.000000
0.581170 0.349401 0.000000
0.796963 0.372259 0.000000
0.946929 0.424689 0.000000
1.000000 0.489815 0.000000
0.000000 0.501701 0.180087
0.000000 0.497993 0.165408
0.000000 0.483467 0.147097
0.270237 0.482185 0.172793
0.564385 0.586114 0.000000
0.807553 0.601587 0.000000
0.958434 0.637842 0.000000
1.000000 0.661402 0.000000
0.000000 0.725704 0.285405
0.000000 0.724544 0.269169
0.000000 0.716609 0.225132
0.340307 0.699947 0.278752
0.545281 0.736233 0.262058
0.804562 0.816922 0.000000
0.966339 0.807950 0.000000
1.000000 0.799527 0.000000
0.112612 0.906554 0.453834
0.143801 0.903746 0.436744
0.235264 0.899748 0.388800
0.454932 0.887877 0.425574
0.618585 0.869505 0.489509
0.771084 0.895415 0.436286
0.935729 0.913024 0.309392
1.000000 0.885618 0.012787
0.510491 0.980652 0.689601
0.522423 0.980163 0.686000
0.557671 0.978058 0.670741
0.651392 0.970581 0.693660
0.755123 0.958404 0.746304
0.833585 0.950164 0.786709
0.909117 0.956390 0.734371
1.000000 0.956023 0.630762
0.047486 0.000000 0.107698
0.077913 0.000000 0.114199
0.116213 0.000000 0.085023
0.283391 0.000000 0.081422
0.478035 0.000000 0.096407
0.712337 0.000000 0.117647
0.912840 0.000000 0.096040
1.000000 0.000000 0.092561
0.000000 0.025483 0.118227
0.060700 0.026642 0.123873
0.118105 0.025940 0.097780
0.274296 0.000000 0.096895
0.468544 0.000000 0.124666
0.711421 0.000000 0.117128
0.908568 0.000000 0.089815
1.000000 0.136263 0.084077
0.000000 0.114534 0.140627
0.000000 0.122591 0.146151
0.110536 0.149844 0.157778
0.283757 0.153323 0.155032
0.530114 0.112764 0.146456
0.749020 0.032502 0.125826
0.924498 0.168734 0.093690
1.000000 0.314061 0.089540
0.000000 0.300328 0.214084
0.000000 0.306676 0.210483
0.098512 0.322942 0.205875
0.328222 0.369543 0.176303
0.608087 0.368627 0.151736
0.805600 0.386969 0.140139
0.949554 0.433753 0.110475
1.000000 0.496712 0.118715
0.000000 0.525841 0.279759
0.000000 0.530480 0.278660
0.073274 0.538506 0.273198
0.313115 0.514427 0.288426
0.592248 0.611292 0.190311
0.821683 0.616693 0.062165
0.961334 0.646448 0.125246
1.000000 0.668055 0.177920
0.000000 0.743526 0.374640
0.000000 0.745846 0.375586
0.140322 0.745510 0.365515
0.356725 0.726162 0.355169
0.550835 0.734859 0.369574
0.800443 0.815030 0.258183
0.962524 0.807523 0.137789
1.000000 0.803464 0.239841
0.062470 0.915923 0.534447
0.185794 0.913878 0.533837
0.330419 0.907652 0.517601
0.457923 0.896941 0.488594
0.625116 0.876463 0.542199
0.769955 0.895018 0.521477
0.935271 0.915312 0.429450
1.000000 0.889281 0.307103
0.503471 0.981994 0.728817
0.525444 0.980041 0.730068
0.582330 0.975555 0.729458
0.651423 0.971771 0.726467
0.755764 0.959197 0.771176
0.837430 0.948455 0.820096
0.908049 0.955840 0.780301
0.996338 0.956298 0.697810
0.005859 0.000000 0.248569
0.089998 0.000000 0.260441
0.244358 0.000000 0.275273
0.309270 0.000000 0.194644
0.595575 0.000000 0.178317
0.761166 0.000000 0.190402
0.904082 0.000000 0.233555
1.000000 0.000000 0.296727
0.000000 0.017121 0.268437
0.044556 0.000000 0.276555
0.246708 0.000000 0.301671
0.317937 0.000000 0.210971
0.593835 0.000000 0.196323
0.753170 0.000000 0.207248
0.895354 0.000000 0.254673
1.000000 0.000000 0.295567
0.000000 0.142977 0.273777
0.000000 0.141848 0.283452
0.140169 0.130007 0.318547
0.332250 0.124605 0.268864
0.582818 0.000000 0.266667
0.747829 0.000000 0.290929
0.913268 0.167819 0.321691
1.000000 0.302861 0.323308
0.000000 0.284031 0.335210
0.000000 0.294102 0.341375
0.000000 0.328618 0.360754
0.336217 0.381872 0.388373
0.574060 0.379553 0.377173
0.770840 0.386328 0.362493
0.928985 0.426215 0.350011
1.000000 0.495277 0.354070
0.000000 0.580285 0.481056
0.000000 0.580835 0.473701
0.000000 0.587823 0.455451
0.370886 0.595850 0.450660
0.611566 0.634089 0.419562
0.824826 0.640497 0.405188
0.953521 0.664302 0.422553
1.000000 0.678920 0.417334
0.000000 0.784085 0.540673
0.000000 0.793851 0.547143
0.000000 0.791318 0.535943
0.420752 0.786862 0.530785
0.589471 0.756283 0.545647
0.807095 0.826841 0.473518
0.958038 0.815183 0.425177
1.000000 0.812528 0.486488
0.000000 0.927214 0.648310
0.000000 0.926787 0.649042
0.324376 0.922972 0.650202
0.520226 0.914641 0.650507
0.650294 0.897826 0.650233
0.776303 0.898253 0.661341
0.929290 0.917174 0.587640
1.000000 0.892454 0.514092
0.477790 0.986877 0.789578
0.506737 0.985229 0.792111
0.587335 0.979156 0.798703
0.686671 0.970336 0.810056
0.757961 0.961883 0.812467
0.841733 0.950164 0.851316
0.906828 0.954650 0.837827
0.989258 0.956237 0.782040
0.069368 0.000000 0.444312
0.154788 0.000000 0.454749
0.344823 0.000000 0.483131
0.531090 0.000000 0.433967
0.600946 0.000000 0.361364
0.834104 0.000000 0.349737
0.961639 0.000000 0.344244
1.000000 0.000000 0.376837
0.000000 0.000000 0.457282
0.116884 0.000000 0.468269
0.328405 0.000000 0.494331
0.533684 0.000000 0.458137
0.604730 0.000000 0.375494
0.835935 0.000000 0.362646
0.958892 0.000000 0.359625
1.000000 0.000000 0.390143
0.000000 0.117006 0.474617
0.000000 0.121218 0.484504
0.219364 0.089082 0.507805
0.537102 0.000000 0.540124
0.609888 0.000000 0.423041
0.831113 0.000000 0.403937
0.943114 0.000000 0.407416
1.000000 0.153384 0.432990
0.000000 0.306981 0.487587
0.000000 0.313390 0.492134
0.000000 0.337438 0.509667
0.394965 0.330236 0.575158
0.616602 0.361242 0.520256
0.805447 0.360174 0.504448
0.916747 0.371740 0.498085
1.000000 0.459724 0.531914
0.000000 0.504295 0.567468
0.000000 0.512627 0.572595
0.000000 0.537865 0.587121
0.308324 0.580163 0.612482
0.595392 0.631525 0.642359
0.773617 0.626673 0.619379
0.913695 0.636652 0.598230
1.000000 0.663172 0.588403
0.000000 0.799619 0.729793
0.000000 0.804044 0.732204
0.000000 0.805447 0.720272
0.310063 0.802823 0.696101
0.599481 0.793423 0.678737
0.790372 0.823819 0.666926
0.935637 0.821347 0.672328
1.000000 0.823789 0.701625
0.000000 0.938781 0.788724
0.000000 0.937133 0.785367
0.128756 0.932250 0.776394
0.459724 0.923705 0.767056
0.661341 0.910735 0.766842
0.774289 0.891112 0.782834
0.914824 0.915526 0.734951
1.000000 0.893919 0.697200
0.377111 0.991638 0.850309
0.410864 0.989899 0.849607
0.510155 0.983948 0.848569
0.654047 0.974945 0.858915
0.767269 0.963317 0.868284
0.839536 0.953094 0.878172
0.903807 0.951781 0.884764
0.981323 0.955016 0.848875
0.252171 0.000000 0.680964
0.309880 0.000000 0.687831
0.471015 0.000000 0.706264
0.685634 0.000000 0.745693
0.789548 0.000000 0.641444
0.831174 0.000000 0.561456
0.981323 0.000000 0.542870
1.000000 0.000000 0.515557
0.206912 0.000000 0.677272
0.270878 0.000000 0.683009
0.444648 0.000000 0.703334
0.668879 0.000000 0.742977
0.784298 0.000000 0.644587
0.826841 0.000000 0.566705
0.978607 0.000000 0.550011
1.000000 0.000000 0.525902
0.000000 0.094728 0.693599
0.046052 0.073548 0.699367
0.359258 0.000000 0.720974
0.625788 0.000000 0.758297
0.788174 0.000000 0.691218
0.829068 0.000000 0.609033
0.975494 0.000000 0.589410
1.000000 0.175357 0.572168
0.000000 0.325719 0.688838
0.000000 0.314488 0.696712
0.000000 0.290105 0.730800
0.500816 0.292851 0.775265
0.782284 0.321447 0.799344
0.833005 0.382971 0.691859
0.968170 0.412696 0.666590
1.000000 0.463233 0.651942
0.000000 0.522301 0.720150
0.000000 0.527001 0.723140
0.000000 0.542565 0.732448
0.225467 0.568841 0.748592
0.634363 0.571862 0.808530
0.807401 0.629633 0.765194
0.931090 0.641535 0.743435
0.999451 0.646723 0.727871
0.000000 0.722866 0.784848
0.000000 0.730068 0.789944
0.000000 0.744228 0.797910
0.283909 0.765682 0.810636
0.562158 0.792386 0.826993
0.785397 0.832395 0.855222
0.898100 0.824582 0.839384
0.982116 0.823239 0.826963
0.000000 0.946502 0.904021
0.000000 0.947539 0.905455
0.000000 0.947295 0.906493
0.376593 0.944152 0.905791
0.628321 0.929656 0.888701
0.803220 0.913359 0.882536
0.907103 0.917571 0.873625
0.986542 0.905730 0.873442
0.244266 0.999756 0.924895
0.295567 0.998077 0.923613
0.427893 0.992248 0.919707
0.588128 0.982544 0.915709
0.734890 0.969757 0.913756
0.847684 0.957153 0.919951
0.907958 0.947936 0.929656
0.976104 0.954284 0.911406
0.466926 0.000000 0.882597
0.507195 0.000000 0.887602
0.617945 0.000000 0.896086
0.768368 0.000000 0.910948
0.897459 0.000000 0.908659
0.937011 0.000000 0.810971
0.962768 0.000000 0.732235
1.000000 0.000000 0.696132
0.432136 0.000000 0.876493
0.475013 0.000000 0.881132
0.593072 0.000000 0.890166
0.748989 0.000000 0.904509
0.889067 0.000000 0.907988
0.929717 0.000000 0.807340
0.955291 0.000000 0.727901
1.000000 0.000000 0.692164
0.325109 0.000000 0.885496
0.379278 0.000000 0.887755
0.526482 0.000000 0.894530
0.708095 0.000000 0.907744
0.879240 0.000000 0.923583
0.927794 0.000000 0.829068
0.954345 0.000000 0.758389
1.000000 0.193179 0.726131
0.000000 0.278386 0.889738
0.000000 0.279606 0.890806
0.321355 0.261936 0.896757
0.604700 0.234958 0.910582
0.824063 0.241978 0.926146
0.923888 0.382910 0.866361
0.948455 0.413275 0.807248
1.000000 0.466865 0.775418
0.000000 0.571191 0.863310
0.000000 0.569909 0.862089
0.000000 0.549004 0.870115
0.228183 0.474464 0.897154
0.683772 0.501091 0.916777
0.897704 0.581689 0.917815
0.927886 0.632013 0.850797
1.000000 0.674708 0.832853
0.000000 0.735866 0.893767
0.000000 0.737179 0.894255
0.000000 0.741390 0.895750
0.188663 0.748348 0.898833
0.476967 0.756649 0.901457
0.796170 0.776791 0.929870
0.913054 0.826047 0.909941
0.984955 0.829496 0.898344
0.000000 0.887022 0.924224
0.000000 0.888579 0.925261
0.000000 0.890776 0.926696
0.355657 0.894163 0.929351
0.577752 0.897276 0.931914
0.767117 0.904082 0.937163
0.905699 0.918029 0.949065
0.968078 0.909087 0.939879
0.000000 0.996155 0.968963
0.157198 0.995850 0.969360
0.354223 0.994476 0.971344
0.525322 0.988128 0.970733
0.688228 0.978637 0.969696
0.827573 0.964721 0.961700
0.920287 0.953521 0.960723
0.974456 0.953674 0.957519
0.651820 0.000000 0.985870
0.674434 0.000000 0.986725
0.740291 0.000000 0.987457
0.838865 0.000000 0.990295
0.943786 0.000000 0.993622
0.998352 0.000000 0.960754
1.000000 0.000000 0.903471
1.000000 0.000000 0.843198
0.632593 0.000000 0.984253
0.656123 0.000000 0.985138
0.726040 0.000000 0.986236
0.827543 0.000000 0.988769
0.935912 0.000000 0.992218
0.995453 0.000000 0.962524
1.000000 0.000000 0.903624
1.000000 0.000000 0.843595
0.566522 0.000000 0.983398
0.593683 0.000000 0.983978
0.674403 0.000000 0.984375
0.794217 0.000000 0.988373
0.912963 0.000000 0.991119
0.989593 0.000000 0.971771
1.000000 0.247990 0.911101
1.000000 0.268315 0.855802
0.385351 0.273075 0.982818
0.432837 0.269749 0.983551
0.557549 0.252079 0.984192
0.715572 0.241123 0.986542
0.864256 0.264622 0.989197
0.981292 0.348547 0.987640
0.999115 0.465034 0.925536
1.000000 0.473548 0.878721
0.000000 0.537957 0.974670
0.000000 0.525566 0.976349
0.000000 0.468421 0.980316
0.516686 0.462135 0.982483
0.758999 0.477882 0.984405
0.927672 0.536126 0.986419
0.984985 0.651301 0.941283
0.999268 0.668544 0.907530
0.000000 0.772885 0.967102
0.000000 0.770962 0.966522
0.000000 0.765530 0.965209
0.184909 0.756832 0.964019
0.502098 0.675105 0.975647
0.821134 0.717037 0.980438
0.969848 0.800534 0.973205
0.985351 0.831662 0.943450
0.000000 0.885924 0.975189
0.000000 0.885222 0.974914
0.143343 0.883085 0.974212
0.356237 0.880888 0.973754
0.530571 0.878843 0.972961
0.696193 0.879942 0.971710
0.906554 0.889067 0.980529
0.976349 0.911101 0.969268
0.312200 0.960662 0.984314
0.336584 0.960143 0.984161
0.416754 0.958587 0.983917
0.536461 0.956085 0.983825
0.668879 0.952667 0.983551
0.794034 0.949767 0.983276
0.898558 0.949310 0.983886
0.975189 0.953216 0.988067
