其他预设/【232】美食博客调色预设124款/1.3D LUT预设（视频调色-PR-AE-PS-FCPX-达芬奇用）/Yummy #5.cube
# Created by Adobe Lightroom plugin Export LUT (1.17.0)
# www.johnrellis.com/lightroom/exportlut.htm
# Preset: Yummy #5
# Color profile: /Library/Application Support/Adobe/Color/Profiles/Recommended/AdobeRGB1998.icc
LUT_3D_SIZE 5
DOMAIN_MIN 0.000000 0.000000 0.000000
DOMAIN_MAX 0.903226 0.903226 0.903226
0.000000 0.000000 0.000000
0.319432 0.000000 0.000000
0.697719 0.000000 0.000000
0.921782 0.000000 0.000000
1.000000 0.000000 0.000000
0.010254 0.300542 0.000000
0.311345 0.300206 0.000000
0.686030 0.327428 0.000000
0.910216 0.287816 0.000000
1.000000 0.243198 0.000000
0.075868 0.651179 0.000000
0.340490 0.648859 0.000000
0.672145 0.647028 0.000000
0.890379 0.571588 0.000000
1.000000 0.494942 0.000000
0.104738 0.853025 0.000000
0.306462 0.852323 0.000000
0.587427 0.845274 0.000000
0.852384 0.821500 0.000000
1.000000 0.733791 0.000000
0.099550 0.989960 0.000000
0.268620 0.987823 0.000000
0.509331 0.977539 0.000000
0.751980 0.967071 0.000000
0.986023 0.949523 0.000000
0.003662 0.000000 0.236271
0.306767 0.000000 0.258244
0.681331 0.000000 0.200656
0.900908 0.000000 0.174014
1.000000 0.000000 0.142947
0.000000 0.281376 0.239658
0.309728 0.289738 0.222629
0.674952 0.288029 0.196933
0.893980 0.258610 0.163882
1.000000 0.218814 0.136965
0.000000 0.637201 0.159457
0.302220 0.637934 0.132631
0.655055 0.626703 0.104921
0.876402 0.555901 0.127108
1.000000 0.487282 0.120974
0.000000 0.849241 0.000000
0.284031 0.848295 0.000000
0.581048 0.842161 0.000000
0.850095 0.818082 0.000000
1.000000 0.730129 0.060151
0.000000 0.988434 0.000000
0.252842 0.986297 0.000000
0.508263 0.980560 0.000000
0.752468 0.968444 0.014466
0.986633 0.950439 0.061097
0.000000 0.000000 0.520867
0.308019 0.000000 0.544518
0.665522 0.000000 0.556817
0.886595 0.000000 0.475715
1.000000 0.179507 0.459144
0.000000 0.245701 0.502953
0.261936 0.227329 0.530602
0.662837 0.214664 0.539391
0.876555 0.267338 0.480049
1.000000 0.324437 0.474281
0.000000 0.598962 0.508049
0.216373 0.608545 0.504265
0.644617 0.610132 0.498207
0.857145 0.567407 0.490517
1.000000 0.510430 0.456306
0.000000 0.829984 0.429755
0.230869 0.828214 0.424872
0.572839 0.827085 0.446540
0.843259 0.811246 0.441291
0.998260 0.731655 0.441535
0.012055 0.978180 0.393805
0.282719 0.976623 0.413001
0.502922 0.974395 0.409308
0.749783 0.963684 0.421820
0.979706 0.946410 0.421210
0.000000 0.000000 0.743435
0.276555 0.000000 0.751949
0.598169 0.000000 0.782620
0.862119 0.000000 0.732876
1.000000 0.119875 0.660822
0.000000 0.183597 0.733059
0.219394 0.175296 0.742153
0.588128 0.174380 0.772732
0.855192 0.207218 0.725338
1.000000 0.308873 0.667689
0.000000 0.499001 0.700618
0.000000 0.491585 0.702571
0.562036 0.529992 0.735103
0.831357 0.563439 0.718624
0.985077 0.575189 0.703609
0.000000 0.800992 0.691646
0.154940 0.799832 0.689662
0.550256 0.796933 0.698360
0.819699 0.794003 0.716243
0.974975 0.753689 0.710689
0.000000 0.966033 0.623316
0.236728 0.964263 0.628962
0.534112 0.958282 0.662654
0.752590 0.955505 0.685084
0.968383 0.943297 0.688533
0.000000 0.000000 0.911803
0.236240 0.000000 0.913298
0.511467 0.000000 0.920287
0.792416 0.000000 0.926390
0.991455 0.000000 0.862272
0.000000 0.120119 0.905333
0.160098 0.100252 0.907225
0.493751 0.000000 0.915160
0.787625 0.072023 0.922789
0.987366 0.219669 0.861936
0.000000 0.402380 0.881682
0.000000 0.385138 0.885924
0.432258 0.403937 0.897124
0.776913 0.481270 0.914366
0.975921 0.524743 0.868620
0.000000 0.701564 0.871214
0.000000 0.694514 0.870359
0.320165 0.673793 0.869230
0.734035 0.714443 0.890501
0.958190 0.762692 0.883238
0.000000 0.962219 0.851987
0.000000 0.959716 0.851682
0.437537 0.950927 0.855375
0.733852 0.937224 0.869200
0.948119 0.936828 0.904448
