其他预设/【232】美食博客调色预设124款/1.3D LUT预设（视频调色-PR-AE-PS-FCPX-达芬奇用）/Yummy #11.cube
# Created by Adobe Lightroom plugin Export LUT (1.17.0)
# www.johnrellis.com/lightroom/exportlut.htm
# Preset: Yummy #11
# Color profile: /Library/Application Support/Adobe/Color/Profiles/Recommended/AdobeRGB1998.icc
LUT_3D_SIZE 8
DOMAIN_MIN 0.000000 0.000000 0.000000
DOMAIN_MAX 0.903226 0.903226 0.903226
0.043793 0.000000 0.065461
0.355901 0.102480 0.004456
0.696529 0.148623 0.000000
0.865141 0.181643 0.000000
0.958495 0.229191 0.000000
1.000000 0.278386 0.111788
1.000000 0.318730 0.162966
1.000000 0.352758 0.199557
0.000000 0.357916 0.000000
0.349157 0.353765 0.000000
0.683833 0.321508 0.000000
0.855497 0.295964 0.000000
0.952300 0.299504 0.000000
1.000000 0.319860 0.116701
1.000000 0.345647 0.164828
1.000000 0.371923 0.200717
0.000000 0.629175 0.000000
0.326116 0.621515 0.000000
0.655818 0.593103 0.000000
0.841886 0.507103 0.000000
0.941680 0.456367 0.090639
1.000000 0.436591 0.146578
1.000000 0.435523 0.187594
1.000000 0.441382 0.218814
0.186893 0.772885 0.000000
0.320287 0.768185 0.000000
0.568414 0.751858 0.000000
0.811337 0.728603 0.000000
0.929015 0.643977 0.116976
0.993805 0.578698 0.182040
1.000000 0.550530 0.212619
1.000000 0.535546 0.238895
0.272526 0.864408 0.124025
0.344305 0.861021 0.123293
0.517815 0.850095 0.121859
0.714076 0.833066 0.122194
0.888945 0.811673 0.124422
0.975219 0.738430 0.175021
1.000000 0.678889 0.229648
1.000000 0.643305 0.262638
0.343053 0.932250 0.187808
0.388312 0.932036 0.190097
0.506920 0.924895 0.189944
0.659297 0.913085 0.190036
0.811704 0.898070 0.191562
0.945251 0.885008 0.197482
1.000000 0.826108 0.235325
1.000000 0.770321 0.282261
0.413062 0.993469 0.242252
0.440467 0.992523 0.243015
0.521386 0.987579 0.242679
0.637537 0.979767 0.243900
0.764004 0.969696 0.245853
0.885008 0.960601 0.252384
0.989044 0.955261 0.264164
1.000000 0.903899 0.296941
0.490303 1.000000 0.300633
0.507103 1.000000 0.300816
0.562829 1.000000 0.302403
0.649378 1.000000 0.306889
0.744289 1.000000 0.304356
0.847379 1.000000 0.313939
0.941863 1.000000 0.328222
1.000000 1.000000 0.344701
0.000000 0.000000 0.297246
0.352728 0.000000 0.299138
0.681666 0.156710 0.243626
0.850095 0.249912 0.235904
0.947021 0.288121 0.230350
1.000000 0.323003 0.236240
1.000000 0.354284 0.247318
1.000000 0.382513 0.261326
0.000000 0.351324 0.289097
0.352728 0.347723 0.270054
0.671901 0.340734 0.252384
0.844724 0.333074 0.234287
0.942718 0.340368 0.230381
1.000000 0.356786 0.236515
1.000000 0.376776 0.246708
1.000000 0.398352 0.260441
0.000000 0.623926 0.218753
0.343175 0.615198 0.225589
0.657343 0.589837 0.212558
0.833341 0.512840 0.229648
0.932067 0.472816 0.233433
0.995880 0.456489 0.243015
1.000000 0.454658 0.255650
1.000000 0.460731 0.270909
0.219394 0.766140 0.203616
0.348547 0.760952 0.211124
0.576287 0.745724 0.205356
0.805173 0.720455 0.195804
0.918181 0.640223 0.223514
0.984283 0.584405 0.252964
1.000000 0.560052 0.267094
1.000000 0.548119 0.282780
0.315312 0.859434 0.224094
0.375860 0.855894 0.222690
0.532860 0.844816 0.219821
0.716884 0.827085 0.215702
0.884977 0.806058 0.212131
0.970092 0.737026 0.238804
1.000000 0.683619 0.278233
1.000000 0.652552 0.301793
0.378302 0.926970 0.248234
0.415717 0.925139 0.248142
0.523919 0.918517 0.247288
0.667842 0.907866 0.247044
0.814298 0.894469 0.248020
0.944244 0.883177 0.252445
1.000000 0.826963 0.279301
1.000000 0.774990 0.317510
0.441413 0.988190 0.282353
0.464363 0.986572 0.281682
0.539452 0.982208 0.281529
0.649653 0.975525 0.283360
0.770871 0.966674 0.285924
0.886870 0.958068 0.290623
0.987488 0.952667 0.299138
1.000000 0.903410 0.325231
0.516686 1.000000 0.331060
0.532830 1.000000 0.331731
0.584527 1.000000 0.333440
0.665705 1.000000 0.337926
0.759457 1.000000 0.342168
0.854795 1.000000 0.347631
0.943938 1.000000 0.356085
1.000000 1.000000 0.368078
0.133852 0.000000 0.483803
0.344945 0.000000 0.480415
0.681575 0.000000 0.459388
0.846555 0.202853 0.389593
0.933349 0.402716 0.399390
0.991669 0.449866 0.398505
1.000000 0.472023 0.394873
1.000000 0.490730 0.394324
0.142458 0.322332 0.474311
0.357000 0.316747 0.469917
0.674525 0.307164 0.446296
0.837156 0.349584 0.393408
0.927733 0.442237 0.401404
0.988556 0.468666 0.396918
1.000000 0.484688 0.393011
1.000000 0.501030 0.393317
0.171359 0.611505 0.442695
0.361273 0.606409 0.435065
0.663478 0.578912 0.417884
0.821775 0.552087 0.415320
0.919524 0.539635 0.403967
0.982849 0.535576 0.397528
1.000000 0.537652 0.395056
1.000000 0.544030 0.396399
0.272374 0.761654 0.376867
0.395148 0.756374 0.380957
0.616083 0.738552 0.388800
0.810452 0.718502 0.380163
0.909667 0.661585 0.393713
0.973663 0.633265 0.399725
1.000000 0.619837 0.400244
1.000000 0.613703 0.403449
0.380438 0.852445 0.356146
0.460975 0.847166 0.370214
0.598383 0.835996 0.377478
0.745480 0.822354 0.374182
0.888029 0.806210 0.370001
0.963653 0.751339 0.380987
1.000000 0.717006 0.404059
1.000000 0.698482 0.412482
0.479103 0.918151 0.371160
0.513970 0.915770 0.375036
0.602777 0.908843 0.380346
0.712398 0.899870 0.378729
0.831876 0.889311 0.377600
0.943481 0.881041 0.379156
1.000000 0.836271 0.391638
1.000000 0.799985 0.419501
0.547265 0.979950 0.392187
0.565789 0.978485 0.393103
0.620294 0.974395 0.392981
0.703273 0.968627 0.392523
0.800626 0.961730 0.392737
0.898955 0.956054 0.395483
0.987762 0.954192 0.401526
1.000000 0.913390 0.417151
0.603388 1.000000 0.418433
0.610986 1.000000 0.416144
0.649561 1.000000 0.416327
0.715114 1.000000 0.420050
0.791440 1.000000 0.421729
0.872648 1.000000 0.425025
0.950835 1.000000 0.430457
1.000000 1.000000 0.439429
0.215335 0.057527 0.593774
0.350408 0.079988 0.591394
0.616449 0.112703 0.581323
0.836851 0.188907 0.545251
0.929351 0.338018 0.490303
0.983795 0.455665 0.476539
1.000000 0.566430 0.502129
1.000000 0.606256 0.510338
0.267155 0.308568 0.587213
0.381170 0.309087 0.584680
0.625605 0.304387 0.575586
0.832822 0.331151 0.541344
0.923186 0.422370 0.496223
0.978698 0.500237 0.484718
1.000000 0.594507 0.510796
1.000000 0.611292 0.508690
0.313512 0.544549 0.568414
0.424292 0.546899 0.565454
0.651698 0.555505 0.555291
0.816434 0.560388 0.534325
0.906737 0.581933 0.512596
0.965362 0.622187 0.517693
1.000000 0.635126 0.515160
1.000000 0.640497 0.510338
0.358953 0.748470 0.532494
0.454749 0.742794 0.530449
0.654475 0.724758 0.527398
0.807858 0.708217 0.520623
0.893797 0.693385 0.521721
0.957916 0.688228 0.516228
1.000000 0.686122 0.512444
1.000000 0.686152 0.510613
0.446387 0.843961 0.477211
0.514458 0.838224 0.483558
0.661738 0.823636 0.500572
0.781796 0.812619 0.505089
0.889006 0.803494 0.500999
0.953674 0.772976 0.507439
1.000000 0.758145 0.513359
1.000000 0.749203 0.513146
0.536309 0.912139 0.464210
0.582116 0.909606 0.474281
0.683742 0.899138 0.495918
0.766323 0.892424 0.496986
0.855436 0.886168 0.494911
0.944396 0.881529 0.493385
0.999115 0.849851 0.497932
1.000000 0.827573 0.515740
0.608789 0.973144 0.474220
0.636988 0.971038 0.482429
0.700740 0.966155 0.497414
0.759091 0.963195 0.495399
0.833768 0.959136 0.494728
0.912718 0.956054 0.494850
0.987823 0.956115 0.496864
1.000000 0.922850 0.504417
0.676417 1.000000 0.500572
0.694759 1.000000 0.507408
0.725917 1.000000 0.511101
0.762539 1.000000 0.503960
0.823484 1.000000 0.504570
0.890745 1.000000 0.506310
0.957946 1.000000 0.510155
1.000000 1.000000 0.517815
0.285985 0.154940 0.670588
0.370916 0.169711 0.668360
0.567895 0.200137 0.660395
0.780667 0.234195 0.648981
0.919646 0.330907 0.608789
0.977050 0.452247 0.567315
1.000000 0.534112 0.552392
1.000000 0.597894 0.555413
0.337102 0.312413 0.664210
0.408118 0.316106 0.662654
0.584680 0.323583 0.655665
0.784360 0.339635 0.644923
0.915038 0.410956 0.607355
0.973205 0.496956 0.570520
1.000000 0.562005 0.557305
1.000000 0.616297 0.560143
0.429053 0.516533 0.648432
0.505150 0.530083 0.645594
0.643549 0.539696 0.639246
0.794491 0.542870 0.630396
0.901854 0.567041 0.603418
0.961425 0.600824 0.577813
1.000000 0.634607 0.570062
1.000000 0.680751 0.580499
0.466743 0.683680 0.630732
0.532067 0.686336 0.628351
0.674708 0.692317 0.621485
0.800626 0.694972 0.612543
0.888151 0.698939 0.598230
0.947845 0.715114 0.592706
0.995422 0.731777 0.594812
1.000000 0.736385 0.591791
0.518517 0.828092 0.596918
0.567742 0.824369 0.596643
0.684047 0.813535 0.595483
0.795712 0.801572 0.594018
0.883513 0.793973 0.589532
0.942962 0.784604 0.592370
0.993072 0.782589 0.589746
1.000000 0.781643 0.588403
0.578454 0.901488 0.555261
0.612177 0.898558 0.558770
0.697963 0.889891 0.567895
0.791012 0.880735 0.579492
0.862943 0.877592 0.576959
0.941863 0.877531 0.576745
0.991943 0.858824 0.584344
1.000000 0.848478 0.593072
0.637476 0.967987 0.545129
0.659785 0.965972 0.549462
0.722713 0.960632 0.562585
0.798947 0.955047 0.580804
0.850523 0.954894 0.573754
0.919371 0.954192 0.574090
0.986389 0.956176 0.575555
1.000000 0.928862 0.579370
0.690883 1.000000 0.552483
0.706569 1.000000 0.557061
0.753201 1.000000 0.571527
0.815427 1.000000 0.593744
0.845335 1.000000 0.578912
0.903319 1.000000 0.580529
0.962829 1.000000 0.584405
1.000000 1.000000 0.591455
0.344518 0.218357 0.734401
0.400977 0.228519 0.732479
0.548150 0.253941 0.725765
0.724666 0.291325 0.716762
0.884428 0.345769 0.704860
0.970214 0.448219 0.663050
1.000000 0.533623 0.632471
1.000000 0.598688 0.617762
0.388495 0.327001 0.727657
0.436011 0.330877 0.725917
0.568475 0.343786 0.720485
0.732601 0.367651 0.711696
0.884001 0.411627 0.700465
0.966705 0.489326 0.661921
1.000000 0.559167 0.633936
1.000000 0.615778 0.620447
0.523156 0.527764 0.712978
0.553063 0.528923 0.711482
0.644160 0.533715 0.706905
0.765743 0.542840 0.699855
0.885435 0.557244 0.691066
0.958526 0.593744 0.661067
1.000000 0.632197 0.639857
1.000000 0.669612 0.630365
0.559747 0.654963 0.699550
0.598688 0.660365 0.697322
0.698085 0.676020 0.691341
0.794186 0.684962 0.686397
0.886229 0.687587 0.681331
0.949981 0.703029 0.661982
0.996063 0.720821 0.649165
1.000000 0.742153 0.645502
0.587335 0.783810 0.683253
0.620447 0.784665 0.682155
0.706294 0.786740 0.678676
0.799557 0.788449 0.673915
0.879149 0.786893 0.669001
0.940337 0.791989 0.659358
0.986938 0.804318 0.659297
1.000000 0.828641 0.670283
0.623957 0.895476 0.655207
0.650355 0.893858 0.655604
0.719997 0.888029 0.655604
0.801022 0.880919 0.656001
0.873503 0.874846 0.657496
0.938689 0.874327 0.657465
0.984955 0.870481 0.663600
1.000000 0.871611 0.665492
0.670466 0.964630 0.626520
0.689296 0.963592 0.628931
0.742092 0.959594 0.635340
0.808743 0.955261 0.644892
0.874205 0.952331 0.657038
0.925475 0.954498 0.654932
0.984955 0.958709 0.657374
1.000000 0.941588 0.665766
0.711971 1.000000 0.617762
0.725216 1.000000 0.620600
0.765866 1.000000 0.630030
0.821958 1.000000 0.645441
0.881193 1.000000 0.666163
0.915587 1.000000 0.658534
0.967895 1.000000 0.664027
1.000000 1.000000 0.671748
0.388403 0.261051 0.790555
0.428992 0.269169 0.789548
0.543084 0.291325 0.784604
0.689967 0.325536 0.777035
0.833982 0.375982 0.767269
0.952361 0.442725 0.757076
1.000000 0.525597 0.713985
1.000000 0.593194 0.688167
0.424140 0.340703 0.784512
0.459907 0.345464 0.783627
0.563287 0.359594 0.779294
0.700465 0.384985 0.772000
0.837095 0.426947 0.762631
0.949950 0.476387 0.753048
1.000000 0.545556 0.711910
1.000000 0.604639 0.687678
0.546075 0.518303 0.772366
0.569512 0.520195 0.771298
0.642115 0.526726 0.767514
0.744472 0.538476 0.761776
0.851225 0.554498 0.754482
0.947906 0.576287 0.747646
0.999481 0.619715 0.713588
1.000000 0.662135 0.694728
0.614191 0.646113 0.760464
0.640223 0.651667 0.758724
0.712703 0.668299 0.753811
0.783078 0.670985 0.750546
0.863981 0.674922 0.746273
0.945312 0.683619 0.742702
0.993530 0.709346 0.717220
1.000000 0.735561 0.703944
0.631647 0.750179 0.748440
0.653773 0.752255 0.747158
0.717098 0.758816 0.743954
0.794583 0.767117 0.740475
0.866972 0.771664 0.737545
0.938262 0.775418 0.735683
0.985901 0.791745 0.719631
1.000000 0.813352 0.715145
0.654902 0.865171 0.738094
0.674037 0.865415 0.737697
0.729549 0.866026 0.736507
0.799893 0.866789 0.735348
0.869535 0.866972 0.734035
0.933440 0.869535 0.733639
0.981170 0.880705 0.728664
1.000000 0.895842 0.733486
0.689876 0.965820 0.716915
0.705653 0.965057 0.717464
0.751461 0.961944 0.718502
0.812253 0.958190 0.720760
0.875456 0.954528 0.724331
0.933196 0.953735 0.731411
0.980285 0.958068 0.736202
1.000000 0.956542 0.743282
0.728969 1.000000 0.689906
0.740566 1.000000 0.691554
0.778195 1.000000 0.698085
0.829404 1.000000 0.707881
0.885405 1.000000 0.721859
0.937682 1.000000 0.741360
0.972900 1.000000 0.744869
1.000000 1.000000 0.753323
0.418219 0.288945 0.839719
0.448493 0.294804 0.838895
0.538354 0.312444 0.835050
0.663111 0.343664 0.829404
0.793484 0.389807 0.822080
0.908415 0.449958 0.814511
0.998718 0.509026 0.809171
1.000000 0.582086 0.761868
0.448676 0.351507 0.835782
0.476173 0.355932 0.834989
0.559075 0.369116 0.831571
0.676295 0.394446 0.826078
0.800595 0.434882 0.819150
0.909575 0.482307 0.812253
0.997253 0.530816 0.807370
1.000000 0.596735 0.761685
0.551965 0.504601 0.824979
0.571710 0.507164 0.824247
0.632288 0.513970 0.821225
0.724453 0.530022 0.817563
0.822110 0.548333 0.812345
0.913909 0.570642 0.807309
0.994110 0.599054 0.804379
1.000000 0.648798 0.763760
0.633906 0.633967 0.813901
0.659419 0.643091 0.812558
0.705074 0.649195 0.810239
0.767453 0.653346 0.807950
0.841764 0.659815 0.805234
0.918120 0.669673 0.802792
0.989868 0.686183 0.802121
1.000000 0.722560 0.768826
0.645380 0.722011 0.806394
0.663935 0.725490 0.805905
0.715694 0.734005 0.803799
0.783474 0.745144 0.801450
0.852110 0.754421 0.799344
0.918578 0.760678 0.798703
0.984039 0.774807 0.800351
1.000000 0.805753 0.776547
0.666285 0.825223 0.799832
0.680934 0.826169 0.799344
0.725917 0.829282 0.798093
0.787961 0.833951 0.796963
0.856046 0.841733 0.796353
0.921508 0.855711 0.797879
0.979706 0.873014 0.803037
1.000000 0.892088 0.788052
0.698329 0.941161 0.798856
0.710872 0.941192 0.798795
0.749935 0.941405 0.798917
0.807156 0.942657 0.799741
0.869352 0.944640 0.800595
0.927214 0.948760 0.801938
0.974578 0.956634 0.804532
1.000000 0.970947 0.802701
0.733944 1.000000 0.780270
0.743954 1.000000 0.780514
0.776822 1.000000 0.781888
0.827146 1.000000 0.785092
0.883696 1.000000 0.790402
0.936858 1.000000 0.798672
0.979797 1.000000 0.810880
1.000000 1.000000 0.823148
