其他预设/【232】美食博客调色预设124款/1.3D LUT预设（视频调色-PR-AE-PS-FCPX-达芬奇用）/Yummy #1.cube
# Created by Adobe Lightroom plugin Export LUT (1.17.0)
# www.johnrellis.com/lightroom/exportlut.htm
# Preset: Yummy #1
# Color profile: /Library/Application Support/Adobe/Color/Profiles/Recommended/AdobeRGB1998.icc
LUT_3D_SIZE 8
DOMAIN_MIN 0.000000 0.000000 0.000000
DOMAIN_MAX 0.903226 0.903226 0.903226
0.000000 0.000000 0.000000
0.161990 0.091005 0.065766
0.519738 0.126772 0.110933
0.815824 0.152621 0.179507
0.947875 0.263767 0.253544
1.000000 0.366522 0.309422
1.000000 0.455756 0.358648
1.000000 0.531884 0.405890
0.000000 0.259525 0.000000
0.140963 0.287449 0.000000
0.575891 0.246647 0.000000
0.834012 0.234257 0.153079
0.954620 0.292271 0.242466
1.000000 0.375952 0.303136
1.000000 0.458961 0.354498
1.000000 0.533104 0.403052
0.000000 0.532158 0.000000
0.038239 0.558740 0.000000
0.417823 0.596612 0.000000
0.857145 0.482673 0.000000
0.976349 0.379248 0.194949
1.000000 0.411017 0.279606
1.000000 0.471595 0.339422
1.000000 0.538079 0.392706
0.000000 0.763760 0.000000
0.000000 0.775235 0.000000
0.383520 0.799161 0.000000
0.678157 0.802762 0.000000
0.939300 0.666529 0.000000
1.000000 0.475654 0.229465
1.000000 0.499519 0.311070
1.000000 0.550469 0.374334
0.000000 0.892454 0.000000
0.000000 0.895903 0.000000
0.318883 0.905241 0.000000
0.570825 0.904326 0.000000
0.819425 0.890684 0.000000
0.982971 0.764492 0.106355
1.000000 0.609308 0.266484
1.000000 0.576257 0.349279
0.000000 0.960266 0.000000
0.000000 0.961212 0.000000
0.262425 0.963653 0.000000
0.484840 0.964477 0.000000
0.691096 0.954070 0.000000
0.903746 0.936248 0.000000
1.000000 0.829679 0.183139
1.000000 0.716915 0.319188
0.000000 1.000000 0.000000
0.000000 1.000000 0.000000
0.229099 1.000000 0.000000
0.424018 1.000000 0.000000
0.604364 0.999145 0.000000
0.783322 0.986542 0.000000
0.967956 0.967651 0.099580
1.000000 0.879973 0.263615
0.000000 1.000000 0.000000
0.000000 1.000000 0.000000
0.233280 1.000000 0.064851
0.395178 1.000000 0.113527
0.552636 1.000000 0.160891
0.704860 1.000000 0.189822
0.860105 1.000000 0.219944
1.000000 0.988922 0.257115
0.000000 0.023041 0.175296
0.146334 0.069703 0.197238
0.466835 0.265110 0.241764
0.790158 0.334844 0.287114
0.932799 0.407599 0.329076
0.997589 0.476448 0.368475
1.000000 0.539117 0.408606
1.000000 0.593774 0.448646
0.000000 0.243381 0.172946
0.134371 0.285161 0.177523
0.520775 0.323186 0.227085
0.809415 0.361761 0.273289
0.940154 0.417365 0.320195
1.000000 0.479622 0.362493
1.000000 0.540124 0.404547
1.000000 0.594110 0.445777
0.000000 0.524590 0.093965
0.059968 0.552392 0.117983
0.415808 0.591821 0.101442
0.851743 0.492195 0.208042
0.963867 0.459266 0.286137
1.000000 0.494667 0.341070
1.000000 0.545251 0.389746
1.000000 0.596185 0.435462
0.000000 0.758999 0.000000
0.000000 0.770932 0.000000
0.385687 0.796567 0.000000
0.678798 0.800870 0.000000
0.937224 0.672999 0.190280
1.000000 0.532708 0.299962
1.000000 0.560571 0.363104
1.000000 0.603662 0.417731
0.000000 0.889891 0.000000
0.000000 0.893431 0.000000
0.323186 0.903105 0.000000
0.573724 0.903014 0.000000
0.820218 0.889891 0.000000
0.981445 0.769284 0.204440
1.000000 0.637201 0.321691
1.000000 0.622889 0.394934
0.000000 0.958679 0.000000
0.000000 0.959625 0.000000
0.271366 0.962158 0.000000
0.490883 0.963378 0.000000
0.694331 0.953216 0.000000
0.904448 0.935790 0.000000
1.000000 0.833707 0.243015
1.000000 0.735561 0.364111
0.000000 1.000000 0.000000
0.000000 1.000000 0.000000
0.243290 1.000000 0.000000
0.432593 1.000000 0.065827
0.610681 0.998260 0.117861
0.786862 0.985840 0.145693
0.968292 0.967407 0.175998
1.000000 0.883574 0.306798
0.000000 1.000000 0.119448
0.055238 1.000000 0.124788
0.252567 1.000000 0.142489
0.407507 1.000000 0.170779
0.562188 1.000000 0.207065
0.711788 1.000000 0.233036
0.863981 1.000000 0.260655
1.000000 0.988769 0.295232
0.000000 0.065553 0.306645
0.127901 0.094057 0.357488
0.411231 0.149020 0.353094
0.732509 0.413184 0.384222
0.888182 0.612482 0.462959
0.964721 0.664332 0.502617
1.000000 0.695308 0.532586
1.000000 0.720485 0.559808
0.000000 0.206210 0.274479
0.101625 0.271275 0.328557
0.415595 0.324407 0.343267
0.732998 0.551965 0.413977
0.896239 0.620386 0.460945
0.968750 0.665736 0.499153
1.000000 0.695491 0.529595
1.000000 0.720577 0.557671
0.000000 0.474830 0.292393
0.000000 0.514214 0.299199
0.430549 0.585504 0.312993
0.801663 0.602380 0.396521
0.923064 0.639643 0.446174
0.982635 0.670771 0.485542
1.000000 0.697475 0.519432
1.000000 0.721706 0.550317
0.000000 0.731838 0.244419
0.000000 0.751675 0.235813
0.388006 0.789059 0.259403
0.680507 0.794827 0.259739
0.931090 0.713436 0.389166
1.000000 0.686427 0.460914
1.000000 0.704616 0.501610
1.000000 0.726223 0.538109
0.000000 0.879545 0.180087
0.000000 0.883879 0.191714
0.339330 0.895079 0.221592
0.585962 0.898528 0.237491
0.822782 0.887236 0.245487
0.975128 0.795499 0.377569
1.000000 0.730037 0.474311
1.000000 0.738399 0.523613
0.000000 0.952941 0.176333
0.000000 0.953857 0.187259
0.309178 0.956451 0.212558
0.516533 0.958709 0.239384
0.708705 0.949920 0.251774
0.906096 0.934356 0.267124
1.000000 0.852110 0.389410
1.000000 0.793545 0.494301
0.000000 1.000000 0.204227
0.109255 1.000000 0.210269
0.297459 1.000000 0.225742
0.467964 0.999878 0.249943
0.637049 0.994629 0.277501
0.801358 0.983093 0.296727
0.968872 0.966522 0.320439
1.000000 0.896818 0.428138
0.170138 1.000000 0.254002
0.207340 1.000000 0.254368
0.319402 1.000000 0.266361
0.454414 1.000000 0.288212
0.598505 1.000000 0.319677
0.737758 1.000000 0.345464
0.877226 1.000000 0.370428
1.000000 0.988190 0.402655
0.000000 0.088106 0.410193
0.103334 0.115480 0.455238
0.485328 0.208255 0.560723
0.677852 0.197269 0.473213
0.860349 0.514397 0.485145
0.931914 0.733883 0.587121
0.976684 0.805386 0.655482
1.000000 0.820920 0.678523
0.000000 0.205325 0.387243
0.063752 0.243565 0.429725
0.479500 0.355627 0.543114
0.666346 0.310948 0.459174
0.856596 0.603906 0.509331
0.927916 0.771389 0.613947
0.979004 0.806546 0.654932
1.000000 0.820401 0.676478
0.000000 0.371191 0.346471
0.000000 0.395697 0.361151
0.438819 0.584527 0.484047
0.691157 0.654444 0.498695
0.857084 0.766598 0.587884
0.939574 0.793179 0.624720
0.986908 0.810147 0.652094
1.000000 0.820768 0.671595
0.000000 0.664240 0.375921
0.000000 0.686976 0.381353
0.367285 0.756527 0.413123
0.689662 0.787747 0.455695
0.905608 0.796689 0.585962
0.963317 0.807919 0.620417
1.000000 0.816678 0.645411
1.000000 0.825010 0.666224
0.000000 0.851041 0.337377
0.000000 0.858213 0.340276
0.359075 0.877134 0.374853
0.618616 0.889250 0.417456
0.817594 0.881041 0.435126
0.962707 0.844236 0.571496
1.000000 0.830533 0.637751
1.000000 0.834775 0.661433
0.000000 0.940307 0.315068
0.101289 0.941344 0.328893
0.370764 0.944457 0.363165
0.567712 0.947814 0.401923
0.737545 0.943359 0.425513
0.904753 0.932219 0.445411
0.998596 0.883024 0.563897
1.000000 0.857237 0.647456
0.218997 0.991974 0.347448
0.280522 0.991516 0.358587
0.394751 0.991455 0.374853
0.532586 0.990845 0.398230
0.685878 0.987396 0.435126
0.825467 0.978119 0.455756
0.966827 0.965332 0.479896
1.000000 0.916533 0.578546
0.378912 1.000000 0.410803
0.394873 1.000000 0.411872
0.442390 1.000000 0.412421
0.528283 1.000000 0.420081
0.654597 1.000000 0.453285
0.777646 1.000000 0.484443
0.895903 1.000000 0.508171
1.000000 0.987488 0.537163
0.000000 0.110842 0.523583
0.074067 0.131746 0.558953
0.408423 0.228458 0.671656
0.705348 0.305852 0.688167
0.828367 0.303410 0.561395
0.923613 0.595727 0.567681
0.970092 0.771603 0.655787
0.996155 0.849821 0.731960
0.000000 0.200900 0.498390
0.000000 0.226566 0.534691
0.402564 0.333349 0.652583
0.703212 0.406348 0.678157
0.820798 0.381292 0.555047
0.919280 0.652705 0.586603
0.966827 0.795254 0.673121
0.993927 0.861601 0.744259
0.000000 0.295171 0.385931
0.000000 0.335149 0.429999
0.346502 0.492256 0.572625
0.690364 0.613855 0.644648
0.811551 0.621851 0.571160
0.908995 0.784634 0.652583
0.958770 0.856291 0.726772
0.989654 0.889464 0.775753
0.000000 0.533593 0.420386
0.000000 0.552178 0.431373
0.239567 0.625635 0.477821
0.654505 0.768673 0.589899
0.824765 0.844938 0.674403
0.916258 0.868315 0.720058
0.967285 0.880949 0.749294
0.999268 0.887266 0.767208
0.000000 0.797971 0.452216
0.000000 0.807675 0.456611
0.317449 0.837095 0.484047
0.636133 0.871946 0.563958
0.814908 0.878721 0.608362
0.951263 0.886687 0.726619
0.987121 0.889189 0.747829
1.000000 0.892149 0.764187
0.000000 0.919280 0.423011
0.000000 0.921019 0.430518
0.389593 0.925200 0.472023
0.613184 0.931304 0.541650
0.760678 0.935607 0.577447
0.893431 0.928679 0.599603
0.988281 0.911345 0.713893
1.000000 0.904845 0.768093
0.211856 0.982727 0.428107
0.288579 0.981842 0.441535
0.465888 0.978119 0.493904
0.608148 0.976776 0.542382
0.722011 0.978058 0.568902
0.844480 0.972930 0.597772
0.960906 0.964477 0.620630
1.000000 0.934722 0.712001
0.403235 1.000000 0.481483
0.442573 1.000000 0.496376
0.550866 1.000000 0.544701
0.628779 1.000000 0.569207
0.698451 1.000000 0.572656
0.811490 1.000000 0.611902
0.910216 0.996826 0.633387
1.000000 0.987060 0.658869
0.000000 0.129793 0.643763
0.000000 0.147036 0.665309
0.324468 0.222660 0.733852
0.635584 0.422675 0.827268
0.847715 0.415106 0.777157
0.911589 0.439521 0.634607
0.968963 0.656886 0.640894
1.000000 0.799283 0.714870
0.000000 0.201236 0.622980
0.000000 0.219699 0.646052
0.319493 0.298283 0.718990
0.642725 0.501701 0.817197
0.842863 0.487007 0.769009
0.906035 0.491432 0.634424
0.965148 0.692897 0.654444
0.997589 0.814817 0.726406
0.000000 0.299199 0.537469
0.000000 0.325536 0.566278
0.278355 0.432654 0.658473
0.653834 0.656428 0.779690
0.826505 0.649287 0.745663
0.887419 0.621485 0.636439
0.954711 0.785153 0.699611
0.990448 0.857694 0.762142
0.000000 0.415442 0.439673
0.000000 0.417700 0.444587
0.000000 0.460151 0.490486
0.607507 0.738308 0.695186
0.802090 0.783047 0.717983
0.881132 0.811368 0.701381
0.946807 0.873503 0.764370
0.983215 0.906493 0.812680
0.000000 0.688563 0.511223
0.000000 0.698604 0.518578
0.126040 0.737209 0.548882
0.531090 0.806210 0.615473
0.787503 0.875578 0.713954
0.897398 0.909361 0.781460
0.953887 0.923339 0.818997
0.986633 0.931975 0.844205
0.000000 0.886961 0.531762
0.000000 0.889860 0.535943
0.317052 0.898131 0.558099
0.583368 0.909331 0.615564
0.769162 0.925261 0.690455
0.889006 0.928771 0.731716
0.980102 0.936400 0.830625
1.000000 0.937072 0.844663
0.165896 0.969512 0.518395
0.250858 0.969024 0.526635
0.428901 0.966918 0.559503
0.612207 0.964172 0.619837
0.752377 0.965667 0.681636
0.853727 0.968353 0.712947
0.950317 0.962951 0.736233
1.000000 0.951690 0.825772
0.386725 1.000000 0.547265
0.424140 1.000000 0.557885
0.528618 1.000000 0.593439
0.655299 1.000000 0.649012
0.758297 0.999542 0.698604
0.827695 0.999451 0.711086
0.919036 0.993805 0.740932
1.000000 0.986999 0.764584
0.000000 0.147524 0.760586
0.000000 0.162783 0.772580
0.252781 0.223209 0.808438
0.512566 0.369451 0.863401
0.768521 0.550469 0.893584
0.925353 0.536767 0.833036
0.967895 0.563439 0.709865
1.000000 0.701350 0.706508
0.000000 0.202884 0.742184
0.000000 0.217746 0.755154
0.246006 0.277745 0.794339
0.515373 0.423682 0.852781
0.772946 0.599542 0.887419
0.919066 0.572747 0.826596
0.962036 0.586389 0.708370
1.000000 0.717433 0.711086
0.000000 0.302007 0.689815
0.000000 0.320867 0.704982
0.209171 0.395239 0.753140
0.528099 0.561242 0.823087
0.795254 0.731258 0.876982
0.907103 0.689052 0.818814
0.950256 0.681270 0.720974
0.993530 0.787533 0.745998
0.000000 0.376989 0.545434
0.000000 0.387060 0.567987
0.000000 0.454810 0.650538
0.496376 0.653346 0.757900
0.816495 0.837949 0.863951
0.892973 0.799435 0.813352
0.935943 0.780179 0.741573
0.984527 0.859373 0.792416
0.000000 0.574548 0.551812
0.000000 0.572442 0.552148
0.000000 0.569421 0.557946
0.163607 0.576562 0.577600
0.739284 0.843442 0.784573
0.875120 0.866392 0.804715
0.930846 0.880369 0.793545
0.978241 0.917906 0.844236
0.000000 0.814389 0.618830
0.000000 0.817411 0.621912
0.000000 0.828458 0.634485
0.379919 0.847990 0.661860
0.654810 0.876371 0.712825
0.860777 0.919890 0.802090
0.943542 0.950072 0.868437
0.979187 0.960113 0.899870
0.000000 0.954589 0.623743
0.000000 0.954833 0.627771
0.325017 0.954131 0.642786
0.534752 0.952636 0.675990
0.716793 0.953307 0.730495
0.856321 0.960815 0.799161
0.944366 0.963256 0.839231
0.996063 0.968353 0.910948
0.331243 1.000000 0.622644
0.370153 1.000000 0.629206
0.482612 1.000000 0.654688
0.615656 1.000000 0.694850
0.745388 0.994324 0.748074
0.854002 0.990753 0.807706
0.922515 0.991272 0.832059
0.990478 0.986664 0.855406
0.000000 0.156130 0.859525
0.000000 0.168093 0.865049
0.151949 0.213443 0.881346
0.411383 0.320256 0.909880
0.661646 0.521111 0.941711
0.851377 0.619013 0.939147
0.975677 0.617670 0.882414
1.000000 0.654902 0.780911
0.000000 0.201633 0.849393
0.000000 0.213291 0.855283
0.140566 0.258152 0.873259
0.412360 0.363836 0.903014
0.668086 0.560876 0.936431
0.853696 0.652674 0.936278
0.972229 0.642908 0.881102
1.000000 0.673182 0.783566
0.000000 0.293400 0.817166
0.000000 0.307042 0.823972
0.017914 0.358007 0.845304
0.415503 0.477150 0.882231
0.688838 0.664668 0.920897
0.863310 0.745022 0.930175
0.963470 0.722194 0.881437
0.996277 0.734005 0.797086
0.000000 0.367163 0.745724
0.000000 0.373144 0.756039
0.000000 0.430884 0.788235
0.380072 0.569207 0.837888
0.694453 0.748898 0.892638
0.876677 0.837552 0.925719
0.953674 0.808011 0.885771
0.986664 0.801877 0.815976
0.000000 0.507713 0.657649
0.000000 0.499672 0.657008
0.000000 0.465431 0.650874
0.000000 0.529320 0.739193
0.615961 0.761837 0.835660
0.883330 0.898039 0.922728
0.945373 0.873747 0.892851
0.977111 0.859037 0.834501
0.000000 0.719295 0.696712
0.000000 0.716213 0.695644
0.000000 0.705562 0.693477
0.000000 0.686427 0.692592
0.218753 0.667079 0.695827
0.809171 0.893339 0.863432
0.938964 0.924498 0.901671
0.972076 0.921874 0.873320
0.000000 0.923857 0.759304
0.000000 0.923461 0.759548
0.000000 0.921813 0.760983
0.177707 0.919097 0.765835
0.499306 0.916381 0.777188
0.722408 0.919951 0.804501
0.929900 0.960906 0.905699
0.974609 0.971069 0.927031
0.000000 1.000000 0.728969
0.124300 1.000000 0.731136
0.320500 1.000000 0.740780
0.501549 1.000000 0.761471
0.666957 0.993194 0.793179
0.808133 0.986694 0.836576
0.920867 0.985443 0.896361
0.980865 0.986633 0.933532
