其他预设/【232】美食博客调色预设124款/1.3D LUT预设（视频调色-PR-AE-PS-FCPX-达芬奇用）/Yummy #18 ().cube
# Created by Adobe Lightroom plugin Export LUT (1.17.0)
# www.johnrellis.com/lightroom/exportlut.htm
# Preset: Yummy #18 (素锦印象)
# Color profile: /Library/Application Support/Adobe/Color/Profiles/Recommended/AdobeRGB1998.icc
LUT_3D_SIZE 8
DOMAIN_MIN 0.000000 0.000000 0.000000
DOMAIN_MAX 0.903226 0.903226 0.903226
0.099489 0.105562 0.102388
0.157839 0.108888 0.100069
0.319677 0.128176 0.084657
0.579644 0.174044 0.000000
0.739010 0.219577 0.000000
0.827634 0.247593 0.000000
0.894652 0.261448 0.000000
0.974853 0.271458 0.000000
0.111788 0.133944 0.116518
0.149142 0.142367 0.107668
0.305058 0.171939 0.079133
0.553643 0.223392 0.000000
0.729580 0.259281 0.000000
0.814817 0.273136 0.000000
0.882658 0.280064 0.000000
0.966064 0.287175 0.000000
0.136690 0.206302 0.146059
0.170413 0.210239 0.139040
0.272435 0.237491 0.110170
0.548211 0.327550 0.000000
0.727504 0.360662 0.000000
0.812558 0.352728 0.000000
0.890410 0.348089 0.000000
0.975006 0.346349 0.000000
0.175296 0.334295 0.192905
0.214786 0.335363 0.185214
0.306981 0.340764 0.156252
0.511986 0.416968 0.070436
0.732753 0.467811 0.000000
0.813565 0.449104 0.000000
0.885130 0.433692 0.000000
0.969268 0.423285 0.000000
0.239078 0.510918 0.268193
0.284062 0.512413 0.262242
0.400122 0.516716 0.227878
0.522423 0.525017 0.172549
0.675929 0.544854 0.001434
0.788632 0.530144 0.000000
0.869963 0.513512 0.000000
0.960510 0.507805 0.000000
0.357885 0.654932 0.397955
0.397498 0.661433 0.406561
0.470192 0.657954 0.370092
0.570428 0.652155 0.308751
0.668971 0.643275 0.225010
0.760586 0.618677 0.127596
0.853788 0.597192 0.000000
0.956268 0.595087 0.000000
0.514916 0.732235 0.561822
0.530968 0.732723 0.565362
0.553582 0.730312 0.537041
0.608240 0.726894 0.490120
0.671931 0.720851 0.417609
0.748867 0.710140 0.334051
0.826841 0.684627 0.245212
0.933043 0.675349 0.000000
0.629480 0.795590 0.679530
0.636744 0.795468 0.680873
0.649622 0.795743 0.671138
0.678645 0.798245 0.655451
0.706996 0.789273 0.608057
0.760952 0.792782 0.563775
0.823545 0.789029 0.511742
0.923033 0.793454 0.429572
0.093355 0.131472 0.143679
0.132937 0.121553 0.139590
0.289189 0.125154 0.112551
0.536614 0.191104 0.014893
0.719600 0.256809 0.000000
0.807553 0.273350 0.000000
0.876188 0.275792 0.000000
0.958923 0.277928 0.000000
0.101656 0.149691 0.148165
0.140993 0.151736 0.148989
0.286900 0.165072 0.120424
0.530419 0.222416 0.014710
0.715602 0.279149 0.000000
0.801358 0.294957 0.000000
0.867979 0.292363 0.000000
0.949920 0.291966 0.000000
0.134798 0.204105 0.174014
0.163790 0.222171 0.176120
0.269596 0.241672 0.142336
0.529961 0.311162 0.000000
0.712581 0.348241 0.000000
0.797726 0.357763 0.000000
0.869169 0.351171 0.000000
0.955779 0.346166 0.000000
0.165499 0.326238 0.223331
0.197910 0.341100 0.217350
0.304723 0.349096 0.187442
0.483070 0.398566 0.120394
0.706264 0.447120 0.000000
0.794003 0.432868 0.000000
0.862699 0.428473 0.000000
0.950317 0.419104 0.000000
0.222354 0.509972 0.299962
0.264591 0.516167 0.295171
0.384192 0.516594 0.261265
0.505089 0.515312 0.201541
0.656947 0.531670 0.095613
0.778134 0.521477 0.000000
0.859434 0.504143 0.000000
0.948272 0.503838 0.000000
0.332067 0.648066 0.403601
0.371923 0.649866 0.412299
0.451026 0.647639 0.384375
0.557000 0.644373 0.327855
0.659571 0.638666 0.249424
0.755886 0.617060 0.160739
0.848753 0.593378 0.000000
0.948577 0.588006 0.000000
0.486549 0.726009 0.546685
0.507927 0.724117 0.554620
0.539910 0.722652 0.536767
0.597986 0.721431 0.496468
0.665278 0.717372 0.430823
0.743252 0.707607 0.345800
0.818143 0.678340 0.253178
0.921355 0.666041 0.000000
0.617151 0.790402 0.672877
0.628565 0.791226 0.678492
0.645686 0.792142 0.673884
0.674403 0.795071 0.659113
0.713558 0.796048 0.630182
0.761898 0.796109 0.582757
0.820035 0.787961 0.520897
0.916991 0.789334 0.434150
0.000000 0.222416 0.277806
0.017273 0.206699 0.273747
0.225834 0.153109 0.242832
0.532647 0.000000 0.196445
0.727901 0.149996 0.102663
0.810422 0.239475 0.000000
0.878782 0.285405 0.000000
0.963012 0.301854 0.000000
0.000000 0.239536 0.279088
0.066896 0.234623 0.279637
0.231479 0.180331 0.249729
0.520165 0.093172 0.192264
0.719692 0.200198 0.109560
0.804776 0.260472 0.000000
0.872892 0.297856 0.000000
0.957977 0.315282 0.000000
0.040345 0.281437 0.288884
0.113222 0.280369 0.287236
0.250034 0.268772 0.271092
0.515190 0.280766 0.209232
0.717800 0.312779 0.124056
0.802243 0.327092 0.000000
0.870756 0.343297 0.000000
0.955077 0.361944 0.000000
0.146426 0.342687 0.310277
0.185153 0.353155 0.318761
0.291630 0.401038 0.319524
0.494728 0.424506 0.240879
0.712276 0.441108 0.144442
0.797482 0.419318 0.000000
0.868803 0.413458 0.000000
0.953857 0.426642 0.000000
0.216587 0.512932 0.409735
0.250614 0.525048 0.410468
0.364294 0.555261 0.401099
0.515984 0.555962 0.334325
0.663905 0.550072 0.233280
0.780484 0.522332 0.112032
0.861021 0.496559 0.000000
0.950713 0.496956 0.000000
0.339879 0.649500 0.494209
0.367498 0.653437 0.494453
0.452827 0.660395 0.496498
0.551537 0.656184 0.443305
0.650446 0.648676 0.360388
0.748165 0.622370 0.267643
0.844694 0.593286 0.126528
0.951751 0.583581 0.000000
0.501640 0.727596 0.599145
0.513878 0.727626 0.599420
0.558892 0.727321 0.606500
0.600702 0.725460 0.574517
0.659754 0.721492 0.513420
0.737942 0.716976 0.433265
0.815183 0.689479 0.347784
0.927886 0.676844 0.174807
0.615442 0.790738 0.690364
0.619684 0.790799 0.689174
0.644739 0.793118 0.694789
0.675410 0.798306 0.687709
0.713191 0.798672 0.662409
0.758663 0.799832 0.624140
0.816526 0.795499 0.570672
0.914366 0.800198 0.496895
0.000000 0.395666 0.524590
0.000000 0.387884 0.525658
0.000000 0.276890 0.491127
0.390997 0.186099 0.424537
0.695003 0.106722 0.402411
0.801724 0.092073 0.252903
0.871641 0.197574 0.144656
0.956207 0.251011 0.000000
0.000000 0.415961 0.531914
0.000000 0.409369 0.532708
0.000000 0.318730 0.500816
0.399237 0.215244 0.433722
0.693904 0.181827 0.405737
0.797787 0.164462 0.258610
0.868223 0.222843 0.147768
0.954101 0.265629 0.000000
0.000000 0.447669 0.528466
0.000000 0.442939 0.526513
0.084627 0.418433 0.515862
0.420630 0.312108 0.457282
0.694026 0.292271 0.394141
0.794461 0.303227 0.294682
0.874449 0.303624 0.174685
0.960754 0.317571 0.000000
0.000000 0.505669 0.535576
0.000000 0.503380 0.532677
0.206058 0.499123 0.526513
0.452125 0.470863 0.491920
0.677485 0.456947 0.421942
0.781613 0.423377 0.323857
0.863737 0.393164 0.192966
0.956573 0.390326 0.000000
0.108492 0.557702 0.533165
0.184176 0.560510 0.534905
0.348028 0.570642 0.544823
0.506706 0.599084 0.550896
0.650019 0.585260 0.452735
0.771206 0.544701 0.368383
0.857847 0.498604 0.238285
0.953979 0.478462 0.000000
0.367773 0.656764 0.601678
0.402838 0.664454 0.609003
0.472389 0.670375 0.609369
0.564538 0.679316 0.611475
0.642054 0.674739 0.548669
0.736110 0.648188 0.450477
0.839109 0.611353 0.339269
0.952941 0.578973 0.079408
0.515465 0.727260 0.658503
0.529747 0.728634 0.660700
0.568353 0.732296 0.665003
0.620722 0.737575 0.669612
0.665919 0.735378 0.634272
0.724971 0.730800 0.570977
0.804044 0.708858 0.483986
0.925017 0.691402 0.337987
0.623194 0.794430 0.725887
0.628534 0.795926 0.726345
0.643580 0.799527 0.724819
0.674800 0.806394 0.725277
0.710262 0.806394 0.706630
0.754391 0.806882 0.676081
0.813199 0.808469 0.633906
0.907408 0.814389 0.576776
0.000000 0.529900 0.697841
0.000000 0.526482 0.698909
0.000000 0.476600 0.689509
0.143526 0.315465 0.663081
0.578363 0.273075 0.622583
0.746212 0.341527 0.555993
0.843626 0.356451 0.490639
0.948150 0.251255 0.328710
0.000000 0.539910 0.697536
0.000000 0.536950 0.699733
0.000000 0.497719 0.692348
0.174441 0.349035 0.667384
0.579828 0.303075 0.624353
0.745205 0.370764 0.562737
0.843381 0.364721 0.488228
0.947509 0.267948 0.328832
0.000000 0.566064 0.695552
0.000000 0.563378 0.695521
0.000000 0.549340 0.692134
0.307378 0.467659 0.673610
0.583093 0.390661 0.628107
0.738949 0.446906 0.580224
0.836332 0.412482 0.494759
0.943297 0.310857 0.320134
0.000000 0.607935 0.694423
0.000000 0.606806 0.693965
0.098878 0.603082 0.691829
0.406836 0.593072 0.682948
0.594293 0.517906 0.640131
0.732815 0.544335 0.608850
0.831327 0.484199 0.508659
0.946441 0.373693 0.298375
0.000000 0.661219 0.695369
0.000000 0.660883 0.694697
0.286320 0.657282 0.689906
0.473640 0.648463 0.678828
0.602564 0.622126 0.649287
0.725002 0.606622 0.607324
0.824643 0.557580 0.514763
0.942290 0.476081 0.318517
0.257816 0.698054 0.686061
0.298985 0.695064 0.683528
0.405066 0.682033 0.672663
0.539940 0.676448 0.673365
0.622370 0.683040 0.670344
0.705592 0.675563 0.614710
0.815091 0.654719 0.556085
0.938140 0.598474 0.390021
0.502312 0.732387 0.705348
0.518181 0.731411 0.706172
0.566430 0.729519 0.710445
0.614374 0.734768 0.713466
0.659541 0.743343 0.708888
0.708278 0.740078 0.670710
0.782284 0.727718 0.607477
0.909972 0.712123 0.499458
0.620600 0.788235 0.754788
0.624781 0.789059 0.754726
0.638849 0.792599 0.754421
0.665644 0.805142 0.756802
0.699001 0.814878 0.749569
0.745418 0.814023 0.723995
0.801114 0.815152 0.687922
0.892943 0.821561 0.640925
0.000000 0.598077 0.776852
0.000000 0.596857 0.776638
0.000000 0.576959 0.772702
0.279057 0.544305 0.765347
0.443977 0.462684 0.747799
0.673426 0.433417 0.720668
0.780117 0.521721 0.678523
0.895628 0.582635 0.695674
0.000000 0.602472 0.772488
0.000000 0.600275 0.772488
0.000000 0.586175 0.770321
0.306371 0.558953 0.762417
0.446937 0.474342 0.745205
0.671412 0.447120 0.718563
0.778470 0.531273 0.680049
0.893919 0.588830 0.696773
0.000000 0.624811 0.772396
0.000000 0.623987 0.772641
0.000000 0.622370 0.773007
0.367468 0.607080 0.765164
0.486366 0.536004 0.747341
0.672816 0.510277 0.720333
0.777981 0.572961 0.693568
0.895537 0.599817 0.693996
0.000000 0.659480 0.773007
0.000000 0.658869 0.772152
0.201907 0.660151 0.770932
0.439673 0.668147 0.769955
0.568139 0.634089 0.753872
0.679530 0.597070 0.727687
0.783719 0.629236 0.714992
0.903624 0.603967 0.676600
0.000000 0.695460 0.767575
0.162142 0.695857 0.767330
0.328771 0.697169 0.765805
0.486732 0.699702 0.762570
0.598810 0.696559 0.755154
0.678065 0.651942 0.726528
0.784787 0.666560 0.718441
0.903532 0.620966 0.652094
0.314946 0.732387 0.763363
0.351446 0.733333 0.763912
0.439979 0.732784 0.762325
0.540215 0.730709 0.758694
0.619440 0.724361 0.750759
0.682856 0.706844 0.731716
0.785061 0.703700 0.709224
0.908415 0.674647 0.643091
0.478218 0.772091 0.772000
0.495888 0.772122 0.772427
0.540185 0.769436 0.770809
0.598169 0.760250 0.763668
0.657404 0.754879 0.759640
0.703243 0.760159 0.752956
0.766354 0.753323 0.710811
0.900145 0.755947 0.663111
0.594812 0.803220 0.786221
0.601526 0.803006 0.786282
0.623804 0.803281 0.787350
0.658350 0.806638 0.791196
0.692042 0.814969 0.792081
0.730343 0.829435 0.780941
0.789609 0.828367 0.747097
0.880797 0.833738 0.706142
0.000000 0.654414 0.836851
0.000000 0.656428 0.836332
0.000000 0.653956 0.835569
0.358679 0.652216 0.829465
0.500023 0.623499 0.816922
0.601282 0.591547 0.796933
0.728878 0.572808 0.777279
0.834257 0.626764 0.767330
0.000000 0.659968 0.834440
0.000000 0.660761 0.834745
0.000000 0.660731 0.834562
0.364294 0.657496 0.827848
0.509911 0.632471 0.815457
0.602747 0.597559 0.795865
0.727504 0.578027 0.775906
0.832822 0.628779 0.766384
0.000000 0.678401 0.834165
0.000000 0.678859 0.834195
0.000000 0.681819 0.833982
0.399664 0.683864 0.829160
0.550500 0.669032 0.816587
0.616541 0.626459 0.798001
0.729274 0.607904 0.777829
0.838102 0.646296 0.773007
0.000000 0.705135 0.833310
0.000000 0.705318 0.832792
0.237644 0.708522 0.832212
0.440497 0.718441 0.831174
0.584161 0.712367 0.821256
0.634485 0.665614 0.803586
0.732753 0.647120 0.781552
0.847288 0.670161 0.781033
0.186282 0.735744 0.829618
0.234134 0.736233 0.829252
0.351232 0.739040 0.828641
0.478370 0.744259 0.828092
0.587945 0.748836 0.826810
0.656214 0.711971 0.809689
0.735286 0.683833 0.784360
0.860624 0.698329 0.787716
0.364630 0.770230 0.827543
0.387976 0.770809 0.827420
0.455268 0.772824 0.827268
0.535546 0.775662 0.827237
0.608606 0.777005 0.826810
0.677455 0.772610 0.823514
0.742428 0.727413 0.791745
0.878477 0.737362 0.792142
0.484810 0.802914 0.828305
0.497719 0.803372 0.828550
0.535027 0.804105 0.828580
0.584588 0.805295 0.828702
0.637385 0.805386 0.827512
0.692927 0.801816 0.822629
0.748714 0.778103 0.798367
0.883635 0.776425 0.770474
0.564813 0.845304 0.844388
0.571252 0.845518 0.844480
0.593042 0.847471 0.845884
0.624720 0.848814 0.846189
0.666407 0.845396 0.841733
0.721614 0.843473 0.837552
0.778653 0.854917 0.828916
0.867552 0.850401 0.777401
0.000000 0.734554 0.911589
0.000000 0.736751 0.911345
0.134768 0.740810 0.909300
0.435340 0.747768 0.905180
0.582635 0.749050 0.899199
0.616724 0.700435 0.889311
0.706294 0.686213 0.870176
0.804898 0.669337 0.853391
0.000000 0.738430 0.910552
0.000000 0.739773 0.910124
0.156771 0.745235 0.908904
0.437812 0.751431 0.904784
0.582635 0.752010 0.898955
0.619989 0.705440 0.889158
0.706233 0.688716 0.869932
0.804410 0.671687 0.852934
0.000000 0.749935 0.908873
0.000000 0.750942 0.908354
0.221866 0.756100 0.907286
0.446387 0.766445 0.906065
0.584283 0.764523 0.900603
0.632471 0.724331 0.890959
0.708492 0.700099 0.872374
0.806241 0.682643 0.854734
0.000000 0.767483 0.908049
0.000000 0.768460 0.907622
0.266606 0.773312 0.906859
0.451423 0.785153 0.907073
0.582269 0.785916 0.904326
0.651728 0.756741 0.896086
0.711971 0.719509 0.878538
0.810666 0.701015 0.859190
0.202274 0.794247 0.905058
0.240177 0.795193 0.905364
0.332341 0.797330 0.905547
0.437232 0.800778 0.906584
0.568566 0.810391 0.907836
0.665156 0.796445 0.902922
0.713222 0.744961 0.887205
0.816983 0.726223 0.865568
0.371557 0.826963 0.903929
0.387396 0.827207 0.903807
0.435645 0.828397 0.903838
0.499825 0.830289 0.904753
0.568566 0.832120 0.907164
0.652644 0.835538 0.911894
0.727474 0.794247 0.901701
0.827024 0.762631 0.875547
0.479072 0.860349 0.905364
0.487556 0.860472 0.905364
0.514336 0.861143 0.905608
0.555200 0.862791 0.906828
0.604517 0.864897 0.909087
0.662745 0.867155 0.912993
0.747860 0.869261 0.918059
0.837003 0.814054 0.885588
0.550439 0.892760 0.909819
0.555444 0.892943 0.909880
0.572564 0.894102 0.910613
0.601556 0.896910 0.912566
0.640803 0.900664 0.915068
0.693751 0.905241 0.917845
0.770443 0.910185 0.919982
0.849760 0.889799 0.898466
