其他预设/【232】美食博客调色预设124款/1.3D LUT预设（视频调色-PR-AE-PS-FCPX-达芬奇用）/Yummy #16.cube
# Created by Adobe Lightroom plugin Export LUT (1.17.0)
# www.johnrellis.com/lightroom/exportlut.htm
# Preset: Yummy #16
# Color profile: /Library/Application Support/Adobe/Color/Profiles/Recommended/AdobeRGB1998.icc
LUT_3D_SIZE 5
DOMAIN_MIN 0.000000 0.000000 0.000000
DOMAIN_MAX 0.903226 0.903226 0.903226
0.000000 0.000000 0.000000
0.085908 0.000000 0.000000
0.357031 0.000000 0.000000
0.802457 0.000000 0.000000
1.000000 0.146181 0.000000
0.007843 0.082856 0.023468
0.089601 0.102083 0.000183
0.400916 0.077943 0.000000
0.822995 0.000000 0.000000
1.000000 0.321050 0.000000
0.000000 0.375036 0.093721
0.000000 0.362554 0.083467
0.470344 0.500877 0.000000
0.875547 0.535088 0.000000
1.000000 0.592828 0.000000
0.000000 0.798978 0.296086
0.000000 0.795956 0.241123
0.479438 0.760983 0.338415
0.853971 0.856291 0.000000
1.000000 0.828122 0.000000
0.520836 0.982849 0.686549
0.551812 0.980499 0.669062
0.691188 0.962493 0.690242
0.848875 0.952453 0.762417
1.000000 0.956909 0.626642
0.037110 0.000000 0.082918
0.092103 0.000000 0.067994
0.350256 0.000000 0.076844
0.758755 0.000000 0.042115
1.000000 0.000000 0.000000
0.000000 0.088258 0.106264
0.088014 0.110903 0.118013
0.383612 0.080751 0.107759
0.786557 0.000000 0.025666
1.000000 0.273564 0.000000
0.000000 0.398444 0.207431
0.000000 0.408423 0.199405
0.449042 0.478614 0.125277
0.855344 0.509941 0.000000
1.000000 0.587243 0.003571
0.000000 0.810178 0.400031
0.137636 0.811948 0.390631
0.496284 0.778134 0.407935
0.849729 0.854765 0.261601
1.000000 0.828458 0.192081
0.528618 0.982330 0.731655
0.581262 0.978119 0.730007
0.710231 0.965576 0.744137
0.855009 0.952117 0.807523
0.998444 0.957122 0.693538
0.000000 0.000000 0.342779
0.241367 0.000000 0.373205
0.450935 0.000000 0.270390
0.844114 0.000000 0.259434
1.000000 0.000000 0.338659
0.000000 0.090822 0.373266
0.140566 0.075196 0.398840
0.475135 0.000000 0.326452
0.827390 0.000000 0.314244
1.000000 0.226871 0.409644
0.000000 0.391913 0.450080
0.000000 0.420386 0.466072
0.474189 0.507408 0.515038
0.815061 0.514488 0.486488
1.000000 0.582910 0.473762
0.000000 0.842222 0.658442
0.000000 0.838529 0.643214
0.533806 0.831418 0.631647
0.839078 0.857908 0.592584
1.000000 0.836088 0.590326
0.424689 0.988586 0.814389
0.525963 0.983154 0.819364
0.725704 0.966674 0.838804
0.856352 0.948333 0.870146
0.984741 0.955230 0.810697
0.294041 0.000000 0.727993
0.456214 0.000000 0.748409
0.780758 0.000000 0.786191
0.869169 0.000000 0.605035
1.000000 0.000000 0.544030
0.133150 0.000000 0.738552
0.370214 0.000000 0.756405
0.767636 0.000000 0.815152
0.864225 0.000000 0.633692
1.000000 0.000000 0.580102
0.000000 0.438575 0.720485
0.000000 0.431373 0.737331
0.567803 0.398962 0.812894
0.842802 0.480446 0.732540
1.000000 0.546502 0.705257
0.000000 0.778714 0.835325
0.000000 0.785367 0.837522
0.433417 0.813474 0.854063
0.820890 0.861479 0.887205
0.975433 0.847105 0.861295
0.178134 1.000000 0.941833
0.364263 0.996582 0.938445
0.656062 0.978759 0.930205
0.869535 0.956329 0.932921
0.975067 0.953948 0.923705
0.651820 0.000000 0.985870
0.719875 0.000000 0.987091
0.891814 0.000000 0.992004
1.000000 0.000000 0.939147
1.000000 0.000000 0.843198
0.591638 0.000000 0.984405
0.671199 0.000000 0.985565
0.864500 0.000000 0.990234
0.997345 0.000000 0.949371
1.000000 0.224094 0.853239
0.067506 0.387060 0.981048
0.376593 0.373022 0.981842
0.733791 0.359686 0.984955
0.977447 0.462593 0.980682
1.000000 0.568872 0.891600
0.000000 0.808103 0.970489
0.000000 0.803891 0.969329
0.357122 0.792782 0.967163
0.840513 0.771267 0.979461
0.982666 0.857328 0.950896
0.312200 0.960662 0.984314
0.391882 0.959075 0.983948
0.602686 0.954467 0.983734
0.822538 0.949371 0.983307
0.975189 0.953216 0.988067
