其他预设/【232】美食博客调色预设124款/1.3D LUT预设（视频调色-PR-AE-PS-FCPX-达芬奇用）/Yummy #14.cube
# Created by Adobe Lightroom plugin Export LUT (1.17.0)
# www.johnrellis.com/lightroom/exportlut.htm
# Preset: Yummy #14
# Color profile: /Library/Application Support/Adobe/Color/Profiles/Recommended/AdobeRGB1998.icc
LUT_3D_SIZE 5
DOMAIN_MIN 0.000000 0.000000 0.000000
DOMAIN_MAX 0.903226 0.903226 0.903226
0.000000 0.000000 0.000000
0.248905 0.002808 0.000000
0.687922 0.000000 0.000000
0.951598 0.000000 0.000000
1.000000 0.000000 0.000000
0.015564 0.240818 0.000000
0.248142 0.242344 0.000000
0.671870 0.324193 0.000000
0.941497 0.295293 0.000000
1.000000 0.236759 0.000000
0.000000 0.654749 0.000000
0.325872 0.650538 0.000000
0.665126 0.650324 0.000000
0.919768 0.593866 0.000000
1.000000 0.502861 0.000000
0.000000 0.895598 0.000000
0.278813 0.892302 0.000000
0.590143 0.878874 0.000000
0.870787 0.852598 0.000000
1.000000 0.751583 0.000000
0.000000 1.000000 0.000000
0.204471 1.000000 0.000000
0.490455 1.000000 0.000000
0.744930 0.984649 0.000000
0.984863 0.962310 0.000000
0.006683 0.000000 0.196994
0.243809 0.000000 0.211246
0.676570 0.000000 0.175479
0.938537 0.000000 0.119265
1.000000 0.000000 0.065339
0.000000 0.229038 0.199893
0.246830 0.235691 0.187015
0.667842 0.254429 0.149172
0.931426 0.226566 0.092683
1.000000 0.177981 0.008698
0.000000 0.644129 0.151431
0.258091 0.642390 0.033783
0.649134 0.631708 0.000000
0.911131 0.572229 0.000000
1.000000 0.486702 0.000000
0.000000 0.894255 0.000000
0.220279 0.890410 0.000000
0.576654 0.876860 0.000000
0.869017 0.849790 0.000000
1.000000 0.745663 0.000000
0.000000 1.000000 0.000000
0.165652 1.000000 0.000000
0.483406 1.000000 0.000000
0.742947 0.985260 0.000000
0.985046 0.962585 0.000000
0.000000 0.000000 0.557580
0.301762 0.000000 0.566094
0.661891 0.000000 0.578607
0.924437 0.000000 0.496773
1.000000 0.000000 0.457404
0.000000 0.237522 0.540978
0.223117 0.193576 0.553338
0.660822 0.090181 0.560937
0.916228 0.139406 0.489845
1.000000 0.316045 0.491493
0.000000 0.613397 0.539330
0.091249 0.620783 0.533745
0.638514 0.615167 0.515648
0.892454 0.571099 0.499092
1.000000 0.512810 0.466407
0.000000 0.881407 0.463874
0.109377 0.877195 0.453407
0.571435 0.864317 0.471290
0.862028 0.842588 0.458320
1.000000 0.748348 0.450446
0.000000 1.000000 0.405951
0.240116 1.000000 0.429419
0.509880 0.995178 0.446509
0.750057 0.979950 0.444617
0.979309 0.959289 0.443885
0.000000 0.000000 0.829801
0.279026 0.000000 0.831235
0.603815 0.000000 0.837430
0.895293 0.000000 0.795071
1.000000 0.000000 0.691676
0.000000 0.164736 0.821042
0.185672 0.142000 0.822690
0.587884 0.012207 0.829496
0.889006 0.000000 0.786862
1.000000 0.276799 0.699825
0.000000 0.537224 0.793729
0.000000 0.526207 0.792020
0.570428 0.549920 0.798825
0.861692 0.570642 0.772671
0.999939 0.604517 0.743771
0.000000 0.861601 0.772763
0.000000 0.857755 0.768887
0.574060 0.843107 0.767544
0.841398 0.827970 0.774868
0.982544 0.794614 0.766598
0.000000 0.998962 0.669764
0.249821 0.994903 0.678340
0.583154 0.980255 0.721889
0.793362 0.967407 0.756802
0.968078 0.955566 0.758206
0.000000 0.000000 0.965118
0.221408 0.000000 0.964508
0.503746 0.000000 0.963745
0.781521 0.000000 0.961486
1.000000 0.000000 0.909758
0.000000 0.089815 0.960754
0.118257 0.030426 0.960327
0.483497 0.000000 0.959808
0.775875 0.000000 0.957519
0.999878 0.123171 0.907744
0.000000 0.423163 0.946868
0.000000 0.415473 0.947295
0.454566 0.438483 0.946227
0.769924 0.484321 0.945495
0.984436 0.541711 0.909209
0.000000 0.726284 0.931640
0.000000 0.721920 0.930236
0.424872 0.720363 0.926574
0.776028 0.767300 0.927977
0.963897 0.802274 0.918486
0.000000 0.995270 0.914611
0.000000 0.990936 0.913237
0.525322 0.975738 0.912535
0.794430 0.955718 0.916716
0.954040 0.949584 0.932586
