其他预设/【232】美食博客调色预设124款/1.3D LUT预设（视频调色-PR-AE-PS-FCPX-达芬奇用）/Yummy #18 ().cube
# Created by Adobe Lightroom plugin Export LUT (1.17.0)
# www.johnrellis.com/lightroom/exportlut.htm
# Preset: Yummy #18 (素锦印象)
# Color profile: /Library/Application Support/Adobe/Color/Profiles/Recommended/AdobeRGB1998.icc
LUT_3D_SIZE 5
DOMAIN_MIN 0.000000 0.000000 0.000000
DOMAIN_MAX 0.903226 0.903226 0.903226
0.099489 0.105562 0.102388
0.267765 0.121004 0.091310
0.677913 0.200290 0.000000
0.844572 0.251865 0.000000
0.974853 0.271458 0.000000
0.129610 0.184726 0.137636
0.235294 0.209049 0.110658
0.653620 0.324498 0.000000
0.834714 0.330297 0.000000
0.978485 0.330724 0.000000
0.199069 0.413367 0.221927
0.324987 0.422034 0.194125
0.614954 0.495796 0.001984
0.821958 0.484321 0.000000
0.963836 0.464546 0.000000
0.404028 0.683192 0.446418
0.470954 0.682338 0.425116
0.625330 0.672816 0.318608
0.777523 0.634730 0.155795
0.950988 0.614008 0.000000
0.629480 0.795590 0.679530
0.644984 0.795407 0.674037
0.687190 0.788571 0.625666
0.777798 0.794339 0.551110
0.923033 0.793454 0.429572
0.014984 0.188602 0.228519
0.195468 0.144503 0.209262
0.644434 0.138979 0.100313
0.821805 0.268315 0.000000
0.957275 0.294347 0.000000
0.084047 0.238773 0.242618
0.215335 0.232395 0.232456
0.639796 0.279332 0.113100
0.818021 0.323400 0.000000
0.956268 0.343359 0.000000
0.180423 0.415167 0.329412
0.289372 0.460548 0.318883
0.587060 0.484901 0.189242
0.808743 0.465278 0.000000
0.954620 0.466712 0.000000
0.397864 0.682979 0.513115
0.479713 0.688289 0.524834
0.617029 0.680537 0.428260
0.770443 0.639796 0.261173
0.948760 0.608423 0.000000
0.621363 0.795468 0.690242
0.645686 0.797604 0.695888
0.695186 0.799435 0.670039
0.776822 0.801907 0.604181
0.920348 0.804044 0.492134
0.000000 0.477729 0.633143
0.000000 0.423804 0.620630
0.492164 0.215915 0.533013
0.804959 0.227085 0.400183
0.955718 0.204807 0.132143
0.000000 0.512047 0.632959
0.000000 0.492470 0.628779
0.509972 0.318364 0.551934
0.797024 0.317510 0.410132
0.956207 0.267155 0.129213
0.000000 0.602197 0.636469
0.134829 0.596918 0.629786
0.538872 0.557031 0.583215
0.778103 0.506981 0.459236
0.952697 0.418555 0.150118
0.385077 0.686946 0.648005
0.472419 0.683375 0.652705
0.609949 0.698024 0.657893
0.740230 0.675898 0.540581
0.941802 0.605859 0.261967
0.619196 0.789425 0.737972
0.636255 0.794705 0.739590
0.685939 0.809506 0.736477
0.760800 0.808225 0.689174
0.897826 0.814603 0.604639
0.000000 0.608453 0.788388
0.000000 0.599542 0.787381
0.364935 0.537011 0.774197
0.686793 0.467659 0.734432
0.884062 0.584863 0.712306
0.000000 0.628443 0.785397
0.000000 0.626917 0.786313
0.441596 0.593713 0.771756
0.684962 0.515282 0.732723
0.880400 0.605768 0.716304
0.000000 0.681392 0.781003
0.199680 0.682612 0.779873
0.520256 0.689357 0.773739
0.686275 0.624537 0.734585
0.889220 0.634150 0.704250
0.378332 0.750851 0.780453
0.448554 0.749020 0.777890
0.590478 0.746273 0.772610
0.698024 0.723171 0.747189
0.897673 0.702571 0.680690
0.582055 0.808072 0.795102
0.607233 0.809262 0.796719
0.671656 0.816007 0.802884
0.742184 0.837034 0.792752
0.876524 0.835904 0.721279
0.000000 0.734554 0.911589
0.000000 0.739681 0.909850
0.520195 0.750362 0.902495
0.629206 0.688899 0.885893
0.804898 0.669337 0.853391
0.000000 0.746822 0.909606
0.118776 0.751186 0.908232
0.524285 0.763027 0.903197
0.635676 0.703182 0.887327
0.806027 0.679622 0.854551
0.131716 0.780087 0.906706
0.230411 0.781247 0.906188
0.517418 0.797818 0.906645
0.666773 0.760525 0.895171
0.813260 0.712337 0.861814
0.405188 0.836332 0.904784
0.447333 0.837278 0.904784
0.546990 0.840208 0.906737
0.673701 0.842679 0.913298
0.829160 0.773312 0.877714
0.550439 0.892760 0.909819
0.567041 0.893675 0.910307
0.619959 0.898833 0.913909
0.710323 0.906584 0.918578
0.849760 0.889799 0.898466
