其他预设/【232】美食博客调色预设124款/1.3D LUT预设（视频调色-PR-AE-PS-FCPX-达芬奇用）/Yummy #9.cube
# Created by Adobe Lightroom plugin Export LUT (1.17.0)
# www.johnrellis.com/lightroom/exportlut.htm
# Preset: Yummy #9
# Color profile: /Library/Application Support/Adobe/Color/Profiles/Recommended/AdobeRGB1998.icc
LUT_3D_SIZE 5
DOMAIN_MIN 0.000000 0.000000 0.000000
DOMAIN_MAX 0.903226 0.903226 0.903226
0.000000 0.000000 0.000000
0.382727 0.000000 0.078706
0.842191 0.168063 0.201022
0.990265 0.380041 0.330205
1.000000 0.588525 0.445228
0.088685 0.359106 0.115785
0.392004 0.379736 0.148470
0.814603 0.446540 0.228428
0.976928 0.504936 0.345434
1.000000 0.639490 0.459724
0.257053 0.789456 0.240146
0.447852 0.784176 0.250248
0.769986 0.784695 0.299046
0.944457 0.739254 0.394476
1.000000 0.755612 0.492988
0.548760 0.922698 0.393164
0.600885 0.920043 0.400427
0.739071 0.911803 0.423804
0.907927 0.908537 0.479500
1.000000 0.886870 0.555779
0.715480 0.990906 0.533837
0.734859 0.989654 0.538079
0.795224 0.985351 0.551354
0.888487 0.980987 0.585626
0.987335 0.978637 0.645686
0.000000 0.118349 0.301152
0.350713 0.000000 0.334874
0.809751 0.227085 0.388891
0.963256 0.578790 0.481117
1.000000 0.685389 0.546410
0.109468 0.352789 0.326085
0.383001 0.375341 0.351354
0.801694 0.509422 0.412024
0.954528 0.631159 0.483253
1.000000 0.712398 0.551659
0.308690 0.778866 0.365148
0.517082 0.769162 0.394598
0.768795 0.771267 0.425391
0.929534 0.762234 0.491066
1.000000 0.790066 0.568658
0.593652 0.915099 0.460578
0.662837 0.909392 0.489296
0.767086 0.904540 0.504143
0.908263 0.905333 0.544976
1.000000 0.894041 0.610254
0.740169 0.986938 0.578485
0.765133 0.984741 0.591394
0.818540 0.982147 0.605158
0.898924 0.979004 0.633112
0.987701 0.978363 0.688045
0.000000 0.267582 0.536645
0.230655 0.120638 0.561120
0.741207 0.171023 0.603021
0.923705 0.528038 0.578302
1.000000 0.732815 0.656428
0.000000 0.472114 0.511986
0.262364 0.396704 0.545037
0.742550 0.460151 0.599969
0.917235 0.644221 0.606134
1.000000 0.779873 0.684535
0.291569 0.747982 0.558648
0.486732 0.743008 0.564996
0.760494 0.757534 0.604395
0.917113 0.812985 0.672175
0.997620 0.852598 0.723415
0.626429 0.904479 0.595636
0.686122 0.899290 0.610773
0.806119 0.893523 0.650721
0.906950 0.900145 0.678248
0.991119 0.909483 0.729732
0.753323 0.983154 0.654749
0.784207 0.980499 0.672175
0.858793 0.974762 0.719631
0.917327 0.974487 0.738155
0.986481 0.977539 0.781643
0.000000 0.348821 0.708919
0.000000 0.246189 0.719753
0.556268 0.269230 0.746090
0.871824 0.509178 0.763668
0.989960 0.683680 0.741848
0.000000 0.488624 0.690974
0.158053 0.437049 0.702998
0.581842 0.449226 0.734279
0.871824 0.614771 0.759823
0.985443 0.728969 0.752071
0.265385 0.710689 0.654475
0.409308 0.711696 0.652644
0.686793 0.723629 0.704707
0.877928 0.774624 0.762173
0.979950 0.830930 0.786465
0.584497 0.883787 0.724147
0.643854 0.880400 0.726619
0.768093 0.878294 0.741268
0.894285 0.892699 0.783871
0.982818 0.931365 0.854520
0.773983 0.979004 0.785245
0.798703 0.977264 0.792233
0.861234 0.974090 0.812253
0.931640 0.973144 0.846067
0.984405 0.978576 0.878599
0.000000 0.407782 0.861204
0.000000 0.359777 0.865171
0.368292 0.333837 0.874998
0.765438 0.537438 0.886687
0.947967 0.680415 0.895933
0.000000 0.511040 0.850126
0.000000 0.482643 0.854551
0.443153 0.468055 0.866606
0.782467 0.620630 0.881254
0.948699 0.723201 0.895537
0.462074 0.743862 0.819852
0.549615 0.751217 0.823636
0.639979 0.726131 0.843229
0.811734 0.757809 0.872892
0.953155 0.818235 0.900359
0.560204 0.875486 0.828214
0.602777 0.875456 0.827512
0.702785 0.874449 0.827207
0.845548 0.874357 0.870359
0.964813 0.914519 0.920287
0.734493 0.979980 0.893767
0.757839 0.978576 0.895598
0.826291 0.975372 0.903868
0.911040 0.973968 0.921416
0.981048 0.980682 0.953826
