其他预设/【232】美食博客调色预设124款/1.3D LUT预设（视频调色-PR-AE-PS-FCPX-达芬奇用）/Yummy #5.cube
# Created by Adobe Lightroom plugin Export LUT (1.17.0)
# www.johnrellis.com/lightroom/exportlut.htm
# Preset: Yummy #5
# Color profile: /Library/Application Support/Adobe/Color/Profiles/Recommended/AdobeRGB1998.icc
LUT_3D_SIZE 8
DOMAIN_MIN 0.000000 0.000000 0.000000
DOMAIN_MAX 0.903226 0.903226 0.903226
0.000000 0.000000 0.000000
0.165530 0.000000 0.000000
0.375128 0.000000 0.000000
0.604395 0.000000 0.000000
0.775845 0.000000 0.000000
0.898131 0.000000 0.000000
0.981598 0.000000 0.000000
1.000000 0.000000 0.000000
0.007355 0.157015 0.000000
0.163638 0.158083 0.000000
0.363378 0.172610 0.000000
0.587915 0.181735 0.000000
0.765835 0.173922 0.000000
0.884092 0.158694 0.000000
0.972198 0.140719 0.000000
1.000000 0.118502 0.000000
0.018433 0.349523 0.000000
0.183566 0.351385 0.000000
0.362646 0.349187 0.000000
0.585382 0.374548 0.000000
0.761532 0.364141 0.000000
0.880003 0.336187 0.000000
0.974975 0.309117 0.000000
1.000000 0.280186 0.000000
0.065583 0.560327 0.000000
0.200717 0.562066 0.000000
0.394598 0.568017 0.000000
0.594507 0.572198 0.000000
0.765743 0.552270 0.000000
0.877409 0.506706 0.000000
0.966461 0.464515 0.000000
1.000000 0.425086 0.000000
0.084962 0.719692 0.000000
0.199435 0.718776 0.000000
0.377264 0.718654 0.000000
0.558953 0.716274 0.000000
0.729549 0.702327 0.000000
0.855192 0.658564 0.000000
0.949157 0.609491 0.000000
1.000000 0.564172 0.000000
0.100771 0.825956 0.000000
0.194797 0.830076 0.000000
0.352544 0.828031 0.000000
0.517540 0.825193 0.000000
0.676295 0.813352 0.000000
0.830198 0.799985 0.000000
0.938964 0.754116 0.000000
1.000000 0.700984 0.000000
0.105043 0.915679 0.000000
0.184115 0.915953 0.000000
0.325994 0.912657 0.000000
0.476356 0.908751 0.000000
0.625330 0.901396 0.000000
0.769924 0.890562 0.000000
0.910857 0.878691 0.000000
1.000000 0.831876 0.000000
0.099550 0.989960 0.000000
0.171481 0.989227 0.000000
0.303197 0.987304 0.000000
0.443854 0.985016 0.000000
0.579583 0.975250 0.000000
0.717861 0.968902 0.000000
0.853758 0.960693 0.000000
0.986023 0.949523 0.000000
0.001923 0.000000 0.130526
0.159579 0.000000 0.137942
0.361700 0.000000 0.112062
0.585412 0.000000 0.087892
0.762814 0.000000 0.000000
0.879454 0.000000 0.000000
0.968872 0.000000 0.000000
1.000000 0.000000 0.000000
0.000000 0.149569 0.131472
0.162814 0.154116 0.125887
0.356939 0.159426 0.113313
0.578943 0.159640 0.076478
0.756619 0.151369 0.000000
0.872343 0.139223 0.000000
0.961852 0.120485 0.000000
1.000000 0.092805 0.000000
0.000000 0.341283 0.095277
0.171664 0.344732 0.086671
0.360632 0.345037 0.071382
0.575647 0.362005 0.000000
0.747219 0.349981 0.000000
0.866361 0.323796 0.000000
0.960235 0.297368 0.000000
1.000000 0.270115 0.000000
0.000000 0.547204 0.000000
0.179141 0.549615 0.000000
0.382513 0.556695 0.000000
0.573632 0.550500 0.000000
0.740291 0.530022 0.000000
0.856565 0.490791 0.000000
0.951110 0.453040 0.000000
1.000000 0.417151 0.000000
0.000000 0.713924 0.000000
0.178439 0.712184 0.000000
0.366308 0.710323 0.000000
0.547723 0.704311 0.000000
0.716701 0.689052 0.000000
0.844419 0.648157 0.000000
0.941253 0.602289 0.000000
1.000000 0.558770 0.000000
0.049622 0.819059 0.000000
0.175051 0.818875 0.000000
0.341100 0.817441 0.000000
0.509178 0.816495 0.000000
0.670436 0.807248 0.000000
0.826902 0.796231 0.000000
0.935271 0.750088 0.000000
1.000000 0.696986 0.000000
0.065064 0.908232 0.000000
0.165499 0.906645 0.000000
0.315740 0.904540 0.000000
0.469581 0.902678 0.000000
0.620996 0.897307 0.000000
0.765682 0.886229 0.000000
0.905638 0.873320 0.000000
0.999786 0.826505 0.000000
0.062806 0.986297 0.000000
0.156161 0.986084 0.000000
0.295933 0.984527 0.000000
0.439521 0.982605 0.000000
0.581048 0.977966 0.000000
0.718196 0.969879 0.000000
0.852537 0.959625 0.000000
0.983978 0.947509 0.000000
0.001282 0.000000 0.277134
0.162112 0.000000 0.286412
0.361700 0.000000 0.303014
0.587396 0.000000 0.290929
0.767514 0.000000 0.239780
0.880186 0.000000 0.229038
0.970062 0.000000 0.212406
1.000000 0.000000 0.195071
0.000000 0.141909 0.273442
0.151736 0.135012 0.282506
0.360906 0.116426 0.290776
0.580743 0.000000 0.267765
0.758022 0.000000 0.237217
0.873442 0.065492 0.223819
0.964843 0.071290 0.206577
1.000000 0.012848 0.190677
0.000000 0.327550 0.277989
0.129580 0.334905 0.275578
0.361944 0.338323 0.257939
0.579187 0.340520 0.253117
0.752010 0.328222 0.234226
0.867979 0.308507 0.217227
0.959838 0.285313 0.201328
1.000000 0.258579 0.185885
0.000000 0.543023 0.260166
0.000000 0.550683 0.238163
0.360540 0.557946 0.217563
0.580835 0.552605 0.206577
0.744137 0.522820 0.209384
0.858885 0.485634 0.205875
0.952819 0.449165 0.193454
1.000000 0.413062 0.180453
0.000000 0.708583 0.186984
0.000000 0.710780 0.155886
0.341497 0.709895 0.170596
0.544030 0.707393 0.167361
0.723293 0.692622 0.152193
0.846281 0.644678 0.153628
0.940398 0.599634 0.176150
1.000000 0.556542 0.170993
0.000000 0.817563 0.104677
0.075166 0.817166 0.114687
0.321416 0.814878 0.130037
0.499519 0.812497 0.130861
0.665522 0.803586 0.122011
0.824002 0.792020 0.106844
0.931853 0.745022 0.117861
1.000000 0.695644 0.156954
0.000000 0.908507 0.088319
0.119234 0.907286 0.092103
0.300511 0.904082 0.094331
0.461433 0.900633 0.098146
0.616724 0.895445 0.103517
0.763943 0.885252 0.089662
0.907286 0.874540 0.080323
1.000000 0.828031 0.109895
0.000000 0.985290 0.097505
0.118257 0.984375 0.085878
0.280919 0.982269 0.088685
0.433478 0.981384 0.114015
0.577630 0.976562 0.126436
0.717037 0.969451 0.135531
0.852354 0.959777 0.134890
0.984527 0.948486 0.136843
0.000000 0.000000 0.438941
0.166629 0.000000 0.449287
0.365789 0.000000 0.476875
0.574640 0.000000 0.479866
0.751888 0.000000 0.446326
0.867704 0.000000 0.401831
0.956512 0.000000 0.386999
1.000000 0.076600 0.375891
0.000000 0.118685 0.441444
0.140932 0.111635 0.449104
0.361975 0.068025 0.474098
0.577264 0.000000 0.474525
0.749722 0.000000 0.438483
0.863432 0.000000 0.399542
0.952636 0.144015 0.389563
1.000000 0.144564 0.371527
0.000000 0.307500 0.424414
0.040192 0.303380 0.428260
0.333654 0.301244 0.452338
0.574090 0.303258 0.452827
0.741421 0.306035 0.427070
0.858640 0.323461 0.412726
0.953948 0.322576 0.400519
1.000000 0.291539 0.374762
0.000000 0.519890 0.440253
0.000000 0.525017 0.439277
0.313359 0.537407 0.432074
0.571801 0.537194 0.421820
0.726955 0.515251 0.422858
0.845823 0.490486 0.407019
0.942962 0.461372 0.389441
1.000000 0.428077 0.369818
0.000000 0.696040 0.406195
0.000000 0.696712 0.398108
0.295232 0.700526 0.379797
0.538567 0.702968 0.391577
0.723476 0.690120 0.382940
0.840330 0.644587 0.386847
0.934417 0.607202 0.386786
1.000000 0.565454 0.367376
0.000000 0.812222 0.353918
0.000000 0.815824 0.352392
0.301030 0.814298 0.349004
0.499458 0.811521 0.360296
0.668666 0.805234 0.361334
0.824918 0.792233 0.352789
0.928130 0.743526 0.347417
1.000000 0.699672 0.363775
0.000000 0.903441 0.321538
0.075013 0.903563 0.323156
0.300969 0.902525 0.333074
0.461738 0.900664 0.335271
0.619501 0.896452 0.342504
0.765652 0.886473 0.338140
0.906767 0.874449 0.331731
0.998596 0.827176 0.330266
0.100038 0.983215 0.328862
0.185306 0.982727 0.336034
0.305974 0.981170 0.337835
0.431434 0.979339 0.325719
0.577203 0.974578 0.332952
0.717708 0.968292 0.341924
0.851926 0.959106 0.342077
0.983276 0.948791 0.344823
0.000000 0.000000 0.593713
0.163638 0.000000 0.599969
0.349248 0.000000 0.617517
0.552544 0.000000 0.635767
0.735988 0.000000 0.617914
0.854978 0.000000 0.563592
0.946990 0.000000 0.527825
1.000000 0.168521 0.516594
0.000000 0.091798 0.591455
0.129030 0.078676 0.598352
0.340002 0.000000 0.615808
0.552728 0.000000 0.635645
0.734432 0.000000 0.612879
0.853117 0.000000 0.561639
0.944976 0.130983 0.530632
1.000000 0.236027 0.522698
0.000000 0.276127 0.570001
0.000000 0.267704 0.580346
0.299992 0.262547 0.602747
0.548272 0.271122 0.627680
0.725978 0.273533 0.597223
0.841733 0.302770 0.558068
0.934874 0.341466 0.543420
1.000000 0.376654 0.543542
0.000000 0.472938 0.569268
0.000000 0.472541 0.571069
0.266423 0.473823 0.578454
0.538384 0.502312 0.604120
0.710872 0.512474 0.589441
0.826139 0.517082 0.578363
0.923064 0.511284 0.569787
1.000000 0.481453 0.547753
0.000000 0.666011 0.566796
0.000000 0.668574 0.566522
0.272038 0.674006 0.564385
0.520104 0.677974 0.569268
0.703853 0.671107 0.567437
0.816648 0.646143 0.569574
0.916991 0.618616 0.554559
1.000000 0.584863 0.534264
0.000000 0.790402 0.516075
0.000000 0.790829 0.513939
0.269169 0.790005 0.510643
0.490669 0.788785 0.526848
0.657496 0.789761 0.534264
0.813260 0.782010 0.531426
0.913542 0.744015 0.536584
0.994568 0.710475 0.536980
0.000000 0.892058 0.479286
0.000000 0.891325 0.478950
0.285771 0.889403 0.484535
0.480232 0.886412 0.513848
0.614130 0.886809 0.508385
0.761807 0.880705 0.511772
0.899504 0.869383 0.504387
0.988922 0.823850 0.493812
0.000000 0.974762 0.461128
0.140871 0.973999 0.463722
0.308934 0.971313 0.477485
0.480812 0.969268 0.518486
0.576165 0.969207 0.492256
0.717739 0.963989 0.503044
0.849210 0.955657 0.503716
0.977447 0.946014 0.503960
0.000000 0.000000 0.720760
0.153506 0.000000 0.723568
0.326635 0.000000 0.731746
0.514733 0.000000 0.752529
0.701228 0.000000 0.754910
0.841855 0.000000 0.713680
0.936706 0.000000 0.663569
1.000000 0.146090 0.633997
0.000000 0.041688 0.713497
0.113100 0.000000 0.716182
0.314153 0.000000 0.727016
0.507713 0.000000 0.746273
0.697810 0.000000 0.750240
0.838376 0.000000 0.709316
0.933837 0.077699 0.662623
1.000000 0.214847 0.636133
0.000000 0.232639 0.706416
0.000000 0.231785 0.709071
0.271641 0.230777 0.719661
0.495521 0.239231 0.738979
0.697627 0.244938 0.746212
0.833463 0.276280 0.704036
0.927611 0.324254 0.667750
1.000000 0.366979 0.649958
0.000000 0.424781 0.682033
0.000000 0.419837 0.681849
0.207767 0.415320 0.692470
0.482826 0.448249 0.721675
0.700404 0.485969 0.740810
0.825406 0.501823 0.706142
0.917937 0.514153 0.686305
0.995453 0.522423 0.676509
0.000000 0.610040 0.681819
0.000000 0.610590 0.682948
0.211460 0.613001 0.686549
0.462196 0.621180 0.692988
0.679927 0.650202 0.717006
0.804807 0.653498 0.703914
0.900420 0.651637 0.700954
0.981415 0.648035 0.700404
0.000000 0.774075 0.665980
0.000000 0.775814 0.666835
0.242161 0.776822 0.666560
0.470863 0.775875 0.670985
0.653651 0.775387 0.684871
0.799527 0.772305 0.689296
0.895903 0.751583 0.694026
0.981323 0.726589 0.682795
0.000000 0.881590 0.623163
0.000000 0.881987 0.623957
0.271275 0.880308 0.626734
0.464332 0.877104 0.639521
0.632136 0.874022 0.665156
0.761746 0.876066 0.670771
0.892699 0.866697 0.665034
0.976867 0.831998 0.666926
0.000000 0.968261 0.592126
0.090364 0.967468 0.593256
0.287114 0.964965 0.600122
0.457099 0.961578 0.620539
0.614282 0.956634 0.654688
0.717098 0.957427 0.646418
0.848539 0.952270 0.655146
0.970672 0.944182 0.655085
0.000000 0.000000 0.821286
0.135134 0.000000 0.823667
0.302617 0.000000 0.828428
0.470466 0.000000 0.837919
0.647974 0.000000 0.850736
0.813596 0.000000 0.843992
0.922026 0.000000 0.791379
1.000000 0.000000 0.745907
0.000000 0.000000 0.815457
0.086915 0.000000 0.817746
0.287907 0.000000 0.823087
0.462226 0.000000 0.832425
0.642878 0.000000 0.845640
0.809354 0.000000 0.839322
0.917357 0.000000 0.787015
0.997284 0.137606 0.743374
0.000000 0.200748 0.809323
0.000000 0.198734 0.810880
0.237095 0.193301 0.815976
0.443153 0.191806 0.826108
0.636500 0.212680 0.839841
0.807767 0.211948 0.836576
0.914336 0.273106 0.787015
0.994202 0.328435 0.751522
0.000000 0.374609 0.789456
0.000000 0.369726 0.791287
0.111849 0.362371 0.800107
0.415381 0.381781 0.812650
0.628931 0.420752 0.829038
0.804929 0.443946 0.832670
0.907408 0.473518 0.790372
0.986847 0.491218 0.764920
0.000000 0.547601 0.775814
0.000000 0.544427 0.775204
0.000000 0.535027 0.774685
0.347021 0.528161 0.778347
0.601434 0.573541 0.804593
0.790768 0.610346 0.821805
0.893278 0.622644 0.791196
0.975463 0.630854 0.780941
0.000000 0.721401 0.775967
0.000000 0.721157 0.776272
0.000000 0.720211 0.777279
0.369482 0.719265 0.779721
0.574395 0.719265 0.783597
0.771420 0.748135 0.809537
0.881987 0.755795 0.801602
0.963897 0.754910 0.803250
0.000000 0.869017 0.758297
0.000000 0.869139 0.758663
0.177584 0.867765 0.758877
0.410559 0.864469 0.761715
0.593988 0.859312 0.769223
0.752956 0.858122 0.786801
0.877653 0.856962 0.795712
0.960967 0.838499 0.799008
0.000000 0.958038 0.714961
0.000000 0.957641 0.715663
0.246006 0.957031 0.720729
0.427619 0.953948 0.730861
0.590387 0.949096 0.749111
0.736355 0.945098 0.777127
0.846159 0.947448 0.785946
0.962127 0.942077 0.788296
0.000000 0.000000 0.911803
0.105440 0.000000 0.912688
0.275914 0.000000 0.913787
0.432471 0.000000 0.917632
0.591821 0.000000 0.923247
0.753811 0.000000 0.927611
0.907500 0.000000 0.922576
0.991455 0.000000 0.862272
0.000000 0.000000 0.908782
0.000000 0.000000 0.909758
0.260288 0.000000 0.911315
0.424414 0.000000 0.915007
0.587366 0.000000 0.920928
0.751553 0.000000 0.925811
0.905241 0.000000 0.920562
0.989471 0.000000 0.861143
0.000000 0.162051 0.902800
0.000000 0.158999 0.903532
0.194705 0.146700 0.904875
0.398444 0.134554 0.910674
0.575586 0.135225 0.916716
0.747372 0.173831 0.922942
0.901335 0.164950 0.917967
0.985748 0.266361 0.861692
0.000000 0.313848 0.892241
0.000000 0.310552 0.893675
0.000000 0.310277 0.896086
0.350774 0.319005 0.901488
0.556756 0.341863 0.909026
0.742061 0.390356 0.918364
0.895079 0.397864 0.915160
0.979950 0.445106 0.865751
0.000000 0.486091 0.872068
0.000000 0.481178 0.872435
0.000000 0.466407 0.875303
0.225010 0.456794 0.884886
0.519341 0.493996 0.894255
0.724605 0.543603 0.906767
0.883696 0.568475 0.910582
0.971283 0.600122 0.872251
0.000000 0.657832 0.869444
0.000000 0.655085 0.868986
0.000000 0.645777 0.868040
0.139467 0.630091 0.867369
0.426856 0.615290 0.866850
0.692622 0.672023 0.889952
0.873716 0.722164 0.909087
0.961181 0.733730 0.881254
0.000000 0.827726 0.873167
0.000000 0.826780 0.873075
0.000000 0.823636 0.873106
0.231449 0.818875 0.873899
0.475502 0.811978 0.873899
0.661463 0.804715 0.874266
0.845518 0.829038 0.894804
0.949981 0.845090 0.892271
0.000000 0.962219 0.851987
0.000000 0.961456 0.851713
0.000000 0.958953 0.851804
0.333532 0.954253 0.853574
0.531243 0.946929 0.857786
0.696040 0.938903 0.866056
0.840391 0.934447 0.883513
0.948119 0.936828 0.904448
