其他预设/【232】美食博客调色预设124款/1.3D LUT预设（视频调色-PR-AE-PS-FCPX-达芬奇用）/Yummy #19 ().cube
# Created by Adobe Lightroom plugin Export LUT (1.17.0)
# www.johnrellis.com/lightroom/exportlut.htm
# Preset: Yummy #19 (素锦印象)
# Color profile: /Library/Application Support/Adobe/Color/Profiles/Recommended/AdobeRGB1998.icc
LUT_3D_SIZE 32
0.125612 0.156985 0.178531
0.125612 0.156985 0.178531
0.125612 0.156985 0.178531
0.125612 0.156985 0.178531
0.125612 0.156985 0.178531
0.125612 0.156985 0.178531
0.126284 0.157504 0.178958
0.127108 0.157961 0.179629
0.128084 0.158724 0.180301
0.129305 0.159884 0.181247
0.131014 0.161257 0.182681
0.133150 0.162966 0.184390
0.136172 0.165408 0.186618
0.140017 0.168338 0.189517
0.144686 0.172183 0.193088
0.150393 0.176761 0.197543
0.157473 0.182376 0.202945
0.166018 0.189181 0.209415
0.176394 0.197330 0.217350
0.197543 0.214115 0.233402
0.225559 0.236149 0.254826
0.259495 0.263554 0.281712
0.297215 0.294987 0.312963
0.338476 0.329778 0.348241
0.384039 0.366491 0.385870
0.432959 0.407050 0.427710
0.485389 0.454078 0.475929
0.538445 0.507317 0.529686
0.590875 0.565759 0.587976
0.642908 0.627100 0.648493
0.691859 0.688808 0.708675
0.736049 0.745083 0.763027
0.125612 0.156985 0.178531
0.125612 0.156985 0.178531
0.125612 0.156985 0.178531
0.125612 0.156985 0.178531
0.125612 0.156985 0.178531
0.125612 0.156985 0.178531
0.126314 0.157351 0.178958
0.127138 0.157961 0.179507
0.127901 0.158755 0.180179
0.129152 0.159762 0.181155
0.130678 0.161013 0.182467
0.132845 0.162722 0.184054
0.135561 0.164920 0.186191
0.139254 0.167910 0.188998
0.143709 0.171359 0.192386
0.149233 0.175753 0.196567
0.155764 0.181094 0.201694
0.163912 0.187564 0.207980
0.173861 0.195407 0.215427
0.193515 0.210880 0.230350
0.218723 0.230930 0.249668
0.249668 0.255711 0.273869
0.284886 0.284550 0.302495
0.324041 0.317205 0.335363
0.367956 0.352178 0.371283
0.416052 0.391272 0.411597
0.469001 0.437049 0.458503
0.523857 0.490242 0.512505
0.578088 0.549523 0.571893
0.631617 0.612207 0.633845
0.682612 0.675776 0.696040
0.728298 0.734646 0.752987
0.125612 0.156985 0.178531
0.125612 0.156985 0.178531
0.125612 0.156985 0.178531
0.125612 0.156985 0.178531
0.125612 0.156985 0.178531
0.125612 0.156985 0.178531
0.126101 0.157382 0.178836
0.126925 0.157839 0.179538
0.127687 0.158633 0.180179
0.129000 0.159640 0.181033
0.130556 0.160891 0.182223
0.132540 0.162478 0.183841
0.135256 0.164675 0.185977
0.138857 0.167391 0.188602
0.142916 0.170932 0.191989
0.148348 0.175235 0.196078
0.154879 0.180362 0.201022
0.162905 0.186496 0.206943
0.172457 0.194339 0.214450
0.191318 0.209323 0.228794
0.215335 0.228153 0.247013
0.244938 0.251774 0.270024
0.278752 0.279515 0.297490
0.316991 0.310796 0.328923
0.360662 0.344030 0.362982
0.408331 0.381811 0.402045
0.460975 0.427131 0.448585
0.516686 0.480323 0.502647
0.572015 0.540002 0.562402
0.626490 0.603204 0.624994
0.678340 0.667750 0.688228
0.724758 0.727810 0.746395
0.125612 0.156985 0.178531
0.125612 0.156985 0.178531
0.125612 0.156985 0.178531
0.125612 0.156985 0.178531
0.125612 0.156985 0.178531
0.125612 0.156985 0.178531
0.126101 0.157382 0.178836
0.126741 0.157870 0.179416
0.127718 0.158633 0.180056
0.129000 0.159640 0.181033
0.130404 0.160769 0.182132
0.132448 0.162203 0.183627
0.135012 0.164279 0.185672
0.138216 0.167086 0.188296
0.142428 0.170321 0.191470
0.147555 0.174563 0.195377
0.153689 0.179385 0.200168
0.161379 0.185397 0.205936
0.171420 0.193454 0.213657
0.188602 0.206851 0.226505
0.210025 0.223972 0.242954
0.236759 0.245274 0.263676
0.268956 0.271275 0.289250
0.308812 0.300175 0.318456
0.354406 0.333776 0.352911
0.405463 0.372534 0.392859
0.461250 0.418616 0.440253
0.518944 0.472969 0.495552
0.574762 0.533257 0.555932
0.628443 0.596796 0.618830
0.678950 0.661006 0.681697
0.723873 0.721309 0.740108
0.125612 0.156985 0.178531
0.125612 0.156985 0.178531
0.125612 0.156985 0.178531
0.125612 0.156985 0.178531
0.125612 0.156985 0.178531
0.125612 0.156985 0.178531
0.126162 0.157198 0.178744
0.126741 0.157870 0.179416
0.127565 0.158511 0.179965
0.128664 0.159396 0.180819
0.130098 0.160525 0.181918
0.131960 0.161990 0.183322
0.134371 0.163943 0.185245
0.137484 0.166476 0.187778
0.141573 0.169619 0.190738
0.146578 0.173770 0.194675
0.152804 0.178622 0.199405
0.160372 0.184665 0.205081
0.171450 0.193454 0.213565
0.187533 0.206027 0.225650
0.207614 0.221988 0.241062
0.233341 0.241581 0.260105
0.266758 0.264042 0.282536
0.307042 0.290532 0.309453
0.353002 0.322271 0.341924
0.404700 0.359686 0.380438
0.460639 0.404944 0.426947
0.518669 0.458289 0.481056
0.574304 0.518822 0.541680
0.627802 0.583032 0.605188
0.678492 0.648615 0.669520
0.723262 0.711238 0.730343
0.125612 0.156985 0.178531
0.125612 0.156985 0.178531
0.125612 0.156985 0.178531
0.125612 0.156985 0.178531
0.125612 0.156985 0.178531
0.125612 0.156985 0.178531
0.125948 0.157229 0.178744
0.126772 0.157870 0.179294
0.127596 0.158358 0.179965
0.128511 0.159274 0.180728
0.129915 0.160372 0.181796
0.131563 0.161898 0.183200
0.134066 0.163699 0.185031
0.137026 0.166262 0.187320
0.140932 0.169314 0.190463
0.145876 0.173190 0.194186
0.152132 0.178073 0.198917
0.159640 0.184054 0.204532
0.171786 0.193759 0.213931
0.188174 0.205844 0.225467
0.210544 0.219974 0.239353
0.239750 0.237247 0.256626
0.371679 0.305089 0.326452
0.425208 0.340429 0.362646
0.477699 0.380560 0.403510
0.528008 0.426123 0.449256
0.573999 0.477302 0.500206
0.617884 0.531640 0.553918
0.660212 0.588525 0.609949
0.700069 0.646540 0.666865
0.735500 0.702296 0.721218
0.767727 0.751736 0.769100
0.125551 0.157290 0.178500
0.125521 0.157290 0.178622
0.125521 0.157290 0.178622
0.125551 0.157290 0.178500
0.125551 0.157290 0.178500
0.125551 0.157290 0.178500
0.126650 0.157321 0.178592
0.127230 0.157809 0.179294
0.127749 0.158480 0.180056
0.129061 0.159487 0.180941
0.130373 0.160769 0.182254
0.132601 0.162325 0.183749
0.135164 0.164401 0.185763
0.138613 0.167025 0.188266
0.142855 0.170260 0.191348
0.148287 0.174044 0.195071
0.155367 0.178775 0.199557
0.166293 0.185306 0.205936
0.183444 0.194461 0.215000
0.206668 0.206119 0.226505
0.238743 0.221439 0.241947
0.282536 0.242039 0.262791
0.336919 0.269230 0.290654
0.398322 0.303838 0.326024
0.461189 0.345861 0.368750
0.519432 0.392920 0.415778
0.570214 0.445350 0.467872
0.615595 0.501915 0.523827
0.658930 0.561242 0.582269
0.698665 0.621332 0.641352
0.734035 0.680568 0.699397
0.765988 0.734066 0.751583
0.125765 0.158175 0.178683
0.125765 0.158175 0.178683
0.125551 0.158206 0.178683
0.125551 0.158206 0.178683
0.125551 0.158206 0.178683
0.125582 0.158053 0.178683
0.126284 0.158114 0.178561
0.128298 0.158022 0.178531
0.130098 0.158053 0.179080
0.131197 0.158785 0.179995
0.132662 0.159609 0.180972
0.134920 0.161044 0.182376
0.137850 0.162661 0.183993
0.141787 0.164797 0.186191
0.146548 0.167483 0.188785
0.152193 0.170901 0.192142
0.160342 0.174990 0.196170
0.173922 0.181003 0.202182
0.190951 0.188540 0.209628
0.213901 0.198123 0.219089
0.245182 0.210788 0.232029
0.287388 0.227726 0.249302
0.339422 0.250858 0.272831
0.398505 0.280797 0.303349
0.459815 0.318212 0.340917
0.517601 0.362097 0.384405
0.569238 0.412390 0.433783
0.615473 0.469245 0.489845
0.659113 0.530785 0.550500
0.699580 0.593439 0.612329
0.735317 0.656153 0.674311
0.766842 0.714595 0.731777
0.125673 0.159548 0.178836
0.125673 0.159548 0.178836
0.125673 0.159548 0.178836
0.125673 0.159548 0.178836
0.125673 0.159548 0.178836
0.125673 0.159548 0.178836
0.125978 0.159518 0.178592
0.127810 0.159274 0.178561
0.130861 0.159335 0.178500
0.134615 0.159457 0.178683
0.136599 0.159579 0.179599
0.139376 0.160372 0.180697
0.142947 0.161440 0.181979
0.147127 0.163119 0.183780
0.152438 0.165164 0.185977
0.159182 0.167880 0.188602
0.170626 0.171908 0.192569
0.184451 0.176822 0.197574
0.201938 0.183078 0.203738
0.225132 0.191043 0.211856
0.256687 0.201572 0.222721
0.298375 0.215732 0.237156
0.349401 0.234775 0.256779
0.406928 0.260838 0.283085
0.467018 0.293950 0.315801
0.523796 0.334752 0.355474
0.575158 0.383062 0.402228
0.621454 0.438514 0.456306
0.664668 0.500847 0.517967
0.704463 0.565789 0.582361
0.739681 0.630671 0.646998
0.770138 0.693111 0.709133
0.125429 0.161501 0.179049
0.125429 0.161501 0.179049
0.125429 0.161501 0.179049
0.125429 0.161501 0.179049
0.125460 0.161349 0.179049
0.125460 0.161349 0.179049
0.125582 0.161349 0.178683
0.127626 0.161257 0.178653
0.130495 0.161044 0.178622
0.134524 0.161257 0.178531
0.139956 0.161715 0.178408
0.144442 0.161654 0.179049
0.148470 0.162051 0.180026
0.153567 0.162997 0.181399
0.160525 0.164462 0.183169
0.171145 0.166781 0.185428
0.184024 0.169894 0.188571
0.199130 0.174044 0.192691
0.217807 0.178988 0.198032
0.242161 0.185489 0.204685
0.273503 0.194034 0.213535
0.312932 0.205112 0.225132
0.359869 0.220279 0.240818
0.412360 0.240818 0.261509
0.468086 0.268742 0.288853
0.523552 0.304692 0.323003
0.576135 0.349615 0.365667
0.624781 0.404120 0.417914
0.670253 0.467597 0.480171
0.711818 0.536339 0.548730
0.747799 0.605737 0.618494
0.778134 0.673365 0.686885
0.125032 0.164187 0.179232
0.125032 0.164187 0.179232
0.125063 0.164034 0.179232
0.125063 0.164034 0.179232
0.125063 0.164034 0.179232
0.125063 0.164034 0.179232
0.125185 0.164034 0.178866
0.127321 0.163943 0.178592
0.130587 0.163973 0.178531
0.134463 0.163760 0.178470
0.140291 0.164309 0.178317
0.147616 0.165164 0.178256
0.155550 0.165286 0.178195
0.163210 0.165774 0.179171
0.172519 0.166598 0.180453
0.183719 0.168093 0.182101
0.196719 0.170169 0.184390
0.212436 0.172915 0.187442
0.231510 0.176638 0.191653
0.256046 0.181704 0.196994
0.287816 0.188113 0.203891
0.327123 0.196902 0.213382
0.373816 0.208896 0.225772
0.425879 0.225772 0.242710
0.480629 0.249729 0.265537
0.534569 0.281804 0.295232
0.585565 0.322820 0.333074
0.633265 0.373968 0.381018
0.678492 0.434668 0.439826
0.719539 0.503807 0.509178
0.755093 0.575586 0.582635
0.784939 0.646296 0.655482
0.124361 0.168124 0.179416
0.124361 0.168124 0.179416
0.124392 0.168002 0.179446
0.124392 0.168002 0.179446
0.124392 0.168002 0.179446
0.124453 0.167849 0.179324
0.124514 0.168002 0.179080
0.126925 0.168002 0.178531
0.130831 0.168246 0.178470
0.135286 0.168124 0.178378
0.140536 0.168154 0.178408
0.150546 0.169863 0.177951
0.178378 0.178897 0.176791
0.194217 0.179812 0.176272
0.214359 0.181033 0.176181
0.231754 0.181186 0.177279
0.251408 0.181827 0.179019
0.273716 0.183108 0.181613
0.299535 0.185367 0.185092
0.330999 0.188907 0.189670
0.368322 0.194369 0.196109
0.411170 0.202396 0.204807
0.457649 0.213931 0.216495
0.507103 0.231357 0.232761
0.556664 0.256413 0.254734
0.602960 0.290288 0.284489
0.645808 0.332158 0.322728
0.685908 0.382330 0.370581
0.723354 0.440711 0.429175
0.756374 0.507195 0.499092
0.784573 0.576013 0.572656
0.808713 0.644587 0.646357
0.123171 0.176089 0.179660
0.123171 0.176089 0.179660
0.123201 0.175967 0.179690
0.123293 0.175662 0.179568
0.123354 0.175387 0.179599
0.123415 0.174990 0.179629
0.123659 0.174990 0.178897
0.126070 0.175296 0.178225
0.131075 0.175540 0.178134
0.137972 0.176577 0.178042
0.146761 0.178653 0.177676
0.158755 0.180819 0.177371
0.179232 0.186191 0.176394
0.201541 0.190249 0.175387
0.220645 0.191348 0.174685
0.243046 0.192264 0.173892
0.266087 0.192355 0.174441
0.287816 0.192050 0.175845
0.312932 0.192477 0.178012
0.342779 0.194186 0.180941
0.378119 0.197482 0.185275
0.418952 0.202976 0.191287
0.463355 0.211185 0.199557
0.510826 0.224186 0.211337
0.558648 0.243565 0.227970
0.604181 0.270787 0.251011
0.647089 0.306401 0.282567
0.687953 0.351415 0.324437
0.726986 0.405585 0.377783
0.762081 0.469184 0.444892
0.791653 0.539544 0.522210
0.816495 0.611566 0.602319
0.121401 0.183932 0.179904
0.121431 0.183810 0.179904
0.121462 0.183688 0.179934
0.121523 0.183413 0.179934
0.121645 0.183047 0.179843
0.121828 0.182498 0.179782
0.122011 0.183169 0.178622
0.124971 0.184421 0.177737
0.131258 0.186007 0.177493
0.140475 0.188357 0.177249
0.150668 0.190555 0.176944
0.163912 0.193088 0.176425
0.180423 0.195621 0.175906
0.207584 0.202609 0.174289
0.232700 0.206271 0.173190
0.252537 0.205875 0.172335
0.270573 0.204227 0.171695
0.300328 0.205203 0.171084
0.325017 0.204410 0.172122
0.354070 0.204715 0.173648
0.388678 0.206577 0.175967
0.428626 0.210269 0.179599
0.472023 0.216342 0.185000
0.518456 0.226230 0.193301
0.565484 0.241611 0.205264
0.610346 0.263310 0.222965
0.653162 0.293034 0.248203
0.694575 0.331792 0.283085
0.734463 0.380713 0.330694
0.770901 0.439765 0.393042
0.801785 0.507713 0.470192
0.826993 0.581476 0.556023
0.118318 0.196994 0.180117
0.118288 0.197116 0.180117
0.118318 0.196994 0.180117
0.118349 0.196902 0.180148
0.118410 0.196658 0.180148
0.118502 0.196536 0.180056
0.118929 0.197360 0.178042
0.122957 0.198550 0.176883
0.130831 0.200320 0.176577
0.141390 0.202884 0.176120
0.154330 0.206058 0.175662
0.168978 0.209201 0.175113
0.187106 0.212284 0.174319
0.208194 0.214755 0.173556
0.242191 0.223301 0.171267
0.268132 0.225345 0.169924
0.288060 0.223331 0.169100
0.305730 0.220188 0.168521
0.337652 0.221134 0.166720
0.366339 0.220493 0.167208
0.399725 0.221134 0.167941
0.437964 0.223545 0.169467
0.479866 0.228122 0.172427
0.525231 0.235874 0.177401
0.571801 0.248203 0.185183
0.617304 0.265995 0.197787
0.661982 0.291112 0.217319
0.706172 0.325444 0.246311
0.748775 0.370672 0.288945
0.787320 0.426459 0.348455
0.819944 0.492042 0.425513
0.845335 0.566339 0.517998
0.112917 0.216739 0.180484
0.112795 0.217044 0.180423
0.112825 0.216953 0.180453
0.112917 0.216831 0.180331
0.112947 0.216617 0.180484
0.113222 0.216831 0.179507
0.113802 0.218112 0.176425
0.119783 0.219944 0.175143
0.129885 0.222293 0.174716
0.142855 0.225437 0.174228
0.159731 0.229252 0.173556
0.176333 0.231937 0.172824
0.195224 0.234165 0.172030
0.216403 0.235752 0.171298
0.239322 0.236179 0.170382
0.277623 0.245182 0.167453
0.303716 0.245579 0.165957
0.324224 0.242466 0.165072
0.344305 0.239139 0.164279
0.369177 0.237430 0.162844
0.415351 0.242466 0.160159
0.454719 0.244938 0.159731
0.497383 0.249424 0.159976
0.543023 0.256931 0.161746
0.588983 0.268009 0.166140
0.634577 0.283696 0.174502
0.679103 0.304906 0.188815
0.722957 0.333837 0.211978
0.764584 0.372015 0.248234
0.802060 0.419471 0.301091
0.833799 0.476509 0.372839
0.858915 0.543542 0.463172
0.105287 0.239109 0.180789
0.105287 0.239109 0.180789
0.105440 0.238834 0.180697
0.105592 0.238560 0.180606
0.105806 0.238071 0.180545
0.106355 0.238560 0.178561
0.107149 0.239994 0.174807
0.114382 0.241764 0.173098
0.126436 0.244358 0.172580
0.141329 0.248020 0.171969
0.160372 0.252567 0.171084
0.181338 0.256962 0.169955
0.202213 0.259709 0.169070
0.225345 0.261753 0.167971
0.249973 0.262211 0.166934
0.275547 0.261387 0.165896
0.317723 0.270970 0.162112
0.343725 0.269780 0.160433
0.365576 0.266026 0.159487
0.387610 0.262394 0.158297
0.411994 0.259800 0.156741
0.462348 0.267613 0.151492
0.504295 0.271916 0.149783
0.549310 0.279057 0.148470
0.594965 0.289158 0.148989
0.640528 0.303044 0.152743
0.685969 0.321599 0.161563
0.730648 0.345892 0.177707
0.773068 0.377142 0.206058
0.811582 0.416754 0.250736
0.844907 0.465980 0.315923
0.871824 0.525566 0.402564
0.091951 0.267796 0.182345
0.091554 0.268528 0.182254
0.066224 0.304082 0.184817
0.067079 0.303777 0.183932
0.070008 0.304051 0.181247
0.072969 0.304387 0.176455
0.076387 0.305180 0.168978
0.092927 0.306584 0.165377
0.117250 0.309056 0.164584
0.143618 0.313146 0.163363
0.172763 0.318364 0.161654
0.205692 0.324041 0.159548
0.233524 0.325170 0.158267
0.262211 0.324895 0.156893
0.291142 0.323339 0.155673
0.320104 0.320165 0.154604
0.351659 0.317784 0.152956
0.398016 0.326818 0.147036
0.421912 0.321019 0.145785
0.443275 0.314214 0.144991
0.464698 0.308202 0.143862
0.489174 0.304448 0.141909
0.529412 0.309575 0.135836
0.578363 0.319982 0.129610
0.618708 0.327489 0.127382
0.658900 0.337285 0.127962
0.699306 0.350500 0.132784
0.740230 0.368566 0.143984
0.780575 0.392187 0.164920
0.818875 0.423072 0.201114
0.853147 0.462684 0.257359
0.881407 0.512169 0.336919
0.057771 0.312047 0.185306
0.046967 0.317632 0.185641
0.031159 0.323278 0.185855
0.019959 0.328740 0.185000
0.015381 0.333654 0.181949
0.020874 0.336553 0.176364
0.029816 0.338384 0.167880
0.061830 0.340276 0.160403
0.098116 0.343175 0.159396
0.130831 0.347112 0.157870
0.164523 0.352270 0.155947
0.201144 0.358221 0.153445
0.237247 0.361822 0.151003
0.267643 0.361181 0.149538
0.298161 0.358892 0.148196
0.328313 0.355230 0.147127
0.358038 0.350439 0.145937
0.392523 0.349035 0.143435
0.439368 0.358068 0.136172
0.463966 0.352148 0.134646
0.487037 0.345953 0.133303
0.512016 0.342107 0.130922
0.538659 0.339940 0.127565
0.566094 0.339178 0.123507
0.623407 0.357794 0.109712
0.664240 0.367407 0.104768
0.705196 0.379736 0.103059
0.746731 0.395666 0.107332
0.787015 0.414954 0.122072
0.825345 0.439002 0.151431
0.860227 0.469459 0.199130
0.889952 0.508446 0.270390
0.000000 0.347753 0.187625
0.000000 0.353674 0.188022
0.000000 0.360113 0.187869
0.000000 0.366247 0.186221
0.000000 0.371649 0.182528
0.000000 0.375067 0.176303
0.000000 0.377111 0.166537
0.000000 0.379553 0.153170
0.060090 0.382574 0.151949
0.110262 0.386786 0.150240
0.152193 0.392309 0.147860
0.194308 0.398535 0.144686
0.237552 0.403845 0.141329
0.274479 0.404639 0.138796
0.307652 0.401984 0.137118
0.340002 0.397986 0.135744
0.371466 0.392889 0.134463
0.402533 0.387335 0.133211
0.441657 0.388373 0.128542
0.488960 0.398230 0.118685
0.513390 0.391913 0.116854
0.538323 0.387243 0.114290
0.564294 0.384375 0.110536
0.590509 0.382666 0.105837
0.616632 0.381628 0.100343
0.668452 0.399847 0.078248
0.709010 0.410925 0.067567
0.750088 0.424933 0.060487
0.790280 0.441169 0.068086
0.828489 0.460121 0.093996
0.863890 0.482918 0.137362
0.895018 0.512047 0.200931
0.000000 0.389258 0.190097
0.000000 0.395972 0.190066
0.000000 0.403052 0.189395
0.000000 0.409766 0.187594
0.000000 0.415503 0.183047
0.000000 0.419287 0.176150
0.000000 0.421393 0.164828
0.000000 0.423774 0.149294
0.000000 0.426856 0.141787
0.070649 0.430671 0.139803
0.132357 0.435828 0.136873
0.182681 0.441566 0.133364
0.231113 0.446845 0.129122
0.279667 0.451698 0.124208
0.316350 0.449744 0.121798
0.352850 0.447395 0.119081
0.389563 0.445106 0.115785
0.426825 0.443427 0.111788
0.464942 0.442573 0.106783
0.513634 0.451850 0.093690
0.563470 0.465583 0.071656
0.589899 0.461006 0.065766
0.615167 0.456703 0.058717
0.641657 0.454719 0.038209
0.667903 0.453651 0.011536
0.694575 0.453864 0.000000
0.733364 0.464851 0.000000
0.780056 0.483009 0.000000
0.818051 0.495857 0.000000
0.853330 0.509178 0.000000
0.885863 0.524498 0.008392
0.914885 0.544030 0.131838
0.000000 0.467109 0.194369
0.000000 0.471015 0.193820
0.000000 0.474434 0.192447
0.000000 0.477546 0.189364
0.000000 0.480568 0.183413
0.000000 0.482918 0.174624
0.000000 0.485145 0.160708
0.000000 0.488228 0.140414
0.000000 0.492958 0.121340
0.000000 0.498421 0.117769
0.094362 0.505364 0.112612
0.169741 0.512139 0.106630
0.231510 0.518059 0.099489
0.289708 0.523217 0.090883
0.339635 0.524132 0.083894
0.380438 0.520897 0.079072
0.420294 0.517510 0.073182
0.459449 0.514488 0.065431
0.498116 0.512078 0.052461
0.536431 0.510613 0.023926
0.583642 0.519554 0.000000
0.625147 0.526635 0.000000
0.645624 0.516533 0.000000
0.665400 0.507317 0.000000
0.688930 0.503044 0.000000
0.713558 0.500969 0.000000
0.740078 0.501640 0.000000
0.769375 0.505699 0.000000
0.819272 0.527733 0.000000
0.854856 0.538964 0.000000
0.887480 0.550225 0.000000
0.917388 0.563531 0.000000
0.000000 0.522332 0.197269
0.000000 0.526421 0.196445
0.000000 0.530358 0.194980
0.000000 0.533867 0.191287
0.000000 0.536492 0.184451
0.000000 0.538537 0.174105
0.000000 0.540307 0.158083
0.000000 0.542321 0.134401
0.000000 0.546349 0.097658
0.000000 0.550835 0.092897
0.000000 0.556695 0.086213
0.140627 0.562737 0.077211
0.216159 0.568200 0.065583
0.281804 0.573114 0.041718
0.343786 0.577539 0.000000
0.390753 0.576104 0.000000
0.433661 0.573754 0.000000
0.475624 0.571771 0.000000
0.516564 0.570397 0.000000
0.556451 0.569787 0.000000
0.595819 0.570367 0.000000
0.643824 0.581109 0.000000
0.681392 0.585351 0.000000
0.700618 0.574182 0.000000
0.703273 0.547601 0.000000
0.726009 0.542962 0.000000
0.750576 0.541436 0.000000
0.776822 0.542290 0.000000
0.805142 0.546136 0.000000
0.850706 0.565393 0.000000
0.884642 0.575280 0.000000
0.916350 0.585718 0.000000
0.000000 0.606195 0.204166
0.000000 0.610681 0.203067
0.000000 0.613672 0.201114
0.000000 0.615442 0.196384
0.000000 0.616358 0.187472
0.000000 0.616693 0.174197
0.000000 0.616602 0.155123
0.000000 0.616175 0.123659
0.000000 0.616724 0.069337
0.000000 0.618067 0.001434
0.000000 0.619532 0.000000
0.088930 0.622034 0.000000
0.196597 0.624628 0.000000
0.271794 0.626307 0.000000
0.337469 0.626795 0.000000
0.395331 0.625788 0.000000
0.437659 0.619989 0.000000
0.479042 0.615595 0.000000
0.520073 0.613581 0.000000
0.561212 0.613733 0.000000
0.601892 0.615167 0.000000
0.641444 0.616876 0.000000
0.687861 0.626978 0.000000
0.719478 0.625757 0.000000
0.734127 0.610437 0.000000
0.747707 0.595636 0.000000
0.768765 0.589837 0.000000
0.791257 0.586481 0.000000
0.816007 0.586267 0.000000
0.843107 0.589349 0.000000
0.880369 0.601587 0.000000
0.916136 0.613062 0.000000
0.000000 0.656641 0.209445
0.000000 0.660914 0.208621
0.000000 0.663844 0.206760
0.000000 0.665370 0.201389
0.000000 0.666285 0.191806
0.000000 0.666773 0.177554
0.000000 0.667628 0.156100
0.000000 0.667994 0.121248
0.000000 0.669520 0.042908
0.000000 0.672145 0.000000
0.000000 0.674434 0.000000
0.000000 0.677790 0.000000
0.167391 0.680903 0.000000
0.259251 0.683253 0.000000
0.334142 0.684596 0.000000
0.400946 0.685420 0.000000
0.453712 0.683040 0.000000
0.497505 0.679255 0.000000
0.540002 0.677119 0.000000
0.581811 0.676692 0.000000
0.622766 0.677302 0.000000
0.662348 0.678065 0.000000
0.700069 0.678309 0.000000
0.742489 0.684627 0.000000
0.767788 0.677455 0.000000
0.779965 0.660060 0.000000
0.791775 0.643977 0.000000
0.812009 0.637690 0.000000
0.834257 0.634394 0.000000
0.858549 0.634058 0.000000
0.885191 0.636927 0.000000
0.916594 0.644190 0.000000
0.000000 0.714992 0.218753
0.000000 0.717861 0.217533
0.000000 0.719173 0.215244
0.000000 0.719539 0.209354
0.000000 0.719112 0.198550
0.000000 0.718624 0.182925
0.000000 0.718471 0.160159
0.000000 0.718410 0.122408
0.000000 0.719539 0.016724
0.000000 0.722255 0.000000
0.000000 0.724514 0.000000
0.000000 0.727749 0.000000
0.118959 0.730709 0.000000
0.238682 0.732815 0.000000
0.322911 0.733639 0.000000
0.395056 0.733730 0.000000
0.460090 0.733852 0.000000
0.505638 0.729915 0.000000
0.548882 0.727291 0.000000
0.590936 0.726070 0.000000
0.631922 0.725704 0.000000
0.671504 0.725582 0.000000
0.709255 0.725216 0.000000
0.745205 0.724269 0.000000
0.783291 0.726528 0.000000
0.803922 0.715511 0.000000
0.814694 0.697475 0.000000
0.825223 0.680720 0.000000
0.844388 0.673732 0.000000
0.866575 0.670802 0.000000
0.891081 0.670954 0.000000
0.917174 0.673213 0.000000
0.000000 0.761685 0.228916
0.000000 0.763333 0.227359
0.000000 0.764431 0.224796
0.000000 0.765133 0.218418
0.000000 0.765896 0.207431
0.000000 0.767483 0.191836
0.000000 0.771054 0.168032
0.000000 0.775601 0.127993
0.000000 0.781369 0.000519
0.000000 0.788388 0.000000
0.000000 0.794949 0.000000
0.000000 0.800717 0.000000
0.000000 0.805386 0.000000
0.230930 0.808377 0.000000
0.330205 0.809659 0.000000
0.410376 0.809201 0.000000
0.479957 0.808286 0.000000
0.536858 0.806424 0.000000
0.581353 0.803159 0.000000
0.623926 0.800656 0.000000
0.664851 0.798611 0.000000
0.703975 0.796750 0.000000
0.741268 0.794522 0.000000
0.776699 0.791989 0.000000
0.810483 0.789090 0.000000
0.841978 0.784848 0.000000
0.857633 0.769986 0.000000
0.866423 0.751186 0.000000
0.875731 0.734157 0.000000
0.893309 0.726009 0.000000
0.914397 0.722042 0.000000
0.937438 0.720577 0.000000
0.000000 0.830228 0.251835
0.000000 0.830991 0.250034
0.000000 0.831144 0.247013
0.000000 0.830961 0.239994
0.000000 0.830686 0.227878
0.000000 0.830808 0.210208
0.000000 0.831724 0.185122
0.000000 0.833433 0.145449
0.000000 0.835721 0.049805
0.000000 0.838804 0.000000
0.000000 0.841733 0.000000
0.000000 0.843687 0.000000
0.000000 0.844907 0.000000
0.194369 0.845243 0.000000
0.308385 0.844602 0.000000
0.394812 0.843351 0.000000
