其他预设/【232】美食博客调色预设124款/1.3D LUT预设（视频调色-PR-AE-PS-FCPX-达芬奇用）/Yummy #10.cube
# Created by Adobe Lightroom plugin Export LUT (1.17.0)
# www.johnrellis.com/lightroom/exportlut.htm
# Preset: Yummy #10
# Color profile: /Library/Application Support/Adobe/Color/Profiles/Recommended/AdobeRGB1998.icc
LUT_3D_SIZE 32
0.000000 0.000000 0.000000
0.066529 0.002747 0.000000
0.095766 0.004791 0.000214
0.158358 0.012726 0.000000
0.234318 0.024720 0.000000
0.307347 0.039094 0.000000
0.379492 0.053437 0.000000
0.451179 0.062470 0.000000
0.523766 0.066957 0.000000
0.594690 0.069917 0.000000
0.660578 0.067262 0.000000
0.720272 0.065919 0.000000
0.771969 0.066041 0.000000
0.816403 0.067018 0.000000
0.854337 0.071992 0.000000
0.886473 0.076204 0.000000
0.918456 0.081910 0.000000
0.948547 0.090791 0.000000
0.971252 0.100893 0.000000
0.990295 0.110475 0.000000
1.000000 0.119265 0.000000
1.000000 0.127535 0.000000
1.000000 0.134524 0.034699
1.000000 0.140688 0.070619
1.000000 0.145510 0.086885
1.000000 0.149905 0.100465
1.000000 0.154177 0.112062
1.000000 0.158297 0.123018
1.000000 0.162539 0.133700
1.000000 0.167391 0.144869
1.000000 0.172793 0.156008
1.000000 0.178927 0.167910
0.000000 0.068849 0.000305
0.063874 0.069368 0.001434
0.094453 0.069581 0.000855
0.156954 0.081270 0.000000
0.232090 0.091829 0.000000
0.304051 0.098878 0.000000
0.375250 0.103639 0.000000
0.445930 0.108766 0.000000
0.517693 0.111269 0.000000
0.588464 0.113405 0.000000
0.654078 0.112215 0.000000
0.713954 0.110109 0.000000
0.765896 0.108217 0.000000
0.810666 0.107668 0.000000
0.849058 0.107668 0.000000
0.881682 0.108644 0.000000
0.914366 0.110933 0.000000
0.943816 0.114992 0.000000
0.966491 0.120607 0.000000
0.985718 0.126589 0.000000
1.000000 0.132723 0.000000
1.000000 0.138064 0.000000
1.000000 0.143374 0.012665
1.000000 0.147890 0.061189
1.000000 0.151705 0.079438
1.000000 0.155093 0.093996
1.000000 0.158206 0.105745
1.000000 0.162081 0.117952
1.000000 0.165713 0.128908
1.000000 0.169802 0.139895
1.000000 0.174411 0.151034
1.000000 0.179843 0.162844
0.000000 0.099641 0.003143
0.063203 0.100771 0.000732
0.094453 0.101869 0.001923
0.155642 0.116152 0.000000
0.229374 0.128756 0.000000
0.300603 0.136446 0.000000
0.370611 0.141451 0.000000
0.440589 0.145510 0.000000
0.511894 0.148592 0.000000
0.582574 0.149935 0.000000
0.648432 0.149355 0.000000
0.708675 0.147738 0.000000
0.761166 0.144778 0.000000
0.806485 0.142550 0.000000
0.845182 0.141054 0.000000
0.878355 0.139071 0.000000
0.911864 0.139559 0.000000
0.940734 0.140963 0.000000
0.963409 0.143038 0.000000
0.982818 0.146609 0.000000
0.999847 0.149966 0.000000
1.000000 0.153140 0.000000
1.000000 0.156863 0.001007
1.000000 0.159396 0.054292
1.000000 0.162081 0.076143
1.000000 0.164248 0.090578
1.000000 0.166720 0.103273
1.000000 0.169436 0.115023
1.000000 0.172244 0.126314
1.000000 0.175814 0.137697
1.000000 0.179446 0.148775
1.000000 0.184298 0.160525
0.000000 0.164370 0.000000
0.069123 0.165652 0.000000
0.105989 0.166842 0.000000
0.157382 0.169162 0.000000
0.226902 0.182315 0.000000
0.296818 0.190738 0.000000
0.365942 0.195926 0.000000
0.435309 0.200046 0.000000
0.505699 0.203037 0.000000
0.576135 0.204746 0.000000
0.641718 0.204349 0.000000
0.702113 0.202060 0.000000
0.754788 0.199161 0.000000
0.800473 0.195102 0.000000
0.839841 0.190616 0.000000
0.873503 0.186740 0.000000
0.908598 0.184451 0.000000
0.936553 0.182742 0.000000
0.958801 0.181582 0.000000
0.978088 0.181125 0.000000
0.995209 0.180972 0.000000
1.000000 0.181369 0.000000
1.000000 0.182223 0.000000
1.000000 0.182925 0.045045
1.000000 0.183658 0.072267
1.000000 0.184573 0.089082
1.000000 0.185489 0.102663
1.000000 0.187259 0.115328
1.000000 0.188998 0.126833
1.000000 0.190799 0.137819
1.000000 0.193332 0.148531
1.000000 0.196201 0.159213
0.000000 0.235660 0.000000
0.067811 0.236057 0.000000
0.110048 0.236362 0.000000
0.164431 0.236576 0.000000
0.221622 0.236881 0.000000
0.289372 0.245853 0.000000
0.357153 0.251865 0.000000
0.425116 0.256565 0.000000
0.494667 0.259983 0.000000
0.564508 0.262821 0.000000
0.630335 0.262577 0.000000
0.691127 0.260533 0.000000
0.744961 0.256565 0.000000
0.791745 0.251438 0.000000
0.832395 0.245609 0.000000
0.869230 0.240238 0.000000
0.904967 0.235630 0.000000
0.932677 0.231327 0.000000
0.955200 0.226902 0.000000
0.974578 0.223575 0.000000
0.991791 0.220462 0.000000
1.000000 0.218143 0.000000
1.000000 0.216220 0.000000
1.000000 0.214694 0.040101
1.000000 0.213291 0.071046
1.000000 0.212070 0.087831
1.000000 0.211337 0.101839
1.000000 0.210910 0.114229
1.000000 0.210971 0.125643
1.000000 0.211398 0.136721
1.000000 0.212161 0.147066
1.000000 0.213626 0.157961
0.000000 0.303929 0.000000
0.060578 0.304204 0.000000
0.108400 0.303899 0.000000
0.166140 0.303136 0.000000
0.225376 0.302037 0.000000
0.283421 0.300969 0.000000
0.351019 0.308629 0.000000
0.418067 0.313603 0.000000
0.486610 0.317723 0.000000
0.556115 0.320836 0.000000
0.621820 0.321324 0.000000
0.682887 0.319066 0.000000
0.737118 0.314488 0.000000
0.784787 0.308141 0.000000
0.826200 0.300938 0.000000
0.867430 0.294804 0.000000
0.901793 0.288182 0.000000
0.929259 0.281437 0.000000
0.951934 0.274937 0.000000
0.971740 0.268894 0.000000
0.989349 0.263767 0.000000
1.000000 0.258946 0.000000
1.000000 0.266758 0.087373
1.000000 0.263645 0.104921
1.000000 0.260685 0.118441
1.000000 0.257908 0.129793
1.000000 0.255589 0.139803
1.000000 0.253605 0.149691
1.000000 0.252201 0.158877
1.000000 0.251286 0.168093
1.000000 0.250889 0.177188
1.000000 0.250889 0.186160
0.000000 0.382483 0.000000
0.043091 0.382055 0.000000
0.107637 0.381567 0.000000
0.171420 0.380529 0.000000
0.234470 0.378973 0.000000
0.295781 0.376715 0.000000
0.355535 0.374212 0.000000
0.425086 0.380926 0.000000
0.494697 0.385290 0.000000
0.564813 0.388495 0.000000
0.630610 0.388098 0.000000
0.691432 0.384588 0.000000
0.744533 0.378119 0.000000
0.790799 0.369482 0.000000
0.835691 0.361547 0.000000
0.876158 0.353643 0.000000
0.907988 0.344427 0.000000
0.933959 0.334874 0.000000
0.956054 0.326116 0.000000
0.976104 0.318242 0.000000
0.994537 0.311681 0.000000
1.000000 0.305760 0.000580
1.000000 0.301030 0.067231
1.000000 0.296696 0.092683
1.000000 0.292912 0.111238
1.000000 0.288914 0.125368
1.000000 0.285313 0.137026
1.000000 0.281865 0.147341
1.000000 0.278721 0.156588
1.000000 0.276249 0.165652
1.000000 0.273960 0.174228
1.000000 0.272526 0.183047
0.000000 0.445258 0.000000
0.022766 0.444831 0.000000
0.103395 0.444007 0.000000
0.169253 0.442695 0.000000
0.233371 0.440650 0.000000
0.294896 0.438056 0.000000
0.354955 0.434913 0.000000
0.413855 0.432136 0.000000
0.483497 0.438544 0.000000
0.552941 0.442603 0.000000
0.618830 0.442908 0.000000
0.679805 0.439734 0.000000
0.733700 0.432990 0.000000
0.785061 0.425818 0.000000
0.832303 0.417823 0.000000
0.870024 0.407172 0.000000
0.900908 0.395758 0.000000
0.926726 0.384161 0.000000
0.949126 0.373419 0.000000
0.969543 0.363592 0.000000
0.988403 0.354925 0.000000
1.000000 0.347173 0.000000
1.000000 0.340337 0.064393
1.000000 0.334051 0.090486
1.000000 0.328191 0.109041
1.000000 0.322637 0.123507
1.000000 0.317174 0.135073
1.000000 0.312047 0.145083
1.000000 0.307530 0.154757
1.000000 0.303410 0.163485
1.000000 0.299962 0.172366
1.000000 0.296910 0.181003
0.000000 0.507317 0.000000
0.025025 0.506859 0.000000
0.104005 0.506249 0.000000
0.169467 0.504662 0.000000
0.233677 0.502586 0.000000
0.295262 0.499733 0.000000
0.355535 0.496620 0.000000
0.414954 0.493507 0.000000
0.474006 0.490333 0.000000
0.543511 0.496193 0.000000
0.609094 0.497078 0.000000
0.670192 0.494026 0.000000
0.731228 0.491188 0.000000
0.784176 0.483833 0.000000
0.828092 0.473091 0.000000
0.864225 0.460334 0.000000
0.894560 0.446815 0.000000
0.920439 0.433509 0.000000
0.943084 0.420783 0.000000
0.963836 0.409216 0.000000
0.983032 0.398840 0.000000
1.000000 0.389258 0.000000
1.000000 0.380560 0.065003
1.000000 0.372656 0.090730
1.000000 0.365148 0.109529
1.000000 0.357733 0.123781
1.000000 0.350866 0.135286
1.000000 0.344305 0.145174
1.000000 0.338231 0.154177
1.000000 0.332799 0.162997
1.000000 0.327855 0.171511
1.000000 0.323491 0.179843
0.000000 0.567376 0.000000
0.043793 0.566796 0.000000
0.106996 0.565942 0.000000
0.171115 0.564385 0.000000
0.234134 0.562066 0.000000
0.295476 0.559136 0.000000
0.355444 0.555657 0.000000
0.414649 0.552117 0.000000
0.473457 0.548730 0.000000
0.532158 0.545281 0.000000
0.603296 0.551995 0.000000
0.669123 0.552483 0.000000
0.727626 0.547539 0.000000
0.778317 0.538262 0.000000
0.821805 0.526207 0.000000
0.858366 0.512200 0.000000
0.889403 0.497444 0.000000
0.915801 0.482612 0.000000
0.938750 0.468513 0.000000
0.959503 0.455085 0.000000
0.978454 0.442817 0.000000
0.995666 0.431403 0.003815
1.000000 0.420783 0.065278
1.000000 0.410895 0.089754
1.000000 0.401526 0.107332
1.000000 0.392767 0.121736
1.000000 0.384466 0.133211
1.000000 0.376776 0.143587
1.000000 0.369726 0.153841
1.000000 0.363195 0.163058
1.000000 0.357427 0.172396
1.000000 0.352056 0.181308
0.000000 0.619409 0.000000
0.059449 0.618952 0.000000
0.111055 0.618341 0.000000
0.171664 0.617121 0.000000
0.233249 0.615137 0.000000
0.293675 0.612848 0.000000
0.353460 0.610010 0.000000
0.412207 0.606867 0.000000
0.472297 0.605066 0.000000
0.535882 0.606561 0.000000
0.598932 0.606500 0.000000
0.665217 0.607935 0.000000
0.721370 0.601038 0.000000
0.770871 0.590265 0.000000
0.813809 0.577020 0.000000
0.850278 0.561852 0.000000
0.881559 0.545769 0.000000
0.908324 0.529686 0.000000
0.931701 0.513970 0.000000
0.952911 0.499275 0.000000
0.972290 0.485573 0.000000
0.990021 0.472755 0.006683
1.000000 0.460883 0.068025
1.000000 0.449714 0.091737
1.000000 0.439094 0.109804
1.000000 0.428901 0.123323
1.000000 0.419226 0.134432
1.000000 0.410224 0.144778
1.000000 0.401923 0.154208
1.000000 0.394202 0.163363
1.000000 0.387152 0.172366
1.000000 0.380804 0.181308
0.000000 0.668757 0.000000
0.071260 0.668452 0.000000
0.116365 0.667842 0.000000
0.172885 0.666682 0.000000
0.232517 0.665064 0.000000
0.291661 0.662928 0.000000
0.352300 0.663722 0.000000
0.413184 0.664118 0.000000
0.474281 0.663844 0.000000
0.535454 0.662928 0.000000
0.596490 0.661006 0.000000
0.656977 0.658198 0.000000
0.755520 0.685054 0.000000
0.801572 0.668971 0.000000
0.840146 0.650019 0.000000
0.872618 0.629816 0.000000
0.900084 0.609491 0.000000
0.923674 0.589593 0.000000
0.944366 0.570703 0.000000
0.963256 0.553246 0.000000
0.980560 0.536889 0.056977
0.996307 0.521874 0.086366
1.000000 0.507622 0.105715
1.000000 0.494484 0.121798
1.000000 0.482033 0.135042
1.000000 0.470375 0.146120
1.000000 0.459297 0.155489
1.000000 0.448920 0.163851
1.000000 0.439216 0.171725
1.000000 0.430213 0.179660
1.000000 0.422034 0.187533
1.000000 0.414435 0.195193
0.026062 0.731319 0.000000
0.089021 0.731319 0.000000
0.127260 0.730678 0.000000
0.180819 0.729732 0.000000
0.238987 0.728267 0.000000
0.297520 0.726314 0.000000
0.356542 0.724392 0.000000
0.415808 0.722499 0.000000
0.475837 0.720943 0.000000
0.536675 0.719997 0.000000
0.598810 0.719356 0.000000
0.661616 0.718441 0.000000
0.724208 0.716762 0.000000
0.782528 0.710994 0.000000
0.825010 0.694453 0.000000
0.859800 0.675013 0.000000
0.888792 0.654231 0.000000
0.913298 0.633539 0.000000
0.934844 0.613611 0.000000
0.954406 0.594965 0.000000
0.972290 0.577600 0.053925
0.988678 0.561273 0.085054
1.000000 0.545983 0.105196
1.000000 0.531548 0.121218
1.000000 0.517967 0.133761
1.000000 0.505150 0.144686
1.000000 0.493019 0.154147
1.000000 0.481605 0.162783
1.000000 0.470832 0.170474
1.000000 0.460975 0.178683
1.000000 0.451728 0.186465
1.000000 0.443305 0.194644
0.069276 0.774746 0.000000
0.104921 0.774441 0.000000
0.135500 0.773526 0.000000
0.184115 0.771939 0.000000
0.238651 0.769406 0.000000
0.294408 0.766415 0.000000
0.350866 0.763546 0.000000
0.407416 0.760800 0.000000
0.464759 0.758419 0.000000
0.523003 0.756558 0.000000
0.582086 0.755032 0.000000
0.641840 0.753445 0.000000
0.701259 0.750942 0.000000
0.759548 0.747036 0.000000
0.811368 0.738033 0.000000
0.847349 0.718471 0.000000
0.877134 0.697230 0.000000
0.902556 0.675929 0.000000
0.925048 0.655238 0.000000
0.945403 0.635737 0.000000
0.964050 0.617365 0.052674
0.981079 0.600214 0.085267
0.996490 0.583917 0.105898
1.000000 0.568566 0.121767
1.000000 0.554009 0.135042
1.000000 0.540185 0.146090
1.000000 0.527031 0.155459
1.000000 0.514702 0.163699
1.000000 0.503044 0.171878
1.000000 0.492348 0.179782
1.000000 0.482399 0.188144
1.000000 0.473091 0.196414
0.091554 0.808896 0.000000
0.116976 0.808682 0.000000
0.143465 0.807706 0.000000
0.187381 0.805875 0.000000
0.237949 0.803128 0.000000
0.290440 0.799832 0.000000
0.343908 0.796597 0.000000
0.398138 0.793484 0.000000
0.452888 0.790799 0.000000
0.508690 0.788479 0.000000
0.565026 0.786435 0.000000
0.621942 0.784268 0.000000
0.678614 0.781369 0.000000
0.734432 0.777310 0.000000
0.788693 0.771786 0.000000
0.835355 0.760647 0.000000
0.866423 0.739406 0.000000
0.892485 0.717372 0.000000
0.915618 0.696010 0.000000
0.936614 0.675624 0.000000
0.955840 0.656397 0.051484
0.973419 0.638270 0.084932
0.989319 0.621118 0.105745
1.000000 0.604822 0.122255
1.000000 0.589410 0.136080
1.000000 0.574884 0.147463
1.000000 0.561120 0.157748
1.000000 0.548272 0.167758
1.000000 0.536187 0.177127
1.000000 0.525048 0.186496
1.000000 0.514672 0.196292
1.000000 0.504967 0.206119
0.108492 0.836545 0.000000
0.129671 0.836454 0.000000
0.151522 0.835935 0.000000
0.190829 0.834653 0.000000
0.237827 0.832670 0.000000
0.287846 0.830259 0.000000
0.338781 0.827787 0.000000
0.390692 0.825193 0.000000
0.443641 0.822446 0.000000
0.496742 0.819638 0.000000
0.550286 0.816464 0.000000
0.603784 0.812955 0.000000
0.656825 0.808713 0.000000
0.709438 0.803586 0.000000
0.760830 0.797574 0.000000
0.810788 0.790616 0.000000
0.854185 0.778927 0.000000
0.882048 0.757321 0.000000
0.906340 0.735592 0.000000
0.928405 0.714931 0.000000
0.948547 0.695308 0.058900
0.966888 0.676539 0.090791
0.983459 0.658686 0.111666
0.998596 0.641718 0.127993
1.000000 0.625574 0.142092
1.000000 0.610315 0.154299
1.000000 0.595789 0.164645
1.000000 0.582238 0.174807
1.000000 0.569451 0.184573
1.000000 0.557458 0.193515
1.000000 0.546136 0.202792
1.000000 0.535576 0.211856
0.123812 0.858213 0.000000
0.140017 0.857939 0.000000
0.159213 0.857328 0.000000
0.194064 0.856168 0.000000
0.236912 0.854459 0.000000
0.283268 0.852354 0.000000
0.331395 0.850004 0.000000
0.380774 0.847471 0.000000
0.430884 0.844755 0.000000
0.481514 0.841886 0.000000
0.532616 0.838834 0.000000
0.583764 0.835447 0.000000
0.634760 0.831510 0.000000
0.685176 0.826719 0.000000
0.734707 0.820981 0.000000
0.782956 0.814328 0.000000
0.830014 0.807004 0.000000
0.871153 0.795590 0.000000
0.896727 0.773953 0.000000
0.919310 0.752651 0.000000
0.940032 0.732357 0.058381
0.958923 0.712978 0.090181
0.976104 0.694484 0.112123
0.991821 0.676875 0.129610
1.000000 0.660090 0.143740
1.000000 0.644190 0.156558
1.000000 0.629114 0.168032
1.000000 0.614954 0.178653
1.000000 0.601556 0.188876
1.000000 0.588983 0.198795
1.000000 0.577142 0.208286
1.000000 0.566125 0.218570
0.138460 0.877928 0.000000
0.152987 0.878019 0.000000
0.182559 0.891936 0.000000
0.211643 0.890837 0.000000
0.249332 0.889097 0.000000
0.291173 0.886748 0.000000
0.335729 0.884001 0.000000
0.381933 0.880919 0.000000
0.429389 0.877653 0.000000
0.477516 0.874266 0.000000
0.526055 0.870603 0.000000
0.574731 0.866484 0.000000
0.623194 0.861723 0.000000
0.671321 0.856413 0.000000
0.718715 0.850370 0.000000
0.765255 0.843687 0.000000
0.810910 0.836393 0.000000
0.855406 0.828702 0.000000
0.894377 0.817197 0.000000
0.916869 0.794736 0.038331
0.937011 0.772976 0.085512
0.955627 0.752377 0.109895
0.972717 0.732784 0.128084
0.988251 0.714107 0.143343
1.000000 0.696162 0.155489
1.000000 0.679103 0.166171
1.000000 0.662928 0.175418
1.000000 0.647669 0.184543
1.000000 0.633417 0.193637
1.000000 0.620172 0.203372
1.000000 0.607691 0.213352
1.000000 0.596033 0.223911
0.156771 0.898314 0.025177
0.169253 0.899779 0.044465
0.185092 0.901061 0.058503
0.212528 0.901671 0.065583
0.247745 0.901396 0.069123
0.287175 0.899992 0.070192
0.328923 0.897826 0.067781
0.372381 0.895140 0.066041
0.417243 0.892271 0.064576
0.462623 0.889128 0.064881
0.508843 0.885740 0.064637
0.555230 0.882017 0.065492
0.601587 0.877623 0.065919
0.647639 0.872709 0.064210
0.693172 0.867155 0.061219
0.738186 0.860960 0.054780
0.782406 0.854276 0.043793
0.825834 0.847257 0.029603
0.868620 0.840024 0.019471
0.906828 0.829831 0.030701
0.928038 0.807980 0.084230
0.947417 0.787106 0.110170
0.965209 0.767147 0.129854
0.981445 0.748043 0.145754
0.996216 0.729671 0.158846
1.000000 0.712154 0.169802
1.000000 0.695460 0.179721
1.000000 0.679713 0.189364
1.000000 0.664942 0.199008
1.000000 0.651118 0.209140
1.000000 0.638117 0.219303
1.000000 0.626001 0.230442
0.166506 0.911742 0.084810
0.178103 0.912902 0.090761
0.191775 0.914000 0.095216
0.216220 0.914488 0.099123
0.248356 0.914183 0.101778
0.284581 0.912932 0.102083
0.323613 0.911009 0.101442
0.364324 0.908659 0.100435
0.406531 0.906096 0.099275
0.449805 0.903258 0.099001
0.493721 0.900175 0.099763
0.538018 0.896757 0.100221
0.582330 0.892729 0.099763
0.626581 0.888243 0.099428
0.670436 0.883146 0.097688
0.713832 0.877501 0.094697
0.756710 0.871397 0.090211
0.799008 0.864958 0.087037
0.840848 0.858335 0.083589
0.882170 0.851743 0.081544
0.919677 0.842771 0.085451
0.939696 0.821500 0.112612
0.958129 0.801175 0.133059
0.974884 0.781643 0.149630
0.990173 0.762783 0.163027
1.000000 0.744717 0.174166
1.000000 0.727474 0.183963
1.000000 0.711177 0.193637
1.000000 0.695888 0.203464
1.000000 0.681453 0.213443
1.000000 0.667994 0.224308
1.000000 0.655360 0.235721
0.175723 0.924346 0.113436
0.185824 0.925353 0.117525
0.198306 0.926299 0.121370
0.220218 0.926696 0.124666
0.249577 0.926390 0.126619
0.282994 0.925261 0.127138
0.319097 0.923552 0.126558
0.357214 0.921386 0.125399
0.397192 0.918975 0.124758
0.438117 0.916320 0.124453
0.479835 0.913420 0.124056
0.522179 0.910185 0.124239
0.564508 0.906493 0.123629
0.607019 0.902403 0.123079
0.649378 0.897887 0.122713
0.691554 0.893034 0.121401
0.733639 0.887877 0.120851
0.775418 0.882597 0.120180
0.816953 0.877195 0.120760
0.858183 0.871733 0.122469
0.898802 0.866300 0.125154
0.936522 0.859098 0.130800
0.955138 0.838132 0.152590
0.972473 0.818235 0.169863
0.988190 0.799069 0.184329
1.000000 0.780667 0.196506
1.000000 0.762966 0.207248
1.000000 0.746242 0.217502
1.000000 0.730465 0.227573
1.000000 0.715633 0.238193
1.000000 0.701808 0.249699
1.000000 0.689082 0.261479
0.192447 0.940642 0.151369
0.200198 0.940978 0.152926
0.209934 0.941100 0.154208
0.228489 0.940826 0.154818
0.254185 0.940063 0.155245
0.284550 0.938811 0.155032
0.318059 0.937194 0.154360
0.353826 0.935363 0.153719
0.391516 0.933288 0.153628
0.430518 0.931060 0.153811
0.470375 0.928588 0.154665
0.510887 0.925719 0.155184
0.551537 0.922423 0.155276
0.592279 0.918639 0.154940
0.632990 0.914488 0.154147
0.673762 0.909941 0.153262
0.714260 0.905150 0.152438
0.754757 0.900114 0.151705
0.794888 0.894987 0.151797
0.834806 0.889708 0.152163
0.874205 0.884306 0.153384
0.912993 0.878874 0.154849
0.949645 0.872313 0.158206
0.966217 0.850980 0.175692
0.982208 0.831205 0.189639
0.996918 0.812314 0.201999
1.000000 0.794247 0.212985
1.000000 0.777096 0.223606
1.000000 0.760861 0.234165
1.000000 0.745663 0.245396
1.000000 0.731563 0.256901
1.000000 0.718898 0.268681
0.200992 0.951446 0.170657
0.207980 0.951720 0.172274
0.216648 0.951904 0.173526
0.233646 0.951659 0.174441
0.256992 0.950988 0.174807
0.284703 0.949798 0.174319
0.315679 0.948241 0.173342
0.348882 0.946471 0.172457
0.384497 0.944488 0.172152
0.421393 0.942382 0.172091
0.459358 0.940032 0.172396
0.497871 0.937377 0.173007
0.536736 0.934386 0.172976
0.576074 0.930999 0.172793
0.615290 0.927276 0.172580
0.654719 0.923247 0.172000
0.694087 0.919005 0.171847
0.733394 0.914549 0.171939
0.772671 0.909941 0.172763
0.811673 0.905241 0.174258
0.850401 0.900481 0.176089
0.888640 0.895628 0.178866
0.926238 0.890745 0.181827
0.962646 0.885588 0.185245
0.975280 0.861936 0.190951
0.990478 0.842588 0.203189
1.000000 0.824125 0.214847
1.000000 0.806607 0.225711
1.000000 0.790127 0.236790
1.000000 0.774716 0.248447
1.000000 0.760586 0.260685
1.000000 0.748074 0.273381
0.216709 0.964660 0.200107
0.222965 0.964996 0.202090
0.230655 0.965026 0.202976
0.244999 0.964660 0.203250
0.265293 0.963836 0.202579
0.289952 0.962585 0.201328
0.317906 0.960998 0.199832
0.348486 0.959106 0.197971
0.381292 0.956970 0.196262
0.415625 0.954681 0.194980
0.451118 0.952117 0.193851
0.487404 0.949401 0.193057
0.524376 0.946380 0.192081
0.561578 0.943023 0.190860
0.598993 0.939239 0.189029
0.636500 0.935180 0.187228
0.674189 0.930907 0.185428
0.711971 0.926543 0.184573
0.749935 0.922271 0.184848
0.788022 0.918029 0.186252
0.825986 0.913787 0.189029
0.863523 0.909422 0.191806
0.900420 0.904845 0.194766
0.936461 0.900023 0.197177
0.971405 0.894987 0.198917
0.985657 0.874052 0.212100
0.999939 0.855009 0.222995
1.000000 0.836942 0.233371
1.000000 0.820066 0.244053
1.000000 0.804349 0.255467
1.000000 0.790127 0.267765
1.000000 0.777676 0.280858
0.223270 0.973632 0.214755
0.229038 0.973938 0.216587
0.236149 0.973999 0.217502
0.249088 0.973632 0.217746
0.267674 0.972900 0.217227
0.290471 0.971801 0.216281
0.316686 0.970428 0.215183
0.345434 0.968811 0.213748
0.376471 0.967010 0.212741
0.409155 0.965026 0.212131
0.442969 0.962829 0.211398
0.478004 0.960479 0.211337
0.513512 0.957885 0.211063
0.549401 0.954925 0.210483
0.585534 0.951659 0.209506
0.621790 0.948058 0.208225
0.658289 0.944274 0.207370
0.695003 0.940368 0.206790
0.731838 0.936492 0.207523
0.768856 0.932616 0.209293
0.805783 0.928679 0.211765
0.842496 0.924620 0.214817
0.878660 0.920409 0.217624
0.914122 0.916045 0.220188
0.948852 0.911467 0.222599
0.982513 0.906798 0.224643
0.996521 0.886809 0.237461
1.000000 0.868467 0.248722
1.000000 0.851316 0.260136
1.000000 0.835447 0.272068
1.000000 0.821103 0.285069
1.000000 0.808743 0.298894
0.232700 0.983215 0.233219
0.237980 0.983368 0.234409
0.243839 0.983276 0.234897
0.255253 0.982849 0.234501
0.271672 0.982055 0.233585
0.292393 0.980987 0.232242
0.316320 0.979675 0.230564
0.343114 0.978149 0.229038
0.372351 0.976471 0.227878
0.403204 0.974670 0.227176
0.435584 0.972686 0.226810
0.469001 0.970611 0.227054
0.503105 0.968292 0.227085
0.537713 0.965698 0.226932
0.572412 0.962707 0.226108
0.607416 0.959472 0.225101
0.642634 0.955993 0.224033
0.678065 0.952392 0.223606
0.713832 0.948791 0.223941
0.749722 0.945220 0.225498
0.785672 0.941588 0.227909
0.821500 0.937865 0.231022
0.856901 0.934020 0.234043
0.891814 0.929992 0.236912
0.926146 0.925902 0.239811
0.959716 0.921691 0.242710
0.992432 0.917510 0.246036
1.000000 0.898558 0.257847
1.000000 0.880858 0.269627
1.000000 0.864714 0.281773
1.000000 0.850187 0.294652
1.000000 0.837766 0.308568
0.239475 0.991608 0.247166
0.243809 0.991638 0.247929
0.249210 0.991547 0.248417
0.259586 0.991211 0.248112
0.275242 0.990631 0.247837
0.294835 0.989899 0.247776
0.318364 0.989105 0.248325
0.344610 0.988220 0.249668
0.373297 0.987274 0.251530
0.403693 0.986236 0.254063
0.435340 0.985016 0.256870
0.467903 0.983612 0.259739
0.500999 0.981933 0.262364
0.534478 0.979889 0.264317
0.568109 0.977478 0.265415
0.601678 0.974701 0.265446
0.635554 0.971649 0.265385
0.669642 0.968444 0.265446
0.704097 0.965240 0.266667
0.738735 0.961944 0.268284
0.773495 0.958648 0.271061
0.808255 0.955261 0.274662
0.842679 0.951781 0.278172
0.876707 0.948180 0.281773
0.910246 0.944457 0.285588
0.943267 0.940673 0.289189
0.975586 0.936919 0.293034
1.000000 0.933257 0.297642
1.000000 0.915404 0.308751
1.000000 0.898283 0.321263
1.000000 0.883330 0.334630
1.000000 0.870634 0.348547
0.261021 1.000000 0.279545
0.264530 1.000000 0.280095
0.268864 1.000000 0.280125
0.277562 1.000000 0.279484
0.290623 1.000000 0.278599
0.307561 1.000000 0.277714
0.327886 0.999939 0.277073
0.351019 0.998932 0.276829
0.376745 0.997742 0.277073
0.404486 0.996460 0.277958
0.433448 0.994995 0.278691
0.463630 0.993408 0.279759
0.494545 0.991608 0.280797
0.526085 0.989532 0.281621
0.558007 0.987243 0.281834
0.590295 0.984680 0.281987
