其他预设/【232】美食博客调色预设124款/1.3D LUT预设（视频调色-PR-AE-PS-FCPX-达芬奇用）/Yummy #14.cube
# Created by Adobe Lightroom plugin Export LUT (1.17.0)
# www.johnrellis.com/lightroom/exportlut.htm
# Preset: Yummy #14
# Color profile: /Library/Application Support/Adobe/Color/Profiles/Recommended/AdobeRGB1998.icc
LUT_3D_SIZE 8
DOMAIN_MIN 0.000000 0.000000 0.000000
DOMAIN_MAX 0.903226 0.903226 0.903226
0.000000 0.000000 0.000000
0.123873 0.000000 0.000000
0.301122 0.002075 0.000000
0.562890 0.000000 0.000000
0.786801 0.000000 0.000000
0.926787 0.000000 0.000000
1.000000 0.000000 0.000000
1.000000 0.000000 0.000000
0.008331 0.119539 0.000000
0.123629 0.120333 0.000000
0.293584 0.143313 0.000000
0.548943 0.175113 0.000000
0.777462 0.179568 0.000000
0.916564 0.160189 0.000000
1.000000 0.131258 0.000000
1.000000 0.092897 0.000000
0.017304 0.289921 0.000000
0.150484 0.290929 0.000000
0.299748 0.292790 0.000000
0.542718 0.351629 0.000000
0.772457 0.371954 0.000000
0.911162 0.347356 0.000000
1.000000 0.313390 0.000000
1.000000 0.276829 0.000000
0.000000 0.534295 0.000000
0.177066 0.535088 0.000000
0.366278 0.540734 0.000000
0.562646 0.549981 0.000000
0.772427 0.562707 0.000000
0.904723 0.524559 0.000000
0.994079 0.476905 0.000000
1.000000 0.429633 0.000000
0.000000 0.745724 0.000000
0.165927 0.744045 0.000000
0.369238 0.740932 0.000000
0.560296 0.736568 0.000000
0.739834 0.723659 0.000000
0.882536 0.686702 0.000000
0.977630 0.630945 0.000000
1.000000 0.575067 0.000000
0.000000 0.869383 0.000000
0.128328 0.871275 0.000000
0.336126 0.866819 0.000000
0.517113 0.859556 0.000000
0.687343 0.846799 0.000000
0.849546 0.831662 0.000000
0.963775 0.782223 0.000000
1.000000 0.717006 0.000000
0.000000 0.954162 0.000000
0.059083 0.953613 0.000000
0.293278 0.949187 0.000000
0.464546 0.942382 0.000000
0.624628 0.932280 0.000000
0.777279 0.919524 0.000000
0.923705 0.905028 0.000000
1.000000 0.854429 0.000000
0.000000 1.000000 0.000000
0.000000 1.000000 0.000000
0.251011 1.000000 0.000000
0.416114 1.000000 0.000000
0.565148 0.996521 0.000000
0.709682 0.987243 0.000000
0.849454 0.976013 0.000000
0.984863 0.962310 0.000000
0.004517 0.000000 0.100496
0.121920 0.000000 0.104616
0.293706 0.000000 0.086336
0.547234 0.000000 0.039460
0.776181 0.000000 0.000000
0.914214 0.000000 0.000000
1.000000 0.000000 0.000000
1.000000 0.000000 0.000000
0.000000 0.115663 0.100984
0.123659 0.118318 0.097047
0.290501 0.128817 0.086580
0.542016 0.139345 0.000000
0.771054 0.132662 0.000000
0.908568 0.111635 0.000000
0.998108 0.076081 0.000000
1.000000 0.000000 0.000000
0.000000 0.284581 0.076967
0.136416 0.286168 0.067140
0.297642 0.289281 0.045655
0.536828 0.337957 0.000000
0.761257 0.352392 0.000000
0.901823 0.329168 0.000000
0.994781 0.296452 0.000000
1.000000 0.261540 0.000000
0.000000 0.525231 0.000000
0.139651 0.526390 0.000000
0.351812 0.531426 0.000000
0.544671 0.531121 0.000000
0.751736 0.541802 0.000000
0.890410 0.509056 0.000000
0.985046 0.465126 0.000000
1.000000 0.420478 0.000000
0.000000 0.741207 0.000000
0.111696 0.738827 0.000000
0.352483 0.734157 0.000000
0.548547 0.726558 0.000000
0.729397 0.712612 0.000000
0.875242 0.677760 0.000000
0.973053 0.624048 0.000000
1.000000 0.569421 0.000000
0.000000 0.864927 0.000000
0.047364 0.863951 0.000000
0.319371 0.859892 0.000000
0.507683 0.853819 0.000000
0.681910 0.842649 0.000000
0.847349 0.828977 0.000000
0.961639 0.778775 0.000000
1.000000 0.713436 0.000000
0.000000 0.950195 0.000000
0.000000 0.948547 0.000000
0.278050 0.944762 0.000000
0.456519 0.939117 0.000000
0.620111 0.929992 0.000000
0.774105 0.917082 0.000000
0.920806 0.901976 0.000000
1.000000 0.850950 0.000000
0.000000 1.000000 0.000000
0.000000 1.000000 0.000000
0.239139 1.000000 0.000000
0.410437 1.000000 0.000000
0.563958 0.997955 0.000000
0.708797 0.987732 0.000000
0.848447 0.975463 0.000000
0.983825 0.961273 0.000000
0.003845 0.000000 0.238804
0.133608 0.000000 0.242039
0.296696 0.000000 0.257145
0.553033 0.000000 0.276524
0.782925 0.000000 0.214267
0.915953 0.000000 0.185214
1.000000 0.000000 0.165682
1.000000 0.000000 0.145083
0.000000 0.117769 0.235325
0.121248 0.109651 0.238346
0.297154 0.084230 0.248722
0.548730 0.000000 0.246921
0.775692 0.000000 0.196567
0.910491 0.000000 0.178927
1.000000 0.000000 0.158694
1.000000 0.000000 0.139223
0.000000 0.275639 0.240421
0.094179 0.281285 0.239078
0.298924 0.284947 0.223392
0.546197 0.298375 0.209751
0.768368 0.295293 0.185031
0.904082 0.276249 0.163699
0.994812 0.250492 0.145480
1.000000 0.220584 0.127230
0.000000 0.523613 0.254368
0.000000 0.528862 0.228611
0.311650 0.533349 0.181033
0.549126 0.531640 0.164767
0.757656 0.525200 0.144076
0.893034 0.488441 0.132998
0.986267 0.445655 0.119783
1.000000 0.402625 0.105623
0.000000 0.737514 0.183352
0.000000 0.738582 0.128115
0.297856 0.734981 0.099245
0.534295 0.728817 0.077058
0.733486 0.714260 0.000000
0.877104 0.669459 0.000000
0.972625 0.613825 0.046540
1.000000 0.559686 0.054902
0.000000 0.864897 0.000000
0.000000 0.863981 0.000000
0.271305 0.858854 0.000000
0.487556 0.851530 0.000000
0.673243 0.839872 0.000000
0.844907 0.825376 0.000000
0.959350 0.772244 0.000000
1.000000 0.708248 0.000000
0.000000 0.950927 0.000000
0.000000 0.949432 0.000000
0.240513 0.944884 0.000000
0.439857 0.938201 0.000000
0.611505 0.928832 0.000000
0.770596 0.916258 0.000000
0.921477 0.902159 0.000000
1.000000 0.849699 0.000000
0.000000 1.000000 0.000000
0.000000 1.000000 0.000000
0.213016 1.000000 0.000000
0.400671 1.000000 0.000000
0.558587 0.997192 0.000000
0.706233 0.987366 0.000000
0.847532 0.975311 0.000000
0.983917 0.961517 0.000000
0.000000 0.000000 0.443641
0.156069 0.000000 0.448646
0.336187 0.000000 0.459754
0.546075 0.000000 0.475563
0.768917 0.000000 0.466407
0.905150 0.000000 0.409186
0.993713 0.000000 0.375738
1.000000 0.000000 0.370001
0.000000 0.096864 0.443214
0.113039 0.082856 0.446540
0.327733 0.000000 0.456916
0.547814 0.000000 0.470527
0.767697 0.000000 0.454047
0.902159 0.000000 0.401068
0.990478 0.000000 0.377661
1.000000 0.000000 0.365026
0.000000 0.294011 0.428138
0.000000 0.284733 0.429084
0.283604 0.260227 0.440131
0.547387 0.241062 0.447791
0.762356 0.212833 0.421485
0.896605 0.243565 0.400122
0.987793 0.266026 0.389502
1.000000 0.246738 0.364782
0.000000 0.505241 0.442756
0.000000 0.509606 0.441840
0.253239 0.519829 0.433295
0.541711 0.518151 0.415259
0.745754 0.501762 0.406256
0.882353 0.476692 0.391821
0.977081 0.446326 0.376196
1.000000 0.412024 0.357183
0.000000 0.729213 0.435065
0.000000 0.728817 0.423926
0.217533 0.728634 0.391516
0.516625 0.723751 0.385290
0.732021 0.710140 0.374945
0.871122 0.662348 0.371862
0.965759 0.614008 0.367926
1.000000 0.564660 0.350591
0.000000 0.861143 0.375860
0.000000 0.862852 0.369512
0.225803 0.858427 0.354589
0.480079 0.850187 0.359472
0.671443 0.839384 0.353979
0.844175 0.823819 0.342382
0.954009 0.768002 0.335668
1.000000 0.709926 0.344274
0.000000 0.947326 0.330053
0.000000 0.946593 0.329320
0.250797 0.942565 0.343786
0.442908 0.936919 0.340246
0.613367 0.927916 0.337255
0.770993 0.915557 0.329595
0.920104 0.900999 0.321050
1.000000 0.847623 0.321141
0.000000 1.000000 0.324895
0.000000 1.000000 0.332708
0.286717 1.000000 0.359380
0.415442 1.000000 0.337163
0.566613 0.994629 0.336492
0.710567 0.985321 0.336919
0.848631 0.973846 0.335668
0.982147 0.960998 0.338720
0.000000 0.000000 0.654353
0.157656 0.000000 0.656672
0.351507 0.000000 0.662226
0.551629 0.000000 0.669123
0.752621 0.000000 0.660426
0.890410 0.000000 0.602899
0.982025 0.000000 0.550225
1.000000 0.000000 0.526116
0.000000 0.022583 0.650813
0.087678 0.000000 0.654047
0.335149 0.000000 0.660090
0.547997 0.000000 0.667994
0.751400 0.000000 0.655451
0.888914 0.000000 0.598779
0.980102 0.000000 0.551263
1.000000 0.140932 0.532525
0.000000 0.275944 0.633997
0.000000 0.256779 0.638148
0.263218 0.231388 0.647089
0.532647 0.214755 0.659419
0.744533 0.179446 0.638331
0.879454 0.213596 0.588830
0.970520 0.284825 0.561639
1.000000 0.355871 0.558495
0.000000 0.493294 0.624598
0.000000 0.489387 0.624384
0.197238 0.478431 0.624781
0.511101 0.485573 0.634333
0.730190 0.492287 0.621759
0.862486 0.502342 0.602380
0.953368 0.521843 0.601770
1.000000 0.504601 0.582269
0.000000 0.702876 0.620630
0.000000 0.704707 0.619684
0.185397 0.707149 0.614557
0.502251 0.703700 0.609644
0.714778 0.693233 0.603723
0.848081 0.665614 0.597192
0.945953 0.636774 0.583124
1.000000 0.604303 0.564324
0.000000 0.846586 0.568902
0.000000 0.845975 0.565637
0.195529 0.841794 0.558343
0.483772 0.832822 0.569177
0.668391 0.824979 0.573846
0.833463 0.814633 0.568994
0.937041 0.771084 0.567529
1.000000 0.729854 0.563348
0.000000 0.939971 0.516472
0.000000 0.938720 0.516014
0.240940 0.934142 0.522057
0.484962 0.924987 0.555535
0.629816 0.918883 0.555566
0.774899 0.909117 0.552270
0.913420 0.896422 0.544366
1.000000 0.848173 0.535515
0.000000 1.000000 0.484810
0.000000 1.000000 0.488563
0.292485 0.999359 0.508019
0.500084 0.991424 0.561547
0.600305 0.987488 0.547021
0.728054 0.979370 0.547509
0.853696 0.969482 0.546746
0.976654 0.958434 0.548180
0.000000 0.000000 0.804562
0.138308 0.000000 0.805051
0.332982 0.000000 0.805753
0.521782 0.000000 0.810788
0.712856 0.000000 0.809079
0.873991 0.000000 0.774075
0.968200 0.000000 0.707210
1.000000 0.000000 0.660487
0.000000 0.000000 0.798856
0.021088 0.000000 0.799283
0.313420 0.000000 0.801419
0.512444 0.000000 0.806058
0.708980 0.000000 0.805264
0.871244 0.000000 0.770108
0.965881 0.000000 0.705989
1.000000 0.108553 0.662898
0.000000 0.221836 0.792081
0.000000 0.218082 0.792386
0.241306 0.205661 0.794614
0.489754 0.189120 0.799527
0.704158 0.171603 0.800381
0.866056 0.186313 0.762722
0.958953 0.269780 0.708675
1.000000 0.346777 0.677943
0.000000 0.452674 0.773129
0.000000 0.445777 0.772091
0.145602 0.434699 0.775509
0.475166 0.451209 0.785275
0.703975 0.477790 0.792325
0.855100 0.489357 0.758846
0.945556 0.513085 0.725673
1.000000 0.537041 0.709285
0.000000 0.653193 0.763821
0.000000 0.652094 0.763729
0.124819 0.649531 0.762905
0.462135 0.652155 0.761196
0.687770 0.669429 0.767208
0.833799 0.675532 0.754177
0.925841 0.679133 0.745388
0.993317 0.686854 0.745449
0.000000 0.834409 0.745632
0.000000 0.834806 0.745357
0.168490 0.832151 0.742245
0.475288 0.824399 0.740444
0.676112 0.813687 0.744442
0.821164 0.806241 0.746883
0.916411 0.786007 0.744411
0.989380 0.765682 0.736141
0.000000 0.932891 0.682856
0.000000 0.932158 0.683375
0.250675 0.927459 0.686244
0.484443 0.918547 0.699275
0.666194 0.907347 0.725185
0.788266 0.901427 0.731991
0.906004 0.892851 0.727565
0.982605 0.861112 0.725948
0.000000 1.000000 0.634211
0.000000 0.999207 0.636408
0.300114 0.994568 0.647578
0.493782 0.986511 0.674220
0.662135 0.975372 0.716915
0.759243 0.970672 0.719905
0.865660 0.963928 0.722652
0.969909 0.956237 0.723903
0.000000 0.000000 0.900237
0.105623 0.000000 0.901274
0.301366 0.000000 0.901091
0.474495 0.000000 0.901732
0.649470 0.000000 0.902770
0.822232 0.000000 0.896971
0.950744 0.000000 0.851652
1.000000 0.000000 0.786160
0.000000 0.000000 0.894621
0.000000 0.000000 0.895598
0.281163 0.000000 0.895964
0.463935 0.000000 0.896513
0.642817 0.000000 0.897520
0.816953 0.000000 0.891539
0.945434 0.000000 0.846220
1.000000 0.000000 0.782620
0.000000 0.191653 0.891600
0.000000 0.187747 0.891630
0.211093 0.174350 0.891386
0.439307 0.155489 0.892088
0.633814 0.145296 0.892729
0.814145 0.137667 0.888212
0.941894 0.208194 0.844816
1.000000 0.303899 0.790707
0.000000 0.399023 0.880705
0.000000 0.394476 0.880491
0.112154 0.391943 0.881102
0.424475 0.402930 0.882750
0.632685 0.424659 0.884276
0.812924 0.449561 0.883024
0.932982 0.477119 0.845579
1.000000 0.508843 0.805447
0.000000 0.586084 0.864958
0.000000 0.583001 0.863737
0.000000 0.576135 0.861234
0.397803 0.581476 0.860197
0.629206 0.613397 0.865232
0.803494 0.639918 0.869657
0.915465 0.650080 0.842527
0.986114 0.668330 0.823484
0.000000 0.764584 0.855497
0.000000 0.763943 0.855253
0.000000 0.762264 0.854215
0.408179 0.762051 0.852811
0.621668 0.764553 0.850340
0.794583 0.782925 0.856687
0.902983 0.791226 0.849485
0.972381 0.795102 0.846830
0.000000 0.924468 0.838071
0.000000 0.923888 0.837980
0.176425 0.919615 0.836423
0.449683 0.911376 0.835721
0.644221 0.899229 0.837095
0.790158 0.889647 0.843565
0.895048 0.885588 0.848905
0.966369 0.872007 0.848234
0.000000 0.993256 0.772061
0.000000 0.992126 0.773068
0.301488 0.988678 0.779782
0.490974 0.981170 0.791745
0.656855 0.970611 0.811887
0.787472 0.961364 0.836149
0.875456 0.958160 0.844785
0.963287 0.954223 0.847440
0.000000 0.000000 0.965118
0.031647 0.000000 0.965362
0.264012 0.000000 0.964263
0.424994 0.000000 0.963958
0.582788 0.000000 0.963348
0.742397 0.000000 0.962676
0.898589 0.000000 0.957488
1.000000 0.000000 0.909758
0.000000 0.000000 0.962799
0.000000 0.000000 0.963073
0.244663 0.000000 0.962371
0.415473 0.000000 0.961791
0.577508 0.000000 0.961334
0.739528 0.000000 0.960784
0.896147 0.000000 0.955322
1.000000 0.000000 0.908049
0.000000 0.146731 0.958984
0.000000 0.142092 0.959014
0.163638 0.121523 0.957885
0.387152 0.092348 0.958892
0.564813 0.023896 0.958099
0.733791 0.056641 0.957000
0.892241 0.054078 0.952117
0.997955 0.205203 0.906920
0.000000 0.330327 0.953002
0.000000 0.332525 0.953216
0.000000 0.332036 0.952483
0.356664 0.337011 0.952392
0.555596 0.350317 0.952026
0.731655 0.379217 0.951446
0.887755 0.400427 0.947723
0.990051 0.445899 0.908171
0.000000 0.510185 0.939818
0.000000 0.507897 0.940215
0.000000 0.502678 0.940673
0.325841 0.514580 0.941711
0.556237 0.542870 0.940764
0.730953 0.570275 0.941131
0.881132 0.598291 0.940459
0.978515 0.634211 0.912047
0.000000 0.682673 0.931792
0.000000 0.680720 0.931212
0.000000 0.675288 0.929747
0.273381 0.671473 0.927825
0.528069 0.682216 0.925475
0.737850 0.728359 0.929595
0.881163 0.763455 0.936217
0.966949 0.775723 0.917784
0.000000 0.849058 0.927398
0.000000 0.848264 0.927092
0.000000 0.846006 0.926268
0.339300 0.844572 0.925414
0.568414 0.845945 0.924071
0.737392 0.849424 0.922210
0.870054 0.863157 0.926238
0.956298 0.874144 0.922393
0.000000 0.995270 0.914611
0.000000 0.993957 0.914061
0.140108 0.989502 0.912993
0.421637 0.981353 0.912413
0.616541 0.969512 0.912963
0.763546 0.958099 0.915526
0.875853 0.950530 0.922179
0.954040 0.949584 0.932586
