其他预设/【232】美食博客调色预设124款/1.3D LUT预设（视频调色-PR-AE-PS-FCPX-达芬奇用）/Yummy #7.cube
# Created by Adobe Lightroom plugin Export LUT (1.17.0)
# www.johnrellis.com/lightroom/exportlut.htm
# Preset: Yummy #7
# Color profile: /Library/Application Support/Adobe/Color/Profiles/Recommended/AdobeRGB1998.icc
LUT_3D_SIZE 32
0.000000 0.000000 0.000000
0.072999 0.007324 0.015137
0.108797 0.013764 0.032532
0.189700 0.018647 0.052796
0.289586 0.000000 0.058900
0.388037 0.000000 0.061311
0.485969 0.000000 0.061433
0.582788 0.000000 0.060761
0.666438 0.000000 0.066590
0.730617 0.000000 0.079286
0.782101 0.000000 0.099245
0.824277 0.000000 0.120638
0.860258 0.000000 0.143252
0.891020 0.000000 0.166506
0.917082 0.000000 0.188724
0.939544 0.082277 0.209201
0.958923 0.119326 0.228550
0.975708 0.149966 0.246799
0.990265 0.177096 0.263890
1.000000 0.204715 0.281804
1.000000 0.230564 0.298222
1.000000 0.254459 0.313024
1.000000 0.276860 0.326390
1.000000 0.298528 0.338750
1.000000 0.318547 0.349920
1.000000 0.338079 0.360388
1.000000 0.357641 0.370672
1.000000 0.376928 0.380346
1.000000 0.396094 0.389990
1.000000 0.415686 0.399756
1.000000 0.435218 0.409522
1.000000 0.454902 0.419409
0.013458 0.074006 0.031128
0.076112 0.076204 0.046418
0.113161 0.080720 0.057221
0.194339 0.093812 0.062470
0.292699 0.099702 0.063020
0.389471 0.096132 0.062531
0.486305 0.083955 0.062257
0.581964 0.061463 0.062440
0.664942 0.000000 0.067597
0.729152 0.000000 0.081453
0.780423 0.000000 0.101534
0.822660 0.000000 0.122835
0.858640 0.000000 0.145724
0.889464 0.038880 0.168673
0.915679 0.086183 0.189975
0.938170 0.115663 0.211002
0.957610 0.141878 0.229770
0.974517 0.166262 0.247562
0.989258 0.189395 0.264714
1.000000 0.214023 0.281987
1.000000 0.237522 0.297856
1.000000 0.259739 0.312596
1.000000 0.281071 0.325963
1.000000 0.301457 0.338140
1.000000 0.320958 0.349340
1.000000 0.340246 0.359930
1.000000 0.359014 0.369970
1.000000 0.378241 0.379858
1.000000 0.397192 0.389471
1.000000 0.416358 0.399176
1.000000 0.435523 0.408789
1.000000 0.455024 0.418738
0.022736 0.113466 0.059693
0.084047 0.117342 0.063020
0.122316 0.121736 0.068238
0.201144 0.138949 0.069764
0.296666 0.149203 0.067811
0.392126 0.151217 0.066499
0.487037 0.147585 0.065614
0.581537 0.139590 0.065736
0.663874 0.128267 0.071138
0.727687 0.114473 0.085939
0.778897 0.105348 0.104616
0.821195 0.101503 0.126162
0.857267 0.105226 0.149050
0.888182 0.116030 0.171969
0.914427 0.132631 0.193057
0.937102 0.148531 0.212894
0.956573 0.167758 0.231907
0.973571 0.186343 0.249210
0.988586 0.205478 0.266300
1.000000 0.227237 0.283238
1.000000 0.247959 0.298924
1.000000 0.268315 0.312963
1.000000 0.288426 0.326299
1.000000 0.307500 0.338445
1.000000 0.326360 0.349554
1.000000 0.344488 0.359960
1.000000 0.362890 0.370001
1.000000 0.381659 0.380041
1.000000 0.400061 0.389624
1.000000 0.418921 0.399207
1.000000 0.437751 0.408850
1.000000 0.456855 0.418769
0.006165 0.198856 0.067720
0.095491 0.202518 0.069642
0.143862 0.207004 0.071839
0.218051 0.215244 0.076692
0.308385 0.224949 0.070222
0.398596 0.228458 0.073701
0.491005 0.228092 0.072908
0.583795 0.225834 0.073304
0.663630 0.218051 0.078950
0.726558 0.207370 0.094179
0.777188 0.197971 0.113100
0.819303 0.190951 0.134493
0.855222 0.188205 0.157015
0.886076 0.189364 0.178927
0.912566 0.193637 0.198703
0.935271 0.201328 0.218143
0.954894 0.211307 0.236393
0.972015 0.223117 0.253208
0.987274 0.237095 0.269718
1.000000 0.253056 0.286107
1.000000 0.269718 0.300999
1.000000 0.286717 0.314916
1.000000 0.304051 0.327764
1.000000 0.321324 0.339757
1.000000 0.338384 0.350805
1.000000 0.355688 0.361334
1.000000 0.372930 0.371374
1.000000 0.390967 0.381384
1.000000 0.408576 0.390906
1.000000 0.426429 0.400488
1.000000 0.444404 0.410010
1.000000 0.462348 0.419471
0.000000 0.291264 0.065217
0.090303 0.293858 0.066194
0.148928 0.297459 0.068025
0.228641 0.304082 0.073274
0.319158 0.312169 0.079988
0.409979 0.315526 0.075563
0.497414 0.314000 0.082124
0.585504 0.312108 0.086213
0.662684 0.304570 0.092927
0.724117 0.293553 0.108888
0.774228 0.281559 0.126864
0.816098 0.271824 0.147372
0.852079 0.264591 0.168673
0.883146 0.260410 0.188663
0.909758 0.258732 0.207828
0.932738 0.260105 0.226200
0.952728 0.263737 0.243687
0.970031 0.269749 0.259648
0.985870 0.278416 0.275853
1.000000 0.289128 0.291264
1.000000 0.301152 0.305272
1.000000 0.314427 0.318578
1.000000 0.328313 0.330968
1.000000 0.342779 0.342657
1.000000 0.357488 0.353368
1.000000 0.372808 0.363684
1.000000 0.388434 0.373510
1.000000 0.404456 0.383307
1.000000 0.420966 0.392828
1.000000 0.437598 0.402167
1.000000 0.454414 0.411597
1.000000 0.471321 0.420996
0.000000 0.377630 0.065431
0.072053 0.379950 0.066682
0.143282 0.382696 0.067842
0.228305 0.388464 0.072663
0.320348 0.395758 0.080781
0.416297 0.403906 0.089418
0.508782 0.405707 0.091981
0.593439 0.401221 0.091310
0.663844 0.390143 0.111788
0.722683 0.376318 0.128328
0.771878 0.362127 0.145815
0.813321 0.348791 0.164889
0.849088 0.338048 0.183993
0.880247 0.329503 0.202609
0.906981 0.323491 0.220035
0.930144 0.320134 0.237003
0.950286 0.319036 0.253574
0.967895 0.320500 0.268681
0.984131 0.324834 0.284001
0.998474 0.331060 0.298192
1.000000 0.339086 0.311650
1.000000 0.348486 0.324346
1.000000 0.370153 0.343694
1.000000 0.382116 0.354650
1.000000 0.394598 0.364904
1.000000 0.407507 0.374578
1.000000 0.420752 0.383734
1.000000 0.434821 0.393042
1.000000 0.449287 0.402136
1.000000 0.464210 0.411231
1.000000 0.479286 0.420264
1.000000 0.493660 0.429023
0.000000 0.465797 0.068208
0.011017 0.467384 0.069825
0.132235 0.469825 0.072023
0.225345 0.475044 0.078035
0.320409 0.482734 0.085206
0.417182 0.489845 0.093874
0.515862 0.497383 0.105257
0.606256 0.496773 0.115938
0.673854 0.479683 0.114931
0.727810 0.461006 0.147463
0.773800 0.442786 0.169924
0.814237 0.426154 0.186740
0.849363 0.411810 0.204288
0.879942 0.399512 0.220676
0.906279 0.389532 0.236484
0.929046 0.382208 0.251621
0.948974 0.377142 0.266087
0.967407 0.375128 0.280980
0.983581 0.375921 0.295140
0.998077 0.378546 0.308782
1.000000 0.383703 0.321660
1.000000 0.390661 0.334295
1.000000 0.399481 0.346105
1.000000 0.409247 0.357305
1.000000 0.420111 0.367926
1.000000 0.431159 0.377630
1.000000 0.442939 0.386969
1.000000 0.455085 0.396124
1.000000 0.467720 0.404974
1.000000 0.480995 0.413977
1.000000 0.494087 0.422705
1.000000 0.506889 0.431098
0.000000 0.544671 0.079561
0.000000 0.546014 0.081575
0.114565 0.547784 0.083253
0.216281 0.551232 0.088197
0.311955 0.556298 0.095918
0.405890 0.561761 0.107118
0.498421 0.565148 0.120455
0.590295 0.568414 0.135134
0.672663 0.564172 0.151492
0.728450 0.541344 0.152468
0.772671 0.518578 0.181674
0.811032 0.498451 0.204990
0.845243 0.481056 0.223301
0.875761 0.465888 0.237491
0.902220 0.452705 0.252079
0.925200 0.441718 0.265171
0.945983 0.433967 0.278904
0.964477 0.428717 0.292424
0.980560 0.425513 0.304967
0.995056 0.424750 0.317388
1.000000 0.426368 0.329381
1.000000 0.429908 0.340826
1.000000 0.435431 0.351965
1.000000 0.442267 0.362463
1.000000 0.450111 0.372503
1.000000 0.459052 0.382025
1.000000 0.468269 0.390997
1.000000 0.478309 0.399847
1.000000 0.489296 0.408728
1.000000 0.500511 0.417395
1.000000 0.511955 0.425910
1.000000 0.522972 0.434089
0.000000 0.610101 0.105287
0.000000 0.610742 0.106874
0.098787 0.611749 0.109407
0.205081 0.613458 0.114107
0.298985 0.616266 0.121523
0.388434 0.619165 0.131594
0.476783 0.621607 0.143160
0.562737 0.622705 0.155795
0.647211 0.623560 0.170871
0.724453 0.620203 0.187259
0.771633 0.594934 0.193484
0.809842 0.569879 0.211704
0.842893 0.549248 0.236454
0.872221 0.531029 0.254337
0.898192 0.515221 0.268437
0.921935 0.502068 0.280888
0.943114 0.491371 0.293156
0.961395 0.482826 0.304906
0.977386 0.476387 0.316167
0.991974 0.472450 0.327306
1.000000 0.470954 0.338048
1.000000 0.471382 0.348547
1.000000 0.474037 0.358984
1.000000 0.478218 0.368902
1.000000 0.483680 0.378515
1.000000 0.489784 0.387518
1.000000 0.496986 0.396368
1.000000 0.504875 0.404883
1.000000 0.513664 0.413428
1.000000 0.522881 0.421790
1.000000 0.532158 0.429999
1.000000 0.541344 0.437781
0.000000 0.662043 0.133883
0.000000 0.662348 0.135470
0.094301 0.662806 0.137118
0.197452 0.663691 0.141115
0.286198 0.665095 0.147982
0.371801 0.666560 0.156344
0.454932 0.668116 0.167117
0.536156 0.668513 0.178622
0.615320 0.668269 0.191775
0.692256 0.667903 0.205722
0.764675 0.665858 0.221439
0.806821 0.640772 0.230442
0.841184 0.615351 0.238315
0.869596 0.594079 0.263340
0.895964 0.576684 0.281743
0.919219 0.561547 0.296361
0.940093 0.548180 0.307469
0.958373 0.536828 0.317876
0.974426 0.527764 0.328130
0.988983 0.521019 0.337987
1.000000 0.516594 0.347662
1.000000 0.514336 0.357244
1.000000 0.513817 0.366430
1.000000 0.515129 0.375677
1.000000 0.517876 0.384619
1.000000 0.521813 0.393378
1.000000 0.526787 0.401740
1.000000 0.532921 0.410315
1.000000 0.539788 0.418708
1.000000 0.547021 0.426856
1.000000 0.554528 0.434791
1.000000 0.562158 0.442542
0.000000 0.703944 0.161715
0.000000 0.704189 0.162966
0.104707 0.704433 0.164248
0.194095 0.704952 0.168307
0.277562 0.705592 0.173892
0.357122 0.706447 0.181186
0.435676 0.707332 0.190768
0.512535 0.708156 0.201450
0.587304 0.707424 0.212497
0.660182 0.706600 0.224918
0.730373 0.705745 0.238224
0.796963 0.704036 0.252232
0.837919 0.682979 0.263523
0.869230 0.657588 0.265965
0.894652 0.636500 0.287724
0.916930 0.618677 0.305913
0.936858 0.602991 0.319188
0.954498 0.589746 0.330724
0.970611 0.578088 0.339696
0.985351 0.568841 0.348486
0.998749 0.562066 0.357366
1.000000 0.557366 0.366247
1.000000 0.554742 0.374975
1.000000 0.553887 0.383764
1.000000 0.554406 0.392309
1.000000 0.556085 0.400610
1.000000 0.559075 0.408789
1.000000 0.562860 0.416846
1.000000 0.567346 0.424659
1.000000 0.572412 0.432441
1.000000 0.577905 0.440040
1.000000 0.583764 0.447486
0.000000 0.740322 0.188144
0.050141 0.740414 0.189273
0.124697 0.740505 0.190738
0.198459 0.740719 0.193973
0.274144 0.741115 0.198367
0.347814 0.741512 0.204837
0.420752 0.741970 0.213077
0.493050 0.742367 0.222385
0.564080 0.742397 0.233066
0.632959 0.741360 0.243412
0.700252 0.740810 0.255314
0.765499 0.740780 0.268406
0.834409 0.747341 0.287816
0.873045 0.728939 0.300328
0.899596 0.703243 0.301915
0.921660 0.680781 0.315404
0.940337 0.662745 0.332525
0.956909 0.647181 0.345586
0.971832 0.633875 0.356298
0.985718 0.622919 0.365301
0.998657 0.613764 0.373297
1.000000 0.606928 0.381262
1.000000 0.601740 0.389075
1.000000 0.598596 0.397192
1.000000 0.596857 0.405066
1.000000 0.596399 0.412879
1.000000 0.596704 0.420172
1.000000 0.597894 0.427466
1.000000 0.599817 0.434485
1.000000 0.602533 0.441535
1.000000 0.605859 0.448493
1.000000 0.609644 0.455421
0.071382 0.774777 0.214115
0.114534 0.774807 0.214969
0.154452 0.774685 0.215976
0.212650 0.774563 0.218692
0.278050 0.774411 0.222538
0.344488 0.774197 0.227604
0.411902 0.774075 0.234623
0.478859 0.773983 0.242771
0.546502 0.774655 0.252598
0.612787 0.775082 0.263096
0.677333 0.775113 0.274327
0.740108 0.775143 0.286290
0.800076 0.775357 0.299016
0.856901 0.775509 0.311833
0.894163 0.760555 0.324529
0.917693 0.735866 0.326238
0.937743 0.712947 0.332555
0.953857 0.695094 0.349523
0.968505 0.680018 0.362646
0.982055 0.667536 0.373510
0.994629 0.657435 0.383093
1.000000 0.648798 0.391058
1.000000 0.641962 0.398688
1.000000 0.636744 0.406226
1.000000 0.632776 0.413519
1.000000 0.630060 0.420569
1.000000 0.628412 0.427527
1.000000 0.627619 0.434302
1.000000 0.627649 0.440925
1.000000 0.628687 0.447761
1.000000 0.630274 0.454383
1.000000 0.632563 0.461189
0.132662 0.801755 0.235782
0.157107 0.801724 0.236637
0.183291 0.801602 0.237522
0.229374 0.801572 0.239933
0.285527 0.801572 0.243351
0.345464 0.801602 0.248417
0.407385 0.801694 0.254368
0.469734 0.801846 0.261692
0.532433 0.802029 0.270176
0.594873 0.802457 0.279850
0.655512 0.802060 0.289555
0.714565 0.801694 0.299901
0.771420 0.801297 0.310887
0.825620 0.800931 0.322179
0.876677 0.800504 0.334173
0.912200 0.788205 0.345434
0.933074 0.764675 0.348455
0.951141 0.741817 0.349645
0.965576 0.724361 0.365515
0.978912 0.710323 0.379004
0.991302 0.698787 0.390539
1.000000 0.689326 0.400275
1.000000 0.681483 0.409033
1.000000 0.674342 0.415869
1.000000 0.668452 0.422522
1.000000 0.663905 0.429206
1.000000 0.660334 0.435584
1.000000 0.657771 0.441901
1.000000 0.656214 0.448341
1.000000 0.655512 0.454780
1.000000 0.655756 0.461402
1.000000 0.656489 0.467872
0.182650 0.827756 0.257481
0.198398 0.827756 0.258366
0.217227 0.827665 0.258976
0.253696 0.827451 0.260807
0.300481 0.827115 0.263981
0.352789 0.826749 0.267674
0.407752 0.826383 0.273014
0.464698 0.826108 0.278935
0.522423 0.825925 0.286259
0.580499 0.825895 0.294774
0.637812 0.825895 0.303868
0.693385 0.825193 0.312932
0.747189 0.824491 0.322728
0.798825 0.823758 0.332860
0.847868 0.822965 0.343694
0.893675 0.822110 0.354803
0.927611 0.812528 0.365850
0.946258 0.790585 0.369787
0.962585 0.768856 0.370214
0.976379 0.751522 0.381384
0.988495 0.738399 0.395483
0.999847 0.727413 0.406714
1.000000 0.718013 0.416114
1.000000 0.710170 0.424598
1.000000 0.703243 0.431830
1.000000 0.697108 0.438087
1.000000 0.692073 0.444282
1.000000 0.688319 0.450690
1.000000 0.685420 0.456977
1.000000 0.683558 0.463386
1.000000 0.682460 0.469886
1.000000 0.682094 0.476448
0.225101 0.850156 0.277012
0.236973 0.850156 0.277836
0.251133 0.850095 0.278325
0.279973 0.849882 0.280003
0.319158 0.849546 0.282536
0.364538 0.849119 0.286107
0.413489 0.848753 0.290318
0.464881 0.848386 0.296025
0.518059 0.847959 0.302373
0.571405 0.847623 0.309606
0.624994 0.847288 0.317784
0.677211 0.846555 0.326207
0.727413 0.845304 0.334661
0.776211 0.844053 0.343694
0.822629 0.842771 0.353338
0.866728 0.841611 0.363531
0.908019 0.840635 0.374670
0.940795 0.833860 0.385199
0.958007 0.813931 0.390814
0.973144 0.794064 0.391363
0.986511 0.776883 0.397192
0.997650 0.764431 0.411414
1.000000 0.753780 0.422522
1.000000 0.744625 0.431922
1.000000 0.736751 0.440192
1.000000 0.730037 0.447913
1.000000 0.723873 0.454200
1.000000 0.718746 0.460273
1.000000 0.714565 0.466438
1.000000 0.711177 0.472480
1.000000 0.708675 0.478645
1.000000 0.706844 0.484749
0.264195 0.869230 0.294347
0.272587 0.869169 0.294774
0.283970 0.869017 0.295598
0.307164 0.868742 0.296788
0.339818 0.868376 0.299046
0.378546 0.867918 0.302220
0.421851 0.867399 0.306096
0.468025 0.866880 0.310674
0.516106 0.866300 0.316228
0.565240 0.865751 0.322667
0.614923 0.865202 0.330114
0.664149 0.864683 0.338262
0.711635 0.863584 0.346349
0.757504 0.862181 0.354681
0.801663 0.860777 0.363745
0.843656 0.859373 0.373327
0.883452 0.858152 0.383429
0.920958 0.857237 0.393500
0.952911 0.853300 0.403418
0.968902 0.835294 0.410254
0.982849 0.816892 0.410681
0.995666 0.799771 0.412085
1.000000 0.787564 0.425727
1.000000 0.777249 0.437140
1.000000 0.768185 0.446479
1.000000 0.760403 0.454963
1.000000 0.753658 0.462593
1.000000 0.747951 0.469673
1.000000 0.742580 0.475715
1.000000 0.738186 0.481697
1.000000 0.734432 0.487587
1.000000 0.731472 0.493568
0.301427 0.886290 0.310704
0.308629 0.886290 0.311315
0.327977 0.890440 0.316533
0.346319 0.890166 0.317815
0.372808 0.889708 0.319738
0.405097 0.889036 0.322210
0.442237 0.888273 0.325780
0.482460 0.887480 0.329503
0.525383 0.886656 0.334447
0.569879 0.885771 0.340337
0.614893 0.884916 0.346838
0.660121 0.884031 0.354314
0.704738 0.883055 0.362371
0.747341 0.881437 0.370184
0.788449 0.879820 0.378393
0.827817 0.878294 0.386847
0.865446 0.876890 0.395819
0.901061 0.875700 0.404761
0.934813 0.874815 0.414160
0.965881 0.873350 0.423621
0.980377 0.856718 0.431250
0.992981 0.839353 0.431556
1.000000 0.823117 0.432563
1.000000 0.810178 0.441962
1.000000 0.799771 0.453071
1.000000 0.790646 0.462318
1.000000 0.782620 0.470314
1.000000 0.775662 0.477699
1.000000 0.769680 0.484657
1.000000 0.764492 0.491157
1.000000 0.759670 0.496864
1.000000 0.755581 0.502525
0.340612 0.902678 0.327428
0.347234 0.903136 0.328344
0.356207 0.903563 0.329442
0.372625 0.903746 0.331243
0.395789 0.903655 0.333349
0.424262 0.903227 0.336065
0.456703 0.902586 0.339025
0.492592 0.901793 0.342870
0.531182 0.900938 0.347295
0.571283 0.900084 0.352605
0.612665 0.899168 0.358740
0.654414 0.898222 0.365515
0.696101 0.897185 0.373419
0.736324 0.895995 0.381079
0.774777 0.894438 0.388525
0.811917 0.892882 0.396185
0.847623 0.891447 0.404028
0.881773 0.890227 0.412482
0.914458 0.889281 0.421271
0.945464 0.888670 0.430396
0.974792 0.888273 0.440040
0.989380 0.874113 0.448310
1.000000 0.858030 0.449287
1.000000 0.842741 0.450385
1.000000 0.829374 0.455879
1.000000 0.819211 0.467079
1.000000 0.810239 0.476570
1.000000 0.802396 0.484871
1.000000 0.795560 0.492439
1.000000 0.789517 0.499519
1.000000 0.784298 0.506188
1.000000 0.779477 0.512200
0.374426 0.916320 0.341527
0.380407 0.916655 0.342657
0.387762 0.917021 0.343664
0.401587 0.917144 0.345190
0.421454 0.917021 0.347326
0.445838 0.916594 0.349615
0.474403 0.915953 0.352575
0.505974 0.915190 0.356023
0.540398 0.914366 0.360204
0.576745 0.913451 0.365209
0.614618 0.912535 0.371099
0.652979 0.911589 0.377539
0.691096 0.910582 0.384497
0.728756 0.909545 0.391974
0.764828 0.908232 0.398962
0.799588 0.906737 0.406012
0.833249 0.905364 0.413123
0.865782 0.904112 0.420844
0.897063 0.903075 0.429023
0.927031 0.902342 0.437690
0.955627 0.901946 0.446906
0.982879 0.901976 0.456611
0.997833 0.890318 0.465064
1.000000 0.875395 0.467414
1.000000 0.860777 0.468269
1.000000 0.847166 0.470100
1.000000 0.837095 0.481422
1.000000 0.828305 0.491005
1.000000 0.820554 0.499397
1.000000 0.813718 0.507134
1.000000 0.807614 0.514214
1.000000 0.802182 0.520806
0.408209 0.928985 0.355779
0.413306 0.929259 0.356786
0.419593 0.929564 0.357671
0.431525 0.929656 0.359197
0.448493 0.929473 0.361151
0.469642 0.929046 0.363439
0.494240 0.928435 0.366247
0.522087 0.927642 0.369543
0.552819 0.926787 0.373541
0.585412 0.925872 0.378180
0.619287 0.924956 0.383307
0.653986 0.924010 0.389288
0.688716 0.923033 0.395422
0.723445 0.922026 0.402228
0.757626 0.921111 0.409400
0.790249 0.919768 0.415961
0.822141 0.918578 0.423011
0.853178 0.917510 0.430457
0.883116 0.916716 0.438422
0.912078 0.916106 0.447120
0.939757 0.915770 0.456184
0.966155 0.915648 0.465766
0.991424 0.916014 0.475807
1.000000 0.906676 0.484474
1.000000 0.892729 0.488106
1.000000 0.878904 0.489113
1.000000 0.865812 0.490425
1.000000 0.855436 0.499184
1.000000 0.846799 0.508965
1.000000 0.839109 0.517510
1.000000 0.832242 0.525261
1.000000 0.826017 0.532189
0.447242 0.942016 0.372717
0.451057 0.942107 0.373266
0.455634 0.942138 0.373877
0.465126 0.941985 0.375097
0.479072 0.941680 0.376776
0.496956 0.941161 0.378790
0.518090 0.940551 0.381292
0.542382 0.939818 0.384375
0.569146 0.939086 0.387945
0.597955 0.938293 0.392187
0.628351 0.937469 0.397162
0.659571 0.936614 0.402411
0.691096 0.935668 0.408179
0.722652 0.934691 0.414405
0.754055 0.933745 0.420966
0.784939 0.932708 0.427771
0.814542 0.931518 0.434241
0.843595 0.930419 0.441230
0.871885 0.929473 0.448737
0.899321 0.928710 0.456580
0.925689 0.928130 0.465064
0.950988 0.927764 0.473915
0.975158 0.927581 0.483162
0.998291 0.927794 0.492927
1.000000 0.920439 0.501701
1.000000 0.907195 0.506218
1.000000 0.893889 0.507042
1.000000 0.881376 0.508385
1.000000 0.870634 0.514153
1.000000 0.862058 0.524071
1.000000 0.854368 0.532616
1.000000 0.847379 0.540124
0.479500 0.952667 0.387152
0.482673 0.952728 0.387701
0.486732 0.952789 0.388373
0.494728 0.952636 0.389410
0.506432 0.952331 0.390784
0.521508 0.951873 0.392615
0.539605 0.951293 0.394751
0.560357 0.950622 0.397467
0.583978 0.949859 0.400763
0.609369 0.949096 0.404547
0.636408 0.948272 0.409033
0.664485 0.947417 0.413916
0.693080 0.946532 0.419165
0.722164 0.945617 0.424964
0.751186 0.944701 0.431098
0.779995 0.943847 0.437781
0.808072 0.942840 0.444373
0.835386 0.941802 0.451057
0.862211 0.940856 0.458320
0.888243 0.940093 0.466041
0.913481 0.939483 0.474067
0.937804 0.939025 0.482734
0.961151 0.938781 0.491768
0.983368 0.938689 0.501030
1.000000 0.938109 0.509026
1.000000 0.932708 0.518090
1.000000 0.920073 0.523583
1.000000 0.907347 0.524498
1.000000 0.895293 0.525750
1.000000 0.884184 0.528588
1.000000 0.875669 0.538445
1.000000 0.867979 0.546990
0.513085 0.963500 0.403113
0.515831 0.963592 0.403632
0.519188 0.963592 0.404242
0.525750 0.963409 0.405097
0.535332 0.963073 0.406134
0.547814 0.962585 0.407599
0.563104 0.961975 0.409491
0.580896 0.961273 0.411841
0.601038 0.960479 0.414618
0.623102 0.959625 0.417945
0.646723 0.958740 0.421668
0.671595 0.957824 0.426062
0.697383 0.956878 0.430793
0.723598 0.955932 0.436042
0.749996 0.954894 0.441566
0.776455 0.953887 0.447608
0.802884 0.952941 0.454078
0.828397 0.951843 0.460304
0.853574 0.950927 0.466987
0.878325 0.950103 0.474281
0.902403 0.949462 0.482216
0.925750 0.948974 0.490425
0.948180 0.948547 0.499092
0.969696 0.948211 0.507866
0.990112 0.947997 0.516991
1.000000 0.947967 0.526421
1.000000 0.944335 0.536034
1.000000 0.932189 0.542229
1.000000 0.919890 0.542870
1.000000 0.908202 0.544030
1.000000 0.897185 0.545495
1.000000 0.888273 0.553643
0.539208 0.972473 0.416205
0.541619 0.972534 0.416785
0.544549 0.972534 0.417243
0.550164 0.972351 0.418097
0.558404 0.972045 0.419104
0.569299 0.971618 0.420478
0.582696 0.971069 0.422278
0.598352 0.970428 0.424445
0.616205 0.969726 0.427131
0.635950 0.968963 0.430396
0.657099 0.968200 0.433906
0.679683 0.967346 0.438178
0.703059 0.966522 0.442664
0.727108 0.965576 0.447700
0.751369 0.964630 0.453071
0.775845 0.963684 0.458808
0.800351 0.962768 0.465034
0.824552 0.961883 0.471626
0.848112 0.960937 0.478035
0.871336 0.960113 0.485084
0.894102 0.959380 0.492561
0.916258 0.958801 0.500450
0.937682 0.958282 0.508629
0.958221 0.957824 0.517174
0.977996 0.957488 0.526055
0.996796 0.957214 0.535302
1.000000 0.957092 0.544854
1.000000 0.955169 0.555291
1.000000 0.943420 0.561883
1.000000 0.931609 0.562982
1.000000 0.920317 0.563989
1.000000 0.909545 0.565209
0.564813 0.980987 0.429908
0.566918 0.981018 0.430396
0.569238 0.980926 0.430854
0.573877 0.980774 0.431464
0.580896 0.980438 0.432319
0.590204 0.980011 0.433570
0.601678 0.979522 0.435065
0.615381 0.978882 0.437079
0.631159 0.978241 0.439551
0.648646 0.977508 0.442573
0.667689 0.976776 0.446021
0.688014 0.975982 0.450019
0.709255 0.975189 0.454292
0.731289 0.974304 0.459174
0.753475 0.973419 0.464210
0.776028 0.972503 0.469673
0.798672 0.971557 0.475502
0.821347 0.970672 0.481941
0.843595 0.969818 0.488380
0.865415 0.968963 0.495003
0.886839 0.968200 0.502190
0.907866 0.967498 0.509758
0.928283 0.966888 0.517784
0.947967 0.966369 0.525994
0.966918 0.965881 0.534600
0.985046 0.965484 0.543572
1.000000 0.965179 0.552911
1.000000 0.964996 0.562585
1.000000 0.964538 0.573877
1.000000 0.953033 0.580102
1.000000 0.941680 0.581842
1.000000 0.930694 0.582422
0.587549 0.988556 0.442908
0.589227 0.988525 0.443305
0.591302 0.988464 0.443671
0.595361 0.988312 0.444251
0.601648 0.988067 0.445167
0.610163 0.987701 0.446540
0.620783 0.987366 0.448402
0.633539 0.986908 0.450843
0.648219 0.986419 0.453742
0.664393 0.985901 0.457099
0.682033 0.985321 0.460975
0.700710 0.984710 0.465156
0.720150 0.984039 0.469734
0.740200 0.983276 0.474617
0.760555 0.982452 0.479744
0.781094 0.981598 0.484993
0.801816 0.980713 0.490669
0.822599 0.979828 0.496803
0.843381 0.979004 0.503441
0.863645 0.978149 0.510033
0.883543 0.977325 0.516899
0.903166 0.976562 0.524254
0.922240 0.975830 0.531853
0.940734 0.975189 0.539940
0.958618 0.974578 0.548302
0.975799 0.974060 0.556970
0.992248 0.973602 0.566033
1.000000 0.973266 0.575555
1.000000 0.972992 0.585534
1.000000 0.973724 0.597681
1.000000 0.962463 0.603357
1.000000 0.951537 0.605402
0.614130 0.996094 0.459266
0.615503 0.996063 0.459602
0.617151 0.996002 0.459907
0.620447 0.995819 0.460365
0.625788 0.995544 0.461128
0.632929 0.995209 0.462287
0.641932 0.994812 0.463844
0.652644 0.994354 0.465766
0.665126 0.993805 0.468177
0.679194 0.993194 0.471138
0.694453 0.992584 0.474403
0.710842 0.991882 0.478096
0.728145 0.991150 0.482124
0.746120 0.990356 0.486519
0.764584 0.989502 0.491218
0.783444 0.988647 0.496345
