其他预设/【232】美食博客调色预设124款/1.3D LUT预设（视频调色-PR-AE-PS-FCPX-达芬奇用）/Yummy #15.cube
# Created by Adobe Lightroom plugin Export LUT (1.17.0)
# www.johnrellis.com/lightroom/exportlut.htm
# Preset: Yummy #15
# Color profile: /Library/Application Support/Adobe/Color/Profiles/Recommended/AdobeRGB1998.icc
LUT_3D_SIZE 5
DOMAIN_MIN 0.000000 0.000000 0.000000
DOMAIN_MAX 0.903226 0.903226 0.903226
0.138796 0.138796 0.138796
0.243961 0.146059 0.143557
0.607050 0.168734 0.142061
0.820188 0.235142 0.200229
0.868437 0.354345 0.334417
0.139590 0.228336 0.136873
0.258061 0.217655 0.143404
0.587182 0.305791 0.133608
0.808652 0.327031 0.194369
0.865812 0.406806 0.351995
0.119997 0.547082 0.055604
0.295506 0.548852 0.050568
0.662898 0.515465 0.110079
0.797574 0.485176 0.203738
0.854551 0.504723 0.344518
0.117189 0.760067 0.000000
0.278355 0.757412 0.000000
0.527581 0.743648 0.020844
0.797818 0.629755 0.222385
0.848692 0.560998 0.375341
0.189700 0.832151 0.134554
0.276646 0.828885 0.144686
0.445197 0.815579 0.157473
0.680842 0.795834 0.260014
0.837827 0.701228 0.453193
0.136995 0.139345 0.209873
0.221439 0.143618 0.229343
0.571313 0.000000 0.269078
0.788327 0.230137 0.293065
0.855802 0.382696 0.398566
0.141146 0.220554 0.214206
0.238987 0.226169 0.221317
0.573358 0.268406 0.239109
0.782589 0.319371 0.289220
0.853239 0.418921 0.401373
0.000000 0.533989 0.225895
0.241337 0.538293 0.188968
0.611048 0.483314 0.226413
0.770809 0.500664 0.287694
0.844541 0.523033 0.415015
0.000000 0.756558 0.181735
0.256565 0.753353 0.197421
0.508476 0.739162 0.216068
0.786923 0.633997 0.318456
0.838865 0.589380 0.441260
0.206699 0.829923 0.246494
0.287205 0.826627 0.251408
0.461158 0.816526 0.280949
0.678981 0.796262 0.352209
0.831083 0.712856 0.514305
0.092927 0.124575 0.512078
0.266941 0.103365 0.516930
0.529442 0.000000 0.560021
0.765530 0.194644 0.588495
0.832822 0.461189 0.568811
0.000000 0.244175 0.514183
0.217716 0.217441 0.516197
0.542657 0.224613 0.560906
0.757565 0.338964 0.560174
0.826993 0.518975 0.577386
0.000000 0.530816 0.504448
0.189975 0.536278 0.506310
0.564141 0.530297 0.517388
0.740932 0.554864 0.536431
0.818967 0.591760 0.581079
0.000000 0.741329 0.457252
0.247990 0.734463 0.456001
0.527001 0.722225 0.492164
0.753353 0.662440 0.537652
0.812833 0.658595 0.576745
0.237766 0.821592 0.426581
0.345800 0.817258 0.451637
0.508934 0.806668 0.488441
0.661036 0.791806 0.506615
0.815122 0.728817 0.601556
0.000000 0.110964 0.725185
0.233402 0.091402 0.724941
0.487587 0.006867 0.726253
0.691524 0.204257 0.729732
0.810697 0.430854 0.744594
0.000000 0.210056 0.721553
0.186740 0.208194 0.721004
0.481361 0.223667 0.718898
0.692134 0.317144 0.722621
0.807034 0.475654 0.732845
0.000000 0.470283 0.705562
0.186191 0.469673 0.704005
0.508232 0.502831 0.698604
0.697963 0.530755 0.706020
0.798611 0.598962 0.707576
0.000000 0.720424 0.689265
0.263920 0.716579 0.686366
0.534813 0.707393 0.683742
0.710170 0.692805 0.686397
0.790188 0.699733 0.692714
0.291783 0.811887 0.609857
0.375952 0.807614 0.617456
0.549706 0.795621 0.644800
0.680690 0.783658 0.667811
0.795041 0.752163 0.700130
0.000000 0.120394 0.803189
0.186282 0.114626 0.802274
0.401007 0.119417 0.799710
0.610651 0.211704 0.793881
0.752102 0.393011 0.788998
0.000000 0.192599 0.800626
0.147890 0.193606 0.799680
0.396460 0.214542 0.796841
0.612665 0.288151 0.790188
0.753353 0.439216 0.786343
0.000000 0.391516 0.793057
0.160006 0.399176 0.791867
0.419074 0.426032 0.787686
0.625208 0.475105 0.780819
0.760311 0.566613 0.780880
0.000000 0.601892 0.780392
0.200717 0.603265 0.779019
0.461646 0.620722 0.775509
0.659449 0.657954 0.771481
0.769619 0.693172 0.775448
0.254276 0.793179 0.766934
0.335851 0.791135 0.766232
0.521874 0.785000 0.765591
0.682033 0.776516 0.765133
0.775540 0.771176 0.769589
