其他预设/【232】美食博客调色预设124款/1.3D LUT预设（视频调色-PR-AE-PS-FCPX-达芬奇用）/Yummy #13.cube
# Created by Adobe Lightroom plugin Export LUT (1.17.0)
# www.johnrellis.com/lightroom/exportlut.htm
# Preset: Yummy #13
# Color profile: /Library/Application Support/Adobe/Color/Profiles/Recommended/AdobeRGB1998.icc
LUT_3D_SIZE 8
DOMAIN_MIN 0.000000 0.000000 0.000000
DOMAIN_MAX 0.903226 0.903226 0.903226
0.000000 0.000000 0.000000
0.183291 0.018585 0.005493
0.421027 0.014008 0.000000
0.659022 0.000000 0.000000
0.828275 0.000000 0.000000
0.951629 0.000000 0.000000
1.000000 0.012207 0.000000
1.000000 0.073823 0.000885
0.000000 0.185061 0.001465
0.173800 0.186831 0.000000
0.394659 0.204135 0.000000
0.628870 0.206210 0.000000
0.807736 0.190219 0.000000
0.933593 0.175204 0.000000
1.000000 0.165042 0.000000
1.000000 0.160494 0.000000
0.000000 0.404822 0.000000
0.174807 0.402777 0.000000
0.377142 0.393164 0.000000
0.603845 0.405005 0.000000
0.798062 0.392920 0.000000
0.926055 0.363928 0.000000
1.000000 0.336828 0.000000
1.000000 0.310033 0.000000
0.000000 0.608423 0.000000
0.153719 0.604181 0.000000
0.383276 0.604974 0.000000
0.606134 0.612543 0.000000
0.798825 0.595331 0.000000
0.918334 0.545281 0.000000
1.000000 0.497139 0.000000
1.000000 0.453285 0.000000
0.000000 0.770962 0.000000
0.124056 0.768399 0.000000
0.357458 0.763821 0.000000
0.559167 0.758938 0.000000
0.740230 0.740291 0.000000
0.879454 0.699092 0.000000
0.974243 0.644739 0.000000
1.000000 0.592157 0.000000
0.000000 0.873320 0.000000
0.115236 0.878202 0.000000
0.327092 0.872862 0.000000
0.508476 0.864591 0.000000
0.676844 0.849302 0.000000
0.834623 0.831968 0.000000
0.954253 0.791623 0.000000
1.000000 0.730587 0.000000
0.000000 0.951751 0.000000
0.124788 0.951629 0.000000
0.300572 0.946136 0.000000
0.461830 0.938628 0.000000
0.615900 0.927337 0.000000
0.762722 0.913542 0.000000
0.901976 0.898650 0.000000
1.000000 0.860349 0.000000
0.050416 1.000000 0.098878
0.149599 1.000000 0.097688
0.288701 1.000000 0.097810
0.431983 0.999542 0.106783
0.563775 0.986633 0.064698
0.702052 0.978180 0.080751
0.835355 0.968078 0.096651
0.961975 0.955230 0.100740
0.000000 0.009033 0.178531
0.166079 0.000000 0.181003
0.385077 0.000000 0.172091
0.617487 0.000000 0.150484
0.800198 0.000000 0.132540
0.925078 0.000000 0.127993
1.000000 0.000000 0.130159
1.000000 0.021668 0.135317
0.000000 0.170840 0.172915
0.161685 0.177859 0.174838
0.374304 0.174716 0.160037
0.604608 0.169680 0.144228
0.789395 0.157198 0.126009
0.915038 0.151003 0.120729
0.998596 0.146975 0.120027
1.000000 0.145510 0.124483
0.000000 0.382757 0.173953
0.153048 0.382635 0.166720
0.362066 0.379309 0.162173
0.583093 0.385626 0.130983
0.774685 0.373510 0.109163
0.904387 0.348150 0.108248
0.994842 0.323033 0.116396
1.000000 0.300511 0.127718
0.000000 0.584466 0.141787
0.122805 0.583001 0.139437
0.365576 0.586358 0.136568
0.570855 0.579187 0.127016
0.756466 0.562341 0.096712
0.886564 0.522545 0.081880
0.980133 0.482307 0.097200
1.000000 0.444465 0.113405
0.000000 0.759365 0.115694
0.092744 0.755581 0.113436
0.344060 0.748653 0.109682
0.541222 0.738552 0.102937
0.717464 0.718379 0.086610
0.861387 0.683772 0.077943
0.962799 0.635370 0.079164
1.000000 0.586053 0.098329
0.000000 0.861845 0.109010
0.087831 0.860838 0.109133
0.315343 0.856504 0.107332
0.498268 0.851011 0.108003
0.668269 0.839475 0.102876
0.828550 0.825742 0.096010
0.948180 0.786313 0.107088
1.000000 0.726040 0.109255
0.000000 0.941527 0.123537
0.103700 0.939178 0.120150
0.291905 0.935058 0.117952
0.456031 0.930144 0.120546
0.611627 0.921233 0.120821
0.757534 0.907408 0.110262
0.894896 0.891417 0.095460
0.998413 0.853361 0.101137
0.038056 1.000000 0.154177
0.149538 1.000000 0.155428
0.288762 1.000000 0.156497
0.431861 0.996307 0.162966
0.570733 0.988983 0.164614
0.704891 0.978668 0.162539
0.834623 0.966491 0.157626
0.959503 0.952544 0.150515
0.000000 0.000000 0.363226
0.176394 0.000000 0.366735
0.377203 0.000000 0.363317
0.608820 0.000000 0.363195
0.794553 0.000000 0.330144
0.920409 0.000000 0.309941
1.000000 0.000000 0.301701
1.000000 0.113069 0.291539
0.000000 0.172519 0.346563
0.154238 0.171756 0.350622
0.367041 0.171756 0.353491
0.594110 0.107393 0.347112
0.784939 0.000000 0.314397
0.910765 0.094179 0.303593
0.997772 0.148287 0.294591
1.000000 0.172702 0.286015
0.000000 0.361364 0.337682
0.137606 0.364477 0.338415
0.357610 0.373693 0.340673
0.580468 0.356664 0.318212
0.775845 0.346715 0.307256
0.901610 0.333959 0.297459
0.990204 0.320775 0.289128
1.000000 0.307164 0.280919
0.000000 0.572168 0.336675
0.076722 0.575952 0.333074
0.347997 0.579950 0.323644
0.569268 0.576104 0.319005
0.757443 0.555077 0.299321
0.886015 0.517266 0.287358
0.978882 0.482582 0.281529
1.000000 0.448981 0.274846
0.000000 0.745724 0.312383
0.000000 0.744778 0.307958
0.333349 0.740810 0.304204
0.539544 0.736263 0.303349
0.719631 0.718898 0.294377
0.859373 0.680964 0.281193
0.959228 0.632807 0.267796
1.000000 0.586725 0.263035
0.000000 0.854215 0.285069
0.085176 0.853056 0.285588
0.320043 0.847684 0.289006
0.496864 0.840909 0.287175
0.663539 0.830076 0.282933
0.820859 0.816831 0.277256
0.940490 0.780209 0.273350
1.000000 0.725917 0.265019
0.000000 0.938476 0.277897
0.161593 0.936248 0.281712
0.312932 0.930877 0.280735
0.464454 0.924285 0.278447
0.614252 0.915312 0.275853
0.758267 0.903685 0.271153
0.896025 0.891203 0.267308
0.999145 0.855619 0.267582
0.163058 0.999420 0.284825
0.205142 0.998138 0.282902
0.314427 0.995056 0.281254
0.450690 0.992493 0.288884
0.581567 0.985290 0.288121
0.712001 0.976318 0.288182
0.838499 0.965270 0.285405
0.961212 0.952941 0.282780
0.063233 0.000000 0.509667
0.194583 0.000000 0.513878
0.392798 0.000000 0.521019
0.589258 0.000000 0.511437
0.776394 0.000000 0.495064
0.900999 0.000000 0.459754
0.986969 0.092836 0.433814
1.000000 0.214328 0.424201
0.000000 0.160952 0.500877
0.169863 0.160494 0.503868
0.381506 0.156374 0.512383
0.585260 0.130190 0.507042
0.771908 0.098726 0.490059
0.894896 0.114168 0.455238
0.982238 0.183047 0.431586
1.000000 0.252262 0.423255
0.000000 0.347082 0.471626
0.112490 0.343450 0.471077
0.342412 0.347417 0.483833
0.572320 0.353887 0.492988
0.760922 0.340673 0.475990
0.890135 0.343389 0.453407
0.981903 0.368048 0.445045
1.000000 0.360449 0.425879
0.000000 0.543389 0.472023
0.088075 0.544793 0.472084
0.334142 0.552483 0.474800
0.563684 0.562799 0.479896
0.740810 0.536461 0.456458
0.869810 0.514305 0.441260
0.966247 0.494331 0.428779
1.000000 0.473091 0.415717
0.000000 0.729915 0.460731
0.039063 0.727047 0.457618
0.329839 0.723140 0.453223
0.547326 0.722286 0.462776
0.718776 0.712123 0.457343
0.853452 0.679072 0.437690
0.952667 0.638270 0.419959
1.000000 0.598871 0.406012
0.000000 0.847135 0.426307
0.137514 0.850309 0.429419
0.344152 0.842618 0.432441
0.528374 0.834592 0.445686
0.679896 0.827207 0.444007
0.822171 0.813443 0.434943
0.934234 0.779049 0.421942
1.000000 0.729824 0.402991
0.072297 0.931090 0.398840
0.183932 0.930205 0.401740
0.354803 0.925719 0.415198
0.508629 0.919463 0.429541
0.640223 0.911955 0.427497
0.770565 0.901396 0.422034
0.897093 0.888548 0.413764
0.994110 0.854643 0.405554
0.197421 0.997070 0.388861
0.252415 0.996002 0.394171
0.382147 0.991089 0.413367
0.498482 0.985962 0.422004
0.611475 0.979431 0.420447
0.730129 0.971618 0.420722
0.847501 0.962158 0.418708
0.963165 0.952026 0.418433
0.116243 0.000000 0.641230
0.208560 0.000000 0.643122
0.380041 0.000000 0.645899
0.576501 0.000000 0.655543
0.758755 0.000000 0.642237
0.883940 0.000000 0.598108
0.973510 0.156985 0.558099
1.000000 0.238743 0.530236
0.061952 0.148135 0.631586
0.188357 0.147280 0.635248
0.370794 0.141054 0.639887
0.570611 0.135134 0.649683
0.754055 0.110170 0.637476
0.880522 0.179843 0.596033
0.971099 0.228611 0.558251
1.000000 0.283055 0.531945
0.000000 0.325902 0.602838
0.117189 0.324315 0.606165
0.338689 0.327733 0.614862
0.552819 0.343847 0.630518
0.737758 0.341924 0.621118
0.864256 0.358404 0.586267
0.960143 0.369299 0.557031
1.000000 0.388098 0.535302
0.000000 0.504112 0.586908
0.075990 0.502190 0.585657
0.309728 0.499947 0.584741
0.532494 0.523949 0.600580
0.722011 0.538720 0.605585
0.850340 0.528771 0.581933
0.948455 0.520928 0.561517
1.000000 0.520928 0.547997
0.000000 0.684657 0.582513
0.067506 0.685542 0.582757
0.318700 0.687007 0.582666
0.528191 0.689784 0.585199
0.704402 0.691432 0.589441
0.833768 0.664637 0.565850
0.935576 0.640009 0.548699
1.000000 0.615015 0.531579
0.000000 0.818265 0.549218
0.118379 0.817014 0.548394
0.322057 0.810910 0.545830
0.509941 0.804196 0.550988
0.670985 0.800259 0.560906
0.810666 0.796811 0.561578
0.921874 0.772427 0.547478
1.000000 0.734188 0.527337
0.095918 0.916960 0.515221
0.184817 0.915099 0.515404
0.343389 0.909972 0.519432
0.513054 0.902953 0.534874
0.655238 0.897063 0.548974
0.776761 0.890501 0.548211
0.892332 0.879362 0.538811
0.983825 0.848722 0.523278
0.185519 0.987121 0.486183
0.237064 0.985779 0.488106
0.363012 0.981353 0.497383
0.523766 0.976684 0.526818
0.642481 0.969909 0.540429
0.747982 0.963317 0.540398
0.855100 0.955596 0.539574
0.961364 0.947021 0.537896
0.133761 0.000000 0.759640
0.209476 0.000000 0.759731
0.359808 0.000000 0.758145
0.532677 0.000000 0.764218
0.711055 0.000000 0.766629
0.865873 0.000000 0.744839
0.958801 0.188937 0.687861
1.000000 0.272984 0.644831
0.106844 0.139376 0.746273
0.193484 0.137972 0.746395
0.350469 0.133883 0.747646
0.525566 0.137118 0.754482
0.705104 0.156405 0.758602
0.859922 0.161257 0.738460
0.954925 0.246311 0.685542
1.000000 0.308263 0.644770
0.000000 0.307164 0.730343
0.148043 0.308110 0.730770
0.333837 0.312902 0.734035
0.517571 0.326207 0.741329
0.701259 0.351415 0.749386
0.851438 0.353185 0.729641
0.947112 0.392004 0.685359
1.000000 0.415930 0.649744
0.000000 0.466865 0.700191
0.072328 0.463874 0.697505
0.308476 0.470924 0.703548
0.514794 0.500206 0.719631
0.701625 0.535576 0.735988
0.843229 0.539117 0.723140
0.937499 0.550866 0.691493
1.000000 0.545312 0.660975
0.000000 0.629267 0.687251
0.061799 0.628626 0.686610
0.294804 0.627436 0.684474
0.482887 0.630518 0.682765
0.672847 0.656367 0.697261
0.820676 0.671107 0.702541
0.920409 0.661433 0.682734
0.996094 0.651698 0.663386
0.000000 0.787900 0.677760
0.091402 0.789456 0.679255
0.308293 0.789059 0.678798
0.493965 0.787411 0.678798
0.661097 0.784054 0.679957
0.805661 0.787930 0.690303
0.909697 0.768887 0.673518
0.987976 0.749172 0.658991
0.125338 0.904540 0.644617
0.203983 0.904295 0.645502
0.351110 0.899748 0.645991
0.508232 0.892851 0.649989
0.657984 0.884947 0.660273
0.785458 0.880278 0.673976
0.890135 0.873777 0.670039
0.975494 0.851591 0.655573
0.197391 0.979095 0.600610
0.243565 0.977752 0.601312
0.361578 0.973571 0.605402
0.505516 0.967956 0.617884
0.650202 0.959686 0.640497
0.767178 0.953399 0.659968
0.865537 0.949035 0.665553
0.959350 0.943145 0.665217
0.126284 0.000000 0.851102
0.194217 0.000000 0.852445
0.331334 0.000000 0.851713
0.484901 0.000000 0.852293
0.644800 0.000000 0.853056
0.799680 0.095552 0.847501
0.935424 0.132418 0.825895
1.000000 0.244358 0.760739
0.104616 0.127047 0.841276
0.182010 0.127016 0.842588
0.324041 0.124422 0.842741
0.479072 0.126040 0.843107
0.639490 0.147402 0.844480
0.793973 0.173281 0.839475
0.928679 0.187472 0.817655
1.000000 0.264073 0.755367
0.000000 0.284916 0.831357
0.148867 0.285496 0.831388
0.310765 0.288029 0.831113
0.473121 0.296574 0.832517
0.636194 0.315160 0.834531
0.791958 0.339391 0.833341
0.924559 0.350317 0.814359
1.000000 0.394537 0.760098
0.000000 0.433814 0.810941
0.086366 0.433692 0.810178
0.298589 0.441138 0.810819
0.470710 0.454994 0.814908
0.637018 0.478370 0.820005
0.793668 0.511528 0.826383
0.917327 0.514153 0.809720
0.992920 0.531975 0.765621
0.000000 0.574365 0.784604
0.000000 0.572076 0.782437
0.236820 0.566674 0.777584
0.428656 0.572137 0.779019
0.620172 0.603296 0.791348
0.782193 0.638422 0.805844
0.901030 0.641444 0.794858
0.980682 0.653834 0.768734
0.000000 0.723507 0.774136
0.000000 0.722835 0.773526
0.245823 0.720851 0.771420
0.425147 0.719387 0.769162
0.590448 0.719081 0.766110
0.765927 0.747585 0.781918
0.891081 0.766903 0.790494
0.970214 0.762631 0.775479
0.000000 0.873136 0.770504
0.000000 0.873411 0.771023
0.276982 0.872038 0.770352
0.449409 0.869596 0.770077
0.612055 0.864714 0.769284
0.760555 0.859464 0.771023
0.880003 0.863066 0.783658
0.962402 0.849424 0.771603
0.146700 0.965881 0.723934
0.205936 0.965148 0.724239
0.344305 0.963897 0.728328
0.488106 0.959014 0.732967
0.632593 0.951171 0.741909
0.764248 0.943664 0.758724
0.869963 0.940703 0.778927
0.954314 0.939147 0.784512
0.088594 0.000000 0.927916
0.162783 0.000000 0.928222
0.294041 0.000000 0.926146
0.435309 0.000000 0.925200
0.580346 0.000000 0.923919
0.726558 0.065431 0.923064
0.864744 0.118624 0.916808
0.987610 0.156374 0.897642
0.051972 0.108278 0.923278
0.149538 0.107759 0.923644
0.287938 0.101534 0.922240
0.431586 0.097810 0.920989
0.577874 0.110719 0.920073
0.724575 0.152132 0.919554
0.862394 0.177676 0.913268
0.984985 0.199985 0.894255
0.000000 0.252476 0.914305
0.099947 0.252903 0.914336
0.269749 0.252171 0.912474
0.424567 0.260044 0.914153
0.574456 0.271305 0.913298
0.722103 0.296086 0.912688
0.859648 0.315831 0.908110
0.980377 0.328527 0.890166
0.000000 0.389899 0.901701
0.000000 0.392950 0.902098
0.248295 0.394995 0.901213
0.415412 0.403388 0.901884
0.571923 0.418647 0.902739
0.722225 0.445228 0.904051
0.858244 0.468360 0.902586
0.974151 0.473518 0.886412
0.000000 0.516381 0.878782
0.000000 0.516381 0.879820
0.154238 0.515373 0.880613
0.381506 0.525597 0.884092
0.560052 0.546380 0.885466
0.715511 0.571740 0.889067
0.855039 0.605371 0.893675
0.965057 0.614527 0.881529
0.000000 0.659052 0.866545
0.000000 0.657160 0.865324
0.000000 0.651392 0.862303
0.311009 0.643336 0.858915
0.503410 0.645655 0.858579
0.706172 0.689937 0.870848
0.856016 0.735775 0.886625
0.957092 0.749325 0.881437
0.000000 0.803128 0.862150
0.000000 0.802243 0.861418
0.087831 0.799405 0.859556
0.338140 0.796597 0.857816
0.517723 0.794827 0.855528
0.682002 0.797208 0.853574
0.841825 0.825956 0.867369
0.946563 0.848631 0.876921
0.000000 0.946777 0.863828
0.000000 0.946105 0.863279
0.197543 0.944488 0.862516
0.393683 0.941955 0.862486
0.564843 0.937469 0.862394
0.716640 0.932189 0.863401
0.847837 0.927611 0.867674
0.944305 0.932982 0.885924
