其他预设/【232】美食博客调色预设124款/1.3D LUT预设（视频调色-PR-AE-PS-FCPX-达芬奇用）/Yummy #15.cube
# Created by Adobe Lightroom plugin Export LUT (1.17.0)
# www.johnrellis.com/lightroom/exportlut.htm
# Preset: Yummy #15
# Color profile: /Library/Application Support/Adobe/Color/Profiles/Recommended/AdobeRGB1998.icc
LUT_3D_SIZE 32
0.138796 0.138796 0.138796
0.141299 0.139101 0.139040
0.144259 0.139467 0.139437
0.153872 0.140536 0.140200
0.170871 0.141543 0.141054
0.190585 0.142885 0.141848
0.214389 0.144259 0.142702
0.243961 0.146059 0.143557
0.281498 0.148379 0.144503
0.327611 0.151125 0.145052
0.381109 0.153841 0.145083
0.440009 0.156863 0.144442
0.501274 0.160220 0.143160
0.558709 0.164248 0.142031
0.607050 0.168734 0.142061
0.648096 0.173678 0.143313
0.684413 0.179324 0.145724
0.728847 0.188998 0.152255
0.760159 0.198764 0.161379
0.784848 0.210025 0.172335
0.804593 0.221927 0.185580
0.820188 0.235142 0.200229
0.832242 0.248692 0.215640
0.841764 0.262882 0.231601
0.849424 0.277165 0.248264
0.855741 0.292638 0.265812
0.861051 0.310277 0.285435
0.865354 0.330510 0.307897
0.868437 0.354345 0.334417
0.870146 0.382544 0.365087
0.870146 0.415991 0.401099
0.868070 0.455482 0.443153
0.139040 0.141054 0.138949
0.141634 0.140627 0.139071
0.144411 0.141024 0.139467
0.153902 0.142794 0.140352
0.170535 0.144381 0.140993
0.189853 0.145754 0.141787
0.212924 0.147341 0.142489
0.241459 0.149294 0.143404
0.277714 0.151949 0.144411
0.322545 0.155093 0.144900
0.374426 0.158267 0.145083
0.431922 0.161776 0.144472
0.492134 0.165682 0.143221
0.549828 0.169711 0.142214
0.598718 0.174258 0.141787
0.640406 0.178653 0.142916
0.678492 0.183993 0.145266
0.721584 0.192538 0.150912
0.752773 0.201297 0.158907
0.777951 0.211185 0.168856
0.798489 0.222019 0.181003
0.815000 0.233921 0.194644
0.827909 0.246311 0.209262
0.838224 0.259373 0.224704
0.846586 0.272862 0.240757
0.853513 0.287816 0.258061
0.859434 0.304723 0.277440
0.864225 0.324620 0.299931
0.867826 0.347784 0.325811
0.869993 0.375433 0.356268
0.870451 0.408179 0.391760
0.868772 0.447089 0.433600
0.139010 0.143648 0.139040
0.141482 0.143923 0.139284
0.145235 0.142947 0.139590
0.154360 0.144564 0.140322
0.170260 0.147921 0.140841
0.189181 0.149386 0.141665
0.211582 0.151095 0.142397
0.239231 0.153475 0.143313
0.274571 0.156435 0.144167
0.318242 0.160128 0.144900
0.369390 0.164126 0.144961
0.426123 0.168399 0.144259
0.485878 0.172610 0.143252
0.543877 0.177279 0.142031
0.593317 0.181735 0.141604
0.635523 0.186007 0.142397
0.675380 0.191348 0.144656
0.717250 0.199039 0.149874
0.748379 0.206699 0.157351
0.773831 0.215488 0.166842
0.794919 0.225162 0.178683
0.812039 0.236179 0.191867
0.825437 0.247807 0.206332
0.836179 0.260014 0.221378
0.844877 0.272892 0.237003
0.852140 0.287144 0.254032
0.858366 0.303593 0.273411
0.863493 0.322911 0.295842
0.867369 0.345647 0.321691
0.869780 0.372808 0.351873
0.870481 0.405005 0.387213
0.869078 0.443030 0.428351
0.139437 0.151827 0.139132
0.142245 0.152499 0.139315
0.146670 0.153262 0.139467
0.157839 0.150576 0.140352
0.171908 0.150546 0.141054
0.189212 0.157595 0.141421
0.211093 0.159457 0.142306
0.238224 0.162142 0.143191
0.272587 0.165835 0.144045
0.315312 0.170565 0.144564
0.365026 0.175845 0.144625
0.420569 0.181186 0.144076
0.479011 0.186893 0.142947
0.536828 0.192233 0.141604
0.586877 0.196719 0.140963
0.629572 0.200839 0.141573
0.672175 0.205905 0.143923
0.712032 0.212314 0.148562
0.742245 0.218448 0.155459
0.767391 0.225345 0.164126
0.788693 0.233310 0.174838
0.806485 0.242191 0.187289
0.820981 0.252659 0.201266
0.832914 0.263859 0.216648
0.842771 0.276616 0.233066
0.850889 0.290806 0.251347
0.857664 0.307225 0.271611
0.863005 0.326574 0.294957
0.867033 0.348821 0.320897
0.869535 0.374975 0.350774
0.870298 0.405707 0.385199
0.869169 0.441840 0.424811
0.139681 0.165133 0.139010
0.142519 0.165621 0.139040
0.146761 0.166323 0.139193
0.158877 0.166934 0.139590
0.174655 0.161196 0.140780
0.190860 0.157076 0.141878
0.210422 0.166354 0.142306
0.235264 0.173770 0.142977
0.268070 0.178256 0.143832
0.308965 0.184146 0.144350
0.357092 0.190890 0.144228
0.411139 0.198032 0.143679
0.468605 0.205142 0.142550
0.526726 0.211765 0.140932
0.578424 0.217105 0.140017
0.622736 0.221164 0.140597
0.669581 0.226627 0.142824
0.708522 0.231998 0.147463
0.738613 0.236942 0.154116
0.763729 0.242069 0.162631
0.785031 0.248020 0.172763
0.802976 0.255314 0.184939
0.817899 0.263645 0.198581
0.830320 0.273503 0.213718
0.840665 0.284642 0.230350
0.849271 0.297612 0.248569
0.856352 0.312840 0.268986
0.862028 0.330480 0.291539
0.866270 0.351507 0.317449
0.868986 0.376410 0.347112
0.870054 0.405798 0.381079
0.869169 0.440772 0.420294
0.139620 0.180850 0.138643
0.142641 0.181399 0.138674
0.147097 0.181735 0.138827
0.156100 0.182589 0.138979
0.176852 0.183230 0.139376
0.194797 0.174289 0.141299
0.213993 0.165530 0.143343
0.238102 0.177371 0.143557
0.267491 0.192508 0.143862
0.306920 0.201541 0.144198
0.353979 0.209903 0.143893
0.406928 0.218631 0.143008
0.463630 0.227268 0.141695
0.521660 0.235203 0.139834
0.573571 0.241459 0.138735
0.619867 0.245884 0.139101
0.668971 0.252079 0.141451
0.706600 0.256382 0.146120
0.736629 0.259953 0.152834
0.761959 0.263706 0.161807
0.783658 0.268467 0.172427
0.802121 0.274205 0.184878
0.840635 0.311650 0.239139
0.848478 0.322728 0.257847
0.854643 0.334691 0.277104
0.859525 0.348028 0.297002
0.863340 0.363195 0.317937
0.866087 0.381079 0.341497
0.867765 0.402045 0.367834
0.868223 0.426947 0.397711
0.867185 0.456275 0.431800
0.864744 0.488472 0.468330
0.139498 0.205081 0.137667
0.143160 0.205386 0.137697
0.148135 0.205722 0.137850
0.158206 0.206638 0.138094
0.174777 0.207950 0.138521
0.206027 0.209079 0.138979
0.226902 0.195773 0.142336
0.252995 0.180819 0.145602
0.286992 0.198184 0.145052
0.326421 0.219181 0.144228
0.373053 0.241215 0.142367
0.428443 0.252262 0.140688
0.485847 0.262425 0.138766
0.541497 0.270512 0.136721
0.589258 0.275395 0.136294
0.640436 0.281804 0.137179
0.685084 0.286748 0.140902
0.719478 0.289464 0.147097
0.747890 0.291661 0.155673
0.772946 0.294743 0.166873
0.795071 0.299718 0.180972
0.814115 0.306493 0.198825
0.829526 0.315801 0.219242
0.841489 0.326940 0.241611
0.850401 0.339696 0.264561
0.856809 0.353033 0.287114
0.861448 0.367620 0.309789
0.864775 0.383886 0.333410
0.866911 0.403326 0.359838
0.867796 0.426154 0.389014
0.867277 0.453254 0.422095
0.865202 0.484382 0.458808
0.139590 0.228336 0.136873
0.143618 0.228550 0.136904
0.148440 0.228763 0.137087
0.159030 0.229526 0.137301
0.174289 0.230716 0.137606
0.200046 0.232242 0.138247
0.236515 0.234104 0.139101
0.258061 0.217655 0.143404
0.289647 0.195926 0.147768
0.330663 0.217166 0.145907
0.375586 0.241764 0.143984
0.424537 0.269139 0.140627
0.478584 0.288426 0.137240
0.533684 0.297856 0.134890
0.587182 0.305791 0.133608
0.638849 0.312779 0.134829
0.680049 0.316167 0.138338
0.713252 0.317235 0.144442
0.741329 0.317998 0.152651
0.766506 0.319463 0.163546
0.789090 0.322393 0.177340
0.808652 0.327031 0.194369
0.824704 0.333623 0.214023
0.837369 0.342016 0.235630
0.846983 0.351812 0.258183
0.854032 0.362951 0.280339
0.859281 0.375128 0.302464
0.863188 0.389349 0.325902
0.865812 0.406806 0.351995
0.867155 0.427619 0.380804
0.867063 0.453010 0.413855
0.865354 0.482612 0.450446
0.140139 0.257328 0.135653
0.144350 0.257572 0.135653
0.149630 0.257969 0.135775
0.160769 0.258579 0.136172
0.177035 0.259648 0.136599
0.196841 0.261051 0.137118
0.233127 0.263523 0.137545
0.275578 0.266758 0.137636
0.298009 0.245701 0.143496
0.335576 0.215213 0.149172
0.382513 0.240208 0.145968
0.431678 0.267918 0.142519
0.481514 0.296849 0.137850
0.534478 0.327947 0.131899
0.592035 0.340948 0.130007
0.638636 0.345983 0.131655
0.677363 0.347631 0.135561
0.709377 0.347509 0.141634
0.737057 0.346654 0.150515
0.762142 0.346715 0.161318
0.784817 0.347997 0.174838
0.804623 0.350622 0.191714
0.820981 0.354864 0.211337
0.834012 0.360845 0.232395
0.844022 0.368444 0.254398
0.851530 0.376867 0.276066
0.857237 0.386877 0.298131
0.861509 0.398993 0.321202
0.864530 0.414160 0.346685
0.866270 0.432685 0.374945
0.866545 0.455695 0.407202
0.865263 0.483253 0.443244
0.140536 0.292668 0.133272
0.144991 0.292638 0.133303
0.150881 0.292729 0.133455
0.163088 0.293278 0.133639
0.180209 0.293980 0.134096
0.201175 0.295232 0.134371
0.228916 0.297032 0.134768
0.273655 0.300542 0.134432
0.321660 0.304997 0.133974
0.344305 0.278843 0.141817
0.385138 0.240848 0.149477
0.436011 0.264469 0.145357
0.493050 0.297002 0.139742
0.549950 0.330816 0.134035
0.597650 0.360388 0.129397
0.638941 0.380468 0.127596
0.677241 0.381506 0.132021
0.709071 0.380407 0.139284
0.736355 0.378485 0.148806
0.760647 0.376867 0.160403
0.782284 0.376043 0.174105
0.801022 0.376287 0.189944
0.816770 0.377630 0.207858
0.829648 0.380591 0.227268
0.840024 0.384955 0.247898
0.848112 0.390906 0.268986
0.854490 0.398688 0.290806
0.859403 0.409094 0.314611
0.863005 0.422644 0.340673
0.865171 0.440070 0.370031
0.865751 0.462043 0.403418
0.864622 0.488838 0.440681
0.139590 0.330022 0.129427
0.144747 0.330266 0.129397
0.151156 0.330510 0.129305
0.164309 0.331060 0.129641
0.182895 0.332219 0.129732
0.205600 0.333654 0.129824
0.230991 0.335729 0.130007
0.270787 0.339269 0.129458
0.321630 0.344060 0.128359
0.376043 0.349920 0.126558
0.397589 0.317327 0.137819
0.448554 0.279545 0.147250
0.510002 0.298985 0.143099
0.563134 0.331029 0.136507
0.605982 0.358831 0.132509
0.642878 0.383612 0.130434
0.674861 0.405798 0.129976
0.704524 0.411688 0.135683
0.731594 0.408576 0.145632
0.755947 0.405737 0.157198
0.777707 0.403449 0.171420
0.796811 0.402197 0.187472
0.813016 0.402075 0.205722
0.826291 0.403143 0.225132
0.836973 0.405554 0.245609
0.845396 0.409247 0.266239
0.852079 0.414740 0.287572
0.857359 0.422705 0.310643
0.861295 0.433722 0.336065
0.863859 0.448646 0.364752
0.864897 0.468025 0.397284
0.864164 0.492592 0.434302
0.138216 0.374212 0.122438
0.143587 0.374456 0.122377
0.150759 0.374670 0.122438
0.165377 0.375341 0.122499
0.185702 0.376287 0.122499
0.210208 0.377752 0.122255
0.237461 0.379950 0.122194
0.267338 0.382513 0.121981
0.320684 0.387823 0.120058
0.378729 0.395300 0.117098
0.444099 0.406500 0.112947
0.475715 0.374640 0.128237
0.584100 0.360449 0.141573
0.634485 0.360784 0.143679
0.671046 0.387243 0.140566
0.699367 0.409613 0.142489
0.722591 0.428840 0.147097
0.742397 0.445747 0.153170
0.759792 0.461189 0.161532
0.778866 0.454719 0.176883
0.795712 0.449287 0.193362
0.810239 0.445136 0.211063
0.822477 0.442084 0.229526
0.832731 0.440833 0.248814
0.841154 0.441138 0.268559
0.847959 0.443091 0.289006
0.853330 0.447028 0.309941
0.857542 0.453132 0.331975
0.860624 0.462318 0.356634
0.862486 0.475288 0.384222
0.862913 0.492866 0.416052
0.861875 0.514977 0.451362
0.132235 0.441871 0.106294
0.139498 0.441810 0.106081
0.149142 0.440894 0.106355
0.166690 0.440009 0.106905
0.190585 0.438788 0.107179
0.217868 0.437873 0.107393
0.247623 0.438087 0.107576
0.279911 0.439399 0.107179
0.327367 0.451209 0.102785
0.397986 0.466896 0.094545
0.473396 0.483528 0.084077
0.543999 0.490700 0.080232
0.577600 0.450507 0.112703
0.619837 0.389899 0.141512
0.666957 0.377234 0.148989
0.697749 0.401099 0.148074
0.721767 0.421363 0.150912
0.740963 0.438666 0.157015
0.758053 0.454566 0.165011
0.773617 0.469398 0.174746
0.788907 0.476173 0.188205
0.804105 0.470314 0.205783
0.816861 0.465675 0.223880
0.827756 0.462348 0.242588
0.836790 0.460517 0.261875
0.844175 0.460304 0.281621
0.850187 0.461921 0.302037
0.854948 0.465980 0.324102
0.858610 0.472847 0.348272
0.860990 0.483772 0.376196
0.861997 0.498878 0.407477
0.861326 0.519371 0.443763
0.127321 0.488624 0.089693
0.135439 0.488624 0.089662
0.145632 0.487800 0.089967
0.164523 0.486885 0.090394
0.190555 0.486397 0.090272
0.220737 0.489631 0.089204
0.254459 0.493996 0.087160
0.291020 0.499092 0.084321
0.330022 0.505547 0.080842
0.390509 0.515160 0.073457
0.462867 0.526604 0.062135
0.537469 0.537896 0.039429
0.598840 0.534447 0.059205
0.625452 0.486702 0.108431
0.656611 0.420874 0.144167
0.695735 0.392370 0.156832
0.719783 0.413031 0.157259
0.739773 0.431006 0.160433
0.756497 0.447486 0.168093
0.771969 0.462745 0.177249
0.786130 0.477363 0.188876
0.798886 0.491035 0.202182
0.811643 0.490272 0.219486
0.823148 0.485451 0.238529
0.832731 0.482002 0.257786
0.840635 0.480049 0.277317
0.847166 0.479713 0.297734
0.852415 0.481819 0.319463
0.856504 0.486824 0.343664
0.859342 0.495613 0.371313
0.860716 0.508782 0.402899
0.860380 0.527428 0.439521
0.119997 0.547082 0.055604
0.128817 0.547753 0.054871
0.140444 0.547478 0.054749
0.163180 0.547112 0.054688
0.191897 0.546685 0.054658
0.224338 0.546319 0.055146
0.258824 0.547112 0.053681
0.295506 0.548852 0.050568
0.333898 0.552117 0.045472
0.375250 0.557092 0.036500
0.446418 0.565148 0.012604
0.518303 0.573541 0.000000
0.590112 0.580713 0.000000
0.642054 0.567651 0.035981
0.662898 0.515465 0.110079
0.685267 0.446174 0.149294
0.719051 0.405280 0.166659
0.738674 0.423651 0.168002
0.756100 0.440497 0.172030
0.771298 0.456245 0.180209
0.785092 0.471168 0.191226
0.797574 0.485176 0.203738
0.808469 0.498238 0.217746
0.818265 0.508843 0.233707
0.828489 0.503990 0.253269
0.837064 0.500664 0.273381
0.844236 0.499336 0.294926
0.850065 0.500481 0.318303
0.854551 0.504723 0.344518
0.857572 0.512963 0.374578
0.858946 0.526024 0.408881
0.858488 0.544305 0.447852
0.113283 0.596857 0.000000
0.123537 0.597436 0.000000
0.136385 0.597406 0.000000
0.160433 0.597101 0.000000
0.190768 0.596643 0.000000
0.225315 0.596277 0.000000
0.261204 0.596704 0.000000
0.298589 0.597864 0.000000
0.337591 0.599664 0.000000
0.377447 0.602106 0.000000
0.429725 0.605280 0.000000
0.499214 0.609247 0.000000
0.566552 0.612024 0.000000
0.632380 0.613275 0.000000
0.673152 0.590661 0.047150
0.688899 0.535821 0.115419
0.705806 0.466743 0.155856
0.737240 0.415991 0.176852
0.755123 0.433722 0.180117
0.771572 0.450233 0.185397
0.785977 0.465919 0.195193
0.798398 0.480751 0.208286
0.809232 0.494545 0.222721
0.818662 0.507500 0.238560
0.826749 0.519829 0.255375
0.834562 0.524376 0.275181
0.841978 0.521721 0.297307
0.847959 0.521569 0.321416
0.852567 0.524315 0.347814
0.855711 0.530694 0.377691
0.857237 0.541283 0.411139
0.856992 0.556939 0.448951
0.109010 0.633875 0.000000
0.119966 0.633783 0.000000
0.132692 0.633387 0.000000
0.157351 0.632746 0.000000
0.188510 0.631922 0.000000
0.222385 0.631250 0.000000
0.258213 0.630915 0.000000
0.295232 0.631037 0.000000
0.333501 0.631495 0.000000
0.372381 0.632654 0.000000
0.411994 0.634089 0.000000
0.472938 0.636225 0.000000
0.539300 0.637995 0.000000
0.603449 0.638331 0.000000
0.665309 0.637079 0.000000
0.697688 0.608362 0.066835
0.710842 0.553277 0.124971
0.724208 0.486030 0.164431
0.753902 0.426520 0.188815
0.769986 0.443458 0.193393
0.784756 0.459174 0.199496
0.797665 0.474281 0.209812
0.808438 0.488472 0.223545
0.817899 0.502037 0.239231
0.826108 0.514885 0.255924
0.833127 0.527428 0.274479
0.839017 0.539971 0.295232
0.845243 0.540764 0.319615
0.850248 0.542046 0.346715
0.853666 0.546929 0.377356
0.855436 0.556268 0.412116
0.855344 0.570520 0.451026
0.106203 0.666102 0.000000
0.117739 0.666773 0.000000
0.134371 0.694697 0.000000
0.160067 0.693904 0.000000
0.192752 0.692561 0.000000
0.228092 0.690791 0.000000
0.264988 0.688869 0.000000
0.302495 0.687037 0.000000
0.341009 0.685542 0.000000
0.379858 0.684382 0.000000
0.418830 0.683406 0.000000
0.460517 0.682246 0.000000
0.526848 0.680629 0.000000
0.589715 0.678248 0.000000
0.649805 0.674800 0.000000
0.707301 0.670436 0.009247
0.732143 0.635279 0.100740
0.742672 0.579675 0.148531
0.753445 0.513451 0.185550
0.778408 0.445075 0.212863
0.791012 0.459937 0.218509
0.802640 0.474403 0.226078
0.812833 0.488197 0.236423
0.821195 0.501427 0.250523
0.828153 0.514000 0.266026
0.834226 0.526024 0.282383
0.839475 0.537804 0.300359
0.843931 0.550103 0.321111
0.847837 0.560418 0.346075
0.851560 0.563470 0.376745
0.853605 0.570825 0.411475
0.853819 0.583062 0.450538
0.107118 0.699428 0.000000
0.118135 0.702693 0.000000
0.131777 0.705806 0.000000
0.156680 0.708125 0.000000
0.188571 0.709194 0.000000
0.222965 0.708766 0.000000
0.258488 0.707424 0.000000
0.294987 0.705684 0.000000
0.332250 0.704158 0.000000
0.369574 0.702754 0.000000
0.407233 0.701442 0.000000
0.444862 0.700008 0.000000
0.494484 0.697902 0.000000
0.556664 0.695186 0.000000
0.615747 0.691615 0.000000
0.672206 0.687190 0.006195
0.726375 0.682063 0.055665
0.745357 0.643946 0.115053
0.755276 0.590204 0.159609
0.765652 0.527733 0.195041
0.787869 0.463172 0.222965
0.800961 0.468238 0.232944
0.811521 0.482429 0.241672
0.820676 0.495766 0.252506
0.828031 0.508843 0.267124
0.834195 0.521447 0.283665
0.839475 0.534020 0.302068
0.843931 0.546807 0.323003
0.847471 0.560632 0.347723
0.849912 0.575799 0.376959
0.851652 0.586389 0.412055
0.852079 0.596796 0.451606
0.107454 0.718532 0.000000
0.118471 0.721187 0.000000
0.131960 0.723812 0.000000
0.155428 0.725643 0.000000
0.185367 0.726497 0.000000
0.218784 0.726009 0.000000
0.253117 0.724727 0.000000
0.288060 0.723140 0.000000
0.323949 0.721614 0.000000
0.360174 0.720089 0.000000
0.396582 0.718685 0.000000
0.433143 0.717037 0.000000
0.469062 0.714870 0.000000
0.525566 0.712062 0.000000
0.584192 0.708461 0.000000
0.639948 0.704097 0.010468
0.693355 0.699123 0.058137
0.744808 0.693751 0.080079
0.758846 0.652857 0.132296
0.768338 0.601770 0.173190
0.778164 0.542565 0.207767
0.797818 0.481605 0.236698
0.810666 0.477577 0.250034
0.819944 0.491341 0.259770
0.827817 0.504051 0.270573
0.834318 0.516777 0.285130
0.839475 0.529717 0.303227
0.843931 0.542901 0.323705
0.847471 0.557031 0.348150
0.849912 0.572564 0.377081
0.850950 0.590051 0.411322
0.850431 0.609613 0.450294
0.109194 0.735897 0.000000
0.118471 0.738155 0.000000
0.131594 0.740352 0.000000
0.154299 0.741878 0.000000
0.183352 0.742489 0.000000
0.215152 0.741970 0.000000
0.247898 0.740719 0.000000
0.281865 0.739071 0.000000
0.316350 0.737453 0.000000
0.351324 0.735805 0.000000
0.386358 0.734096 0.000000
0.421668 0.732235 0.000000
0.456428 0.730037 0.000000
0.494850 0.727443 0.000000
0.553368 0.724117 0.000000
0.609125 0.720363 0.021607
0.663020 0.716274 0.065675
0.714748 0.712093 0.088777
0.765042 0.707759 0.109987
0.775509 0.665705 0.159365
0.785245 0.617304 0.198642
0.794980 0.562493 0.234043
0.811612 0.505394 0.264317
0.823453 0.494392 0.282231
0.830900 0.508263 0.294835
0.837186 0.521172 0.308019
0.842191 0.534356 0.325017
0.845853 0.548730 0.347204
0.848508 0.564233 0.373632
0.850004 0.581079 0.404242
0.850095 0.599878 0.439582
0.848814 0.620325 0.478523
0.117189 0.760067 0.000000
0.126772 0.760830 0.000000
0.137331 0.761410 0.000000
0.157961 0.761501 0.000000
0.184512 0.761074 0.000000
0.214206 0.760067 0.000000
0.245792 0.758785 0.000000
0.278355 0.757412 0.000000
0.311803 0.756039 0.000000
0.346014 0.754665 0.000000
0.380224 0.753323 0.000000
0.414618 0.751583 0.000000
0.448646 0.749447 0.000000
0.482216 0.746883 0.000000
0.527581 0.743648 0.020844
0.583398 0.739620 0.063600
0.636530 0.735348 0.085084
0.687465 0.730861 0.104433
0.736629 0.726192 0.123812
0.781430 0.718898 0.145022
0.789578 0.676661 0.186587
0.797818 0.629755 0.222385
0.805905 0.577356 0.254887
0.819333 0.523156 0.283787
0.830198 0.504814 0.303075
0.836423 0.518303 0.316136
0.841733 0.531365 0.330816
0.845945 0.545281 0.349859
0.848692 0.560998 0.375341
0.850126 0.578424 0.405951
0.850156 0.597803 0.441535
0.848814 0.618708 0.480415
0.121706 0.773251 0.000000
0.130282 0.773922 0.000000
0.140597 0.774472 0.000000
0.159823 0.774563 0.000000
0.184176 0.774105 0.000000
0.212558 0.773098 0.000000
0.242100 0.771756 0.000000
0.273259 0.770260 0.000000
0.305333 0.768765 0.000000
0.338079 0.767269 0.000000
0.371313 0.765713 0.000000
0.404425 0.764004 0.000000
0.437201 0.761959 0.000000
0.469917 0.759579 0.013733
0.502251 0.756924 0.042847
0.554070 0.753323 0.072847
0.607172 0.749355 0.092683
0.658015 0.745144 0.111604
0.706722 0.740810 0.131044
0.753750 0.736294 0.150240
0.793027 0.726131 0.174441
0.800687 0.685542 0.212894
0.808255 0.641138 0.247532
0.815610 0.592218 0.279698
0.824643 0.537255 0.298253
0.835080 0.513146 0.319677
0.840543 0.526848 0.334203
0.845060 0.540734 0.351537
0.848508 0.555566 0.372930
0.850401 0.572808 0.401709
0.850584 0.592859 0.437720
0.849271 0.614862 0.477974
0.134920 0.790066 0.000000
0.142458 0.790677 0.000000
0.151705 0.790982 0.000000
0.168246 0.790707 0.000000
0.190341 0.789944 0.000000
0.215824 0.788754 0.000000
0.243381 0.787137 0.000000
0.272251 0.785306 0.000000
0.302586 0.783322 0.000000
0.333349 0.781308 0.000000
0.364752 0.779110 0.000000
0.396185 0.776913 0.008148
0.427710 0.774502 0.032959
0.459022 0.771756 0.054810
0.489876 0.768612 0.066682
0.524804 0.765133 0.077211
0.577234 0.760678 0.094575
0.627283 0.756222 0.111391
0.675532 0.751919 0.129702
0.722225 0.747707 0.149477
0.767239 0.743404 0.170016
0.801389 0.730617 0.195712
0.808316 0.691493 0.231876
0.814969 0.648646 0.264073
0.821225 0.602045 0.293614
0.830411 0.553857 0.320623
0.840116 0.525628 0.344640
0.844480 0.539452 0.360540
0.847929 0.554040 0.380072
0.850217 0.570306 0.405035
0.850828 0.589807 0.438331
0.849516 0.612451 0.478767
0.140444 0.799130 0.000000
0.147127 0.799680 0.000000
0.155520 0.799893 0.000000
0.170840 0.799649 0.000000
0.191165 0.798947 0.000000
0.214969 0.797940 0.000000
0.241367 0.796597 0.000000
0.268772 0.795102 0.000000
0.297978 0.793454 0.004028
0.327764 0.791745 0.019501
0.357946 0.789914 0.040162
0.388647 0.788022 0.060731
0.419196 0.785946 0.071809
0.449805 0.783597 0.081605
0.479957 0.780880 0.090150
0.509789 0.777951 0.097932
0.551324 0.774319 0.110292
0.601251 0.770047 0.126864
0.649287 0.765835 0.143923
0.695460 0.761593 0.162783
0.739773 0.757321 0.182712
0.782315 0.752834 0.203555
0.811124 0.737362 0.229526
0.817136 0.699702 0.262608
0.822812 0.659327 0.293523
0.828214 0.616205 0.322210
0.835660 0.572107 0.349584
0.844297 0.542412 0.377905
0.847379 0.558068 0.398566
0.849271 0.575463 0.424475
0.849821 0.594934 0.455848
0.848539 0.617456 0.494301
0.149386 0.808743 0.013519
0.155978 0.809018 0.021820
0.162600 0.809018 0.029175
0.175906 0.808621 0.030213
0.194064 0.807828 0.031495
0.215793 0.806729 0.034668
0.240055 0.805386 0.039521
0.266300 0.803922 0.044343
0.293889 0.802396 0.054780
0.322210 0.800809 0.063386
0.351537 0.799130 0.072084
0.381048 0.797452 0.081056
0.410803 0.795560 0.090669
0.440467 0.793423 0.098604
0.469673 0.790951 0.106569
0.498726 0.788205 0.113954
0.527520 0.785306 0.121462
0.574548 0.781308 0.136141
0.622278 0.777127 0.152529
0.668147 0.772976 0.170230
0.712093 0.768734 0.190005
0.754177 0.764340 0.210483
0.794247 0.759762 0.231205
0.818235 0.742031 0.257725
0.823453 0.706111 0.289250
0.828458 0.668055 0.319249
0.833127 0.628290 0.347997
0.839078 0.588525 0.375952
0.846708 0.558068 0.408362
0.848508 0.575921 0.433875
0.849027 0.595727 0.464546
0.847898 0.618189 0.501396
0.156008 0.816159 0.061982
0.161379 0.816281 0.064393
0.167788 0.816220 0.066773
0.179660 0.815915 0.067872
0.197086 0.815366 0.070283
0.217777 0.814725 0.073976
0.241764 0.814084 0.079561
0.267521 0.813413 0.086915
0.294987 0.812711 0.096040
0.323400 0.811948 0.105959
0.352453 0.811093 0.116304
0.381750 0.810025 0.126772
0.410956 0.808713 0.137392
0.439979 0.807065 0.146517
0.468666 0.805020 0.155489
0.496742 0.802609 0.162722
0.524590 0.800015 0.169802
0.556695 0.796994 0.179294
0.603906 0.792813 0.195438
0.648890 0.788540 0.212863
0.691859 0.784176 0.232334
0.732815 0.779721 0.252873
0.771603 0.775082 0.273991
0.808164 0.770382 0.295781
0.826810 0.751156 0.323125
0.830808 0.718349 0.353613
0.834440 0.684932 0.384039
0.837644 0.651789 0.413672
0.841367 0.620691 0.442390
0.845853 0.600488 0.477943
0.845762 0.616724 0.509606
0.843595 0.639948 0.545830
0.180819 0.826627 0.117128
0.184787 0.826627 0.118746
0.189700 0.826474 0.118654
0.199222 0.826108 0.118898
0.213291 0.825467 0.119112
0.231022 0.824674 0.120546
0.251438 0.823819 0.122713
0.274296 0.822843 0.125765
0.299016 0.821775 0.130678
0.324956 0.820615 0.136172
0.351415 0.819333 0.142733
0.378790 0.817868 0.149538
0.406134 0.816251 0.156924
0.433539 0.814420 0.164370
0.460822 0.812345 0.171420
0.487953 0.810117 0.178927
