其他预设/【232】美食博客调色预设124款/1.3D LUT预设（视频调色-PR-AE-PS-FCPX-达芬奇用）/Yummy #7.cube
# Created by Adobe Lightroom plugin Export LUT (1.17.0)
# www.johnrellis.com/lightroom/exportlut.htm
# Preset: Yummy #7
# Color profile: /Library/Application Support/Adobe/Color/Profiles/Recommended/AdobeRGB1998.icc
LUT_3D_SIZE 8
DOMAIN_MIN 0.000000 0.000000 0.000000
DOMAIN_MAX 0.903226 0.903226 0.903226
0.000000 0.000000 0.000000
0.289586 0.000000 0.058900
0.666438 0.000000 0.066590
0.860258 0.000000 0.143252
0.958923 0.119326 0.228550
1.000000 0.230564 0.298222
1.000000 0.318547 0.349920
1.000000 0.396094 0.389990
0.000000 0.291264 0.065217
0.319158 0.312169 0.079988
0.662684 0.304570 0.092927
0.852079 0.264591 0.168673
0.952728 0.263737 0.243687
1.000000 0.301152 0.305272
1.000000 0.357488 0.353368
1.000000 0.420966 0.392828
0.000000 0.610101 0.105287
0.298985 0.616266 0.121523
0.647211 0.623560 0.170871
0.842893 0.549248 0.236454
0.943114 0.491371 0.293156
1.000000 0.470954 0.338048
1.000000 0.483680 0.378515
1.000000 0.513664 0.413428
0.071382 0.774777 0.214115
0.278050 0.774411 0.222538
0.546502 0.774655 0.252598
0.800076 0.775357 0.299016
0.937743 0.712947 0.332555
0.994629 0.657435 0.383093
1.000000 0.632776 0.413519
1.000000 0.627649 0.440925
0.264195 0.869230 0.294347
0.339818 0.868376 0.299046
0.516106 0.866300 0.316228
0.711635 0.863584 0.346349
0.883452 0.858152 0.383429
0.982849 0.816892 0.410681
1.000000 0.768185 0.446479
1.000000 0.742580 0.475715
0.408209 0.928985 0.355779
0.448493 0.929473 0.361151
0.552819 0.926787 0.373541
0.688716 0.923033 0.395422
0.822141 0.918578 0.423011
0.939757 0.915770 0.456184
1.000000 0.892729 0.488106
1.000000 0.846799 0.508965
0.539208 0.972473 0.416205
0.558404 0.972045 0.419104
0.616205 0.969726 0.427131
0.703059 0.966522 0.442664
0.800351 0.962768 0.465034
0.894102 0.959380 0.492561
0.977996 0.957488 0.526055
1.000000 0.943420 0.561883
0.633814 1.000000 0.472267
0.644160 1.000000 0.473976
0.679438 0.999939 0.481025
0.736599 0.997467 0.494697
0.801205 0.993408 0.508873
0.874174 0.990143 0.534905
0.942229 0.986999 0.565179
1.000000 0.984436 0.599664
0.000000 0.095003 0.279515
0.280858 0.000000 0.321782
0.650629 0.000000 0.330205
0.845670 0.000000 0.324163
0.947021 0.203067 0.343755
1.000000 0.300847 0.370397
1.000000 0.379950 0.398444
1.000000 0.450690 0.427344
0.000000 0.291325 0.310338
0.285618 0.298619 0.335271
0.651087 0.269444 0.325811
0.841123 0.272740 0.330755
0.943023 0.305699 0.349157
1.000000 0.355627 0.374426
1.000000 0.410986 0.400519
1.000000 0.469398 0.428595
0.000000 0.593652 0.320928
0.233433 0.611566 0.303655
0.639490 0.618311 0.322118
0.832517 0.550652 0.350652
0.933806 0.509667 0.369757
0.996246 0.501183 0.392370
1.000000 0.517967 0.418128
1.000000 0.546502 0.444526
0.089967 0.765377 0.313512
0.271824 0.768338 0.312993
0.548760 0.769253 0.332677
0.795529 0.767239 0.361883
0.926787 0.710536 0.384497
0.984833 0.667781 0.422583
1.000000 0.647791 0.443641
1.000000 0.644984 0.466255
0.298558 0.863340 0.343481
0.370245 0.862486 0.348943
0.534783 0.860014 0.362890
0.720180 0.856962 0.388647
0.881682 0.852720 0.418372
0.977905 0.815824 0.439490
1.000000 0.773983 0.473091
1.000000 0.751522 0.498207
0.444617 0.922942 0.387915
0.480507 0.922118 0.392889
0.574609 0.920104 0.403662
0.700862 0.917723 0.423407
0.827298 0.915190 0.449439
0.940124 0.914122 0.481086
1.000000 0.892760 0.509545
1.000000 0.850248 0.528893
0.560998 0.967712 0.437781
0.576806 0.966979 0.439429
0.631098 0.965240 0.447303
0.714076 0.962951 0.463111
0.807156 0.960296 0.485206
0.896818 0.957580 0.511101
0.977539 0.955993 0.542412
1.000000 0.942596 0.576196
0.649195 0.999512 0.489509
0.659419 0.999145 0.491646
0.692927 0.997742 0.498665
0.747372 0.995544 0.512352
0.812375 0.992645 0.530785
0.880461 0.989471 0.554742
0.944701 0.986450 0.582269
1.000000 0.984070 0.615015
0.000000 0.191806 0.458076
0.092317 0.000000 0.484321
0.634638 0.000000 0.526513
0.836790 0.108217 0.487861
0.933349 0.336187 0.474891
0.988281 0.485725 0.500084
1.000000 0.543389 0.513787
1.000000 0.582544 0.526421
0.000000 0.357702 0.456886
0.000000 0.293034 0.485756
0.636316 0.200931 0.528313
0.830381 0.325109 0.491096
0.926665 0.435065 0.487892
0.984649 0.519219 0.504906
1.000000 0.558129 0.514000
1.000000 0.593256 0.527123
0.000000 0.576562 0.476661
0.203433 0.588647 0.486915
0.630121 0.596704 0.513634
0.816342 0.587518 0.509697
0.917937 0.590539 0.508782
0.979950 0.600855 0.513237
1.000000 0.616907 0.522362
1.000000 0.636622 0.535149
0.126040 0.745663 0.446418
0.291356 0.749386 0.448737
0.597620 0.753841 0.479408
0.805142 0.761715 0.502800
0.914275 0.732143 0.518486
0.973297 0.711238 0.528557
1.000000 0.703578 0.538293
1.000000 0.704768 0.551080
0.318456 0.850858 0.426337
0.406958 0.849668 0.436042
0.610193 0.845884 0.476631
0.755337 0.848569 0.497627
0.888304 0.850706 0.520439
0.971527 0.823239 0.529229
1.000000 0.798611 0.558679
1.000000 0.784390 0.573968
0.470375 0.915129 0.444190
0.523064 0.913085 0.457130
0.644526 0.908476 0.492195
0.741176 0.908568 0.507774
0.845518 0.909606 0.529870
0.942260 0.911559 0.556664
1.000000 0.895537 0.578973
1.000000 0.865965 0.600641
0.585748 0.963409 0.482216
0.615412 0.961547 0.492958
0.688746 0.957458 0.520104
0.753902 0.956359 0.533013
0.831144 0.955505 0.552422
0.908904 0.955169 0.577508
0.979858 0.955993 0.608484
1.000000 0.945617 0.639582
0.669215 0.996643 0.525689
0.688655 0.995148 0.535332
0.736965 0.992004 0.558709
0.783597 0.990784 0.572900
0.838407 0.988891 0.590173
0.897368 0.987030 0.613703
0.953155 0.985290 0.640528
1.000000 0.984131 0.671962
0.000000 0.264805 0.574609
0.000000 0.151888 0.589349
0.457221 0.000000 0.624323
0.795254 0.000000 0.650599
0.922148 0.337621 0.596857
0.979767 0.492012 0.581323
1.000000 0.583886 0.591089
1.000000 0.655604 0.615167
0.000000 0.375494 0.572900
0.000000 0.317296 0.586175
0.428656 0.192172 0.622583
0.795315 0.236728 0.650660
0.917632 0.438758 0.604181
0.975494 0.538537 0.590021
1.000000 0.611261 0.599512
1.000000 0.673732 0.623072
0.000000 0.560937 0.547539
0.000000 0.559258 0.553033
0.446113 0.512108 0.600427
0.796139 0.551537 0.645594
0.906584 0.616510 0.623987
0.965850 0.653681 0.619318
1.000000 0.694545 0.632715
1.000000 0.722499 0.645045
0.000000 0.731167 0.576898
0.242069 0.732540 0.581628
0.554040 0.731594 0.598718
0.793179 0.744594 0.636103
0.896483 0.748043 0.642695
0.957061 0.750240 0.642634
1.000000 0.756741 0.647028
1.000000 0.766323 0.655207
0.341741 0.830442 0.543572
0.422065 0.829038 0.549035
0.610407 0.826719 0.572930
0.779873 0.834379 0.615656
0.890593 0.846159 0.642023
0.957763 0.835477 0.654231
0.997436 0.827298 0.664729
1.000000 0.823758 0.673091
0.494667 0.904143 0.529198
0.543481 0.903441 0.539635
0.658839 0.899168 0.568292
0.781979 0.898955 0.612909
0.867124 0.904601 0.637110
0.944762 0.910399 0.661097
0.998932 0.901061 0.674861
1.000000 0.886809 0.697383
0.600305 0.957366 0.543847
0.628107 0.956054 0.553033
0.705715 0.952392 0.582116
0.799954 0.949218 0.628412
0.861173 0.950835 0.647059
0.923980 0.953124 0.671107
0.981140 0.955901 0.698268
1.000000 0.948943 0.722286
0.683101 0.994171 0.574792
0.701228 0.993011 0.583307
0.754330 0.989441 0.610468
0.825864 0.984955 0.656489
0.869688 0.984344 0.672816
0.917388 0.984039 0.695064
0.962737 0.983948 0.720882
1.000000 0.984314 0.749874
0.000000 0.309056 0.665461
0.000000 0.254215 0.673304
0.223636 0.110964 0.695186
0.644953 0.068940 0.729122
0.877867 0.261784 0.745174
0.967285 0.478584 0.694057
1.000000 0.590814 0.674220
1.000000 0.661616 0.675776
0.000000 0.381598 0.661524
0.000000 0.342840 0.669581
0.177188 0.212070 0.693355
0.640497 0.235325 0.726558
0.877409 0.369635 0.743923
0.964355 0.528191 0.698665
1.000000 0.618891 0.680964
1.000000 0.680110 0.682765
0.000000 0.550317 0.638483
0.003265 0.540429 0.647547
0.315251 0.474586 0.675532
0.650507 0.484962 0.713985
0.876677 0.568688 0.740230
0.955810 0.643488 0.711452
0.998413 0.692592 0.700496
1.000000 0.732174 0.703731
0.000000 0.684199 0.631556
0.133852 0.683558 0.633936
0.435584 0.686152 0.642756
0.708248 0.696010 0.689113
0.879149 0.727504 0.740871
0.948241 0.760433 0.732998
0.990082 0.778378 0.729458
1.000000 0.800137 0.736843
0.302281 0.818418 0.659785
0.383642 0.816953 0.662593
0.573968 0.812558 0.673213
0.746487 0.815549 0.696742
0.877379 0.833494 0.736721
0.943816 0.841886 0.749874
0.985107 0.846860 0.753994
1.000000 0.853910 0.761227
0.503319 0.884764 0.637842
0.543542 0.883665 0.643580
0.649744 0.881224 0.659388
0.767544 0.883299 0.685115
0.870268 0.893431 0.723140
0.942321 0.906889 0.755184
0.986999 0.906432 0.771389
1.000000 0.903929 0.783932
0.612451 0.948455 0.629450
0.636286 0.947265 0.635065
0.705135 0.944518 0.653895
0.792233 0.942901 0.684993
0.876829 0.944488 0.729915
0.932799 0.949920 0.758083
0.979706 0.955291 0.783291
1.000000 0.951476 0.799374
0.691157 0.990112 0.638849
0.706935 0.989105 0.644892
0.755337 0.986175 0.665156
0.823545 0.983124 0.701625
0.894133 0.980011 0.754940
0.932921 0.981170 0.775723
0.969482 0.982727 0.800076
1.000000 0.984497 0.825010
0.000000 0.342657 0.746426
0.000000 0.309117 0.750851
0.000000 0.175509 0.764920
0.467170 0.172335 0.785794
0.773312 0.285100 0.814450
0.927733 0.441382 0.819669
0.996826 0.576471 0.778164
1.000000 0.670008 0.755673
0.000000 0.393713 0.741238
0.000000 0.366888 0.745571
0.000000 0.240574 0.761532
0.466346 0.251682 0.782559
0.775692 0.363500 0.811032
0.927031 0.490181 0.818296
0.994751 0.604059 0.780758
1.000000 0.686915 0.760128
0.000000 0.539849 0.727687
0.000000 0.525139 0.732204
0.224796 0.471015 0.748684
0.503563 0.444190 0.773953
0.790249 0.542962 0.803464
0.927306 0.612909 0.818143
0.989471 0.683528 0.791379
1.000000 0.739712 0.776242
0.000000 0.679347 0.696559
0.173587 0.675746 0.701472
0.463813 0.675746 0.720150
0.644343 0.667567 0.754818
0.805203 0.689143 0.795438
0.929931 0.736904 0.822721
0.983825 0.777157 0.809445
1.000000 0.807156 0.801114
0.273014 0.779660 0.712886
0.343450 0.779843 0.714321
0.517784 0.782132 0.719814
0.680323 0.789517 0.732204
0.824887 0.801205 0.777768
0.932433 0.830686 0.827237
0.978851 0.854185 0.827817
1.000000 0.868406 0.827848
0.483955 0.883970 0.742550
0.523522 0.883024 0.745113
0.625086 0.879973 0.752438
0.740047 0.879179 0.767056
0.845487 0.884550 0.791135
0.934813 0.902739 0.832242
0.977295 0.913695 0.850217
1.000000 0.920531 0.858946
0.625177 0.939117 0.732113
0.646418 0.938689 0.736416
0.706966 0.937163 0.749416
0.786130 0.936675 0.770779
0.867063 0.939330 0.795407
0.936858 0.947173 0.835050
0.977691 0.956390 0.863523
1.000000 0.957580 0.877928
0.701869 0.986419 0.726589
0.715663 0.985657 0.730343
0.758938 0.983337 0.743374
0.820493 0.980774 0.766354
0.886015 0.978820 0.800198
0.944701 0.979004 0.850278
0.974792 0.982330 0.874876
0.997650 0.985473 0.894896
0.000000 0.368170 0.817868
0.000000 0.346105 0.820890
0.000000 0.246098 0.830472
0.295506 0.219852 0.843168
0.626398 0.287358 0.859709
0.852476 0.444434 0.877226
0.960662 0.552239 0.882139
1.000000 0.650385 0.846616
0.000000 0.407141 0.813901
0.000000 0.388220 0.816953
0.000000 0.309667 0.826780
0.301762 0.272404 0.840269
0.633570 0.344457 0.856870
0.856138 0.485603 0.875364
0.959899 0.576684 0.880766
1.000000 0.664576 0.847166
0.000000 0.527581 0.804868
0.000000 0.516075 0.807706
0.110780 0.475044 0.817563
0.373480 0.426764 0.834195
0.675990 0.507256 0.850828
0.870603 0.600305 0.874632
0.960479 0.657984 0.882658
1.000000 0.723629 0.856321
0.267002 0.671107 0.786648
0.339513 0.671656 0.789303
0.501274 0.675441 0.799649
0.588556 0.648615 0.819242
0.723842 0.652735 0.844083
0.879484 0.711574 0.872770
0.962097 0.753414 0.887358
1.000000 0.796750 0.869871
0.300267 0.772335 0.774685
0.354833 0.773129 0.775051
0.492866 0.777188 0.777340
0.660456 0.780179 0.797360
0.775723 0.774502 0.832792
0.883696 0.797208 0.869108
0.963989 0.835904 0.892943
0.999084 0.866300 0.886809
0.468757 0.858854 0.797330
0.500694 0.858915 0.798489
0.589136 0.859495 0.802701
0.693385 0.861723 0.811185
0.795529 0.867521 0.825101
0.901884 0.882109 0.866819
0.968902 0.908476 0.906035
0.995605 0.925566 0.910094
0.600244 0.944030 0.832547
0.620111 0.943420 0.834257
0.678553 0.941314 0.839414
0.757382 0.939269 0.848966
0.842161 0.938750 0.863676
0.919402 0.943297 0.886442
0.973205 0.956054 0.918517
0.994598 0.963958 0.932677
0.706325 0.982544 0.818265
0.718746 0.982025 0.820951
0.759548 0.980774 0.831235
0.816892 0.978912 0.847623
0.880369 0.977539 0.871336
0.937713 0.978363 0.897276
0.977417 0.982483 0.929961
0.995117 0.987060 0.947601
0.000000 0.388373 0.877043
0.000000 0.372625 0.878813
0.000000 0.309056 0.884581
0.000000 0.252140 0.893309
0.498909 0.303319 0.902983
0.747524 0.426276 0.914549
0.900847 0.551385 0.925322
0.982025 0.632990 0.931609
0.000000 0.419409 0.874846
0.000000 0.405768 0.876646
0.000000 0.352178 0.882658
0.000000 0.293187 0.891966
0.512444 0.349157 0.901610
0.755581 0.466438 0.913268
0.903288 0.575891 0.924895
0.981842 0.649256 0.931518
0.000000 0.520409 0.868406
0.000000 0.511925 0.870176
0.000000 0.480842 0.876127
0.270268 0.432898 0.887633
0.577905 0.490486 0.897520
0.780941 0.572107 0.910674
0.911925 0.649104 0.925322
0.981933 0.703883 0.932952
0.394079 0.675959 0.856901
0.411933 0.672389 0.858854
0.464485 0.658717 0.865232
0.544427 0.637995 0.877195
0.656031 0.631189 0.893034
0.809110 0.680659 0.909300
0.924315 0.738949 0.928008
0.982635 0.777340 0.936675
0.398077 0.770535 0.843137
0.440711 0.771237 0.845426
0.550164 0.773068 0.852873
0.677119 0.778317 0.867430
0.738796 0.759091 0.887266
0.830838 0.769467 0.908812
0.933013 0.819150 0.930846
0.984039 0.852720 0.942931
0.478157 0.848966 0.852659
0.502281 0.849516 0.853330
0.573083 0.851499 0.855802
0.663996 0.855039 0.861082
0.777035 0.859098 0.878721
0.870970 0.864103 0.910094
0.942779 0.890410 0.936919
0.986908 0.919707 0.953674
0.587762 0.921782 0.879454
0.603937 0.921721 0.880369
0.653773 0.921752 0.883635
0.726833 0.922759 0.890227
0.810452 0.926299 0.900725
0.891386 0.934966 0.916167
0.959106 0.948974 0.945617
0.990143 0.963958 0.965637
0.686641 0.991150 0.914244
0.698177 0.990509 0.915160
0.736172 0.988556 0.918669
0.795560 0.985687 0.925353
0.863493 0.982818 0.935088
0.925902 0.981628 0.947845
0.971191 0.983703 0.963195
0.993561 0.988617 0.977874
