其他预设/【232】美食博客调色预设124款/1.3D LUT预设（视频调色-PR-AE-PS-FCPX-达芬奇用）/Yummy #1.cube
# Created by Adobe Lightroom plugin Export LUT (1.17.0)
# www.johnrellis.com/lightroom/exportlut.htm
# Preset: Yummy #1
# Color profile: /Library/Application Support/Adobe/Color/Profiles/Recommended/AdobeRGB1998.icc
LUT_3D_SIZE 32
0.000000 0.000000 0.000000
0.020996 0.014984 0.009033
0.049226 0.034394 0.020752
0.096010 0.069459 0.047974
0.161990 0.091005 0.065766
0.238285 0.107271 0.076631
0.324559 0.118990 0.087800
0.419989 0.125673 0.099001
0.519738 0.126772 0.110933
0.613062 0.124910 0.124819
0.694057 0.126040 0.141817
0.761074 0.135439 0.160342
0.815824 0.152621 0.179507
0.860288 0.178225 0.199741
0.896178 0.207065 0.219242
0.924743 0.235660 0.237003
0.947875 0.263767 0.253544
0.966979 0.291051 0.268772
0.982849 0.317174 0.282933
0.996612 0.342321 0.296483
1.000000 0.366522 0.309422
1.000000 0.389899 0.321965
1.000000 0.412543 0.334325
1.000000 0.434638 0.346624
1.000000 0.455756 0.358648
1.000000 0.476417 0.370825
1.000000 0.495796 0.382605
1.000000 0.514244 0.394324
1.000000 0.531884 0.405890
1.000000 0.548669 0.417334
1.000000 0.564752 0.428717
1.000000 0.580224 0.440101
0.000000 0.074952 0.000000
0.013703 0.079103 0.000000
0.058381 0.066804 0.001282
0.104524 0.082399 0.024475
0.170138 0.105623 0.053132
0.246189 0.121920 0.067872
0.332341 0.132906 0.079805
0.427131 0.139864 0.091798
0.525505 0.140810 0.104646
0.617884 0.139284 0.119600
0.697597 0.139925 0.137362
0.763668 0.147127 0.156954
0.817716 0.162875 0.177157
0.861692 0.185916 0.198001
0.897337 0.212100 0.217533
0.925536 0.239963 0.236027
0.948547 0.266880 0.252537
0.967559 0.293217 0.267826
0.983307 0.318853 0.282231
0.997009 0.343450 0.295720
1.000000 0.367285 0.308690
1.000000 0.390448 0.321355
1.000000 0.412970 0.333776
1.000000 0.435004 0.346136
1.000000 0.456062 0.358282
1.000000 0.476600 0.370428
1.000000 0.495796 0.382208
1.000000 0.514580 0.394110
1.000000 0.532036 0.405646
1.000000 0.548821 0.417151
1.000000 0.564721 0.428412
1.000000 0.580224 0.439826
0.000000 0.109285 0.000000
0.000000 0.113558 0.000000
0.036774 0.118593 0.000000
0.108278 0.120119 0.000000
0.180850 0.126528 0.023133
0.256962 0.141878 0.050721
0.342321 0.151766 0.067353
0.436530 0.158175 0.080842
0.533501 0.159335 0.095033
0.623804 0.157656 0.112337
0.702144 0.156954 0.131502
0.767178 0.162264 0.152193
0.820249 0.175235 0.173800
0.863645 0.195590 0.195315
0.898772 0.219669 0.215549
0.926726 0.244877 0.234073
0.949523 0.270970 0.251011
0.968292 0.296208 0.266575
0.983948 0.321172 0.281163
0.997559 0.345190 0.294774
1.000000 0.368536 0.307897
1.000000 0.391272 0.320562
1.000000 0.413672 0.333104
1.000000 0.435370 0.345464
1.000000 0.456519 0.357671
1.000000 0.476844 0.369879
1.000000 0.496162 0.381811
1.000000 0.514794 0.393652
1.000000 0.532189 0.405249
1.000000 0.548974 0.416815
1.000000 0.564904 0.428138
1.000000 0.580407 0.439612
0.000000 0.180392 0.000000
0.000000 0.185061 0.000000
0.009003 0.190463 0.000000
0.087129 0.200412 0.000000
0.175143 0.210178 0.000000
0.280125 0.185122 0.000000
0.364416 0.191775 0.000031
0.457221 0.195865 0.036408
0.550256 0.195254 0.069276
0.637171 0.192325 0.093050
0.711971 0.189914 0.117189
0.774502 0.191531 0.141848
0.825711 0.200229 0.166018
0.867765 0.215183 0.189364
0.901976 0.234043 0.210575
0.929198 0.256382 0.230137
0.951507 0.279454 0.247868
0.969940 0.302739 0.263859
0.985351 0.325963 0.278691
0.998718 0.348943 0.292729
1.000000 0.371435 0.306004
1.000000 0.393652 0.319005
1.000000 0.415473 0.331670
1.000000 0.436866 0.344182
1.000000 0.457374 0.356420
1.000000 0.477516 0.368719
1.000000 0.496651 0.380713
1.000000 0.515129 0.392706
1.000000 0.532525 0.404395
1.000000 0.549187 0.415961
1.000000 0.565148 0.427436
1.000000 0.580529 0.438880
0.000000 0.259525 0.000000
0.000000 0.263432 0.000000
0.000000 0.268894 0.000000
0.073640 0.277165 0.000000
0.140963 0.287449 0.000000
0.244785 0.303380 0.000000
0.377447 0.277958 0.000000
0.488289 0.251164 0.000000
0.575891 0.246647 0.000000
0.656825 0.240513 0.033417
0.726741 0.234012 0.089509
0.785489 0.231418 0.123537
0.834012 0.234257 0.153079
0.874144 0.242741 0.179202
0.906676 0.255985 0.202640
0.933013 0.272740 0.223514
0.954620 0.292271 0.242466
0.972503 0.312566 0.259342
0.987488 0.333654 0.274937
1.000000 0.354742 0.289433
1.000000 0.375952 0.303136
1.000000 0.397101 0.316381
1.000000 0.418036 0.329320
1.000000 0.438758 0.342046
1.000000 0.458961 0.354498
1.000000 0.478737 0.366949
1.000000 0.497688 0.379187
1.000000 0.515801 0.391180
1.000000 0.533104 0.403052
1.000000 0.549737 0.414771
1.000000 0.565545 0.426307
1.000000 0.580987 0.437903
0.000000 0.331304 0.000000
0.000000 0.335027 0.000000
0.000000 0.339818 0.000000
0.010651 0.350164 0.000000
0.130251 0.358251 0.000000
0.201266 0.368505 0.000000
0.317205 0.391394 0.000000
0.463661 0.379461 0.000000
0.607996 0.309667 0.000000
0.681331 0.297246 0.000000
0.745357 0.285893 0.000000
0.799466 0.277684 0.092317
0.844541 0.274205 0.132845
0.882261 0.275853 0.164614
0.912993 0.282628 0.190982
0.938048 0.294255 0.214572
0.958709 0.309087 0.235111
0.975891 0.325689 0.253117
0.990295 0.343877 0.269627
1.000000 0.362615 0.284794
1.000000 0.382177 0.299107
1.000000 0.402014 0.312993
1.000000 0.421759 0.326177
1.000000 0.441505 0.339147
1.000000 0.461036 0.351873
1.000000 0.480262 0.364569
1.000000 0.498848 0.376928
1.000000 0.516869 0.389227
1.000000 0.533898 0.401160
1.000000 0.550347 0.413092
1.000000 0.566155 0.424811
1.000000 0.581506 0.436561
0.000000 0.399542 0.000000
0.000000 0.402838 0.000000
0.000000 0.407263 0.000000
0.000000 0.416754 0.000000
0.112551 0.427649 0.000000
0.193271 0.436133 0.000000
0.267704 0.446265 0.000000
0.392065 0.474403 0.000000
0.542901 0.467323 0.000000
0.676875 0.411627 0.000000
0.766720 0.343114 0.000000
0.815854 0.328313 0.000000
0.857145 0.318486 0.100191
0.891875 0.313512 0.142763
0.920623 0.313970 0.175235
0.944213 0.319768 0.201999
0.963745 0.329351 0.224949
0.980102 0.341680 0.244907
0.993866 0.356481 0.262638
1.000000 0.372656 0.278874
1.000000 0.390021 0.293980
1.000000 0.407965 0.308324
1.000000 0.426398 0.322057
1.000000 0.445045 0.335393
1.000000 0.463661 0.348425
1.000000 0.482277 0.361395
1.000000 0.500572 0.374151
1.000000 0.518212 0.386694
1.000000 0.535058 0.398932
1.000000 0.551385 0.411078
1.000000 0.566918 0.422889
1.000000 0.582330 0.434974
0.000000 0.465858 0.000000
0.000000 0.468879 0.000000
0.000000 0.472969 0.000000
0.000000 0.481636 0.000000
0.087251 0.494911 0.000000
0.183932 0.503532 0.000000
0.262638 0.512352 0.000000
0.340063 0.522423 0.000000
0.467933 0.551110 0.000000
0.613611 0.542596 0.000000
0.732784 0.491707 0.000000
0.824247 0.405432 0.000000
0.870939 0.365576 0.000000
0.902770 0.354345 0.109133
0.929381 0.348882 0.153109
0.951354 0.348333 0.185336
0.969696 0.352636 0.211826
0.985046 0.360632 0.234226
0.998077 0.371496 0.253574
1.000000 0.384833 0.271397
1.000000 0.399786 0.287663
1.000000 0.415656 0.302739
1.000000 0.432288 0.316991
1.000000 0.449683 0.330907
1.000000 0.467201 0.344335
1.000000 0.485176 0.357702
1.000000 0.502708 0.370733
1.000000 0.519738 0.383490
1.000000 0.536431 0.396063
1.000000 0.552422 0.408392
1.000000 0.568078 0.420691
1.000000 0.583459 0.433051
0.000000 0.532158 0.000000
0.000000 0.534844 0.000000
0.000000 0.538628 0.000000
0.000000 0.546410 0.000000
0.038239 0.558740 0.000000
0.175113 0.571252 0.000000
0.258579 0.579126 0.000000
0.337682 0.587762 0.000000
0.417823 0.596612 0.000000
0.539239 0.619135 0.000000
0.673121 0.605463 0.000000
0.777829 0.556023 0.000000
0.857145 0.482673 0.000000
0.914885 0.398077 0.014343
0.939117 0.386511 0.120272
0.959411 0.380316 0.162875
0.976349 0.379248 0.194949
0.990723 0.382391 0.220645
1.000000 0.389380 0.242893
1.000000 0.399145 0.262211
1.000000 0.411017 0.279606
1.000000 0.424537 0.295720
1.000000 0.439429 0.310979
1.000000 0.455146 0.325383
1.000000 0.471595 0.339422
1.000000 0.488502 0.353216
1.000000 0.505333 0.366705
1.000000 0.521965 0.379828
1.000000 0.538079 0.392706
1.000000 0.553948 0.405463
1.000000 0.569512 0.418097
1.000000 0.584833 0.430762
0.000000 0.598199 0.000000
0.000000 0.600580 0.000000
0.000000 0.603815 0.000000
0.000000 0.610803 0.000000
0.000000 0.621241 0.000000
0.164920 0.634577 0.000000
0.254063 0.642756 0.000000
0.334112 0.649348 0.000000
0.413001 0.656153 0.000000
0.493050 0.662623 0.000000
0.603326 0.676295 0.000000
0.723079 0.656367 0.000000
0.814847 0.608484 0.000000
0.884428 0.542840 0.000000
0.937530 0.464027 0.051667
0.968170 0.414557 0.130922
0.983795 0.408118 0.172122
0.996918 0.406653 0.203586
1.000000 0.409461 0.229191
1.000000 0.415503 0.251011
1.000000 0.424323 0.270146
1.000000 0.435340 0.287633
1.000000 0.447883 0.303655
1.000000 0.461921 0.318975
1.000000 0.476844 0.333654
1.000000 0.492592 0.347967
1.000000 0.508476 0.361883
1.000000 0.524498 0.375463
1.000000 0.540368 0.388891
1.000000 0.555810 0.401984
1.000000 0.571130 0.414954
1.000000 0.586450 0.428107
0.000000 0.659815 0.000000
0.000000 0.661830 0.000000
0.000000 0.664607 0.000000
0.000000 0.670222 0.000000
0.000000 0.678737 0.000000
0.151400 0.689723 0.000000
0.247837 0.700649 0.000000
0.327916 0.705440 0.000000
0.405859 0.710292 0.000000
0.483955 0.715023 0.000000
0.563104 0.719203 0.000000
0.659205 0.723751 0.000000
0.765286 0.698909 0.000000
0.845823 0.651881 0.000000
0.906523 0.591791 0.000000
0.953094 0.523491 0.074464
0.989471 0.447639 0.141421
1.000000 0.433387 0.181918
1.000000 0.431739 0.212345
1.000000 0.433936 0.237339
1.000000 0.439551 0.258854
1.000000 0.447608 0.277897
1.000000 0.457954 0.295384
1.000000 0.469886 0.311589
1.000000 0.483253 0.327092
1.000000 0.497597 0.342016
1.000000 0.512566 0.356542
1.000000 0.527886 0.370733
1.000000 0.543114 0.384497
1.000000 0.558190 0.398047
1.000000 0.573327 0.411597
1.000000 0.588708 0.425330
0.000000 0.715389 0.000000
0.000000 0.716976 0.000000
0.000000 0.719112 0.000000
0.000000 0.723537 0.000000
0.000000 0.730373 0.000000
0.136141 0.738918 0.000000
0.237461 0.748989 0.000000
0.319677 0.754849 0.000000
0.396033 0.758022 0.000000
0.471534 0.761105 0.000000
0.547570 0.763577 0.000000
0.624750 0.765408 0.000000
0.707637 0.763058 0.000000
0.801114 0.734310 0.000000
0.871061 0.688106 0.000000
0.924407 0.632319 0.000000
0.965820 0.571160 0.092409
0.998322 0.506371 0.152407
1.000000 0.456184 0.191226
1.000000 0.454597 0.220859
1.000000 0.456580 0.245457
1.000000 0.461921 0.266789
1.000000 0.469490 0.285649
1.000000 0.479347 0.303166
1.000000 0.490791 0.319585
1.000000 0.503593 0.335271
1.000000 0.517479 0.350500
1.000000 0.531823 0.365240
1.000000 0.546441 0.379644
1.000000 0.561151 0.393805
1.000000 0.576257 0.407996
1.000000 0.591180 0.422034
0.000000 0.763760 0.000000
0.000000 0.765011 0.000000
0.000000 0.766659 0.000000
0.000000 0.770047 0.000000
0.000000 0.775235 0.000000
0.117922 0.781765 0.000000
0.224277 0.789395 0.000000
0.308690 0.797238 0.000000
0.383520 0.799161 0.000000
0.456519 0.800961 0.000000
0.529534 0.802274 0.000000
0.603326 0.802914 0.000000
0.678157 0.802762 0.000000
0.749050 0.795590 0.000000
0.830533 0.763546 0.000000
0.891844 0.718593 0.000000
0.939300 0.666529 0.000000
0.976349 0.611048 0.108339
1.000000 0.553796 0.163424
1.000000 0.495399 0.200565
1.000000 0.475654 0.229465
1.000000 0.477638 0.253513
1.000000 0.482704 0.274632
1.000000 0.490150 0.293614
1.000000 0.499519 0.311070
1.000000 0.510582 0.327611
1.000000 0.523095 0.343633
1.000000 0.536645 0.359319
1.000000 0.550469 0.374334
1.000000 0.564904 0.389197
1.000000 0.579400 0.403845
1.000000 0.593896 0.418341
0.000000 0.805112 0.000000
0.000000 0.806027 0.000000
0.000000 0.807248 0.000000
0.000000 0.809842 0.000000
0.000000 0.813687 0.000000
0.097139 0.818631 0.000000
0.210544 0.824430 0.000000
0.294224 0.830716 0.000000
0.369543 0.834440 0.000000
0.440223 0.835264 0.000000
0.510307 0.835599 0.000000
0.580591 0.835477 0.000000
0.651484 0.834531 0.000000
0.723507 0.832761 0.000000
0.783017 0.821897 0.000000
0.854978 0.788174 0.000000
0.909422 0.744472 0.000000
0.951751 0.695979 0.000000
0.985473 0.645014 0.124636
1.000000 0.593561 0.174258
1.000000 0.542107 0.210086
1.000000 0.495369 0.238315
1.000000 0.497597 0.262028
1.000000 0.502434 0.282780
1.000000 0.509728 0.301671
1.000000 0.519036 0.319432
1.000000 0.529900 0.336217
1.000000 0.542229 0.352636
1.000000 0.555444 0.368597
1.000000 0.569177 0.384161
1.000000 0.583703 0.399817
1.000000 0.597284 0.414435
0.000000 0.839872 0.000000
0.000000 0.840482 0.000000
0.000000 0.841367 0.000000
0.000000 0.843320 0.000000
0.000000 0.846189 0.000000
0.070802 0.849882 0.000000
0.195773 0.854154 0.000000
0.278843 0.858793 0.000000
0.353918 0.863645 0.000000
0.422705 0.864073 0.000000
0.489693 0.863767 0.000000
0.556725 0.862974 0.000000
0.624048 0.861540 0.000000
0.692164 0.859403 0.000000
0.761257 0.856321 0.000000
0.814054 0.843015 0.000000
0.875731 0.809140 0.000000
0.924346 0.767056 0.000000
0.962799 0.721523 0.040345
0.993957 0.674617 0.139162
1.000000 0.627680 0.185458
1.000000 0.581476 0.219547
1.000000 0.536645 0.247074
1.000000 0.516228 0.270603
1.000000 0.521324 0.291295
1.000000 0.528588 0.310277
1.000000 0.537865 0.328191
1.000000 0.549035 0.345586
1.000000 0.561212 0.362402
1.000000 0.574395 0.378851
1.000000 0.588281 0.395209
1.000000 0.601343 0.410285
0.000000 0.868559 0.000000
0.000000 0.869047 0.000000
0.000000 0.869718 0.000000
0.000000 0.871092 0.000000
0.000000 0.873198 0.000000
0.008301 0.875944 0.000000
0.180606 0.879057 0.000000
0.262943 0.882536 0.000000
0.336187 0.886046 0.000000
0.404364 0.888273 0.000000
0.468971 0.887449 0.000000
0.532982 0.886290 0.000000
0.596857 0.884550 0.000000
0.661524 0.882231 0.000000
0.726680 0.879149 0.000000
0.792752 0.875242 0.000000
0.840543 0.860533 0.000000
0.893523 0.827390 0.000000
0.937713 0.786893 0.000000
0.973205 0.744137 0.082460
1.000000 0.700618 0.153201
1.000000 0.657527 0.196750
1.000000 0.615595 0.229618
1.000000 0.575372 0.256535
1.000000 0.537469 0.279606
1.000000 0.539666 0.300420
1.000000 0.547112 0.319524
1.000000 0.556695 0.337896
1.000000 0.568231 0.355993
1.000000 0.580621 0.373419
1.000000 0.593622 0.390326
1.000000 0.606195 0.406104
0.000000 0.892454 0.000000
0.000000 0.892821 0.000000
0.000000 0.893278 0.000000
0.000000 0.894316 0.000000
0.000000 0.895903 0.000000
0.000000 0.897826 0.000000
0.165316 0.900145 0.000000
0.247929 0.902647 0.000000
0.318883 0.905241 0.000000
0.385809 0.907774 0.000000
0.448646 0.907561 0.000000
0.509789 0.906157 0.000000
0.570825 0.904326 0.000000
0.632074 0.901915 0.000000
0.693904 0.898924 0.000000
0.756191 0.895201 0.000000
0.819425 0.890684 0.000000
0.863462 0.875364 0.000000
0.909636 0.843503 0.000000
0.950195 0.804868 0.000000
0.982971 0.764492 0.106355
1.000000 0.723842 0.167147
1.000000 0.683986 0.207950
1.000000 0.645686 0.239933
1.000000 0.609308 0.266484
1.000000 0.575616 0.289677
1.000000 0.557824 0.310430
1.000000 0.565942 0.330022
1.000000 0.576257 0.349279
1.000000 0.588190 0.368078
1.000000 0.599664 0.385107
1.000000 0.611810 0.401801
0.000000 0.912535 0.000000
0.000000 0.912779 0.000000
0.000000 0.913146 0.000000
0.000000 0.913909 0.000000
0.000000 0.915038 0.000000
0.000000 0.916472 0.000000
0.151003 0.918151 0.000000
0.233524 0.919982 0.000000
0.302800 0.921874 0.000000
0.367407 0.923705 0.000000
0.429358 0.924956 0.000000
0.488075 0.923461 0.000000
0.546380 0.921569 0.000000
0.604852 0.919249 0.000000
0.663539 0.916411 0.000000
0.722683 0.912963 0.000000
0.782620 0.908904 0.000000
0.843259 0.904082 0.000000
0.884398 0.888609 0.000000
0.924743 0.858152 0.000000
0.962036 0.821134 0.000000
0.992279 0.782895 0.126711
1.000000 0.744747 0.181216
1.000000 0.707851 0.219944
1.000000 0.672602 0.251133
1.000000 0.639796 0.277592
1.000000 0.609705 0.300877
1.000000 0.583032 0.322057
1.000000 0.585443 0.342382
1.000000 0.596002 0.361913
1.000000 0.606744 0.379950
1.000000 0.618280 0.397498
0.000000 0.930144 0.000000
0.000000 0.930327 0.000000
0.000000 0.930571 0.000000
0.000000 0.931151 0.000000
0.000000 0.931945 0.000000
0.000000 0.933013 0.000000
0.137301 0.934264 0.000000
0.220432 0.935576 0.000000
0.288182 0.936980 0.000000
0.350225 0.938323 0.000000
0.410498 0.939513 0.000000
0.468025 0.939055 0.000000
0.524010 0.937194 0.000000
0.579767 0.934966 0.000000
0.635798 0.932280 0.000000
0.692226 0.929107 0.000000
0.749172 0.925383 0.000000
0.806699 0.921019 0.000000
0.865049 0.915953 0.000000
0.903807 0.900572 0.000000
0.939025 0.871550 0.000000
0.973297 0.835966 0.036988
1.000000 0.799680 0.145754
1.000000 0.763912 0.195560
1.000000 0.729549 0.232792
1.000000 0.697139 0.263218
1.000000 0.667323 0.289738
1.000000 0.640772 0.313664
1.000000 0.618006 0.335912
1.000000 0.604974 0.355779
1.000000 0.614893 0.374792
1.000000 0.625757 0.393317
0.000000 0.945953 0.000000
0.000000 0.946075 0.000000
0.000000 0.946288 0.000000
0.000000 0.946685 0.000000
0.000000 0.947265 0.000000
0.000000 0.948028 0.000000
0.124727 0.948913 0.000000
0.208377 0.949859 0.000000
0.274571 0.950835 0.000000
0.334997 0.951751 0.000000
0.392920 0.952575 0.000000
0.449805 0.953185 0.000000
0.503532 0.951446 0.000000
0.557000 0.949310 0.000000
0.610651 0.946777 0.000000
0.664515 0.943786 0.000000
0.718746 0.940368 0.000000
0.773556 0.936400 0.000000
0.829007 0.931823 0.000000
0.885191 0.926604 0.000000
0.921965 0.911467 0.000000
0.952544 0.883970 0.000000
0.984070 0.849699 0.090394
1.000000 0.815274 0.164431
1.000000 0.781643 0.210636
1.000000 0.749630 0.246616
1.000000 0.719936 0.276921
1.000000 0.693233 0.304051
1.000000 0.669551 0.328283
1.000000 0.648859 0.350042
1.000000 0.631312 0.369970
1.000000 0.634241 0.389288
0.000000 0.960266 0.000000
0.000000 0.960388 0.000000
0.000000 0.960510 0.000000
0.000000 0.960784 0.000000
0.000000 0.961212 0.000000
0.000000 0.961730 0.000000
0.112703 0.962341 0.000000
0.197238 0.963012 0.000000
0.262425 0.963653 0.000000
0.321111 0.964233 0.000000
0.376989 0.964752 0.000000
0.431739 0.965057 0.000000
0.484840 0.964477 0.000000
0.536217 0.962432 0.000000
0.587610 0.960052 0.000000
0.639155 0.957275 0.000000
0.691096 0.954070 0.000000
0.743404 0.950439 0.000000
0.796262 0.946288 0.000000
0.849699 0.941558 0.000000
0.903746 0.936248 0.000000
0.938994 0.921508 0.000000
0.965515 0.895384 0.000000
0.994476 0.862425 0.120607
1.000000 0.829679 0.183139
1.000000 0.798154 0.226810
1.000000 0.768521 0.262211
1.000000 0.741482 0.292699
1.000000 0.716915 0.319188
1.000000 0.695460 0.343175
1.000000 0.677211 0.365362
1.000000 0.662654 0.385840
0.000000 0.973358 0.000000
0.000000 0.973419 0.000000
0.000000 0.973510 0.000000
0.000000 0.973724 0.000000
0.000000 0.973999 0.000000
0.000000 0.974334 0.000000
0.102480 0.974731 0.000000
0.187930 0.975158 0.000000
0.251682 0.975555 0.000000
0.308690 0.975891 0.000000
0.362707 0.976135 0.000000
0.415595 0.976196 0.000000
0.467628 0.976104 0.000000
0.517449 0.974517 0.000000
0.566735 0.972229 0.000000
0.616236 0.969665 0.000000
0.665888 0.966705 0.000000
0.715999 0.963317 0.000000
0.766476 0.959533 0.000000
0.817502 0.955261 0.000000
0.869078 0.950439 0.000000
0.921233 0.945068 0.000000
0.955138 0.930846 0.000000
0.977966 0.906157 0.000000
1.000000 0.874418 0.147158
1.000000 0.843381 0.202823
1.000000 0.813840 0.244816
1.000000 0.786160 0.278721
1.000000 0.761105 0.308598
1.000000 0.738918 0.335332
1.000000 0.720058 0.359533
1.000000 0.704982 0.381628
0.000000 0.985351 0.000000
0.000000 0.985412 0.000000
0.000000 0.985473 0.000000
0.000000 0.985565 0.000000
0.000000 0.985748 0.000000
0.000000 0.985962 0.000000
0.094606 0.986206 0.000000
0.179812 0.986450 0.000000
0.242435 0.986633 0.000000
0.297765 0.986755 0.000000
0.350256 0.986786 0.000000
0.401038 0.986664 0.000000
0.451026 0.986358 0.000000
0.500664 0.985657 0.000000
0.547936 0.983551 0.000000
0.595422 0.981109 0.000000
0.643091 0.978332 0.000000
0.691066 0.975250 0.000000
0.739467 0.971740 0.000000
0.788266 0.967834 0.000000
0.837552 0.963470 0.000000
0.887419 0.958587 0.000000
0.937774 0.953216 0.000000
0.970550 0.939544 0.000000
0.990051 0.916258 0.090730
1.000000 0.885863 0.172763
1.000000 0.856199 0.222904
1.000000 0.828244 0.262364
1.000000 0.802670 0.296056
1.000000 0.779965 0.325780
1.000000 0.760464 0.352270
1.000000 0.744961 0.376287
0.000000 0.996490 0.000000
0.000000 0.996490 0.000000
0.000000 0.996521 0.000000
0.000000 0.996582 0.000000
0.000000 0.996674 0.000000
0.000000 0.996796 0.000000
0.089204 0.996887 0.000000
0.173709 0.996948 0.000000
0.234836 0.996979 0.000000
0.288609 0.996948 0.000000
0.339269 0.996796 0.000000
0.388251 0.996551 0.000000
0.436591 0.996094 0.000000
0.484565 0.995453 0.000000
0.531151 0.993988 0.000000
0.576776 0.991699 0.000000
0.622583 0.989136 0.000000
0.668696 0.986236 0.000000
0.715023 0.983032 0.000000
0.761807 0.979431 0.000000
0.809018 0.975433 0.000000
0.856687 0.971038 0.000000
0.904814 0.966155 0.000000
0.953552 0.960815 0.000000
0.985260 0.947753 0.071046
1.000000 0.925780 0.129793
1.000000 0.896300 0.195895
1.000000 0.868193 0.242863
1.000000 0.842191 0.281193
1.000000 0.818936 0.314336
1.000000 0.798917 0.343572
1.000000 0.782834 0.369787
0.000000 1.000000 0.000000
0.000000 1.000000 0.000000
0.000000 1.000000 0.000000
0.000000 1.000000 0.000000
0.000000 1.000000 0.000000
0.000000 1.000000 0.000000
0.089265 1.000000 0.000000
0.170108 1.000000 0.000000
0.229099 1.000000 0.000000
0.281132 1.000000 0.000000
0.329961 1.000000 0.000000
0.377539 1.000000 0.000000
0.424018 1.000000 0.000000
0.470161 1.000000 0.000000
0.516228 1.000000 0.000000
0.560327 1.000000 0.000000
0.604364 0.999145 0.000000
0.648615 0.996490 0.000000
0.693172 0.993500 0.000000
0.738064 0.990204 0.000000
0.783322 0.986542 0.000000
0.829038 0.982513 0.043854
0.874998 0.978027 0.069947
0.921233 0.973083 0.085542
0.967956 0.967651 0.099580
0.998657 0.955138 0.124483
1.000000 0.934508 0.160861
1.000000 0.906310 0.219150
1.000000 0.879973 0.263615
1.000000 0.856138 0.300999
1.000000 0.835569 0.333532
1.000000 0.818814 0.362066
0.000000 1.000000 0.000000
0.000000 1.000000 0.000000
0.000000 1.000000 0.000000
0.000000 1.000000 0.000000
0.000000 1.000000 0.000000
0.000000 1.000000 0.000000
0.093935 1.000000 0.000000
0.169162 1.000000 0.000000
0.225711 1.000000 0.000000
0.275517 1.000000 0.000000
0.322789 1.000000 0.000000
0.368505 1.000000 0.000000
0.413428 1.000000 0.000000
0.458045 1.000000 0.000000
0.502373 1.000000 0.000000
0.546227 1.000000 0.000000
0.588556 1.000000 0.006439
0.631067 1.000000 0.042603
0.673915 1.000000 0.066957
0.716945 1.000000 0.080995
0.760189 0.996735 0.092866
0.803769 0.992920 0.104219
0.847654 0.988769 0.114778
0.891875 0.984222 0.125185
0.936400 0.979278 0.135409
0.981353 0.973877 0.145785
1.000000 0.962005 0.163912
1.000000 0.942962 0.189731
1.000000 0.916106 0.242802
1.000000 0.891722 0.285618
1.000000 0.870390 0.321630
1.000000 0.853056 0.353063
0.000000 1.000000 0.000000
0.000000 1.000000 0.000000
0.000000 1.000000 0.000000
0.000000 1.000000 0.000000
0.000000 1.000000 0.000000
0.000000 1.000000 0.000000
0.104250 1.000000 0.000000
0.171939 1.000000 0.000000
0.225162 1.000000 0.000000
0.272801 1.000000 0.000000
0.317998 1.000000 0.000000
0.361944 1.000000 0.000000
0.405188 1.000000 0.000000
0.448127 1.000000 0.000000
0.490974 1.000000 0.056275
0.533684 1.000000 0.083619
0.575128 1.000000 0.097047
0.615686 1.000000 0.105409
0.656641 1.000000 0.113893
0.697810 1.000000 0.122072
0.739193 1.000000 0.130526
0.780972 1.000000 0.139132
0.822995 0.998596 0.147616
0.865293 0.994385 0.156222
0.907958 0.989837 0.165469
0.950896 0.984894 0.174716
0.994171 0.979553 0.184085
1.000000 0.968292 0.199405
1.000000 0.950622 0.219272
1.000000 0.925658 0.267582
1.000000 0.903685 0.308415
1.000000 0.885557 0.343023
0.000000 1.000000 0.000000
0.000000 1.000000 0.000000
0.000000 1.000000 0.000000
0.000000 1.000000 0.000000
0.000000 1.000000 0.000000
0.000000 1.000000 0.000000
0.120455 1.000000 0.000000
0.178805 1.000000 0.000000
0.227787 1.000000 0.000000
0.273106 1.000000 0.000000
0.316014 1.000000 0.000000
0.357916 1.000000 0.036805
0.399268 1.000000 0.069734
0.440406 1.000000 0.088106
0.481331 1.000000 0.104402
0.522332 1.000000 0.119509
