其他预设/【232】美食博客调色预设124款/1.3D LUT预设（视频调色-PR-AE-PS-FCPX-达芬奇用）/Yummy #12.cube
# Created by Adobe Lightroom plugin Export LUT (1.17.0)
# www.johnrellis.com/lightroom/exportlut.htm
# Preset: Yummy #12
# Color profile: /Library/Application Support/Adobe/Color/Profiles/Recommended/AdobeRGB1998.icc
LUT_3D_SIZE 8
DOMAIN_MIN 0.000000 0.000000 0.000000
DOMAIN_MAX 0.903226 0.903226 0.903226
0.063355 0.119814 0.145022
0.164096 0.138399 0.158267
0.344518 0.163607 0.166903
0.583551 0.187320 0.184360
0.797604 0.202152 0.215030
0.931029 0.226169 0.255741
1.000000 0.260929 0.300328
1.000000 0.303563 0.345403
0.032166 0.224949 0.161471
0.156832 0.229496 0.163729
0.338964 0.248905 0.170687
0.578729 0.271855 0.190097
0.794064 0.278202 0.219852
0.928771 0.284062 0.259312
1.000000 0.301976 0.303258
1.000000 0.332006 0.347662
0.000000 0.404425 0.182773
0.141085 0.405707 0.185214
0.325994 0.408453 0.192569
0.563287 0.434699 0.207523
0.782559 0.435004 0.233188
0.920348 0.418769 0.269932
1.000000 0.408850 0.311925
1.000000 0.413367 0.354589
0.000000 0.609522 0.220371
0.128573 0.609674 0.221378
0.347143 0.608972 0.225101
0.555871 0.604608 0.230228
0.766232 0.598718 0.249302
0.907042 0.568933 0.284642
0.993164 0.539117 0.324926
1.000000 0.521874 0.365545
0.000000 0.778653 0.261509
0.129641 0.777737 0.262211
0.347143 0.773831 0.264469
0.547906 0.765133 0.268009
0.742061 0.751369 0.273045
0.891356 0.717983 0.299657
0.980774 0.673487 0.339239
1.000000 0.639673 0.378454
0.066743 0.886687 0.311894
0.177768 0.885527 0.312352
0.344640 0.881407 0.314000
0.518822 0.873411 0.316655
0.692378 0.861326 0.320714
0.855589 0.846372 0.325933
0.966918 0.806607 0.352605
1.000000 0.759396 0.391485
0.221225 0.957244 0.363012
0.262119 0.956298 0.363317
0.370520 0.952941 0.364660
0.507225 0.946593 0.366796
0.652766 0.937163 0.370001
0.796078 0.925353 0.374395
0.928832 0.912718 0.380438
1.000000 0.878599 0.404364
0.351202 1.000000 0.410315
0.372076 1.000000 0.410620
0.437446 1.000000 0.411627
0.534173 0.998474 0.413550
0.647425 0.991638 0.416724
0.765133 0.982940 0.420905
0.880003 0.973388 0.426856
0.986206 0.964324 0.435340
0.000000 0.131044 0.257633
0.144900 0.139559 0.259190
0.322698 0.175418 0.270665
0.560479 0.203769 0.290990
0.783871 0.219394 0.306554
0.923247 0.248844 0.328832
1.000000 0.287877 0.357092
1.000000 0.332280 0.388281
0.000000 0.220371 0.256596
0.139956 0.230014 0.261967
0.315587 0.253910 0.276066
0.557794 0.276890 0.291447
0.781277 0.286595 0.307286
0.921263 0.299840 0.329931
1.000000 0.323735 0.358373
1.000000 0.357244 0.389563
0.000000 0.397253 0.274998
0.134005 0.395087 0.279698
0.311681 0.400183 0.281590
0.549310 0.430121 0.293309
0.772915 0.435370 0.309636
0.914031 0.425299 0.333532
0.998566 0.421729 0.362249
1.000000 0.431159 0.393225
0.000000 0.602808 0.293278
0.118441 0.601801 0.297734
0.339971 0.602167 0.298589
0.548241 0.599359 0.299504
0.760037 0.596368 0.313207
0.902403 0.570764 0.338598
0.989563 0.545830 0.368353
1.000000 0.533379 0.399329
0.000000 0.774197 0.320165
0.133486 0.773373 0.320439
0.346990 0.769741 0.321294
0.546075 0.761685 0.322301
0.738949 0.748745 0.323919
0.887907 0.717159 0.344182
0.977935 0.676387 0.375433
1.000000 0.646662 0.406806
0.121309 0.883909 0.353399
0.201450 0.882841 0.353704
0.355291 0.878874 0.354437
0.524071 0.871092 0.355657
0.694026 0.859403 0.357702
0.854765 0.844968 0.360418
0.964843 0.806821 0.382269
1.000000 0.763088 0.414801
0.259159 0.955016 0.391211
0.294072 0.954131 0.391424
0.391547 0.950835 0.392126
0.520500 0.944610 0.393378
0.660609 0.935454 0.395392
0.799771 0.924102 0.398352
0.929351 0.912016 0.402747
1.000000 0.879484 0.423743
0.386908 1.000000 0.429145
0.405249 1.000000 0.429297
0.464454 1.000000 0.430121
0.554223 0.996429 0.431556
0.661128 0.989807 0.433936
0.773739 0.981506 0.437507
0.884428 0.972442 0.442634
0.987213 0.963989 0.450446
0.000000 0.139864 0.416388
0.107576 0.149477 0.417395
0.310552 0.181704 0.417639
0.552636 0.197879 0.434211
0.769284 0.225864 0.436164
0.907103 0.308904 0.447761
0.992493 0.368444 0.458747
1.000000 0.422126 0.471595
0.000000 0.230655 0.402319
0.109926 0.238743 0.405585
0.305943 0.256046 0.413947
0.547204 0.270420 0.430243
0.764920 0.294072 0.435737
0.905455 0.347662 0.447456
0.991302 0.393530 0.458442
1.000000 0.439399 0.471565
0.000000 0.383886 0.405890
0.100282 0.388952 0.407904
0.315435 0.409613 0.418494
0.540581 0.425025 0.424750
0.757443 0.438758 0.434577
0.899901 0.450874 0.445045
0.986908 0.468788 0.457374
1.000000 0.494545 0.471412
0.000000 0.597345 0.426154
0.081819 0.595361 0.423926
0.331823 0.594507 0.421881
0.540429 0.592035 0.419989
0.748470 0.592309 0.428473
0.890776 0.580865 0.441169
0.979553 0.573358 0.455482
1.000000 0.577173 0.471229
0.000000 0.769162 0.423651
0.145785 0.766445 0.424231
0.362341 0.760067 0.428443
0.549493 0.752926 0.426947
0.734035 0.741665 0.424933
0.879454 0.717006 0.435950
0.970062 0.689906 0.453223
1.000000 0.674434 0.471260
0.190555 0.878630 0.428626
0.268070 0.875792 0.433539
0.407538 0.870176 0.439521
0.552331 0.863249 0.438849
0.706142 0.853117 0.437964
0.854887 0.840696 0.437263
0.959442 0.809201 0.450721
1.000000 0.777707 0.471931
0.355047 0.948272 0.450294
0.397772 0.945953 0.455573
0.470222 0.942748 0.456275
0.573297 0.937255 0.456275
0.692622 0.929290 0.456489
0.815457 0.919585 0.457252
0.932250 0.909545 0.459052
1.000000 0.882658 0.474922
0.494636 0.996063 0.480110
0.503868 0.995789 0.479011
0.547753 0.993530 0.479469
0.618158 0.989502 0.480385
0.706142 0.983825 0.482094
0.802090 0.976867 0.484901
0.898833 0.969451 0.489570
0.990265 0.962799 0.497383
0.000000 0.159518 0.530663
0.151766 0.168917 0.530785
0.356268 0.192050 0.533074
0.561334 0.202243 0.529808
0.771603 0.231540 0.525628
0.904540 0.323033 0.517082
0.983581 0.441321 0.523278
1.000000 0.550225 0.544732
0.000000 0.246494 0.521019
0.142977 0.251347 0.522301
0.347601 0.265904 0.526970
0.556970 0.271702 0.526635
0.767483 0.297917 0.523522
0.900969 0.373938 0.518029
0.980621 0.476234 0.526726
1.000000 0.561028 0.544884
0.000000 0.393622 0.509361
0.105379 0.393072 0.508537
0.329137 0.408423 0.515435
0.555444 0.424750 0.520104
0.757229 0.451881 0.519463
0.889830 0.503990 0.523461
0.973358 0.555932 0.533410
1.000000 0.591974 0.542931
0.000000 0.575402 0.509606
0.122866 0.577508 0.509667
0.345373 0.588891 0.511772
0.571008 0.602686 0.515526
0.749386 0.605219 0.516258
0.881437 0.615259 0.521904
0.968109 0.629389 0.530449
1.000000 0.648096 0.541924
0.086183 0.762631 0.505547
0.204715 0.760342 0.505211
0.398016 0.753506 0.506310
0.586328 0.745480 0.511101
0.741909 0.737057 0.508110
0.873716 0.725795 0.515007
0.961212 0.718746 0.526696
1.000000 0.720027 0.541314
0.254520 0.873381 0.493141
0.316381 0.870603 0.495460
0.470100 0.861631 0.505333
0.615290 0.851957 0.514763
0.736629 0.844480 0.513390
0.860349 0.835782 0.512108
0.953704 0.816312 0.523430
1.000000 0.801724 0.542382
0.399237 0.944182 0.496498
0.440650 0.941619 0.501152
0.554253 0.933135 0.517723
0.652735 0.925994 0.527214
0.742916 0.920104 0.527367
0.840604 0.913207 0.528222
0.937285 0.906432 0.530388
1.000000 0.888640 0.547387
0.532647 0.992432 0.518303
0.560937 0.990234 0.524559
0.643091 0.983124 0.546075
0.700343 0.979278 0.551141
0.765988 0.975158 0.553368
0.840269 0.970275 0.556817
0.917876 0.965362 0.562585
0.993194 0.961395 0.571954
0.145113 0.187381 0.615106
0.221836 0.193362 0.615259
0.387427 0.209445 0.617060
0.588403 0.231296 0.621393
0.775021 0.241917 0.610712
0.904173 0.332799 0.587823
0.981750 0.448524 0.577813
1.000000 0.555261 0.588006
0.140322 0.261509 0.606897
0.217319 0.265141 0.607568
0.382574 0.276432 0.610712
0.585779 0.296757 0.617334
0.771603 0.304997 0.607752
0.900938 0.381659 0.587457
0.978943 0.482094 0.580438
1.000000 0.577935 0.592584
0.106294 0.399847 0.589258
0.196719 0.403235 0.590356
0.370642 0.415991 0.595239
0.578332 0.441505 0.604089
0.763394 0.455055 0.599756
0.890990 0.507866 0.588586
0.970184 0.574517 0.590478
1.000000 0.644038 0.608637
0.102388 0.561303 0.582208
0.193118 0.561242 0.581323
0.362676 0.563684 0.579370
0.580713 0.594324 0.588190
0.759396 0.615351 0.593439
0.879423 0.642634 0.595026
0.958282 0.681544 0.609003
1.000000 0.721706 0.631983
0.173739 0.737392 0.582696
0.247776 0.737240 0.582330
0.419745 0.737057 0.582208
0.613062 0.740505 0.587091
0.765652 0.744106 0.593805
0.873564 0.743160 0.598413
0.952972 0.751675 0.610773
1.000000 0.765652 0.627588
0.328557 0.866331 0.569757
0.377722 0.863859 0.570947
0.507042 0.855863 0.575952
0.654871 0.845518 0.587427
0.770779 0.839078 0.597314
0.867826 0.833799 0.596490
0.948211 0.826841 0.609674
1.000000 0.827298 0.630213
0.453040 0.938659 0.560540
0.487495 0.936309 0.564233
0.585138 0.928679 0.577356
0.703120 0.918120 0.600183
0.789059 0.911772 0.613092
0.863737 0.907744 0.614679
0.940642 0.904234 0.617914
1.000000 0.896300 0.637568
0.571405 0.988464 0.573510
0.595758 0.986450 0.579034
0.667506 0.980041 0.598077
0.756985 0.971221 0.628473
0.816770 0.966918 0.640986
0.872892 0.964202 0.645045
0.933349 0.961822 0.651575
0.993622 0.960540 0.661799
0.200320 0.220157 0.715297
0.255772 0.225254 0.715358
0.393225 0.240452 0.716243
0.566674 0.267063 0.719509
0.749020 0.303899 0.720394
0.899748 0.345617 0.700832
0.977111 0.458350 0.661769
1.000000 0.562493 0.653040
0.206790 0.282170 0.708400
0.260014 0.285649 0.708797
0.395178 0.297673 0.710567
0.567803 0.321294 0.714961
0.749325 0.355993 0.717250
0.897063 0.392279 0.698604
0.974609 0.490364 0.663233
1.000000 0.584436 0.657008
0.223606 0.414618 0.690089
0.273655 0.417914 0.691035
0.405463 0.429877 0.694331
0.575433 0.453498 0.700526
0.753048 0.490700 0.707576
0.888914 0.513085 0.692195
0.966583 0.579431 0.669093
1.000000 0.648554 0.670497
0.209628 0.543450 0.669886
0.262547 0.544518 0.668299
0.417823 0.563256 0.670863
0.595850 0.595697 0.679866
0.760678 0.630243 0.694087
0.879332 0.644190 0.686458
0.955810 0.683864 0.680415
1.000000 0.727962 0.691798
0.263157 0.697353 0.671443
0.312444 0.697841 0.670375
0.444587 0.700679 0.667109
0.600702 0.707729 0.664424
0.762264 0.735042 0.678889
0.874937 0.753994 0.688106
0.947021 0.774350 0.696315
0.997894 0.801450 0.716976
0.351324 0.848234 0.676356
0.393988 0.847105 0.675959
0.512291 0.842893 0.674861
0.656428 0.837095 0.675807
0.785367 0.836423 0.685389
0.877256 0.838834 0.696162
0.943603 0.840574 0.705196
0.995056 0.850309 0.723354
0.505180 0.932036 0.655390
0.533349 0.929992 0.657374
0.616114 0.923430 0.664668
0.719142 0.914580 0.677760
0.812284 0.907469 0.695521
0.881315 0.905058 0.708370
0.941680 0.904265 0.711879
0.993194 0.904967 0.731167
0.611994 0.983764 0.652461
0.632319 0.982025 0.656764
0.693385 0.976471 0.671290
0.771054 0.969085 0.693904
0.844205 0.962463 0.721004
0.895659 0.960052 0.735470
0.943114 0.959808 0.742184
0.991516 0.960876 0.752407
0.228061 0.261265 0.818845
0.271672 0.265446 0.817807
0.388922 0.281926 0.817563
0.539788 0.310765 0.817868
0.703487 0.358923 0.819211
0.854582 0.413733 0.815152
0.968475 0.473396 0.790829
1.000000 0.576013 0.747341
0.246464 0.315648 0.816922
0.287114 0.318853 0.816190
0.399939 0.332738 0.816159
0.548547 0.359716 0.816892
0.710597 0.406500 0.818997
0.858457 0.459297 0.816251
0.968261 0.512230 0.793210
1.000000 0.606531 0.754086
0.297398 0.438697 0.800656
0.332341 0.442054 0.800992
0.434791 0.455055 0.802396
0.574731 0.479744 0.804440
0.727626 0.520775 0.808560
0.862394 0.561212 0.808957
0.961089 0.593561 0.788663
1.000000 0.661433 0.759854
0.329259 0.555840 0.780636
0.373754 0.563836 0.780758
0.498634 0.592432 0.781338
0.617548 0.610986 0.784909
0.749569 0.640864 0.791897
0.867369 0.673274 0.798184
0.951354 0.689631 0.783658
1.000000 0.734463 0.771328
0.353399 0.674586 0.773312
0.390814 0.677546 0.772519
0.494392 0.686336 0.768795
0.632380 0.706050 0.766537
0.770016 0.740536 0.777401
0.876097 0.771969 0.793790
0.946014 0.782345 0.788235
0.994507 0.808591 0.789914
0.428199 0.803922 0.776089
0.458869 0.804501 0.775174
0.548913 0.806485 0.772427
0.661311 0.809293 0.768399
0.768276 0.813779 0.765866
0.872038 0.834562 0.780301
0.941711 0.851255 0.792844
0.988617 0.868986 0.808713
0.513268 0.923064 0.781308
0.537469 0.921599 0.780606
0.613581 0.917510 0.779965
0.711299 0.911223 0.779477
0.808865 0.905791 0.782650
0.888548 0.906493 0.794583
0.944671 0.910979 0.808652
0.987701 0.917113 0.824399
0.657160 0.979858 0.760739
0.674586 0.978485 0.763424
0.720211 0.973419 0.768612
0.785733 0.967346 0.780240
0.852171 0.962402 0.796963
0.907958 0.959960 0.816281
0.949950 0.960906 0.831052
0.988586 0.963989 0.842191
0.262669 0.320775 0.921386
0.297276 0.325292 0.920714
0.397314 0.344060 0.920073
0.529686 0.376165 0.918059
0.675257 0.426856 0.915923
0.816220 0.498299 0.914427
0.928618 0.552911 0.908690
1.000000 0.612879 0.885313
0.291386 0.367346 0.919493
0.322667 0.371344 0.918853
0.416327 0.387884 0.918151
0.544732 0.418433 0.916533
0.686549 0.466590 0.914580
0.822416 0.531792 0.913481
0.930480 0.582330 0.908751
1.000000 0.636957 0.886748
0.381384 0.488624 0.910246
0.405798 0.492226 0.909911
0.484871 0.507530 0.909880
0.593927 0.529992 0.907744
0.719173 0.567620 0.907195
0.839170 0.618189 0.908110
0.934081 0.656428 0.905638
1.000000 0.695613 0.887449
0.492073 0.619104 0.895476
0.520562 0.627466 0.894469
0.577966 0.637537 0.894896
0.662959 0.653925 0.894987
0.762020 0.679164 0.896117
0.859373 0.713954 0.899413
0.937987 0.741543 0.900847
0.996857 0.764218 0.888365
0.477699 0.687770 0.885405
0.505638 0.692897 0.884550
0.594476 0.713191 0.883421
0.707820 0.745296 0.882475
0.797696 0.770016 0.885924
0.876707 0.794461 0.892760
0.942718 0.817594 0.899840
0.991424 0.830503 0.892851
0.535302 0.791104 0.885252
0.558801 0.793820 0.884855
0.627527 0.802121 0.882963
0.713130 0.812680 0.879393
0.801419 0.827451 0.876738
0.884977 0.853239 0.885161
0.945251 0.874846 0.898863
0.987152 0.884764 0.898619
0.607538 0.891325 0.889586
0.626764 0.892210 0.889525
0.683162 0.894652 0.889128
0.755917 0.897795 0.887877
0.827939 0.901823 0.887114
0.888945 0.906096 0.887480
0.946715 0.920745 0.900816
0.986664 0.935973 0.915648
0.690974 0.981231 0.902098
0.705715 0.980529 0.902556
0.747921 0.977996 0.903166
0.803464 0.974151 0.903441
0.860990 0.970733 0.905425
0.913329 0.968444 0.909575
0.957519 0.969635 0.920104
0.988464 0.975250 0.938170
