其他预设/【232】美食博客调色预设124款/1.3D LUT预设（视频调色-PR-AE-PS-FCPX-达芬奇用）/Yummy #5.cube
# Created by Adobe Lightroom plugin Export LUT (1.17.0)
# www.johnrellis.com/lightroom/exportlut.htm
# Preset: Yummy #5
# Color profile: /Library/Application Support/Adobe/Color/Profiles/Recommended/AdobeRGB1998.icc
LUT_3D_SIZE 32
0.000000 0.000000 0.000000
0.052155 0.000458 0.000732
0.078004 0.000549 0.000122
0.115969 0.000000 0.000000
0.165530 0.000000 0.000000
0.215793 0.000000 0.000000
0.266545 0.000000 0.000000
0.319432 0.000000 0.000000
0.375128 0.000000 0.000000
0.432654 0.000000 0.000000
0.491188 0.000000 0.000000
0.549096 0.000000 0.000000
0.604395 0.000000 0.000000
0.653925 0.000000 0.000000
0.697719 0.000000 0.000000
0.736995 0.000000 0.000000
0.775845 0.000000 0.000000
0.813107 0.000000 0.000000
0.844175 0.000000 0.000000
0.872313 0.000000 0.000000
0.898131 0.000000 0.000000
0.921782 0.000000 0.000000
0.943297 0.000000 0.000000
0.963104 0.000000 0.000000
0.981598 0.000000 0.000000
0.999145 0.000000 0.000000
1.000000 0.000000 0.000000
1.000000 0.000000 0.000000
1.000000 0.000000 0.000000
1.000000 0.000000 0.000000
1.000000 0.000000 0.000000
1.000000 0.000000 0.000000
0.001526 0.049348 0.000183
0.051545 0.049104 0.000000
0.077516 0.046571 0.000000
0.115816 0.048402 0.000000
0.164950 0.051789 0.000000
0.214603 0.051881 0.000000
0.264958 0.050324 0.000000
0.317205 0.047211 0.000000
0.372412 0.041352 0.000000
0.429633 0.036805 0.000000
0.487678 0.027436 0.000000
0.545281 0.013794 0.000000
0.600336 0.002594 0.000000
0.650080 0.000000 0.000000
0.694026 0.000000 0.000000
0.733486 0.000000 0.000000
0.772549 0.000000 0.000000
0.808988 0.000000 0.000000
0.839750 0.000000 0.000000
0.867826 0.000000 0.000000
0.893828 0.000000 0.000000
0.917723 0.000000 0.000000
0.939483 0.000000 0.000000
0.959625 0.000000 0.000000
0.978393 0.000000 0.000000
0.996277 0.000000 0.000000
1.000000 0.000000 0.000000
1.000000 0.000000 0.000000
1.000000 0.000000 0.000000
1.000000 0.000000 0.000000
1.000000 0.000000 0.000000
1.000000 0.000000 0.000000
0.003021 0.075319 0.000793
0.049775 0.075441 0.000000
0.077516 0.075013 0.000000
0.115877 0.077516 0.000000
0.164370 0.081544 0.000000
0.213596 0.083894 0.000000
0.263340 0.084199 0.000000
0.315038 0.084749 0.000000
0.369879 0.085725 0.000000
0.426825 0.083986 0.000000
0.484688 0.082765 0.000000
0.542168 0.081697 0.000000
0.597406 0.078309 0.000000
0.647303 0.076173 0.000000
0.691371 0.073976 0.000000
0.731075 0.069459 0.000000
0.770657 0.065980 0.000000
0.806424 0.063355 0.000000
0.837095 0.060700 0.000000
0.865202 0.059297 0.000000
0.891295 0.056489 0.000000
0.915435 0.047395 0.000000
0.937377 0.041413 0.000000
0.957671 0.027161 0.000000
0.976623 0.015290 0.000000
0.994629 0.001007 0.000000
1.000000 0.000000 0.000000
1.000000 0.000000 0.000000
1.000000 0.000000 0.000000
1.000000 0.000000 0.000000
1.000000 0.000000 0.000000
1.000000 0.000000 0.000000
0.006775 0.112398 0.000000
0.055238 0.112825 0.000000
0.081453 0.113497 0.000000
0.117739 0.114046 0.000000
0.164553 0.119265 0.000000
0.212894 0.122683 0.000000
0.261906 0.125093 0.000000
0.313420 0.127047 0.000000
0.367590 0.129030 0.000000
0.424018 0.130098 0.000000
0.481666 0.131624 0.000000
0.538781 0.132082 0.000000
0.593713 0.132235 0.000000
0.643641 0.130282 0.000000
0.687922 0.128267 0.000000
0.727718 0.125124 0.000000
0.768215 0.123201 0.000000
0.803098 0.120485 0.000000
0.833188 0.117525 0.000000
0.860929 0.114290 0.000000
0.886931 0.110872 0.000000
0.911162 0.107088 0.000000
0.933654 0.102846 0.000000
0.954650 0.098695 0.000000
0.974395 0.093690 0.000000
0.993133 0.088106 0.000000
1.000000 0.081788 0.000000
1.000000 0.076020 0.000000
1.000000 0.067353 0.000000
1.000000 0.054047 0.000000
1.000000 0.029297 0.000000
1.000000 0.003021 0.000000
0.007355 0.157015 0.000000
0.059632 0.157443 0.000000
0.085634 0.157900 0.000000
0.123140 0.158083 0.000000
0.163638 0.158083 0.000000
0.210941 0.162783 0.000000
0.259312 0.165957 0.000000
0.309758 0.169314 0.000000
0.363378 0.172610 0.000000
0.419074 0.176333 0.000000
0.476143 0.178714 0.000000
0.532921 0.180728 0.000000
0.587915 0.181735 0.000000
0.638239 0.181308 0.000000
0.683314 0.178866 0.000000
0.725063 0.176638 0.000000
0.765835 0.173922 0.000000
0.800381 0.170962 0.000000
0.830472 0.167025 0.000000
0.858213 0.163149 0.000000
0.884092 0.158694 0.000000
0.908324 0.154940 0.000000
0.930907 0.150668 0.000000
0.952178 0.145937 0.000000
0.972198 0.140719 0.000000
0.991241 0.135897 0.000000
1.000000 0.130617 0.000000
1.000000 0.123873 0.000000
1.000000 0.118502 0.000000
1.000000 0.111330 0.000000
1.000000 0.104250 0.000000
1.000000 0.096223 0.000000
0.007782 0.202335 0.000000
0.061311 0.202823 0.000000
0.088136 0.203189 0.000000
0.126955 0.203708 0.000000
0.168368 0.203311 0.000000
0.209873 0.202670 0.000000
0.258183 0.207401 0.000000
0.308049 0.211612 0.000000
0.360815 0.216159 0.000000
0.416083 0.220768 0.000000
0.472480 0.225071 0.000000
0.529137 0.227909 0.000000
0.583917 0.229892 0.000000
0.634485 0.229374 0.000000
0.679652 0.227848 0.000000
0.724269 0.225834 0.000000
0.763912 0.222843 0.000000
0.798123 0.218845 0.000000
0.828336 0.214115 0.000000
0.856260 0.209445 0.000000
0.882506 0.204623 0.000000
0.907134 0.199283 0.000000
0.950805 0.200565 0.000000
0.970336 0.195407 0.000000
0.988495 0.190188 0.000000
1.000000 0.184329 0.000000
1.000000 0.178866 0.000000
1.000000 0.172793 0.000000
1.000000 0.166995 0.000000
1.000000 0.160983 0.000000
1.000000 0.154757 0.000000
1.000000 0.148257 0.000000
0.005737 0.253635 0.000000
0.063478 0.253666 0.000000
0.092226 0.253971 0.000000
0.132479 0.254765 0.000000
0.176303 0.255344 0.000000
0.219516 0.254398 0.000000
0.262638 0.253391 0.000000
0.313970 0.259220 0.000000
0.367254 0.264897 0.000000
0.422858 0.270542 0.000000
0.479561 0.275669 0.000000
0.536156 0.279545 0.000000
0.590448 0.281437 0.000000
0.639887 0.281102 0.000000
0.687526 0.279515 0.000000
0.732052 0.277226 0.000000
0.770108 0.273075 0.000000
0.803342 0.268101 0.000000
0.833280 0.262211 0.000000
0.861662 0.256718 0.000000
0.889036 0.251469 0.000000
0.915129 0.246067 0.000000
0.939544 0.241001 0.000000
0.962127 0.235447 0.000000
0.982757 0.230045 0.000000
1.000000 0.224094 0.000000
1.000000 0.218173 0.000000
1.000000 0.212009 0.000000
1.000000 0.205692 0.000000
1.000000 0.199435 0.000000
1.000000 0.192844 0.000000
1.000000 0.186404 0.000000
0.010254 0.300542 0.000000
0.065614 0.300633 0.000000
0.093935 0.300786 0.000000
0.134859 0.301488 0.000000
0.179416 0.302281 0.000000
0.223850 0.302037 0.000000
0.267674 0.300969 0.000000
0.311345 0.300206 0.000000
0.363928 0.306615 0.000000
0.418982 0.313268 0.000000
0.475013 0.319249 0.000000
0.530877 0.323827 0.000000
0.584863 0.326726 0.000000
0.637385 0.327916 0.000000
0.686030 0.327428 0.000000
0.728389 0.323949 0.000000
0.765408 0.318761 0.000000
0.798245 0.312749 0.000000
0.828122 0.306157 0.000000
0.856565 0.299870 0.000000
0.884001 0.293889 0.000000
0.910216 0.287816 0.000000
0.934844 0.281987 0.000000
0.957641 0.275883 0.000000
0.978515 0.269535 0.000000
0.997528 0.263249 0.000000
1.000000 0.256443 0.000000
1.000000 0.249821 0.000000
1.000000 0.243198 0.000000
1.000000 0.236454 0.000000
1.000000 0.229801 0.000000
1.000000 0.223148 0.000000
0.018433 0.349523 0.000000
0.069764 0.349798 0.000000
0.097841 0.350072 0.000000
0.138735 0.350469 0.000000
0.183566 0.351385 0.000000
0.229007 0.352331 0.000000
0.273472 0.351293 0.000000
0.317937 0.350195 0.000000
0.362646 0.349187 0.000000
0.416327 0.356329 0.000000
0.472175 0.363226 0.000000
0.527398 0.368322 0.000000
0.585382 0.374548 0.000000
0.637995 0.376410 0.000000
0.684260 0.374578 0.000000
0.725124 0.370031 0.000000
0.761532 0.364141 0.000000
0.794156 0.357183 0.000000
0.824033 0.349676 0.000000
0.852506 0.342840 0.000000
0.880003 0.336187 0.000000
0.906310 0.329320 0.000000
0.931029 0.322667 0.000000
0.953918 0.315831 0.000000
0.974975 0.309117 0.000000
0.994232 0.301701 0.000000
1.000000 0.294530 0.000000
1.000000 0.287297 0.000000
1.000000 0.280186 0.000000
1.000000 0.273014 0.000000
1.000000 0.265873 0.000000
1.000000 0.258732 0.000000
0.032410 0.399786 0.000000
0.075471 0.399847 0.000000
0.102358 0.400061 0.000000
0.142855 0.400519 0.000000
0.187381 0.401221 0.000000
0.233524 0.402258 0.000000
0.279118 0.402350 0.000000
0.324132 0.400977 0.000000
0.369207 0.399969 0.000000
0.414405 0.399054 0.000000
0.471260 0.408209 0.000000
0.529381 0.416480 0.000000
0.585107 0.421698 0.000000
0.635889 0.422644 0.000000
0.681270 0.420325 0.000000
0.722194 0.415686 0.000000
0.758968 0.409247 0.000000
0.791775 0.401648 0.000000
0.821683 0.393652 0.000000
0.849973 0.385718 0.000000
0.877073 0.377935 0.000000
0.902708 0.370306 0.000000
0.926848 0.362554 0.000000
0.949310 0.354955 0.000000
0.970275 0.347204 0.000000
0.989776 0.339422 0.000000
1.000000 0.331609 0.000000
1.000000 0.323949 0.000000
1.000000 0.316350 0.000000
1.000000 0.308904 0.000000
1.000000 0.301518 0.000000
1.000000 0.294102 0.000000
0.048646 0.448737 0.000000
0.079988 0.448890 0.000000
0.106691 0.449073 0.000000
0.146456 0.449592 0.000000
0.190738 0.450446 0.000000
0.236851 0.451637 0.000000
0.284092 0.453315 0.000000
0.329900 0.452674 0.000000
0.376440 0.452644 0.000000
0.425177 0.454627 0.000000
0.473610 0.456031 0.000000
0.529290 0.462989 0.000000
0.583398 0.467475 0.000000
0.632929 0.467872 0.000000
0.677516 0.464820 0.000000
0.717891 0.459754 0.000000
0.754238 0.452766 0.000000
0.786984 0.444465 0.000000
0.816983 0.435676 0.000000
0.845487 0.426947 0.000000
0.872709 0.418647 0.000000
0.898589 0.410315 0.000000
0.922942 0.402136 0.000000
0.945647 0.393805 0.000000
0.966827 0.385412 0.000000
0.986450 0.377081 0.000000
1.000000 0.368627 0.000000
1.000000 0.360418 0.000000
1.000000 0.352300 0.000000
1.000000 0.344244 0.000000
1.000000 0.336339 0.000000
1.000000 0.328679 0.000000
0.058167 0.498390 0.000000
0.085084 0.498604 0.000000
0.110231 0.498817 0.000000
0.149477 0.499275 0.000000
0.194278 0.500114 0.000000
0.240269 0.501335 0.000000
0.288457 0.505119 0.000000
0.337407 0.508385 0.000000
0.385473 0.509361 0.000000
0.433783 0.509880 0.000000
0.482002 0.510246 0.000000
0.530144 0.510185 0.000000
0.610407 0.538262 0.000000
0.658228 0.535637 0.000000
0.701015 0.529534 0.000000
0.739040 0.520897 0.000000
0.772915 0.510857 0.000000
0.803494 0.499886 0.000000
0.831449 0.488685 0.000000
0.858305 0.477943 0.000000
0.883757 0.467445 0.000000
0.907805 0.457313 0.000000
0.930419 0.447211 0.000000
0.951720 0.437354 0.000000
0.971679 0.427649 0.000000
0.990478 0.418128 0.000000
1.000000 0.408667 0.000000
1.000000 0.399390 0.000000
1.000000 0.390448 0.000000
1.000000 0.381628 0.000000
1.000000 0.373083 0.000000
1.000000 0.364630 0.000000
0.065583 0.560327 0.000000
0.090578 0.560784 0.000000
0.115755 0.560815 0.000000
0.155459 0.561212 0.000000
0.200717 0.562066 0.000000
0.247807 0.562951 0.000000
0.296178 0.564599 0.000000
0.345342 0.566827 0.000000
0.394598 0.568017 0.000000
0.443641 0.568688 0.000000
0.493568 0.569970 0.000000
0.544030 0.571130 0.000000
0.594507 0.572198 0.000000
0.646540 0.574151 0.000000
0.691585 0.570153 0.000000
0.731136 0.562493 0.000000
0.765743 0.552270 0.000000
0.796475 0.540826 0.000000
0.824857 0.529015 0.000000
0.851743 0.517632 0.000000
0.877409 0.506706 0.000000
0.901762 0.495888 0.000000
0.924620 0.485267 0.000000
0.946166 0.474769 0.000000
0.966461 0.464515 0.000000
0.985534 0.454353 0.000000
1.000000 0.444343 0.000000
1.000000 0.434638 0.000000
1.000000 0.425086 0.000000
1.000000 0.415900 0.000000
1.000000 0.407019 0.000000
1.000000 0.398169 0.000000
0.069795 0.609339 0.000000
0.095399 0.609491 0.000000
0.119203 0.609247 0.000000
0.157443 0.609064 0.000000
0.202152 0.608667 0.000000
0.248569 0.608576 0.000000
0.295933 0.609033 0.000000
0.343664 0.610040 0.000000
0.392889 0.611933 0.000000
0.441077 0.611749 0.000000
0.489601 0.611994 0.000000
0.538750 0.612543 0.000000
0.587610 0.612634 0.000000
0.635706 0.611841 0.000000
0.683345 0.610651 0.000000
0.723507 0.603204 0.000000
0.758389 0.592676 0.000000
0.789487 0.580743 0.000000
0.818143 0.568536 0.000000
0.845426 0.556664 0.000000
0.871366 0.545129 0.000000
0.895995 0.534112 0.000000
0.919219 0.522942 0.000000
0.941161 0.511986 0.000000
0.961761 0.501183 0.000000
0.981140 0.490455 0.000000
0.999573 0.480049 0.000000
1.000000 0.469734 0.000000
1.000000 0.459937 0.000000
1.000000 0.450233 0.000000
1.000000 0.440925 0.000000
1.000000 0.431739 0.000000
0.075868 0.651179 0.000000
0.097841 0.651301 0.000000
0.121065 0.650904 0.000000
0.158938 0.650355 0.000000
0.202365 0.649531 0.000000
0.247440 0.648798 0.000000
0.293431 0.648554 0.000000
0.340490 0.648859 0.000000
0.388220 0.650050 0.000000
0.436408 0.651087 0.000000
0.483955 0.650813 0.000000
0.531670 0.650721 0.000000
0.579278 0.650355 0.000000
0.626337 0.649195 0.000000
0.672145 0.647028 0.000000
0.716030 0.643122 0.000000
0.751766 0.632837 0.000000
0.783169 0.620508 0.000000
0.812070 0.607782 0.000000
0.839506 0.595270 0.000000
0.865568 0.583246 0.000000
0.890379 0.571588 0.000000
0.913756 0.559991 0.000000
0.935973 0.548608 0.000000
0.956970 0.537316 0.000000
0.976837 0.526268 0.000000
0.995850 0.515526 0.000000
1.000000 0.504997 0.000000
1.000000 0.494942 0.000000
1.000000 0.485084 0.000000
1.000000 0.475471 0.000000
1.000000 0.465980 0.000000
0.080232 0.688075 0.000000
0.100923 0.688289 0.000000
0.122896 0.688228 0.000000
0.159030 0.687922 0.000000
0.201266 0.687526 0.000000
0.246403 0.687221 0.000000
0.291386 0.687221 0.000000
0.337591 0.687678 0.000000
0.384619 0.688472 0.000000
0.432105 0.689540 0.000000
0.478584 0.688808 0.000000
0.524743 0.687373 0.000000
0.570123 0.685451 0.000000
0.615198 0.683009 0.000000
0.659327 0.679957 0.000000
0.702449 0.676143 0.000000
0.743496 0.670924 0.000000
0.776333 0.659266 0.000000
0.806088 0.646448 0.000000
0.834287 0.633875 0.000000
0.860929 0.621637 0.000000
0.886259 0.609522 0.000000
0.910033 0.597559 0.000000
0.932494 0.585779 0.000000
0.953765 0.574151 0.000000
0.974029 0.562707 0.000000
0.993317 0.551476 0.000000
1.000000 0.540581 0.000000
1.000000 0.530022 0.000000
1.000000 0.519554 0.000000
1.000000 0.509392 0.000000
1.000000 0.499458 0.000000
0.084962 0.719692 0.000000
0.104402 0.719722 0.000000
0.123934 0.719478 0.000000
0.159152 0.719173 0.000000
0.199435 0.718776 0.000000
0.242924 0.718410 0.000000
0.286839 0.718257 0.000000
0.331884 0.718318 0.000000
0.377264 0.718654 0.000000
0.423255 0.719265 0.000000
0.469551 0.719783 0.000000
0.514427 0.718196 0.000000
0.558953 0.716274 0.000000
0.602930 0.713771 0.000000
0.646082 0.710567 0.000000
0.688228 0.706722 0.000000
0.729549 0.702327 0.000000
0.768887 0.696651 0.000000
0.799802 0.684352 0.000000
0.828122 0.671382 0.000000
0.855192 0.658564 0.000000
0.880644 0.646021 0.000000
0.904662 0.633631 0.000000
0.927489 0.621515 0.000000
0.949157 0.609491 0.000000
0.969726 0.597803 0.000000
0.989441 0.586328 0.000000
1.000000 0.575158 0.000000
1.000000 0.564172 0.000000
1.000000 0.553491 0.000000
1.000000 0.542962 0.000000
1.000000 0.532616 0.000000
0.089662 0.749203 0.000000
0.108186 0.749508 0.000000
0.131380 0.764034 0.000000
0.164034 0.763638 0.000000
0.203372 0.762966 0.000000
0.245335 0.762112 0.000000
0.288853 0.761166 0.000000
0.332647 0.760281 0.000000
0.377111 0.759731 0.000000
0.422278 0.759365 0.000000
0.467231 0.759152 0.000000
0.511772 0.757778 0.000000
0.555261 0.754818 0.000000
0.598169 0.751583 0.000000
0.640284 0.747799 0.000000
0.681697 0.743557 0.000000
0.722286 0.738857 0.000000
0.762203 0.733852 0.000000
0.800046 0.727626 0.000000
0.828550 0.713863 0.000000
0.854856 0.699794 0.000000
0.880095 0.686091 0.000000
0.903868 0.672694 0.000000
0.926299 0.659541 0.000000
0.947356 0.646540 0.000000
0.967437 0.633845 0.000000
0.986664 0.621454 0.000000
1.000000 0.609613 0.000000
1.000000 0.598108 0.000000
1.000000 0.586969 0.000000
1.000000 0.576135 0.000000
1.000000 0.565423 0.000000
0.097139 0.779721 0.000000
0.112337 0.781460 0.000000
0.130617 0.783169 0.000000
0.161746 0.784482 0.000000
0.200137 0.785153 0.000000
0.240787 0.785031 0.000000
0.282719 0.784512 0.000000
0.325383 0.783780 0.000000
0.368444 0.783230 0.000000
0.411841 0.782742 0.000000
0.455634 0.782376 0.000000
0.499550 0.781979 0.000000
0.542107 0.779416 0.000000
0.583886 0.776272 0.000000
0.625147 0.772671 0.000000
0.665766 0.768551 0.000000
0.705684 0.764157 0.000000
0.744900 0.759548 0.000000
0.783841 0.754849 0.000000
0.821256 0.749294 0.000000
0.848478 0.735409 0.000000
0.874083 0.721645 0.000000
0.898466 0.708003 0.000000
0.921416 0.694575 0.000000
0.942931 0.681270 0.000000
0.963409 0.668299 0.000000
0.983032 0.655634 0.000000
1.000000 0.643427 0.000000
1.000000 0.631708 0.000000
1.000000 0.620294 0.000000
1.000000 0.609155 0.000000
1.000000 0.598016 0.000000
0.098878 0.803250 0.000000
0.114809 0.804746 0.000000
0.131380 0.806241 0.000000
0.160983 0.807401 0.000000
0.197665 0.807950 0.000000
0.236728 0.807889 0.000000
0.277134 0.807340 0.000000
0.318486 0.806668 0.000000
0.360204 0.806088 0.000000
0.402380 0.805539 0.000000
0.445075 0.805081 0.000000
0.487648 0.804623 0.000000
0.529931 0.803342 0.000000
0.570916 0.800381 0.000000
0.611261 0.796963 0.000000
0.651087 0.793118 0.000000
0.690333 0.788968 0.000000
0.729091 0.784604 0.000000
0.767453 0.780240 0.000000
0.805570 0.775967 0.000000
0.842710 0.771206 0.000000
0.868681 0.757107 0.000000
0.893370 0.743313 0.000000
0.916716 0.729580 0.000000
0.938628 0.715938 0.000000
0.959380 0.702510 0.000000
0.979187 0.689418 0.000000
0.998322 0.676844 0.000000
1.000000 0.664729 0.000000
1.000000 0.653040 0.000000
1.000000 0.641566 0.000000
1.000000 0.630274 0.000000
0.100771 0.825956 0.000000
0.113924 0.827298 0.000000
0.131197 0.828580 0.000000
0.159335 0.829587 0.000000
0.194797 0.830076 0.000000
0.232303 0.829953 0.000000
0.271794 0.829404 0.000000
0.311681 0.828702 0.000000
0.352544 0.828031 0.000000
0.393439 0.827359 0.000000
0.434638 0.826780 0.000000
0.476204 0.826078 0.000000
0.517540 0.825193 0.000000
0.558038 0.823087 0.000000
0.597833 0.820005 0.000000
0.637201 0.816739 0.000000
0.676295 0.813352 0.000000
0.715175 0.809934 0.000000
0.753719 0.806516 0.000000
0.792081 0.803220 0.000000
0.830198 0.799985 0.000000
0.868070 0.796628 0.000000
0.892729 0.782040 0.000000
0.916564 0.768093 0.000000
0.938964 0.754116 0.000000
0.960082 0.740230 0.000000
0.980072 0.726741 0.000000
0.999268 0.713619 0.000000
1.000000 0.700984 0.000000
1.000000 0.688655 0.000000
1.000000 0.676661 0.000000
1.000000 0.665248 0.000000
0.104738 0.853025 0.000000
0.117128 0.853605 0.000000
0.132265 0.853971 0.000000
0.158755 0.854093 0.000000
0.192996 0.854032 0.000000
0.229343 0.853513 0.000000
0.267735 0.852964 0.000000
0.306462 0.852323 0.000000
0.346136 0.851835 0.000000
0.386419 0.851316 0.000000
0.426856 0.850858 0.000000
0.467445 0.850217 0.000000
0.507988 0.849363 0.000000
0.548333 0.848203 0.000000
0.587427 0.845274 0.000000
0.626184 0.842100 0.000000
0.664546 0.838773 0.000000
0.702632 0.835386 0.000000
0.740475 0.831968 0.000000
0.778103 0.828519 0.000000
0.815396 0.825040 0.000000
0.852384 0.821500 0.000000
0.889036 0.817899 0.000000
0.911986 0.802640 0.000000
0.934478 0.788174 0.000000
0.955840 0.774044 0.000000
0.976287 0.760159 0.000000
0.995819 0.746761 0.000000
1.000000 0.733791 0.000000
1.000000 0.721218 0.000000
1.000000 0.709163 0.000000
1.000000 0.697963 0.000000
0.104585 0.873655 0.000000
0.116304 0.874174 0.000000
0.130617 0.874601 0.000000
0.157046 0.874754 0.000000
0.189731 0.874601 0.000000
0.225193 0.874113 0.000000
0.262303 0.873442 0.000000
0.300053 0.872679 0.000000
0.338903 0.872007 0.000000
0.377996 0.871397 0.000000
0.417487 0.870756 0.000000
0.456886 0.870054 0.000000
0.496437 0.869139 0.000000
0.535973 0.868040 0.000000
0.574945 0.866331 0.000000
0.613123 0.863493 0.000000
0.650996 0.860563 0.000000
0.688594 0.857542 0.000000
0.726009 0.854429 0.000000
0.763241 0.851347 0.000000
0.800198 0.848264 0.000000
0.836942 0.845121 0.000000
0.873381 0.841978 0.000000
0.909483 0.838651 0.000000
0.928923 0.820920 0.000000
0.950561 0.806516 0.000000
0.971344 0.792477 0.000000
0.991302 0.778775 0.000000
1.000000 0.765621 0.000000
1.000000 0.752987 0.000000
1.000000 0.741085 0.000000
1.000000 0.730282 0.000000
0.107088 0.897368 0.000000
0.118898 0.897917 0.000000
0.132204 0.898192 0.000000
0.157229 0.898100 0.000000
0.188418 0.897673 0.000000
0.222721 0.896971 0.000000
0.258305 0.896056 0.000000
0.295354 0.894987 0.000000
0.333043 0.893858 0.000000
0.371038 0.892729 0.000000
0.409369 0.891569 0.000000
0.447669 0.890471 0.000000
0.486061 0.889220 0.000000
0.524498 0.887724 0.000000
0.562615 0.886015 0.000000
0.600031 0.883268 0.000000
0.636866 0.880064 0.000000
0.673579 0.876951 0.000000
0.710262 0.873991 0.000000
0.746975 0.871183 0.000000
0.783505 0.868467 0.000000
0.819821 0.865660 0.000000
0.855711 0.862608 0.000000
0.891112 0.859281 0.000000
0.925902 0.855680 0.000000
0.947021 0.840269 0.000000
0.967864 0.825711 0.000000
0.987823 0.811643 0.000000
1.000000 0.798123 0.000000
1.000000 0.785275 0.000000
1.000000 0.773434 0.000000
1.000000 0.762844 0.000000
0.105043 0.915679 0.000000
0.116121 0.916167 0.000000
0.129549 0.916442 0.000000
0.153353 0.916350 0.000000
0.184115 0.915953 0.000000
0.217624 0.915343 0.000000
0.252842 0.914519 0.000000
0.289006 0.913634 0.000000
0.325994 0.912657 0.000000
0.363317 0.911742 0.000000
0.400702 0.910796 0.000000
0.438636 0.909789 0.000000
0.476356 0.908751 0.000000
0.514000 0.907500 0.000000
0.551568 0.905974 0.000000
0.588922 0.904295 0.000000
0.625330 0.901396 0.000000
0.661524 0.898528 0.000000
0.697749 0.895781 0.000000
0.733883 0.893156 0.000000
0.769924 0.890562 0.000000
0.805753 0.887877 0.000000
0.841184 0.885008 0.000000
0.876249 0.881956 0.000000
0.910857 0.878691 0.000000
0.945037 0.875151 0.000000
0.965667 0.859953 0.000000
0.985809 0.845548 0.000000
1.000000 0.831876 0.000000
1.000000 0.818906 0.000000
1.000000 0.806943 0.000000
1.000000 0.796414 0.000000
0.103212 0.934722 0.000000
0.114534 0.935027 0.000000
0.127687 0.935088 0.000000
0.150973 0.934844 0.000000
0.180606 0.934295 0.000000
0.212833 0.933562 0.000000
0.247562 0.932677 0.000000
0.282994 0.931731 0.000000
0.319005 0.930816 0.000000
0.355657 0.929900 0.000000
0.392370 0.928985 0.000000
0.429358 0.928099 0.000000
0.466468 0.927123 0.000000
0.503471 0.925963 0.000000
0.540337 0.924498 0.000000
0.576989 0.922911 0.000000
0.613245 0.920806 0.000000
0.648951 0.918090 0.000000
0.684535 0.915496 0.000000
0.720089 0.912993 0.000000
0.755642 0.910521 0.000000
0.790921 0.908019 0.000000
0.825925 0.905333 0.000000
0.860624 0.902495 0.000000
0.894865 0.899504 0.000000
0.928832 0.896269 0.000000
0.962493 0.892973 0.000000
0.982849 0.878264 0.000000
1.000000 0.864012 0.000000
1.000000 0.850919 0.000000
1.000000 0.838865 0.000000
1.000000 0.828458 0.000000
0.098970 0.952117 0.000000
0.110109 0.952270 0.000000
0.123110 0.952300 0.000000
0.146212 0.952117 0.000000
0.176181 0.951781 0.000000
0.208347 0.951415 0.000000
0.242679 0.951141 0.000000
0.277775 0.950896 0.000000
0.313939 0.950774 0.000000
0.350164 0.950683 0.000000
0.386877 0.950530 0.000000
0.423682 0.950286 0.000000
0.460487 0.949828 0.000000
0.497230 0.949065 0.000000
0.533745 0.947997 0.000000
0.569879 0.946563 0.000000
0.606104 0.944945 0.000000
0.641505 0.942687 0.000000
0.676661 0.940246 0.000000
0.711788 0.937835 0.000000
0.746822 0.935454 0.000000
0.781704 0.932982 0.000000
0.816251 0.930388 0.000000
0.850553 0.927672 0.000000
0.884550 0.924773 0.000000
0.918364 0.921721 0.000000
0.951873 0.918578 0.000000
0.984985 0.915404 0.000000
1.000000 0.901152 0.000000
1.000000 0.886656 0.000000
1.000000 0.874113 0.000000
1.000000 0.863310 0.000000
0.104189 0.973571 0.000000
0.114199 0.973632 0.000000
0.125673 0.973541 0.000000
0.147646 0.973266 0.000000
0.176150 0.972747 0.000000
0.207095 0.972198 0.000000
0.240269 0.971618 0.000000
0.274449 0.971008 0.000000
0.309209 0.970459 0.000000
0.344671 0.969848 0.000000
0.380285 0.969146 0.000000
0.416022 0.968444 0.000000
0.451850 0.967559 0.000000
0.487617 0.966522 0.000000
0.523278 0.965240 0.000000
0.558862 0.963836 0.000000
