其他预设/【232】美食博客调色预设124款/1.3D LUT预设（视频调色-PR-AE-PS-FCPX-达芬奇用）/Yummy #6.cube
# Created by Adobe Lightroom plugin Export LUT (1.17.0)
# www.johnrellis.com/lightroom/exportlut.htm
# Preset: Yummy #6
# Color profile: /Library/Application Support/Adobe/Color/Profiles/Recommended/AdobeRGB1998.icc
LUT_3D_SIZE 5
DOMAIN_MIN 0.000000 0.000000 0.000000
DOMAIN_MAX 0.903226 0.903226 0.903226
0.000000 0.000000 0.000000
0.307012 0.052552 0.000000
0.765286 0.110994 0.000000
1.000000 0.222599 0.116762
1.000000 0.360693 0.293370
0.043915 0.294438 0.000000
0.299626 0.294591 0.000000
0.727932 0.373358 0.000000
1.000000 0.391180 0.124422
1.000000 0.448890 0.315099
0.112947 0.718715 0.000000
0.375586 0.720363 0.000000
0.740627 0.727138 0.000000
0.986023 0.669123 0.129519
1.000000 0.636500 0.358282
0.213138 0.967559 0.000000
0.378698 0.965667 0.000000
0.667659 0.955383 0.000000
0.947906 0.927123 0.000000
1.000000 0.827481 0.349706
0.375311 1.000000 0.255619
0.444770 1.000000 0.262516
0.615839 1.000000 0.275639
0.823606 1.000000 0.326329
1.000000 0.996704 0.377630
0.075532 0.014832 0.203311
0.289006 0.000000 0.214969
0.715785 0.000000 0.245274
0.999695 0.281285 0.315679
1.000000 0.446082 0.428779
0.088441 0.253117 0.187564
0.291356 0.279973 0.201694
0.695979 0.352148 0.247105
0.989197 0.414954 0.317571
1.000000 0.508629 0.438331
0.000000 0.675471 0.192813
0.344762 0.678401 0.185519
0.698390 0.682948 0.174716
0.962219 0.667628 0.327184
1.000000 0.671656 0.476692
0.240391 0.955779 0.220951
0.400610 0.953735 0.240696
0.674678 0.946288 0.266239
0.942016 0.920653 0.267857
1.000000 0.840421 0.479469
0.446815 1.000000 0.398169
0.502617 1.000000 0.403418
0.658045 1.000000 0.429999
0.841367 1.000000 0.466621
1.000000 0.995636 0.507469
0.124269 0.000000 0.527855
0.345678 0.000000 0.548974
0.718166 0.000000 0.581537
0.983581 0.308476 0.566522
1.000000 0.631861 0.678920
0.073579 0.269688 0.462165
0.307897 0.279973 0.498054
0.704860 0.311437 0.560845
0.965820 0.479713 0.585901
1.000000 0.700954 0.713710
0.000000 0.603906 0.486793
0.308293 0.621576 0.497169
0.700649 0.679408 0.548333
0.934752 0.715938 0.625757
1.000000 0.773404 0.716304
0.244846 0.929503 0.506859
0.421332 0.922759 0.522698
0.709041 0.918303 0.591089
0.927886 0.908354 0.606653
1.000000 0.881895 0.728481
0.529625 1.000000 0.588739
0.629541 1.000000 0.640314
0.754482 1.000000 0.683223
0.883635 1.000000 0.711269
1.000000 0.991547 0.730556
0.144472 0.017670 0.838682
0.345953 0.000000 0.845487
0.684596 0.124086 0.874449
0.961181 0.277989 0.823880
1.000000 0.596551 0.783963
0.000000 0.275242 0.803403
0.319341 0.285039 0.814725
0.677668 0.357885 0.852903
0.948974 0.445930 0.816495
1.000000 0.672450 0.803006
0.000000 0.562280 0.742336
0.253941 0.558190 0.739101
0.660365 0.642084 0.794553
0.920104 0.721523 0.814420
1.000000 0.826413 0.856046
0.188235 0.889830 0.762264
0.373053 0.886656 0.761807
0.696590 0.886229 0.787350
0.914549 0.903349 0.840146
1.000000 0.918639 0.886717
0.536675 1.000000 0.747341
0.621271 1.000000 0.768399
0.800381 1.000000 0.831388
0.918181 0.993713 0.879545
0.997162 0.988586 0.894835
0.173495 0.149844 0.998291
0.322301 0.160830 0.998108
0.589929 0.234958 0.998413
0.864591 0.400061 0.995789
1.000000 0.564630 0.936980
0.173922 0.302678 0.989471
0.327886 0.315007 0.989654
0.600671 0.380346 0.990906
0.869322 0.519829 0.989624
1.000000 0.642664 0.938933
0.000000 0.527092 0.963653
0.306462 0.543969 0.964080
0.632563 0.626215 0.967010
0.884855 0.744778 0.974517
1.000000 0.807187 0.948425
0.142336 0.794003 0.950347
0.309483 0.792905 0.947631
0.591455 0.799832 0.940581
0.881132 0.876982 0.954467
0.992767 0.929534 0.962707
0.471778 1.000000 0.936095
0.553826 1.000000 0.936339
0.748775 1.000000 0.941161
0.911254 0.985901 0.954864
0.989807 0.988006 0.978485
