其他预设/【232】美食博客调色预设124款/1.3D LUT预设（视频调色-PR-AE-PS-FCPX-达芬奇用）/Yummy #6.cube
# Created by Adobe Lightroom plugin Export LUT (1.17.0)
# www.johnrellis.com/lightroom/exportlut.htm
# Preset: Yummy #6
# Color profile: /Library/Application Support/Adobe/Color/Profiles/Recommended/AdobeRGB1998.icc
LUT_3D_SIZE 32
0.000000 0.000000 0.000000
0.034607 0.007202 0.000000
0.063355 0.015900 0.000000
0.101961 0.028504 0.000000
0.152132 0.036957 0.000000
0.201999 0.041901 0.000000
0.252720 0.044434 0.000000
0.307012 0.052552 0.000000
0.366491 0.060395 0.000000
0.430457 0.066835 0.000000
0.498634 0.072267 0.000000
0.567956 0.079774 0.000000
0.636011 0.088746 0.000000
0.702876 0.098970 0.000000
0.765286 0.110994 0.000000
0.819638 0.123293 0.000000
0.866178 0.135958 0.000000
0.914153 0.152956 0.000000
0.951659 0.170016 0.000000
0.982452 0.187198 0.023255
1.000000 0.204746 0.084779
1.000000 0.222599 0.116762
1.000000 0.240543 0.144198
1.000000 0.258915 0.169558
1.000000 0.277043 0.193545
1.000000 0.295903 0.217380
1.000000 0.316075 0.241703
1.000000 0.337560 0.266911
1.000000 0.360693 0.293370
1.000000 0.385901 0.321355
1.000000 0.413001 0.351080
1.000000 0.442023 0.382330
0.008728 0.031434 0.000000
0.036408 0.032776 0.000000
0.063111 0.038300 0.000000
0.101228 0.057313 0.000000
0.150515 0.066407 0.000000
0.199649 0.071321 0.000000
0.250126 0.074311 0.000000
0.303746 0.078828 0.000000
0.362585 0.084352 0.000000
0.426337 0.090364 0.000000
0.493721 0.096529 0.000000
0.562799 0.103426 0.000000
0.630426 0.111147 0.000000
0.697200 0.120119 0.000000
0.759854 0.130159 0.000000
0.814603 0.140200 0.000000
0.862181 0.151369 0.000000
0.909606 0.165377 0.000000
0.946990 0.179934 0.000000
0.978088 0.195163 0.010742
1.000000 0.211002 0.079347
1.000000 0.227146 0.111971
1.000000 0.243839 0.139864
1.000000 0.260899 0.165377
1.000000 0.278325 0.189548
1.000000 0.296666 0.213596
1.000000 0.316045 0.237888
1.000000 0.337346 0.263432
1.000000 0.360021 0.289952
1.000000 0.384771 0.317967
1.000000 0.411505 0.347631
1.000000 0.440223 0.378882
0.019013 0.061982 0.000000
0.045106 0.062593 0.000000
0.066743 0.063355 0.000000
0.101656 0.073426 0.000000
0.148653 0.084199 0.000000
0.197391 0.091066 0.000000
0.247074 0.095430 0.000000
0.300084 0.100649 0.000000
0.358587 0.107057 0.000000
0.421820 0.113344 0.000000
0.489113 0.120333 0.000000
0.558190 0.127535 0.000000
0.625757 0.134707 0.000000
0.692622 0.142977 0.000000
0.755489 0.151797 0.000000
0.810971 0.159945 0.000000
0.859831 0.169955 0.000000
0.906493 0.181796 0.000000
0.943938 0.193790 0.000000
0.975280 0.206973 0.002625
1.000000 0.220768 0.076692
1.000000 0.235386 0.109834
1.000000 0.250828 0.137911
1.000000 0.266484 0.163455
1.000000 0.283116 0.187808
1.000000 0.300298 0.211856
1.000000 0.319219 0.236332
1.000000 0.339757 0.261875
1.000000 0.361944 0.288518
1.000000 0.386267 0.316564
1.000000 0.412390 0.346136
1.000000 0.440772 0.377417
0.032197 0.101625 0.000000
0.061646 0.102571 0.000000
0.079530 0.103517 0.000000
0.108766 0.105013 0.000000
0.150607 0.113405 0.000000
0.193606 0.120485 0.000000
0.242649 0.127016 0.000000
0.295293 0.133791 0.000000
0.353216 0.141299 0.000000
0.416114 0.149111 0.000000
0.482795 0.157382 0.000000
0.551629 0.165438 0.000000
0.618769 0.173495 0.000000
0.685603 0.181399 0.000000
0.749203 0.188479 0.000000
0.805325 0.195590 0.000000
0.856382 0.202976 0.000000
0.902129 0.211887 0.000000
0.939208 0.220829 0.000000
0.970581 0.230472 0.000000
0.997406 0.241154 0.072450
1.000000 0.252842 0.106661
1.000000 0.265812 0.135042
1.000000 0.279759 0.161501
1.000000 0.294804 0.186435
1.000000 0.311070 0.211398
1.000000 0.328801 0.236545
1.000000 0.348577 0.262638
1.000000 0.369787 0.289342
1.000000 0.392859 0.317266
1.000000 0.417945 0.346563
1.000000 0.444953 0.377295
0.036225 0.148531 0.000000
0.067201 0.149050 0.000000
0.087678 0.149630 0.000000
0.119234 0.150362 0.000000
0.154543 0.150668 0.000000
0.196750 0.155764 0.000000
0.239078 0.160555 0.000000
0.287419 0.167910 0.000000
0.344427 0.177554 0.000000
0.406226 0.187716 0.000000
0.472450 0.197665 0.000000
0.540917 0.207401 0.000000
0.608362 0.216281 0.000000
0.675563 0.224643 0.000000
0.740200 0.231815 0.000000
0.797910 0.238041 0.000000
0.852201 0.244633 0.000000
0.897795 0.250919 0.000000
0.935180 0.256809 0.000000
0.966918 0.263371 0.000000
0.993957 0.270848 0.071748
1.000000 0.279698 0.105806
1.000000 0.289555 0.134493
1.000000 0.300877 0.161044
1.000000 0.313481 0.186404
1.000000 0.327520 0.211460
1.000000 0.343450 0.236851
1.000000 0.360937 0.262730
1.000000 0.380591 0.289494
1.000000 0.402197 0.317540
1.000000 0.425788 0.346624
1.000000 0.451698 0.377356
0.034302 0.194583 0.000000
0.069306 0.195071 0.000000
0.091310 0.195346 0.000000
0.124941 0.196170 0.000000
0.162081 0.195834 0.000000
0.199588 0.195407 0.000000
0.243351 0.200320 0.000000
0.288090 0.205570 0.000000
0.337652 0.213809 0.000000
0.397589 0.225559 0.000000
0.463172 0.237980 0.000000
0.531395 0.249729 0.000000
0.598901 0.259800 0.000000
0.666560 0.269078 0.000000
0.731838 0.276921 0.000000
0.792691 0.283543 0.000000
0.847959 0.289464 0.000000
0.893492 0.293828 0.000000
0.931334 0.297642 0.000000
0.963653 0.301610 0.000000
0.991272 0.306615 0.073762
1.000000 0.312566 0.108278
1.000000 0.335790 0.165591
1.000000 0.345373 0.191043
1.000000 0.356023 0.215488
1.000000 0.368048 0.239719
1.000000 0.381933 0.263981
1.000000 0.397467 0.288975
1.000000 0.415076 0.314855
1.000000 0.434821 0.341955
1.000000 0.456519 0.370153
1.000000 0.479988 0.399359
0.033265 0.246067 0.000000
0.071382 0.246372 0.000000
0.095613 0.246616 0.000000
0.131380 0.247410 0.000000
0.171511 0.248295 0.000000
0.211215 0.247135 0.000000
0.250767 0.246128 0.000000
0.298955 0.252964 0.000000
0.348882 0.260380 0.000000
0.403784 0.270695 0.000000
0.463874 0.282902 0.000000
0.533043 0.296818 0.000000
0.600793 0.308446 0.000000
0.668574 0.318517 0.000000
0.733364 0.326513 0.000000
0.798734 0.335027 0.000000
0.852506 0.339727 0.000000
0.897063 0.342290 0.000000
0.934600 0.344213 0.000000
0.967163 0.346441 0.025483
0.995453 0.350072 0.089082
1.000000 0.354864 0.124331
1.000000 0.361517 0.155459
1.000000 0.369482 0.184543
1.000000 0.379004 0.211978
1.000000 0.389471 0.237919
1.000000 0.401495 0.263279
1.000000 0.415045 0.288640
1.000000 0.430457 0.314611
1.000000 0.448188 0.341680
1.000000 0.467872 0.369665
1.000000 0.489693 0.398840
0.043915 0.294438 0.000000
0.075624 0.294713 0.000000
0.099489 0.295018 0.000000
0.135897 0.295781 0.000000
0.177096 0.296910 0.000000
0.218448 0.296941 0.000000
0.259037 0.295506 0.000000
0.299626 0.294591 0.000000
0.351293 0.303410 0.000000
0.405280 0.313054 0.000000
0.463447 0.324651 0.000000
0.524346 0.336797 0.000000
0.588312 0.348943 0.000000
0.656031 0.360693 0.000000
0.727932 0.373358 0.000000
0.790982 0.381170 0.000000
0.844022 0.384955 0.000000
0.888762 0.386328 0.000000
0.926909 0.386908 0.000000
0.960143 0.387427 0.022126
0.989197 0.388739 0.089143
1.000000 0.391180 0.124422
1.000000 0.395148 0.155459
1.000000 0.400397 0.184604
1.000000 0.406989 0.212009
1.000000 0.415106 0.238132
1.000000 0.424384 0.263432
1.000000 0.435462 0.288792
1.000000 0.448890 0.315099
1.000000 0.464332 0.342046
1.000000 0.482307 0.370367
1.000000 0.502281 0.399573
0.060304 0.346654 0.000000
0.083925 0.346899 0.000000
0.106661 0.347234 0.000000
0.142641 0.347936 0.000000
0.184237 0.349279 0.000000
0.227237 0.350896 0.000000
0.269322 0.349950 0.000000
0.311376 0.348852 0.000000
0.353491 0.347845 0.000000
0.408728 0.358679 0.000000
0.466072 0.369818 0.000000
0.526116 0.381628 0.000000
0.587396 0.393286 0.000000
0.653193 0.406836 0.000000
0.721279 0.419135 0.000000
0.783139 0.427039 0.000000
0.836057 0.430396 0.000000
0.881193 0.431220 0.000000
0.919860 0.430488 0.000000
0.953826 0.429572 0.027070
0.983520 0.429236 0.091005
1.000000 0.429664 0.126345
1.000000 0.431281 0.157504
1.000000 0.434180 0.186496
1.000000 0.438392 0.214176
1.000000 0.443702 0.240238
1.000000 0.450660 0.265721
1.000000 0.459449 0.291081
1.000000 0.470436 0.317174
1.000000 0.483742 0.344244
1.000000 0.499458 0.372259
1.000000 0.517479 0.401404
0.071870 0.402441 0.000000
0.092805 0.402564 0.000000
0.114534 0.402838 0.000000
0.150393 0.403632 0.000000
0.191897 0.404852 0.000000
0.235721 0.406561 0.000000
0.280247 0.407568 0.000000
0.323461 0.406256 0.000000
0.367102 0.405341 0.000000
0.410925 0.404730 0.000000
0.468452 0.416083 0.000000
0.531609 0.430579 0.000000
0.594171 0.443091 0.000000
0.657221 0.454902 0.000000
0.718532 0.464820 0.000000
0.775204 0.471748 0.000000
0.829191 0.475807 0.000000
0.875212 0.476387 0.000000
0.914549 0.475074 0.000000
0.948760 0.472877 0.043824
0.978515 0.470802 0.096162
1.000000 0.469154 0.130220
1.000000 0.468299 0.160098
1.000000 0.468574 0.188357
1.000000 0.470161 0.215305
1.000000 0.473243 0.241306
1.000000 0.477882 0.266972
1.000000 0.484718 0.292882
1.000000 0.493812 0.319707
1.000000 0.505303 0.347234
1.000000 0.519432 0.375952
1.000000 0.535851 0.405585
0.080781 0.459205 0.000000
0.100221 0.459571 0.000000
0.122164 0.459968 0.000000
0.157259 0.460822 0.000000
0.199466 0.462165 0.000000
0.243992 0.464179 0.000000
0.290349 0.466835 0.000000
0.335851 0.467109 0.000000
0.381048 0.466041 0.000000
0.428656 0.467750 0.000000
0.477424 0.470130 0.000000
0.537530 0.481910 0.000000
0.599481 0.493782 0.000000
0.660609 0.503929 0.000000
0.720058 0.512444 0.000000
0.774258 0.517449 0.000000
0.822202 0.519341 0.000000
0.866209 0.519371 0.000000
0.906340 0.517601 0.000000
0.941405 0.514702 0.052918
0.971923 0.511528 0.100282
0.998260 0.508476 0.133913
1.000000 0.506218 0.164157
1.000000 0.504723 0.192508
1.000000 0.504387 0.219577
1.000000 0.505241 0.245426
1.000000 0.507713 0.270909
1.000000 0.512261 0.296818
1.000000 0.519097 0.323278
1.000000 0.528405 0.350805
1.000000 0.540368 0.379522
1.000000 0.554864 0.409247
0.089326 0.519219 0.000000
0.107729 0.519585 0.000000
0.129274 0.519890 0.000000
0.164248 0.520714 0.000000
0.207004 0.522210 0.000000
0.252110 0.524132 0.000000
0.299168 0.526818 0.000000
0.349157 0.532219 0.000000
0.397589 0.533471 0.000000
0.446601 0.534813 0.000000
0.495857 0.535882 0.000000
0.545342 0.536767 0.000000
0.637110 0.575067 0.000000
0.701137 0.585107 0.000000
0.757412 0.588739 0.000000
0.806912 0.588067 0.000000
0.850034 0.584680 0.000000
0.887358 0.579706 0.000000
0.919615 0.574182 0.030488
0.951263 0.568750 0.097597
0.979248 0.563012 0.130739
1.000000 0.557610 0.160586
1.000000 0.552728 0.187778
1.000000 0.548943 0.214237
1.000000 0.546380 0.239750
1.000000 0.545281 0.264744
1.000000 0.545708 0.289433
1.000000 0.548119 0.314305
1.000000 0.552758 0.339940
1.000000 0.559930 0.366522
1.000000 0.569696 0.394446
1.000000 0.581720 0.423011
0.097627 0.590631 0.000000
0.116152 0.591272 0.000000
0.137514 0.591608 0.000000
0.173678 0.592676 0.000000
0.217441 0.594415 0.000000
0.264195 0.596582 0.000000
0.313481 0.599847 0.000000
0.364294 0.604059 0.000000
0.416175 0.607507 0.000000
0.467445 0.609400 0.000000
0.520256 0.612116 0.000000
0.574243 0.615259 0.000000
0.628748 0.618341 0.000000
0.690425 0.627100 0.000000
0.752621 0.635401 0.000000
0.802731 0.634394 0.000000
0.846006 0.629633 0.000000
0.883238 0.622766 0.000000
0.915587 0.615229 0.000000
0.944427 0.608209 0.075257
0.970611 0.602106 0.134798
0.995605 0.595666 0.163943
1.000000 0.589593 0.191379
1.000000 0.584253 0.217685
1.000000 0.579980 0.242954
1.000000 0.577050 0.267765
1.000000 0.575708 0.292485
1.000000 0.576287 0.317662
1.000000 0.578973 0.343267
1.000000 0.584283 0.370306
1.000000 0.592126 0.398260
1.000000 0.602380 0.427100
0.104891 0.657771 0.000000
0.123995 0.658106 0.000000
0.144350 0.658045 0.000000
0.180392 0.658289 0.000000
0.224277 0.658595 0.000000
0.271458 0.659419 0.000000
0.320500 0.661311 0.000000
0.371313 0.664210 0.000000
0.423896 0.668421 0.000000
0.475868 0.670253 0.000000
0.528344 0.671901 0.000000
0.581872 0.674159 0.000000
0.635523 0.675929 0.000000
0.688777 0.676844 0.000000
0.744900 0.679988 0.000000
0.799435 0.681697 0.000000
0.842069 0.675105 0.000000
0.879088 0.666438 0.000000
0.911620 0.656947 0.000000
0.940612 0.647944 0.000000
0.966430 0.639796 0.103395
0.989136 0.632929 0.160861
1.000000 0.626429 0.196536
1.000000 0.619959 0.222812
1.000000 0.614374 0.248264
1.000000 0.609918 0.273259
1.000000 0.606928 0.297948
1.000000 0.605768 0.323095
1.000000 0.606806 0.349035
1.000000 0.610376 0.376165
1.000000 0.616510 0.404486
1.000000 0.625055 0.433570
0.112947 0.718715 0.000000
0.130648 0.719020 0.000000
0.150698 0.718746 0.000000
0.186526 0.718471 0.000000
0.229892 0.717983 0.000000
0.276646 0.717922 0.000000
0.325353 0.718685 0.000000
0.375586 0.720363 0.000000
0.427436 0.723293 0.000000
0.480720 0.726741 0.000000
0.532372 0.727352 0.000000
0.584924 0.728237 0.000000
0.637568 0.728878 0.000000
0.689631 0.728664 0.000000
0.740627 0.727138 0.000000
0.791653 0.725673 0.000000
0.839475 0.722042 0.000000
0.876066 0.711360 0.000000
0.908385 0.699886 0.000000
0.937346 0.688746 0.000000
0.963195 0.678370 0.005615
0.986023 0.669123 0.129519
1.000000 0.661189 0.182925
1.000000 0.655146 0.227481
1.000000 0.648493 0.254276
1.000000 0.642908 0.279393
1.000000 0.638758 0.305058
1.000000 0.636561 0.331334
1.000000 0.636500 0.358282
1.000000 0.639002 0.386572
1.000000 0.643915 0.415625
1.000000 0.651545 0.446052
0.121614 0.771603 0.000000
0.138888 0.771969 0.000000
0.157259 0.772000 0.000000
0.191897 0.771939 0.000000
0.234562 0.771786 0.000000
0.281010 0.772030 0.000000
0.329259 0.772763 0.000000
0.379095 0.774197 0.000000
0.430365 0.776059 0.000000
0.482521 0.778561 0.000000
0.534325 0.779171 0.000000
0.584955 0.778042 0.000000
0.635248 0.776394 0.000000
0.685237 0.774228 0.000000
0.734310 0.771237 0.000000
0.782437 0.767514 0.000000
0.830014 0.763699 0.000000
0.872892 0.756680 0.000000
0.905516 0.743587 0.000000
0.934844 0.730831 0.000000
0.961059 0.718593 0.000000
0.984131 0.707271 0.086702
1.000000 0.697139 0.158541
1.000000 0.688685 0.209354
1.000000 0.682185 0.253452
1.000000 0.677119 0.290043
1.000000 0.671809 0.315709
1.000000 0.668330 0.342260
1.000000 0.666926 0.369635
1.000000 0.667659 0.397467
1.000000 0.670680 0.426154
1.000000 0.676600 0.456428
0.132998 0.815183 0.000000
0.147250 0.815244 0.000000
0.164858 0.815030 0.000000
0.197238 0.814878 0.000000
0.237949 0.814694 0.000000
0.282597 0.814633 0.000000
0.329442 0.814939 0.000000
0.377966 0.815579 0.000000
0.427466 0.816617 0.000000
0.478065 0.818051 0.000000
0.529564 0.819760 0.000000
0.579187 0.818601 0.000000
0.628443 0.816739 0.000000
0.677211 0.814206 0.000000
0.725246 0.810941 0.000000
0.772122 0.806851 0.000000
0.818296 0.802182 0.000000
0.863767 0.797452 0.000000
0.902495 0.787747 0.000000
0.931670 0.772946 0.000000
0.957885 0.758663 0.000000
0.981048 0.745174 0.000000
1.000000 0.732815 0.121736
1.000000 0.722042 0.184634
1.000000 0.713130 0.233829
1.000000 0.706508 0.278080
1.000000 0.702541 0.320165
1.000000 0.698817 0.351446
1.000000 0.696132 0.379156
1.000000 0.695552 0.407507
1.000000 0.697322 0.436744
1.000000 0.702052 0.467872
0.145876 0.853971 0.000000
0.159335 0.854398 0.000000
0.182712 0.870909 0.000000
0.212314 0.870542 0.000000
0.250553 0.869902 0.000000
0.292943 0.869108 0.000000
0.338109 0.868284 0.000000
0.384680 0.867613 0.000000
0.432929 0.867216 0.000000
0.481941 0.867094 0.000000
0.531487 0.867155 0.000000
0.580774 0.866392 0.000000
0.628443 0.863157 0.000000
0.675746 0.859525 0.000000
0.722286 0.855344 0.000000
0.768063 0.850645 0.000000
0.813199 0.845487 0.000000
0.857481 0.840024 0.000000
0.901335 0.834531 0.000000
0.935027 0.821286 0.000000
0.959930 0.803891 0.000000
0.982208 0.787564 0.000000
1.000000 0.772519 0.080842
1.000000 0.759030 0.163455
1.000000 0.747219 0.218143
1.000000 0.737667 0.264591
1.000000 0.730587 0.307561
1.000000 0.726436 0.349310
1.000000 0.725307 0.389593
1.000000 0.723201 0.417792
1.000000 0.723720 0.447639
1.000000 0.726894 0.478920
0.162875 0.891142 0.000000
0.174990 0.893004 0.000000
0.190341 0.894804 0.000000
0.217655 0.896208 0.000000
0.253391 0.896971 0.000000
0.293675 0.896880 0.000000
0.336675 0.896361 0.000000
0.381262 0.895628 0.000000
0.427314 0.895079 0.000000
0.474037 0.894591 0.000000
0.521630 0.894163 0.000000
0.569574 0.893706 0.000000
0.616358 0.891386 0.000000
0.662043 0.887846 0.000000
0.707271 0.883757 0.000000
0.751888 0.879210 0.000000
0.795895 0.874296 0.000000
0.839292 0.869169 0.000000
0.882322 0.863920 0.000000
0.925017 0.858824 0.000000
0.955962 0.844511 0.000000
0.979034 0.826658 0.000000
0.998993 0.809689 0.000000
1.000000 0.794156 0.124422
1.000000 0.780209 0.192599
1.000000 0.768307 0.244724
1.000000 0.758816 0.291142
1.000000 0.752224 0.335363
1.000000 0.748836 0.379004
1.000000 0.748745 0.422187
1.000000 0.750179 0.459785
1.000000 0.751980 0.491249
0.176669 0.918090 0.000000
0.187564 0.919524 0.000000
0.201175 0.920958 0.000000
0.225620 0.922026 0.000000
0.258518 0.922576 0.000000
0.295995 0.922393 0.000000
0.336553 0.921752 0.000000
0.378607 0.920989 0.000000
0.422400 0.920287 0.000000
0.467262 0.919585 0.000000
0.512779 0.918883 0.000000
0.558740 0.918090 0.000000
0.604791 0.916930 0.000000
0.649073 0.913573 0.000000
0.692927 0.909667 0.000000
0.736263 0.905364 0.000000
0.779110 0.900755 0.000000
0.821500 0.895903 0.000000
0.863554 0.890959 0.000000
0.905364 0.886107 0.000000
0.946777 0.881254 0.000000
0.975433 0.866300 0.000000
0.996399 0.847929 0.000000
1.000000 0.830320 0.053681
1.000000 0.814206 0.161563
1.000000 0.799985 0.222263
1.000000 0.788022 0.272740
1.000000 0.778836 0.319707
1.000000 0.772824 0.365332
1.000000 0.770047 0.409949
1.000000 0.770993 0.455360
1.000000 0.775875 0.501732
0.191318 0.942077 0.000000
0.201083 0.943236 0.000000
0.213107 0.944396 0.000000
0.235386 0.945220 0.000000
0.265141 0.945556 0.000000
0.299748 0.945251 0.000000
0.337377 0.944549 0.000000
0.377050 0.943664 0.000000
0.418555 0.942748 0.000000
0.461128 0.941772 0.000000
0.504540 0.940795 0.000000
0.548486 0.939696 0.000000
0.592584 0.938323 0.000000
0.636286 0.936187 0.000000
0.678737 0.932616 0.000000
0.721004 0.928862 0.000000
0.763027 0.924926 0.000000
0.804837 0.920897 0.000000
0.846403 0.916838 0.000000
0.887755 0.912749 0.000000
0.928740 0.908690 0.000000
0.969451 0.904540 0.000000
0.996033 0.889067 0.000000
1.000000 0.869993 0.000000
1.000000 0.851774 0.139132
1.000000 0.835477 0.210697
1.000000 0.821347 0.266453
1.000000 0.809964 0.316503
1.000000 0.801602 0.364355
1.000000 0.796506 0.410559
1.000000 0.795102 0.457282
1.000000 0.797757 0.504387
0.213138 0.967559 0.000000
0.220890 0.967956 0.000000
0.230381 0.968231 0.000000
0.249119 0.968231 0.000000
0.275608 0.967956 0.000000
0.306828 0.967346 0.000000
0.341527 0.966552 0.000000
0.378698 0.965667 0.000000
0.417884 0.964813 0.000000
0.458442 0.963867 0.000000
0.499916 0.962860 0.000000
0.541955 0.961639 0.000000
0.584192 0.960143 0.000000
0.626459 0.958343 0.000000
0.667659 0.955383 0.000000
0.708461 0.951720 0.000000
0.748928 0.947906 0.000000
0.789334 0.943938 0.000000
0.829404 0.939879 0.000000
0.869291 0.935729 0.000000
0.908812 0.931487 0.000000
0.947906 0.927123 0.000000
0.986542 0.922667 0.000000
1.000000 0.906767 0.000000
1.000000 0.886992 0.080262
1.000000 0.868498 0.180789
1.000000 0.852110 0.244694
1.000000 0.838346 0.298894
1.000000 0.827481 0.349706
1.000000 0.819730 0.397742
1.000000 0.815671 0.445441
1.000000 0.815793 0.493355
0.230289 0.985504 0.000000
0.236973 0.985840 0.000000
0.245426 0.986084 0.000000
0.262242 0.986053 0.000000
0.285679 0.985718 0.000000
0.313939 0.985046 0.000000
0.345769 0.984192 0.000000
0.379950 0.983185 0.000000
0.416754 0.982116 0.000000
0.454871 0.981048 0.000000
0.494209 0.979828 0.000000
0.533989 0.978485 0.000000
0.574243 0.976898 0.000000
0.614832 0.975067 0.000000
0.655268 0.973022 0.000000
0.694484 0.969696 0.000000
0.733608 0.966217 0.000000
0.772641 0.962585 0.000000
0.811551 0.958831 0.000000
0.850156 0.954986 0.000000
0.888548 0.951080 0.000000
0.926635 0.947051 0.000000
0.964263 0.942962 0.000000
1.000000 0.938689 0.000000
1.000000 0.921508 0.000000
1.000000 0.901579 0.136812
1.000000 0.883055 0.215824
1.000000 0.866911 0.276127
1.000000 0.853605 0.330205
1.000000 0.843351 0.380713
1.000000 0.836790 0.429938
1.000000 0.834501 0.479408
0.254429 1.000000 0.000000
0.260258 1.000000 0.000000
0.267491 1.000000 0.000000
0.281651 1.000000 0.000000
0.301640 1.000000 0.000000
0.326482 1.000000 0.000000
0.354833 1.000000 0.000000
0.385962 1.000000 0.000000
0.419593 0.998871 0.000000
0.454871 0.997406 0.000000
0.491341 0.995819 0.000000
0.528618 0.994171 0.000000
0.566674 0.992309 0.000000
0.604913 0.990204 0.000000
0.643275 0.987854 0.000000
0.681209 0.985016 0.000000
0.718441 0.981476 0.000000
0.755764 0.977844 0.000000
0.793149 0.974273 0.000000
0.830533 0.970703 0.000000
0.867735 0.967071 0.000000
0.904570 0.963348 0.011810
0.940978 0.959350 0.053925
0.976806 0.955138 0.071778
1.000000 0.950713 0.084169
1.000000 0.935668 0.126894
1.000000 0.915526 0.186862
1.000000 0.897093 0.254734
1.000000 0.881346 0.311925
1.000000 0.868681 0.364874
1.000000 0.859648 0.415503
1.000000 0.854887 0.466285
0.272862 1.000000 0.000000
0.277989 1.000000 0.000000
0.284428 1.000000 0.000000
0.296788 1.000000 0.000000
0.314549 1.000000 0.000000
0.336645 1.000000 0.000000
0.362493 1.000000 0.000000
0.391119 1.000000 0.000000
0.422248 1.000000 0.000000
0.455329 1.000000 0.000000
0.489479 1.000000 0.000000
0.524956 1.000000 0.029786
0.560998 1.000000 0.061524
0.597375 1.000000 0.076539
0.634028 1.000000 0.089357
0.670680 0.999237 0.101289
0.706722 0.996155 0.106203
0.742458 0.992859 0.108919
0.778256 0.989502 0.113802
0.814115 0.986114 0.120516
0.849851 0.982635 0.128267
0.885313 0.979004 0.136751
0.920378 0.975219 0.144808
0.954955 0.971252 0.152499
0.989044 0.967102 0.160220
1.000000 0.962768 0.167453
1.000000 0.948669 0.192111
1.000000 0.928588 0.236027
1.000000 0.910674 0.298344
1.000000 0.895872 0.354345
1.000000 0.884581 0.407141
1.000000 0.877592 0.459358
0.294804 1.000000 0.092836
0.299351 1.000000 0.095857
0.304509 1.000000 0.097200
0.314916 1.000000 0.098268
0.330083 1.000000 0.098634
0.349462 1.000000 0.099428
0.372320 1.000000 0.100832
0.398383 1.000000 0.102693
0.426947 1.000000 0.106600
0.457282 1.000000 0.111788
0.489387 1.000000 0.117861
0.522667 1.000000 0.125612
0.556664 1.000000 0.133425
0.591241 1.000000 0.141421
0.625879 1.000000 0.149081
0.660761 1.000000 0.156771
0.695766 1.000000 0.164553
0.729763 1.000000 0.166842
0.764004 1.000000 0.170352
0.798276 0.998749 0.175235
0.832517 0.995422 0.181338
0.866575 0.991974 0.188388
0.900237 0.988403 0.195102
0.933532 0.984649 0.202335
0.966339 0.980743 0.209171
0.998749 0.976623 0.215732
1.000000 0.972381 0.222782
1.000000 0.959533 0.241581
1.000000 0.939727 0.277379
1.000000 0.922637 0.337407
1.000000 0.909087 0.392126
1.000000 0.899687 0.445594
0.315923 1.000000 0.151339
0.319585 1.000000 0.152590
0.324163 1.000000 0.153506
0.333165 1.000000 0.154330
0.346899 1.000000 0.155337
0.364630 1.000000 0.157412
0.385992 1.000000 0.160678
0.410376 1.000000 0.165225
0.437476 1.000000 0.171267
0.466468 1.000000 0.178042
0.496956 1.000000 0.185702
0.528466 1.000000 0.193637
0.560662 1.000000 0.201785
0.593317 1.000000 0.209659
0.626123 1.000000 0.217227
0.658900 1.000000 0.223972
0.691920 1.000000 0.231357
0.724453 1.000000 0.237064
0.756619 1.000000 0.240757
0.788937 1.000000 0.245151
0.821164 1.000000 0.250706
0.853269 1.000000 0.256870
0.885130 1.000000 0.262974
0.916564 0.998047 0.269291
0.947692 0.994263 0.275669
0.978454 0.990356 0.282170
1.000000 0.986358 0.289006
1.000000 0.982300 0.296330
1.000000 0.970855 0.312230
1.000000 0.951690 0.343114
1.000000 0.936034 0.397711
1.000000 0.924651 0.452186
0.350103 1.000000 0.215091
0.353033 1.000000 0.215732
0.356634 1.000000 0.216220
0.363867 1.000000 0.216342
0.375036 1.000000 0.216709
0.389776 1.000000 0.217563
0.407782 1.000000 0.218997
0.428565 1.000000 0.221317
0.452033 1.000000 0.224552
0.477729 1.000000 0.228855
0.504875 1.000000 0.233555
0.533288 1.000000 0.238865
0.562646 1.000000 0.244663
0.592767 1.000000 0.250706
0.623194 1.000000 0.256748
0.654047 1.000000 0.263218
