其他预设/【232】美食博客调色预设124款/1.3D LUT预设（视频调色-PR-AE-PS-FCPX-达芬奇用）/Yummy #8.cube
# Created by Adobe Lightroom plugin Export LUT (1.17.0)
# www.johnrellis.com/lightroom/exportlut.htm
# Preset: Yummy #8
# Color profile: /Library/Application Support/Adobe/Color/Profiles/Recommended/AdobeRGB1998.icc
LUT_3D_SIZE 32
0.000000 0.000000 0.000000
0.027283 0.019379 0.020417
0.055085 0.041474 0.048615
0.084810 0.071229 0.074983
0.123598 0.089601 0.091859
0.162936 0.105409 0.105318
0.201266 0.119356 0.117922
0.238956 0.133089 0.130922
0.277623 0.146548 0.145785
0.317784 0.160616 0.161776
0.359808 0.174716 0.180880
0.403937 0.188937 0.200137
0.449958 0.202518 0.219669
0.497536 0.215885 0.239597
0.544152 0.228122 0.259678
0.588769 0.239597 0.278660
0.631464 0.250462 0.296880
0.671809 0.261418 0.314549
0.708827 0.272343 0.331701
0.753262 0.286870 0.353124
0.792142 0.301640 0.373175
0.825589 0.316411 0.391150
0.854276 0.331060 0.407935
0.879332 0.345861 0.423316
0.901549 0.360266 0.437629
0.921721 0.375158 0.451331
0.940551 0.390875 0.464790
0.958160 0.407660 0.478401
0.974762 0.425696 0.492256
0.990265 0.445228 0.506310
1.000000 0.465583 0.520256
1.000000 0.486641 0.533867
0.000000 0.066682 0.043000
0.024231 0.071931 0.057984
0.053071 0.077516 0.067506
0.086549 0.092164 0.082216
0.126101 0.107698 0.094942
0.164736 0.120607 0.106844
0.202243 0.132265 0.118532
0.239445 0.143801 0.130831
0.277501 0.155489 0.144717
0.317235 0.168551 0.161013
0.358679 0.181643 0.179904
0.402258 0.195071 0.199130
0.447608 0.208194 0.219120
0.494667 0.220798 0.239353
0.540917 0.232456 0.258793
0.585351 0.243595 0.277745
0.627955 0.254063 0.295476
0.668208 0.264469 0.313298
0.705501 0.274907 0.330297
0.749538 0.288823 0.351202
0.787839 0.302861 0.370611
0.821103 0.316869 0.388739
0.850004 0.330999 0.405035
0.875364 0.345068 0.420356
0.897948 0.359197 0.434699
0.918517 0.373968 0.448737
0.937743 0.389380 0.462287
0.955749 0.406073 0.476112
0.972747 0.424048 0.490028
0.988525 0.443397 0.504204
1.000000 0.463661 0.518181
1.000000 0.484749 0.531945
0.000000 0.093660 0.070558
0.021607 0.097902 0.075196
0.053620 0.103548 0.081453
0.089387 0.116823 0.090089
0.129458 0.128786 0.097200
0.167391 0.138888 0.107759
0.204166 0.147951 0.118044
0.240604 0.157198 0.130373
0.278264 0.167269 0.144198
0.317510 0.178653 0.161044
0.358679 0.191135 0.179446
0.401892 0.203647 0.198764
0.447089 0.215793 0.218631
0.493843 0.227665 0.239139
0.539849 0.239048 0.258610
0.584009 0.249241 0.277195
0.626398 0.259525 0.295048
0.666651 0.269352 0.312505
0.704585 0.279332 0.330053
0.748013 0.292699 0.350439
0.785946 0.305974 0.369574
0.819089 0.319463 0.387457
0.847990 0.333074 0.403784
0.873411 0.346746 0.419226
0.896117 0.360479 0.433448
0.916869 0.374853 0.447364
0.936309 0.390112 0.461036
0.954528 0.406531 0.474922
0.971679 0.424292 0.488930
0.987701 0.443458 0.503105
1.000000 0.463630 0.517235
1.000000 0.484565 0.531060
0.000000 0.144686 0.094179
0.012634 0.148684 0.095277
0.054810 0.154055 0.096040
0.094942 0.164431 0.102632
0.136751 0.172274 0.104219
0.175387 0.174197 0.101076
0.210483 0.178073 0.111910
0.245884 0.183261 0.125795
0.282353 0.190494 0.140841
0.320806 0.199741 0.159152
0.361151 0.210239 0.178470
0.403723 0.220829 0.198825
0.448127 0.231937 0.219120
0.494240 0.242802 0.239353
0.539727 0.252476 0.258427
0.583612 0.262058 0.277012
0.625574 0.271000 0.295140
0.665431 0.279820 0.312474
0.704799 0.289616 0.330114
0.746242 0.301274 0.349645
0.783017 0.313298 0.368017
0.815671 0.325536 0.385504
0.844755 0.338293 0.401892
0.870817 0.351415 0.417517
0.894408 0.364904 0.432166
0.915953 0.379156 0.446479
0.935882 0.394263 0.460731
0.954437 0.410773 0.474952
0.971649 0.428077 0.488960
0.987579 0.446845 0.503166
1.000000 0.466285 0.516930
1.000000 0.486549 0.530571
0.000000 0.201663 0.112001
0.000000 0.204532 0.111330
0.028901 0.208286 0.109773
0.089662 0.215946 0.103609
0.138888 0.225925 0.108583
0.182254 0.226963 0.106569
0.218418 0.221408 0.100740
0.253758 0.218631 0.102113
0.288579 0.221683 0.126711
0.325414 0.228305 0.151278
0.364660 0.236088 0.173587
0.406348 0.245029 0.195834
0.450050 0.254215 0.217685
0.495613 0.263554 0.237797
0.540673 0.271946 0.257939
0.584344 0.280339 0.276707
0.626429 0.287999 0.294987
0.666255 0.295842 0.312230
0.707759 0.305028 0.331121
0.747524 0.315251 0.350164
0.782986 0.325719 0.368170
0.814939 0.336706 0.385016
0.843595 0.348119 0.401343
0.869688 0.360174 0.416693
0.893339 0.372900 0.431617
0.915038 0.386389 0.446021
0.935119 0.400824 0.460090
0.953704 0.416266 0.474220
0.970947 0.433143 0.488411
0.986938 0.451240 0.502525
1.000000 0.470161 0.516472
1.000000 0.489876 0.529992
0.000000 0.253117 0.127474
0.000000 0.255375 0.125612
0.000000 0.257969 0.122042
0.072450 0.263432 0.112032
0.127230 0.271000 0.098726
0.181247 0.279606 0.100801
0.227817 0.278843 0.099092
0.262974 0.269413 0.094942
0.298802 0.263310 0.098817
0.335058 0.263157 0.126925
0.372961 0.268132 0.160586
0.413581 0.274510 0.187869
0.456153 0.281773 0.213016
0.500908 0.289250 0.234989
0.545129 0.296330 0.255711
0.588220 0.303044 0.275700
0.629755 0.309514 0.294377
0.669551 0.316228 0.312108
0.712551 0.324926 0.332280
0.750973 0.333532 0.351049
0.785733 0.342687 0.368750
0.817258 0.352300 0.386206
0.872251 0.378943 0.420356
0.895476 0.390723 0.435615
0.916045 0.402869 0.449866
0.934691 0.415473 0.463447
0.951812 0.429023 0.476783
0.967712 0.443458 0.489876
0.982574 0.459174 0.502831
0.996490 0.475624 0.515557
1.000000 0.492927 0.528130
1.000000 0.510735 0.540307
0.000000 0.305241 0.143465
0.000000 0.306706 0.141604
0.000000 0.308782 0.137362
0.031617 0.313176 0.126802
0.111299 0.319554 0.101015
0.169436 0.326604 0.085084
0.227604 0.334051 0.089174
0.279515 0.333989 0.093782
0.315801 0.322301 0.105257
0.353918 0.315160 0.117464
0.394263 0.310887 0.128054
0.434455 0.313298 0.169436
0.476448 0.317937 0.203616
0.519524 0.322942 0.230533
0.561700 0.327550 0.253819
0.602380 0.332097 0.275273
0.642054 0.336645 0.294835
0.685451 0.343389 0.315740
0.726741 0.350744 0.336370
0.764492 0.358434 0.355962
0.799710 0.367193 0.375402
0.832395 0.377020 0.394263
0.862058 0.388098 0.412390
0.888518 0.399908 0.429877
0.911803 0.412299 0.445838
0.931945 0.424750 0.460792
0.949859 0.437781 0.474739
0.966094 0.451484 0.488014
0.981231 0.466285 0.501244
0.995178 0.481880 0.514092
1.000000 0.498238 0.526513
1.000000 0.515312 0.538811
0.000000 0.347082 0.163577
0.000000 0.348272 0.160647
0.000000 0.349798 0.157382
0.000000 0.353246 0.148928
0.090089 0.358434 0.130373
0.148989 0.364965 0.091768
0.208591 0.371099 0.092134
0.267948 0.377874 0.102632
0.324132 0.379767 0.114229
0.362768 0.368505 0.124514
0.402564 0.360754 0.137362
0.444282 0.355047 0.148684
0.486946 0.352331 0.168276
0.528008 0.354772 0.208988
0.568444 0.357397 0.240360
0.607935 0.360235 0.265385
0.649897 0.364477 0.289250
0.692287 0.369818 0.312352
0.730617 0.375036 0.333074
0.766415 0.380743 0.353368
0.800168 0.387610 0.372595
0.831846 0.395727 0.391669
0.860868 0.404913 0.409735
0.886931 0.415045 0.427344
0.910033 0.425849 0.443519
0.930236 0.437018 0.458473
0.948241 0.448737 0.472663
0.964691 0.461250 0.486122
0.979919 0.475166 0.499672
0.994079 0.489815 0.512505
1.000000 0.505486 0.525353
1.000000 0.521843 0.537743
0.000000 0.387304 0.191196
0.000000 0.388464 0.187625
0.000000 0.389807 0.185275
0.000000 0.392554 0.178592
0.067811 0.397009 0.166262
0.132509 0.402472 0.143099
0.189700 0.408881 0.103761
0.249851 0.414710 0.112978
0.310948 0.420935 0.124971
0.371221 0.424781 0.137514
0.413458 0.414557 0.147036
0.454810 0.405982 0.159152
0.497414 0.399420 0.170230
0.539513 0.393103 0.180941
0.578973 0.390509 0.211490
0.620050 0.392493 0.248478
0.662074 0.395636 0.278630
0.700954 0.398627 0.304448
0.736629 0.401648 0.327703
0.770535 0.405432 0.348943
0.802884 0.410620 0.369177
0.833433 0.416846 0.388800
0.861570 0.424384 0.407538
0.887083 0.432868 0.425116
0.909758 0.442145 0.441535
0.929747 0.451850 0.456794
0.947692 0.462257 0.471138
0.964080 0.473732 0.484932
0.979309 0.486366 0.498421
0.993439 0.500023 0.511589
1.000000 0.514641 0.524254
1.000000 0.530175 0.536858
0.000000 0.426429 0.218784
0.000000 0.427497 0.214298
0.000000 0.428473 0.212039
0.000000 0.430884 0.206607
0.028138 0.434577 0.197665
0.119326 0.439368 0.181521
0.175265 0.445106 0.153201
0.232670 0.451209 0.125795
0.293736 0.456916 0.136233
0.356329 0.462806 0.148196
0.419257 0.466926 0.161013
0.465431 0.458473 0.168917
0.507225 0.448920 0.181064
0.548333 0.440375 0.192538
0.593530 0.434882 0.204868
0.637232 0.429328 0.217319
0.676234 0.429084 0.256657
0.712367 0.429572 0.290227
0.745876 0.430701 0.317784
0.777615 0.432532 0.342046
0.807858 0.435676 0.363653
0.836240 0.439887 0.384100
0.862669 0.445136 0.403174
0.886748 0.451575 0.421027
0.908659 0.458869 0.437659
0.928435 0.467048 0.453376
0.946532 0.476234 0.467994
0.963195 0.486732 0.482460
0.978698 0.498726 0.496803
0.993103 0.511650 0.510307
1.000000 0.525841 0.523766
1.000000 0.540795 0.536706
0.000000 0.463203 0.243412
0.000000 0.464179 0.240665
0.000000 0.465431 0.236576
0.000000 0.467567 0.232822
0.000000 0.470954 0.226047
0.108614 0.475502 0.214359
0.165316 0.481025 0.195529
0.218997 0.487465 0.162356
0.278904 0.493324 0.148531
0.341070 0.499031 0.159670
0.405035 0.504448 0.171633
0.469917 0.508537 0.184451
0.521874 0.502983 0.193423
0.565637 0.493538 0.206546
0.608057 0.484749 0.218631
0.648493 0.476417 0.230869
0.686702 0.467903 0.242344
0.722042 0.461250 0.260655
0.753109 0.459907 0.297673
0.783139 0.459754 0.327367
0.811887 0.461097 0.353185
0.839261 0.463569 0.375952
0.864897 0.467445 0.396857
0.888396 0.472358 0.416114
0.909789 0.478309 0.433906
0.929137 0.484962 0.450172
0.946838 0.492775 0.465431
0.963195 0.501915 0.480293
0.978515 0.512535 0.494728
0.992798 0.524346 0.508721
1.000000 0.537469 0.522301
1.000000 0.551568 0.535576
0.000000 0.500572 0.266880
0.000000 0.501549 0.264622
0.000000 0.502770 0.260838
0.000000 0.504753 0.257511
0.000000 0.507897 0.251835
0.100862 0.512016 0.243076
0.158999 0.517266 0.229068
0.211643 0.523247 0.207675
0.265568 0.529931 0.170443
0.327764 0.535149 0.172122
0.392737 0.541772 0.184512
0.461402 0.549157 0.198428
0.556939 0.572473 0.224460
0.612238 0.566247 0.234562
0.652705 0.553002 0.246983
0.690120 0.540307 0.259068
0.724880 0.528374 0.270848
0.756619 0.516838 0.281651
0.785702 0.506096 0.292485
0.812497 0.500053 0.317815
0.837156 0.498634 0.349950
0.860563 0.498817 0.376471
0.882414 0.500267 0.399176
0.902800 0.503075 0.419684
0.921630 0.507073 0.437995
0.938964 0.512291 0.454841
0.954925 0.518547 0.470466
0.969818 0.526146 0.485176
0.983764 0.535180 0.499458
0.996948 0.545464 0.513115
1.000000 0.556970 0.526238
1.000000 0.569696 0.539178
0.000000 0.544518 0.292638
0.000000 0.545373 0.289830
0.000000 0.546197 0.286351
0.000000 0.547448 0.282841
0.000000 0.549493 0.277867
0.100404 0.552270 0.270298
0.158022 0.556176 0.259892
0.209506 0.561028 0.244053
0.263218 0.569177 0.221347
0.322179 0.578515 0.190494
0.390082 0.586450 0.203616
0.459815 0.594202 0.217899
0.531273 0.601373 0.233371
0.603357 0.606989 0.249149
0.658839 0.601678 0.260502
0.696437 0.587457 0.271427
0.729946 0.573175 0.282872
0.760067 0.559625 0.293614
0.788052 0.547143 0.303868
0.814725 0.536126 0.314336
0.840330 0.526574 0.325322
0.863005 0.523613 0.355413
0.883879 0.523278 0.383795
0.903563 0.524285 0.407416
0.921874 0.526787 0.428229
0.938842 0.530358 0.446784
0.954620 0.535363 0.463905
0.969390 0.541741 0.479927
0.983337 0.549645 0.495064
0.996521 0.559075 0.509728
1.000000 0.569696 0.523522
1.000000 0.581720 0.537194
0.000000 0.577935 0.312322
0.000000 0.578668 0.309789
0.000000 0.579492 0.306493
0.000000 0.581567 0.303319
0.000000 0.584131 0.299718
0.102296 0.587762 0.294774
0.159670 0.592432 0.287266
0.210849 0.598016 0.275944
0.261601 0.604669 0.260258
0.315770 0.612238 0.235264
0.376532 0.619745 0.217990
0.443702 0.625971 0.230808
0.511437 0.631617 0.245029
0.579767 0.636103 0.259464
0.646723 0.639155 0.274540
0.700649 0.633875 0.285649
0.734188 0.618067 0.294865
0.763210 0.602502 0.305119
0.790219 0.588220 0.315312
0.816129 0.575616 0.325444
0.841123 0.564660 0.336095
0.864836 0.555261 0.346715
0.886717 0.547875 0.360693
0.905730 0.547234 0.390661
0.923522 0.548028 0.415686
0.940063 0.550317 0.437232
0.955505 0.553948 0.456367
0.970062 0.559106 0.473793
0.983825 0.566003 0.490608
0.996918 0.574426 0.506218
1.000000 0.584283 0.521019
1.000000 0.595544 0.535393
0.000000 0.617090 0.334539
0.000000 0.617884 0.333410
0.000000 0.618494 0.330358
0.000000 0.619928 0.326360
0.006806 0.621424 0.323308
0.112367 0.623713 0.318669
0.165499 0.626917 0.312230
0.213260 0.631098 0.303655
0.261723 0.636378 0.291142
0.311711 0.642603 0.274418
0.365393 0.649531 0.248478
0.427436 0.655299 0.244572
0.492775 0.659937 0.257511
0.557946 0.663722 0.270909
0.622248 0.666163 0.284672
0.684382 0.667170 0.298253
0.737026 0.662776 0.309850
0.767117 0.646113 0.317327
0.793240 0.629816 0.327153
0.818296 0.615473 0.337072
0.842313 0.603052 0.347204
0.865354 0.592126 0.357549
0.886992 0.582696 0.367834
0.907378 0.574609 0.378515
0.925719 0.570397 0.397345
0.941955 0.571313 0.423774
0.957336 0.573938 0.446632
0.971923 0.578363 0.467079
0.985748 0.584649 0.486061
0.998810 0.592767 0.503746
1.000000 0.602289 0.520226
1.000000 0.613184 0.535760
0.000000 0.651118 0.354894
0.000000 0.651942 0.353613
0.000000 0.652613 0.351415
0.000000 0.653956 0.347478
0.070497 0.655329 0.344976
0.128939 0.657435 0.341100
0.175875 0.660243 0.336065
0.220493 0.663905 0.329686
0.265873 0.668238 0.320623
0.312932 0.673182 0.307530
0.362127 0.678462 0.289555
0.414405 0.683894 0.263096
0.475685 0.686854 0.270787
0.537316 0.689082 0.282719
0.597955 0.690455 0.294865
0.657435 0.690974 0.307195
0.715236 0.690791 0.319982
0.767819 0.688258 0.332189
0.796445 0.671870 0.339269
0.821286 0.656245 0.349432
0.845151 0.642512 0.359564
0.867826 0.630488 0.370184
0.889128 0.619898 0.380560
0.909209 0.610712 0.391119
0.927977 0.603082 0.401617
0.945647 0.596765 0.412390
0.960998 0.596246 0.434668
0.975036 0.599451 0.458839
0.988342 0.604608 0.480323
1.000000 0.611566 0.499825
1.000000 0.619898 0.517418
1.000000 0.629603 0.533715
0.000000 0.679896 0.372381
0.000000 0.680354 0.370855
0.000000 0.680812 0.369635
0.025696 0.681971 0.365728
0.100435 0.683101 0.363439
0.145174 0.684718 0.360388
0.186007 0.686976 0.356512
0.227146 0.689876 0.350835
0.268986 0.693385 0.343542
0.312200 0.697414 0.334112
0.357916 0.701869 0.320836
0.405859 0.706538 0.302281
0.458015 0.710597 0.283482
0.517449 0.712337 0.294591
0.575982 0.713313 0.305913
0.632929 0.713466 0.317296
0.688777 0.713008 0.329229
0.742916 0.712398 0.341466
0.793362 0.710506 0.353643
0.823301 0.696712 0.361181
0.846494 0.681331 0.371160
0.868681 0.667720 0.381323
0.889525 0.655909 0.391516
0.909300 0.645716 0.401923
0.927886 0.636957 0.412390
0.945403 0.629816 0.423011
0.961883 0.624201 0.433997
0.977386 0.620356 0.445594
0.990387 0.624140 0.470680
1.000000 0.630121 0.493172
1.000000 0.637690 0.512902
1.000000 0.646754 0.530999
0.056092 0.706203 0.389166
0.068544 0.706905 0.388586
0.109499 0.720882 0.396918
0.124483 0.721798 0.394049
0.152071 0.722530 0.391943
0.183108 0.723507 0.389044
0.216251 0.724788 0.385412
0.251377 0.726558 0.380743
0.288579 0.728847 0.374792
0.328038 0.731716 0.367132
0.369421 0.734920 0.356970
0.412818 0.738216 0.343694
0.458503 0.741268 0.325139
0.510491 0.743038 0.316075
0.566522 0.743008 0.326421
0.621485 0.742458 0.336492
0.675074 0.741512 0.347295
0.726925 0.740291 0.358404
0.777218 0.738979 0.369818
0.824613 0.737362 0.381903
0.854398 0.725368 0.390173
0.875578 0.709987 0.399115
0.895293 0.696284 0.408576
0.913817 0.684413 0.418006
0.931060 0.673945 0.427558
0.947326 0.665064 0.437171
0.962768 0.657832 0.446937
0.977508 0.652522 0.457374
0.991608 0.649226 0.468605
1.000000 0.649348 0.483742
1.000000 0.655879 0.506432
1.000000 0.663966 0.526543
0.120607 0.733364 0.407385
0.128420 0.735348 0.407813
0.137697 0.737453 0.408118
0.152132 0.739773 0.407263
0.174716 0.741726 0.406073
0.201724 0.743130 0.404273
0.230716 0.744503 0.401343
0.261906 0.746059 0.397375
0.295720 0.748074 0.392645
0.331334 0.750454 0.386603
0.369207 0.753231 0.378729
0.409247 0.756100 0.368383
0.451057 0.758724 0.354528
0.494850 0.761166 0.335882
0.546471 0.761624 0.336217
0.599512 0.761013 0.345830
0.651270 0.760037 0.355901
0.701991 0.758846 0.366217
0.751125 0.757717 0.377356
0.798764 0.756832 0.388922
0.844053 0.756008 0.401373
0.875303 0.747036 0.411139
0.895720 0.732692 0.420172
0.914122 0.719722 0.429664
0.931334 0.708248 0.438941
0.947509 0.698543 0.448585
0.962829 0.690517 0.458412
0.977386 0.684443 0.468940
0.991302 0.680385 0.480171
1.000000 0.678248 0.491890
1.000000 0.678004 0.504021
1.000000 0.682155 0.520806
0.156527 0.753841 0.420661
0.163210 0.755581 0.421546
0.170382 0.757412 0.422004
0.182071 0.759426 0.421302
0.200687 0.761227 0.420203
0.222812 0.762448 0.418921
0.248081 0.763638 0.416571
0.275761 0.764981 0.413458
0.305974 0.766751 0.409369
0.338415 0.768795 0.404639
0.373083 0.771206 0.398413
0.409705 0.773739 0.390631
0.447913 0.776120 0.380011
0.487984 0.778317 0.366308
0.530083 0.780148 0.347662
0.581384 0.779507 0.356664
0.631647 0.778592 0.365850
0.680812 0.777432 0.375769
0.728817 0.776333 0.386084
0.775509 0.775479 0.397314
0.820432 0.774838 0.409155
0.863493 0.774929 0.421851
0.895476 0.768826 0.432959
0.914824 0.755428 0.441840
0.931792 0.742947 0.451118
0.947753 0.732113 0.460395
0.962768 0.723079 0.470069
0.977081 0.716091 0.480140
0.990784 0.711025 0.490974
1.000000 0.708003 0.502159
1.000000 0.706844 0.513848
1.000000 0.707485 0.525841
0.189609 0.773495 0.434150
0.195254 0.775021 0.434668
0.201602 0.776699 0.435309
0.211948 0.778470 0.435004
0.227359 0.780026 0.434302
0.246220 0.781094 0.433112
0.267796 0.782132 0.431098
0.292119 0.783291 0.428565
0.319005 0.784695 0.425299
0.348302 0.786435 0.421332
0.379675 0.788418 0.416175
0.413092 0.790555 0.410040
0.448035 0.792660 0.401740
0.484871 0.794644 0.391333
0.523461 0.796567 0.377813
0.566400 0.797665 0.368109
0.615869 0.797208 0.377539
0.664393 0.796780 0.387793
0.712093 0.796445 0.398444
0.758724 0.796201 0.410101
0.803464 0.796292 0.422431
0.846281 0.796689 0.435279
0.886717 0.797665 0.448829
0.919005 0.794675 0.461555
0.937102 0.782437 0.470741
0.952667 0.770901 0.480049
0.967254 0.761135 0.489418
0.981079 0.753353 0.499184
0.994171 0.747555 0.509392
1.000000 0.743740 0.520134
1.000000 0.741726 0.531273
1.000000 0.741451 0.542626
0.232090 0.797574 0.451148
0.235996 0.798306 0.451606
0.240146 0.799008 0.451606
0.248142 0.799863 0.451118
0.260014 0.800717 0.450233
0.275608 0.801389 0.449073
0.294011 0.802182 0.447456
0.315312 0.803250 0.445258
0.339422 0.804685 0.442756
0.366033 0.806363 0.439765
0.394568 0.808316 0.436347
0.425208 0.810300 0.431373
0.457160 0.812222 0.425330
0.490700 0.813993 0.417334
0.525780 0.815640 0.406989
0.562585 0.817166 0.394202
0.606012 0.817441 0.392737
0.652949 0.816800 0.402136
0.698878 0.816190 0.412024
0.743771 0.815671 0.422644
0.786954 0.815274 0.433875
0.828336 0.815152 0.445624
0.867369 0.815244 0.457801
0.904112 0.816007 0.470436
0.935973 0.815457 0.483040
0.952789 0.804105 0.491890
0.967224 0.793454 0.500969
0.980957 0.784726 0.510369
0.993866 0.778073 0.520195
1.000000 0.773281 0.530602
1.000000 0.770382 0.541405
1.000000 0.769406 0.552697
0.264103 0.815488 0.463905
0.267613 0.816190 0.464240
0.271641 0.816861 0.464515
0.279057 0.817655 0.464393
0.289616 0.818357 0.463905
0.302708 0.818875 0.462837
0.318395 0.819516 0.461158
0.336797 0.820279 0.459388
0.358068 0.821378 0.457404
0.381750 0.822812 0.454871
0.407630 0.824430 0.451789
0.435218 0.826169 0.448066
0.464332 0.827878 0.443153
0.495216 0.829587 0.437049
0.527459 0.831205 0.429297
0.561364 0.832761 0.419715
0.596826 0.834287 0.408026
0.641199 0.834073 0.414099
0.686030 0.833616 0.423774
0.729854 0.833249 0.434211
0.772305 0.833036 0.445228
0.813077 0.833005 0.456764
0.851743 0.833280 0.468666
0.887938 0.833829 0.480629
0.918669 0.832120 0.488533
0.950378 0.834287 0.501457
0.966217 0.824002 0.510460
0.979919 0.814542 0.519768
0.992737 0.806973 0.529320
1.000000 0.801297 0.539452
1.000000 0.797726 0.550256
1.000000 0.796201 0.561822
0.305852 0.836606 0.480354
0.309300 0.837308 0.480781
0.312963 0.837797 0.481117
0.319432 0.838254 0.481209
0.327855 0.838590 0.480446
0.338445 0.838773 0.479408
0.351202 0.839048 0.477943
0.366430 0.839414 0.476112
0.384283 0.839933 0.473945
0.404364 0.840696 0.471565
0.426490 0.841642 0.468605
0.450690 0.842832 0.465187
0.476661 0.844022 0.461097
0.504021 0.845212 0.455848
0.532616 0.846281 0.449287
0.562737 0.847288 0.441566
0.594507 0.848295 0.431800
0.629572 0.849149 0.423987
0.672938 0.848600 0.432929
0.715663 0.848325 0.443153
0.757321 0.848295 0.453834
0.797482 0.848295 0.465064
0.835355 0.848417 0.476204
0.870909 0.848600 0.487221
0.903685 0.848905 0.497932
0.934112 0.849668 0.508568
0.964782 0.853941 0.521691
0.979675 0.844999 0.530877
0.992432 0.836637 0.540154
1.000000 0.830045 0.549889
1.000000 0.825589 0.560418
1.000000 0.823209 0.571862
0.337011 0.852537 0.491981
0.340368 0.853178 0.492653
0.343938 0.853666 0.492897
0.349798 0.854032 0.493080
0.357122 0.854276 0.492653
0.366369 0.854520 0.491676
0.377874 0.854795 0.490669
0.391577 0.855192 0.489143
0.407660 0.855772 0.487617
0.426154 0.856596 0.485908
0.446326 0.857603 0.483680
0.468666 0.858762 0.481147
0.492653 0.860014 0.478187
0.517662 0.861234 0.474220
0.544091 0.862364 0.469520
0.571649 0.863432 0.463691
0.600793 0.864530 0.456611
0.631464 0.865751 0.448432
0.668055 0.866239 0.447669
0.709285 0.865934 0.457343
0.749660 0.865782 0.467506
0.788479 0.865751 0.478035
0.825406 0.865843 0.488472
0.860075 0.865995 0.498848
0.892393 0.866331 0.509117
0.922210 0.866880 0.519219
0.949615 0.867796 0.529503
0.977691 0.873014 0.543114
0.992981 0.867216 0.553460
1.000000 0.860380 0.563439
1.000000 0.855222 0.574121
1.000000 0.852018 0.585443
0.371862 0.869444 0.504784
0.374731 0.869871 0.505303
0.377630 0.870115 0.505577
0.382544 0.870237 0.505608
0.388220 0.870298 0.504906
0.396094 0.870359 0.504082
0.405768 0.870451 0.502953
0.417731 0.870726 0.501671
0.432044 0.871244 0.500389
0.448524 0.871916 0.499001
0.467109 0.872801 0.497383
0.487587 0.873960 0.495613
0.509453 0.875151 0.493324
0.532738 0.876280 0.490547
0.556909 0.877317 0.487098
0.582177 0.878325 0.482704
0.608759 0.879301 0.477485
0.636744 0.880430 0.471351
0.666316 0.881743 0.464454
0.703883 0.881773 0.469734
0.742824 0.881559 0.479316
0.780392 0.881498 0.489143
0.816220 0.881559 0.498939
0.850095 0.881712 0.508812
0.881773 0.881987 0.518578
0.911162 0.882444 0.528374
0.938262 0.883268 0.538384
0.962982 0.884489 0.548486
0.988525 0.890227 0.562219
1.000000 0.887541 0.574212
1.000000 0.882139 0.585260
1.000000 0.878019 0.596521
0.403998 0.884825 0.516289
0.406470 0.885100 0.516655
0.409155 0.885252 0.516991
0.413123 0.885435 0.516838
0.418738 0.885649 0.516533
0.426520 0.885985 0.516228
0.436805 0.886687 0.515892
0.449348 0.887572 0.515770
0.464118 0.888701 0.515557
0.481056 0.890074 0.515496
0.499550 0.891630 0.515160
0.519677 0.893248 0.514794
0.540856 0.894804 0.514061
0.562890 0.896239 0.512688
0.585595 0.897520 0.510796
0.608759 0.898558 0.508080
0.632959 0.899535 0.504753
0.658259 0.900572 0.500755
0.684993 0.901762 0.496498
0.713588 0.902953 0.492897
0.750240 0.902647 0.501549
0.785672 0.902464 0.510460
0.819455 0.902403 0.519615
0.851499 0.902403 0.528771
0.881437 0.902647 0.537987
0.909270 0.903075 0.547387
0.934966 0.903807 0.556817
0.958526 0.904936 0.566644
0.979950 0.906584 0.576867
1.000000 0.912840 0.591577
1.000000 0.912840 0.605310
1.000000 0.908324 0.617182
0.451270 0.904479 0.533196
0.453315 0.904601 0.533532
0.454902 0.904662 0.533471
0.457679 0.904662 0.533165
0.462074 0.904692 0.532769
0.468299 0.904784 0.532311
0.476478 0.905089 0.531762
0.486519 0.905516 0.531365
0.498665 0.906126 0.530877
0.512657 0.906920 0.530510
0.528283 0.907805 0.529931
0.545403 0.908812 0.529290
0.563745 0.909850 0.528374
0.583185 0.910826 0.527276
0.603510 0.911803 0.525689
0.624750 0.912718 0.523674
