其他预设/【232】美食博客调色预设124款/1.3D LUT预设（视频调色-PR-AE-PS-FCPX-达芬奇用）/Yummy #10.cube
# Created by Adobe Lightroom plugin Export LUT (1.17.0)
# www.johnrellis.com/lightroom/exportlut.htm
# Preset: Yummy #10
# Color profile: /Library/Application Support/Adobe/Color/Profiles/Recommended/AdobeRGB1998.icc
LUT_3D_SIZE 5
DOMAIN_MIN 0.000000 0.000000 0.000000
DOMAIN_MAX 0.903226 0.903226 0.903226
0.000000 0.000000 0.000000
0.451179 0.062470 0.000000
0.854337 0.071992 0.000000
1.000000 0.127535 0.000000
1.000000 0.162539 0.133700
0.000000 0.445258 0.000000
0.413855 0.432136 0.000000
0.832303 0.417823 0.000000
1.000000 0.347173 0.000000
1.000000 0.307530 0.154757
0.091554 0.808896 0.000000
0.398138 0.793484 0.000000
0.788693 0.771786 0.000000
0.973419 0.638270 0.084932
1.000000 0.536187 0.177127
0.192447 0.940642 0.151369
0.353826 0.935363 0.153719
0.632990 0.914488 0.154147
0.912993 0.878874 0.154849
1.000000 0.760861 0.234165
0.268833 1.000000 0.294316
0.352728 1.000000 0.292851
0.540826 0.993256 0.274754
0.770809 0.976471 0.296544
0.996216 0.955261 0.332799
0.000000 0.000000 0.386542
0.402075 0.000000 0.402350
0.815427 0.000000 0.340795
0.988586 0.215640 0.342412
1.000000 0.248051 0.338842
0.000000 0.408179 0.383185
0.392126 0.410437 0.365362
0.803372 0.401801 0.345647
0.978759 0.370336 0.338781
1.000000 0.348119 0.342016
0.000000 0.788388 0.333928
0.384649 0.774075 0.336614
0.757351 0.744076 0.322087
0.951110 0.634272 0.335271
1.000000 0.553796 0.356023
0.246067 0.932372 0.364935
0.387274 0.926635 0.373785
0.639826 0.907164 0.367437
0.905974 0.873930 0.357946
1.000000 0.766079 0.386236
0.339696 1.000000 0.431647
0.403174 1.000000 0.429297
0.574121 0.991821 0.431617
0.782498 0.975158 0.439155
0.993469 0.955932 0.466224
0.000000 0.000000 0.724849
0.365576 0.000000 0.726528
0.781521 0.000000 0.704524
0.957244 0.308232 0.619959
1.000000 0.486549 0.639948
0.000000 0.370886 0.697658
0.352300 0.375402 0.703883
0.768673 0.395789 0.690181
0.939452 0.476997 0.641077
1.000000 0.556146 0.659480
0.000000 0.756405 0.682521
0.381140 0.750362 0.677729
0.733028 0.725246 0.668208
0.912688 0.681636 0.655146
1.000000 0.646571 0.645197
0.300206 0.914214 0.609094
0.458045 0.902586 0.629633
0.682490 0.884459 0.654994
0.888670 0.864042 0.648005
0.998291 0.793332 0.643153
0.458747 0.989014 0.627222
0.555230 0.982238 0.662257
0.658778 0.976562 0.663081
0.811185 0.964385 0.660578
0.981659 0.951690 0.670466
0.000000 0.090608 0.875242
0.316167 0.105257 0.873777
0.668696 0.178592 0.872923
0.925902 0.296910 0.814633
1.000000 0.471748 0.756527
0.062257 0.345220 0.861601
0.332647 0.355047 0.861082
0.671565 0.400061 0.860136
0.912627 0.455329 0.809689
1.000000 0.551019 0.766567
0.150820 0.637598 0.831083
0.371710 0.644770 0.826108
0.685756 0.685573 0.825711
0.881682 0.694728 0.805966
0.984039 0.715602 0.798093
0.341314 0.891417 0.804532
0.474281 0.883085 0.803464
0.706264 0.865019 0.808011
0.867338 0.849546 0.809323
0.974823 0.825132 0.806119
0.495247 0.979553 0.757992
0.571466 0.974029 0.770382
0.732692 0.961517 0.803464
0.846189 0.955383 0.813840
0.973663 0.950439 0.818631
0.044160 0.138643 0.960296
0.275303 0.150332 0.958343
0.553307 0.201541 0.952789
0.830930 0.295598 0.942870
0.998688 0.435889 0.883391
0.139101 0.320562 0.951873
0.300816 0.328985 0.950225
0.565850 0.364630 0.945434
0.831846 0.430640 0.936767
0.991943 0.522393 0.884062
0.226230 0.566308 0.930388
0.378576 0.586938 0.928313
0.620447 0.629969 0.923857
0.837308 0.664668 0.922393
0.976471 0.699092 0.890440
0.304021 0.790982 0.913207
0.413001 0.792996 0.910948
0.628779 0.799374 0.905211
0.834806 0.823026 0.907897
0.964111 0.843626 0.903044
0.492226 0.977478 0.893431
0.558556 0.972900 0.894347
0.719051 0.961120 0.899718
0.866789 0.951263 0.910826
0.967102 0.952026 0.928283
