其他预设/【232】美食博客调色预设124款/1.3D LUT预设（视频调色-PR-AE-PS-FCPX-达芬奇用）/Yummy #1.cube
# Created by Adobe Lightroom plugin Export LUT (1.17.0)
# www.johnrellis.com/lightroom/exportlut.htm
# Preset: Yummy #1
# Color profile: /Library/Application Support/Adobe/Color/Profiles/Recommended/AdobeRGB1998.icc
LUT_3D_SIZE 5
DOMAIN_MIN 0.000000 0.000000 0.000000
DOMAIN_MAX 0.903226 0.903226 0.903226
0.000000 0.000000 0.000000
0.419989 0.125673 0.099001
0.896178 0.207065 0.219242
1.000000 0.389899 0.321965
1.000000 0.531884 0.405890
0.000000 0.465858 0.000000
0.340063 0.522423 0.000000
0.929381 0.348882 0.153109
1.000000 0.415656 0.302739
1.000000 0.536431 0.396063
0.000000 0.839872 0.000000
0.278843 0.858793 0.000000
0.761257 0.856321 0.000000
1.000000 0.581476 0.219547
1.000000 0.561212 0.362402
0.000000 0.973358 0.000000
0.187930 0.975158 0.000000
0.566735 0.972229 0.000000
0.921233 0.945068 0.000000
1.000000 0.761105 0.308598
0.000000 1.000000 0.000000
0.188632 1.000000 0.043793
0.473854 1.000000 0.137331
0.743160 1.000000 0.197055
1.000000 0.988922 0.257115
0.000000 0.059876 0.278691
0.338018 0.131685 0.319158
0.838682 0.530785 0.407050
0.987274 0.631037 0.474556
1.000000 0.689479 0.529168
0.000000 0.421241 0.267796
0.348363 0.513725 0.283635
0.878355 0.566949 0.388678
0.998810 0.634150 0.460212
1.000000 0.690181 0.521111
0.000000 0.826474 0.147890
0.283360 0.848814 0.183200
0.764004 0.852628 0.193545
1.000000 0.676509 0.406744
1.000000 0.700465 0.495949
0.000000 0.968444 0.133974
0.235630 0.970184 0.162539
0.587091 0.968750 0.205753
0.922942 0.943816 0.232792
1.000000 0.805234 0.443244
0.109895 1.000000 0.218540
0.264561 1.000000 0.230289
0.512230 1.000000 0.271031
0.764889 1.000000 0.319188
1.000000 0.988373 0.371221
0.000000 0.100282 0.465278
0.360876 0.192569 0.601556
0.766598 0.242527 0.521508
0.941527 0.720211 0.598627
0.996735 0.859434 0.732692
0.000000 0.280125 0.362188
0.294041 0.441566 0.514275
0.758236 0.548150 0.519677
0.930938 0.821012 0.671382
1.000000 0.858549 0.728054
0.000000 0.739040 0.414649
0.222354 0.787381 0.436225
0.764492 0.842313 0.536126
0.966918 0.854154 0.684077
1.000000 0.862333 0.717861
0.000000 0.948058 0.368780
0.359319 0.948791 0.418067
0.666072 0.953582 0.493507
0.917571 0.940246 0.532097
1.000000 0.891356 0.701381
0.405829 1.000000 0.452857
0.506523 1.000000 0.493599
0.619562 1.000000 0.498360
0.822538 1.000000 0.555779
1.000000 0.987213 0.600153
0.000000 0.134524 0.673976
0.239963 0.196933 0.733364
0.728084 0.466865 0.838834
0.927703 0.472877 0.653407
1.000000 0.781094 0.711604
0.000000 0.279881 0.603388
0.194949 0.360937 0.678584
0.749874 0.663813 0.821988
0.910887 0.606012 0.657496
0.993317 0.831632 0.747219
0.000000 0.518669 0.479866
0.000000 0.533715 0.497322
0.718959 0.825528 0.736385
0.894408 0.860227 0.743313
0.980713 0.921202 0.834653
0.000000 0.905455 0.553613
0.245701 0.910857 0.570672
0.672328 0.924468 0.664302
0.904570 0.938659 0.760128
0.999786 0.946044 0.862699
0.379156 1.000000 0.565637
0.490425 1.000000 0.597406
0.710536 0.999817 0.690486
0.854643 0.997070 0.743313
0.998169 0.986938 0.788724
0.000000 0.156130 0.859525
0.000000 0.197757 0.876036
0.533288 0.407416 0.926177
0.889128 0.619074 0.933349
1.000000 0.654902 0.780911
0.000000 0.271794 0.828855
0.000000 0.317327 0.849271
0.550500 0.536767 0.907866
0.891508 0.715450 0.926421
0.998627 0.717891 0.793515
0.000000 0.422278 0.679683
0.000000 0.424506 0.719661
0.502647 0.672358 0.833646
0.897276 0.863096 0.918395
0.981689 0.831296 0.824857
0.000000 0.773983 0.713100
0.000000 0.767605 0.712001
0.000000 0.750271 0.714900
0.850095 0.917601 0.876921
0.971740 0.935882 0.885466
0.000000 1.000000 0.728969
0.273503 1.000000 0.737362
0.587060 0.997284 0.776089
0.838987 0.985779 0.849912
0.980865 0.986633 0.933532
