其他预设/【232】美食博客调色预设124款/1.3D LUT预设（视频调色-PR-AE-PS-FCPX-达芬奇用）/Yummy #10.cube
# Created by Adobe Lightroom plugin Export LUT (1.17.0)
# www.johnrellis.com/lightroom/exportlut.htm
# Preset: Yummy #10
# Color profile: /Library/Application Support/Adobe/Color/Profiles/Recommended/AdobeRGB1998.icc
LUT_3D_SIZE 8
DOMAIN_MIN 0.000000 0.000000 0.000000
DOMAIN_MAX 0.903226 0.903226 0.903226
0.000000 0.000000 0.000000
0.234318 0.024720 0.000000
0.523766 0.066957 0.000000
0.771969 0.066041 0.000000
0.918456 0.081910 0.000000
1.000000 0.119265 0.000000
1.000000 0.145510 0.086885
1.000000 0.162539 0.133700
0.000000 0.235660 0.000000
0.221622 0.236881 0.000000
0.494667 0.259983 0.000000
0.744961 0.256565 0.000000
0.904967 0.235630 0.000000
0.991791 0.220462 0.000000
1.000000 0.213291 0.071046
1.000000 0.210971 0.125643
0.000000 0.507317 0.000000
0.233677 0.502586 0.000000
0.474006 0.490333 0.000000
0.731228 0.491188 0.000000
0.894560 0.446815 0.000000
0.983032 0.398840 0.000000
1.000000 0.365148 0.109529
1.000000 0.338231 0.154177
0.026062 0.731319 0.000000
0.238987 0.728267 0.000000
0.475837 0.720943 0.000000
0.724208 0.716762 0.000000
0.888792 0.654231 0.000000
0.972290 0.577600 0.053925
1.000000 0.517967 0.133761
1.000000 0.470832 0.170474
0.123812 0.858213 0.000000
0.236912 0.854459 0.000000
0.430884 0.844755 0.000000
0.634760 0.831510 0.000000
0.830014 0.807004 0.000000
0.940032 0.732357 0.058381
1.000000 0.660090 0.143740
1.000000 0.601556 0.188876
0.175723 0.924346 0.113436
0.249577 0.926390 0.126619
0.397192 0.918975 0.124758
0.564508 0.906493 0.123629
0.733639 0.887877 0.120851
0.898802 0.866300 0.125154
0.988190 0.799069 0.184329
1.000000 0.730465 0.227573
0.223270 0.973632 0.214755
0.267674 0.972900 0.217227
0.376471 0.967010 0.212741
0.513512 0.957885 0.211063
0.658289 0.944274 0.207370
0.805783 0.928679 0.211765
0.948852 0.911467 0.222599
1.000000 0.851316 0.260136
0.268833 1.000000 0.294316
0.296086 1.000000 0.293431
0.377142 1.000000 0.293919
0.490059 1.000000 0.300755
0.605035 0.988861 0.277775
0.737362 0.979034 0.290959
0.870512 0.968048 0.313695
0.996216 0.955261 0.332799
0.000000 0.000000 0.213169
0.211795 0.000000 0.223087
0.484779 0.000000 0.190494
0.735317 0.039429 0.183780
0.897276 0.104921 0.175204
0.984222 0.144045 0.182284
1.000000 0.166537 0.194736
1.000000 0.179904 0.207584
0.000000 0.220005 0.212650
0.210056 0.226566 0.206241
0.472267 0.242893 0.194980
0.723781 0.246220 0.177005
0.888579 0.237247 0.169986
0.975982 0.229801 0.176303
1.000000 0.223941 0.186221
1.000000 0.220127 0.198672
0.000000 0.485359 0.185763
0.222477 0.482124 0.189761
0.460578 0.476570 0.180575
0.711513 0.477028 0.162448
0.872709 0.437659 0.160189
0.965850 0.396460 0.176059
1.000000 0.364538 0.195163
1.000000 0.340368 0.213504
0.000000 0.710109 0.149203
0.226810 0.707942 0.160678
0.461097 0.702022 0.155093
0.690150 0.686336 0.142794
0.855070 0.631617 0.151461
0.948974 0.565362 0.176242
1.000000 0.511650 0.199893
1.000000 0.468879 0.219791
0.125795 0.849760 0.174380
0.235142 0.845121 0.170596
0.424872 0.833860 0.164858
0.622126 0.816800 0.157198
0.812497 0.791745 0.146151
0.926482 0.723232 0.178531
0.997101 0.655940 0.211948
1.000000 0.600214 0.237644
0.183383 0.916564 0.210178
0.248600 0.914794 0.210056
0.393286 0.908049 0.207828
0.559289 0.897398 0.208255
0.728054 0.881193 0.207980
0.893919 0.862181 0.212985
0.982696 0.796323 0.246525
1.000000 0.728908 0.270298
0.227085 0.966491 0.261357
0.266270 0.964324 0.258000
0.374487 0.959289 0.255772
0.511772 0.951812 0.258183
0.656397 0.939788 0.258305
0.801907 0.924193 0.258579
0.942657 0.906096 0.260319
1.000000 0.846555 0.284520
0.275700 1.000000 0.326207
0.303471 1.000000 0.327550
0.382605 1.000000 0.328801
0.493782 0.998199 0.336248
0.615381 0.990021 0.339757
0.741634 0.979065 0.342229
0.870085 0.966644 0.350530
0.993530 0.953155 0.360113
0.000000 0.000000 0.450324
0.192874 0.000000 0.454627
0.469734 0.000000 0.461524
0.725612 0.000000 0.431647
0.890318 0.108919 0.401892
0.971649 0.248905 0.405585
1.000000 0.280980 0.401831
1.000000 0.291569 0.395941
0.000000 0.218967 0.433021
0.189914 0.220279 0.437690
0.462043 0.214939 0.443030
0.712673 0.191775 0.412818
0.877958 0.246403 0.398230
0.964508 0.293767 0.397436
1.000000 0.307317 0.393042
1.000000 0.311620 0.389685
0.000000 0.468452 0.436408
0.179110 0.472450 0.432654
0.452918 0.468605 0.415656
0.705867 0.466835 0.408209
0.866941 0.447761 0.400793
0.955749 0.427131 0.395544
1.000000 0.409003 0.392401
1.000000 0.392584 0.389563
0.000000 0.709255 0.417121
0.172091 0.709468 0.409247
0.454597 0.699062 0.405432
0.689662 0.684840 0.396735
0.849271 0.633204 0.393591
0.941039 0.579644 0.393591
1.000000 0.537713 0.395026
1.000000 0.502831 0.394446
0.029725 0.842191 0.381537
0.225834 0.838926 0.385931
0.434699 0.828367 0.395575
0.626215 0.814603 0.391119
0.813077 0.792355 0.381872
0.918853 0.725856 0.385779
0.987884 0.666712 0.392462
1.000000 0.618738 0.398108
0.219638 0.910643 0.387640
0.284306 0.908415 0.392981
0.419532 0.900694 0.398566
0.569116 0.889616 0.393927
0.727443 0.874022 0.388769
0.885771 0.856199 0.388434
0.971832 0.796292 0.404150
1.000000 0.739132 0.418555
0.299565 0.961730 0.420691
0.330388 0.959838 0.420539
0.415106 0.954284 0.416205
0.533074 0.946105 0.411933
0.665492 0.934478 0.407477
0.804044 0.920775 0.407782
0.940459 0.906188 0.414679
1.000000 0.852720 0.434943
0.353552 1.000000 0.459022
0.365698 1.000000 0.453040
0.426642 0.997070 0.450752
0.528252 0.993133 0.462196
0.636378 0.985473 0.462348
0.753811 0.975891 0.465827
0.874571 0.965087 0.474586
0.990814 0.953857 0.485878
0.000000 0.000000 0.649256
0.171206 0.000000 0.653529
0.448371 0.000000 0.658839
0.695399 0.000000 0.641291
0.864927 0.098665 0.590875
0.949920 0.276432 0.558953
1.000000 0.397436 0.573114
1.000000 0.437720 0.577386
0.000000 0.208804 0.643153
0.162295 0.209720 0.645533
0.446296 0.212009 0.651820
0.694911 0.192630 0.636103
0.859342 0.247898 0.589227
0.942840 0.344610 0.565148
0.995453 0.431769 0.579339
1.000000 0.444526 0.572045
0.000000 0.440589 0.617517
0.125917 0.438025 0.615686
0.430640 0.448463 0.624598
0.684321 0.454688 0.620050
0.841886 0.475807 0.599207
0.930510 0.505760 0.596490
0.992767 0.517998 0.595697
1.000000 0.504540 0.580560
0.000000 0.689448 0.626276
0.147341 0.688746 0.623285
0.442145 0.682155 0.615778
0.670253 0.668544 0.607141
0.821012 0.640833 0.595880
0.914611 0.615320 0.587488
0.981384 0.593561 0.581445
1.000000 0.573724 0.575219
0.078218 0.833982 0.577173
0.233005 0.829191 0.576562
0.457465 0.816068 0.588342
0.642206 0.803555 0.596735
0.804532 0.787045 0.588739
0.901244 0.738460 0.584710
0.969818 0.698177 0.581018
1.000000 0.663264 0.575128
0.259403 0.905943 0.546624
0.340063 0.905180 0.561486
0.493843 0.892576 0.591333
0.614923 0.882200 0.590967
0.744656 0.869566 0.584955
0.879515 0.853941 0.578851
0.956603 0.805814 0.582025
1.000000 0.762783 0.583856
0.361608 0.954009 0.555169
0.408453 0.951446 0.568750
0.510643 0.944457 0.595544
0.594842 0.938872 0.591058
0.700526 0.929442 0.586328
0.816464 0.917601 0.582055
0.934691 0.904784 0.580774
0.999481 0.860716 0.589990
0.466987 0.992401 0.602350
0.499336 0.990173 0.615686
0.544610 0.986999 0.620996
0.593744 0.984588 0.607568
0.679408 0.978180 0.605890
0.778073 0.970367 0.607050
0.883360 0.961975 0.613794
0.985901 0.954070 0.624537
0.000000 0.000000 0.780972
0.160525 0.000000 0.781827
0.409613 0.000000 0.781308
0.647059 0.000000 0.780453
0.840574 0.116609 0.747524
0.931914 0.273350 0.688045
0.988800 0.390936 0.664851
1.000000 0.483528 0.671870
0.000000 0.201816 0.774228
0.156222 0.204257 0.776516
0.409155 0.208713 0.777218
0.648310 0.219364 0.777920
0.835660 0.248722 0.743221
0.927337 0.344549 0.690364
0.984680 0.435309 0.671809
1.000000 0.512505 0.679835
0.000000 0.411170 0.752102
0.150149 0.416175 0.755154
0.411200 0.429938 0.760342
0.647181 0.450813 0.763882
0.817746 0.460121 0.731685
0.908995 0.496620 0.696651
0.969848 0.544549 0.691218
1.000000 0.587518 0.700679
0.000000 0.621820 0.743862
0.163119 0.621546 0.741817
0.419562 0.626429 0.737270
0.648341 0.649622 0.742031
0.797513 0.649042 0.727962
0.887938 0.655970 0.719448
0.953735 0.659663 0.717281
1.000000 0.648768 0.708370
0.113375 0.807797 0.726558
0.246586 0.806180 0.725826
0.459998 0.798489 0.724331
0.648280 0.783688 0.724788
0.780758 0.769070 0.718166
0.875700 0.744686 0.710567
0.946715 0.723445 0.704433
1.000000 0.704097 0.698299
0.268803 0.889189 0.671839
0.332860 0.886168 0.674586
0.480446 0.874998 0.684108
0.638392 0.859922 0.705653
0.743435 0.851072 0.700923
0.863859 0.842893 0.701411
0.938567 0.813138 0.704768
0.993256 0.785824 0.703243
0.378668 0.945281 0.654078
0.417548 0.942412 0.659693
0.527886 0.933562 0.681056
0.656062 0.921752 0.713924
0.725246 0.917723 0.702907
0.822965 0.908965 0.699794
0.924926 0.899107 0.696925
0.984985 0.865415 0.699184
0.465034 0.986328 0.662776
0.493019 0.984131 0.670192
0.574731 0.977295 0.694209
0.682948 0.970092 0.732540
0.718654 0.969299 0.712215
0.799954 0.963195 0.711696
0.889799 0.956970 0.714931
0.979370 0.951598 0.721401
0.000000 0.083253 0.864225
0.166903 0.088716 0.863645
0.375616 0.102144 0.860472
0.586053 0.145693 0.861936
0.787167 0.183658 0.853239
0.914183 0.275883 0.804807
0.976074 0.390326 0.758694
1.000000 0.482429 0.742000
0.000000 0.205142 0.855558
0.166384 0.207187 0.855009
0.376043 0.217166 0.854734
0.583429 0.242985 0.855009
0.782589 0.269291 0.847349
0.908446 0.336126 0.801541
0.971771 0.427924 0.759731
1.000000 0.507195 0.745357
0.109377 0.405219 0.845151
0.215457 0.407477 0.844572
0.399268 0.418219 0.844022
0.596368 0.442634 0.844205
0.781949 0.463661 0.838132
0.896788 0.494514 0.798795
0.960510 0.543114 0.769650
1.000000 0.589746 0.761379
0.129519 0.573663 0.826780
0.231632 0.575158 0.824186
0.433143 0.595514 0.821469
0.627039 0.631891 0.826474
0.785794 0.650904 0.827848
0.882994 0.657710 0.802365
0.946410 0.672053 0.788327
0.993194 0.688106 0.784939
0.192599 0.741115 0.813657
0.275517 0.741848 0.812650
0.448554 0.744381 0.809201
0.624598 0.749508 0.804868
0.769375 0.760525 0.808743
0.862608 0.756863 0.798856
0.929503 0.757900 0.797086
0.980072 0.762753 0.800229
0.300816 0.875578 0.788937
0.360784 0.874418 0.789822
0.500786 0.867094 0.790402
0.648707 0.856077 0.793149
0.760769 0.843809 0.795438
0.852842 0.835904 0.794095
0.925078 0.821439 0.793149
0.979767 0.808225 0.791653
0.419806 0.937743 0.754269
0.457832 0.935882 0.757961
0.554894 0.928161 0.767239
0.666377 0.917845 0.780941
0.764889 0.907897 0.795651
0.833738 0.903380 0.791226
0.919799 0.897215 0.789822
0.975677 0.877226 0.792874
0.490639 0.981109 0.739773
0.514672 0.979156 0.743679
0.586603 0.973175 0.756893
0.682033 0.965667 0.778317
0.772854 0.957794 0.801297
0.820951 0.956786 0.793393
0.898131 0.953368 0.797116
0.975006 0.950988 0.802518
0.000000 0.119142 0.915862
0.168521 0.124544 0.915892
0.344762 0.140871 0.913970
0.523919 0.173556 0.911437
0.705715 0.226719 0.907561
0.873106 0.267643 0.896422
0.960449 0.365942 0.845487
1.000000 0.458625 0.808377
0.018402 0.208286 0.910765
0.174594 0.212039 0.910765
0.347021 0.222965 0.909209
0.524163 0.246098 0.906493
0.704372 0.287877 0.903105
0.869230 0.318975 0.892363
0.955810 0.397650 0.843015
1.000000 0.476112 0.807675
0.161196 0.384314 0.901335
0.229282 0.386755 0.900908
0.375189 0.396277 0.899321
0.541741 0.416571 0.897185
0.712581 0.449897 0.894377
0.865721 0.470039 0.885679
0.947662 0.517052 0.843687
0.996704 0.568688 0.817502
0.219883 0.540337 0.885893
0.285313 0.546929 0.884733
0.444221 0.576257 0.882139
0.582269 0.592248 0.881651
0.728695 0.614923 0.881224
0.860807 0.628107 0.876799
0.935851 0.647761 0.846555
0.986328 0.669123 0.830106
0.235080 0.678737 0.871336
0.291020 0.680293 0.869810
0.427955 0.687068 0.865476
0.585351 0.702876 0.860655
0.730129 0.726986 0.864103
0.849149 0.738399 0.865873
0.921935 0.743313 0.847318
0.975311 0.755184 0.842161
0.300847 0.819913 0.861662
0.346990 0.819913 0.860990
0.468971 0.819821 0.858793
0.607294 0.819333 0.855985
0.728328 0.817502 0.853147
0.840299 0.826017 0.858671
0.913878 0.827329 0.853910
0.967163 0.831418 0.857053
0.410407 0.927947 0.841184
0.445624 0.926329 0.841672
0.540551 0.920287 0.842802
0.652888 0.912047 0.845518
0.757443 0.903380 0.849790
0.841703 0.895628 0.854276
0.911192 0.891661 0.855894
0.967163 0.883421 0.858030
0.507256 0.974792 0.812100
0.529778 0.973297 0.814206
0.600122 0.968994 0.822232
0.687404 0.962493 0.833310
0.774655 0.955566 0.846677
0.851774 0.950622 0.861753
0.905058 0.950683 0.862669
0.971649 0.951354 0.868406
0.044160 0.138643 0.960296
0.161501 0.142519 0.959960
0.314275 0.154482 0.957671
0.472755 0.181613 0.954681
0.634363 0.225925 0.950591
0.793484 0.283360 0.945068
0.937713 0.335729 0.936126
0.998688 0.435889 0.883391
0.075868 0.208682 0.957183
0.170016 0.212100 0.956847
0.318578 0.221378 0.954925
0.475471 0.242679 0.951904
0.635920 0.279423 0.948028
0.793637 0.329473 0.942809
0.935424 0.372351 0.933989
0.996307 0.460029 0.882902
0.163668 0.360876 0.948974
0.219821 0.363470 0.948608
0.344762 0.370581 0.946624
0.494881 0.391150 0.944732
0.648280 0.420233 0.941192
0.798154 0.458961 0.936858
0.930327 0.484108 0.929107
0.989776 0.545159 0.884215
0.250462 0.514519 0.937011
0.315068 0.528649 0.935912
0.415534 0.540276 0.934112
0.538720 0.554467 0.932372
0.673518 0.575463 0.930266
0.807462 0.604028 0.928374
0.923186 0.616449 0.922942
0.981048 0.649805 0.887999
0.218051 0.625238 0.923278
0.271580 0.628779 0.922545
0.403510 0.642695 0.920439
0.561975 0.672755 0.918486
0.691707 0.694606 0.917113
0.809506 0.712673 0.917906
0.914275 0.724605 0.916777
0.972137 0.745418 0.893431
0.276463 0.757137 0.914214
0.315923 0.757839 0.913359
0.422950 0.760983 0.910796
0.552789 0.766537 0.907073
0.678859 0.774105 0.903075
0.808896 0.799649 0.908232
0.910033 0.818875 0.914855
0.965484 0.826474 0.901152
0.374365 0.885008 0.909880
0.405005 0.884672 0.909483
0.493111 0.883513 0.908385
0.606622 0.882048 0.907195
0.717342 0.879728 0.905730
0.812711 0.877165 0.904540
0.901701 0.884886 0.911101
0.962127 0.893370 0.911620
0.492226 0.977478 0.893431
0.513024 0.976013 0.893614
0.578576 0.971527 0.894774
0.670985 0.964813 0.897612
0.765072 0.957549 0.902129
0.848112 0.952056 0.908659
0.915984 0.949584 0.917754
0.967102 0.952026 0.928283
