其他预设/【232】美食博客调色预设124款/1.3D LUT预设（视频调色-PR-AE-PS-FCPX-达芬奇用）/Yummy #16.cube
# Created by Adobe Lightroom plugin Export LUT (1.17.0)
# www.johnrellis.com/lightroom/exportlut.htm
# Preset: Yummy #16
# Color profile: /Library/Application Support/Adobe/Color/Profiles/Recommended/AdobeRGB1998.icc
LUT_3D_SIZE 32
0.000000 0.000000 0.000000
0.000000 0.000000 0.000000
0.000000 0.000000 0.000000
0.010864 0.000000 0.000000
0.035279 0.000000 0.000000
0.059144 0.000000 0.000000
0.072297 0.000000 0.000000
0.085908 0.000000 0.000000
0.103334 0.000641 0.000000
0.126589 0.000000 0.000000
0.156680 0.000000 0.000000
0.195590 0.000000 0.000000
0.243046 0.000000 0.000000
0.297765 0.000000 0.000000
0.357031 0.000000 0.000000
0.418738 0.000000 0.000000
0.481575 0.000000 0.000000
0.543267 0.000000 0.000000
0.606470 0.000000 0.000000
0.678798 0.000000 0.000000
0.743954 0.000000 0.000000
0.802457 0.000000 0.000000
0.853483 0.000000 0.000000
0.897581 0.000000 0.000000
0.935637 0.000000 0.000000
0.969024 0.000000 0.000000
0.998840 0.000000 0.000000
1.000000 0.000000 0.000000
1.000000 0.146181 0.000000
1.000000 0.214878 0.000000
1.000000 0.269871 0.000000
1.000000 0.319036 0.000000
0.000000 0.000000 0.000000
0.000000 0.000000 0.000000
0.000000 0.000000 0.000000
0.012207 0.000000 0.000000
0.036652 0.000000 0.000000
0.059541 0.000000 0.000000
0.072145 0.000000 0.000000
0.085786 0.000916 0.000000
0.102937 0.004486 0.000000
0.126040 0.002197 0.000000
0.155734 0.000000 0.000000
0.193912 0.000000 0.000000
0.240665 0.000000 0.000000
0.294591 0.000000 0.000000
0.353094 0.000000 0.000000
0.414191 0.000000 0.000000
0.476448 0.000000 0.000000
0.538140 0.000000 0.000000
0.601709 0.000000 0.000000
0.671870 0.000000 0.000000
0.736019 0.000000 0.000000
0.794156 0.000000 0.000000
0.845548 0.000000 0.000000
0.890410 0.000000 0.000000
0.929351 0.000000 0.000000
0.963622 0.000000 0.000000
0.994354 0.000000 0.000000
1.000000 0.000000 0.000000
1.000000 0.141787 0.000000
1.000000 0.211856 0.000000
1.000000 0.266941 0.000000
1.000000 0.316197 0.000000
0.000000 0.000000 0.000000
0.000000 0.000000 0.000000
0.000000 0.000000 0.000000
0.013581 0.000000 0.000000
0.037995 0.000000 0.000000
0.059815 0.000000 0.000000
0.072755 0.001068 0.000000
0.085939 0.006683 0.000000
0.103090 0.009064 0.000000
0.126162 0.006775 0.000000
0.155581 0.000000 0.000000
0.193545 0.000000 0.000000
0.240177 0.000000 0.000000
0.293919 0.000000 0.000000
0.352056 0.000000 0.000000
0.412940 0.000000 0.000000
0.474861 0.000000 0.000000
0.536156 0.000000 0.000000
0.600610 0.000000 0.000000
0.669245 0.000000 0.000000
0.732753 0.000000 0.000000
0.790707 0.000000 0.000000
0.842191 0.000000 0.000000
0.887144 0.000000 0.000000
0.926390 0.000000 0.000000
0.961028 0.000000 0.000000
0.992096 0.000000 0.000000
1.000000 0.000000 0.000000
1.000000 0.145815 0.000000
1.000000 0.214359 0.000000
1.000000 0.268528 0.000000
1.000000 0.317174 0.000000
0.000000 0.000000 0.001099
0.001343 0.000000 0.000000
0.004059 0.000000 0.000000
0.015625 0.002136 0.000000
0.039216 0.004120 0.000000
0.060731 0.008820 0.000000
0.073487 0.013611 0.000000
0.087282 0.017609 0.000000
0.104433 0.020966 0.000000
0.127687 0.018219 0.000000
0.157443 0.008301 0.000000
0.195468 0.000000 0.000000
0.241947 0.000000 0.000000
0.295262 0.000000 0.000000
0.352972 0.000000 0.000000
0.413581 0.000000 0.000000
0.475044 0.000000 0.000000
0.535760 0.000000 0.000000
0.600946 0.000000 0.000000
0.666590 0.000000 0.000000
0.728023 0.000000 0.000000
0.785031 0.000000 0.000000
0.836790 0.000000 0.000000
0.882994 0.000000 0.000000
0.923735 0.000000 0.000000
0.959777 0.000000 0.000000
0.991669 0.000000 0.000000
1.000000 0.063722 0.000000
1.000000 0.166049 0.000000
1.000000 0.227512 0.000000
1.000000 0.278050 0.000000
1.000000 0.324102 0.000000
0.000000 0.018036 0.000763
0.000000 0.017823 0.000000
0.004028 0.015717 0.000763
0.014343 0.016327 0.001526
0.038788 0.026520 0.000000
0.060761 0.027619 0.000000
0.073945 0.032197 0.000000
0.088716 0.036713 0.000000
0.106416 0.039399 0.000000
0.129824 0.038392 0.000000
0.159762 0.028779 0.000000
0.197879 0.006683 0.000000
0.244388 0.000000 0.000000
0.297795 0.000000 0.000000
0.355688 0.000000 0.000000
0.416541 0.000000 0.000000
0.478279 0.000000 0.000000
0.539330 0.000000 0.000000
0.606439 0.000000 0.000000
0.669947 0.000000 0.000000
0.729427 0.000000 0.000000
0.785031 0.000000 0.000000
0.835966 0.000000 0.000000
0.881956 0.000000 0.000000
0.922728 0.000000 0.000000
0.958801 0.000000 0.000000
0.990753 0.000000 0.000000
1.000000 0.117159 0.000000
1.000000 0.190280 0.000000
1.000000 0.244297 0.000000
1.000000 0.291447 0.000000
1.000000 0.335088 0.000000
0.001434 0.042908 0.006195
0.003021 0.042695 0.005097
0.007080 0.042023 0.005035
0.019043 0.038819 0.007141
0.034546 0.043336 0.005280
0.059785 0.055573 0.000000
0.074891 0.056703 0.000000
0.089662 0.059815 0.000000
0.108736 0.061769 0.000000
0.134585 0.061555 0.000000
0.165560 0.059449 0.000000
0.204868 0.047425 0.000000
0.251865 0.010071 0.000000
0.305638 0.000000 0.000000
0.363684 0.000000 0.000000
0.424598 0.000000 0.000000
0.486244 0.000000 0.000000
0.549828 0.000000 0.000000
0.616022 0.000000 0.000000
0.677790 0.000000 0.000000
0.736263 0.000000 0.000000
0.791165 0.000000 0.000000
0.890776 0.000000 0.000000
0.929656 0.000000 0.000000
0.963043 0.000000 0.000000
0.992126 0.113863 0.000000
1.000000 0.176333 0.000000
1.000000 0.224430 0.000000
1.000000 0.267002 0.000000
1.000000 0.305882 0.000000
1.000000 0.342748 0.000000
1.000000 0.378485 0.000000
0.005493 0.066621 0.014710
0.007446 0.066102 0.012604
0.010590 0.065949 0.010407
0.023896 0.064698 0.012512
0.038300 0.062745 0.016846
0.058350 0.068788 0.010590
0.075044 0.077211 0.000793
0.093263 0.078645 0.000000
0.114992 0.081636 0.000000
0.143221 0.084321 0.000000
0.180453 0.085176 0.000000
0.226352 0.081147 0.000000
0.276219 0.070100 0.000000
0.331182 0.032776 0.000000
0.389197 0.000000 0.000000
0.448768 0.000000 0.000000
0.508782 0.000000 0.000000
0.577935 0.000000 0.000000
0.642542 0.000000 0.000000
0.704463 0.000000 0.000000
0.764584 0.000000 0.000000
0.821744 0.000000 0.000000
0.873686 0.000000 0.000000
0.918700 0.000000 0.000000
0.956756 0.102235 0.000000
0.988190 0.166964 0.000000
1.000000 0.214725 0.000000
1.000000 0.255009 0.000000
1.000000 0.292241 0.000000
1.000000 0.327123 0.000000
1.000000 0.360449 0.000000
1.000000 0.393469 0.000000
0.007843 0.082856 0.023468
0.009796 0.082460 0.021363
0.012177 0.082063 0.017090
0.022980 0.081209 0.018158
0.041627 0.079225 0.022553
0.056367 0.079347 0.025269
0.070344 0.088960 0.013977
0.089601 0.102083 0.000183
0.113100 0.104219 0.000000
0.144472 0.108980 0.000000
0.181888 0.112245 0.000000
0.229160 0.112734 0.000000
0.284947 0.108003 0.000000
0.342992 0.096773 0.000000
0.400916 0.077943 0.000000
0.459602 0.025910 0.000000
0.525505 0.000000 0.000000
0.590631 0.000000 0.000000
0.651270 0.000000 0.000000
0.710262 0.000000 0.000000
0.767788 0.000000 0.000000
0.822995 0.000000 0.000000
0.873289 0.014984 0.000000
0.917266 0.122621 0.000000
0.954681 0.174594 0.000000
0.985992 0.217105 0.000000
1.000000 0.254582 0.000000
1.000000 0.288609 0.000000
1.000000 0.321050 0.000000
1.000000 0.352148 0.000000
1.000000 0.382544 0.000000
1.000000 0.412512 0.000000
0.006256 0.105226 0.033265
0.008423 0.104952 0.030091
0.010590 0.104646 0.026886
0.019867 0.103609 0.023804
0.038697 0.101839 0.028290
0.057832 0.099397 0.035096
0.067964 0.103944 0.031678
0.082948 0.118288 0.015839
0.109987 0.135592 0.000000
0.140444 0.138033 0.000000
0.185122 0.143801 0.000000
0.233249 0.147219 0.000000
0.289158 0.147158 0.000000
0.350530 0.143221 0.000000
0.415320 0.133883 0.000000
0.481331 0.122347 0.000000
0.546105 0.107424 0.000000
0.607050 0.091310 0.000000
0.664057 0.077485 0.000000
0.720211 0.076661 0.000000
0.775448 0.095766 0.000000
0.828244 0.127108 0.000000
0.876555 0.163302 0.000000
0.918914 0.200259 0.000000
0.955200 0.235325 0.000000
0.985748 0.267308 0.000000
1.000000 0.297642 0.000000
1.000000 0.326329 0.000000
1.000000 0.354192 0.000000
1.000000 0.381445 0.000000
1.000000 0.408209 0.000000
1.000000 0.435126 0.000000
0.000000 0.134554 0.041932
0.000000 0.134310 0.039826
0.000458 0.133700 0.034668
0.006867 0.132662 0.027466
0.028504 0.130892 0.033204
0.052705 0.128206 0.040345
0.066102 0.125429 0.049775
0.079011 0.137392 0.036103
0.100923 0.155337 0.011627
0.137789 0.176364 0.000000
0.176974 0.178805 0.000000
0.235904 0.183902 0.000000
0.292729 0.186954 0.000000
0.354345 0.187320 0.000000
0.426490 0.187625 0.000000
0.499397 0.184421 0.000000
0.570092 0.179080 0.000000
0.628351 0.174685 0.000000
0.682582 0.173831 0.000000
0.735683 0.179049 0.000000
0.787137 0.191531 0.000000
0.835752 0.210697 0.000000
0.880217 0.234257 0.000000
0.919707 0.260502 0.000000
0.954284 0.286961 0.000000
0.984100 0.313207 0.000000
1.000000 0.338842 0.000000
1.000000 0.364019 0.000000
1.000000 0.388800 0.000000
1.000000 0.413214 0.000000
1.000000 0.437537 0.000000
1.000000 0.461921 0.000000
0.000000 0.168551 0.050202
0.000000 0.168368 0.047822
0.000000 0.167910 0.042939
0.000000 0.166995 0.033692
0.006378 0.165286 0.035370
0.035035 0.163210 0.043580
0.061769 0.160494 0.053162
0.076478 0.160159 0.059693
0.094881 0.178836 0.034394
0.126436 0.200565 0.000000
0.176150 0.224399 0.000000
0.228214 0.229038 0.000000
0.300725 0.232334 0.000000
0.368048 0.237522 0.000000
0.437781 0.240452 0.000000
0.507805 0.241154 0.000000
0.575769 0.240909 0.000000
0.639368 0.241001 0.000000
0.697383 0.243748 0.000000
0.747768 0.249851 0.000000
0.796689 0.261662 0.000000
0.843198 0.277897 0.000000
0.885771 0.298131 0.000000
0.923583 0.319371 0.000000
0.956664 0.341283 0.000000
0.985321 0.362707 0.000000
1.000000 0.383795 0.000000
1.000000 0.404791 0.000000
1.000000 0.425666 0.000000
1.000000 0.446601 0.000000
1.000000 0.467597 0.000000
1.000000 0.489082 0.000000
0.000000 0.209110 0.058778
0.000000 0.208988 0.054871
0.000000 0.208408 0.050324
0.000000 0.207584 0.040101
0.000000 0.206241 0.034333
0.000000 0.204013 0.045136
0.042847 0.201450 0.056916
0.072267 0.198520 0.065034
0.091859 0.205722 0.063172
0.119448 0.227817 0.026337
0.163821 0.254002 0.000000
0.232517 0.283970 0.000000
0.339300 0.323766 0.000000
0.426764 0.322210 0.000000
0.499886 0.327031 0.000000
0.569512 0.329961 0.000000
0.633173 0.332952 0.000000
0.691798 0.336736 0.000000
0.746059 0.342351 0.000000
0.797787 0.351690 0.000000
0.843290 0.362676 0.000000
0.881621 0.374578 0.000000
0.916228 0.388006 0.000000
0.947478 0.402625 0.000000
0.975189 0.417609 0.000000
0.999664 0.432776 0.000000
1.000000 0.447456 0.000000
1.000000 0.462409 0.000000
1.000000 0.477638 0.000000
1.000000 0.493263 0.000000
1.000000 0.509575 0.000000
1.000000 0.526726 0.000000
0.000000 0.264469 0.067384
0.000000 0.264042 0.065187
0.000000 0.263188 0.061677
0.000000 0.261784 0.051545
0.000000 0.259220 0.032868
0.000000 0.255955 0.047242
0.000000 0.252720 0.060334
0.062074 0.248936 0.069734
0.091676 0.247013 0.080598
0.120546 0.268101 0.069062
0.165682 0.299382 0.013825
0.233036 0.333745 0.000000
0.323003 0.369360 0.000000
0.411200 0.386297 0.000000
0.497383 0.381170 0.000000
0.569726 0.386297 0.000000
0.633143 0.389868 0.000000
0.690120 0.394049 0.000000
0.743374 0.399786 0.000000
0.793851 0.408118 0.000000
0.840970 0.419287 0.000000
0.883909 0.431708 0.000000
0.918761 0.442878 0.000000
0.948516 0.454139 0.000000
0.975128 0.465614 0.000000
0.998810 0.477607 0.000000
1.000000 0.489113 0.000000
1.000000 0.501244 0.000000
1.000000 0.513542 0.000000
1.000000 0.526818 0.000000
1.000000 0.540581 0.000000
1.000000 0.555322 0.000000
0.000000 0.313298 0.077607
0.000000 0.312871 0.075074
0.000000 0.311894 0.071595
0.000000 0.310491 0.063630
0.000000 0.308812 0.045533
0.000000 0.307347 0.051423
0.000000 0.305791 0.064454
0.019898 0.304417 0.075837
0.086610 0.302708 0.088167
0.122377 0.303777 0.099123
0.162814 0.333745 0.074617
0.222293 0.367071 0.000000
0.301244 0.401709 0.000000
0.397528 0.436164 0.000000
0.486854 0.452918 0.000000
0.561730 0.442359 0.000000
0.631189 0.445075 0.000000
0.687770 0.449104 0.000000
0.740322 0.454353 0.000000
0.790097 0.462379 0.000000
0.837003 0.472847 0.000000
0.879545 0.484413 0.000000
0.917235 0.495491 0.000000
0.950530 0.506615 0.000000
0.976593 0.515465 0.000000
0.999390 0.524254 0.000000
1.000000 0.533104 0.000000
1.000000 0.542168 0.000000
1.000000 0.551934 0.000000
1.000000 0.562402 0.000000
1.000000 0.573632 0.000000
1.000000 0.585840 0.000000
0.000000 0.375036 0.093721
0.000000 0.375067 0.091524
0.000000 0.374121 0.086885
0.000000 0.372992 0.079103
0.000000 0.370703 0.065156
0.000000 0.368109 0.059998
0.000000 0.365362 0.071382
0.000000 0.362554 0.083467
0.075319 0.360113 0.096437
0.124025 0.358099 0.110628
0.165286 0.369116 0.111421
0.217960 0.401160 0.081880
0.287846 0.435157 0.000000
0.373480 0.469001 0.000000
0.470344 0.500877 0.000000
0.556329 0.516960 0.000000
0.618952 0.501732 0.000000
0.686244 0.503929 0.000000
0.738338 0.508812 0.000000
0.787564 0.515831 0.000000
0.833494 0.524956 0.000000
0.875547 0.535088 0.000000
0.912932 0.544793 0.000000
0.946136 0.554437 0.000000
0.975189 0.563073 0.000000
1.000000 0.571038 0.000000
1.000000 0.577691 0.000000
1.000000 0.585016 0.000000
1.000000 0.592828 0.000000
1.000000 0.601343 0.000000
1.000000 0.610529 0.000000
1.000000 0.620630 0.000000
0.000000 0.438331 0.112581
0.000000 0.438575 0.110536
0.000000 0.438056 0.107210
0.000000 0.436866 0.098939
0.000000 0.435035 0.085512
0.000000 0.432776 0.070222
0.000000 0.430426 0.081971
0.000000 0.428107 0.094850
0.057679 0.425299 0.108492
0.126894 0.422492 0.123293
0.175753 0.419135 0.139193
0.222477 0.439277 0.126894
0.282597 0.469886 0.091768
0.356847 0.500847 0.000000
0.442176 0.530602 0.000000
0.534081 0.558831 0.000000
0.615290 0.575372 0.000000
0.668574 0.557733 0.000000
0.736416 0.561975 0.000000
0.786313 0.569451 0.000000
0.832853 0.578180 0.000000
0.874784 0.587610 0.000000
0.911955 0.596277 0.000000
0.944976 0.604578 0.000000
0.973877 0.611872 0.000000
0.999176 0.618250 0.000000
1.000000 0.623774 0.000000
1.000000 0.628748 0.000000
1.000000 0.633753 0.000000
1.000000 0.639277 0.000000
1.000000 0.645380 0.000000
1.000000 0.652491 0.000000
0.000000 0.498177 0.134127
0.000000 0.497993 0.131594
0.000000 0.497047 0.128023
0.000000 0.495827 0.120180
0.000000 0.493843 0.107179
0.000000 0.491615 0.088991
0.000000 0.489265 0.094728
0.000000 0.486305 0.107271
0.000000 0.483406 0.120821
0.124819 0.480079 0.135500
0.182040 0.476570 0.151064
0.229801 0.473426 0.166903
0.282414 0.502831 0.141329
0.347662 0.532494 0.102083
0.423743 0.561334 0.000000
0.506889 0.588342 0.000000
0.593042 0.614160 0.000000
0.669673 0.632166 0.000000
0.715480 0.613642 0.000000
0.783261 0.618921 0.000000
0.829282 0.626642 0.000000
0.871061 0.634333 0.000000
0.908293 0.641718 0.000000
0.941253 0.648707 0.000000
0.970275 0.654780 0.000000
0.995758 0.659937 0.000000
1.000000 0.664363 0.000000
1.000000 0.668116 0.000000
1.000000 0.671382 0.000000
1.000000 0.674708 0.000000
1.000000 0.678676 0.000000
1.000000 0.683680 0.000000
0.000000 0.558648 0.158022
0.000000 0.559258 0.156222
0.000000 0.593011 0.168246
0.000000 0.591516 0.160525
0.000000 0.589288 0.148714
0.000000 0.586175 0.131350
0.000000 0.582391 0.125399
0.000000 0.577661 0.137026
0.000000 0.573053 0.149783
0.146181 0.568505 0.164340
0.210330 0.563439 0.179812
0.263554 0.557519 0.196078
0.311681 0.561852 0.199008
0.369207 0.588800 0.169986
0.436286 0.614862 0.129244
0.511040 0.639826 0.031250
0.589624 0.663813 0.000000
0.667384 0.686976 0.000000
0.737697 0.704067 0.000000
0.775448 0.683558 0.000000
0.838468 0.686458 0.000000
0.877806 0.691005 0.000000
0.913268 0.695247 0.000000
0.944396 0.698817 0.000000
0.971496 0.701350 0.000000
0.995422 0.703334 0.000000
1.000000 0.704677 0.000000
1.000000 0.706020 0.000000
1.000000 0.707362 0.000000
1.000000 0.708827 0.000000
1.000000 0.710323 0.000000
1.000000 0.712978 0.000000
0.000000 0.626886 0.189700
0.000000 0.630976 0.189761
0.000000 0.634974 0.188602
0.000000 0.637964 0.183963
0.000000 0.639338 0.174502
0.000000 0.638300 0.160128
0.000000 0.635554 0.145083
0.000000 0.631403 0.155550
0.000000 0.627131 0.168215
0.147066 0.622553 0.181674
0.216983 0.617334 0.196231
0.273808 0.611719 0.212192
0.323308 0.604822 0.228733
0.372076 0.618341 0.218418
0.430701 0.643091 0.187869
0.497414 0.666987 0.145968
0.568780 0.689815 0.071717
0.641444 0.711635 0.000000
0.713863 0.732845 0.000000
0.781125 0.750301 0.000000
0.814420 0.731136 0.000000
0.872068 0.732387 0.000000
0.909606 0.735012 0.000000
0.941161 0.737575 0.000000
0.968719 0.738949 0.000000
0.992767 0.739925 0.000000
1.000000 0.740322 0.000000
1.000000 0.740475 0.000000
1.000000 0.740658 0.000000
1.000000 0.740841 0.000000
1.000000 0.741115 0.000000
1.000000 0.741726 0.000000
0.000000 0.680751 0.217777
0.000000 0.684504 0.217807
0.000000 0.688441 0.217441
0.000000 0.691096 0.213291
0.000000 0.692348 0.204654
0.000000 0.691463 0.190890
0.000000 0.689265 0.173220
0.000000 0.685603 0.178103
0.000000 0.681605 0.189578
0.153323 0.676997 0.202609
0.227176 0.672419 0.216922
0.287022 0.666804 0.232090
0.338933 0.660151 0.248051
0.384985 0.652491 0.264744
0.435859 0.674739 0.240909
0.494392 0.697261 0.209110
0.558495 0.718685 0.167086
0.625238 0.739193 0.104250
0.693080 0.758663 0.000000
0.760311 0.777249 0.000000
0.823362 0.792996 0.000000
0.854185 0.776944 0.000000
0.903258 0.773983 0.000000
0.938781 0.773648 0.000000
0.966278 0.773892 0.000000
0.990448 0.773373 0.000000
1.000000 0.772549 0.000000
1.000000 0.771603 0.000000
1.000000 0.770626 0.000000
1.000000 0.769711 0.000000
1.000000 0.768948 0.000000
1.000000 0.768460 0.000000
0.000000 0.734005 0.248844
0.000000 0.737575 0.249363
0.000000 0.741146 0.249638
0.000000 0.743709 0.245884
0.000000 0.744778 0.237705
0.000000 0.744015 0.225589
0.000000 0.742153 0.209293
0.000000 0.738766 0.204410
0.000000 0.734829 0.215091
0.164858 0.730434 0.227054
0.240726 0.725643 0.240513
0.301976 0.720302 0.254978
0.355505 0.713924 0.270390
0.403754 0.706783 0.286656
0.448432 0.707301 0.292638
0.500450 0.729152 0.267033
0.558526 0.750393 0.236973
0.620600 0.770748 0.199374
0.684840 0.789883 0.148135
0.749142 0.807248 0.042908
0.811521 0.822660 0.000000
0.870878 0.835966 0.000000
0.898711 0.822660 0.000000
0.939208 0.816190 0.000000
0.971496 0.812619 0.000000
0.994873 0.810910 0.000000
1.000000 0.808530 0.000000
1.000000 0.806058 0.000000
1.000000 0.803738 0.000000
1.000000 0.801450 0.000000
1.000000 0.799344 0.000000
1.000000 0.797635 0.092836
0.000000 0.798978 0.296086
0.000000 0.800412 0.295995
0.000000 0.801480 0.294591
0.000000 0.801816 0.289891
0.000000 0.801358 0.281498
0.000000 0.799954 0.269169
0.000000 0.798184 0.253696
0.000000 0.795956 0.241123
0.083742 0.792660 0.251316
0.197421 0.789181 0.263401
0.270726 0.785275 0.276585
0.332494 0.780697 0.291234
0.386847 0.774929 0.306126
0.435798 0.768399 0.322210
0.479438 0.760983 0.338415
0.522759 0.769345 0.332128
0.572625 0.787716 0.307591
0.626947 0.804837 0.278599
0.683894 0.820340 0.244266
0.741787 0.834104 0.202762
0.798886 0.846006 0.145174
0.853971 0.856291 0.000000
0.905760 0.864927 0.000000
0.930205 0.852750 0.000000
0.963195 0.843626 0.000000
0.992889 0.837369 0.000000
1.000000 0.834440 0.000000
1.000000 0.831327 0.000000
1.000000 0.828122 0.000000
1.000000 0.825101 0.000000
1.000000 0.822263 0.000000
1.000000 0.819730 0.130922
0.000000 0.843534 0.336736
0.000000 0.844724 0.336522
0.000000 0.845792 0.335912
0.000000 0.846128 0.331548
0.000000 0.845762 0.324071
0.000000 0.844511 0.313054
0.000000 0.842802 0.298680
0.000000 0.840879 0.281224
0.133913 0.837766 0.286992
0.226688 0.834195 0.298009
0.296208 0.830381 0.310796
0.356634 0.826017 0.324529
0.410407 0.820920 0.339086
0.459297 0.815122 0.354650
0.503105 0.808957 0.370764
0.542596 0.802548 0.388037
0.585351 0.816587 0.370977
0.633143 0.831418 0.347875
0.683894 0.844694 0.321935
0.736538 0.856474 0.291752
0.789303 0.866697 0.256626
0.840940 0.875364 0.213657
0.890318 0.882658 0.155673
0.936828 0.888548 0.000000
0.954681 0.874662 0.000000
0.982391 0.864530 0.000000
1.000000 0.856504 0.000000
1.000000 0.853025 0.000000
1.000000 0.849393 0.000000
1.000000 0.845762 0.000000
1.000000 0.842435 0.000000
1.000000 0.839414 0.155886
0.000000 0.889006 0.394202
0.000000 0.890074 0.394751
0.000000 0.890562 0.393378
0.000000 0.890410 0.389197
0.000000 0.889586 0.381567
0.046937 0.888182 0.370947
0.103944 0.886290 0.356939
0.140566 0.884154 0.340826
0.203738 0.880858 0.336400
0.274723 0.876616 0.345312
0.335302 0.871946 0.355657
0.390356 0.867124 0.367407
0.440803 0.861845 0.380499
0.486641 0.856016 0.394293
0.527733 0.849516 0.408209
0.565026 0.842802 0.423285
0.599603 0.840360 0.431617
0.639826 0.852293 0.410712
0.684047 0.863432 0.388861
0.731258 0.873655 0.365240
0.779507 0.882628 0.338598
0.827420 0.890105 0.307927
0.873533 0.896086 0.270634
0.917327 0.900694 0.223636
0.958312 0.904143 0.156832
0.978332 0.894255 0.001587
1.000000 0.883482 0.000000
1.000000 0.873716 0.000000
1.000000 0.869535 0.000000
1.000000 0.865354 0.000000
1.000000 0.861418 0.094575
1.000000 0.857755 0.184085
0.130282 0.916991 0.441321
0.140169 0.917784 0.441871
0.148592 0.918212 0.441047
0.160281 0.918059 0.437446
0.174441 0.917449 0.430518
0.190829 0.916411 0.421241
0.209415 0.915068 0.409277
0.229770 0.913481 0.394965
0.261326 0.911467 0.384192
0.321416 0.907897 0.393164
0.376165 0.904051 0.403632
0.427924 0.899901 0.415503
0.475441 0.895476 0.428717
0.518944 0.890684 0.442481
0.558679 0.885405 0.456855
0.594751 0.880064 0.472084
0.628046 0.874540 0.488350
0.661036 0.877195 0.487129
0.698573 0.886107 0.468696
0.739132 0.894194 0.449470
0.781247 0.901213 0.427832
0.823667 0.907042 0.403723
0.865476 0.911681 0.375036
0.905699 0.915221 0.341711
0.944182 0.917784 0.301274
0.980774 0.919585 0.250431
0.999329 0.910674 0.190341
1.000000 0.899931 0.122286
1.000000 0.890013 0.000000
1.000000 0.884398 0.080140
1.000000 0.879942 0.164736
1.000000 0.875822 0.230198
0.249943 0.941192 0.496284
0.254887 0.941588 0.496773
0.258824 0.941650 0.495521
0.264408 0.941314 0.492012
0.271916 0.940551 0.485542
0.281315 0.939513 0.476326
0.293248 0.938323 0.465705
0.307652 0.936919 0.452644
0.324712 0.935576 0.438544
0.371771 0.932464 0.444800
0.420264 0.928985 0.455024
0.466804 0.925322 0.466926
0.510277 0.921477 0.479957
0.550774 0.917266 0.493751
0.587915 0.912688 0.507744
0.622187 0.907897 0.522423
0.653925 0.903136 0.538048
0.683284 0.898528 0.555047
0.714199 0.903929 0.544640
0.748226 0.910338 0.528313
0.784298 0.915953 0.510552
0.821378 0.920623 0.490700
0.858427 0.924315 0.467750
0.894865 0.927092 0.440894
0.930266 0.929076 0.409033
0.964538 0.930358 0.371344
0.997742 0.931090 0.326665
1.000000 0.923125 0.276524
1.000000 0.912535 0.231052
1.000000 0.902678 0.184268
1.000000 0.895720 0.203769
1.000000 0.891234 0.262303
0.336980 0.958495 0.550195
0.339971 0.958648 0.550286
0.342779 0.958679 0.549371
0.347326 0.958404 0.546166
0.354131 0.958007 0.541558
0.363256 0.957519 0.535302
0.376074 0.957122 0.528649
0.391485 0.956725 0.521111
0.409766 0.956390 0.513207
0.443854 0.954925 0.516991
0.487495 0.952483 0.530632
0.529595 0.949798 0.545434
0.569238 0.946868 0.561089
0.606226 0.943572 0.576776
0.640314 0.939971 0.592462
0.671290 0.936034 0.607599
0.700008 0.932067 0.623377
0.726802 0.928191 0.640070
0.751949 0.925994 0.653254
0.777859 0.930449 0.640040
0.805783 0.934295 0.625727
0.835111 0.937469 0.609583
0.865080 0.939910 0.590753
0.895354 0.941741 0.568475
0.925566 0.942901 0.542901
0.955596 0.943542 0.512871
0.985412 0.943725 0.477913
1.000000 0.943389 0.436988
1.000000 0.936156 0.391302
1.000000 0.925689 0.353277
1.000000 0.915801 0.323430
1.000000 0.907561 0.329778
0.445808 0.974731 0.627619
0.447669 0.974762 0.627497
0.449226 0.974670 0.626612
0.451789 0.974365 0.623621
0.455970 0.973907 0.619471
0.461891 0.973327 0.613794
0.470161 0.972686 0.607630
0.480781 0.971984 0.601068
0.493355 0.971252 0.593835
0.512505 0.969970 0.590631
0.546471 0.967224 0.601434
0.580163 0.964294 0.613397
0.612940 0.961181 0.626337
0.644221 0.957885 0.639796
0.673854 0.954437 0.653681
0.701778 0.950896 0.667964
