其他预设/【232】美食博客调色预设124款/1.3D LUT预设（视频调色-PR-AE-PS-FCPX-达芬奇用）/Yummy #13.cube
# Created by Adobe Lightroom plugin Export LUT (1.17.0)
# www.johnrellis.com/lightroom/exportlut.htm
# Preset: Yummy #13
# Color profile: /Library/Application Support/Adobe/Color/Profiles/Recommended/AdobeRGB1998.icc
LUT_3D_SIZE 32
0.000000 0.000000 0.000000
0.056550 0.002930 0.002533
0.080171 0.007385 0.005890
0.123751 0.014313 0.008759
0.183291 0.018585 0.005493
0.243259 0.020874 0.000000
0.302342 0.020874 0.000000
0.361273 0.019501 0.000000
0.421027 0.014008 0.000000
0.481544 0.004364 0.000000
0.542870 0.000000 0.000000
0.603326 0.000000 0.000000
0.659022 0.000000 0.000000
0.709468 0.000000 0.000000
0.754299 0.000000 0.000000
0.793637 0.000000 0.000000
0.828275 0.000000 0.000000
0.858915 0.000000 0.000000
0.892576 0.000000 0.000000
0.924681 0.000000 0.000000
0.951629 0.000000 0.000000
0.974517 0.000000 0.000000
0.993774 0.000000 0.000000
1.000000 0.000000 0.000000
1.000000 0.012207 0.000000
1.000000 0.032258 0.000000
1.000000 0.052888 0.000000
1.000000 0.065431 0.000000
1.000000 0.073823 0.000885
1.000000 0.083040 0.037110
1.000000 0.091646 0.065370
1.000000 0.101442 0.081453
0.000244 0.059358 0.002319
0.051118 0.059144 0.005310
0.078309 0.059022 0.006867
0.122255 0.065644 0.007935
0.181064 0.073091 0.003540
0.240238 0.077058 0.000000
0.298619 0.078920 0.000000
0.356695 0.079774 0.000000
0.415808 0.078767 0.000000
0.475959 0.076814 0.000000
0.536584 0.071565 0.000000
0.596643 0.063355 0.000000
0.652369 0.050752 0.000000
0.702846 0.029725 0.000000
0.748135 0.011261 0.000000
0.787839 0.000000 0.000000
0.822843 0.000000 0.000000
0.853971 0.000000 0.000000
0.887846 0.000000 0.000000
0.919371 0.000000 0.000000
0.946319 0.000000 0.000000
0.969451 0.008240 0.000000
0.989105 0.028565 0.000000
1.000000 0.043854 0.000000
1.000000 0.057649 0.000000
1.000000 0.065461 0.000000
1.000000 0.070924 0.000000
1.000000 0.077852 0.000000
1.000000 0.083742 0.000000
1.000000 0.090822 0.017762
1.000000 0.097932 0.055024
1.000000 0.105715 0.073823
0.001526 0.082979 0.008453
0.049378 0.083345 0.008148
0.077089 0.083986 0.009552
0.120790 0.091371 0.009796
0.178378 0.101198 0.003082
0.237034 0.106966 0.000000
0.294469 0.109895 0.000000
0.351995 0.111330 0.000000
0.410712 0.112123 0.000000
0.470466 0.111177 0.000000
0.530968 0.109102 0.000000
0.591089 0.105470 0.000000
0.647150 0.099947 0.000000
0.697963 0.094392 0.000000
0.743496 0.088808 0.000000
0.783780 0.082246 0.000000
0.819059 0.077790 0.000000
0.850523 0.073823 0.000000
0.884916 0.070863 0.000000
0.916075 0.071717 0.000000
0.943175 0.073487 0.000000
0.966491 0.075654 0.000000
0.986419 0.079011 0.000000
1.000000 0.081849 0.000000
1.000000 0.085084 0.000000
1.000000 0.087770 0.000000
1.000000 0.091066 0.000000
1.000000 0.094789 0.000000
1.000000 0.098665 0.000000
1.000000 0.103670 0.007843
1.000000 0.108705 0.046876
1.000000 0.115145 0.069856
0.000000 0.129183 0.009979
0.052888 0.130129 0.010163
0.083070 0.131044 0.009796
0.122591 0.132448 0.009735
0.175479 0.141756 0.002411
0.233127 0.149538 0.000000
0.289738 0.153567 0.000000
0.346807 0.156222 0.000000
0.404791 0.157748 0.000000
0.464149 0.158389 0.000000
0.524102 0.158022 0.000000
0.583856 0.156497 0.000000
0.639918 0.153964 0.000000
0.690974 0.150179 0.000000
0.737118 0.145602 0.000000
0.777859 0.140963 0.000000
0.813748 0.135927 0.000000
0.845579 0.131868 0.000000
0.880552 0.129244 0.000000
0.910826 0.127077 0.000000
0.937530 0.125216 0.000000
0.960998 0.124178 0.000000
0.981598 0.123812 0.000000
0.999878 0.123415 0.000000
1.000000 0.123598 0.000000
1.000000 0.123720 0.000000
1.000000 0.124392 0.000000
1.000000 0.126040 0.000000
1.000000 0.127718 0.000000
1.000000 0.129641 0.003296
1.000000 0.132204 0.039887
1.000000 0.135500 0.066194
0.000000 0.185061 0.001465
0.046662 0.185611 0.001434
0.085267 0.186191 0.000000
0.128420 0.186648 0.000000
0.173800 0.186831 0.000000
0.225650 0.192203 0.000000
0.281315 0.197665 0.000000
0.337316 0.201419 0.000000
0.394659 0.204135 0.000000
0.453071 0.206363 0.000000
0.512566 0.207279 0.000000
0.572168 0.207523 0.000000
0.628870 0.206210 0.000000
0.680842 0.203494 0.000000
0.728176 0.199680 0.000000
0.770443 0.195377 0.000000
0.807736 0.190219 0.000000
0.842924 0.185885 0.000000
0.877348 0.182223 0.000000
0.907195 0.178683 0.000000
0.933593 0.175204 0.000000
0.957092 0.172457 0.000000
0.977874 0.169558 0.000000
0.996551 0.167330 0.000000
1.000000 0.165042 0.000000
1.000000 0.163149 0.000000
1.000000 0.162020 0.000000
1.000000 0.160830 0.000000
1.000000 0.160494 0.000000
1.000000 0.160525 0.000000
1.000000 0.160800 0.028443
1.000000 0.162020 0.061585
0.000000 0.240726 0.000000
0.021942 0.241215 0.000000
0.080812 0.241154 0.000000
0.129000 0.241154 0.000000
0.177279 0.240299 0.000000
0.224002 0.239261 0.000000
0.274571 0.241886 0.000000
0.329870 0.246586 0.000000
0.386419 0.250217 0.000000
0.444587 0.253239 0.000000
0.503593 0.255802 0.000000
0.562890 0.257115 0.000000
0.619867 0.256840 0.000000
0.672572 0.254734 0.000000
0.720607 0.251438 0.000000
0.763851 0.246921 0.000000
0.802090 0.241550 0.000000
0.840665 0.237430 0.000000
0.874571 0.232822 0.000000
0.904417 0.228214 0.000000
0.931182 0.223667 0.000000
0.955138 0.219120 0.000000
1.000000 0.226505 0.000000
1.000000 0.222904 0.000000
1.000000 0.219455 0.000000
1.000000 0.215976 0.000000
1.000000 0.212985 0.000000
1.000000 0.210330 0.032349
1.000000 0.208255 0.060609
1.000000 0.206729 0.073823
1.000000 0.205478 0.085817
1.000000 0.204776 0.095979
0.000000 0.303899 0.000000
0.000000 0.303746 0.000000
0.072358 0.303655 0.000000
0.129397 0.303349 0.000000
0.182956 0.302922 0.000000
0.233371 0.300755 0.000000
0.281834 0.298314 0.000000
0.333074 0.299107 0.000000
0.390631 0.303685 0.000000
0.449866 0.307744 0.000000
0.510033 0.310979 0.000000
0.570184 0.313085 0.000000
0.626734 0.312749 0.000000
0.678553 0.310246 0.000000
0.725368 0.305913 0.000000
0.767025 0.300328 0.000000
0.807858 0.295293 0.000000
0.847105 0.290593 0.000000
0.880705 0.285039 0.000000
0.911131 0.279484 0.000000
0.939239 0.274662 0.000000
0.964935 0.269902 0.000000
0.987793 0.265751 0.000000
1.000000 0.261448 0.000000
1.000000 0.257511 0.000000
1.000000 0.253117 0.000000
1.000000 0.248936 0.000000
1.000000 0.244938 0.009888
1.000000 0.241245 0.044068
1.000000 0.237949 0.065553
1.000000 0.235142 0.077729
1.000000 0.232822 0.089052
0.000000 0.354528 0.000000
0.000000 0.354345 0.000000
0.054139 0.354070 0.000000
0.122774 0.353460 0.000000
0.178897 0.352605 0.000000
0.230961 0.351049 0.000000
0.280583 0.348119 0.000000
0.328740 0.345403 0.000000
0.379400 0.345373 0.000000
0.437903 0.350683 0.000000
0.497566 0.355230 0.000000
0.557305 0.358373 0.000000
0.614374 0.359228 0.000000
0.666743 0.357366 0.000000
0.714321 0.353338 0.000000
0.758877 0.348577 0.000000
0.803037 0.344579 0.000000
0.840604 0.338506 0.000000
0.873503 0.332067 0.000000
0.903868 0.325444 0.000000
0.932097 0.319402 0.000000
0.958068 0.313420 0.000000
0.981323 0.307988 0.000000
1.000000 0.302403 0.000000
1.000000 0.296788 0.000000
1.000000 0.291234 0.000000
1.000000 0.285618 0.000000
1.000000 0.280095 0.000000
1.000000 0.275212 0.019867
1.000000 0.270573 0.052216
1.000000 0.266514 0.069764
1.000000 0.262852 0.081819
0.000000 0.404822 0.000000
0.000000 0.404608 0.000000
0.015473 0.404395 0.000000
0.115633 0.403601 0.000000
0.174807 0.402777 0.000000
0.228489 0.401495 0.000000
0.279667 0.399084 0.000000
0.328832 0.396124 0.000000
0.377142 0.393164 0.000000
0.427802 0.392950 0.000000
0.487007 0.398718 0.000000
0.546441 0.402991 0.000000
0.603845 0.405005 0.000000
0.656703 0.403693 0.000000
0.706966 0.401221 0.000000
0.755947 0.398505 0.000000
0.798062 0.392920 0.000000
0.834653 0.385992 0.000000
0.867247 0.378393 0.000000
0.897642 0.370886 0.000000
0.926055 0.363928 0.000000
0.952239 0.356939 0.000000
0.975799 0.350164 0.000000
0.996582 0.343481 0.000000
1.000000 0.336828 0.000000
1.000000 0.329717 0.000000
1.000000 0.322850 0.000000
1.000000 0.316289 0.000000
1.000000 0.310033 0.000000
1.000000 0.304265 0.032654
1.000000 0.298924 0.060822
1.000000 0.293950 0.074220
0.000000 0.454597 0.000000
0.000000 0.454261 0.000000
0.000000 0.453864 0.000000
0.107973 0.453071 0.000000
0.169955 0.452003 0.000000
0.225406 0.450690 0.000000
0.277867 0.449195 0.000000
0.327947 0.446082 0.000000
0.376959 0.443091 0.000000
0.425422 0.440253 0.000000
0.475257 0.439002 0.000000
0.534081 0.444495 0.000000
0.591791 0.447883 0.000000
0.649928 0.450690 0.000000
0.703883 0.450507 0.000000
0.751766 0.446937 0.000000
0.793698 0.441016 0.000000
0.830472 0.433295 0.000000
0.863188 0.424933 0.000000
0.893339 0.416449 0.000000
0.921172 0.408118 0.000000
0.946624 0.399878 0.000000
0.969604 0.391669 0.000000
0.990082 0.383490 0.000000
1.000000 0.375433 0.000000
1.000000 0.367346 0.000000
1.000000 0.359533 0.000000
1.000000 0.351995 0.000000
1.000000 0.344915 0.000000
1.000000 0.338293 0.010254
1.000000 0.332158 0.049317
1.000000 0.326360 0.069001
0.000000 0.501366 0.000000
0.000000 0.501213 0.000000
0.000000 0.500969 0.000000
0.097536 0.500481 0.000000
0.164340 0.499672 0.000000
0.221408 0.498878 0.000000
0.275181 0.497993 0.000000
0.326970 0.496468 0.000000
0.377050 0.493568 0.000000
0.426398 0.490761 0.000000
0.474861 0.487739 0.000000
0.527306 0.488502 0.000000
0.588251 0.495583 0.000000
0.645228 0.498207 0.000000
0.697353 0.497261 0.000000
0.744259 0.493141 0.000000
0.785855 0.486336 0.000000
0.822507 0.478004 0.000000
0.855406 0.468849 0.000000
0.885893 0.459632 0.000000
0.914153 0.450660 0.000000
0.940093 0.441627 0.000000
0.963592 0.432685 0.000000
0.984588 0.423713 0.000000
1.000000 0.414649 0.000000
1.000000 0.405524 0.000000
1.000000 0.396674 0.000000
1.000000 0.388128 0.000000
1.000000 0.379950 0.000000
1.000000 0.372351 0.000000
1.000000 0.365118 0.024414
1.000000 0.358465 0.059083
0.000000 0.549615 0.000000
0.000000 0.549584 0.000000
0.000000 0.549248 0.000000
0.085756 0.548821 0.000000
0.158236 0.548333 0.000000
0.217288 0.547692 0.000000
0.272221 0.547051 0.000000
0.325566 0.546319 0.000000
0.377050 0.544335 0.000000
0.428534 0.543175 0.000000
0.481849 0.544274 0.000000
0.534478 0.544549 0.000000
0.621973 0.574701 0.000000
0.678370 0.575372 0.000000
0.728847 0.571313 0.000000
0.772915 0.563531 0.000000
0.811368 0.553155 0.000000
0.844999 0.541283 0.000000
0.874998 0.528832 0.000000
0.902770 0.516747 0.000000
0.928191 0.504936 0.000000
0.951354 0.493416 0.000000
0.972229 0.481910 0.000000
0.991119 0.470802 0.000000
1.000000 0.459846 0.000000
1.000000 0.449134 0.000000
1.000000 0.438727 0.000000
1.000000 0.428809 0.000000
1.000000 0.419318 0.000000
1.000000 0.410315 0.023621
1.000000 0.401953 0.058289
1.000000 0.394141 0.072572
0.000000 0.608423 0.000000
0.000000 0.608148 0.000000
0.000000 0.607355 0.000000
0.071412 0.605982 0.000000
0.153719 0.604181 0.000000
0.215091 0.602106 0.000000
0.271366 0.600336 0.000000
0.327153 0.602289 0.000000
0.383276 0.604974 0.000000
0.438331 0.606561 0.000000
0.494057 0.608667 0.000000
0.550286 0.610803 0.000000
0.606134 0.612543 0.000000
0.660731 0.612696 0.000000
0.713436 0.611536 0.000000
0.759304 0.605280 0.000000
0.798825 0.595331 0.000000
0.833158 0.583337 0.000000
0.863920 0.570611 0.000000
0.892241 0.557794 0.000000
0.918334 0.545281 0.000000
0.942199 0.532952 0.000000
0.963653 0.520836 0.000000
0.983215 0.508904 0.000000
1.000000 0.497139 0.000000
1.000000 0.485603 0.000000
1.000000 0.474434 0.000000
1.000000 0.463661 0.000000
1.000000 0.453285 0.000000
1.000000 0.443610 0.000000
1.000000 0.434455 0.023560
1.000000 0.425879 0.059571
0.000000 0.652399 0.000000
0.000000 0.652491 0.000000
0.000000 0.652186 0.000000
0.045655 0.651850 0.000000
0.146181 0.651179 0.000000
0.210636 0.650507 0.000000
0.268833 0.650172 0.000000
0.324315 0.650294 0.000000
0.379278 0.651118 0.000000
0.433967 0.652277 0.000000
0.488228 0.652888 0.000000
0.542779 0.653895 0.000000
0.596674 0.654292 0.000000
0.649348 0.653498 0.000000
0.699825 0.650996 0.000000
0.745510 0.644984 0.000000
0.785458 0.635370 0.000000
0.820554 0.623468 0.000000
0.852232 0.610651 0.000000
0.881437 0.597742 0.000000
0.908385 0.584863 0.000000
0.933104 0.572107 0.000000
0.955413 0.559289 0.000000
0.975708 0.546777 0.000000
0.993988 0.534386 0.000000
1.000000 0.522179 0.000000
1.000000 0.510216 0.000000
1.000000 0.498695 0.000000
1.000000 0.487739 0.000000
1.000000 0.477363 0.000000
1.000000 0.467536 0.000000
1.000000 0.458228 0.038178
0.000000 0.699855 0.000000
0.000000 0.699886 0.000000
0.000000 0.699245 0.000000
0.002869 0.698146 0.000000
0.139437 0.696437 0.000000
0.205295 0.694606 0.000000
0.263462 0.693172 0.000000
0.318608 0.692164 0.000000
0.372717 0.692012 0.000000
0.426856 0.692805 0.000000
0.480140 0.693172 0.000000
0.533196 0.693233 0.000000
0.585626 0.692836 0.000000
0.636774 0.691402 0.000000
0.686000 0.688350 0.000000
0.732570 0.683497 0.000000
0.773129 0.674525 0.000000
0.808713 0.662745 0.000000
0.841032 0.649928 0.000000
0.870878 0.636835 0.000000
0.898436 0.623651 0.000000
0.923796 0.610437 0.000000
0.946777 0.597192 0.000000
0.967803 0.583948 0.000000
0.986877 0.571008 0.000000
1.000000 0.558312 0.000000
1.000000 0.546014 0.000000
1.000000 0.534173 0.000000
1.000000 0.522820 0.000000
1.000000 0.512016 0.000000
1.000000 0.501823 0.000000
1.000000 0.492134 0.046418
0.000000 0.739162 0.000000
0.000000 0.739345 0.000000
0.000000 0.739040 0.000000
0.000000 0.738277 0.000000
0.132235 0.737057 0.000000
0.200137 0.735714 0.000000
0.258488 0.734646 0.000000
0.313603 0.733883 0.000000
0.367559 0.733272 0.000000
0.420294 0.732998 0.000000
0.472969 0.732723 0.000000
0.523766 0.730892 0.000000
0.573510 0.728389 0.000000
0.622217 0.725154 0.000000
0.669368 0.720943 0.000000
0.714748 0.715785 0.000000
0.758480 0.709957 0.000000
0.796323 0.700099 0.000000
0.829953 0.687984 0.000000
0.861143 0.675441 0.000000
0.889921 0.662531 0.000000
0.916228 0.649348 0.000000
0.940124 0.635828 0.000000
0.961852 0.622278 0.000000
0.981598 0.608789 0.000000
0.999664 0.595453 0.000000
1.000000 0.582513 0.000000
1.000000 0.570092 0.000000
1.000000 0.558068 0.000000
1.000000 0.546532 0.000000
1.000000 0.535424 0.000000
1.000000 0.524865 0.032410
0.000000 0.770962 0.000000
0.000000 0.770840 0.000000
0.000000 0.770321 0.000000
0.000000 0.769558 0.000000
0.124056 0.768399 0.000000
0.192233 0.767086 0.000000
0.250431 0.765896 0.000000
0.304906 0.764736 0.000000
0.357458 0.763821 0.000000
0.409064 0.763088 0.000000
0.460182 0.762478 0.000000
0.510460 0.761379 0.000000
0.559167 0.758938 0.000000
0.606744 0.755703 0.000000
0.652949 0.751461 0.000000
0.697322 0.746181 0.000000
0.740230 0.740291 0.000000
0.782040 0.734218 0.000000
0.818387 0.724392 0.000000
0.850065 0.711971 0.000000
0.879454 0.699092 0.000000
0.906523 0.685817 0.000000
0.931151 0.672206 0.000000
0.953674 0.658534 0.000000
0.974243 0.644739 0.000000
0.993072 0.631098 0.000000
1.000000 0.617639 0.000000
1.000000 0.604700 0.000000
1.000000 0.592157 0.000000
1.000000 0.580133 0.000000
1.000000 0.568566 0.000000
1.000000 0.557519 0.017700
0.000000 0.800443 0.000000
0.000000 0.800809 0.000000
0.000000 0.820981 0.000000
0.000000 0.820127 0.000000
0.131594 0.818723 0.000000
0.196780 0.816861 0.000000
0.253727 0.814755 0.000000
0.307073 0.812589 0.000000
0.358984 0.810544 0.000000
0.409583 0.808713 0.000000
0.459541 0.806912 0.000000
0.508782 0.804837 0.000000
0.556420 0.801450 0.000000
0.602716 0.797055 0.000000
0.647700 0.791989 0.000000
0.691249 0.786252 0.000000
0.733455 0.779934 0.000000
0.774350 0.773220 0.000000
0.814237 0.766445 0.000000
0.848814 0.755947 0.000000
0.877226 0.741695 0.000000
0.903746 0.727291 0.000000
0.928130 0.712673 0.000000
0.950317 0.697932 0.000000
0.970336 0.682948 0.000000
0.988739 0.668086 0.000000
1.000000 0.653559 0.000000
1.000000 0.639521 0.000000
1.000000 0.626123 0.000000
1.000000 0.613397 0.000000
1.000000 0.601312 0.000000
1.000000 0.589624 0.000000
0.000000 0.831662 0.000000
0.000000 0.834073 0.000000
0.000000 0.836301 0.000000
0.000000 0.837888 0.000000
0.123995 0.838437 0.000000
0.189120 0.837705 0.000000
0.245090 0.836179 0.000000
0.297063 0.834287 0.000000
0.347539 0.832425 0.000000
0.396460 0.830533 0.000000
0.445014 0.828672 0.000000
0.492744 0.826627 0.000000
0.539666 0.824002 0.000000
0.584680 0.819821 0.000000
0.628595 0.814939 0.000000
0.671260 0.809476 0.000000
0.712764 0.803555 0.000000
0.753170 0.797299 0.000000
0.792813 0.791073 0.000000
0.831754 0.785061 0.000000
0.866117 0.775753 0.000000
0.893523 0.761868 0.000000
0.918914 0.747555 0.000000
0.942016 0.732845 0.000000
0.962921 0.717861 0.000000
0.982116 0.702907 0.000000
0.999786 0.688106 0.000000
1.000000 0.673823 0.000000
1.000000 0.659998 0.000000
1.000000 0.646662 0.000000
1.000000 0.633906 0.000000
1.000000 0.621759 0.000000
0.000000 0.853117 0.000000
0.000000 0.855100 0.000000
0.000000 0.857023 0.000000
0.000000 0.858335 0.000000
0.119081 0.858793 0.000000
0.182773 0.858122 0.000000
0.237369 0.856718 0.000000
0.288029 0.855009 0.000000
0.336797 0.853300 0.000000
0.384771 0.851469 0.000000
0.431830 0.849668 0.000000
0.478218 0.847684 0.000000
0.523766 0.845121 0.000000
0.568322 0.841855 0.000000
0.611261 0.837308 0.000000
0.653101 0.832151 0.000000
0.693965 0.826658 0.000000
0.733852 0.820829 0.000000
0.773037 0.815061 0.000000
0.811704 0.809445 0.000000
0.849699 0.804013 0.000000
0.884092 0.796078 0.000000
0.910155 0.782040 0.000000
0.933989 0.767453 0.000000
0.955596 0.752346 0.000000
0.975341 0.737179 0.000000
0.993591 0.722103 0.000000
1.000000 0.707393 0.000000
1.000000 0.693202 0.000000
1.000000 0.679500 0.000000
1.000000 0.666255 0.000000
1.000000 0.653529 0.000000
0.000000 0.873320 0.000000
0.000000 0.875029 0.000000
0.000000 0.876738 0.000000
0.000000 0.877867 0.000000
0.115236 0.878202 0.000000
0.177676 0.877562 0.000000
0.230289 0.876249 0.000000
0.279515 0.874632 0.000000
0.327092 0.872862 0.000000
0.373449 0.871031 0.000000
0.419135 0.869139 0.000000
0.464240 0.867063 0.000000
0.508476 0.864591 0.000000
0.552148 0.861814 0.000000
0.594568 0.858091 0.000000
0.636011 0.853758 0.000000
0.676844 0.849302 0.000000
0.716976 0.844816 0.000000
0.756710 0.840421 0.000000
0.795956 0.836118 0.000000
0.834623 0.831968 0.000000
0.872801 0.827848 0.000000
0.907561 0.821286 0.000000
0.932006 0.806790 0.000000
0.954253 0.791623 0.000000
0.974426 0.776181 0.000000
0.992920 0.760647 0.000000
1.000000 0.745418 0.000000
1.000000 0.730587 0.000000
1.000000 0.716304 0.000000
1.000000 0.702449 0.000092
1.000000 0.689448 0.052491
0.000000 0.899290 0.000000
0.000000 0.899962 0.000000
0.000000 0.900359 0.000000
0.000000 0.900389 0.000000
0.117128 0.899962 0.000000
0.175998 0.898924 0.000000
0.226749 0.897642 0.000000
0.274388 0.896239 0.000000
0.320623 0.894835 0.000000
0.366033 0.893370 0.000000
0.410590 0.891783 0.000000
0.454688 0.889952 0.000000
0.497993 0.887633 0.000000
0.540520 0.884916 0.000000
0.582361 0.881865 0.000000
0.623041 0.877745 0.000000
0.662898 0.873381 0.000000
0.702327 0.868986 0.000000
0.741085 0.864530 0.000000
0.779416 0.860075 0.000000
0.817044 0.855589 0.000000
0.854124 0.851102 0.000000
0.890471 0.846555 0.000000
0.924285 0.840299 0.000000
0.946746 0.824979 0.000000
0.967468 0.809415 0.000000
0.986633 0.793820 0.000000
1.000000 0.778470 0.000000
1.000000 0.763424 0.000000
1.000000 0.748806 0.000000
1.000000 0.734859 0.002075
1.000000 0.721981 0.054475
0.000000 0.916594 0.000000
0.000000 0.917174 0.000000
0.000000 0.917662 0.000000
0.000000 0.917693 0.000000
0.116670 0.917235 0.000000
0.172702 0.916258 0.000000
0.221530 0.914946 0.000000
0.267369 0.913451 0.000000
0.312322 0.911925 0.000000
0.356237 0.910399 0.000000
0.399603 0.908782 0.000000
0.442267 0.906981 0.000000
0.484321 0.904784 0.000000
0.525994 0.902312 0.000000
0.566949 0.899565 0.000000
0.607202 0.896391 0.000000
0.646509 0.892546 0.000000
0.685328 0.888640 0.000000
0.723690 0.884672 0.000000
0.761532 0.880735 0.000000
0.798947 0.876768 0.000000
0.835813 0.872770 0.000000
0.872007 0.868803 0.000000
0.907591 0.864744 0.000000
0.937926 0.856229 0.000000
0.959106 0.840757 0.000000
0.978943 0.825315 0.000000
0.997406 0.809873 0.000000
1.000000 0.794797 0.000000
1.000000 0.780179 0.000000
1.000000 0.766415 0.000000
1.000000 0.753902 0.042359
0.000000 0.937621 0.000000
0.000000 0.938231 0.000000
0.000000 0.938506 0.000000
0.058015 0.938231 0.000000
0.125307 0.937499 0.000000
0.175540 0.936309 0.000000
0.221134 0.934783 0.000000
0.264775 0.932952 0.000000
0.307439 0.930999 0.000000
0.349462 0.928985 0.000000
0.390936 0.926787 0.000000
0.431891 0.924559 0.000000
0.472572 0.922118 0.000000
0.512657 0.919341 0.000000
0.552117 0.916167 0.000000
0.591150 0.912779 0.000000
0.629358 0.908873 0.000000
0.667018 0.904814 0.000000
0.704494 0.901030 0.000000
0.741848 0.897459 0.000000
0.778805 0.893980 0.000000
0.815213 0.890410 0.000000
0.850889 0.886595 0.000000
0.885740 0.882444 0.000000
0.919615 0.877989 0.000000
0.952911 0.873442 0.000000
0.973083 0.857877 0.000000
0.991699 0.842161 0.000000
1.000000 0.826841 0.000000
1.000000 0.812131 0.000000
1.000000 0.798428 0.000000
1.000000 0.786099 0.042969
0.000000 0.951751 0.000000
0.000000 0.952300 0.000000
0.000000 0.952544 0.000000
0.063081 0.952331 0.000000
0.124788 0.951629 0.000000
0.172763 0.950591 0.000000
0.216831 0.949279 0.000000
0.259037 0.947784 0.000000
0.300572 0.946136 0.000000
0.341527 0.944427 0.000000
0.381811 0.942626 0.000000
0.422156 0.940703 0.000000
0.461830 0.938628 0.000000
0.501030 0.936217 0.000000
0.539727 0.933471 0.000000
0.577966 0.930510 0.000000
0.615900 0.927337 0.000000
0.652949 0.923735 0.000000
0.689784 0.920226 0.000000
0.726436 0.916869 0.000000
0.762722 0.913542 0.000000
0.798550 0.910124 0.000000
0.833768 0.906554 0.000000
0.868193 0.902770 0.000000
0.901976 0.898650 0.000000
0.934936 0.894377 0.000000
0.967315 0.890074 0.000000
0.987823 0.875700 0.000000
1.000000 0.860349 0.000000
1.000000 0.845548 0.000000
1.000000 0.831876 0.046601
1.000000 0.819760 0.076967
0.000000 0.966644 0.000000
0.000000 0.966949 0.000000
0.000000 0.966949 0.000000
0.073823 0.966552 0.000000
0.126436 0.965759 0.000000
0.171267 0.964660 0.000000
0.213077 0.963317 0.000000
0.253819 0.961822 0.000000
0.294011 0.960266 0.000000
0.333501 0.958709 0.000000
0.372961 0.957031 0.000000
0.412085 0.955352 0.000000
0.450874 0.953491 0.000000
0.489326 0.951293 0.000000
0.527031 0.948791 0.000000
0.564385 0.946014 0.000000
0.601434 0.943023 0.000000
0.638025 0.939940 0.000000
0.674159 0.936645 0.000000
0.710018 0.933471 0.000000
0.745693 0.930327 0.000000
0.780911 0.927123 0.000000
0.815610 0.923766 0.000000
0.849668 0.920256 0.000000
0.883085 0.916503 0.000000
0.915862 0.912596 0.000000
0.948089 0.908598 0.000000
0.979675 0.904601 0.000000
1.000000 0.891600 0.000000
1.000000 0.876860 0.009674
1.000000 0.863127 0.058503
1.000000 0.851194 0.082582
0.000000 0.979431 0.015412
0.000000 0.979553 0.019776
0.000000 0.979553 0.022278
0.077272 0.979248 0.021363
0.127321 0.978729 0.018341
0.170535 0.978088 0.018189
0.211978 0.977478 0.021820
0.252232 0.976898 0.028504
0.292058 0.976318 0.039094
0.331395 0.975708 0.051240
0.370459 0.975006 0.060639
0.409094 0.974090 0.066682
0.447364 0.972930 0.071412
0.485084 0.971374 0.075074
0.522240 0.969421 0.077180
0.558740 0.966979 0.076783
0.594903 0.964324 0.076356
0.630762 0.961578 0.076387
0.666285 0.958648 0.075685
0.701350 0.955657 0.073701
0.736202 0.952636 0.074128
0.770718 0.949584 0.074678
0.804715 0.946349 0.074525
0.838193 0.942992 0.074434
0.871122 0.939513 0.074037
0.903685 0.935851 0.073335
0.935729 0.932128 0.071901
0.967132 0.928374 0.071504
0.997803 0.924804 0.072663
1.000000 0.913085 0.095674
1.000000 0.898985 0.119173
1.000000 0.886717 0.134340
0.008850 0.996460 0.088594
0.056184 0.996490 0.089296
0.079744 0.996338 0.089387
0.111604 0.995911 0.088258
0.146578 0.995270 0.086610
0.182376 0.994446 0.085542
0.218784 0.993561 0.084260
0.255222 0.992615 0.083619
0.292027 0.991638 0.083925
0.329076 0.990539 0.085512
0.365789 0.989319 0.086610
0.402502 0.988006 0.088075
0.439002 0.986450 0.089479
0.475227 0.984680 0.090639
0.511070 0.982635 0.090517
0.546654 0.980346 0.090974
