其他预设/【232】美食博客调色预设124款/1.3D LUT预设（视频调色-PR-AE-PS-FCPX-达芬奇用）/Yummy #6.cube
# Created by Adobe Lightroom plugin Export LUT (1.17.0)
# www.johnrellis.com/lightroom/exportlut.htm
# Preset: Yummy #6
# Color profile: /Library/Application Support/Adobe/Color/Profiles/Recommended/AdobeRGB1998.icc
LUT_3D_SIZE 8
DOMAIN_MIN 0.000000 0.000000 0.000000
DOMAIN_MAX 0.903226 0.903226 0.903226
0.000000 0.000000 0.000000
0.152132 0.036957 0.000000
0.366491 0.060395 0.000000
0.636011 0.088746 0.000000
0.866178 0.135958 0.000000
1.000000 0.204746 0.084779
1.000000 0.277043 0.193545
1.000000 0.360693 0.293370
0.036225 0.148531 0.000000
0.154543 0.150668 0.000000
0.344427 0.177554 0.000000
0.608362 0.216281 0.000000
0.852201 0.244633 0.000000
0.993957 0.270848 0.071748
1.000000 0.313481 0.186404
1.000000 0.380591 0.289494
0.060304 0.346654 0.000000
0.184237 0.349279 0.000000
0.353491 0.347845 0.000000
0.587396 0.393286 0.000000
0.836057 0.430396 0.000000
0.983520 0.429236 0.091005
1.000000 0.438392 0.214176
1.000000 0.470436 0.317174
0.097627 0.590631 0.000000
0.217441 0.594415 0.000000
0.416175 0.607507 0.000000
0.628748 0.618341 0.000000
0.846006 0.629633 0.000000
0.970611 0.602106 0.134798
1.000000 0.579980 0.242954
1.000000 0.578973 0.343267
0.132998 0.815183 0.000000
0.237949 0.814694 0.000000
0.427466 0.816617 0.000000
0.628443 0.816739 0.000000
0.818296 0.802182 0.000000
0.957885 0.758663 0.000000
1.000000 0.713130 0.233829
1.000000 0.696132 0.379156
0.191318 0.942077 0.000000
0.265141 0.945556 0.000000
0.418555 0.942748 0.000000
0.592584 0.938323 0.000000
0.763027 0.924926 0.000000
0.928740 0.908690 0.000000
1.000000 0.851774 0.139132
1.000000 0.801602 0.364355
0.272862 1.000000 0.000000
0.314549 1.000000 0.000000
0.422248 1.000000 0.000000
0.560998 1.000000 0.061524
0.706722 0.996155 0.106203
0.849851 0.982635 0.128267
0.989044 0.967102 0.160220
1.000000 0.910674 0.298344
0.375311 1.000000 0.255619
0.397009 1.000000 0.257237
0.466072 1.000000 0.266117
0.568292 1.000000 0.287236
0.675288 1.000000 0.289952
0.794278 1.000000 0.319036
0.910491 1.000000 0.348821
1.000000 0.996704 0.377630
0.058656 0.025849 0.092500
0.151980 0.004395 0.097383
0.334630 0.039155 0.105043
0.591302 0.098573 0.122011
0.841001 0.144137 0.134432
0.986206 0.217258 0.179263
1.000000 0.294377 0.247410
1.000000 0.379797 0.331426
0.046815 0.135225 0.086275
0.152743 0.144533 0.089967
0.323125 0.174777 0.108431
0.579492 0.210819 0.118227
0.831205 0.243137 0.130587
0.977966 0.278843 0.175235
1.000000 0.327398 0.241978
1.000000 0.395911 0.325841
0.062531 0.321782 0.080018
0.180270 0.322545 0.083680
0.335393 0.327886 0.074830
0.562860 0.378180 0.107149
0.810697 0.418494 0.124666
0.966369 0.426825 0.179629
1.000000 0.440711 0.256535
1.000000 0.478401 0.346715
0.060670 0.562371 0.000000
0.205600 0.565667 0.000000
0.397772 0.580560 0.000000
0.590753 0.579858 0.000000
0.806485 0.599603 0.000000
0.947478 0.588617 0.191958
1.000000 0.575799 0.274205
1.000000 0.581811 0.367132
0.116732 0.800168 0.000000
0.227451 0.798795 0.000000
0.416663 0.799466 0.000000
0.612787 0.796658 0.000000
0.798154 0.781888 0.000000
0.944030 0.747921 0.064088
1.000000 0.711421 0.278386
1.000000 0.698878 0.404547
0.191165 0.932280 0.000000
0.260288 0.931945 0.000000
0.413001 0.930175 0.000000
0.587182 0.928099 0.000000
0.757931 0.917571 0.000000
0.924346 0.903960 0.000000
1.000000 0.849699 0.214145
1.000000 0.803433 0.396185
0.277836 1.000000 0.126162
0.315373 1.000000 0.125093
0.422614 1.000000 0.135348
0.561700 1.000000 0.161257
0.707424 0.992584 0.188144
0.848417 0.979278 0.198642
0.985595 0.963653 0.214206
1.000000 0.908782 0.327214
0.387091 1.000000 0.292699
0.409308 1.000000 0.296147
0.476539 1.000000 0.305241
0.576715 1.000000 0.325963
0.688197 1.000000 0.349035
0.800656 1.000000 0.368048
0.912016 1.000000 0.385840
1.000000 0.995850 0.407599
0.082673 0.011719 0.246433
0.174624 0.000000 0.251408
0.344457 0.000000 0.261875
0.594965 0.000000 0.292149
0.836545 0.066621 0.306249
0.975525 0.283055 0.353582
1.000000 0.390845 0.409216
1.000000 0.482948 0.474800
0.090028 0.147280 0.218997
0.170352 0.153201 0.227634
0.336278 0.160189 0.249454
0.578607 0.166384 0.276707
0.822293 0.222354 0.302800
0.968017 0.325780 0.348547
1.000000 0.410224 0.403571
1.000000 0.493874 0.471504
0.096223 0.297429 0.225284
0.175174 0.306157 0.229709
0.345617 0.332799 0.243809
0.565179 0.374273 0.274754
0.808621 0.419226 0.308507
0.958129 0.453712 0.352087
1.000000 0.494759 0.409552
1.000000 0.548791 0.478828
0.000000 0.544030 0.254337
0.172915 0.548730 0.247105
0.381964 0.563195 0.246708
0.583429 0.568994 0.243381
0.797238 0.595575 0.297490
0.941894 0.603845 0.361242
1.000000 0.611444 0.423896
1.000000 0.634730 0.496986
0.000000 0.780056 0.237064
0.181979 0.779934 0.229191
0.406958 0.782742 0.242649
0.608728 0.787778 0.249943
0.794797 0.776303 0.242802
0.935088 0.747799 0.319371
1.000000 0.730404 0.431586
1.000000 0.731838 0.521477
0.189944 0.921630 0.242252
0.270603 0.920684 0.251225
0.426856 0.918181 0.267643
0.592370 0.916228 0.280064
0.756832 0.907866 0.286229
0.916838 0.895750 0.291417
1.000000 0.850401 0.383307
1.000000 0.823453 0.524376
0.339818 1.000000 0.324376
0.372625 1.000000 0.327092
0.462837 0.998779 0.332280
0.586419 0.993744 0.344121
0.722133 0.986572 0.362615
0.853941 0.975006 0.370123
0.983948 0.962158 0.385534
1.000000 0.914916 0.475380
0.463081 1.000000 0.428962
0.474098 1.000000 0.425422
0.528405 1.000000 0.431037
0.619684 1.000000 0.453773
0.718349 1.000000 0.473121
0.820615 1.000000 0.494484
0.920500 1.000000 0.511101
1.000000 0.994781 0.532189
0.110292 0.000000 0.428382
0.202731 0.000000 0.436103
0.387396 0.000000 0.461463
0.591455 0.000000 0.470619
0.830564 0.000000 0.489509
0.964111 0.270298 0.491829
1.000000 0.468238 0.551598
1.000000 0.607996 0.633143
0.099580 0.156710 0.402747
0.191501 0.158358 0.411780
0.375494 0.162051 0.443824
0.586084 0.137392 0.461860
0.823148 0.177951 0.483162
0.956878 0.337407 0.495674
1.000000 0.505638 0.562951
1.000000 0.613092 0.630091
0.093538 0.303990 0.369238
0.170291 0.303868 0.371191
0.352026 0.330938 0.411658
0.583337 0.356451 0.448676
0.805753 0.412451 0.478950
0.943664 0.506889 0.527886
1.000000 0.593378 0.589593
1.000000 0.657465 0.642786
0.054566 0.504692 0.400641
0.169436 0.510491 0.403296
0.362982 0.539055 0.421393
0.592706 0.573419 0.447486
0.782773 0.600488 0.485328
0.925414 0.631373 0.530755
1.000000 0.668238 0.587610
1.000000 0.711818 0.649042
0.000000 0.755459 0.433143
0.176272 0.754360 0.429694
0.392065 0.759762 0.432654
0.612634 0.774777 0.461372
0.790036 0.769375 0.461555
0.918761 0.758572 0.526513
0.997375 0.768124 0.604211
1.000000 0.783413 0.664698
0.203708 0.911589 0.427405
0.287877 0.913207 0.436103
0.459663 0.906920 0.461738
0.622492 0.905089 0.488502
0.771450 0.901732 0.502342
0.912047 0.891081 0.503166
0.997345 0.861021 0.577050
1.000000 0.856565 0.677668
0.365606 0.996155 0.459266
0.413489 0.994171 0.472999
0.545922 0.986664 0.524956
0.643580 0.983764 0.536065
0.758480 0.978424 0.555322
0.869322 0.969635 0.563745
0.979034 0.959106 0.571557
1.000000 0.924834 0.642512
0.537316 1.000000 0.558556
0.570733 1.000000 0.577356
0.644587 1.000000 0.615991
0.691554 1.000000 0.612390
0.769589 1.000000 0.628168
0.853269 1.000000 0.648615
0.933318 1.000000 0.660670
1.000000 0.992981 0.677119
0.134493 0.000000 0.627131
0.222751 0.000000 0.633265
0.401648 0.000000 0.652857
0.613764 0.000000 0.677241
0.817838 0.000000 0.673182
0.957244 0.230167 0.640497
1.000000 0.444373 0.643732
1.000000 0.623804 0.704311
0.108370 0.156405 0.602991
0.206088 0.155550 0.612238
0.390478 0.151431 0.637324
0.609155 0.151278 0.669947
0.812253 0.155734 0.666163
0.952483 0.309300 0.641047
1.000000 0.488685 0.652918
1.000000 0.648981 0.715206
0.000000 0.310094 0.546471
0.158663 0.312047 0.557946
0.358831 0.329198 0.594446
0.597955 0.371008 0.649470
0.796536 0.386908 0.648035
0.934112 0.476600 0.644068
1.000000 0.603998 0.682307
1.000000 0.715633 0.745235
0.000000 0.486610 0.542901
0.150912 0.486824 0.543328
0.337346 0.497292 0.554925
0.588647 0.565667 0.624079
0.788479 0.603815 0.646418
0.912718 0.665034 0.677699
0.988281 0.731655 0.729091
1.000000 0.777462 0.769650
0.000000 0.701991 0.574792
0.163210 0.705745 0.576928
0.370001 0.719112 0.586908
0.601129 0.749294 0.621057
0.784268 0.764767 0.648249
0.897154 0.773892 0.686275
0.980194 0.795315 0.727016
1.000000 0.821714 0.770748
0.180331 0.883177 0.577813
0.258518 0.882200 0.578973
0.427222 0.878538 0.586755
0.627253 0.877501 0.627008
0.774228 0.883238 0.658930
0.899046 0.880797 0.667811
0.976654 0.873136 0.728084
1.000000 0.883116 0.788815
0.363348 0.985382 0.582086
0.406287 0.983124 0.588251
0.532250 0.975952 0.616968
0.689479 0.966094 0.677272
0.783902 0.964904 0.695644
0.880217 0.960967 0.711086
0.970275 0.953857 0.715175
1.000000 0.933165 0.767422
0.530938 1.000000 0.630091
0.560845 1.000000 0.641810
0.648341 1.000000 0.681147
0.764401 1.000000 0.748043
0.810513 1.000000 0.748074
0.878935 1.000000 0.765652
0.943023 0.997162 0.776486
1.000000 0.990631 0.787350
0.143771 0.000000 0.808560
0.227848 0.000000 0.810788
0.395605 0.000000 0.817624
0.594568 0.000000 0.838804
0.791165 0.106966 0.840635
0.942473 0.232517 0.801602
1.000000 0.419257 0.757168
1.000000 0.608423 0.768856
0.116213 0.157809 0.789639
0.211124 0.156374 0.792477
0.386206 0.156130 0.804196
0.587640 0.181430 0.826658
0.785855 0.219272 0.832212
0.937102 0.301061 0.796841
1.000000 0.460700 0.759518
1.000000 0.632074 0.775204
0.000000 0.315923 0.756832
0.154726 0.318975 0.760769
0.365545 0.333928 0.776394
0.579919 0.373754 0.804623
0.782284 0.419318 0.820279
0.926543 0.470405 0.791501
1.000000 0.587976 0.775631
1.000000 0.707851 0.800015
0.000000 0.480262 0.711238
0.084230 0.476722 0.708583
0.326818 0.487892 0.723018
0.573205 0.551293 0.772274
0.788876 0.627375 0.812619
0.914397 0.660365 0.797238
0.987121 0.729397 0.805814
1.000000 0.798734 0.836332
0.000000 0.669215 0.716915
0.125460 0.669551 0.717006
0.337926 0.673426 0.719631
0.546715 0.691737 0.733822
0.777981 0.762570 0.790372
0.898924 0.790646 0.803464
0.969451 0.827604 0.830259
1.000000 0.869444 0.867491
0.135348 0.856901 0.726436
0.228977 0.858244 0.728237
0.404211 0.858946 0.731594
0.604700 0.861387 0.746883
0.781003 0.872221 0.783383
0.895842 0.882933 0.809628
0.962066 0.890196 0.840421
1.000000 0.905364 0.870451
0.364813 0.974029 0.713924
0.409277 0.972717 0.717952
0.529564 0.966583 0.731685
0.677577 0.958129 0.761501
0.808743 0.952544 0.804868
0.892851 0.954803 0.829129
0.963287 0.951843 0.834104
1.000000 0.946349 0.872282
0.537713 1.000000 0.723720
0.564508 1.000000 0.730556
0.644770 1.000000 0.754208
0.750118 1.000000 0.794217
0.847532 0.998138 0.841489
0.899321 0.995850 0.855467
0.952331 0.992615 0.870024
0.998718 0.989014 0.877653
0.151369 0.089479 0.926452
0.224552 0.090639 0.928099
0.376104 0.097597 0.930419
0.550134 0.139559 0.936126
0.735012 0.236332 0.943999
0.900053 0.294347 0.935821
1.000000 0.411902 0.882811
1.000000 0.577050 0.843259
0.133700 0.172641 0.916381
0.213870 0.174533 0.918242
0.370611 0.182406 0.921752
0.546807 0.213291 0.928069
0.732448 0.291508 0.937194
0.895842 0.338994 0.929747
0.999847 0.439246 0.878904
1.000000 0.589319 0.842496
0.079896 0.324346 0.899443
0.191714 0.327611 0.900786
0.364935 0.341222 0.905089
0.549310 0.376654 0.913878
0.736355 0.445014 0.925383
0.893645 0.489082 0.922484
0.991272 0.566979 0.881102
1.000000 0.678950 0.859312
0.000000 0.472541 0.868528
0.127169 0.474922 0.869261
0.359533 0.498512 0.875486
0.555962 0.539849 0.889830
0.746181 0.610834 0.907347
0.893462 0.663661 0.914153
0.979126 0.708705 0.887572
1.000000 0.777462 0.881376
0.000000 0.632807 0.848234
0.024414 0.630793 0.845945
0.296696 0.627222 0.840848
0.496040 0.638148 0.842679
0.734401 0.722652 0.876951
0.888304 0.786587 0.903441
0.965423 0.810330 0.891478
1.000000 0.858610 0.902922
0.058289 0.807797 0.850370
0.181277 0.807462 0.849790
0.353796 0.806943 0.848447
0.537591 0.810025 0.849027
0.715114 0.822202 0.855039
0.883207 0.874876 0.894987
0.958953 0.898192 0.907073
0.995819 0.922911 0.926757
0.300694 0.960632 0.846464
0.348974 0.959655 0.847105
0.476204 0.954772 0.848386
0.632258 0.947478 0.854612
0.775753 0.941497 0.868406
0.890410 0.944549 0.895323
0.958068 0.951507 0.915740
0.991943 0.956512 0.935241
0.523980 1.000000 0.819394
0.550195 1.000000 0.822812
0.633417 1.000000 0.836667
0.736049 1.000000 0.857633
0.834379 0.995209 0.884611
0.913481 0.989166 0.915618
0.958923 0.989044 0.933043
0.993347 0.988067 0.939940
0.173495 0.149844 0.998291
0.229557 0.153536 0.998535
0.357702 0.165347 0.998016
0.509911 0.202701 0.998291
0.671168 0.277562 0.998413
0.829923 0.386114 0.997375
0.964416 0.445686 0.990661
1.000000 0.564630 0.936980
0.170138 0.206271 0.994903
0.227848 0.209781 0.995209
0.357885 0.221622 0.995056
0.511223 0.254337 0.995331
0.673030 0.322118 0.995727
0.831235 0.423743 0.995148
0.962860 0.475776 0.988434
1.000000 0.585046 0.936767
0.175631 0.337346 0.986236
0.234195 0.341283 0.986450
0.365362 0.353613 0.986267
0.524163 0.390356 0.988067
0.685084 0.449439 0.988800
0.840024 0.542657 0.989075
0.960021 0.581659 0.983215
1.000000 0.662684 0.939330
0.161929 0.473610 0.972686
0.253300 0.486732 0.972534
0.389837 0.504631 0.972900
0.546410 0.538903 0.974945
0.706996 0.597101 0.977264
0.853086 0.677424 0.979614
0.956847 0.709804 0.976867
1.000000 0.761105 0.945037
0.000000 0.590509 0.953613
0.000000 0.590509 0.953216
0.302617 0.600610 0.953765
0.527611 0.644617 0.956695
0.715816 0.710506 0.960845
0.857145 0.774899 0.967742
0.953063 0.814847 0.970581
1.000000 0.851194 0.952911
0.000000 0.752377 0.949248
0.156924 0.751675 0.948180
0.315648 0.750210 0.945190
0.481605 0.751949 0.940917
0.655756 0.768368 0.936706
0.852689 0.848325 0.953796
0.954589 0.901701 0.968872
0.994354 0.917266 0.960998
0.276127 0.908385 0.950591
0.316991 0.907958 0.950042
0.430671 0.906859 0.948486
0.580438 0.907042 0.946654
0.726009 0.909758 0.945373
0.842496 0.914427 0.944915
0.947448 0.944091 0.961852
0.989624 0.961151 0.969146
0.471778 1.000000 0.936095
0.497627 1.000000 0.936034
0.578576 1.000000 0.936614
0.691615 1.000000 0.939086
0.802121 0.995026 0.943847
0.892515 0.987091 0.952056
0.957488 0.984894 0.965484
0.989807 0.988006 0.978485
