其他预设/【232】美食博客调色预设124款/1.3D LUT预设（视频调色-PR-AE-PS-FCPX-达芬奇用）/Yummy #8.cube
# Created by Adobe Lightroom plugin Export LUT (1.17.0)
# www.johnrellis.com/lightroom/exportlut.htm
# Preset: Yummy #8
# Color profile: /Library/Application Support/Adobe/Color/Profiles/Recommended/AdobeRGB1998.icc
LUT_3D_SIZE 8
DOMAIN_MIN 0.000000 0.000000 0.000000
DOMAIN_MAX 0.903226 0.903226 0.903226
0.000000 0.000000 0.000000
0.123598 0.089601 0.091859
0.277623 0.146548 0.145785
0.449958 0.202518 0.219669
0.631464 0.250462 0.296880
0.792142 0.301640 0.373175
0.901549 0.360266 0.437629
0.974762 0.425696 0.492256
0.000000 0.201663 0.112001
0.138888 0.225925 0.108583
0.288579 0.221683 0.126711
0.450050 0.254215 0.217685
0.626429 0.287999 0.294987
0.782986 0.325719 0.368170
0.893339 0.372900 0.431617
0.970947 0.433143 0.488411
0.000000 0.387304 0.191196
0.067811 0.397009 0.166262
0.310948 0.420935 0.124971
0.497414 0.399420 0.170230
0.662074 0.395636 0.278630
0.802884 0.410620 0.369177
0.909758 0.442145 0.441535
0.979309 0.486366 0.498421
0.000000 0.544518 0.292638
0.000000 0.549493 0.277867
0.263218 0.569177 0.221347
0.531273 0.601373 0.233371
0.729946 0.573175 0.282872
0.840330 0.526574 0.325322
0.921874 0.526787 0.428229
0.983337 0.549645 0.495064
0.000000 0.679896 0.372381
0.100435 0.683101 0.363439
0.268986 0.693385 0.343542
0.458015 0.710597 0.283482
0.688777 0.713008 0.329229
0.846494 0.681331 0.371160
0.927886 0.636957 0.412390
0.990387 0.624140 0.470680
0.189609 0.773495 0.434150
0.227359 0.780026 0.434302
0.319005 0.784695 0.425299
0.448035 0.792660 0.401740
0.615869 0.797208 0.377539
0.803464 0.796292 0.422431
0.937102 0.782437 0.470741
0.994171 0.747555 0.509392
0.337011 0.852537 0.491981
0.357122 0.854276 0.492653
0.407660 0.855772 0.487617
0.492653 0.860014 0.478187
0.600793 0.864530 0.456611
0.749660 0.865782 0.467506
0.892393 0.866331 0.509117
0.992981 0.867216 0.553460
0.484657 0.919188 0.544701
0.493874 0.919432 0.544244
0.527916 0.921019 0.543297
0.589014 0.924834 0.542779
0.652033 0.923552 0.530449
0.748257 0.928923 0.523949
0.870787 0.930358 0.557275
0.964569 0.933440 0.594568
0.000000 0.029450 0.201450
0.092439 0.090394 0.234714
0.253147 0.184268 0.286290
0.427649 0.245914 0.341650
0.611566 0.277470 0.378149
0.769314 0.319371 0.422034
0.883146 0.372503 0.466682
0.963439 0.435554 0.510277
0.000000 0.190372 0.247562
0.098451 0.218173 0.274784
0.263401 0.256321 0.311376
0.436255 0.281041 0.339727
0.614557 0.306340 0.374792
0.767391 0.340520 0.418860
0.877836 0.383764 0.461707
0.959472 0.440742 0.505638
0.000000 0.374792 0.313146
0.073335 0.387854 0.323705
0.290684 0.416938 0.238193
0.488136 0.380224 0.254215
0.646052 0.394018 0.354528
0.783322 0.411933 0.413184
0.889097 0.441749 0.463783
0.966949 0.487709 0.511620
0.000000 0.529931 0.367926
0.030243 0.538109 0.363561
0.240208 0.563317 0.313634
0.502312 0.584710 0.284337
0.695460 0.549157 0.315160
0.811368 0.510643 0.360571
0.901274 0.518242 0.446723
0.971862 0.546593 0.506310
0.079652 0.671351 0.421790
0.130953 0.674311 0.414160
0.259007 0.684962 0.389441
0.434760 0.699275 0.325841
0.668605 0.700404 0.352911
0.831601 0.669490 0.389807
0.918029 0.628351 0.426246
0.983124 0.621820 0.486091
0.207614 0.764157 0.459907
0.233036 0.766690 0.457191
0.314000 0.773159 0.447242
0.438941 0.783261 0.426398
0.604242 0.791257 0.396399
0.798520 0.792416 0.440589
0.932280 0.777951 0.484321
0.989929 0.743313 0.517174
0.335668 0.843198 0.502098
0.351446 0.843198 0.501213
0.405035 0.846189 0.498451
0.490608 0.852628 0.491188
0.598535 0.859342 0.472419
0.743954 0.861082 0.477028
0.886595 0.860594 0.514153
0.988128 0.860502 0.554772
0.480171 0.914305 0.548760
0.497444 0.914824 0.551415
0.533410 0.916716 0.551690
0.593469 0.921080 0.551415
0.668635 0.925170 0.547448
0.756252 0.928985 0.538567
0.871336 0.928923 0.564752
0.963317 0.931243 0.598993
0.000000 0.067018 0.365515
0.000000 0.098360 0.383917
0.233585 0.196353 0.434485
0.419898 0.274937 0.467720
0.608942 0.324804 0.499245
0.768673 0.388464 0.530510
0.878904 0.453773 0.556970
0.958129 0.509178 0.579522
0.000000 0.183017 0.388220
0.000000 0.212131 0.403967
0.243992 0.269749 0.446601
0.425605 0.321477 0.476234
0.613214 0.359930 0.505089
0.765255 0.409552 0.531304
0.874998 0.467201 0.557061
0.956786 0.512902 0.576898
0.000000 0.350042 0.431037
0.085603 0.361669 0.441230
0.270359 0.396704 0.470954
0.462531 0.435096 0.503532
0.642298 0.456886 0.523919
0.778286 0.474922 0.538323
0.882231 0.501762 0.554833
0.959869 0.540490 0.575799
0.119814 0.516045 0.480262
0.182650 0.526055 0.488869
0.312810 0.553277 0.506950
0.487037 0.589288 0.455543
0.699275 0.532250 0.454963
0.806729 0.537072 0.512963
0.897307 0.557244 0.544915
0.967315 0.587396 0.572381
0.182528 0.656458 0.508629
0.225528 0.660700 0.511803
0.330053 0.674678 0.516869
0.445747 0.697841 0.488624
0.669062 0.703975 0.463813
0.830961 0.664973 0.482826
0.915618 0.628565 0.500359
0.977417 0.645167 0.555383
0.271489 0.753628 0.524804
0.300816 0.755825 0.527123
0.378424 0.762448 0.529686
0.471870 0.774563 0.518212
0.595361 0.787076 0.475593
0.794980 0.787655 0.505150
0.926574 0.773159 0.535912
0.987243 0.747921 0.561242
0.384070 0.837156 0.547814
0.401892 0.837400 0.548760
0.457099 0.839475 0.550652
0.532860 0.845365 0.548150
0.621210 0.852995 0.533135
0.749599 0.858732 0.525170
0.892241 0.861234 0.558556
0.988952 0.863828 0.595117
0.500908 0.909728 0.574762
0.512657 0.909483 0.575280
0.564538 0.909911 0.582452
0.631037 0.915312 0.588190
0.695827 0.920012 0.584405
0.775753 0.925628 0.577966
0.880217 0.928099 0.596674
0.967163 0.932219 0.630396
0.000000 0.090913 0.479561
0.000000 0.118044 0.491890
0.200595 0.189792 0.524743
0.412268 0.269841 0.564416
0.602564 0.334630 0.582147
0.757198 0.405615 0.595636
0.867063 0.467353 0.606775
0.948425 0.530114 0.622004
0.000000 0.192416 0.495277
0.000000 0.207095 0.504021
0.216373 0.252201 0.531701
0.422614 0.315740 0.569604
0.610468 0.370733 0.586481
0.757534 0.432013 0.598016
0.865721 0.485115 0.608576
0.947692 0.542901 0.623774
0.000000 0.301213 0.501213
0.000000 0.316472 0.512352
0.246983 0.369543 0.542504
0.452338 0.427893 0.581567
0.636561 0.474159 0.600092
0.774502 0.516289 0.612421
0.879210 0.557580 0.625208
0.952636 0.601984 0.640253
0.081697 0.477089 0.546593
0.156039 0.483467 0.551049
0.299016 0.504967 0.565820
0.488075 0.546685 0.591455
0.672358 0.592828 0.617945
0.788113 0.606195 0.625574
0.882414 0.629725 0.637171
0.956786 0.650019 0.646845
0.267704 0.636957 0.581628
0.303380 0.639246 0.584070
0.412879 0.649989 0.594263
0.560143 0.671595 0.613336
0.677790 0.702266 0.601709
0.827054 0.663111 0.595483
0.905058 0.672267 0.619867
0.968322 0.690974 0.637781
0.362127 0.739071 0.592157
0.393286 0.743832 0.596460
0.466255 0.748226 0.602777
0.570825 0.759670 0.612726
0.668116 0.778470 0.608423
0.806790 0.787137 0.596399
0.923247 0.772427 0.610193
0.982971 0.756832 0.621546
0.443427 0.824186 0.601129
0.462287 0.825437 0.603021
0.519951 0.829068 0.608453
0.604639 0.836149 0.615930
0.691279 0.846159 0.617762
0.773526 0.857572 0.597345
0.900633 0.860685 0.620539
0.986053 0.863340 0.648341
0.548486 0.903075 0.619745
0.561303 0.903685 0.621027
0.599847 0.904997 0.623987
0.671778 0.907652 0.633845
0.743282 0.912444 0.640955
0.808225 0.920012 0.636378
0.893370 0.926329 0.645655
0.971649 0.932769 0.678889
0.000000 0.118746 0.566552
0.000000 0.136782 0.572869
0.196536 0.188235 0.590692
0.379431 0.257084 0.618524
0.583459 0.334356 0.648554
0.746120 0.401617 0.658198
0.860563 0.478889 0.662654
0.943847 0.544244 0.671168
0.000000 0.193088 0.572442
0.000000 0.204776 0.578393
0.211032 0.240269 0.594446
0.388830 0.297215 0.621149
0.588861 0.367773 0.650080
0.749538 0.429664 0.660090
0.862089 0.499458 0.665034
0.944060 0.557946 0.673213
0.000000 0.301457 0.579004
0.090028 0.320439 0.584985
0.243534 0.348974 0.600855
0.412573 0.395544 0.625208
0.607477 0.461311 0.654139
0.756008 0.504845 0.664088
0.864500 0.557122 0.671199
0.943542 0.597192 0.678157
0.000000 0.414527 0.585687
0.099672 0.419654 0.588464
0.248569 0.441474 0.600305
0.457069 0.511223 0.629236
0.638514 0.568658 0.658778
0.778195 0.605188 0.676112
0.875090 0.635920 0.684077
0.948394 0.659632 0.689876
0.222354 0.571801 0.615198
0.257267 0.575677 0.617517
0.358679 0.588556 0.624903
0.501488 0.612543 0.638361
0.661372 0.651270 0.660517
0.804532 0.696956 0.690181
0.887602 0.712673 0.698756
0.953918 0.736202 0.712062
0.384039 0.710628 0.642054
0.407935 0.712215 0.643763
0.480934 0.716762 0.649012
0.590570 0.727260 0.659968
0.712764 0.745266 0.676783
0.812375 0.777737 0.685542
0.915190 0.767483 0.684047
0.971862 0.778439 0.701900
0.503197 0.803128 0.654871
0.517571 0.803494 0.655970
0.566094 0.806210 0.660670
0.640681 0.813718 0.669032
0.727321 0.826963 0.679011
0.812039 0.844755 0.685054
0.904601 0.855894 0.685420
0.979950 0.857633 0.702907
0.585260 0.886839 0.668330
0.595483 0.887053 0.669184
0.629633 0.888487 0.671901
0.691737 0.895537 0.679835
0.763943 0.902037 0.688350
0.838285 0.911223 0.700557
0.902190 0.922332 0.699031
0.973022 0.930694 0.730129
0.000000 0.142794 0.631006
0.067079 0.155612 0.634272
0.216251 0.194095 0.644800
0.366522 0.252323 0.664759
0.535271 0.324651 0.689082
0.705074 0.403784 0.710353
0.851530 0.473304 0.728420
0.938476 0.549737 0.730404
0.000000 0.198062 0.630915
0.091524 0.206638 0.633783
0.225010 0.236210 0.645014
0.369818 0.284520 0.663294
0.537041 0.350683 0.687373
0.706508 0.426886 0.709651
0.851347 0.490791 0.728328
0.938048 0.561944 0.731106
0.109468 0.309453 0.638392
0.153567 0.315160 0.640803
0.258518 0.336461 0.650019
0.395850 0.375372 0.666590
0.558221 0.432502 0.689204
0.723476 0.501915 0.713710
0.857664 0.550805 0.732753
0.940398 0.606531 0.736934
0.047913 0.387243 0.636469
0.130953 0.395087 0.639643
0.287358 0.435950 0.651759
0.446540 0.487495 0.670649
0.603388 0.539300 0.694270
0.758419 0.601801 0.724422
0.872221 0.634302 0.742977
0.946471 0.672480 0.748531
0.189334 0.510765 0.644587
0.221225 0.514305 0.646235
0.312749 0.527398 0.651820
0.443671 0.553796 0.662135
0.636194 0.623255 0.692042
0.776761 0.674525 0.724544
0.882475 0.707729 0.748898
0.950713 0.734035 0.757015
0.339635 0.646235 0.668025
0.364263 0.649775 0.670192
0.435737 0.658534 0.675288
0.542077 0.674434 0.684657
0.662409 0.697963 0.699123
0.794430 0.738918 0.727565
0.903410 0.788113 0.766903
0.960540 0.807828 0.779416
0.509758 0.782193 0.707149
0.527153 0.784237 0.709194
0.578851 0.788754 0.714199
0.655695 0.798001 0.723445
0.746212 0.808957 0.734401
0.839292 0.828031 0.753353
0.912261 0.855711 0.769253
0.975799 0.859831 0.775998
0.631128 0.871855 0.727077
0.640833 0.871916 0.727871
0.670802 0.873442 0.730617
0.721004 0.878782 0.736873
0.781216 0.887144 0.744411
0.850675 0.900359 0.756405
0.918853 0.917266 0.776761
0.974609 0.930632 0.795407
0.108705 0.160433 0.685573
0.148379 0.170016 0.687831
0.241733 0.200015 0.695277
0.360693 0.246860 0.708705
0.499794 0.307988 0.726894
0.654749 0.387549 0.750240
0.796384 0.468605 0.768856
0.921843 0.537438 0.796902
0.126101 0.204776 0.686458
0.161074 0.211917 0.688533
0.249607 0.235721 0.695766
0.366186 0.276158 0.708583
0.504723 0.332708 0.726833
0.659205 0.408881 0.750240
0.799313 0.486244 0.769375
0.922576 0.550561 0.797513
0.166781 0.300816 0.688563
0.195285 0.305821 0.690547
0.275425 0.323949 0.697414
0.388128 0.356817 0.709895
0.525200 0.405798 0.727871
0.677363 0.474464 0.751278
0.811612 0.542473 0.772824
0.926909 0.594659 0.801358
0.197116 0.395941 0.689570
0.237858 0.407507 0.691585
0.318486 0.427253 0.698573
0.428443 0.457038 0.710994
0.563439 0.501579 0.729030
0.706783 0.558770 0.753292
0.832029 0.618311 0.779568
0.934417 0.657069 0.808042
0.177157 0.465949 0.682643
0.209934 0.471656 0.685054
0.305699 0.493202 0.693782
0.452949 0.538842 0.709438
0.606500 0.590967 0.729366
0.739040 0.638911 0.755764
0.857023 0.696040 0.789670
0.943481 0.726528 0.816464
0.311742 0.597559 0.703029
0.331762 0.600031 0.704005
0.395544 0.608728 0.707576
0.490761 0.624109 0.714107
0.604089 0.646265 0.724117
0.770382 0.712154 0.759335
0.879271 0.764858 0.798856
0.954131 0.798520 0.828580
0.458167 0.720851 0.730373
0.473335 0.722560 0.731472
0.522850 0.728511 0.735286
0.599573 0.739467 0.742489
0.693416 0.756344 0.754147
0.794949 0.781765 0.773037
0.895232 0.824094 0.807462
0.966613 0.871916 0.850462
0.611810 0.848753 0.779843
0.622400 0.849882 0.781094
0.658198 0.854276 0.785702
0.714961 0.862486 0.794034
0.783749 0.874662 0.806027
0.857542 0.887236 0.818479
0.925109 0.907866 0.839719
0.975036 0.932372 0.867887
0.181796 0.179629 0.749264
0.205234 0.186770 0.750851
0.273594 0.211002 0.756344
0.371923 0.250828 0.766293
0.491066 0.305211 0.780636
0.625849 0.375738 0.799222
0.765042 0.465888 0.821714
0.876310 0.540642 0.837705
0.191684 0.215396 0.749752
0.214298 0.221347 0.751369
0.280797 0.241764 0.756771
0.377905 0.277317 0.766629
0.496803 0.327855 0.780880
0.631281 0.395361 0.799435
0.769100 0.481697 0.821988
0.878630 0.553338 0.838437
0.221653 0.301701 0.751156
0.241733 0.306157 0.752712
0.304814 0.321843 0.757992
0.399725 0.351202 0.767880
0.517693 0.394812 0.782010
0.651270 0.456123 0.800443
0.783536 0.531182 0.823423
0.886839 0.594537 0.841520
0.267826 0.402106 0.752377
0.286473 0.405982 0.753933
0.345830 0.419745 0.759274
0.439002 0.445716 0.769039
0.556237 0.485298 0.783322
0.683772 0.536706 0.802396
0.806332 0.599207 0.826566
0.900420 0.654231 0.847745
0.261936 0.472847 0.752285
0.286534 0.478584 0.754116
0.379309 0.506767 0.760006
0.489296 0.539910 0.769131
0.600763 0.573266 0.784360
0.720272 0.616754 0.804990
0.832212 0.669978 0.831479
0.917571 0.722408 0.857633
0.321080 0.568322 0.756161
0.337743 0.570489 0.756832
0.391424 0.577905 0.759182
0.484627 0.597589 0.767086
0.619776 0.640192 0.785245
0.755642 0.691676 0.808835
0.859556 0.740597 0.839292
0.937011 0.794095 0.872984
0.454627 0.690608 0.782406
0.467597 0.692287 0.783139
0.509941 0.697871 0.785794
0.577203 0.707698 0.790738
0.662806 0.722744 0.798764
0.758816 0.744808 0.811215
0.885252 0.808804 0.850187
0.955261 0.862242 0.891814
0.595850 0.809354 0.818479
0.605371 0.810513 0.819333
0.637354 0.814847 0.822568
0.690455 0.823117 0.828794
0.758541 0.836027 0.838834
0.833860 0.855131 0.854185
0.909361 0.883726 0.878233
0.971191 0.925628 0.916014
