其他预设/【232】美食博客调色预设124款/1.3D LUT预设（视频调色-PR-AE-PS-FCPX-达芬奇用）/Yummy #11.cube
# Created by Adobe Lightroom plugin Export LUT (1.17.0)
# www.johnrellis.com/lightroom/exportlut.htm
# Preset: Yummy #11
# Color profile: /Library/Application Support/Adobe/Color/Profiles/Recommended/AdobeRGB1998.icc
LUT_3D_SIZE 5
DOMAIN_MIN 0.000000 0.000000 0.000000
DOMAIN_MAX 0.903226 0.903226 0.903226
0.043793 0.000000 0.065461
0.629114 0.141299 0.000000
0.917479 0.205051 0.000000
1.000000 0.289342 0.127321
1.000000 0.352758 0.199557
0.000000 0.577020 0.000000
0.598230 0.548241 0.000000
0.902739 0.428840 0.000000
1.000000 0.405127 0.151766
1.000000 0.422309 0.215824
0.233433 0.823697 0.076356
0.481910 0.809293 0.070527
0.855711 0.774075 0.070802
0.998291 0.643305 0.195560
1.000000 0.587945 0.249760
0.362402 0.949432 0.203220
0.477150 0.943847 0.204044
0.725917 0.924926 0.205722
0.957458 0.903105 0.214084
1.000000 0.803067 0.284367
0.490303 1.000000 0.300633
0.545220 1.000000 0.301579
0.692622 1.000000 0.301457
0.872160 1.000000 0.317449
1.000000 1.000000 0.344701
0.106691 0.000000 0.441474
0.617212 0.000000 0.428962
0.893889 0.343603 0.364141
1.000000 0.415808 0.356847
1.000000 0.454475 0.357336
0.108156 0.559228 0.412116
0.605737 0.533959 0.384466
0.882963 0.491615 0.368078
1.000000 0.487312 0.357427
1.000000 0.502556 0.361364
0.310826 0.813321 0.325170
0.538506 0.797513 0.338537
0.851713 0.765011 0.327825
0.984924 0.668421 0.361242
1.000000 0.638209 0.377417
0.473152 0.939513 0.347448
0.564416 0.933776 0.353704
0.758663 0.918364 0.352575
0.956786 0.901579 0.354559
1.000000 0.822019 0.393439
0.582940 1.000000 0.396979
0.623163 1.000000 0.397162
0.742123 1.000000 0.400214
0.889281 1.000000 0.406897
1.000000 1.000000 0.423255
0.252476 0.113375 0.635401
0.527306 0.156252 0.626581
0.884611 0.262943 0.579278
0.992004 0.476844 0.517632
1.000000 0.619226 0.540490
0.366155 0.476783 0.616541
0.583551 0.489082 0.608392
0.869688 0.516411 0.573693
0.979522 0.586816 0.535332
1.000000 0.672572 0.557061
0.440223 0.791958 0.566125
0.626795 0.776608 0.563989
0.849882 0.753445 0.556878
0.962829 0.739681 0.556176
1.000000 0.737575 0.552087
0.576349 0.924193 0.507744
0.672969 0.914641 0.525109
0.816953 0.904112 0.538445
0.955749 0.899718 0.536584
1.000000 0.857298 0.552300
0.681788 1.000000 0.524071
0.735073 1.000000 0.542657
0.805722 1.000000 0.541314
0.912749 1.000000 0.543236
1.000000 1.000000 0.552758
0.355413 0.229313 0.747799
0.505730 0.256107 0.742153
0.794797 0.323247 0.726253
0.980163 0.468757 0.675532
1.000000 0.596460 0.634058
0.486671 0.472358 0.731930
0.589471 0.480201 0.727474
0.813870 0.509300 0.714321
0.971618 0.573236 0.674037
1.000000 0.649836 0.641596
0.583734 0.709346 0.706264
0.679072 0.719600 0.701442
0.835752 0.732296 0.691859
0.954803 0.742947 0.672114
1.000000 0.774380 0.663905
0.645167 0.913817 0.671138
0.710262 0.907866 0.670802
0.838834 0.897429 0.672541
0.950286 0.894743 0.675715
1.000000 0.891752 0.683436
0.716854 1.000000 0.635187
0.757748 1.000000 0.643885
0.853971 1.000000 0.669703
0.931823 1.000000 0.680598
1.000000 1.000000 0.691798
0.418219 0.288945 0.839719
0.511437 0.306889 0.836179
0.729091 0.364721 0.825956
0.933288 0.465217 0.812955
1.000000 0.582086 0.761868
0.520409 0.462715 0.828580
0.590387 0.472511 0.825681
0.764523 0.506554 0.817350
0.934936 0.554681 0.807736
1.000000 0.634302 0.763394
0.637201 0.675013 0.810330
0.694942 0.687282 0.807584
0.812589 0.705074 0.802487
0.935271 0.715846 0.799588
1.000000 0.763394 0.772305
0.675410 0.854124 0.799619
0.719844 0.856504 0.798611
0.826383 0.863676 0.797421
0.937163 0.882597 0.799222
1.000000 0.912169 0.791135
0.733944 1.000000 0.780270
0.766537 1.000000 0.781399
0.855253 1.000000 0.787381
0.948730 1.000000 0.801297
1.000000 1.000000 0.823148
