其他预设/【232】美食博客调色预设124款/1.3D LUT预设（视频调色-PR-AE-PS-FCPX-达芬奇用）/Yummy #8.cube
# Created by Adobe Lightroom plugin Export LUT (1.17.0)
# www.johnrellis.com/lightroom/exportlut.htm
# Preset: Yummy #8
# Color profile: /Library/Application Support/Adobe/Color/Profiles/Recommended/AdobeRGB1998.icc
LUT_3D_SIZE 5
DOMAIN_MIN 0.000000 0.000000 0.000000
DOMAIN_MAX 0.903226 0.903226 0.903226
0.000000 0.000000 0.000000
0.238956 0.133089 0.130922
0.544152 0.228122 0.259678
0.825589 0.316411 0.391150
0.974762 0.425696 0.492256
0.000000 0.347082 0.163577
0.267948 0.377874 0.102632
0.568444 0.357397 0.240360
0.831846 0.395727 0.391669
0.979919 0.475166 0.499672
0.000000 0.617090 0.334539
0.213260 0.631098 0.303655
0.622248 0.666163 0.284672
0.865354 0.592126 0.357549
0.985748 0.584649 0.486061
0.232090 0.797574 0.451148
0.315312 0.803250 0.445258
0.525780 0.815640 0.406989
0.828336 0.815152 0.445624
0.993866 0.778073 0.520195
0.484657 0.919188 0.544701
0.516686 0.920378 0.543481
0.609918 0.921324 0.532982
0.779660 0.929442 0.529931
0.964569 0.933440 0.594568
0.000000 0.062043 0.327733
0.193240 0.169467 0.391119
0.516228 0.294926 0.457313
0.794400 0.386084 0.512322
0.957366 0.481849 0.557946
0.000000 0.315190 0.394385
0.223301 0.356847 0.431128
0.543328 0.404334 0.477699
0.803891 0.441810 0.513298
0.961028 0.514214 0.558556
0.108461 0.596216 0.473091
0.253727 0.614466 0.478553
0.585260 0.648676 0.409430
0.846189 0.571588 0.442939
0.975250 0.607080 0.550072
0.296422 0.785550 0.519432
0.374395 0.792111 0.522789
0.541100 0.808164 0.497566
0.826139 0.810971 0.505150
0.989502 0.778317 0.558923
0.503105 0.914061 0.569757
0.554284 0.914214 0.576837
0.654292 0.920256 0.576989
0.795773 0.929137 0.566949
0.968383 0.934325 0.625727
0.000000 0.105348 0.527428
0.144411 0.170260 0.553124
0.503319 0.300755 0.610834
0.784054 0.424842 0.628351
0.946166 0.536675 0.645167
0.000000 0.277287 0.544793
0.190249 0.317754 0.565087
0.531762 0.415656 0.620935
0.790555 0.502739 0.636347
0.948119 0.583581 0.653986
0.157229 0.528038 0.584527
0.287846 0.543236 0.594171
0.579370 0.601831 0.627832
0.819394 0.659815 0.661433
0.955108 0.696834 0.680537
0.419318 0.749630 0.622248
0.482887 0.752651 0.627527
0.653315 0.773678 0.647456
0.836973 0.803372 0.640955
0.979278 0.782498 0.654170
0.562921 0.894194 0.641779
0.602655 0.896574 0.645991
0.717739 0.904265 0.659510
0.837736 0.917540 0.664668
0.971374 0.930541 0.700404
0.000000 0.146304 0.642267
0.188052 0.183749 0.652857
0.439582 0.282139 0.684779
0.727840 0.418677 0.723598
0.934356 0.544182 0.744930
0.101289 0.276738 0.647364
0.220829 0.297551 0.655970
0.457649 0.369238 0.684810
0.738827 0.487892 0.724941
0.934356 0.584588 0.747280
0.096101 0.425574 0.641291
0.236759 0.450050 0.652308
0.525475 0.543114 0.685023
0.781521 0.637507 0.734951
0.943694 0.695491 0.762448
0.373114 0.666621 0.683650
0.435096 0.672572 0.686976
0.609064 0.699397 0.703212
0.821317 0.759121 0.745205
0.960479 0.821012 0.793545
0.627405 0.868803 0.741207
0.661952 0.870451 0.744503
0.759396 0.879576 0.756985
0.872831 0.902312 0.777798
0.974426 0.930266 0.811917
0.181796 0.179629 0.749264
0.253269 0.203464 0.754543
0.429114 0.276097 0.772915
0.661036 0.396674 0.804471
0.876310 0.540642 0.837705
0.212436 0.277775 0.750881
0.277867 0.293919 0.756008
0.449470 0.350500 0.774075
0.679316 0.456641 0.805386
0.884306 0.582086 0.840574
0.292699 0.450935 0.753292
0.362707 0.470130 0.758083
0.519371 0.511009 0.775845
0.732204 0.590539 0.809201
0.908568 0.687587 0.852110
0.354009 0.599847 0.762142
0.404608 0.606622 0.764462
0.549248 0.631159 0.774197
0.790860 0.720638 0.817197
0.941924 0.812009 0.877775
0.595850 0.809354 0.818479
0.627161 0.813443 0.821500
0.723049 0.828946 0.833280
0.852842 0.861173 0.859159
0.971191 0.925628 0.916014
