其他预设/【232】美食博客调色预设124款/1.3D LUT预设（视频调色-PR-AE-PS-FCPX-达芬奇用）/Yummy #9.cube
# Created by Adobe Lightroom plugin Export LUT (1.17.0)
# www.johnrellis.com/lightroom/exportlut.htm
# Preset: Yummy #9
# Color profile: /Library/Application Support/Adobe/Color/Profiles/Recommended/AdobeRGB1998.icc
LUT_3D_SIZE 8
DOMAIN_MIN 0.000000 0.000000 0.000000
DOMAIN_MAX 0.903226 0.903226 0.903226
0.000000 0.000000 0.000000
0.183139 0.012543 0.049500
0.460243 0.000000 0.090059
0.761715 0.106905 0.155459
0.899596 0.225620 0.242252
0.976074 0.347082 0.313664
1.000000 0.480903 0.380438
1.000000 0.588525 0.445228
0.050202 0.176699 0.065705
0.199374 0.185367 0.078309
0.446906 0.218418 0.109926
0.747463 0.271489 0.168490
0.890776 0.314061 0.248997
0.969818 0.392279 0.316411
1.000000 0.503899 0.382422
1.000000 0.601129 0.447059
0.104860 0.430549 0.136355
0.241855 0.434028 0.143893
0.467811 0.461219 0.168093
0.723842 0.503471 0.202426
0.871366 0.497597 0.269108
0.956725 0.522728 0.333318
1.000000 0.590356 0.401465
1.000000 0.652949 0.462867
0.180758 0.712764 0.199527
0.289006 0.711147 0.203006
0.488441 0.708248 0.216098
0.705501 0.720455 0.248539
0.856138 0.692683 0.303502
0.936736 0.671138 0.360266
0.995270 0.690730 0.424414
1.000000 0.719997 0.482368
0.342138 0.842008 0.281224
0.387823 0.840330 0.283604
0.510582 0.835386 0.293126
0.663050 0.830106 0.313725
0.817746 0.828458 0.353521
0.920623 0.806821 0.403937
0.979461 0.789914 0.453864
1.000000 0.791928 0.504875
0.512291 0.908782 0.369970
0.534295 0.908751 0.373816
0.594934 0.905333 0.381415
0.683864 0.900084 0.394903
0.787716 0.895903 0.419226
0.892576 0.894896 0.455726
0.970489 0.884092 0.500725
1.000000 0.868894 0.544793
0.631983 0.956359 0.455573
0.642237 0.955932 0.457557
0.674586 0.953735 0.462562
0.727718 0.950408 0.472450
0.794095 0.946136 0.486671
0.871183 0.944121 0.513603
0.947295 0.943420 0.547906
1.000000 0.937255 0.591791
0.715480 0.990906 0.533837
0.721248 0.990509 0.535149
0.741390 0.989288 0.539727
0.776303 0.987366 0.549096
0.819455 0.983978 0.558526
0.873625 0.981384 0.578241
0.932403 0.979828 0.609644
0.987335 0.978637 0.645686
0.000000 0.066285 0.177035
0.176486 0.000000 0.194491
0.430915 0.000000 0.242588
0.746578 0.100679 0.284794
0.888090 0.289647 0.326390
0.964172 0.428260 0.373602
1.000000 0.543206 0.427436
1.000000 0.625330 0.480232
0.000000 0.183413 0.196506
0.194980 0.187655 0.214542
0.439063 0.214908 0.249424
0.737636 0.266789 0.284367
0.881682 0.356664 0.327062
0.959533 0.461891 0.375128
1.000000 0.559503 0.428168
1.000000 0.634485 0.480659
0.121035 0.419471 0.250278
0.235935 0.424231 0.251804
0.456153 0.449226 0.261143
0.714015 0.495186 0.283268
0.863645 0.515068 0.330816
0.947021 0.563531 0.385107
1.000000 0.622461 0.439399
1.000000 0.675929 0.492164
0.196567 0.704402 0.276249
0.287785 0.703578 0.273625
0.487922 0.702266 0.280766
0.698695 0.710475 0.301762
0.844999 0.690791 0.348058
0.927550 0.682918 0.398413
0.988128 0.704646 0.454261
1.000000 0.732906 0.506310
0.379736 0.836362 0.325048
0.426581 0.833799 0.330846
0.534234 0.828885 0.338628
0.671901 0.822934 0.355108
0.815427 0.822843 0.388220
0.914916 0.806516 0.432990
0.974762 0.794583 0.478157
1.000000 0.798764 0.525658
0.542229 0.903197 0.402045
0.560174 0.902251 0.404730
0.613825 0.899413 0.410895
0.695186 0.895262 0.423011
0.792111 0.892332 0.445075
0.892241 0.893004 0.478798
0.967773 0.884154 0.520439
1.000000 0.871122 0.561273
0.646723 0.952422 0.476356
0.655116 0.951751 0.477211
0.685481 0.949920 0.482002
0.736049 0.947326 0.491737
0.799405 0.943847 0.505272
0.872892 0.942260 0.529870
0.946380 0.941924 0.561761
1.000000 0.936584 0.603601
0.724636 0.988769 0.549096
0.730373 0.988495 0.550561
0.749691 0.987427 0.555077
0.783139 0.985718 0.564172
0.826749 0.983337 0.576532
0.877745 0.980743 0.593896
0.933898 0.979217 0.622766
0.987091 0.978180 0.656916
0.000000 0.138247 0.336004
0.079683 0.045197 0.349096
0.420203 0.000000 0.375189
0.697902 0.006439 0.406409
0.865629 0.356390 0.427314
0.944335 0.575189 0.495033
0.995239 0.659144 0.540307
1.000000 0.707301 0.573327
0.000000 0.251286 0.330907
0.140017 0.218082 0.346929
0.427192 0.197299 0.378363
0.702876 0.235508 0.406928
0.861631 0.455177 0.443305
0.941436 0.608972 0.506035
0.993011 0.666926 0.539239
1.000000 0.713008 0.573205
0.131441 0.418738 0.360388
0.230411 0.424689 0.365942
0.457130 0.453223 0.390265
0.718898 0.529808 0.428992
0.853361 0.604608 0.469306
0.932677 0.657557 0.506310
0.987213 0.699916 0.541619
1.000000 0.736599 0.576959
0.235172 0.697627 0.394568
0.320897 0.697353 0.395300
0.530663 0.695674 0.412421
0.705318 0.703731 0.429694
0.834348 0.709743 0.465156
0.918120 0.727657 0.506096
0.977874 0.751400 0.546136
1.000000 0.775448 0.584283
0.413825 0.829770 0.404425
0.474922 0.825986 0.416876
0.606561 0.817288 0.451392
0.705806 0.814328 0.461891
0.819181 0.818509 0.485115
0.906889 0.813870 0.518151
0.966155 0.812497 0.552026
1.000000 0.823239 0.593591
0.565026 0.898558 0.456458
0.595666 0.895964 0.468269
0.669184 0.889677 0.497444
0.729854 0.887205 0.504692
0.806119 0.885740 0.518090
0.892149 0.889281 0.544823
0.961395 0.886290 0.580346
1.000000 0.881010 0.617182
0.665583 0.949279 0.519585
0.682033 0.947539 0.528099
0.723842 0.943603 0.547692
0.764248 0.941711 0.554253
0.817258 0.939452 0.564324
0.880949 0.939208 0.584375
0.947265 0.941039 0.614038
1.000000 0.938872 0.653468
0.739620 0.986297 0.583886
0.750271 0.985107 0.590906
0.776791 0.982757 0.605890
0.806149 0.981750 0.614588
0.843870 0.980072 0.625025
0.888670 0.978363 0.639796
0.939269 0.977905 0.666621
0.987366 0.977966 0.698756
0.000000 0.230137 0.471687
0.000000 0.145876 0.483558
0.401984 0.024323 0.512993
0.674128 0.004913 0.538872
0.828580 0.270268 0.518273
0.920348 0.518059 0.538415
0.979797 0.658228 0.589471
1.000000 0.744533 0.643549
0.000000 0.324743 0.465583
0.000000 0.281498 0.477272
0.383246 0.197513 0.510185
0.674617 0.218296 0.539422
0.825589 0.366308 0.521782
0.917205 0.564691 0.549432
0.977508 0.680903 0.599145
1.000000 0.758785 0.652461
0.000000 0.483223 0.446021
0.162081 0.481147 0.448798
0.378241 0.439826 0.497780
0.681209 0.483986 0.539757
0.818875 0.573083 0.542290
0.913176 0.677729 0.586267
0.973358 0.750149 0.636103
1.000000 0.797879 0.678187
0.204959 0.678004 0.500603
0.285496 0.678218 0.503410
0.495949 0.679011 0.514977
0.698238 0.695094 0.543755
0.830930 0.738430 0.588678
0.909331 0.769223 0.618860
0.966247 0.796658 0.649104
1.000000 0.821012 0.678828
0.463508 0.820554 0.527764
0.510460 0.817350 0.532250
0.623621 0.810544 0.547631
0.734646 0.808316 0.571618
0.820157 0.813687 0.586633
0.897490 0.822080 0.612787
0.957641 0.836545 0.646265
1.000000 0.853117 0.681392
0.591272 0.893187 0.540673
0.618585 0.891752 0.549279
0.685725 0.886015 0.569940
0.763760 0.881163 0.598627
0.822904 0.880735 0.608362
0.892515 0.886595 0.628809
0.953887 0.890593 0.659205
0.995605 0.893736 0.690944
0.678614 0.945861 0.577722
0.693904 0.944579 0.584527
0.738705 0.940734 0.605280
0.798032 0.936156 0.636713
0.840024 0.935546 0.644282
0.891051 0.936187 0.658106
0.947509 0.939971 0.683497
0.994385 0.941527 0.718410
0.749722 0.984680 0.628321
0.759792 0.983734 0.634455
0.790860 0.980774 0.653712
0.834379 0.977050 0.683223
0.865293 0.976287 0.691676
0.902678 0.975708 0.703944
0.945495 0.976349 0.726162
0.987152 0.977844 0.755245
0.000000 0.295262 0.590753
0.000000 0.248722 0.597162
0.253910 0.149813 0.614618
0.583337 0.160464 0.641871
0.788998 0.278477 0.655848
0.895445 0.470924 0.627192
0.959899 0.613611 0.634028
1.000000 0.718715 0.672938
0.000000 0.363745 0.583673
0.000000 0.330388 0.590692
0.234623 0.226749 0.611017
0.578698 0.253483 0.638544
0.788418 0.364080 0.653986
0.892424 0.519127 0.630762
0.958129 0.639887 0.641230
1.000000 0.734005 0.680171
0.083467 0.518883 0.561059
0.203098 0.510613 0.569207
0.320470 0.447700 0.593957
0.582330 0.459358 0.626703
0.789395 0.555138 0.648707
0.884459 0.630335 0.641352
0.953521 0.709773 0.663447
1.000000 0.778683 0.703273
0.165469 0.653620 0.561273
0.238499 0.651942 0.561883
0.414160 0.651057 0.564965
0.642054 0.666102 0.608301
0.798459 0.706294 0.652186
0.880919 0.738491 0.660700
0.951751 0.792874 0.699916
0.995850 0.837278 0.740566
0.395392 0.795529 0.607904
0.447486 0.793606 0.609216
0.572961 0.789151 0.614679
0.702358 0.790372 0.629389
0.806180 0.803677 0.657374
0.895048 0.835019 0.702846
0.952422 0.858427 0.733974
0.991791 0.878172 0.762478
0.605035 0.880949 0.636652
0.628077 0.880095 0.641535
0.691829 0.878538 0.656825
0.763882 0.875486 0.669429
0.829923 0.876402 0.684627
0.889799 0.882902 0.701656
0.946990 0.893767 0.730068
0.988617 0.906065 0.762997
0.692470 0.941131 0.656458
0.705440 0.939971 0.660182
0.745327 0.936767 0.672755
0.798611 0.933593 0.691676
0.852567 0.932097 0.713497
0.896605 0.933135 0.725338
0.946136 0.938659 0.747707
0.988342 0.943664 0.779202
0.758724 0.981872 0.686854
0.767666 0.981048 0.691096
0.795895 0.978576 0.705043
0.836545 0.976043 0.727199
0.881743 0.973236 0.756222
0.913451 0.973602 0.766659
0.949615 0.974975 0.783902
0.986053 0.977691 0.810178
0.000000 0.339818 0.687221
0.000000 0.310826 0.690700
0.000000 0.205173 0.701991
0.452644 0.223911 0.718044
0.709957 0.327977 0.740719
0.858061 0.474311 0.743679
0.943664 0.596765 0.726131
0.992798 0.685847 0.721462
0.000000 0.389807 0.679835
0.000000 0.366186 0.683528
0.000000 0.262058 0.696986
0.453803 0.283696 0.713680
0.712428 0.392920 0.736385
0.857511 0.517479 0.741482
0.941588 0.620569 0.727810
0.991211 0.700343 0.725063
0.139986 0.527550 0.662623
0.179141 0.514214 0.666560
0.281041 0.466194 0.680964
0.486244 0.450538 0.702296
0.727840 0.554192 0.726101
0.858579 0.626062 0.738918
0.937072 0.688289 0.735286
0.987488 0.747738 0.740322
0.200443 0.657649 0.633051
0.271672 0.655146 0.637171
0.466651 0.660792 0.652827
0.605158 0.658137 0.682063
0.746883 0.688441 0.716548
0.863951 0.732448 0.742184
0.934142 0.766323 0.748714
0.984680 0.810178 0.766232
0.366613 0.765469 0.656519
0.410956 0.765499 0.656458
0.525170 0.766751 0.657069
0.647303 0.771786 0.661372
0.766995 0.783383 0.704463
0.871519 0.811551 0.749874
0.933806 0.832212 0.763333
0.983642 0.871366 0.799710
0.554009 0.867216 0.699794
0.578332 0.866239 0.701045
0.644984 0.863249 0.704799
0.725338 0.861753 0.713405
0.802426 0.864836 0.729091
0.878660 0.876921 0.758663
0.946105 0.904479 0.807919
0.984161 0.922576 0.838163
0.695155 0.931731 0.732967
0.708217 0.931456 0.736385
0.747280 0.930571 0.747036
0.800595 0.931121 0.764889
0.852689 0.931762 0.779019
0.901762 0.933471 0.793729
0.945037 0.938903 0.812161
0.983429 0.947814 0.841154
0.771176 0.979553 0.763912
0.779019 0.978912 0.766384
0.803922 0.977020 0.774472
0.839933 0.974975 0.787350
0.880339 0.973297 0.803830
0.922026 0.972595 0.827512
0.953307 0.974365 0.842405
0.984771 0.978363 0.865629
0.000000 0.376165 0.777371
0.000000 0.356939 0.779873
0.000000 0.275700 0.787259
0.327947 0.268956 0.796475
0.597589 0.349126 0.808499
0.804990 0.502800 0.821958
0.909239 0.597284 0.823331
0.980285 0.679866 0.813291
0.000000 0.415076 0.771145
0.000000 0.398505 0.773709
0.000000 0.332799 0.781674
0.337743 0.313725 0.791897
0.605615 0.398199 0.804074
0.808347 0.536584 0.818814
0.908263 0.616999 0.820951
0.978607 0.691096 0.812741
0.039185 0.532891 0.757534
0.122835 0.522820 0.759884
0.242313 0.488228 0.768002
0.405859 0.456397 0.781521
0.645441 0.541863 0.794247
0.819516 0.631464 0.814023
0.909758 0.683558 0.820920
0.976135 0.738033 0.819364
0.346715 0.672847 0.735470
0.397223 0.675471 0.737087
0.501518 0.678157 0.744900
0.574517 0.659388 0.761746
0.690211 0.671901 0.783078
0.829252 0.725002 0.809323
0.913451 0.759701 0.824094
0.973693 0.795132 0.828855
0.376287 0.767483 0.720974
0.410376 0.767910 0.719936
0.503136 0.770199 0.717433
0.644495 0.776883 0.737484
0.732845 0.772610 0.768978
0.832517 0.793423 0.803708
0.917967 0.824552 0.829191
0.972290 0.851011 0.840940
0.531548 0.853056 0.751644
0.551965 0.852903 0.751644
0.610803 0.852598 0.752163
0.682429 0.852384 0.754299
0.754147 0.852628 0.758816
0.846647 0.861509 0.800778
0.928038 0.886564 0.844816
0.973785 0.904417 0.860990
0.654078 0.928130 0.795529
0.666773 0.927611 0.796506
0.704585 0.925719 0.799222
0.757229 0.923919 0.804929
0.816800 0.923186 0.814420
0.878569 0.926055 0.831235
0.937041 0.935882 0.860288
0.981140 0.956146 0.903258
0.764584 0.973480 0.824460
0.772366 0.973205 0.826535
0.798520 0.972808 0.834775
0.836240 0.972351 0.847532
0.880430 0.972778 0.865690
0.921477 0.973632 0.881682
0.956603 0.975433 0.897826
0.983520 0.979644 0.916258
0.000000 0.407782 0.861204
0.000000 0.394171 0.862547
0.000000 0.342290 0.866514
0.167849 0.306767 0.872404
0.502708 0.376196 0.877897
0.720821 0.505577 0.884428
0.866209 0.614343 0.892241
0.947967 0.680415 0.895933
0.000000 0.439796 0.857359
0.000000 0.428107 0.858762
0.000000 0.383948 0.863066
0.203738 0.344915 0.869535
0.518181 0.418738 0.875059
0.728084 0.536980 0.882109
0.868437 0.633326 0.890990
0.947875 0.692958 0.895232
0.000000 0.542626 0.846433
0.000000 0.535576 0.847776
0.199649 0.511070 0.852110
0.350591 0.481392 0.860716
0.578058 0.545037 0.867033
0.750393 0.622644 0.876585
0.876860 0.691127 0.889342
0.948882 0.734829 0.895445
0.429755 0.696040 0.828153
0.443244 0.693263 0.829770
0.484352 0.682551 0.834775
0.549401 0.667536 0.844419
0.642634 0.667018 0.857420
0.775540 0.712520 0.871336
0.888914 0.760952 0.889799
0.951385 0.789944 0.898131
0.457771 0.783505 0.811704
0.486763 0.784665 0.813138
0.566613 0.787839 0.817807
0.659449 0.791318 0.828550
0.707820 0.773129 0.846189
0.791257 0.781827 0.866667
0.894408 0.820645 0.889860
0.955627 0.847013 0.904082
0.529747 0.857877 0.820401
0.545190 0.857969 0.819944
0.591211 0.858152 0.818814
0.652064 0.857786 0.817685
0.743069 0.857511 0.832639
0.820005 0.855100 0.863127
0.901946 0.876493 0.894469
0.962951 0.902678 0.916869
0.636805 0.923461 0.852506
0.646754 0.923247 0.852598
0.678218 0.922454 0.853300
0.725826 0.921630 0.855467
0.782467 0.921233 0.859495
0.842741 0.922301 0.866880
0.916960 0.929137 0.901610
0.971466 0.947478 0.933349
0.734493 0.979980 0.893767
0.741573 0.979553 0.894224
0.765347 0.978149 0.896330
0.803647 0.976287 0.900725
0.850187 0.974548 0.907713
0.899046 0.973816 0.918120
0.945434 0.975433 0.933349
0.981048 0.980682 0.953826
