其他预设/【232】美食博客调色预设124款/1.3D LUT预设（视频调色-PR-AE-PS-FCPX-达芬奇用）/Yummy #19 ().cube
# Created by Adobe Lightroom plugin Export LUT (1.17.0)
# www.johnrellis.com/lightroom/exportlut.htm
# Preset: Yummy #19 (素锦印象)
# Color profile: /Library/Application Support/Adobe/Color/Profiles/Recommended/AdobeRGB1998.icc
LUT_3D_SIZE 5
DOMAIN_MIN 0.000000 0.000000 0.000000
DOMAIN_MAX 0.903226 0.903226 0.903226
0.125612 0.156985 0.178531
0.127108 0.157961 0.179629
0.144686 0.172183 0.193088
0.259495 0.263554 0.281712
0.590875 0.565759 0.587976
0.125765 0.158175 0.178683
0.128298 0.158022 0.178531
0.146548 0.167483 0.188785
0.287388 0.227726 0.249302
0.659113 0.530785 0.550500
0.118318 0.196994 0.180117
0.122957 0.198550 0.176883
0.242191 0.223301 0.171267
0.437964 0.223545 0.169467
0.748775 0.370672 0.288945
0.000000 0.467109 0.194369
0.000000 0.488228 0.140414
0.339635 0.524132 0.083894
0.625147 0.526635 0.000000
0.819272 0.527733 0.000000
0.000000 0.864561 0.265812
0.000000 0.868437 0.165286
0.262303 0.854368 0.000000
0.691615 0.849241 0.000000
0.904570 0.813382 0.000000
0.125856 0.157534 0.179568
0.126436 0.157626 0.179080
0.139101 0.167788 0.188907
0.225498 0.221927 0.241917
0.548943 0.486702 0.509667
0.125521 0.158297 0.180117
0.127138 0.158419 0.179965
0.146639 0.165286 0.186404
0.259464 0.199649 0.220523
0.598688 0.435401 0.455573
0.116426 0.193240 0.188876
0.120333 0.195712 0.185275
0.204959 0.203677 0.176516
0.375586 0.210483 0.173342
0.725460 0.344396 0.263859
0.000000 0.441566 0.238010
0.000000 0.464088 0.208774
0.292302 0.509209 0.115419
0.604730 0.509575 0.000305
0.807523 0.520317 0.000000
0.000000 0.854276 0.347753
0.000000 0.858152 0.284001
0.132631 0.872496 0.000000
0.684749 0.857389 0.000000
0.907622 0.818357 0.000000
0.123018 0.166506 0.198489
0.123323 0.165957 0.197360
0.140841 0.169192 0.190249
0.220676 0.232395 0.251133
0.515801 0.512200 0.533562
0.119539 0.168765 0.201572
0.121035 0.168734 0.201358
0.149020 0.175784 0.196567
0.232578 0.241886 0.260410
0.534386 0.534325 0.555718
0.108095 0.192935 0.215579
0.111055 0.193759 0.216159
0.174838 0.203189 0.225010
0.322881 0.256413 0.274846
0.659510 0.433539 0.437232
0.000000 0.377966 0.322210
0.000000 0.381109 0.313085
0.058961 0.444465 0.262272
0.562371 0.481849 0.170901
0.778561 0.462074 0.105531
0.000000 0.805509 0.523156
0.000000 0.817105 0.504509
0.000000 0.850523 0.346044
0.603265 0.852781 0.000000
0.890196 0.807248 0.000000
0.058381 0.211734 0.297826
0.056367 0.211704 0.297032
0.139223 0.224430 0.311589
0.247074 0.253605 0.271824
0.506523 0.501366 0.522637
0.019165 0.215671 0.299260
0.028229 0.215854 0.299626
0.136049 0.230503 0.319646
0.257206 0.261753 0.279911
0.505577 0.500237 0.521508
0.000000 0.248295 0.317327
0.000000 0.247501 0.317540
0.085695 0.245701 0.332799
0.309880 0.305730 0.323735
0.553277 0.557336 0.578637
0.000000 0.349279 0.381048
0.000000 0.347265 0.378424
0.000000 0.365728 0.397070
0.395300 0.415839 0.446113
0.680690 0.582727 0.595697
0.000000 0.742123 0.675715
0.000000 0.746334 0.674250
0.000000 0.783658 0.660426
0.216281 0.838132 0.508843
0.861479 0.803128 0.315831
0.000000 0.412177 0.665461
0.000000 0.408392 0.659480
0.000000 0.428626 0.682399
0.430671 0.514153 0.672786
0.553521 0.557702 0.579004
0.000000 0.409979 0.654841
0.000000 0.406470 0.649348
0.000000 0.433021 0.679896
0.414313 0.508873 0.675013
0.559747 0.565270 0.586572
0.000000 0.444038 0.659449
0.000000 0.438209 0.654353
0.000000 0.421332 0.653498
0.356909 0.507805 0.695827
0.598260 0.613519 0.634333
0.000000 0.553552 0.698390
0.000000 0.546838 0.692317
0.000000 0.529351 0.686824
0.000000 0.492287 0.699184
0.676661 0.711971 0.730434
0.000000 0.714168 0.752834
0.000000 0.712825 0.750851
0.000000 0.714931 0.750668
0.000000 0.728206 0.760830
0.713405 0.776852 0.798734
