其他预设/【232】美食博客调色预设124款/1.3D LUT预设（视频调色-PR-AE-PS-FCPX-达芬奇用）/Yummy #14.cube
# Created by Adobe Lightroom plugin Export LUT (1.17.0)
# www.johnrellis.com/lightroom/exportlut.htm
# Preset: Yummy #14
# Color profile: /Library/Application Support/Adobe/Color/Profiles/Recommended/AdobeRGB1998.icc
LUT_3D_SIZE 32
0.000000 0.000000 0.000000
0.028016 0.000000 0.000000
0.058595 0.000000 0.000000
0.088350 0.000000 0.000000
0.123873 0.000000 0.000000
0.162234 0.000000 0.000000
0.203372 0.002350 0.000000
0.248905 0.002808 0.000000
0.301122 0.002075 0.000000
0.360174 0.000000 0.000000
0.425208 0.000000 0.000000
0.493721 0.000000 0.000000
0.562890 0.000000 0.000000
0.629145 0.000000 0.000000
0.687922 0.000000 0.000000
0.740383 0.000000 0.000000
0.786801 0.000000 0.000000
0.829923 0.000000 0.000000
0.866911 0.000000 0.000000
0.898772 0.000000 0.000000
0.926787 0.000000 0.000000
0.951598 0.000000 0.000000
0.973419 0.000000 0.000000
0.992889 0.000000 0.000000
1.000000 0.000000 0.000000
1.000000 0.000000 0.000000
1.000000 0.000000 0.000000
1.000000 0.000000 0.000000
1.000000 0.000000 0.000000
1.000000 0.000000 0.000000
1.000000 0.000000 0.000000
1.000000 0.000000 0.000000
0.000427 0.025788 0.000000
0.028443 0.024720 0.000000
0.058839 0.023713 0.000000
0.088380 0.026337 0.000000
0.123568 0.029236 0.000000
0.161654 0.033539 0.000000
0.202518 0.039094 0.000000
0.247654 0.044282 0.000000
0.299382 0.047700 0.000000
0.358068 0.051575 0.000000
0.422644 0.052277 0.000000
0.490700 0.049256 0.000000
0.559533 0.043305 0.000000
0.625757 0.034028 0.000000
0.684749 0.021546 0.000000
0.737209 0.006256 0.000000
0.783841 0.000000 0.000000
0.827115 0.000000 0.000000
0.863798 0.000000 0.000000
0.895628 0.000000 0.000000
0.923827 0.000000 0.000000
0.948852 0.000000 0.000000
0.970947 0.000000 0.000000
0.990692 0.000000 0.000000
1.000000 0.000000 0.000000
1.000000 0.000000 0.000000
1.000000 0.000000 0.000000
1.000000 0.000000 0.000000
1.000000 0.000000 0.000000
1.000000 0.000000 0.000000
1.000000 0.000000 0.000000
1.000000 0.000000 0.000000
0.001221 0.055665 0.000000
0.027710 0.055940 0.000000
0.059022 0.055909 0.000000
0.088106 0.058808 0.000000
0.123293 0.061891 0.000000
0.161166 0.065553 0.000000
0.201541 0.068727 0.000000
0.246250 0.072206 0.000000
0.297704 0.075807 0.000000
0.356115 0.079438 0.000000
0.420356 0.082826 0.000000
0.488197 0.085481 0.000000
0.557031 0.085817 0.000000
0.623285 0.085115 0.000000
0.682368 0.083284 0.000000
0.735134 0.079011 0.000000
0.781888 0.074922 0.000000
0.825284 0.068788 0.000000
0.861845 0.058747 0.000000
0.893675 0.043275 0.000000
0.922026 0.020447 0.000000
0.947234 0.000000 0.000000
0.969482 0.000000 0.000000
0.989380 0.000000 0.000000
1.000000 0.000000 0.000000
1.000000 0.000000 0.000000
1.000000 0.000000 0.000000
1.000000 0.000000 0.000000
1.000000 0.000000 0.000000
1.000000 0.000000 0.000000
1.000000 0.000000 0.000000
1.000000 0.000000 0.000000
0.003906 0.085969 0.000000
0.032929 0.086275 0.000000
0.062135 0.086458 0.000000
0.089479 0.086702 0.000000
0.123384 0.090120 0.000000
0.160739 0.094362 0.000000
0.200809 0.098512 0.000000
0.245365 0.103029 0.000000
0.296300 0.108675 0.000000
0.354314 0.114717 0.000000
0.417975 0.120851 0.000000
0.485481 0.126192 0.000000
0.553826 0.130404 0.000000
0.619928 0.132631 0.000000
0.679225 0.132692 0.000000
0.732052 0.131319 0.000000
0.779232 0.128298 0.000000
0.822904 0.124666 0.000000
0.858885 0.119753 0.000000
0.890501 0.113893 0.000000
0.918883 0.106966 0.000000
0.944244 0.099550 0.000000
0.966888 0.091463 0.000000
0.987304 0.081392 0.000000
1.000000 0.070192 0.000000
1.000000 0.054353 0.000000
1.000000 0.019867 0.000000
1.000000 0.000000 0.000000
1.000000 0.000000 0.000000
1.000000 0.000000 0.000000
1.000000 0.000000 0.000000
1.000000 0.000000 0.000000
0.008331 0.119539 0.000000
0.038727 0.119692 0.000000
0.066255 0.120089 0.000000
0.093507 0.120089 0.000000
0.123629 0.120333 0.000000
0.159762 0.124636 0.000000
0.199405 0.129793 0.000000
0.243229 0.136019 0.000000
0.293584 0.143313 0.000000
0.350866 0.151858 0.000000
0.413947 0.160433 0.000000
0.480812 0.168521 0.000000
0.548943 0.175113 0.000000
0.615167 0.179965 0.000000
0.674891 0.181582 0.000000
0.728298 0.181552 0.000000
0.777462 0.179568 0.000000
0.820615 0.176455 0.000000
0.856626 0.171572 0.000000
0.888243 0.166384 0.000000
0.916564 0.160189 0.000000
0.942016 0.153689 0.000000
0.964813 0.146914 0.000000
0.985443 0.139376 0.000000
1.000000 0.131258 0.000000
1.000000 0.122774 0.000000
1.000000 0.113985 0.000000
1.000000 0.103822 0.000000
1.000000 0.092897 0.000000
1.000000 0.080385 0.000000
1.000000 0.064088 0.000000
1.000000 0.028717 0.000000
0.010986 0.155764 0.000000
0.045106 0.156130 0.000000
0.069184 0.156222 0.000000
0.097566 0.156344 0.000000
0.128817 0.156374 0.000000
0.160342 0.156435 0.000000
0.198672 0.161715 0.000000
0.242222 0.169192 0.000000
0.292027 0.178195 0.000000
0.348882 0.188846 0.000000
0.411414 0.199985 0.000000
0.477852 0.210269 0.000000
0.545434 0.219272 0.000000
0.611719 0.225834 0.000000
0.671534 0.229129 0.000000
0.725216 0.229587 0.000000
0.775875 0.228641 0.000000
0.818601 0.225559 0.000000
0.854551 0.220981 0.000000
0.886412 0.215427 0.000000
0.915007 0.209232 0.000000
0.940764 0.202274 0.000000
0.977050 0.198367 0.000000
0.996216 0.190829 0.000000
1.000000 0.183200 0.000000
1.000000 0.175082 0.000000
1.000000 0.167117 0.000000
1.000000 0.158511 0.000000
1.000000 0.149844 0.000000
1.000000 0.140810 0.000000
1.000000 0.130953 0.000000
1.000000 0.120760 0.000000
0.012940 0.197940 0.000000
0.051209 0.198001 0.000000
0.073854 0.198093 0.000000
0.103670 0.198306 0.000000
0.136477 0.198581 0.000000
0.169863 0.198489 0.000000
0.203494 0.198581 0.000000
0.245518 0.205722 0.000000
0.296269 0.216831 0.000000
0.353765 0.229984 0.000000
0.416724 0.243442 0.000000
0.483406 0.256016 0.000000
0.550866 0.266697 0.000000
0.616266 0.274388 0.000000
0.674983 0.278050 0.000000
0.730159 0.279637 0.000000
0.780179 0.278843 0.000000
0.821958 0.275273 0.000000
0.857603 0.270146 0.000000
0.889647 0.263951 0.000000
0.918883 0.257603 0.000000
0.945464 0.250584 0.000000
0.969299 0.243473 0.000000
0.990570 0.235660 0.000000
1.000000 0.228122 0.000000
1.000000 0.219974 0.000000
1.000000 0.211704 0.000000
1.000000 0.203403 0.000000
1.000000 0.194888 0.000000
1.000000 0.186252 0.000000
1.000000 0.177401 0.000000
1.000000 0.168307 0.000000
0.015564 0.240818 0.000000
0.055116 0.240909 0.000000
0.077211 0.241001 0.000000
0.108370 0.241215 0.000000
0.142855 0.241642 0.000000
0.177584 0.241886 0.000000
0.212680 0.241917 0.000000
0.248142 0.242344 0.000000
0.294255 0.251438 0.000000
0.351080 0.266331 0.000000
0.413336 0.281804 0.000000
0.479164 0.296452 0.000000
0.546105 0.309087 0.000000
0.611109 0.318456 0.000000
0.671870 0.324193 0.000000
0.727382 0.326452 0.000000
0.776089 0.325658 0.000000
0.817472 0.321752 0.000000
0.853117 0.316197 0.000000
0.885313 0.309636 0.000000
0.914733 0.302739 0.000000
0.941497 0.295293 0.000000
0.965576 0.287541 0.000000
0.987121 0.279362 0.000000
1.000000 0.271031 0.000000
1.000000 0.262608 0.000000
1.000000 0.254032 0.000000
1.000000 0.245304 0.000000
1.000000 0.236759 0.000000
1.000000 0.227909 0.000000
1.000000 0.219211 0.000000
1.000000 0.210300 0.000000
0.017304 0.289921 0.000000
0.059541 0.289952 0.000000
0.081575 0.290166 0.000000
0.114107 0.290318 0.000000
0.150484 0.290929 0.000000
0.187289 0.291508 0.000000
0.224308 0.291661 0.000000
0.261692 0.292119 0.000000
0.299748 0.292790 0.000000
0.349371 0.303258 0.000000
0.411139 0.320867 0.000000
0.476326 0.337224 0.000000
0.542718 0.351629 0.000000
0.609827 0.363897 0.000000
0.670588 0.370794 0.000000
0.724453 0.373022 0.000000
0.772457 0.371954 0.000000
0.813565 0.367926 0.000000
0.849241 0.361700 0.000000
0.881590 0.354742 0.000000
0.911162 0.347356 0.000000
0.938079 0.339269 0.000000
0.962341 0.330816 0.000000
0.984039 0.322210 0.000000
1.000000 0.313390 0.000000
1.000000 0.304082 0.000000
1.000000 0.295018 0.000000
1.000000 0.285893 0.000000
1.000000 0.276829 0.000000
1.000000 0.267735 0.000000
1.000000 0.258640 0.000000
1.000000 0.249699 0.000000
0.017914 0.344762 0.000000
0.061982 0.344823 0.000000
0.085603 0.344854 0.000000
0.120424 0.345129 0.000000
0.158572 0.345525 0.000000
0.197574 0.346197 0.000000
0.236881 0.346654 0.000000
0.276188 0.346838 0.000000
0.316075 0.347509 0.000000
0.356634 0.348394 0.000000
0.408362 0.358770 0.000000
0.473976 0.377935 0.000000
0.542229 0.395666 0.000000
0.608240 0.409033 0.000000
0.667994 0.416327 0.000000
0.721553 0.418952 0.000000
0.769589 0.418158 0.000000
0.810849 0.413733 0.000000
0.846555 0.407263 0.000000
0.878782 0.399542 0.000000
0.908141 0.391363 0.000000
0.934691 0.382605 0.000000
0.958679 0.373327 0.000000
0.980255 0.363928 0.000000
0.999756 0.354314 0.000000
1.000000 0.344518 0.000000
1.000000 0.334936 0.000000
1.000000 0.325261 0.000000
1.000000 0.315709 0.000000
1.000000 0.306218 0.000000
1.000000 0.296971 0.000000
1.000000 0.287510 0.000000
0.009216 0.402869 0.000000
0.060395 0.402991 0.000000
0.087251 0.403174 0.000000
0.124849 0.403357 0.000000
0.165682 0.403845 0.000000
0.207034 0.404639 0.000000
0.248844 0.405646 0.000000
0.290501 0.406195 0.000000
0.332464 0.406500 0.000000
0.375128 0.407599 0.000000
0.420050 0.410468 0.000000
0.474678 0.421118 0.000000
0.541222 0.439429 0.000000
0.605829 0.453254 0.000000
0.664454 0.460883 0.000000
0.717281 0.463722 0.000000
0.764981 0.462745 0.000000
0.806088 0.458289 0.000000
0.841978 0.451270 0.000000
0.874418 0.443153 0.000000
0.903990 0.434485 0.000000
0.930816 0.425055 0.000000
0.955108 0.415290 0.000000
0.976959 0.405280 0.000000
0.996674 0.395056 0.000000
1.000000 0.384558 0.000000
1.000000 0.374212 0.000000
1.000000 0.364019 0.000000
1.000000 0.353887 0.000000
1.000000 0.343877 0.000000
1.000000 0.334081 0.000000
1.000000 0.324376 0.000000
0.000000 0.464668 0.000000
0.052796 0.464729 0.000000
0.086854 0.464851 0.000000
0.127474 0.465034 0.000000
0.171359 0.465522 0.000000
0.215213 0.466285 0.000000
0.259281 0.467262 0.000000
0.303746 0.468666 0.000000
0.348974 0.470588 0.000000
0.394751 0.472511 0.000000
0.440772 0.474372 0.000000
0.487129 0.476143 0.000000
0.563653 0.504112 0.000000
0.626825 0.516716 0.000000
0.683528 0.522362 0.000000
0.734524 0.523033 0.000000
0.779477 0.519615 0.000000
0.818021 0.512566 0.000000
0.851774 0.503349 0.000000
0.882506 0.493446 0.000000
0.910491 0.482765 0.000000
0.935790 0.471778 0.000000
0.958709 0.460426 0.000000
0.979522 0.449073 0.000000
0.998444 0.437507 0.000000
1.000000 0.426123 0.000000
1.000000 0.414771 0.000000
1.000000 0.403723 0.000000
1.000000 0.392798 0.000000
1.000000 0.382025 0.000000
1.000000 0.371618 0.000000
1.000000 0.361303 0.000000
0.000000 0.534295 0.000000
0.030121 0.534356 0.000000
0.082734 0.534081 0.000000
0.129519 0.534417 0.000000
0.177066 0.535088 0.000000
0.223972 0.535912 0.000000
0.271275 0.537255 0.000000
0.318608 0.538872 0.000000
0.366278 0.540734 0.000000
0.414221 0.542596 0.000000
0.463203 0.545037 0.000000
0.512810 0.547601 0.000000
0.562646 0.549981 0.000000
0.616815 0.555688 0.000000
0.675135 0.563775 0.000000
0.726955 0.565789 0.000000
0.772427 0.562707 0.000000
0.811276 0.555535 0.000000
0.845426 0.546075 0.000000
0.876463 0.535607 0.000000
0.904723 0.524559 0.000000
0.930449 0.512871 0.000000
0.953674 0.501061 0.000000
0.974823 0.488991 0.000000
0.994079 0.476905 0.000000
1.000000 0.464820 0.000000
1.000000 0.452857 0.000000
1.000000 0.441169 0.000000
1.000000 0.429633 0.000000
1.000000 0.418402 0.000000
1.000000 0.407446 0.000000
1.000000 0.396643 0.000000
0.000000 0.598901 0.000000
0.000000 0.598932 0.000000
0.074159 0.598718 0.000000
0.127718 0.598413 0.000000
0.178439 0.597894 0.000000
0.227695 0.597467 0.000000
0.276310 0.597528 0.000000
0.324437 0.597955 0.000000
0.372992 0.598932 0.000000
0.421393 0.599786 0.000000
0.470161 0.600763 0.000000
0.519402 0.602136 0.000000
0.568536 0.603143 0.000000
0.617273 0.603479 0.000000
0.667231 0.604822 0.000000
0.719539 0.607630 0.000000
0.765164 0.604883 0.000000
0.804318 0.597711 0.000000
0.838926 0.587945 0.000000
0.870359 0.577234 0.000000
0.899046 0.565698 0.000000
0.925139 0.553643 0.000000
0.948760 0.541222 0.000000
0.970306 0.528618 0.000000
0.989899 0.515923 0.000000
1.000000 0.503227 0.000000
1.000000 0.490700 0.000000
1.000000 0.478340 0.000000
1.000000 0.466316 0.000000
1.000000 0.454505 0.000000
1.000000 0.443030 0.000000
1.000000 0.431830 0.000000
0.000000 0.654749 0.000000
0.000000 0.654780 0.000000
0.060182 0.654383 0.000000
0.122621 0.653712 0.000000
0.176822 0.652705 0.000000
0.227573 0.651667 0.000000
0.276951 0.650965 0.000000
0.325872 0.650538 0.000000
0.374548 0.650813 0.000000
0.423621 0.651453 0.000000
0.472206 0.651667 0.000000
0.521019 0.652033 0.000000
0.569635 0.652186 0.000000
0.617792 0.651728 0.000000
0.665126 0.650324 0.000000
0.711818 0.648524 0.000000
0.758389 0.646723 0.000000
0.797787 0.639429 0.000000
0.832731 0.629541 0.000000
0.864439 0.618372 0.000000
0.893400 0.606378 0.000000
0.919768 0.593866 0.000000
0.943694 0.580865 0.000000
0.965576 0.567681 0.000000
0.985565 0.554406 0.000000
1.000000 0.541222 0.000000
1.000000 0.528191 0.000000
1.000000 0.515404 0.000000
1.000000 0.502861 0.000000
1.000000 0.490669 0.000000
1.000000 0.478706 0.000000
1.000000 0.466957 0.000000
0.000000 0.703761 0.000000
0.000000 0.703822 0.000000
0.023346 0.703639 0.000000
0.115023 0.703182 0.000000
0.172366 0.702419 0.000000
0.225101 0.701686 0.000000
0.275517 0.701106 0.000000
0.325048 0.700740 0.000000
0.374426 0.700496 0.000000
0.423316 0.700496 0.000000
0.471901 0.700008 0.000000
0.519921 0.698970 0.000000
0.567285 0.697475 0.000000
0.614252 0.695552 0.000000
0.660273 0.693019 0.000000
0.705470 0.689876 0.000000
0.749783 0.686305 0.000000
0.790829 0.680323 0.000000
0.826505 0.670497 0.000000
0.858976 0.659327 0.000000
0.888426 0.647150 0.000000
0.915251 0.634150 0.000000
0.939605 0.620691 0.000000
0.961791 0.606989 0.000000
0.982086 0.593164 0.000000
1.000000 0.579370 0.000000
1.000000 0.565698 0.000000
1.000000 0.552422 0.000000
1.000000 0.539269 0.000000
1.000000 0.526452 0.000000
1.000000 0.513878 0.000000
1.000000 0.501640 0.000000
0.000000 0.745724 0.000000
0.000000 0.745602 0.000000
0.000000 0.745296 0.000000
0.105531 0.744778 0.000000
0.165927 0.744045 0.000000
0.219455 0.743252 0.000000
0.270329 0.742397 0.000000
0.320195 0.741634 0.000000
0.369238 0.740932 0.000000
0.417731 0.740322 0.000000
0.466041 0.739803 0.000000
0.513451 0.738369 0.000000
0.560296 0.736568 0.000000
0.606470 0.734218 0.000000
0.651911 0.731228 0.000000
0.696254 0.727657 0.000000
0.739834 0.723659 0.000000
0.782773 0.719448 0.000000
0.819974 0.710719 0.000000
0.852659 0.699245 0.000000
0.882536 0.686702 0.000000
0.909667 0.673335 0.000000
0.934356 0.659388 0.000000
0.956939 0.645228 0.000000
0.977630 0.630945 0.000000
0.996674 0.616632 0.000000
1.000000 0.602564 0.000000
1.000000 0.588678 0.000000
1.000000 0.575067 0.000000
1.000000 0.561761 0.000000
1.000000 0.548730 0.000000
1.000000 0.535973 0.000000
0.000000 0.782376 0.000000
0.000000 0.782528 0.000000
0.000000 0.793698 0.000000
0.095338 0.793088 0.000000
0.160616 0.792142 0.000000
0.215732 0.790890 0.000000
0.267613 0.789456 0.000000
0.317601 0.787900 0.000000
0.366796 0.786404 0.000000
0.415198 0.784970 0.000000
0.462989 0.783505 0.000000
0.510124 0.781674 0.000000
0.556268 0.778866 0.000000
0.601862 0.775692 0.000000
0.646479 0.772061 0.000000
0.690364 0.768032 0.000000
0.733455 0.763638 0.000000
0.775723 0.758877 0.000000
0.817380 0.754055 0.000000
0.851072 0.742824 0.000000
0.880400 0.729061 0.000000
0.907347 0.714656 0.000000
0.931945 0.699794 0.000000
0.954314 0.684749 0.000000
0.974762 0.669459 0.000000
0.993591 0.654353 0.000000
1.000000 0.639399 0.000000
1.000000 0.624811 0.000000
1.000000 0.610620 0.000000
1.000000 0.596765 0.000000
1.000000 0.583185 0.000000
1.000000 0.569940 0.000000
0.000000 0.817014 0.000000
0.000000 0.818265 0.000000
0.000000 0.819364 0.000000
0.081086 0.820066 0.000000
0.150576 0.820188 0.000000
0.206729 0.819547 0.000000
0.258824 0.818387 0.000000
0.308476 0.816953 0.000000
0.357031 0.815549 0.000000
0.404456 0.814023 0.000000
0.451545 0.812406 0.000000
0.498085 0.810666 0.000000
0.543725 0.808133 0.000000
0.588464 0.804990 0.000000
0.632502 0.801419 0.000000
0.675715 0.797482 0.000000
0.718227 0.793179 0.000000
0.760006 0.788663 0.000000
0.801328 0.784054 0.000000
0.842130 0.779477 0.000000
0.873991 0.767422 0.000000
0.901366 0.752865 0.000000
0.926421 0.737728 0.000000
0.949340 0.722286 0.000000
0.970184 0.706569 0.000000
0.989471 0.691005 0.000000
1.000000 0.675593 0.000000
1.000000 0.660548 0.000000
1.000000 0.645808 0.000000
1.000000 0.631464 0.000000
1.000000 0.617487 0.000000
1.000000 0.603662 0.000000
0.000000 0.844388 0.000000
0.000000 0.845335 0.000000
0.000000 0.846281 0.000000
0.060945 0.846830 0.000000
0.140047 0.846830 0.000000
0.197391 0.846220 0.000000
0.249424 0.845090 0.000000
0.298772 0.843748 0.000000
0.346593 0.842374 0.000000
0.393713 0.840818 0.000000
0.439948 0.839200 0.000000
0.485695 0.837430 0.000000
0.530755 0.835264 0.000000
0.574945 0.832242 0.000000
0.618250 0.828794 0.000000
0.660853 0.824979 0.000000
0.702846 0.820859 0.000000
0.744106 0.816526 0.000000
0.784909 0.812070 0.000000
0.825345 0.807675 0.000000
0.865202 0.803220 0.000000
0.895628 0.790890 0.000000
0.921141 0.775448 0.000000
0.944396 0.759609 0.000000
0.965698 0.743435 0.000000
0.985229 0.727352 0.000000
1.000000 0.711421 0.000000
1.000000 0.695857 0.000000
1.000000 0.680690 0.000000
1.000000 0.665858 0.000000
1.000000 0.651423 0.000000
1.000000 0.637110 0.000000
0.000000 0.869383 0.000000
0.000000 0.870176 0.000000
0.000000 0.870970 0.000000
0.011810 0.871366 0.000000
0.128328 0.871275 0.000000
0.187442 0.870665 0.000000
0.239567 0.869627 0.000000
0.288609 0.868284 0.000000
0.336126 0.866819 0.000000
0.382452 0.865263 0.000000
0.427924 0.863584 0.000000
0.472847 0.861723 0.000000
0.517113 0.859556 0.000000
0.560754 0.857023 0.000000
0.603540 0.853849 0.000000
0.645686 0.850401 0.000000
0.687343 0.846799 0.000000
0.728542 0.843076 0.000000
0.769284 0.839322 0.000000
0.809659 0.835477 0.000000
0.849546 0.831662 0.000000
0.889097 0.827695 0.000000
0.918547 0.815183 0.000000
0.942199 0.798886 0.000000
0.963775 0.782223 0.000000
0.983642 0.765591 0.000000
1.000000 0.749050 0.000000
1.000000 0.732876 0.000000
1.000000 0.717006 0.000000
1.000000 0.701656 0.000000
1.000000 0.686519 0.000000
1.000000 0.671992 0.000000
0.000000 0.895598 0.000000
0.000000 0.895842 0.000000
0.000000 0.895995 0.000000
0.000000 0.895842 0.000000
0.115328 0.895384 0.000000
0.177218 0.894560 0.000000
0.229862 0.893523 0.000000
0.278813 0.892302 0.000000
0.326055 0.890990 0.000000
0.371954 0.889586 0.000000
0.416785 0.888060 0.000000
0.461311 0.886290 0.000000
0.504875 0.884215 0.000000
0.547845 0.881834 0.000000
0.590143 0.878874 0.000000
0.631708 0.875547 0.000000
0.672663 0.872007 0.000000
0.713283 0.868315 0.000000
0.753292 0.864561 0.000000
0.792966 0.860685 0.000000
0.832120 0.856687 0.000000
0.870787 0.852598 0.000000
0.909026 0.848386 0.000000
0.937255 0.835630 0.000000
0.959045 0.818509 0.000000
0.979187 0.801419 0.000000
0.997925 0.784451 0.000000
1.000000 0.767819 0.000000
1.000000 0.751583 0.000000
1.000000 0.735775 0.000000
1.000000 0.720302 0.000000
1.000000 0.705898 0.000000
0.000000 0.916136 0.000000
0.000000 0.916381 0.000000
0.000000 0.916533 0.000000
0.000000 0.916350 0.000000
0.100069 0.915892 0.000000
0.165988 0.915068 0.000000
0.219272 0.914031 0.000000
0.267979 0.912810 0.000000
0.314946 0.911467 0.000000
0.360235 0.910002 0.000000
0.404639 0.908476 0.000000
0.448066 0.906737 0.000000
0.490944 0.904723 0.000000
0.533379 0.902434 0.000000
0.575067 0.899962 0.000000
0.616052 0.896880 0.000000
0.656550 0.893614 0.000000
0.696559 0.890227 0.000000
0.736110 0.886717 0.000000
0.775296 0.883116 0.000000
0.813993 0.879423 0.000000
0.852293 0.875639 0.000000
0.890166 0.871733 0.000000
0.927581 0.867704 0.000000
0.953613 0.853849 0.000000
0.974121 0.836362 0.000000
0.993256 0.819089 0.000000
1.000000 0.802152 0.000000
1.000000 0.785580 0.000000
1.000000 0.769375 0.000000
1.000000 0.753933 0.000000
1.000000 0.739712 0.000000
0.000000 0.937285 0.000000
0.000000 0.937560 0.000000
0.000000 0.937591 0.000000
0.000000 0.937316 0.000000
0.083589 0.936706 0.000000
0.154635 0.935821 0.000000
0.209110 0.934661 0.000000
0.257939 0.933288 0.000000
0.304509 0.931731 0.000000
0.349126 0.930083 0.000000
0.392798 0.928252 0.000000
0.435492 0.926329 0.000000
0.477607 0.924193 0.000000
0.519066 0.921843 0.000000
0.559960 0.919188 0.000000
0.600275 0.916228 0.000000
0.639887 0.912902 0.000000
0.679133 0.909483 0.000000
0.718013 0.906126 0.000000
0.756619 0.902770 0.000000
0.794797 0.899351 0.000000
0.832609 0.895842 0.000000
0.869932 0.892088 0.000000
0.906706 0.888121 0.000000
0.942870 0.883970 0.000000
0.970062 0.871977 0.000000
0.989380 0.854215 0.000000
1.000000 0.836790 0.000000
1.000000 0.819760 0.000000
1.000000 0.803250 0.000000
1.000000 0.787747 0.000000
1.000000 0.773617 0.000000
0.000000 0.954162 0.000000
0.000000 0.954376 0.000000
0.000000 0.954437 0.000000
0.000000 0.954162 0.000000
0.059083 0.953613 0.000000
0.141726 0.952789 0.000000
0.197757 0.951751 0.000000
0.247013 0.950561 0.000000
0.293278 0.949187 0.000000
0.337652 0.947692 0.000000
0.380652 0.946075 0.000000
0.423041 0.944335 0.000000
0.464546 0.942382 0.000000
0.505394 0.940246 0.000000
0.545647 0.937835 0.000000
0.585443 0.935241 0.000000
0.624628 0.932280 0.000000
0.663325 0.929137 0.000000
0.701625 0.925963 0.000000
0.739651 0.922759 0.000000
0.777279 0.919524 0.000000
0.814603 0.916167 0.000000
0.851469 0.912627 0.000000
0.887816 0.908904 0.000000
0.923705 0.905028 0.000000
0.959106 0.900969 0.000000
0.986297 0.889830 0.000000
1.000000 0.871916 0.000000
1.000000 0.854429 0.000000
1.000000 0.837675 0.000000
1.000000 0.821958 0.000000
1.000000 0.807828 0.000000
0.000000 0.970611 0.000000
0.000000 0.970733 0.000000
0.000000 0.970642 0.000000
0.000000 0.970306 0.000000
0.000000 0.969696 0.000000
0.127443 0.968872 0.000000
0.185855 0.967834 0.000000
0.235691 0.966674 0.000000
0.282048 0.965393 0.000000
0.325902 0.963989 0.000000
0.368627 0.962463 0.000000
0.410315 0.960876 0.000000
0.451331 0.959075 0.000000
0.491646 0.957061 0.000000
0.531273 0.954803 0.000000
0.570397 0.952361 0.000000
0.609125 0.949737 0.000000
0.647211 0.946777 0.000000
0.684962 0.943786 0.000000
0.722377 0.940764 0.000000
0.759518 0.937682 0.000000
0.796323 0.934539 0.000000
0.832670 0.931212 0.000000
0.868589 0.927764 0.000000
0.904082 0.924163 0.000000
0.939208 0.920409 0.000000
0.973816 0.916411 0.000000
1.000000 0.906249 0.000000
1.000000 0.888060 0.000000
1.000000 0.871031 0.000000
1.000000 0.855192 0.000000
1.000000 0.841154 0.000000
0.000000 0.985412 0.000000
0.000000 0.985443 0.000000
0.000000 0.985351 0.000000
0.000000 0.985077 0.000000
0.000000 0.984588 0.000000
0.112001 0.984009 0.000000
0.174166 0.983368 0.000000
0.225071 0.982635 0.000000
0.271611 0.981781 0.000000
0.315679 0.980896 0.000000
0.358190 0.979858 0.000000
0.399603 0.978668 0.000000
0.440131 0.977264 0.000000
0.480049 0.975616 0.000000
0.519371 0.973632 0.000000
0.557977 0.971435 0.000000
0.596216 0.968994 0.000000
0.633875 0.966400 0.000000
0.671199 0.963561 0.000000
0.708125 0.960723 0.000000
0.744717 0.957794 0.000000
0.781003 0.954803 0.000000
0.816892 0.951629 0.000000
0.852354 0.948302 0.000000
0.887358 0.944732 0.000000
0.922087 0.941039 0.000000
0.956481 0.937194 0.000000
0.990387 0.933349 0.000000
1.000000 0.924315 0.000000
1.000000 0.906065 0.000000
1.000000 0.889769 0.000000
1.000000 0.875395 0.000000
0.000000 1.000000 0.000000
0.000000 1.000000 0.000000
0.000000 1.000000 0.000000
0.000000 1.000000 0.000000
0.000000 1.000000 0.000000
0.098299 0.999969 0.000000
0.163882 0.999207 0.000000
0.215244 0.998322 0.000000
0.261540 0.997345 0.000000
0.305303 0.996246 0.000000
0.347234 0.995026 0.000000
0.387976 0.993652 0.000000
0.427893 0.992126 0.000000
0.467109 0.990417 0.000000
0.505608 0.988495 0.000000
0.543694 0.986389 0.000000
