其他预设/【232】美食博客调色预设124款/1.3D LUT预设（视频调色-PR-AE-PS-FCPX-达芬奇用）/Yummy #11.cube
# Created by Adobe Lightroom plugin Export LUT (1.17.0)
# www.johnrellis.com/lightroom/exportlut.htm
# Preset: Yummy #11
# Color profile: /Library/Application Support/Adobe/Color/Profiles/Recommended/AdobeRGB1998.icc
LUT_3D_SIZE 32
0.043793 0.000000 0.065461
0.098787 0.008087 0.065034
0.144503 0.028992 0.063416
0.243870 0.075166 0.049134
0.355901 0.102480 0.004456
0.454932 0.119875 0.000000
0.545342 0.131868 0.000000
0.629114 0.141299 0.000000
0.696529 0.148623 0.000000
0.749752 0.155856 0.000000
0.794156 0.162600 0.000000
0.832181 0.171603 0.000000
0.865141 0.181643 0.000000
0.893278 0.192966 0.000000
0.917479 0.205051 0.000000
0.938659 0.216861 0.000000
0.958495 0.229191 0.000000
0.976593 0.242313 0.004211
0.991913 0.254826 0.067445
1.000000 0.266819 0.092805
1.000000 0.278386 0.111788
1.000000 0.289342 0.127321
1.000000 0.299718 0.140810
1.000000 0.309667 0.152682
1.000000 0.318730 0.162966
1.000000 0.327520 0.172946
1.000000 0.336126 0.182010
1.000000 0.344549 0.190860
1.000000 0.352758 0.199557
1.000000 0.360937 0.208194
1.000000 0.369085 0.216983
1.000000 0.377142 0.225834
0.036652 0.096498 0.064363
0.096834 0.097993 0.064729
0.144991 0.103822 0.061463
0.244236 0.131258 0.039368
0.355138 0.152071 0.000000
0.453132 0.162844 0.000000
0.543297 0.169162 0.000000
0.626703 0.174105 0.000000
0.694240 0.176669 0.000000
0.747768 0.180301 0.000000
0.792203 0.183841 0.000000
0.830350 0.189303 0.000000
0.863340 0.196811 0.000000
0.891600 0.205997 0.000000
0.915984 0.215885 0.000000
0.937224 0.226200 0.000000
0.957122 0.237369 0.000000
0.975036 0.248844 0.005402
0.990326 0.260227 0.067842
1.000000 0.271305 0.092195
1.000000 0.282048 0.110567
1.000000 0.292424 0.126162
1.000000 0.302251 0.139498
1.000000 0.311742 0.151522
1.000000 0.320592 0.161929
1.000000 0.329229 0.171695
1.000000 0.337407 0.180636
1.000000 0.345922 0.189975
1.000000 0.353918 0.198611
1.000000 0.361944 0.207218
1.000000 0.369818 0.215793
1.000000 0.377752 0.224613
0.017517 0.151369 0.061128
0.101015 0.154147 0.058900
0.147311 0.157321 0.057313
0.244846 0.181125 0.025483
0.354162 0.196719 0.000000
0.451759 0.204044 0.000000
0.540856 0.207065 0.000000
0.624048 0.208377 0.000000
0.691890 0.208316 0.000000
0.745602 0.207492 0.000000
0.790249 0.208560 0.000000
0.828611 0.211185 0.000000
0.861814 0.215488 0.000000
0.890227 0.222263 0.000000
0.914641 0.230167 0.000000
0.936034 0.238163 0.000000
0.956085 0.248142 0.000000
0.973846 0.258030 0.010315
0.989136 0.268070 0.069612
1.000000 0.278111 0.093050
1.000000 0.287907 0.110964
1.000000 0.297459 0.126406
1.000000 0.306859 0.139773
1.000000 0.315648 0.151400
1.000000 0.324285 0.161807
1.000000 0.332341 0.171511
1.000000 0.340429 0.180697
1.000000 0.348516 0.189731
1.000000 0.356268 0.198306
1.000000 0.364172 0.207004
1.000000 0.371771 0.215518
1.000000 0.379492 0.224369
0.000000 0.258762 0.007507
0.108766 0.260227 0.002075
0.166476 0.261662 0.000000
0.249363 0.264256 0.000000
0.353491 0.271855 0.000000
0.449897 0.268711 0.000000
0.538293 0.267430 0.000000
0.621180 0.265324 0.000000
0.688808 0.260655 0.000000
0.742794 0.255528 0.000000
0.787533 0.251926 0.000000
0.826047 0.250340 0.000000
0.859281 0.251225 0.000000
0.887846 0.253849 0.000000
0.912535 0.257420 0.000000
0.934081 0.262730 0.000000
0.954437 0.269535 0.000000
0.972045 0.276829 0.025940
0.987243 0.284520 0.073396
1.000000 0.292515 0.095460
1.000000 0.300603 0.112825
1.000000 0.308690 0.127657
1.000000 0.316869 0.140658
1.000000 0.324804 0.152560
1.000000 0.332525 0.162509
1.000000 0.340215 0.172427
1.000000 0.347631 0.181704
1.000000 0.355322 0.190921
1.000000 0.362676 0.199466
1.000000 0.369940 0.207889
1.000000 0.377050 0.216312
1.000000 0.384131 0.224735
0.000000 0.357916 0.000000
0.103029 0.357824 0.000000
0.168551 0.357610 0.000000
0.254795 0.356481 0.000000
0.349157 0.353765 0.000000
0.445716 0.349310 0.000000
0.533623 0.338293 0.000000
0.615930 0.329808 0.000000
0.683833 0.321508 0.000000
0.737911 0.312963 0.000000
0.783108 0.305028 0.000000
0.821866 0.299443 0.000000
0.855497 0.295964 0.000000
0.884398 0.294347 0.000000
0.909453 0.294316 0.000000
0.931792 0.296178 0.000000
0.952300 0.299504 0.000000
0.969940 0.303716 0.049042
0.985321 0.308507 0.081239
0.999298 0.314000 0.100649
1.000000 0.319860 0.116701
1.000000 0.326238 0.130739
1.000000 0.332616 0.143221
1.000000 0.339178 0.154604
1.000000 0.345647 0.164828
1.000000 0.352209 0.174319
1.000000 0.358831 0.183444
1.000000 0.365362 0.192142
1.000000 0.371923 0.200717
1.000000 0.378576 0.209110
1.000000 0.385016 0.217258
1.000000 0.391547 0.225681
0.000000 0.438331 0.000000
0.091524 0.437995 0.000000
0.161807 0.437140 0.000000
0.249912 0.434974 0.000000
0.343633 0.431098 0.000000
0.437842 0.425483 0.000000
0.529870 0.417121 0.000000
0.611536 0.403845 0.000000
0.679164 0.385962 0.000000
0.733516 0.372686 0.000000
0.778866 0.361608 0.000000
0.817899 0.352331 0.000000
0.851682 0.345159 0.000000
0.880919 0.339788 0.000000
0.906279 0.336095 0.000000
0.929564 0.334783 0.000000
0.949920 0.334813 0.013336
0.967620 0.335882 0.067201
0.983154 0.337926 0.090059
0.997375 0.340826 0.107576
1.000000 0.344488 0.122805
1.000000 0.348608 0.136294
1.000000 0.360296 0.158083
1.000000 0.365270 0.168612
1.000000 0.370214 0.178195
1.000000 0.375219 0.186954
1.000000 0.380407 0.195468
1.000000 0.385687 0.203799
1.000000 0.391058 0.211704
1.000000 0.396551 0.219638
1.000000 0.402045 0.227481
1.000000 0.407507 0.235294
0.000000 0.513451 0.000000
0.085237 0.512627 0.000000
0.158114 0.511742 0.000000
0.247013 0.509545 0.000000
0.339910 0.505760 0.000000
0.433234 0.499977 0.000000
0.525322 0.492592 0.000000
0.612696 0.482521 0.000000
0.679072 0.462257 0.000000
0.733150 0.440558 0.000000
0.778470 0.421088 0.000000
0.817441 0.408515 0.000000
0.850980 0.397986 0.000000
0.880034 0.389075 0.000000
0.906279 0.382635 0.000000
0.929564 0.378149 0.000000
0.949645 0.375097 0.059144
0.967254 0.373022 0.083528
0.982849 0.372381 0.102449
0.997314 0.372900 0.118990
1.000000 0.374823 0.133303
1.000000 0.377417 0.146426
1.000000 0.380896 0.158297
1.000000 0.384710 0.169558
1.000000 0.388830 0.179751
1.000000 0.392737 0.188937
1.000000 0.396979 0.197604
1.000000 0.401190 0.205753
1.000000 0.405432 0.213504
1.000000 0.410010 0.221256
1.000000 0.414374 0.228733
1.000000 0.419074 0.236393
0.000000 0.577020 0.000000
0.089174 0.576349 0.000000
0.157656 0.575311 0.000000
0.243503 0.572961 0.000000
0.333318 0.569177 0.000000
0.422919 0.563684 0.000000
0.511803 0.556512 0.000000
0.598230 0.548241 0.000000
0.672572 0.532860 0.000000
0.726741 0.509026 0.000000
0.772305 0.486122 0.000000
0.811826 0.465095 0.000000
0.845823 0.449073 0.000000
0.876066 0.437934 0.000000
0.902739 0.428840 0.000000
0.925658 0.421118 0.039612
0.945678 0.414954 0.075471
0.963378 0.410193 0.094972
0.979156 0.406897 0.111604
0.993866 0.405097 0.126345
1.000000 0.404578 0.139559
1.000000 0.405127 0.151766
1.000000 0.406500 0.162905
1.000000 0.408515 0.173495
1.000000 0.410803 0.183139
1.000000 0.413458 0.192172
1.000000 0.416205 0.200351
1.000000 0.419043 0.208042
1.000000 0.422309 0.215824
1.000000 0.425605 0.223270
1.000000 0.429267 0.230808
1.000000 0.432990 0.238346
0.000000 0.629175 0.000000
0.109560 0.628412 0.000000
0.165286 0.627466 0.000000
0.242466 0.625116 0.000000
0.326116 0.621515 0.000000
0.410010 0.616297 0.000000
0.493904 0.609766 0.000000
0.576104 0.602014 0.000000
0.655818 0.593103 0.000000
0.720577 0.576104 0.000000
0.766567 0.550896 0.000000
0.806149 0.527398 0.000000
0.841886 0.507103 0.000000
0.872618 0.488289 0.000000
0.898772 0.475776 0.029786
0.921569 0.465278 0.070771
0.941680 0.456367 0.090639
0.959533 0.449134 0.106783
0.975555 0.443366 0.121614
0.990478 0.439277 0.134676
1.000000 0.436591 0.146578
1.000000 0.435096 0.157656
1.000000 0.434546 0.168368
1.000000 0.434760 0.178195
1.000000 0.435523 0.187594
1.000000 0.436500 0.196139
1.000000 0.437873 0.204044
1.000000 0.439429 0.211460
1.000000 0.441382 0.218814
1.000000 0.443641 0.226169
1.000000 0.446204 0.233494
1.000000 0.448920 0.240787
0.087678 0.671504 0.000000
0.134463 0.670832 0.000000
0.177340 0.669886 0.000000
0.244633 0.667781 0.000000
0.319890 0.664454 0.000000
0.397711 0.659846 0.000000
0.475898 0.653956 0.000000
0.553429 0.646967 0.000000
0.629114 0.639094 0.000000
0.701747 0.630518 0.000000
0.761044 0.614374 0.000000
0.802090 0.589410 0.000000
0.837186 0.566247 0.000000
0.867582 0.545037 0.000000
0.894133 0.525750 0.057588
0.917357 0.509545 0.088075
0.937835 0.498482 0.103731
0.955993 0.489021 0.118441
0.972229 0.481270 0.131777
0.987304 0.475013 0.143526
1.000000 0.470222 0.154452
1.000000 0.466712 0.164492
1.000000 0.464057 0.173892
1.000000 0.462409 0.183108
1.000000 0.461402 0.191714
1.000000 0.460945 0.199924
1.000000 0.460853 0.207462
1.000000 0.461311 0.214817
1.000000 0.462257 0.222354
1.000000 0.463478 0.229557
1.000000 0.465126 0.236973
1.000000 0.467018 0.244327
0.125307 0.707149 0.000000
0.157137 0.706569 0.000000
0.191775 0.705745 0.000000
0.248753 0.703975 0.000000
0.316320 0.701076 0.000000
0.387427 0.697230 0.000000
0.460304 0.692226 0.000000
0.532738 0.686275 0.000000
0.605005 0.679713 0.000000
0.675746 0.673060 0.000000
0.743069 0.665675 0.000000
0.796719 0.649897 0.000000
0.831785 0.624201 0.000000
0.862242 0.600366 0.000000
0.888792 0.578912 0.047974
0.912200 0.559594 0.090394
0.933074 0.541955 0.113191
0.951476 0.528954 0.128756
0.968017 0.519127 0.140719
0.983398 0.510887 0.151278
0.997711 0.504356 0.161563
1.000000 0.499001 0.171054
1.000000 0.494972 0.180209
1.000000 0.491737 0.188998
1.000000 0.489265 0.197208
1.000000 0.487343 0.204837
1.000000 0.485908 0.212070
1.000000 0.485054 0.219303
1.000000 0.484688 0.226322
1.000000 0.484810 0.233310
1.000000 0.485359 0.240482
1.000000 0.486305 0.247868
0.157015 0.739406 0.000000
0.179934 0.738949 0.000000
0.207889 0.738186 0.000000
0.255802 0.736599 0.000000
0.315740 0.734157 0.000000
0.380468 0.730892 0.000000
0.448188 0.727260 0.000000
0.516655 0.722652 0.000000
0.584985 0.717128 0.000000
0.651942 0.710903 0.000000
0.716518 0.704005 0.000000
0.777798 0.696773 0.000000
0.835538 0.689784 0.000000
0.865660 0.663264 0.000000
0.891875 0.638727 0.052033
0.914733 0.616693 0.097108
0.935027 0.596796 0.122286
0.953094 0.578882 0.141115
0.969360 0.562921 0.156649
0.984344 0.552697 0.166659
0.998291 0.544030 0.175692
1.000000 0.536889 0.184482
1.000000 0.530755 0.192538
1.000000 0.525750 0.200443
1.000000 0.521538 0.207919
1.000000 0.518120 0.215122
1.000000 0.515251 0.221866
1.000000 0.512993 0.228397
1.000000 0.511284 0.234897
1.000000 0.510124 0.241611
1.000000 0.509545 0.248569
1.000000 0.509300 0.255406
0.186893 0.772885 0.000000
0.204257 0.772549 0.000000
0.226627 0.771817 0.000000
0.267521 0.770413 0.000000
0.320287 0.768185 0.000000
0.378851 0.765103 0.000000
0.440803 0.761349 0.000000
0.504234 0.756893 0.000000
0.568414 0.751858 0.000000
0.632013 0.746456 0.000000
0.694392 0.740749 0.000000
0.754543 0.734707 0.000000
0.811337 0.728603 0.000000
0.856870 0.715084 0.000000
0.884337 0.689448 0.033295
0.908232 0.665675 0.083986
0.929015 0.643977 0.116976
0.947387 0.624262 0.138827
0.964019 0.606683 0.156558
0.979461 0.591119 0.170871
0.993805 0.578698 0.182040
1.000000 0.569970 0.190280
1.000000 0.562554 0.198184
1.000000 0.556085 0.205661
1.000000 0.550530 0.212619
1.000000 0.545769 0.219516
1.000000 0.541711 0.226078
1.000000 0.538384 0.232639
1.000000 0.535546 0.238895
1.000000 0.533440 0.245548
1.000000 0.531792 0.252262
1.000000 0.530724 0.259342
0.211002 0.799954 0.013123
0.225864 0.799496 0.011658
0.243534 0.798825 0.010071
0.278172 0.797421 0.010040
0.324163 0.795132 0.005341
0.376867 0.792142 0.002716
0.433356 0.788602 0.000000
0.491859 0.784451 0.000000
0.551507 0.779843 0.000000
0.611353 0.774868 0.000000
0.670527 0.769619 0.000000
0.728084 0.764126 0.000000
0.783139 0.758389 0.000000
0.835080 0.752377 0.000000
0.876829 0.739712 0.025025
0.901396 0.714351 0.082582
0.922820 0.690669 0.108248
0.941588 0.669245 0.133516
0.958587 0.649958 0.153841
0.974365 0.632898 0.169863
0.989075 0.617823 0.183780
1.000000 0.604425 0.195560
1.000000 0.594781 0.204074
1.000000 0.587152 0.211215
1.000000 0.580438 0.218204
1.000000 0.574517 0.224765
1.000000 0.569329 0.231113
1.000000 0.564843 0.237369
1.000000 0.561059 0.243778
1.000000 0.557946 0.250248
1.000000 0.555535 0.257176
1.000000 0.553552 0.264134
0.233433 0.823697 0.076356
0.245029 0.823362 0.076661
0.259648 0.822690 0.076020
0.289189 0.821347 0.075013
0.329747 0.819181 0.074372
0.376623 0.816403 0.072450
0.427985 0.813107 0.071931
0.481910 0.809293 0.070527
0.537377 0.805142 0.069764
0.593683 0.800626 0.068635
0.649500 0.795895 0.068086
0.704433 0.790860 0.068391
0.757504 0.785550 0.069245
0.808133 0.779965 0.069215
0.855711 0.774075 0.070802
0.894347 0.762325 0.081758
0.916503 0.737423 0.108400
0.935882 0.714107 0.128359
0.953338 0.693111 0.148379
0.969390 0.674525 0.167300
0.984344 0.658015 0.182620
0.998291 0.643305 0.195560
1.000000 0.630091 0.206821
1.000000 0.618524 0.216739
1.000000 0.610712 0.223636
1.000000 0.603784 0.230137
1.000000 0.597711 0.236667
1.000000 0.592493 0.243351
1.000000 0.587945 0.249760
1.000000 0.584131 0.256626
1.000000 0.580987 0.263737
1.000000 0.578393 0.271305
0.253361 0.845212 0.102907
0.263493 0.844938 0.103090
0.275639 0.844419 0.102846
0.301091 0.843320 0.102602
0.336767 0.841520 0.102235
0.379187 0.839200 0.101534
0.425635 0.836423 0.100679
0.475319 0.833158 0.100282
0.527062 0.829435 0.100191
0.579522 0.825284 0.099580
0.632197 0.820706 0.099367
0.684199 0.815824 0.099336
0.734676 0.810575 0.099580
0.783413 0.805020 0.099886
0.829709 0.799283 0.100038
0.873289 0.793484 0.100374
0.909422 0.782895 0.107515
0.929778 0.758785 0.128511
0.947906 0.736294 0.146120
0.964630 0.716213 0.162570
0.979950 0.698512 0.180270
0.994171 0.682582 0.195285
1.000000 0.668238 0.207797
1.000000 0.655238 0.218692
1.000000 0.643488 0.228763
1.000000 0.634241 0.236820
1.000000 0.627161 0.243198
1.000000 0.621027 0.249790
1.000000 0.615686 0.256565
1.000000 0.610864 0.263157
1.000000 0.606775 0.270298
1.000000 0.603235 0.277592
0.272526 0.864408 0.124025
0.280339 0.864073 0.123720
0.291234 0.863584 0.123934
0.313054 0.862577 0.123476
0.344305 0.861021 0.123293
0.382147 0.858946 0.122927
0.424414 0.856443 0.122530
0.470008 0.853513 0.122042
0.517815 0.850095 0.121859
0.566827 0.846372 0.121523
0.616449 0.842252 0.121889
0.665736 0.837827 0.121859
0.714076 0.833066 0.122194
0.761013 0.828000 0.122591
0.806058 0.822629 0.122866
0.848661 0.817166 0.123293
0.888945 0.811673 0.124422
0.923186 0.802457 0.129397
0.942199 0.779355 0.146578
0.959319 0.757870 0.162020
0.975219 0.738430 0.175021
0.989715 0.721218 0.191989
1.000000 0.705715 0.206302
1.000000 0.691737 0.218723
1.000000 0.678889 0.229648
1.000000 0.667323 0.239658
1.000000 0.656733 0.248997
1.000000 0.649500 0.255802
1.000000 0.643305 0.262638
1.000000 0.637842 0.269688
1.000000 0.632929 0.276707
1.000000 0.628626 0.284184
0.291112 0.882475 0.142519
0.298314 0.882322 0.142641
0.313939 0.887266 0.149111
0.332647 0.886351 0.148836
0.359869 0.884855 0.148684
0.392950 0.882841 0.148165
0.431006 0.880369 0.147860
0.472206 0.877470 0.147127
0.516167 0.874205 0.146914
0.561700 0.870634 0.146944
0.607813 0.866758 0.146853
0.654108 0.862486 0.146944
0.699916 0.857877 0.146914
0.744686 0.852995 0.147036
0.787930 0.847898 0.147005
0.829343 0.842679 0.147189
0.868803 0.837491 0.147524
0.906004 0.832395 0.148287
0.938323 0.824430 0.151553
0.955871 0.801938 0.166537
0.971832 0.781094 0.179843
0.986664 0.762112 0.191684
1.000000 0.745052 0.206271
1.000000 0.729763 0.219913
1.000000 0.715694 0.231815
1.000000 0.702846 0.242313
1.000000 0.691066 0.251865
1.000000 0.680354 0.260838
1.000000 0.671473 0.268986
1.000000 0.665126 0.275944
1.000000 0.659510 0.283268
1.000000 0.654261 0.290654
0.311070 0.900847 0.160525
0.317601 0.901274 0.161379
0.326513 0.901610 0.161990
0.343633 0.901396 0.162814
0.368078 0.900603 0.163058
0.398260 0.899077 0.163302
0.432624 0.897002 0.162936
0.470558 0.894438 0.162692
0.511131 0.891600 0.162509
0.553246 0.888426 0.162387
0.596612 0.884916 0.162295
0.640314 0.881102 0.162356
0.683925 0.876951 0.162600
0.726741 0.872526 0.162478
0.768460 0.867887 0.162448
0.808774 0.863066 0.162600
0.847410 0.858244 0.162844
0.884184 0.853544 0.163272
0.919097 0.849088 0.164370
0.950103 0.842741 0.167147
0.966644 0.821134 0.180972
0.981811 0.801266 0.193484
0.995911 0.782925 0.204685
1.000000 0.766354 0.217563
1.000000 0.751369 0.231052
1.000000 0.737575 0.242679
1.000000 0.724971 0.253208
1.000000 0.713466 0.263157
1.000000 0.702998 0.272740
1.000000 0.693538 0.282322
1.000000 0.686458 0.290166
1.000000 0.680446 0.297612
0.327184 0.916716 0.174502
0.333257 0.917082 0.175448
0.340948 0.917357 0.176089
0.355993 0.917174 0.176638
0.377874 0.916472 0.177035
0.404822 0.915129 0.177096
0.436225 0.913268 0.177096
0.470771 0.911040 0.176699
0.508049 0.908507 0.176486
0.547356 0.905669 0.176394
0.587976 0.902556 0.176730
0.629267 0.899168 0.176761
0.670558 0.895445 0.176822
0.711513 0.891447 0.177035
0.751675 0.887236 0.177096
0.790707 0.882841 0.177157
0.828397 0.878416 0.177218
0.864561 0.874052 0.177768
0.899077 0.869902 0.178500
0.931884 0.866178 0.179812
0.961700 0.861418 0.182376
0.977142 0.840574 0.195651
0.991547 0.821378 0.207370
1.000000 0.803677 0.218082
1.000000 0.787289 0.229221
1.000000 0.772519 0.242374
1.000000 0.758938 0.254032
1.000000 0.746578 0.264866
1.000000 0.735317 0.275334
1.000000 0.725032 0.285527
1.000000 0.715358 0.295109
1.000000 0.706752 0.304387
0.343053 0.932250 0.187808
0.348486 0.932555 0.188479
0.355352 0.932830 0.189090
0.368750 0.932677 0.189670
0.388312 0.932036 0.190097
0.412634 0.930846 0.190188
0.440803 0.929229 0.190158
0.472389 0.927214 0.189914
0.506920 0.924895 0.189944
0.543420 0.922332 0.189914
0.581292 0.919524 0.189822
0.620203 0.916442 0.190036
0.659297 0.913085 0.190036
0.698360 0.909514 0.190311
0.737026 0.905730 0.190707
0.774807 0.901915 0.190829
0.811704 0.898070 0.191562
0.847318 0.894377 0.192325
0.881529 0.890929 0.193545
0.914244 0.887755 0.195377
0.945251 0.885008 0.197482
0.974151 0.882200 0.200473
0.988495 0.861784 0.213504
1.000000 0.843320 0.224918
1.000000 0.826108 0.235325
1.000000 0.810056 0.245121
1.000000 0.795621 0.258640
1.000000 0.782437 0.270817
1.000000 0.770321 0.282261
1.000000 0.759121 0.293095
1.000000 0.748714 0.303593
1.000000 0.739345 0.313695
0.362402 0.949432 0.203220
0.366674 0.949493 0.203494
0.372259 0.949432 0.203738
0.383734 0.949035 0.203952
0.400763 0.948272 0.204074
0.422553 0.947082 0.204105
0.448157 0.945586 0.204044
0.477150 0.943847 0.204044
0.508812 0.941863 0.204013
0.542840 0.939666 0.204135
0.578332 0.937255 0.204532
0.614984 0.934539 0.204898
0.652003 0.931548 0.205142
0.689082 0.928344 0.205386
0.725917 0.924926 0.205722
0.762264 0.921416 0.206180
0.797818 0.917937 0.206790
0.832425 0.914488 0.207462
0.865812 0.911223 0.208652
0.897887 0.908232 0.209995
0.928466 0.905486 0.211917
0.957458 0.903105 0.214084
0.984802 0.901122 0.216739
0.998047 0.881071 0.228885
1.000000 0.862913 0.239536
1.000000 0.846036 0.249546
1.000000 0.830228 0.259098
1.000000 0.816007 0.271672
1.000000 0.803067 0.284367
1.000000 0.790921 0.295995
1.000000 0.779873 0.307103
1.000000 0.770169 0.317601
0.378210 0.964111 0.215549
0.382086 0.964202 0.215885
0.387091 0.964172 0.216098
0.397406 0.963836 0.216403
0.412696 0.963104 0.216495
0.432136 0.962066 0.216464
0.455329 0.960723 0.216434
0.481575 0.959106 0.216159
0.510948 0.957275 0.216342
0.542443 0.955261 0.216556
0.575616 0.953063 0.216953
0.609949 0.950622 0.217319
0.644800 0.947967 0.217533
0.680232 0.945068 0.217990
0.715389 0.942107 0.218357
0.750362 0.938994 0.218875
0.784756 0.935882 0.219699
0.818387 0.932830 0.220554
0.851072 0.929900 0.222019
0.882567 0.927245 0.223667
0.912810 0.924834 0.225834
0.941619 0.922759 0.228244
0.968902 0.921019 0.231052
0.994659 0.919677 0.234104
1.000000 0.899260 0.243076
1.000000 0.881559 0.253330
1.000000 0.865049 0.263279
1.000000 0.849607 0.272953
1.000000 0.835386 0.284459
1.000000 0.822507 0.297215
1.000000 0.811002 0.309148
1.000000 0.800931 0.320531
0.397559 0.979919 0.230442
0.401007 0.980041 0.230930
0.405524 0.979980 0.231174
0.414527 0.979583 0.231235
0.427863 0.978851 0.231113
0.445075 0.977844 0.230900
0.465797 0.976501 0.230716
0.489601 0.974945 0.230503
0.516228 0.973144 0.230259
0.545068 0.971160 0.230106
0.575616 0.968963 0.230228
0.607385 0.966644 0.230411
0.640162 0.964141 0.230503
0.673396 0.961456 0.230747
0.706722 0.958556 0.230869
0.739956 0.955566 0.231205
0.772885 0.952544 0.231632
0.805264 0.949645 0.232456
0.837003 0.946960 0.233646
0.867887 0.944549 0.235386
0.897642 0.942443 0.237705
0.926177 0.940551 0.240177
0.953307 0.938933 0.242985
0.978912 0.937530 0.245975
1.000000 0.936431 0.248997
1.000000 0.918120 0.259281
1.000000 0.900725 0.269474
1.000000 0.884337 0.278996
1.000000 0.869017 0.288243
1.000000 0.854917 0.298619
1.000000 0.842741 0.311620
1.000000 0.832303 0.323857
0.413062 0.993469 0.242252
0.416327 0.993561 0.242710
0.420356 0.993500 0.242954
0.428351 0.993164 0.243107
0.440467 0.992523 0.243015
0.456031 0.991608 0.242893
0.474952 0.990448 0.242832
0.496834 0.989105 0.242710
0.521386 0.987579 0.242679
0.548211 0.985840 0.242863
0.576623 0.983978 0.243076
0.606653 0.981964 0.243442
0.637537 0.979767 0.243900
0.668940 0.977447 0.244175
0.700679 0.974945 0.244633
0.732418 0.972320 0.245151
0.764004 0.969696 0.245853
0.795224 0.967102 0.246830
0.825925 0.964721 0.248203
0.855924 0.962554 0.250034
0.885008 0.960601 0.252384
0.912963 0.958923 0.254978
0.939666 0.957458 0.257816
0.965057 0.956237 0.260807
0.989044 0.955261 0.264164
1.000000 0.954620 0.267613
1.000000 0.937072 0.277440
1.000000 0.919860 0.287327
1.000000 0.903899 0.296941
1.000000 0.889067 0.306493
1.000000 0.875608 0.316167
1.000000 0.864683 0.329381
0.430518 1.000000 0.255528
0.433417 1.000000 0.255772
0.436835 1.000000 0.255955
0.443854 1.000000 0.255924
0.454475 1.000000 0.255741
0.468360 1.000000 0.255589
0.485328 1.000000 0.255344
0.505241 1.000000 0.255192
0.527825 1.000000 0.255283
0.552483 0.999908 0.255436
0.579065 0.998230 0.255741
0.607080 0.996490 0.256291
0.636103 0.994598 0.256687
0.665919 0.992493 0.257450
0.695949 0.990295 0.257969
0.726131 0.987945 0.258579
0.756313 0.985595 0.259342
0.786252 0.983276 0.260319
0.815854 0.981109 0.261753
0.844877 0.979156 0.263645
0.873167 0.977417 0.265995
0.900542 0.975830 0.268803
0.926757 0.974517 0.271824
0.951781 0.973388 0.274968
0.975525 0.972473 0.278080
0.997986 0.971771 0.281529
1.000000 0.971435 0.285313
1.000000 0.954894 0.294469
1.000000 0.937835 0.304479
1.000000 0.922362 0.314305
1.000000 0.908354 0.324010
1.000000 0.896300 0.333928
0.447211 1.000000 0.268040
0.449714 1.000000 0.268376
0.452888 1.000000 0.268406
0.459083 1.000000 0.268437
0.468849 1.000000 0.268467
0.481788 1.000000 0.268650
0.497841 1.000000 0.268986
0.516686 1.000000 0.269596
0.538170 1.000000 0.270481
0.561608 1.000000 0.271550
0.586816 1.000000 0.272740
0.613306 1.000000 0.274022
0.640742 1.000000 0.275334
0.668910 1.000000 0.276646
0.697292 1.000000 0.277806
0.725765 1.000000 0.278752
0.754299 1.000000 0.279881
0.782681 1.000000 0.281132
0.810910 0.999237 0.282994
0.838621 0.997528 0.285069
0.865721 0.995941 0.287633
0.891966 0.994476 0.290440
0.917266 0.993194 0.293309
0.941466 0.992126 0.296452
0.964599 0.991241 0.299962
0.986603 0.990570 0.303532
1.000000 0.990204 0.307317
1.000000 0.990173 0.311650
1.000000 0.974670 0.320409
1.000000 0.957702 0.330205
1.000000 0.942901 0.340002
1.000000 0.930114 0.349584
0.471290 1.000000 0.286198
0.473365 1.000000 0.286351
0.476020 1.000000 0.286473
0.481453 1.000000 0.286381
0.489906 1.000000 0.286229
0.501183 1.000000 0.286259
0.515129 1.000000 0.286290
0.531731 1.000000 0.286564
0.550683 1.000000 0.286992
0.571862 1.000000 0.287816
0.594537 1.000000 0.288518
0.618708 1.000000 0.289403
0.643946 1.000000 0.290410
0.670008 1.000000 0.291508
0.696498 1.000000 0.292546
0.723415 1.000000 0.293706
