其他预设/【232】美食博客调色预设124款/1.3D LUT预设（视频调色-PR-AE-PS-FCPX-达芬奇用）/Yummy #19 ().cube
# Created by Adobe Lightroom plugin Export LUT (1.17.0)
# www.johnrellis.com/lightroom/exportlut.htm
# Preset: Yummy #19 (素锦印象)
# Color profile: /Library/Application Support/Adobe/Color/Profiles/Recommended/AdobeRGB1998.icc
LUT_3D_SIZE 8
DOMAIN_MIN 0.000000 0.000000 0.000000
DOMAIN_MAX 0.903226 0.903226 0.903226
0.125612 0.156985 0.178531
0.125612 0.156985 0.178531
0.128084 0.158724 0.180301
0.136172 0.165408 0.186618
0.157473 0.182376 0.202945
0.225559 0.236149 0.254826
0.384039 0.366491 0.385870
0.590875 0.565759 0.587976
0.125612 0.156985 0.178531
0.125612 0.156985 0.178531
0.127565 0.158511 0.179965
0.134371 0.163943 0.185245
0.152804 0.178622 0.199405
0.207614 0.221988 0.241062
0.353002 0.322271 0.341924
0.574304 0.518822 0.541680
0.125673 0.159548 0.178836
0.125673 0.159548 0.178836
0.130861 0.159335 0.178500
0.142947 0.161440 0.181979
0.170626 0.171908 0.192569
0.256687 0.201572 0.222721
0.467018 0.293950 0.315801
0.664668 0.500847 0.517967
0.123171 0.176089 0.179660
0.123354 0.175387 0.179599
0.131075 0.175540 0.178134
0.179232 0.186191 0.176394
0.266087 0.192355 0.174441
0.378119 0.197482 0.185275
0.558648 0.243565 0.227970
0.726986 0.405585 0.377783
0.105287 0.239109 0.180789
0.105806 0.238071 0.180545
0.126436 0.244358 0.172580
0.202213 0.259709 0.169070
0.317723 0.270970 0.162112
0.411994 0.259800 0.156741
0.594965 0.289158 0.148989
0.773068 0.377142 0.206058
0.000000 0.389258 0.190097
0.000000 0.415503 0.183047
0.000000 0.426856 0.141787
0.231113 0.446845 0.129122
0.389563 0.445106 0.115785
0.563470 0.465583 0.071656
0.667903 0.453651 0.011536
0.818051 0.495857 0.000000
0.000000 0.656641 0.209445
0.000000 0.666285 0.191806
0.000000 0.669520 0.042908
0.167391 0.680903 0.000000
0.453712 0.683040 0.000000
0.622766 0.677302 0.000000
0.767788 0.677455 0.000000
0.834257 0.634394 0.000000
0.000000 0.864561 0.265812
0.000000 0.865049 0.242405
0.000000 0.870695 0.093355
0.000000 0.880247 0.000000
0.435950 0.853971 0.000000
0.650996 0.850523 0.000000
0.802426 0.844236 0.000000
0.904570 0.813382 0.000000
0.125612 0.156985 0.178531
0.125612 0.156985 0.178531
0.127260 0.158083 0.179751
0.133303 0.163088 0.184512
0.150362 0.176761 0.197665
0.198337 0.214694 0.234043
0.325994 0.310216 0.328923
0.539574 0.500481 0.523003
0.125612 0.156985 0.178531
0.125612 0.156985 0.178531
0.127077 0.158114 0.179629
0.133028 0.162844 0.184176
0.148928 0.175540 0.196475
0.194095 0.208682 0.228336
0.310216 0.282780 0.302312
0.519219 0.453864 0.476722
0.125551 0.159274 0.178714
0.125490 0.159274 0.178836
0.130007 0.159304 0.178531
0.141360 0.160830 0.181094
0.165988 0.168765 0.189303
0.229160 0.190616 0.211276
0.379278 0.250584 0.272862
0.600855 0.425513 0.444831
0.123476 0.172946 0.179568
0.123476 0.172946 0.179568
0.130983 0.173770 0.178256
0.163333 0.177798 0.177279
0.217807 0.180179 0.176730
0.296056 0.184878 0.184939
0.453376 0.212375 0.214267
0.662715 0.342687 0.328435
0.106203 0.231479 0.185611
0.107637 0.229465 0.184665
0.122805 0.232975 0.174502
0.183749 0.237400 0.172366
0.270512 0.242069 0.168185
0.363378 0.239780 0.162936
0.542809 0.264042 0.156558
0.735805 0.345403 0.198215
0.000000 0.357794 0.198550
0.000000 0.361578 0.193240
0.000000 0.374548 0.157168
0.200320 0.399634 0.146029
0.355688 0.411597 0.132174
0.539910 0.444953 0.091371
0.646479 0.436225 0.062104
0.795529 0.475196 0.000000
0.000000 0.601892 0.221927
0.000000 0.597803 0.207431
0.000000 0.609583 0.132418
0.115724 0.637537 0.000000
0.424598 0.655390 0.000000
0.594812 0.648554 0.000000
0.738766 0.647517 0.000000
0.807401 0.607050 0.000000
0.000000 0.844358 0.281804
0.000000 0.847776 0.263554
0.000000 0.855955 0.159182
0.000000 0.869718 0.000000
0.433173 0.867247 0.000000
0.650629 0.855222 0.000000
0.796536 0.840452 0.000000
0.896880 0.806973 0.000000
0.125826 0.158236 0.180728
0.125887 0.158083 0.180606
0.127260 0.158083 0.179751
0.133150 0.162966 0.184390
0.149844 0.176455 0.197147
0.206760 0.221347 0.240452
0.366461 0.297826 0.319219
0.575921 0.504387 0.527337
0.125887 0.158083 0.180606
0.125948 0.157931 0.180484
0.127077 0.158114 0.179629
0.132540 0.162478 0.183841
0.150271 0.176638 0.197452
0.207919 0.210147 0.230259
0.357397 0.274571 0.296361
0.572320 0.472175 0.495064
0.125246 0.159792 0.181582
0.125063 0.159670 0.181460
0.128939 0.160067 0.181613
0.138857 0.163943 0.185275
0.171908 0.174197 0.194888
0.245731 0.193973 0.214176
0.403845 0.240360 0.261295
0.614984 0.414405 0.431037
0.121309 0.173861 0.187045
0.121218 0.173983 0.187259
0.126314 0.177798 0.185031
0.165499 0.181277 0.181033
0.224613 0.182620 0.180423
0.314397 0.190799 0.188998
0.484474 0.219516 0.212192
0.685328 0.350378 0.324895
0.101534 0.226932 0.201755
0.101808 0.227787 0.201694
0.110933 0.236973 0.192355
0.177707 0.250889 0.177859
0.284703 0.253849 0.171542
0.372534 0.243198 0.164675
0.549706 0.270207 0.157351
0.741665 0.351476 0.190646
0.000000 0.348363 0.228367
0.000000 0.352605 0.225406
0.000000 0.365637 0.203616
0.146548 0.388495 0.160250
0.328405 0.401434 0.147341
0.513939 0.424628 0.116701
0.628016 0.419013 0.086519
0.796414 0.479835 0.000000
0.000000 0.600824 0.284672
0.000000 0.600000 0.273442
0.000000 0.605310 0.224552
0.000000 0.628229 0.067170
0.377050 0.646265 0.000000
0.580621 0.647700 0.000000
0.745449 0.657252 0.000000
0.823484 0.625452 0.000000
0.000000 0.836942 0.361334
0.000000 0.835538 0.345312
0.000000 0.840970 0.279789
0.000000 0.866148 0.000000
0.361120 0.865263 0.000000
0.631434 0.856779 0.000000
0.790921 0.843198 0.000000
0.900114 0.812009 0.000000
0.125093 0.162173 0.189059
0.125032 0.162325 0.189181
0.127016 0.161715 0.187594
0.133028 0.162844 0.184176
0.150149 0.176547 0.197360
0.199313 0.215457 0.234745
0.317235 0.312078 0.330175
0.518334 0.515190 0.536492
0.124788 0.162631 0.189731
0.124849 0.162478 0.189609
0.127138 0.162264 0.188235
0.134066 0.163699 0.185031
0.152377 0.178408 0.199100
0.200076 0.216159 0.235386
0.313664 0.309056 0.327092
0.515282 0.511650 0.532952
0.122469 0.164858 0.191745
0.122530 0.165011 0.191501
0.125765 0.164889 0.192142
0.139864 0.168215 0.189425
0.163790 0.187472 0.207889
0.226902 0.237308 0.255894
0.373846 0.363012 0.381903
0.587030 0.507103 0.529747
0.118196 0.175784 0.198032
0.118349 0.175631 0.197726
0.122499 0.177401 0.199466
0.151431 0.181369 0.203128
0.192844 0.198367 0.218448
0.276585 0.222690 0.241733
0.441321 0.275181 0.292760
0.657801 0.410742 0.413825
0.088533 0.225101 0.229099
0.090364 0.224125 0.227878
0.097902 0.230716 0.226902
0.137819 0.250492 0.216983
0.277379 0.257633 0.198825
0.381262 0.239414 0.188754
0.547723 0.267735 0.205753
0.733608 0.366400 0.266056
0.000000 0.347509 0.279728
0.000000 0.364233 0.286412
0.000000 0.371496 0.273655
0.021241 0.400671 0.235264
0.304265 0.433509 0.181186
0.517021 0.434668 0.153506
0.617762 0.398260 0.121859
0.792081 0.459174 0.091096
0.000000 0.577417 0.367193
0.000000 0.584375 0.364263
0.000000 0.603510 0.342748
0.000000 0.638178 0.265324
0.264225 0.669215 0.111421
0.567926 0.670710 0.000000
0.744442 0.660914 0.000000
0.819455 0.612634 0.000000
0.000000 0.833463 0.481849
0.000000 0.836393 0.474403
0.000000 0.842344 0.434058
0.000000 0.856291 0.325505
0.098512 0.867033 0.000000
0.587976 0.860746 0.000000
0.774868 0.846006 0.000000
0.900175 0.814633 0.000000
0.118776 0.172915 0.212894
0.118654 0.173037 0.213077
0.120729 0.172488 0.211795
0.138705 0.174411 0.207004
0.157351 0.182254 0.202823
0.200290 0.216220 0.235538
0.314641 0.309880 0.327947
0.514366 0.510521 0.531853
0.116945 0.173861 0.214420
0.116579 0.174258 0.215061
0.120180 0.174807 0.215396
0.139803 0.176547 0.210361
0.159976 0.184360 0.204898
0.204074 0.219272 0.238437
0.320592 0.315007 0.333104
0.517266 0.513970 0.535302
0.112245 0.177768 0.217807
0.112184 0.178042 0.217777
0.115846 0.178256 0.219730
0.141176 0.183078 0.221225
0.169131 0.191562 0.211765
0.212161 0.225589 0.244541
0.330236 0.323461 0.341650
0.517571 0.514305 0.535637
0.104189 0.191806 0.227390
0.104646 0.191440 0.226688
0.108919 0.192874 0.229892
0.132448 0.195010 0.237034
0.195132 0.212192 0.231540
0.248234 0.254520 0.272770
0.373938 0.363104 0.381994
0.552300 0.556176 0.577447
0.086030 0.218845 0.242191
0.086427 0.219242 0.242405
0.092561 0.222324 0.245396
0.120607 0.230167 0.252934
0.212802 0.238315 0.260716
0.307378 0.278599 0.297154
0.463172 0.335729 0.352697
0.657496 0.457252 0.463020
0.000000 0.302647 0.296971
0.000000 0.304356 0.297734
0.000000 0.308690 0.298863
0.000000 0.327123 0.301976
0.164034 0.361883 0.274083
0.448829 0.393591 0.238834
0.591180 0.357214 0.200076
0.764370 0.429633 0.250584
0.000000 0.524956 0.433051
0.000000 0.524865 0.429358
0.000000 0.534722 0.421057
0.000000 0.566857 0.401862
0.000000 0.618189 0.316716
0.481392 0.653864 0.206332
0.713100 0.637232 0.139712
0.789670 0.562707 0.000000
0.000000 0.787900 0.571588
0.000000 0.787869 0.567132
0.000000 0.793240 0.547478
0.000000 0.825925 0.512291
0.000000 0.847349 0.376013
0.442878 0.855100 0.174197
0.732998 0.841672 0.082856
0.887053 0.807279 0.000000
0.077790 0.204196 0.281590
0.077852 0.204013 0.280735
0.085420 0.202731 0.277501
0.117037 0.209262 0.288151
0.203983 0.231662 0.277653
0.225864 0.236576 0.255192
0.328405 0.321843 0.340032
0.519860 0.516991 0.538323
0.081086 0.201572 0.273991
0.081910 0.201022 0.272862
0.085298 0.202609 0.275486
0.117647 0.207919 0.283513
0.198581 0.228000 0.274693
0.224735 0.235752 0.254307
0.326513 0.320195 0.338354
0.517327 0.514031 0.535363
0.055299 0.211429 0.286015
0.059174 0.210575 0.284184
0.067659 0.210971 0.287083
0.112062 0.221469 0.303227
0.201999 0.238437 0.295445
0.245060 0.251926 0.270237
0.346715 0.338140 0.356573
0.532464 0.532036 0.553429
0.000000 0.233127 0.302342
0.000000 0.231479 0.299321
0.007385 0.231510 0.303044
0.072938 0.235721 0.321324
0.209140 0.266880 0.344579
0.300481 0.297704 0.315709
0.397894 0.385870 0.405310
0.568750 0.576501 0.597681
0.000000 0.259770 0.312902
0.000000 0.259892 0.312932
0.000000 0.262211 0.317784
0.000000 0.266636 0.329442
0.151095 0.267918 0.343816
0.334234 0.327001 0.345312
0.429145 0.416968 0.437049
0.587243 0.599695 0.620661
0.000000 0.306462 0.334813
0.000000 0.310765 0.339178
0.000000 0.316045 0.344488
0.000000 0.326024 0.354620
0.098695 0.340185 0.368444
0.352850 0.371862 0.399878
0.522545 0.467475 0.487861
0.687312 0.571160 0.582300
0.000000 0.495613 0.479438
0.000000 0.502831 0.485512
0.000000 0.513634 0.492317
0.000000 0.534325 0.503441
0.000000 0.568505 0.508934
0.271397 0.623377 0.443000
0.678920 0.633448 0.362829
0.784726 0.528588 0.221012
0.000000 0.754635 0.660883
0.000000 0.753231 0.657893
0.000000 0.756497 0.649836
0.000000 0.777127 0.639124
0.000000 0.804257 0.597253
0.000000 0.836454 0.468025
0.659327 0.842130 0.357000
0.870298 0.804990 0.247593
0.000000 0.270146 0.420813
0.000000 0.271366 0.422980
0.000000 0.270939 0.421637
0.000000 0.282658 0.444160
0.146578 0.293492 0.443610
0.373846 0.372961 0.418036
0.357488 0.347814 0.366430
0.510033 0.505425 0.526757
0.000000 0.265721 0.409186
0.000000 0.266484 0.410559
0.000000 0.266728 0.410773
0.000000 0.278141 0.432105
0.142336 0.287877 0.432868
0.359045 0.360693 0.408759
0.347875 0.339178 0.357610
0.496529 0.489784 0.510979
0.000000 0.273289 0.414923
0.000000 0.272404 0.413123
0.000000 0.272374 0.413733
0.000000 0.285801 0.439094
0.133364 0.299290 0.449042
0.360571 0.370184 0.434394
0.375708 0.364752 0.383703
0.521782 0.519280 0.540612
0.000000 0.301701 0.436622
0.000000 0.298894 0.431861
0.000000 0.294499 0.428321
0.000000 0.292302 0.439796
0.102113 0.323003 0.478645
0.362097 0.390814 0.483558
0.423926 0.411627 0.431586
0.550988 0.554589 0.575891
0.000000 0.335088 0.448524
0.000000 0.332555 0.444678
0.000000 0.328252 0.441291
0.000000 0.324468 0.448188
0.000000 0.316869 0.460853
0.320684 0.389868 0.509392
0.460700 0.449989 0.470710
0.574945 0.584283 0.605371
0.000000 0.392737 0.477241
0.000000 0.391913 0.475959
0.000000 0.391577 0.477028
0.000000 0.394171 0.486305
0.000000 0.394141 0.499702
0.186587 0.395697 0.525200
0.535271 0.535424 0.556817
0.624231 0.646418 0.666621
0.000000 0.482582 0.524498
0.000000 0.483680 0.525200
0.000000 0.486488 0.527611
0.000000 0.495644 0.536522
0.000000 0.507286 0.547356
0.000000 0.530144 0.568383
0.537377 0.575647 0.608331
0.694362 0.673884 0.691127
0.000000 0.693263 0.672175
0.000000 0.694514 0.672816
0.000000 0.707485 0.682734
0.000000 0.729397 0.697139
0.000000 0.754177 0.708675
0.000000 0.785031 0.707820
0.455116 0.818631 0.631373
0.826017 0.806363 0.563012
0.000000 0.412177 0.665461
0.000000 0.412634 0.665888
0.000000 0.407477 0.658106
0.000000 0.421302 0.675532
0.000000 0.434852 0.683528
0.357885 0.485847 0.677119
0.606683 0.624170 0.644800
0.553521 0.557702 0.579004
0.000000 0.407782 0.656977
0.000000 0.408301 0.657465
0.000000 0.404303 0.651514
0.000000 0.416175 0.667323
0.000000 0.431830 0.678401
0.348638 0.480903 0.673548
0.603784 0.620569 0.641230
0.549981 0.553307 0.574640
0.000000 0.408331 0.650050
0.000000 0.407782 0.649195
0.000000 0.401709 0.640253
0.000000 0.416968 0.663874
0.000000 0.439521 0.682368
0.333989 0.482124 0.679164
0.605127 0.625605 0.653742
0.560204 0.565972 0.587213
0.000000 0.425208 0.654505
0.000000 0.425788 0.654994
0.000000 0.420630 0.647639
0.000000 0.417487 0.653895
0.000000 0.449439 0.686580
0.308690 0.492927 0.696864
0.599084 0.630701 0.683589
0.585077 0.596918 0.617914
0.000000 0.467506 0.666041
0.000000 0.468147 0.667323
0.000000 0.461830 0.662013
0.000000 0.450385 0.659083
0.000000 0.434241 0.663630
0.226688 0.495674 0.704524
0.575189 0.624598 0.711177
0.617334 0.637690 0.658045
0.000000 0.528344 0.684932
0.000000 0.525689 0.682429
0.000000 0.518181 0.675654
0.000000 0.508141 0.670863
0.000000 0.492500 0.674556
0.000000 0.475319 0.689723
0.539330 0.627680 0.748562
0.667872 0.701167 0.719936
0.000000 0.613886 0.717372
0.000000 0.612421 0.715999
0.000000 0.607691 0.711788
0.000000 0.603235 0.709407
0.000000 0.598016 0.713710
0.000000 0.588251 0.722805
0.300084 0.577050 0.737514
0.708400 0.750149 0.767178
0.000000 0.714168 0.752834
0.000000 0.713619 0.752132
0.000000 0.712612 0.750332
0.000000 0.712734 0.749050
0.000000 0.717617 0.752712
0.000000 0.725429 0.758663
0.145235 0.738399 0.769680
0.713405 0.776852 0.798734
