其他预设/【232】美食博客调色预设124款/1.3D LUT预设（视频调色-PR-AE-PS-FCPX-达芬奇用）/Yummy #12.cube
# Created by Adobe Lightroom plugin Export LUT (1.17.0)
# www.johnrellis.com/lightroom/exportlut.htm
# Preset: Yummy #12
# Color profile: /Library/Application Support/Adobe/Color/Profiles/Recommended/AdobeRGB1998.icc
LUT_3D_SIZE 5
DOMAIN_MIN 0.000000 0.000000 0.000000
DOMAIN_MAX 0.903226 0.903226 0.903226
0.063355 0.119814 0.145022
0.294621 0.156405 0.163272
0.700374 0.194949 0.198367
0.954803 0.233921 0.266667
1.000000 0.303563 0.345403
0.000000 0.356909 0.173678
0.277562 0.361028 0.181521
0.686213 0.396704 0.214145
0.947326 0.380041 0.277165
1.000000 0.389441 0.352392
0.000000 0.702235 0.239536
0.297398 0.700099 0.242344
0.659876 0.686244 0.249638
0.925475 0.633967 0.302159
1.000000 0.580255 0.371862
0.116548 0.907042 0.324834
0.307622 0.903288 0.326421
0.597223 0.889067 0.331090
0.876555 0.864866 0.339635
1.000000 0.789334 0.394781
0.351202 1.000000 0.410315
0.417395 1.000000 0.411261
0.589715 0.995331 0.415045
0.794308 0.980591 0.422309
0.986206 0.964324 0.435340
0.000000 0.136324 0.379248
0.260807 0.170199 0.380072
0.670710 0.204471 0.402991
0.936675 0.303075 0.424109
1.000000 0.393835 0.451514
0.000000 0.339483 0.370428
0.262089 0.361975 0.382971
0.660639 0.392767 0.400610
0.931212 0.413703 0.423072
1.000000 0.455238 0.451972
0.000000 0.693019 0.397620
0.290623 0.687129 0.397406
0.648463 0.676478 0.395056
0.914427 0.640223 0.419684
1.000000 0.612543 0.453559
0.223178 0.899779 0.417456
0.367864 0.894926 0.422950
0.618036 0.882139 0.422675
0.876341 0.861021 0.423194
1.000000 0.800076 0.457191
0.460517 0.998840 0.464454
0.507897 0.996612 0.464912
0.644129 0.988861 0.466835
0.818814 0.976318 0.471565
0.989349 0.963134 0.482734
0.084810 0.172763 0.571984
0.326482 0.193454 0.573175
0.679988 0.213535 0.569238
0.928069 0.355901 0.547265
1.000000 0.552575 0.564080
0.000000 0.358892 0.551904
0.302739 0.369604 0.556573
0.671443 0.393866 0.560693
0.917540 0.488777 0.551751
1.000000 0.622797 0.580072
0.015717 0.663966 0.544884
0.325078 0.667597 0.544823
0.681453 0.681239 0.551629
0.900328 0.686854 0.559930
1.000000 0.711971 0.582635
0.325689 0.890929 0.525353
0.470893 0.882383 0.534203
0.706447 0.865049 0.556634
0.885618 0.853849 0.555840
1.000000 0.833768 0.585992
0.551507 0.990570 0.543206
0.632288 0.983734 0.563012
0.763821 0.972564 0.594659
0.874693 0.966155 0.601129
0.993805 0.960876 0.615991
0.208530 0.229709 0.741726
0.355200 0.245151 0.741909
0.650050 0.297917 0.746822
0.920775 0.377264 0.723537
1.000000 0.564904 0.673518
0.234379 0.384131 0.723079
0.370245 0.395117 0.725338
0.657801 0.440742 0.733852
0.912810 0.499763 0.717464
1.000000 0.631647 0.685756
0.253666 0.615320 0.695094
0.392798 0.621088 0.690639
0.688624 0.671626 0.702205
0.899687 0.713924 0.713619
1.000000 0.767971 0.721675
0.392248 0.869444 0.701778
0.504906 0.865568 0.700923
0.731075 0.854978 0.702876
0.896788 0.857969 0.723049
0.992523 0.867887 0.747555
0.621851 0.982544 0.676265
0.682307 0.977173 0.688960
0.811429 0.965148 0.725246
0.910857 0.959411 0.758785
0.990753 0.961242 0.774441
0.262669 0.320775 0.921386
0.368078 0.338170 0.920378
0.601770 0.398657 0.916899
0.847745 0.516503 0.913878
1.000000 0.612879 0.885313
0.351629 0.452888 0.912718
0.435889 0.466682 0.912016
0.643061 0.516533 0.909667
0.862181 0.608209 0.909850
1.000000 0.676692 0.886564
0.483040 0.650538 0.890929
0.576165 0.675715 0.889311
0.739742 0.718898 0.890105
0.890379 0.767666 0.898863
0.994049 0.799039 0.890562
0.547265 0.815244 0.884489
0.616480 0.822019 0.882994
0.761410 0.837369 0.877592
0.902159 0.871031 0.887083
0.986847 0.898680 0.902495
0.690974 0.981231 0.902098
0.735439 0.978790 0.903075
0.832486 0.972290 0.904082
0.925139 0.968231 0.911315
0.988464 0.975250 0.938170
