其他预设/【232】美食博客调色预设124款/1.3D LUT预设（视频调色-PR-AE-PS-FCPX-达芬奇用）/Yummy #13.cube
# Created by Adobe Lightroom plugin Export LUT (1.17.0)
# www.johnrellis.com/lightroom/exportlut.htm
# Preset: Yummy #13
# Color profile: /Library/Application Support/Adobe/Color/Profiles/Recommended/AdobeRGB1998.icc
LUT_3D_SIZE 5
DOMAIN_MIN 0.000000 0.000000 0.000000
DOMAIN_MAX 0.903226 0.903226 0.903226
0.000000 0.000000 0.000000
0.361273 0.019501 0.000000
0.754299 0.000000 0.000000
0.974517 0.000000 0.000000
1.000000 0.073823 0.000885
0.000000 0.354528 0.000000
0.328740 0.345403 0.000000
0.714321 0.353338 0.000000
0.958068 0.313420 0.000000
1.000000 0.275212 0.019867
0.000000 0.699855 0.000000
0.318608 0.692164 0.000000
0.686000 0.688350 0.000000
0.923796 0.610437 0.000000
1.000000 0.522820 0.000000
0.000000 0.899290 0.000000
0.274388 0.896239 0.000000
0.582361 0.881865 0.000000
0.854124 0.851102 0.000000
1.000000 0.763424 0.000000
0.050416 1.000000 0.098878
0.253147 1.000000 0.096620
0.493233 0.990448 0.059907
0.735836 0.975860 0.085389
0.961975 0.955230 0.100740
0.000000 0.000000 0.317266
0.321477 0.000000 0.320531
0.708003 0.000000 0.295323
0.940887 0.000000 0.261723
1.000000 0.062593 0.248661
0.000000 0.315557 0.301030
0.308080 0.326268 0.303746
0.688899 0.301854 0.269535
0.929900 0.283543 0.253941
1.000000 0.267247 0.245518
0.000000 0.671839 0.284764
0.282383 0.666438 0.268437
0.647578 0.651148 0.258366
0.899596 0.589380 0.234318
1.000000 0.518975 0.235660
0.000000 0.889189 0.252384
0.283207 0.885771 0.259129
0.580926 0.872526 0.256565
0.847776 0.843748 0.241062
1.000000 0.760342 0.232975
0.159152 1.000000 0.260838
0.285405 1.000000 0.259159
0.513085 0.991363 0.259953
0.743526 0.975677 0.259953
0.963470 0.955627 0.261601
0.096071 0.000000 0.578851
0.338659 0.000000 0.583551
0.680903 0.000000 0.578759
0.918059 0.000000 0.520134
1.000000 0.225895 0.476661
0.000000 0.292851 0.546105
0.295689 0.289860 0.556115
0.670405 0.293858 0.566918
0.905150 0.303838 0.513664
1.000000 0.362463 0.486946
0.000000 0.618891 0.529046
0.266484 0.621302 0.528679
0.639948 0.632105 0.535973
0.878599 0.588922 0.501823
1.000000 0.549371 0.476631
0.000000 0.861936 0.481514
0.289677 0.854643 0.480995
0.603754 0.844236 0.504723
0.840208 0.828733 0.496925
1.000000 0.759121 0.460121
0.182376 0.991241 0.434089
0.336645 0.987915 0.448249
0.571710 0.977935 0.480446
0.765194 0.965118 0.477852
0.960998 0.948333 0.471839
0.133303 0.000000 0.778592
0.312749 0.000000 0.779477
0.606348 0.000000 0.787778
0.883665 0.000000 0.764279
1.000000 0.268864 0.671931
0.000000 0.258671 0.757961
0.288426 0.261265 0.760403
0.596033 0.282811 0.770596
0.872129 0.303410 0.751888
1.000000 0.375341 0.672084
0.000000 0.530602 0.710964
0.226200 0.525566 0.706722
0.574151 0.558801 0.722103
0.842649 0.583551 0.723598
0.997162 0.588403 0.681605
0.000000 0.814237 0.704860
0.254978 0.811063 0.701656
0.566796 0.806668 0.700984
0.825376 0.807462 0.713161
0.980468 0.772244 0.683223
0.193881 0.976379 0.630610
0.329351 0.973053 0.634241
0.579553 0.962890 0.655543
0.798062 0.950713 0.693446
0.957885 0.941588 0.694057
0.088594 0.000000 0.927916
0.259892 0.000000 0.926604
0.507561 0.000000 0.924651
0.763119 0.099611 0.923217
0.987610 0.156374 0.897642
0.000000 0.218601 0.917998
0.238712 0.218631 0.917174
0.501366 0.227420 0.916320
0.759670 0.271641 0.915435
0.982422 0.298131 0.892363
0.000000 0.452522 0.891356
0.146548 0.453040 0.891844
0.485817 0.473274 0.892454
0.753323 0.513542 0.895964
0.969512 0.542748 0.883330
0.000000 0.697108 0.867216
0.000000 0.692439 0.864347
0.413092 0.682277 0.858396
0.741421 0.724849 0.868223
0.954070 0.774990 0.879606
0.000000 0.946777 0.863828
0.130770 0.944945 0.862638
0.481086 0.940002 0.862486
0.751339 0.931090 0.864225
0.944305 0.932982 0.885924
