其他预设/【232】美食博客调色预设124款/1.3D LUT预设（视频调色-PR-AE-PS-FCPX-达芬奇用）/Yummy #18 ().cube
# Created by Adobe Lightroom plugin Export LUT (1.17.0)
# www.johnrellis.com/lightroom/exportlut.htm
# Preset: Yummy #18 (素锦印象)
# Color profile: /Library/Application Support/Adobe/Color/Profiles/Recommended/AdobeRGB1998.icc
LUT_3D_SIZE 32
0.099489 0.105562 0.102388
0.105776 0.106050 0.102174
0.113497 0.106203 0.101930
0.131807 0.107301 0.101259
0.157839 0.108888 0.100069
0.188754 0.111666 0.098207
0.225040 0.115511 0.095460
0.267765 0.121004 0.091310
0.319677 0.128176 0.084657
0.380926 0.137453 0.073671
0.448219 0.148348 0.052491
0.516014 0.160922 0.000000
0.579644 0.174044 0.000000
0.634424 0.187686 0.000000
0.677913 0.200290 0.000000
0.711543 0.210636 0.000000
0.739010 0.219577 0.000000
0.768734 0.229221 0.000000
0.790890 0.236515 0.000000
0.809964 0.242527 0.000000
0.827634 0.247593 0.000000
0.844572 0.251865 0.000000
0.861051 0.255558 0.000000
0.877592 0.258793 0.000000
0.894652 0.261448 0.000000
0.912688 0.264073 0.000000
0.932067 0.266667 0.000000
0.952819 0.269139 0.000000
0.974853 0.271458 0.000000
0.998047 0.273564 0.000000
1.000000 0.275212 0.000000
1.000000 0.276158 0.000000
0.100679 0.108980 0.103944
0.105226 0.109957 0.103273
0.113985 0.110201 0.101564
0.131960 0.111757 0.100832
0.157748 0.113802 0.099611
0.187961 0.116640 0.097780
0.223453 0.120607 0.095033
0.265354 0.126314 0.090883
0.316045 0.133516 0.084382
0.376287 0.142947 0.073579
0.442451 0.154208 0.052857
0.509697 0.166323 0.000000
0.573144 0.179660 0.000000
0.628565 0.192996 0.000000
0.672999 0.204837 0.000000
0.707332 0.215183 0.000000
0.735866 0.223484 0.000000
0.765042 0.232181 0.000000
0.786984 0.239292 0.000000
0.805997 0.244846 0.000000
0.823575 0.249607 0.000000
0.840421 0.253422 0.000000
0.856840 0.256962 0.000000
0.873320 0.259892 0.000000
0.890257 0.262516 0.000000
0.908263 0.265141 0.000000
0.927794 0.267369 0.000000
0.948669 0.269963 0.000000
0.970977 0.272190 0.000000
0.994415 0.274327 0.000000
1.000000 0.276005 0.000000
1.000000 0.277012 0.000000
0.102754 0.113008 0.106050
0.106386 0.113832 0.105440
0.112520 0.115175 0.104219
0.132357 0.117525 0.100282
0.157656 0.119966 0.099001
0.187320 0.122988 0.097139
0.221988 0.127230 0.094423
0.263035 0.132815 0.090303
0.312749 0.140627 0.083742
0.371893 0.150362 0.072999
0.437659 0.161776 0.051759
0.504845 0.174166 0.000000
0.568536 0.187076 0.000000
0.624475 0.200168 0.000000
0.669429 0.211734 0.000000
0.704585 0.220951 0.000000
0.733974 0.229343 0.000000
0.762722 0.237369 0.000000
0.784604 0.243503 0.000000
0.803616 0.248875 0.000000
0.821286 0.253086 0.000000
0.838163 0.256626 0.000000
0.854551 0.259739 0.000000
0.871000 0.262486 0.000000
0.887907 0.264927 0.000000
0.905913 0.267002 0.000000
0.925414 0.269474 0.000000
0.946410 0.271885 0.000000
0.968872 0.274022 0.000000
0.992432 0.276219 0.000000
1.000000 0.277745 0.000000
1.000000 0.278782 0.000000
0.106874 0.122255 0.110872
0.110567 0.123171 0.110262
0.115541 0.124117 0.108919
0.128817 0.127291 0.105989
0.156435 0.131807 0.098970
0.187472 0.135378 0.095705
0.221378 0.139925 0.092897
0.261692 0.146242 0.088563
0.310216 0.154391 0.081819
0.368261 0.165042 0.070649
0.432959 0.176974 0.046174
0.499428 0.189822 0.000000
0.562524 0.203098 0.000000
0.618830 0.215396 0.000000
0.664820 0.225589 0.000000
0.700740 0.234043 0.000000
0.731746 0.241459 0.000000
0.759670 0.248264 0.000000
0.781155 0.253300 0.000000
0.799893 0.257389 0.000000
0.817350 0.260746 0.000000
0.834104 0.263706 0.000000
0.850645 0.266178 0.000000
0.867521 0.268559 0.000000
0.885161 0.270726 0.000000
0.903929 0.272862 0.000000
0.924132 0.275029 0.000000
0.945586 0.277440 0.000000
0.968200 0.279423 0.000000
0.991730 0.281224 0.000000
1.000000 0.282628 0.000000
1.000000 0.283452 0.000000
0.111788 0.133944 0.116518
0.115297 0.134768 0.115938
0.120241 0.135775 0.114687
0.129488 0.137545 0.112123
0.149142 0.142367 0.107668
0.182315 0.149569 0.099184
0.219303 0.156008 0.090700
0.258213 0.162844 0.086213
0.305058 0.171939 0.079133
0.361151 0.183474 0.067353
0.424567 0.196475 0.036774
0.490211 0.210086 0.000000
0.553643 0.223392 0.000000
0.610895 0.235294 0.000000
0.658534 0.245060 0.000000
0.696071 0.252445 0.000000
0.729580 0.259281 0.000000
0.757229 0.264622 0.000000
0.778836 0.268101 0.000000
0.797543 0.270939 0.000000
0.814817 0.273136 0.000000
0.831540 0.275090 0.000000
0.848051 0.276799 0.000000
0.864958 0.278477 0.000000
0.882658 0.280064 0.000000
0.901579 0.281682 0.000000
0.921874 0.283513 0.000000
0.943450 0.285283 0.000000
0.966064 0.287175 0.000000
0.989654 0.288640 0.000000
1.000000 0.289799 0.000000
1.000000 0.290501 0.000000
0.116915 0.147616 0.122683
0.120455 0.148501 0.122133
0.125002 0.149081 0.120974
0.134035 0.150637 0.118593
0.146883 0.152621 0.115114
0.172427 0.160311 0.109133
0.211765 0.170901 0.098482
0.254459 0.180880 0.086397
0.302220 0.192142 0.074891
0.357427 0.204929 0.061555
0.419532 0.219394 0.020020
0.484504 0.234012 0.000000
0.547539 0.247654 0.000000
0.605493 0.259342 0.000000
0.653834 0.268528 0.000000
0.692348 0.274723 0.000000
0.728145 0.280949 0.000000
0.755367 0.284611 0.000000
0.777066 0.286839 0.000000
0.796048 0.288304 0.000000
0.813626 0.289464 0.000000
0.830625 0.290227 0.000000
0.871305 0.299443 0.000000
0.888914 0.300450 0.000000
0.907042 0.301427 0.000000
0.925902 0.302312 0.000000
0.945464 0.303349 0.000000
0.965820 0.304112 0.000000
0.986938 0.305058 0.000000
1.000000 0.305608 0.000000
1.000000 0.305669 0.000000
1.000000 0.305089 0.000000
0.123293 0.166293 0.130098
0.127291 0.166964 0.129946
0.131930 0.167727 0.128634
0.142275 0.169131 0.126192
0.154818 0.171054 0.122744
0.169894 0.172702 0.118685
0.204440 0.184970 0.110170
0.253117 0.200626 0.096193
0.306554 0.215702 0.079103
0.369726 0.233829 0.045808
0.431556 0.250980 0.000000
0.496834 0.266819 0.000000
0.559136 0.280674 0.000000
0.615167 0.291417 0.000000
0.660914 0.298589 0.000000
0.699886 0.304143 0.000000
0.734493 0.308537 0.000000
0.760433 0.310033 0.000000
0.781735 0.310643 0.000000
0.801175 0.310796 0.000000
0.820035 0.311162 0.000000
0.839139 0.311559 0.000000
0.858671 0.312352 0.000000
0.878782 0.313207 0.000000
0.899290 0.314275 0.000000
0.919829 0.315190 0.000000
0.940398 0.315923 0.000000
0.961242 0.316503 0.000000
0.982818 0.316869 0.000000
1.000000 0.317205 0.000000
1.000000 0.316991 0.000000
1.000000 0.316289 0.000000
0.129610 0.184726 0.137636
0.133516 0.185428 0.137636
0.137972 0.185946 0.136263
0.147860 0.187198 0.133639
0.161624 0.188937 0.130190
0.176883 0.191012 0.125734
0.192752 0.191714 0.121584
0.235294 0.209049 0.110658
0.292241 0.229404 0.093538
0.354437 0.248966 0.069215
0.424445 0.270512 0.000000
0.490608 0.288945 0.000000
0.551110 0.304601 0.000000
0.606592 0.317174 0.000000
0.653620 0.324498 0.000000
0.697719 0.331273 0.000000
0.730709 0.333898 0.000000
0.756161 0.333959 0.000000
0.777462 0.333104 0.000000
0.796933 0.331853 0.000000
0.815763 0.331151 0.000000
0.834714 0.330297 0.000000
0.854063 0.330083 0.000000
0.873869 0.330022 0.000000
0.894224 0.330144 0.000000
0.914763 0.330297 0.000000
0.935424 0.330510 0.000000
0.956634 0.330480 0.000000
0.978485 0.330724 0.000000
1.000000 0.330602 0.000000
1.000000 0.330266 0.000000
1.000000 0.329381 0.000000
0.136690 0.206302 0.146059
0.140871 0.207095 0.146181
0.145388 0.207614 0.145052
0.155245 0.208774 0.142611
0.170413 0.210239 0.139040
0.185458 0.212100 0.134401
0.202976 0.214267 0.129152
0.221653 0.215976 0.124147
0.272435 0.237491 0.110170
0.338872 0.263432 0.087587
0.408118 0.286503 0.046082
0.480476 0.308537 0.000000
0.548211 0.327550 0.000000
0.603143 0.340246 0.000000
0.654566 0.352209 0.000000
0.695674 0.359594 0.000000
0.727504 0.360662 0.000000
0.752834 0.359350 0.000000
0.774136 0.357275 0.000000
0.793668 0.354955 0.000000
0.812558 0.352728 0.000000
0.831418 0.350896 0.000000
0.850614 0.349523 0.000000
0.870237 0.348608 0.000000
0.890410 0.348089 0.000000
0.910887 0.347478 0.000000
0.931731 0.347021 0.000000
0.953002 0.346624 0.000000
0.975006 0.346349 0.000000
0.997467 0.345953 0.000000
1.000000 0.345190 0.000000
1.000000 0.344121 0.000000
0.144533 0.231205 0.155489
0.148959 0.231937 0.155856
0.153628 0.232151 0.154696
0.163638 0.233097 0.152102
0.178470 0.234440 0.148196
0.195743 0.236149 0.143618
0.213321 0.238102 0.138094
0.232853 0.240360 0.132052
0.254917 0.243351 0.126528
0.314916 0.269963 0.107973
0.389654 0.299962 0.077394
0.461982 0.324132 0.000000
0.532219 0.345220 0.000000
0.601587 0.365148 0.000000
0.656184 0.377874 0.000000
0.695674 0.383764 0.000000
0.726314 0.386236 0.000000
0.750942 0.386145 0.000000
0.772366 0.382879 0.000000
0.791806 0.379278 0.000000
0.810330 0.375982 0.000000
0.828489 0.372900 0.000000
0.846830 0.370214 0.000000
0.865660 0.368048 0.000000
0.885191 0.366369 0.000000
0.905425 0.365118 0.000000
0.926482 0.364294 0.000000
0.948363 0.363622 0.000000
0.971069 0.363104 0.000000
0.994354 0.362585 0.000000
1.000000 0.361822 0.000000
1.000000 0.360601 0.000000
0.152682 0.257939 0.165316
0.157534 0.258732 0.166171
0.162417 0.259159 0.164767
0.172396 0.260075 0.162356
0.187686 0.261387 0.158663
0.207340 0.263157 0.153597
0.225620 0.265141 0.148074
0.245884 0.267399 0.141421
0.267643 0.270085 0.134463
0.293828 0.275029 0.128267
0.364233 0.307012 0.102876
0.443671 0.338903 0.059907
0.521416 0.366064 0.000000
0.592920 0.387945 0.000000
0.650843 0.401923 0.000000
0.693721 0.408118 0.000000
0.723812 0.408759 0.000000
0.748196 0.407721 0.000000
0.768856 0.406195 0.000000
0.788022 0.403357 0.000000
0.806638 0.399176 0.000000
0.825040 0.395178 0.000000
0.843534 0.391852 0.000000
0.862394 0.388952 0.000000
0.881865 0.386542 0.000000
0.902037 0.384588 0.000000
0.922972 0.383062 0.000000
0.944762 0.382025 0.000000
0.967529 0.381048 0.000000
0.990906 0.380163 0.000000
1.000000 0.379217 0.000000
1.000000 0.377844 0.000000
0.162325 0.289250 0.176944
0.167514 0.290288 0.177890
0.172366 0.290623 0.176761
0.182895 0.291447 0.174228
0.198734 0.292668 0.170291
0.218845 0.294469 0.165255
0.240269 0.296391 0.159060
0.261295 0.298528 0.152255
0.284123 0.301152 0.144472
0.308293 0.304143 0.135958
0.340673 0.312108 0.127840
0.425422 0.352331 0.092958
0.549767 0.414191 0.000000
0.620722 0.435492 0.000000
0.674281 0.445686 0.000000
0.713405 0.447913 0.000000
0.743191 0.446052 0.000000
0.765347 0.441657 0.000000
0.783810 0.436988 0.000000
0.801205 0.433082 0.000000
0.817990 0.430396 0.000000
0.835508 0.425269 0.000000
0.853269 0.420508 0.000000
0.871702 0.416602 0.000000
0.890867 0.413397 0.000000
0.910796 0.410712 0.000000
0.931365 0.408270 0.000000
0.952544 0.406317 0.000000
0.974426 0.404486 0.000000
0.996948 0.402777 0.000000
1.000000 0.401038 0.000000
1.000000 0.398962 0.000000
0.175296 0.334295 0.192905
0.181186 0.335363 0.194247
0.186862 0.335180 0.192599
0.197971 0.335210 0.189731
0.214786 0.335363 0.185214
0.235691 0.335851 0.179446
0.260594 0.336980 0.172580
0.282750 0.338445 0.164797
0.306981 0.340764 0.156252
0.333562 0.344366 0.146822
0.365637 0.352026 0.137423
0.418921 0.373754 0.123293
0.511986 0.416968 0.070436
0.597406 0.450294 0.000000
0.657404 0.465034 0.000000
0.700587 0.469306 0.000000
0.732753 0.467811 0.000000
0.758053 0.463630 0.000000
0.779080 0.458412 0.000000
0.796597 0.453162 0.000000
0.813565 0.449104 0.000000
0.830472 0.445960 0.000000
0.847745 0.442176 0.000000
0.866087 0.437507 0.000000
0.885130 0.433692 0.000000
0.905058 0.430365 0.000000
0.925658 0.427649 0.000000
0.947051 0.425391 0.000000
0.969268 0.423285 0.000000
0.992218 0.421546 0.000000
1.000000 0.419745 0.000000
1.000000 0.417670 0.000000
0.186069 0.372412 0.206424
0.192813 0.373449 0.208042
0.198764 0.373205 0.206607
0.210147 0.373297 0.203616
0.227420 0.373083 0.198856
0.249149 0.373205 0.192905
0.274693 0.374029 0.185641
0.300633 0.375128 0.177462
0.328405 0.380896 0.169253
0.359930 0.388067 0.159609
0.393652 0.395758 0.148440
0.422400 0.397986 0.137758
0.482765 0.423102 0.117494
0.568750 0.459968 0.039246
0.639338 0.483345 0.000000
0.686427 0.489815 0.000000
0.721126 0.489052 0.000000
0.748226 0.484779 0.000000
0.770901 0.479316 0.000000
0.791257 0.473976 0.000000
0.809171 0.468879 0.000000
0.826230 0.464790 0.000000
0.843351 0.461738 0.000000
0.861234 0.458900 0.000000
0.880339 0.454566 0.000000
0.900420 0.450874 0.000000
0.921294 0.447883 0.000000
0.942870 0.445289 0.000000
0.965393 0.443091 0.000000
0.988739 0.441291 0.000000
1.000000 0.439460 0.000000
1.000000 0.437293 0.000000
0.199069 0.413367 0.221927
0.205905 0.414282 0.223484
0.212100 0.414191 0.222690
0.224125 0.414008 0.219425
0.241703 0.413581 0.214572
0.264897 0.415503 0.209110
0.293095 0.418555 0.202243
0.324987 0.422034 0.194125
0.353460 0.426429 0.185153
0.384161 0.431525 0.174746
0.416968 0.437446 0.162905
0.451514 0.443885 0.149447
0.479194 0.443519 0.137606
0.540276 0.467506 0.111635
0.614954 0.495796 0.001984
0.671107 0.509178 0.000000
0.709163 0.510155 0.000000
0.738155 0.506249 0.000000
0.762203 0.500542 0.000000
0.783505 0.494545 0.000000
0.803250 0.489052 0.000000
0.821958 0.484321 0.000000
0.839139 0.480354 0.000000
0.856901 0.477516 0.000000
0.875547 0.475563 0.000000
0.895933 0.471687 0.000000
0.917571 0.468666 0.000000
0.940246 0.466438 0.000000
0.963836 0.464546 0.000000
0.988220 0.462928 0.000000
1.000000 0.461341 0.000000
1.000000 0.459297 0.000000
0.217166 0.462531 0.243076
0.224460 0.463966 0.245090
0.231449 0.464820 0.245090
0.244419 0.465614 0.242283
0.263340 0.466712 0.237827
0.287724 0.468269 0.231754
0.316106 0.470405 0.224521
0.348547 0.472877 0.215732
0.380896 0.475807 0.205600
0.410712 0.479042 0.194400
0.442115 0.482429 0.181674
0.474556 0.486030 0.167636
0.506615 0.489113 0.151492
0.531884 0.485359 0.138216
0.587488 0.504234 0.107820
0.648768 0.522576 0.000000
0.694240 0.529046 0.000000
0.726772 0.527031 0.000000
0.752956 0.521782 0.000000
0.775875 0.515709 0.000000
0.796750 0.509880 0.000000
0.816678 0.504692 0.000000
0.836271 0.500542 0.000000
0.854826 0.497261 0.000000
0.873747 0.495155 0.000000
0.893950 0.494148 0.000000
0.916106 0.490822 0.000000
0.939208 0.488563 0.000000
0.963165 0.486641 0.000000
0.987549 0.484779 0.000000
1.000000 0.482887 0.000000
1.000000 0.480598 0.000000
0.239078 0.510918 0.268193
0.245762 0.511620 0.269841
0.253208 0.512108 0.270756
0.265599 0.512200 0.267308
0.284062 0.512413 0.262242
0.306981 0.512993 0.255833
0.334447 0.514000 0.248173
0.365820 0.515007 0.238407
0.400122 0.516716 0.227878
0.429389 0.518486 0.215854
0.459724 0.520653 0.203037
0.490944 0.522911 0.188449
0.522423 0.525017 0.172549
0.553063 0.526482 0.154116
0.576349 0.520684 0.141054
0.625879 0.534264 0.108125
0.675929 0.544854 0.001434
0.713924 0.546532 0.000000
0.742794 0.542504 0.000000
0.766873 0.536431 0.000000
0.788632 0.530144 0.000000
0.809110 0.524315 0.000000
0.829129 0.519402 0.000000
0.849424 0.515801 0.000000
0.869963 0.513512 0.000000
0.890257 0.512383 0.000000
0.912139 0.512230 0.000000
0.935973 0.509606 0.000000
0.960510 0.507805 0.000000
0.985565 0.506218 0.000000
1.000000 0.504417 0.000000
1.000000 0.502342 0.000000
0.264073 0.555322 0.296544
0.271733 0.556542 0.299046
0.298039 0.581933 0.320745
0.309087 0.581720 0.316960
0.325780 0.581292 0.311162
0.347051 0.580591 0.303380
0.372778 0.579706 0.293645
0.402014 0.579004 0.282506
0.434852 0.578546 0.270115
0.466743 0.578363 0.256199
0.495216 0.578424 0.241520
0.524529 0.578210 0.225254
0.553918 0.577539 0.207431
0.582818 0.576440 0.187991
0.609003 0.573297 0.167056
0.628809 0.564111 0.153811
0.669276 0.569879 0.120790
0.708186 0.571984 0.055756
0.738857 0.568566 0.000000
0.763821 0.562127 0.000000
0.785672 0.554955 0.000000
0.806455 0.548150 0.000000
0.826749 0.542290 0.000000
0.847135 0.537652 0.000000
0.867826 0.534356 0.000000
0.889525 0.532555 0.000000
0.910918 0.531914 0.000000
0.933410 0.531731 0.000000
0.957946 0.529259 0.000000
0.983276 0.527581 0.000000
1.000000 0.525933 0.000000
1.000000 0.523766 0.000000
0.298314 0.600275 0.333593
0.307042 0.603632 0.338598
0.318181 0.607019 0.343908
0.330266 0.609522 0.343450
0.346593 0.610925 0.340063
0.366369 0.611078 0.333257
0.389380 0.610437 0.324224
0.416052 0.609369 0.312963
0.445869 0.608545 0.300603
0.477943 0.607721 0.287083
0.505028 0.606928 0.271946
0.532403 0.606165 0.255528
0.560143 0.604852 0.237736
0.587610 0.603082 0.218296
0.614466 0.600855 0.196994
0.635157 0.593256 0.176364
0.654963 0.584894 0.163455
0.691005 0.587366 0.130495
0.724849 0.586450 0.076692
0.752499 0.581567 0.000000
0.776150 0.574853 0.000000
0.797848 0.568170 0.000000
0.818875 0.561944 0.000000
0.839841 0.556909 0.000000
0.861112 0.553063 0.000000
0.883299 0.550835 0.000000
0.906798 0.550195 0.000000
0.930907 0.550988 0.000000
0.955261 0.551202 0.000000
0.981048 0.549462 0.000000
1.000000 0.547662 0.000000
1.000000 0.545586 0.000000
0.327245 0.629908 0.364813
0.335607 0.632502 0.369787
0.345953 0.635187 0.375616
0.357000 0.637079 0.375494
0.371099 0.638087 0.372229
0.387823 0.638025 0.366033
0.407782 0.637263 0.357214
0.430915 0.636133 0.346380
0.457343 0.634974 0.334264
0.486427 0.633906 0.320897
0.514916 0.632837 0.306249
0.540032 0.631739 0.290105
0.565728 0.630060 0.272038
0.591821 0.628107 0.252842
0.617639 0.625574 0.231693
0.642847 0.622766 0.209140
0.658839 0.611566 0.188785
0.678584 0.604059 0.177035
0.711360 0.603998 0.144442
0.741207 0.600916 0.097780
0.766537 0.595026 0.000000
0.789273 0.588403 0.000000
0.811124 0.582116 0.000000
0.832547 0.576684 0.000000
0.854337 0.572351 0.000000
0.876921 0.569482 0.000000
0.900725 0.568353 0.000000
0.925780 0.568841 0.000000
0.951995 0.570794 0.000000
0.978027 0.571038 0.000000
1.000000 0.569299 0.000000
1.000000 0.567224 0.000000
0.357885 0.654932 0.397955
0.365728 0.657038 0.402808
0.375647 0.659113 0.408392
0.385840 0.660670 0.409583
0.397498 0.661433 0.406561
0.411505 0.661219 0.400855
0.427955 0.660395 0.392401
0.447395 0.659236 0.381811
0.470192 0.657954 0.370092
0.495674 0.656641 0.356847
0.523552 0.655268 0.342504
0.546868 0.653895 0.326574
0.570428 0.652155 0.308751
0.594720 0.650202 0.289982
0.619409 0.647913 0.269383
0.644221 0.645594 0.247715
0.668971 0.643275 0.225010
0.681971 0.630030 0.206455
0.702388 0.624323 0.198306
0.733120 0.623011 0.166995
0.760586 0.618677 0.127596
0.784939 0.612726 0.072999
0.807706 0.606500 0.000000
0.830594 0.601312 0.000000
0.853788 0.597192 0.000000
0.877836 0.594415 0.000000
0.903044 0.593164 0.000000
0.929229 0.593500 0.000000
0.956268 0.595087 0.000000
0.983581 0.597620 0.000000
1.000000 0.596826 0.000000
1.000000 0.594415 0.000000
0.404028 0.683192 0.446418
0.409705 0.683925 0.449744
0.416175 0.684474 0.453040
0.423957 0.684718 0.453376
0.431891 0.684596 0.448981
0.442115 0.684047 0.442786
0.454932 0.683253 0.434821
0.470954 0.682338 0.425116
0.489906 0.681483 0.414466
0.511803 0.680598 0.402533
0.536126 0.679561 0.389380
0.559899 0.678370 0.374273
0.580804 0.676844 0.357427
0.602655 0.675013 0.338872
0.625330 0.672816 0.318608
0.648615 0.670405 0.296971
0.672145 0.667964 0.274235
0.695827 0.665614 0.250523
0.706813 0.651118 0.233097
0.724453 0.643946 0.225711
0.752529 0.640528 0.192874
0.777523 0.634730 0.155795
0.800473 0.628077 0.109163
0.822568 0.621729 0.000000
0.846006 0.617151 0.000000
0.870420 0.614069 0.000000
0.896269 0.612634 0.000000
0.923217 0.612726 0.000000
0.950988 0.614008 0.000000
0.979004 0.616175 0.000000
1.000000 0.618677 0.000000
1.000000 0.616999 0.000000
0.438117 0.700404 0.482368
0.443061 0.700954 0.485298
0.449042 0.701442 0.488746
0.456184 0.701686 0.489723
0.462348 0.701534 0.486091
0.469917 0.701045 0.479957
0.479744 0.700313 0.472389
0.491920 0.699489 0.463355
0.507073 0.698573 0.452949
0.525017 0.697658 0.441749
0.545495 0.696712 0.428901
0.568139 0.695552 0.415167
0.587091 0.694179 0.398993
0.606592 0.692683 0.381292
0.627222 0.690852 0.362127
0.648829 0.688899 0.341680
0.671138 0.686885 0.320195
0.693965 0.684871 0.297917
0.717006 0.682979 0.274876
0.726345 0.667872 0.260044
0.743343 0.660883 0.252781
0.769833 0.656794 0.220951
0.794095 0.651118 0.185580
0.817258 0.645014 0.143404
0.836179 0.635859 0.073487
0.860838 0.632532 0.000000
0.887083 0.630915 0.000000
0.914641 0.630823 0.000000
0.943053 0.631952 0.000000
0.971923 0.633967 0.000000
1.000000 0.636774 0.000000
1.000000 0.638422 0.000000
0.483925 0.719631 0.529808
0.488319 0.720180 0.532860
0.493233 0.720424 0.535637
0.498848 0.720333 0.536706
0.502495 0.720027 0.532799
0.507164 0.719448 0.526787
0.513268 0.718624 0.518914
0.521324 0.717617 0.509789
0.531914 0.716487 0.499092
0.544976 0.715328 0.487160
0.560540 0.714015 0.474189
0.578546 0.712642 0.459968
0.596704 0.711086 0.444160
0.612909 0.709377 0.426490
0.630365 0.707332 0.406867
0.649195 0.705043 0.385748
0.669093 0.702632 0.363989
0.690089 0.700404 0.341466
0.711910 0.698573 0.319127
0.731624 0.694575 0.297520
0.742061 0.681575 0.285435
0.759182 0.675319 0.277440
0.784421 0.670924 0.245914
0.808164 0.665248 0.209964
0.831022 0.659144 0.167422
0.853483 0.653437 0.113466
0.879973 0.651606 0.000000
0.907805 0.651087 0.000000
0.936645 0.651850 0.000000
0.966033 0.653559 0.000000
0.996094 0.656275 0.000000
1.000000 0.659205 0.000000
0.514916 0.732235 0.561822
0.518791 0.732753 0.564569
0.523064 0.732967 0.567071
0.528313 0.732906 0.568872
0.530968 0.732723 0.565362
0.534417 0.732265 0.560266
0.539178 0.731716 0.553887
0.545403 0.730983 0.546044
0.553582 0.730312 0.537041
0.564019 0.729610 0.527123
0.576501 0.728817 0.516106
0.591363 0.727993 0.503838
0.608240 0.726894 0.490120
0.622583 0.725734 0.474250
0.637598 0.724300 0.456855
0.654108 0.722621 0.437873
0.671931 0.720851 0.417609
0.691096 0.719081 0.396460
0.711360 0.717617 0.375311
0.732570 0.716396 0.354162
0.748867 0.710140 0.334051
0.760250 0.699245 0.324102
0.777646 0.693690 0.313909
0.802579 0.689631 0.281834
0.826841 0.684627 0.245212
0.850614 0.679500 0.202853
0.874357 0.674647 0.152682
0.903136 0.674495 0.077241
0.933043 0.675349 0.000000
0.963684 0.677150 0.000000
0.994598 0.679652 0.000000
1.000000 0.682063 0.000000
0.547814 0.745907 0.595666
0.550713 0.746242 0.597620
0.553643 0.746304 0.599207
0.558007 0.746090 0.600763
0.559625 0.745754 0.597406
0.561822 0.745235 0.592798
0.565026 0.744656 0.586999
0.569635 0.744045 0.580285
0.575830 0.743465 0.572625
0.583948 0.742977 0.564233
0.593866 0.742458 0.554528
0.605982 0.741970 0.544518
0.619776 0.741390 0.532769
0.633753 0.740536 0.519188
0.646296 0.739498 0.503502
0.660182 0.738247 0.486183
0.675593 0.736812 0.467536
0.692500 0.735439 0.448005
0.710872 0.734218 0.428046
0.730404 0.733303 0.408118
0.750851 0.732570 0.387884
0.764096 0.724361 0.368627
0.776516 0.715785 0.361028
0.794827 0.711513 0.349371
0.820218 0.708339 0.316594
0.845365 0.704494 0.279576
0.870512 0.700435 0.237003
0.895232 0.696132 0.186923
0.925292 0.696864 0.124483
0.957153 0.699123 0.000000
0.989014 0.701564 0.000000
1.000000 0.703792 0.000000
0.574365 0.758694 0.622919
0.576532 0.758938 0.624262
0.578912 0.759030 0.625605
0.583032 0.758907 0.627375
0.584833 0.758816 0.625238
0.587488 0.758755 0.622370
0.591424 0.758938 0.619165
0.596735 0.759274 0.615778
0.603510 0.759762 0.611933
0.611627 0.760464 0.607599
0.621149 0.761166 0.602533
0.631952 0.761807 0.596490
0.643885 0.762325 0.589227
0.656977 0.762478 0.580224
0.667903 0.762356 0.569055
0.679103 0.761837 0.555566
0.691646 0.761074 0.540307
0.705653 0.760342 0.523705
0.721370 0.759792 0.506523
0.738491 0.759396 0.488685
0.756893 0.759243 0.470436
0.776303 0.759121 0.451301
0.786831 0.749569 0.432746
0.800931 0.744350 0.428107
0.821378 0.742550 0.414069
0.848783 0.741543 0.380987
0.876249 0.739437 0.343084
0.902983 0.736141 0.299779
0.928862 0.732021 0.250950
0.960235 0.733089 0.198825
0.992676 0.734920 0.123049
1.000000 0.735714 0.000000
0.609125 0.779080 0.658564
0.610590 0.779263 0.659388
0.612207 0.779263 0.660151
0.615503 0.779080 0.661494
0.616876 0.778744 0.659663
0.618677 0.778408 0.657008
0.621393 0.778225 0.653956
0.625025 0.778134 0.650385
0.629877 0.778195 0.646540
0.635859 0.778378 0.642054
0.642939 0.778592 0.637079
0.651240 0.778836 0.631312
0.660670 0.778988 0.624506
0.671351 0.778988 0.616724
0.681941 0.778775 0.607324
0.691493 0.778500 0.596521
