其他预设/【232】美食博客调色预设124款/1.3D LUT预设（视频调色-PR-AE-PS-FCPX-达芬奇用）/Yummy #12.cube
# Created by Adobe Lightroom plugin Export LUT (1.17.0)
# www.johnrellis.com/lightroom/exportlut.htm
# Preset: Yummy #12
# Color profile: /Library/Application Support/Adobe/Color/Profiles/Recommended/AdobeRGB1998.icc
LUT_3D_SIZE 32
0.063355 0.119814 0.145022
0.075746 0.120241 0.144869
0.093294 0.122866 0.146639
0.124025 0.130648 0.153201
0.164096 0.138399 0.158267
0.205478 0.144533 0.160739
0.248600 0.150240 0.161898
0.294621 0.156405 0.163272
0.344518 0.163607 0.166903
0.398657 0.171054 0.170687
0.457496 0.177157 0.174960
0.519829 0.182742 0.179660
0.583551 0.187320 0.184360
0.644221 0.191135 0.190829
0.700374 0.194949 0.198367
0.751614 0.198642 0.206302
0.797604 0.202152 0.215030
0.838102 0.207065 0.224582
0.873198 0.212711 0.234623
0.903990 0.219089 0.245121
0.931029 0.226169 0.255741
0.954803 0.233921 0.266667
0.975677 0.242435 0.277775
0.994171 0.251682 0.289067
1.000000 0.260929 0.300328
1.000000 0.271031 0.311742
1.000000 0.281468 0.323003
1.000000 0.292363 0.334234
1.000000 0.303563 0.345403
1.000000 0.315312 0.356451
1.000000 0.327428 0.367376
1.000000 0.340002 0.378119
0.060853 0.130861 0.144289
0.075319 0.132235 0.144656
0.091859 0.135042 0.147463
0.123110 0.142885 0.153933
0.163210 0.150759 0.158785
0.204623 0.156802 0.161074
0.248051 0.161959 0.162081
0.294011 0.167941 0.163851
0.343999 0.174777 0.167056
0.398383 0.181857 0.170932
0.457069 0.187991 0.175296
0.519524 0.193301 0.179843
0.583154 0.197848 0.185122
0.643854 0.201785 0.191562
0.700160 0.205081 0.198642
0.751400 0.208133 0.207095
0.797330 0.211734 0.215671
0.837919 0.215610 0.224979
0.872984 0.220798 0.235111
0.903807 0.226413 0.245518
0.930877 0.232792 0.256077
0.954650 0.239750 0.266941
0.975525 0.247776 0.278141
0.994049 0.256352 0.289433
1.000000 0.265476 0.300633
1.000000 0.275151 0.312047
1.000000 0.285008 0.323247
1.000000 0.295781 0.334630
1.000000 0.306676 0.345708
1.000000 0.318151 0.356756
1.000000 0.329961 0.367620
1.000000 0.342229 0.378302
0.059510 0.148135 0.148379
0.074769 0.149111 0.148592
0.090364 0.150393 0.149630
0.121767 0.157717 0.155093
0.161990 0.165652 0.159701
0.203647 0.171542 0.161929
0.247074 0.176516 0.162783
0.293126 0.181949 0.164401
0.343236 0.188663 0.167544
0.397467 0.195254 0.171695
0.456336 0.201450 0.175845
0.518853 0.207034 0.180301
0.582544 0.211154 0.185824
0.643214 0.214847 0.192447
0.699428 0.218021 0.199619
0.750973 0.220279 0.207645
0.796872 0.223453 0.216403
0.837461 0.226841 0.225681
0.872679 0.230930 0.235752
0.903471 0.235813 0.246067
0.930602 0.241459 0.256565
0.954376 0.247745 0.267369
0.975280 0.255192 0.278569
0.993835 0.262791 0.289769
1.000000 0.271427 0.301122
1.000000 0.280461 0.312352
1.000000 0.289982 0.323552
1.000000 0.300237 0.334966
1.000000 0.310674 0.346044
1.000000 0.321782 0.357092
1.000000 0.333165 0.367864
1.000000 0.345312 0.378607
0.054566 0.182345 0.156039
0.073060 0.183200 0.156374
0.090822 0.184360 0.156893
0.120516 0.186862 0.157992
0.159701 0.193393 0.161196
0.201511 0.199069 0.162753
0.244877 0.203677 0.164004
0.291203 0.208865 0.165682
0.341436 0.214755 0.168673
0.395941 0.221134 0.172946
0.454810 0.227298 0.177005
0.517418 0.232853 0.181827
0.580987 0.237400 0.187442
0.641718 0.240787 0.194125
0.698268 0.242893 0.200931
0.749691 0.244907 0.209110
0.795804 0.246677 0.217899
0.836637 0.248875 0.226993
0.871855 0.251591 0.236881
0.902708 0.255161 0.247166
0.929931 0.259129 0.257664
0.953765 0.264073 0.268498
0.974731 0.269902 0.279576
0.993286 0.276493 0.290837
1.000000 0.283787 0.301946
1.000000 0.291600 0.313146
1.000000 0.300145 0.324285
1.000000 0.309575 0.335637
1.000000 0.319219 0.346654
1.000000 0.329473 0.357610
1.000000 0.340246 0.368383
1.000000 0.351659 0.379034
0.032166 0.224949 0.161471
0.065858 0.225437 0.161807
0.087098 0.226169 0.161898
0.119356 0.227420 0.162905
0.156832 0.229496 0.163729
0.198093 0.233677 0.164706
0.241886 0.238193 0.165866
0.288457 0.243137 0.167330
0.338964 0.248905 0.170687
0.393500 0.255497 0.175143
0.452399 0.261540 0.179324
0.514977 0.267369 0.184329
0.578729 0.271855 0.190097
0.639612 0.274998 0.196536
0.696254 0.276646 0.203494
0.747829 0.277684 0.211246
0.794064 0.278202 0.219852
0.835111 0.279088 0.228946
0.870481 0.280064 0.238773
0.901518 0.281743 0.248753
0.928771 0.284062 0.259312
0.952758 0.287480 0.269902
0.973816 0.291417 0.280949
0.992432 0.296391 0.292149
1.000000 0.301976 0.303258
1.000000 0.308385 0.314397
1.000000 0.315557 0.325536
1.000000 0.323400 0.336645
1.000000 0.332006 0.347662
1.000000 0.341253 0.358618
1.000000 0.350958 0.369299
1.000000 0.361456 0.379950
0.000000 0.268101 0.165011
0.045930 0.268406 0.165072
0.077607 0.268894 0.165164
0.114137 0.269627 0.165621
0.153750 0.270787 0.166629
0.194278 0.272343 0.167269
0.237675 0.275822 0.168368
0.284611 0.280949 0.170321
0.335271 0.286748 0.173892
0.390051 0.293278 0.178378
0.449134 0.299870 0.182986
0.511772 0.305913 0.188083
0.575586 0.310674 0.193515
0.636744 0.313481 0.199619
0.693507 0.314794 0.206271
0.745327 0.314885 0.214206
0.791775 0.314519 0.222599
0.833066 0.313970 0.231601
0.868589 0.313451 0.241215
0.899809 0.313390 0.251041
0.927214 0.314061 0.261387
0.951324 0.315221 0.272129
0.972107 0.317205 0.282567
0.990906 0.320409 0.293614
1.000000 0.324254 0.304601
1.000000 0.328954 0.315648
1.000000 0.334600 0.326696
1.000000 0.340887 0.337835
1.000000 0.348119 0.348760
1.000000 0.355962 0.359564
1.000000 0.364599 0.370275
1.000000 0.373999 0.380743
0.000000 0.311742 0.167971
0.003235 0.311894 0.168185
0.063508 0.312169 0.168429
0.106874 0.312718 0.169253
0.149233 0.313603 0.169986
0.191592 0.314549 0.171023
0.234104 0.315740 0.172457
0.279637 0.319371 0.174319
0.330480 0.325597 0.178592
0.385657 0.332616 0.183108
0.444678 0.339635 0.187839
0.507408 0.346197 0.192508
0.571283 0.351354 0.197910
0.632776 0.354223 0.203372
0.689845 0.355108 0.209934
0.741848 0.354742 0.217411
0.788846 0.353460 0.225559
0.830411 0.351659 0.234409
0.866117 0.349737 0.243748
0.897490 0.348058 0.253666
0.925109 0.347021 0.263828
0.949371 0.346441 0.274266
0.970672 0.346929 0.284947
0.989563 0.348028 0.295781
1.000000 0.350103 0.306615
1.000000 0.353124 0.317662
1.000000 0.357061 0.328618
1.000000 0.361852 0.339635
1.000000 0.367407 0.350439
1.000000 0.374090 0.361242
1.000000 0.381231 0.371710
1.000000 0.389410 0.382208
0.000000 0.356909 0.173678
0.000000 0.357122 0.173739
0.030396 0.357366 0.174075
0.098268 0.357763 0.174502
0.144930 0.358373 0.175601
0.189273 0.359167 0.177188
0.233310 0.360021 0.179385
0.277562 0.361028 0.181521
0.325719 0.364782 0.184756
0.381109 0.372381 0.188876
0.440497 0.380041 0.193423
0.503319 0.387213 0.197726
0.567468 0.392889 0.202335
0.628962 0.395941 0.207614
0.686213 0.396704 0.214145
0.738674 0.395819 0.221134
0.785977 0.393835 0.229160
0.827634 0.390997 0.237705
0.863523 0.387823 0.246860
0.895109 0.384771 0.256748
0.922911 0.382147 0.266819
0.947326 0.380041 0.277165
0.968811 0.378790 0.287633
0.987854 0.378149 0.298436
1.000000 0.378546 0.309148
1.000000 0.379950 0.320043
1.000000 0.382116 0.330877
1.000000 0.385260 0.341588
1.000000 0.389441 0.352392
1.000000 0.394385 0.362951
1.000000 0.400427 0.373510
1.000000 0.407202 0.383917
0.000000 0.404425 0.182773
0.000000 0.404517 0.183078
0.000000 0.404791 0.183505
0.089815 0.404974 0.184268
0.141085 0.405707 0.185214
0.187961 0.406226 0.186709
0.233738 0.406989 0.188388
0.279637 0.407752 0.190127
0.325994 0.408453 0.192569
0.376471 0.412055 0.195529
0.436042 0.420478 0.199283
0.499001 0.428290 0.203189
0.563287 0.434699 0.207523
0.624872 0.437964 0.212558
0.682338 0.438849 0.218631
0.735103 0.437751 0.225437
0.782559 0.435004 0.233188
0.824460 0.431403 0.241398
0.860472 0.427070 0.250553
0.892302 0.422675 0.260105
0.920348 0.418769 0.269932
0.945006 0.415045 0.280156
0.966644 0.412177 0.290623
0.985840 0.410101 0.301152
1.000000 0.408850 0.311925
1.000000 0.408484 0.322698
1.000000 0.409216 0.333379
1.000000 0.410803 0.344030
1.000000 0.413367 0.354589
1.000000 0.416968 0.365087
1.000000 0.421454 0.375494
1.000000 0.426947 0.385779
0.000000 0.454108 0.192630
0.000000 0.454139 0.193027
0.000000 0.454322 0.193118
0.080934 0.454597 0.193790
0.138033 0.455085 0.194675
0.187808 0.455634 0.195804
0.235569 0.456153 0.197452
0.283024 0.456672 0.199161
0.330877 0.457221 0.200961
0.379278 0.457557 0.203006
0.431647 0.460273 0.205692
0.494728 0.469032 0.208927
0.559014 0.475990 0.212924
0.620722 0.479866 0.217563
0.678523 0.480873 0.223056
0.731380 0.479530 0.229709
0.778958 0.476387 0.236942
0.820920 0.471931 0.245243
0.857115 0.466682 0.254185
0.889128 0.461158 0.263706
0.917449 0.455970 0.273472
0.942290 0.451087 0.283665
0.964233 0.446693 0.293828
0.983581 0.443122 0.304356
1.000000 0.440345 0.314916
1.000000 0.438575 0.325566
1.000000 0.437720 0.336065
1.000000 0.437812 0.346593
1.000000 0.438941 0.357092
1.000000 0.440986 0.367407
1.000000 0.444190 0.377691
1.000000 0.448310 0.387732
0.000000 0.505577 0.202396
0.000000 0.505638 0.202548
0.000000 0.505852 0.202701
0.069337 0.506035 0.203220
0.135012 0.506279 0.203983
0.188022 0.506676 0.204990
0.238224 0.507042 0.206302
0.287236 0.507439 0.207645
0.336645 0.507591 0.209140
0.386542 0.507683 0.211032
0.436927 0.507652 0.212650
0.490974 0.509514 0.214694
0.555200 0.517266 0.218204
0.616938 0.521508 0.222293
0.674647 0.522667 0.227451
0.727413 0.521172 0.234043
0.775082 0.517540 0.241215
0.817014 0.512505 0.249332
0.853483 0.506310 0.258152
0.885801 0.499886 0.267369
0.914305 0.493568 0.277134
0.939422 0.487434 0.287083
0.961517 0.481880 0.297398
0.981048 0.476997 0.307744
0.998535 0.472877 0.318242
1.000000 0.469612 0.328679
1.000000 0.467323 0.338994
1.000000 0.466072 0.349493
1.000000 0.465797 0.359777
1.000000 0.466438 0.369940
1.000000 0.468299 0.380072
1.000000 0.471199 0.390112
0.000000 0.558404 0.211612
0.000000 0.558465 0.211734
0.000000 0.558526 0.212100
0.051911 0.558556 0.212406
0.132082 0.558801 0.212955
0.188449 0.558953 0.213748
0.240909 0.559197 0.214755
0.291997 0.559228 0.215915
0.342809 0.559075 0.217227
0.394079 0.559045 0.218448
0.445716 0.558648 0.219974
0.497780 0.558038 0.221439
0.550774 0.557427 0.222934
0.612268 0.562188 0.226963
0.669764 0.563470 0.232090
0.722560 0.561883 0.238132
0.770321 0.558160 0.245182
0.812467 0.552605 0.253208
0.849119 0.545739 0.261875
0.881743 0.538506 0.271183
0.910613 0.531121 0.280705
0.935943 0.524041 0.290745
0.958343 0.517205 0.300755
0.978149 0.511101 0.311131
0.995850 0.505699 0.321477
1.000000 0.501244 0.331792
1.000000 0.497658 0.342107
1.000000 0.495033 0.352300
1.000000 0.493446 0.362524
1.000000 0.492897 0.372625
1.000000 0.493477 0.382635
1.000000 0.495094 0.392523
0.000000 0.609522 0.220371
0.000000 0.609583 0.220584
0.000000 0.609583 0.220554
0.020233 0.609613 0.221012
0.128573 0.609674 0.221378
0.188296 0.609644 0.222019
0.242557 0.609583 0.222995
0.295018 0.609369 0.224033
0.347143 0.608972 0.225101
0.399023 0.608423 0.226139
0.451179 0.607446 0.227512
0.503532 0.606134 0.228702
0.555871 0.604608 0.230228
0.608637 0.602930 0.231571
0.665980 0.604364 0.236118
0.718563 0.602777 0.242283
0.766232 0.598718 0.249302
0.808347 0.592645 0.257115
0.845121 0.585077 0.265904
0.878019 0.577081 0.275090
0.907042 0.568933 0.284642
0.932647 0.560723 0.294408
0.955200 0.552941 0.304570
0.975250 0.545647 0.314733
0.993164 0.539117 0.324926
1.000000 0.533379 0.335088
1.000000 0.528588 0.345342
1.000000 0.524743 0.355505
1.000000 0.521874 0.365545
1.000000 0.520165 0.375586
1.000000 0.519463 0.385321
1.000000 0.519921 0.395148
0.000000 0.657832 0.229770
0.000000 0.657740 0.229740
0.000000 0.657771 0.229984
0.000000 0.657801 0.230320
0.125673 0.657649 0.230594
0.187961 0.657435 0.231327
0.243717 0.657160 0.232029
0.296971 0.656641 0.232883
0.349340 0.655879 0.233799
0.401648 0.654902 0.234745
0.453925 0.653498 0.235904
0.506188 0.651850 0.237064
0.558343 0.649805 0.238254
0.610376 0.647456 0.239353
0.661952 0.644831 0.240818
0.714565 0.643183 0.246189
0.762020 0.638911 0.253269
0.804074 0.632349 0.261234
0.841032 0.624201 0.269841
0.874022 0.615503 0.278935
0.903319 0.606470 0.288640
0.929107 0.597436 0.298375
0.951904 0.588617 0.308415
0.972168 0.580346 0.318486
0.990265 0.572686 0.328557
1.000000 0.565820 0.338628
1.000000 0.559808 0.348699
1.000000 0.554833 0.358679
1.000000 0.550927 0.368658
1.000000 0.547997 0.378485
1.000000 0.546227 0.388312
1.000000 0.545495 0.397894
0.000000 0.702235 0.239536
0.000000 0.702174 0.239780
0.000000 0.702113 0.239750
0.000000 0.702052 0.239933
0.124758 0.701747 0.240482
0.187991 0.701442 0.240848
0.243961 0.700893 0.241672
0.297398 0.700099 0.242344
0.349828 0.699092 0.243229
0.402014 0.697749 0.244144
0.453895 0.696101 0.245060
0.505730 0.694087 0.246067
0.557397 0.691768 0.247196
0.608881 0.689174 0.248356
0.659876 0.686244 0.249638
0.710170 0.683040 0.250950
0.757748 0.678614 0.257237
0.799680 0.671595 0.264958
0.836759 0.662989 0.273625
0.869963 0.653651 0.282780
0.899443 0.643854 0.292332
0.925475 0.633967 0.302159
0.948455 0.624292 0.312016
0.968933 0.614954 0.322179
0.987243 0.606287 0.332219
1.000000 0.598383 0.342199
1.000000 0.591363 0.352117
1.000000 0.585351 0.362127
1.000000 0.580255 0.371862
1.000000 0.576257 0.381537
1.000000 0.573388 0.391180
1.000000 0.571588 0.400702
0.000000 0.742519 0.250095
0.000000 0.742428 0.250309
0.000000 0.742367 0.250309
0.000000 0.742123 0.250523
0.125368 0.741726 0.250919
0.188663 0.741238 0.251347
0.243778 0.740536 0.251865
0.296696 0.739620 0.252567
0.348821 0.738338 0.253361
0.400336 0.736873 0.254276
0.451728 0.735012 0.255100
0.502953 0.732876 0.256107
0.553735 0.730343 0.257298
0.604395 0.727535 0.258335
0.654566 0.724361 0.259556
0.704067 0.720974 0.260655
0.752438 0.717281 0.262119
0.795254 0.710536 0.268559
0.832456 0.701381 0.277409
0.865812 0.691463 0.286595
0.895445 0.681025 0.295964
0.921630 0.670314 0.305882
0.944823 0.659754 0.315831
0.965545 0.649500 0.325719
0.984070 0.639918 0.335698
1.000000 0.631006 0.345739
1.000000 0.622950 0.355505
1.000000 0.615930 0.365301
1.000000 0.609918 0.375158
1.000000 0.604883 0.384649
1.000000 0.600977 0.394293
1.000000 0.598230 0.403693
0.000000 0.778653 0.261509
0.000000 0.778561 0.261418
0.000000 0.778408 0.261814
0.014862 0.778195 0.261936
0.129641 0.777737 0.262211
0.190158 0.777127 0.262760
0.244053 0.776272 0.263340
0.296178 0.775204 0.263767
0.347143 0.773831 0.264469
0.397681 0.772122 0.265324
0.448035 0.770138 0.266239
0.498116 0.767819 0.267094
0.547906 0.765133 0.268009
0.597375 0.762112 0.269230
0.646357 0.758816 0.270298
0.694606 0.755215 0.271550
0.742061 0.751369 0.273045
0.788479 0.747433 0.274449
0.828031 0.739559 0.280827
0.861540 0.729061 0.290105
0.891356 0.717983 0.299657
0.917754 0.706508 0.309361
0.941161 0.695094 0.319341
0.962066 0.684016 0.329320
0.980774 0.673487 0.339239
0.997620 0.663691 0.349248
1.000000 0.654719 0.359075
1.000000 0.646693 0.368750
1.000000 0.639673 0.378454
1.000000 0.633753 0.388006
1.000000 0.628870 0.397345
1.000000 0.625147 0.406775
0.000000 0.810269 0.273625
0.000000 0.810117 0.273625
0.000000 0.809659 0.273594
0.061463 0.809354 0.273747
0.136904 0.808865 0.274174
0.193210 0.808164 0.274510
0.245274 0.807279 0.275120
0.295354 0.806119 0.275486
0.344976 0.804685 0.276219
0.394079 0.802945 0.277073
0.442939 0.800931 0.277775
0.491737 0.798581 0.278721
0.540246 0.795895 0.279698
0.588586 0.792966 0.280797
0.636408 0.789761 0.281834
0.683589 0.786252 0.282872
0.730129 0.782528 0.284306
0.775601 0.778622 0.285679
0.819944 0.774594 0.286992
0.857053 0.766232 0.293248
0.887083 0.754543 0.302861
0.913695 0.742367 0.312779
0.937346 0.730159 0.322759
0.958434 0.718318 0.332799
0.977386 0.706935 0.342809
0.994415 0.696284 0.352728
1.000000 0.686458 0.362493
1.000000 0.677546 0.372168
1.000000 0.669612 0.381689
1.000000 0.662715 0.391180
1.000000 0.656947 0.400519
1.000000 0.652338 0.409888
0.000000 0.838346 0.286168
0.000000 0.838193 0.286168
0.000000 0.838010 0.286137
0.088167 0.837705 0.286442
0.147311 0.837156 0.286625
0.199100 0.836423 0.287114
0.248051 0.835508 0.287419
0.296056 0.834348 0.287938
0.343725 0.832944 0.288640
0.390875 0.831235 0.289342
0.438270 0.829221 0.289982
0.485664 0.826932 0.290806
0.532830 0.824338 0.291814
0.579736 0.821500 0.292729
0.626307 0.818326 0.293736
0.672328 0.814969 0.294835
0.717678 0.811307 0.296025
0.762142 0.807523 0.297337
0.805631 0.803555 0.298863
0.847929 0.799527 0.300237
0.882994 0.791012 0.306249
0.909728 0.778164 0.316167
0.933562 0.765194 0.326116
0.954833 0.752529 0.336156
0.973938 0.740322 0.346197
0.991211 0.728817 0.356023
1.000000 0.718105 0.365789
1.000000 0.708370 0.375494
1.000000 0.699550 0.385016
1.000000 0.691829 0.394476
1.000000 0.685176 0.403784
1.000000 0.679744 0.413031
0.000000 0.863828 0.298863
0.000000 0.863676 0.299016
0.063783 0.863523 0.298985
0.113619 0.863188 0.299168
0.161532 0.862669 0.299413
0.207462 0.861967 0.299718
0.252873 0.861021 0.300175
0.298070 0.859861 0.300603
0.343328 0.858488 0.301152
0.388739 0.856809 0.301823
0.434363 0.854887 0.302525
0.479957 0.852659 0.303319
0.525505 0.850156 0.304082
0.571038 0.847379 0.305150
0.616175 0.844327 0.306096
0.660792 0.841032 0.307134
0.704952 0.837583 0.308141
0.748318 0.833890 0.309453
0.790829 0.830045 0.310796
0.832242 0.826108 0.312291
0.872435 0.822080 0.313878
0.905699 0.813779 0.319219
0.929686 0.800076 0.329381
0.951141 0.786618 0.339513
0.970489 0.773587 0.349584
0.987915 0.761257 0.359411
1.000000 0.749722 0.369085
1.000000 0.739132 0.378820
1.000000 0.729549 0.388373
1.000000 0.721004 0.397742
1.000000 0.713558 0.407019
1.000000 0.707210 0.416175
0.066743 0.886687 0.311894
0.085542 0.886534 0.312047
0.106203 0.886381 0.312016
0.139162 0.886076 0.312078
0.177768 0.885527 0.312352
0.218418 0.884794 0.312688
0.259831 0.883909 0.313024
0.301854 0.882811 0.313481
0.344640 0.881407 0.314000
0.387823 0.879789 0.314580
0.431281 0.877958 0.315129
0.475074 0.875792 0.315923
0.518822 0.873411 0.316655
0.562646 0.870756 0.317632
0.606317 0.867826 0.318608
0.649531 0.864714 0.319585
0.692378 0.861326 0.320714
0.734493 0.857786 0.321813
0.775875 0.854093 0.323003
0.816312 0.850217 0.324529
0.855589 0.846372 0.325933
0.893736 0.842466 0.327520
0.925750 0.834623 0.332341
0.947417 0.820401 0.342535
0.966918 0.806607 0.352605
0.984558 0.793515 0.362554
1.000000 0.781186 0.372320
1.000000 0.769833 0.381994
1.000000 0.759396 0.391485
1.000000 0.750088 0.400885
1.000000 0.741909 0.410224
1.000000 0.735042 0.419257
0.116548 0.907042 0.324834
0.127047 0.906920 0.324834
0.139864 0.906767 0.324895
0.164279 0.906462 0.324956
0.196170 0.905943 0.325231
0.231540 0.905272 0.325628
0.268894 0.904387 0.325994
0.307622 0.903288 0.326421
0.347601 0.901976 0.326787
0.388312 0.900420 0.327337
0.429603 0.898650 0.328008
0.471412 0.896605 0.328649
0.513359 0.894347 0.329412
0.555291 0.891814 0.330236
0.597223 0.889067 0.331090
0.639033 0.886076 0.332067
0.680323 0.882872 0.333165
0.721218 0.879515 0.334203
0.761379 0.876005 0.335393
0.800778 0.872313 0.336706
0.839200 0.868620 0.338170
0.876555 0.864866 0.339635
0.912749 0.861143 0.341314
0.943755 0.854185 0.345617
0.963439 0.839597 0.355688
0.981262 0.825742 0.365728
0.997498 0.812619 0.375555
1.000000 0.800473 0.385229
1.000000 0.789334 0.394781
1.000000 0.779232 0.404150
1.000000 0.770474 0.413428
1.000000 0.763241 0.422339
0.154543 0.925414 0.337804
0.161807 0.925322 0.337865
0.171328 0.925170 0.337865
0.190402 0.924865 0.337987
0.216709 0.924376 0.338262
0.247135 0.923705 0.338445
0.280491 0.922881 0.338811
0.315831 0.921843 0.339147
0.352911 0.920623 0.339635
0.390997 0.919127 0.340154
0.429938 0.917449 0.340673
0.469429 0.915526 0.341436
0.509209 0.913390 0.342077
0.549432 0.910979 0.342870
0.589593 0.908415 0.343633
0.629694 0.905608 0.344549
0.669551 0.902586 0.345525
0.708980 0.899413 0.346502
0.747921 0.896056 0.347784
0.786160 0.892607 0.349035
0.823575 0.889097 0.350347
0.860044 0.885496 0.351873
0.895476 0.881926 0.353399
0.929778 0.878386 0.355047
0.960021 0.872496 0.358679
0.978027 0.857847 0.368719
0.994415 0.843961 0.378729
1.000000 0.831083 0.388434
1.000000 0.819211 0.398016
1.000000 0.808530 0.407477
1.000000 0.799191 0.416510
1.000000 0.791653 0.425544
0.188571 0.942046 0.350591
0.194156 0.941924 0.350622
0.201602 0.941802 0.350591
0.216892 0.941497 0.350744
0.238560 0.941070 0.350835
0.264744 0.940429 0.351080
0.294316 0.939635 0.351415
0.326452 0.938659 0.351751
0.360510 0.937469 0.352209
0.395819 0.936095 0.352697
0.432227 0.934539 0.353307
0.469337 0.932738 0.353857
0.507134 0.930694 0.354559
0.545281 0.928496 0.355230
0.583581 0.926085 0.356023
0.621973 0.923430 0.356939
0.660273 0.920623 0.357885
0.698207 0.917632 0.358953
0.735744 0.914549 0.359991
0.772793 0.911284 0.361181
0.809079 0.907958 0.362493
0.844572 0.904570 0.363836
0.879210 0.901183 0.365393
0.912840 0.897795 0.367041
0.945281 0.894530 0.368841
0.974823 0.889738 0.371710
0.991394 0.875120 0.381720
1.000000 0.861540 0.391577
1.000000 0.849058 0.401160
1.000000 0.837736 0.410590
1.000000 0.827970 0.419806
1.000000 0.820096 0.428901
0.221225 0.957244 0.363012
0.225589 0.957153 0.363073
0.231540 0.957000 0.363073
0.243992 0.956725 0.363226
0.262119 0.956298 0.363317
0.284733 0.955718 0.363592
0.310857 0.954955 0.363897
0.339483 0.954040 0.364233
0.370520 0.952941 0.364660
0.403113 0.951629 0.365087
0.436866 0.950164 0.365576
0.471778 0.948455 0.366155
0.507225 0.946593 0.366796
0.543267 0.944488 0.367468
0.579675 0.942229 0.368261
0.616175 0.939788 0.369055
0.652766 0.937163 0.370001
0.689174 0.934417 0.370977
0.725277 0.931487 0.372015
0.760952 0.928466 0.373175
0.796078 0.925353 0.374395
0.830533 0.922179 0.375738
0.864225 0.918975 0.377173
0.897002 0.915831 0.378668
0.928832 0.912718 0.380438
0.959564 0.909697 0.382330
0.988525 0.906157 0.384710
1.000000 0.891783 0.394629
1.000000 0.878599 0.404364
1.000000 0.866728 0.413764
1.000000 0.856474 0.423133
1.000000 0.848264 0.432410
0.253239 0.971130 0.375280
0.256962 0.971069 0.375341
0.261692 0.970916 0.375311
0.272099 0.970672 0.375433
0.287266 0.970275 0.375616
0.306767 0.969726 0.375799
0.329473 0.969024 0.376043
0.355200 0.968170 0.376410
0.383276 0.967102 0.376806
0.412909 0.965911 0.377173
0.444160 0.964508 0.377661
0.476509 0.962921 0.378210
0.509728 0.961181 0.378729
0.543725 0.959228 0.379492
0.577996 0.957153 0.380194
0.612696 0.954894 0.380957
0.647517 0.952453 0.381842
0.682277 0.949889 0.382849
0.716854 0.947173 0.383825
0.751095 0.944366 0.384894
0.784939 0.941497 0.386053
0.818235 0.938537 0.387457
0.850889 0.935576 0.388891
0.882719 0.932616 0.390417
0.913756 0.929686 0.392065
0.943847 0.926818 0.393896
0.972961 0.924071 0.395972
1.000000 0.921508 0.398108
1.000000 0.907836 0.407507
1.000000 0.895354 0.417182
1.000000 0.884550 0.426642
1.000000 0.876005 0.435981
0.285374 0.983948 0.387213
0.288365 0.983856 0.387304
0.292485 0.983734 0.387304
0.300908 0.983520 0.387396
0.313909 0.983124 0.387518
0.330724 0.982605 0.387701
0.350683 0.981933 0.387915
0.373419 0.981109 0.388190
0.398505 0.980133 0.388586
0.425483 0.979004 0.388922
0.454108 0.977691 0.389380
0.483894 0.976226 0.389868
0.514763 0.974609 0.390417
0.546441 0.972808 0.391028
0.578790 0.970855 0.391791
0.611444 0.968750 0.392493
0.644495 0.966522 0.393378
0.677485 0.964141 0.394293
0.710536 0.961639 0.395361
0.743313 0.959045 0.396399
0.775723 0.956359 0.397559
0.807828 0.953643 0.398932
0.839353 0.950896 0.400336
0.870176 0.948119 0.401831
0.900328 0.945373 0.403571
0.929656 0.942687 0.405371
0.958160 0.940032 0.407233
0.985534 0.937560 0.409339
1.000000 0.935302 0.411719
1.000000 0.923186 0.420508
1.000000 0.911864 0.430213
1.000000 0.902770 0.439796
0.317632 0.995697 0.398779
0.320043 0.995605 0.398749
0.323583 0.995514 0.398901
0.330877 0.995270 0.398932
0.341985 0.994903 0.399084
0.356420 0.994446 0.399298
0.373938 0.993805 0.399542
0.393927 0.993042 0.399786
0.416327 0.992157 0.400092
0.440925 0.991119 0.400580
0.466926 0.989899 0.400977
0.494362 0.988525 0.401434
0.522881 0.987030 0.402014
0.552392 0.985382 0.402686
0.582544 0.983581 0.403326
0.613306 0.981628 0.404150
