其他预设/【232】美食博客调色预设124款/1.3D LUT预设（视频调色-PR-AE-PS-FCPX-达芬奇用）/Yummy #9.cube
# Created by Adobe Lightroom plugin Export LUT (1.17.0)
# www.johnrellis.com/lightroom/exportlut.htm
# Preset: Yummy #9
# Color profile: /Library/Application Support/Adobe/Color/Profiles/Recommended/AdobeRGB1998.icc
LUT_3D_SIZE 32
0.000000 0.000000 0.000000
0.034943 0.003357 0.007477
0.067384 0.008820 0.016541
0.115908 0.014710 0.034760
0.183139 0.012543 0.049500
0.248692 0.003235 0.059815
0.313817 0.000000 0.068360
0.382727 0.000000 0.078706
0.460243 0.000000 0.090059
0.548791 0.000000 0.101778
0.637446 0.021332 0.116213
0.706661 0.075105 0.134615
0.761715 0.106905 0.155459
0.805661 0.137392 0.178378
0.842191 0.168063 0.201022
0.873228 0.197116 0.222293
0.899596 0.225620 0.242252
0.922057 0.254246 0.261173
0.941314 0.282994 0.278660
0.959808 0.314641 0.296605
0.976074 0.347082 0.313664
0.990265 0.380041 0.330205
1.000000 0.413458 0.346593
1.000000 0.447547 0.363348
1.000000 0.480903 0.380438
1.000000 0.511589 0.397101
1.000000 0.539330 0.413275
1.000000 0.564935 0.429419
1.000000 0.588525 0.445228
1.000000 0.610437 0.460975
1.000000 0.631037 0.476753
1.000000 0.650050 0.492226
0.008698 0.032166 0.011200
0.040558 0.033783 0.015656
0.069825 0.040223 0.024598
0.118135 0.056336 0.039429
0.183963 0.064820 0.052644
0.248356 0.066804 0.062440
0.313024 0.067079 0.070039
0.381109 0.069673 0.080934
0.458015 0.074617 0.092378
0.546105 0.083070 0.103670
0.634607 0.095888 0.117311
0.704250 0.113863 0.135378
0.759487 0.135317 0.156558
0.803616 0.158846 0.179477
0.840391 0.183902 0.201419
0.871641 0.209934 0.223148
0.898100 0.235935 0.242741
0.920714 0.262699 0.261265
0.940124 0.289738 0.278782
0.958679 0.319615 0.296330
0.974914 0.350744 0.313329
0.989197 0.382574 0.329656
1.000000 0.415198 0.345892
1.000000 0.448524 0.362615
1.000000 0.481514 0.379644
1.000000 0.512108 0.396399
1.000000 0.539574 0.412573
1.000000 0.565362 0.428840
1.000000 0.588617 0.444556
1.000000 0.610681 0.460548
1.000000 0.631067 0.476112
1.000000 0.650080 0.491707
0.020569 0.065583 0.027558
0.053895 0.067201 0.030579
0.075654 0.069429 0.036225
0.121370 0.081086 0.048951
0.185122 0.092012 0.059297
0.248325 0.097932 0.066468
0.311681 0.101106 0.073365
0.379278 0.105806 0.083864
0.455665 0.113405 0.094331
0.543084 0.123171 0.106538
0.631586 0.135622 0.119692
0.701656 0.149874 0.137392
0.757321 0.165377 0.158267
0.801724 0.183963 0.180819
0.838560 0.204929 0.202976
0.870146 0.226413 0.223972
0.896727 0.249912 0.243626
0.919463 0.273899 0.261936
0.939086 0.299199 0.279423
0.957641 0.327459 0.296727
0.973938 0.357214 0.313695
0.988312 0.387640 0.329717
1.000000 0.419471 0.346044
1.000000 0.452003 0.362768
1.000000 0.484352 0.379736
1.000000 0.514427 0.396521
1.000000 0.541711 0.412757
1.000000 0.566888 0.428779
1.000000 0.590082 0.444678
1.000000 0.611841 0.460456
1.000000 0.632136 0.476234
1.000000 0.650935 0.491615
0.036042 0.115145 0.050080
0.070436 0.116884 0.051667
0.094026 0.118654 0.055940
0.134066 0.123720 0.061433
0.189914 0.134218 0.067811
0.248692 0.141421 0.072755
0.310521 0.147402 0.080201
0.376989 0.155062 0.090547
0.452125 0.165011 0.100740
0.538720 0.178073 0.111849
0.627161 0.192294 0.124269
0.697414 0.203647 0.141939
0.753384 0.215152 0.162478
0.798123 0.227939 0.184421
0.835599 0.241886 0.205722
0.867369 0.258518 0.226627
0.894224 0.277195 0.245731
0.917205 0.297154 0.263676
0.937285 0.319127 0.280827
0.955688 0.344213 0.298131
0.972076 0.370764 0.314397
0.986511 0.399298 0.330571
0.999176 0.429236 0.346715
1.000000 0.460395 0.363287
1.000000 0.491768 0.380529
1.000000 0.520775 0.397314
1.000000 0.547356 0.413703
1.000000 0.572015 0.429847
1.000000 0.594598 0.445594
1.000000 0.615686 0.461402
1.000000 0.635431 0.477089
1.000000 0.653559 0.492164
0.050202 0.176699 0.065705
0.081819 0.177462 0.066712
0.108339 0.178531 0.068482
0.149630 0.180819 0.071992
0.199374 0.185367 0.078309
0.252995 0.190799 0.083589
0.310338 0.197086 0.091005
0.373175 0.205631 0.099977
0.446906 0.218418 0.109926
0.531548 0.235203 0.120760
0.619806 0.251865 0.132021
0.690517 0.263096 0.148836
0.747463 0.271489 0.168490
0.792996 0.279698 0.189303
0.831022 0.289281 0.209751
0.863340 0.300664 0.229801
0.890776 0.314061 0.248997
0.914153 0.329839 0.266361
0.934844 0.347967 0.283635
0.953399 0.369085 0.300359
0.969818 0.392279 0.316411
0.984405 0.417914 0.332280
0.997253 0.445258 0.348363
1.000000 0.474434 0.365026
1.000000 0.503899 0.382422
1.000000 0.531182 0.399084
1.000000 0.556237 0.415229
1.000000 0.579492 0.431312
1.000000 0.601129 0.447059
1.000000 0.621393 0.462715
1.000000 0.640375 0.478218
1.000000 0.657984 0.493355
0.059937 0.235050 0.077638
0.089143 0.235721 0.079347
0.116335 0.236210 0.080476
0.158724 0.237308 0.083955
0.207797 0.240055 0.090089
0.260227 0.244785 0.097902
0.314519 0.250156 0.106203
0.374975 0.259312 0.113985
0.443030 0.271916 0.122866
0.524529 0.290593 0.132357
0.612055 0.310826 0.142458
0.683406 0.322454 0.157626
0.740841 0.329381 0.176089
0.787198 0.334539 0.195590
0.825772 0.340154 0.215122
0.858732 0.347478 0.234501
0.886656 0.356664 0.253117
0.910430 0.368048 0.270115
0.931762 0.382757 0.287449
0.950561 0.399939 0.303624
0.967224 0.419959 0.319585
0.982086 0.442542 0.335454
0.998871 0.479225 0.358251
1.000000 0.506523 0.375738
1.000000 0.532250 0.392493
1.000000 0.555840 0.408545
1.000000 0.577813 0.424231
1.000000 0.598383 0.439704
1.000000 0.617670 0.454932
1.000000 0.636103 0.470283
1.000000 0.653223 0.485145
1.000000 0.669093 0.499550
0.072023 0.296513 0.095186
0.100008 0.296727 0.096529
0.126802 0.297185 0.098054
0.169192 0.298100 0.101839
0.217868 0.299596 0.107057
0.270176 0.303807 0.114443
0.325139 0.309880 0.123568
0.382238 0.317662 0.132753
0.450233 0.332708 0.139925
0.528374 0.352514 0.146639
0.608850 0.371252 0.154818
0.679438 0.383307 0.168124
0.736812 0.389227 0.185367
0.783261 0.392004 0.203891
0.822080 0.394415 0.222538
0.855009 0.398077 0.241123
0.883055 0.403449 0.258732
0.907836 0.411658 0.275853
0.929442 0.422858 0.292729
0.948608 0.436927 0.308934
0.965728 0.454597 0.325322
0.981018 0.475257 0.341802
0.994385 0.498970 0.359167
1.000000 0.524071 0.377020
1.000000 0.548180 0.394202
1.000000 0.570184 0.410620
1.000000 0.590570 0.426368
1.000000 0.609583 0.441749
1.000000 0.627619 0.457038
1.000000 0.644800 0.472145
1.000000 0.660761 0.486854
1.000000 0.675837 0.501213
0.088685 0.359106 0.115785
0.112581 0.359564 0.116732
0.137942 0.359838 0.118318
0.179904 0.360784 0.120821
0.228794 0.362310 0.125216
0.279637 0.364904 0.131563
0.334661 0.371191 0.139528
0.392004 0.379736 0.148470
0.453010 0.390417 0.156832
0.530236 0.413001 0.161379
0.608118 0.432715 0.167453
0.672724 0.441382 0.178378
0.727718 0.444862 0.192752
0.775051 0.446265 0.210178
0.814603 0.446540 0.228428
0.848234 0.447395 0.246159
0.877287 0.450111 0.263737
0.902708 0.455146 0.280644
0.924529 0.462684 0.296666
0.943938 0.473365 0.312810
0.961364 0.487617 0.329076
0.976928 0.504936 0.345434
0.990661 0.525322 0.362676
1.000000 0.547265 0.380529
1.000000 0.567926 0.397345
1.000000 0.587579 0.413733
1.000000 0.605615 0.429145
1.000000 0.622858 0.444465
1.000000 0.639490 0.459724
1.000000 0.655116 0.474525
1.000000 0.670069 0.489174
1.000000 0.684047 0.503319
0.104860 0.430549 0.136355
0.127138 0.430793 0.136965
0.151644 0.431373 0.138094
0.192630 0.432227 0.140536
0.241855 0.434028 0.143893
0.293370 0.436255 0.148470
0.347875 0.441291 0.154147
0.406256 0.450233 0.160525
0.467811 0.461219 0.168093
0.532860 0.474464 0.175021
0.608515 0.494881 0.179751
0.671138 0.502312 0.189609
0.723842 0.503471 0.202426
0.767666 0.500542 0.217350
0.806607 0.498177 0.234287
0.841306 0.497200 0.251926
0.871366 0.497597 0.269108
0.897002 0.499794 0.285374
0.919127 0.504143 0.301396
0.938933 0.511681 0.317235
0.956725 0.522728 0.333318
0.972625 0.537011 0.349889
0.986633 0.554345 0.367468
0.998962 0.572686 0.384802
1.000000 0.590356 0.401465
1.000000 0.606989 0.417426
1.000000 0.622889 0.432776
1.000000 0.638239 0.448005
1.000000 0.652949 0.462867
1.000000 0.667262 0.477699
1.000000 0.680842 0.492134
1.000000 0.693751 0.506188
0.116945 0.512291 0.151736
0.138308 0.512505 0.152407
0.162509 0.513024 0.153201
0.204807 0.514061 0.154665
0.255253 0.515770 0.156985
0.308782 0.517967 0.160433
0.363745 0.520775 0.164492
0.422187 0.527977 0.169863
0.483192 0.537316 0.175753
0.545739 0.546929 0.182681
0.607446 0.554955 0.190616
0.669306 0.562463 0.199863
0.720790 0.561730 0.212345
0.763943 0.556847 0.226719
0.801877 0.551598 0.242191
0.834592 0.546593 0.257603
0.864958 0.544671 0.274266
0.891020 0.544213 0.290593
0.913512 0.546258 0.306462
0.933715 0.551019 0.322271
0.951781 0.559167 0.338384
0.967864 0.570672 0.355261
0.982177 0.584375 0.372503
0.994873 0.598871 0.389319
1.000000 0.613214 0.405432
1.000000 0.627344 0.421241
1.000000 0.641077 0.436530
1.000000 0.654566 0.451667
1.000000 0.667842 0.466621
1.000000 0.680598 0.481209
1.000000 0.693019 0.495644
1.000000 0.704768 0.509514
0.126986 0.592676 0.164645
0.148623 0.592828 0.164797
0.173037 0.592981 0.165438
0.215457 0.593439 0.166842
0.266117 0.593896 0.169192
0.319707 0.594873 0.172427
0.375097 0.596002 0.175845
0.430335 0.597833 0.180148
0.488899 0.603449 0.186221
0.548241 0.609491 0.193240
0.608087 0.615808 0.200656
0.666804 0.620630 0.209018
0.718624 0.619776 0.221805
0.761776 0.613519 0.236149
0.799069 0.606104 0.251011
0.831205 0.598657 0.266178
0.859068 0.591852 0.280705
0.883848 0.587579 0.295445
0.906920 0.587121 0.311315
0.927642 0.589502 0.327001
0.946105 0.595331 0.343664
0.962707 0.604028 0.360662
0.977417 0.615015 0.378119
0.990631 0.626246 0.394476
1.000000 0.637873 0.410559
1.000000 0.649348 0.425971
1.000000 0.660761 0.440986
1.000000 0.672419 0.456062
1.000000 0.683833 0.470863
1.000000 0.694942 0.485145
1.000000 0.705898 0.499306
1.000000 0.716579 0.513207
0.149233 0.657496 0.180484
0.167178 0.657588 0.181003
0.189029 0.657496 0.181765
0.227695 0.657313 0.182895
0.275639 0.657374 0.184695
0.327337 0.657435 0.187564
0.380529 0.657588 0.190921
0.434272 0.657771 0.194583
0.488869 0.659266 0.199924
0.545464 0.663081 0.206149
0.602380 0.667170 0.213535
0.659632 0.671901 0.222171
0.723110 0.682734 0.234775
0.766812 0.675746 0.249851
0.802731 0.665583 0.265019
0.833768 0.655512 0.280095
0.860777 0.646509 0.294285
0.884276 0.639216 0.308293
0.905028 0.633997 0.321874
0.924956 0.633570 0.337621
0.943389 0.637171 0.354589
0.959838 0.643244 0.371862
0.974640 0.650324 0.388220
0.987884 0.658289 0.404059
0.999756 0.666773 0.419593
1.000000 0.675654 0.434668
1.000000 0.684718 0.449409
1.000000 0.693996 0.463905
1.000000 0.703243 0.478065
1.000000 0.712581 0.492073
1.000000 0.721798 0.505791
1.000000 0.731014 0.519280
0.180758 0.712764 0.199527
0.194858 0.712734 0.200137
0.212985 0.712367 0.200320
0.246372 0.711849 0.201389
0.289006 0.711147 0.203006
0.336339 0.710323 0.205173
0.386206 0.709529 0.208225
0.436835 0.708614 0.211948
0.488441 0.708248 0.216098
0.542046 0.710475 0.222446
0.596735 0.713863 0.230198
0.651362 0.717159 0.238987
0.705501 0.720455 0.248539
0.758877 0.723415 0.258640
0.798428 0.715297 0.273625
0.829313 0.703578 0.288975
0.856138 0.692683 0.303502
0.879606 0.683467 0.317235
0.900359 0.676509 0.331334
0.919371 0.672389 0.345586
0.936736 0.671138 0.360266
0.953765 0.674311 0.376928
0.969116 0.678981 0.393408
0.982910 0.684474 0.409186
0.995270 0.690730 0.424414
1.000000 0.697444 0.439246
1.000000 0.704707 0.453986
1.000000 0.712337 0.468482
1.000000 0.719997 0.482368
1.000000 0.727932 0.496254
1.000000 0.735897 0.509819
1.000000 0.744015 0.523430
0.215976 0.753841 0.219150
0.227420 0.753719 0.219364
0.241001 0.753414 0.219852
0.268620 0.752865 0.220615
0.305303 0.752071 0.222110
0.347967 0.751400 0.224491
0.393591 0.750698 0.227146
0.440803 0.749966 0.230716
0.488991 0.749203 0.234623
0.537652 0.748623 0.239292
0.588678 0.750362 0.246738
0.639857 0.752346 0.254795
0.690547 0.754208 0.263798
0.740352 0.755886 0.273320
0.788815 0.757229 0.283787
0.824826 0.749020 0.298314
0.851530 0.736599 0.313176
0.874815 0.725826 0.327642
0.895689 0.717220 0.341802
0.914763 0.711452 0.356390
0.932341 0.707973 0.370642
0.948486 0.706355 0.384344
0.963531 0.706966 0.398627
0.977905 0.710506 0.414435
0.990753 0.714839 0.429725
1.000000 0.719753 0.444495
1.000000 0.725338 0.459205
1.000000 0.731167 0.473304
1.000000 0.737484 0.487312
1.000000 0.744076 0.501122
1.000000 0.750912 0.514794
1.000000 0.757809 0.528099
0.257053 0.789456 0.240146
0.265385 0.789364 0.240543
0.276097 0.789059 0.240726
0.298131 0.788510 0.241550
0.328893 0.787625 0.243046
0.365332 0.786618 0.244511
0.405341 0.785458 0.247135
0.447852 0.784176 0.250248
0.491859 0.782956 0.253758
0.536767 0.781857 0.258152
0.582666 0.781338 0.263401
0.630457 0.782254 0.271092
0.677760 0.783261 0.279667
0.724453 0.784115 0.288884
0.769986 0.784695 0.299046
0.813870 0.785092 0.309911
0.846921 0.777676 0.324376
0.870359 0.765835 0.339269
0.891173 0.755856 0.353887
0.910399 0.748287 0.367712
0.928099 0.742794 0.381292
0.944457 0.739254 0.394476
0.959411 0.737270 0.407507
0.973114 0.736690 0.420691
0.986145 0.738430 0.434913
0.998138 0.741909 0.449897
1.000000 0.745998 0.464576
1.000000 0.750637 0.479011
1.000000 0.755612 0.492988
1.000000 0.761074 0.506889
1.000000 0.766873 0.520684
1.000000 0.772885 0.534295
0.299474 0.818448 0.260838
0.306065 0.818326 0.261265
0.314122 0.818143 0.261631
0.331731 0.817624 0.262272
0.357000 0.816770 0.263615
0.387793 0.815732 0.265141
0.422370 0.814633 0.267460
0.459876 0.813413 0.270207
0.499611 0.812009 0.273625
0.540276 0.810544 0.277562
0.581781 0.808988 0.282048
0.624811 0.808408 0.288426
0.668544 0.808469 0.296483
0.711879 0.808499 0.305211
0.754177 0.808408 0.315099
0.795346 0.808316 0.325689
0.834806 0.808164 0.337591
0.865629 0.802304 0.351110
0.887083 0.791653 0.365942
0.906462 0.782803 0.379553
0.924376 0.775967 0.392523
0.940887 0.770932 0.405615
0.956023 0.767422 0.418494
0.969940 0.765255 0.431128
0.982635 0.764340 0.443763
0.994263 0.764462 0.456336
1.000000 0.766964 0.470741
1.000000 0.770230 0.485084
1.000000 0.774044 0.499214
1.000000 0.778225 0.512963
1.000000 0.782742 0.526574
1.000000 0.787655 0.540002
0.342138 0.842008 0.281224
0.346838 0.841886 0.281315
0.353613 0.841581 0.281804
0.367376 0.841093 0.282383
0.387823 0.840330 0.283604
0.413367 0.839322 0.285191
0.443000 0.838132 0.287449
0.475593 0.836851 0.289891
0.510582 0.835386 0.293126
0.547051 0.833890 0.296757
0.584649 0.832212 0.301122
0.622705 0.830503 0.306126
0.663050 0.830106 0.313725
0.703182 0.829740 0.322789
0.742641 0.829313 0.332341
0.780819 0.828885 0.342748
0.817746 0.828458 0.353521
0.853300 0.828244 0.364508
0.882658 0.824125 0.376898
0.902678 0.814847 0.390967
0.920623 0.806821 0.403937
0.937224 0.800473 0.416480
0.952544 0.795590 0.428962
0.966583 0.792142 0.441566
0.979461 0.789914 0.453864
0.991241 0.788663 0.466163
1.000000 0.788327 0.478126
1.000000 0.789273 0.490822
1.000000 0.791928 0.504875
1.000000 0.795071 0.518883
1.000000 0.798642 0.532433
1.000000 0.802609 0.546044
0.385595 0.861997 0.302007
0.389776 0.861906 0.302403
0.403357 0.865019 0.307042
0.414038 0.864500 0.307591
0.430213 0.863706 0.308782
0.450843 0.862699 0.310307
0.475166 0.861448 0.312383
0.502373 0.860044 0.314641
0.532525 0.858518 0.317723
0.564355 0.856870 0.321355
0.597467 0.855161 0.325719
0.631281 0.853269 0.330510
0.665949 0.851530 0.336278
0.702510 0.850828 0.344762
0.738247 0.850217 0.353704
0.773190 0.849546 0.362799
0.807309 0.848936 0.372473
0.840238 0.848478 0.382300
0.872190 0.848142 0.392645
0.900053 0.845518 0.403906
0.918517 0.837217 0.417762
0.934966 0.829770 0.429999
0.950195 0.823728 0.441993
0.964172 0.819028 0.454047
0.976989 0.815335 0.465644
0.988769 0.812711 0.477241
0.999603 0.811002 0.488655
1.000000 0.810208 0.500053
1.000000 0.810300 0.511772
1.000000 0.811826 0.524712
1.000000 0.814450 0.538476
1.000000 0.817533 0.552178
0.432258 0.880003 0.325322
0.436439 0.880247 0.326177
0.441810 0.880461 0.327214
0.451667 0.880339 0.328618
0.465461 0.879942 0.330053
0.482979 0.879149 0.331914
0.503349 0.878111 0.333715
0.526665 0.876860 0.336370
0.552483 0.875486 0.339269
0.580041 0.873960 0.342748
0.609094 0.872374 0.346807
0.638941 0.870695 0.351080
0.669459 0.868864 0.356115
0.701106 0.867643 0.362280
0.733791 0.866911 0.370275
0.765927 0.866178 0.378790
0.797513 0.865537 0.387518
0.828305 0.864988 0.396674
0.858457 0.864622 0.406500
0.887663 0.864439 0.416541
0.914549 0.863218 0.427649
0.931884 0.855894 0.441444
0.947173 0.849058 0.453285
0.961303 0.843412 0.464820
0.974273 0.838804 0.476234
0.986175 0.835233 0.487526
0.997131 0.832578 0.498756
1.000000 0.830808 0.510124
1.000000 0.829953 0.521538
1.000000 0.829862 0.533227
1.000000 0.830411 0.544976
1.000000 0.832517 0.558526
0.474617 0.894957 0.348119
0.478157 0.895140 0.348882
0.482429 0.895323 0.349798
0.490272 0.895232 0.350988
0.501701 0.894865 0.352514
0.515740 0.894224 0.353979
0.532830 0.893278 0.355901
0.552239 0.892180 0.358007
0.573877 0.890990 0.360693
0.597559 0.889647 0.363928
0.622766 0.888273 0.367498
0.649012 0.886778 0.371588
0.675898 0.885161 0.375738
0.703273 0.883421 0.380468
0.732570 0.882536 0.387335
0.761990 0.881834 0.394934
0.791104 0.881193 0.403021
0.819791 0.880583 0.411688
0.848020 0.880156 0.420722
0.875608 0.879881 0.430335
0.902464 0.879789 0.440436
0.928344 0.879759 0.451331
0.944579 0.873167 0.464759
0.958740 0.866758 0.476112
0.971771 0.861357 0.487251
0.983764 0.856931 0.498146
0.994812 0.853391 0.509148
1.000000 0.850767 0.520348
1.000000 0.849027 0.531670
1.000000 0.848020 0.543114
1.000000 0.847745 0.554772
1.000000 0.848112 0.566522
0.512291 0.908782 0.369970
0.515007 0.908995 0.370672
0.518669 0.909117 0.371557
0.525109 0.909056 0.372625
0.534295 0.908751 0.373816
0.546166 0.908141 0.375341
0.560143 0.907347 0.376989
0.576471 0.906401 0.379034
0.594934 0.905333 0.381415
0.615229 0.904143 0.384222
0.636988 0.902922 0.387366
0.660060 0.901518 0.391058
0.683864 0.900084 0.394903
0.708370 0.898528 0.399145
0.733608 0.897093 0.404059
0.760647 0.896483 0.411322
0.787716 0.895903 0.419226
0.814542 0.895445 0.427588
0.841032 0.895109 0.436439
0.867063 0.894926 0.445808
0.892576 0.894896 0.455726
0.917418 0.895018 0.465797
0.941833 0.895506 0.476356
0.957366 0.889952 0.489387
0.970489 0.884092 0.500725
0.982513 0.878996 0.511589
0.993500 0.874784 0.522484
1.000000 0.871458 0.533623
1.000000 0.868894 0.544793
1.000000 0.867094 0.556146
1.000000 0.866056 0.567651
1.000000 0.865629 0.579370
0.548760 0.922698 0.393164
0.550744 0.922698 0.393744
0.553124 0.922698 0.393988
0.558038 0.922515 0.394812
0.565515 0.922118 0.395789
0.575158 0.921569 0.396948
0.586938 0.920897 0.398444
0.600885 0.920043 0.400427
0.616754 0.919127 0.402655
0.634272 0.918151 0.405219
0.653407 0.917082 0.408545
0.673701 0.915892 0.411872
0.694850 0.914611 0.415534
0.716640 0.913237 0.419471
0.739071 0.911803 0.423804
0.762692 0.910704 0.429480
0.787411 0.910094 0.436835
0.812039 0.909606 0.444373
0.836545 0.909148 0.452705
0.860777 0.908812 0.461189
0.884581 0.908629 0.470161
0.907927 0.908537 0.479500
0.930755 0.908598 0.489052
0.953277 0.908995 0.499184
0.968414 0.904387 0.511589
0.980591 0.898924 0.522881
0.991608 0.894072 0.533654
1.000000 0.890074 0.544671
1.000000 0.886870 0.555779
1.000000 0.884398 0.567010
1.000000 0.882658 0.578515
1.000000 0.881498 0.590082
0.578424 0.934569 0.413764
0.580133 0.934600 0.414252
0.582238 0.934569 0.414740
0.586358 0.934417 0.415290
0.592676 0.934081 0.416236
0.600855 0.933562 0.417395
0.610864 0.932952 0.418769
0.622675 0.932219 0.420417
0.636378 0.931365 0.422553
0.651667 0.930480 0.425055
0.668360 0.929534 0.427893
0.686275 0.928466 0.431037
0.705074 0.927337 0.434516
0.724697 0.926116 0.438270
0.744900 0.924834 0.442267
0.765682 0.923522 0.446662
0.787961 0.922820 0.452979
0.810697 0.922301 0.460273
0.833524 0.921874 0.467964
0.856077 0.921569 0.476081
0.878477 0.921355 0.484627
0.900572 0.921202 0.493568
0.922179 0.921202 0.502770
0.943359 0.921263 0.512230
0.963561 0.921050 0.520836
0.978515 0.917449 0.533043
0.989776 0.912383 0.544579
0.999908 0.907805 0.555474
1.000000 0.904051 0.566522
1.000000 0.900908 0.577844
1.000000 0.898558 0.589349
1.000000 0.896788 0.600855
0.607874 0.946288 0.435981
0.609400 0.946319 0.436500
0.611109 0.946288 0.436866
0.614649 0.946105 0.437537
0.619715 0.945769 0.438117
0.626520 0.945312 0.439063
0.634943 0.944701 0.440162
0.644984 0.943999 0.441627
0.656550 0.943175 0.443244
0.669673 0.942290 0.445441
0.684138 0.941344 0.447944
0.699672 0.940368 0.450629
0.716243 0.939300 0.453620
0.733669 0.938140 0.457008
0.751675 0.936919 0.460517
0.770260 0.935637 0.464210
0.789517 0.934447 0.468605
0.810391 0.933867 0.475227
0.831449 0.933410 0.482368
0.852598 0.933074 0.489967
0.873594 0.932799 0.498177
0.894377 0.932647 0.506706
0.914855 0.932494 0.515496
0.934874 0.932403 0.524529
0.954376 0.932403 0.533806
0.973510 0.932555 0.543420
0.988220 0.929961 0.555718
0.998505 0.925170 0.567437
1.000000 0.920775 0.578363
1.000000 0.917113 0.589532
1.000000 0.914153 0.600946
1.000000 0.911742 0.612390
0.631983 0.956359 0.455573
0.633356 0.956390 0.456062
0.634882 0.956390 0.456428
0.637842 0.956207 0.457008
0.642237 0.955932 0.457557
0.648157 0.955535 0.458412
0.655573 0.955016 0.459602
0.664332 0.954406 0.460945
0.674586 0.953735 0.462562
0.686183 0.952972 0.464668
0.698909 0.952178 0.466926
0.712917 0.951293 0.469642
0.727718 0.950408 0.472450
0.743374 0.949432 0.475654
0.759762 0.948363 0.479133
0.776669 0.947265 0.482765
0.794095 0.946136 0.486671
0.812528 0.945281 0.491829
0.831968 0.944823 0.498665
0.851591 0.944427 0.505821
0.871183 0.944121 0.513603
0.890654 0.943877 0.521721
0.909911 0.943664 0.530175
0.928801 0.943511 0.538903
0.947295 0.943420 0.547906
0.965332 0.943389 0.557183
0.982940 0.943420 0.566888
0.997375 0.941772 0.579583
1.000000 0.937255 0.591791
1.000000 0.933104 0.603021
1.000000 0.929564 0.614282
1.000000 0.926604 0.625727
0.654902 0.966003 0.475380
0.655940 0.966003 0.475654
0.657160 0.965972 0.475898
0.659724 0.965789 0.476417
0.663447 0.965515 0.476875
0.668544 0.965118 0.477699
0.674861 0.964660 0.478614
0.682521 0.964141 0.479805
0.691554 0.963500 0.481331
0.701747 0.962860 0.483192
0.713130 0.962158 0.485389
0.725612 0.961395 0.487922
0.738979 0.960601 0.490791
0.753170 0.959716 0.493843
0.767971 0.958801 0.497139
0.783322 0.957824 0.500572
0.799252 0.956817 0.504295
0.815671 0.955779 0.508415
0.833341 0.955169 0.514244
0.851499 0.954772 0.521202
0.869749 0.954437 0.528649
0.888029 0.954131 0.536461
0.906096 0.953857 0.544549
0.923919 0.953643 0.553094
0.941436 0.953460 0.561852
0.958556 0.953338 0.570977
0.975280 0.953307 0.580346
0.991485 0.953368 0.590204
1.000000 0.952422 0.603388
1.000000 0.948089 0.615961
1.000000 0.944030 0.627131
1.000000 0.940581 0.638453
0.675380 0.974762 0.494148
0.676265 0.974731 0.494331
0.677333 0.974701 0.494606
0.679500 0.974578 0.494942
0.682918 0.974365 0.495583
0.687587 0.974090 0.496437
0.693507 0.973724 0.497688
0.700649 0.973358 0.499184
0.709041 0.972961 0.501213
0.718502 0.972503 0.503441
0.729000 0.971984 0.505913
0.740444 0.971435 0.508751
0.752682 0.970825 0.511772
0.765621 0.970092 0.514977
0.779110 0.969329 0.518273
0.793057 0.968475 0.521691
0.807584 0.967620 0.525444
0.822568 0.966705 0.529534
0.838041 0.965881 0.534020
0.854765 0.965423 0.540581
0.871611 0.964996 0.547814
0.888518 0.964630 0.555383
0.905303 0.964324 0.563195
0.921904 0.963989 0.571435
0.938293 0.963745 0.580011
0.954345 0.963531 0.588891
0.970031 0.963409 0.598169
0.985290 0.963317 0.607813
1.000000 0.963317 0.617853
1.000000 0.962951 0.631342
1.000000 0.958709 0.644007
1.000000 0.954742 0.655177
0.697292 0.983520 0.515373
0.698054 0.983490 0.515496
0.698909 0.983429 0.515709
0.700771 0.983307 0.515953
0.703700 0.983093 0.516533
0.707668 0.982788 0.517235
0.712734 0.982483 0.518242
0.718807 0.982086 0.519524
0.726040 0.981689 0.521080
0.734310 0.981170 0.523003
0.743435 0.980652 0.525139
0.753536 0.980102 0.527611
0.764370 0.979492 0.530266
0.775937 0.978790 0.533165
0.788144 0.978058 0.536370
0.800931 0.977295 0.539727
