其他预设/【232】美食博客调色预设124款/1.3D LUT预设（视频调色-PR-AE-PS-FCPX-达芬奇用）/Yummy #15.cube
# Created by Adobe Lightroom plugin Export LUT (1.17.0)
# www.johnrellis.com/lightroom/exportlut.htm
# Preset: Yummy #15
# Color profile: /Library/Application Support/Adobe/Color/Profiles/Recommended/AdobeRGB1998.icc
LUT_3D_SIZE 8
DOMAIN_MIN 0.000000 0.000000 0.000000
DOMAIN_MAX 0.903226 0.903226 0.903226
0.138796 0.138796 0.138796
0.170871 0.141543 0.141054
0.281498 0.148379 0.144503
0.501274 0.160220 0.143160
0.684413 0.179324 0.145724
0.804593 0.221927 0.185580
0.849424 0.277165 0.248264
0.868437 0.354345 0.334417
0.139681 0.165133 0.139010
0.174655 0.161196 0.140780
0.268070 0.178256 0.143832
0.468605 0.205142 0.142550
0.669581 0.226627 0.142824
0.785031 0.248020 0.172763
0.840665 0.284642 0.230350
0.866270 0.351507 0.317449
0.140139 0.257328 0.135653
0.177035 0.259648 0.136599
0.298009 0.245701 0.143496
0.481514 0.296849 0.137850
0.677363 0.347631 0.135561
0.784817 0.347997 0.174838
0.844022 0.368444 0.254398
0.864530 0.414160 0.346685
0.132235 0.441871 0.106294
0.190585 0.438788 0.107179
0.327367 0.451209 0.102785
0.577600 0.450507 0.112703
0.721767 0.421363 0.150912
0.788907 0.476173 0.188205
0.836790 0.460517 0.261875
0.858610 0.472847 0.348272
0.109010 0.633875 0.000000
0.188510 0.631922 0.000000
0.333501 0.631495 0.000000
0.539300 0.637995 0.000000
0.710842 0.553277 0.124971
0.784756 0.459174 0.199496
0.826108 0.514885 0.255924
0.850248 0.542046 0.346715
0.109194 0.735897 0.000000
0.183352 0.742489 0.000000
0.316350 0.737453 0.000000
0.456428 0.730037 0.000000
0.663020 0.716274 0.065675
0.785245 0.617304 0.198642
0.830900 0.508263 0.294835
0.848508 0.564233 0.373632
0.140444 0.799130 0.000000
0.191165 0.798947 0.000000
0.297978 0.793454 0.004028
0.419196 0.785946 0.071809
0.551324 0.774319 0.110292
0.739773 0.757321 0.182712
0.822812 0.659327 0.293523
0.847379 0.558068 0.398566
0.189700 0.832151 0.134554
0.219364 0.831083 0.136599
0.300053 0.827939 0.149599
0.403540 0.823026 0.179721
0.499245 0.811612 0.175937
0.639612 0.799832 0.237125
0.791379 0.783078 0.335302
0.837827 0.701228 0.453193
0.138582 0.139223 0.160647
0.162966 0.139742 0.165866
0.259281 0.142275 0.174380
0.457740 0.143282 0.176303
0.661128 0.158083 0.181308
0.775418 0.204318 0.207340
0.835050 0.264500 0.257450
0.862821 0.342260 0.333501
0.138094 0.162905 0.161074
0.168612 0.165438 0.164187
0.258518 0.176394 0.170596
0.449744 0.190738 0.173800
0.652766 0.209934 0.177615
0.765347 0.236149 0.200412
0.827543 0.275181 0.244083
0.860014 0.338567 0.315984
0.138766 0.246830 0.163668
0.172519 0.252293 0.162905
0.285618 0.240909 0.169039
0.455146 0.294713 0.167636
0.648035 0.327214 0.169924
0.761990 0.333013 0.198581
0.827665 0.350561 0.253483
0.858824 0.396033 0.335454
0.098939 0.417365 0.139284
0.169497 0.419471 0.141726
0.303288 0.434516 0.139742
0.522393 0.410468 0.154482
0.668971 0.399664 0.171847
0.756130 0.450721 0.195315
0.820096 0.441382 0.252934
0.853086 0.456397 0.334173
0.000000 0.624689 0.076753
0.156741 0.620447 0.078096
0.314916 0.615595 0.081209
0.510369 0.613336 0.086152
0.681758 0.532067 0.154452
0.766293 0.454139 0.212131
0.815976 0.512688 0.263096
0.846036 0.535088 0.345586
0.030488 0.724666 0.000000
0.152346 0.723903 0.000000
0.297917 0.719905 0.027741
0.442695 0.715877 0.071687
0.649470 0.706874 0.118654
0.778317 0.614221 0.224582
0.825589 0.512078 0.309636
0.844999 0.564202 0.376257
0.105409 0.790127 0.066926
0.164034 0.787625 0.065370
0.282475 0.783383 0.078523
0.409888 0.778500 0.107546
0.541619 0.769314 0.138766
0.732296 0.752651 0.198154
0.816861 0.654566 0.294469
0.844236 0.551110 0.386511
0.174655 0.829282 0.152926
0.208835 0.828611 0.157900
0.293797 0.825681 0.170504
0.399939 0.821073 0.198032
0.506249 0.813321 0.226535
0.639612 0.800381 0.270665
0.788785 0.782345 0.348669
0.836393 0.699580 0.451667
0.135073 0.138766 0.240848
0.167300 0.137911 0.245121
0.255070 0.141878 0.265721
0.470466 0.037079 0.353643
0.674556 0.000000 0.319524
0.775326 0.235050 0.328862
0.829252 0.331823 0.378363
0.852445 0.420050 0.442481
0.135470 0.167880 0.241337
0.167178 0.167086 0.243931
0.258366 0.169223 0.264164
0.458778 0.131106 0.316564
0.662196 0.113771 0.277012
0.766690 0.253788 0.317571
0.825162 0.332036 0.363897
0.851652 0.416602 0.431128
0.137148 0.250034 0.241398
0.166934 0.254795 0.244755
0.276127 0.257908 0.250919
0.471015 0.288518 0.263951
0.662959 0.318822 0.287236
0.763668 0.346868 0.317784
0.821439 0.386816 0.363622
0.848966 0.445686 0.429328
0.063416 0.424353 0.265995
0.123201 0.432898 0.258762
0.283574 0.454566 0.239628
0.524529 0.423651 0.264408
0.669001 0.446143 0.288914
0.758328 0.462470 0.319219
0.816190 0.469703 0.368383
0.844388 0.498909 0.433997
0.000000 0.621607 0.253147
0.000000 0.623804 0.237461
0.280583 0.624079 0.222049
0.483497 0.622766 0.231968
0.683528 0.546044 0.280491
0.761257 0.494179 0.319646
0.807187 0.548638 0.363500
0.837766 0.559838 0.433234
0.000000 0.724269 0.218051
0.008026 0.724331 0.208957
0.274327 0.719173 0.215152
0.431067 0.711940 0.222232
0.628534 0.701717 0.246220
0.765530 0.617182 0.320073
0.814267 0.543603 0.387457
0.835142 0.598688 0.455055
0.081910 0.791257 0.225742
0.155734 0.789303 0.226749
0.278508 0.783566 0.227939
0.406683 0.776333 0.235508
0.531121 0.766690 0.247929
0.721553 0.751736 0.297307
0.810666 0.666194 0.386084
0.835966 0.593164 0.471290
0.200351 0.827359 0.263920
0.221103 0.826291 0.259648
0.300084 0.822934 0.264500
0.410285 0.818845 0.292546
0.512902 0.810971 0.311650
0.635401 0.799496 0.348821
0.781979 0.782528 0.423407
0.829740 0.711238 0.512749
0.115846 0.132082 0.405768
0.171176 0.128664 0.414405
0.294224 0.113771 0.422827
0.433967 0.076326 0.458045
0.651118 0.000000 0.569085
0.756619 0.158450 0.504112
0.813077 0.331304 0.485512
0.835630 0.476112 0.532799
0.076509 0.163882 0.418494
0.154208 0.161227 0.421241
0.290867 0.149996 0.425513
0.440558 0.129091 0.461067
0.650263 0.061982 0.551690
0.752285 0.214023 0.489479
0.809354 0.354955 0.479500
0.833799 0.486122 0.533074
0.000000 0.280949 0.409369
0.103182 0.273472 0.411444
0.263310 0.255497 0.416907
0.462257 0.263706 0.467079
0.651026 0.294835 0.493629
0.751461 0.382696 0.475990
0.804868 0.480751 0.518456
0.832181 0.524010 0.547173
0.000000 0.433600 0.412787
0.070741 0.438148 0.415656
0.264378 0.453346 0.425605
0.490425 0.452430 0.437781
0.641840 0.476783 0.450782
0.737881 0.492683 0.470863
0.797879 0.517815 0.500908
0.828885 0.552453 0.540551
0.000000 0.625147 0.427680
0.000000 0.623285 0.421820
0.261631 0.623163 0.411170
0.473091 0.624079 0.425116
0.664027 0.571405 0.458381
0.740414 0.571344 0.478553
0.792477 0.590173 0.503380
0.824125 0.598749 0.539330
0.000000 0.727291 0.391913
0.102968 0.732113 0.396399
0.294530 0.725032 0.398749
0.458198 0.716152 0.416938
0.610956 0.706630 0.427039
0.750423 0.641230 0.475532
0.797086 0.605615 0.509331
0.820096 0.645136 0.547295
0.113008 0.787930 0.369146
0.183658 0.787167 0.373419
0.324620 0.782528 0.395514
0.445899 0.775875 0.412818
0.553491 0.766995 0.417273
0.708339 0.753506 0.445655
0.797391 0.685206 0.502312
0.822934 0.638148 0.552972
0.252323 0.825040 0.386786
0.287388 0.823667 0.395850
0.380957 0.818173 0.426062
0.451209 0.813718 0.428138
0.538262 0.806394 0.437903
0.631434 0.797452 0.456397
0.770657 0.782437 0.513237
0.819883 0.726284 0.583703
0.062989 0.117861 0.594659
0.156863 0.110842 0.597192
0.300420 0.080476 0.597162
0.454261 0.000000 0.602045
0.598169 0.000000 0.632685
0.735470 0.124147 0.690944
0.797696 0.311528 0.632959
0.827756 0.454902 0.615717
0.000000 0.153414 0.595911
0.122103 0.148775 0.600305
0.291020 0.129824 0.600031
0.455756 0.094331 0.603998
0.599054 0.119478 0.630549
0.733883 0.196017 0.687617
0.796017 0.347143 0.629328
0.826169 0.471748 0.615473
0.000000 0.272770 0.592218
0.000000 0.260990 0.593439
0.248783 0.248814 0.595270
0.448524 0.254032 0.599359
0.602197 0.280339 0.621698
0.724300 0.334478 0.653895
0.788510 0.431250 0.613458
0.820951 0.514183 0.610346
0.000000 0.443641 0.586847
0.000000 0.440345 0.586816
0.237705 0.434485 0.589441
0.459083 0.447395 0.591608
0.619135 0.467323 0.617731
0.718593 0.498573 0.610559
0.780148 0.541161 0.601678
0.811978 0.593957 0.621210
0.000000 0.605585 0.575830
0.000000 0.607385 0.576867
0.255192 0.609308 0.577325
0.471687 0.607233 0.578027
0.620874 0.591821 0.580865
0.709529 0.601068 0.583459
0.772976 0.608118 0.594537
0.809903 0.622736 0.612970
0.000000 0.708248 0.529839
0.022370 0.707424 0.528985
0.273289 0.701472 0.526360
0.451972 0.693385 0.537926
0.580957 0.686580 0.545922
0.720211 0.652552 0.579278
0.774197 0.656641 0.599481
0.805875 0.672511 0.618311
0.134585 0.779934 0.496590
0.191135 0.778103 0.497383
0.322362 0.772580 0.506218
0.468055 0.764187 0.532586
0.570092 0.757229 0.543664
0.680903 0.748379 0.551080
0.779263 0.698665 0.587396
0.808743 0.672541 0.611566
0.245823 0.818997 0.478096
0.276555 0.817594 0.481636
0.366705 0.812558 0.497810
0.493629 0.805600 0.540703
0.564019 0.799680 0.545892
0.639948 0.792203 0.551873
0.753567 0.780880 0.583642
0.809598 0.736233 0.633295
0.000000 0.111299 0.713466
0.130190 0.105501 0.713252
0.278172 0.081117 0.709529
0.428046 0.001587 0.712795
0.564569 0.070008 0.711330
0.680507 0.180545 0.718288
0.782376 0.301427 0.752712
0.814939 0.446723 0.719631
0.000000 0.146334 0.705623
0.090059 0.142489 0.704982
0.265324 0.128817 0.704158
0.420203 0.112856 0.705653
0.560723 0.137819 0.704616
0.678431 0.218479 0.713741
0.779660 0.327276 0.749203
0.813657 0.459022 0.716152
0.000000 0.247318 0.708156
0.000000 0.247105 0.707424
0.238102 0.248966 0.706355
0.417487 0.259709 0.705135
0.569085 0.287999 0.701595
0.684169 0.346746 0.710506
0.774655 0.424506 0.742763
0.810025 0.513359 0.709041
0.000000 0.414435 0.703120
0.000000 0.412207 0.701411
0.264164 0.420203 0.699825
0.453620 0.449866 0.702022
0.599420 0.477211 0.700465
0.698848 0.506493 0.710475
0.770077 0.543053 0.729549
0.804898 0.588190 0.701686
0.000000 0.563043 0.685969
0.000000 0.563165 0.685939
0.271000 0.566186 0.685298
0.466590 0.580194 0.683894
0.601312 0.593286 0.681361
0.698634 0.601709 0.696529
0.761257 0.618433 0.691707
0.798306 0.642817 0.685389
0.000000 0.699214 0.667720
0.070314 0.701076 0.669734
0.298100 0.699886 0.669520
0.469703 0.694881 0.668177
0.598047 0.686854 0.665675
0.697322 0.678065 0.670893
0.756497 0.685389 0.675013
0.794217 0.690913 0.683742
0.208774 0.774960 0.625086
0.258854 0.774258 0.627314
0.370733 0.768765 0.631495
0.491493 0.760739 0.639734
0.596918 0.751888 0.650690
0.674617 0.745083 0.654353
0.762142 0.717647 0.670680
0.793668 0.717037 0.682338
0.284733 0.813596 0.584894
0.310765 0.812161 0.586786
0.388556 0.807431 0.594873
0.492012 0.800595 0.612512
0.589837 0.792020 0.634974
0.657343 0.786007 0.643153
0.735134 0.779446 0.654627
0.798062 0.749630 0.688899
0.000000 0.113985 0.770504
0.104524 0.111330 0.771359
0.247898 0.099825 0.770260
0.383001 0.088411 0.768978
0.517449 0.109926 0.765682
0.628199 0.191745 0.761227
0.723964 0.292546 0.762234
0.803464 0.409918 0.785550
0.000000 0.143130 0.765835
0.061677 0.141360 0.766598
0.236271 0.134432 0.765805
0.376165 0.129702 0.763821
0.512535 0.147433 0.760464
0.624384 0.210636 0.755764
0.720119 0.298497 0.757229
0.801144 0.404883 0.782223
0.000000 0.233280 0.766415
0.000000 0.233646 0.766018
0.213687 0.236149 0.764096
0.372717 0.246921 0.761685
0.515038 0.270481 0.757351
0.631922 0.321202 0.752743
0.725673 0.396338 0.755917
0.798611 0.477913 0.779110
0.000000 0.380407 0.762753
0.000000 0.381231 0.761440
0.247684 0.387518 0.759060
0.402045 0.405646 0.756863
0.537957 0.430945 0.752651
0.651911 0.467994 0.748928
0.733913 0.511742 0.753689
0.794003 0.558556 0.773404
0.000000 0.508659 0.750637
0.000000 0.508354 0.749508
0.259098 0.513268 0.747066
0.435554 0.537499 0.744198
0.558679 0.555901 0.741268
0.662318 0.571374 0.738216
0.735744 0.593622 0.745296
0.788022 0.625879 0.764065
0.000000 0.637385 0.738857
0.105867 0.637903 0.738582
0.288212 0.640711 0.737514
0.446754 0.648432 0.736233
0.576501 0.658412 0.734279
0.675196 0.670130 0.733394
0.743648 0.678431 0.742947
0.784482 0.692103 0.742306
0.157717 0.757748 0.728359
0.217868 0.757717 0.728786
0.341100 0.755581 0.728328
0.469856 0.751919 0.728023
0.583429 0.745571 0.726040
0.675471 0.738216 0.724208
0.743038 0.731533 0.727321
0.781155 0.735927 0.730343
0.295384 0.805875 0.679561
0.322698 0.804685 0.680507
0.410681 0.801480 0.686671
0.505089 0.795407 0.693385
0.596277 0.787747 0.701991
0.674647 0.780545 0.713222
0.729854 0.776211 0.719417
0.786679 0.762081 0.736507
0.000000 0.120394 0.803189
0.081666 0.119020 0.803250
0.217655 0.113039 0.801907
0.340154 0.112337 0.800656
0.461891 0.134646 0.798306
0.582574 0.191012 0.794797
0.673121 0.288609 0.790799
0.752102 0.393011 0.788998
0.000000 0.143069 0.801602
0.008270 0.142611 0.801694
0.207919 0.139193 0.800595
0.335576 0.140902 0.799008
0.459724 0.162814 0.796689
0.581353 0.213230 0.793149
0.672389 0.300877 0.788998
0.751461 0.399969 0.787594
0.000000 0.212833 0.799466
0.000000 0.213840 0.799313
0.178103 0.214878 0.797696
0.329534 0.229923 0.797208
0.460395 0.254154 0.794308
0.583368 0.295659 0.790097
0.676997 0.368902 0.785885
0.753445 0.450813 0.785306
0.000000 0.334752 0.796017
0.000000 0.329778 0.796262
0.180728 0.335332 0.794797
0.339696 0.352239 0.793057
0.474647 0.379828 0.790127
0.596063 0.418463 0.785977
0.688319 0.469673 0.782040
0.758022 0.527947 0.782681
0.000000 0.449561 0.789517
0.000000 0.452125 0.789578
0.214572 0.460090 0.788296
0.386297 0.488319 0.785946
0.500572 0.503746 0.782925
0.608759 0.526757 0.779355
0.699733 0.561303 0.776516
0.763394 0.608026 0.779507
0.000000 0.569604 0.781277
0.000000 0.569451 0.780758
0.212284 0.571130 0.779355
0.374426 0.581262 0.777371
0.520409 0.604700 0.774868
0.632410 0.631525 0.773281
0.717861 0.656062 0.772885
0.768978 0.679622 0.776577
0.042329 0.686702 0.773495
0.136110 0.686671 0.773129
0.267643 0.687312 0.772061
0.407568 0.691157 0.770932
0.539055 0.698878 0.769467
0.649012 0.710842 0.768582
0.725826 0.723476 0.768338
0.772244 0.731899 0.773007
0.254276 0.793179 0.766934
0.280400 0.792508 0.766659
0.359564 0.790524 0.766110
0.466743 0.787228 0.765774
0.572992 0.782559 0.765316
0.662623 0.777646 0.765072
0.731991 0.772732 0.765133
0.775540 0.771176 0.769589
