其他预设/【237】莫兰迪灰色调LR预设合集/Virid/Lightroom Desktop/Virid no.2.lrtemplate
s = {
	id = "49FABDA8-9213-4D36-8E1C-C76914DBFFC5",
	internalName = "Virid no.2",
	title = "Virid no.2",
	type = "Develop",
	value = {
		settings = {
			AutoLateralCA = 0,
			Blacks2012 = 15,
			BlueHue = -5,
			BlueSaturation = 15,
			CameraProfile = "Adobe Standard",
			ChromaticAberrationB = 0,
			ChromaticAberrationR = 0,
			Clarity2012 = 10,
			ColorNoiseReduction = 0,
			ColorNoiseReductionDetail = 50,
			ColorNoiseReductionSmoothness = 50,
			Contrast2012 = 13,
			ConvertToGrayscale = false,
			CropConstrainToWarp = 0,
			Defringe = 0,
			DefringeGreenAmount = 0,
			DefringeGreenHueHi = 60,
			DefringeGreenHueLo = 40,
			DefringePurpleAmount = 0,
			DefringePurpleHueHi = 70,
			DefringePurpleHueLo = 30,
			Dehaze = 0,
			EnableCalibration = true,
			EnableColorAdjustments = true,
			EnableDetail = true,
			EnableEffects = true,
			EnableLensCorrections = true,
			EnableSplitToning = true,
			Exposure2012 = 0,
			GrainAmount = 4,
			GrainFrequency = 50,
			GrainSize = 25,
			GreenHue = 42,
			GreenSaturation = 0,
			Highlights2012 = -58,
			HueAdjustmentAqua = 10,
			HueAdjustmentBlue = -5,
			HueAdjustmentGreen = 35,
			HueAdjustmentMagenta = 20,
			HueAdjustmentOrange = -4,
			HueAdjustmentPurple = 20,
			HueAdjustmentRed = 5,
			HueAdjustmentYellow = 0,
			LensManualDistortionAmount = 0,
			LuminanceAdjustmentAqua = 12,
			LuminanceAdjustmentBlue = -18,
			LuminanceAdjustmentGreen = 32,
			LuminanceAdjustmentMagenta = 20,
			LuminanceAdjustmentOrange = 18,
			LuminanceAdjustmentPurple = 21,
			LuminanceAdjustmentRed = 7,
			LuminanceAdjustmentYellow = 12,
			LuminanceNoiseReductionContrast = 0,
			LuminanceNoiseReductionDetail = 50,
			LuminanceSmoothing = 0,
			ParametricDarks = 0,
			ParametricHighlightSplit = 75,
			ParametricHighlights = 4,
			ParametricLights = -4,
			ParametricMidtoneSplit = 60,
			ParametricShadowSplit = 14,
			ParametricShadows = 0,
			PostCropVignetteAmount = 0,
			PostCropVignetteFeather = 50,
			PostCropVignetteHighlightContrast = 0,
			PostCropVignetteMidpoint = 50,
			PostCropVignetteRoundness = 0,
			PostCropVignetteStyle = 1,
			ProcessVersion = "10.0",
			RedHue = 25,
			RedSaturation = 20,
			Saturation = 3,
			SaturationAdjustmentAqua = -50,
			SaturationAdjustmentBlue = -30,
			SaturationAdjustmentGreen = -37,
			SaturationAdjustmentMagenta = -40,
			SaturationAdjustmentOrange = -15,
			SaturationAdjustmentPurple = -50,
			SaturationAdjustmentRed = -30,
			SaturationAdjustmentYellow = -15,
			ShadowTint = -4,
			Shadows2012 = 33,
			SharpenDetail = 25,
			SharpenEdgeMasking = 0,
			SharpenRadius = 1,
			Sharpness = 3,
			SplitToningBalance = 0,
			SplitToningHighlightHue = 0,
			SplitToningHighlightSaturation = 0,
			SplitToningShadowHue = 0,
			SplitToningShadowSaturation = 0,
			Temperature = 4714,
			Tint = 10,
			ToneCurveName2012 = "Custom",
			ToneCurvePV2012 = {
				0,
				39,
				39,
				46,
				77,
				74,
				130,
				130,
				182,
				188,
				255,
				250,
			},
			ToneCurvePV2012Blue = {
				0,
				0,
				20,
				12,
				80,
				70,
				119,
				122,
				183,
				197,
				255,
				255,
			},
			ToneCurvePV2012Green = {
				0,
				0,
				29,
				7,
				120,
				124,
				181,
				198,
				255,
				255,
			},
			ToneCurvePV2012Red = {
				0,
				0,
				31,
				7,
				72,
				51,
				119,
				122,
				179,
				197,
				255,
				255,
			},
			Vibrance = -30,
			VignetteAmount = 0,
			VignetteMidpoint = 50,
			WhiteBalance = "Custom",
			Whites2012 = -18,
		},
		uuid = "DBBA10F4-DD11-43F9-A6A9-28CF736EF6A4",
	},
	version = 0,
}
