其他预设/【237】莫兰迪灰色调LR预设合集/La Joliet/Lightroom Desktop/La Joliet no.2.lrtemplate
s = {
	id = "9B7189FB-8C3E-41E6-BF91-6963EE57E2D2",
	internalName = "La Joliet no.2",
	title = "La Joliet no.2",
	type = "Develop",
	value = {
		settings = {
			AutoLateralCA = 0,
			Blacks2012 = -21,
			BlueHue = -28,
			BlueSaturation = -17,
			CameraProfile = "Adobe Standard",
			ChromaticAberrationB = 0,
			ChromaticAberrationR = 0,
			Clarity2012 = 35,
			ColorNoiseReduction = 36,
			ColorNoiseReductionDetail = 50,
			ColorNoiseReductionSmoothness = 50,
			Contrast2012 = 25,
			ConvertToGrayscale = false,
			CropConstrainToWarp = 0,
			Defringe = 0,
			DefringeGreenAmount = 0,
			DefringeGreenHueHi = 60,
			DefringeGreenHueLo = 40,
			DefringePurpleAmount = 0,
			DefringePurpleHueHi = 70,
			DefringePurpleHueLo = 30,
			Dehaze = 0,
			EnableCalibration = true,
			EnableColorAdjustments = true,
			EnableDetail = true,
			EnableEffects = true,
			EnableLensCorrections = true,
			EnableSplitToning = true,
			Exposure2012 = 0.56,
			GrainAmount = 0,
			GrainFrequency = 50,
			GrainSize = 25,
			GreenHue = 100,
			GreenSaturation = -31,
			Highlights2012 = -72,
			HueAdjustmentAqua = -45,
			HueAdjustmentBlue = 40,
			HueAdjustmentGreen = 68,
			HueAdjustmentMagenta = 0,
			HueAdjustmentOrange = 0,
			HueAdjustmentPurple = 0,
			HueAdjustmentRed = 0,
			HueAdjustmentYellow = 36,
			LensManualDistortionAmount = 0,
			LuminanceAdjustmentAqua = -27,
			LuminanceAdjustmentBlue = -33,
			LuminanceAdjustmentGreen = 86,
			LuminanceAdjustmentMagenta = 0,
			LuminanceAdjustmentOrange = -19,
			LuminanceAdjustmentPurple = 3,
			LuminanceAdjustmentRed = 19,
			LuminanceAdjustmentYellow = -21,
			LuminanceNoiseReductionContrast = 0,
			LuminanceNoiseReductionDetail = 50,
			LuminanceSmoothing = 26,
			ParametricDarks = -13,
			ParametricHighlightSplit = 75,
			ParametricHighlights = 0,
			ParametricLights = 14,
			ParametricMidtoneSplit = 50,
			ParametricShadowSplit = 25,
			ParametricShadows = 0,
			PostCropVignetteAmount = 0,
			PostCropVignetteFeather = 50,
			PostCropVignetteHighlightContrast = 0,
			PostCropVignetteMidpoint = 50,
			PostCropVignetteRoundness = 0,
			PostCropVignetteStyle = 1,
			ProcessVersion = "10.0",
			RedHue = 22,
			RedSaturation = 22,
			Saturation = -27,
			SaturationAdjustmentAqua = -38,
			SaturationAdjustmentBlue = -19,
			SaturationAdjustmentGreen = -55,
			SaturationAdjustmentMagenta = 0,
			SaturationAdjustmentOrange = 6,
			SaturationAdjustmentPurple = 0,
			SaturationAdjustmentRed = -9,
			SaturationAdjustmentYellow = -9,
			ShadowTint = 0,
			Shadows2012 = 59,
			SharpenDetail = 25,
			SharpenEdgeMasking = 0,
			SharpenRadius = 1,
			Sharpness = 39,
			SplitToningBalance = 7,
			SplitToningHighlightHue = 45,
			SplitToningHighlightSaturation = 24,
			SplitToningShadowHue = 188,
			SplitToningShadowSaturation = 13,
			Temperature = 4825,
			Tint = 10,
			ToneCurveName2012 = "Custom",
			ToneCurvePV2012 = {
				0,
				13,
				128,
				128,
				192,
				190,
				255,
				244,
			},
			ToneCurvePV2012Blue = {
				0,
				0,
				255,
				255,
			},
			ToneCurvePV2012Green = {
				0,
				0,
				255,
				255,
			},
			ToneCurvePV2012Red = {
				0,
				0,
				255,
				255,
			},
			Vibrance = 18,
			VignetteAmount = 0,
			VignetteMidpoint = 50,
			WhiteBalance = "Custom",
			Whites2012 = 30,
		},
		uuid = "7E7B4248-99BD-4FF1-BE05-089D0EE9D158",
	},
	version = 0,
}
