其他预设/【223】英伦米色调色预设8款/1.LUT预设（视频调色-PR-AE-PS-FCPX-达芬奇用）/英伦米色__-1.cube
# Created by Adobe Lightroom plugin Export LUT (1.17.0)
# www.johnrellis.com/lightroom/exportlut.htm
# Preset: 英伦米色[素锦印象]-1
# Color profile: /Library/Application Support/Adobe/Color/Profiles/Recommended/AdobeRGB1998.icc
LUT_3D_SIZE 8
DOMAIN_MIN 0.000000 0.000000 0.000000
DOMAIN_MAX 0.903226 0.903226 0.903226
0.000000 0.000000 0.000000
0.115785 0.000000 0.003601
0.239322 0.000000 0.002045
0.368475 0.000000 0.000000
0.498421 0.000000 0.000000
0.636530 0.000000 0.000000
0.809354 0.000000 0.000000
0.939513 0.000000 0.000000
0.072297 0.101015 0.018372
0.120546 0.105196 0.003845
0.235050 0.094240 0.000000
0.357519 0.076692 0.000000
0.484230 0.000000 0.000000
0.621881 0.000000 0.000000
0.786679 0.000000 0.000000
0.924285 0.000000 0.000000
0.149813 0.217166 0.032471
0.156466 0.228000 0.000000
0.255009 0.223056 0.000000
0.375067 0.221286 0.000000
0.494972 0.211826 0.000000
0.651270 0.208286 0.000000
0.820706 0.192813 0.000000
0.947478 0.140200 0.000000
0.232212 0.339727 0.065126
0.234470 0.344366 0.022004
0.285557 0.350805 0.000000
0.410346 0.363806 0.000000
0.562860 0.381842 0.000000
0.699489 0.376806 0.000000
0.830930 0.362341 0.000000
0.945922 0.333745 0.000000
0.320836 0.473152 0.092714
0.322667 0.477638 0.073335
0.334966 0.499031 0.000000
0.444800 0.507225 0.000000
0.565789 0.507897 0.000000
0.693996 0.505882 0.000000
0.819974 0.496345 0.000000
0.941436 0.478614 0.000000
0.413733 0.616785 0.117525
0.424506 0.634333 0.107027
0.430762 0.647120 0.000000
0.485389 0.657404 0.000000
0.594873 0.650752 0.000000
0.716579 0.647517 0.000000
0.838102 0.637751 0.000000
0.951446 0.618433 0.000000
0.510277 0.762875 0.158785
0.513176 0.768185 0.149264
0.513176 0.772519 0.092439
0.519341 0.786587 0.000000
0.615137 0.779324 0.000000
0.730190 0.775631 0.000000
0.849516 0.767941 0.000000
0.949065 0.740688 0.000000
0.600061 0.886961 0.228214
0.599451 0.887968 0.218357
0.599725 0.894011 0.181827
0.604517 0.908751 0.082826
0.633112 0.897856 0.000000
0.745083 0.898405 0.000000
0.868742 0.899535 0.000000
0.980652 0.880919 0.000000
0.065614 0.074617 0.099275
0.120058 0.048432 0.110964
0.234226 0.002045 0.107027
0.359289 0.000000 0.105196
0.483986 0.000000 0.098970
0.620172 0.000000 0.088441
0.776364 0.000000 0.070069
0.911986 0.000000 0.000000
0.091859 0.105135 0.089052
0.129732 0.121553 0.109621
0.239384 0.114504 0.108339
0.358221 0.096345 0.103822
0.480201 0.050752 0.096529
0.615045 0.000000 0.085756
0.759670 0.000000 0.062531
0.895689 0.000000 0.000000
0.169833 0.213931 0.119173
0.178714 0.228244 0.114870
0.259464 0.230930 0.105867
0.370459 0.223850 0.102876
0.486122 0.212802 0.093751
0.628138 0.204044 0.082185
0.776486 0.181765 0.055360
0.913542 0.129335 0.000000
0.240696 0.329992 0.130037
0.245090 0.337774 0.122988
0.284184 0.350774 0.097780
0.395483 0.352544 0.094545
0.518639 0.353246 0.089174
0.646143 0.348821 0.074006
0.782101 0.340307 0.019165
0.912718 0.319738 0.000000
0.329900 0.469276 0.151583
0.329961 0.471595 0.140597
0.337316 0.487709 0.095705
0.426947 0.487831 0.080598
0.537072 0.482765 0.066987
0.664973 0.485420 0.026490
0.795621 0.482155 0.000000
0.921447 0.468086 0.000000
0.411688 0.600732 0.163607
0.413611 0.605066 0.154452
0.419867 0.618830 0.114534
0.468696 0.636194 0.014893
0.580468 0.636225 0.000000
0.707210 0.640162 0.000000
0.827481 0.630610 0.000000
0.938170 0.610224 0.000000
0.500786 0.739681 0.187442
0.498909 0.738643 0.176303
0.501457 0.746517 0.139956
0.511833 0.767239 0.000000
0.604303 0.767605 0.000000
0.717067 0.763149 0.000000
0.831296 0.752468 0.000000
0.930510 0.726558 0.000000
0.595789 0.874022 0.247318
0.596887 0.876951 0.240696
0.598169 0.884245 0.210513
0.603815 0.900359 0.142916
0.641321 0.909453 0.000000
0.748104 0.903136 0.000000
0.865110 0.896788 0.000000
0.973938 0.875181 0.000000
0.116884 0.146334 0.210300
0.139681 0.131991 0.221225
0.258427 0.104463 0.235752
0.377539 0.088014 0.231449
0.502953 0.001251 0.228824
0.654139 0.000000 0.230228
0.800351 0.000000 0.226322
0.928161 0.000000 0.213596
0.152834 0.184695 0.207980
0.174105 0.183230 0.218357
0.260685 0.156771 0.232517
0.374670 0.144137 0.227390
0.497902 0.118318 0.224033
0.644617 0.059754 0.225284
0.788235 0.000000 0.219699
0.920195 0.000000 0.208225
0.200504 0.229191 0.191562
0.221195 0.237369 0.205753
0.276097 0.260166 0.230350
0.386328 0.253696 0.229343
0.518456 0.248569 0.229984
0.655146 0.233402 0.226658
0.791928 0.203555 0.218601
0.920104 0.146304 0.205661
0.281987 0.336675 0.224002
0.295995 0.349157 0.236637
0.315435 0.379950 0.233341
0.420600 0.385138 0.229892
0.544335 0.383337 0.233463
0.671504 0.374762 0.227390
0.802548 0.360143 0.218845
0.925353 0.332616 0.204349
0.368872 0.472572 0.260838
0.372290 0.479652 0.257816
0.382391 0.501701 0.242130
0.446571 0.518334 0.224216
0.563134 0.513695 0.220188
0.682063 0.505364 0.217441
0.805142 0.495155 0.213046
0.927245 0.476753 0.199405
0.442542 0.603876 0.268498
0.445563 0.609308 0.265599
0.451179 0.622644 0.248478
0.468910 0.643671 0.209751
0.579248 0.640681 0.206210
0.703487 0.641657 0.203922
0.823606 0.632502 0.204715
0.941314 0.617792 0.203159
0.532006 0.745998 0.296178
0.531273 0.746639 0.289891
0.529686 0.751156 0.265690
0.533379 0.766079 0.220249
0.601465 0.770291 0.190188
0.717525 0.768582 0.185122
0.840116 0.764431 0.183871
0.943999 0.741451 0.184329
0.620966 0.871977 0.345129
0.618067 0.871702 0.334936
0.616419 0.877104 0.310674
0.624537 0.897246 0.276097
0.637690 0.910277 0.200320
0.746578 0.906096 0.192477
0.865690 0.901396 0.183200
0.977996 0.881987 0.172549
0.183047 0.225986 0.318364
0.191562 0.216861 0.328740
0.267277 0.195041 0.348241
0.393011 0.165957 0.359258
0.521691 0.150057 0.360601
0.655116 0.110445 0.360601
0.788602 0.000000 0.357244
0.916014 0.000000 0.345678
0.219272 0.261295 0.323400
0.231571 0.259281 0.331456
0.277775 0.231052 0.349310
0.399115 0.203281 0.361639
0.524285 0.189487 0.360296
0.651881 0.160159 0.357061
0.783474 0.090822 0.352178
0.913146 0.000000 0.340703
0.250156 0.320256 0.318120
0.266667 0.320256 0.323033
0.311162 0.316381 0.343420
0.409888 0.293919 0.361181
0.536553 0.288151 0.361578
0.672541 0.277195 0.363622
0.811337 0.258885 0.365881
0.928832 0.200595 0.350347
0.315312 0.364355 0.302037
0.327153 0.368414 0.309636
0.370062 0.383185 0.340185
0.432868 0.414282 0.362768
0.550072 0.408392 0.362493
0.674495 0.398962 0.359167
0.803372 0.382940 0.354955
0.927703 0.354559 0.345953
0.409339 0.478492 0.341100
0.414771 0.482704 0.346166
0.439612 0.504906 0.368017
0.465278 0.548211 0.363989
0.583185 0.545800 0.361669
0.697322 0.534020 0.364172
0.816312 0.519799 0.358770
0.932372 0.495155 0.345556
0.491707 0.615442 0.376410
0.506584 0.630030 0.390356
0.519432 0.640864 0.398749
0.525383 0.664973 0.372045
0.599420 0.674067 0.354894
0.719417 0.666865 0.352178
0.830838 0.650507 0.354376
0.942962 0.632227 0.351934
0.584161 0.744717 0.432654
0.586511 0.748928 0.431830
0.588403 0.760189 0.418097
0.589837 0.778378 0.386511
0.613794 0.794675 0.345983
0.728237 0.788815 0.341039
0.845823 0.778134 0.337682
0.946685 0.752407 0.335454
0.681971 0.873716 0.499825
0.681636 0.876188 0.495247
0.675349 0.881651 0.470527
0.668086 0.893462 0.427436
0.663264 0.909483 0.367346
0.744167 0.911131 0.343267
0.863615 0.906828 0.339117
0.978332 0.889708 0.334203
0.256626 0.315099 0.436286
0.265660 0.311284 0.444038
0.303838 0.291447 0.462135
0.410651 0.256046 0.493050
0.545769 0.231205 0.502647
0.667842 0.215000 0.495216
0.792752 0.191623 0.492103
0.916258 0.143954 0.488411
0.281437 0.340917 0.439734
0.294102 0.342809 0.450782
0.320775 0.320775 0.469520
0.414282 0.282902 0.492897
0.546075 0.257664 0.500664
0.669215 0.244511 0.494789
0.793820 0.224369 0.491829
0.916045 0.183444 0.487373
0.325780 0.400153 0.442908
0.340063 0.400336 0.448371
0.364965 0.393011 0.463691
0.422187 0.355627 0.486030
0.546166 0.330846 0.492958
0.663478 0.319463 0.484962
0.789517 0.305211 0.484993
0.910399 0.267857 0.478340
0.352728 0.470222 0.440070
0.363439 0.469368 0.442451
0.401587 0.469886 0.455146
0.456184 0.462959 0.480873
0.559747 0.440406 0.492317
0.675441 0.432929 0.488167
0.796567 0.420600 0.487587
0.916197 0.386847 0.477913
0.419776 0.493477 0.404700
0.429480 0.497841 0.411444
0.459846 0.509483 0.432013
0.516228 0.530144 0.475685
0.574090 0.557031 0.487861
0.683955 0.546014 0.486091
0.801999 0.532372 0.482277
0.920714 0.508965 0.473365
0.514122 0.589502 0.442817
0.519158 0.593866 0.447669
0.533043 0.605280 0.460914
0.562615 0.630854 0.488014
0.576196 0.665461 0.470008
0.706264 0.670314 0.479072
0.821988 0.664027 0.492042
0.934539 0.646265 0.485847
0.609888 0.731807 0.503105
0.612268 0.732998 0.505669
0.624170 0.740719 0.517937
0.646052 0.758602 0.536584
0.642542 0.783932 0.493233
0.718135 0.791989 0.474342
0.835172 0.781521 0.470436
0.935821 0.756954 0.466224
0.711513 0.854856 0.585443
0.713191 0.855711 0.587060
0.720302 0.860014 0.593774
0.729915 0.879637 0.588922
0.713863 0.895842 0.527916
0.734218 0.911406 0.477882
0.851408 0.906249 0.473365
0.966430 0.890440 0.467659
0.352514 0.434119 0.593133
0.362554 0.432868 0.598413
0.371771 0.402808 0.603876
0.441993 0.376532 0.620356
0.556909 0.320012 0.640894
0.684321 0.303899 0.638911
0.801785 0.305852 0.630762
0.919249 0.310216 0.630488
0.357580 0.438270 0.575708
0.364752 0.435676 0.579095
0.374060 0.410956 0.590143
0.438209 0.386084 0.607477
0.550622 0.334905 0.630884
0.679103 0.319738 0.631952
0.798032 0.322576 0.626520
0.916472 0.325353 0.627375
0.406043 0.492836 0.580865
0.410285 0.489998 0.582116
0.430549 0.482338 0.592706
0.462684 0.450202 0.610437
0.559106 0.403845 0.631006
0.684260 0.387060 0.631586
0.800961 0.390631 0.627314
0.917235 0.389044 0.628229
0.435126 0.559411 0.577478
0.442756 0.556146 0.577417
0.475654 0.552270 0.585657
0.524681 0.554742 0.614740
0.586419 0.517998 0.640986
0.703120 0.498543 0.642054
0.812985 0.497169 0.637659
0.923430 0.484230 0.634852
0.462287 0.619806 0.564538
0.470649 0.621912 0.568658
0.500511 0.622644 0.578088
0.548852 0.622766 0.594751
0.600061 0.610498 0.617823
0.696010 0.588281 0.625483
0.805142 0.582788 0.625727
0.917021 0.566766 0.623621
0.531548 0.624689 0.516777
0.541466 0.630335 0.524559
0.564446 0.638483 0.540581
0.601190 0.650965 0.567529
0.648737 0.667079 0.606653
0.708614 0.696254 0.624262
0.816861 0.690150 0.629847
0.927489 0.674922 0.626062
0.659205 0.729732 0.592615
0.664485 0.734401 0.598138
0.674128 0.742733 0.607874
0.691432 0.758083 0.624872
0.715602 0.779355 0.647211
0.723232 0.808377 0.624903
0.834226 0.801144 0.621912
0.935332 0.785519 0.624811
0.745602 0.848112 0.658534
0.746487 0.848722 0.659327
0.751614 0.852689 0.664118
0.766079 0.864744 0.678004
0.784451 0.880064 0.693751
0.771939 0.902617 0.638392
0.842466 0.911254 0.617151
0.955810 0.898466 0.612573
0.441718 0.529229 0.698024
0.452430 0.531975 0.703975
0.453651 0.510185 0.712490
0.496010 0.492653 0.725948
0.566827 0.456428 0.741207
0.675654 0.399359 0.756832
0.794278 0.390173 0.754238
0.905608 0.412634 0.751492
0.442451 0.531365 0.687068
0.451881 0.533410 0.692500
0.459754 0.518059 0.701839
0.491188 0.494392 0.713771
0.559014 0.458412 0.728725
0.665217 0.400397 0.743771
0.781857 0.388342 0.740200
0.893828 0.404578 0.737972
0.481910 0.575921 0.691951
0.487098 0.575158 0.694179
0.504204 0.570336 0.701381
0.517845 0.542687 0.714015
0.571984 0.507958 0.727169
0.671534 0.453498 0.744900
0.790463 0.447425 0.745846
0.903166 0.466621 0.747616
0.522362 0.633997 0.694118
0.526604 0.630304 0.693202
0.544518 0.624292 0.697047
0.574792 0.622492 0.713771
0.601038 0.587793 0.729732
0.687373 0.543084 0.751461
0.802243 0.535332 0.753445
0.910185 0.544427 0.754452
0.539025 0.689052 0.683009
0.542718 0.686061 0.682307
0.560693 0.680323 0.684749
0.595453 0.673854 0.695033
0.634607 0.665156 0.715084
0.686824 0.625391 0.737881
0.796933 0.609827 0.741573
0.909667 0.619287 0.750973
0.578820 0.737209 0.669612
0.583856 0.738247 0.672358
0.600488 0.741665 0.681727
0.629603 0.747951 0.698909
0.670588 0.744045 0.713893
0.721614 0.735439 0.740444
0.812100 0.717800 0.751766
0.916136 0.713893 0.756649
0.654017 0.752499 0.642054
0.659663 0.755154 0.646571
0.673793 0.759609 0.656916
0.697749 0.767971 0.675135
0.727596 0.776913 0.697841
0.772519 0.790433 0.736446
0.823728 0.815305 0.753872
0.923674 0.804318 0.754452
0.773648 0.832334 0.718502
0.775418 0.833951 0.720302
0.786007 0.843748 0.731594
0.798062 0.855253 0.743954
0.813321 0.869871 0.759091
0.834989 0.889860 0.779751
0.841489 0.916350 0.758755
0.943145 0.909606 0.753140
0.566613 0.649195 0.807309
0.573358 0.650752 0.810422
0.574304 0.637171 0.813901
0.587549 0.618585 0.823880
0.625605 0.595270 0.836210
0.688991 0.554955 0.851530
0.787472 0.511711 0.866789
0.895903 0.507317 0.868894
0.565667 0.650324 0.801541
0.572229 0.651911 0.804685
0.579736 0.643915 0.809415
0.586786 0.621302 0.818509
0.623804 0.598535 0.831174
0.686213 0.559106 0.846799
0.783413 0.513878 0.861692
0.892546 0.509697 0.864500
0.579278 0.669825 0.796353
0.584070 0.670283 0.798520
0.594720 0.665614 0.801663
0.606317 0.651698 0.817319
0.635889 0.629053 0.828794
0.690394 0.590143 0.842893
0.784543 0.545434 0.859770
0.894041 0.542901 0.864500
0.603876 0.703182 0.792538
0.609033 0.704738 0.795407
0.619898 0.703029 0.799924
0.644984 0.703212 0.812650
0.658839 0.679011 0.827634
0.705196 0.647791 0.843961
0.792630 0.603967 0.863767
0.901427 0.601831 0.870115
0.625208 0.754665 0.791348
0.630701 0.755001 0.793729
0.641871 0.749722 0.796201
0.663111 0.740627 0.803281
0.693416 0.739010 0.820554
0.719142 0.709651 0.840055
0.799008 0.672480 0.865782
0.906401 0.669551 0.872251
0.660304 0.816464 0.797635
0.662135 0.814786 0.797421
0.670710 0.810361 0.798825
0.688777 0.804440 0.804471
0.718166 0.795956 0.815946
0.763699 0.794949 0.843381
0.816312 0.767788 0.872892
0.912871 0.749783 0.875639
0.719295 0.862547 0.797635
0.720851 0.862425 0.798581
0.726864 0.862669 0.802701
0.740017 0.865263 0.812802
0.759792 0.869352 0.828763
0.792416 0.862516 0.841123
0.834897 0.850492 0.863127
0.914549 0.829068 0.872984
0.773281 0.867765 0.769162
0.774472 0.867613 0.769802
0.781003 0.869047 0.774594
0.795590 0.873930 0.786160
0.816068 0.880491 0.802579
0.842832 0.889006 0.824521
0.881315 0.900542 0.858610
0.925353 0.919951 0.882322
