其他预设/【223】英伦米色调色预设8款/1.LUT预设（视频调色-PR-AE-PS-FCPX-达芬奇用）/英伦米色__-5.cube
# Created by Adobe Lightroom plugin Export LUT (1.17.0)
# www.johnrellis.com/lightroom/exportlut.htm
# Preset: 英伦米色[素锦印象]-5
# Color profile: /Library/Application Support/Adobe/Color/Profiles/Recommended/AdobeRGB1998.icc
LUT_3D_SIZE 5
DOMAIN_MIN 0.000000 0.000000 0.000000
DOMAIN_MAX 0.903226 0.903226 0.903226
0.000000 0.000000 0.000000
0.226352 0.080720 0.065949
0.475837 0.199374 0.105928
0.715785 0.322118 0.173373
0.909361 0.434485 0.263615
0.105989 0.119051 0.109895
0.259495 0.193912 0.079072
0.490822 0.265721 0.117830
0.716182 0.358099 0.179171
0.916106 0.462318 0.272221
0.253880 0.275303 0.247471
0.303380 0.321569 0.224552
0.544671 0.411170 0.193484
0.736904 0.461219 0.215152
0.919432 0.532250 0.288121
0.411261 0.436103 0.363043
0.431067 0.454047 0.363622
0.596246 0.558679 0.281468
0.771023 0.586938 0.285466
0.935485 0.636591 0.329534
0.606622 0.633143 0.497108
0.622797 0.626551 0.513725
0.678798 0.696590 0.458198
0.859739 0.761379 0.376043
0.975158 0.766934 0.419715
0.099733 0.094850 0.135988
0.206363 0.143465 0.187411
0.464271 0.245396 0.195407
0.692409 0.348577 0.215061
0.898497 0.446754 0.260777
0.113802 0.171817 0.195773
0.243809 0.226749 0.210910
0.476905 0.296422 0.219333
0.697261 0.377996 0.228672
0.901976 0.469306 0.266545
0.257877 0.332189 0.268711
0.320653 0.335210 0.296117
0.522118 0.414679 0.259770
0.718135 0.467445 0.271580
0.913756 0.540856 0.297826
0.423987 0.472450 0.374151
0.455634 0.464698 0.396460
0.586694 0.563439 0.331060
0.764034 0.593927 0.323949
0.931151 0.645472 0.360784
0.609155 0.653376 0.500816
0.629633 0.646204 0.517021
0.684810 0.702907 0.493172
0.859281 0.770687 0.405707
0.974548 0.775479 0.444617
0.199130 0.195560 0.289799
0.276890 0.262730 0.305089
0.442939 0.320378 0.361212
0.678523 0.400305 0.357031
0.889677 0.496101 0.372686
0.228855 0.245243 0.320928
0.300450 0.297337 0.331090
0.457832 0.360266 0.367407
0.682246 0.429358 0.365057
0.893889 0.513298 0.376654
0.269596 0.365911 0.373205
0.329534 0.396246 0.380163
0.502556 0.460975 0.386877
0.703609 0.510124 0.388617
0.904845 0.573663 0.395972
0.355840 0.562310 0.421332
0.429786 0.557458 0.422736
0.561761 0.567559 0.448157
0.748684 0.621942 0.419867
0.921691 0.672114 0.441993
0.571954 0.712337 0.513512
0.615259 0.709682 0.527520
0.691066 0.686549 0.574456
0.836545 0.785183 0.485206
0.964141 0.790646 0.502983
0.336736 0.321019 0.420325
0.384955 0.360601 0.427863
0.501671 0.469001 0.458778
0.654566 0.487221 0.502464
0.870085 0.597894 0.533623
0.354131 0.349676 0.436225
0.397742 0.382483 0.441230
0.513298 0.484230 0.464485
0.660334 0.505516 0.504448
0.870726 0.606561 0.533684
0.368322 0.407721 0.471351
0.408057 0.431281 0.476112
0.534234 0.518059 0.488197
0.673610 0.566217 0.513207
0.883665 0.641627 0.539147
0.418830 0.544518 0.525109
0.453346 0.559503 0.527489
0.555749 0.611078 0.538659
0.719265 0.665217 0.544335
0.910765 0.708370 0.551141
0.488075 0.770962 0.623255
0.518669 0.777096 0.619104
0.638697 0.781949 0.609949
0.776883 0.774441 0.639063
0.950195 0.822324 0.603937
0.507958 0.478614 0.583276
0.541222 0.506432 0.586267
0.639155 0.594385 0.598138
0.718624 0.672694 0.637964
0.851072 0.688380 0.690089
0.506981 0.486030 0.588617
0.539849 0.512291 0.591333
0.637659 0.596551 0.602472
0.721981 0.678828 0.639429
0.852995 0.695491 0.691707
0.491676 0.503471 0.610498
0.519005 0.520806 0.610864
0.622827 0.597833 0.619074
0.739345 0.704524 0.651362
0.863340 0.722805 0.701991
0.521630 0.589899 0.656062
0.541131 0.598505 0.656489
0.607080 0.631037 0.661830
0.744900 0.722560 0.681331
0.881651 0.781155 0.727504
0.579522 0.725521 0.722438
0.595941 0.732052 0.723812
0.655848 0.759457 0.733242
0.757168 0.809934 0.751766
0.913817 0.874632 0.780911
