其他预设/【223】英伦米色调色预设8款/1.LUT预设（视频调色-PR-AE-PS-FCPX-达芬奇用）/英伦米色__-5.cube
# Created by Adobe Lightroom plugin Export LUT (1.17.0)
# www.johnrellis.com/lightroom/exportlut.htm
# Preset: 英伦米色[素锦印象]-5
# Color profile: /Library/Application Support/Adobe/Color/Profiles/Recommended/AdobeRGB1998.icc
LUT_3D_SIZE 8
DOMAIN_MIN 0.000000 0.000000 0.000000
DOMAIN_MAX 0.903226 0.903226 0.903226
0.000000 0.000000 0.000000
0.113924 0.000000 0.023804
0.263584 0.096895 0.070802
0.407172 0.164889 0.091524
0.552911 0.237736 0.123842
0.685451 0.306096 0.162264
0.800839 0.368597 0.207828
0.909361 0.434485 0.263615
0.032471 0.064637 0.042573
0.130770 0.095705 0.057435
0.269108 0.135653 0.074495
0.405859 0.188327 0.094484
0.545861 0.251102 0.124361
0.674037 0.311864 0.160037
0.791836 0.372045 0.205295
0.904234 0.437446 0.261784
0.125582 0.140108 0.129641
0.154788 0.166812 0.118410
0.299046 0.224033 0.092500
0.427283 0.260441 0.107759
0.561273 0.307012 0.135836
0.685023 0.355230 0.170474
0.807401 0.410925 0.217258
0.915007 0.468788 0.272648
0.212833 0.232670 0.212039
0.223484 0.243320 0.210758
0.324498 0.306737 0.155581
0.467842 0.352819 0.162783
0.598627 0.391363 0.178286
0.708125 0.422919 0.189853
0.816342 0.461830 0.229862
0.918395 0.508812 0.282536
0.297276 0.319615 0.282048
0.305333 0.320073 0.288365
0.353399 0.372534 0.258000
0.488350 0.430732 0.207095
0.610681 0.461433 0.218814
0.715572 0.485939 0.231846
0.820096 0.517937 0.248997
0.922667 0.559289 0.295750
0.384497 0.408759 0.345037
0.395636 0.409613 0.354528
0.418982 0.445960 0.337499
0.514061 0.507652 0.291752
0.639307 0.543267 0.256291
0.739528 0.561730 0.271305
0.836881 0.586908 0.291478
0.933928 0.621607 0.319951
0.487007 0.514214 0.412665
0.494606 0.512688 0.419043
0.508568 0.530663 0.414130
0.563348 0.583886 0.378607
0.681270 0.637812 0.318944
0.777676 0.649012 0.309453
0.859892 0.660517 0.330846
0.941650 0.683162 0.359167
0.606622 0.633143 0.497108
0.611872 0.630854 0.501884
0.625940 0.632929 0.512200
0.657069 0.680690 0.486122
0.724483 0.722377 0.433326
0.839536 0.760708 0.373388
0.915435 0.763485 0.391547
0.975158 0.766934 0.419715
0.059327 0.050111 0.075441
0.101442 0.070497 0.096223
0.254124 0.127504 0.099245
0.396796 0.194308 0.114290
0.537469 0.257572 0.126986
0.665278 0.314611 0.158724
0.784909 0.371618 0.202762
0.898375 0.433692 0.258396
0.039277 0.081941 0.099550
0.123903 0.116335 0.111574
0.262699 0.159701 0.117250
0.400153 0.211612 0.122744
0.536675 0.269017 0.133944
0.661921 0.322759 0.159060
0.779080 0.375982 0.201755
0.893065 0.436133 0.256382
0.129671 0.174929 0.147433
0.169467 0.181216 0.169009
0.292821 0.232090 0.146609
0.419440 0.268650 0.153872
0.547234 0.311986 0.160342
0.670161 0.359014 0.172122
0.788632 0.408453 0.210513
0.901854 0.464607 0.265599
0.221530 0.253544 0.221775
0.238926 0.249760 0.237980
0.320623 0.311284 0.193881
0.451301 0.348241 0.191684
0.572381 0.381567 0.201175
0.684047 0.414557 0.207706
0.796536 0.455177 0.222446
0.905730 0.503349 0.275242
0.306432 0.335851 0.289708
0.316045 0.331334 0.298131
0.353155 0.373327 0.276188
0.478828 0.427649 0.225284
0.595605 0.455146 0.234165
0.702083 0.481605 0.245884
0.809232 0.515007 0.260227
0.915038 0.556390 0.291234
0.386725 0.416419 0.346777
0.394873 0.413489 0.353368
0.415625 0.439918 0.345159
0.504387 0.501762 0.303471
0.631708 0.540826 0.268345
0.734066 0.561303 0.283421
0.831327 0.586572 0.301610
0.928222 0.620294 0.326329
0.482429 0.514916 0.409735
0.488075 0.510887 0.414252
0.503777 0.521660 0.417151
0.556115 0.577478 0.384802
0.673426 0.633997 0.328954
0.770871 0.646143 0.316411
0.851957 0.656641 0.335424
0.934264 0.679133 0.361547
0.601923 0.633570 0.493721
0.608545 0.632105 0.499184
0.625483 0.627619 0.516197
0.653956 0.676478 0.491249
0.728389 0.727871 0.447272
0.840238 0.764492 0.384680
0.913054 0.763821 0.397528
0.971923 0.766018 0.423255
0.112398 0.107424 0.159884
0.138033 0.132509 0.170260
0.242710 0.170291 0.217105
0.391760 0.222324 0.215824
0.537285 0.286412 0.226627
0.666011 0.346044 0.238407
0.788022 0.400305 0.247623
0.903044 0.455085 0.264378
0.114137 0.127596 0.183139
0.156985 0.159426 0.193271
0.252537 0.197787 0.222477
0.393835 0.242069 0.223362
0.534020 0.298009 0.231785
0.662531 0.352453 0.240116
0.784115 0.404456 0.248569
0.900633 0.459144 0.264408
0.135714 0.201511 0.225986
0.175296 0.222110 0.233219
0.282017 0.262119 0.240757
0.414160 0.298833 0.246281
0.547662 0.341283 0.249729
0.670497 0.384558 0.253300
0.788602 0.430671 0.260563
0.902678 0.481147 0.275456
0.189151 0.314183 0.260075
0.237308 0.314000 0.264164
0.317937 0.329107 0.281041
0.448371 0.370855 0.267063
0.570459 0.403967 0.273259
0.684504 0.436286 0.275334
0.798276 0.475349 0.282017
0.908385 0.519768 0.296147
0.300450 0.383185 0.303471
0.329351 0.382696 0.314580
0.372290 0.385901 0.333501
0.481544 0.449195 0.287358
0.596063 0.473243 0.292088
0.700130 0.497963 0.299992
0.807523 0.530022 0.307897
0.914549 0.569696 0.323339
0.393957 0.455756 0.357885
0.409522 0.453346 0.365484
0.439368 0.446845 0.385595
0.500877 0.508202 0.349401
0.626673 0.550042 0.310826
0.726253 0.568688 0.323186
0.825254 0.595575 0.338659
0.926848 0.632227 0.360510
0.492531 0.549340 0.420050
0.502220 0.545861 0.425269
0.525841 0.535332 0.443091
0.559075 0.579797 0.420417
0.662898 0.636286 0.369451
0.767453 0.654108 0.349523
0.851347 0.667506 0.368719
0.936858 0.693446 0.395422
0.604486 0.655848 0.498604
0.610315 0.652491 0.502129
0.631281 0.645197 0.518883
0.658381 0.673762 0.519005
0.721370 0.726833 0.477729
0.835691 0.771145 0.416663
0.910918 0.771115 0.423468
0.971374 0.774716 0.448371
0.162692 0.160586 0.248295
0.192813 0.185946 0.256321
0.268223 0.257542 0.282353
0.377752 0.272526 0.317937
0.521447 0.317327 0.314397
0.652583 0.368597 0.315190
0.774899 0.422858 0.322026
0.893309 0.475807 0.330510
0.183291 0.189181 0.267185
0.210605 0.210025 0.272099
0.280522 0.272251 0.290196
0.385504 0.289067 0.321782
0.524132 0.330480 0.317754
0.652338 0.377722 0.317998
0.773709 0.429023 0.323735
0.892912 0.479774 0.330968
0.196323 0.229404 0.293614
0.223087 0.245914 0.298344
0.302129 0.301366 0.310369
0.401251 0.334966 0.329747
0.536431 0.372076 0.329900
0.664240 0.415564 0.332677
0.787686 0.462165 0.338323
0.901396 0.505303 0.342168
0.226688 0.314305 0.330358
0.250004 0.326116 0.333532
0.318914 0.364965 0.342809
0.433997 0.399878 0.345006
0.556054 0.429419 0.346319
0.673579 0.461616 0.346502
0.790738 0.498726 0.349065
0.904997 0.540642 0.356390
0.256748 0.439887 0.364813
0.279026 0.445624 0.362432
0.376684 0.443153 0.364050
0.467201 0.466926 0.371435
0.589685 0.497871 0.361334
0.694759 0.523186 0.367041
0.804685 0.553918 0.370275
0.912627 0.590326 0.378759
0.360174 0.513939 0.384527
0.387488 0.516838 0.389258
0.459480 0.512047 0.406104
0.511223 0.521355 0.419135
0.626612 0.575006 0.373877
0.722683 0.589319 0.382483
0.821592 0.616022 0.395087
0.924254 0.650935 0.410803
0.471443 0.596155 0.432349
0.490211 0.595789 0.437842
0.542229 0.589563 0.458320
0.580743 0.584192 0.480720
0.652583 0.645686 0.436500
0.765225 0.672450 0.402533
0.847684 0.683742 0.418219
0.934997 0.710140 0.440772
0.598047 0.697475 0.511070
0.610681 0.696620 0.516747
0.639826 0.687495 0.530175
0.672969 0.674189 0.556603
0.712642 0.723964 0.527825
0.820157 0.777066 0.471443
0.905791 0.782284 0.462196
0.968933 0.787076 0.485664
0.236728 0.230625 0.327184
0.258457 0.248417 0.331334
0.322820 0.304479 0.342443
0.383581 0.360266 0.370428
0.505974 0.366278 0.401373
0.640192 0.409522 0.397253
0.765042 0.463661 0.403510
0.885222 0.522148 0.417639
0.251499 0.250065 0.337499
0.271885 0.265904 0.341222
0.332708 0.316655 0.351141
0.391638 0.370336 0.374578
0.510307 0.375097 0.402594
0.642237 0.419043 0.399542
0.766354 0.470863 0.405646
0.885954 0.526696 0.418647
0.267582 0.282811 0.359045
0.289433 0.298558 0.362585
0.347326 0.341070 0.369390
0.414191 0.399115 0.385779
0.519677 0.407996 0.406104
0.645441 0.445808 0.404364
0.768307 0.491646 0.410407
0.886748 0.539025 0.419074
0.284428 0.332555 0.383581
0.302098 0.342412 0.385840
0.357519 0.375830 0.393652
0.443061 0.435065 0.404150
0.540673 0.461097 0.416236
0.660029 0.492317 0.416846
0.778470 0.528069 0.420020
0.895567 0.563470 0.421241
0.312657 0.416449 0.414343
0.328710 0.424628 0.416388
0.379614 0.450874 0.422278
0.455238 0.501061 0.432532
0.568872 0.520806 0.428473
0.677760 0.544488 0.429572
0.791318 0.573480 0.430884
0.904387 0.607507 0.435187
0.331792 0.542504 0.453437
0.347539 0.547204 0.452796
0.397498 0.561028 0.447425
0.508049 0.557855 0.449042
0.591089 0.580804 0.448127
0.705837 0.607141 0.443702
0.811368 0.636866 0.455451
0.918303 0.668635 0.464149
0.409064 0.644984 0.475319
0.428962 0.643519 0.474952
0.493233 0.639063 0.477302
0.584375 0.631891 0.496529
0.634180 0.637507 0.508171
0.748714 0.687739 0.459663
0.836698 0.698878 0.471382
0.928405 0.725185 0.489113
0.543267 0.733028 0.528618
0.556786 0.731624 0.530053
0.600916 0.727047 0.537133
0.671077 0.722683 0.563622
0.710933 0.706844 0.590265
0.786130 0.772183 0.539178
0.893339 0.793545 0.507042
0.961547 0.798581 0.527520
0.320256 0.306401 0.404974
0.336645 0.319707 0.407874
0.386419 0.361242 0.414374
0.455940 0.426093 0.429572
0.501976 0.462593 0.454871
0.628321 0.462684 0.482643
0.754177 0.520317 0.490303
0.875547 0.585351 0.512810
0.325872 0.315679 0.408118
0.340398 0.327062 0.409949
0.388067 0.365881 0.416175
0.457099 0.428901 0.429267
0.503685 0.466407 0.454994
0.628779 0.467323 0.482002
0.753658 0.524987 0.490700
0.875212 0.587701 0.512596
0.343725 0.345678 0.426856
0.356970 0.354986 0.427863
0.402564 0.389014 0.432502
0.474159 0.449195 0.441321
0.521904 0.489937 0.464546
0.637781 0.493507 0.486854
0.758389 0.546349 0.496773
0.878904 0.600763 0.515587
0.348363 0.375738 0.447944
0.361303 0.383551 0.449134
0.410468 0.416480 0.454780
0.489540 0.474678 0.465126
0.554620 0.530907 0.482887
0.654902 0.539849 0.498787
0.771389 0.580194 0.507408
0.888151 0.623468 0.520867
0.368994 0.434485 0.471260
0.381842 0.441352 0.472938
0.424048 0.464607 0.478279
0.491127 0.503502 0.486854
0.574975 0.559808 0.495064
0.665461 0.581903 0.505943
0.780179 0.611872 0.511345
0.895872 0.645136 0.517998
0.394751 0.516747 0.499947
0.407568 0.523461 0.502129
0.446815 0.542199 0.506462
0.508812 0.573663 0.513115
0.581140 0.618463 0.521233
0.690608 0.637263 0.519921
0.800748 0.662318 0.524468
0.912016 0.690272 0.528954
0.429816 0.638697 0.546410
0.440833 0.646265 0.549645
0.474067 0.669154 0.557977
0.533715 0.686671 0.552911
0.636378 0.684565 0.550927
0.716609 0.702510 0.550805
0.826993 0.724544 0.542382
0.925444 0.751522 0.557488
0.482155 0.771939 0.598566
0.491432 0.773281 0.596521
0.528893 0.775937 0.590570
0.609430 0.770993 0.590570
0.703487 0.761318 0.604944
0.759884 0.758267 0.625879
0.875761 0.811521 0.569390
0.953368 0.817319 0.586938
0.404547 0.381689 0.485298
0.418219 0.392798 0.488167
0.459663 0.427100 0.493355
0.526177 0.486488 0.502007
0.587823 0.549676 0.524254
0.620813 0.571313 0.544793
0.738064 0.567651 0.572015
0.860472 0.633143 0.595850
0.404913 0.385443 0.485573
0.417823 0.395789 0.488014
0.458289 0.428504 0.492988
0.522850 0.484993 0.500572
0.584527 0.547509 0.521080
0.617273 0.569268 0.541131
0.733211 0.565301 0.567346
0.856748 0.631250 0.592004
0.416632 0.407263 0.500725
0.427985 0.415717 0.501762
0.466590 0.445075 0.505058
0.530449 0.498116 0.511498
0.594018 0.559747 0.526604
0.628382 0.584741 0.547875
0.742397 0.583307 0.573724
0.863310 0.648737 0.600244
0.420630 0.431983 0.520745
0.431281 0.438941 0.520775
0.469856 0.465278 0.522881
0.536645 0.515770 0.529107
0.610834 0.580316 0.537377
0.649317 0.612360 0.561700
0.755550 0.614527 0.584375
0.871366 0.672877 0.610101
0.427100 0.469703 0.538842
0.435828 0.474250 0.538872
0.467628 0.492012 0.540917
0.524224 0.526909 0.545647
0.605493 0.585199 0.552300
0.665461 0.637049 0.570977
0.761837 0.645777 0.589960
0.880095 0.697383 0.616327
0.451301 0.534112 0.564294
0.460639 0.538567 0.565209
0.492103 0.554131 0.568261
0.542626 0.580285 0.574151
0.606378 0.614862 0.581567
0.690944 0.671107 0.592706
0.781643 0.696407 0.609583
0.895171 0.730587 0.624750
0.484749 0.618585 0.598230
0.493996 0.622980 0.599786
0.522240 0.635645 0.602991
0.567498 0.657130 0.608881
0.625818 0.686275 0.615930
0.697139 0.732174 0.629541
0.805966 0.752621 0.629236
0.913725 0.775692 0.635645
0.522423 0.730617 0.652979
0.529320 0.733852 0.653895
0.556451 0.748714 0.660548
0.594476 0.775540 0.672389
0.649378 0.804288 0.677882
0.746639 0.809232 0.670527
0.831144 0.819791 0.678706
0.940276 0.842893 0.668452
0.507958 0.478614 0.583276
0.518791 0.487739 0.584985
0.551751 0.515435 0.587091
0.607202 0.564477 0.593713
0.669642 0.625147 0.604303
0.711482 0.667628 0.632136
0.743832 0.689418 0.657710
0.851072 0.688380 0.690089
0.506340 0.479561 0.583246
0.517144 0.488472 0.584833
0.550469 0.516136 0.587457
0.604852 0.563592 0.593286
0.668544 0.624659 0.602960
0.711086 0.668025 0.631159
0.743191 0.689601 0.656672
0.850462 0.688991 0.689113
0.504906 0.486732 0.589624
0.515129 0.494820 0.590661
0.547204 0.520073 0.592065
0.605097 0.568933 0.600366
0.669703 0.628077 0.608515
0.716426 0.676173 0.634363
0.748501 0.697902 0.660700
0.853208 0.697353 0.691768
0.495094 0.494270 0.601923
0.506126 0.502464 0.603326
0.540490 0.527611 0.605127
0.598535 0.572778 0.611078
0.668208 0.631830 0.619837
0.726925 0.690425 0.642481
0.760586 0.715023 0.670893
0.859770 0.713405 0.698573
0.489143 0.516350 0.620966
0.497993 0.521935 0.622065
0.526146 0.538781 0.622553
0.572839 0.568017 0.624140
0.652430 0.628016 0.632013
0.731624 0.698116 0.646754
0.774166 0.735531 0.682429
0.867918 0.735561 0.707271
0.511528 0.570825 0.645655
0.517144 0.573236 0.645472
0.537652 0.582757 0.645808
0.573816 0.600671 0.648249
0.628321 0.631189 0.653437
0.723323 0.700435 0.668299
0.794064 0.764370 0.699977
0.879484 0.772122 0.723934
0.542840 0.641840 0.680385
0.548272 0.644099 0.680598
0.567529 0.652369 0.682094
0.603143 0.669001 0.686885
0.654994 0.695094 0.695308
0.719203 0.728725 0.704707
0.805142 0.784848 0.717494
0.891295 0.814694 0.743221
0.579522 0.725521 0.722438
0.584253 0.727260 0.722652
0.601740 0.734615 0.724575
0.634333 0.749386 0.729702
0.680446 0.771145 0.737301
0.739956 0.800900 0.748165
0.814511 0.842496 0.765042
0.913817 0.874632 0.780911
