其他预设/【223】英伦米色调色预设8款/1.LUT预设（视频调色-PR-AE-PS-FCPX-达芬奇用）/英伦米色__-4.cube
# Created by Adobe Lightroom plugin Export LUT (1.17.0)
# www.johnrellis.com/lightroom/exportlut.htm
# Preset: 英伦米色[素锦印象]-4
# Color profile: /Library/Application Support/Adobe/Color/Profiles/Recommended/AdobeRGB1998.icc
LUT_3D_SIZE 8
DOMAIN_MIN 0.000000 0.000000 0.000000
DOMAIN_MAX 0.903226 0.903226 0.903226
0.000000 0.000000 0.000000
0.079438 0.000000 0.002411
0.169619 0.000000 0.007630
0.290929 0.000000 0.002594
0.437964 0.000000 0.000000
0.610224 0.000000 0.000000
0.797086 0.000000 0.000000
0.949523 0.000000 0.000000
0.032380 0.071351 0.008576
0.086580 0.072053 0.005402
0.174136 0.043793 0.005554
0.292210 0.000000 0.000000
0.435920 0.000000 0.000000
0.604700 0.000000 0.000000
0.791287 0.000000 0.000000
0.943755 0.000000 0.000000
0.099123 0.156161 0.007019
0.113222 0.160250 0.000000
0.214176 0.181552 0.000000
0.327245 0.183291 0.000000
0.466804 0.182681 0.000000
0.634424 0.169558 0.000000
0.826658 0.108339 0.000000
0.962341 0.000000 0.000000
0.165713 0.262913 0.000000
0.171420 0.264469 0.000000
0.249332 0.288548 0.000000
0.410468 0.348211 0.000000
0.546288 0.351476 0.000000
0.705196 0.353613 0.000000
0.856626 0.332555 0.000000
0.972076 0.275822 0.000000
0.235416 0.376226 0.000000
0.240787 0.378515 0.000000
0.299107 0.404608 0.000000
0.439002 0.468360 0.000000
0.655299 0.555749 0.000000
0.768551 0.527825 0.000000
0.876524 0.492775 0.000000
0.982483 0.451057 0.000000
0.322087 0.518486 0.000000
0.331273 0.527947 0.000000
0.364080 0.543420 0.000000
0.486824 0.602411 0.000000
0.661494 0.674372 0.000000
0.852811 0.724086 0.000000
0.929778 0.665187 0.000000
0.999908 0.606439 0.000000
0.420935 0.683284 0.000000
0.425910 0.686488 0.000000
0.437720 0.688655 0.000000
0.522545 0.724941 0.000000
0.664363 0.777371 0.000000
0.835752 0.828794 0.000000
0.974609 0.830961 0.000000
1.000000 0.756954 0.156130
0.511406 0.833249 0.000000
0.514183 0.833707 0.000000
0.525292 0.837064 0.000000
0.550103 0.846616 0.000000
0.662867 0.871550 0.000000
0.806943 0.907713 0.000000
0.959991 0.935546 0.209842
1.000000 0.902953 0.375738
0.037415 0.063325 0.094850
0.090974 0.046937 0.097902
0.178775 0.018036 0.085939
0.300023 0.000000 0.075441
0.443671 0.000000 0.019013
0.611048 0.000000 0.000000
0.791806 0.000000 0.000000
0.939178 0.000000 0.000000
0.065064 0.095186 0.083375
0.099855 0.097261 0.093355
0.188327 0.094911 0.087007
0.305608 0.088411 0.071443
0.447120 0.075257 0.003388
0.612787 0.015595 0.000000
0.786954 0.000000 0.000000
0.932738 0.000000 0.000000
0.118624 0.169894 0.081666
0.131533 0.177157 0.083345
0.227207 0.198581 0.078584
0.334966 0.200504 0.048768
0.473030 0.208255 0.000000
0.638331 0.213565 0.000000
0.809842 0.171817 0.000000
0.948333 0.000000 0.000000
0.175723 0.269718 0.061189
0.183688 0.273777 0.057527
0.256535 0.297551 0.019562
0.410895 0.352209 0.000000
0.541436 0.358099 0.000000
0.684413 0.359533 0.000000
0.834257 0.341955 0.000000
0.958404 0.288945 0.000000
0.245975 0.386603 0.000000
0.250278 0.387884 0.000000
0.302342 0.409369 0.000000
0.438148 0.467231 0.000000
0.646204 0.551354 0.000000
0.759304 0.528832 0.000000
0.867277 0.496254 0.000000
0.975341 0.455421 0.000000
0.324407 0.517815 0.000000
0.328954 0.520104 0.000000
0.360662 0.535485 0.000000
0.486885 0.598047 0.000000
0.660792 0.672511 0.000000
0.852964 0.726802 0.000000
0.928283 0.668727 0.000000
0.996429 0.608209 0.000000
0.417151 0.674159 0.000000
0.419379 0.673243 0.000000
0.432074 0.677455 0.000000
0.523156 0.719936 0.000000
0.664302 0.774746 0.000000
0.832059 0.825101 0.000000
0.969512 0.827939 0.000000
1.000000 0.754330 0.138613
0.508812 0.828031 0.000000
0.512383 0.829709 0.000000
0.523766 0.833738 0.000000
0.551324 0.844785 0.000000
0.671199 0.880003 0.000000
0.810483 0.911192 0.000000
0.959197 0.935332 0.207950
1.000000 0.902556 0.370092
0.082429 0.133791 0.216007
0.113619 0.127779 0.219852
0.207645 0.109987 0.222080
0.312902 0.091035 0.211063
0.455940 0.000000 0.205997
0.631098 0.000000 0.194614
0.813596 0.000000 0.166293
0.954803 0.000000 0.076234
0.111208 0.164492 0.211246
0.136477 0.159854 0.213718
0.210788 0.143282 0.217166
0.317205 0.130404 0.208988
0.458350 0.095003 0.200809
0.631922 0.000000 0.192233
0.810208 0.000000 0.160250
0.952575 0.000000 0.061952
0.144991 0.216220 0.186069
0.167819 0.215183 0.190829
0.231022 0.223392 0.212161
0.344335 0.225956 0.211521
0.489357 0.228031 0.205234
0.658747 0.224277 0.189670
0.825132 0.205509 0.152163
0.958892 0.150698 0.000000
0.215183 0.300816 0.182193
0.231022 0.304997 0.197024
0.258000 0.318425 0.194278
0.421759 0.376226 0.218936
0.550378 0.374487 0.205600
0.703120 0.378210 0.182345
0.851835 0.370214 0.135500
0.971832 0.338109 0.000000
0.280949 0.412726 0.180636
0.287541 0.416541 0.180209
0.307652 0.427375 0.173159
0.444617 0.488258 0.185122
0.657923 0.572717 0.201144
0.768124 0.546197 0.167300
0.878294 0.519951 0.095216
0.984833 0.485512 0.000000
0.350927 0.540398 0.146212
0.356695 0.543725 0.145388
0.372961 0.551293 0.131624
0.475196 0.600061 0.123079
0.655879 0.677272 0.130373
0.851316 0.735866 0.160159
0.932311 0.685115 0.052949
1.000000 0.627985 0.000000
0.438422 0.693324 0.027680
0.441413 0.693660 0.000000
0.451911 0.695827 0.000000
0.518730 0.724239 0.000000
0.666804 0.781277 0.000000
0.838346 0.834379 0.000000
0.979431 0.843290 0.036194
1.000000 0.770413 0.176455
0.519066 0.836912 0.000000
0.520317 0.836454 0.000000
0.529931 0.839231 0.000000
0.564233 0.854307 0.000000
0.679164 0.886351 0.000000
0.815152 0.916472 0.000000
0.960815 0.939605 0.223575
1.000000 0.909453 0.391058
0.134218 0.218143 0.353094
0.158206 0.216373 0.358221
0.232120 0.204501 0.363897
0.342687 0.178714 0.366522
0.453956 0.155734 0.351202
0.619593 0.110048 0.361975
0.794583 0.000000 0.360784
0.940002 0.000000 0.339483
0.167269 0.244816 0.353460
0.183871 0.242588 0.356512
0.241276 0.228885 0.362463
0.347539 0.204044 0.366552
0.459236 0.183841 0.351446
0.622858 0.153567 0.359777
0.794980 0.077607 0.356970
0.940581 0.000000 0.334752
0.189853 0.306188 0.346929
0.211185 0.302739 0.348302
0.266667 0.289860 0.353491
0.357061 0.270481 0.358587
0.484688 0.266819 0.356817
0.653559 0.262821 0.365301
0.824186 0.259861 0.369665
0.954925 0.215061 0.340398
0.239353 0.363256 0.311559
0.254856 0.361669 0.313970
0.303502 0.361120 0.325200
0.392462 0.379248 0.360601
0.530388 0.390631 0.368688
0.688045 0.400580 0.373205
0.840208 0.399695 0.368719
0.965087 0.371344 0.336645
0.323919 0.454627 0.291569
0.333928 0.455451 0.300908
0.371099 0.462776 0.334447
0.421942 0.489723 0.341039
0.639551 0.582025 0.408148
0.750637 0.562524 0.396735
0.872923 0.549493 0.381109
0.980346 0.515251 0.334722
0.408759 0.577966 0.322118
0.423102 0.585840 0.335180
0.434546 0.590906 0.326696
0.457984 0.603754 0.308507
0.645289 0.687129 0.365423
0.838926 0.751705 0.448096
0.919280 0.707271 0.412665
0.998688 0.652735 0.333318
0.484291 0.714107 0.311345
0.488045 0.716457 0.309392
0.498756 0.722621 0.297063
0.516381 0.732143 0.265385
0.650996 0.784695 0.298924
0.828305 0.841276 0.373999
0.967132 0.859831 0.456031
1.000000 0.790921 0.347692
0.562860 0.851164 0.294560
0.564172 0.852445 0.286992
0.566217 0.854765 0.250278
0.575616 0.860288 0.180728
0.660792 0.884947 0.173312
0.809445 0.919768 0.237003
0.958831 0.944945 0.294835
1.000000 0.919097 0.419532
0.200259 0.318883 0.512474
0.218601 0.317967 0.516869
0.276005 0.307836 0.522271
0.372259 0.287480 0.530907
0.496895 0.255528 0.532464
0.616419 0.231754 0.514336
0.772366 0.217746 0.523522
0.919860 0.236149 0.532921
0.225406 0.339391 0.512718
0.241428 0.339910 0.518700
0.289189 0.328923 0.524712
0.376287 0.305638 0.528740
0.497902 0.274266 0.529595
0.618830 0.253147 0.513207
0.776303 0.245945 0.524437
0.921355 0.264469 0.533410
0.259525 0.393439 0.508904
0.277684 0.390295 0.510369
0.318212 0.378454 0.513054
0.387243 0.358312 0.519524
0.501579 0.330297 0.519829
0.620233 0.313451 0.503532
0.784970 0.325017 0.523919
0.923980 0.341924 0.532860
0.278325 0.472084 0.500938
0.294011 0.468452 0.500633
0.345098 0.457984 0.502800
0.418128 0.440253 0.509239
0.518578 0.418799 0.512169
0.653803 0.424292 0.515190
0.807248 0.447791 0.537102
0.936217 0.457008 0.544060
0.337682 0.518334 0.444007
0.350652 0.518090 0.446540
0.391730 0.515221 0.454231
0.457069 0.518456 0.472786
0.564019 0.546624 0.521843
0.701869 0.562615 0.538994
0.839109 0.577752 0.554803
0.954589 0.570336 0.548577
0.433906 0.603296 0.404974
0.442206 0.604669 0.412879
0.468971 0.607416 0.437598
0.518242 0.615625 0.481605
0.572290 0.643458 0.483772
0.795468 0.744869 0.606775
0.884611 0.726925 0.601373
0.975494 0.700923 0.574090
0.533013 0.732448 0.459693
0.539391 0.732418 0.466011
0.563226 0.734279 0.488991
0.584039 0.742031 0.489479
0.594476 0.754299 0.442023
0.794064 0.829435 0.557275
0.940154 0.872007 0.665064
0.998016 0.823087 0.605127
0.645411 0.850492 0.542565
0.645106 0.850980 0.538140
0.642695 0.853574 0.518273
0.643671 0.864408 0.480537
0.638361 0.872404 0.394171
0.780697 0.909514 0.466346
0.935790 0.942718 0.577325
1.000000 0.936278 0.641779
0.303105 0.441749 0.684016
0.316960 0.441016 0.685634
0.356512 0.431983 0.685664
0.426490 0.416449 0.688594
0.522728 0.386664 0.692683
0.645380 0.355047 0.690761
0.772152 0.351080 0.682277
0.895476 0.373358 0.681575
0.311070 0.447242 0.671504
0.322057 0.445563 0.672175
0.360357 0.439033 0.675563
0.426307 0.424231 0.680140
0.521050 0.396338 0.686091
0.643610 0.366857 0.685878
0.770687 0.364141 0.678828
0.895537 0.388342 0.680629
0.353002 0.492378 0.671595
0.362554 0.489204 0.670954
0.394537 0.484047 0.673121
0.450690 0.472572 0.678798
0.533623 0.445655 0.683619
0.651209 0.417700 0.683314
0.774868 0.416999 0.676234
0.901091 0.446754 0.684657
0.373541 0.562737 0.667170
0.385382 0.559014 0.665888
0.429236 0.550103 0.666804
0.493843 0.545617 0.676631
0.563348 0.528771 0.685756
0.671168 0.502892 0.685695
0.786069 0.500023 0.676295
0.913115 0.538903 0.696437
0.394568 0.644038 0.655665
0.407507 0.642267 0.656275
0.449104 0.635370 0.657984
0.512902 0.623041 0.662043
0.584680 0.603601 0.667750
0.678279 0.582055 0.669459
0.801511 0.599969 0.679347
0.922911 0.635523 0.706569
0.461158 0.676509 0.587793
0.472969 0.677913 0.591821
0.505180 0.676051 0.598871
0.555505 0.672480 0.610407
0.616846 0.674128 0.629755
0.726070 0.710964 0.689815
0.845121 0.734035 0.717189
0.947784 0.746426 0.732204
0.587762 0.761318 0.567834
0.594934 0.763180 0.574792
0.613855 0.765072 0.592615
0.645472 0.769162 0.621729
0.687892 0.774655 0.658503
0.731991 0.797299 0.658625
0.914641 0.879637 0.789822
0.972808 0.856107 0.768887
0.686946 0.864775 0.640711
0.690211 0.864652 0.643641
0.702449 0.865171 0.654627
0.726436 0.868589 0.675593
0.743343 0.874174 0.675807
0.734096 0.885924 0.603143
0.910246 0.937285 0.738674
1.000000 0.954314 0.819150
0.442359 0.562554 0.801297
0.456306 0.566796 0.804715
0.487434 0.568322 0.806821
0.531304 0.563500 0.810697
0.586908 0.545739 0.814023
0.664546 0.515618 0.817716
0.767147 0.490425 0.815610
0.886015 0.513817 0.821012
0.438117 0.560906 0.791165
0.450721 0.564263 0.794247
0.480934 0.565545 0.797055
0.523491 0.560052 0.800198
0.577325 0.540917 0.802853
0.653285 0.508476 0.805447
0.755398 0.481025 0.802457
0.875181 0.499580 0.807584
0.475715 0.598779 0.795651
0.482826 0.598688 0.795987
0.506126 0.597040 0.796384
0.548333 0.595331 0.799557
0.592309 0.574701 0.800687
0.663539 0.545525 0.804654
0.766354 0.524743 0.806332
0.884672 0.547997 0.814176
0.505974 0.654414 0.798001
0.511986 0.650935 0.796475
0.537194 0.642725 0.794583
0.579706 0.643702 0.799008
0.623896 0.633478 0.802396
0.687160 0.611017 0.808927
0.784054 0.592309 0.812284
0.892699 0.605615 0.815763
0.514488 0.710445 0.786191
0.519402 0.706752 0.784298
0.542321 0.698512 0.782528
0.585992 0.688685 0.785000
0.639338 0.679866 0.789731
0.693996 0.663111 0.796506
0.785946 0.643183 0.799832
0.894041 0.657557 0.805386
0.539666 0.784146 0.780117
0.547112 0.782834 0.780423
0.571954 0.778103 0.781582
0.613336 0.771054 0.785489
0.665126 0.758389 0.789944
0.730190 0.745907 0.799130
0.809598 0.731228 0.804257
0.911620 0.751186 0.816464
0.612207 0.812436 0.729519
0.619654 0.813382 0.732357
0.638788 0.812467 0.737270
0.670466 0.811643 0.746456
0.709529 0.807156 0.755856
0.760128 0.807736 0.772732
0.851621 0.841245 0.826993
0.944274 0.861021 0.850523
0.728115 0.875151 0.719142
0.733486 0.875181 0.722469
0.749172 0.880339 0.737362
0.767727 0.884276 0.754421
0.791379 0.888121 0.775448
0.823758 0.893492 0.802792
0.851347 0.909178 0.795804
0.986084 0.964233 0.910674
0.606775 0.694667 0.892851
0.614405 0.697292 0.894194
0.630213 0.697841 0.894041
0.661311 0.702113 0.897459
0.690120 0.693904 0.901366
0.731594 0.680171 0.906340
0.792172 0.661280 0.914000
0.872160 0.650172 0.916808
0.603815 0.694148 0.889006
0.611383 0.696681 0.890379
0.628473 0.698268 0.891081
0.659144 0.702144 0.893797
0.687922 0.694148 0.898009
0.729458 0.680720 0.903319
0.789334 0.660914 0.910735
0.870390 0.650477 0.914214
0.612818 0.707912 0.886412
0.618555 0.709133 0.887144
0.632105 0.708400 0.886656
0.669581 0.718715 0.893278
0.698360 0.712795 0.896849
0.735317 0.697902 0.901244
0.793698 0.679744 0.909392
0.874479 0.670832 0.914427
0.626856 0.736538 0.886809
0.634455 0.737514 0.887816
0.651087 0.736782 0.887999
0.681453 0.742245 0.891997
0.718105 0.745418 0.897276
0.752285 0.733730 0.903044
0.806546 0.717769 0.911833
0.881437 0.703151 0.915068
0.645441 0.784115 0.887266
0.651423 0.784360 0.888426
0.664576 0.779965 0.888823
0.688899 0.772885 0.891142
0.729580 0.775692 0.895659
0.769009 0.773739 0.903105
0.818204 0.759792 0.911986
0.888365 0.741115 0.913603
0.679713 0.846494 0.893065
0.682399 0.844999 0.892760
0.693294 0.840757 0.892821
0.714626 0.834531 0.894774
0.746487 0.825559 0.898741
0.791440 0.821378 0.905211
0.834836 0.812253 0.913298
0.901640 0.794522 0.915526
0.709529 0.907439 0.895171
0.711788 0.906218 0.894896
0.720424 0.902281 0.894530
0.738491 0.896635 0.895567
0.765103 0.887938 0.897459
0.801266 0.875822 0.900877
0.848783 0.862516 0.906859
0.910643 0.847929 0.910338
0.754543 0.918334 0.850675
0.756008 0.917662 0.850614
0.763821 0.916808 0.852567
0.780850 0.916960 0.858213
0.804501 0.916503 0.865721
0.834897 0.914977 0.875059
0.874571 0.914763 0.888701
0.942870 0.937285 0.929656
