其他预设/【223】英伦米色调色预设8款/1.LUT预设（视频调色-PR-AE-PS-FCPX-达芬奇用）/英伦米色__-1.cube
# Created by Adobe Lightroom plugin Export LUT (1.17.0)
# www.johnrellis.com/lightroom/exportlut.htm
# Preset: 英伦米色[素锦印象]-1
# Color profile: /Library/Application Support/Adobe/Color/Profiles/Recommended/AdobeRGB1998.icc
LUT_3D_SIZE 32
0.000000 0.000000 0.000000
0.018616 0.000000 0.000763
0.054932 0.000000 0.001251
0.086213 0.000000 0.003082
0.115785 0.000000 0.003601
0.145907 0.000000 0.005249
0.176791 0.000000 0.005554
0.207828 0.000000 0.003357
0.239322 0.000000 0.002045
0.271061 0.000000 0.000000
0.303319 0.000000 0.000000
0.335821 0.000000 0.000000
0.368475 0.000000 0.000000
0.401099 0.000000 0.000000
0.433509 0.000000 0.000000
0.465766 0.000000 0.000000
0.498421 0.000000 0.000000
0.531365 0.000000 0.000000
0.565332 0.000000 0.000000
0.600580 0.000000 0.000000
0.636530 0.000000 0.000000
0.683406 0.000000 0.000000
0.731411 0.000000 0.000000
0.772885 0.000000 0.000000
0.809354 0.000000 0.000000
0.842863 0.000000 0.000000
0.875212 0.000000 0.000000
0.907195 0.000000 0.000000
0.939513 0.000000 0.000000
0.972229 0.000000 0.000000
1.000000 0.000000 0.000000
1.000000 0.000000 0.000000
0.005524 0.013092 0.002045
0.021363 0.015229 0.000366
0.057771 0.012116 0.000641
0.086549 0.007202 0.003143
0.116274 0.000000 0.003540
0.145693 0.000000 0.005219
0.175875 0.000000 0.004608
0.206302 0.000000 0.003723
0.237308 0.000000 0.001312
0.268681 0.000000 0.000000
0.300420 0.000000 0.000000
0.332494 0.000000 0.000000
0.364569 0.000000 0.000000
0.396796 0.000000 0.000000
0.428656 0.000000 0.000000
0.460670 0.000000 0.000000
0.492714 0.000000 0.000000
0.525292 0.000000 0.000000
0.558923 0.000000 0.000000
0.594141 0.000000 0.000000
0.630060 0.000000 0.000000
0.676326 0.000000 0.000000
0.722866 0.000000 0.000000
0.763699 0.000000 0.000000
0.800015 0.000000 0.000000
0.833738 0.000000 0.000000
0.866575 0.000000 0.000000
0.899229 0.000000 0.000000
0.932158 0.000000 0.000000
0.965515 0.000000 0.000000
0.999023 0.000000 0.000000
1.000000 0.000000 0.000000
0.021454 0.041962 0.005737
0.027619 0.050507 0.000458
0.060517 0.049073 0.001740
0.087556 0.042939 0.003357
0.116732 0.033814 0.003876
0.145632 0.023102 0.005493
0.175235 0.008270 0.003876
0.205142 0.000000 0.003052
0.235904 0.000000 0.000824
0.266911 0.000000 0.000000
0.298375 0.000000 0.000000
0.330327 0.000000 0.000000
0.362127 0.000000 0.000000
0.394293 0.000000 0.000000
0.425940 0.000000 0.000000
0.457740 0.000000 0.000000
0.489601 0.000000 0.000000
0.521965 0.000000 0.000000
0.555505 0.000000 0.000000
0.590692 0.000000 0.000000
0.626825 0.000000 0.000000
0.673335 0.000000 0.000000
0.718929 0.000000 0.000000
0.759213 0.000000 0.000000
0.795254 0.000000 0.000000
0.828946 0.000000 0.000000
0.861997 0.000000 0.000000
0.894926 0.000000 0.000000
0.928252 0.000000 0.000000
0.961944 0.000000 0.000000
0.995727 0.000000 0.000000
1.000000 0.000000 0.000000
0.052674 0.075837 0.012299
0.054414 0.078981 0.005982
0.065797 0.080659 0.001648
0.090883 0.079347 0.004150
0.119417 0.076509 0.003571
0.147951 0.072999 0.002991
0.176761 0.068055 0.002502
0.206027 0.062379 0.000641
0.235966 0.052888 0.000000
0.266606 0.036316 0.000000
0.297459 0.017670 0.000000
0.328985 0.000000 0.000000
0.360388 0.000000 0.000000
0.392035 0.000000 0.000000
0.423407 0.000000 0.000000
0.454871 0.000000 0.000000
0.486397 0.000000 0.000000
0.518364 0.000000 0.000000
0.551141 0.000000 0.000000
0.585870 0.000000 0.000000
0.621546 0.000000 0.000000
0.668055 0.000000 0.000000
0.712337 0.000000 0.000000
0.752834 0.000000 0.000000
0.790341 0.000000 0.000000
0.825772 0.000000 0.000000
0.860166 0.000000 0.000000
0.894011 0.000000 0.000000
0.927611 0.000000 0.000000
0.961059 0.000000 0.000000
0.994293 0.000000 0.000000
1.000000 0.000000 0.000000
0.072297 0.101015 0.018372
0.073457 0.103517 0.011933
0.074556 0.106691 0.003052
0.094270 0.106172 0.003540
0.120546 0.105196 0.003845
0.149691 0.103914 0.001617
0.177584 0.100954 0.000122
0.205722 0.097658 0.000000
0.235050 0.094240 0.000000
0.265019 0.090700 0.000000
0.295323 0.086671 0.000000
0.326360 0.082643 0.000000
0.357519 0.076692 0.000000
0.388983 0.068330 0.000000
0.420417 0.058076 0.000000
0.452186 0.032197 0.000000
0.484230 0.000000 0.000000
0.516716 0.000000 0.000000
0.549706 0.000000 0.000000
0.584222 0.000000 0.000000
0.621881 0.000000 0.000000
0.666957 0.000000 0.000000
0.709560 0.000000 0.000000
0.749355 0.000000 0.000000
0.786679 0.000000 0.000000
0.822202 0.000000 0.000000
0.856809 0.000000 0.000000
0.890684 0.000000 0.000000
0.924285 0.000000 0.000000
0.957763 0.000000 0.000000
0.991180 0.000000 0.000000
1.000000 0.000000 0.000000
0.090089 0.127352 0.020661
0.091218 0.129427 0.015198
0.092012 0.132052 0.007324
0.101320 0.134798 0.000000
0.125154 0.133059 0.000000
0.151614 0.132021 0.000000
0.181704 0.132265 0.000000
0.208957 0.129976 0.000000
0.237613 0.127657 0.000000
0.266789 0.125826 0.000000
0.296452 0.123140 0.000000
0.327031 0.120455 0.000000
0.357733 0.116793 0.000000
0.388922 0.112612 0.000000
0.420325 0.107698 0.000000
0.452064 0.101656 0.000000
0.484199 0.093782 0.000000
0.516716 0.085298 0.000000
0.549981 0.074281 0.000000
0.584894 0.057221 0.000000
0.626307 0.011902 0.000000
0.670649 0.000000 0.000000
0.769894 0.000000 0.000000
0.809628 0.000000 0.000000
0.844724 0.000000 0.000000
0.876860 0.000000 0.000000
0.906981 0.000000 0.000000
0.936217 0.000000 0.000000
0.965179 0.000000 0.000000
0.994232 0.000000 0.000000
1.000000 0.000000 0.000000
1.000000 0.000000 0.000000
0.112184 0.161135 0.023896
0.113069 0.162844 0.017243
0.114107 0.165072 0.009125
0.117037 0.169955 0.000000
0.138491 0.169253 0.000000
0.163455 0.167178 0.000000
0.191043 0.166567 0.000000
0.222873 0.167941 0.000000
0.251164 0.165682 0.000000
0.280552 0.163882 0.000000
0.310704 0.161929 0.000000
0.341527 0.159457 0.000000
0.372229 0.156802 0.000000
0.403021 0.153445 0.000000
0.433570 0.149538 0.000000
0.464088 0.145296 0.000000
0.495430 0.140414 0.000000
0.527489 0.135012 0.000000
0.561242 0.129335 0.000000
0.598871 0.122591 0.000000
0.648371 0.116884 0.000000
0.698512 0.108278 0.000000
0.746700 0.096773 0.000000
0.791379 0.079347 0.000000
0.831785 0.040406 0.000000
0.867155 0.000000 0.000000
0.899168 0.000000 0.000000
0.929198 0.000000 0.000000
0.958740 0.000000 0.000000
0.987823 0.000000 0.000000
1.000000 0.000000 0.000000
1.000000 0.000000 0.000000
0.130526 0.188540 0.026581
0.131228 0.189975 0.021057
0.132082 0.191714 0.014099
0.134524 0.195560 0.000885
0.145937 0.198093 0.000000
0.169802 0.196475 0.000000
0.194797 0.194705 0.000000
0.222416 0.194247 0.000000
0.254337 0.195987 0.000000
0.282841 0.194278 0.000000
0.312200 0.192844 0.000000
0.342229 0.191196 0.000000
0.372381 0.189120 0.000000
0.402625 0.186923 0.000000
0.432685 0.183841 0.000000
0.462837 0.180514 0.000000
0.493843 0.177157 0.000000
0.525780 0.173373 0.000000
0.559258 0.169650 0.000000
0.602777 0.167910 0.000000
0.648798 0.165835 0.000000
0.696040 0.162753 0.000000
0.742061 0.157107 0.000000
0.785153 0.149722 0.000000
0.824643 0.138827 0.000000
0.859770 0.124666 0.000000
0.891814 0.106142 0.000000
0.922240 0.078737 0.000000
0.952209 0.000000 0.000000
0.981750 0.000000 0.000000
1.000000 0.000000 0.000000
1.000000 0.000000 0.000000
0.149813 0.217166 0.032471
0.150240 0.218173 0.028199
0.151308 0.219730 0.022217
0.153109 0.222843 0.008148
0.156466 0.228000 0.000000
0.177615 0.226902 0.000000
0.201633 0.225071 0.000000
0.226841 0.223117 0.000000
0.255009 0.223056 0.000000
0.287236 0.225528 0.000000
0.316106 0.224247 0.000000
0.345373 0.222843 0.000000
0.375067 0.221286 0.000000
0.404852 0.219425 0.000000
0.434485 0.217075 0.000000
0.464271 0.214481 0.000000
0.494972 0.211826 0.000000
0.526635 0.209354 0.000000
0.565545 0.208774 0.000000
0.607630 0.208713 0.000000
0.651270 0.208286 0.000000
0.696376 0.206790 0.000000
0.740475 0.203952 0.000000
0.782223 0.199283 0.000000
0.820706 0.192813 0.000000
0.855314 0.183536 0.000000
0.887205 0.172000 0.000000
0.917540 0.158083 0.000000
0.947478 0.140200 0.000000
0.977050 0.110658 0.000000
1.000000 0.063600 0.000000
1.000000 0.000000 0.000000
0.169070 0.245731 0.040162
0.169467 0.246525 0.035981
0.169955 0.247745 0.029175
0.171695 0.250309 0.014069
0.174380 0.254520 0.000000
0.185946 0.256626 0.000000
0.208865 0.254887 0.000000
0.233280 0.253208 0.000000
0.258640 0.251591 0.000000
0.286839 0.251774 0.000000
0.319432 0.254398 0.000000
0.348119 0.253269 0.000000
0.377356 0.252049 0.000000
0.406897 0.250736 0.000000
0.436835 0.249119 0.000000
0.467231 0.247532 0.000000
0.498482 0.245914 0.000000
0.536584 0.247166 0.000000
0.575677 0.248112 0.000000
0.615503 0.248234 0.000000
0.656336 0.248264 0.000000
0.697810 0.247196 0.000000
0.738308 0.244846 0.000000
0.777005 0.241245 0.000000
0.813443 0.236240 0.000000
0.847471 0.229129 0.000000
0.879789 0.220340 0.000000
0.911131 0.210422 0.000000
0.942168 0.198764 0.000000
0.972900 0.181125 0.000000
1.000000 0.159884 0.000000
1.000000 0.134981 0.000000
0.187137 0.272251 0.049317
0.187442 0.273106 0.045777
0.188144 0.274327 0.037629
0.189517 0.276799 0.023468
0.191775 0.280522 0.002014
0.195285 0.285679 0.000000
0.216709 0.284794 0.000000
0.240513 0.283635 0.000000
0.265446 0.282322 0.000000
0.291447 0.281071 0.000000
0.319890 0.281529 0.000000
0.352605 0.284215 0.000000
0.381201 0.283177 0.000000
0.410193 0.281926 0.000000
0.439734 0.280797 0.000000
0.472297 0.281285 0.000000
0.507805 0.282536 0.000000
0.543999 0.283635 0.000000
0.580804 0.284337 0.000000
0.618677 0.284581 0.000000
0.657862 0.284855 0.000000
0.698024 0.284550 0.000000
0.737545 0.283513 0.000000
0.775418 0.280766 0.000000
0.811154 0.276707 0.000000
0.844388 0.270603 0.000000
0.876097 0.263432 0.000000
0.906950 0.255283 0.000000
0.937682 0.246281 0.000000
0.968353 0.232486 0.000000
0.998901 0.217258 0.000000
1.000000 0.200412 0.000000
0.205966 0.300633 0.057282
0.206455 0.301427 0.053925
0.206973 0.302373 0.049592
0.208408 0.304601 0.036164
0.210452 0.308232 0.011078
0.213443 0.312902 0.000000
0.225406 0.315679 0.000000
0.248692 0.314824 0.000000
0.273289 0.313909 0.000000
0.299077 0.312963 0.000000
0.325475 0.312047 0.000000
0.354650 0.312779 0.000000
0.409705 0.334661 0.000000
0.444923 0.337377 0.000000
0.482277 0.340795 0.000000
0.519768 0.343328 0.000000
0.557244 0.345159 0.000000
0.593591 0.345495 0.000000
0.629145 0.344579 0.000000
0.665583 0.343999 0.000000
0.702327 0.342565 0.000000
0.738338 0.340490 0.000000
0.772915 0.337224 0.000000
0.806241 0.332860 0.000000
0.837980 0.327489 0.000000
0.868101 0.320989 0.000000
0.896941 0.313420 0.000000
0.924956 0.305150 0.000000
0.952911 0.296117 0.000000
0.981140 0.284520 0.000000
1.000000 0.271550 0.000000
1.000000 0.258335 0.000000
0.232212 0.339727 0.065126
0.232486 0.340276 0.063050
0.232731 0.340673 0.060151
0.233310 0.342046 0.049165
0.234470 0.344366 0.022004
0.236423 0.347601 0.000000
0.239475 0.352422 0.000000
0.261021 0.351446 0.000000
0.285557 0.350805 0.000000
0.311864 0.350835 0.000000
0.339635 0.351507 0.000000
0.372076 0.355566 0.000000
0.410346 0.363806 0.000000
0.453742 0.374578 0.000000
0.490974 0.378454 0.000000
0.527398 0.380926 0.000000
0.562860 0.381842 0.000000
0.596826 0.381079 0.000000
0.630274 0.379767 0.000000
0.664485 0.378271 0.000000
0.699489 0.376806 0.000000
0.734066 0.374670 0.000000
0.767361 0.371527 0.000000
0.799802 0.367437 0.000000
0.830930 0.362341 0.000000
0.860685 0.356268 0.000000
0.889372 0.349310 0.000000
0.917571 0.341802 0.000000
0.945922 0.333745 0.000000
0.974670 0.324010 0.000000
1.000000 0.312871 0.000000
1.000000 0.301640 0.000000
0.250736 0.367315 0.071290
0.251041 0.367956 0.069368
0.251255 0.368353 0.066804
0.251743 0.369482 0.060090
0.252537 0.371466 0.038575
0.254246 0.374395 0.005798
0.256992 0.378912 0.000000
0.268772 0.381506 0.000000
0.293156 0.381842 0.000000
0.321202 0.385046 0.000000
0.351568 0.389075 0.000000
0.384192 0.394141 0.000000
0.418280 0.399054 0.000000
0.455665 0.405646 0.000000
0.496986 0.414038 0.000000
0.532341 0.416022 0.000000
0.565728 0.416022 0.000000
0.597925 0.414710 0.000000
0.629999 0.412787 0.000000
0.662959 0.411261 0.000000
0.696834 0.409796 0.000000
0.730648 0.407904 0.000000
0.763363 0.405005 0.000000
0.795438 0.401221 0.000000
0.826261 0.396643 0.000000
0.855924 0.390906 0.000000
0.884642 0.384588 0.000000
0.912963 0.377661 0.000000
0.941527 0.370428 0.000000
0.970520 0.361669 0.000000
0.999695 0.352209 0.000000
1.000000 0.342535 0.000000
0.270359 0.396979 0.077394
0.270939 0.397894 0.075471
0.271275 0.398505 0.072908
0.272160 0.400244 0.066773
0.273533 0.402930 0.055421
0.275517 0.406683 0.019928
0.278782 0.411994 0.000000
0.283116 0.418921 0.000000
0.306523 0.420752 0.000000
0.333623 0.423133 0.000000
0.362982 0.426673 0.000000
0.394476 0.431067 0.000000
0.427497 0.435492 0.000000
0.461067 0.439185 0.000000
0.497169 0.444099 0.000000
0.535882 0.449866 0.000000
0.568994 0.449928 0.000000
0.599725 0.447913 0.000000
0.630488 0.445563 0.000000
0.662104 0.443793 0.000000
0.694789 0.442023 0.000000
0.727382 0.439979 0.000000
0.759396 0.437079 0.000000
0.790951 0.433661 0.000000
0.821775 0.429419 0.000000
0.851957 0.424567 0.000000
0.881712 0.419226 0.000000
0.911467 0.413519 0.000000
0.941466 0.407507 0.000000
0.971801 0.400458 0.000000
1.000000 0.392584 0.000000
1.000000 0.384527 0.000000
0.297154 0.437293 0.085451
0.297704 0.438239 0.083925
0.298039 0.439063 0.080934
0.298894 0.440711 0.075868
0.300053 0.443244 0.065736
0.302007 0.446784 0.041596
0.304906 0.451972 0.000000
0.309026 0.458869 0.000000
0.322789 0.463966 0.000000
0.349065 0.465705 0.000000
0.377203 0.467964 0.000000
0.406714 0.470314 0.000000
0.437171 0.472480 0.000000
0.468086 0.473976 0.000000
0.498909 0.474495 0.000000
0.532280 0.476692 0.000000
0.568475 0.480323 0.000000
0.600275 0.479561 0.000000
0.631250 0.477699 0.000000
0.663294 0.476539 0.000000
0.696132 0.475502 0.000000
0.728847 0.474067 0.000000
0.760891 0.471656 0.000000
0.792416 0.468574 0.000000
0.823270 0.464790 0.000000
0.853666 0.460365 0.000000
0.883543 0.455390 0.000000
0.913298 0.450141 0.000000
0.943084 0.444434 0.000000
0.972839 0.437842 0.000000
1.000000 0.430182 0.000000
1.000000 0.422675 0.000000
0.320836 0.473152 0.092714
0.320867 0.473732 0.090455
0.321111 0.474220 0.088472
0.321691 0.475532 0.082887
0.322667 0.477638 0.073335
0.324315 0.480781 0.058747
0.326879 0.485359 0.012726
0.330266 0.491402 0.000000
0.334966 0.499031 0.000000
0.359045 0.500908 0.000000
0.386297 0.502831 0.000000
0.414984 0.505119 0.000000
0.444800 0.507225 0.000000
0.474983 0.508537 0.000000
0.504997 0.508690 0.000000
0.534081 0.507378 0.000000
0.565789 0.507897 0.000000
0.599634 0.509606 0.000000
0.631037 0.508568 0.000000
0.662196 0.507073 0.000000
0.693996 0.505882 0.000000
0.726070 0.504326 0.000000
0.757656 0.502220 0.000000
0.789029 0.499641 0.000000
0.819974 0.496345 0.000000
0.850553 0.492561 0.000000
0.880949 0.488197 0.000000
0.911192 0.483650 0.000000
0.941436 0.478614 0.000000
0.971618 0.472816 0.000000
1.000000 0.466133 0.000000
1.000000 0.459480 0.000000
0.344823 0.510063 0.099428
0.345556 0.511467 0.097749
0.367529 0.545068 0.102876
0.367864 0.546166 0.097047
0.368566 0.547662 0.088441
0.369421 0.549859 0.074403
0.370886 0.552972 0.043061
0.373144 0.557183 0.000000
0.376501 0.563134 0.000000
0.389990 0.567376 0.000000
0.416876 0.567620 0.000000
0.444862 0.568048 0.000000
0.473579 0.567742 0.000000
0.502678 0.566918 0.000000
0.531731 0.565179 0.000000
0.560296 0.562493 0.000000
0.588495 0.558953 0.000000
0.618524 0.556909 0.000000
0.649866 0.555566 0.000000
0.679957 0.552789 0.000000
0.709224 0.549187 0.000000
0.739162 0.546044 0.000000
0.769070 0.542565 0.000000
0.798428 0.538628 0.000000
0.826749 0.533745 0.000000
0.854643 0.528405 0.000000
0.882475 0.522820 0.000000
0.910857 0.517296 0.000000
0.940185 0.512078 0.000000
0.970153 0.506554 0.000000
1.000000 0.500603 0.000000
1.000000 0.494453 0.000000
0.373999 0.554955 0.107668
0.377020 0.559930 0.106630
0.380255 0.564965 0.105898
0.383429 0.570001 0.102815
0.386114 0.574670 0.095155
0.387976 0.578271 0.082856
0.389502 0.581567 0.062531
0.391516 0.585534 0.000702
0.394446 0.590875 0.000000
0.398322 0.597345 0.000000
0.422126 0.597925 0.000000
0.449317 0.598047 0.000000
0.476814 0.597375 0.000000
0.504906 0.596155 0.000000
0.532799 0.594079 0.000000
0.560571 0.591150 0.000000
0.588006 0.587579 0.000000
0.615503 0.583642 0.000000
0.645136 0.581567 0.000000
0.676112 0.580224 0.000000
0.706050 0.577600 0.000000
0.736263 0.575067 0.000000
0.766293 0.572168 0.000000
0.795926 0.568780 0.000000
0.824613 0.564508 0.000000
0.852934 0.559716 0.000000
0.881102 0.554681 0.000000
0.909697 0.549676 0.000000
0.939117 0.544915 0.000000
0.969116 0.539849 0.000000
0.999115 0.534295 0.000000
1.000000 0.528771 0.000000
0.393774 0.585870 0.112337
0.396796 0.590448 0.112642
0.399847 0.595300 0.111482
0.402716 0.599969 0.107973
0.405188 0.604334 0.100832
0.406836 0.607568 0.089631
0.408301 0.610681 0.072755
0.410010 0.614191 0.025544
0.412543 0.618982 0.000000
0.415961 0.624811 0.000000
0.428565 0.628992 0.000000
0.454627 0.628901 0.000000
0.481514 0.628046 0.000000
0.508751 0.626734 0.000000
0.536004 0.624628 0.000000
0.563134 0.621607 0.000000
0.590265 0.618097 0.000000
0.617456 0.614343 0.000000
0.645136 0.610895 0.000000
0.674891 0.609033 0.000000
0.704860 0.607019 0.000000
0.734920 0.604700 0.000000
0.765133 0.602380 0.000000
0.794736 0.599207 0.000000
0.823362 0.595209 0.000000
0.851499 0.590600 0.000000
0.879454 0.585626 0.000000
0.907836 0.580865 0.000000
0.937102 0.576287 0.000000
0.966949 0.571618 0.000000
0.996887 0.566522 0.000000
1.000000 0.561517 0.000000
0.413733 0.616785 0.117525
0.416571 0.621149 0.117769
0.419440 0.625788 0.116640
0.422217 0.630335 0.113466
0.424506 0.634333 0.107027
0.426093 0.637354 0.097475
0.427283 0.640009 0.081361
0.428748 0.643091 0.053346
0.430762 0.647120 0.000000
0.433448 0.652125 0.000000
0.436988 0.658137 0.000000
0.459480 0.658442 0.000000
0.485389 0.657404 0.000000
0.512078 0.656153 0.000000
0.539208 0.654475 0.000000
0.566674 0.652552 0.000000
0.594873 0.650752 0.000000
0.623804 0.649256 0.000000
0.653712 0.648249 0.000000
0.684840 0.647791 0.000000
0.716579 0.647517 0.000000
0.747677 0.646052 0.000000
0.778012 0.643732 0.000000
0.808682 0.641230 0.000000
0.838102 0.637751 0.000000
0.866545 0.633326 0.000000
0.894591 0.628290 0.000000
0.922728 0.623316 0.000000
0.951446 0.618433 0.000000
0.980285 0.613428 0.000000
1.000000 0.608148 0.000000
1.000000 0.603357 0.020569
0.444648 0.664118 0.128786
0.445960 0.666285 0.127718
0.447181 0.668147 0.127016
0.448310 0.670161 0.123629
0.449226 0.672175 0.116518
0.449989 0.674037 0.107271
0.450965 0.676234 0.093477
0.452247 0.679255 0.071443
0.454292 0.683375 0.008820
0.457130 0.688411 0.000000
0.460487 0.694423 0.000000
0.471962 0.698329 0.000000
0.497688 0.697475 0.000000
0.523949 0.696193 0.000000
0.550622 0.694301 0.000000
0.577783 0.692164 0.000000
0.605524 0.689998 0.000000
0.633936 0.687892 0.000000
0.663020 0.686244 0.000000
0.692958 0.684779 0.000000
0.723476 0.683528 0.000000
0.753109 0.680873 0.000000
0.781003 0.676570 0.000000
0.808225 0.671595 0.000000
0.836942 0.667659 0.000000
0.865232 0.663355 0.000000
0.893339 0.658717 0.000000
0.921630 0.654047 0.000000
0.950317 0.649470 0.000000
0.979065 0.644587 0.000000
1.000000 0.639918 0.000000
1.000000 0.636103 0.037873
0.464240 0.694209 0.135164
0.465644 0.696345 0.135103
0.466865 0.698360 0.134279
0.467933 0.700282 0.130739
0.468757 0.702022 0.125032
0.469245 0.703487 0.115572
0.469825 0.705165 0.102602
0.470619 0.707424 0.083986
0.472145 0.710658 0.049073
0.474281 0.714900 0.000000
0.477089 0.720058 0.000000
0.480232 0.725673 0.000000
0.501762 0.725887 0.000000
0.527550 0.724819 0.000000
0.553948 0.723354 0.000000
0.580865 0.721767 0.000000
0.608698 0.720180 0.000000
0.637110 0.718776 0.000000
0.666377 0.717678 0.000000
0.696407 0.716793 0.000000
0.727352 0.716304 0.000000
0.759060 0.715938 0.000000
0.788357 0.712978 0.000000
0.815518 0.707912 0.000000
0.832273 0.694026 0.000000
0.860410 0.689815 0.000000
0.888670 0.685603 0.000000
0.916991 0.681392 0.000000
0.945708 0.677180 0.000000
0.974578 0.673030 0.000000
1.000000 0.669337 0.000000
1.000000 0.666682 0.029084
0.492683 0.736477 0.150179
0.494209 0.738674 0.150576
0.495155 0.740169 0.149660
0.495644 0.741268 0.146426
0.495735 0.742031 0.140444
0.495583 0.742580 0.131533
0.495216 0.743191 0.118685
0.495064 0.744076 0.101778
0.495277 0.745541 0.077455
0.496040 0.747860 0.007019
0.497200 0.750851 0.000000
0.499031 0.754635 0.000000
0.507927 0.756863 0.000000
0.532433 0.754574 0.000000
0.556970 0.751675 0.000000
0.582330 0.748562 0.000000
0.608209 0.745541 0.000000
0.635126 0.743130 0.000000
0.663447 0.741787 0.000000
0.693294 0.741360 0.000000
0.724117 0.741543 0.000000
0.755673 0.741665 0.000000
0.787228 0.741207 0.000000
0.814450 0.736477 0.000000
0.838712 0.729091 0.000000
0.861692 0.720790 0.000000
0.889067 0.716060 0.000000
0.916533 0.711299 0.000000
0.944488 0.706935 0.000000
0.972869 0.702907 0.000000
1.000000 0.699672 0.000000
1.000000 0.697841 0.038697
0.510277 0.762875 0.158785
0.511742 0.764981 0.158907
0.512718 0.766415 0.158145
0.513115 0.767483 0.154818
0.513176 0.768185 0.149264
0.513024 0.768795 0.140963
0.512840 0.769589 0.130007
0.512840 0.770718 0.114443
0.513176 0.772519 0.092439
0.514122 0.775113 0.058900
0.515343 0.778317 0.000000
0.517205 0.782284 0.000000
0.519341 0.786587 0.000000
0.538903 0.786252 0.000000
0.563806 0.784115 0.000000
0.589075 0.781704 0.000000
0.615137 0.779324 0.000000
0.642115 0.777310 0.000000
0.670283 0.776089 0.000000
0.699763 0.775692 0.000000
0.730190 0.775631 0.000000
0.761288 0.775631 0.000000
0.792630 0.775265 0.000000
0.823941 0.774350 0.000000
0.849516 0.767941 0.000000
0.872221 0.759121 0.000000
0.893828 0.749722 0.000000
0.921172 0.744991 0.000000
0.949065 0.740688 0.000000
0.977050 0.736873 0.000000
1.000000 0.733944 0.000000
1.000000 0.732540 0.078798
0.531243 0.793393 0.170871
0.532250 0.794858 0.171298
0.532677 0.795590 0.170230
0.532647 0.795956 0.166812
0.532250 0.796078 0.160861
0.531701 0.796139 0.152804
0.531029 0.796506 0.141665
0.530724 0.797238 0.127016
0.530846 0.798734 0.108583
0.531487 0.801083 0.081117
0.532586 0.804105 0.002045
0.534295 0.808011 0.000000
0.536156 0.812222 0.000000
0.543908 0.815000 0.000000
0.568200 0.813169 0.000000
0.593133 0.810910 0.000000
0.618738 0.808560 0.000000
0.645289 0.806577 0.000000
0.672908 0.805264 0.000000
0.701839 0.804715 0.000000
0.731716 0.804623 0.000000
0.762325 0.804593 0.000000
0.793210 0.804257 0.000000
0.824308 0.803586 0.000000
0.855375 0.802335 0.000000
0.879515 0.794522 0.000000
0.901061 0.784756 0.000000
0.921447 0.774563 0.000000
0.948363 0.769802 0.000000
0.976135 0.766110 0.000000
1.000000 0.763363 0.000000
1.000000 0.762203 0.084718
0.549279 0.819577 0.181949
0.549981 0.820523 0.181888
0.550378 0.821164 0.181033
0.550439 0.821683 0.178012
0.550378 0.822416 0.172427
0.550683 0.823636 0.166018
0.551537 0.825834 0.157259
0.552941 0.828916 0.146944
0.554803 0.832944 0.132662
0.557244 0.837766 0.114412
0.560052 0.843137 0.087861
0.563012 0.848875 0.016571
0.565820 0.854582 0.000000
0.568383 0.859922 0.000000
0.587213 0.860899 0.000000
0.612604 0.859373 0.000000
0.638575 0.857511 0.000000
0.665278 0.855741 0.000000
0.693141 0.854459 0.000000
0.721920 0.853666 0.000000
0.751644 0.853208 0.000000
0.782071 0.852750 0.000000
0.812741 0.851987 0.000000
0.843687 0.850950 0.000000
0.874815 0.849454 0.000000
0.906096 0.847562 0.000000
0.928374 0.837522 0.000000
0.947997 0.825742 0.000000
0.966613 0.814054 0.000000
0.991394 0.808225 0.000000
1.000000 0.804440 0.023499
1.000000 0.802213 0.135500
0.580926 0.861448 0.211826
0.581353 0.862028 0.211551
0.581292 0.862211 0.210483
0.580926 0.862272 0.207065
0.580377 0.862364 0.201602
0.579828 0.862760 0.194400
0.579614 0.863737 0.185458
0.579706 0.865293 0.174533
0.580194 0.867552 0.161257
0.580987 0.870451 0.144015
0.582025 0.873716 0.121187
0.583337 0.877470 0.087984
0.584619 0.881376 0.000000
0.585870 0.885283 0.000000
0.591241 0.888182 0.000000
0.616052 0.886778 0.000000
