其他预设/【223】英伦米色调色预设8款/1.LUT预设（视频调色-PR-AE-PS-FCPX-达芬奇用）/英伦米色__-5.cube
# Created by Adobe Lightroom plugin Export LUT (1.17.0)
# www.johnrellis.com/lightroom/exportlut.htm
# Preset: 英伦米色[素锦印象]-5
# Color profile: /Library/Application Support/Adobe/Color/Profiles/Recommended/AdobeRGB1998.icc
LUT_3D_SIZE 32
0.000000 0.000000 0.000000
0.000000 0.000000 0.000000
0.000000 0.000000 0.000000
0.076204 0.000000 0.009552
0.113924 0.000000 0.023804
0.151034 0.028168 0.047242
0.188876 0.063020 0.059876
0.226352 0.080720 0.065949
0.263584 0.096895 0.070802
0.300023 0.114076 0.075502
0.336248 0.130526 0.080537
0.371984 0.147799 0.085939
0.407172 0.164889 0.091524
0.441871 0.181918 0.098939
0.475837 0.199374 0.105928
0.514031 0.218540 0.114290
0.552911 0.237736 0.123842
0.589166 0.256077 0.133272
0.622278 0.273075 0.142184
0.654383 0.289708 0.151949
0.685451 0.306096 0.162264
0.715785 0.322118 0.173373
0.744930 0.337865 0.184512
0.773220 0.353277 0.195926
0.800839 0.368597 0.207828
0.828031 0.384009 0.220188
0.855161 0.400031 0.233555
0.882261 0.416785 0.248112
0.909361 0.434485 0.263615
0.936309 0.453254 0.280644
0.962921 0.473396 0.298985
0.988800 0.495186 0.319371
0.000000 0.000000 0.000000
0.000000 0.000000 0.000000
0.003845 0.000000 0.001038
0.078553 0.000000 0.010468
0.115755 0.011566 0.027466
0.152193 0.047578 0.048310
0.189456 0.069978 0.061372
0.226627 0.085786 0.066957
0.263340 0.101534 0.071351
0.299596 0.117372 0.076112
0.335332 0.133639 0.080537
0.370886 0.149966 0.086061
0.405676 0.166751 0.091707
0.440162 0.183749 0.098665
0.473915 0.200717 0.105776
0.511681 0.219181 0.114321
0.549432 0.237827 0.123445
0.585046 0.255528 0.132082
0.617914 0.272251 0.140902
0.649897 0.288670 0.150729
0.680995 0.304997 0.160922
0.711391 0.320775 0.171725
0.740627 0.336400 0.182773
0.769070 0.351873 0.194553
0.796933 0.367102 0.206363
0.824430 0.382574 0.218906
0.851896 0.398596 0.232242
0.879240 0.415412 0.246616
0.906676 0.433082 0.262150
0.933898 0.451972 0.279057
0.960723 0.472114 0.297551
0.986816 0.493751 0.317723
0.000000 0.000000 0.000000
0.000000 0.000000 0.000000
0.014374 0.000000 0.000702
0.081270 0.005280 0.014618
0.117983 0.037507 0.033692
0.154330 0.063813 0.052796
0.190768 0.078309 0.062104
0.227146 0.092775 0.067262
0.263615 0.106935 0.072053
0.299565 0.122469 0.076417
0.335119 0.137575 0.081209
0.370336 0.153597 0.086122
0.405280 0.169894 0.092317
0.439399 0.186618 0.099031
0.473060 0.203159 0.105715
0.510582 0.221317 0.114534
0.547662 0.239536 0.123018
0.582849 0.256687 0.131716
0.615595 0.273136 0.140444
0.647517 0.289189 0.150393
0.678767 0.305272 0.160800
0.709163 0.321111 0.171206
0.738521 0.336614 0.182437
0.767086 0.351904 0.193820
0.795010 0.367163 0.205478
0.822568 0.382666 0.218173
0.850156 0.398627 0.231296
0.877714 0.415351 0.245914
0.905303 0.433021 0.261418
0.932647 0.451850 0.278416
0.959594 0.471931 0.296910
0.985779 0.493507 0.317113
0.005798 0.012848 0.007446
0.009003 0.020356 0.012177
0.047852 0.040864 0.011627
0.089662 0.059327 0.026307
0.124208 0.071565 0.045228
0.159304 0.083040 0.059266
0.194827 0.094697 0.064454
0.230472 0.106844 0.068544
0.265904 0.119478 0.072877
0.301152 0.132937 0.077272
0.336370 0.147158 0.081971
0.371130 0.162051 0.087190
0.405493 0.177676 0.092805
0.439368 0.193454 0.099519
0.472877 0.208774 0.106752
0.510185 0.226596 0.115084
0.546227 0.243931 0.123201
0.580743 0.260136 0.132113
0.612848 0.276066 0.140505
0.644190 0.291600 0.149874
0.675166 0.306981 0.159762
0.705470 0.322423 0.170504
0.735164 0.337926 0.181613
0.764340 0.353155 0.193210
0.793118 0.368658 0.205295
0.821469 0.384375 0.218021
0.849638 0.400488 0.231601
0.877562 0.417365 0.246128
0.905211 0.435035 0.261875
0.932494 0.453590 0.278630
0.959228 0.473396 0.296880
0.985168 0.494575 0.316869
0.032471 0.064637 0.042573
0.052674 0.062928 0.057313
0.063783 0.070741 0.056397
0.095186 0.084504 0.041169
0.130770 0.095705 0.057435
0.166567 0.106264 0.063722
0.200656 0.114992 0.067750
0.234867 0.124575 0.071412
0.269108 0.135653 0.074495
0.303349 0.147951 0.078431
0.337682 0.160433 0.083162
0.371984 0.174136 0.088350
0.405859 0.188327 0.094484
0.439551 0.202976 0.101137
0.472969 0.217746 0.107973
0.510307 0.234745 0.116182
0.545861 0.251102 0.124361
0.580163 0.266972 0.132815
0.612268 0.281987 0.141268
0.643427 0.297032 0.150484
0.674037 0.311864 0.160037
0.704189 0.326757 0.170565
0.733700 0.341680 0.181888
0.762905 0.356817 0.193332
0.791836 0.372045 0.205295
0.820340 0.387488 0.218051
0.848600 0.403540 0.231693
0.876585 0.420050 0.246311
0.904234 0.437446 0.261784
0.931518 0.455879 0.278752
0.958312 0.475410 0.296880
0.984314 0.496376 0.316747
0.068788 0.080964 0.072114
0.073640 0.080110 0.077241
0.077790 0.086091 0.076295
0.098268 0.100923 0.066621
0.134310 0.115389 0.061646
0.173129 0.128420 0.067201
0.209384 0.138552 0.070924
0.241947 0.146578 0.073976
0.274876 0.155612 0.077363
0.308049 0.166140 0.081178
0.341588 0.177584 0.085664
0.375158 0.189944 0.090120
0.408301 0.202914 0.095949
0.441627 0.216007 0.103029
0.476020 0.230594 0.110079
0.512169 0.246189 0.118105
0.547295 0.261295 0.126436
0.581140 0.276402 0.134127
0.613184 0.290837 0.142794
0.644404 0.305180 0.152224
0.675105 0.319615 0.161898
0.705318 0.334173 0.172122
0.760800 0.363684 0.193423
0.788693 0.378058 0.205020
0.815793 0.392432 0.217258
0.842435 0.406836 0.229709
0.868559 0.421820 0.243015
0.894377 0.437415 0.257206
0.920073 0.453773 0.272343
0.945495 0.471321 0.288945
0.970306 0.490059 0.306889
0.994324 0.509880 0.326146
0.087984 0.099428 0.091585
0.091096 0.098604 0.095277
0.094118 0.103395 0.093996
0.108064 0.117250 0.086061
0.141878 0.135897 0.070405
0.179385 0.149905 0.069490
0.219364 0.163333 0.073274
0.255741 0.173526 0.077577
0.287266 0.181094 0.081666
0.319707 0.190341 0.084810
0.352544 0.200534 0.089174
0.385595 0.211307 0.094636
0.418280 0.223026 0.100282
0.451026 0.234897 0.106752
0.487160 0.249454 0.114504
0.522881 0.263951 0.122286
0.557366 0.278172 0.130220
0.590600 0.291966 0.138705
0.622339 0.305699 0.147127
0.653986 0.319585 0.156588
0.685847 0.334325 0.166842
0.717983 0.349493 0.178225
0.749783 0.364996 0.190341
0.780880 0.380529 0.202914
0.810697 0.395850 0.215976
0.838895 0.410895 0.229129
0.865904 0.426032 0.242557
0.892149 0.441382 0.256992
0.918059 0.457557 0.272068
0.943481 0.474617 0.288457
0.968383 0.492958 0.306310
0.992523 0.512596 0.325658
0.105989 0.119051 0.109895
0.108431 0.118349 0.113100
0.110842 0.120516 0.113863
0.120027 0.132876 0.106813
0.144961 0.150210 0.094331
0.184756 0.168795 0.077821
0.220920 0.181186 0.077089
0.259495 0.193912 0.079072
0.295048 0.204288 0.083772
0.325933 0.211978 0.088106
0.357763 0.220768 0.092653
0.389899 0.230564 0.097688
0.421942 0.240879 0.103670
0.455055 0.252201 0.110140
0.490822 0.265721 0.117830
0.524865 0.278477 0.125154
0.558312 0.291447 0.132601
0.590692 0.304082 0.140627
0.621820 0.316869 0.148623
0.652979 0.329961 0.158267
0.684535 0.343694 0.168276
0.716182 0.358099 0.179171
0.747738 0.372778 0.191012
0.778531 0.387579 0.203433
0.808316 0.402258 0.215946
0.836515 0.416907 0.229038
0.863645 0.431525 0.242618
0.890043 0.446571 0.256962
0.916106 0.462318 0.272221
0.941680 0.479103 0.288457
0.966796 0.497139 0.306249
0.991089 0.516411 0.325536
0.125582 0.140108 0.129641
0.127810 0.139498 0.132265
0.130282 0.139590 0.135134
0.136477 0.151125 0.128847
0.154788 0.166812 0.118410
0.187716 0.185519 0.102876
0.226505 0.200992 0.090608
0.262211 0.212100 0.090547
0.299046 0.224033 0.092500
0.334234 0.234623 0.094942
0.364904 0.242588 0.097414
0.395972 0.251286 0.101747
0.427283 0.260441 0.107759
0.462074 0.272282 0.114565
0.495918 0.283970 0.121492
0.528801 0.295476 0.128573
0.561273 0.307012 0.135836
0.592889 0.318578 0.143496
0.623407 0.330175 0.151492
0.654047 0.342351 0.160494
0.685023 0.355230 0.170474
0.716365 0.368658 0.181003
0.747463 0.382605 0.192813
0.777920 0.396765 0.204685
0.807401 0.410925 0.217258
0.835508 0.424781 0.230076
0.862608 0.438849 0.243381
0.888975 0.453376 0.257725
0.915007 0.468788 0.272648
0.940551 0.485084 0.289097
0.965637 0.502525 0.306706
0.989960 0.521416 0.325933
0.146426 0.162539 0.150027
0.148470 0.161868 0.152407
0.150484 0.161166 0.155612
0.154940 0.170138 0.150729
0.168185 0.184604 0.142092
0.194064 0.201877 0.129000
0.232944 0.221073 0.109926
0.267674 0.232181 0.104036
0.302037 0.242405 0.104799
0.337377 0.253147 0.107729
0.372198 0.263615 0.110994
0.402350 0.271366 0.113985
0.435065 0.281590 0.117800
0.468513 0.292485 0.120974
0.501396 0.303136 0.125734
0.533898 0.313725 0.133089
0.566278 0.324620 0.139864
0.597467 0.335302 0.147158
0.627466 0.346166 0.155123
0.657465 0.357244 0.163760
0.687404 0.368872 0.173404
0.717433 0.381048 0.183658
0.747280 0.393652 0.194491
0.776699 0.406561 0.205905
0.805478 0.419623 0.218051
0.833433 0.432990 0.230808
0.860655 0.446632 0.244236
0.887419 0.460914 0.258244
0.913787 0.475990 0.273686
0.939788 0.492134 0.290166
0.965148 0.509453 0.307866
0.989746 0.528252 0.327520
0.167178 0.184329 0.169833
0.168765 0.183780 0.171878
0.170718 0.182895 0.174685
0.174380 0.189548 0.172366
0.184146 0.202762 0.164675
0.204196 0.218784 0.153536
0.235996 0.236759 0.138216
0.275547 0.253727 0.119203
0.307958 0.262455 0.117464
0.341497 0.272038 0.119203
0.375708 0.282444 0.123476
0.411994 0.294102 0.128420
0.443519 0.303014 0.132235
0.475319 0.312474 0.135561
0.506950 0.322148 0.139071
0.538598 0.332036 0.141268
0.570275 0.342138 0.144106
0.600641 0.351995 0.150698
0.629938 0.361669 0.158511
0.659266 0.371954 0.167056
0.688838 0.382727 0.175967
0.718471 0.394110 0.186038
0.748104 0.406012 0.196902
0.777249 0.418250 0.208225
0.805783 0.430732 0.220279
0.833433 0.443305 0.232639
0.860319 0.456306 0.245792
0.886839 0.469886 0.259770
0.913054 0.484443 0.274876
0.938933 0.500008 0.291264
0.964324 0.516808 0.308995
0.988922 0.535241 0.328557
0.188266 0.207095 0.189853
0.189975 0.206455 0.191531
0.191928 0.205539 0.194125
0.194919 0.209567 0.193912
0.202090 0.221805 0.187045
0.217411 0.236576 0.177523
0.243015 0.253208 0.164370
0.278935 0.271122 0.146853
0.315862 0.284001 0.131930
0.347753 0.292424 0.132387
0.381720 0.302525 0.135988
0.417609 0.314427 0.141604
0.470649 0.338476 0.153017
0.502831 0.347356 0.157015
0.534630 0.356359 0.160311
0.566003 0.365362 0.163577
0.596155 0.374029 0.165896
0.624811 0.382330 0.168154
0.652430 0.390539 0.171450
0.680140 0.399390 0.176913
0.707881 0.408545 0.185977
0.735683 0.418372 0.195712
0.763333 0.428565 0.205875
0.790646 0.439277 0.216464
0.817533 0.450355 0.228000
0.843809 0.461738 0.240238
0.869505 0.473610 0.253025
0.894835 0.486091 0.266453
0.919829 0.499580 0.281315
0.944640 0.514153 0.297307
0.968963 0.530083 0.314733
0.992706 0.547570 0.334081
0.212833 0.232670 0.212039
0.214206 0.232029 0.213535
0.215854 0.231144 0.215518
0.218601 0.232303 0.217288
0.223484 0.243320 0.210758
0.234867 0.256565 0.201907
0.255100 0.271946 0.190311
0.285069 0.288731 0.175448
0.324498 0.306737 0.155581
0.358801 0.316960 0.147829
0.394018 0.328069 0.150729
0.430426 0.340032 0.156619
0.467842 0.352819 0.162783
0.505974 0.365728 0.168307
0.538170 0.374731 0.171847
0.569299 0.383368 0.175174
0.598627 0.391363 0.178286
0.626490 0.398718 0.180545
0.653590 0.406195 0.183352
0.680781 0.414221 0.186007
0.708125 0.422919 0.189853
0.735561 0.432044 0.198215
0.762722 0.441505 0.207858
0.789761 0.451514 0.218723
0.816342 0.461830 0.229862
0.842435 0.472602 0.241642
0.868009 0.483925 0.254337
0.893278 0.495888 0.267826
0.918395 0.508812 0.282536
0.943297 0.523003 0.298466
0.967773 0.538567 0.316045
0.991760 0.555718 0.335363
0.233433 0.254063 0.230014
0.234745 0.253574 0.231357
0.235966 0.252567 0.233036
0.238834 0.251743 0.236240
0.242313 0.261448 0.230777
0.250980 0.273716 0.223117
0.267216 0.288121 0.212985
0.291783 0.303990 0.200381
0.326757 0.322332 0.184665
0.368292 0.340246 0.165927
0.401343 0.349462 0.164523
0.436011 0.359869 0.167330
0.471015 0.370947 0.173404
0.506981 0.382574 0.178714
0.543053 0.394202 0.183444
0.573510 0.402045 0.186526
0.601831 0.408881 0.189395
0.628748 0.415595 0.191989
0.655116 0.422370 0.195193
0.681788 0.429664 0.197452
0.708858 0.437812 0.200595
0.736019 0.446418 0.204715
0.763119 0.455512 0.210666
0.789975 0.464912 0.221164
0.816373 0.474739 0.232212
0.842313 0.484932 0.244083
0.867796 0.495583 0.256565
0.893004 0.507073 0.269993
0.918029 0.519646 0.284611
0.942931 0.533349 0.300603
0.967498 0.548516 0.318181
0.991577 0.565332 0.337713
0.253880 0.275303 0.247471
0.255131 0.274784 0.248539
0.256504 0.273991 0.250034
0.259190 0.272343 0.253422
0.261814 0.279850 0.249912
0.268498 0.291112 0.243381
0.281956 0.305516 0.235172
0.303380 0.321569 0.224552
0.333074 0.338994 0.211124
0.371191 0.357488 0.194095
0.409491 0.371221 0.178073
0.442054 0.380407 0.180362
0.476204 0.390234 0.182925
0.510185 0.400641 0.188602
0.544671 0.411170 0.193484
0.578332 0.421149 0.197391
0.606348 0.427588 0.200320
0.632258 0.433265 0.202548
0.657923 0.439185 0.205692
0.683833 0.445899 0.208560
0.710201 0.453193 0.211978
0.736904 0.461219 0.215152
0.763607 0.469764 0.218967
0.790311 0.478767 0.224002
0.816648 0.488045 0.234867
0.842649 0.498024 0.246830
0.868376 0.508446 0.259373
0.894011 0.519860 0.272923
0.919432 0.532250 0.288121
0.944701 0.546014 0.304540
0.969574 0.561181 0.322545
0.993744 0.577905 0.342443
0.274998 0.296880 0.264561
0.276341 0.296849 0.265904
0.277806 0.296361 0.267399
0.280797 0.295445 0.270665
0.284031 0.300511 0.269963
0.289769 0.311925 0.264439
0.300542 0.325200 0.257115
0.318120 0.340398 0.248234
0.343481 0.357031 0.236240
0.376440 0.374548 0.221805
0.416785 0.392798 0.203464
0.450599 0.402472 0.193606
0.482216 0.410651 0.195224
0.514733 0.419226 0.197177
0.546960 0.428290 0.202304
0.578882 0.437110 0.206180
0.609522 0.445319 0.209781
0.636042 0.451057 0.212558
0.661372 0.456519 0.215579
0.687190 0.462837 0.218967
0.713283 0.469947 0.222629
0.739803 0.477760 0.226352
0.766354 0.485847 0.230045
0.792905 0.494484 0.234379
0.819303 0.503563 0.239597
0.845304 0.513085 0.250736
0.870970 0.523156 0.263462
0.896361 0.534173 0.277134
0.921569 0.546105 0.292241
0.946502 0.559228 0.308476
0.970947 0.573693 0.326452
0.994629 0.589654 0.346227
0.297276 0.319615 0.282048
0.298253 0.319371 0.283024
0.299596 0.318853 0.284367
0.302281 0.317632 0.287236
0.305333 0.320073 0.288365
0.309636 0.330449 0.283452
0.318151 0.342870 0.276616
0.332372 0.356939 0.268559
0.353399 0.372534 0.258000
0.381659 0.389166 0.245426
0.417365 0.406775 0.229740
0.457710 0.423438 0.211032
0.488350 0.430732 0.207095
0.519585 0.438483 0.208255
0.551110 0.446479 0.210513
0.581323 0.454261 0.214755
0.610681 0.461433 0.218814
0.639246 0.468513 0.222049
0.665003 0.473945 0.225040
0.690028 0.479591 0.228397
0.715572 0.485939 0.231846
0.741390 0.493233 0.235660
0.767514 0.501061 0.240238
0.793820 0.509239 0.244511
0.820096 0.517937 0.248997
0.846189 0.527184 0.254673
0.871885 0.537072 0.266850
0.897429 0.547753 0.280766
0.922667 0.559289 0.295750
0.947570 0.572168 0.312139
0.972076 0.586389 0.330358
0.995636 0.602045 0.350469
0.319036 0.341924 0.298558
0.320165 0.341680 0.299535
0.329717 0.349584 0.306920
0.332219 0.348455 0.309606
0.335485 0.348272 0.312535
0.338689 0.357946 0.307561
0.345312 0.369482 0.301457
0.356878 0.382757 0.293614
0.374640 0.397681 0.283879
0.399176 0.413672 0.272374
0.430640 0.430518 0.258457
0.468452 0.447761 0.241459
0.505699 0.460456 0.224338
0.535607 0.466896 0.223423
0.565698 0.473548 0.224308
0.594751 0.479652 0.226413
0.622400 0.485573 0.230564
0.649348 0.491218 0.234348
0.675563 0.496773 0.237583
0.700252 0.501823 0.240848
0.724514 0.507073 0.243900
0.749386 0.513359 0.247684
0.774594 0.520317 0.251774
0.799771 0.527886 0.256413
0.824765 0.535607 0.261051
0.849699 0.543786 0.265690
0.874540 0.552514 0.271702
0.899260 0.562158 0.284703
0.923980 0.573114 0.299626
0.948669 0.585504 0.316228
0.973022 0.599298 0.334386
0.996307 0.614313 0.354498
0.342779 0.365972 0.315923
0.344915 0.366979 0.317601
0.347265 0.367468 0.319493
0.350683 0.367712 0.322667
0.354711 0.366857 0.326909
0.357885 0.375097 0.323766
0.363256 0.386206 0.317998
0.372686 0.398810 0.310979
0.387488 0.412879 0.302281
0.408392 0.428107 0.292027
0.435798 0.444282 0.279454
0.469581 0.461097 0.264286
0.508934 0.478187 0.246189
0.541924 0.486885 0.233371
0.570611 0.492592 0.234165
0.598718 0.497780 0.234958
0.625727 0.502800 0.237552
0.651759 0.507805 0.241764
0.677302 0.512902 0.245365
0.702510 0.518120 0.248814
0.726925 0.523278 0.252354
0.751522 0.529198 0.256260
0.776486 0.535882 0.260594
0.801572 0.543145 0.265080
0.826413 0.550774 0.270176
0.851133 0.558923 0.275669
0.876005 0.567376 0.281163
0.900847 0.576684 0.288853
0.925566 0.587335 0.303716
0.950042 0.599359 0.320378
0.974243 0.612757 0.338842
0.997284 0.627344 0.359045
0.363470 0.387060 0.330541
0.365423 0.387945 0.332128
0.367681 0.388708 0.333928
0.370947 0.388769 0.336736
0.374853 0.388006 0.340581
0.377966 0.393072 0.339879
0.382269 0.403571 0.334539
0.389960 0.415534 0.328038
0.402350 0.429084 0.320012
0.420264 0.443702 0.310735
0.444160 0.459419 0.299413
0.474434 0.475868 0.285893
0.510002 0.492531 0.269902
0.549920 0.508629 0.250767
0.577996 0.513329 0.244327
0.604974 0.517754 0.245151
0.631464 0.521996 0.245701
0.656855 0.526268 0.248997
0.681666 0.530632 0.253208
0.706264 0.535393 0.257237
0.730434 0.540307 0.260960
0.754574 0.545830 0.265019
0.779263 0.552117 0.269291
0.803952 0.559014 0.274205
0.828550 0.566339 0.279149
0.852964 0.574060 0.284703
0.877409 0.582391 0.290867
0.902037 0.591394 0.297490
0.926757 0.601526 0.307958
0.951110 0.613153 0.324620
0.975067 0.626093 0.343145
0.997925 0.640192 0.363500
0.384497 0.408759 0.345037
0.386358 0.409400 0.346471
0.388678 0.410254 0.348211
0.391852 0.410315 0.350896
0.395636 0.409613 0.354528
0.398962 0.411719 0.355993
0.402380 0.421698 0.351202
0.408637 0.433112 0.344915
0.418982 0.445960 0.337499
0.434211 0.460151 0.328923
0.455116 0.475288 0.318517
0.481697 0.491279 0.306371
0.514061 0.507652 0.291752
0.551232 0.523949 0.274723
0.586481 0.535210 0.257877
0.613092 0.539208 0.255161
0.639307 0.543267 0.256291
0.665248 0.547387 0.257847
0.690333 0.551873 0.261845
0.715084 0.556603 0.266758
0.739528 0.561730 0.271305
0.763577 0.566979 0.276005
0.787472 0.572717 0.280888
0.812284 0.579583 0.286046
0.836881 0.586908 0.291478
0.861204 0.594598 0.297612
0.885344 0.602808 0.304143
0.909575 0.611749 0.311559
0.933928 0.621607 0.319951
0.957977 0.632654 0.334173
0.981079 0.644984 0.352880
1.000000 0.658747 0.373663
0.411261 0.436103 0.363043
0.412543 0.436194 0.364019
0.414008 0.436316 0.365209
0.416388 0.435706 0.367254
0.419654 0.434607 0.370367
0.423194 0.433387 0.373938
0.425879 0.442817 0.369390
0.431067 0.454047 0.363622
0.440009 0.466743 0.356847
0.453498 0.480812 0.348699
0.472084 0.495979 0.339239
0.496223 0.511894 0.328099
0.525261 0.527886 0.314916
0.558709 0.543511 0.299565
0.596246 0.558679 0.281468
0.626490 0.564996 0.267308
0.651545 0.568170 0.268223
0.676509 0.571344 0.269596
0.701076 0.574731 0.271214
0.724758 0.578485 0.275883
0.748074 0.582544 0.280735
0.771023 0.586938 0.285466
0.793271 0.591241 0.290105
0.815396 0.596094 0.294804
0.839353 0.602838 0.300145
0.863340 0.610132 0.306340
0.887327 0.618128 0.313085
0.911376 0.626947 0.320714
0.935485 0.636591 0.329534
0.959472 0.647211 0.339910
0.982300 0.659174 0.358038
1.000000 0.672724 0.379187
0.434058 0.459510 0.378088
0.435401 0.459815 0.379065
0.436896 0.459968 0.380285
0.439368 0.459541 0.382300
0.442451 0.458381 0.385229
0.445960 0.456611 0.388891
0.448554 0.462989 0.386603
0.452613 0.473548 0.381018
0.460060 0.485817 0.374426
0.471595 0.499428 0.366827
0.487861 0.514244 0.358007
0.508904 0.529534 0.347509
0.534600 0.544823 0.335546
0.564935 0.560052 0.321599
0.599390 0.574975 0.305364
0.636378 0.588586 0.286748
0.661982 0.591424 0.278782
0.686336 0.594141 0.280369
0.710475 0.597070 0.281987
0.734310 0.600275 0.284245
0.757259 0.603876 0.289738
0.779873 0.607904 0.294865
0.801938 0.612024 0.300237
0.823301 0.616205 0.305272
0.840726 0.617639 0.308019
0.864317 0.624628 0.314122
0.888121 0.632410 0.321080
0.911955 0.641047 0.328985
0.935912 0.650568 0.337896
0.959686 0.660914 0.348150
0.982696 0.672633 0.362554
1.000000 0.686397 0.384497
0.462593 0.488869 0.396735
0.464027 0.489296 0.397772
0.465370 0.489326 0.398871
0.467506 0.488594 0.400641
0.470344 0.487190 0.403296
0.473426 0.485115 0.406592
0.476173 0.487587 0.406989
0.479072 0.497658 0.401251
0.484901 0.509209 0.394690
0.494209 0.521935 0.386908
0.507500 0.535363 0.378271
0.525292 0.549462 0.368170
0.547723 0.563806 0.356817
0.574395 0.578027 0.343481
0.604913 0.591882 0.328405
0.639094 0.605432 0.311345
0.671504 0.614343 0.294438
0.695064 0.615869 0.290074
0.718410 0.618189 0.291691
0.741878 0.620874 0.294011
0.765072 0.624048 0.297093
0.787289 0.627619 0.302831
0.808713 0.631189 0.308476
0.829343 0.634607 0.313634
0.848875 0.637903 0.318517
0.867857 0.641230 0.323430
0.891020 0.648493 0.330449
0.914244 0.656641 0.338415
0.937713 0.665797 0.347387
0.960967 0.675807 0.357702
0.983886 0.686946 0.369543
1.000000 0.700526 0.389990
0.487007 0.514214 0.412665
0.488380 0.514702 0.413672
0.489784 0.514794 0.414771
0.491951 0.514122 0.416541
0.494606 0.512688 0.419043
0.497871 0.510857 0.422400
0.501244 0.509789 0.425483
0.503716 0.519585 0.420264
0.508568 0.530663 0.414130
0.516442 0.542962 0.406958
0.527916 0.556023 0.398657
0.543542 0.569818 0.389227
0.563348 0.583886 0.378607
0.587213 0.597833 0.366430
0.615076 0.611505 0.352514
0.646571 0.624872 0.336736
0.681270 0.637812 0.318944
0.709346 0.642786 0.304814
0.732296 0.644343 0.304295
0.755093 0.646540 0.306706
0.777676 0.649012 0.309453
0.799680 0.651698 0.313329
0.820584 0.654627 0.319554
0.840665 0.657710 0.325231
0.859892 0.660517 0.330846
0.878202 0.663325 0.335882
0.895720 0.666224 0.341222
0.918608 0.674128 0.349584
0.941650 0.683162 0.359167
0.964416 0.692988 0.369818
0.986908 0.704067 0.382055
1.000000 0.716548 0.397345
0.514488 0.542168 0.431037
0.515740 0.542443 0.431952
0.516869 0.542260 0.432837
0.518669 0.541375 0.434424
0.521172 0.539940 0.436774
0.524193 0.537865 0.439826
0.527672 0.535515 0.443824
0.529808 0.542138 0.440742
0.533593 0.552758 0.434791
0.540032 0.564355 0.427924
0.549676 0.576928 0.419959
0.563134 0.590265 0.411170
0.580407 0.603876 0.401160
0.601709 0.617578 0.389593
0.626551 0.630915 0.376562
0.655268 0.643977 0.361852
0.687251 0.656794 0.345220
0.721248 0.668177 0.326818
0.745632 0.670161 0.316503
0.767849 0.671717 0.318914
0.789822 0.673640 0.322057
0.811398 0.675685 0.325200
0.832090 0.677852 0.329900
0.851652 0.680385 0.336187
0.870420 0.682887 0.342321
0.888334 0.685298 0.348180
0.905547 0.687861 0.353887
0.921904 0.690455 0.359655
0.943755 0.698573 0.368963
0.966155 0.708278 0.380194
0.988251 0.719203 0.392950
1.000000 0.731319 0.407202
0.541558 0.568963 0.449714
0.542596 0.569116 0.450538
0.543633 0.568933 0.451362
0.545434 0.568231 0.452918
0.548119 0.567102 0.455360
0.551568 0.565667 0.458717
0.555810 0.564294 0.463142
0.559625 0.567834 0.464240
0.563867 0.579004 0.459602
0.570336 0.591302 0.453956
0.579675 0.604517 0.447486
0.592065 0.618280 0.439796
0.607904 0.632319 0.430793
0.627131 0.646265 0.420386
0.649866 0.659876 0.408087
0.675868 0.672938 0.394232
0.705318 0.685603 0.378668
0.737942 0.697993 0.361151
0.769314 0.706477 0.343877
0.791348 0.706996 0.338659
0.812467 0.708064 0.341894
0.833158 0.709285 0.345495
0.853117 0.710567 0.349310
0.872068 0.712062 0.354772
0.889982 0.713893 0.361700
0.907134 0.715755 0.368414
0.923583 0.717769 0.374762
0.939025 0.719692 0.380987
0.953643 0.721767 0.386999
0.973816 0.729854 0.397742
0.994965 0.740230 0.410681
1.000000 0.751705 0.425086
0.577295 0.604028 0.475288
0.578119 0.603998 0.475959
0.578912 0.603723 0.476661
0.580438 0.602838 0.478035
0.582757 0.601556 0.480201
0.585748 0.600000 0.483162
0.589380 0.598169 0.487098
0.593194 0.597009 0.491249
0.596002 0.606989 0.486305
0.600793 0.618097 0.480537
0.607935 0.629999 0.473854
0.618006 0.642603 0.466316
0.631067 0.655512 0.457496
0.647486 0.668635 0.447395
0.667231 0.681575 0.435950
0.690425 0.694331 0.422889
