其他预设/【223】英伦米色调色预设8款/1.LUT预设（视频调色-PR-AE-PS-FCPX-达芬奇用）/英伦米色__-4.cube
# Created by Adobe Lightroom plugin Export LUT (1.17.0)
# www.johnrellis.com/lightroom/exportlut.htm
# Preset: 英伦米色[素锦印象]-4
# Color profile: /Library/Application Support/Adobe/Color/Profiles/Recommended/AdobeRGB1998.icc
LUT_3D_SIZE 32
0.000000 0.000000 0.000000
0.000000 0.000000 0.000000
0.000000 0.000000 0.000000
0.048798 0.000000 0.001343
0.079438 0.000000 0.002411
0.100038 0.000000 0.003265
0.121401 0.000000 0.004883
0.144625 0.000000 0.007172
0.169619 0.000000 0.007630
0.196841 0.000000 0.006836
0.226474 0.000000 0.007324
0.258091 0.000000 0.005890
0.290929 0.000000 0.002594
0.325902 0.000000 0.000000
0.362036 0.000000 0.000000
0.399207 0.000000 0.000000
0.437964 0.000000 0.000000
0.477852 0.000000 0.000000
0.519249 0.000000 0.000000
0.563897 0.000000 0.000000
0.610224 0.000000 0.000000
0.656611 0.000000 0.000000
0.702571 0.000000 0.000000
0.747189 0.000000 0.000000
0.797086 0.000000 0.000000
0.840818 0.000000 0.000000
0.880186 0.000000 0.000000
0.916167 0.000000 0.000000
0.949523 0.000000 0.000000
0.980774 0.000000 0.000000
1.000000 0.000000 0.000000
1.000000 0.000000 0.000000
0.000000 0.000000 0.000000
0.000000 0.000000 0.000000
0.001343 0.000000 0.000000
0.050843 0.000000 0.001312
0.080171 0.000000 0.003449
0.100313 0.000000 0.004334
0.121401 0.000000 0.004883
0.144228 0.000000 0.007202
0.169070 0.000000 0.007294
0.196231 0.000000 0.008026
0.225589 0.000000 0.007385
0.256718 0.000000 0.004761
0.289586 0.000000 0.002533
0.324224 0.000000 0.000000
0.359838 0.000000 0.000000
0.396796 0.000000 0.000000
0.434974 0.000000 0.000000
0.474861 0.000000 0.000000
0.515953 0.000000 0.000000
0.560235 0.000000 0.000000
0.606378 0.000000 0.000000
0.652888 0.000000 0.000000
0.698848 0.000000 0.000000
0.744137 0.000000 0.000000
0.792996 0.000000 0.000000
0.836515 0.000000 0.000000
0.875914 0.000000 0.000000
0.912169 0.000000 0.000000
0.945922 0.000000 0.000000
0.977630 0.000000 0.000000
1.000000 0.000000 0.000000
1.000000 0.000000 0.000000
0.000000 0.000000 0.000000
0.000000 0.001190 0.000000
0.003693 0.000519 0.000946
0.054688 0.000000 0.001068
0.081147 0.000000 0.003021
0.101045 0.000000 0.003906
0.121920 0.000000 0.005341
0.144656 0.000000 0.007019
0.169345 0.000000 0.006714
0.196475 0.000000 0.006348
0.225620 0.000000 0.006531
0.256565 0.000000 0.005127
0.289403 0.000000 0.001526
0.323766 0.000000 0.000000
0.359289 0.000000 0.000000
0.396155 0.000000 0.000000
0.434058 0.000000 0.000000
0.473579 0.000000 0.000000
0.514580 0.000000 0.000000
0.558618 0.000000 0.000000
0.604913 0.000000 0.000000
0.651453 0.000000 0.000000
0.697475 0.000000 0.000000
0.743221 0.000000 0.000000
0.791440 0.000000 0.000000
0.834562 0.000000 0.000000
0.873930 0.000000 0.000000
0.910277 0.000000 0.000000
0.944182 0.000000 0.000000
0.976074 0.000000 0.000000
1.000000 0.000000 0.000000
1.000000 0.000000 0.000000
0.012940 0.041138 0.002777
0.014130 0.042115 0.002686
0.019287 0.044831 0.001251
0.061463 0.042359 0.002289
0.083803 0.029969 0.003693
0.103426 0.017762 0.005829
0.124300 0.006867 0.006043
0.147036 0.000000 0.006683
0.171450 0.000000 0.007385
0.198154 0.000000 0.006653
0.227298 0.000000 0.004425
0.258030 0.000000 0.003632
0.290562 0.000000 0.000000
0.324559 0.000000 0.000000
0.359747 0.000000 0.000000
0.396460 0.000000 0.000000
0.434150 0.000000 0.000000
0.473274 0.000000 0.000000
0.513787 0.000000 0.000000
0.557275 0.000000 0.000000
0.603174 0.000000 0.000000
0.649561 0.000000 0.000000
0.695735 0.000000 0.000000
0.742702 0.000000 0.000000
0.790677 0.000000 0.000000
0.834073 0.000000 0.000000
0.873869 0.000000 0.000000
0.910521 0.000000 0.000000
0.944488 0.000000 0.000000
0.976135 0.000000 0.000000
1.000000 0.000000 0.000000
1.000000 0.000000 0.000000
0.032380 0.071351 0.008576
0.035035 0.072389 0.006104
0.040375 0.073274 0.003571
0.063020 0.073396 0.002686
0.086580 0.072053 0.005402
0.107118 0.067445 0.005280
0.127596 0.061830 0.005768
0.149905 0.055207 0.006195
0.174136 0.043793 0.005554
0.200626 0.030640 0.004425
0.229191 0.013306 0.002930
0.259922 0.000000 0.000519
0.292210 0.000000 0.000000
0.326055 0.000000 0.000000
0.361273 0.000000 0.000000
0.397864 0.000000 0.000000
0.435920 0.000000 0.000000
0.475257 0.000000 0.000000
0.515953 0.000000 0.000000
0.559197 0.000000 0.000000
0.604700 0.000000 0.000000
0.650660 0.000000 0.000000
0.696559 0.000000 0.000000
0.744411 0.000000 0.000000
0.791287 0.000000 0.000000
0.834134 0.000000 0.000000
0.873594 0.000000 0.000000
0.910002 0.000000 0.000000
0.943755 0.000000 0.000000
0.975250 0.000000 0.000000
1.000000 0.000000 0.000000
1.000000 0.000000 0.000000
0.054871 0.090181 0.011292
0.056825 0.090669 0.009979
0.059266 0.091432 0.007477
0.066468 0.092470 0.004486
0.087434 0.092866 0.005829
0.111482 0.093721 0.005982
0.133974 0.091676 0.006561
0.155245 0.088167 0.006012
0.179477 0.085328 0.004913
0.205966 0.082551 0.003265
0.234348 0.079988 0.000000
0.264836 0.076387 0.000000
0.296696 0.071962 0.000000
0.330419 0.064515 0.000000
0.365484 0.051423 0.000000
0.402167 0.025910 0.000000
0.440314 0.000000 0.000000
0.479591 0.000000 0.000000
0.520256 0.000000 0.000000
0.563806 0.000000 0.000000
0.609186 0.000000 0.000000
0.655116 0.000000 0.000000
0.725826 0.000000 0.000000
0.777707 0.000000 0.000000
0.825010 0.000000 0.000000
0.866270 0.000000 0.000000
0.902770 0.000000 0.000000
0.935760 0.000000 0.000000
0.966033 0.000000 0.000000
0.994324 0.000000 0.000000
1.000000 0.000000 0.000000
1.000000 0.000000 0.000000
0.070893 0.111971 0.013092
0.071687 0.112581 0.011688
0.073426 0.113130 0.009186
0.077119 0.114809 0.003815
0.094636 0.115877 0.004913
0.116793 0.117433 0.005798
0.144198 0.121767 0.005951
0.169223 0.121401 0.003296
0.192111 0.119051 0.002197
0.218875 0.118257 0.000000
0.247745 0.118074 0.000000
0.278569 0.116670 0.000000
0.310948 0.115145 0.000000
0.344518 0.112886 0.000000
0.379309 0.109499 0.000000
0.415351 0.104952 0.000000
0.452918 0.098085 0.000000
0.492012 0.089509 0.000000
0.533165 0.075013 0.000000
0.577508 0.047181 0.000000
0.623957 0.000000 0.000000
0.671473 0.000000 0.000000
0.720882 0.000000 0.000000
0.774563 0.000000 0.000000
0.822568 0.000000 0.000000
0.864347 0.000000 0.000000
0.901091 0.000000 0.000000
0.933959 0.000000 0.000000
0.964233 0.000000 0.000000
0.992340 0.000000 0.000000
1.000000 0.000000 0.000000
1.000000 0.000000 0.000000
0.084230 0.133181 0.011841
0.085267 0.133669 0.010407
0.086702 0.134096 0.007904
0.089693 0.135470 0.003632
0.102449 0.137209 0.001312
0.122805 0.139559 0.001648
0.145998 0.142580 0.002625
0.176822 0.149874 0.000000
0.204166 0.151186 0.000000
0.228702 0.149966 0.000000
0.255436 0.149264 0.000000
0.285893 0.149813 0.000000
0.317662 0.149844 0.000000
0.350896 0.149172 0.000000
0.385595 0.147951 0.000000
0.421118 0.145937 0.000000
0.458503 0.143069 0.000000
0.497444 0.139284 0.000000
0.538140 0.133913 0.000000
0.582208 0.126162 0.000000
0.627924 0.114961 0.000000
0.674617 0.097841 0.000000
0.726741 0.068910 0.000000
0.777584 0.000000 0.000000
0.823545 0.000000 0.000000
0.864103 0.000000 0.000000
0.900023 0.000000 0.000000
0.932586 0.000000 0.000000
0.962707 0.000000 0.000000
0.990753 0.000000 0.000000
1.000000 0.000000 0.000000
1.000000 0.000000 0.000000
0.099123 0.156161 0.007019
0.099947 0.156558 0.006683
0.101350 0.157198 0.003937
0.103853 0.158328 0.000000
0.113222 0.160250 0.000000
0.131868 0.163210 0.000000
0.154177 0.166903 0.000000
0.179538 0.171633 0.000000
0.214176 0.181552 0.000000
0.243534 0.184421 0.000000
0.269566 0.183627 0.000000
0.296696 0.182986 0.000000
0.327245 0.183291 0.000000
0.360327 0.183963 0.000000
0.394507 0.184207 0.000000
0.429877 0.183871 0.000000
0.466804 0.182681 0.000000
0.505425 0.181064 0.000000
0.545922 0.178592 0.000000
0.589441 0.175021 0.000000
0.634424 0.169558 0.000000
0.682795 0.161837 0.000000
0.734340 0.150393 0.000000
0.782712 0.133913 0.000000
0.826658 0.108339 0.000000
0.865782 0.059297 0.000000
0.900847 0.000000 0.000000
0.932708 0.000000 0.000000
0.962341 0.000000 0.000000
0.990112 0.000000 0.000000
1.000000 0.000000 0.000000
1.000000 0.000000 0.000000
0.114412 0.180667 0.000000
0.115114 0.181003 0.000000
0.116335 0.181430 0.000000
0.118654 0.182345 0.000000
0.125154 0.183993 0.000000
0.142824 0.187442 0.000000
0.163851 0.191958 0.000000
0.188174 0.197086 0.000000
0.216220 0.203525 0.000000
0.254643 0.216007 0.000000
0.285893 0.219425 0.000000
0.312749 0.218875 0.000000
0.341100 0.218418 0.000000
0.370459 0.217899 0.000000
0.404822 0.219150 0.000000
0.440620 0.220005 0.000000
0.478004 0.220279 0.000000
0.516655 0.220157 0.000000
0.557183 0.219455 0.000000
0.599695 0.217929 0.000000
0.644343 0.215183 0.000000
0.693751 0.212375 0.000000
0.741726 0.205539 0.000000
0.786618 0.194919 0.000000
0.828153 0.180545 0.000000
0.865904 0.160342 0.000000
0.900359 0.132052 0.000000
0.932219 0.088563 0.000000
0.962036 0.000000 0.000000
0.989960 0.000000 0.000000
1.000000 0.000000 0.000000
1.000000 0.000000 0.000000
0.129976 0.205234 0.000000
0.130648 0.205509 0.000000
0.131594 0.205966 0.000000
0.133822 0.206882 0.000000
0.137881 0.208591 0.000000
0.154574 0.212192 0.000000
0.174777 0.217380 0.000000
0.198093 0.223331 0.000000
0.225406 0.230350 0.000000
0.256626 0.238621 0.000000
0.299168 0.253819 0.000000
0.331762 0.257603 0.000000
0.359930 0.257023 0.000000
0.388800 0.256199 0.000000
0.418677 0.255283 0.000000
0.452247 0.255955 0.000000
0.489143 0.257023 0.000000
0.527703 0.258213 0.000000
0.567834 0.258579 0.000000
0.610498 0.258732 0.000000
0.657008 0.258824 0.000000
0.704036 0.257053 0.000000
0.749966 0.253147 0.000000
0.792844 0.245121 0.000000
0.832700 0.235203 0.000000
0.868986 0.220432 0.000000
0.902251 0.202029 0.000000
0.933227 0.178958 0.000000
0.962341 0.149508 0.000000
0.989746 0.107240 0.000000
1.000000 0.000000 0.000000
1.000000 0.000000 0.000000
0.145998 0.231266 0.000000
0.146883 0.231540 0.000000
0.147707 0.231968 0.000000
0.149660 0.232731 0.000000
0.153017 0.234226 0.000000
0.167361 0.238132 0.000000
0.186587 0.243565 0.000000
0.209354 0.250156 0.000000
0.235843 0.257908 0.000000
0.266300 0.267002 0.000000
0.300908 0.277287 0.000000
0.348333 0.295415 0.000000
0.399847 0.312993 0.000000
0.429480 0.311528 0.000000
0.459449 0.309819 0.000000
0.490364 0.308080 0.000000
0.521752 0.305913 0.000000
0.560082 0.307103 0.000000
0.602716 0.309239 0.000000
0.648219 0.311559 0.000000
0.693782 0.312078 0.000000
0.737972 0.310369 0.000000
0.779507 0.305699 0.000000
0.818448 0.298802 0.000000
0.854368 0.289097 0.000000
0.887388 0.276799 0.000000
0.917723 0.261509 0.000000
0.945983 0.243687 0.000000
0.972656 0.222812 0.000000
0.998077 0.198123 0.000000
1.000000 0.169253 0.000000
1.000000 0.134096 0.000000
0.165713 0.262913 0.000000
0.166293 0.263279 0.000000
0.167117 0.263279 0.000000
0.168826 0.263706 0.000000
0.171420 0.264469 0.000000
0.182559 0.267582 0.000000
0.201144 0.273075 0.000000
0.223178 0.280034 0.000000
0.249332 0.288548 0.000000
0.279606 0.298955 0.000000
0.315007 0.311101 0.000000
0.356634 0.326024 0.000000
0.410468 0.348211 0.000000
0.448707 0.353643 0.000000
0.480598 0.353216 0.000000
0.512047 0.351751 0.000000
0.546288 0.351476 0.000000
0.582025 0.351385 0.000000
0.620752 0.352087 0.000000
0.662715 0.353185 0.000000
0.705196 0.353613 0.000000
0.746365 0.351598 0.000000
0.785489 0.347631 0.000000
0.822232 0.341100 0.000000
0.856626 0.332555 0.000000
0.888426 0.321416 0.000000
0.917967 0.308446 0.000000
0.945739 0.293187 0.000000
0.972076 0.275822 0.000000
0.997284 0.256748 0.000000
1.000000 0.235569 0.000000
1.000000 0.212589 0.000000
0.182345 0.289677 0.000000
0.182895 0.289921 0.000000
0.183474 0.290013 0.000000
0.185092 0.290471 0.000000
0.187716 0.291081 0.000000
0.195499 0.293523 0.000000
0.213413 0.299321 0.000000
0.234531 0.306523 0.000000
0.259709 0.315435 0.000000
0.289189 0.326360 0.000000
0.323461 0.339086 0.000000
0.362585 0.353704 0.000000
0.409583 0.372259 0.000000
0.466041 0.395178 0.000000
0.508659 0.403326 0.000000
0.544152 0.404334 0.000000
0.577813 0.403143 0.000000
0.610346 0.400855 0.000000
0.642420 0.397436 0.000000
0.676051 0.394568 0.000000
0.716060 0.394232 0.000000
0.755032 0.392126 0.000000
0.792081 0.387945 0.000000
0.827390 0.382086 0.000000
0.860380 0.373968 0.000000
0.891203 0.363836 0.000000
0.919921 0.352117 0.000000
0.946990 0.338293 0.000000
0.972930 0.323461 0.000000
0.997803 0.306798 0.000000
1.000000 0.289586 0.000000
1.000000 0.271305 0.000000
0.199405 0.317632 0.000000
0.200107 0.317876 0.000000
0.200534 0.317906 0.000000
0.202152 0.318303 0.000000
0.204471 0.318914 0.000000
0.208957 0.320256 0.000000
0.226108 0.326268 0.000000
0.246677 0.333776 0.000000
0.271092 0.343023 0.000000
0.299809 0.354314 0.000000
0.332860 0.367376 0.000000
0.370733 0.382544 0.000000
0.416266 0.401831 0.000000
0.472511 0.427192 0.000000
0.535210 0.453864 0.000000
0.575952 0.458930 0.000000
0.608331 0.456123 0.000000
0.637873 0.451148 0.000000
0.667506 0.445960 0.000000
0.697993 0.440955 0.000000
0.728817 0.435554 0.000000
0.763363 0.431708 0.000000
0.798642 0.427405 0.000000
0.832364 0.421454 0.000000
0.864378 0.413916 0.000000
0.894469 0.404486 0.000000
0.922942 0.393622 0.000000
0.950042 0.381415 0.000000
0.976013 0.368017 0.000000
1.000000 0.353826 0.000000
1.000000 0.338933 0.000000
1.000000 0.323583 0.022980
0.217044 0.346441 0.000000
0.217685 0.346807 0.000000
0.218448 0.347021 0.000000
0.219974 0.347601 0.000000
0.222293 0.348211 0.000000
0.225681 0.349554 0.000000
0.239963 0.355047 0.000000
0.260441 0.363256 0.000000
0.284642 0.373144 0.000000
0.313542 0.385962 0.000000
0.347021 0.400763 0.000000
0.385412 0.417670 0.000000
0.428656 0.436316 0.000000
0.477699 0.456886 0.000000
0.538659 0.484749 0.000000
0.598230 0.507164 0.000000
0.634363 0.507500 0.000000
0.663874 0.501823 0.000000
0.692226 0.495308 0.000000
0.721004 0.488960 0.000000
0.750027 0.482338 0.000000
0.778805 0.475135 0.000000
0.808499 0.468116 0.000000
0.840909 0.462043 0.000000
0.871824 0.454597 0.000000
0.900938 0.445441 0.000000
0.928588 0.434943 0.000000
0.954864 0.423377 0.000000
0.979980 0.410986 0.000000
1.000000 0.397620 0.000000
1.000000 0.383795 0.000000
1.000000 0.369879 0.058015
0.235416 0.376226 0.000000
0.235935 0.376501 0.000000
0.236667 0.376928 0.000000
0.238254 0.377600 0.000000
0.240787 0.378515 0.000000
0.244175 0.380133 0.000000
0.254917 0.384894 0.000000
0.274998 0.393835 0.000000
0.299107 0.404608 0.000000
0.327031 0.417365 0.000000
0.359625 0.432349 0.000000
0.397070 0.449500 0.000000
0.439002 0.468360 0.000000
0.486213 0.488991 0.000000
0.537835 0.510460 0.000000
0.600427 0.538415 0.000000
0.655299 0.555749 0.000000
0.687556 0.552056 0.000000
0.715297 0.544610 0.000000
0.741726 0.536126 0.000000
0.768551 0.527825 0.000000
0.795102 0.519158 0.000000
0.821317 0.510246 0.000000
0.847044 0.500542 0.000000
0.876524 0.492775 0.000000
0.904936 0.483986 0.000000
0.931945 0.473976 0.000000
0.957763 0.462898 0.000000
0.982483 0.451057 0.000000
1.000000 0.438758 0.000000
1.000000 0.425879 0.000000
1.000000 0.413214 0.076844
0.256504 0.410468 0.000000
0.257145 0.411017 0.000000
0.265751 0.424170 0.000000
0.267308 0.424689 0.000000
0.269688 0.425635 0.000000
0.272709 0.426795 0.000000
0.279423 0.429603 0.000000
0.299443 0.438758 0.000000
0.323766 0.450080 0.000000
0.352117 0.463508 0.000000
0.384741 0.479103 0.000000
0.422095 0.496681 0.000000
0.463844 0.515923 0.000000
0.509453 0.535912 0.000000
0.558801 0.556298 0.000000
0.611475 0.576501 0.000000
0.674678 0.603082 0.000000
0.722774 0.613062 0.000000
0.749599 0.604028 0.000000
0.773892 0.593103 0.000000
0.797116 0.581506 0.000000
0.820706 0.570367 0.000000
0.844083 0.559045 0.000000
0.866819 0.547356 0.000000
0.888701 0.535088 0.000000
0.912688 0.524010 0.000000
0.937499 0.513268 0.000000
0.961578 0.501884 0.000000
0.985107 0.490028 0.000000
1.000000 0.478004 0.000000
1.000000 0.465766 0.000000
1.000000 0.453803 0.092439
0.279911 0.448859 0.000000
0.281590 0.451118 0.000000
0.283543 0.453407 0.000000
0.286015 0.455787 0.000000
0.289067 0.457923 0.000000
0.292454 0.459602 0.000000
0.296452 0.461311 0.000000
0.313787 0.469398 0.000000
0.337255 0.480751 0.000000
0.364538 0.493996 0.000000
0.395911 0.509361 0.000000
0.431891 0.526726 0.000000
0.471504 0.545068 0.000000
0.514580 0.563989 0.000000
0.560967 0.583215 0.000000
0.610620 0.602502 0.000000
0.663142 0.621607 0.000000
0.724117 0.645441 0.000000
0.766445 0.650233 0.000000
0.790494 0.638819 0.000000
0.813199 0.626551 0.000000
0.835416 0.614282 0.000000
0.857572 0.602075 0.000000
0.879240 0.589593 0.000000
0.900023 0.576654 0.000000
0.920226 0.563317 0.000000
0.941466 0.550683 0.000000
0.964996 0.539452 0.000000
0.987884 0.528008 0.000000
1.000000 0.516258 0.000000
1.000000 0.504417 0.012879
1.000000 0.493019 0.110201
0.300572 0.482948 0.000000
0.302373 0.485237 0.000000
0.304295 0.487556 0.000000
0.306767 0.489967 0.000000
0.309819 0.492226 0.000000
0.312963 0.493812 0.000000
0.316838 0.495430 0.000000
0.327794 0.500542 0.000000
0.350439 0.511833 0.000000
0.377325 0.525139 0.000000
0.407630 0.540307 0.000000
0.441932 0.556786 0.000000
0.479500 0.574243 0.000000
0.520806 0.592523 0.000000
0.564752 0.610925 0.000000
0.611719 0.629389 0.000000
0.661341 0.647517 0.000000
0.713100 0.665064 0.000000
0.770901 0.685634 0.000000
0.807980 0.685634 0.000000
0.829465 0.672145 0.000000
0.850462 0.658625 0.000000
0.871305 0.645350 0.000000
0.891630 0.631891 0.000000
0.911284 0.618158 0.000000
0.930297 0.604089 0.000000
0.949035 0.589868 0.000000
0.967987 0.576074 0.000000
0.990204 0.564660 0.000000
1.000000 0.553094 0.000000
1.000000 0.541619 0.065278
1.000000 0.530602 0.126802
0.322087 0.518486 0.000000
0.323857 0.520897 0.000000
0.325902 0.523400 0.000000
0.328344 0.525811 0.000000
0.331273 0.527947 0.000000
0.334325 0.529564 0.000000
0.337896 0.530907 0.000000
0.342138 0.532494 0.000000
0.364080 0.543420 0.000000
0.389227 0.555871 0.000000
0.418524 0.570336 0.000000
0.450782 0.585779 0.000000
0.486824 0.602411 0.000000
0.525994 0.619959 0.000000
0.568505 0.638087 0.000000
0.613550 0.656184 0.000000
0.661494 0.674372 0.000000
0.711818 0.692287 0.000000
0.764584 0.709957 0.000000
0.819791 0.727657 0.000000
0.852811 0.724086 0.000000
0.872740 0.709285 0.000000
0.891844 0.694270 0.000000
0.911192 0.679835 0.000000
0.929778 0.665187 0.000000
0.947662 0.650385 0.000000
0.965118 0.635462 0.000000
0.982513 0.620752 0.000000
0.999908 0.606439 0.000000
1.000000 0.594202 0.011719
1.000000 0.582666 0.109560
1.000000 0.572320 0.159030
0.349859 0.564446 0.000000
0.350927 0.565698 0.000000
0.352026 0.566827 0.000000
0.353704 0.567895 0.000000
0.355932 0.569024 0.000000
0.358587 0.569970 0.000000
0.361883 0.571130 0.000000
0.366064 0.572778 0.000000
0.379858 0.579492 0.000000
0.405066 0.592248 0.000000
0.433356 0.606439 0.000000
0.465278 0.621912 0.000000
0.500114 0.638148 0.000000
0.537987 0.654932 0.000000
0.578271 0.671656 0.000000
0.620935 0.688441 0.000000
0.666133 0.705104 0.000000
0.713710 0.721584 0.000000
0.762905 0.737606 0.000000
0.813962 0.752987 0.000000
0.863249 0.765011 0.000000
0.890196 0.756283 0.000000
0.906584 0.738827 0.000000
0.922393 0.721462 0.000000
0.939635 0.705684 0.000000
0.956420 0.690120 0.000000
0.972992 0.674708 0.000000
0.989441 0.659541 0.000000
1.000000 0.644923 0.000000
1.000000 0.630671 0.078309
1.000000 0.618585 0.130922
1.000000 0.608911 0.177523
0.372107 0.601587 0.000000
0.373205 0.602899 0.000000
0.374426 0.604150 0.000000
0.376074 0.605249 0.000000
0.378058 0.606195 0.000000
0.380621 0.607080 0.000000
0.383612 0.607843 0.000000
0.387366 0.609064 0.000000
0.392157 0.610864 0.000000
0.415839 0.622675 0.000000
0.443244 0.636133 0.000000
0.473793 0.650904 0.000000
0.507073 0.666224 0.000000
0.543206 0.681941 0.000000
0.581445 0.697749 0.000000
0.622400 0.713741 0.000000
0.665492 0.729671 0.000000
0.710750 0.745357 0.000000
0.757748 0.760708 0.000000
0.806332 0.775479 0.000000
0.856260 0.789456 0.000000
0.900023 0.796719 0.000000
0.923003 0.784848 0.000000
0.937499 0.766201 0.000000
0.947204 0.744137 0.000000
0.963104 0.727840 0.000000
0.978912 0.711971 0.000000
0.994537 0.696468 0.000000
1.000000 0.681544 0.058778
1.000000 0.667353 0.113954
1.000000 0.654322 0.155459
1.000000 0.644099 0.195590
0.399573 0.647364 0.000000
0.400855 0.648798 0.000000
0.401801 0.649714 0.000000
0.403143 0.650355 0.000000
0.404791 0.650813 0.000000
0.406806 0.651026 0.000000
0.409400 0.651179 0.000000
0.412543 0.651575 0.000000
0.416663 0.652338 0.000000
0.429419 0.657679 0.000000
0.455085 0.669276 0.000000
0.483619 0.682094 0.000000
0.514824 0.695613 0.000000
0.548699 0.709468 0.000000
0.584466 0.723293 0.000000
0.622339 0.737087 0.000000
0.662501 0.751003 0.000000
0.704646 0.765072 0.000000
0.749172 0.779263 0.000000
0.795407 0.793332 0.000000
0.842924 0.806882 0.000000
0.891142 0.819364 0.000000
0.929442 0.822019 0.000000
0.948302 0.807218 0.000000
0.960388 0.786923 0.000000
0.971832 0.767056 0.000000
0.986389 0.750362 0.000000
1.000000 0.734066 0.043854
1.000000 0.718715 0.110170
1.000000 0.704311 0.149416
1.000000 0.691493 0.185550
1.000000 0.681086 0.223026
0.420935 0.683284 0.000000
0.422065 0.684596 0.000000
0.423041 0.685603 0.000000
0.424292 0.686183 0.000000
0.425910 0.686488 0.000000
0.427924 0.686763 0.000000
0.430518 0.687129 0.000000
0.433722 0.687709 0.000000
0.437720 0.688655 0.000000
0.442634 0.690059 0.000000
0.464424 0.699763 0.000000
0.492287 0.712093 0.000000
0.522545 0.724941 0.000000
0.554925 0.738064 0.000000
0.589380 0.751186 0.000000
0.625818 0.764218 0.000000
0.664363 0.777371 0.000000
0.704646 0.790433 0.000000
0.746853 0.803525 0.000000
0.790768 0.816464 0.000000
0.835752 0.828794 0.000000
0.881468 0.840330 0.000000
0.926604 0.850034 0.000000
0.959228 0.848356 0.000000
0.974609 0.830961 0.000000
0.985016 0.809995 0.007660
0.994812 0.789334 0.071168
1.000000 0.772641 0.117922
1.000000 0.756954 0.156130
1.000000 0.742397 0.190280
1.000000 0.729763 0.224186
1.000000 0.719844 0.260655
0.443671 0.721370 0.000000
0.444526 0.722316 0.000000
0.445228 0.722744 0.000000
0.446204 0.722988 0.000000
0.447517 0.722957 0.000000
0.449195 0.722896 0.000000
0.451484 0.722927 0.000000
0.454414 0.723232 0.000000
0.458167 0.723964 0.000000
0.462806 0.725307 0.000000
0.472297 0.728847 0.000000
0.499031 0.740352 0.000000
0.528008 0.752377 0.000000
0.559319 0.764645 0.000000
0.592248 0.776761 0.000000
0.627131 0.788785 0.000000
0.663813 0.800748 0.000000
0.702144 0.812680 0.000000
0.742336 0.824643 0.000000
0.783719 0.836393 0.000000
0.826535 0.847776 0.000000
0.870115 0.858457 0.000000
0.913909 0.868223 0.000000
0.955444 0.875090 0.000000
0.983429 0.870085 0.105745
0.995972 0.850950 0.137301
1.000000 0.829587 0.151492
1.000000 0.808743 0.163699
1.000000 0.792355 0.191836
1.000000 0.777646 0.224033
1.000000 0.764981 0.256657
1.000000 0.755337 0.293278
0.464332 0.756069 0.000000
0.464912 0.756649 0.000000
0.465614 0.757076 0.000000
0.466560 0.757382 0.000000
0.468086 0.757687 0.000000
0.470161 0.758419 0.000000
0.473213 0.759701 0.000000
0.477058 0.761532 0.000000
0.481819 0.764004 0.000000
0.487373 0.766995 0.000000
0.493812 0.770291 0.000000
0.511955 0.778470 0.000000
0.540795 0.790402 0.000000
0.571588 0.802304 0.000000
0.604089 0.813840 0.000000
0.637720 0.824765 0.000000
0.672816 0.835355 0.000000
0.709560 0.845884 0.000000
0.747646 0.856291 0.000000
0.787137 0.866514 0.000000
0.827695 0.876310 0.000000
0.868772 0.885527 0.000000
0.910002 0.893828 0.000000
0.951110 0.901274 0.060426
0.987884 0.904540 0.152560
1.000000 0.895842 0.225071
1.000000 0.875059 0.239384
1.000000 0.853361 0.246738
1.000000 0.832700 0.253300
1.000000 0.816800 0.278111
1.000000 0.803922 0.309545
1.000000 0.794461 0.346563
0.491432 0.800443 0.000000
0.491890 0.800809 0.000000
0.492317 0.800870 0.000000
0.493080 0.800870 0.000000
0.494270 0.800839 0.000000
0.496010 0.801022 0.000000
0.498390 0.801480 0.000000
0.501518 0.802335 0.000000
0.505394 0.803647 0.000000
0.510033 0.805325 0.000000
0.515343 0.807218 0.000000
0.521294 0.809445 0.000000
0.545617 0.818296 0.000000
0.574640 0.828275 0.000000
0.605341 0.838163 0.000000
0.637629 0.847929 0.000000
