其他预设/【223】英伦米色调色预设8款/1.LUT预设（视频调色-PR-AE-PS-FCPX-达芬奇用）/英伦米色__-3.cube
# Created by Adobe Lightroom plugin Export LUT (1.17.0)
# www.johnrellis.com/lightroom/exportlut.htm
# Preset: 英伦米色[素锦印象]-3
# Color profile: /Library/Application Support/Adobe/Color/Profiles/Recommended/AdobeRGB1998.icc
LUT_3D_SIZE 32
0.000000 0.000000 0.000000
0.006561 0.000000 0.001007
0.040162 0.000000 0.000397
0.077913 0.000000 0.000305
0.104494 0.000000 0.001831
0.131136 0.000000 0.002289
0.159854 0.000000 0.001556
0.190494 0.000000 0.000488
0.223026 0.000000 0.000000
0.257847 0.000000 0.000000
0.294591 0.000000 0.000000
0.333654 0.000000 0.000000
0.374243 0.000000 0.000000
0.416693 0.000000 0.000000
0.460365 0.000000 0.000000
0.504814 0.000000 0.000000
0.550103 0.000000 0.000000
0.596277 0.000000 0.000000
0.641108 0.000000 0.000000
0.685847 0.000000 0.000000
0.730129 0.000000 0.000000
0.778164 0.000000 0.000000
0.823514 0.000000 0.000000
0.862913 0.000000 0.000000
0.897429 0.000000 0.000000
0.928405 0.000000 0.000000
0.956970 0.000000 0.000000
0.983581 0.000000 0.000000
1.000000 0.000000 0.000000
1.000000 0.000000 0.000000
1.000000 0.000000 0.000000
1.000000 0.000000 0.000000
0.003021 0.005341 0.000580
0.010834 0.006409 0.000275
0.044221 0.003235 0.000732
0.078767 0.000092 0.001190
0.105318 0.000000 0.001312
0.131930 0.000000 0.001587
0.160281 0.000000 0.001953
0.190463 0.000000 0.000000
0.222843 0.000000 0.000000
0.257206 0.000000 0.000000
0.293706 0.000000 0.000000
0.332097 0.000000 0.000000
0.372656 0.000000 0.000000
0.414496 0.000000 0.000000
0.457618 0.000000 0.000000
0.501671 0.000000 0.000000
0.546654 0.000000 0.000000
0.592523 0.000000 0.000000
0.637354 0.000000 0.000000
0.682155 0.000000 0.000000
0.726589 0.000000 0.000000
0.774258 0.000000 0.000000
0.819089 0.000000 0.000000
0.858213 0.000000 0.000000
0.892943 0.000000 0.000000
0.924224 0.000000 0.000000
0.953185 0.000000 0.000000
0.980285 0.000000 0.000000
1.000000 0.000000 0.000000
1.000000 0.000000 0.000000
1.000000 0.000000 0.000000
1.000000 0.000000 0.000000
0.012299 0.029572 0.001587
0.017304 0.033478 0.000061
0.050507 0.032471 0.000336
0.081086 0.026947 0.000946
0.106600 0.018921 0.002106
0.133181 0.007568 0.001343
0.161135 0.000000 0.000641
0.191104 0.000000 0.000000
0.223056 0.000000 0.000000
0.257237 0.000000 0.000000
0.293614 0.000000 0.000000
0.331792 0.000000 0.000000
0.371893 0.000000 0.000000
0.413947 0.000000 0.000000
0.456947 0.000000 0.000000
0.500572 0.000000 0.000000
0.545281 0.000000 0.000000
0.590967 0.000000 0.000000
0.635767 0.000000 0.000000
0.680537 0.000000 0.000000
0.725063 0.000000 0.000000
0.772976 0.000000 0.000000
0.817227 0.000000 0.000000
0.856168 0.000000 0.000000
0.890837 0.000000 0.000000
0.922210 0.000000 0.000000
0.951293 0.000000 0.000000
0.978607 0.000000 0.000000
1.000000 0.000000 0.000000
1.000000 0.000000 0.000000
1.000000 0.000000 0.000000
1.000000 0.000000 0.000000
0.038849 0.067720 0.003845
0.043885 0.069581 0.001129
0.059602 0.070008 0.000488
0.085023 0.069673 0.000732
0.110414 0.065248 0.001007
0.136751 0.060487 0.000214
0.164279 0.053193 0.000000
0.193790 0.039887 0.000000
0.225498 0.020935 0.000000
0.259373 0.000000 0.000000
0.295384 0.000000 0.000000
0.333440 0.000000 0.000000
0.373205 0.000000 0.000000
0.414710 0.000000 0.000000
0.457221 0.000000 0.000000
0.500603 0.000000 0.000000
0.544976 0.000000 0.000000
0.590295 0.000000 0.000000
0.634607 0.000000 0.000000
0.678950 0.000000 0.000000
0.723110 0.000000 0.000000
0.770993 0.000000 0.000000
0.814450 0.000000 0.000000
0.853635 0.000000 0.000000
0.889036 0.000000 0.000000
0.921263 0.000000 0.000000
0.950958 0.000000 0.000000
0.978637 0.000000 0.000000
1.000000 0.000000 0.000000
1.000000 0.000000 0.000000
1.000000 0.000000 0.000000
1.000000 0.000000 0.000000
0.063142 0.089570 0.004578
0.065095 0.090547 0.003021
0.068299 0.091981 0.000183
0.087098 0.092683 0.000000
0.114992 0.094179 0.000000
0.142245 0.092164 0.000000
0.168612 0.088289 0.000000
0.197482 0.085084 0.000000
0.228733 0.080964 0.000000
0.262119 0.077028 0.000000
0.297826 0.070771 0.000000
0.335515 0.064027 0.000000
0.374884 0.050843 0.000000
0.415961 0.023468 0.000000
0.458167 0.000000 0.000000
0.501762 0.000000 0.000000
0.546471 0.000000 0.000000
0.591882 0.000000 0.000000
0.636408 0.000000 0.000000
0.680385 0.000000 0.000000
0.725307 0.000000 0.000000
0.771969 0.000000 0.000000
0.814420 0.000000 0.000000
0.853086 0.000000 0.000000
0.888273 0.000000 0.000000
0.920500 0.000000 0.000000
0.950225 0.000000 0.000000
0.977813 0.000000 0.000000
1.000000 0.000000 0.000000
1.000000 0.000000 0.000000
1.000000 0.000000 0.000000
1.000000 0.000000 0.000000
0.078553 0.112154 0.003723
0.080415 0.113130 0.002106
0.082612 0.114015 0.000000
0.092500 0.115755 0.000000
0.117372 0.117617 0.000000
0.148501 0.121584 0.000000
0.178347 0.121889 0.000000
0.205325 0.118746 0.000000
0.235233 0.116548 0.000000
0.268254 0.114900 0.000000
0.303563 0.113405 0.000000
0.340948 0.110872 0.000000
0.379828 0.107546 0.000000
0.420417 0.101869 0.000000
0.462409 0.094118 0.000000
0.505882 0.084443 0.000000
0.550744 0.070008 0.000000
0.596033 0.033997 0.000000
0.640101 0.000000 0.000000
0.684138 0.000000 0.000000
0.730831 0.000000 0.000000
0.776486 0.000000 0.000000
0.850095 0.000000 0.000000
0.886748 0.000000 0.000000
0.918822 0.000000 0.000000
0.947570 0.000000 0.000000
0.973754 0.000000 0.000000
0.998047 0.000000 0.000000
1.000000 0.000000 0.000000
1.000000 0.000000 0.000000
1.000000 0.000000 0.000000
1.000000 0.000000 0.000000
0.096223 0.138796 0.000000
0.097963 0.139498 0.000000
0.099977 0.140352 0.000000
0.104311 0.142489 0.000000
0.126314 0.145510 0.000000
0.154757 0.149203 0.000000
0.190463 0.156344 0.000000
0.224491 0.158663 0.000000
0.252995 0.155978 0.000000
0.283299 0.154116 0.000000
0.319097 0.153506 0.000000
0.356725 0.152865 0.000000
0.395819 0.151461 0.000000
0.436347 0.148898 0.000000
0.477882 0.145663 0.000000
0.520623 0.141268 0.000000
0.564630 0.135958 0.000000
0.608972 0.127962 0.000000
0.652491 0.118410 0.000000
0.697505 0.106111 0.000000
0.748074 0.092103 0.000000
0.795712 0.069490 0.000000
0.839658 0.010559 0.000000
0.879301 0.000000 0.000000
0.914153 0.000000 0.000000
0.944457 0.000000 0.000000
0.971435 0.000000 0.000000
0.996033 0.000000 0.000000
1.000000 0.000000 0.000000
1.000000 0.000000 0.000000
1.000000 0.000000 0.000000
1.000000 0.000000 0.000000
0.113405 0.163607 0.000000
0.114839 0.164187 0.000000
0.116457 0.165194 0.000000
0.120363 0.166781 0.000000
0.133455 0.169650 0.000000
0.160067 0.174411 0.000000
0.191257 0.180087 0.000000
0.230808 0.190219 0.000000
0.267735 0.194339 0.000000
0.297490 0.191867 0.000000
0.328923 0.189883 0.000000
0.364111 0.189334 0.000000
0.402686 0.189517 0.000000
0.442756 0.189151 0.000000
0.483925 0.187961 0.000000
0.526116 0.185855 0.000000
0.569909 0.183780 0.000000
0.613611 0.180423 0.000000
0.656519 0.175265 0.000000
0.704402 0.170596 0.000000
0.752193 0.164797 0.000000
0.797757 0.156313 0.000000
0.840055 0.146120 0.000000
0.878508 0.132601 0.000000
0.912718 0.116701 0.000000
0.942718 0.094850 0.000000
0.969574 0.062043 0.000000
0.994232 0.000000 0.000000
1.000000 0.000000 0.000000
1.000000 0.000000 0.000000
1.000000 0.000000 0.000000
1.000000 0.000000 0.000000
0.131350 0.190158 0.000000
0.132601 0.190768 0.000000
0.134188 0.191226 0.000000
0.137636 0.192782 0.000000
0.143221 0.195163 0.000000
0.167025 0.200259 0.000000
0.196567 0.206821 0.000000
0.230869 0.214572 0.000000
0.275303 0.227573 0.000000
0.315221 0.233555 0.000000
0.346593 0.231785 0.000000
0.379126 0.229831 0.000000
0.412787 0.228122 0.000000
0.452430 0.228763 0.000000
0.493019 0.229038 0.000000
0.534997 0.228946 0.000000
0.578210 0.228428 0.000000
0.621088 0.226322 0.000000
0.666316 0.224887 0.000000
0.712734 0.222873 0.000000
0.758297 0.219883 0.000000
0.801938 0.214633 0.000000
0.842649 0.208042 0.000000
0.879850 0.199954 0.000000
0.913207 0.190066 0.000000
0.942657 0.177523 0.000000
0.969177 0.163607 0.000000
0.993591 0.147707 0.000000
1.000000 0.125612 0.000000
1.000000 0.093233 0.000000
1.000000 0.025818 0.000000
1.000000 0.000000 0.000000
0.149752 0.217929 0.000000
0.150942 0.218448 0.000000
0.152132 0.218936 0.000000
0.155154 0.220157 0.000000
0.160189 0.222171 0.000000
0.174533 0.226139 0.000000
0.202457 0.233005 0.000000
0.235508 0.241459 0.000000
0.273564 0.251743 0.000000
0.322240 0.268070 0.000000
0.365698 0.276158 0.000000
0.398138 0.274052 0.000000
0.431464 0.272099 0.000000
0.465766 0.270603 0.000000
0.503593 0.270298 0.000000
0.546044 0.271611 0.000000
0.589319 0.272496 0.000000
0.635218 0.273625 0.000000
0.679683 0.273320 0.000000
0.723842 0.272190 0.000000
0.766537 0.269596 0.000000
0.807248 0.265507 0.000000
0.845365 0.260044 0.000000
0.880461 0.253147 0.000000
0.912444 0.245304 0.000000
0.941314 0.235721 0.000000
0.967773 0.224887 0.000000
0.992462 0.213046 0.000000
1.000000 0.198795 0.000000
1.000000 0.180789 0.000000
1.000000 0.162234 0.000000
1.000000 0.144167 0.000000
0.168002 0.245579 0.000000
0.168887 0.246098 0.000000
0.170230 0.246586 0.000000
0.173007 0.247837 0.000000
0.177249 0.249668 0.000000
0.183291 0.252262 0.000000
0.209567 0.259892 0.000000
0.241184 0.269139 0.000000
0.277928 0.280064 0.000000
0.320104 0.293065 0.000000
0.374273 0.313207 0.000000
0.420722 0.323186 0.000000
0.453864 0.320867 0.000000
0.487617 0.318486 0.000000
0.522606 0.316838 0.000000
0.559533 0.315587 0.000000
0.604608 0.318639 0.000000
0.648005 0.319585 0.000000
0.690303 0.319371 0.000000
0.732418 0.318273 0.000000
0.773159 0.316106 0.000000
0.812284 0.312840 0.000000
0.849241 0.308202 0.000000
0.883299 0.302251 0.000000
0.914366 0.294957 0.000000
0.942473 0.286381 0.000000
0.968261 0.276616 0.000000
0.992432 0.266545 0.000000
1.000000 0.254948 0.000000
1.000000 0.240146 0.000000
1.000000 0.226047 0.000000
1.000000 0.213230 0.000000
0.187045 0.275151 0.000000
0.187930 0.275517 0.000000
0.189120 0.276097 0.000000
0.191562 0.277195 0.000000
0.195712 0.278935 0.000000
0.201175 0.281407 0.000000
0.217136 0.287053 0.000000
0.248020 0.297002 0.000000
0.283665 0.308873 0.000000
0.324468 0.322850 0.000000
0.370764 0.338628 0.000000
0.430610 0.363317 0.000000
0.500877 0.392187 0.000000
0.539483 0.391913 0.000000
0.579431 0.391974 0.000000
0.617456 0.390265 0.000000
0.653712 0.386969 0.000000
0.691310 0.384192 0.000000
0.730678 0.382086 0.000000
0.768826 0.379156 0.000000
0.805570 0.375372 0.000000
0.840208 0.370031 0.000000
0.872587 0.363867 0.000000
0.902647 0.356603 0.000000
0.930297 0.348455 0.000000
0.955749 0.339513 0.000000
0.979370 0.329717 0.000000
1.000000 0.319402 0.000000
1.000000 0.308568 0.000000
1.000000 0.295598 0.000000
1.000000 0.283360 0.000000
1.000000 0.272496 0.022187
0.210208 0.311376 0.000000
0.211002 0.311772 0.000000
0.211948 0.311925 0.000000
0.214023 0.312596 0.000000
0.217411 0.313725 0.000000
0.222171 0.315373 0.000000
0.228305 0.317967 0.000000
0.257145 0.328038 0.000000
0.292149 0.340856 0.000000
0.332738 0.356359 0.000000
0.379400 0.374731 0.000000
0.434913 0.397955 0.000000
0.508843 0.434119 0.000000
0.571069 0.454566 0.000000
0.609552 0.452918 0.000000
0.645319 0.448981 0.000000
0.678706 0.443030 0.000000
0.709834 0.435981 0.000000
0.739620 0.428046 0.000000
0.775540 0.424231 0.000000
0.810208 0.419623 0.000000
0.843412 0.414069 0.000000
0.874418 0.407568 0.000000
0.903410 0.400214 0.000000
0.930358 0.391943 0.000000
0.955200 0.382849 0.000000
0.978454 0.373327 0.000000
1.000000 0.363470 0.000000
1.000000 0.352850 0.000000
1.000000 0.340948 0.000000
1.000000 0.329412 0.000000
1.000000 0.319524 0.035401
0.229862 0.342229 0.000000
0.230381 0.342504 0.000000
0.231327 0.342748 0.000000
0.233310 0.343420 0.000000
0.236210 0.344182 0.000000
0.240696 0.345830 0.000000
0.246555 0.348302 0.000000
0.263951 0.355077 0.000000
0.297826 0.368658 0.000000
0.338231 0.386481 0.000000
0.385321 0.407568 0.000000
0.439673 0.432319 0.000000
0.501152 0.460090 0.000000
0.579767 0.499458 0.000000
0.638117 0.515404 0.000000
0.672084 0.508934 0.000000
0.702388 0.500084 0.000000
0.730587 0.490303 0.000000
0.757870 0.480140 0.000000
0.785061 0.470527 0.000000
0.815335 0.463447 0.000000
0.847288 0.457496 0.000000
0.877256 0.450538 0.000000
0.905516 0.443000 0.000000
0.931701 0.434485 0.000000
0.956054 0.425330 0.000000
0.978912 0.415717 0.000000
1.000000 0.405615 0.000000
1.000000 0.395361 0.000000
1.000000 0.384039 0.000000
1.000000 0.373266 0.000000
1.000000 0.363806 0.061341
0.250278 0.374731 0.000000
0.250980 0.375158 0.000000
0.251835 0.375494 0.000000
0.253849 0.376318 0.000000
0.257023 0.377630 0.000000
0.261357 0.379522 0.000000
0.267094 0.382391 0.000000
0.274144 0.385962 0.000000
0.306554 0.400244 0.000000
0.345586 0.418128 0.000000
0.390692 0.439429 0.000000
0.442817 0.464271 0.000000
0.501549 0.492256 0.000000
0.566400 0.521935 0.000000
0.644190 0.559533 0.000000
0.697017 0.569879 0.000000
0.725978 0.558709 0.000000
0.751583 0.545861 0.000000
0.776425 0.533257 0.000000
0.801480 0.521782 0.000000
0.826535 0.510643 0.000000
0.851530 0.500237 0.000000
0.880369 0.492927 0.000000
0.907683 0.484779 0.000000
0.933288 0.476020 0.000000
0.957366 0.466896 0.000000
0.980194 0.457252 0.000000
1.000000 0.447486 0.000000
1.000000 0.437446 0.000000
1.000000 0.426734 0.000000
1.000000 0.416693 0.000000
1.000000 0.407904 0.084413
0.274083 0.413092 0.000000
0.275090 0.413703 0.000000
0.275761 0.413977 0.000000
0.277653 0.414862 0.000000
0.280583 0.416052 0.000000
0.284794 0.417975 0.000000
0.290135 0.420691 0.000000
0.297093 0.424323 0.000000
0.316686 0.433814 0.000000
0.354314 0.451820 0.000000
0.398138 0.473121 0.000000
0.447608 0.497353 0.000000
0.502159 0.523308 0.000000
0.561791 0.550439 0.000000
0.625360 0.577722 0.000000
0.699031 0.610803 0.000000
0.745663 0.615717 0.000000
0.771328 0.601770 0.000000
0.794766 0.587060 0.000000
0.818540 0.573877 0.000000
0.842283 0.561425 0.000000
0.865812 0.549676 0.000000
0.888518 0.537804 0.000000
0.912718 0.527672 0.000000
0.937652 0.518578 0.000000
0.961181 0.508965 0.000000
0.983398 0.499031 0.000000
1.000000 0.489052 0.000000
1.000000 0.478706 0.000000
1.000000 0.468025 0.000000
1.000000 0.457771 0.000000
1.000000 0.449042 0.102541
0.296727 0.449744 0.000000
0.297337 0.450050 0.000000
0.298009 0.450233 0.000000
0.299748 0.450965 0.000000
0.302434 0.452003 0.000000
0.306249 0.453712 0.000000
0.311315 0.456123 0.000000
0.317601 0.459358 0.000000
0.325322 0.463416 0.000000
0.360082 0.480690 0.000000
0.401984 0.501884 0.000000
0.449134 0.525628 0.000000
0.500908 0.550927 0.000000
0.556603 0.576837 0.000000
0.616236 0.602960 0.000000
0.678309 0.628046 0.000000
0.746914 0.656001 0.000000
0.788479 0.656428 0.000000
0.811856 0.640894 0.000000
0.833829 0.625330 0.000000
0.855772 0.611078 0.000000
0.877623 0.597375 0.000000
0.898833 0.584161 0.000000
0.919585 0.571344 0.000000
0.939971 0.558862 0.000000
0.962982 0.549096 0.000000
0.984924 0.538903 0.000000
1.000000 0.528618 0.000000
1.000000 0.518151 0.000000
1.000000 0.507561 0.000000
1.000000 0.497414 0.032593
1.000000 0.488808 0.120607
0.319738 0.487587 0.000000
0.320653 0.488380 0.000000
0.333104 0.507744 0.000000
0.334661 0.508232 0.000000
0.337194 0.509056 0.000000
0.340551 0.510155 0.000000
0.345068 0.511864 0.000000
0.350713 0.514214 0.000000
0.357702 0.517388 0.000000
0.378424 0.527947 0.000000
0.419013 0.548516 0.000000
0.464546 0.571221 0.000000
0.513512 0.594598 0.000000
0.566705 0.618952 0.000000
0.622644 0.643000 0.000000
0.680629 0.665858 0.000000
0.740322 0.687312 0.000000
0.802365 0.708553 0.000000
0.838010 0.703548 0.000000
0.858213 0.685206 0.000000
0.877317 0.667506 0.000000
0.896422 0.651148 0.000000
0.915435 0.635584 0.000000
0.933959 0.620661 0.000000
0.951720 0.606012 0.000000
0.969177 0.591730 0.000000
0.988006 0.579187 0.000000
1.000000 0.567956 0.000000
1.000000 0.556847 0.000000
1.000000 0.545983 0.000000
1.000000 0.535821 0.075441
1.000000 0.527123 0.137667
0.346227 0.531395 0.000000
0.348394 0.534295 0.000000
0.350713 0.537255 0.000000
0.353735 0.540185 0.000000
0.357183 0.542962 0.000000
0.360998 0.544915 0.000000
0.365301 0.546715 0.000000
0.370520 0.548852 0.000000
0.377111 0.551904 0.000000
0.384955 0.555566 0.000000
0.420996 0.573968 0.000000
0.463905 0.595453 0.000000
0.510277 0.617823 0.000000
0.560082 0.640772 0.000000
0.612360 0.663233 0.000000
0.666682 0.684871 0.000000
0.722499 0.705165 0.000000
0.779782 0.724300 0.000000
0.837125 0.741543 0.000000
0.869780 0.734646 0.000000
0.888426 0.715755 0.000000
0.906828 0.698116 0.000000
0.924804 0.681361 0.000000
0.942412 0.665339 0.000000
0.959472 0.649836 0.000000
0.976135 0.634668 0.000000
0.992554 0.620142 0.000000
1.000000 0.606317 0.000000
1.000000 0.594903 0.000000
1.000000 0.583703 0.000000
1.000000 0.573510 0.101564
1.000000 0.564874 0.157015
0.367773 0.567834 0.000000
0.369909 0.570581 0.000000
0.372045 0.573266 0.000000
0.374823 0.576104 0.000000
0.378149 0.578576 0.000000
0.381689 0.580407 0.000000
0.385840 0.582116 0.000000
0.390723 0.584161 0.000000
0.396887 0.586847 0.000000
0.404089 0.590173 0.000000
0.424262 0.600366 0.000000
0.464942 0.620874 0.000000
0.508965 0.642176 0.000000
0.555932 0.663813 0.000000
0.605097 0.684901 0.000000
0.655970 0.705104 0.000000
0.708705 0.724422 0.000000
0.762448 0.742580 0.000000
0.817594 0.759701 0.000000
0.870359 0.773098 0.000000
0.899779 0.764370 0.000000
0.917113 0.745144 0.000000
0.934386 0.727138 0.000000
0.951019 0.709987 0.000000
0.967102 0.693355 0.000000
0.982788 0.677302 0.000000
0.998291 0.661707 0.000000
1.000000 0.646937 0.000000
1.000000 0.632685 0.000000
1.000000 0.620447 0.035859
1.000000 0.610071 0.124483
1.000000 0.601312 0.176120
0.389502 0.604517 0.000000
0.391455 0.607050 0.000000
0.393500 0.609735 0.000000
0.396216 0.612390 0.000000
0.399298 0.614649 0.000000
0.402655 0.616358 0.000000
0.406439 0.617884 0.000000
0.410986 0.619654 0.000000
0.416632 0.621912 0.000000
0.423255 0.624903 0.000000
0.431067 0.628443 0.000000
0.466285 0.646082 0.000000
0.507836 0.665949 0.000000
0.552087 0.686152 0.000000
0.598871 0.706264 0.000000
0.647486 0.725948 0.000000
0.698116 0.744991 0.000000
0.750057 0.763241 0.000000
0.803311 0.780697 0.000000
0.857328 0.797024 0.000000
0.905669 0.807095 0.000000
0.932738 0.797086 0.000000
0.948547 0.777340 0.014313
0.964599 0.759121 0.045441
0.979889 0.741543 0.069856
0.994629 0.724483 0.080751
1.000000 0.707942 0.085969
1.000000 0.692134 0.088533
1.000000 0.676967 0.089937
1.000000 0.662776 0.120272
1.000000 0.650629 0.165438
1.000000 0.642298 0.212619
0.417121 0.650996 0.000000
0.418189 0.652308 0.000000
0.419348 0.653437 0.000000
0.421149 0.654627 0.000000
0.423407 0.655818 0.000000
0.426215 0.656855 0.000000
0.429725 0.658137 0.000000
0.434150 0.659937 0.000000
0.439582 0.662257 0.000000
0.446174 0.665309 0.000000
0.453590 0.668910 0.000000
0.472847 0.678126 0.000000
0.512566 0.696773 0.000000
0.554589 0.715419 0.000000
0.598688 0.733791 0.000000
0.644739 0.751858 0.000000
0.692287 0.769314 0.000000
0.741329 0.786069 0.000000
0.791226 0.801846 0.000000
0.841733 0.816526 0.000000
0.892546 0.830076 0.000000
0.935180 0.835477 0.063752
0.958434 0.823239 0.119661
0.971649 0.802274 0.123232
0.986023 0.783383 0.125124
1.000000 0.765438 0.128695
1.000000 0.748257 0.132418
1.000000 0.731716 0.134920
1.000000 0.715908 0.134951
1.000000 0.701167 0.160281
1.000000 0.688380 0.197482
1.000000 0.678401 0.236637
0.438361 0.687282 0.000000
0.439399 0.688472 0.000000
0.440589 0.689693 0.000000
0.442298 0.690761 0.000000
0.444434 0.691859 0.000000
0.446967 0.692653 0.000000
0.450111 0.693629 0.000000
0.454017 0.694942 0.000000
0.459022 0.696773 0.000000
0.464851 0.699306 0.000000
0.471748 0.702327 0.000000
0.479438 0.705653 0.000000
0.512413 0.720668 0.000000
0.552667 0.738155 0.000000
0.594690 0.755489 0.000000
0.638544 0.772427 0.000000
0.683894 0.788937 0.000000
0.730434 0.804685 0.000000
0.777951 0.819638 0.000000
0.826047 0.833585 0.000000
0.874601 0.846616 0.000000
0.923003 0.858457 0.000000
0.960876 0.860716 0.142489
0.981659 0.847562 0.178592
0.990326 0.823026 0.168215
1.000000 0.804227 0.167483
1.000000 0.786343 0.167971
1.000000 0.769192 0.169894
1.000000 0.752804 0.169894
1.000000 0.737850 0.193820
1.000000 0.725399 0.230381
1.000000 0.715969 0.269657
0.463722 0.729824 0.000000
0.464942 0.731106 0.000000
0.465766 0.731991 0.000000
0.467140 0.732570 0.000000
0.468818 0.733059 0.000000
0.470832 0.733272 0.000000
0.473548 0.733639 0.000000
0.476783 0.734096 0.000000
0.480842 0.734951 0.000000
0.485847 0.736294 0.000000
0.491524 0.737942 0.000000
0.498207 0.740230 0.000000
0.514580 0.746670 0.000000
0.552056 0.761929 0.000000
0.591363 0.777035 0.000000
0.632380 0.791775 0.000000
0.674678 0.806180 0.000000
0.718318 0.820249 0.000000
0.763424 0.834104 0.000000
0.809354 0.847410 0.000000
0.855772 0.859922 0.000000
0.901976 0.871305 0.000000
0.947692 0.881376 0.113222
0.980896 0.880369 0.187961
0.998779 0.865843 0.217899
1.000000 0.843809 0.214176
1.000000 0.824949 0.210971
1.000000 0.806912 0.208560
1.000000 0.789822 0.206638
1.000000 0.774716 0.231998
1.000000 0.762264 0.267247
1.000000 0.753262 0.306981
0.482887 0.762142 0.000000
0.484016 0.763363 0.000000
0.484901 0.764218 0.000000
0.486061 0.764767 0.000000
0.487617 0.765194 0.000000
0.489662 0.765530 0.000000
0.492226 0.765896 0.000000
0.495369 0.766537 0.000000
0.499306 0.767575 0.000000
0.504143 0.769039 0.000000
0.509697 0.770840 0.000000
0.516075 0.773129 0.000000
0.523247 0.775631 0.000000
0.553216 0.787289 0.000000
0.590967 0.801266 0.000000
0.629969 0.814878 0.000000
0.670405 0.828122 0.000000
0.712001 0.841093 0.000000
0.754879 0.853696 0.000000
0.798459 0.865843 0.000000
0.842527 0.877165 0.000000
0.886595 0.887602 0.000000
0.930144 0.896910 0.120668
0.972717 0.904967 0.177035
1.000000 0.900969 0.238773
1.000000 0.885618 0.265782
1.000000 0.863432 0.259953
1.000000 0.844968 0.255528
1.000000 0.827359 0.251164
1.000000 0.812161 0.278294
1.000000 0.799863 0.313268
1.000000 0.791257 0.353826
0.503166 0.795956 0.000000
0.503990 0.796780 0.000000
0.504662 0.797208 0.000000
0.505577 0.797421 0.000000
0.506767 0.797452 0.000000
0.508446 0.797482 0.000000
0.510735 0.797604 0.000000
0.513573 0.798032 0.000000
0.517174 0.798856 0.000000
0.521630 0.800168 0.000000
0.526818 0.801846 0.000000
0.532921 0.804074 0.000000
0.539666 0.806424 0.000000
0.554070 0.811551 0.000000
0.589837 0.824094 0.000000
0.626978 0.836301 0.000000
0.665431 0.848173 0.000000
0.705013 0.859831 0.000000
0.745632 0.871214 0.000000
0.787198 0.882200 0.000000
0.829191 0.892576 0.000000
0.871275 0.902098 0.000000
0.912871 0.910582 0.117556
0.953674 0.918059 0.175021
0.993256 0.924437 0.223148
1.000000 0.917845 0.280522
1.000000 0.901976 0.306157
1.000000 0.880156 0.299107
1.000000 0.861906 0.292882
1.000000 0.846525 0.320104
1.000000 0.834165 0.355261
1.000000 0.825284 0.394598
0.521569 0.826352 0.000000
0.522179 0.826871 0.000000
0.522759 0.827207 0.000000
0.523674 0.827543 0.000000
0.525017 0.827878 0.000000
0.527031 0.828519 0.000000
0.529839 0.829740 0.000000
0.533440 0.831449 0.000000
0.537774 0.833646 0.000000
0.542901 0.836271 0.000000
0.548821 0.839261 0.000000
0.555322 0.842466 0.000000
0.562310 0.845609 0.000000
0.569635 0.848569 0.000000
0.596918 0.857542 0.000000
0.632563 0.868162 0.000000
0.669459 0.878477 0.000000
0.707088 0.888396 0.000000
0.745815 0.898039 0.000000
0.785214 0.907347 0.000000
0.824887 0.916014 0.000000
0.864530 0.923949 0.080507
0.903838 0.930968 0.149599
0.942382 0.937072 0.201205
0.979797 0.942260 0.248051
1.000000 0.946593 0.292699
1.000000 0.937011 0.345495
1.000000 0.920531 0.369268
1.000000 0.899596 0.365820
1.000000 0.883482 0.388251
1.000000 0.870634 0.418860
1.000000 0.861448 0.455482
0.545861 0.864317 0.000000
0.546288 0.864622 0.000000
0.546685 0.864714 0.000000
0.547387 0.864714 0.000000
0.548425 0.864805 0.000000
0.549950 0.864988 0.000000
0.552148 0.865507 0.000000
0.554925 0.866331 0.000000
0.558404 0.867582 0.000000
0.562554 0.869139 0.000000
0.567346 0.870878 0.000000
0.572747 0.872953 0.000000
0.578729 0.875059 0.000000
0.585107 0.877226 0.000000
0.596826 0.880674 0.000000
0.630823 0.889891 0.000000
