其他预设/【223】英伦米色调色预设8款/1.LUT预设（视频调色-PR-AE-PS-FCPX-达芬奇用）/英伦米色__-1.cube
# Created by Adobe Lightroom plugin Export LUT (1.17.0)
# www.johnrellis.com/lightroom/exportlut.htm
# Preset: 英伦米色[素锦印象]-1
# Color profile: /Library/Application Support/Adobe/Color/Profiles/Recommended/AdobeRGB1998.icc
LUT_3D_SIZE 5
DOMAIN_MIN 0.000000 0.000000 0.000000
DOMAIN_MAX 0.903226 0.903226 0.903226
0.000000 0.000000 0.000000
0.207828 0.000000 0.003357
0.433509 0.000000 0.000000
0.683406 0.000000 0.000000
0.939513 0.000000 0.000000
0.130526 0.188540 0.026581
0.222416 0.194247 0.000000
0.432685 0.183841 0.000000
0.696040 0.162753 0.000000
0.952209 0.000000 0.000000
0.270359 0.396979 0.077394
0.283116 0.418921 0.000000
0.497169 0.444099 0.000000
0.727382 0.439979 0.000000
0.941466 0.407507 0.000000
0.444648 0.664118 0.128786
0.452247 0.679255 0.071443
0.550622 0.694301 0.000000
0.753109 0.680873 0.000000
0.950317 0.649470 0.000000
0.600061 0.886961 0.228214
0.599237 0.891630 0.194003
0.590997 0.896910 0.000000
0.775357 0.899138 0.000000
0.980652 0.880919 0.000000
0.100771 0.124880 0.178683
0.222049 0.088350 0.203098
0.431159 0.006622 0.196292
0.673518 0.000000 0.190280
0.915038 0.000000 0.170687
0.173007 0.197940 0.165499
0.239994 0.225406 0.200168
0.437140 0.209354 0.194888
0.678309 0.177707 0.188724
0.918273 0.010529 0.169436
0.315770 0.401862 0.223606
0.325139 0.423102 0.206485
0.478065 0.433570 0.188602
0.698939 0.429419 0.185031
0.930480 0.407263 0.167697
0.470954 0.661128 0.255833
0.478798 0.676722 0.239628
0.548852 0.697963 0.181216
0.749691 0.682307 0.168338
0.945464 0.650385 0.163027
0.622034 0.882414 0.327977
0.620020 0.887114 0.303349
0.621271 0.909239 0.203891
0.779934 0.908324 0.155215
0.985199 0.887358 0.141299
0.220432 0.270573 0.376837
0.260960 0.248722 0.395727
0.470222 0.199649 0.431098
0.694759 0.158602 0.427649
0.915953 0.000000 0.417914
0.280400 0.340948 0.377783
0.316594 0.338170 0.398718
0.478859 0.289555 0.430213
0.694331 0.263645 0.422217
0.919860 0.195712 0.415900
0.365454 0.425849 0.351110
0.398413 0.437903 0.372869
0.503166 0.484596 0.422583
0.709407 0.470649 0.421546
0.925505 0.435676 0.411292
0.529198 0.644282 0.425849
0.542596 0.652155 0.439673
0.570123 0.698726 0.429755
0.749508 0.700526 0.417456
0.934173 0.662562 0.410254
0.699580 0.860288 0.553338
0.702358 0.868742 0.547509
0.688502 0.893400 0.475319
0.764981 0.907469 0.404791
0.969207 0.886259 0.393713
0.360021 0.443061 0.604364
0.370672 0.423041 0.619043
0.492836 0.378729 0.650660
0.709407 0.319677 0.664668
0.913085 0.332189 0.658381
0.400549 0.488197 0.598505
0.422095 0.483375 0.610224
0.500114 0.431678 0.641688
0.705715 0.375830 0.655940
0.906950 0.379400 0.651240
0.452461 0.594324 0.587396
0.480049 0.591333 0.593896
0.553796 0.578271 0.622980
0.701717 0.521324 0.638178
0.908812 0.521752 0.649165
0.568750 0.664729 0.554223
0.584283 0.666712 0.563745
0.644739 0.685969 0.608972
0.737484 0.726223 0.655756
0.922118 0.702296 0.651911
0.753140 0.844999 0.674830
0.759945 0.850584 0.681727
0.785580 0.872618 0.706600
0.792630 0.908598 0.673030
0.951568 0.899565 0.645563
0.566613 0.649195 0.807309
0.576379 0.643397 0.812436
0.604364 0.609003 0.829984
0.710628 0.542046 0.856413
0.895903 0.507317 0.868894
0.577905 0.666316 0.799985
0.591791 0.665003 0.805386
0.614862 0.633814 0.824186
0.710048 0.569055 0.849454
0.895109 0.535576 0.866178
0.613428 0.726986 0.791196
0.624903 0.721096 0.793454
0.664515 0.716670 0.812894
0.722072 0.661769 0.842588
0.904906 0.635431 0.872404
0.677516 0.836973 0.805570
0.685481 0.833341 0.806851
0.718593 0.824552 0.817929
0.785489 0.812711 0.852201
0.912596 0.767727 0.874113
0.773281 0.867765 0.769162
0.778653 0.868406 0.772763
0.805234 0.877134 0.793942
0.850828 0.891661 0.831266
0.925353 0.919951 0.882322
