其他预设/【223】英伦米色调色预设8款/1.LUT预设（视频调色-PR-AE-PS-FCPX-达芬奇用）/英伦米色__-3.cube
# Created by Adobe Lightroom plugin Export LUT (1.17.0)
# www.johnrellis.com/lightroom/exportlut.htm
# Preset: 英伦米色[素锦印象]-3
# Color profile: /Library/Application Support/Adobe/Color/Profiles/Recommended/AdobeRGB1998.icc
LUT_3D_SIZE 8
DOMAIN_MIN 0.000000 0.000000 0.000000
DOMAIN_MAX 0.903226 0.903226 0.903226
0.000000 0.000000 0.000000
0.104494 0.000000 0.001831
0.223026 0.000000 0.000000
0.374243 0.000000 0.000000
0.550103 0.000000 0.000000
0.730129 0.000000 0.000000
0.897429 0.000000 0.000000
1.000000 0.000000 0.000000
0.063142 0.089570 0.004578
0.114992 0.094179 0.000000
0.228733 0.080964 0.000000
0.374884 0.050843 0.000000
0.546471 0.000000 0.000000
0.725307 0.000000 0.000000
0.888273 0.000000 0.000000
1.000000 0.000000 0.000000
0.131350 0.190158 0.000000
0.143221 0.195163 0.000000
0.275303 0.227573 0.000000
0.412787 0.228122 0.000000
0.578210 0.228428 0.000000
0.758297 0.219883 0.000000
0.913207 0.190066 0.000000
1.000000 0.125612 0.000000
0.210208 0.311376 0.000000
0.217411 0.313725 0.000000
0.292149 0.340856 0.000000
0.508843 0.434119 0.000000
0.678706 0.443030 0.000000
0.810208 0.419623 0.000000
0.930358 0.391943 0.000000
1.000000 0.352850 0.000000
0.296727 0.449744 0.000000
0.302434 0.452003 0.000000
0.325322 0.463416 0.000000
0.500908 0.550927 0.000000
0.746914 0.656001 0.000000
0.855772 0.611078 0.000000
0.939971 0.558862 0.000000
1.000000 0.518151 0.000000
0.389502 0.604517 0.000000
0.399298 0.614649 0.000000
0.416632 0.621912 0.000000
0.507836 0.665949 0.000000
0.698116 0.744991 0.000000
0.905669 0.807095 0.000000
0.979889 0.741543 0.069856
1.000000 0.676967 0.089937
0.482887 0.762142 0.000000
0.487617 0.765194 0.000000
0.499306 0.767575 0.000000
0.523247 0.775631 0.000000
0.670405 0.828122 0.000000
0.842527 0.877165 0.000000
1.000000 0.900969 0.238773
1.000000 0.827359 0.251164
0.563775 0.892454 0.000000
0.566186 0.892943 0.000000
0.575860 0.896178 0.000000
0.595361 0.904143 0.000000
0.657862 0.912963 0.000000
0.801450 0.943938 0.000000
0.946136 0.964904 0.250828
1.000000 0.958007 0.479774
0.058778 0.059876 0.084016
0.111635 0.035126 0.089113
0.221958 0.000000 0.087984
0.367803 0.000000 0.085298
0.536980 0.000000 0.073823
0.716335 0.000000 0.032380
0.878843 0.000000 0.000000
0.996765 0.000000 0.000000
0.078248 0.100221 0.072297
0.122377 0.105928 0.088808
0.231724 0.100252 0.088411
0.373663 0.071901 0.084108
0.540337 0.000000 0.070253
0.717220 0.000000 0.019409
0.872648 0.000000 0.000000
0.991211 0.000000 0.000000
0.148959 0.194644 0.083284
0.163729 0.202060 0.085298
0.274449 0.229953 0.087526
0.405249 0.226932 0.078950
0.567346 0.225071 0.053651
0.740475 0.214145 0.000000
0.889586 0.183108 0.000000
1.000000 0.126497 0.000000
0.219150 0.310857 0.075044
0.228153 0.315221 0.073518
0.288426 0.338689 0.056611
0.488441 0.417517 0.043244
0.638361 0.416175 0.000000
0.775875 0.400855 0.000000
0.905638 0.381048 0.000000
1.000000 0.348882 0.000000
0.304875 0.451301 0.044434
0.309392 0.452247 0.020844
0.329137 0.460792 0.000000
0.483772 0.533196 0.000000
0.721645 0.634150 0.000000
0.836088 0.597681 0.000000
0.927489 0.553124 0.000000
1.000000 0.516472 0.061891
0.390570 0.597711 0.000000
0.395392 0.600214 0.000000
0.412116 0.608057 0.000000
0.493782 0.649561 0.000000
0.686854 0.734127 0.000000
0.898558 0.802670 0.139376
0.973327 0.739895 0.173983
1.000000 0.676661 0.169223
0.479561 0.750362 0.000000
0.481758 0.749752 0.000000
0.494270 0.754177 0.000000
0.519951 0.765988 0.000000
0.662562 0.820249 0.000000
0.835599 0.870939 0.087984
0.993591 0.896269 0.284367
1.000000 0.825223 0.287846
0.563256 0.886290 0.000000
0.566369 0.887816 0.000000
0.576287 0.891661 0.000000
0.595911 0.900298 0.000000
0.659724 0.917296 0.000000
0.802029 0.944976 0.085206
0.944671 0.963989 0.284001
1.000000 0.957092 0.471931
0.095033 0.110872 0.182803
0.134066 0.103761 0.188540
0.241337 0.081605 0.196323
0.370825 0.000000 0.200778
0.537255 0.000000 0.210239
0.724300 0.000000 0.214542
0.883055 0.000000 0.222934
0.998352 0.000000 0.227237
0.126802 0.153109 0.181521
0.155032 0.149050 0.187106
0.245701 0.131075 0.194766
0.374884 0.109651 0.199069
0.539330 0.000000 0.205539
0.722683 0.000000 0.212619
0.879271 0.000000 0.219577
0.996185 0.000000 0.224735
0.163241 0.219638 0.153750
0.190768 0.222843 0.163699
0.269688 0.236728 0.198032
0.402808 0.238437 0.205264
0.573877 0.238193 0.213382
0.744442 0.227695 0.218936
0.889372 0.208743 0.225895
0.999603 0.179843 0.231449
0.245426 0.328862 0.159670
0.264683 0.334356 0.177737
0.299779 0.349493 0.188052
0.487831 0.425727 0.227604
0.629786 0.418830 0.228214
0.778683 0.414038 0.232914
0.907500 0.400671 0.242283
1.000000 0.376715 0.249607
0.334844 0.463416 0.187259
0.342046 0.467475 0.187045
0.364538 0.479744 0.182071
0.478706 0.536522 0.191928
0.721706 0.642634 0.259190
0.828641 0.603479 0.263859
0.923827 0.567498 0.268437
1.000000 0.537652 0.278416
0.413581 0.607660 0.177798
0.419715 0.610895 0.177890
0.436652 0.618708 0.169802
0.477424 0.638697 0.146975
0.674159 0.726131 0.211826
0.884886 0.799771 0.337804
0.961028 0.746883 0.351446
1.000000 0.693812 0.342870
0.501305 0.758846 0.182742
0.504204 0.759152 0.179232
0.514305 0.761563 0.161288
0.535607 0.769863 0.123232
0.651789 0.813535 0.163577
0.830076 0.868925 0.290593
0.985504 0.901915 0.459449
1.000000 0.842313 0.455695
0.581567 0.887297 0.217227
0.582147 0.887205 0.207584
0.590082 0.890043 0.188479
0.610040 0.900664 0.158755
0.649104 0.912413 0.110719
0.798764 0.943023 0.268620
0.941955 0.963806 0.427131
1.000000 0.961334 0.581018
0.140658 0.174105 0.302708
0.171756 0.171420 0.309209
0.262333 0.155245 0.321782
0.384985 0.124697 0.328710
0.522240 0.066712 0.335180
0.699947 0.000000 0.358892
0.859312 0.000000 0.372656
0.981323 0.000000 0.381872
0.176669 0.212375 0.305974
0.196384 0.208621 0.311162
0.270115 0.191440 0.322545
0.390387 0.164157 0.330480
0.528832 0.131624 0.337011
0.702174 0.061738 0.357061
0.858915 0.000000 0.371283
0.980957 0.000000 0.383642
0.203372 0.293370 0.304112
0.227634 0.289738 0.306950
0.291936 0.276646 0.319188
0.401587 0.258091 0.329564
0.554284 0.254673 0.344640
0.728267 0.255802 0.367407
0.880003 0.277836 0.396063
0.989624 0.284947 0.409277
0.258030 0.363561 0.258976
0.276432 0.365148 0.264866
0.333837 0.371130 0.287327
0.445319 0.403204 0.348425
0.596857 0.414038 0.365820
0.754116 0.426184 0.387366
0.889616 0.434974 0.411566
0.994079 0.435645 0.429603
0.353216 0.487800 0.256596
0.365393 0.489143 0.268803
0.408881 0.498177 0.311437
0.455238 0.521294 0.324865
0.697383 0.637079 0.433600
0.802396 0.609613 0.438209
0.910735 0.599939 0.455695
1.000000 0.585077 0.467414
0.444282 0.628717 0.293034
0.459754 0.636713 0.310033
0.489052 0.641291 0.336950
0.514153 0.655085 0.323888
0.660121 0.721828 0.379522
0.868498 0.804440 0.531701
0.941924 0.765957 0.535943
1.000000 0.727138 0.524346
0.543511 0.765133 0.355383
0.547997 0.767361 0.356329
0.558526 0.773495 0.348608
0.575647 0.783383 0.327642
0.635584 0.807218 0.326757
0.823239 0.867918 0.468605
0.970459 0.908293 0.629969
1.000000 0.863310 0.618677
0.633112 0.890593 0.418250
0.634180 0.891936 0.413886
0.634943 0.895018 0.391028
0.641627 0.901396 0.355047
0.660853 0.910063 0.318090
0.790951 0.938018 0.418036
0.935943 0.962310 0.577111
1.000000 0.967010 0.711788
0.193362 0.251621 0.449287
0.216587 0.248478 0.454597
0.293492 0.238346 0.465827
0.408820 0.207218 0.486091
0.543633 0.174105 0.491707
0.676844 0.129427 0.489693
0.834623 0.116487 0.511192
0.963348 0.175204 0.527489
0.221500 0.281621 0.451331
0.239536 0.279637 0.458839
0.304570 0.267399 0.470436
0.411933 0.236057 0.486061
0.545373 0.206119 0.490852
0.678798 0.173404 0.488991
0.837522 0.176577 0.512871
0.963989 0.222995 0.530114
0.263676 0.354162 0.452918
0.284825 0.350469 0.456428
0.330327 0.340246 0.467018
0.419654 0.315557 0.481727
0.549920 0.291447 0.486519
0.685420 0.278141 0.487739
0.842802 0.300633 0.517235
0.963806 0.335821 0.538903
0.281407 0.459907 0.453193
0.300450 0.456733 0.454475
0.360632 0.446967 0.462257
0.445380 0.428901 0.478218
0.564202 0.410986 0.485695
0.714565 0.427741 0.508751
0.857328 0.460975 0.544701
0.968811 0.487007 0.572564
0.351415 0.517113 0.377264
0.366369 0.519249 0.382940
0.413916 0.524193 0.401068
0.495979 0.531670 0.444770
0.619348 0.581506 0.524071
0.752865 0.592615 0.549248
0.878294 0.612146 0.583368
0.977264 0.622004 0.607691
0.455268 0.634424 0.363684
0.464881 0.636042 0.374243
0.496468 0.639673 0.407874
0.552453 0.649287 0.466621
0.590173 0.667384 0.467445
0.831022 0.787839 0.644373
0.910643 0.768673 0.652949
0.987945 0.756741 0.661677
0.556237 0.770748 0.431098
0.563500 0.770718 0.439887
0.589868 0.772793 0.471046
0.631678 0.779202 0.515068
0.645228 0.793179 0.480690
0.794125 0.849943 0.581048
0.951293 0.908171 0.738582
0.999847 0.875700 0.727260
0.665248 0.885832 0.533684
0.670466 0.885832 0.540032
0.688838 0.886473 0.562036
0.704036 0.896056 0.561517
0.702724 0.905577 0.506615
0.763668 0.924376 0.519493
0.923064 0.956970 0.683528
1.000000 0.970794 0.803861
0.261692 0.350958 0.629084
0.279637 0.348180 0.632624
0.341314 0.337011 0.635248
0.437354 0.315984 0.645930
0.560693 0.270573 0.659815
0.695613 0.246738 0.658045
0.819150 0.242588 0.649744
0.941802 0.285496 0.658595
0.277317 0.367041 0.617823
0.292027 0.363836 0.620172
0.345922 0.353216 0.626673
0.436805 0.332647 0.637873
0.558007 0.291142 0.653620
0.693507 0.269627 0.653895
0.817502 0.267124 0.647181
0.941253 0.310521 0.658839
0.327123 0.431342 0.620996
0.338354 0.428717 0.621942
0.379309 0.420447 0.628931
0.454719 0.402380 0.640131
0.566064 0.366827 0.653925
0.699123 0.348302 0.653590
0.820249 0.349187 0.647272
0.943999 0.398291 0.667323
0.351537 0.527977 0.620417
0.367132 0.523735 0.620172
0.421149 0.512749 0.625055
0.496193 0.508446 0.643427
0.587823 0.484535 0.660365
0.713191 0.467781 0.659632
0.831052 0.473518 0.658717
0.950256 0.522057 0.688808
0.371984 0.639063 0.615229
0.387884 0.637324 0.616876
0.439948 0.630091 0.622187
0.518700 0.616297 0.631983
0.603662 0.594385 0.645777
0.712978 0.577569 0.649104
0.843320 0.609827 0.679957
0.953094 0.645869 0.714992
0.459937 0.673793 0.515007
0.473548 0.676417 0.521782
0.511833 0.679072 0.538048
0.570703 0.682856 0.565148
0.646143 0.686397 0.611994
0.768307 0.743954 0.703151
0.875731 0.758541 0.733120
0.967468 0.773526 0.760342
0.592370 0.784207 0.526329
0.600549 0.786038 0.535607
0.623224 0.788266 0.560906
0.660334 0.792966 0.601556
0.708827 0.799680 0.652522
0.738308 0.813596 0.650050
0.932708 0.907012 0.820920
0.983062 0.886168 0.813596
0.693385 0.890715 0.615625
0.697414 0.890684 0.620111
0.712276 0.891417 0.636774
0.739925 0.895262 0.667140
0.776852 0.899870 0.705165
0.778683 0.912413 0.661463
0.902617 0.948119 0.760952
1.000000 0.975097 0.878813
0.361700 0.455207 0.763638
0.379522 0.458259 0.768460
0.420996 0.453071 0.772519
0.488685 0.440223 0.779995
0.578912 0.413519 0.788693
0.692470 0.371099 0.797208
0.816861 0.358953 0.794339
0.923095 0.390814 0.784543
0.363806 0.461067 0.752407
0.379706 0.463386 0.756832
0.420356 0.459144 0.761959
0.483772 0.444526 0.768399
0.570947 0.416815 0.776425
0.682033 0.371984 0.783871
0.804837 0.356542 0.779995
0.912596 0.380285 0.771298
0.408759 0.517479 0.758907
0.419684 0.517144 0.760067
0.455116 0.514153 0.762936
0.508812 0.501823 0.769162
0.583215 0.473884 0.775204
0.688563 0.432807 0.784970
0.813169 0.425727 0.785672
0.920317 0.452979 0.781064
0.450874 0.596185 0.762478
0.460822 0.591974 0.761227
0.495277 0.583856 0.761501
0.551171 0.585595 0.771023
0.611170 0.565118 0.778836
0.705623 0.532860 0.791958
0.823941 0.526635 0.792691
0.925505 0.541527 0.788357
0.462501 0.684413 0.752438
0.470924 0.680140 0.750790
0.504936 0.669856 0.750423
0.563714 0.656092 0.755825
0.631678 0.646693 0.766598
0.706844 0.620874 0.779721
0.818204 0.609613 0.780453
0.924041 0.624933 0.786770
0.490578 0.787381 0.750332
0.501091 0.785641 0.751095
0.535576 0.779416 0.753994
0.591516 0.769619 0.760830
0.658961 0.752804 0.769345
0.737545 0.736843 0.785061
0.831662 0.726192 0.790738
0.938567 0.757504 0.819516
0.592035 0.808835 0.663386
0.601190 0.810330 0.668421
0.625788 0.811215 0.679622
0.665339 0.813535 0.699245
0.713436 0.814115 0.722713
0.777340 0.816342 0.760830
0.880308 0.867399 0.843717
0.960357 0.876188 0.863706
0.721248 0.890990 0.683619
0.724910 0.891386 0.687617
0.742580 0.896269 0.707210
0.765347 0.900359 0.731655
0.794644 0.904631 0.762203
0.832944 0.910887 0.800656
0.856565 0.922576 0.798886
0.991180 0.977356 0.932464
0.505180 0.582605 0.866789
0.516869 0.585901 0.868742
0.538384 0.581659 0.869230
0.576471 0.573602 0.874540
0.630762 0.557214 0.881132
0.704005 0.529412 0.889372
0.802304 0.502678 0.898528
0.910735 0.501549 0.900328
0.503563 0.585290 0.861875
0.515007 0.588373 0.863951
0.540246 0.587518 0.865537
0.575280 0.577569 0.869871
0.628748 0.561425 0.876799
0.701381 0.534020 0.885374
0.798520 0.504967 0.894133
0.907744 0.503990 0.896574
0.516930 0.610986 0.858152
0.526085 0.612573 0.859312
0.550195 0.611658 0.859495
0.595361 0.614832 0.868803
0.640925 0.597589 0.874723
0.706050 0.568933 0.882048
0.800076 0.540368 0.892271
0.909056 0.541588 0.896483
0.539055 0.654261 0.856657
0.548760 0.656672 0.858457
0.572961 0.657771 0.859861
0.619745 0.664912 0.866300
0.663600 0.655756 0.874083
0.721859 0.633448 0.883238
0.808896 0.605890 0.895354
0.915557 0.607752 0.901091
0.559289 0.728939 0.855924
0.568566 0.728847 0.857603
0.590143 0.721492 0.858305
0.628016 0.709316 0.861875
0.684108 0.715358 0.870085
0.735531 0.700893 0.880827
0.816892 0.679652 0.897063
0.919432 0.681025 0.902312
0.595483 0.819791 0.861570
0.599939 0.817350 0.861112
0.617578 0.810269 0.861082
0.650752 0.799466 0.863798
0.699489 0.785000 0.870146
0.768795 0.786587 0.886259
0.836057 0.775631 0.904143
0.924102 0.763241 0.904204
0.655207 0.907225 0.867765
0.658656 0.906584 0.868559
0.671321 0.904936 0.872221
0.697230 0.900694 0.878233
0.736538 0.887846 0.881773
0.786923 0.870512 0.887633
0.847623 0.852964 0.898039
0.924743 0.840238 0.901457
0.722835 0.914977 0.797604
0.725307 0.914427 0.798306
0.736690 0.914061 0.803250
0.759701 0.915282 0.814817
0.791012 0.916564 0.830564
0.829862 0.917967 0.850523
0.877775 0.920348 0.876463
0.957580 0.951965 0.941009
