其他预设/【223】英伦米色调色预设8款/1.LUT预设（视频调色-PR-AE-PS-FCPX-达芬奇用）/英伦米色__-3.cube
# Created by Adobe Lightroom plugin Export LUT (1.17.0)
# www.johnrellis.com/lightroom/exportlut.htm
# Preset: 英伦米色[素锦印象]-3
# Color profile: /Library/Application Support/Adobe/Color/Profiles/Recommended/AdobeRGB1998.icc
LUT_3D_SIZE 5
DOMAIN_MIN 0.000000 0.000000 0.000000
DOMAIN_MAX 0.903226 0.903226 0.903226
0.000000 0.000000 0.000000
0.190494 0.000000 0.000488
0.460365 0.000000 0.000000
0.778164 0.000000 0.000000
1.000000 0.000000 0.000000
0.113405 0.163607 0.000000
0.230808 0.190219 0.000000
0.483925 0.187961 0.000000
0.797757 0.156313 0.000000
1.000000 0.000000 0.000000
0.250278 0.374731 0.000000
0.274144 0.385962 0.000000
0.644190 0.559533 0.000000
0.851530 0.500237 0.000000
1.000000 0.437446 0.000000
0.417121 0.650996 0.000000
0.434150 0.659937 0.000000
0.598688 0.733791 0.000000
0.935180 0.835477 0.063752
1.000000 0.715908 0.134951
0.563775 0.892454 0.000000
0.572534 0.894896 0.000000
0.600153 0.898009 0.000000
0.838254 0.950469 0.000000
1.000000 0.958007 0.479774
0.085603 0.096071 0.154055
0.206210 0.071046 0.166384
0.448981 0.000000 0.174441
0.761135 0.000000 0.175021
0.994873 0.000000 0.177951
0.141207 0.187808 0.131868
0.230655 0.201205 0.167605
0.474159 0.195651 0.174533
0.776944 0.159731 0.177249
0.999664 0.059327 0.184665
0.285100 0.388830 0.157870
0.308659 0.400305 0.153079
0.607416 0.532311 0.193057
0.826658 0.493416 0.195438
1.000000 0.452979 0.219120
0.437079 0.656855 0.143465
0.454597 0.666133 0.133516
0.585595 0.725002 0.123018
0.923339 0.834562 0.328557
1.000000 0.729000 0.327764
0.579492 0.892149 0.179660
0.587060 0.894621 0.157961
0.618189 0.906462 0.000000
0.838407 0.951293 0.272343
1.000000 0.961456 0.555627
0.167422 0.212039 0.373663
0.251774 0.201022 0.386023
0.464057 0.148714 0.408118
0.730526 0.000000 0.430640
0.972961 0.065309 0.456641
0.229160 0.298680 0.374853
0.285344 0.288304 0.388342
0.474006 0.248814 0.408331
0.742336 0.230503 0.433051
0.976623 0.275975 0.472175
0.303349 0.437079 0.314794
0.355016 0.442298 0.333410
0.534081 0.492073 0.432380
0.788510 0.518608 0.479347
0.986084 0.537530 0.525109
0.474830 0.670497 0.342687
0.505516 0.672633 0.377813
0.567315 0.696559 0.399237
0.885863 0.833036 0.624659
0.997894 0.770565 0.606989
0.657069 0.884916 0.497475
0.664820 0.889036 0.495735
0.669612 0.902831 0.429450
0.820615 0.939422 0.512474
1.000000 0.968231 0.757290
0.275669 0.367803 0.655543
0.333532 0.361212 0.664118
0.498207 0.325322 0.684016
0.726711 0.268284 0.692744
0.932586 0.295933 0.684504
0.325322 0.428534 0.651606
0.366796 0.422126 0.659297
0.506279 0.388952 0.678676
0.726833 0.340124 0.687556
0.932403 0.371435 0.686427
0.373877 0.588251 0.646815
0.422522 0.578851 0.649714
0.547539 0.554192 0.665797
0.724544 0.509545 0.669734
0.940551 0.569848 0.712551
0.496529 0.714717 0.557183
0.528069 0.713954 0.568902
0.624109 0.719112 0.614527
0.798856 0.777737 0.741543
0.963928 0.799405 0.786252
0.700984 0.891539 0.634730
0.715999 0.893126 0.651606
0.764340 0.900389 0.703975
0.800565 0.916197 0.701045
0.999084 0.975769 0.893645
0.505180 0.582605 0.866789
0.532403 0.583612 0.868803
0.601801 0.567071 0.877897
0.726345 0.521233 0.892241
0.910735 0.501549 0.900328
0.516411 0.605951 0.861021
0.544427 0.608789 0.863249
0.612299 0.597528 0.872862
0.726436 0.550927 0.886381
0.910033 0.533410 0.897917
0.547814 0.688624 0.855772
0.570092 0.681117 0.856291
0.647028 0.685267 0.865080
0.740352 0.652766 0.881102
0.918578 0.644770 0.902983
0.615045 0.847990 0.868345
0.631556 0.841794 0.868406
0.690394 0.823972 0.873960
0.793423 0.807980 0.892943
0.923613 0.780941 0.902831
0.722835 0.914977 0.797604
0.732753 0.914031 0.801389
0.774594 0.916014 0.822324
0.840940 0.918486 0.856382
0.957580 0.951965 0.941009
