其他预设/【223】英伦米色调色预设8款/1.LUT预设（视频调色-PR-AE-PS-FCPX-达芬奇用）/英伦米色__-4.cube
# Created by Adobe Lightroom plugin Export LUT (1.17.0)
# www.johnrellis.com/lightroom/exportlut.htm
# Preset: 英伦米色[素锦印象]-4
# Color profile: /Library/Application Support/Adobe/Color/Profiles/Recommended/AdobeRGB1998.icc
LUT_3D_SIZE 5
DOMAIN_MIN 0.000000 0.000000 0.000000
DOMAIN_MAX 0.903226 0.903226 0.903226
0.000000 0.000000 0.000000
0.144625 0.000000 0.007172
0.362036 0.000000 0.000000
0.656611 0.000000 0.000000
0.949523 0.000000 0.000000
0.084230 0.133181 0.011841
0.176822 0.149874 0.000000
0.385595 0.147951 0.000000
0.674617 0.097841 0.000000
0.962707 0.000000 0.000000
0.199405 0.317632 0.000000
0.246677 0.333776 0.000000
0.535210 0.453864 0.000000
0.763363 0.431708 0.000000
0.976013 0.368017 0.000000
0.349859 0.564446 0.000000
0.366064 0.572778 0.000000
0.578271 0.671656 0.000000
0.890196 0.756283 0.000000
1.000000 0.644923 0.000000
0.511406 0.833249 0.000000
0.521508 0.835691 0.000000
0.598688 0.852567 0.000000
0.845090 0.915862 0.000000
1.000000 0.902953 0.375738
0.072663 0.114015 0.181460
0.175601 0.093629 0.188174
0.377050 0.000000 0.171725
0.667994 0.000000 0.137819
0.948211 0.000000 0.000000
0.123659 0.183658 0.158114
0.195651 0.189303 0.180179
0.401770 0.188876 0.170199
0.689815 0.175235 0.128542
0.955688 0.061067 0.000000
0.235386 0.344701 0.152743
0.256992 0.355932 0.146456
0.533715 0.464057 0.156374
0.757992 0.448432 0.072816
0.978363 0.406104 0.000000
0.372229 0.584314 0.071473
0.389227 0.593713 0.009613
0.584894 0.683040 0.000000
0.897307 0.771267 0.000000
1.000000 0.660273 0.011261
0.519127 0.840665 0.000000
0.528710 0.842832 0.000000
0.617273 0.869932 0.000000
0.851957 0.923461 0.000000
1.000000 0.909667 0.396094
0.166323 0.267002 0.430396
0.231083 0.258244 0.438514
0.419074 0.216770 0.448981
0.655879 0.168032 0.439796
0.930663 0.114687 0.443915
0.220218 0.331792 0.428473
0.269963 0.320226 0.433173
0.426795 0.281712 0.442054
0.671290 0.261326 0.439826
0.938140 0.257511 0.447150
0.286351 0.437568 0.374853
0.330449 0.433997 0.382666
0.476936 0.460975 0.438148
0.733394 0.487556 0.461402
0.961364 0.474861 0.447822
0.444739 0.626551 0.375128
0.472053 0.628412 0.401190
0.518029 0.653132 0.384253
0.861234 0.787716 0.556481
0.991455 0.703792 0.462593
0.595666 0.849088 0.419684
0.597803 0.853696 0.398962
0.602716 0.865721 0.291691
0.834562 0.923003 0.385290
1.000000 0.924681 0.492378
0.323400 0.461250 0.706477
0.365118 0.459815 0.711666
0.482979 0.436286 0.720546
0.676051 0.383032 0.722774
0.888334 0.399695 0.713344
0.362646 0.499092 0.700099
0.394965 0.496437 0.703304
0.496315 0.475959 0.712978
0.678096 0.425391 0.715785
0.887022 0.436378 0.707362
0.403052 0.613184 0.689631
0.440986 0.605158 0.689479
0.541741 0.583001 0.694545
0.685267 0.536034 0.694453
0.904326 0.580438 0.718227
0.502678 0.717708 0.628809
0.528069 0.713405 0.632380
0.609552 0.708888 0.652979
0.760433 0.746365 0.726864
0.944518 0.775906 0.762692
0.698482 0.867948 0.662989
0.710903 0.869413 0.674556
0.752102 0.875914 0.710719
0.763485 0.891936 0.656123
0.998535 0.957366 0.847105
0.606775 0.694667 0.892851
0.624628 0.697230 0.893797
0.674769 0.698970 0.899474
0.745113 0.676356 0.908202
0.872160 0.650172 0.916808
0.612970 0.705837 0.888548
0.629847 0.708003 0.889708
0.682094 0.713069 0.895842
0.746914 0.689265 0.904051
0.874327 0.666590 0.915312
0.634241 0.758236 0.886625
0.647608 0.753750 0.886870
0.701045 0.755032 0.891386
0.766445 0.744686 0.902159
0.884031 0.719844 0.913817
0.694362 0.865843 0.897459
0.703456 0.861479 0.896941
0.738430 0.848600 0.898863
0.805081 0.831174 0.905852
0.903166 0.805997 0.913939
0.754543 0.918334 0.850675
0.761044 0.916930 0.851713
0.792020 0.916930 0.861814
0.843870 0.914519 0.877928
0.942870 0.937285 0.929656
