其他预设/【223】英伦米色调色预设8款/1.LUT预设（视频调色-PR-AE-PS-FCPX-达芬奇用）/英伦米色__-2.cube
# Created by Adobe Lightroom plugin Export LUT (1.17.0)
# www.johnrellis.com/lightroom/exportlut.htm
# Preset: 英伦米色[素锦印象]-2
# Color profile: /Library/Application Support/Adobe/Color/Profiles/Recommended/AdobeRGB1998.icc
LUT_3D_SIZE 5
DOMAIN_MIN 0.000000 0.000000 0.000000
DOMAIN_MAX 0.903226 0.903226 0.903226
0.000000 0.000000 0.000000
0.208743 0.000000 0.000244
0.466346 0.000000 0.000000
0.748653 0.000000 0.000000
0.982879 0.000000 0.000000
0.123415 0.180972 0.000000
0.249943 0.208865 0.000000
0.486152 0.197910 0.000000
0.766506 0.177615 0.000000
0.992828 0.087068 0.000000
0.258427 0.389776 0.000000
0.281041 0.400183 0.000000
0.622980 0.556756 0.000000
0.817258 0.499092 0.000000
1.000000 0.447547 0.000000
0.408087 0.641474 0.000000
0.423224 0.649744 0.000000
0.575463 0.719478 0.000000
0.906371 0.825528 0.156863
1.000000 0.719081 0.185306
0.547692 0.877775 0.000000
0.555840 0.880491 0.000000
0.581506 0.884215 0.000000
0.819028 0.943786 0.138552
1.000000 0.956695 0.480171
0.090791 0.105653 0.172335
0.224033 0.079164 0.185672
0.453864 0.000000 0.191226
0.730770 0.000000 0.201816
0.966857 0.000000 0.209110
0.154238 0.206668 0.147707
0.247990 0.220584 0.187167
0.474678 0.219730 0.196902
0.745022 0.206332 0.206607
0.972534 0.160952 0.216587
0.296696 0.401892 0.181918
0.318212 0.412482 0.178073
0.588434 0.532341 0.225864
0.791531 0.496712 0.230838
0.989990 0.466133 0.250248
0.429877 0.646357 0.187900
0.445411 0.654994 0.180972
0.564599 0.710719 0.179660
0.894041 0.824338 0.350286
1.000000 0.730953 0.346593
0.563165 0.877623 0.225071
0.570367 0.880308 0.208774
0.600244 0.893248 0.139742
0.818936 0.944854 0.298528
1.000000 0.959960 0.550011
0.187961 0.230594 0.389624
0.264225 0.222263 0.401068
0.461860 0.185641 0.421454
0.699886 0.157748 0.437598
0.943664 0.174533 0.467964
0.247013 0.314702 0.390417
0.299290 0.306981 0.402838
0.469825 0.275090 0.421027
0.710079 0.274388 0.442084
0.948638 0.304845 0.481544
0.316320 0.445502 0.333318
0.362921 0.450141 0.351537
0.520531 0.496132 0.443488
0.753140 0.522393 0.486549
0.962829 0.538109 0.527276
0.466560 0.658564 0.363104
0.493721 0.660639 0.394903
0.548730 0.683436 0.414466
0.856748 0.821592 0.618524
0.982116 0.764401 0.601038
0.632013 0.871885 0.501488
0.639673 0.876341 0.499825
0.646693 0.890684 0.439643
0.797391 0.932525 0.513146
1.000000 0.966064 0.744381
0.292454 0.381415 0.648096
0.341070 0.376684 0.656092
0.484627 0.347478 0.674891
0.693751 0.305486 0.683253
0.902312 0.323064 0.684230
0.334936 0.436713 0.644404
0.370855 0.432013 0.651575
0.492561 0.404150 0.669825
0.693690 0.365393 0.678370
0.902739 0.386664 0.685664
0.376043 0.582574 0.640009
0.418463 0.574334 0.642756
0.528862 0.552636 0.657862
0.691371 0.513542 0.662013
0.915251 0.562402 0.707759
0.483406 0.700252 0.557885
0.511284 0.699825 0.568658
0.597314 0.705623 0.610407
0.765194 0.764218 0.730983
0.948425 0.785611 0.775204
0.669429 0.880522 0.627771
0.683833 0.882536 0.643671
0.731472 0.891234 0.693568
0.770291 0.908507 0.690455
0.995575 0.973754 0.886717
0.482765 0.579248 0.856748
0.507805 0.579522 0.858915
0.575860 0.564111 0.868498
0.699519 0.521355 0.883604
0.885374 0.499825 0.892546
0.492897 0.601373 0.850858
0.518364 0.603204 0.853330
0.584344 0.592096 0.863462
0.698604 0.548486 0.877592
0.884703 0.528771 0.890166
0.520378 0.680568 0.845884
0.541192 0.672786 0.846464
0.613306 0.674464 0.856016
0.709224 0.642664 0.872801
0.895567 0.631678 0.896300
0.579278 0.837552 0.860014
0.595361 0.831327 0.860105
0.653101 0.813199 0.866026
0.758968 0.794888 0.886381
0.903593 0.765499 0.897154
0.685298 0.907042 0.789120
0.695338 0.906157 0.792721
0.738613 0.908904 0.813352
0.810513 0.912047 0.847990
0.946532 0.947997 0.937499
