其他预设/【223】英伦米色调色预设8款/1.LUT预设（视频调色-PR-AE-PS-FCPX-达芬奇用）/英伦米色__-2.cube
# Created by Adobe Lightroom plugin Export LUT (1.17.0)
# www.johnrellis.com/lightroom/exportlut.htm
# Preset: 英伦米色[素锦印象]-2
# Color profile: /Library/Application Support/Adobe/Color/Profiles/Recommended/AdobeRGB1998.icc
LUT_3D_SIZE 32
0.000000 0.000000 0.000000
0.007935 0.000000 0.000977
0.045594 0.000000 0.000305
0.083406 0.000000 0.001160
0.113252 0.000000 0.002258
0.143496 0.000000 0.003143
0.175570 0.000000 0.001312
0.208743 0.000000 0.000244
0.242985 0.000000 0.000000
0.278264 0.000000 0.000000
0.314214 0.000000 0.000000
0.351354 0.000000 0.000000
0.388861 0.000000 0.000000
0.427436 0.000000 0.000000
0.466346 0.000000 0.000000
0.505547 0.000000 0.000000
0.545312 0.000000 0.000000
0.585718 0.000000 0.000000
0.625177 0.000000 0.000000
0.664851 0.000000 0.000000
0.704646 0.000000 0.000000
0.748653 0.000000 0.000000
0.791318 0.000000 0.000000
0.829496 0.000000 0.000000
0.864012 0.000000 0.000000
0.895964 0.000000 0.000000
0.926238 0.000000 0.000000
0.955169 0.000000 0.000000
0.982879 0.000000 0.000000
1.000000 0.000000 0.000000
1.000000 0.000000 0.000000
1.000000 0.000000 0.080110
0.002869 0.006531 0.000458
0.012024 0.007385 0.000153
0.049866 0.003296 0.000549
0.084169 0.000000 0.000763
0.114137 0.000000 0.001373
0.144320 0.000000 0.002045
0.176059 0.000000 0.001404
0.208621 0.000000 0.000305
0.242771 0.000000 0.000000
0.277562 0.000000 0.000000
0.313268 0.000000 0.000000
0.349859 0.000000 0.000000
0.387396 0.000000 0.000000
0.425391 0.000000 0.000000
0.463935 0.000000 0.000000
0.502800 0.000000 0.000000
0.542229 0.000000 0.000000
0.582452 0.000000 0.000000
0.621820 0.000000 0.000000
0.661524 0.000000 0.000000
0.701381 0.000000 0.000000
0.745052 0.000000 0.000000
0.787076 0.000000 0.000000
0.824887 0.000000 0.000000
0.859434 0.000000 0.000000
0.891569 0.000000 0.000000
0.922179 0.000000 0.000000
0.951537 0.000000 0.000000
0.979614 0.000000 0.000000
1.000000 0.000000 0.000000
1.000000 0.000000 0.000000
1.000000 0.000000 0.076143
0.014160 0.033936 0.002258
0.020325 0.038819 0.000610
0.056886 0.038148 0.000000
0.086000 0.032258 0.001129
0.115694 0.021912 0.001740
0.145876 0.008881 0.001190
0.176974 0.000000 0.000000
0.209354 0.000000 0.000000
0.242985 0.000000 0.000000
0.277623 0.000000 0.000000
0.313146 0.000000 0.000000
0.349523 0.000000 0.000000
0.386694 0.000000 0.000000
0.424903 0.000000 0.000000
0.463264 0.000000 0.000000
0.501854 0.000000 0.000000
0.541009 0.000000 0.000000
0.581048 0.000000 0.000000
0.620386 0.000000 0.000000
0.660060 0.000000 0.000000
0.700038 0.000000 0.000000
0.743801 0.000000 0.000000
0.785336 0.000000 0.000000
0.822843 0.000000 0.000000
0.857328 0.000000 0.000000
0.889464 0.000000 0.000000
0.920165 0.000000 0.000000
0.949706 0.000000 0.000000
0.978058 0.000000 0.000000
1.000000 0.000000 0.000000
1.000000 0.000000 0.000000
1.000000 0.000000 0.074281
0.044617 0.072663 0.003601
0.049989 0.074250 0.000885
0.063416 0.075319 0.000000
0.091249 0.074983 0.000946
0.119936 0.071443 0.000427
0.149691 0.067048 0.000000
0.180301 0.061250 0.000000
0.212314 0.049470 0.000000
0.245426 0.028229 0.000000
0.279667 0.004608 0.000000
0.314855 0.000000 0.000000
0.350958 0.000000 0.000000
0.387762 0.000000 0.000000
0.425452 0.000000 0.000000
0.463447 0.000000 0.000000
0.501732 0.000000 0.000000
0.540703 0.000000 0.000000
0.580377 0.000000 0.000000
0.619287 0.000000 0.000000
0.658564 0.000000 0.000000
0.698207 0.000000 0.000000
0.741939 0.000000 0.000000
0.782650 0.000000 0.000000
0.820371 0.000000 0.000000
0.855497 0.000000 0.000000
0.888457 0.000000 0.000000
0.919829 0.000000 0.000000
0.949767 0.000000 0.000000
0.978149 0.000000 0.000000
1.000000 0.000000 0.000000
1.000000 0.000000 0.000000
1.000000 0.000000 0.073732
0.067567 0.097902 0.004700
0.070283 0.099001 0.003021
0.073671 0.100221 0.000153
0.094636 0.101350 0.000000
0.125338 0.103273 0.000000
0.156100 0.101747 0.000000
0.185092 0.097658 0.000000
0.216129 0.094118 0.000000
0.248661 0.089784 0.000000
0.282231 0.085267 0.000000
0.316991 0.079286 0.000000
0.352728 0.073365 0.000000
0.389197 0.065766 0.000000
0.426429 0.054108 0.000000
0.464179 0.019623 0.000000
0.502617 0.000000 0.000000
0.541863 0.000000 0.000000
0.581659 0.000000 0.000000
0.620783 0.000000 0.000000
0.659785 0.000000 0.000000
0.700099 0.000000 0.000000
0.742794 0.000000 0.000000
0.782559 0.000000 0.000000
0.819791 0.000000 0.000000
0.854734 0.000000 0.000000
0.887694 0.000000 0.000000
0.919036 0.000000 0.000000
0.948913 0.000000 0.000000
0.977234 0.000000 0.000000
1.000000 0.000000 0.000000
1.000000 0.000000 0.000000
1.000000 0.000000 0.072938
0.085359 0.123354 0.003571
0.087251 0.124575 0.001740
0.089967 0.125734 0.000000
0.100710 0.127657 0.000000
0.128511 0.129885 0.000000
0.162722 0.134493 0.000000
0.195499 0.134829 0.000000
0.224125 0.131014 0.000000
0.255070 0.128267 0.000000
0.288060 0.125826 0.000000
0.322301 0.123720 0.000000
0.357580 0.120882 0.000000
0.393469 0.117556 0.000000
0.430213 0.112551 0.000000
0.467750 0.106386 0.000000
0.506096 0.099763 0.000000
0.545403 0.091737 0.000000
0.585168 0.080598 0.000000
0.623926 0.065766 0.000000
0.662989 0.032807 0.000000
0.705013 0.000000 0.000000
0.746914 0.000000 0.000000
0.816831 0.000000 0.000000
0.853147 0.000000 0.000000
0.885954 0.000000 0.000000
0.916228 0.000000 0.000000
0.944488 0.000000 0.000000
0.971283 0.000000 0.000000
0.996643 0.000000 0.000000
1.000000 0.000000 0.000000
1.000000 0.000000 0.044099
1.000000 0.000000 0.097200
0.105104 0.153750 0.000000
0.106691 0.154360 0.000000
0.109010 0.155367 0.000000
0.114168 0.157748 0.000000
0.138460 0.161074 0.000000
0.169467 0.165225 0.000000
0.208286 0.172976 0.000000
0.243717 0.174502 0.000000
0.272679 0.170718 0.000000
0.302586 0.167453 0.000000
0.336767 0.165866 0.000000
0.371954 0.164096 0.000000
0.407691 0.162142 0.000000
0.444221 0.159335 0.000000
0.481147 0.156161 0.000000
0.518700 0.152743 0.000000
0.557366 0.148745 0.000000
0.596277 0.143404 0.000000
0.634668 0.137575 0.000000
0.674769 0.130739 0.000000
0.720577 0.124636 0.000000
0.764736 0.115724 0.000000
0.806607 0.105531 0.000000
0.845609 0.090608 0.000000
0.881102 0.070588 0.000000
0.912932 0.010773 0.000000
0.941955 0.000000 0.000000
0.969085 0.000000 0.000000
0.994690 0.000000 0.000000
1.000000 0.000000 0.000000
1.000000 0.000000 0.035462
1.000000 0.000000 0.095064
0.123415 0.180972 0.000000
0.124941 0.181582 0.000000
0.126833 0.182559 0.000000
0.131167 0.184268 0.000000
0.145510 0.187503 0.000000
0.174563 0.192538 0.000000
0.208316 0.198550 0.000000
0.249943 0.208865 0.000000
0.286809 0.211551 0.000000
0.315709 0.207340 0.000000
0.345647 0.204044 0.000000
0.378393 0.202060 0.000000
0.413611 0.200931 0.000000
0.449592 0.199588 0.000000
0.486152 0.197910 0.000000
0.523278 0.195712 0.000000
0.561730 0.193851 0.000000
0.600122 0.191226 0.000000
0.638025 0.187655 0.000000
0.680781 0.185214 0.000000
0.724178 0.182254 0.000000
0.766506 0.177615 0.000000
0.806943 0.172061 0.000000
0.844816 0.164675 0.000000
0.879606 0.155734 0.000000
0.911101 0.144320 0.000000
0.940002 0.130220 0.000000
0.967163 0.112612 0.000000
0.992828 0.087068 0.000000
1.000000 0.018463 0.000000
1.000000 0.000000 0.031861
1.000000 0.000000 0.094972
0.142336 0.209476 0.000000
0.143801 0.209995 0.000000
0.145449 0.210575 0.000000
0.149081 0.212253 0.000000
0.155215 0.214664 0.000000
0.180850 0.219883 0.000000
0.212467 0.226505 0.000000
0.248692 0.234287 0.000000
0.293828 0.246983 0.000000
0.332158 0.250950 0.000000
0.361608 0.247257 0.000000
0.391669 0.243534 0.000000
0.422248 0.240269 0.000000
0.457801 0.239567 0.000000
0.493782 0.238743 0.000000
0.530663 0.237858 0.000000
0.568658 0.236881 0.000000
0.606409 0.234867 0.000000
0.646418 0.234012 0.000000
0.688045 0.233005 0.000000
0.729610 0.231540 0.000000
0.770291 0.228519 0.000000
0.809354 0.224613 0.000000
0.846098 0.219608 0.000000
0.880095 0.213077 0.000000
0.911070 0.204471 0.000000
0.939635 0.194919 0.000000
0.966522 0.183780 0.000000
0.992065 0.169284 0.000000
1.000000 0.152163 0.000000
1.000000 0.133852 0.030793
1.000000 0.116152 0.095766
0.161501 0.238193 0.000000
0.162600 0.238743 0.000000
0.164004 0.239322 0.000000
0.167208 0.240482 0.000000
0.172274 0.242618 0.000000
0.187716 0.246555 0.000000
0.217166 0.253330 0.000000
0.251347 0.261631 0.000000
0.290349 0.271672 0.000000
0.338201 0.286931 0.000000
0.378668 0.292302 0.000000
0.408331 0.288212 0.000000
0.438453 0.284428 0.000000
0.469093 0.281285 0.000000
0.502617 0.279576 0.000000
0.540002 0.279606 0.000000
0.578027 0.279606 0.000000
0.618524 0.280278 0.000000
0.658076 0.280003 0.000000
0.697841 0.279393 0.000000
0.737026 0.277806 0.000000
0.775204 0.275212 0.000000
0.811887 0.271550 0.000000
0.846647 0.266941 0.000000
0.879332 0.261479 0.000000
0.909667 0.254429 0.000000
0.938170 0.246281 0.000000
0.965332 0.237217 0.000000
0.991211 0.226413 0.000000
1.000000 0.213657 0.000000
1.000000 0.201266 0.035706
1.000000 0.190066 0.099306
0.179660 0.266148 0.000000
0.180728 0.266697 0.000000
0.182101 0.267277 0.000000
0.184939 0.268437 0.000000
0.189425 0.270237 0.000000
0.195712 0.272770 0.000000
0.223026 0.280125 0.000000
0.255344 0.289067 0.000000
0.292454 0.299626 0.000000
0.334356 0.311864 0.000000
0.385809 0.330114 0.000000
0.427924 0.337133 0.000000
0.457771 0.332647 0.000000
0.487861 0.328496 0.000000
0.518761 0.325231 0.000000
0.551324 0.322698 0.000000
0.590997 0.324407 0.000000
0.629450 0.324559 0.000000
0.667201 0.324102 0.000000
0.705348 0.323247 0.000000
0.742947 0.321691 0.000000
0.779843 0.319585 0.000000
0.815549 0.316350 0.000000
0.849424 0.312230 0.000000
0.881315 0.306950 0.000000
0.910948 0.300511 0.000000
0.938811 0.292882 0.000000
0.965423 0.284764 0.000000
0.990936 0.275517 0.000000
1.000000 0.264286 0.000000
1.000000 0.253788 0.045655
1.000000 0.244755 0.102449
0.198581 0.295384 0.000000
0.199557 0.295720 0.000000
0.200778 0.296239 0.000000
0.203159 0.297276 0.000000
0.207309 0.299016 0.000000
0.212802 0.301396 0.000000
0.229191 0.306798 0.000000
0.260380 0.316197 0.000000
0.295781 0.327459 0.000000
0.335943 0.340520 0.000000
0.380652 0.355169 0.000000
0.436133 0.377142 0.000000
0.498390 0.401282 0.000000
0.532555 0.398779 0.000000
0.567864 0.397040 0.000000
0.601526 0.393927 0.000000
0.633814 0.389746 0.000000
0.667536 0.386450 0.000000
0.703304 0.384314 0.000000
0.738521 0.381689 0.000000
0.773129 0.378637 0.000000
0.806546 0.374578 0.000000
0.838560 0.369818 0.000000
0.869169 0.364355 0.000000
0.898039 0.357977 0.000000
0.925261 0.350927 0.000000
0.951049 0.342931 0.000000
0.975616 0.334447 0.000000
0.999329 0.325322 0.000000
1.000000 0.315007 0.000000
1.000000 0.305425 0.072541
1.000000 0.297124 0.117189
0.220981 0.330297 0.000000
0.221714 0.330663 0.000000
0.222538 0.330846 0.000000
0.224735 0.331426 0.000000
0.227970 0.332555 0.000000
0.232670 0.334112 0.000000
0.238834 0.336522 0.000000
0.267582 0.345922 0.000000
0.301915 0.357855 0.000000
0.341344 0.372137 0.000000
0.385840 0.389044 0.000000
0.437903 0.410285 0.000000
0.504631 0.442267 0.000000
0.559503 0.458625 0.000000
0.593683 0.455177 0.000000
0.625544 0.450080 0.000000
0.655543 0.443458 0.000000
0.683803 0.436133 0.000000
0.711086 0.428412 0.000000
0.744472 0.424842 0.000000
0.777340 0.420966 0.000000
0.809506 0.416480 0.000000
0.840330 0.411414 0.000000
0.869963 0.405646 0.000000
0.898161 0.399084 0.000000
0.924804 0.391821 0.000000
0.950195 0.383948 0.000000
0.974578 0.375769 0.000000
0.998169 0.366735 0.000000
1.000000 0.357092 0.000000
1.000000 0.347845 0.076783
1.000000 0.340154 0.121553
0.239445 0.359472 0.000000
0.239963 0.359716 0.000000
0.240879 0.359960 0.000000
0.242802 0.360571 0.000000
0.245701 0.361303 0.000000
0.250004 0.362829 0.000000
0.255619 0.365179 0.000000
0.272648 0.371435 0.000000
0.305608 0.383948 0.000000
0.344396 0.400214 0.000000
0.388861 0.419440 0.000000
0.439429 0.441962 0.000000
0.496010 0.467109 0.000000
0.566400 0.501854 0.000000
0.618189 0.514549 0.000000
0.648798 0.507103 0.000000
0.676387 0.497902 0.000000
0.702266 0.488167 0.000000
0.727565 0.478340 0.000000
0.753109 0.469337 0.000000
0.782040 0.462959 0.000000
0.813230 0.458076 0.000000
0.843168 0.452522 0.000000
0.872129 0.446540 0.000000
0.899657 0.439734 0.000000
0.925811 0.432258 0.000000
0.950866 0.424353 0.000000
0.974914 0.415869 0.000000
0.998230 0.407141 0.000000
1.000000 0.397833 0.000000
1.000000 0.389075 0.085389
1.000000 0.381567 0.129366
0.258427 0.389776 0.000000
0.259129 0.390234 0.000000
0.259861 0.390478 0.000000
0.261906 0.391302 0.000000
0.264805 0.392523 0.000000
0.268864 0.394263 0.000000
0.274388 0.396826 0.000000
0.281041 0.400183 0.000000
0.312169 0.413245 0.000000
0.349310 0.429480 0.000000
0.391669 0.448737 0.000000
0.439887 0.471199 0.000000
0.493843 0.496529 0.000000
0.553033 0.523400 0.000000
0.622980 0.556756 0.000000
0.670680 0.564996 0.000000
0.697383 0.553765 0.000000
0.721218 0.541283 0.000000
0.744564 0.529259 0.000000
0.768490 0.518517 0.000000
0.792660 0.508415 0.000000
0.817258 0.499092 0.000000
0.846311 0.493141 0.000000
0.874449 0.486610 0.000000
0.901457 0.479530 0.000000
0.927398 0.472114 0.000000
0.952483 0.464210 0.000000
0.976684 0.456123 0.000000
1.000000 0.447547 0.000000
1.000000 0.438788 0.018433
1.000000 0.430579 0.100679
1.000000 0.423468 0.142794
0.280247 0.425147 0.000000
0.281163 0.425727 0.000000
0.281743 0.426001 0.000000
0.283513 0.426734 0.000000
0.286320 0.427863 0.000000
0.290166 0.429603 0.000000
0.295201 0.432074 0.000000
0.301610 0.435431 0.000000
0.320104 0.444068 0.000000
0.355566 0.460304 0.000000
0.396490 0.479500 0.000000
0.442145 0.501396 0.000000
0.492256 0.524834 0.000000
0.546746 0.549401 0.000000
0.604974 0.574243 0.000000
0.671992 0.604089 0.000000
0.715053 0.608057 0.000000
0.739284 0.594690 0.000000
0.761685 0.580865 0.000000
0.784665 0.568658 0.000000
0.807980 0.557427 0.000000
0.831479 0.546929 0.000000
0.854643 0.536553 0.000000
0.879820 0.527977 0.000000
0.906249 0.520684 0.000000
0.931731 0.512871 0.000000
0.956268 0.504601 0.000000
0.979980 0.496315 0.000000
1.000000 0.487526 0.000000
1.000000 0.478553 0.059785
1.000000 0.470100 0.114290
1.000000 0.462898 0.155337
0.300664 0.458625 0.000000
0.301244 0.458900 0.000000
0.301946 0.459052 0.000000
0.303441 0.459724 0.000000
0.305882 0.460700 0.000000
0.309392 0.462226 0.000000
0.314122 0.464424 0.000000
0.319799 0.467323 0.000000
0.326909 0.471046 0.000000
0.359503 0.486580 0.000000
0.398413 0.505730 0.000000
0.441901 0.527123 0.000000
0.489357 0.549950 0.000000
0.540398 0.573480 0.000000
0.595087 0.597375 0.000000
0.652369 0.620508 0.000000
0.715877 0.646387 0.000000
0.755276 0.646906 0.000000
0.777920 0.632502 0.000000
0.799466 0.618219 0.000000
0.821347 0.605280 0.000000
0.843503 0.593164 0.000000
0.865354 0.581567 0.000000
0.887144 0.570397 0.000000
0.908934 0.559594 0.000000
0.933959 0.551568 0.000000
0.958190 0.543175 0.000000
0.981659 0.534630 0.000000
1.000000 0.525719 0.002808
1.000000 0.516808 0.079316
1.000000 0.508385 0.128237
1.000000 0.501183 0.168765
0.321324 0.492958 0.000000
0.322210 0.493660 0.000000
0.333318 0.511162 0.000000
0.334722 0.511650 0.000000
0.336980 0.512383 0.000000
0.340032 0.513359 0.000000
0.343999 0.514916 0.000000
0.349157 0.517052 0.000000
0.355505 0.519951 0.000000
0.374609 0.529473 0.000000
0.412146 0.548028 0.000000
0.454108 0.568536 0.000000
0.499092 0.589807 0.000000
0.547906 0.612055 0.000000
0.599542 0.634302 0.000000
0.653315 0.655665 0.000000
0.709285 0.676020 0.000000
0.768429 0.696712 0.000000
0.803494 0.692958 0.000000
0.823819 0.676326 0.000000
0.843290 0.660304 0.000000
0.863096 0.645686 0.000000
0.883024 0.631922 0.000000
0.902770 0.618769 0.000000
0.921965 0.605829 0.000000
0.941070 0.593194 0.008331
0.961944 0.582361 0.022431
0.984070 0.572839 0.043854
1.000000 0.563287 0.058412
1.000000 0.554070 0.097536
1.000000 0.545556 0.142519
1.000000 0.538262 0.182040
0.344884 0.532616 0.000000
0.346838 0.535210 0.000000
0.348913 0.537896 0.000000
0.351629 0.540520 0.000000
0.354711 0.543023 0.000000
0.358160 0.544793 0.000000
0.362005 0.546471 0.000000
0.366705 0.548394 0.000000
0.372564 0.551202 0.000000
0.379675 0.554498 0.000000
0.412909 0.571160 0.000000
0.452399 0.590661 0.000000
0.495125 0.611048 0.000000
0.540917 0.632227 0.000000
0.589288 0.653071 0.000000
0.639796 0.673457 0.000000
0.692256 0.692836 0.000000
0.746700 0.711391 0.000000
0.802640 0.729091 0.000000
0.835752 0.724056 0.000000
0.854978 0.707118 0.000000
0.874266 0.691402 0.016022
0.893339 0.676539 0.051484
0.912261 0.662409 0.067079
0.930816 0.648676 0.072450
0.949157 0.635248 0.076967
0.967498 0.622370 0.076875
0.986175 0.610132 0.077028
1.000000 0.600366 0.084993
1.000000 0.590784 0.116793
1.000000 0.582116 0.158633
1.000000 0.574792 0.197665
0.364080 0.565545 0.000000
0.365972 0.568048 0.000000
0.367864 0.570489 0.000000
0.370367 0.573053 0.000000
0.373236 0.575311 0.000000
0.376440 0.576989 0.000000
0.380102 0.578546 0.000000
0.384558 0.580438 0.000000
0.390021 0.582879 0.000000
0.396490 0.585931 0.000000
0.414984 0.595209 0.000000
0.452430 0.613886 0.000000
0.493019 0.633478 0.000000
0.536370 0.653529 0.000000
0.581964 0.673274 0.000000
0.629450 0.692470 0.000000
0.679164 0.711116 0.000000
0.730343 0.728878 0.000000
0.783627 0.745998 0.000000
0.836576 0.760800 0.020111
0.867277 0.754421 0.083497
0.885618 0.737301 0.087739
0.904082 0.721279 0.092653
0.922118 0.706081 0.102052
0.939727 0.691310 0.107027
0.957122 0.676997 0.110414
0.974456 0.663081 0.110964
0.991974 0.649928 0.109895
1.000000 0.637201 0.109194
1.000000 0.626520 0.134737
1.000000 0.617639 0.174777
1.000000 0.610101 0.213413
0.383398 0.598901 0.000000
0.385046 0.601190 0.000000
0.386969 0.603632 0.000000
0.389410 0.606073 0.000000
0.392065 0.608179 0.000000
0.395056 0.609735 0.000000
0.398474 0.611109 0.000000
0.402502 0.612757 0.000000
0.407507 0.614862 0.000000
0.413458 0.617609 0.000000
0.420447 0.620874 0.000000
0.452888 0.637079 0.000000
0.491310 0.655421 0.000000
0.532280 0.674342 0.000000
0.575830 0.693385 0.000000
0.621363 0.712215 0.000000
0.669215 0.730770 0.000000
0.718929 0.748898 0.000000
0.770596 0.766567 0.000000
0.823972 0.783444 0.000000
0.873960 0.795743 0.111025
0.903136 0.788449 0.140932
0.920195 0.770809 0.144350
0.937804 0.754604 0.147280
0.954711 0.738949 0.152193
0.971160 0.723690 0.155520
0.987427 0.708858 0.156771
1.000000 0.694667 0.156771
1.000000 0.680964 0.156222
1.000000 0.668177 0.173434
1.000000 0.657343 0.205875
1.000000 0.650019 0.244175
0.408087 0.641474 0.000000
0.409064 0.642634 0.000000
0.410132 0.643702 0.000000
0.411719 0.644800 0.000000
0.413703 0.645930 0.000000
0.416144 0.646876 0.000000
0.419257 0.648066 0.000000
0.423224 0.649744 0.000000
0.428046 0.651942 0.000000
0.433906 0.654810 0.000000
0.440620 0.658137 0.000000
0.458259 0.666773 0.000000
0.495155 0.684199 0.000000
0.534264 0.701869 0.000000
0.575463 0.719478 0.000000
0.618860 0.737057 0.000000
0.664118 0.754391 0.000000
0.711269 0.771267 0.000000
0.759945 0.787533 0.000000
0.809964 0.802976 0.014588
0.861112 0.817441 0.099428
0.906371 0.825528 0.156863
0.931975 0.815946 0.182406
0.946441 0.796933 0.183261
0.962371 0.779965 0.183169
0.978058 0.763882 0.184329
0.993530 0.748318 0.185641
1.000000 0.733394 0.186343
1.000000 0.719081 0.185306
1.000000 0.705715 0.203037
1.000000 0.694087 0.232090
1.000000 0.685023 0.264927
0.427253 0.675044 0.000000
0.428229 0.676173 0.000000
0.429267 0.677333 0.000000
0.430732 0.678309 0.000000
0.432685 0.679347 0.000000
0.434974 0.680110 0.000000
0.437751 0.681025 0.000000
0.441199 0.682277 0.000000
0.445655 0.684047 0.000000
0.450904 0.686397 0.000000
0.457099 0.689296 0.000000
0.464027 0.692470 0.000000
0.494697 0.706691 0.000000
0.532250 0.723445 0.000000
0.571771 0.740261 0.000000
0.613275 0.757015 0.000000
0.656580 0.773556 0.000000
0.701595 0.789700 0.000000
0.748104 0.805356 0.000000
0.795834 0.820218 0.015839
0.844785 0.834287 0.101778
0.894285 0.847288 0.146670
0.935424 0.852323 0.198032
0.958770 0.841672 0.222599
0.968109 0.818784 0.213931
0.983062 0.801785 0.212406
0.997925 0.785580 0.211856
1.000000 0.770047 0.212436
1.000000 0.755154 0.211490
1.000000 0.741512 0.229831
1.000000 0.730129 0.259953
1.000000 0.721431 0.293645
0.450507 0.715053 0.000000
0.451606 0.716274 0.000000
0.452369 0.717128 0.000000
0.453651 0.717678 0.000000
0.455085 0.718135 0.000000
0.456916 0.718379 0.000000
0.459297 0.718746 0.000000
0.462135 0.719203 0.000000
0.465766 0.720058 0.000000
0.470192 0.721370 0.000000
0.475349 0.723018 0.000000
0.481422 0.725216 0.000000
0.496529 0.731472 0.000000
0.531731 0.746273 0.000000
0.568841 0.761166 0.000000
0.607843 0.775937 0.000000
0.648371 0.790646 0.000000
0.690669 0.805264 0.000000
0.734890 0.819883 0.000000
0.780514 0.834195 0.000000
0.827298 0.847837 0.092561
0.874510 0.860410 0.140230
0.921874 0.871672 0.180392
0.958618 0.873381 0.230167
0.978912 0.861143 0.252873
0.989593 0.840665 0.249210
1.000000 0.823484 0.245914
1.000000 0.806973 0.243259
1.000000 0.791379 0.241032
1.000000 0.777493 0.261723
1.000000 0.765957 0.291661
1.000000 0.757595 0.326360
0.468360 0.745968 0.000000
0.469429 0.747158 0.000000
0.470192 0.747982 0.000000
0.471321 0.748531 0.000000
0.472633 0.748959 0.000000
0.474434 0.749294 0.000000
0.476722 0.749691 0.000000
0.479591 0.750332 0.000000
0.483070 0.751369 0.000000
0.487434 0.752834 0.000000
0.492470 0.754665 0.000000
0.498268 0.756924 0.000000
0.504753 0.759396 0.000000
0.533074 0.770962 0.000000
0.568872 0.785000 0.000000
0.606165 0.798917 0.000000
0.645228 0.812711 0.000000
0.685756 0.826413 0.000000
0.727901 0.839933 0.000000
0.771328 0.853147 0.000000
0.815793 0.865690 0.096376
0.860807 0.877348 0.144320
0.905882 0.887816 0.184024
0.950591 0.896971 0.222171
0.982605 0.895506 0.269963
1.000000 0.882170 0.291997
1.000000 0.861326 0.286778
1.000000 0.844358 0.282506
1.000000 0.828153 0.278233
1.000000 0.814084 0.301335
1.000000 0.802518 0.331914
1.000000 0.794308 0.367834
0.487617 0.779019 0.000000
0.488411 0.779812 0.000000
0.489052 0.780240 0.000000
0.489815 0.780453 0.000000
0.490883 0.780514 0.000000
0.492409 0.780514 0.000000
0.494423 0.780728 0.000000
0.496986 0.781155 0.000000
0.500145 0.782010 0.000000
0.504234 0.783322 0.000000
0.508995 0.785061 0.000000
0.514549 0.787350 0.000000
0.520745 0.789761 0.000000
0.534234 0.794980 0.000000
0.568414 0.807797 0.000000
0.604120 0.820554 0.000000
0.641413 0.833097 0.000000
0.680079 0.845609 0.000000
0.720180 0.858000 0.000000
0.761654 0.870115 0.000000
0.803983 0.881712 0.089265
0.847013 0.892454 0.140505
0.889952 0.902098 0.181704
0.932677 0.910674 0.220188
0.974670 0.917998 0.257237
1.000000 0.913664 0.304417
1.000000 0.899504 0.326116
1.000000 0.878843 0.319860
1.000000 0.861936 0.314122
1.000000 0.847532 0.337804
1.000000 0.835843 0.369024
1.000000 0.827207 0.404211
0.505425 0.809354 0.000000
0.505974 0.809873 0.000000
0.506523 0.810239 0.000000
0.507378 0.810544 0.000000
0.508598 0.810941 0.000000
0.510430 0.811582 0.000000
0.512993 0.812894 0.000000
0.516350 0.814603 0.000000
0.520378 0.816892 0.000000
0.525139 0.819638 0.000000
0.530694 0.822721 0.000000
0.536767 0.826047 0.000000
0.543297 0.829343 0.000000
0.550195 0.832486 0.000000
0.576471 0.841947 0.000000
0.610986 0.853330 0.000000
0.646998 0.864561 0.000000
0.684016 0.875456 0.000000
0.722438 0.886229 0.000000
0.761898 0.896666 0.035554
0.802060 0.906554 0.115694
0.842618 0.915648 0.161959
0.883177 0.923796 0.201511
0.923522 0.930907 0.239353
0.963134 0.936980 0.277043
1.000000 0.942016 0.314580
1.000000 0.934295 0.360174
1.000000 0.919097 0.381140
1.000000 0.899016 0.378058
1.000000 0.883665 0.398169
1.000000 0.871305 0.425727
1.000000 0.862181 0.458869
0.529564 0.848264 0.000000
0.529961 0.848600 0.000000
0.530358 0.848692 0.000000
0.530968 0.848722 0.000000
0.531884 0.848814 0.000000
0.533227 0.849058 0.000000
0.535332 0.849577 0.000000
0.537896 0.850492 0.000000
0.541131 0.851804 0.000000
0.545037 0.853483 0.000000
0.549493 0.855375 0.000000
0.554589 0.857603 0.000000
0.560235 0.859861 0.000000
0.566247 0.862211 0.000000
0.577417 0.865965 0.000000
0.610529 0.876036 0.000000
