其他预设/【223】英伦米色调色预设8款/1.LUT预设（视频调色-PR-AE-PS-FCPX-达芬奇用）/英伦米色__-2.cube
# Created by Adobe Lightroom plugin Export LUT (1.17.0)
# www.johnrellis.com/lightroom/exportlut.htm
# Preset: 英伦米色[素锦印象]-2
# Color profile: /Library/Application Support/Adobe/Color/Profiles/Recommended/AdobeRGB1998.icc
LUT_3D_SIZE 8
DOMAIN_MIN 0.000000 0.000000 0.000000
DOMAIN_MAX 0.903226 0.903226 0.903226
0.000000 0.000000 0.000000
0.113252 0.000000 0.002258
0.242985 0.000000 0.000000
0.388861 0.000000 0.000000
0.545312 0.000000 0.000000
0.704646 0.000000 0.000000
0.864012 0.000000 0.000000
0.982879 0.000000 0.000000
0.067567 0.097902 0.004700
0.125338 0.103273 0.000000
0.248661 0.089784 0.000000
0.389197 0.065766 0.000000
0.541863 0.000000 0.000000
0.700099 0.000000 0.000000
0.854734 0.000000 0.000000
0.977234 0.000000 0.000000
0.142336 0.209476 0.000000
0.155215 0.214664 0.000000
0.293828 0.246983 0.000000
0.422248 0.240269 0.000000
0.568658 0.236881 0.000000
0.729610 0.231540 0.000000
0.880095 0.213077 0.000000
0.992065 0.169284 0.000000
0.220981 0.330297 0.000000
0.227970 0.332555 0.000000
0.301915 0.357855 0.000000
0.504631 0.442267 0.000000
0.655543 0.443458 0.000000
0.777340 0.420966 0.000000
0.898161 0.399084 0.000000
0.998169 0.366735 0.000000
0.300664 0.458625 0.000000
0.305882 0.460700 0.000000
0.326909 0.471046 0.000000
0.489357 0.549950 0.000000
0.715877 0.646387 0.000000
0.821347 0.605280 0.000000
0.908934 0.559594 0.000000
1.000000 0.525719 0.002808
0.383398 0.598901 0.000000
0.392065 0.608179 0.000000
0.407507 0.614862 0.000000
0.491310 0.655421 0.000000
0.669215 0.730770 0.000000
0.873960 0.795743 0.111025
0.954711 0.738949 0.152193
1.000000 0.680964 0.156222
0.468360 0.745968 0.000000
0.472633 0.748959 0.000000
0.483070 0.751369 0.000000
0.504753 0.759396 0.000000
0.645228 0.812711 0.000000
0.815793 0.865690 0.096376
0.982605 0.895506 0.269963
1.000000 0.828153 0.278233
0.547692 0.877775 0.000000
0.549889 0.878386 0.000000
0.559014 0.881895 0.000000
0.577600 0.890593 0.000000
0.637995 0.900816 0.000000
0.781521 0.936156 0.078004
0.931090 0.960998 0.278508
1.000000 0.956695 0.480171
0.061189 0.064149 0.093050
0.121675 0.037751 0.098909
0.241611 0.000000 0.097414
0.382147 0.000000 0.097505
0.533043 0.000000 0.093721
0.691463 0.000000 0.085786
0.844755 0.000000 0.079713
0.969421 0.000000 0.072999
0.082918 0.110140 0.079469
0.133516 0.116915 0.098573
0.251133 0.111482 0.098909
0.387243 0.091157 0.097414
0.535698 0.014923 0.092042
0.692073 0.000000 0.084047
0.838560 0.000000 0.075013
0.963348 0.000000 0.066011
0.162142 0.213962 0.093538
0.177737 0.221653 0.096193
0.292302 0.249485 0.101259
0.414618 0.241825 0.097993
0.558312 0.238529 0.090181
0.712612 0.232609 0.082338
0.855436 0.213748 0.081178
0.975738 0.177005 0.082826
0.231754 0.329473 0.092805
0.240604 0.333562 0.091585
0.299290 0.355566 0.080720
0.486030 0.427283 0.096834
0.619043 0.420203 0.089509
0.744381 0.405219 0.087190
0.871885 0.390387 0.091127
0.982544 0.364904 0.098695
0.310369 0.459724 0.094301
0.314397 0.460609 0.087037
0.332311 0.468391 0.050263
0.474617 0.533715 0.054047
0.692012 0.625971 0.099519
0.801389 0.592737 0.113191
0.895293 0.554498 0.123537
0.994812 0.524681 0.137087
0.385962 0.592493 0.080201
0.390234 0.594751 0.071077
0.404974 0.601984 0.000000
0.479347 0.640131 0.000000
0.658625 0.720180 0.068635
0.866300 0.791196 0.197024
0.947387 0.737148 0.217746
1.000000 0.680507 0.210727
0.466041 0.734524 0.068757
0.467964 0.734005 0.048951
0.479072 0.738338 0.000000
0.502403 0.749935 0.000000
0.637659 0.804593 0.000000
0.808316 0.859037 0.167330
0.974060 0.890349 0.309056
1.000000 0.825528 0.310338
0.547204 0.871275 0.113527
0.550164 0.872923 0.106630
0.559533 0.877104 0.066163
0.578271 0.886503 0.000000
0.640375 0.905425 0.000000
0.782162 0.937285 0.163058
0.929412 0.959991 0.306981
1.000000 0.955718 0.473030
0.102266 0.122194 0.203220
0.145052 0.114748 0.209140
0.259312 0.094362 0.217258
0.382940 0.072175 0.217716
0.530968 0.000000 0.227787
0.696376 0.000000 0.238834
0.847532 0.000000 0.249638
0.970642 0.000000 0.254520
0.138308 0.168612 0.201724
0.169192 0.165011 0.207462
0.263371 0.147646 0.215335
0.386053 0.137697 0.217441
0.532341 0.117220 0.226169
0.694789 0.084321 0.237705
0.843717 0.000000 0.246799
0.968322 0.000000 0.252445
0.178500 0.239445 0.171756
0.207340 0.242496 0.182803
0.285801 0.256535 0.219028
0.409827 0.259434 0.227329
0.561456 0.263798 0.237491
0.714137 0.261448 0.245670
0.854002 0.251560 0.254063
0.972564 0.230228 0.259464
0.260319 0.345983 0.181277
0.279179 0.350927 0.199802
0.312139 0.365118 0.210788
0.483223 0.435309 0.252750
0.609186 0.427131 0.255528
0.745266 0.424140 0.261875
0.872984 0.415503 0.271092
0.981689 0.395941 0.276921
0.342016 0.470008 0.214023
0.348425 0.473701 0.214023
0.368444 0.484871 0.210117
0.470802 0.536370 0.223026
0.690608 0.634211 0.289281
0.793088 0.600092 0.293126
0.891142 0.570489 0.296208
0.990753 0.546349 0.303441
0.410132 0.601068 0.213199
0.415534 0.603998 0.213504
0.430518 0.611170 0.207126
0.466651 0.629664 0.189914
0.646754 0.712306 0.249882
0.852049 0.788022 0.359289
0.934569 0.743221 0.369604
1.000000 0.696284 0.360540
0.488228 0.742489 0.225254
0.490791 0.742794 0.222477
0.499733 0.745235 0.208469
0.518944 0.753475 0.181674
0.627832 0.797543 0.213199
0.802487 0.856931 0.317296
0.967102 0.895872 0.464515
1.000000 0.840940 0.460456
0.564965 0.872557 0.255039
0.565484 0.872435 0.247227
0.573083 0.875517 0.231937
0.592370 0.886992 0.209384
0.630182 0.900023 0.177615
0.778378 0.935271 0.295964
0.926543 0.960021 0.433906
1.000000 0.959655 0.573693
0.157382 0.191318 0.322850
0.187411 0.189792 0.329046
0.273777 0.176181 0.341070
0.392676 0.154299 0.347539
0.515404 0.136110 0.348455
0.672816 0.112886 0.370062
0.823148 0.096956 0.386481
0.952270 0.089021 0.397742
0.194064 0.230503 0.325811
0.213779 0.227817 0.330755
0.282567 0.212528 0.341558
0.397162 0.191165 0.348882
0.520745 0.178286 0.350866
0.674556 0.167269 0.369574
0.822660 0.161563 0.386023
0.951995 0.160586 0.399298
0.220981 0.310277 0.323827
0.244572 0.306981 0.326513
0.305547 0.295903 0.338109
0.406287 0.280339 0.347539
0.541772 0.283879 0.360540
0.697322 0.293828 0.382940
0.843992 0.313481 0.410590
0.962707 0.313115 0.422278
0.274174 0.378027 0.279576
0.291447 0.379400 0.285618
0.344396 0.384894 0.307988
0.443793 0.414954 0.365850
0.577752 0.426032 0.382574
0.720668 0.439063 0.402869
0.854490 0.448157 0.424842
0.969085 0.447181 0.440497
0.360174 0.491768 0.280583
0.371252 0.492927 0.292149
0.410163 0.501030 0.332250
0.450843 0.522118 0.345068
0.666773 0.629114 0.445502
0.766781 0.605982 0.449439
0.878416 0.599878 0.464546
0.979065 0.587396 0.474159
0.439490 0.619959 0.317510
0.453254 0.627314 0.333104
0.479255 0.631617 0.357641
0.501366 0.644465 0.346105
0.633326 0.708064 0.396979
0.836271 0.792294 0.533227
0.916136 0.759213 0.536278
0.990631 0.724300 0.524895
0.527398 0.748714 0.375280
0.531518 0.750912 0.376104
0.541070 0.756954 0.369268
0.556817 0.766781 0.350652
0.612543 0.791043 0.349920
0.795010 0.856168 0.475166
0.953552 0.901823 0.621668
1.000000 0.858762 0.610742
0.611414 0.877104 0.430030
0.612573 0.878538 0.426093
0.613886 0.881743 0.405585
0.621210 0.888487 0.373388
0.640528 0.897856 0.340581
0.768734 0.930144 0.427863
0.919982 0.958770 0.571252
1.000000 0.964996 0.698909
0.215824 0.270268 0.459266
0.236454 0.268467 0.464088
0.302983 0.260594 0.474281
0.406561 0.236179 0.492836
0.530755 0.215946 0.497902
0.650111 0.197787 0.492958
0.798367 0.202853 0.515099
0.933837 0.230198 0.535058
0.241550 0.298924 0.461006
0.258183 0.298070 0.467781
0.314366 0.288304 0.478370
0.409888 0.262516 0.492714
0.532097 0.242618 0.496925
0.651667 0.227543 0.492653
0.801205 0.238315 0.517082
0.934752 0.264225 0.537346
0.280217 0.366827 0.462196
0.299199 0.364080 0.465400
0.340185 0.356329 0.474952
0.418280 0.335332 0.488441
0.535485 0.317052 0.492561
0.657038 0.311101 0.492500
0.806424 0.332555 0.521965
0.935424 0.355138 0.544457
0.296300 0.465248 0.462287
0.313237 0.462379 0.463416
0.366857 0.453803 0.470558
0.441901 0.438544 0.485115
0.547173 0.423957 0.491768
0.682918 0.440986 0.513115
0.821958 0.469276 0.546899
0.943694 0.486519 0.572015
0.359350 0.518059 0.391913
0.372564 0.519951 0.397345
0.414405 0.524498 0.414557
0.486275 0.531609 0.454841
0.594995 0.577752 0.527214
0.718746 0.589014 0.550195
0.845579 0.607355 0.581201
0.955962 0.614984 0.603113
0.449805 0.625055 0.381720
0.458289 0.626581 0.391302
0.485969 0.630060 0.421851
0.535119 0.639307 0.475074
0.568811 0.656367 0.475959
0.797940 0.774807 0.637659
0.883757 0.758511 0.645258
0.971923 0.747707 0.652888
0.538262 0.754330 0.443091
0.544732 0.754391 0.450996
0.568353 0.756771 0.479072
0.606134 0.763607 0.518853
0.619623 0.777432 0.487617
0.763790 0.837400 0.578210
0.934081 0.901061 0.726772
0.990112 0.868681 0.715297
0.638636 0.873198 0.534417
0.643458 0.873320 0.540185
0.660670 0.874388 0.560327
0.675990 0.884764 0.559655
0.676967 0.894499 0.509178
0.738308 0.915557 0.520226
0.905272 0.953338 0.672297
1.000000 0.968627 0.792081
0.280552 0.365667 0.623529
0.295964 0.363867 0.626795
0.347265 0.354620 0.629236
0.430610 0.337530 0.639216
0.541070 0.301305 0.652247
0.665003 0.286748 0.650599
0.783047 0.286259 0.645197
0.911986 0.314122 0.659785
0.293919 0.380163 0.613092
0.306554 0.377844 0.615229
0.352056 0.369390 0.621241
0.430579 0.352392 0.631678
0.538872 0.318914 0.646387
0.663020 0.305272 0.646723
0.781430 0.305486 0.642786
0.911559 0.334783 0.659846
0.336797 0.439033 0.615961
0.346624 0.436896 0.616815
0.382208 0.430488 0.623285
0.447425 0.415320 0.633692
0.546441 0.385443 0.646632
0.667903 0.371923 0.646448
0.784207 0.373175 0.643183
0.915587 0.409155 0.667323
0.357519 0.527031 0.615412
0.371099 0.523339 0.615167
0.418280 0.514000 0.619684
0.484016 0.510979 0.636805
0.565911 0.490272 0.652735
0.680720 0.476387 0.652369
0.795651 0.480568 0.654170
0.924895 0.518425 0.685908
0.374578 0.629145 0.610712
0.388342 0.627649 0.612238
0.433814 0.621241 0.617182
0.503227 0.609094 0.626337
0.579431 0.589441 0.639216
0.680446 0.574701 0.642664
0.809781 0.603052 0.673060
0.931365 0.632593 0.707057
0.452430 0.661524 0.518944
0.464271 0.664057 0.525200
0.497841 0.666804 0.540093
0.549889 0.670802 0.564904
0.618006 0.674800 0.607904
0.734066 0.730739 0.693812
0.846860 0.745541 0.722621
0.951446 0.759487 0.749142
0.569299 0.768185 0.529046
0.576623 0.770108 0.537499
0.597101 0.772671 0.560632
0.631006 0.777920 0.597986
0.676509 0.785367 0.645472
0.705776 0.799741 0.643000
0.914305 0.899474 0.810544
0.972930 0.877623 0.802792
0.662776 0.879393 0.609888
0.666590 0.879423 0.614099
0.680781 0.880552 0.629694
0.707698 0.885222 0.658289
0.744656 0.890806 0.694728
0.748562 0.903929 0.652522
0.881651 0.943969 0.748898
0.998505 0.973053 0.870939
0.363317 0.462318 0.751308
0.378546 0.465278 0.756069
0.414954 0.460822 0.760098
0.475532 0.449805 0.767514
0.558007 0.426764 0.776211
0.664027 0.390417 0.784848
0.781949 0.380804 0.782193
0.894285 0.402960 0.780026
0.365454 0.467567 0.740352
0.379156 0.469856 0.744686
0.414649 0.466316 0.749752
0.471199 0.453681 0.756069
0.550622 0.429664 0.764065
0.653773 0.391394 0.771511
0.769619 0.379126 0.767849
0.882383 0.394812 0.766445
0.403845 0.519219 0.746883
0.413367 0.518944 0.747982
0.444495 0.516258 0.750851
0.492866 0.505241 0.757015
0.561364 0.480568 0.762997
0.659724 0.444587 0.772763
0.778073 0.438544 0.773709
0.891875 0.457649 0.776303
0.439673 0.591913 0.750637
0.448615 0.587976 0.749416
0.479316 0.580346 0.749722
0.529229 0.581445 0.759243
0.585504 0.562799 0.766995
0.675319 0.533623 0.780148
0.789731 0.527459 0.781491
0.899107 0.536706 0.783139
0.449012 0.674037 0.741054
0.456672 0.669978 0.739437
0.487190 0.660365 0.739132
0.540215 0.647364 0.744503
0.602533 0.637934 0.755276
0.675135 0.613916 0.768276
0.784360 0.602991 0.769833
0.899016 0.613733 0.780301
0.472328 0.770993 0.739437
0.481758 0.769436 0.740200
0.512902 0.763943 0.743069
0.563958 0.755184 0.749844
0.627008 0.739528 0.758358
0.703029 0.723690 0.774197
0.799588 0.712886 0.780484
0.918944 0.741634 0.810849
0.565332 0.793271 0.657588
0.573602 0.794919 0.662257
0.596246 0.796201 0.672633
0.633112 0.799130 0.690913
0.679194 0.800381 0.713008
0.743099 0.803281 0.749996
0.854398 0.856962 0.834562
0.947173 0.865843 0.855406
0.687465 0.880613 0.674159
0.691066 0.881102 0.677974
0.708370 0.886687 0.696834
0.731228 0.891447 0.720638
0.761410 0.896483 0.750881
0.802335 0.903624 0.789822
0.828855 0.916320 0.787869
0.987030 0.975463 0.928222
0.482765 0.579248 0.856748
0.493202 0.581994 0.858854
0.513756 0.577691 0.859403
0.550927 0.570214 0.864958
0.604425 0.554925 0.871916
0.677211 0.529107 0.880583
0.775509 0.503410 0.890318
0.885374 0.499825 0.892546
0.481575 0.581872 0.851621
0.491798 0.584466 0.853819
0.515221 0.583124 0.855589
0.549584 0.573877 0.860105
0.602289 0.558831 0.867338
0.674342 0.533379 0.876371
0.771359 0.505730 0.885649
0.881956 0.502312 0.888579
0.493477 0.606195 0.847898
0.501701 0.607477 0.849149
0.523919 0.605829 0.849424
0.566644 0.608179 0.859281
0.612360 0.592004 0.865476
0.677790 0.565179 0.873136
0.772457 0.537774 0.883970
0.883635 0.536370 0.888701
0.512963 0.647456 0.846616
0.521721 0.649561 0.848539
0.544091 0.649928 0.850095
0.587610 0.655299 0.857084
0.631525 0.646082 0.865293
0.691279 0.624689 0.874876
0.780789 0.597711 0.887694
0.891661 0.597009 0.894011
0.530114 0.719692 0.846281
0.538689 0.719539 0.848051
0.559014 0.711940 0.848844
0.594842 0.699001 0.852689
0.648646 0.703090 0.861570
0.702174 0.688533 0.872892
0.787930 0.667079 0.890043
0.897154 0.666285 0.895964
0.561730 0.809079 0.852720
0.566003 0.806638 0.852262
0.583001 0.799496 0.852232
0.615015 0.788571 0.855131
0.662867 0.773281 0.861936
0.733150 0.773129 0.879179
0.806699 0.761318 0.898192
0.903899 0.747372 0.898589
0.616785 0.897887 0.860288
0.620172 0.897246 0.861082
0.632685 0.895720 0.864714
0.658564 0.891722 0.870787
0.698726 0.878904 0.874571
0.751797 0.860929 0.880797
0.818051 0.841672 0.891905
0.905699 0.827390 0.895750
0.685298 0.907042 0.789120
0.687800 0.906462 0.789731
0.699367 0.906279 0.794522
0.723049 0.907897 0.805905
0.756039 0.909667 0.821683
0.798245 0.911437 0.841947
0.852049 0.914092 0.868925
0.946532 0.947997 0.937499
