其他预设/【233】日式怀旧街道调色预设208款/1.3D LUT预设（视频调色-PR-AE-PS-FCPX-达芬奇用）/4.富士胶片风日式城市街拍预设 (自动曝光预设)/JA – Cool Bright 2 (Classic Chrome) (Auto).cube
# Created by Adobe Lightroom plugin Export LUT (1.17.0)
# www.johnrellis.com/lightroom/exportlut.htm
# Preset: JA – Cool Bright 2 (Classic Chrome) (Auto)
# Color profile: /Library/Application Support/Adobe/Color/Profiles/Recommended/AdobeRGB1998.icc
LUT_3D_SIZE 32
0.079072 0.082368 0.084810
0.085542 0.083284 0.085451
0.094942 0.083833 0.086854
0.113497 0.085908 0.089235
0.134066 0.088685 0.092897
0.154726 0.091768 0.096681
0.176181 0.094636 0.100374
0.198856 0.096956 0.103700
0.224308 0.098665 0.107057
0.253330 0.099977 0.110323
0.287175 0.099886 0.113100
0.326268 0.098451 0.116060
0.370520 0.095369 0.118196
0.417731 0.090578 0.120607
0.465553 0.082979 0.123201
0.512383 0.073671 0.125551
0.555962 0.063203 0.127993
0.595666 0.041505 0.131655
0.631739 0.023133 0.135134
0.666011 0.001923 0.139467
0.698939 0.000000 0.144533
0.730159 0.000000 0.150637
0.759854 0.000000 0.157473
0.788540 0.001862 0.165377
0.816953 0.027955 0.174868
0.845640 0.063691 0.185733
0.875029 0.087251 0.198459
0.904692 0.112490 0.213657
0.933837 0.140566 0.232120
0.961395 0.175143 0.255344
0.985992 0.215915 0.284764
1.000000 0.263859 0.320165
0.079744 0.088930 0.085695
0.086793 0.090242 0.086275
0.096101 0.091035 0.087098
0.114076 0.093294 0.089998
0.134554 0.095796 0.093599
0.155154 0.098085 0.097414
0.176730 0.100404 0.100832
0.199344 0.102541 0.104402
0.224857 0.103883 0.107515
0.253910 0.105531 0.110506
0.287816 0.105623 0.113466
0.326940 0.104707 0.116152
0.371283 0.102480 0.118257
0.418524 0.098238 0.121004
0.466285 0.093446 0.122927
0.512902 0.085054 0.125704
0.556481 0.076051 0.128511
0.596033 0.066926 0.131563
0.632013 0.058930 0.135439
0.666194 0.039124 0.139773
0.699153 0.030152 0.144442
0.730343 0.019715 0.150607
0.759976 0.023224 0.157443
0.788663 0.036896 0.165805
0.817044 0.061799 0.174960
0.845731 0.077729 0.185794
0.875151 0.096376 0.198672
0.904784 0.119142 0.214176
0.933867 0.146639 0.232639
0.961425 0.179599 0.255894
0.985992 0.219638 0.285100
1.000000 0.266972 0.320623
0.081147 0.097810 0.087739
0.088106 0.099001 0.088045
0.097780 0.100954 0.088167
0.115541 0.102693 0.090730
0.135500 0.104463 0.094881
0.156039 0.106294 0.098390
0.177401 0.107698 0.101625
0.199924 0.109438 0.105409
0.225589 0.111055 0.108217
0.254734 0.112032 0.111208
0.288609 0.113008 0.113863
0.327916 0.112703 0.116274
0.372259 0.111482 0.118502
0.419501 0.108766 0.121157
0.467170 0.104494 0.123445
0.513756 0.099092 0.125521
0.557183 0.092134 0.128328
0.596521 0.085359 0.131777
0.632471 0.077790 0.135531
0.666560 0.071687 0.139803
0.699458 0.066163 0.144869
0.730556 0.063752 0.150668
0.760159 0.065217 0.157534
0.788846 0.070192 0.165866
0.817197 0.080049 0.175174
0.845853 0.092409 0.186252
0.875273 0.108339 0.199069
0.904875 0.128542 0.214328
0.933959 0.154238 0.232883
0.961456 0.185885 0.256413
0.986023 0.224369 0.285496
1.000000 0.270695 0.321111
0.084291 0.115602 0.092256
0.091341 0.116304 0.092561
0.099825 0.117372 0.092988
0.117769 0.120485 0.093141
0.138643 0.121340 0.095644
0.157595 0.121828 0.100771
0.178714 0.122438 0.103487
0.201541 0.123384 0.106538
0.227207 0.124697 0.109316
0.256626 0.125978 0.112184
0.290654 0.127443 0.114931
0.330114 0.128511 0.117159
0.374273 0.128756 0.119417
0.421485 0.128115 0.121706
0.469123 0.125277 0.123720
0.515251 0.122011 0.126101
0.558495 0.116732 0.128878
0.597681 0.113436 0.131868
0.633326 0.108492 0.135622
0.667323 0.103334 0.140169
0.700130 0.099947 0.145205
0.731106 0.098909 0.151156
0.760586 0.099092 0.158145
0.789242 0.101717 0.166476
0.817502 0.107729 0.175906
0.846128 0.117220 0.186679
0.875486 0.129335 0.199832
0.905058 0.146700 0.215183
0.934112 0.168948 0.233951
0.961517 0.198306 0.257511
0.985992 0.234409 0.286870
1.000000 0.279057 0.322637
0.089265 0.135195 0.097902
0.095277 0.135683 0.098207
0.103120 0.136416 0.098634
0.117922 0.138491 0.098939
0.139834 0.142428 0.098665
0.162203 0.142733 0.100343
0.182071 0.141939 0.104891
0.204013 0.142672 0.108583
0.229923 0.143954 0.111055
0.259373 0.145754 0.113771
0.293645 0.147890 0.116091
0.333532 0.150240 0.118288
0.378058 0.152132 0.120241
0.424781 0.153017 0.122560
0.471962 0.152529 0.124361
0.517845 0.151064 0.126619
0.560510 0.148470 0.129305
0.599298 0.145205 0.132204
0.634882 0.141543 0.136294
0.668544 0.138643 0.140444
0.701076 0.136110 0.145541
0.731960 0.134218 0.151827
0.761288 0.134676 0.158968
0.789792 0.136446 0.167269
0.817990 0.140108 0.176822
0.846586 0.147005 0.187869
0.875853 0.156985 0.200900
0.905364 0.170596 0.216587
0.934356 0.190158 0.235721
0.961639 0.216220 0.259556
0.985992 0.249668 0.288914
1.000000 0.291630 0.324926
0.093233 0.155398 0.103456
0.098726 0.155673 0.103548
0.105501 0.156222 0.103761
0.119356 0.157321 0.104128
0.138399 0.160769 0.103944
0.162936 0.165164 0.103487
0.186801 0.166110 0.104494
0.209781 0.165652 0.108064
0.233768 0.166659 0.113161
0.263188 0.168887 0.116091
0.297795 0.172213 0.118105
0.338109 0.175540 0.120180
0.382422 0.178927 0.121828
0.429084 0.181369 0.123812
0.475929 0.182986 0.124788
0.521202 0.182834 0.127108
0.563317 0.181155 0.129610
0.601495 0.179019 0.132845
0.636652 0.176394 0.136599
0.670069 0.173739 0.141146
0.702419 0.171664 0.146242
0.732998 0.169589 0.152590
0.762173 0.169467 0.160006
0.790555 0.170504 0.168429
0.818631 0.173526 0.178134
0.847166 0.178439 0.189487
0.876402 0.186465 0.202609
0.905791 0.198154 0.218509
0.934600 0.214878 0.237888
0.961822 0.237858 0.261906
0.985962 0.268681 0.291569
1.000000 0.307622 0.327886
0.096834 0.176547 0.108370
0.101839 0.176791 0.108431
0.108370 0.177279 0.108644
0.121126 0.178134 0.109041
0.138888 0.179660 0.109560
0.161105 0.184604 0.108156
0.187869 0.189761 0.107424
0.214633 0.192081 0.108248
0.242161 0.193301 0.110689
0.270115 0.195438 0.116335
0.303197 0.199496 0.120760
0.343725 0.204166 0.122225
0.388037 0.208835 0.123690
0.434455 0.212833 0.124727
0.480934 0.215091 0.126223
0.525414 0.216159 0.127687
0.566674 0.215366 0.130312
0.604364 0.213565 0.133577
0.638941 0.211490 0.137057
0.672114 0.208988 0.141939
0.704005 0.207126 0.147097
0.734371 0.205112 0.153780
0.763272 0.204410 0.161227
0.791470 0.205112 0.169711
0.819455 0.207034 0.179782
0.847898 0.210971 0.191257
0.877012 0.217441 0.205081
0.906340 0.227665 0.221042
0.935027 0.242161 0.241032
0.962005 0.262669 0.265202
0.985901 0.290562 0.295323
1.000000 0.326604 0.331670
0.100069 0.199771 0.113313
0.104829 0.199985 0.113588
0.111177 0.200412 0.113558
0.123720 0.201053 0.113558
0.140932 0.202274 0.114046
0.161776 0.205356 0.113619
0.187228 0.211490 0.112490
0.216342 0.217685 0.111330
0.247135 0.222019 0.111147
0.279667 0.225498 0.112398
0.313909 0.229923 0.117617
0.351873 0.235142 0.122683
0.394720 0.241215 0.125277
0.440589 0.245945 0.126009
0.486336 0.249302 0.127077
0.530205 0.250645 0.128603
0.570550 0.250736 0.130800
0.607538 0.249088 0.134157
0.641657 0.247135 0.137850
0.674434 0.244755 0.142641
0.705928 0.242710 0.148348
0.735897 0.240696 0.155062
0.764614 0.239567 0.162661
0.792569 0.239506 0.171969
0.820432 0.240787 0.181918
0.848814 0.244083 0.193881
0.877806 0.249424 0.207645
0.906950 0.258244 0.224125
0.935424 0.271183 0.244572
0.962188 0.289586 0.269200
0.985840 0.315099 0.299840
1.000000 0.348302 0.336370
0.103182 0.226474 0.118502
0.107698 0.226871 0.118715
0.114137 0.227207 0.118685
0.126741 0.227817 0.118837
0.143923 0.228855 0.119142
0.164614 0.230014 0.119173
0.188724 0.235599 0.118105
0.217838 0.243259 0.115572
0.250309 0.250370 0.113954
0.285771 0.257603 0.112093
0.324559 0.264042 0.111940
0.365270 0.270603 0.115785
0.405829 0.276036 0.121523
0.448188 0.281346 0.126772
0.492866 0.285008 0.128206
0.535576 0.286870 0.129488
0.574975 0.286931 0.131563
0.611322 0.285466 0.135134
0.644770 0.283116 0.139010
0.677058 0.280369 0.144259
0.708156 0.278172 0.150149
0.737697 0.276310 0.156710
0.766110 0.274601 0.165042
0.793881 0.274083 0.174380
0.821561 0.274998 0.184695
0.849821 0.277470 0.196872
0.878752 0.282200 0.211246
0.907652 0.289891 0.228000
0.935912 0.301457 0.248692
0.962371 0.318151 0.274357
0.985718 0.341222 0.305058
1.000000 0.371801 0.341711
0.104952 0.257969 0.122988
0.110262 0.258152 0.123201
0.116548 0.258366 0.123201
0.129702 0.258976 0.123323
0.147616 0.259953 0.123354
0.169009 0.260990 0.123507
0.192630 0.263066 0.123049
0.221103 0.271244 0.120516
0.254643 0.280919 0.117128
0.290959 0.289525 0.114229
0.331670 0.298985 0.110475
0.375433 0.307378 0.108949
0.420050 0.314977 0.111543
0.461067 0.318914 0.118441
0.501762 0.322301 0.124727
0.541558 0.324132 0.130617
0.579980 0.324010 0.132631
0.615351 0.322087 0.136049
0.648219 0.319768 0.140658
0.679957 0.316960 0.145846
0.710628 0.314244 0.152010
0.739712 0.311833 0.159091
0.767788 0.310002 0.167391
0.795285 0.309026 0.177218
0.822812 0.309331 0.188327
0.850950 0.311162 0.200595
0.879728 0.315404 0.215274
0.908446 0.322301 0.232670
0.936431 0.332769 0.254276
0.962554 0.348058 0.280095
0.985595 0.369024 0.311192
1.000000 0.397192 0.348333
0.104646 0.294896 0.127108
0.110079 0.295048 0.126955
0.117311 0.295323 0.126894
0.131746 0.295689 0.126802
0.151247 0.296452 0.126802
0.173831 0.297429 0.126497
0.198856 0.298497 0.126497
0.226780 0.303624 0.124483
0.259983 0.313542 0.120821
0.298344 0.325231 0.115663
0.338689 0.335058 0.111635
0.382940 0.345342 0.106111
0.428504 0.353460 0.103944
0.473671 0.359472 0.105592
0.514031 0.362066 0.113130
0.551141 0.362524 0.122255
0.586023 0.361700 0.131594
0.619745 0.359808 0.137514
0.651972 0.356634 0.142550
0.683223 0.353643 0.147829
0.713161 0.350774 0.154238
0.741817 0.347906 0.162112
0.769619 0.345586 0.170657
0.796872 0.344091 0.180880
0.824247 0.344091 0.192355
0.852232 0.345434 0.205203
0.880766 0.349035 0.220249
0.909300 0.355200 0.238590
0.937011 0.364721 0.260227
0.962768 0.378698 0.286656
0.985382 0.397986 0.318303
1.000000 0.423865 0.355779
0.101534 0.337774 0.129091
0.107912 0.338018 0.128878
0.116304 0.338201 0.129000
0.132387 0.338567 0.128878
0.153964 0.339117 0.128634
0.178897 0.339757 0.128298
0.205661 0.340490 0.127871
0.233921 0.341253 0.127352
0.266819 0.349920 0.123507
0.304631 0.361242 0.117952
0.346807 0.373541 0.111269
0.389929 0.383551 0.106020
0.436133 0.393408 0.099184
0.481209 0.399725 0.096132
0.524163 0.402930 0.097475
0.561944 0.402838 0.107210
0.595087 0.400397 0.120180
0.626246 0.397406 0.132296
0.655909 0.394446 0.144594
0.686671 0.390936 0.150790
0.715999 0.387304 0.157534
0.744167 0.384009 0.165835
0.771481 0.381262 0.174990
0.798581 0.379309 0.185519
0.825834 0.378729 0.197330
0.853605 0.379889 0.210544
0.881926 0.383001 0.226383
0.910185 0.388647 0.245182
0.937499 0.397467 0.267643
0.962951 0.410101 0.294255
0.985077 0.427741 0.326543
1.000000 0.451392 0.363928
0.094728 0.384985 0.129915
0.102144 0.385138 0.129915
0.112123 0.385382 0.129793
0.130892 0.385443 0.129702
0.155520 0.385718 0.129244
0.182528 0.385870 0.128908
0.211917 0.386236 0.128237
0.241917 0.386267 0.127779
0.273686 0.388159 0.125948
0.310826 0.398718 0.120119
0.351843 0.410437 0.113558
0.396704 0.422553 0.104311
0.441413 0.431922 0.098146
0.487984 0.440558 0.090700
0.530114 0.443427 0.087160
0.569207 0.443122 0.090028
0.604486 0.440681 0.102541
0.634241 0.435920 0.119112
0.662867 0.431403 0.134951
0.691096 0.427710 0.149325
0.718898 0.424414 0.161379
0.746548 0.420539 0.170016
0.773526 0.417273 0.179721
0.800351 0.414862 0.190799
0.827390 0.413947 0.202853
0.855100 0.414527 0.217105
0.883207 0.417334 0.233494
0.911070 0.422522 0.252964
0.938109 0.430396 0.275731
0.963043 0.442084 0.303197
0.984741 0.458106 0.335454
1.000000 0.479713 0.373297
0.082460 0.434119 0.130190
0.093965 0.433967 0.130220
0.104952 0.434028 0.130373
0.127413 0.433936 0.129885
0.155062 0.433722 0.129519
0.185641 0.433478 0.128847
0.216861 0.433143 0.128084
0.248844 0.432654 0.127291
0.281224 0.431830 0.126436
0.316442 0.436835 0.122713
0.356268 0.447333 0.115755
0.399390 0.458381 0.107118
0.445289 0.469612 0.096254
0.490059 0.477272 0.089265
0.535180 0.483711 0.082033
0.573816 0.483467 0.079896
0.609308 0.480110 0.086336
0.641535 0.475441 0.100587
0.670192 0.469734 0.119448
0.697230 0.464546 0.138277
0.723690 0.459846 0.155886
0.749447 0.456641 0.173312
0.775692 0.453437 0.185672
0.802274 0.450599 0.197055
0.829129 0.449226 0.209903
0.856596 0.449683 0.224765
0.884489 0.451942 0.241611
0.912047 0.456489 0.261601
0.938628 0.463905 0.285130
0.963134 0.474311 0.312840
0.984253 0.488991 0.345556
1.000000 0.508598 0.383246
0.068299 0.481758 0.130678
0.082582 0.481666 0.130709
0.097597 0.481544 0.130495
0.123659 0.481331 0.130037
0.154086 0.480781 0.129549
0.186679 0.480323 0.128908
0.220035 0.479438 0.128267
0.253666 0.478309 0.127260
0.287510 0.476905 0.126162
0.321416 0.475196 0.124483
0.359442 0.483314 0.118776
0.400610 0.492836 0.111299
0.444160 0.502434 0.101228
0.489906 0.512108 0.089387
0.533959 0.518212 0.082612
0.577356 0.522820 0.075959
0.612879 0.519921 0.075166
0.645167 0.514366 0.085573
0.675715 0.508324 0.101564
0.703609 0.502281 0.122347
0.729030 0.496101 0.144106
0.754116 0.491279 0.164523
0.779019 0.488106 0.184756
0.804227 0.486519 0.205112
0.830869 0.484749 0.218479
0.858183 0.484810 0.233494
0.885740 0.486671 0.251225
0.912993 0.490913 0.271641
0.939147 0.497383 0.295506
0.963134 0.506920 0.323461
0.983703 0.520165 0.356298
0.999634 0.537865 0.394079
0.050050 0.526360 0.132357
0.071901 0.526207 0.132418
0.090303 0.525933 0.132082
0.118288 0.525628 0.131991
0.152163 0.524956 0.131380
0.186862 0.523949 0.130922
0.221469 0.522881 0.130007
0.256443 0.521324 0.128603
0.291539 0.519371 0.127535
0.325933 0.517113 0.126497
0.361212 0.517205 0.123537
0.400610 0.525261 0.116579
0.441901 0.533471 0.108461
0.485206 0.541802 0.098604
0.530114 0.549920 0.085786
0.572992 0.554864 0.079469
0.615106 0.558404 0.074952
0.648035 0.553521 0.074769
0.678492 0.546563 0.089662
0.707393 0.539727 0.104494
0.734524 0.533288 0.127321
0.759030 0.526970 0.152712
0.783413 0.522271 0.175937
0.808042 0.519554 0.198703
0.833371 0.519097 0.222416
0.859800 0.520134 0.243961
0.887053 0.521538 0.261723
0.913909 0.525200 0.282658
0.939605 0.530999 0.306920
0.963012 0.539605 0.335119
0.983032 0.551354 0.368017
0.998383 0.567132 0.405646
0.040650 0.566308 0.136507
0.065919 0.566186 0.136416
0.085603 0.566033 0.136568
0.117281 0.565545 0.135866
0.151431 0.564782 0.135653
0.186893 0.563622 0.134981
0.222141 0.562219 0.134249
0.258061 0.560418 0.133181
0.293156 0.558221 0.131991
0.328222 0.555718 0.130587
0.363012 0.552667 0.128695
0.399573 0.555566 0.124056
0.438972 0.562615 0.117006
0.480018 0.569757 0.109316
0.522728 0.576837 0.098604
0.566461 0.583917 0.086458
0.608179 0.587823 0.082795
0.649500 0.590906 0.079683
0.680690 0.585260 0.080751
0.709346 0.577264 0.097658
0.736995 0.569818 0.113497
0.763180 0.563104 0.137484
0.787900 0.557275 0.163455
0.812222 0.553246 0.189761
0.837247 0.551568 0.215763
0.862852 0.552392 0.242924
0.888579 0.555810 0.271397
0.914763 0.559594 0.295048
0.939940 0.564660 0.319615
0.962829 0.572229 0.347997
0.982208 0.582605 0.380621
0.996979 0.596460 0.418067
0.037324 0.602686 0.144045
0.070069 0.602380 0.143496
0.087221 0.602258 0.143679
0.117678 0.601770 0.143191
0.152224 0.600916 0.142885
0.188144 0.599512 0.142061
0.223362 0.598077 0.141299
0.258793 0.596246 0.140200
0.294316 0.593896 0.138857
0.329534 0.591150 0.137209
0.364111 0.588098 0.135378
0.398260 0.584558 0.133455
0.435981 0.590326 0.127871
0.475288 0.596612 0.120943
0.515892 0.603052 0.113008
0.557702 0.609522 0.103365
0.600702 0.615869 0.091615
0.641260 0.618952 0.090517
0.681453 0.621790 0.090181
0.710994 0.614984 0.091493
0.738308 0.606653 0.109834
0.765103 0.598962 0.127260
0.791196 0.592554 0.150454
0.816709 0.587793 0.177005
0.841337 0.584771 0.206424
0.866575 0.584344 0.236027
0.891875 0.586389 0.266880
0.916655 0.591089 0.299260
0.940246 0.598108 0.332860
0.962524 0.604608 0.361578
0.981262 0.613458 0.393988
0.995453 0.625483 0.430945
0.060334 0.636774 0.154177
0.078004 0.636561 0.153964
0.094911 0.636255 0.153567
0.123384 0.635737 0.153323
0.155947 0.634821 0.152834
0.190188 0.633692 0.152438
0.225406 0.632105 0.151369
0.260777 0.630121 0.149874
0.295964 0.627863 0.148531
0.330419 0.625238 0.147066
0.364965 0.622156 0.145327
0.399176 0.618555 0.142733
0.433631 0.617700 0.140017
0.471504 0.623377 0.134035
0.510399 0.629084 0.127596
0.550439 0.634791 0.120363
0.591333 0.640345 0.112306
0.632837 0.645747 0.102235
0.671931 0.648188 0.104463
0.711147 0.650416 0.105623
0.739590 0.643580 0.107790
0.766171 0.635218 0.126650
0.792630 0.627955 0.144686
0.819059 0.622370 0.166995
0.845518 0.618738 0.194156
0.870481 0.616876 0.226566
0.895293 0.617456 0.260044
0.919524 0.620508 0.294682
0.942382 0.626276 0.331029
0.962737 0.634760 0.370672
0.980133 0.644129 0.408148
0.993835 0.654078 0.443946
0.083528 0.669123 0.166873
0.096345 0.668940 0.166812
0.108339 0.668788 0.166964
0.133486 0.668177 0.166506
0.163699 0.667323 0.166201
0.196536 0.666102 0.165103
0.229709 0.664637 0.164553
0.263920 0.662776 0.163119
0.298100 0.660517 0.161685
0.332494 0.657893 0.159731
0.366461 0.654932 0.157931
0.400427 0.651453 0.155367
0.433509 0.647730 0.152773
0.468727 0.649561 0.149386
0.505943 0.654566 0.144228
0.544121 0.659510 0.138949
0.583124 0.664454 0.132479
0.622858 0.669276 0.125551
0.663020 0.673854 0.118379
0.701106 0.675898 0.121950
0.739101 0.677913 0.125673
0.767086 0.671260 0.129335
0.793515 0.663630 0.146487
0.820218 0.657374 0.165621
0.847318 0.652613 0.186831
0.873716 0.650111 0.216556
0.898863 0.649165 0.250401
0.922545 0.650599 0.287846
0.944701 0.654414 0.326635
0.964355 0.660822 0.367681
0.980407 0.669795 0.410925
0.992309 0.681605 0.456306
0.110323 0.699397 0.183780
0.119326 0.699123 0.183505
0.129335 0.699062 0.183963
0.149508 0.698543 0.183444
0.176638 0.697597 0.182498
0.206058 0.696529 0.182101
0.237369 0.695064 0.181064
0.269596 0.693233 0.179599
0.302373 0.691157 0.178347
0.335637 0.688624 0.176547
0.368811 0.685817 0.174380
0.401862 0.682612 0.171847
0.434638 0.678981 0.169100
0.467048 0.674983 0.165957
0.502647 0.679347 0.162356
0.539208 0.683742 0.158175
0.576471 0.688197 0.153658
0.614527 0.692622 0.148653
0.653223 0.696986 0.143221
0.692103 0.701045 0.138369
0.729335 0.702876 0.142977
0.766323 0.704860 0.148806
0.794278 0.698909 0.152895
0.821073 0.692409 0.169375
0.848142 0.687221 0.190249
0.875242 0.683436 0.211765
0.901152 0.681453 0.243778
0.925566 0.681147 0.278752
0.947082 0.682979 0.320256
0.966003 0.687160 0.363012
0.981292 0.693782 0.408240
0.992554 0.703090 0.454902
0.140871 0.728023 0.204410
0.146761 0.727932 0.204349
0.155093 0.727687 0.203983
0.171572 0.727199 0.203738
0.194003 0.726436 0.203403
0.220127 0.725307 0.202396
0.248508 0.723995 0.201480
0.278630 0.722225 0.200320
0.309606 0.720211 0.198428
0.340917 0.717891 0.196872
0.372961 0.715206 0.194553
0.405005 0.712154 0.191928
0.436744 0.708766 0.188876
0.468391 0.704982 0.186069
0.500847 0.703792 0.182559
0.535882 0.707759 0.179446
0.571557 0.711849 0.176486
0.608148 0.715969 0.172671
0.645319 0.720119 0.168856
0.683131 0.724300 0.164584
0.721035 0.728084 0.161349
0.757321 0.730037 0.167880
0.793545 0.732082 0.174655
0.821744 0.727108 0.179812
0.848783 0.721828 0.196017
0.875761 0.717464 0.218936
0.902159 0.714199 0.242893
0.926879 0.712398 0.274876
0.949340 0.712154 0.311772
0.967620 0.714046 0.357000
0.982116 0.718105 0.404120
0.992798 0.724880 0.452491
0.174350 0.755703 0.228305
0.179232 0.755581 0.228458
0.185397 0.755367 0.228122
0.198672 0.754818 0.227756
0.216983 0.754147 0.227024
0.239628 0.753079 0.226230
0.264683 0.751888 0.225528
0.291722 0.750271 0.223972
0.320165 0.748470 0.222690
0.349706 0.746242 0.220829
0.380041 0.743709 0.218265
0.410376 0.740902 0.215610
0.440864 0.737758 0.213077
0.471595 0.734218 0.209384
0.502007 0.730373 0.205631
0.534691 0.731899 0.202976
0.569055 0.735744 0.200717
0.604059 0.739651 0.198062
0.639857 0.743679 0.195529
0.676295 0.747829 0.192569
0.713283 0.752041 0.189029
0.750393 0.755764 0.187839
0.785977 0.757870 0.195071
0.821378 0.760037 0.202914
0.849302 0.755703 0.209445
0.876188 0.751308 0.225681
0.902373 0.747372 0.251011
0.927245 0.744320 0.278080
0.949737 0.742214 0.311101
0.968627 0.741634 0.352056
0.982940 0.742794 0.398749
0.993011 0.746944 0.448981
0.210605 0.783108 0.255558
0.214328 0.782956 0.255528
0.219028 0.782742 0.255161
0.229709 0.782345 0.254887
0.244785 0.781674 0.254337
0.263676 0.780697 0.253361
0.285557 0.779568 0.252445
0.309575 0.778134 0.251164
0.335546 0.776303 0.249210
0.362585 0.774289 0.247318
0.390661 0.772030 0.245426
0.419043 0.769497 0.242802
0.448096 0.766567 0.239597
0.477394 0.763363 0.236484
0.506767 0.759823 0.232639
0.536126 0.756497 0.228519
0.569055 0.760220 0.227024
0.602777 0.764096 0.225345
0.637232 0.768124 0.222995
0.672358 0.772244 0.221042
0.708034 0.776394 0.218936
0.744167 0.780606 0.216892
0.780331 0.784176 0.217014
0.814939 0.786313 0.225620
0.849271 0.788449 0.234806
0.876402 0.784360 0.242405
0.902525 0.780301 0.259159
0.927062 0.776394 0.287419
0.949371 0.773007 0.318029
0.968383 0.769924 0.352789
0.982818 0.768612 0.397070
0.993256 0.769284 0.443824
0.248783 0.810819 0.285405
0.251530 0.810666 0.285100
0.255528 0.810483 0.284642
0.263890 0.810117 0.284550
0.276249 0.809506 0.284092
0.292271 0.808621 0.282994
0.310918 0.807584 0.281865
0.332067 0.806241 0.280613
0.355322 0.804654 0.279088
0.379797 0.802853 0.277440
0.405219 0.800870 0.274937
0.431983 0.798459 0.272282
0.459144 0.795865 0.269627
0.486732 0.792966 0.266178
0.514733 0.789792 0.262150
0.542840 0.786374 0.258030
0.572381 0.785763 0.255375
0.604730 0.789578 0.253910
0.637629 0.793545 0.252995
0.671351 0.797543 0.251743
0.705531 0.801511 0.250340
0.740230 0.805570 0.249271
0.775326 0.809506 0.247684
0.810117 0.812772 0.249882
0.843595 0.814694 0.259464
0.876616 0.816617 0.269474
0.902434 0.812345 0.278447
0.926818 0.808133 0.297002
0.948638 0.803647 0.328832
0.967224 0.799222 0.362951
0.981842 0.795132 0.400214
0.992187 0.793301 0.446113
0.289250 0.838590 0.317296
0.291722 0.838468 0.317266
0.294926 0.838315 0.317235
0.301732 0.837949 0.316930
0.311833 0.837400 0.316197
0.325200 0.836698 0.315435
0.341039 0.835752 0.314549
0.359228 0.834562 0.312840
0.379675 0.833188 0.311498
0.401434 0.831571 0.309483
0.424659 0.829770 0.307408
0.449042 0.827726 0.305028
0.474189 0.825437 0.302312
0.500023 0.822904 0.298924
0.526360 0.820249 0.295720
0.553094 0.817227 0.291569
0.580072 0.813962 0.286748
0.609888 0.816007 0.285466
0.641352 0.819699 0.284764
0.673335 0.823453 0.284459
0.705959 0.827207 0.283940
0.738979 0.830900 0.283543
0.772396 0.834501 0.282994
0.806027 0.837980 0.282719
0.839078 0.840635 0.286381
0.871000 0.842191 0.297063
0.902312 0.843717 0.308232
0.926604 0.839353 0.318883
0.947875 0.833829 0.338964
0.965881 0.827970 0.373968
0.980041 0.822354 0.411627
0.990600 0.817868 0.451911
0.332464 0.865751 0.352178
0.334447 0.865660 0.352270
0.336919 0.865476 0.351812
0.342443 0.865171 0.351629
0.350805 0.864714 0.350988
0.361883 0.864073 0.350195
0.375372 0.863279 0.349310
0.390967 0.862303 0.348119
0.408667 0.861112 0.346532
0.427985 0.859770 0.345129
0.448646 0.858213 0.343023
0.470680 0.856474 0.340734
0.493599 0.854582 0.337987
0.517418 0.852476 0.335119
0.541894 0.850156 0.331853
0.566918 0.847684 0.328222
0.592523 0.844999 0.323919
0.618738 0.842863 0.320012
0.648371 0.846189 0.320043
0.678584 0.849577 0.320409
0.709285 0.852873 0.320531
0.740444 0.856138 0.320623
0.771878 0.859220 0.321233
0.803464 0.862119 0.321569
0.835111 0.864836 0.322148
0.866117 0.866667 0.327794
0.895995 0.867582 0.339147
0.925109 0.868406 0.351171
0.947478 0.863676 0.363378
0.964477 0.856138 0.384802
0.978210 0.848905 0.422827
0.988403 0.842710 0.463478
0.377783 0.891386 0.389319
0.379309 0.891295 0.389105
0.381445 0.891173 0.389166
0.385992 0.890929 0.388830
0.392859 0.890562 0.388067
0.402228 0.890013 0.387640
0.413428 0.889342 0.386481
0.426673 0.888548 0.385504
0.441840 0.887572 0.384192
0.458747 0.886473 0.382788
0.477058 0.885161 0.381109
0.496559 0.883787 0.379065
0.517327 0.882231 0.377020
0.538994 0.880522 0.374456
0.561395 0.878660 0.371374
