其他预设/【233】日式怀旧街道调色预设208款/1.3D LUT预设（视频调色-PR-AE-PS-FCPX-达芬奇用）/4.富士胶片风日式城市街拍预设 (自动曝光预设)/JA – Cine Night 3 (Classic Chrome) (Auto).cube
# Created by Adobe Lightroom plugin Export LUT (1.17.0)
# www.johnrellis.com/lightroom/exportlut.htm
# Preset: JA – Cine Night 3 (Classic Chrome) (Auto)
# Color profile: /Library/Application Support/Adobe/Color/Profiles/Recommended/AdobeRGB1998.icc
LUT_3D_SIZE 5
DOMAIN_MIN 0.000000 0.000000 0.000000
DOMAIN_MAX 0.903226 0.903226 0.903226
0.008881 0.025910 0.052979
0.115328 0.052186 0.072480
0.483803 0.000000 0.085451
0.835508 0.000000 0.116426
1.000000 0.000000 0.220401
0.000000 0.110079 0.093263
0.114412 0.127596 0.097597
0.526146 0.031586 0.100313
0.849516 0.000000 0.130648
1.000000 0.268498 0.239322
0.000000 0.332708 0.160494
0.016907 0.355047 0.155795
0.534325 0.465309 0.161929
0.887388 0.541619 0.183169
1.000000 0.561730 0.317754
0.000000 0.688167 0.225834
0.000000 0.706905 0.208225
0.490944 0.735500 0.260105
0.861448 0.842588 0.336126
1.000000 0.818204 0.499886
0.000000 0.974548 0.356909
0.000000 0.974487 0.371984
0.568597 0.968872 0.458412
0.813748 0.968017 0.586023
0.987945 0.964813 0.726192
0.000000 0.058076 0.138888
0.082246 0.065553 0.164645
0.440253 0.000000 0.203098
0.815885 0.000000 0.236179
1.000000 0.142153 0.317784
0.000000 0.112123 0.169039
0.089021 0.130037 0.192020
0.480964 0.000671 0.216709
0.830747 0.000000 0.250340
1.000000 0.307591 0.335393
0.000000 0.337560 0.234592
0.000000 0.366217 0.237125
0.522148 0.460883 0.265782
0.870573 0.537865 0.305577
1.000000 0.585595 0.409857
0.000000 0.688563 0.298344
0.000000 0.707057 0.293645
0.490791 0.740047 0.332006
0.853422 0.841672 0.425879
1.000000 0.830014 0.576349
0.000000 0.974548 0.403388
0.000000 0.974701 0.414343
0.569604 0.968444 0.505760
0.812802 0.966613 0.626673
0.983154 0.965026 0.761196
0.000000 0.080079 0.285039
0.000000 0.084993 0.321782
0.391485 0.000000 0.382544
0.756649 0.000000 0.442634
1.000000 0.274327 0.514641
0.000000 0.128542 0.288975
0.000000 0.144900 0.332891
0.414313 0.135866 0.401434
0.769192 0.113313 0.454505
1.000000 0.384344 0.528283
0.000000 0.312444 0.364538
0.000000 0.342016 0.384833
0.470466 0.439277 0.458534
0.809567 0.514366 0.507591
1.000000 0.631556 0.593103
0.000000 0.683406 0.456794
0.000000 0.701442 0.461341
0.458534 0.746944 0.495583
0.825345 0.836301 0.616022
0.993042 0.855650 0.730098
0.000000 0.973846 0.546380
0.000000 0.975158 0.545617
0.497597 0.970825 0.585840
0.803983 0.963775 0.717983
0.971160 0.965698 0.841703
0.000000 0.112978 0.469123
0.000000 0.116182 0.503868
0.427649 0.000000 0.627100
0.733700 0.051209 0.666773
0.960235 0.409125 0.722133
0.000000 0.161654 0.462104
0.000000 0.169680 0.505608
0.425025 0.185580 0.627253
0.738003 0.253635 0.677516
0.961059 0.479377 0.731044
0.000000 0.301427 0.488685
0.000000 0.312932 0.502403
0.393256 0.401862 0.607050
0.746731 0.536950 0.711330
0.964904 0.651148 0.758816
0.000000 0.620813 0.604517
0.000000 0.637507 0.617487
0.345098 0.690242 0.663478
0.765774 0.807034 0.773495
0.967926 0.856870 0.832883
0.000000 0.971252 0.738033
0.000000 0.974090 0.737362
0.272557 0.974243 0.738643
0.756100 0.965362 0.803281
0.957641 0.966491 0.921691
0.000000 0.204318 0.798276
0.000000 0.207187 0.817227
0.459785 0.228122 0.875364
0.772793 0.420020 0.944793
0.951873 0.546044 0.921935
0.000000 0.256748 0.788876
0.000000 0.259190 0.811093
0.448829 0.300328 0.871031
0.769680 0.490822 0.942168
0.949859 0.596002 0.924041
0.000000 0.389349 0.754726
0.000000 0.381140 0.762234
0.358740 0.438056 0.844694
0.750179 0.632746 0.931365
0.944427 0.721767 0.931212
0.000000 0.671290 0.835813
0.000000 0.666194 0.836423
0.000000 0.642481 0.836515
0.662867 0.727321 0.890745
0.938323 0.864469 0.945159
0.000000 0.945373 0.912840
0.000000 0.945830 0.914214
0.000000 0.945098 0.919097
0.618158 0.944762 0.929931
0.942046 0.962860 0.966888
