其他预设/【233】日式怀旧街道调色预设208款/1.3D LUT预设（视频调色-PR-AE-PS-FCPX-达芬奇用）/4.富士胶片风日式城市街拍预设 (自动曝光预设)/JA – Cityscape Pop 4 (Classic Chrome) (Auto).cube
# Created by Adobe Lightroom plugin Export LUT (1.17.0)
# www.johnrellis.com/lightroom/exportlut.htm
# Preset: JA – Cityscape Pop 4 (Classic Chrome) (Auto)
# Color profile: /Library/Application Support/Adobe/Color/Profiles/Recommended/AdobeRGB1998.icc
LUT_3D_SIZE 5
DOMAIN_MIN 0.000000 0.000000 0.000000
DOMAIN_MAX 0.903226 0.903226 0.903226
0.079744 0.086580 0.090974
0.140139 0.087678 0.090517
0.426673 0.097932 0.055238
0.744137 0.110689 0.000000
0.949859 0.003815 0.000000
0.083375 0.131991 0.093050
0.154910 0.146212 0.087343
0.443214 0.215824 0.000000
0.749325 0.239445 0.000000
0.950683 0.205234 0.000000
0.082460 0.352270 0.054017
0.215000 0.368078 0.000000
0.543664 0.464057 0.000000
0.774990 0.449134 0.000000
0.953185 0.407111 0.000000
0.092042 0.636378 0.000000
0.257298 0.642695 0.000000
0.532067 0.678614 0.000000
0.849729 0.711513 0.000000
0.966705 0.611780 0.000000
0.188663 0.860319 0.000000
0.301518 0.861448 0.000000
0.523186 0.863920 0.000000
0.781827 0.878172 0.000000
0.975341 0.839139 0.331945
0.080690 0.095766 0.151766
0.137789 0.097658 0.157473
0.447944 0.000000 0.138186
0.753170 0.000000 0.018982
0.952270 0.135256 0.000000
0.073152 0.145907 0.162173
0.153414 0.165377 0.172885
0.461860 0.178195 0.131258
0.757656 0.210575 0.000000
0.953063 0.234806 0.000000
0.000000 0.372564 0.204837
0.163546 0.402441 0.164950
0.544671 0.472633 0.139467
0.773892 0.436072 0.000000
0.955444 0.416510 0.000000
0.000000 0.648859 0.178592
0.194827 0.656794 0.155245
0.510521 0.681483 0.121248
0.845823 0.717250 0.145266
0.968750 0.615808 0.000000
0.161410 0.862150 0.237217
0.286290 0.863279 0.231907
0.514611 0.865812 0.208194
0.777981 0.878508 0.214725
0.975647 0.840574 0.337285
0.000000 0.118196 0.384131
0.170047 0.125521 0.412085
0.409735 0.108888 0.440192
0.685328 0.000000 0.410346
0.942473 0.246494 0.421027
0.000000 0.166140 0.384253
0.151156 0.198520 0.421302
0.430915 0.223331 0.458595
0.715877 0.198734 0.425086
0.944274 0.295689 0.411414
0.000000 0.386481 0.431983
0.090150 0.409339 0.449897
0.491096 0.496986 0.503868
0.764065 0.475563 0.458534
0.948669 0.433753 0.381476
0.000000 0.651575 0.476967
0.148104 0.663966 0.478340
0.495735 0.695369 0.492561
0.814542 0.742214 0.555993
0.952361 0.634211 0.386633
0.222782 0.859342 0.505760
0.330388 0.860624 0.509514
0.525383 0.865354 0.504112
0.760769 0.873991 0.518822
0.954620 0.860319 0.590051
0.000000 0.183749 0.628321
0.203189 0.208042 0.642939
0.437598 0.263920 0.683345
0.678981 0.314397 0.689143
0.849577 0.331182 0.633204
0.000000 0.215396 0.624384
0.190738 0.262181 0.641779
0.449775 0.339544 0.683253
0.686641 0.392370 0.694148
0.859159 0.393133 0.643366
0.000000 0.373053 0.629816
0.058045 0.380102 0.636530
0.475105 0.492683 0.676722
0.711543 0.563073 0.711147
0.888304 0.558526 0.678706
0.000000 0.612848 0.665278
0.196536 0.623835 0.671138
0.480262 0.664210 0.692500
0.757748 0.748318 0.746639
0.914885 0.730282 0.715602
0.262760 0.854643 0.715572
0.347295 0.855833 0.715389
0.535607 0.859739 0.715358
0.747250 0.867979 0.727779
0.926360 0.885496 0.796506
0.362768 0.415534 0.846403
0.437049 0.452491 0.848264
0.564630 0.499886 0.856260
0.728298 0.583703 0.869169
0.863005 0.599054 0.862821
0.337743 0.422400 0.844999
0.426551 0.466072 0.846738
0.573419 0.529198 0.854673
0.733455 0.608118 0.868193
0.864317 0.623713 0.863218
0.213840 0.445014 0.840452
0.292149 0.457313 0.842069
0.565789 0.582910 0.849058
0.742580 0.668269 0.864958
0.868894 0.692988 0.865080
0.302464 0.627497 0.850034
0.353155 0.630579 0.849760
0.485664 0.639948 0.848722
0.727382 0.726528 0.855436
0.877897 0.787930 0.870115
0.410163 0.810422 0.861357
0.448219 0.813138 0.861326
0.562463 0.823087 0.861418
0.727901 0.843626 0.863127
0.899687 0.891203 0.888518
