其他预设/【233】日式怀旧街道调色预设208款/1.3D LUT预设（视频调色-PR-AE-PS-FCPX-达芬奇用）/4.富士胶片风日式城市街拍预设 (自动曝光预设)/JA – Static Pop 2 (Classic Chrome) (Auto).cube
# Created by Adobe Lightroom plugin Export LUT (1.17.0)
# www.johnrellis.com/lightroom/exportlut.htm
# Preset: JA – Static Pop 2 (Classic Chrome) (Auto)
# Color profile: /Library/Application Support/Adobe/Color/Profiles/Recommended/AdobeRGB1998.icc
LUT_3D_SIZE 8
DOMAIN_MIN 0.000000 0.000000 0.000000
DOMAIN_MAX 0.903226 0.903226 0.903226
0.076265 0.078828 0.081788
0.163607 0.078096 0.078096
0.409583 0.081666 0.014710
0.645258 0.102968 0.000000
0.812528 0.111574 0.000000
0.927459 0.118441 0.000000
1.000000 0.124147 0.000000
1.000000 0.121828 0.000000
0.062348 0.137392 0.081575
0.150759 0.141207 0.074250
0.403540 0.189212 0.000000
0.641474 0.202274 0.000000
0.810422 0.197635 0.000000
0.926299 0.189609 0.000000
1.000000 0.182528 0.000000
1.000000 0.174685 0.000000
0.000000 0.315709 0.086061
0.146609 0.319738 0.013794
0.350744 0.317479 0.000000
0.628687 0.370520 0.000000
0.803372 0.353002 0.000000
0.922362 0.327062 0.000000
1.000000 0.303746 0.000000
1.000000 0.281804 0.000000
0.000000 0.531579 0.092378
0.000000 0.532494 0.000000
0.365087 0.532189 0.000000
0.563684 0.502586 0.000000
0.781308 0.510613 0.000000
0.915557 0.477516 0.000000
1.000000 0.439124 0.000000
1.000000 0.403876 0.000000
0.000000 0.701991 0.109163
0.000000 0.701289 0.000000
0.307042 0.698970 0.000000
0.550134 0.681697 0.000000
0.723934 0.639673 0.000000
0.889097 0.618097 0.000000
1.000000 0.580804 0.000000
1.000000 0.531609 0.000000
0.000000 0.827787 0.139773
0.000000 0.826749 0.084993
0.226780 0.823331 0.000000
0.499672 0.817807 0.000000
0.696101 0.790921 0.000000
0.849271 0.747372 0.000000
0.977386 0.708644 0.000000
1.000000 0.659998 0.000000
0.000000 0.932280 0.165866
0.000000 0.930999 0.162753
0.163149 0.926390 0.185122
0.447150 0.920867 0.164767
0.649836 0.910002 0.106691
0.818692 0.883482 0.000000
0.956756 0.841764 0.000000
1.000000 0.783139 0.000000
0.000000 1.000000 0.152773
0.000000 1.000000 0.177707
0.160647 1.000000 0.284520
0.410681 1.000000 0.267704
0.597955 0.992828 0.238376
0.762936 0.979095 0.136538
0.917144 0.959228 0.000000
1.000000 0.921080 0.000000
0.072633 0.088289 0.134371
0.138735 0.071199 0.144137
0.382208 0.000000 0.117647
0.625605 0.000000 0.068910
0.803128 0.000000 0.000000
0.923217 0.000000 0.000000
1.000000 0.031250 0.000000
1.000000 0.068360 0.000000
0.038331 0.132174 0.140963
0.130709 0.135348 0.140414
0.372442 0.131716 0.114717
0.622919 0.137881 0.053895
0.801450 0.142794 0.000000
0.922210 0.145663 0.000000
1.000000 0.147005 0.000000
1.000000 0.143435 0.000000
0.000000 0.310613 0.184298
0.077424 0.312261 0.145785
0.337499 0.309697 0.110842
0.613550 0.347295 0.000000
0.795560 0.331914 0.000000
0.918608 0.308904 0.000000
1.000000 0.287907 0.000000
1.000000 0.266697 0.000000
0.000000 0.528313 0.211704
0.000000 0.528069 0.155795
0.343664 0.529442 0.099794
0.557000 0.499123 0.000000
0.776699 0.503380 0.000000
0.911986 0.469398 0.000000
1.000000 0.431800 0.000000
1.000000 0.395972 0.000000
0.000000 0.699977 0.220554
0.000000 0.699153 0.175723
0.286412 0.695888 0.119265
0.541894 0.681025 0.026429
0.720027 0.638300 0.000000
0.886687 0.615900 0.000000
1.000000 0.578485 0.000000
1.000000 0.528222 0.000000
0.000000 0.826719 0.227176
0.000000 0.825650 0.205509
0.221164 0.821164 0.186770
0.495674 0.815885 0.168978
0.692287 0.790768 0.047395
0.846647 0.746914 0.000000
0.975860 0.708583 0.000000
1.000000 0.659785 0.000000
0.000000 0.931914 0.231785
0.000000 0.930571 0.230289
0.187655 0.924620 0.266697
0.452155 0.919341 0.253880
0.650996 0.909636 0.224430
0.816556 0.883482 0.074830
0.954803 0.841886 0.000000
1.000000 0.783688 0.000000
0.000000 1.000000 0.204379
0.000000 1.000000 0.218814
0.207370 1.000000 0.342626
0.424933 0.998962 0.329351
0.604120 0.991669 0.306706
0.764218 0.978668 0.236942
0.915557 0.959228 0.000000
1.000000 0.921386 0.000000
0.000000 0.108766 0.313268
0.076081 0.089998 0.317845
0.321233 0.000000 0.326421
0.594171 0.000000 0.329992
0.782925 0.000000 0.240208
0.909880 0.000000 0.222416
1.000000 0.000000 0.194614
1.000000 0.000000 0.131807
0.000000 0.183536 0.305760
0.096162 0.173800 0.311376
0.314336 0.106691 0.321447
0.588159 0.000000 0.310948
0.780240 0.000000 0.236942
0.908629 0.000000 0.224735
1.000000 0.052491 0.196048
1.000000 0.060853 0.133455
0.000000 0.312291 0.332219
0.000000 0.308843 0.327367
0.290318 0.298283 0.308141
0.574975 0.278202 0.270359
0.771969 0.276219 0.249210
0.904692 0.275181 0.230655
1.000000 0.268772 0.202579
1.000000 0.247044 0.139864
0.000000 0.522271 0.380102
0.000000 0.522271 0.365484
0.265873 0.513878 0.325444
0.531456 0.491829 0.282353
0.760250 0.490394 0.264866
0.897307 0.458320 0.245029
0.999176 0.428412 0.216709
1.000000 0.392157 0.154299
0.000000 0.697078 0.386755
0.000000 0.695735 0.371893
0.235080 0.685939 0.349004
0.520317 0.678309 0.338079
0.703670 0.635157 0.265141
0.876127 0.616236 0.258488
0.991363 0.581781 0.242435
1.000000 0.532341 0.179599
0.000000 0.825193 0.377264
0.000000 0.823606 0.369757
0.213993 0.815091 0.376135
0.491920 0.807950 0.381079
0.682490 0.789487 0.342168
0.835233 0.746334 0.255833
0.968627 0.713344 0.248997
1.000000 0.668147 0.211490
0.000000 0.931426 0.362860
0.000000 0.930022 0.362188
0.182101 0.922240 0.397223
0.475959 0.913481 0.427008
0.658656 0.906889 0.416815
0.810727 0.883055 0.344640
0.946685 0.842802 0.238102
1.000000 0.789029 0.211154
0.000000 1.000000 0.320104
0.000000 1.000000 0.316197
0.000000 1.000000 0.389197
0.470039 0.994049 0.469978
0.625360 0.987671 0.456703
0.771145 0.977020 0.419104
0.910613 0.958984 0.320378
1.000000 0.922911 0.158419
0.000000 0.150423 0.539391
0.000000 0.147951 0.538537
0.268467 0.000000 0.535271
0.533257 0.000000 0.528740
0.750729 0.000000 0.508568
0.887266 0.000000 0.456123
0.989380 0.135286 0.427985
1.000000 0.196628 0.402869
0.000000 0.258427 0.532921
0.000000 0.242161 0.534997
0.261997 0.159243 0.532769
0.528557 0.000000 0.525536
0.746212 0.000000 0.504845
0.884276 0.091737 0.455787
0.989197 0.178134 0.423865
1.000000 0.227512 0.401892
0.000000 0.374426 0.539971
0.000000 0.375494 0.536828
0.319036 0.377691 0.524834
0.510918 0.294987 0.514641
0.731228 0.290898 0.491035
0.875822 0.288243 0.447791
0.985565 0.319310 0.433722
1.000000 0.320012 0.404395
0.000000 0.525963 0.552789
0.000000 0.523156 0.548974
0.233921 0.512383 0.533104
0.478401 0.484230 0.495491
0.713191 0.469520 0.471443
0.867491 0.466804 0.460487
0.980194 0.461433 0.446509
1.000000 0.440864 0.415595
0.000000 0.695399 0.556237
0.000000 0.692958 0.548089
0.000000 0.683009 0.529900
0.479835 0.659815 0.519829
0.671015 0.631983 0.478767
0.855711 0.630396 0.481636
0.972320 0.603906 0.465705
1.000000 0.567712 0.432471
0.000000 0.823362 0.533928
0.000000 0.822202 0.528099
0.000000 0.814084 0.524804
0.482582 0.795773 0.543969
0.672816 0.787106 0.537926
0.813321 0.746548 0.467445
0.954406 0.729305 0.471626
1.000000 0.695125 0.454749
0.000000 0.931273 0.506401
0.000000 0.930297 0.502678
0.000000 0.923369 0.513756
0.480507 0.907652 0.562860
0.664424 0.899565 0.573785
0.803677 0.882658 0.532860
0.931243 0.845090 0.452125
1.000000 0.803525 0.445594
0.000000 1.000000 0.462898
0.000000 1.000000 0.454231
0.000000 1.000000 0.463325
0.452705 0.993286 0.561181
0.652705 0.981964 0.599847
0.784146 0.974823 0.585626
0.903777 0.958648 0.512047
1.000000 0.926146 0.413611
0.000000 0.229984 0.706386
0.000000 0.237919 0.705592
0.182925 0.189273 0.701503
0.441962 0.000000 0.686427
0.697292 0.000000 0.678065
0.860624 0.152743 0.647364
0.969757 0.264195 0.609979
1.000000 0.375250 0.600519
0.000000 0.315251 0.704158
0.000000 0.320592 0.703426
0.225193 0.277256 0.699672
0.440101 0.098756 0.685542
0.693629 0.000000 0.675898
0.857328 0.231846 0.647669
0.967712 0.305333 0.612421
1.000000 0.398474 0.603754
0.000000 0.444099 0.701869
0.209018 0.458747 0.699855
0.360388 0.459785 0.694759
0.458198 0.363134 0.681239
0.680629 0.312779 0.668116
0.846464 0.377966 0.648035
0.961425 0.405646 0.618433
1.000000 0.464790 0.612696
0.000000 0.544152 0.707179
0.000000 0.547906 0.705226
0.367895 0.565789 0.696529
0.539422 0.571588 0.675990
0.658015 0.494026 0.654627
0.830869 0.506188 0.641352
0.953491 0.510552 0.618158
1.000000 0.507988 0.593591
0.000000 0.683497 0.709773
0.000000 0.682368 0.707729
0.169192 0.677607 0.698695
0.484535 0.663661 0.678187
0.627466 0.626947 0.635492
0.819455 0.621515 0.623926
0.950591 0.619318 0.615808
1.000000 0.605921 0.596612
0.000000 0.827146 0.695735
0.000000 0.826322 0.692103
0.000000 0.817258 0.681361
0.410071 0.796353 0.670222
0.640253 0.773983 0.662593
0.785336 0.746151 0.621057
0.940124 0.749599 0.632502
1.000000 0.721004 0.612757
0.000000 0.930602 0.654841
0.000000 0.930327 0.650477
0.000000 0.925292 0.646601
0.391119 0.910826 0.661830
0.648188 0.893034 0.684504
0.796750 0.884092 0.678004
0.911925 0.847684 0.606104
1.000000 0.822599 0.610468
0.000000 1.000000 0.606561
0.000000 1.000000 0.601648
0.000000 1.000000 0.587457
0.270115 1.000000 0.620478
0.639429 0.980560 0.690608
0.788357 0.971374 0.705043
0.896391 0.959014 0.661036
1.000000 0.930327 0.580133
0.000000 0.338933 0.822995
0.000000 0.338628 0.822782
0.186221 0.327337 0.820706
0.384619 0.228519 0.814054
0.580774 0.000000 0.789212
0.821408 0.000000 0.789975
0.946319 0.337041 0.759030
1.000000 0.415930 0.726680
0.000000 0.384833 0.822110
0.000000 0.396155 0.821530
0.271733 0.395605 0.819150
0.405219 0.305669 0.812985
0.581842 0.042054 0.789914
0.818845 0.169223 0.788632
0.944244 0.374823 0.760800
1.000000 0.438788 0.729061
0.270298 0.518456 0.818112
0.301579 0.523796 0.817899
0.413092 0.532403 0.816037
0.485084 0.482063 0.809262
0.593530 0.337377 0.791958
0.810056 0.358007 0.783932
0.939117 0.465400 0.764706
1.000000 0.504814 0.736141
0.118990 0.583337 0.820951
0.268132 0.595789 0.819760
0.481758 0.634089 0.815610
0.596887 0.646113 0.807187
0.630457 0.552392 0.789212
0.795834 0.514488 0.776242
0.930846 0.567956 0.766659
1.000000 0.585229 0.742824
0.000000 0.673548 0.824125
0.000000 0.678248 0.823087
0.374243 0.695186 0.818906
0.591485 0.717189 0.810758
0.701167 0.716487 0.792081
0.777462 0.639429 0.765682
0.922362 0.655818 0.760159
1.000000 0.663874 0.743313
0.000000 0.799069 0.824247
0.000000 0.799130 0.823301
0.000000 0.798978 0.819242
0.477241 0.796109 0.810513
0.652674 0.784512 0.793393
0.749203 0.742550 0.747036
0.915984 0.745876 0.744808
1.000000 0.740902 0.735225
0.000000 0.935180 0.810117
0.000000 0.935210 0.807767
0.000000 0.931365 0.801175
0.241459 0.918090 0.793515
0.579492 0.896788 0.783108
0.769986 0.877073 0.778622
0.888243 0.849271 0.734310
1.000000 0.846189 0.748592
0.000000 1.000000 0.745754
0.000000 1.000000 0.743862
0.000000 1.000000 0.732937
0.000000 1.000000 0.728603
0.529412 0.988251 0.756466
0.776303 0.968933 0.795041
0.892546 0.960601 0.789425
0.992126 0.934874 0.717494
0.295354 0.469001 0.910369
0.295140 0.468849 0.910307
0.303380 0.454047 0.910307
0.396979 0.393439 0.909331
0.526818 0.255253 0.904356
0.708522 0.000000 0.884855
0.923247 0.230900 0.884947
1.000000 0.439765 0.843595
0.296513 0.472084 0.910521
0.301366 0.478309 0.910216
0.371405 0.504204 0.908873
0.435309 0.447303 0.908049
0.541070 0.325078 0.903441
0.708827 0.126253 0.884062
0.921538 0.285588 0.884215
1.000000 0.464546 0.845060
0.387915 0.564416 0.907530
0.392493 0.569024 0.907256
0.459693 0.590173 0.906401
0.539544 0.579644 0.904570
0.592615 0.488045 0.900389
0.711391 0.331334 0.881071
0.915953 0.410895 0.881743
1.000000 0.537072 0.850034
0.473915 0.658289 0.904326
0.471229 0.658961 0.904326
0.551202 0.685512 0.903136
0.640742 0.701900 0.902373
0.671107 0.652308 0.897337
0.729000 0.520562 0.882353
0.907286 0.542321 0.877989
0.999939 0.626642 0.856870
0.358495 0.698360 0.908049
0.354772 0.699336 0.907988
0.464454 0.719081 0.906645
0.656367 0.763424 0.903624
0.753811 0.780453 0.899046
0.763363 0.691585 0.884062
0.896818 0.656764 0.873289
0.995575 0.705013 0.859800
0.000000 0.769741 0.910918
0.000000 0.770993 0.910857
0.266545 0.781643 0.909636
0.562921 0.805447 0.906432
0.736873 0.829252 0.902739
0.829831 0.835599 0.891569
0.882597 0.759823 0.865751
0.990021 0.781857 0.859129
0.000000 0.880217 0.911070
0.000000 0.881895 0.910979
0.000000 0.886076 0.910063
0.362249 0.889158 0.906950
0.636316 0.890990 0.902159
0.786526 0.886625 0.891905
0.856596 0.846860 0.847593
0.986664 0.855436 0.851102
0.000000 1.000000 0.898863
0.000000 1.000000 0.897368
0.000000 1.000000 0.891905
0.000000 1.000000 0.881224
0.367987 0.997894 0.874846
0.702205 0.974914 0.871458
0.878660 0.958679 0.879515
0.971221 0.938720 0.836606
0.487892 0.596368 0.970550
0.487892 0.596368 0.970550
0.487800 0.596277 0.970520
0.464271 0.522637 0.974029
0.521019 0.429114 0.976532
0.628229 0.226932 0.977203
0.814878 0.094667 0.967193
0.999756 0.334112 0.961761
0.488472 0.596735 0.970703
0.488472 0.596735 0.970703
0.488380 0.596704 0.970672
0.490089 0.548913 0.973083
0.544976 0.473548 0.975250
0.638087 0.300694 0.976196
0.815579 0.194553 0.966552
0.998566 0.367651 0.961364
0.504479 0.616236 0.970214
0.507317 0.619409 0.970031
0.516899 0.630396 0.969299
0.591730 0.651331 0.968841
0.616236 0.590417 0.971252
0.673823 0.465736 0.972717
0.818173 0.354498 0.964355
0.994568 0.459083 0.959991
0.566888 0.684291 0.966827
0.568902 0.686519 0.966674
0.576013 0.694240 0.966033
0.650721 0.726253 0.965454
0.706600 0.718318 0.966461
0.729671 0.631922 0.967926
0.821317 0.501396 0.961120
0.988586 0.568139 0.958068
0.626917 0.759487 0.962768
0.626978 0.759518 0.962768
0.627771 0.759426 0.962799
0.636347 0.760403 0.962676
0.772183 0.809812 0.963531
0.793118 0.769558 0.964172
0.831540 0.646967 0.959655
0.981292 0.675196 0.955901
0.545464 0.788113 0.966796
0.545312 0.788205 0.966827
0.545495 0.788327 0.966888
0.548150 0.787808 0.966949
0.745541 0.838376 0.963592
0.860014 0.875547 0.963500
0.864988 0.803250 0.959442
0.972900 0.776852 0.953460
0.384924 0.840848 0.970520
0.383886 0.841154 0.970520
0.381201 0.842039 0.970581
0.377264 0.843290 0.970703
0.633814 0.869780 0.967742
0.832212 0.904814 0.965362
0.922820 0.925689 0.964050
0.963348 0.866667 0.950042
0.000000 0.931518 0.972473
0.000000 0.932372 0.972442
0.000000 0.935515 0.972442
0.000000 0.941558 0.972381
0.340734 0.949645 0.970397
0.729305 0.955932 0.967041
0.886046 0.960418 0.964599
0.945068 0.938170 0.937346
