其他预设/【233】日式怀旧街道调色预设208款/1.3D LUT预设（视频调色-PR-AE-PS-FCPX-达芬奇用）/4.富士胶片风日式城市街拍预设 (自动曝光预设)/JA – Static Pop 3 (Classic Chrome) (Auto).cube
# Created by Adobe Lightroom plugin Export LUT (1.17.0)
# www.johnrellis.com/lightroom/exportlut.htm
# Preset: JA – Static Pop 3 (Classic Chrome) (Auto)
# Color profile: /Library/Application Support/Adobe/Color/Profiles/Recommended/AdobeRGB1998.icc
LUT_3D_SIZE 8
DOMAIN_MIN 0.000000 0.000000 0.000000
DOMAIN_MAX 0.903226 0.903226 0.903226
0.074311 0.079377 0.084535
0.153719 0.078981 0.081514
0.416083 0.083192 0.019898
0.650782 0.102296 0.000000
0.816037 0.107240 0.000000
0.945739 0.110384 0.000000
1.000000 0.112551 0.000000
1.000000 0.106477 0.000000
0.064332 0.129580 0.083284
0.141207 0.135500 0.078462
0.409766 0.192721 0.000000
0.647059 0.203555 0.000000
0.813870 0.196017 0.000000
0.944579 0.186801 0.000000
1.000000 0.177523 0.000000
1.000000 0.166079 0.000000
0.000000 0.313634 0.067079
0.150881 0.319524 0.015503
0.352911 0.324254 0.000000
0.634455 0.373419 0.000000
0.806760 0.352422 0.000000
0.940642 0.328923 0.000000
1.000000 0.304692 0.000000
1.000000 0.278599 0.000000
0.000000 0.541497 0.000000
0.000000 0.541161 0.000000
0.371283 0.540246 0.000000
0.571588 0.515160 0.000000
0.783566 0.512230 0.000000
0.933928 0.482734 0.000000
1.000000 0.444068 0.000000
1.000000 0.403479 0.000000
0.000000 0.702083 0.000000
0.000000 0.699519 0.000000
0.322271 0.696223 0.000000
0.548669 0.680476 0.000000
0.723262 0.644190 0.000000
0.905211 0.628595 0.000000
1.000000 0.589044 0.000000
1.000000 0.533013 0.000000
0.000000 0.836393 0.017029
0.000000 0.834531 0.000000
0.279576 0.829404 0.113710
0.510948 0.824033 0.000000
0.703792 0.799771 0.000000
0.861204 0.761166 0.000000
1.000000 0.724758 0.000000
1.000000 0.664576 0.000000
0.000000 0.952483 0.123751
0.000000 0.950713 0.150149
0.279423 0.943359 0.259373
0.480690 0.938170 0.206973
0.666926 0.927581 0.078431
0.838193 0.903441 0.000000
0.979736 0.863981 0.000000
1.000000 0.793881 0.000000
0.000000 1.000000 0.145785
0.000000 1.000000 0.209720
0.331151 1.000000 0.377935
0.472023 1.000000 0.339879
0.622156 1.000000 0.269688
0.778042 0.992401 0.127596
0.932677 0.973571 0.000000
1.000000 0.933959 0.000000
0.076783 0.090913 0.125643
0.128786 0.072511 0.141299
0.386328 0.000000 0.121614
0.632532 0.000000 0.076478
0.805600 0.000000 0.000000
0.940887 0.000000 0.000000
1.000000 0.000000 0.000000
1.000000 0.000000 0.000000
0.059846 0.122866 0.132540
0.121584 0.129732 0.138125
0.376043 0.131807 0.117769
0.629816 0.139010 0.064668
0.803922 0.141299 0.000000
0.939849 0.141085 0.000000
1.000000 0.138796 0.000000
1.000000 0.130678 0.000000
0.000000 0.307256 0.177829
0.068727 0.312413 0.137697
0.339025 0.315618 0.102388
0.620233 0.350805 0.000000
0.798032 0.331792 0.000000
0.936278 0.311101 0.000000
1.000000 0.288945 0.000000
1.000000 0.262791 0.000000
0.000000 0.538628 0.195560
0.000000 0.538842 0.129244
0.348913 0.538170 0.086427
0.565362 0.511864 0.000000
0.778470 0.504692 0.000000
0.929717 0.475074 0.000000
1.000000 0.437446 0.000000
1.000000 0.395758 0.000000
0.000000 0.700496 0.191318
0.000000 0.699428 0.145937
0.306218 0.693660 0.145296
0.540002 0.679866 0.000000
0.719356 0.642786 0.000000
0.902464 0.626246 0.000000
1.000000 0.587427 0.000000
1.000000 0.530266 0.000000
0.000000 0.835447 0.198764
0.000000 0.833982 0.186679
0.283055 0.827146 0.234928
0.507683 0.822232 0.180972
0.699550 0.799557 0.000000
0.858427 0.760586 0.000000
0.999542 0.724727 0.000000
1.000000 0.664790 0.000000
0.000000 0.952148 0.214694
0.000000 0.950347 0.230503
0.302464 0.941405 0.333867
0.487831 0.936614 0.294408
0.667445 0.927153 0.222568
0.835721 0.903380 0.000000
0.977752 0.864042 0.000000
1.000000 0.794491 0.000000
0.000000 1.000000 0.199496
0.000000 1.000000 0.245151
0.357824 1.000000 0.426459
0.487037 1.000000 0.395361
0.629084 1.000000 0.339055
0.778958 0.991943 0.239902
0.930785 0.973571 0.000000
1.000000 0.934264 0.000000
0.000000 0.120699 0.290562
0.077546 0.104341 0.298131
0.316167 0.000000 0.335760
0.595331 0.000000 0.340246
0.780789 0.000000 0.278264
0.923491 0.000000 0.266423
1.000000 0.000000 0.240818
1.000000 0.000000 0.182773
0.000000 0.180209 0.283513
0.115480 0.181186 0.298283
0.310094 0.094057 0.331579
0.591485 0.000000 0.325048
0.777920 0.000000 0.277073
0.922240 0.081849 0.269017
1.000000 0.127962 0.242741
1.000000 0.112642 0.185122
0.000000 0.302373 0.323461
0.000000 0.303960 0.324620
0.287053 0.302861 0.320409
0.580346 0.298741 0.301274
0.769680 0.300877 0.289677
0.918425 0.300664 0.275792
1.000000 0.292638 0.250767
1.000000 0.264469 0.193545
0.000000 0.532891 0.380804
0.000000 0.533379 0.368505
0.273777 0.526024 0.340063
0.539696 0.505241 0.288670
0.758633 0.497871 0.302068
0.911376 0.474434 0.289921
1.000000 0.446845 0.266270
1.000000 0.405249 0.210452
0.000000 0.698726 0.376654
0.000000 0.697047 0.367163
0.269261 0.685908 0.368292
0.519554 0.676661 0.354070
0.702113 0.639857 0.274327
0.889708 0.629175 0.293126
1.000000 0.598230 0.291783
1.000000 0.543603 0.237156
0.000000 0.834684 0.370153
0.000000 0.832609 0.371130
0.273350 0.822721 0.401282
0.511284 0.814389 0.411261
0.688808 0.797879 0.355993
0.845884 0.759762 0.263828
0.990906 0.731197 0.281865
1.000000 0.678065 0.266331
0.000000 0.952056 0.362524
0.000000 0.950042 0.373083
0.275547 0.941100 0.429969
0.515068 0.931090 0.466865
0.673945 0.924498 0.429603
0.828672 0.902861 0.354955
0.969085 0.865049 0.243107
1.000000 0.800992 0.246921
0.000000 1.000000 0.311955
0.000000 1.000000 0.328283
0.255558 1.000000 0.437781
0.526452 1.000000 0.519646
0.649866 1.000000 0.485817
0.784268 0.990112 0.428840
0.925017 0.973175 0.331670
1.000000 0.935882 0.166781
0.000000 0.195804 0.520714
0.000000 0.190616 0.521141
0.260533 0.107485 0.528405
0.532525 0.000000 0.545647
0.736721 0.000000 0.509483
0.893584 0.064363 0.486427
1.000000 0.273136 0.492531
1.000000 0.304082 0.470802
0.000000 0.281926 0.511803
0.090425 0.275853 0.519615
0.265599 0.205936 0.528405
0.528588 0.000000 0.543267
0.733425 0.000000 0.507591
0.890379 0.199496 0.492195
1.000000 0.292851 0.488533
1.000000 0.322118 0.469612
0.000000 0.378973 0.526268
0.137423 0.385748 0.526238
0.345708 0.402350 0.525994
0.512779 0.300267 0.534630
0.720790 0.316228 0.508995
0.881590 0.367193 0.505791
1.000000 0.386481 0.495705
1.000000 0.386542 0.470710
0.000000 0.525383 0.550835
0.000000 0.524834 0.549828
0.276707 0.519646 0.542870
0.483772 0.499123 0.519860
0.704768 0.500725 0.514763
0.875181 0.504479 0.511894
0.998138 0.502708 0.503441
1.000000 0.484810 0.478676
0.000000 0.693355 0.548577
0.000000 0.693385 0.544610
0.202274 0.684169 0.541619
0.494331 0.661311 0.544152
0.667262 0.637415 0.500450
0.866239 0.648676 0.521660
0.991424 0.630213 0.514488
1.000000 0.596063 0.490181
0.000000 0.834318 0.532464
0.000000 0.832517 0.532158
0.219486 0.822629 0.547112
0.502037 0.805112 0.566644
0.676173 0.795377 0.550622
0.821988 0.759640 0.485512
0.975189 0.749203 0.506493
1.000000 0.712337 0.504417
0.000000 0.952850 0.510369
0.000000 0.951049 0.514549
0.200931 0.942351 0.545739
0.506126 0.928618 0.585290
0.676448 0.919097 0.586786
0.818570 0.902617 0.540002
0.952972 0.867369 0.466316
1.000000 0.817105 0.480140
0.000000 1.000000 0.453834
0.000000 1.000000 0.457649
0.000000 1.000000 0.503563
0.499458 1.000000 0.591119
0.673213 0.995819 0.621485
0.790555 0.988251 0.585290
0.916472 0.972747 0.519127
1.000000 0.939330 0.429694
0.079927 0.317235 0.676234
0.095094 0.325048 0.675166
0.252934 0.283055 0.677424
0.434028 0.140078 0.672908
0.685023 0.000000 0.682582
0.856107 0.000000 0.647761
0.985046 0.270512 0.631220
1.000000 0.423804 0.637507
0.176120 0.379797 0.672450
0.210910 0.386481 0.673030
0.301549 0.353307 0.676661
0.439216 0.233280 0.672572
0.681666 0.000000 0.680781
0.853544 0.144656 0.648646
0.983246 0.316014 0.634852
1.000000 0.446845 0.641901
0.262364 0.476204 0.671107
0.339300 0.492897 0.670558
0.423835 0.500267 0.674128
0.474434 0.422187 0.670527
0.669215 0.326299 0.674189
0.844877 0.352361 0.652735
0.977874 0.425788 0.645136
1.000000 0.516075 0.656428
0.000000 0.551263 0.685054
0.224277 0.557916 0.684413
0.432044 0.578363 0.680690
0.553094 0.586358 0.670314
0.649073 0.505791 0.663478
0.833738 0.509819 0.655604
0.971344 0.547417 0.656977
1.000000 0.553857 0.640040
0.000000 0.679805 0.699397
0.000000 0.679377 0.698573
0.311101 0.676112 0.693965
0.513817 0.664485 0.681270
0.624475 0.632929 0.649836
0.827573 0.640253 0.651759
0.970214 0.644587 0.650843
1.000000 0.636042 0.638453
0.000000 0.826139 0.689631
0.000000 0.825376 0.689265
0.120638 0.819760 0.690517
0.470832 0.807492 0.690517
0.642451 0.786404 0.676173
0.793790 0.758297 0.630823
0.961700 0.766690 0.656916
1.000000 0.738460 0.646754
0.000000 0.953918 0.657435
0.000000 0.952544 0.658076
0.000000 0.944640 0.670924
0.460578 0.931701 0.689815
0.657923 0.916381 0.699763
0.805295 0.904417 0.680385
0.934630 0.869627 0.611536
1.000000 0.834195 0.632746
0.000000 1.000000 0.597345
0.000000 1.000000 0.595239
0.000000 1.000000 0.611109
0.403754 1.000000 0.656825
0.663874 0.995270 0.711849
0.798367 0.984771 0.716426
0.906157 0.972992 0.662104
1.000000 0.943359 0.585779
0.317052 0.456458 0.799405
0.316625 0.456153 0.799161
0.358190 0.443214 0.799863
0.444282 0.371923 0.798886
0.585809 0.193576 0.788479
0.819791 0.000000 0.799344
0.959197 0.212192 0.762936
1.000000 0.387366 0.734524
0.344182 0.488258 0.797910
0.350347 0.495491 0.797208
0.404517 0.489357 0.799588
0.467750 0.423163 0.798428
0.590509 0.270909 0.788113
0.817227 0.169009 0.798032
0.957397 0.268376 0.764004
1.000000 0.412818 0.736812
0.427405 0.578119 0.792752
0.440589 0.581476 0.793790
0.493965 0.584833 0.798825
0.532006 0.542504 0.798093
0.610163 0.436469 0.787167
0.808621 0.363897 0.793790
0.952300 0.392950 0.766720
1.000000 0.486793 0.744106
0.372717 0.624628 0.800992
0.422248 0.633783 0.801083
0.540734 0.660060 0.801053
0.617731 0.666102 0.800656
0.642329 0.588983 0.788449
0.795865 0.514611 0.787350
0.946410 0.521752 0.768917
1.000000 0.585199 0.755581
0.221042 0.697719 0.813107
0.307134 0.702266 0.812955
0.468757 0.714717 0.812192
0.615503 0.729030 0.808957
0.707301 0.727352 0.795834
0.779965 0.637018 0.779019
0.940795 0.646632 0.770504
1.000000 0.698482 0.775967
0.000000 0.812772 0.824155
0.000000 0.812924 0.823850
0.327092 0.812589 0.822446
0.529534 0.809476 0.818235
0.667811 0.797787 0.806058
0.754513 0.754269 0.764065
0.935851 0.769497 0.773739
1.000000 0.770169 0.771023
0.000000 0.944976 0.808286
0.000000 0.944030 0.808255
0.000000 0.938720 0.809812
0.417914 0.931060 0.810452
0.625666 0.921080 0.806546
0.786191 0.900420 0.799954
0.910124 0.871489 0.746304
1.000000 0.862943 0.778103
0.000000 1.000000 0.739223
0.000000 1.000000 0.737270
0.000000 1.000000 0.733761
0.240330 1.000000 0.755398
0.597864 1.000000 0.781582
0.804990 0.981628 0.821530
0.903166 0.972717 0.803006
1.000000 0.948425 0.727779
0.477333 0.583062 0.901274
0.477089 0.582940 0.901213
0.476387 0.571069 0.901701
0.519951 0.530785 0.903349
0.597406 0.448493 0.902373
0.729854 0.283055 0.896452
0.936522 0.213443 0.902770
1.000000 0.343206 0.846281
0.479652 0.586084 0.901366
0.482887 0.590539 0.900999
0.507774 0.600153 0.901457
0.541405 0.560571 0.903044
0.609125 0.483558 0.901976
0.731899 0.331945 0.895598
0.934874 0.272984 0.902068
1.000000 0.371893 0.847074
0.527398 0.646143 0.898405
0.529870 0.649195 0.898070
0.563134 0.660060 0.899687
0.604456 0.643336 0.902617
0.644160 0.576440 0.901305
0.737667 0.448127 0.893004
0.929747 0.400031 0.899901
1.000000 0.450843 0.849454
0.579461 0.712001 0.895689
0.577691 0.712551 0.895750
0.625177 0.729458 0.896574
0.683833 0.738857 0.902281
0.700740 0.692470 0.901671
0.752346 0.585657 0.892638
0.922301 0.526696 0.896880
1.000000 0.549981 0.852537
0.513390 0.746548 0.903441
0.511437 0.747341 0.903471
0.568292 0.759854 0.903777
0.701045 0.791745 0.903990
0.780453 0.806638 0.904570
0.781521 0.723964 0.895171
0.912718 0.646235 0.892973
1.000000 0.666804 0.858152
0.395727 0.808713 0.911284
0.393011 0.809781 0.911254
0.463935 0.816678 0.911376
0.627619 0.831693 0.911406
0.769650 0.851072 0.910521
0.850492 0.857786 0.903471
0.898711 0.766232 0.886442
0.999725 0.790127 0.871305
0.000000 0.906218 0.917388
0.000000 0.907683 0.917357
0.215061 0.911040 0.917235
0.498177 0.912169 0.917082
0.686458 0.912352 0.915923
0.817929 0.907866 0.910124
0.875792 0.869841 0.872404
0.992645 0.885924 0.884306
0.000000 1.000000 0.895384
0.000000 1.000000 0.894041
0.000000 1.000000 0.888853
0.000000 1.000000 0.885496
0.543816 1.000000 0.886809
0.770352 0.985687 0.893889
0.905150 0.970428 0.905760
0.982269 0.953582 0.859617
0.632074 0.702724 0.964416
0.632074 0.702693 0.964385
0.631952 0.702632 0.964385
0.615534 0.655970 0.967864
0.645441 0.601190 0.971466
0.711666 0.509148 0.974273
0.838376 0.372290 0.975708
1.000000 0.317998 0.974853
0.632593 0.703090 0.964538
0.632593 0.703090 0.964538
0.632502 0.703059 0.964538
0.628840 0.670405 0.967376
0.658534 0.623041 0.970733
0.718379 0.534447 0.973602
0.839414 0.403449 0.975036
1.000000 0.351446 0.974456
0.644617 0.717311 0.964050
0.646235 0.719356 0.963836
0.652033 0.726497 0.963195
0.689113 0.733822 0.964874
0.700984 0.689357 0.968414
0.740658 0.609430 0.971527
0.842283 0.487648 0.973053
1.000000 0.440497 0.973175
0.685389 0.763790 0.960967
0.686732 0.765316 0.960845
0.691615 0.770687 0.960266
0.737392 0.791440 0.961547
0.768246 0.780423 0.965118
0.779171 0.712154 0.968475
0.845884 0.590753 0.970153
1.000000 0.548272 0.971344
0.729366 0.818021 0.957519
0.729427 0.818051 0.957519
0.730037 0.818021 0.957519
0.735958 0.818906 0.957366
0.826780 0.854551 0.962158
0.834348 0.819913 0.965423
0.857572 0.713313 0.966888
0.992645 0.665888 0.968780
0.675807 0.838773 0.963073
0.675746 0.838865 0.963104
0.675898 0.838956 0.963134
0.677760 0.838621 0.963165
0.811246 0.876219 0.961669
0.895171 0.906310 0.964477
0.891691 0.847990 0.964385
0.982574 0.784543 0.965484
0.588708 0.880583 0.968322
0.588281 0.880797 0.968353
0.587030 0.881498 0.968414
0.585382 0.882567 0.968566
0.730892 0.900206 0.967407
0.877195 0.927581 0.966949
0.942107 0.944152 0.967987
0.971984 0.885252 0.961791
0.433967 0.954223 0.972015
0.432197 0.954925 0.972045
0.425849 0.957488 0.972076
0.413275 0.962432 0.972137
0.562890 0.966918 0.971649
0.803189 0.968383 0.970977
0.920409 0.970581 0.971405
0.958648 0.954314 0.954009
