其他预设/【233】日式怀旧街道调色预设208款/1.3D LUT预设（视频调色-PR-AE-PS-FCPX-达芬奇用）/4.富士胶片风日式城市街拍预设 (自动曝光预设)/JA – Neon 3 (Classic Chrome) (Auto).cube
# Created by Adobe Lightroom plugin Export LUT (1.17.0)
# www.johnrellis.com/lightroom/exportlut.htm
# Preset: JA – Neon 3 (Classic Chrome) (Auto)
# Color profile: /Library/Application Support/Adobe/Color/Profiles/Recommended/AdobeRGB1998.icc
LUT_3D_SIZE 5
DOMAIN_MIN 0.000000 0.000000 0.000000
DOMAIN_MAX 0.903226 0.903226 0.903226
0.115114 0.114839 0.114870
0.234104 0.130465 0.108949
0.628138 0.233402 0.000000
0.887968 0.317754 0.000000
1.000000 0.373632 0.000000
0.111879 0.163668 0.111299
0.175814 0.164767 0.113771
0.619959 0.321935 0.000000
0.885130 0.380591 0.000000
1.000000 0.416022 0.000000
0.000031 0.444251 0.000000
0.266209 0.445106 0.000000
0.475837 0.424048 0.110231
0.846006 0.535424 0.000000
1.000000 0.535149 0.000000
0.000000 0.678950 0.000000
0.262425 0.676204 0.000000
0.525963 0.663447 0.000000
0.711421 0.637201 0.266880
0.988769 0.718929 0.297734
0.000000 0.924193 0.000000
0.255558 0.921355 0.000000
0.545312 0.912047 0.000000
0.791867 0.891478 0.246738
0.946288 0.867247 0.496864
0.084962 0.124392 0.200992
0.202792 0.106233 0.199985
0.580377 0.185672 0.223636
0.858305 0.346624 0.273594
1.000000 0.440192 0.311009
0.078279 0.184421 0.194614
0.202029 0.201083 0.201724
0.575830 0.298924 0.231418
0.857694 0.403235 0.275120
1.000000 0.473548 0.311620
0.000000 0.452399 0.247593
0.212772 0.451209 0.208347
0.474464 0.433936 0.260136
0.836698 0.552209 0.303960
1.000000 0.577386 0.326238
0.000000 0.679744 0.251347
0.256046 0.674800 0.245670
0.524346 0.664454 0.267247
0.704433 0.641596 0.383764
0.980743 0.736355 0.434180
0.115084 0.921233 0.279393
0.283818 0.919219 0.264897
0.553246 0.910124 0.275853
0.791836 0.891264 0.379492
0.944060 0.868711 0.526574
0.000000 0.181186 0.488930
0.051331 0.107362 0.507622
0.533196 0.134981 0.522362
0.784665 0.391485 0.519738
0.979583 0.610803 0.639277
0.000000 0.262547 0.454627
0.000000 0.220737 0.478523
0.523491 0.277958 0.514427
0.789120 0.464912 0.542870
0.980041 0.623651 0.634943
0.000000 0.451850 0.491371
0.000000 0.452247 0.486549
0.520653 0.511009 0.517296
0.796597 0.595148 0.569726
0.979553 0.675532 0.626490
0.000000 0.699489 0.532494
0.236301 0.691829 0.528771
0.535271 0.680690 0.529686
0.703120 0.663661 0.555901
0.966308 0.772824 0.634730
0.000000 0.928832 0.543664
0.303044 0.922332 0.554253
0.560266 0.909667 0.551110
0.782986 0.894957 0.565606
0.932158 0.874968 0.653956
0.000000 0.238346 0.691981
0.000000 0.163607 0.705928
0.436378 0.246983 0.753750
0.772122 0.397925 0.758572
0.952178 0.550469 0.732509
0.000000 0.303349 0.672267
0.000000 0.274388 0.685573
0.428687 0.329503 0.738033
0.766964 0.451087 0.754421
0.950774 0.595422 0.743648
0.000000 0.442634 0.663661
0.000000 0.431678 0.657557
0.380804 0.465736 0.683589
0.756344 0.569818 0.746578
0.943877 0.733730 0.792142
0.000000 0.654200 0.711574
0.000000 0.654841 0.707759
0.421118 0.668513 0.704250
0.751644 0.738369 0.746944
0.939055 0.836423 0.828397
0.000000 0.937957 0.793301
0.020508 0.934722 0.793271
0.515404 0.923491 0.778805
0.779507 0.902983 0.773800
0.916075 0.886595 0.805142
0.000000 0.324773 0.926635
0.000000 0.315618 0.928222
0.350622 0.370428 0.933104
0.739071 0.543938 0.935180
0.936400 0.652522 0.925719
0.000000 0.374029 0.922942
0.000000 0.366613 0.924498
0.349310 0.415564 0.929747
0.737606 0.570275 0.933257
0.934569 0.678645 0.924529
0.000000 0.500755 0.910063
0.000000 0.483345 0.912505
0.270451 0.511040 0.917998
0.719387 0.631159 0.927153
0.929259 0.750668 0.921202
0.000000 0.661006 0.918883
0.000000 0.656214 0.917540
0.000000 0.646845 0.911345
0.602747 0.677790 0.911070
0.921843 0.841703 0.916808
0.000000 0.849027 0.923491
0.000000 0.850797 0.922484
0.181460 0.859525 0.918181
0.645533 0.876249 0.911101
0.915648 0.908263 0.913054
