其他预设/【233】日式怀旧街道调色预设208款/1.3D LUT预设（视频调色-PR-AE-PS-FCPX-达芬奇用）/4.富士胶片风日式城市街拍预设 (自动曝光预设)/JA – Chrome 5 (Classic Chrome) (Auto).cube
# Created by Adobe Lightroom plugin Export LUT (1.17.0)
# www.johnrellis.com/lightroom/exportlut.htm
# Preset: JA – Chrome 5 (Classic Chrome) (Auto)
# Color profile: /Library/Application Support/Adobe/Color/Profiles/Recommended/AdobeRGB1998.icc
LUT_3D_SIZE 8
DOMAIN_MIN 0.000000 0.000000 0.000000
DOMAIN_MAX 0.903226 0.903226 0.903226
0.084840 0.084779 0.084474
0.139101 0.089479 0.082307
0.223087 0.103304 0.076234
0.423041 0.149050 0.012604
0.638331 0.205997 0.000000
0.780026 0.246250 0.000000
0.899046 0.281376 0.000000
0.990661 0.308721 0.000000
0.088685 0.138735 0.088197
0.141634 0.138552 0.085115
0.228916 0.147311 0.077852
0.436378 0.202060 0.001526
0.644617 0.252110 0.000000
0.783719 0.282628 0.000000
0.901244 0.310613 0.000000
0.991394 0.331945 0.000000
0.099245 0.216159 0.098512
0.140139 0.215488 0.096559
0.238102 0.230198 0.086915
0.465278 0.324620 0.000000
0.665614 0.376410 0.000000
0.796323 0.385840 0.000000
0.908354 0.396674 0.000000
0.993866 0.403326 0.000000
0.076051 0.383978 0.076173
0.151736 0.384070 0.070253
0.280583 0.383490 0.031403
0.469337 0.446235 0.000000
0.668391 0.494575 0.000000
0.814328 0.524620 0.000000
0.919677 0.519432 0.000000
0.997467 0.507286 0.000000
0.000000 0.560388 0.000000
0.132052 0.559167 0.000000
0.295781 0.554528 0.000000
0.453376 0.560723 0.000000
0.643763 0.608637 0.000000
0.802426 0.621241 0.000000
0.921904 0.634943 0.000000
1.000000 0.630335 0.000000
0.000000 0.683009 0.000000
0.086458 0.681910 0.000000
0.277165 0.677974 0.000000
0.432532 0.670863 0.000000
0.592248 0.690059 0.000000
0.772396 0.731441 0.000000
0.910826 0.730678 0.000000
0.994049 0.721462 0.000000
0.000000 0.797391 0.000000
0.000000 0.796628 0.000000
0.257939 0.793912 0.000000
0.415656 0.788937 0.000000
0.564111 0.781796 0.000000
0.720882 0.810086 0.000000
0.879118 0.837247 0.000000
0.984253 0.813962 0.000000
0.000000 0.909331 0.000000
0.089601 0.908812 0.000000
0.260777 0.907073 0.000000
0.408423 0.903746 0.000000
0.551843 0.898802 0.000000
0.692256 0.896635 0.000000
0.827604 0.908263 0.000000
0.953094 0.913634 0.000000
0.098146 0.096223 0.125704
0.134798 0.090608 0.131472
0.215976 0.102144 0.126284
0.416236 0.123079 0.117464
0.633814 0.172152 0.070924
0.777188 0.220371 0.000000
0.897704 0.262028 0.000000
0.990265 0.293645 0.000000
0.102602 0.131044 0.131258
0.138552 0.137850 0.136721
0.222965 0.146304 0.133028
0.428809 0.179782 0.113985
0.640101 0.225162 0.060883
0.780911 0.260685 0.000000
0.899870 0.293339 0.000000
0.991028 0.318242 0.000000
0.100649 0.217044 0.138888
0.138979 0.218753 0.136965
0.236332 0.229435 0.127810
0.465675 0.319280 0.090089
0.661036 0.359014 0.000000
0.793606 0.370977 0.000000
0.907042 0.384192 0.000000
0.993500 0.393011 0.000000
0.000000 0.388617 0.130800
0.115267 0.392493 0.113130
0.274174 0.391241 0.094484
0.468421 0.445533 0.000000
0.668788 0.490822 0.000000
0.814389 0.519890 0.000000
0.918517 0.510979 0.000000
0.997131 0.500237 0.000000
0.000000 0.564782 0.011414
0.011688 0.564691 0.000000
0.278233 0.559747 0.000000
0.447333 0.560998 0.000000
0.643366 0.608331 0.000000
0.802762 0.619532 0.000000
0.922179 0.633417 0.000000
1.000000 0.626642 0.000000
0.000000 0.686091 0.000000
0.000000 0.685267 0.000000
0.256870 0.681178 0.000000
0.424506 0.673762 0.000000
0.588495 0.689876 0.000000
0.772000 0.731319 0.000000
0.910796 0.730373 0.000000
0.993530 0.722011 0.000000
0.000000 0.799252 0.000000
0.000000 0.798520 0.000000
0.240177 0.795712 0.000000
0.406897 0.790677 0.000000
0.559594 0.783291 0.000000
0.718868 0.809842 0.000000
0.878843 0.837186 0.000000
0.983429 0.814603 0.000000
0.000000 0.909728 0.000000
0.074037 0.909239 0.000000
0.255558 0.907500 0.000000
0.403906 0.904295 0.000000
0.548089 0.899382 0.000000
0.689784 0.896330 0.000000
0.826993 0.908049 0.000000
0.952697 0.913542 0.000000
0.120241 0.115267 0.181064
0.142184 0.111971 0.189975
0.212253 0.110536 0.202609
0.378820 0.035309 0.237675
0.613519 0.000000 0.195499
0.763394 0.036042 0.187198
0.891600 0.174960 0.156954
0.988067 0.234623 0.109682
0.138491 0.148562 0.181979
0.152773 0.149233 0.191775
0.217075 0.143191 0.207645
0.395361 0.089174 0.233402
0.619806 0.000000 0.194614
0.769162 0.155215 0.185153
0.893736 0.223819 0.158267
0.988739 0.267704 0.112306
0.136324 0.199741 0.198703
0.157046 0.205692 0.204044
0.229648 0.226505 0.221378
0.447791 0.252110 0.213504
0.644892 0.286107 0.199405
0.782742 0.315831 0.185336
0.900816 0.343023 0.164736
0.990967 0.361028 0.123934
0.000000 0.382727 0.256565
0.065949 0.393164 0.251164
0.210330 0.416541 0.200870
0.464576 0.443122 0.174014
0.668513 0.478340 0.186069
0.803037 0.490089 0.196628
0.911650 0.490974 0.187991
0.993530 0.486305 0.159274
0.000000 0.568597 0.253025
0.000000 0.571191 0.236576
0.189639 0.576898 0.177829
0.422248 0.565423 0.135561
0.640864 0.606836 0.127749
0.801816 0.616693 0.174777
0.919188 0.638819 0.226078
0.994293 0.627222 0.228122
0.000000 0.689235 0.216587
0.000000 0.690578 0.198642
0.187381 0.691341 0.169284
0.396307 0.683528 0.127504
0.575769 0.688655 0.077546
0.770169 0.730526 0.121248
0.908171 0.732876 0.208713
0.988312 0.732479 0.267643
0.000000 0.802121 0.179873
0.000000 0.802518 0.164950
0.206577 0.800595 0.178866
0.385962 0.795773 0.138705
0.545830 0.788235 0.005768
0.712764 0.808255 0.060060
0.877409 0.836759 0.173404
0.978882 0.819028 0.273625
0.000000 0.912291 0.172885
0.000000 0.911986 0.169192
0.268406 0.907836 0.227787
0.403662 0.905028 0.197238
0.541985 0.900633 0.141085
0.682673 0.894713 0.000000
0.825956 0.906950 0.169924
0.951202 0.913146 0.262760
0.147646 0.134066 0.272435
0.172183 0.130953 0.288457
0.278630 0.095644 0.347631
0.401251 0.000000 0.362585
0.565850 0.000000 0.383795
0.734615 0.000000 0.358648
0.869505 0.000000 0.335760
0.967132 0.321813 0.383307
0.154269 0.162722 0.278050
0.174350 0.160250 0.292729
0.272953 0.135958 0.348119
0.409277 0.071077 0.369177
0.574640 0.000000 0.383368
0.738491 0.000000 0.357977
0.870512 0.158175 0.344732
0.968994 0.339422 0.381750
0.167422 0.217197 0.264439
0.184634 0.223453 0.272404
0.250980 0.236393 0.342290
0.430640 0.217441 0.387671
0.599542 0.226261 0.384131
0.748836 0.277195 0.371191
0.872160 0.382116 0.398505
0.974701 0.403571 0.380468
0.113649 0.341833 0.332525
0.142123 0.350774 0.340459
0.252293 0.381689 0.366217
0.450202 0.433783 0.407202
0.632746 0.460792 0.411780
0.769192 0.486885 0.416297
0.887846 0.510399 0.416480
0.977173 0.521599 0.405615
0.000000 0.556786 0.400061
0.000000 0.561242 0.398383
0.215702 0.573907 0.391577
0.428077 0.583673 0.384833
0.633021 0.602106 0.376623
0.789822 0.631464 0.423926
0.902861 0.655482 0.446784
0.979004 0.649348 0.440925
0.000000 0.687160 0.379095
0.000000 0.689174 0.375189
0.198581 0.694820 0.365576
0.416846 0.693538 0.371160
0.566155 0.683711 0.322423
0.765438 0.727993 0.372137
0.899901 0.744381 0.427131
0.977813 0.756771 0.465187
0.000000 0.803677 0.355230
0.000000 0.803769 0.352636
0.206455 0.803281 0.349218
0.414496 0.799802 0.364446
0.548363 0.793668 0.325536
0.707790 0.803006 0.317327
0.874327 0.835691 0.382452
0.971344 0.827512 0.445502
0.000000 0.911803 0.348730
0.000000 0.911406 0.348577
0.244846 0.909728 0.349157
0.434394 0.904356 0.376287
0.551873 0.900755 0.345769
0.680232 0.895384 0.298680
0.825254 0.904417 0.345006
0.948882 0.912505 0.410925
0.187808 0.146273 0.415930
0.214908 0.141207 0.428321
0.308873 0.109285 0.468757
0.477485 0.000000 0.530907
0.595361 0.000000 0.521019
0.704219 0.000000 0.503136
0.836393 0.131716 0.498238
0.951598 0.282567 0.497444
0.182193 0.172976 0.418219
0.208560 0.169284 0.429877
0.301671 0.147433 0.468513
0.471321 0.000000 0.529717
0.598230 0.000000 0.523705
0.705104 0.026642 0.504784
0.837827 0.208072 0.501854
0.951751 0.319005 0.501610
0.177981 0.250126 0.406683
0.197818 0.251835 0.424048
0.285618 0.253391 0.462043
0.453864 0.245914 0.522026
0.604822 0.239292 0.530632
0.705837 0.293767 0.513664
0.842863 0.354620 0.515404
0.952758 0.414343 0.514611
0.184573 0.338506 0.405859
0.212619 0.344915 0.411475
0.311009 0.372412 0.429358
0.460243 0.434089 0.500755
0.610590 0.449439 0.538689
0.722286 0.467140 0.533013
0.854093 0.495369 0.533928
0.951659 0.557275 0.553094
0.140719 0.494881 0.470680
0.188998 0.500206 0.474952
0.319432 0.518120 0.489296
0.477516 0.549432 0.514000
0.619837 0.593072 0.550408
0.757076 0.617914 0.559808
0.875822 0.641535 0.566766
0.962280 0.655573 0.566033
0.117556 0.671962 0.520684
0.188907 0.674342 0.523125
0.328222 0.679438 0.527123
0.466957 0.687953 0.531090
0.594415 0.698604 0.525261
0.758328 0.723751 0.529717
0.891325 0.758328 0.578210
0.966155 0.773342 0.600519
0.133242 0.793484 0.511742
0.192630 0.794095 0.512016
0.316075 0.796048 0.513054
0.441382 0.800412 0.510002
0.572717 0.800748 0.503075
0.696223 0.792416 0.460639
0.870268 0.834226 0.523766
0.963409 0.837400 0.580072
0.186038 0.906401 0.504540
0.224765 0.906432 0.504173
0.318151 0.906767 0.501213
0.431708 0.905882 0.493904
0.567681 0.901518 0.495552
0.681239 0.896788 0.460609
0.820127 0.900542 0.466957
0.945861 0.911925 0.533379
0.233371 0.167056 0.534630
0.256443 0.163607 0.542107
0.332158 0.145815 0.567651
0.459266 0.076234 0.610101
0.623102 0.000000 0.656428
0.728878 0.000000 0.639307
0.822293 0.195224 0.621637
0.925597 0.323430 0.626398
0.230594 0.195590 0.534325
0.253208 0.193210 0.541466
0.329168 0.181827 0.566491
0.456031 0.147616 0.608606
0.624140 0.000000 0.657771
0.729366 0.097200 0.640345
0.821927 0.249332 0.623621
0.925994 0.350805 0.628382
0.238865 0.281743 0.526879
0.260594 0.283238 0.534081
0.333410 0.288365 0.558801
0.456855 0.295262 0.600885
0.629267 0.299657 0.658808
0.730098 0.314946 0.642969
0.820737 0.369543 0.630274
0.927794 0.427985 0.634546
0.269688 0.366705 0.484657
0.292943 0.376318 0.495552
0.376318 0.412482 0.532982
0.479438 0.444343 0.581872
0.623255 0.472175 0.642817
0.731807 0.475837 0.647974
0.819821 0.491127 0.639826
0.932189 0.525841 0.643305
0.281346 0.467659 0.520165
0.306950 0.472358 0.522545
0.385351 0.490059 0.530907
0.490150 0.522240 0.545892
0.613581 0.581262 0.614496
0.736446 0.600763 0.656397
0.833585 0.606165 0.653376
0.939513 0.633753 0.655879
0.295598 0.607996 0.574701
0.323827 0.610803 0.576959
0.404425 0.620874 0.585046
0.509056 0.639277 0.600305
0.620020 0.667872 0.625299
0.744350 0.714900 0.668788
0.865232 0.743618 0.685359
0.948180 0.762905 0.694392
0.323827 0.770230 0.632746
0.348943 0.771664 0.634546
0.421485 0.776944 0.640803
0.514488 0.786587 0.649134
0.606043 0.796323 0.646937
0.712978 0.806394 0.636225
0.863340 0.831449 0.655940
0.952270 0.853727 0.715358
0.359716 0.894163 0.649226
0.376806 0.894347 0.648981
0.428473 0.895201 0.647150
0.499458 0.897276 0.641077
0.581506 0.900786 0.626795
0.692622 0.898802 0.614923
0.805356 0.893156 0.574517
0.941009 0.911101 0.657588
0.306737 0.234226 0.649897
0.324224 0.233585 0.654841
0.382971 0.230137 0.672175
0.480598 0.218845 0.702846
0.613306 0.191409 0.745388
0.749264 0.183047 0.771359
0.843381 0.238285 0.755276
0.922423 0.356329 0.738430
0.314458 0.265812 0.647974
0.331212 0.265812 0.652827
0.388037 0.264622 0.670192
0.483864 0.259953 0.700801
0.614801 0.247318 0.743465
0.750790 0.246403 0.771725
0.843076 0.283574 0.755734
0.921843 0.380041 0.739498
0.344884 0.352026 0.638514
0.359777 0.353491 0.643549
0.410895 0.359014 0.661097
0.499001 0.367712 0.692348
0.621210 0.375891 0.736233
0.756069 0.381903 0.772763
0.842161 0.392584 0.757046
0.920256 0.447791 0.743038
0.387793 0.442756 0.612970
0.404120 0.449012 0.619745
0.445502 0.459785 0.640375
0.518914 0.476143 0.674128
0.626398 0.495552 0.721736
0.763729 0.513359 0.775662
0.841550 0.508293 0.759915
0.918242 0.533318 0.748135
0.391821 0.495003 0.583856
0.404974 0.498177 0.584405
0.447517 0.509361 0.587396
0.526360 0.547784 0.633265
0.620691 0.582544 0.693965
0.751675 0.616388 0.761776
0.842252 0.615229 0.765103
0.915953 0.624781 0.754330
0.408820 0.593408 0.629908
0.422156 0.595361 0.630762
0.464698 0.601953 0.633783
0.527916 0.613184 0.639063
0.605829 0.631342 0.647608
0.726955 0.693507 0.725795
0.843992 0.723140 0.772671
0.920134 0.729549 0.766567
0.421485 0.717464 0.683040
0.434913 0.718837 0.684199
0.478065 0.723690 0.688258
0.543236 0.732753 0.696101
0.625696 0.748196 0.709926
0.729122 0.774899 0.735042
0.848600 0.823545 0.784360
0.934844 0.849485 0.803952
0.451606 0.871702 0.751644
0.463935 0.872374 0.752377
0.503441 0.874998 0.754879
0.564019 0.880064 0.759152
0.644160 0.887510 0.765774
0.724392 0.892638 0.759823
0.817990 0.896025 0.749294
0.933440 0.909850 0.781430
0.470344 0.411505 0.786801
0.479438 0.410803 0.789548
0.511681 0.408759 0.799252
0.568566 0.402655 0.816129
0.649500 0.389776 0.839078
0.752987 0.365209 0.865660
0.850706 0.369604 0.871885
0.933288 0.391485 0.861784
0.479316 0.431800 0.784878
0.488014 0.431373 0.787686
0.518730 0.429358 0.797482
0.573785 0.424598 0.814511
0.652827 0.414160 0.837675
0.754360 0.394263 0.864469
0.851255 0.395941 0.871794
0.932738 0.412696 0.861845
0.501518 0.485634 0.777798
0.509300 0.485695 0.780697
0.537041 0.485573 0.790921
0.587579 0.484504 0.808652
0.661616 0.480537 0.832731
0.757992 0.471962 0.860563
0.853025 0.469673 0.871672
0.931029 0.474708 0.862028
0.523033 0.547204 0.762905
0.529839 0.547967 0.766110
0.554528 0.550378 0.777279
0.600397 0.554131 0.796811
0.669215 0.558160 0.823239
0.760098 0.560876 0.853544
0.855436 0.560967 0.872099
0.928679 0.555291 0.862638
0.539696 0.600793 0.730159
0.545830 0.602564 0.734066
0.567712 0.608515 0.748165
0.601556 0.612757 0.773678
0.666407 0.624842 0.805600
0.755306 0.639521 0.841794
0.858518 0.655543 0.873564
0.925780 0.646418 0.864042
0.546654 0.658381 0.738338
0.552300 0.658656 0.738064
0.571099 0.659449 0.736812
0.601648 0.659907 0.733822
0.655329 0.676661 0.764645
0.741573 0.705592 0.817899
0.852201 0.743008 0.865385
0.922515 0.742367 0.866300
0.552148 0.742794 0.779690
0.557946 0.743069 0.779751
0.577386 0.743679 0.779751
0.610651 0.744594 0.779599
0.658106 0.746242 0.778988
0.719875 0.750607 0.777157
0.829709 0.801724 0.836606
0.920378 0.832303 0.870726
0.554101 0.842252 0.819303
0.560143 0.842679 0.819577
0.581201 0.844022 0.820554
0.618555 0.846677 0.822507
0.672328 0.851072 0.825772
0.742550 0.858305 0.831449
0.828946 0.871824 0.843442
0.922026 0.905486 0.879515
