其他预设/【233】日式怀旧街道调色预设208款/1.3D LUT预设（视频调色-PR-AE-PS-FCPX-达芬奇用）/4.富士胶片风日式城市街拍预设 (自动曝光预设)/JA – Neon 1 (Classic Chrome) (Auto).cube
# Created by Adobe Lightroom plugin Export LUT (1.17.0)
# www.johnrellis.com/lightroom/exportlut.htm
# Preset: JA – Neon 1 (Classic Chrome) (Auto)
# Color profile: /Library/Application Support/Adobe/Color/Profiles/Recommended/AdobeRGB1998.icc
LUT_3D_SIZE 8
DOMAIN_MIN 0.000000 0.000000 0.000000
DOMAIN_MAX 0.903226 0.903226 0.903226
0.091188 0.081727 0.082094
0.119173 0.081178 0.082063
0.197848 0.078523 0.080507
0.323491 0.068116 0.072297
0.476173 0.026184 0.037629
0.638514 0.000000 0.000000
0.798367 0.000000 0.000000
0.934264 0.000000 0.000000
0.088838 0.110353 0.080262
0.120150 0.109041 0.078920
0.205478 0.109499 0.077394
0.333471 0.112062 0.068025
0.486397 0.110475 0.016754
0.647211 0.105379 0.000000
0.804013 0.099001 0.000000
0.936645 0.092744 0.000000
0.077668 0.197513 0.070588
0.125399 0.199100 0.068086
0.215183 0.198703 0.062837
0.360662 0.218235 0.018280
0.522728 0.230747 0.000000
0.676875 0.237522 0.000000
0.822843 0.239384 0.000000
0.944488 0.235203 0.000000
0.000000 0.344762 0.000000
0.115633 0.347509 0.000000
0.252659 0.355718 0.000000
0.374975 0.353582 0.000000
0.546838 0.381598 0.000000
0.725216 0.390204 0.000000
0.852842 0.383154 0.000000
0.956573 0.368627 0.000000
0.000000 0.528710 0.000000
0.000000 0.531334 0.000000
0.259831 0.539879 0.000000
0.421424 0.547265 0.000000
0.560357 0.541833 0.000000
0.724910 0.556115 0.000000
0.873259 0.543236 0.000000
0.969879 0.505821 0.000000
0.000000 0.709041 0.000000
0.000000 0.710506 0.000000
0.231693 0.715572 0.000000
0.423438 0.723384 0.000000
0.581933 0.722499 0.000000
0.725307 0.715145 0.000000
0.868315 0.707881 0.000000
0.967895 0.659632 0.000000
0.000000 0.856626 0.000000
0.000000 0.856992 0.000000
0.160372 0.858244 0.000000
0.387884 0.859556 0.000000
0.562585 0.860288 0.000000
0.706813 0.851591 0.000000
0.844083 0.841001 0.000000
0.959594 0.813565 0.000000
0.000000 0.951629 0.000000
0.000000 0.951232 0.000000
0.000000 0.949828 0.000000
0.326421 0.947051 0.000000
0.503502 0.942626 0.000000
0.653803 0.935546 0.000000
0.785672 0.925078 0.000000
0.911833 0.912871 0.000000
0.094575 0.082185 0.110903
0.123079 0.079194 0.110567
0.201663 0.067781 0.108248
0.321660 0.016052 0.101900
0.473030 0.000000 0.086336
0.635065 0.000000 0.038148
0.795865 0.000000 0.000000
0.933196 0.000000 0.000000
0.091432 0.108431 0.109377
0.120760 0.108492 0.109071
0.203403 0.105257 0.106935
0.331060 0.096559 0.099214
0.483070 0.079164 0.081636
0.643732 0.049226 0.014771
0.801511 0.000000 0.000000
0.935607 0.000000 0.000000
0.077943 0.195102 0.113649
0.111208 0.198337 0.100252
0.215396 0.198398 0.095674
0.362890 0.209964 0.084962
0.518669 0.217685 0.048981
0.673610 0.221500 0.000000
0.820645 0.222202 0.000000
0.943633 0.218509 0.000000
0.000000 0.342596 0.096864
0.063233 0.346624 0.055573
0.240970 0.354681 0.017121
0.374853 0.353185 0.000000
0.549035 0.376623 0.000000
0.722286 0.381384 0.000000
0.851133 0.374212 0.000000
0.955901 0.360235 0.000000
0.000000 0.526848 0.000000
0.000000 0.530388 0.000000
0.239078 0.538994 0.000000
0.415534 0.547570 0.000000
0.560113 0.541619 0.000000
0.726558 0.553155 0.000000
0.874388 0.538018 0.000000
0.969390 0.501244 0.000000
0.000000 0.708553 0.000000
0.000000 0.710109 0.000000
0.201999 0.715328 0.000000
0.412665 0.723018 0.000000
0.578637 0.722835 0.000000
0.725399 0.715084 0.000000
0.869291 0.705959 0.000000
0.968414 0.656275 0.000000
0.000000 0.856809 0.000000
0.000000 0.857176 0.000000
0.107607 0.858457 0.000000
0.375433 0.859800 0.000000
0.556909 0.860441 0.000000
0.704952 0.851926 0.000000
0.844144 0.841062 0.000000
0.960082 0.812131 0.000000
0.000000 0.952178 0.000000
0.000000 0.951781 0.000000
0.000000 0.950347 0.000000
0.311833 0.947570 0.000000
0.496742 0.943023 0.000000
0.650752 0.935943 0.000000
0.784390 0.925292 0.000000
0.911864 0.912932 0.000000
0.107973 0.078737 0.203952
0.144533 0.072297 0.204196
0.224796 0.034241 0.202182
0.358465 0.000000 0.215000
0.488930 0.000000 0.189700
0.619623 0.000000 0.158999
0.783841 0.000000 0.141909
0.927977 0.000000 0.121584
0.086793 0.110903 0.201755
0.131807 0.107485 0.201755
0.222934 0.091096 0.200992
0.353704 0.000000 0.204593
0.483772 0.000000 0.175265
0.626825 0.000000 0.160098
0.789914 0.000000 0.140261
0.930602 0.000000 0.119203
0.073274 0.193393 0.195346
0.111177 0.193790 0.195682
0.214389 0.194034 0.194369
0.348425 0.186221 0.187045
0.500481 0.175784 0.175296
0.658015 0.165255 0.158083
0.810330 0.156344 0.134920
0.939269 0.154849 0.111208
0.000000 0.333715 0.217258
0.000000 0.337438 0.211154
0.196323 0.348943 0.177798
0.373266 0.350134 0.170718
0.553429 0.358404 0.168154
0.709010 0.353582 0.151369
0.842893 0.345556 0.122927
0.952331 0.334173 0.093782
0.000000 0.517144 0.222507
0.000000 0.520897 0.207980
0.149813 0.533410 0.137423
0.394842 0.546868 0.125063
0.558862 0.539544 0.101320
0.730495 0.542626 0.073854
0.876707 0.522515 0.091798
0.966400 0.488930 0.060273
0.000000 0.701320 0.195132
0.000000 0.703883 0.172122
0.000000 0.712490 0.000000
0.375921 0.720638 0.000000
0.568261 0.723476 0.000000
0.725154 0.714412 0.000000
0.871611 0.699336 0.000000
0.969024 0.646784 0.000000
0.000000 0.853086 0.123018
0.000000 0.854337 0.074281
0.000000 0.858183 0.000000
0.333867 0.859800 0.000000
0.538964 0.860410 0.000000
0.699672 0.852689 0.000000
0.844450 0.840970 0.000000
0.960815 0.806973 0.000000
0.000000 0.950774 0.000000
0.000000 0.950988 0.000000
0.000000 0.951415 0.000000
0.265019 0.948608 0.000000
0.476753 0.943908 0.000000
0.642542 0.936889 0.000000
0.780758 0.925872 0.000000
0.912139 0.912932 0.000000
0.136599 0.048310 0.361639
0.180148 0.010712 0.361730
0.282933 0.000000 0.362280
0.393530 0.000000 0.357794
0.561822 0.000000 0.383429
0.687251 0.000000 0.349981
0.809018 0.000000 0.303563
0.927398 0.000000 0.241001
0.100954 0.104402 0.358953
0.157687 0.096071 0.359411
0.272953 0.039429 0.360479
0.392157 0.000000 0.356725
0.560876 0.000000 0.378973
0.682887 0.000000 0.340734
0.805570 0.000000 0.292821
0.923888 0.000000 0.247379
0.000000 0.221164 0.352087
0.083558 0.215793 0.352605
0.235721 0.196414 0.353491
0.385504 0.172244 0.351415
0.541100 0.128084 0.348638
0.665888 0.000000 0.307652
0.790219 0.000000 0.266148
0.926818 0.000000 0.261295
0.000000 0.336004 0.338659
0.000000 0.336492 0.338720
0.199374 0.337896 0.339147
0.367224 0.338964 0.336736
0.521752 0.325933 0.322454
0.675624 0.313085 0.306065
0.820615 0.301549 0.287572
0.941833 0.295384 0.273045
0.000000 0.499367 0.361334
0.000000 0.502861 0.359136
0.130892 0.513878 0.349004
0.348333 0.530846 0.320775
0.554314 0.532341 0.316411
0.730709 0.526635 0.324346
0.863127 0.505730 0.316564
0.957183 0.477729 0.293339
0.000000 0.688319 0.372076
0.000000 0.690822 0.365728
0.000000 0.698909 0.342901
0.318090 0.711604 0.295720
0.555230 0.722011 0.299138
0.723873 0.711482 0.281621
0.871702 0.689357 0.278874
0.965698 0.640955 0.303075
0.000000 0.846128 0.351141
0.000000 0.847288 0.343236
0.000000 0.850858 0.315465
0.276646 0.856291 0.262303
0.517754 0.857725 0.264866
0.695338 0.852598 0.257267
0.844663 0.840116 0.228763
0.958953 0.799405 0.206424
0.000000 0.948058 0.303197
0.000000 0.948180 0.294682
0.000000 0.948089 0.268956
0.214481 0.947845 0.210239
0.459327 0.943297 0.205478
0.636927 0.936492 0.201480
0.778775 0.925658 0.156283
0.912383 0.912383 0.000000
0.176547 0.000000 0.551659
0.220829 0.000000 0.551812
0.330449 0.000000 0.552361
0.465003 0.000000 0.553643
0.589258 0.000000 0.545617
0.740993 0.000000 0.549584
0.860594 0.000000 0.517876
0.950652 0.000000 0.465278
0.140352 0.076417 0.549767
0.195712 0.056336 0.549981
0.317327 0.000000 0.550683
0.458656 0.000000 0.552209
0.587884 0.000000 0.544701
0.740658 0.000000 0.547417
0.858274 0.000000 0.512749
0.949310 0.000000 0.460548
0.000000 0.215000 0.544518
0.000000 0.205997 0.544610
0.268284 0.195041 0.545129
0.435645 0.157748 0.546380
0.582483 0.094759 0.540154
0.738552 0.000000 0.540520
0.849027 0.000000 0.494759
0.944030 0.000000 0.442725
0.000000 0.375341 0.531365
0.000000 0.372717 0.531792
0.203403 0.364538 0.533196
0.395270 0.350072 0.533104
0.569024 0.331090 0.529168
0.718868 0.316594 0.514214
0.827695 0.259037 0.458289
0.932341 0.184970 0.401221
0.000000 0.507897 0.510216
0.000000 0.508446 0.510399
0.142306 0.509972 0.511070
0.354864 0.512413 0.510826
0.542657 0.515312 0.507805
0.690883 0.494606 0.484443
0.826566 0.474006 0.459907
0.938598 0.459419 0.440589
0.000000 0.667567 0.518791
0.000000 0.669978 0.517784
0.000000 0.677546 0.513634
0.305730 0.688991 0.505943
0.526940 0.703578 0.495796
0.719753 0.704158 0.495583
0.863767 0.685206 0.509270
0.950835 0.651148 0.503136
0.000000 0.834806 0.517144
0.000000 0.835904 0.514000
0.000000 0.839322 0.503197
0.276249 0.843748 0.488563
0.505943 0.848325 0.479408
0.700496 0.849638 0.493812
0.844205 0.837430 0.474586
0.950103 0.794919 0.467994
0.000000 0.943725 0.478737
0.000000 0.943786 0.475074
0.000000 0.943572 0.463874
0.247074 0.941680 0.453681
0.475013 0.937896 0.452308
0.647913 0.931914 0.460914
0.787015 0.922850 0.451789
0.912474 0.910552 0.417395
0.213718 0.000000 0.722927
0.253330 0.000000 0.723018
0.357427 0.000000 0.723537
0.488869 0.000000 0.724392
0.631769 0.000000 0.725154
0.760128 0.000000 0.717647
0.878965 0.000000 0.692439
0.965057 0.000000 0.652125
0.186954 0.000000 0.722042
0.232853 0.000000 0.722255
0.345403 0.000000 0.722774
0.482063 0.000000 0.723659
0.629297 0.000000 0.724636
0.759274 0.000000 0.717098
0.878538 0.000000 0.691676
0.963928 0.000000 0.650629
0.000000 0.218204 0.719295
0.145022 0.213901 0.719478
0.303441 0.197787 0.719936
0.459602 0.163668 0.720729
0.618189 0.082277 0.722011
0.755917 0.000000 0.714687
0.876463 0.000000 0.689387
0.959564 0.065675 0.645167
0.000000 0.386694 0.713008
0.000000 0.382086 0.713222
0.224399 0.367468 0.713802
0.427893 0.365026 0.713649
0.598230 0.347051 0.714687
0.747799 0.327337 0.708705
0.871000 0.345006 0.687373
0.950622 0.325322 0.634455
0.000000 0.534508 0.698970
0.000000 0.533837 0.699275
0.179995 0.532280 0.700252
0.394568 0.535363 0.701411
0.574792 0.537407 0.701076
0.733059 0.524010 0.697658
0.853971 0.522148 0.673854
0.935027 0.471687 0.611261
0.000000 0.675013 0.678889
0.000000 0.675410 0.678889
0.000000 0.676539 0.679225
0.335271 0.678920 0.679133
0.532921 0.682521 0.678279
0.706508 0.686763 0.675868
0.825223 0.661616 0.647700
0.924529 0.641505 0.624475
0.000000 0.823301 0.671626
0.000000 0.823423 0.670344
0.000000 0.823545 0.665705
0.234287 0.826322 0.659480
0.491737 0.829801 0.657221
0.697230 0.834440 0.670222
0.841489 0.832029 0.673426
0.932036 0.805722 0.683894
0.000000 0.937407 0.636988
0.000000 0.937407 0.634974
0.000000 0.937072 0.628717
0.217380 0.935241 0.621454
0.488624 0.929290 0.628931
0.682704 0.921477 0.658259
0.811887 0.916472 0.673426
0.911711 0.907256 0.652674
0.246830 0.000000 0.850858
0.279271 0.000000 0.850889
0.369818 0.000000 0.851011
0.489082 0.000000 0.851255
0.621851 0.000000 0.851591
0.756649 0.000000 0.850736
0.882597 0.000000 0.846128
0.959167 0.000000 0.790768
0.232334 0.008911 0.850553
0.267155 0.000000 0.850553
0.361791 0.000000 0.850675
0.484230 0.000000 0.850919
0.618921 0.000000 0.851225
0.755520 0.000000 0.850462
0.881895 0.000000 0.845762
0.958465 0.000000 0.790707
0.186435 0.233677 0.849149
0.230747 0.230594 0.849210
0.339635 0.220249 0.849271
0.470985 0.199619 0.849424
0.610712 0.164462 0.849638
0.752224 0.103304 0.849119
0.879271 0.000000 0.844205
0.955535 0.182773 0.790982
0.000000 0.382055 0.846189
0.149447 0.381506 0.846189
0.329473 0.398657 0.845396
0.463569 0.392126 0.845487
0.603876 0.382055 0.845579
0.748013 0.367926 0.845762
0.873533 0.358495 0.840665
0.949248 0.399420 0.792996
0.000000 0.535790 0.839231
0.114260 0.537194 0.839292
0.299382 0.544640 0.839445
0.459937 0.554681 0.839048
0.607294 0.564599 0.838376
0.740719 0.557183 0.838773
0.864134 0.548608 0.834745
0.939178 0.574517 0.798611
0.000000 0.669368 0.828794
0.000000 0.669734 0.828855
0.225254 0.672175 0.828977
0.422309 0.680140 0.828946
0.594629 0.697505 0.828916
0.736660 0.712886 0.828153
0.850919 0.705653 0.825742
0.924773 0.709194 0.800412
0.000000 0.806332 0.814511
0.000000 0.806546 0.814511
0.000000 0.807340 0.814298
0.337865 0.809018 0.813718
0.535546 0.811734 0.812558
0.702266 0.815488 0.811032
0.830991 0.819364 0.809445
0.906493 0.798306 0.785794
0.000000 0.933013 0.791073
0.000000 0.932647 0.790066
0.000000 0.931151 0.786587
0.183688 0.927550 0.780575
0.460151 0.920714 0.775814
0.672053 0.911986 0.782437
0.826688 0.906584 0.807584
0.909880 0.903990 0.809934
0.286076 0.013428 0.925994
0.309880 0.000000 0.925963
0.381109 0.000000 0.925811
0.481117 0.000000 0.925597
0.595544 0.000000 0.925231
0.717830 0.000000 0.924712
0.836515 0.000000 0.923156
0.950500 0.000000 0.920195
0.284215 0.134127 0.925658
0.308080 0.130587 0.925628
0.379828 0.115694 0.925475
0.480293 0.081483 0.925231
0.594934 0.000000 0.924834
0.717281 0.000000 0.924315
0.836210 0.000000 0.922759
0.949798 0.000000 0.919768
0.289342 0.277684 0.924193
0.312657 0.276555 0.924132
0.383368 0.272435 0.923949
0.482673 0.264836 0.923674
0.596185 0.253300 0.923217
0.716976 0.236545 0.922606
0.835538 0.224186 0.921141
0.946960 0.226719 0.918120
0.339666 0.440436 0.920409
0.358465 0.440070 0.920348
0.417853 0.438911 0.920165
0.505699 0.436652 0.919860
0.609461 0.433021 0.919402
0.722072 0.427619 0.918822
0.836027 0.421729 0.917693
0.941436 0.421546 0.914763
0.320745 0.550469 0.916869
0.349828 0.554162 0.916625
0.434974 0.567926 0.915740
0.557610 0.600916 0.913664
0.640650 0.598383 0.913420
0.735866 0.595026 0.913085
0.839231 0.590448 0.912627
0.933165 0.589624 0.909819
0.277043 0.655543 0.912230
0.312535 0.658503 0.911986
0.412573 0.669978 0.911070
0.539055 0.691798 0.909483
0.662959 0.719570 0.907500
0.761257 0.737026 0.906126
0.843687 0.735317 0.906065
0.923430 0.732540 0.904051
0.149203 0.764218 0.906340
0.208133 0.765316 0.906188
0.337835 0.769650 0.905547
0.484382 0.779141 0.904326
0.631281 0.796109 0.902464
0.762020 0.820981 0.900542
0.851102 0.838254 0.899870
0.914763 0.834836 0.898955
0.000000 0.886046 0.898405
0.000000 0.886168 0.898253
0.173587 0.886748 0.897765
0.391882 0.887968 0.896757
0.566308 0.889952 0.895201
0.716426 0.892638 0.893339
0.829953 0.895537 0.891844
0.904662 0.898070 0.891081
