其他预设/【233】日式怀旧街道调色预设208款/1.3D LUT预设（视频调色-PR-AE-PS-FCPX-达芬奇用）/4.富士胶片风日式城市街拍预设 (自动曝光预设)/JA – Cityscape Pop 2 (Classic Chrome) (Auto).cube
# Created by Adobe Lightroom plugin Export LUT (1.17.0)
# www.johnrellis.com/lightroom/exportlut.htm
# Preset: JA – Cityscape Pop 2 (Classic Chrome) (Auto)
# Color profile: /Library/Application Support/Adobe/Color/Profiles/Recommended/AdobeRGB1998.icc
LUT_3D_SIZE 5
DOMAIN_MIN 0.000000 0.000000 0.000000
DOMAIN_MAX 0.903226 0.903226 0.903226
0.112947 0.115755 0.117494
0.184390 0.123690 0.114290
0.493843 0.200656 0.059358
0.781796 0.293614 0.000000
0.964111 0.335821 0.000000
0.100435 0.181979 0.121523
0.187015 0.187015 0.110323
0.505241 0.301213 0.000000
0.785458 0.371618 0.000000
0.963775 0.400824 0.000000
0.000000 0.473365 0.162478
0.183200 0.464057 0.075807
0.494209 0.479591 0.000000
0.796201 0.550927 0.000000
0.963348 0.551629 0.000000
0.000000 0.743465 0.257542
0.000000 0.740688 0.144259
0.461952 0.715389 0.142947
0.763272 0.735164 0.096345
0.960143 0.725002 0.000000
0.181949 0.917082 0.409033
0.275822 0.914977 0.390814
0.473426 0.904387 0.357458
0.704677 0.892424 0.364752
0.915251 0.887724 0.369268
0.110903 0.112551 0.195102
0.169986 0.111086 0.171969
0.499763 0.000000 0.142153
0.786007 0.214450 0.000000
0.966400 0.308598 0.000000
0.057954 0.194369 0.215976
0.191928 0.195773 0.198520
0.507469 0.243839 0.149783
0.788937 0.317266 0.000000
0.966400 0.369055 0.000000
0.000000 0.485359 0.294652
0.160128 0.485481 0.250431
0.499489 0.486305 0.207095
0.796658 0.538720 0.000000
0.965148 0.530602 0.000000
0.000000 0.749081 0.360479
0.147890 0.745876 0.337469
0.462074 0.720851 0.273350
0.763851 0.737118 0.265537
0.958434 0.723232 0.004486
0.162509 0.918639 0.455665
0.330938 0.913603 0.470314
0.492103 0.904479 0.430701
0.709773 0.891295 0.433753
0.913787 0.887633 0.442908
0.102205 0.053101 0.518395
0.239750 0.000000 0.497414
0.445686 0.084291 0.429847
0.768032 0.000000 0.421668
0.962371 0.209964 0.353277
0.000000 0.137026 0.544610
0.196414 0.181918 0.519310
0.463355 0.231601 0.449104
0.775326 0.230900 0.426337
0.962036 0.300114 0.352758
0.000000 0.496712 0.558007
0.000000 0.494759 0.546746
0.502342 0.497292 0.497078
0.781949 0.513878 0.455024
0.958343 0.504662 0.370611
0.000000 0.768856 0.577325
0.000000 0.765225 0.566155
0.507561 0.745937 0.542077
0.763058 0.741817 0.523430
0.946593 0.728817 0.445991
0.126955 0.923064 0.596674
0.302831 0.918914 0.598383
0.572412 0.902708 0.621027
0.723903 0.887266 0.590234
0.909270 0.887449 0.607904
0.115663 0.000000 0.782010
0.257420 0.000000 0.773495
0.481300 0.016510 0.727565
0.720851 0.227543 0.682399
0.921416 0.428077 0.670710
0.000000 0.149508 0.791104
0.232456 0.186893 0.781735
0.489143 0.231815 0.741329
0.725704 0.332525 0.689479
0.920836 0.479622 0.678187
0.000000 0.411261 0.807034
0.000000 0.412421 0.804379
0.530053 0.511803 0.771878
0.738399 0.545006 0.709957
0.921386 0.601709 0.696132
0.000000 0.720333 0.800595
0.000000 0.724971 0.797177
0.500847 0.740475 0.783749
0.760525 0.747372 0.743282
0.921843 0.747799 0.711482
0.000000 0.930266 0.786435
0.272953 0.926482 0.781949
0.550530 0.912810 0.773953
0.770535 0.891417 0.774136
0.903624 0.888090 0.768795
0.168978 0.000000 0.921111
0.269291 0.000000 0.919127
0.468269 0.127749 0.911162
0.700069 0.380957 0.879545
0.898528 0.497871 0.860655
0.199924 0.232212 0.921752
0.293248 0.244053 0.919646
0.486793 0.286046 0.911406
0.708248 0.441108 0.881682
0.897246 0.542809 0.861418
0.000000 0.294316 0.930205
0.068879 0.356725 0.926726
0.572747 0.548730 0.911009
0.734798 0.591028 0.889189
0.894163 0.655146 0.864469
0.000000 0.597620 0.924987
0.145571 0.610895 0.923644
0.520775 0.664973 0.918181
0.789731 0.773556 0.900053
0.892424 0.783688 0.871427
0.193515 0.833127 0.915984
0.329625 0.838499 0.914824
0.577081 0.857023 0.910643
0.783230 0.881743 0.904234
0.900175 0.890929 0.887785
