其他预设/【233】日式怀旧街道调色预设208款/1.3D LUT预设（视频调色-PR-AE-PS-FCPX-达芬奇用）/4.富士胶片风日式城市街拍预设 (自动曝光预设)/JA – Neon 1 (Classic Chrome) (Auto).cube
# Created by Adobe Lightroom plugin Export LUT (1.17.0)
# www.johnrellis.com/lightroom/exportlut.htm
# Preset: JA – Neon 1 (Classic Chrome) (Auto)
# Color profile: /Library/Application Support/Adobe/Color/Profiles/Recommended/AdobeRGB1998.icc
LUT_3D_SIZE 5
DOMAIN_MIN 0.000000 0.000000 0.000000
DOMAIN_MAX 0.903226 0.903226 0.903226
0.091188 0.081727 0.082094
0.173281 0.079652 0.081209
0.397925 0.057313 0.063264
0.679622 0.000000 0.000000
0.934264 0.000000 0.000000
0.082429 0.169558 0.074159
0.184390 0.169802 0.070344
0.433173 0.192813 0.004791
0.706172 0.204044 0.000000
0.942046 0.201602 0.000000
0.000000 0.434272 0.000000
0.221073 0.443091 0.000000
0.467597 0.446509 0.000000
0.766720 0.472755 0.000000
0.963256 0.436774 0.000000
0.000000 0.749935 0.000000
0.152010 0.754116 0.000000
0.505608 0.765194 0.000000
0.760342 0.752224 0.000000
0.966064 0.698482 0.000000
0.000000 0.951629 0.000000
0.000000 0.950286 0.000000
0.419379 0.945037 0.000000
0.687434 0.933104 0.000000
0.911833 0.912871 0.000000
0.103304 0.080751 0.174014
0.192081 0.064118 0.172824
0.409369 0.000000 0.164889
0.665980 0.000000 0.128176
0.929870 0.000000 0.075776
0.084047 0.165927 0.167880
0.184482 0.166384 0.166842
0.418341 0.152468 0.153323
0.693416 0.131319 0.120638
0.938262 0.123110 0.052003
0.000000 0.425635 0.189761
0.135592 0.438727 0.123354
0.466438 0.444526 0.095247
0.770840 0.452644 0.055390
0.960723 0.417609 0.000000
0.000000 0.745357 0.109529
0.000000 0.752651 0.000000
0.481086 0.764004 0.000000
0.760464 0.751980 0.000000
0.967193 0.689540 0.000000
0.000000 0.951446 0.000000
0.000000 0.951659 0.000000
0.389288 0.946288 0.000000
0.679805 0.934081 0.000000
0.912047 0.912963 0.000000
0.155978 0.000000 0.455421
0.278477 0.000000 0.456123
0.491249 0.000000 0.450477
0.752651 0.000000 0.447547
0.939757 0.000000 0.361944
0.000000 0.182071 0.449104
0.226688 0.164340 0.449775
0.486030 0.074220 0.446204
0.739956 0.000000 0.423377
0.933959 0.000000 0.334356
0.000000 0.420447 0.422766
0.124422 0.422095 0.423560
0.454505 0.425452 0.420752
0.720333 0.396887 0.387152
0.941222 0.375036 0.355200
0.000000 0.723720 0.448280
0.000000 0.730526 0.434913
0.418280 0.749386 0.391882
0.758694 0.747311 0.384863
0.959808 0.682338 0.404059
0.000000 0.946136 0.394812
0.000000 0.946166 0.378058
0.353582 0.943908 0.336797
0.678828 0.932952 0.341619
0.912535 0.911711 0.274601
0.221958 0.000000 0.760067
0.332677 0.000000 0.760372
0.560784 0.000000 0.761898
0.796262 0.000000 0.755093
0.965545 0.000000 0.692103
0.128664 0.179294 0.757931
0.289220 0.159915 0.758328
0.545281 0.000000 0.759640
0.793545 0.000000 0.753292
0.962829 0.000000 0.692378
0.000000 0.463569 0.746792
0.178439 0.462226 0.747921
0.509880 0.458686 0.747860
0.779721 0.434699 0.743526
0.946136 0.437476 0.678584
0.000000 0.712367 0.717098
0.000000 0.713436 0.717250
0.435035 0.717525 0.716884
0.742336 0.724849 0.713802
0.919860 0.684627 0.668452
0.000000 0.935454 0.675624
0.000000 0.935271 0.670100
0.359472 0.930938 0.661128
0.725490 0.917235 0.702022
0.911315 0.906401 0.700099
0.286076 0.013428 0.925994
0.359838 0.000000 0.925872
0.537041 0.000000 0.925414
0.749325 0.000000 0.924559
0.950500 0.000000 0.920195
0.285252 0.239780 0.924712
0.359442 0.234531 0.924559
0.536858 0.215427 0.924041
0.747982 0.174166 0.923033
0.947906 0.165286 0.918669
0.316533 0.487892 0.919158
0.415442 0.509514 0.917967
0.575158 0.521202 0.916747
0.755093 0.512779 0.916014
0.937591 0.507988 0.912474
0.255467 0.681575 0.910887
0.368048 0.690272 0.910124
0.595727 0.725612 0.907317
0.787381 0.766629 0.904387
0.921080 0.762448 0.902678
0.000000 0.886046 0.898405
0.075441 0.886534 0.897948
0.481819 0.888884 0.896056
0.748867 0.893370 0.892882
0.904662 0.898070 0.891081
