其他预设/【233】日式怀旧街道调色预设208款/1.3D LUT预设（视频调色-PR-AE-PS-FCPX-达芬奇用）/4.富士胶片风日式城市街拍预设 (自动曝光预设)/JA – Static Pop 3 (Classic Chrome) (Auto).cube
# Created by Adobe Lightroom plugin Export LUT (1.17.0)
# www.johnrellis.com/lightroom/exportlut.htm
# Preset: JA – Static Pop 3 (Classic Chrome) (Auto)
# Color profile: /Library/Application Support/Adobe/Color/Profiles/Recommended/AdobeRGB1998.icc
LUT_3D_SIZE 5
DOMAIN_MIN 0.000000 0.000000 0.000000
DOMAIN_MAX 0.903226 0.903226 0.903226
0.074311 0.079377 0.084535
0.345068 0.080812 0.057954
0.737942 0.105776 0.000000
0.972992 0.111360 0.000000
1.000000 0.106477 0.000000
0.000000 0.257298 0.074434
0.292882 0.270756 0.000000
0.728786 0.321386 0.000000
0.969726 0.286595 0.000000
1.000000 0.248569 0.000000
0.000000 0.628046 0.000000
0.284184 0.624781 0.000000
0.652308 0.584039 0.000000
0.958618 0.550683 0.000000
1.000000 0.467750 0.000000
0.000000 0.868284 0.065949
0.202914 0.861753 0.167330
0.603235 0.848966 0.000000
0.893919 0.789120 0.000000
1.000000 0.696956 0.000000
0.000000 1.000000 0.145785
0.290074 1.000000 0.377844
0.546197 1.000000 0.310369
0.817136 0.988006 0.000000
1.000000 0.933959 0.000000
0.007935 0.110628 0.236545
0.260563 0.000000 0.279026
0.705379 0.000000 0.227970
0.959869 0.000000 0.190433
1.000000 0.000000 0.058991
0.000000 0.246098 0.263981
0.237369 0.251438 0.266819
0.695277 0.248875 0.231815
0.956603 0.247440 0.195590
1.000000 0.214023 0.072480
0.000000 0.623957 0.336400
0.190188 0.616693 0.297765
0.634394 0.578637 0.212192
0.944823 0.546532 0.223514
1.000000 0.466194 0.120180
0.000000 0.866911 0.329259
0.174838 0.858946 0.356817
0.600519 0.846036 0.351934
0.883909 0.788479 0.184726
1.000000 0.703731 0.176913
0.000000 1.000000 0.279271
0.134401 1.000000 0.390051
0.578180 1.000000 0.470436
0.818112 0.986633 0.360296
1.000000 0.935302 0.000000
0.000000 0.252750 0.606561
0.183993 0.220157 0.608972
0.614038 0.000000 0.619867
0.911650 0.124971 0.565393
1.000000 0.407446 0.578912
0.160494 0.405859 0.601251
0.336858 0.423194 0.605921
0.601373 0.248997 0.612848
0.903075 0.343145 0.578637
1.000000 0.436683 0.569696
0.000000 0.607965 0.631159
0.200687 0.604852 0.626551
0.559045 0.571283 0.590570
0.890990 0.579156 0.588434
1.000000 0.566979 0.567346
0.000000 0.866941 0.605982
0.000000 0.859434 0.612421
0.580560 0.831388 0.631220
0.846159 0.789029 0.558740
1.000000 0.753658 0.583490
0.000000 1.000000 0.525628
0.000000 1.000000 0.542657
0.585046 1.000000 0.653071
0.821653 0.984253 0.640253
1.000000 0.941253 0.512413
0.360632 0.490211 0.827909
0.377234 0.487526 0.827970
0.514611 0.362158 0.825742
0.852049 0.062165 0.827329
1.000000 0.375341 0.761135
0.431403 0.573999 0.823789
0.476417 0.583459 0.826596
0.561913 0.498878 0.824857
0.844480 0.331334 0.823667
1.000000 0.455360 0.766964
0.378729 0.672602 0.833066
0.502464 0.692988 0.833371
0.685023 0.720272 0.829984
0.824582 0.579187 0.813962
1.000000 0.632746 0.784421
0.000000 0.841520 0.851255
0.244480 0.841947 0.850584
0.606897 0.838163 0.844907
0.786984 0.784756 0.792538
1.000000 0.802213 0.802213
0.000000 1.000000 0.778042
0.000000 1.000000 0.770321
0.426551 1.000000 0.792935
0.834501 0.978485 0.845548
0.999512 0.949798 0.762753
0.632074 0.702724 0.964416
0.632013 0.702693 0.964385
0.624750 0.629053 0.969787
0.735103 0.473304 0.974701
1.000000 0.317998 0.974853
0.636194 0.707027 0.964691
0.641993 0.714351 0.964050
0.676844 0.695430 0.967376
0.752255 0.556542 0.972686
1.000000 0.415259 0.973571
0.715175 0.794980 0.958465
0.714748 0.794491 0.958556
0.785458 0.824826 0.961669
0.809110 0.744015 0.967529
0.996918 0.605798 0.970153
0.657923 0.846830 0.964477
0.657740 0.847105 0.964538
0.717647 0.859403 0.963958
0.908934 0.917205 0.965362
0.979919 0.812070 0.964630
0.433967 0.954223 0.972015
0.427985 0.956664 0.972076
0.403693 0.966033 0.972168
0.842161 0.968933 0.971038
0.958648 0.954314 0.954009
