其他预设/【233】日式怀旧街道调色预设208款/1.3D LUT预设（视频调色-PR-AE-PS-FCPX-达芬奇用）/4.富士胶片风日式城市街拍预设 (自动曝光预设)/JA – Shaded Light 2 (Classic Chrome) (Auto).cube
# Created by Adobe Lightroom plugin Export LUT (1.17.0)
# www.johnrellis.com/lightroom/exportlut.htm
# Preset: JA – Shaded Light 2 (Classic Chrome) (Auto)
# Color profile: /Library/Application Support/Adobe/Color/Profiles/Recommended/AdobeRGB1998.icc
LUT_3D_SIZE 5
DOMAIN_MIN 0.000000 0.000000 0.000000
DOMAIN_MAX 0.903226 0.903226 0.903226
0.093874 0.090883 0.085451
0.169986 0.089204 0.085481
0.398993 0.054475 0.071015
0.615778 0.000000 0.000000
0.870024 0.000000 0.000000
0.095308 0.151644 0.093782
0.175540 0.172244 0.086397
0.443366 0.205692 0.030396
0.641138 0.181216 0.000000
0.890013 0.153933 0.000000
0.018402 0.332921 0.108858
0.168673 0.348669 0.091920
0.430762 0.426642 0.000000
0.707057 0.442969 0.000000
0.944396 0.430823 0.000000
0.000000 0.522820 0.137789
0.116670 0.535027 0.112917
0.368139 0.555596 0.139742
0.650568 0.647791 0.094484
0.954437 0.700679 0.140078
0.000000 0.758877 0.207187
0.116091 0.770443 0.207614
0.391852 0.797757 0.232944
0.643854 0.842771 0.290471
0.898466 0.899168 0.291722
0.102480 0.094270 0.147646
0.161685 0.107485 0.144808
0.377661 0.000000 0.169741
0.599847 0.000000 0.136416
0.856626 0.000000 0.111818
0.093050 0.164218 0.155612
0.185306 0.179690 0.169375
0.421973 0.159518 0.156313
0.625269 0.133120 0.142916
0.877958 0.069551 0.119631
0.029816 0.335180 0.183200
0.166201 0.365698 0.181155
0.436805 0.431464 0.179202
0.710842 0.437476 0.178012
0.936248 0.421332 0.172305
0.000000 0.521843 0.208774
0.134493 0.537499 0.203647
0.375525 0.561761 0.224063
0.653681 0.649958 0.236484
0.953491 0.703182 0.277348
0.000000 0.756069 0.259495
0.099855 0.767575 0.261021
0.391333 0.798489 0.287205
0.644556 0.840818 0.343938
0.898955 0.899168 0.358404
0.127199 0.087922 0.329168
0.222934 0.094423 0.336400
0.378058 0.155581 0.339208
0.557092 0.172366 0.364538
0.807095 0.000000 0.361028
0.000000 0.168917 0.340307
0.196292 0.171603 0.357916
0.398352 0.238804 0.360784
0.572198 0.233799 0.370672
0.818753 0.000000 0.343023
0.000000 0.356176 0.341497
0.141817 0.375891 0.360327
0.453437 0.443183 0.423743
0.638788 0.411200 0.395605
0.894621 0.377783 0.369604
0.000000 0.512139 0.341588
0.136934 0.527672 0.349523
0.408362 0.574548 0.401190
0.663081 0.656977 0.447486
0.953338 0.702998 0.477821
0.000000 0.745785 0.390295
0.000000 0.756619 0.390478
0.358801 0.795407 0.402930
0.634302 0.841794 0.450690
0.900359 0.899565 0.496468
0.158511 0.073274 0.516564
0.247288 0.084932 0.523430
0.445563 0.210758 0.542657
0.579950 0.297032 0.532830
0.772641 0.389960 0.603510
0.040009 0.150362 0.522637
0.214603 0.165103 0.529259
0.446052 0.272709 0.548974
0.586633 0.354742 0.541863
0.783200 0.407141 0.607446
0.000000 0.331945 0.500572
0.000000 0.329412 0.510857
0.418585 0.398047 0.562768
0.611994 0.485298 0.573968
0.821500 0.451331 0.607599
0.000000 0.521904 0.506676
0.000000 0.530907 0.515465
0.370428 0.565179 0.548547
0.679774 0.671443 0.653986
0.913878 0.611994 0.597467
0.000000 0.723354 0.539483
0.000000 0.733425 0.543847
0.291966 0.770108 0.559350
0.572503 0.844175 0.581750
0.901793 0.899687 0.701381
0.209567 0.073396 0.796292
0.302617 0.109865 0.800626
0.515831 0.252659 0.813260
0.737453 0.452003 0.827787
0.853147 0.463752 0.810147
0.117983 0.154391 0.797604
0.259831 0.178317 0.802060
0.503838 0.294987 0.815305
0.738399 0.479225 0.832273
0.856046 0.487922 0.814389
0.000000 0.322576 0.782162
0.000000 0.310735 0.793942
0.413672 0.374243 0.818540
0.718959 0.528466 0.841245
0.865019 0.566430 0.828000
0.000000 0.561273 0.773922
0.000000 0.555291 0.776608
0.000000 0.531426 0.786801
0.598077 0.577111 0.845914
0.876738 0.721706 0.851133
0.000000 0.801938 0.797787
0.000000 0.803769 0.799557
0.000000 0.810971 0.806455
0.449134 0.830259 0.824979
0.904967 0.902556 0.896025
