其他预设/【233】日式怀旧街道调色预设208款/1.3D LUT预设（视频调色-PR-AE-PS-FCPX-达芬奇用）/4.富士胶片风日式城市街拍预设 (自动曝光预设)/JA – Chrome 5 (Classic Chrome) (Auto).cube
# Created by Adobe Lightroom plugin Export LUT (1.17.0)
# www.johnrellis.com/lightroom/exportlut.htm
# Preset: JA – Chrome 5 (Classic Chrome) (Auto)
# Color profile: /Library/Application Support/Adobe/Color/Profiles/Recommended/AdobeRGB1998.icc
LUT_3D_SIZE 5
DOMAIN_MIN 0.000000 0.000000 0.000000
DOMAIN_MAX 0.903226 0.903226 0.903226
0.084840 0.084779 0.084474
0.198764 0.098604 0.078218
0.544121 0.180606 0.000000
0.811704 0.255558 0.000000
0.990661 0.308721 0.000000
0.096468 0.193637 0.096315
0.205386 0.199344 0.089235
0.573449 0.326665 0.000000
0.822782 0.359289 0.000000
0.993103 0.381598 0.000000
0.000000 0.482429 0.000000
0.258854 0.479316 0.000000
0.567529 0.537102 0.000000
0.841581 0.577356 0.000000
0.999329 0.567010 0.000000
0.000000 0.711391 0.000000
0.229892 0.707942 0.000000
0.502647 0.695949 0.000000
0.801694 0.760098 0.000000
0.991791 0.744198 0.000000
0.000000 0.909331 0.000000
0.222629 0.907652 0.000000
0.480446 0.901488 0.000000
0.726619 0.900145 0.000000
0.953094 0.913634 0.000000
0.114626 0.110689 0.166842
0.189059 0.106630 0.181613
0.519646 0.000000 0.176638
0.803250 0.148440 0.134340
0.989075 0.252598 0.000000
0.129580 0.179904 0.179263
0.198917 0.196811 0.193362
0.555077 0.245640 0.170687
0.814450 0.301030 0.128603
0.991485 0.343084 0.000000
0.000000 0.490639 0.226841
0.160494 0.501274 0.152926
0.564813 0.535424 0.093629
0.841672 0.570886 0.125307
0.996521 0.554162 0.097414
0.000000 0.716732 0.155581
0.135348 0.717220 0.116487
0.483864 0.704036 0.000000
0.800412 0.759609 0.000000
0.988067 0.750088 0.206943
0.000000 0.912291 0.108827
0.223331 0.908446 0.185000
0.471809 0.902892 0.108064
0.721157 0.898985 0.000000
0.951659 0.913268 0.217868
0.166720 0.140902 0.344610
0.262394 0.116457 0.396826
0.510307 0.000000 0.450752
0.750729 0.000000 0.433692
0.962463 0.262730 0.425086
0.164553 0.217929 0.341894
0.238834 0.213962 0.394781
0.525017 0.159487 0.463630
0.759976 0.249424 0.444221
0.959380 0.413184 0.463722
0.093568 0.426703 0.409186
0.237766 0.450019 0.428473
0.545647 0.522820 0.486183
0.794156 0.566155 0.497902
0.969085 0.595361 0.495094
0.000000 0.711330 0.448585
0.211704 0.715572 0.446906
0.508904 0.721126 0.449073
0.792691 0.755764 0.455573
0.971374 0.784146 0.535271
0.000000 0.911254 0.424262
0.238163 0.909514 0.425452
0.503532 0.902800 0.437507
0.712917 0.894347 0.371160
0.947478 0.912230 0.473304
0.247288 0.177340 0.562921
0.318303 0.165591 0.585229
0.536950 0.017365 0.656794
0.759121 0.000000 0.668299
0.918181 0.333776 0.656153
0.253056 0.267704 0.557153
0.321569 0.269902 0.578973
0.536065 0.271794 0.650111
0.759457 0.292332 0.670710
0.919951 0.410681 0.661250
0.300816 0.416968 0.510155
0.369024 0.437049 0.517693
0.552483 0.517449 0.615961
0.762081 0.545922 0.679408
0.928771 0.575830 0.674342
0.331212 0.634272 0.599847
0.402930 0.642481 0.606561
0.567041 0.672419 0.632013
0.772793 0.743832 0.698543
0.944579 0.786984 0.724269
0.392340 0.890684 0.682063
0.439521 0.891539 0.680873
0.556451 0.895750 0.671107
0.724422 0.897978 0.647272
0.939361 0.910857 0.689387
0.470344 0.411505 0.786801
0.501335 0.409552 0.796139
0.606073 0.397375 0.826963
0.782162 0.356451 0.872496
0.933288 0.391485 0.861784
0.495491 0.470405 0.780209
0.522820 0.470008 0.789853
0.618616 0.465156 0.821805
0.784756 0.445716 0.868864
0.931548 0.456397 0.861875
0.535882 0.578485 0.749111
0.556298 0.581537 0.762387
0.633539 0.589624 0.800809
0.784024 0.603449 0.856809
0.927306 0.599573 0.863249
0.548302 0.677821 0.748562
0.567041 0.678553 0.747768
0.624048 0.679286 0.743252
0.762509 0.728267 0.821714
0.921813 0.765866 0.867155
0.554101 0.842252 0.819303
0.574456 0.843565 0.820249
0.643427 0.848600 0.823941
0.762661 0.860838 0.833555
0.922026 0.905486 0.879515
