其他预设/【233】日式怀旧街道调色预设208款/1.3D LUT预设（视频调色-PR-AE-PS-FCPX-达芬奇用）/4.富士胶片风日式城市街拍预设 (自动曝光预设)/JA – Harsh Shade 1 (Classic Chrome) (Auto).cube
# Created by Adobe Lightroom plugin Export LUT (1.17.0)
# www.johnrellis.com/lightroom/exportlut.htm
# Preset: JA – Harsh Shade 1 (Classic Chrome) (Auto)
# Color profile: /Library/Application Support/Adobe/Color/Profiles/Recommended/AdobeRGB1998.icc
LUT_3D_SIZE 8
DOMAIN_MIN 0.000000 0.000000 0.000000
DOMAIN_MAX 0.903226 0.903226 0.903226
0.035828 0.039033 0.053254
0.095491 0.052918 0.065736
0.187442 0.064881 0.081910
0.378332 0.029969 0.090852
0.650782 0.000000 0.089235
0.824826 0.000000 0.113100
0.929625 0.074891 0.166964
1.000000 0.260655 0.262394
0.050568 0.089387 0.071260
0.100282 0.095918 0.071015
0.204379 0.100282 0.074891
0.400366 0.111666 0.082704
0.663722 0.097871 0.077028
0.829709 0.083314 0.105135
0.931792 0.142916 0.162844
1.000000 0.278172 0.259770
0.058625 0.155795 0.097017
0.096162 0.160586 0.097566
0.220005 0.201083 0.089448
0.448798 0.249943 0.047150
0.704524 0.275273 0.000000
0.845548 0.260685 0.062867
0.939147 0.263767 0.145480
1.000000 0.333440 0.249271
0.000000 0.270024 0.124971
0.089113 0.279484 0.118532
0.214755 0.302770 0.122469
0.505211 0.445716 0.000000
0.738796 0.465949 0.000000
0.860533 0.424872 0.000000
0.950652 0.397375 0.099153
1.000000 0.416663 0.226963
0.000000 0.447608 0.140902
0.000000 0.461433 0.117159
0.231418 0.486122 0.115816
0.451301 0.558801 0.083650
0.758389 0.674098 0.000000
0.880461 0.611902 0.000000
0.953185 0.549340 0.108461
1.000000 0.532891 0.229526
0.000000 0.627070 0.141482
0.000000 0.636774 0.114137
0.209232 0.653132 0.105165
0.419959 0.675837 0.114534
0.649683 0.740810 0.107607
0.881926 0.795926 0.170840
0.959167 0.729488 0.276799
1.000000 0.681697 0.350958
0.000000 0.769284 0.154482
0.000000 0.773526 0.143282
0.209262 0.781735 0.145663
0.417365 0.790646 0.177188
0.594995 0.800717 0.235630
0.789242 0.848051 0.329625
0.946899 0.875822 0.465370
0.986847 0.828733 0.550469
0.088136 0.879423 0.246860
0.186160 0.880247 0.258762
0.344945 0.881956 0.301457
0.489998 0.884337 0.351781
0.632410 0.886931 0.422278
0.766629 0.897063 0.502312
0.887572 0.915343 0.579492
0.974487 0.923156 0.663600
0.038758 0.058015 0.098634
0.087343 0.062257 0.104952
0.174838 0.078248 0.125002
0.364446 0.017670 0.143008
0.641718 0.000000 0.148165
0.820554 0.000000 0.164675
0.926604 0.117647 0.209140
0.996429 0.306035 0.312688
0.044007 0.089113 0.105898
0.092897 0.096742 0.115694
0.188876 0.104036 0.127230
0.384955 0.099428 0.137911
0.654566 0.030762 0.141024
0.825528 0.052705 0.159304
0.928862 0.165469 0.205478
0.997467 0.319615 0.310033
0.056306 0.156985 0.127382
0.095827 0.166995 0.132021
0.214389 0.199557 0.131777
0.441230 0.237675 0.116091
0.695735 0.258183 0.106020
0.841672 0.251530 0.135958
0.936400 0.271977 0.191318
1.000000 0.364324 0.299351
0.000000 0.271366 0.156374
0.077699 0.285832 0.150484
0.213962 0.311772 0.150393
0.499641 0.442084 0.106874
0.732998 0.456306 0.045350
0.858976 0.419043 0.090303
0.948241 0.399695 0.159121
1.000000 0.436530 0.277806
0.000000 0.448585 0.175021
0.000000 0.463722 0.159518
0.219547 0.493812 0.143587
0.444038 0.557031 0.131197
0.755612 0.672450 0.027497
0.877714 0.609705 0.117830
0.951324 0.549920 0.160769
1.000000 0.543481 0.277531
0.000000 0.626490 0.175692
0.000000 0.636103 0.159457
0.192477 0.656916 0.137057
0.417029 0.678737 0.148806
0.647211 0.739345 0.161807
0.879179 0.795315 0.239261
0.955627 0.732937 0.330114
1.000000 0.688746 0.392340
0.000000 0.768215 0.184421
0.000000 0.772457 0.176638
0.204715 0.782528 0.175326
0.418585 0.791135 0.208011
0.597345 0.800900 0.269657
0.789181 0.846769 0.370275
0.944091 0.875700 0.497475
0.984222 0.831876 0.572686
0.063325 0.878813 0.263981
0.175906 0.879667 0.274723
0.351385 0.881285 0.325658
0.495064 0.883604 0.374945
0.636194 0.886290 0.442145
0.768093 0.895811 0.518730
0.887724 0.914794 0.594720
0.973175 0.923156 0.674983
0.030915 0.072114 0.152773
0.076631 0.074098 0.162570
0.163058 0.079683 0.182071
0.315526 0.057923 0.212314
0.604089 0.000000 0.245060
0.803769 0.037354 0.277195
0.911894 0.269413 0.344488
0.978210 0.437995 0.469154
0.058991 0.096834 0.156313
0.085420 0.102724 0.170871
0.171939 0.108644 0.190280
0.336461 0.098390 0.218112
0.622278 0.000000 0.245335
0.809110 0.130739 0.274693
0.914397 0.286992 0.341955
0.979492 0.444953 0.467170
0.043641 0.154208 0.177371
0.087373 0.163546 0.185916
0.198184 0.196109 0.212863
0.411109 0.207919 0.224247
0.667628 0.218265 0.235080
0.826627 0.259922 0.262974
0.922820 0.345098 0.332860
0.983764 0.470069 0.459754
0.000000 0.267674 0.209232
0.055390 0.281895 0.213321
0.195377 0.334600 0.219547
0.482002 0.431586 0.218692
0.714199 0.423346 0.203189
0.852293 0.412818 0.236790
0.936248 0.437995 0.313970
0.990692 0.515862 0.445045
0.000000 0.440101 0.236301
0.000000 0.456703 0.234897
0.170535 0.511345 0.221164
0.421820 0.549981 0.228519
0.743954 0.666682 0.249516
0.866148 0.607813 0.276280
0.943236 0.569299 0.317632
0.997375 0.587884 0.428748
0.000000 0.619562 0.248966
0.000000 0.630091 0.243961
0.151461 0.662776 0.227298
0.412634 0.687068 0.244846
0.640742 0.732753 0.300023
0.866941 0.793057 0.412665
0.942840 0.745327 0.466743
0.989899 0.710689 0.497322
0.000000 0.763607 0.261448
0.000000 0.768002 0.257969
0.195315 0.781186 0.261418
0.427955 0.791684 0.307622
0.606714 0.800900 0.374304
0.788907 0.842100 0.474769
0.935637 0.875212 0.580743
0.976776 0.840482 0.631159
0.000000 0.876646 0.316655
0.107607 0.877653 0.322179
0.332921 0.879515 0.369238
0.510765 0.880980 0.441718
0.646937 0.884154 0.498573
0.771542 0.891356 0.564996
0.887663 0.913024 0.637140
0.969116 0.923247 0.708186
0.000671 0.084565 0.208164
0.067994 0.086305 0.218387
0.174380 0.084901 0.255467
0.310674 0.057771 0.278843
0.502892 0.000000 0.309545
0.754208 0.000000 0.368261
0.881895 0.361547 0.480385
0.949218 0.581323 0.620508
0.030518 0.107790 0.213016
0.072328 0.108766 0.225437
0.176791 0.112215 0.260349
0.323919 0.096956 0.287266
0.523278 0.000000 0.317693
0.762387 0.109895 0.378637
0.882506 0.405585 0.499489
0.950927 0.583398 0.618585
0.038941 0.154482 0.219669
0.078584 0.160433 0.227604
0.174899 0.185977 0.270542
0.368292 0.202182 0.318029
0.589532 0.205783 0.351232
0.784329 0.345098 0.436408
0.887022 0.501305 0.542535
0.956237 0.594812 0.613825
0.000000 0.249699 0.251255
0.034821 0.261967 0.259648
0.175784 0.309941 0.293675
0.439612 0.411841 0.387579
0.672297 0.442756 0.425696
0.813443 0.487617 0.475471
0.903258 0.547570 0.536095
0.964355 0.621393 0.607324
0.000000 0.423529 0.302403
0.000000 0.439246 0.309148
0.136355 0.493446 0.332158
0.426490 0.572015 0.392096
0.713649 0.655085 0.470344
0.838315 0.615808 0.473060
0.921416 0.624994 0.526482
0.974182 0.664424 0.596216
0.000000 0.604150 0.342870
0.000000 0.614771 0.344335
0.097780 0.648798 0.350713
0.421424 0.693141 0.404822
0.632624 0.716579 0.470192
0.847288 0.788754 0.570245
0.924834 0.760403 0.592432
0.975433 0.739956 0.606714
0.000000 0.753841 0.366552
0.000000 0.758419 0.365332
0.130526 0.772366 0.370214
0.435676 0.788815 0.432898
0.623896 0.799741 0.501305
0.786252 0.833219 0.579309
0.924926 0.874327 0.665492
0.967803 0.849516 0.694270
0.000000 0.872251 0.403143
0.000000 0.873411 0.405829
0.264530 0.876402 0.424475
0.499489 0.877745 0.499489
0.658015 0.880827 0.567834
0.774105 0.886381 0.620386
0.885710 0.910155 0.687007
0.963470 0.923369 0.751400
0.000000 0.095674 0.260868
0.053346 0.096468 0.271580
0.167239 0.092775 0.315953
0.361425 0.000000 0.436072
0.521599 0.000000 0.450538
0.660365 0.000000 0.440253
0.844114 0.216953 0.509545
0.936553 0.524498 0.627710
0.000000 0.113771 0.265415
0.039460 0.113985 0.277165
0.164401 0.114351 0.321111
0.360540 0.070008 0.440986
0.532219 0.000000 0.461830
0.666621 0.000000 0.444373
0.846738 0.273136 0.520043
0.936187 0.547356 0.637537
0.015656 0.152773 0.252354
0.059724 0.160098 0.267582
0.142580 0.175174 0.331304
0.352941 0.195529 0.453132
0.566369 0.195499 0.498482
0.702174 0.203067 0.477485
0.853819 0.422217 0.562036
0.935698 0.614923 0.668910
0.000000 0.230594 0.282628
0.000000 0.237980 0.291386
0.135134 0.264408 0.327581
0.346868 0.346746 0.463294
0.613519 0.423682 0.552758
0.750607 0.465675 0.557061
0.864958 0.595178 0.635920
0.937346 0.701228 0.714565
0.000000 0.372381 0.345922
0.000000 0.385992 0.358984
0.084596 0.435309 0.409949
0.365240 0.523095 0.505058
0.668849 0.633753 0.617304
0.798550 0.657008 0.640925
0.887846 0.687068 0.670344
0.950561 0.724605 0.706905
0.000000 0.574578 0.439979
0.000000 0.586358 0.447944
0.000000 0.624781 0.473671
0.364385 0.673396 0.518883
0.645686 0.720638 0.604334
0.825620 0.781033 0.673701
0.906340 0.764584 0.675563
0.961273 0.770932 0.702113
0.000000 0.737758 0.477882
0.000000 0.742611 0.478889
0.000000 0.757748 0.484688
0.369146 0.776822 0.514794
0.628779 0.796323 0.597345
0.773648 0.817105 0.654139
0.914183 0.872679 0.733089
0.959350 0.855283 0.747707
0.000000 0.865202 0.499947
0.000000 0.866545 0.500816
0.160555 0.870298 0.508751
0.422309 0.873960 0.540673
0.641596 0.876982 0.617487
0.772824 0.884459 0.673701
0.879423 0.905577 0.731807
0.957244 0.923583 0.795712
0.000000 0.104341 0.325536
0.000000 0.104280 0.339849
0.145602 0.097292 0.400092
0.315984 0.000671 0.519127
0.554711 0.000000 0.639551
0.697780 0.000000 0.619562
0.798062 0.000000 0.581567
0.915221 0.396551 0.634821
0.000000 0.117464 0.329534
0.000000 0.117739 0.343633
0.135073 0.115084 0.403296
0.310735 0.084321 0.521080
0.557641 0.000000 0.645319
0.702510 0.000000 0.624628
0.799588 0.078279 0.584039
0.915618 0.424811 0.641474
0.000000 0.160555 0.310338
0.000000 0.162753 0.328557
0.075135 0.164279 0.406195
0.288579 0.176761 0.523705
0.558190 0.232670 0.651575
0.716823 0.244297 0.641230
0.804013 0.261662 0.594079
0.916991 0.510491 0.665156
0.000000 0.211978 0.308080
0.000000 0.214939 0.315404
0.073823 0.224277 0.345342
0.245304 0.284398 0.517937
0.556786 0.401831 0.648249
0.735714 0.451850 0.666621
0.812924 0.440742 0.621820
0.920226 0.623713 0.705318
0.000000 0.326177 0.373968
0.000000 0.332830 0.384314
0.000000 0.356176 0.423651
0.214023 0.398230 0.496712
0.552880 0.536217 0.632685
0.758816 0.628473 0.699245
0.841032 0.645197 0.694331
0.927611 0.734676 0.756588
0.000000 0.502617 0.482002
0.000000 0.512169 0.492073
0.000000 0.545312 0.526513
0.253452 0.601038 0.583337
0.569604 0.673579 0.655879
0.794888 0.763363 0.745144
0.880858 0.779904 0.762112
0.941192 0.802304 0.785061
0.000000 0.704128 0.569268
0.000000 0.710048 0.572961
0.000000 0.729335 0.585260
0.256443 0.756039 0.607996
0.559808 0.779568 0.651820
0.769314 0.815183 0.725612
0.900816 0.868528 0.792355
0.949950 0.856413 0.794095
0.000000 0.854612 0.598627
0.000000 0.856168 0.598932
0.000000 0.860899 0.601434
0.318364 0.866361 0.614527
0.566888 0.870909 0.653132
0.755154 0.880858 0.719356
0.865446 0.895781 0.770718
0.950622 0.923705 0.839322
0.000000 0.112490 0.457404
0.000000 0.110658 0.474342
0.074647 0.100038 0.530938
0.280095 0.049317 0.616083
0.489723 0.000000 0.706813
0.693721 0.153933 0.759457
0.818448 0.185000 0.737179
0.900145 0.329534 0.707912
0.000000 0.123262 0.455909
0.000000 0.122316 0.472755
0.000000 0.115663 0.529229
0.270542 0.090730 0.614801
0.486091 0.080659 0.706142
0.695705 0.209689 0.761288
0.819242 0.233310 0.738918
0.899901 0.352941 0.709621
0.000000 0.169558 0.423468
0.000000 0.166598 0.446571
0.000000 0.156985 0.517906
0.230564 0.161685 0.607416
0.473182 0.203799 0.702358
0.704250 0.346349 0.767056
0.821561 0.356329 0.744930
0.899046 0.422797 0.715724
0.000000 0.201328 0.347875
0.000000 0.206424 0.366552
0.000000 0.220554 0.445716
0.111269 0.235874 0.583856
0.448676 0.320317 0.690272
0.720607 0.501976 0.773922
0.825193 0.499916 0.755245
0.897917 0.514763 0.725734
0.000000 0.302098 0.419471
0.000000 0.302800 0.424903
0.000000 0.303777 0.444648
0.000000 0.298802 0.480171
0.384436 0.408911 0.656825
0.712612 0.597101 0.761227
0.831968 0.633661 0.770932
0.896941 0.613214 0.739651
0.000000 0.451972 0.522118
0.000000 0.454505 0.527001
0.000000 0.462959 0.544427
0.000000 0.476295 0.575067
0.289738 0.502373 0.621088
0.683742 0.661585 0.732448
0.847349 0.748653 0.796506
0.913542 0.759030 0.794888
0.000000 0.637842 0.618769
0.000000 0.641779 0.622583
0.000000 0.655482 0.636164
0.000000 0.679316 0.659968
0.403204 0.714870 0.695949
0.694423 0.768521 0.750546
0.876982 0.853452 0.838712
0.934203 0.866789 0.852873
0.000000 0.830442 0.691859
0.000000 0.832547 0.692744
0.000000 0.839322 0.696193
0.000000 0.849241 0.703639
0.456153 0.858824 0.722164
0.689479 0.869169 0.757961
0.851652 0.891051 0.816251
0.943542 0.923095 0.877806
0.000000 0.139712 0.683101
0.000000 0.137667 0.690547
0.000000 0.130220 0.715053
0.262943 0.120699 0.753170
0.460090 0.150393 0.798734
0.661463 0.293126 0.844572
0.814755 0.415290 0.859342
0.910491 0.445930 0.841672
0.000000 0.149783 0.680018
0.000000 0.148440 0.687526
0.000000 0.143282 0.712581
0.250370 0.139193 0.751339
0.455787 0.174228 0.797482
0.661738 0.316197 0.843595
0.815915 0.437812 0.859617
0.910155 0.463386 0.842252
0.000000 0.201724 0.661921
0.000000 0.191348 0.671962
0.000000 0.178531 0.701442
0.192660 0.186679 0.743343
0.438819 0.236698 0.792020
0.661830 0.382269 0.839811
0.820005 0.505455 0.860777
0.909117 0.517235 0.844205
0.000000 0.271031 0.613306
0.000000 0.268223 0.624720
0.000000 0.252995 0.663935
0.000000 0.238560 0.722805
0.395727 0.306188 0.778775
0.656245 0.460548 0.831662
0.826810 0.595026 0.863279
0.907897 0.591455 0.847837
0.000000 0.355993 0.607538
0.000000 0.350958 0.607324
0.000000 0.331487 0.606165
0.000000 0.311772 0.654536
0.255924 0.348608 0.748226
0.627161 0.518639 0.815366
0.835264 0.683436 0.868223
0.907500 0.671321 0.853727
0.000000 0.493782 0.675776
0.000000 0.491035 0.676020
0.000000 0.480171 0.676722
0.000000 0.455604 0.677150
0.000000 0.406928 0.676936
0.526024 0.537743 0.777371
0.820523 0.729397 0.857877
0.908934 0.752224 0.862760
0.000000 0.646235 0.735775
0.000000 0.645380 0.736294
0.000000 0.641810 0.738064
0.000000 0.634394 0.741268
0.000000 0.623041 0.746120
0.380682 0.616907 0.753414
0.764431 0.746273 0.822629
0.913848 0.836637 0.877134
0.000000 0.806088 0.787289
0.000000 0.806638 0.787961
0.000000 0.808835 0.790280
0.000000 0.812772 0.794736
0.238468 0.819028 0.801938
0.548028 0.829923 0.814206
0.769711 0.855406 0.841428
0.930510 0.915282 0.905486
