其他预设/【233】日式怀旧街道调色预设208款/1.3D LUT预设（视频调色-PR-AE-PS-FCPX-达芬奇用）/4.富士胶片风日式城市街拍预设 (自动曝光预设)/JA – Neon 3 (Classic Chrome) (Auto).cube
# Created by Adobe Lightroom plugin Export LUT (1.17.0)
# www.johnrellis.com/lightroom/exportlut.htm
# Preset: JA – Neon 3 (Classic Chrome) (Auto)
# Color profile: /Library/Application Support/Adobe/Color/Profiles/Recommended/AdobeRGB1998.icc
LUT_3D_SIZE 32
0.115114 0.114839 0.114870
0.115114 0.114839 0.114870
0.115602 0.114961 0.114839
0.118990 0.115297 0.114931
0.129397 0.116304 0.114748
0.151156 0.118624 0.114046
0.186648 0.123140 0.112337
0.234104 0.130465 0.108949
0.290532 0.141115 0.103426
0.352514 0.154879 0.094972
0.417762 0.170809 0.082307
0.480842 0.187686 0.063691
0.536980 0.204166 0.017914
0.585412 0.219455 0.000000
0.628138 0.233402 0.000000
0.667964 0.245335 0.000000
0.705837 0.257115 0.000000
0.743587 0.269108 0.000000
0.780880 0.281163 0.000000
0.817807 0.293675 0.000000
0.853819 0.305821 0.000000
0.887968 0.317754 0.000000
0.919493 0.329015 0.000000
0.947692 0.339391 0.000000
0.972320 0.348669 0.000000
0.993042 0.356725 0.000000
1.000000 0.362860 0.000000
1.000000 0.368292 0.000000
1.000000 0.373632 0.000000
1.000000 0.379950 0.000000
1.000000 0.387762 0.000000
1.000000 0.398505 0.115938
0.115084 0.115053 0.114839
0.115084 0.115053 0.114839
0.115572 0.115206 0.114809
0.118929 0.115755 0.114900
0.129519 0.117159 0.114687
0.151186 0.120089 0.113924
0.186740 0.125368 0.112154
0.234104 0.133486 0.108644
0.290318 0.144808 0.102998
0.352636 0.158816 0.094362
0.417670 0.175082 0.081483
0.480751 0.191928 0.062379
0.536858 0.208255 0.014496
0.585199 0.223423 0.000000
0.627985 0.236881 0.000000
0.667689 0.248417 0.000000
0.705623 0.260105 0.000000
0.743435 0.271855 0.000000
0.780758 0.283787 0.000000
0.817746 0.295903 0.000000
0.853788 0.308049 0.000000
0.887907 0.319554 0.000000
0.919371 0.331029 0.000000
0.947662 0.341070 0.000000
0.972229 0.350286 0.000000
0.992981 0.358343 0.000000
1.000000 0.364324 0.000000
1.000000 0.369635 0.000000
1.000000 0.374945 0.000000
1.000000 0.381140 0.000000
1.000000 0.388861 0.000000
1.000000 0.399481 0.115816
0.115053 0.115297 0.114839
0.115328 0.115236 0.114839
0.115541 0.115206 0.115023
0.118624 0.116243 0.114870
0.129122 0.118532 0.114565
0.150973 0.122042 0.113741
0.186191 0.128267 0.111879
0.233829 0.137270 0.108278
0.289952 0.149447 0.102449
0.352178 0.164065 0.093599
0.417395 0.180514 0.080415
0.480385 0.197665 0.060639
0.536553 0.213901 0.009735
0.584985 0.228428 0.000000
0.627588 0.241093 0.000000
0.667567 0.252598 0.000000
0.705348 0.263920 0.000000
0.743130 0.275425 0.000000
0.780514 0.287236 0.000000
0.817502 0.299168 0.000000
0.853635 0.311131 0.000000
0.887755 0.322423 0.000000
0.919341 0.333593 0.000000
0.947601 0.343633 0.000000
0.972198 0.352728 0.000000
0.992920 0.360540 0.000000
1.000000 0.366491 0.000000
1.000000 0.371588 0.000000
1.000000 0.376684 0.000000
1.000000 0.382757 0.000000
1.000000 0.390387 0.000000
1.000000 0.400885 0.115541
0.115053 0.116823 0.114900
0.115572 0.116732 0.114900
0.116304 0.116854 0.114870
0.117739 0.117037 0.115023
0.126833 0.120424 0.114687
0.149996 0.126131 0.113436
0.185519 0.134371 0.111330
0.233005 0.145357 0.107424
0.289097 0.158877 0.101259
0.351415 0.174777 0.091890
0.416602 0.191897 0.077943
0.479805 0.209110 0.056214
0.535851 0.225437 0.000000
0.583978 0.238560 0.000000
0.626795 0.250126 0.000000
0.666773 0.260868 0.000000
0.704768 0.271672 0.000000
0.742672 0.282902 0.000000
0.780026 0.294316 0.000000
0.817105 0.305608 0.000000
0.853269 0.317205 0.000000
0.887480 0.328283 0.000000
0.919097 0.339086 0.000000
0.947387 0.348974 0.000000
0.972015 0.357671 0.000000
0.992737 0.365270 0.000000
1.000000 0.370916 0.000000
1.000000 0.375799 0.000000
1.000000 0.380560 0.000000
1.000000 0.386175 0.000000
1.000000 0.393530 0.000000
1.000000 0.403754 0.115145
0.114717 0.120974 0.114565
0.115908 0.121187 0.114717
0.117098 0.121431 0.114656
0.119753 0.121401 0.114809
0.123171 0.121462 0.115328
0.141756 0.129061 0.114260
0.177951 0.140963 0.111391
0.231724 0.156680 0.106325
0.288029 0.172488 0.099580
0.350256 0.189975 0.089448
0.415534 0.208408 0.073823
0.478553 0.225864 0.044770
0.534417 0.240543 0.000000
0.582727 0.252811 0.000000
0.625635 0.263645 0.000000
0.665644 0.273594 0.000000
0.703853 0.283787 0.000000
0.741787 0.294163 0.000000
0.779324 0.304906 0.000000
0.816587 0.315770 0.000000
0.852750 0.326635 0.000000
0.887083 0.337438 0.000000
0.918761 0.347753 0.000000
0.947112 0.357031 0.000000
0.971740 0.365332 0.000000
0.992523 0.372503 0.000000
1.000000 0.377813 0.000000
1.000000 0.382208 0.000000
1.000000 0.386603 0.000000
1.000000 0.391669 0.000000
1.000000 0.398474 0.000000
1.000000 0.408209 0.114565
0.114382 0.129274 0.114229
0.115877 0.129458 0.114168
0.118044 0.129732 0.114107
0.122042 0.130098 0.114168
0.127474 0.129793 0.114443
0.133791 0.130068 0.115053
0.163516 0.143862 0.113008
0.213352 0.163272 0.107515
0.277317 0.185122 0.098939
0.348211 0.207431 0.086213
0.412909 0.226535 0.069520
0.475868 0.244175 0.030457
0.532189 0.258579 0.000000
0.580865 0.270298 0.000000
0.624018 0.280278 0.000000
0.664332 0.289830 0.000000
0.702571 0.298894 0.000000
0.740627 0.308568 0.000000
0.778347 0.318608 0.000000
0.815702 0.328801 0.000000
0.852110 0.339330 0.000000
0.886595 0.349462 0.000000
0.918303 0.359075 0.000000
0.946715 0.367773 0.000000
0.971405 0.375494 0.000000
0.992187 0.381964 0.000000
1.000000 0.386969 0.000000
1.000000 0.390753 0.000000
1.000000 0.394537 0.000000
1.000000 0.399084 0.000000
1.000000 0.405402 0.000000
1.000000 0.414282 0.114229
0.113527 0.143069 0.113069
0.115511 0.143343 0.112978
0.118379 0.143648 0.113100
0.124392 0.144381 0.112825
0.132479 0.144564 0.112978
0.141268 0.143709 0.113619
0.150851 0.144106 0.114687
0.192660 0.164981 0.110811
0.253574 0.191135 0.102327
0.325170 0.218051 0.089021
0.402075 0.243809 0.067628
0.472847 0.265019 0.013794
0.529503 0.279637 0.000000
0.578698 0.290990 0.000000
0.622187 0.300298 0.000000
0.662623 0.308721 0.000000
0.701137 0.317052 0.000000
0.739345 0.326085 0.000000
0.777218 0.334997 0.000000
0.814786 0.344640 0.000000
0.851286 0.354498 0.000000
0.885924 0.363958 0.000000
0.917723 0.372778 0.000000
0.946227 0.380804 0.000000
0.970947 0.387976 0.000000
0.991760 0.393683 0.000000
1.000000 0.398230 0.000000
1.000000 0.401251 0.000000
1.000000 0.404395 0.000000
1.000000 0.408331 0.000000
1.000000 0.413886 0.000000
1.000000 0.422187 0.115633
0.111879 0.163668 0.111299
0.114931 0.163760 0.111208
0.118563 0.164248 0.111025
0.126284 0.165255 0.110903
0.138186 0.166354 0.110567
0.150149 0.165377 0.111147
0.162387 0.164187 0.112093
0.175814 0.164767 0.113771
0.227939 0.192111 0.107851
0.297337 0.223697 0.095125
0.374517 0.254215 0.074830
0.452552 0.281102 0.022095
0.522820 0.301274 0.000000
0.576165 0.313420 0.000000
0.619959 0.321935 0.000000
0.660731 0.329747 0.000000
0.699489 0.337377 0.000000
0.737789 0.345525 0.000000
0.775967 0.353948 0.000000
0.813657 0.362768 0.000000
0.850401 0.371893 0.000000
0.885130 0.380591 0.000000
0.917082 0.388739 0.000000
0.945617 0.396063 0.000000
0.970428 0.402350 0.000000
0.991241 0.407507 0.000000
1.000000 0.411292 0.000000
1.000000 0.413672 0.000000
1.000000 0.416022 0.000000
1.000000 0.419226 0.000000
1.000000 0.424018 0.000000
1.000000 0.431647 0.117586
0.109071 0.191867 0.108125
0.113252 0.191989 0.107973
0.118074 0.192538 0.107973
0.128542 0.193454 0.107515
0.143130 0.194614 0.107057
0.159640 0.194980 0.106996
0.175906 0.193545 0.108064
0.191562 0.192020 0.109529
0.208347 0.192447 0.111788
0.267918 0.223880 0.103883
0.344030 0.259770 0.085725
0.423743 0.292088 0.051972
0.499031 0.317784 0.000000
0.562432 0.334722 0.000000
0.616510 0.345647 0.000000
0.658717 0.352911 0.000000
0.697597 0.359655 0.000000
0.736172 0.366979 0.000000
0.774441 0.374670 0.000000
0.812406 0.382971 0.000000
0.849241 0.391272 0.000000
0.884215 0.399359 0.000000
0.916320 0.406714 0.000000
0.944945 0.413397 0.000000
0.969787 0.418921 0.000000
0.990661 0.423041 0.000000
1.000000 0.426032 0.000000
1.000000 0.427771 0.000000
1.000000 0.429236 0.000000
1.000000 0.431678 0.000000
1.000000 0.435676 0.000000
1.000000 0.442481 0.120089
0.104860 0.226322 0.102998
0.110201 0.226535 0.103029
0.116701 0.226963 0.102968
0.129915 0.227787 0.102358
0.147677 0.228916 0.101930
0.168795 0.230594 0.100862
0.188968 0.228885 0.101869
0.208682 0.227085 0.103243
0.227298 0.225315 0.105653
0.247013 0.225467 0.109194
0.311620 0.259586 0.099245
0.392004 0.298039 0.074037
0.471199 0.330053 0.005463
0.539818 0.352056 0.000000
0.597467 0.365942 0.000000
0.648646 0.375708 0.000000
0.695613 0.383520 0.000000
0.734340 0.389868 0.000000
0.772732 0.397223 0.000000
0.810971 0.404730 0.000000
0.848142 0.412512 0.000000
0.883146 0.419837 0.000000
0.915404 0.426673 0.000000
0.944182 0.432349 0.000000
0.969085 0.437018 0.000000
0.989960 0.440406 0.000000
1.000000 0.442512 0.000000
1.000000 0.443397 0.000000
1.000000 0.444068 0.000000
1.000000 0.445502 0.000000
1.000000 0.448707 0.000000
1.000000 0.454627 0.122683
0.098482 0.265690 0.095552
0.105592 0.266056 0.095247
0.114290 0.266300 0.094911
0.130404 0.266972 0.094392
0.151736 0.268009 0.093721
0.176211 0.269413 0.092592
0.201266 0.269688 0.092042
0.224826 0.267460 0.093690
0.247044 0.264897 0.096284
0.268132 0.262638 0.100130
0.290227 0.262791 0.105440
0.357885 0.297887 0.094911
0.439429 0.336919 0.063630
0.514000 0.365942 0.000000
0.575952 0.384039 0.000000
0.629358 0.395972 0.000000
0.678828 0.405097 0.000000
0.726345 0.413245 0.000000
0.770993 0.420813 0.000000
0.809537 0.428016 0.000000
0.846799 0.435157 0.000000
0.882048 0.441810 0.000000
0.914427 0.447913 0.000000
0.943267 0.452857 0.000000
0.968231 0.456764 0.000000
0.989197 0.459266 0.000000
1.000000 0.460395 0.000000
1.000000 0.460426 0.000000
1.000000 0.460151 0.000000
1.000000 0.460761 0.000000
1.000000 0.462959 0.000000
1.000000 0.468025 0.126253
0.089204 0.308721 0.084138
0.097444 0.309026 0.083772
0.109102 0.309270 0.083284
0.128542 0.309606 0.082643
0.154116 0.310613 0.081575
0.182132 0.311437 0.080140
0.211673 0.313176 0.078035
0.239200 0.311437 0.079164
0.265293 0.308721 0.082307
0.289799 0.305852 0.086976
0.312718 0.303105 0.093141
0.336675 0.302922 0.101808
0.404761 0.337499 0.093538
0.484047 0.374304 0.058625
0.551080 0.398627 0.000000
0.607996 0.413947 0.000000
0.659297 0.425086 0.000000
0.707790 0.434180 0.000000
0.756100 0.443091 0.000000
0.804196 0.451759 0.000000
0.845457 0.459052 0.000000
0.880827 0.465156 0.000000
0.913359 0.470436 0.000000
0.942290 0.474769 0.000000
0.967376 0.477760 0.000000
0.988312 0.479347 0.000000
1.000000 0.479683 0.000000
1.000000 0.478645 0.000000
1.000000 0.477485 0.000000
1.000000 0.477150 0.000000
1.000000 0.478523 0.000000
1.000000 0.482612 0.130190
0.076295 0.353887 0.066407
0.087861 0.354101 0.065919
0.101350 0.354345 0.065644
0.125521 0.354589 0.064668
0.155306 0.355291 0.062989
0.186801 0.356023 0.060578
0.219211 0.357153 0.056672
0.251347 0.357244 0.054383
0.280797 0.354437 0.060761
0.308751 0.351385 0.067262
0.334997 0.348180 0.075807
0.359442 0.345129 0.086091
0.384802 0.344640 0.100526
0.449744 0.375982 0.097383
0.523156 0.408515 0.066926
0.584161 0.428901 0.000000
0.637781 0.442786 0.000000
0.687434 0.453437 0.000000
0.736812 0.463478 0.000000
0.786404 0.473579 0.000000
0.834226 0.482460 0.000000
0.878172 0.489357 0.000000
0.912230 0.494179 0.000000
0.941253 0.497658 0.000000
0.966369 0.499886 0.000000
0.987366 0.500633 0.000000
1.000000 0.500023 0.000000
1.000000 0.498024 0.000000
1.000000 0.495827 0.000000
1.000000 0.494545 0.000000
1.000000 0.494972 0.000000
1.000000 0.498054 0.134463
0.050263 0.399817 0.018219
0.072724 0.399725 0.018189
0.091798 0.399908 0.016114
0.120882 0.400122 0.014191
0.155032 0.400671 0.008392
0.189853 0.401068 0.003082
0.225467 0.401648 0.000000
0.260624 0.402411 0.000000
0.293553 0.400702 0.000000
0.324468 0.397375 0.013367
0.353674 0.394079 0.040589
0.381048 0.390570 0.065034
0.406287 0.386969 0.081941
0.431891 0.385565 0.102327
0.490761 0.411688 0.107912
0.557671 0.439490 0.084932
0.614038 0.457374 0.057771
0.665614 0.470619 0.000000
0.715572 0.482094 0.000000
0.766629 0.493904 0.000000
0.816587 0.504417 0.000000
0.863127 0.512963 0.000000
0.904601 0.518822 0.000000
0.940154 0.521569 0.000000
0.965332 0.523064 0.000000
0.986328 0.522911 0.000000
1.000000 0.521202 0.000000
1.000000 0.518334 0.000000
1.000000 0.515160 0.000000
1.000000 0.512871 0.000000
1.000000 0.512413 0.000275
1.000000 0.514519 0.139651
0.000031 0.444251 0.000000
0.050416 0.444251 0.000000
0.078828 0.444343 0.000000
0.115023 0.444282 0.000000
0.153384 0.444434 0.000000
0.191501 0.444709 0.000000
0.228733 0.444953 0.000000
0.266209 0.445106 0.000000
0.302556 0.445014 0.000000
0.335851 0.441566 0.000000
0.367468 0.438025 0.000000
0.397284 0.434272 0.007965
0.425238 0.430457 0.058350
0.450904 0.426551 0.082551
0.475837 0.424048 0.110231
0.526879 0.443793 0.124575
0.588251 0.468086 0.109865
0.641962 0.484779 0.093019
0.692988 0.498360 0.071382
0.745174 0.511925 0.004974
0.797086 0.524712 0.000000
0.846006 0.535424 0.000000
0.890318 0.542992 0.000000
0.928710 0.547204 0.000000
0.960632 0.547967 0.000000
0.985199 0.545922 0.000000
1.000000 0.543359 0.000000
1.000000 0.539574 0.000000
1.000000 0.535149 0.000000
1.000000 0.532067 0.000000
1.000000 0.530541 0.020569
1.000000 0.531823 0.145144
0.000000 0.485481 0.000000
0.003235 0.485512 0.000000
0.062593 0.485420 0.000000
0.107637 0.485389 0.000000
0.150332 0.485145 0.000000
0.190524 0.484962 0.000000
0.229892 0.484718 0.000000
0.268528 0.484535 0.000000
0.306706 0.484260 0.000000
0.342718 0.482155 0.000000
0.376226 0.478401 0.000000
0.408087 0.474434 0.000000
0.437812 0.470466 0.000000
0.465644 0.466255 0.062867
0.491371 0.462226 0.092103
0.514916 0.458442 0.123873
0.558801 0.472786 0.145510
0.616388 0.494972 0.135439
0.669123 0.511742 0.125185
0.721950 0.527367 0.110384
0.775570 0.542657 0.087800
0.827054 0.555901 0.050721
0.874235 0.565881 0.000000
0.915465 0.572045 0.000000
0.950042 0.574304 0.000000
0.977935 0.572686 0.000000
0.999359 0.567590 0.000000
1.000000 0.561425 0.000000
1.000000 0.555993 0.000000
1.000000 0.551965 0.000000
1.000000 0.549523 0.044221
1.000000 0.549767 0.151308
0.000000 0.522057 0.000000
0.000000 0.521965 0.000000
0.034821 0.521813 0.000000
0.100343 0.521660 0.000000
0.145174 0.521294 0.000000
0.188174 0.520989 0.000000
0.228733 0.520317 0.000000
0.268772 0.519738 0.000000
0.307713 0.518975 0.000000
0.345647 0.518181 0.000000
0.380438 0.514549 0.000000
0.413672 0.510460 0.000000
0.444984 0.506462 0.000000
0.474464 0.502068 0.022400
0.501793 0.497780 0.079530
0.526940 0.493599 0.109071
0.549096 0.488899 0.142611
0.587701 0.499702 0.169284
0.644099 0.521660 0.162966
0.697475 0.539696 0.155123
0.752285 0.557610 0.144076
0.806119 0.573816 0.128573
0.856107 0.586694 0.110140
0.900420 0.595544 0.084962
0.937896 0.599878 0.028779
0.968444 0.599817 0.000000
0.992004 0.595727 0.000000
1.000000 0.588159 0.000000
1.000000 0.578363 0.000000
1.000000 0.572442 0.000000
1.000000 0.569085 0.063172
1.000000 0.568322 0.158358
0.000000 0.554559 0.000000
0.000000 0.554559 0.000000
0.003571 0.554376 0.000000
0.092805 0.554101 0.000000
0.141299 0.553704 0.000000
0.185214 0.553094 0.000000
0.226719 0.552392 0.000000
0.267033 0.551537 0.000000
0.306615 0.550622 0.000000
0.345006 0.549554 0.000000
0.381750 0.547448 0.000000
0.416052 0.543511 0.000000
0.448646 0.539544 0.000000
0.479591 0.535363 0.000000
0.508537 0.531121 0.067140
0.535393 0.526818 0.100679
0.560235 0.522728 0.129519
0.581140 0.517693 0.164065
0.615930 0.526268 0.194614
0.671687 0.548608 0.191012
0.727291 0.569238 0.185092
0.783230 0.588678 0.176150
0.836179 0.604944 0.165316
0.883543 0.616938 0.152712
0.924315 0.623896 0.137545
0.957580 0.626062 0.118563
0.983581 0.623499 0.091524
1.000000 0.616785 0.012085
1.000000 0.607141 0.000000
1.000000 0.597345 0.000000
1.000000 0.589166 0.075685
1.000000 0.587488 0.165957
0.000000 0.585321 0.000000
0.000000 0.585290 0.000000
0.000000 0.585138 0.000000
0.085481 0.584894 0.000000
0.136934 0.584344 0.000000
0.182467 0.583795 0.000000
0.224826 0.583093 0.000000
0.265599 0.582208 0.000000
0.305333 0.581231 0.000000
0.343816 0.580072 0.000000
0.381720 0.578943 0.000000
0.417243 0.575525 0.000000
0.450996 0.571618 0.000000
0.483040 0.567681 0.000000
0.513329 0.563531 0.045197
0.541741 0.559319 0.093538
0.568139 0.555230 0.124941
0.592370 0.551354 0.152346
0.612482 0.546136 0.187594
0.644617 0.553307 0.221592
0.700984 0.577111 0.219394
0.758389 0.600000 0.215610
0.814115 0.620081 0.208804
0.864897 0.635676 0.201053
0.908843 0.646021 0.192844
0.945312 0.650843 0.181033
0.974060 0.650324 0.166903
0.995544 0.645167 0.148806
1.000000 0.636072 0.117800
1.000000 0.627070 0.136843
1.000000 0.617517 0.157595
1.000000 0.608209 0.180667
0.000000 0.615961 0.000000
0.000000 0.615869 0.000000
0.000000 0.615747 0.000000
0.080842 0.615442 0.000000
0.133303 0.615076 0.000000
0.179873 0.614466 0.000000
0.222690 0.613703 0.000000
0.263706 0.612879 0.000000
0.304021 0.611810 0.000000
0.343023 0.610773 0.000000
0.381170 0.609583 0.000000
0.418067 0.607630 0.000000
0.452827 0.603845 0.000000
0.486061 0.599969 0.000000
0.517479 0.595941 0.014008
0.547234 0.591882 0.085573
0.575067 0.587854 0.119478
0.600916 0.583948 0.149416
0.624659 0.580194 0.177218
0.643977 0.574945 0.212741
0.673884 0.581262 0.249912
0.732021 0.607294 0.248936
0.790158 0.631464 0.245853
0.844236 0.651270 0.241917
0.891752 0.665461 0.237156
0.931609 0.673579 0.229984
0.963256 0.675807 0.222049
0.987121 0.672541 0.210208
1.000000 0.664881 0.192844
1.000000 0.656794 0.207401
1.000000 0.648157 0.225956
1.000000 0.639704 0.246921
0.000000 0.646754 0.000000
0.000000 0.646754 0.000000
0.000000 0.646601 0.000000
0.075257 0.646296 0.000000
0.130800 0.645869 0.000000
0.177951 0.645319 0.000000
0.221469 0.644617 0.000000
0.263035 0.643763 0.000000
0.303319 0.642847 0.000000
0.342718 0.641688 0.000000
0.381018 0.640589 0.000000
0.418647 0.639399 0.000000
0.454475 0.636439 0.000000
0.488685 0.632654 0.000000
0.521324 0.628840 0.000000
0.552300 0.624842 0.077211
0.581476 0.620935 0.115694
0.608759 0.616999 0.147341
0.634180 0.613245 0.175631
0.657465 0.609644 0.203128
0.676356 0.604822 0.239628
0.705348 0.611322 0.278782
0.764462 0.638758 0.278508
0.821622 0.663081 0.277165
0.872923 0.681727 0.274937
0.916289 0.693782 0.271977
0.951141 0.699275 0.267643
0.977691 0.698604 0.260685
0.997070 0.692653 0.249516
1.000000 0.685847 0.263737
1.000000 0.678126 0.282414
1.000000 0.670710 0.303716
0.000000 0.678950 0.000000
0.000000 0.678920 0.000000
0.000000 0.678706 0.000000
0.067781 0.678553 0.000000
0.129244 0.678096 0.000000
0.176822 0.677607 0.000000
0.220523 0.676997 0.000000
0.262425 0.676204 0.000000
0.303288 0.675319 0.000000
0.342962 0.674434 0.000000
0.381750 0.673365 0.000000
0.419806 0.672267 0.000000
0.457069 0.670710 0.000000
0.492226 0.667109 0.000000
0.525963 0.663447 0.000000
0.558160 0.659663 0.062684
0.588708 0.655818 0.108736
0.617456 0.652003 0.143282
0.644465 0.648371 0.173556
0.669490 0.644800 0.202060
0.692500 0.641535 0.229831
0.711421 0.637201 0.266880
0.739284 0.643610 0.308415
0.797116 0.670802 0.308995
0.852140 0.694331 0.309148
0.899413 0.710903 0.308690
0.937865 0.720241 0.307347
0.967376 0.722591 0.303807
0.988769 0.718929 0.297734
1.000000 0.713527 0.312535
1.000000 0.707027 0.332006
1.000000 0.700404 0.353460
0.000000 0.713527 0.000000
0.000000 0.713436 0.000000
0.000000 0.713375 0.000000
0.065187 0.713130 0.000000
0.127016 0.712764 0.000000
0.175662 0.712337 0.000000
0.220218 0.711788 0.000000
0.262730 0.711086 0.000000
0.304051 0.710262 0.000000
0.344182 0.709468 0.000000
0.383520 0.708492 0.000000
0.422187 0.707515 0.000000
0.459907 0.706416 0.000000
0.496620 0.703914 0.000000
0.531487 0.700435 0.000000
0.565118 0.696712 0.015808
0.596918 0.692958 0.098604
0.627222 0.689296 0.136751
0.655787 0.685634 0.169680
0.682429 0.682155 0.200473
0.707179 0.678889 0.229099
0.729976 0.675868 0.256870
0.748653 0.671931 0.295018
0.774472 0.677333 0.338323
0.829435 0.702907 0.339727
0.880827 0.724544 0.341497
0.923186 0.738247 0.342260
0.956054 0.744228 0.342077
0.979858 0.743343 0.339513
0.995605 0.739559 0.355505
1.000000 0.734096 0.375311
1.000000 0.728206 0.396704
0.000000 0.750057 0.000000
0.000000 0.749966 0.000000
0.000000 0.749844 0.000000
0.055024 0.749660 0.000000
0.124514 0.749355 0.000000
0.174624 0.748959 0.000000
0.220005 0.748379 0.000000
0.263157 0.747738 0.000000
0.305058 0.746975 0.000000
0.346014 0.746120 0.000000
0.385809 0.745205 0.000000
0.424903 0.744289 0.000000
0.463386 0.743221 0.000000
0.501091 0.742061 0.000000
0.537255 0.738643 0.000000
0.571984 0.735164 0.000000
0.605371 0.731502 0.082033
0.636988 0.727932 0.128695
0.667018 0.724453 0.164797
0.695308 0.721004 0.197147
0.721767 0.717739 0.227054
0.746304 0.714717 0.256565
0.768917 0.712001 0.284642
0.787106 0.708034 0.323552
0.810300 0.711849 0.368475
0.860533 0.734279 0.370153
0.907134 0.753017 0.373266
0.943725 0.763088 0.375006
0.970367 0.765377 0.375769
0.987854 0.763546 0.392767
0.999420 0.759121 0.412696
1.000000 0.753780 0.433814
0.000000 0.787381 0.000000
0.000000 0.787289 0.000000
0.000000 0.787259 0.000000
0.036652 0.787045 0.000000
0.121248 0.786709 0.000000
0.173190 0.786313 0.000000
0.219821 0.785733 0.000000
0.263798 0.785092 0.000000
0.306218 0.784360 0.000000
0.347631 0.783505 0.000000
0.388159 0.782650 0.000000
0.427832 0.781643 0.000000
0.466773 0.780606 0.000000
0.504967 0.779568 0.000000
0.542290 0.777401 0.000000
0.578302 0.773953 0.000000
0.612909 0.770504 0.054688
0.645899 0.767086 0.117403
0.677424 0.763577 0.157534
0.707179 0.760220 0.193149
0.735164 0.756924 0.225467
0.761379 0.753933 0.255680
0.785733 0.751186 0.285100
0.808194 0.748745 0.313603
0.825528 0.744442 0.352605
0.845762 0.746395 0.397925
0.889799 0.764309 0.400031
0.930358 0.779049 0.404028
0.960327 0.784939 0.406928
0.979889 0.785245 0.424964
0.992706 0.782010 0.445136
1.000000 0.777340 0.466590
0.000000 0.824704 0.000000
0.000000 0.824582 0.000000
0.000000 0.824460 0.000000
0.011597 0.824308 0.000000
0.117098 0.823972 0.000000
0.171054 0.823545 0.000000
0.218692 0.822965 0.000000
0.263615 0.822324 0.000000
0.306889 0.821530 0.000000
0.348669 0.820676 0.000000
0.389685 0.819699 0.000000
0.429816 0.818723 0.000000
0.469368 0.817624 0.000000
0.508202 0.816464 0.000000
0.546014 0.815305 0.000000
0.583215 0.812222 0.000000
0.618952 0.808865 0.000000
0.653285 0.805417 0.101411
0.686000 0.802090 0.149111
0.717159 0.798734 0.187381
0.746670 0.795529 0.222232
0.774350 0.792538 0.254734
0.800198 0.789731 0.285283
0.824247 0.787259 0.314855
0.846464 0.785092 0.343023
0.862455 0.780056 0.381933
0.880247 0.780209 0.425757
0.916472 0.792447 0.429755
0.949523 0.801877 0.434241
0.971649 0.804807 0.453346
0.985901 0.802976 0.474128
0.994995 0.799191 0.496315
0.000000 0.860685 0.000000
0.000000 0.860594 0.000000
0.000000 0.860502 0.000000
0.000000 0.860288 0.000000
0.111543 0.859922 0.000000
0.168002 0.859525 0.000000
0.216953 0.858885 0.000000
0.262608 0.858183 0.000000
0.306432 0.857359 0.000000
0.348791 0.856504 0.000000
0.390204 0.855436 0.000000
0.430884 0.854337 0.000000
0.470588 0.853178 0.000000
0.509728 0.851957 0.000000
0.548058 0.850675 0.000000
0.585840 0.848661 0.000000
0.622797 0.845365 0.000000
0.658137 0.842100 0.075288
0.692164 0.838712 0.136507
0.724544 0.835416 0.180789
0.755245 0.832212 0.218479
0.784268 0.829191 0.252995
0.811429 0.826352 0.285313
0.836881 0.823758 0.315953
0.860410 0.821469 0.345678
0.882139 0.819486 0.373053
0.896391 0.813352 0.411292
0.911101 0.811185 0.453742
0.938933 0.817502 0.461494
0.962982 0.822263 0.479072
0.978973 0.822232 0.500725
0.988861 0.819425 0.524468
0.000000 0.894255 0.000000
0.000000 0.894163 0.000000
0.000000 0.894041 0.000000
0.000000 0.893828 0.000000
0.104311 0.893462 0.000000
0.163729 0.892943 0.000000
0.213748 0.892363 0.000000
0.260166 0.891600 0.000000
0.304479 0.890715 0.000000
0.347326 0.889738 0.000000
0.389166 0.888640 0.000000
0.430091 0.887449 0.000000
0.470161 0.886137 0.000000
0.509483 0.884764 0.000000
0.548150 0.883299 0.000000
