其他预设/【233】日式怀旧街道调色预设208款/1.3D LUT预设（视频调色-PR-AE-PS-FCPX-达芬奇用）/4.富士胶片风日式城市街拍预设 (自动曝光预设)/JA – Cool Bright 2 (Classic Chrome) (Auto).cube
# Created by Adobe Lightroom plugin Export LUT (1.17.0)
# www.johnrellis.com/lightroom/exportlut.htm
# Preset: JA – Cool Bright 2 (Classic Chrome) (Auto)
# Color profile: /Library/Application Support/Adobe/Color/Profiles/Recommended/AdobeRGB1998.icc
LUT_3D_SIZE 5
DOMAIN_MIN 0.000000 0.000000 0.000000
DOMAIN_MAX 0.903226 0.903226 0.903226
0.079072 0.082368 0.084810
0.198856 0.096956 0.103700
0.465553 0.082979 0.123201
0.730159 0.000000 0.150637
0.933837 0.140566 0.232120
0.100069 0.199771 0.113313
0.216342 0.217685 0.111330
0.486336 0.249302 0.127077
0.735897 0.240696 0.155062
0.935424 0.271183 0.244572
0.068299 0.481758 0.130678
0.253666 0.478309 0.127260
0.533959 0.518212 0.082612
0.754116 0.491279 0.164523
0.939147 0.497383 0.295506
0.140871 0.728023 0.204410
0.278630 0.722225 0.200320
0.500847 0.703792 0.182559
0.757321 0.730037 0.167880
0.949340 0.712154 0.311772
0.424567 0.914519 0.427955
0.465553 0.912200 0.424994
0.584314 0.904387 0.413611
0.750698 0.902556 0.405127
0.933318 0.906523 0.436164
0.000000 0.081941 0.194705
0.188571 0.094545 0.198215
0.469795 0.000000 0.244785
0.736324 0.000000 0.245090
0.932860 0.158145 0.316472
0.080323 0.209293 0.215488
0.208865 0.215030 0.218418
0.498543 0.211795 0.230045
0.740505 0.210391 0.252079
0.933928 0.284489 0.328588
0.000000 0.497322 0.279942
0.208438 0.506615 0.232944
0.540337 0.525505 0.210208
0.752987 0.492622 0.285100
0.936339 0.508965 0.374823
0.206638 0.735195 0.336400
0.288518 0.732906 0.311711
0.503593 0.711055 0.286107
0.758907 0.732601 0.278965
0.945739 0.717342 0.394141
0.473915 0.913939 0.500542
0.489937 0.913359 0.482399
0.596521 0.905638 0.468238
0.752895 0.901640 0.453285
0.932341 0.906279 0.478309
0.000000 0.062379 0.472358
0.176944 0.000000 0.456580
0.442176 0.000000 0.435462
0.703639 0.000000 0.438911
0.918334 0.257511 0.498939
0.000000 0.277226 0.524346
0.000000 0.180179 0.506554
0.475196 0.125093 0.464271
0.719478 0.179629 0.452522
0.920226 0.380102 0.525841
0.000000 0.549889 0.543023
0.132570 0.550958 0.542840
0.546746 0.537957 0.523888
0.747585 0.525902 0.520012
0.928649 0.538903 0.539544
0.275517 0.753658 0.551354
0.382696 0.751156 0.553368
0.560967 0.740566 0.539544
0.764065 0.741299 0.511864
0.934356 0.734798 0.571221
0.517601 0.918669 0.627497
0.555505 0.916655 0.628840
0.631495 0.911742 0.606287
0.755337 0.898985 0.569909
0.929442 0.905699 0.583307
0.000000 0.000000 0.725551
0.000000 0.000000 0.715480
0.420874 0.000000 0.671321
0.677516 0.000000 0.647761
0.892027 0.000000 0.613123
0.000000 0.228916 0.747707
0.000000 0.153719 0.737881
0.409918 0.000000 0.692103
0.689387 0.000000 0.658808
0.897368 0.000000 0.619135
0.000000 0.552514 0.788876
0.000000 0.552239 0.789731
0.458991 0.497414 0.749630
0.720760 0.449134 0.686763
0.910124 0.467842 0.658106
0.195590 0.786923 0.777279
0.362646 0.787228 0.776455
0.598749 0.785641 0.771084
0.780758 0.764584 0.744350
0.925841 0.740047 0.725063
0.578332 0.925292 0.789548
0.610651 0.923735 0.789029
0.694514 0.919036 0.783841
0.787106 0.909667 0.755306
0.924224 0.905180 0.726680
0.000000 0.000000 0.921050
0.000000 0.000000 0.916777
0.324926 0.000000 0.902159
0.628809 0.000000 0.864439
0.885710 0.000000 0.857176
0.000000 0.107759 0.923644
0.000000 0.074952 0.920806
0.281010 0.000000 0.908263
0.622950 0.000000 0.871916
0.888182 0.000000 0.859892
0.000000 0.477974 0.931151
0.000000 0.463203 0.929442
0.278294 0.418799 0.920623
0.626001 0.354223 0.891447
0.894163 0.322118 0.866575
0.000000 0.734127 0.924681
0.278904 0.742855 0.923583
0.568109 0.767697 0.920531
0.731563 0.743038 0.909209
0.902373 0.648402 0.876280
0.510704 0.912230 0.911009
0.560784 0.912535 0.910582
0.693935 0.913634 0.909239
0.845914 0.915526 0.907164
0.921263 0.911559 0.899870
