其他预设/【233】日式怀旧街道调色预设208款/1.3D LUT预设（视频调色-PR-AE-PS-FCPX-达芬奇用）/4.富士胶片风日式城市街拍预设 (自动曝光预设)/JA – Shaded Light 2 (Classic Chrome) (Auto).cube
# Created by Adobe Lightroom plugin Export LUT (1.17.0)
# www.johnrellis.com/lightroom/exportlut.htm
# Preset: JA – Shaded Light 2 (Classic Chrome) (Auto)
# Color profile: /Library/Application Support/Adobe/Color/Profiles/Recommended/AdobeRGB1998.icc
LUT_3D_SIZE 8
DOMAIN_MIN 0.000000 0.000000 0.000000
DOMAIN_MAX 0.903226 0.903226 0.903226
0.093874 0.090883 0.085451
0.119173 0.090547 0.085786
0.194644 0.088075 0.084871
0.324376 0.073762 0.078248
0.470314 0.001343 0.060334
0.588251 0.000000 0.010010
0.705959 0.000000 0.000000
0.870024 0.000000 0.000000
0.095186 0.112093 0.088502
0.118379 0.115572 0.087343
0.204257 0.119814 0.084077
0.338048 0.120241 0.074464
0.482033 0.108125 0.048615
0.596246 0.082643 0.000000
0.713497 0.004547 0.000000
0.876066 0.000000 0.000000
0.094026 0.171145 0.095735
0.116915 0.175387 0.093294
0.204410 0.201053 0.083680
0.373968 0.237613 0.043915
0.519646 0.236851 0.000000
0.623438 0.219303 0.000000
0.740932 0.205905 0.000000
0.896330 0.196139 0.000000
0.071077 0.274022 0.104128
0.100374 0.281010 0.092866
0.200504 0.292729 0.093477
0.354009 0.350042 0.032319
0.534356 0.382788 0.000000
0.670588 0.370367 0.000000
0.790860 0.357214 0.000000
0.927550 0.351904 0.000000
0.000000 0.390906 0.114626
0.030304 0.398688 0.099092
0.190799 0.409522 0.093538
0.322911 0.431373 0.094484
0.494759 0.490761 0.000000
0.657557 0.510246 0.000000
0.830198 0.523033 0.000000
0.959838 0.511925 0.000000
0.000000 0.497566 0.132021
0.000000 0.502617 0.121218
0.166873 0.512383 0.108431
0.305730 0.524407 0.121187
0.443366 0.554223 0.124666
0.614923 0.611780 0.074891
0.810147 0.663752 0.027863
0.958343 0.664881 0.117891
0.000000 0.601770 0.159426
0.000000 0.605310 0.154147
0.148775 0.614984 0.142824
0.297734 0.626459 0.159609
0.431922 0.644007 0.185611
0.583673 0.698024 0.186923
0.772671 0.771633 0.156344
0.941283 0.803738 0.202152
0.000000 0.758877 0.207187
0.000000 0.762295 0.206180
0.150515 0.773861 0.200290
0.318303 0.788418 0.219608
0.464027 0.808194 0.248966
0.607385 0.830594 0.288701
0.755276 0.875090 0.291783
0.898466 0.899168 0.291722
0.096681 0.092256 0.106722
0.115694 0.097719 0.104433
0.189181 0.091035 0.111940
0.320836 0.022858 0.103761
0.465553 0.000000 0.092195
0.583978 0.000000 0.077424
0.701595 0.000000 0.051057
0.866453 0.000000 0.000000
0.095613 0.114839 0.108309
0.120974 0.117311 0.110292
0.201999 0.113741 0.108492
0.333654 0.101778 0.102388
0.476967 0.074891 0.089662
0.591943 0.004761 0.074708
0.709071 0.000000 0.044160
0.872587 0.000000 0.000000
0.096895 0.173922 0.116732
0.119265 0.182956 0.116609
0.207858 0.203922 0.111238
0.377752 0.229801 0.090700
0.514336 0.223758 0.076539
0.619104 0.207187 0.065095
0.736385 0.193606 0.022827
0.893217 0.181949 0.000000
0.076539 0.276646 0.130922
0.104097 0.286290 0.124788
0.202823 0.300572 0.120912
0.356756 0.352361 0.098024
0.536004 0.379614 0.057618
0.665980 0.363836 0.041169
0.786465 0.351202 0.007538
0.925078 0.346441 0.000000
0.000000 0.392584 0.144778
0.060151 0.400183 0.135683
0.189151 0.414984 0.124117
0.324468 0.433539 0.131106
0.496193 0.491859 0.094118
0.658320 0.509575 0.078767
0.831327 0.522210 0.068544
0.957855 0.510460 0.098665
0.000000 0.497841 0.159518
0.000000 0.502831 0.152377
0.165103 0.515160 0.137423
0.306859 0.526940 0.150851
0.444709 0.554772 0.160372
0.615961 0.612482 0.137087
0.810819 0.664240 0.135409
0.958190 0.665553 0.176059
0.000000 0.601282 0.181704
0.000000 0.604852 0.177920
0.149020 0.616083 0.167208
0.299260 0.627558 0.183658
0.433845 0.645167 0.209293
0.584710 0.698024 0.216678
0.773312 0.772061 0.198672
0.940948 0.803952 0.241306
0.000000 0.758083 0.224521
0.000000 0.761471 0.223819
0.165896 0.773465 0.228153
0.318029 0.788632 0.237583
0.464454 0.808469 0.266148
0.607904 0.830961 0.304601
0.755612 0.874907 0.311254
0.898619 0.899168 0.314122
0.105257 0.094423 0.167727
0.131807 0.097749 0.165805
0.185428 0.111391 0.165682
0.295567 0.103243 0.193759
0.442420 0.000000 0.193484
0.563287 0.000000 0.162051
0.683436 0.000000 0.153475
0.851408 0.000000 0.140383
0.094026 0.117800 0.174594
0.127626 0.118105 0.177279
0.194003 0.134310 0.174075
0.308995 0.122713 0.196353
0.452277 0.000000 0.185306
0.573175 0.000000 0.163699
0.690822 0.000000 0.156008
0.857969 0.000000 0.143191
0.087556 0.187564 0.178012
0.114717 0.193088 0.183139
0.217166 0.210605 0.198703
0.356085 0.198550 0.190127
0.492561 0.184665 0.181216
0.601129 0.172274 0.174228
0.717891 0.156619 0.166781
0.880217 0.127993 0.154208
0.072175 0.278386 0.191745
0.105745 0.287968 0.194675
0.207095 0.319371 0.203220
0.364660 0.358679 0.206821
0.540520 0.369116 0.198550
0.647974 0.346349 0.197543
0.768856 0.334661 0.190738
0.914580 0.329992 0.182315
0.000000 0.391424 0.208835
0.068360 0.399908 0.209201
0.191104 0.426795 0.210117
0.332586 0.444770 0.220615
0.500542 0.495064 0.223148
0.660212 0.509300 0.229282
0.834562 0.522423 0.235935
0.949889 0.507195 0.238193
0.000000 0.496101 0.222446
0.000000 0.501549 0.221714
0.177401 0.519036 0.221561
0.314519 0.534478 0.231815
0.450965 0.555871 0.252720
0.619043 0.614618 0.257969
0.812772 0.666743 0.271885
0.957244 0.668757 0.298466
0.000000 0.598871 0.239109
0.000000 0.602441 0.238437
0.166140 0.614893 0.239872
0.306401 0.630884 0.252201
0.441047 0.648859 0.277501
0.588342 0.697566 0.297398
0.775448 0.773526 0.300755
0.940002 0.804562 0.337774
0.000000 0.755123 0.274907
0.000000 0.758389 0.273564
0.150454 0.770413 0.277684
0.315007 0.789090 0.290379
0.463905 0.809323 0.316808
0.608331 0.832212 0.351141
0.756008 0.874174 0.366339
0.899107 0.899199 0.376349
0.118471 0.091585 0.270603
0.151003 0.092195 0.272343
0.233005 0.111055 0.275639
0.308965 0.135531 0.276036
0.411597 0.159731 0.301366
0.540795 0.089967 0.307469
0.655512 0.000000 0.292699
0.813748 0.000000 0.266087
0.095186 0.114260 0.281193
0.139315 0.115785 0.282353
0.235477 0.135897 0.284947
0.316625 0.161990 0.283787
0.420905 0.178561 0.306737
0.546197 0.121981 0.307408
0.659266 0.000000 0.289311
0.818387 0.000000 0.256138
0.000000 0.197818 0.278813
0.074617 0.195773 0.285313
0.219669 0.203952 0.309514
0.340307 0.242954 0.308568
0.451392 0.239048 0.321263
0.564599 0.199893 0.304570
0.674556 0.129641 0.273198
0.848722 0.000000 0.260716
0.000000 0.299168 0.285801
0.064210 0.305333 0.291722
0.197055 0.327245 0.312261
0.377081 0.367437 0.349493
0.504753 0.349401 0.334234
0.608515 0.333776 0.321477
0.729030 0.317540 0.309148
0.889708 0.300450 0.298161
0.000000 0.388190 0.288060
0.060273 0.396155 0.292241
0.192599 0.422614 0.307286
0.355962 0.462257 0.342260
0.507378 0.499550 0.365270
0.661707 0.513298 0.373724
0.806027 0.509331 0.367803
0.932891 0.496803 0.356939
0.000000 0.491188 0.298955
0.000000 0.496498 0.300725
0.181033 0.514122 0.309026
0.336278 0.541802 0.338018
0.467292 0.559777 0.365240
0.624231 0.618097 0.387549
0.816953 0.670466 0.402350
0.956695 0.670771 0.419928
0.000000 0.593530 0.311559
0.000000 0.597040 0.312200
0.163760 0.609125 0.316930
0.316655 0.631250 0.338842
0.452430 0.654444 0.366186
0.592462 0.695460 0.392737
0.779080 0.776181 0.408667
0.939666 0.804013 0.440558
0.000000 0.749691 0.349279
0.000000 0.752926 0.348730
0.109255 0.764401 0.347814
0.297398 0.785489 0.358984
0.453712 0.810422 0.381445
0.603357 0.834379 0.411322
0.754177 0.872740 0.435920
0.899870 0.899382 0.454841
0.135958 0.083223 0.385992
0.169375 0.082704 0.388617
0.257481 0.095491 0.396735
0.369238 0.162997 0.406348
0.442725 0.184298 0.399542
0.520775 0.239597 0.409094
0.634028 0.227512 0.424567
0.798764 0.155978 0.442847
0.112367 0.109102 0.392554
0.154238 0.110140 0.394873
0.253574 0.124941 0.402228
0.373327 0.190219 0.412177
0.447486 0.210361 0.404761
0.523369 0.260014 0.413031
0.637415 0.242039 0.426154
0.801999 0.171023 0.441047
0.000000 0.188479 0.394598
0.002136 0.183993 0.403754
0.224918 0.196841 0.416724
0.377234 0.257359 0.427100
0.462226 0.289128 0.421790
0.533440 0.321019 0.427192
0.649744 0.286961 0.430640
0.813779 0.212619 0.431647
0.000000 0.298985 0.387640
0.000000 0.300267 0.392981
0.151736 0.304387 0.411078
0.363226 0.346685 0.446571
0.484749 0.398688 0.448920
0.562310 0.392340 0.448585
0.673915 0.348302 0.430549
0.836423 0.259739 0.398169
0.000000 0.408209 0.392798
0.000000 0.413153 0.397620
0.167575 0.430579 0.414374
0.345678 0.461006 0.443244
0.516106 0.505882 0.486000
0.617548 0.486122 0.467903
0.744991 0.464637 0.449165
0.900603 0.444495 0.432959
0.000000 0.486000 0.382025
0.000000 0.489754 0.384741
0.175662 0.505119 0.396246
0.330571 0.532708 0.422248
0.485664 0.572656 0.466651
0.631312 0.623682 0.496162
0.827420 0.666407 0.510185
0.947051 0.650111 0.507469
0.000000 0.584710 0.390387
0.000000 0.588037 0.391913
0.152499 0.599603 0.398474
0.303105 0.620539 0.415625
0.450538 0.657771 0.448737
0.591669 0.694179 0.478340
0.784054 0.780240 0.506859
0.940459 0.800504 0.541924
0.000000 0.740841 0.432471
0.000000 0.744015 0.432868
0.062867 0.755215 0.434638
0.260563 0.775540 0.438087
0.415686 0.807218 0.447425
0.583398 0.837156 0.474495
0.746487 0.869749 0.508934
0.900877 0.899718 0.543877
0.153841 0.074495 0.490608
0.184695 0.075502 0.492866
0.268528 0.091524 0.500175
0.381598 0.155428 0.511223
0.488014 0.245243 0.516899
0.553368 0.271733 0.506432
0.629694 0.335241 0.520806
0.778134 0.353674 0.576684
0.133577 0.103822 0.493599
0.169955 0.105928 0.495644
0.262486 0.121950 0.502708
0.380774 0.179873 0.513573
0.491524 0.269352 0.520226
0.555596 0.291966 0.509361
0.631159 0.348943 0.523430
0.781186 0.359808 0.577569
0.000000 0.171023 0.498726
0.072969 0.173251 0.502281
0.232059 0.191745 0.509331
0.375067 0.245396 0.520500
0.503716 0.341161 0.531395
0.563317 0.353857 0.519585
0.636622 0.391241 0.532494
0.792447 0.378851 0.579370
0.000000 0.280400 0.477150
0.000000 0.279789 0.483589
0.147372 0.284489 0.506126
0.351537 0.327581 0.529259
0.512169 0.416510 0.545342
0.577295 0.436164 0.537774
0.647089 0.449928 0.547143
0.813321 0.405615 0.576501
0.000000 0.392981 0.481209
0.000000 0.394415 0.484443
0.092195 0.400214 0.495918
0.285008 0.415595 0.516320
0.490730 0.475593 0.557610
0.600244 0.521752 0.565545
0.683528 0.500603 0.565026
0.846159 0.437324 0.554070
0.000000 0.499641 0.484169
0.000000 0.502678 0.487129
0.120516 0.513573 0.497688
0.305058 0.533715 0.517113
0.465217 0.567041 0.549310
0.641230 0.632288 0.613703
0.772183 0.600336 0.583490
0.912596 0.573571 0.559167
0.000000 0.583001 0.476539
0.000000 0.585077 0.478065
0.119509 0.592126 0.483711
0.281895 0.604883 0.495827
0.427649 0.638849 0.524956
0.585595 0.708797 0.572656
0.790555 0.785855 0.628138
0.936980 0.802060 0.674830
0.000000 0.727565 0.518151
0.000000 0.730556 0.519310
0.000000 0.741268 0.523369
0.224613 0.761044 0.530602
0.375830 0.791928 0.539788
0.535760 0.836362 0.549310
0.733547 0.864225 0.599237
0.901671 0.899718 0.666651
0.174716 0.070283 0.603662
0.203891 0.074311 0.605615
0.285252 0.099275 0.612421
0.397345 0.164340 0.624109
0.526177 0.279545 0.639582
0.615961 0.351904 0.640101
0.674220 0.370947 0.627375
0.798154 0.425788 0.682643
0.157107 0.101778 0.604761
0.190219 0.105684 0.606744
0.278019 0.126864 0.613550
0.394751 0.185733 0.625360
0.526452 0.294987 0.641169
0.618616 0.367285 0.642969
0.676143 0.383032 0.629755
0.799466 0.433387 0.684077
0.000000 0.166415 0.607080
0.113405 0.170779 0.609125
0.245212 0.190768 0.616297
0.383062 0.243320 0.628809
0.525566 0.339940 0.646143
0.627649 0.413550 0.653285
0.683040 0.420722 0.638483
0.804105 0.458320 0.688899
0.000000 0.265171 0.593957
0.000000 0.263645 0.598993
0.135103 0.266331 0.615381
0.346227 0.312383 0.632013
0.515007 0.395911 0.652705
0.642420 0.477699 0.672450
0.696071 0.475380 0.654414
0.812131 0.497597 0.696223
0.000000 0.375494 0.575830
0.000000 0.374212 0.577844
0.000000 0.369726 0.585199
0.241978 0.383368 0.614252
0.467201 0.444739 0.656245
0.645991 0.534905 0.692714
0.716793 0.542535 0.679133
0.823087 0.553552 0.705470
0.000000 0.490181 0.581872
0.000000 0.490791 0.583703
0.000000 0.493538 0.590448
0.193118 0.500389 0.603540
0.372229 0.516014 0.627466
0.594079 0.578943 0.699916
0.748440 0.644099 0.717891
0.853696 0.614679 0.714229
0.000000 0.599969 0.586358
0.000000 0.601678 0.588067
0.000000 0.608087 0.594385
0.206119 0.620844 0.606836
0.381079 0.645167 0.630793
0.544762 0.694270 0.680110
0.799557 0.794156 0.781582
0.907683 0.753567 0.741115
0.000000 0.734554 0.619715
0.000000 0.736324 0.620783
0.000000 0.742611 0.624506
0.138949 0.753750 0.631098
0.327977 0.770687 0.640711
0.484169 0.813474 0.661128
0.719753 0.865141 0.716152
0.902220 0.899809 0.802182
0.209567 0.073396 0.796292
0.240574 0.083803 0.797604
0.328466 0.122927 0.802029
0.448859 0.199893 0.809110
0.584131 0.312139 0.817533
0.711727 0.430365 0.826596
0.786496 0.455085 0.820554
0.853147 0.463752 0.810147
0.189761 0.106752 0.796780
0.224765 0.114290 0.798093
0.319036 0.146731 0.802518
0.444282 0.216770 0.809720
0.582208 0.323522 0.818296
0.710994 0.437446 0.827573
0.787350 0.463813 0.822080
0.854032 0.471015 0.811429
0.010468 0.171145 0.797848
0.137118 0.177157 0.799222
0.276493 0.203311 0.803861
0.423468 0.262730 0.811398
0.572595 0.356573 0.820615
0.707088 0.459174 0.830777
0.790341 0.492744 0.827329
0.856992 0.495735 0.815763
0.000000 0.246952 0.793027
0.000000 0.249332 0.795926
0.103426 0.264042 0.804379
0.363470 0.315587 0.812924
0.543999 0.396887 0.823606
0.694789 0.488655 0.835538
0.794705 0.540398 0.836240
0.861997 0.537621 0.823178
0.000000 0.389410 0.768215
0.000000 0.386084 0.771603
0.000000 0.375799 0.783902
0.144411 0.364813 0.806516
0.463020 0.429847 0.825010
0.661311 0.517571 0.840208
0.800412 0.609827 0.848264
0.868254 0.602136 0.833646
0.000000 0.526543 0.770504
0.000000 0.524346 0.771328
0.000000 0.516106 0.774289
0.000000 0.499458 0.779904
0.264836 0.491249 0.803098
0.567163 0.543786 0.841245
0.798428 0.684810 0.859373
0.874968 0.694789 0.847166
0.000000 0.665370 0.785122
0.000000 0.664851 0.785763
0.000000 0.662745 0.788144
0.000000 0.658991 0.792599
0.170352 0.653651 0.800290
0.403845 0.642512 0.814481
0.726619 0.714565 0.860166
0.883421 0.806577 0.865263
0.000000 0.801938 0.797787
0.000000 0.802457 0.798306
0.000000 0.804379 0.800168
0.000000 0.808164 0.803769
0.154757 0.814633 0.809934
0.397253 0.826017 0.820890
0.645686 0.849149 0.842954
0.904967 0.902556 0.896025
