其他预设/【233】日式怀旧街道调色预设208款/1.3D LUT预设（视频调色-PR-AE-PS-FCPX-达芬奇用）/4.富士胶片风日式城市街拍预设 (自动曝光预设)/JA – Subdued 1 Classic Chrome (Auto).cube
# Created by Adobe Lightroom plugin Export LUT (1.17.0)
# www.johnrellis.com/lightroom/exportlut.htm
# Preset: JA – Subdued 1 Classic Chrome (Auto)
# Color profile: /Library/Application Support/Adobe/Color/Profiles/Recommended/AdobeRGB1998.icc
LUT_3D_SIZE 5
DOMAIN_MIN 0.000000 0.000000 0.000000
DOMAIN_MAX 0.903226 0.903226 0.903226
0.107851 0.103517 0.100435
0.220157 0.103609 0.097963
0.536797 0.103853 0.036255
0.804929 0.116945 0.000000
1.000000 0.122530 0.000000
0.130953 0.184726 0.106844
0.216648 0.198703 0.098787
0.555993 0.269047 0.000000
0.814450 0.272374 0.000000
1.000000 0.258976 0.000000
0.206424 0.412238 0.104646
0.278233 0.392340 0.102358
0.482063 0.444495 0.000000
0.818112 0.517754 0.000000
1.000000 0.484993 0.000000
0.302403 0.611902 0.159030
0.350195 0.596490 0.150301
0.468757 0.573449 0.121950
0.712764 0.665370 0.000000
0.984863 0.702235 0.000000
0.430915 0.842557 0.270451
0.465553 0.835904 0.261631
0.564355 0.812833 0.230289
0.731075 0.838254 0.209995
0.949218 0.887602 0.170382
0.052796 0.120058 0.251804
0.234653 0.097353 0.231083
0.519127 0.000000 0.232944
0.791318 0.105074 0.229496
0.996551 0.154726 0.211093
0.098512 0.243259 0.237186
0.246983 0.239261 0.234318
0.537713 0.250065 0.232761
0.800931 0.271794 0.232761
0.998444 0.280980 0.218143
0.181521 0.455848 0.232212
0.300237 0.443549 0.247990
0.495674 0.464851 0.230869
0.822660 0.528588 0.241428
1.000000 0.503746 0.245243
0.317388 0.643519 0.282994
0.368414 0.628260 0.277073
0.474586 0.582849 0.240970
0.716335 0.673884 0.238529
0.982544 0.711940 0.246433
0.438331 0.853361 0.356268
0.471107 0.846647 0.346166
0.566522 0.823026 0.310643
0.727749 0.838041 0.291752
0.946349 0.888609 0.291478
0.000000 0.184970 0.618952
0.201663 0.162783 0.602502
0.532616 0.148867 0.556359
0.766873 0.223117 0.526390
0.962890 0.383337 0.555047
0.000000 0.380560 0.610925
0.243412 0.335180 0.593530
0.533257 0.307378 0.551598
0.766415 0.349554 0.535302
0.959289 0.462867 0.573327
0.196445 0.568170 0.569818
0.330205 0.561364 0.563195
0.547204 0.548363 0.550469
0.783627 0.568109 0.563317
0.970672 0.590478 0.579797
0.337407 0.719661 0.527520
0.403693 0.713863 0.526818
0.543053 0.683192 0.515862
0.729610 0.706661 0.510552
0.970031 0.758846 0.592493
0.461067 0.889311 0.552087
0.494575 0.884611 0.549371
0.583551 0.860899 0.520867
0.712245 0.836027 0.458900
0.936584 0.892393 0.509453
0.000000 0.345037 0.868711
0.172946 0.338811 0.863554
0.521508 0.350561 0.843778
0.768307 0.354101 0.811368
0.948577 0.431434 0.769039
0.274235 0.505333 0.861418
0.309941 0.467842 0.858518
0.543542 0.454566 0.840452
0.768917 0.441199 0.808347
0.945617 0.495766 0.772427
0.366644 0.677089 0.857542
0.459571 0.683589 0.854734
0.609369 0.660334 0.835142
0.772274 0.621332 0.801266
0.939117 0.651484 0.786893
0.434791 0.815702 0.821561
0.497902 0.813138 0.819181
0.637232 0.805112 0.811551
0.779171 0.787533 0.794705
0.939757 0.811093 0.814786
0.569116 0.927245 0.796567
0.598444 0.924468 0.795621
0.671351 0.915099 0.786160
0.746578 0.885222 0.735134
0.920775 0.901091 0.742092
0.424994 0.571374 0.966217
0.463569 0.570520 0.965576
0.597162 0.588769 0.962097
0.755123 0.603204 0.956420
0.914427 0.609400 0.948974
0.537652 0.661402 0.960937
0.549493 0.650477 0.961120
0.638880 0.652064 0.958770
0.769772 0.654139 0.954040
0.915190 0.648951 0.947326
0.619135 0.767361 0.955200
0.656825 0.775204 0.953887
0.732692 0.782834 0.951049
0.806577 0.767727 0.948333
0.917632 0.745754 0.943023
0.666072 0.855924 0.948730
0.698726 0.860655 0.947906
0.784878 0.874876 0.945647
0.861631 0.881498 0.942412
0.921447 0.855741 0.937621
0.708888 0.937560 0.940002
0.730282 0.937102 0.939666
0.793515 0.935668 0.938598
0.871214 0.933593 0.937072
0.923888 0.928923 0.933013
