其他预设/【233】日式怀旧街道调色预设208款/1.3D LUT预设（视频调色-PR-AE-PS-FCPX-达芬奇用）/4.富士胶片风日式城市街拍预设 (自动曝光预设)/JA – Cool Bright 2 (Classic Chrome) (Auto).cube
# Created by Adobe Lightroom plugin Export LUT (1.17.0)
# www.johnrellis.com/lightroom/exportlut.htm
# Preset: JA – Cool Bright 2 (Classic Chrome) (Auto)
# Color profile: /Library/Application Support/Adobe/Color/Profiles/Recommended/AdobeRGB1998.icc
LUT_3D_SIZE 8
DOMAIN_MIN 0.000000 0.000000 0.000000
DOMAIN_MAX 0.903226 0.903226 0.903226
0.079072 0.082368 0.084810
0.134066 0.088685 0.092897
0.224308 0.098665 0.107057
0.370520 0.095369 0.118196
0.555962 0.063203 0.127993
0.698939 0.000000 0.144533
0.816953 0.027955 0.174868
0.933837 0.140566 0.232120
0.089265 0.135195 0.097902
0.139834 0.142428 0.098665
0.229923 0.143954 0.111055
0.378058 0.152132 0.120241
0.560510 0.148470 0.129305
0.701076 0.136110 0.145541
0.817990 0.140108 0.176822
0.934356 0.190158 0.235721
0.103182 0.226474 0.118502
0.143923 0.228855 0.119142
0.250309 0.250370 0.113954
0.405829 0.276036 0.121523
0.574975 0.286931 0.131563
0.708156 0.278172 0.150149
0.821561 0.274998 0.184695
0.935912 0.301457 0.248692
0.094728 0.384985 0.129915
0.155520 0.385718 0.129244
0.273686 0.388159 0.125948
0.441413 0.431922 0.098146
0.604486 0.440681 0.102541
0.718898 0.424414 0.161379
0.827390 0.413947 0.202853
0.938109 0.430396 0.275731
0.040650 0.566308 0.136507
0.151431 0.564782 0.135653
0.293156 0.558221 0.131991
0.438972 0.562615 0.117006
0.608179 0.587823 0.082795
0.736995 0.569818 0.113497
0.837247 0.551568 0.215763
0.939940 0.564660 0.319615
0.110323 0.699397 0.183780
0.176638 0.697597 0.182498
0.302373 0.691157 0.178347
0.434638 0.678981 0.169100
0.576471 0.688197 0.153658
0.729335 0.702876 0.142977
0.848142 0.687221 0.190249
0.947082 0.682979 0.320256
0.248783 0.810819 0.285405
0.276249 0.809506 0.284092
0.355322 0.804654 0.279088
0.459144 0.795865 0.269627
0.572381 0.785763 0.255375
0.705531 0.801511 0.250340
0.843595 0.814694 0.259464
0.948638 0.803647 0.328832
0.424567 0.914519 0.427955
0.437049 0.913848 0.427039
0.478523 0.911437 0.423987
0.544640 0.907164 0.417975
0.627314 0.901152 0.408392
0.724208 0.900847 0.403784
0.830503 0.906371 0.410834
0.933318 0.906523 0.436164
0.062470 0.082887 0.134035
0.128298 0.085298 0.136507
0.222416 0.108797 0.150332
0.376776 0.075715 0.158022
0.561608 0.000000 0.165347
0.701869 0.000000 0.178286
0.818051 0.000000 0.205020
0.933684 0.143435 0.259556
0.079652 0.135561 0.140536
0.134890 0.140322 0.143771
0.229129 0.145937 0.152468
0.383246 0.142672 0.159762
0.565515 0.123934 0.165988
0.703792 0.110353 0.179385
0.818967 0.126772 0.206882
0.934142 0.193027 0.263188
0.108461 0.228061 0.160403
0.142763 0.234318 0.156100
0.250126 0.251347 0.151522
0.406287 0.272740 0.163394
0.578485 0.279362 0.168460
0.710170 0.270817 0.183902
0.822293 0.270970 0.215152
0.935515 0.304509 0.276432
0.093660 0.392096 0.183017
0.134157 0.396094 0.162448
0.271122 0.395666 0.158175
0.444160 0.434730 0.137758
0.605890 0.438148 0.149447
0.719997 0.421942 0.196628
0.827634 0.413458 0.233799
0.937438 0.433845 0.302556
0.038087 0.572900 0.197604
0.118532 0.572412 0.171878
0.285405 0.565393 0.167208
0.437171 0.565393 0.155673
0.609827 0.589837 0.133211
0.738186 0.569024 0.156802
0.836728 0.552697 0.251591
0.939055 0.567590 0.344060
0.116640 0.703212 0.228946
0.168063 0.701839 0.219364
0.299290 0.695247 0.214145
0.433906 0.682795 0.203311
0.576196 0.689387 0.190341
0.730037 0.703883 0.183474
0.848325 0.687465 0.224399
0.945892 0.684962 0.346807
0.261051 0.812741 0.315679
0.287022 0.811460 0.314519
0.361975 0.806638 0.308904
0.462776 0.797818 0.298466
0.573632 0.786007 0.281865
0.705959 0.801816 0.278294
0.843534 0.815000 0.286351
0.948028 0.803983 0.350195
0.433936 0.914824 0.446418
0.445808 0.914122 0.445350
0.485603 0.911742 0.442145
0.549432 0.907530 0.435645
0.630091 0.901518 0.425238
0.725216 0.900511 0.419104
0.830716 0.906188 0.425788
0.933043 0.906432 0.449348
0.000000 0.081300 0.220371
0.101320 0.079347 0.218296
0.213565 0.093904 0.223087
0.364019 0.068727 0.250584
0.558526 0.000000 0.279576
0.705318 0.000000 0.289403
0.819913 0.000000 0.292119
0.932250 0.169223 0.341161
0.021210 0.144778 0.234562
0.100710 0.130282 0.233646
0.222538 0.134066 0.231785
0.377630 0.120455 0.255192
0.568414 0.070558 0.280003
0.709499 0.000000 0.271244
0.820584 0.093965 0.294865
0.932586 0.213596 0.344396
0.065309 0.243046 0.249332
0.121614 0.246036 0.251713
0.243107 0.248966 0.251652
0.414099 0.249454 0.258915
0.586358 0.244816 0.266148
0.714290 0.247959 0.279362
0.822995 0.268162 0.305791
0.933471 0.320897 0.356970
0.045899 0.402533 0.294865
0.118929 0.408759 0.291234
0.243870 0.423011 0.259159
0.449744 0.441840 0.244846
0.605432 0.430732 0.274418
0.721675 0.418616 0.298497
0.827085 0.418494 0.327214
0.934722 0.447822 0.380896
0.000000 0.583246 0.322881
0.118685 0.585138 0.316014
0.258091 0.587274 0.279606
0.430640 0.573175 0.264591
0.614618 0.595514 0.253635
0.739651 0.568750 0.280034
0.833158 0.562402 0.357549
0.935943 0.578088 0.415839
0.172427 0.710048 0.350500
0.219821 0.709773 0.349157
0.308415 0.707393 0.326329
0.438819 0.694942 0.311559
0.577356 0.692927 0.297093
0.732021 0.706966 0.294194
0.848386 0.689265 0.322057
0.941711 0.692744 0.426032
0.328283 0.816190 0.418311
0.353948 0.815305 0.420233
0.394141 0.812863 0.399908
0.481361 0.804166 0.386816
0.582055 0.790890 0.366247
0.708217 0.802487 0.361028
0.843595 0.815976 0.366796
0.945983 0.805173 0.415076
0.482734 0.914153 0.517662
0.494026 0.913573 0.517479
0.508568 0.913054 0.498177
0.565270 0.908904 0.490303
0.639124 0.902922 0.477974
0.727962 0.899474 0.466377
0.831266 0.905516 0.471962
0.932006 0.906188 0.490913
0.000000 0.072724 0.375433
0.000000 0.066316 0.371191
0.218814 0.049989 0.355535
0.356298 0.000000 0.358282
0.527337 0.000000 0.376562
0.684047 0.000000 0.390936
0.807767 0.112276 0.416175
0.922271 0.308843 0.479622
0.000000 0.143832 0.398810
0.000000 0.118471 0.394171
0.219883 0.102541 0.373602
0.368170 0.070436 0.369055
0.538018 0.000000 0.380377
0.689845 0.000000 0.394018
0.809873 0.193179 0.424353
0.923461 0.329168 0.480873
0.000000 0.307286 0.441138
0.000000 0.299229 0.443946
0.166598 0.221622 0.424537
0.403204 0.207279 0.400061
0.570367 0.213535 0.396490
0.705623 0.273228 0.418433
0.816373 0.343938 0.453712
0.928771 0.358556 0.464485
0.000000 0.450935 0.449409
0.000000 0.452033 0.450172
0.214817 0.453407 0.449683
0.448066 0.445197 0.437385
0.603052 0.440803 0.438819
0.719631 0.439307 0.442634
0.823301 0.445808 0.453437
0.930022 0.472084 0.481636
0.000000 0.600153 0.469154
0.117983 0.601465 0.467384
0.295262 0.603479 0.461860
0.455421 0.599939 0.446357
0.620111 0.603571 0.429053
0.731777 0.582422 0.455665
0.828885 0.579492 0.477852
0.931579 0.592248 0.506157
0.206851 0.721309 0.478889
0.252323 0.720760 0.478737
0.367407 0.718196 0.480323
0.479377 0.712123 0.468605
0.588647 0.696712 0.443153
0.735225 0.712215 0.439918
0.846464 0.696071 0.455848
0.934997 0.705684 0.526909
0.361181 0.824369 0.517845
0.385260 0.823514 0.519188
0.453681 0.820584 0.522515
0.521019 0.815488 0.506462
0.604181 0.802152 0.484108
0.712978 0.803494 0.469154
0.843961 0.817990 0.470863
0.943053 0.806790 0.500938
0.503716 0.916960 0.586297
0.516045 0.916320 0.586999
0.554559 0.914122 0.588159
0.590661 0.911955 0.569635
0.653803 0.905943 0.554803
0.731014 0.898192 0.533501
0.831327 0.904570 0.537194
0.930388 0.905882 0.550835
0.000000 0.047089 0.557183
0.000000 0.014801 0.553307
0.207462 0.000000 0.537102
0.364630 0.000000 0.499855
0.520226 0.000000 0.504753
0.658564 0.000000 0.492256
0.786313 0.000000 0.489631
0.913115 0.177218 0.523613
0.000000 0.114076 0.572320
0.000000 0.104463 0.567620
0.188022 0.060395 0.550103
0.367834 0.000000 0.512016
0.528191 0.000000 0.511925
0.663691 0.000000 0.494026
0.789364 0.000000 0.492897
0.914000 0.233585 0.529503
0.000000 0.319371 0.607446
0.000000 0.297551 0.603326
0.000000 0.204807 0.586572
0.368963 0.170840 0.548302
0.553033 0.140932 0.533623
0.678950 0.154788 0.500847
0.798398 0.252781 0.510704
0.916533 0.365545 0.552239
0.000000 0.483192 0.623713
0.000000 0.479622 0.624506
0.013458 0.467384 0.625025
0.382147 0.412696 0.597925
0.586725 0.396674 0.562097
0.701595 0.415930 0.536950
0.810971 0.460822 0.556420
0.920928 0.513115 0.592767
0.000000 0.628840 0.619013
0.000000 0.629114 0.619013
0.254124 0.628992 0.617121
0.474983 0.625422 0.610651
0.625299 0.612482 0.594446
0.727779 0.601862 0.588128
0.826993 0.593957 0.584558
0.927947 0.599084 0.593194
0.266758 0.736110 0.618250
0.312474 0.735042 0.619104
0.417029 0.732631 0.618341
0.531945 0.728084 0.614893
0.625360 0.719814 0.596307
0.740719 0.720424 0.578332
0.840299 0.708858 0.592340
0.929961 0.712856 0.614923
0.407630 0.835630 0.633265
0.428870 0.834989 0.633936
0.491157 0.832761 0.635126
0.570367 0.828611 0.632837
0.636561 0.821256 0.608576
0.718471 0.805295 0.578332
0.845304 0.821622 0.576806
0.939696 0.808133 0.593347
0.533379 0.920531 0.671870
0.544854 0.919951 0.672206
0.580285 0.918059 0.672511
0.629145 0.915129 0.668147
0.672419 0.911681 0.643946
0.738308 0.903349 0.620111
0.829282 0.903532 0.609796
0.928344 0.905577 0.618463
0.000000 0.000000 0.694484
0.000000 0.000000 0.691585
0.118776 0.000000 0.679835
0.350103 0.000000 0.654902
0.488563 0.000000 0.608484
0.648951 0.000000 0.621118
0.770321 0.000000 0.597101
0.897185 0.000000 0.591821
0.000000 0.097658 0.702998
0.000000 0.085542 0.699702
0.024140 0.000000 0.687495
0.343633 0.000000 0.662348
0.491341 0.000000 0.615961
0.653346 0.000000 0.625177
0.772824 0.000000 0.598016
0.898802 0.000000 0.594079
0.000000 0.293217 0.724971
0.000000 0.267308 0.722255
0.000000 0.189334 0.711208
0.315190 0.153780 0.685451
0.498726 0.077424 0.639857
0.667567 0.000000 0.637934
0.780331 0.073915 0.602564
0.903502 0.200290 0.604578
0.000000 0.482521 0.757168
0.000000 0.478828 0.757900
0.000000 0.449775 0.745174
0.314580 0.387854 0.719417
0.522240 0.352026 0.674800
0.687709 0.351354 0.655818
0.789639 0.353307 0.614923
0.909819 0.408942 0.629053
0.000000 0.624720 0.754726
0.000000 0.625147 0.754849
0.206302 0.628901 0.754116
0.453101 0.636591 0.751278
0.587213 0.594873 0.719417
0.712764 0.561303 0.678096
0.807553 0.554009 0.650172
0.917937 0.585260 0.670130
0.096284 0.756710 0.746181
0.203189 0.756893 0.745937
0.372168 0.756985 0.744686
0.525109 0.755825 0.741329
0.648554 0.751064 0.733822
0.751125 0.734920 0.714382
0.839567 0.718288 0.701076
0.926879 0.710933 0.697047
0.432929 0.853208 0.750362
0.456794 0.852323 0.750851
0.526665 0.849271 0.752255
0.608698 0.845579 0.751675
0.680812 0.841886 0.741970
0.746853 0.831327 0.712764
0.849210 0.828977 0.690944
0.930938 0.814694 0.706508
0.568750 0.924376 0.765621
0.579187 0.923857 0.765713
0.611719 0.922240 0.765225
0.658656 0.919707 0.762264
0.713832 0.915831 0.755123
0.762722 0.910399 0.730831
0.826932 0.901915 0.696071
0.925261 0.905272 0.701778
0.000000 0.000000 0.820768
0.000000 0.000000 0.816953
0.000000 0.000000 0.808042
0.296513 0.000000 0.789944
0.473182 0.000000 0.757900
0.607538 0.000000 0.719844
0.760616 0.000000 0.727443
0.891905 0.000000 0.714504
0.000000 0.061402 0.824643
0.000000 0.024475 0.822232
0.000000 0.000000 0.813260
0.283543 0.000000 0.794858
0.470253 0.000000 0.762753
0.607843 0.000000 0.722438
0.762722 0.000000 0.729610
0.893065 0.000000 0.714931
0.000000 0.250950 0.839963
0.000000 0.219486 0.838193
0.000000 0.165743 0.830014
0.228794 0.127199 0.811521
0.460121 0.000000 0.779080
0.608820 0.000000 0.730983
0.770077 0.000000 0.736721
0.896391 0.000000 0.716762
0.000000 0.450782 0.861845
0.000000 0.442939 0.859983
0.000000 0.421363 0.852049
0.200717 0.356512 0.836545
0.466743 0.329808 0.804776
0.619776 0.264897 0.750912
0.781369 0.288853 0.747463
0.900542 0.287358 0.721157
0.000000 0.614405 0.871641
0.000000 0.616022 0.871702
0.146334 0.624933 0.871580
0.417884 0.626123 0.863676
0.538109 0.573449 0.836973
0.660609 0.514275 0.785916
0.796750 0.497658 0.762356
0.904875 0.476875 0.729427
0.000000 0.749538 0.865934
0.135439 0.751217 0.865843
0.344030 0.757015 0.865202
0.507073 0.764706 0.864225
0.640345 0.769863 0.862943
0.724605 0.726741 0.836667
0.821073 0.675135 0.786984
0.913054 0.656367 0.754696
0.360388 0.862211 0.856992
0.391180 0.862394 0.856870
0.477150 0.862913 0.856443
0.579339 0.863554 0.855528
0.681727 0.863676 0.853574
0.781949 0.861143 0.848203
0.860410 0.846464 0.829496
0.920317 0.828489 0.812894
0.565026 0.933349 0.851682
0.578027 0.932586 0.851682
0.619562 0.929931 0.851530
0.681788 0.925566 0.851438
0.756069 0.919402 0.852293
0.814817 0.914458 0.847196
0.857786 0.907530 0.829038
0.920562 0.905364 0.809110
0.000000 0.000000 0.921050
0.000000 0.000000 0.919829
0.000000 0.000000 0.915282
0.189548 0.000000 0.907439
0.426184 0.000000 0.895018
0.592554 0.000000 0.872526
0.735683 0.000000 0.852567
0.885710 0.000000 0.857176
0.000000 0.000000 0.920989
0.000000 0.000000 0.919799
0.000000 0.000000 0.915892
0.160861 0.000000 0.909239
0.418830 0.000000 0.897032
0.589990 0.000000 0.874723
0.735256 0.000000 0.853727
0.886473 0.000000 0.858061
0.000000 0.180087 0.924773
0.000000 0.137789 0.924498
0.000000 0.115267 0.921416
0.000000 0.037842 0.915099
0.392981 0.000000 0.903410
0.581567 0.000000 0.882078
0.733700 0.000000 0.857481
0.888914 0.000000 0.860716
0.000000 0.392004 0.928985
0.000000 0.385840 0.928496
0.000000 0.353094 0.926787
0.000000 0.294133 0.922606
0.374304 0.281376 0.911925
0.577173 0.237400 0.892729
0.732326 0.117098 0.862821
0.892271 0.191226 0.864530
0.000000 0.565576 0.932464
0.000000 0.564172 0.931975
0.000000 0.562402 0.929808
0.293828 0.560479 0.924834
0.459663 0.530846 0.917479
0.609125 0.493477 0.902678
0.738460 0.400641 0.870848
0.896208 0.425666 0.868864
0.000000 0.702205 0.926574
0.000000 0.705074 0.926268
0.274632 0.715389 0.925078
0.467903 0.731533 0.923278
0.612055 0.742763 0.919951
0.686213 0.705165 0.910948
0.769162 0.634119 0.888640
0.900938 0.606409 0.874540
0.311650 0.820981 0.918975
0.348211 0.822354 0.918700
0.445472 0.826810 0.917815
0.562371 0.833951 0.916503
0.679683 0.843809 0.914824
0.795132 0.860136 0.912566
0.848386 0.844999 0.903990
0.906981 0.781735 0.882078
0.510704 0.912230 0.911009
0.526574 0.912322 0.910887
0.575952 0.912627 0.910460
0.650233 0.913207 0.909728
0.739864 0.914092 0.908690
0.827176 0.915251 0.907439
0.889860 0.915953 0.906096
0.921263 0.911559 0.899870
