其他预设/【233】日式怀旧街道调色预设208款/1.3D LUT预设（视频调色-PR-AE-PS-FCPX-达芬奇用）/4.富士胶片风日式城市街拍预设 (自动曝光预设)/JA – Controlled Contrast 4 (Classic Chrome) (Auto).cube
# Created by Adobe Lightroom plugin Export LUT (1.17.0)
# www.johnrellis.com/lightroom/exportlut.htm
# Preset: JA – Controlled Contrast 4 (Classic Chrome) (Auto)
# Color profile: /Library/Application Support/Adobe/Color/Profiles/Recommended/AdobeRGB1998.icc
LUT_3D_SIZE 32
0.000000 0.000000 0.000000
0.036316 0.000000 0.000000
0.067781 0.000000 0.000000
0.095583 0.000000 0.000000
0.122866 0.000000 0.000000
0.150332 0.000000 0.000000
0.185733 0.000000 0.000000
0.236545 0.000000 0.000000
0.300999 0.000000 0.000000
0.371557 0.000000 0.000000
0.442359 0.000000 0.000000
0.505943 0.000000 0.000000
0.560357 0.000000 0.000000
0.606897 0.000000 0.000000
0.646937 0.000000 0.000000
0.682063 0.000000 0.000000
0.713649 0.000000 0.000000
0.742550 0.000000 0.000000
0.769192 0.000000 0.000000
0.795377 0.000000 0.000000
0.821378 0.000000 0.000000
0.847410 0.000000 0.000000
0.873533 0.000000 0.000000
0.899657 0.000000 0.000000
0.925902 0.000000 0.000000
0.952117 0.000000 0.000000
0.977600 0.000000 0.000000
1.000000 0.000000 0.000000
1.000000 0.000000 0.000000
1.000000 0.000000 0.000000
1.000000 0.000000 0.000000
1.000000 0.000000 0.000000
0.001251 0.027985 0.000000
0.034882 0.026001 0.000000
0.066835 0.019165 0.000000
0.095033 0.005463 0.000000
0.122713 0.000000 0.000000
0.150057 0.000000 0.000000
0.185763 0.000000 0.000000
0.236851 0.000000 0.000000
0.301213 0.000000 0.000000
0.372107 0.000000 0.000000
0.442725 0.000000 0.000000
0.506279 0.000000 0.000000
0.560571 0.000000 0.000000
0.607080 0.000000 0.000000
0.647150 0.000000 0.000000
0.682216 0.000000 0.000000
0.713741 0.000000 0.000000
0.742641 0.000000 0.000000
0.769284 0.000000 0.000000
0.795468 0.000000 0.000000
0.821500 0.000000 0.000000
0.847501 0.000000 0.000000
0.873594 0.000000 0.000000
0.899748 0.000000 0.000000
0.925963 0.000000 0.000000
0.952209 0.000000 0.000000
0.977691 0.000000 0.000000
1.000000 0.000000 0.000000
1.000000 0.000000 0.000000
1.000000 0.000000 0.000000
1.000000 0.000000 0.000000
1.000000 0.000000 0.000000
0.000824 0.060822 0.000000
0.038422 0.060731 0.000000
0.067140 0.057740 0.000000
0.094453 0.042329 0.000000
0.122164 0.021180 0.000000
0.149996 0.000000 0.000000
0.185824 0.000000 0.000000
0.237003 0.000000 0.000000
0.301732 0.000000 0.000000
0.372625 0.000000 0.000000
0.443214 0.000000 0.000000
0.506737 0.000000 0.000000
0.560967 0.000000 0.000000
0.607324 0.000000 0.000000
0.647303 0.000000 0.000000
0.682399 0.000000 0.000000
0.713954 0.000000 0.000000
0.742794 0.000000 0.000000
0.769436 0.000000 0.000000
0.795560 0.000000 0.000000
0.821622 0.000000 0.000000
0.847684 0.000000 0.000000
0.873747 0.000000 0.000000
0.899840 0.000000 0.000000
0.926116 0.000000 0.000000
0.952300 0.000000 0.000000
0.977752 0.000000 0.000000
1.000000 0.000000 0.000000
1.000000 0.000000 0.000000
1.000000 0.000000 0.000000
1.000000 0.000000 0.000000
1.000000 0.000000 0.000000
0.002838 0.085969 0.000000
0.035309 0.086793 0.000000
0.067414 0.085237 0.000000
0.093263 0.080812 0.000000
0.120302 0.071138 0.000000
0.149538 0.062470 0.000000
0.185977 0.048859 0.000000
0.237858 0.022889 0.000000
0.302953 0.000000 0.000000
0.373999 0.000000 0.000000
0.444495 0.000000 0.000000
0.507713 0.000000 0.000000
0.561669 0.000000 0.000000
0.607874 0.000000 0.000000
0.647791 0.000000 0.000000
0.682826 0.000000 0.000000
0.714290 0.000000 0.000000
0.743099 0.000000 0.000000
0.769741 0.000000 0.000000
0.795865 0.000000 0.000000
0.821958 0.000000 0.000000
0.847959 0.000000 0.000000
0.873991 0.000000 0.000000
0.900145 0.000000 0.000000
0.926360 0.000000 0.000000
0.952514 0.000000 0.000000
0.977935 0.000000 0.000000
1.000000 0.000000 0.000000
1.000000 0.000000 0.000000
1.000000 0.000000 0.000000
1.000000 0.000000 0.000000
1.000000 0.000000 0.000000
0.006775 0.109438 0.000000
0.032410 0.110994 0.000000
0.065370 0.110384 0.000000
0.092744 0.107790 0.000000
0.117403 0.101961 0.000000
0.145022 0.094728 0.000000
0.186282 0.093294 0.000000
0.239109 0.093721 0.000000
0.304814 0.090791 0.000000
0.376013 0.078889 0.000000
0.446296 0.028717 0.000000
0.509178 0.000000 0.000000
0.562860 0.000000 0.000000
0.608789 0.000000 0.000000
0.648524 0.000000 0.000000
0.683375 0.000000 0.000000
0.714839 0.000000 0.000000
0.743557 0.000000 0.000000
0.770199 0.000000 0.000000
0.796323 0.000000 0.000000
0.822385 0.000000 0.000000
0.848447 0.000000 0.000000
0.874449 0.000000 0.000000
0.900572 0.000000 0.000000
0.926757 0.000000 0.000000
0.952911 0.000000 0.000000
0.978210 0.000000 0.000000
1.000000 0.000000 0.000000
1.000000 0.000000 0.000000
1.000000 0.000000 0.000000
1.000000 0.000000 0.000000
1.000000 0.000000 0.000000
0.014405 0.133089 0.000000
0.037995 0.134920 0.000000
0.064729 0.135958 0.000000
0.094301 0.135225 0.000000
0.120119 0.130434 0.000000
0.141451 0.122774 0.000000
0.175784 0.121920 0.000000
0.235691 0.132815 0.000000
0.307073 0.142123 0.000000
0.378454 0.144503 0.000000
0.448676 0.139223 0.000000
0.511131 0.123293 0.000000
0.564294 0.094911 0.000000
0.609979 0.013428 0.000000
0.649500 0.000000 0.000000
0.684199 0.000000 0.000000
0.715572 0.000000 0.000000
0.744167 0.000000 0.000000
0.770809 0.000000 0.000000
0.796963 0.000000 0.000000
0.822995 0.000000 0.000000
0.849027 0.000000 0.000000
0.875029 0.000000 0.000000
0.901152 0.000000 0.000000
0.927306 0.000000 0.000000
0.953368 0.000000 0.000000
0.978637 0.000000 0.000000
1.000000 0.000000 0.000000
1.000000 0.000000 0.000000
1.000000 0.000000 0.000000
1.000000 0.000000 0.000000
1.000000 0.000000 0.000000
0.024903 0.163424 0.000000
0.050385 0.165682 0.000000
0.069337 0.168948 0.000000
0.099397 0.169741 0.000000
0.132326 0.169955 0.000000
0.153811 0.160769 0.000000
0.171969 0.149783 0.000000
0.217716 0.157748 0.000000
0.294835 0.179660 0.000000
0.381811 0.197330 0.000000
0.451575 0.200107 0.000000
0.513390 0.194064 0.000000
0.566064 0.180606 0.000000
0.611475 0.160189 0.000000
0.650690 0.132845 0.000000
0.685206 0.094026 0.000000
0.716518 0.000000 0.000000
0.744991 0.000000 0.000000
0.771603 0.000000 0.000000
0.797757 0.000000 0.000000
0.823789 0.000000 0.000000
0.849821 0.000000 0.000000
0.875792 0.000000 0.000000
0.901823 0.000000 0.000000
0.928008 0.000000 0.000000
0.953948 0.000000 0.000000
0.979126 0.000000 0.000000
1.000000 0.000000 0.000000
1.000000 0.000000 0.000000
1.000000 0.000000 0.000000
1.000000 0.000000 0.000000
1.000000 0.000000 0.000000
0.041810 0.207645 0.000000
0.063325 0.210666 0.000000
0.080385 0.214817 0.000000
0.111330 0.219303 0.000000
0.148775 0.222263 0.000000
0.181155 0.218814 0.000000
0.201022 0.204715 0.000000
0.216098 0.188907 0.000000
0.271031 0.202762 0.000000
0.358312 0.231113 0.000000
0.448035 0.251286 0.000000
0.516075 0.253117 0.000000
0.568261 0.244236 0.000000
0.613214 0.229984 0.000000
0.652064 0.211307 0.000000
0.686427 0.188846 0.000000
0.717556 0.162661 0.000000
0.745968 0.129854 0.000000
0.772549 0.083986 0.000000
0.798703 0.000000 0.000000
0.824704 0.000000 0.000000
0.850706 0.000000 0.000000
0.876707 0.000000 0.000000
0.902708 0.000000 0.000000
0.928771 0.000000 0.000000
0.954650 0.000000 0.000000
0.979706 0.000000 0.000000
1.000000 0.000000 0.000000
1.000000 0.000000 0.000000
1.000000 0.000000 0.000000
1.000000 0.000000 0.000000
1.000000 0.000000 0.000000
0.058900 0.266575 0.000000
0.075227 0.269810 0.000000
0.093599 0.274083 0.000000
0.126406 0.281804 0.000000
0.167544 0.286046 0.000000
0.212100 0.291264 0.000000
0.240726 0.279637 0.000000
0.260227 0.261234 0.000000
0.273472 0.240177 0.000000
0.329961 0.253391 0.000000
0.420325 0.283909 0.000000
0.503563 0.300542 0.000000
0.570703 0.302220 0.000000
0.615167 0.290105 0.000000
0.653651 0.274327 0.000000
0.687739 0.256107 0.000000
0.718837 0.235416 0.000000
0.747127 0.212680 0.000000
0.773648 0.187320 0.000000
0.799802 0.158175 0.000000
0.825803 0.122225 0.000000
0.851835 0.063539 0.000000
0.877775 0.000000 0.000000
0.903746 0.000000 0.000000
0.929747 0.000000 0.000000
0.955505 0.000000 0.000000
0.980407 0.000000 0.000000
1.000000 0.000000 0.000000
1.000000 0.000000 0.000000
1.000000 0.000000 0.000000
1.000000 0.000000 0.000000
1.000000 0.000000 0.000000
0.067445 0.333959 0.000000
0.085451 0.336919 0.000000
0.105165 0.341039 0.000000
0.141085 0.349859 0.000000
0.184909 0.355688 0.000000
0.232853 0.361273 0.000000
0.280430 0.364385 0.000000
0.305364 0.345220 0.000000
0.325017 0.323552 0.000000
0.337713 0.298528 0.000000
0.389349 0.305669 0.000000
0.476234 0.333288 0.000000
0.550378 0.344732 0.000000
0.612268 0.344121 0.000000
0.655360 0.331823 0.000000
0.689326 0.314733 0.000000
0.720241 0.296300 0.000000
0.748379 0.276341 0.000000
0.774899 0.255589 0.000000
0.801022 0.233463 0.000000
0.827085 0.209537 0.000000
0.853056 0.182986 0.000000
0.878996 0.151400 0.000000
0.904906 0.109651 0.000000
0.930846 0.000000 0.000000
0.956451 0.000000 0.000000
0.981170 0.000000 0.000000
1.000000 0.000000 0.000000
1.000000 0.000000 0.000000
1.000000 0.000000 0.000000
1.000000 0.000000 0.000000
1.000000 0.000000 0.000000
0.072419 0.402930 0.000000
0.091737 0.405524 0.000000
0.114046 0.409247 0.000000
0.151675 0.416602 0.000000
0.198001 0.424079 0.000000
0.247532 0.429297 0.000000
0.300267 0.435248 0.000000
0.342412 0.429572 0.000000
0.368597 0.408972 0.000000
0.389349 0.385473 0.000000
0.402289 0.358099 0.000000
0.444953 0.355749 0.000000
0.523766 0.377295 0.000000
0.589990 0.384283 0.000000
0.645624 0.380987 0.000000
0.690944 0.370153 0.000000
0.721675 0.352209 0.000000
0.749691 0.333471 0.000000
0.776272 0.314061 0.000000
0.802487 0.294469 0.000000
0.828519 0.274235 0.000000
0.854429 0.253117 0.000000
0.880339 0.230533 0.000000
0.906188 0.205447 0.000000
0.932036 0.176608 0.000000
0.957519 0.140505 0.000000
0.981994 0.087709 0.000000
1.000000 0.000000 0.000000
1.000000 0.000000 0.000000
1.000000 0.000000 0.000000
1.000000 0.000000 0.000000
1.000000 0.000000 0.000000
0.075837 0.466499 0.000000
0.097200 0.468574 0.000000
0.120058 0.471290 0.000000
0.157809 0.477058 0.000000
0.205112 0.485054 0.000000
0.255344 0.488991 0.000000
0.307866 0.493874 0.000000
0.362676 0.499092 0.000000
0.397681 0.484840 0.000000
0.424994 0.464454 0.000000
0.447120 0.441108 0.000000
0.461585 0.413519 0.000000
0.493385 0.400549 0.000000
0.564324 0.416297 0.000000
0.623896 0.419379 0.000000
0.674617 0.414130 0.000000
0.719539 0.403937 0.000000
0.751186 0.387030 0.000000
0.777768 0.368231 0.000000
0.803983 0.349615 0.000000
0.830045 0.330877 0.000000
0.855924 0.312047 0.000000
0.881773 0.292393 0.000000
0.907591 0.272007 0.000000
0.933379 0.250004 0.000000
0.958679 0.225681 0.000000
0.982940 0.197910 0.000000
1.000000 0.164767 0.000000
1.000000 0.120577 0.000000
1.000000 0.006348 0.000000
1.000000 0.000000 0.000000
1.000000 0.000000 0.000000
0.080018 0.521202 0.000000
0.100313 0.522759 0.000000
0.123354 0.524895 0.000000
0.161440 0.529320 0.000000
0.208042 0.536187 0.000000
0.257939 0.540459 0.000000
0.309728 0.544213 0.000000
0.363226 0.548425 0.000000
0.414435 0.548791 0.000000
0.446052 0.531487 0.000000
0.473823 0.511437 0.000000
0.496803 0.488502 0.000000
0.512505 0.461463 0.000000
0.534722 0.439704 0.000000
0.598993 0.450629 0.000000
0.653193 0.450996 0.000000
0.700649 0.444678 0.000000
0.742885 0.434119 0.000000
0.779385 0.419959 0.000000
0.805661 0.401648 0.000000
0.831724 0.383642 0.000000
0.857603 0.365637 0.000000
0.883391 0.347601 0.000000
0.909148 0.328985 0.000000
0.934844 0.309941 0.000000
0.959899 0.289555 0.000000
0.983917 0.267552 0.000000
1.000000 0.243137 0.000000
1.000000 0.215366 0.000000
1.000000 0.182864 0.000000
1.000000 0.141390 0.000000
1.000000 0.073213 0.000000
0.082948 0.568017 0.000000
0.103670 0.569238 0.000000
0.125277 0.570916 0.000000
0.162631 0.574395 0.000000
0.208011 0.579644 0.000000
0.257145 0.584619 0.000000
0.307988 0.587579 0.000000
0.360204 0.590936 0.000000
0.413916 0.594476 0.000000
0.457130 0.587823 0.000000
0.488289 0.570642 0.000000
0.516136 0.551141 0.000000
0.539422 0.529046 0.000000
0.556023 0.502739 0.000000
0.569940 0.473762 0.000000
0.629084 0.481270 0.000000
0.679286 0.479530 0.000000
0.723995 0.472602 0.000000
0.765011 0.462379 0.000000
0.804349 0.450660 0.000000
0.833463 0.433936 0.000000
0.859342 0.416388 0.000000
0.885130 0.398962 0.000000
0.910826 0.381537 0.000000
0.936370 0.363684 0.000000
0.961242 0.345098 0.000000
0.984955 0.325505 0.000000
1.000000 0.304448 0.000000
1.000000 0.281621 0.000000
1.000000 0.256413 0.000000
1.000000 0.227787 0.000000
1.000000 0.193606 0.000000
0.086091 0.608362 0.000000
0.105501 0.609308 0.000000
0.126314 0.610559 0.000000
0.162814 0.613397 0.000000
0.206851 0.617670 0.000000
0.254582 0.622980 0.000000
0.303929 0.625330 0.000000
0.354803 0.628077 0.000000
0.406714 0.631067 0.000000
0.460060 0.634272 0.000000
0.495155 0.621118 0.000000
0.525628 0.604211 0.000000
0.553033 0.585168 0.000000
0.576471 0.563867 0.000000
0.593561 0.538384 0.000000
0.600793 0.503868 0.000000
0.655604 0.508629 0.000000
0.702998 0.505913 0.000000
0.745968 0.498848 0.000000
0.787015 0.489754 0.000000
0.826444 0.478981 0.000000
0.861234 0.465492 0.000000
0.886992 0.448280 0.000000
0.912627 0.431098 0.000000
0.937987 0.413886 0.000000
0.962585 0.396338 0.000000
0.985992 0.377844 0.000000
1.000000 0.358526 0.000000
1.000000 0.337774 0.000000
1.000000 0.315557 0.000000
1.000000 0.290959 0.000000
1.000000 0.263462 0.000000
0.089509 0.643610 0.000000
0.108003 0.644373 0.000000
0.127413 0.645380 0.000000
0.162722 0.647730 0.000000
0.204532 0.651209 0.000000
0.250950 0.655909 0.000000
0.298711 0.658961 0.000000
0.348058 0.661341 0.000000
0.398505 0.664027 0.000000
0.449958 0.666835 0.000000
0.497810 0.665614 0.000000
0.529839 0.650660 0.000000
0.559289 0.633722 0.000000
0.585962 0.614923 0.000000
0.609094 0.594110 0.000000
0.626276 0.569451 0.000000
0.630854 0.533074 0.000000
0.679377 0.533776 0.000000
0.725154 0.530571 0.000000
0.767941 0.524437 0.000000
0.809049 0.516258 0.000000
0.848600 0.506462 0.000000
0.886564 0.495094 0.000000
0.914488 0.479133 0.000000
0.939666 0.462135 0.000000
0.963989 0.444862 0.000000
0.987060 0.426886 0.000000
1.000000 0.408362 0.000000
1.000000 0.388647 0.000000
1.000000 0.367742 0.000000
1.000000 0.344976 0.000000
1.000000 0.319982 0.000000
0.093202 0.675257 0.000000
0.109987 0.675929 0.000000
0.128878 0.676814 0.000000
0.162203 0.678767 0.000000
0.202487 0.681819 0.000000
0.246647 0.685817 0.000000
0.292973 0.689479 0.000000
0.340978 0.691554 0.000000
0.389899 0.693874 0.000000
0.439612 0.696407 0.000000
0.490547 0.699092 0.000000
0.530663 0.691981 0.000000
0.561456 0.676905 0.000000
0.590021 0.660243 0.000000
0.615961 0.641657 0.000000
0.638361 0.621241 0.000000
0.655360 0.597162 0.000000
0.658106 0.559747 0.000000
0.702144 0.557488 0.000000
0.747066 0.554742 0.000000
0.789975 0.549462 0.000000
0.831174 0.542260 0.000000
0.870787 0.533227 0.000000
0.908751 0.522637 0.000000
0.941405 0.508934 0.000000
0.965423 0.491646 0.000000
0.988098 0.473854 0.000000
1.000000 0.455482 0.000000
1.000000 0.436225 0.000000
1.000000 0.415839 0.000000
1.000000 0.394141 0.000000
1.000000 0.369909 0.000000
0.097169 0.704005 0.000000
0.112551 0.704585 0.000000
0.130251 0.705318 0.000000
0.161868 0.707057 0.000000
0.200595 0.709682 0.000000
0.242588 0.713130 0.000000
0.287266 0.717494 0.000000
0.333715 0.719417 0.000000
0.381292 0.721614 0.000000
0.429694 0.724056 0.000000
0.478859 0.726711 0.000000
0.529137 0.729488 0.000000
0.561608 0.716640 0.000000
0.591302 0.701472 0.000000
0.618891 0.684810 0.000000
0.643915 0.666621 0.000000
0.666163 0.646815 0.000000
0.682979 0.623438 0.000000
0.684291 0.585321 0.000000
0.724239 0.580468 0.000000
0.769070 0.578546 0.000000
0.812161 0.574151 0.000000
0.853544 0.567712 0.000000
0.893217 0.559503 0.000000
0.930907 0.549279 0.000000
0.965270 0.536706 0.000000
0.989105 0.519310 0.000000
1.000000 0.500847 0.000000
1.000000 0.481636 0.000000
1.000000 0.461372 0.000000
1.000000 0.439979 0.000000
1.000000 0.416083 0.000000
0.101900 0.731472 0.000000
0.115389 0.731991 0.000000
0.132479 0.732692 0.000000
0.161654 0.734218 0.000000
0.198581 0.736629 0.000000
0.239048 0.739834 0.000000
0.282139 0.743862 0.000000
0.327214 0.746639 0.000000
0.373510 0.748867 0.000000
0.420356 0.751217 0.000000
0.468299 0.753811 0.000000
0.517021 0.756619 0.000000
0.561364 0.754849 0.000000
0.591821 0.741024 0.000000
0.620569 0.725826 0.000000
0.647242 0.709194 0.000000
0.671565 0.691096 0.000000
0.693080 0.671595 0.000000
0.709682 0.648676 0.000000
0.709957 0.610193 0.000000
0.746365 0.603326 0.000000
0.791440 0.602197 0.000000
0.834745 0.598627 0.000000
0.876249 0.592920 0.000000
0.915892 0.585229 0.000000
0.952575 0.574975 0.000000
0.984985 0.561730 0.000000
1.000000 0.544884 0.000000
1.000000 0.525444 0.000000
1.000000 0.505028 0.000000
1.000000 0.483619 0.000000
1.000000 0.459632 0.000000
0.105745 0.758724 0.000000
0.118959 0.759213 0.000000
0.134463 0.759884 0.000000
0.161685 0.761288 0.000000
0.197238 0.763516 0.000000
0.236057 0.766476 0.000000
0.277775 0.770138 0.000000
0.321263 0.773709 0.000000
0.366278 0.775814 0.000000
0.412177 0.778103 0.000000
0.458778 0.780667 0.000000
0.506279 0.783383 0.000000
0.554681 0.786221 0.000000
0.591913 0.779049 0.000000
0.621485 0.765194 0.000000
0.649348 0.750027 0.000000
0.675319 0.733547 0.000000
0.698970 0.715663 0.000000
0.720027 0.696315 0.000000
0.736141 0.673579 0.000000
0.735439 0.634913 0.000000
0.768795 0.626093 0.000000
0.814176 0.625849 0.000000
0.857664 0.623041 0.000000
0.899351 0.617975 0.000000
0.938476 0.610376 0.000000
0.973449 0.599481 0.000000
1.000000 0.585260 0.000000
1.000000 0.567864 0.000000
1.000000 0.547356 0.000000
1.000000 0.525597 0.000000
1.000000 0.501366 0.000000
0.110262 0.785885 0.000000
0.122011 0.786313 0.000000
0.136599 0.786893 0.000000
0.162417 0.788235 0.000000
0.196201 0.790280 0.000000
0.233707 0.792996 0.000000
0.273655 0.796384 0.000000
0.315496 0.800412 0.000000
0.359747 0.802548 0.000000
0.404486 0.804776 0.000000
0.449989 0.807248 0.000000
0.496345 0.809873 0.000000
0.543389 0.812650 0.000000
0.591455 0.815457 0.000000
0.621820 0.803006 0.000000
0.650629 0.789242 0.000000
0.677913 0.774166 0.000000
0.703243 0.757870 0.000000
0.726406 0.740261 0.000000
0.747066 0.721157 0.000000
0.762875 0.698817 0.000000
0.761410 0.659907 0.000000
0.791836 0.649134 0.000000
0.837522 0.649622 0.000000
0.881285 0.647456 0.000000
0.922820 0.642817 0.000000
0.960540 0.634638 0.000000
0.993133 0.622736 0.000000
1.000000 0.607080 0.000000
1.000000 0.588159 0.000000
1.000000 0.566369 0.000000
1.000000 0.541741 0.000000
0.114717 0.812863 0.000000
0.125032 0.813321 0.000000
0.138094 0.813809 0.000000
0.163424 0.815030 0.000000
0.195346 0.816953 0.000000
0.231632 0.819425 0.000000
0.270085 0.822568 0.000000
0.310704 0.826291 0.000000
0.353460 0.829129 0.000000
0.397467 0.831235 0.000000
0.441901 0.833585 0.000000
0.487251 0.836118 0.000000
0.533257 0.838743 0.000000
0.579950 0.841459 0.000000
0.621515 0.839292 0.000000
0.651148 0.826780 0.000000
0.679438 0.813138 0.000000
0.706172 0.798306 0.000000
0.731106 0.782315 0.000000
0.753964 0.764950 0.000000
0.774441 0.746273 0.000000
0.790127 0.724178 0.000000
0.788113 0.685359 0.000000
0.815518 0.672572 0.000000
0.861570 0.673793 0.000000
0.905608 0.672175 0.000000
0.946227 0.667140 0.000000
0.981781 0.657893 0.000000
1.000000 0.644404 0.000000
1.000000 0.626947 0.000000
1.000000 0.605829 0.000000
1.000000 0.581048 0.000000
0.118746 0.839780 0.000000
0.128756 0.840146 0.000000
0.140810 0.840696 0.000000
0.164462 0.841764 0.000000
0.194949 0.843503 0.000000
0.229648 0.845823 0.000000
0.266941 0.848753 0.000000
0.306126 0.852140 0.000000
0.347601 0.855589 0.000000
0.390692 0.857542 0.000000
0.434394 0.859739 0.000000
0.478676 0.862089 0.000000
0.523522 0.864530 0.000000
0.569299 0.867033 0.000000
0.615534 0.869566 0.000000
0.650874 0.862547 0.000000
0.679988 0.850309 0.000000
0.707912 0.836973 0.000000
0.734340 0.822446 0.000000
0.759030 0.806821 0.000000
0.781765 0.789914 0.000000
0.802243 0.771695 0.000000
0.818021 0.750179 0.000000
0.815702 0.711391 0.000000
0.840146 0.696590 0.000000
0.886656 0.698421 0.000000
0.930358 0.696864 0.000000
0.969116 0.690761 0.000000
1.000000 0.679774 0.000000
1.000000 0.664088 0.000000
1.000000 0.643915 0.000000
1.000000 0.619989 0.000000
0.122194 0.866667 0.000000
0.131136 0.867002 0.000000
0.142824 0.867430 0.000000
0.165072 0.868467 0.000000
0.194217 0.870085 0.000000
0.227726 0.872190 0.000000
0.263706 0.874846 0.000000
0.301946 0.877958 0.000000
0.342107 0.881590 0.000000
0.384222 0.883574 0.000000
0.427131 0.885496 0.000000
0.470405 0.887572 0.000000
0.514366 0.889677 0.000000
0.558801 0.891814 0.000000
0.603876 0.893889 0.000000
0.648981 0.895384 0.000000
0.679042 0.884764 0.000000
0.708064 0.873136 0.000000
0.735927 0.860441 0.000000
0.762356 0.846555 0.000000
0.787045 0.831479 0.000000
0.809903 0.815183 0.000000
0.830625 0.797635 0.000000
0.846738 0.776638 0.000000
0.844388 0.738277 0.000000
0.866026 0.721401 0.000000
0.912749 0.723598 0.000000
0.954986 0.721157 0.000000
0.990875 0.713130 0.000000
1.000000 0.699702 0.000000
1.000000 0.680842 0.000000
1.000000 0.657862 0.000000
0.124636 0.893309 0.000000
0.132998 0.893614 0.000000
0.144381 0.894041 0.000000
0.165164 0.894957 0.000000
0.193271 0.896361 0.000000
0.225559 0.898253 0.000000
0.260655 0.900542 0.000000
0.297612 0.903288 0.000000
0.336706 0.906401 0.000000
0.377630 0.908782 0.000000
0.419593 0.910338 0.000000
0.462196 0.911955 0.000000
0.505119 0.913634 0.000000
0.548486 0.915221 0.000000
0.592279 0.916777 0.000000
0.636530 0.918181 0.000000
0.675776 0.915343 0.000000
0.705745 0.905516 0.000000
0.734920 0.894743 0.000000
0.762966 0.882933 0.000000
0.789670 0.870024 0.000000
0.814939 0.855955 0.000000
0.838346 0.840665 0.000000
0.859770 0.824094 0.000000
0.876585 0.804044 0.000000
0.874479 0.766201 0.000000
0.893492 0.747311 0.000000
0.939330 0.748867 0.000000
0.978912 0.744442 0.000000
1.000000 0.733791 0.000000
1.000000 0.716640 0.000000
1.000000 0.694759 0.000000
0.125734 0.919188 0.000000
0.134066 0.919432 0.000000
0.144320 0.919799 0.000000
0.164584 0.920562 0.000000
0.191226 0.921752 0.000000
0.222751 0.923339 0.000000
0.256626 0.925261 0.000000
0.292973 0.927520 0.000000
0.331060 0.930083 0.000000
0.370397 0.932555 0.000000
0.411810 0.933684 0.000000
0.453468 0.934844 0.000000
0.495460 0.935943 0.000000
0.537774 0.937011 0.000000
0.580285 0.937957 0.000000
0.623285 0.938720 0.000000
0.666590 0.939269 0.000000
0.700557 0.933288 0.000000
0.730709 0.924376 0.000000
0.760067 0.914641 0.000000
0.788602 0.903960 0.000000
0.815976 0.892271 0.000000
0.842008 0.879545 0.000000
0.866514 0.865721 0.000000
0.889158 0.850675 0.000000
0.907347 0.832120 0.000000
0.905974 0.795071 0.000000
0.922698 0.774441 0.000000
0.965576 0.773556 0.000000
1.000000 0.766140 0.000000
1.000000 0.751339 0.000000
1.000000 0.730861 0.000000
0.124178 0.943572 0.000000
0.132052 0.943786 0.000000
0.142367 0.944060 0.000000
0.161807 0.944701 0.000000
0.188327 0.945617 0.000000
0.218845 0.946868 0.000000
0.252171 0.948394 0.000000
0.287510 0.950134 0.000000
0.324681 0.952087 0.000000
0.362921 0.954223 0.000000
0.403326 0.955108 0.000000
0.444160 0.955779 0.000000
0.485176 0.956329 0.000000
0.526421 0.956817 0.000000
0.567864 0.957153 0.000000
0.609552 0.957275 0.000000
0.651484 0.957153 0.000000
0.692561 0.956176 0.000000
0.723293 0.948974 0.000000
0.753628 0.941070 0.000000
0.783322 0.932464 0.000000
0.812406 0.923033 0.000000
0.840543 0.912779 0.000000
0.867674 0.901610 0.000000
0.893462 0.889494 0.000000
0.917845 0.876341 0.000000
0.937987 0.859739 0.000000
0.937835 0.823941 0.000000
0.952361 0.801663 0.000000
0.990539 0.796811 0.000000
1.000000 0.784939 0.000000
1.000000 0.766140 0.000000
0.118929 0.965911 0.000000
0.127047 0.966064 0.000000
0.136904 0.966278 0.000000
0.156619 0.966735 0.000000
0.182986 0.967407 0.000000
0.213138 0.968322 0.000000
0.246128 0.969421 0.000000
0.280949 0.970672 0.000000
0.317235 0.972045 0.000000
0.354833 0.973480 0.000000
0.393866 0.974334 0.000000
0.433997 0.974426 0.000000
0.474098 0.974456 0.000000
0.514366 0.974365 0.000000
