其他预设/【233】日式怀旧街道调色预设208款/1.3D LUT预设（视频调色-PR-AE-PS-FCPX-达芬奇用）/4.富士胶片风日式城市街拍预设 (自动曝光预设)/JA – Cine Night 3 (Classic Chrome) (Auto).cube
# Created by Adobe Lightroom plugin Export LUT (1.17.0)
# www.johnrellis.com/lightroom/exportlut.htm
# Preset: JA – Cine Night 3 (Classic Chrome) (Auto)
# Color profile: /Library/Application Support/Adobe/Color/Profiles/Recommended/AdobeRGB1998.icc
LUT_3D_SIZE 8
DOMAIN_MIN 0.000000 0.000000 0.000000
DOMAIN_MAX 0.903226 0.903226 0.903226
0.008881 0.025910 0.052979
0.065217 0.037171 0.062318
0.144259 0.046815 0.075410
0.349279 0.000000 0.083406
0.608789 0.000000 0.088350
0.797055 0.000000 0.107851
0.938842 0.000000 0.149722
1.000000 0.000000 0.220401
0.004364 0.072236 0.070771
0.060731 0.075196 0.074922
0.152560 0.078706 0.080659
0.363104 0.000000 0.088197
0.618860 0.000000 0.093477
0.802121 0.000000 0.112398
0.941405 0.000000 0.154147
1.000000 0.142611 0.225803
0.000000 0.128573 0.102388
0.032654 0.132265 0.100710
0.148501 0.155093 0.107515
0.411353 0.161715 0.103212
0.651728 0.122774 0.106416
0.818631 0.143923 0.126375
0.949798 0.218814 0.170443
1.000000 0.309972 0.245945
0.000000 0.247288 0.141726
0.000000 0.255192 0.133211
0.131594 0.271092 0.147433
0.391516 0.338659 0.145449
0.682795 0.402228 0.129397
0.843473 0.420111 0.150332
0.962188 0.442359 0.203250
1.000000 0.477913 0.286748
0.000000 0.428443 0.178225
0.000000 0.436713 0.170657
0.080049 0.457374 0.172396
0.362890 0.494881 0.190463
0.651850 0.594720 0.185336
0.846830 0.640436 0.209445
0.974792 0.644923 0.266300
1.000000 0.643153 0.357610
0.000000 0.636103 0.214939
0.000000 0.642542 0.208255
0.000000 0.661738 0.199008
0.365972 0.679713 0.226871
0.609796 0.731441 0.256046
0.825071 0.804593 0.294377
0.962097 0.805783 0.370031
1.000000 0.788266 0.468025
0.000000 0.831144 0.268101
0.000000 0.834409 0.264866
0.000000 0.844602 0.262272
0.391669 0.851896 0.294408
0.604730 0.860868 0.347997
0.785580 0.897276 0.409766
0.949126 0.921904 0.493751
1.000000 0.892302 0.595148
0.000000 0.974548 0.356909
0.000000 0.974792 0.359899
0.204929 0.973999 0.380377
0.478004 0.970520 0.430396
0.647669 0.967376 0.491371
0.781796 0.966278 0.567315
0.900999 0.969512 0.644892
0.987945 0.964813 0.726192
0.000000 0.040925 0.094179
0.046235 0.048859 0.101228
0.131930 0.050568 0.115999
0.332769 0.000000 0.129488
0.595972 0.000000 0.140932
0.789975 0.000000 0.158938
0.934691 0.000000 0.193057
1.000000 0.070802 0.255009
0.000000 0.072816 0.104189
0.042237 0.076661 0.111910
0.138491 0.079133 0.122255
0.346014 0.000000 0.134432
0.606073 0.000000 0.145052
0.795132 0.000000 0.162722
0.937346 0.000000 0.197086
1.000000 0.167971 0.260014
0.000000 0.131319 0.133059
0.003906 0.136965 0.135439
0.142916 0.155825 0.144747
0.393256 0.156832 0.150820
0.639918 0.114778 0.158053
0.812131 0.140414 0.175540
0.945861 0.224369 0.212039
1.000000 0.322210 0.279179
0.000000 0.250370 0.170474
0.000000 0.258640 0.168307
0.130282 0.276677 0.176364
0.387488 0.337652 0.182834
0.677089 0.397925 0.179080
0.837583 0.417609 0.198672
0.958465 0.445258 0.243107
1.000000 0.486610 0.318303
0.000000 0.430854 0.206119
0.000000 0.438819 0.201114
0.067384 0.461616 0.198703
0.360998 0.494118 0.219730
0.648798 0.593469 0.223209
0.843595 0.639979 0.250065
0.971252 0.647456 0.303197
1.000000 0.649897 0.387335
0.000000 0.636896 0.240909
0.000000 0.643214 0.235935
0.000000 0.664057 0.224063
0.365972 0.681697 0.251530
0.607874 0.730404 0.283757
0.822721 0.804166 0.325597
0.959747 0.807492 0.400244
1.000000 0.792844 0.495064
0.000000 0.831052 0.290379
0.000000 0.834287 0.287816
0.000000 0.844358 0.286015
0.390967 0.852476 0.315343
0.605035 0.861326 0.367987
0.784390 0.896727 0.431830
0.946990 0.921965 0.516289
1.000000 0.894072 0.614099
0.000000 0.974517 0.371557
0.000000 0.974762 0.374182
0.191379 0.974029 0.393225
0.478523 0.970367 0.445777
0.648280 0.967254 0.505699
0.781674 0.965789 0.580438
0.900511 0.969299 0.657343
0.986450 0.964904 0.737301
0.000000 0.061128 0.156985
0.000000 0.063111 0.167453
0.104372 0.067781 0.190707
0.292576 0.000000 0.220188
0.560662 0.000000 0.236851
0.767300 0.000000 0.254398
0.920836 0.000000 0.288151
1.000000 0.161990 0.342596
0.000000 0.080537 0.163272
0.000000 0.084077 0.177340
0.109010 0.089082 0.199344
0.304662 0.000000 0.225010
0.569696 0.000000 0.236881
0.772702 0.000000 0.259312
0.923552 0.000000 0.292515
1.000000 0.220401 0.347692
0.000000 0.130770 0.194369
0.000000 0.137087 0.201785
0.121370 0.157198 0.223972
0.347509 0.147524 0.239017
0.603906 0.083742 0.254490
0.790799 0.119417 0.274968
0.932433 0.234440 0.308721
1.000000 0.354589 0.366857
0.000000 0.255283 0.236271
0.000000 0.263554 0.238254
0.105623 0.289494 0.247623
0.373785 0.334630 0.268620
0.657130 0.381262 0.283543
0.817624 0.407965 0.304234
0.945586 0.453285 0.341680
1.000000 0.512078 0.405615
0.000000 0.432258 0.270176
0.000000 0.440894 0.270634
0.000000 0.468849 0.273930
0.355444 0.495186 0.294865
0.637537 0.588739 0.318242
0.833097 0.638880 0.353735
0.958953 0.655329 0.402136
1.000000 0.671046 0.473213
0.000000 0.636622 0.306767
0.000000 0.643397 0.306249
0.000000 0.664546 0.305333
0.360510 0.687678 0.321996
0.600397 0.725887 0.361883
0.813870 0.802396 0.414801
0.951629 0.813443 0.489570
1.000000 0.807065 0.573388
0.000000 0.830076 0.353033
0.000000 0.833371 0.352361
0.000000 0.843198 0.352972
0.384710 0.854063 0.378149
0.604608 0.862791 0.429297
0.779721 0.894560 0.498695
0.940032 0.922087 0.582910
0.996735 0.899657 0.670832
0.000000 0.974517 0.418585
0.000000 0.974884 0.418982
0.096712 0.974487 0.432837
0.474769 0.970092 0.491737
0.648280 0.966949 0.549676
0.780667 0.964385 0.620081
0.898558 0.968536 0.695430
0.981720 0.965118 0.771420
0.000000 0.072999 0.239872
0.000000 0.075166 0.250919
0.080964 0.076204 0.289586
0.275547 0.000000 0.312902
0.504814 0.000000 0.342779
0.732235 0.000000 0.376287
0.896452 0.000000 0.403601
1.000000 0.233646 0.452155
0.000000 0.092988 0.245396
0.000000 0.094667 0.258976
0.085023 0.098939 0.294560
0.283482 0.065858 0.319402
0.514061 0.000000 0.348150
0.736751 0.000000 0.379065
0.898589 0.000000 0.406012
1.000000 0.273960 0.455970
0.000000 0.136507 0.261723
0.000000 0.141085 0.268498
0.092683 0.163790 0.303838
0.307866 0.171664 0.340124
0.544732 0.133486 0.365484
0.752132 0.115999 0.387823
0.906554 0.239658 0.418769
1.000000 0.390997 0.474128
0.000000 0.239811 0.305577
0.000000 0.248325 0.311925
0.019074 0.278019 0.333806
0.343633 0.326940 0.373419
0.596429 0.345220 0.393286
0.780056 0.390417 0.418769
0.921202 0.460273 0.456519
1.000000 0.544518 0.514733
0.000000 0.432654 0.357244
0.000000 0.441596 0.360082
0.000000 0.468757 0.369421
0.341314 0.508324 0.392493
0.614771 0.578027 0.434730
0.813931 0.636927 0.480964
0.936461 0.664393 0.521416
1.000000 0.697627 0.579339
0.000000 0.634424 0.395544
0.000000 0.640955 0.396582
0.000000 0.661921 0.401343
0.335363 0.691676 0.418128
0.586542 0.717098 0.463142
0.797238 0.798367 0.530999
0.938842 0.821866 0.602045
1.000000 0.824002 0.666224
0.000000 0.827665 0.441077
0.000000 0.830869 0.440894
0.000000 0.840787 0.442481
0.344366 0.853269 0.458808
0.598749 0.864378 0.515801
0.769284 0.889708 0.584985
0.929076 0.922026 0.668635
0.987121 0.907622 0.744198
0.000000 0.974151 0.498360
0.000000 0.974640 0.498024
0.000000 0.975250 0.499489
0.402808 0.972290 0.528588
0.640223 0.966796 0.609308
0.777707 0.964324 0.673640
0.894743 0.967376 0.746731
0.974884 0.965484 0.817868
0.000000 0.088136 0.331487
0.000000 0.090394 0.342016
0.000000 0.092103 0.379553
0.309239 0.000000 0.449409
0.505272 0.000000 0.456703
0.680232 0.000000 0.481117
0.862669 0.000000 0.530571
0.995819 0.313115 0.577111
0.000000 0.106477 0.334813
0.000000 0.107637 0.347448
0.000000 0.112490 0.383215
0.310887 0.074098 0.451453
0.510552 0.000000 0.461891
0.684993 0.000000 0.486152
0.864683 0.128206 0.533898
0.995972 0.344579 0.580652
0.000000 0.147921 0.331060
0.000000 0.152987 0.340124
0.000000 0.172549 0.388891
0.312230 0.190005 0.455451
0.527184 0.183291 0.479347
0.700740 0.207279 0.503441
0.871550 0.290715 0.545922
0.996216 0.437873 0.593622
0.000000 0.232364 0.369665
0.000000 0.238254 0.375433
0.000000 0.259678 0.395819
0.313329 0.317906 0.454749
0.550378 0.363439 0.508507
0.725246 0.392767 0.533074
0.883116 0.460700 0.568322
0.997040 0.559869 0.614740
0.000000 0.391608 0.425025
0.000000 0.400031 0.430671
0.000000 0.429419 0.450721
0.303471 0.479683 0.488319
0.575372 0.556298 0.549004
0.760464 0.599054 0.579248
0.903502 0.651209 0.617334
0.996338 0.706538 0.666163
0.000000 0.619074 0.492134
0.000000 0.627008 0.495766
0.000000 0.653223 0.508232
0.263310 0.685878 0.526970
0.563287 0.721920 0.565759
0.772824 0.789425 0.639063
0.924681 0.827237 0.704402
0.988952 0.834379 0.743801
0.000000 0.823362 0.545739
0.000000 0.826535 0.546319
0.000000 0.836423 0.548943
0.251072 0.849516 0.557702
0.557702 0.863951 0.594446
0.748623 0.879820 0.665278
0.915587 0.921324 0.751064
0.976989 0.916167 0.814908
0.000000 0.973480 0.598260
0.000000 0.974090 0.597742
0.000000 0.975219 0.596979
0.282506 0.974334 0.602045
0.578546 0.969451 0.645869
0.766140 0.964630 0.729366
0.887877 0.965606 0.798489
0.967315 0.965942 0.865660
0.000000 0.107088 0.437232
0.000000 0.109010 0.447425
0.000000 0.109957 0.483925
0.286900 0.067048 0.552239
0.551598 0.000000 0.629206
0.694728 0.000000 0.623743
0.824491 0.200412 0.641413
0.968170 0.390082 0.695155
0.000000 0.123629 0.438697
0.000000 0.124788 0.450111
0.000000 0.128939 0.485756
0.287755 0.110018 0.553307
0.555077 0.000000 0.634241
0.696651 0.081147 0.627466
0.824918 0.240482 0.643977
0.968322 0.414008 0.698054
0.000000 0.168276 0.427436
0.000000 0.171908 0.440070
0.000000 0.185275 0.486885
0.286351 0.202396 0.553765
0.565026 0.237156 0.650416
0.702602 0.259831 0.640070
0.825986 0.347539 0.652979
0.969085 0.487373 0.707851
0.000000 0.239292 0.442603
0.000000 0.242802 0.447120
0.000000 0.256046 0.462928
0.276585 0.312505 0.546136
0.552300 0.390661 0.644831
0.710201 0.430640 0.661067
0.836179 0.487495 0.676448
0.970886 0.589197 0.723903
0.000000 0.374823 0.495766
0.000000 0.379858 0.500267
0.000000 0.397314 0.516350
0.245029 0.428626 0.545830
0.523949 0.517723 0.623835
0.718318 0.602777 0.689906
0.853391 0.637446 0.709957
0.973358 0.705013 0.748257
0.000000 0.572808 0.565118
0.000000 0.578851 0.569512
0.000000 0.599329 0.585107
0.214694 0.633478 0.613428
0.505699 0.683223 0.657496
0.732143 0.765194 0.731197
0.883696 0.799069 0.764797
0.973510 0.831235 0.802365
0.000000 0.800443 0.646754
0.000000 0.804501 0.649165
0.000000 0.818051 0.657282
0.000000 0.838376 0.671046
0.475349 0.857633 0.692195
0.718593 0.879454 0.743587
0.897215 0.917906 0.826749
0.966674 0.925719 0.879423
0.000000 0.972198 0.709621
0.000000 0.972961 0.709255
0.000000 0.974823 0.708064
0.000000 0.975158 0.707851
0.483436 0.971740 0.720333
0.722072 0.966339 0.772091
0.875914 0.961944 0.846952
0.959503 0.966400 0.911437
0.000000 0.135897 0.586938
0.000000 0.137179 0.596460
0.000000 0.136660 0.629603
0.290013 0.116091 0.686610
0.545190 0.104067 0.761837
0.726558 0.197330 0.805386
0.838376 0.281956 0.790524
0.945953 0.462501 0.803403
0.000000 0.150912 0.586481
0.000000 0.152468 0.596216
0.000000 0.155245 0.629084
0.287907 0.147097 0.685908
0.543847 0.157992 0.761227
0.727260 0.243046 0.807736
0.838560 0.314855 0.792416
0.945464 0.481270 0.804959
0.000000 0.199924 0.569909
0.000000 0.201724 0.582025
0.000000 0.208988 0.623651
0.274998 0.225681 0.681239
0.537407 0.269718 0.757717
0.729488 0.363531 0.815366
0.838956 0.410864 0.799100
0.943938 0.540002 0.810208
0.000000 0.261143 0.546654
0.000000 0.261234 0.548913
0.000000 0.277317 0.586267
0.233341 0.318822 0.665126
0.518761 0.389960 0.746365
0.732570 0.516258 0.827481
0.839322 0.538201 0.810422
0.941741 0.622370 0.818570
0.000000 0.391058 0.599145
0.000000 0.391943 0.601404
0.000000 0.394751 0.609094
0.121065 0.397955 0.621729
0.468482 0.487068 0.716030
0.714931 0.632380 0.819516
0.840757 0.668635 0.826505
0.942992 0.718654 0.833951
0.000000 0.567987 0.662318
0.000000 0.569757 0.664485
0.000000 0.575708 0.672084
0.000000 0.584588 0.685237
0.399207 0.600519 0.705531
0.669795 0.708492 0.783078
0.845853 0.795407 0.849607
0.948211 0.821897 0.861234
0.000000 0.765194 0.730709
0.000000 0.767605 0.732784
0.000000 0.775723 0.740108
0.000000 0.789090 0.753445
0.399176 0.809262 0.775692
0.650965 0.844755 0.814206
0.861723 0.901823 0.883726
0.953246 0.919066 0.909972
0.000000 0.956237 0.812955
0.000000 0.957519 0.813748
0.000000 0.961456 0.816312
0.000000 0.966278 0.820310
0.356237 0.969238 0.827054
0.637629 0.967926 0.842039
0.854307 0.961822 0.890471
0.952483 0.966522 0.947509
0.000000 0.204318 0.798276
0.000000 0.205325 0.803922
0.000000 0.207675 0.823392
0.347417 0.213504 0.855741
0.559045 0.259403 0.896117
0.732906 0.379400 0.936065
0.861936 0.471992 0.943206
0.951873 0.546044 0.921935
0.000000 0.219425 0.796658
0.000000 0.221042 0.802335
0.000000 0.225467 0.821927
0.343328 0.235630 0.854459
0.557305 0.284459 0.895109
0.731960 0.403021 0.935302
0.861631 0.494026 0.943511
0.951263 0.561639 0.922576
0.000000 0.272465 0.784695
0.000000 0.272374 0.791623
0.000000 0.276982 0.814969
0.321569 0.298253 0.848722
0.548638 0.355261 0.890837
0.727993 0.473060 0.932250
0.860441 0.561944 0.944671
0.949279 0.611017 0.924743
0.000000 0.339696 0.758145
0.000000 0.340948 0.765072
0.000000 0.347356 0.790097
0.249821 0.374548 0.833860
0.523461 0.441535 0.880308
0.717067 0.559747 0.925780
0.858457 0.654597 0.946807
0.946227 0.681788 0.928588
0.000000 0.462470 0.776608
0.000000 0.459297 0.776486
0.000000 0.446784 0.775723
0.000000 0.432624 0.789181
0.450996 0.510246 0.856229
0.689357 0.633600 0.912993
0.856901 0.752895 0.950195
0.942565 0.763302 0.934386
0.000000 0.627924 0.823758
0.000000 0.626154 0.823941
0.000000 0.619135 0.824247
0.000000 0.603693 0.823850
0.281010 0.579187 0.821561
0.621759 0.682216 0.882902
0.844755 0.823941 0.945769
0.938994 0.845182 0.942687
0.000000 0.799252 0.870970
0.000000 0.798795 0.871336
0.000000 0.796506 0.872404
0.000000 0.791440 0.874083
0.263371 0.783932 0.876066
0.536675 0.781521 0.878264
0.792233 0.854826 0.918730
0.937316 0.916686 0.953582
0.000000 0.945373 0.912840
0.000000 0.945556 0.913237
0.000000 0.945892 0.914672
0.000000 0.945647 0.917296
0.265782 0.944366 0.921294
0.560845 0.944213 0.927642
0.781430 0.948394 0.939818
0.942046 0.962860 0.966888
