其他预设/【233】日式怀旧街道调色预设208款/1.3D LUT预设（视频调色-PR-AE-PS-FCPX-达芬奇用）/4.富士胶片风日式城市街拍预设 (自动曝光预设)/JA – Harsh Shade 1 (Classic Chrome) (Auto).cube
# Created by Adobe Lightroom plugin Export LUT (1.17.0)
# www.johnrellis.com/lightroom/exportlut.htm
# Preset: JA – Harsh Shade 1 (Classic Chrome) (Auto)
# Color profile: /Library/Application Support/Adobe/Color/Profiles/Recommended/AdobeRGB1998.icc
LUT_3D_SIZE 5
DOMAIN_MIN 0.000000 0.000000 0.000000
DOMAIN_MAX 0.903226 0.903226 0.903226
0.035828 0.039033 0.053254
0.158724 0.063996 0.078126
0.519921 0.000000 0.089815
0.855222 0.000000 0.124208
1.000000 0.260655 0.262394
0.058839 0.135988 0.090028
0.179355 0.165957 0.085573
0.581872 0.229160 0.000000
0.867887 0.219028 0.097780
1.000000 0.316625 0.252873
0.000000 0.353094 0.135409
0.187808 0.383551 0.121828
0.655055 0.578424 0.000000
0.889250 0.498756 0.000000
1.000000 0.465858 0.209079
0.000000 0.666773 0.141543
0.127901 0.685756 0.105653
0.512963 0.717861 0.137362
0.903288 0.819364 0.245792
0.999939 0.722652 0.406378
0.088136 0.879423 0.246860
0.310002 0.881468 0.292485
0.562280 0.885588 0.385168
0.799680 0.902678 0.522698
0.974487 0.923156 0.663600
0.035706 0.069429 0.138766
0.139406 0.076020 0.161227
0.475349 0.000000 0.213962
0.841978 0.005829 0.252140
0.984253 0.400183 0.425330
0.049195 0.135592 0.159091
0.162112 0.163638 0.186221
0.541772 0.172610 0.203647
0.855528 0.225040 0.240269
0.988281 0.428504 0.417212
0.000000 0.350042 0.209995
0.142489 0.406989 0.200320
0.641230 0.569879 0.180972
0.883360 0.493385 0.204135
1.000000 0.525017 0.383734
0.000000 0.661982 0.230259
0.024231 0.689631 0.206882
0.514549 0.723232 0.244907
0.891814 0.817777 0.418921
0.989532 0.742275 0.509056
0.000000 0.877379 0.299565
0.291295 0.879698 0.339788
0.576226 0.883238 0.451057
0.803189 0.899077 0.571618
0.970336 0.923217 0.698451
0.000000 0.090120 0.234745
0.138552 0.091554 0.270848
0.415991 0.000000 0.352239
0.762234 0.000000 0.423224
0.943023 0.563409 0.627619
0.038148 0.140200 0.232273
0.129335 0.156435 0.283452
0.458564 0.155825 0.392096
0.784085 0.274205 0.462776
0.941802 0.627283 0.661067
0.000000 0.308873 0.292973
0.102907 0.356939 0.331823
0.570336 0.536980 0.520989
0.829648 0.593011 0.579553
0.956451 0.678737 0.662348
0.000000 0.634791 0.403998
0.000000 0.664332 0.414099
0.541161 0.728908 0.514244
0.861967 0.811521 0.646784
0.967742 0.775540 0.662135
0.000000 0.869108 0.451148
0.152682 0.872801 0.460090
0.573754 0.877043 0.560296
0.799924 0.887358 0.659541
0.960418 0.923461 0.773465
0.000000 0.106477 0.349096
0.099458 0.101534 0.406958
0.416785 0.000000 0.602899
0.732937 0.000000 0.652827
0.907164 0.346563 0.639094
0.000000 0.151064 0.338323
0.000000 0.147127 0.409613
0.402564 0.153658 0.604150
0.743526 0.217777 0.665736
0.909300 0.442664 0.658869
0.000000 0.255680 0.342199
0.000000 0.266758 0.371160
0.355596 0.374243 0.585382
0.768093 0.549187 0.702602
0.917388 0.654444 0.726253
0.000000 0.534905 0.515648
0.000000 0.562005 0.543450
0.377234 0.648493 0.630488
0.818265 0.788479 0.770748
0.939178 0.819791 0.803159
0.000000 0.851225 0.623468
0.000000 0.856352 0.624842
0.422522 0.866239 0.648554
0.780179 0.882780 0.743404
0.948913 0.923674 0.849577
0.000000 0.139712 0.683101
0.000000 0.132509 0.707393
0.362402 0.125246 0.775357
0.711055 0.344732 0.854826
0.910491 0.445930 0.841672
0.000000 0.181521 0.669123
0.000000 0.168765 0.697169
0.334417 0.187137 0.769558
0.713130 0.412268 0.851591
0.909422 0.500999 0.843565
0.000000 0.297246 0.576745
0.000000 0.293004 0.614771
0.106508 0.285313 0.735225
0.704524 0.537987 0.838010
0.907530 0.631128 0.850462
0.000000 0.530907 0.691676
0.000000 0.522789 0.692775
0.000000 0.483803 0.695094
0.592248 0.592340 0.786191
0.909697 0.773007 0.865690
0.000000 0.806088 0.787289
0.000000 0.808103 0.789517
0.000000 0.815579 0.797910
0.610651 0.834257 0.818936
0.930510 0.915282 0.905486
