其他预设/【233】日式怀旧街道调色预设208款/1.3D LUT预设（视频调色-PR-AE-PS-FCPX-达芬奇用）/4.富士胶片风日式城市街拍预设 (自动曝光预设)/JA – Cityscape Pop 2 (Classic Chrome) (Auto).cube
# Created by Adobe Lightroom plugin Export LUT (1.17.0)
# www.johnrellis.com/lightroom/exportlut.htm
# Preset: JA – Cityscape Pop 2 (Classic Chrome) (Auto)
# Color profile: /Library/Application Support/Adobe/Color/Profiles/Recommended/AdobeRGB1998.icc
LUT_3D_SIZE 8
DOMAIN_MIN 0.000000 0.000000 0.000000
DOMAIN_MAX 0.903226 0.903226 0.903226
0.112947 0.115755 0.117494
0.122866 0.116518 0.117159
0.219028 0.129244 0.111971
0.396490 0.170809 0.088594
0.586175 0.230228 0.000000
0.746578 0.282872 0.000000
0.874052 0.319280 0.000000
0.964111 0.335821 0.000000
0.111788 0.125002 0.118135
0.123537 0.125826 0.117159
0.224033 0.159060 0.108522
0.400488 0.210208 0.079316
0.588617 0.265568 0.000000
0.747677 0.312810 0.000000
0.874418 0.344060 0.000000
0.964019 0.356420 0.000000
0.090181 0.214969 0.123781
0.123781 0.213077 0.110842
0.222568 0.221286 0.104952
0.414649 0.298528 0.029358
0.597650 0.350378 0.000000
0.752651 0.385229 0.000000
0.876036 0.411719 0.000000
0.963684 0.420020 0.000000
0.000000 0.382971 0.144564
0.000000 0.382818 0.087526
0.237034 0.371038 0.087434
0.401221 0.391913 0.035828
0.610651 0.462379 0.000000
0.760250 0.492988 0.000000
0.878935 0.503868 0.000000
0.963439 0.505272 0.000000
0.000000 0.558007 0.185580
0.000000 0.557763 0.136355
0.213046 0.545953 0.075410
0.399664 0.540826 0.058412
0.579828 0.560143 0.000000
0.767056 0.605676 0.000000
0.881559 0.609613 0.000000
0.962982 0.602258 0.000000
0.000000 0.709529 0.241398
0.000000 0.709255 0.217685
0.144381 0.702510 0.123812
0.379156 0.685115 0.124727
0.558770 0.690639 0.105623
0.731106 0.704036 0.045777
0.878843 0.719203 0.000000
0.961120 0.699336 0.000000
0.000000 0.832517 0.313237
0.000000 0.831540 0.307530
0.102510 0.829709 0.221195
0.365850 0.817838 0.220676
0.532921 0.804898 0.219669
0.694728 0.810025 0.215518
0.842832 0.813413 0.207095
0.951171 0.803464 0.089174
0.181949 0.917082 0.409033
0.240055 0.915648 0.413581
0.281590 0.914946 0.374273
0.403540 0.909056 0.356756
0.540215 0.899199 0.358465
0.671839 0.892851 0.363134
0.799008 0.890837 0.368353
0.915251 0.887724 0.369268
0.112703 0.115389 0.128176
0.120546 0.115541 0.124849
0.221561 0.104219 0.120363
0.398901 0.145174 0.099977
0.588067 0.207218 0.000580
0.747982 0.265415 0.000000
0.874846 0.313817 0.000000
0.964263 0.342931 0.000000
0.108797 0.126528 0.132204
0.124300 0.127474 0.129488
0.225315 0.141756 0.121309
0.402716 0.185275 0.095521
0.590478 0.240970 0.000000
0.749355 0.291966 0.000000
0.875425 0.334234 0.000000
0.964172 0.362554 0.000000
0.081117 0.218906 0.156893
0.113130 0.222293 0.141329
0.226322 0.225528 0.127352
0.415259 0.290013 0.077943
0.598718 0.336248 0.000000
0.753933 0.371160 0.000000
0.877195 0.398566 0.000000
0.964263 0.416815 0.000000
0.000000 0.387304 0.192721
0.000000 0.388983 0.167880
0.231174 0.377752 0.128389
0.404120 0.395087 0.108095
0.610986 0.458167 0.000000
0.760952 0.486000 0.000000
0.879789 0.495369 0.000000
0.964263 0.497047 0.000000
0.000000 0.561212 0.233616
0.000000 0.561303 0.210910
0.200290 0.552331 0.135927
0.397589 0.543175 0.129793
0.581384 0.562036 0.096162
0.767300 0.604120 0.000000
0.881865 0.606653 0.000000
0.963531 0.597345 0.000000
0.000000 0.711391 0.280583
0.000000 0.710842 0.266026
0.127474 0.706355 0.176150
0.377905 0.688685 0.175448
0.558251 0.691585 0.164981
0.731563 0.704829 0.143862
0.878660 0.718898 0.000000
0.960967 0.698116 0.000000
0.000000 0.833341 0.340764
0.000000 0.832425 0.335882
0.141024 0.830564 0.270390
0.367987 0.819242 0.256901
0.533440 0.804959 0.255161
0.695094 0.810147 0.253330
0.842618 0.813626 0.248386
0.950408 0.803616 0.162783
0.178897 0.917479 0.423926
0.237858 0.916075 0.428260
0.314122 0.913909 0.409888
0.410925 0.909056 0.380865
0.544396 0.899199 0.381079
0.673671 0.892485 0.385504
0.799710 0.890593 0.391241
0.914885 0.887694 0.392767
0.109407 0.109834 0.233097
0.136782 0.106600 0.226139
0.199985 0.107668 0.200626
0.389899 0.000000 0.216007
0.591974 0.000000 0.160616
0.751400 0.155337 0.115816
0.878416 0.235355 0.000000
0.967376 0.287358 0.000000
0.064759 0.118471 0.244541
0.122713 0.123171 0.236393
0.209354 0.132052 0.210727
0.399664 0.075471 0.210910
0.593378 0.113527 0.166201
0.752407 0.205203 0.117006
0.878752 0.265934 0.000000
0.967346 0.308415 0.000000
0.000000 0.231083 0.259190
0.062440 0.229038 0.254185
0.228641 0.232395 0.235294
0.413550 0.250950 0.211063
0.599054 0.285374 0.174746
0.755642 0.321782 0.119326
0.879789 0.352758 0.000000
0.967071 0.373938 0.000000
0.000000 0.400641 0.304875
0.000000 0.402014 0.296300
0.218997 0.401526 0.262058
0.409186 0.402502 0.241520
0.608850 0.444648 0.187808
0.760678 0.461646 0.129213
0.880980 0.469917 0.000000
0.966217 0.469795 0.000000
0.000000 0.571618 0.344182
0.000000 0.571557 0.334264
0.203922 0.568750 0.300114
0.390814 0.549401 0.262119
0.584710 0.566949 0.254887
0.765316 0.599084 0.181704
0.881224 0.599084 0.081697
0.963928 0.583215 0.000000
0.000000 0.718288 0.377447
0.000000 0.717556 0.370489
0.206851 0.713771 0.348028
0.377813 0.700160 0.296849
0.557733 0.694148 0.292485
0.732418 0.707271 0.288762
0.877348 0.718410 0.211704
0.959258 0.695857 0.093751
0.000000 0.836790 0.417273
0.000000 0.835691 0.414740
0.257572 0.831235 0.409155
0.379614 0.823941 0.358099
0.539178 0.807462 0.351659
0.696651 0.810208 0.354131
0.841672 0.814298 0.356451
0.947387 0.804654 0.297459
0.156466 0.919158 0.470924
0.217716 0.917906 0.472786
0.365454 0.912413 0.488777
0.436866 0.909026 0.453559
0.558984 0.899382 0.450629
0.679835 0.891112 0.451698
0.802121 0.889799 0.459541
0.913298 0.887572 0.464210
0.103304 0.084810 0.421912
0.152590 0.075380 0.414923
0.244602 0.066804 0.379187
0.358312 0.085359 0.349767
0.557458 0.000000 0.368170
0.746548 0.000000 0.321691
0.877348 0.065095 0.280674
0.967834 0.188174 0.213962
0.000000 0.106661 0.431464
0.120302 0.105806 0.423804
0.245182 0.106172 0.392859
0.365637 0.133883 0.357214
0.563378 0.111849 0.370214
0.749447 0.000000 0.320043
0.877134 0.161257 0.285252
0.967712 0.223148 0.213809
0.000000 0.225711 0.452216
0.000000 0.208652 0.449195
0.227787 0.224338 0.423804
0.385199 0.253086 0.379339
0.581842 0.249332 0.375311
0.750179 0.260655 0.338415
0.876829 0.303258 0.297795
0.966796 0.319615 0.221073
0.000000 0.409430 0.461891
0.000000 0.408026 0.458015
0.161013 0.405798 0.443183
0.410132 0.409186 0.410651
0.596674 0.421241 0.386328
0.752987 0.436347 0.356970
0.876555 0.446143 0.314580
0.964324 0.442084 0.244663
0.000000 0.590295 0.488319
0.000000 0.590051 0.482490
0.147768 0.587060 0.463813
0.408209 0.574365 0.436439
0.586999 0.572992 0.421454
0.757076 0.594568 0.382696
0.875395 0.590448 0.340917
0.960113 0.571557 0.281346
0.000000 0.730617 0.504356
0.000000 0.729793 0.499825
0.178897 0.725795 0.486000
0.414557 0.715175 0.469917
0.560113 0.696529 0.438117
0.732692 0.710597 0.443366
0.871519 0.719509 0.397162
0.953460 0.697597 0.339086
0.000000 0.843137 0.522393
0.000000 0.842039 0.520165
0.245396 0.837552 0.515251
0.442267 0.827878 0.514183
0.556634 0.814725 0.478126
0.700069 0.809842 0.477424
0.839872 0.815244 0.485664
0.941772 0.807034 0.438209
0.140261 0.921508 0.549859
0.207095 0.920287 0.550530
0.343267 0.915862 0.554406
0.506554 0.906218 0.575525
0.586114 0.899687 0.549096
0.689662 0.888640 0.541802
0.806210 0.888365 0.552392
0.910674 0.887480 0.559777
0.103975 0.000000 0.606470
0.163699 0.000000 0.601129
0.279301 0.000000 0.582208
0.384039 0.063783 0.521843
0.529198 0.104921 0.505943
0.702327 0.190097 0.515618
0.857511 0.176944 0.489937
0.957305 0.225925 0.448493
0.000000 0.079194 0.611933
0.127230 0.070649 0.607050
0.270390 0.032166 0.588128
0.389105 0.124239 0.531151
0.533440 0.161288 0.510613
0.705318 0.228305 0.518700
0.858366 0.219913 0.492164
0.956359 0.264134 0.453712
0.000000 0.153597 0.634455
0.000000 0.170474 0.628229
0.241184 0.222477 0.605921
0.404639 0.248600 0.560449
0.546593 0.285557 0.525505
0.714809 0.328008 0.529534
0.861112 0.324498 0.500175
0.951446 0.379950 0.481178
0.000000 0.385229 0.640955
0.000000 0.380438 0.638819
0.000000 0.366827 0.630854
0.419013 0.409369 0.597131
0.564904 0.433722 0.548119
0.729854 0.449042 0.544182
0.861570 0.460334 0.520226
0.952972 0.455329 0.468269
0.000000 0.573388 0.642115
0.000000 0.573266 0.639734
0.006165 0.574029 0.630365
0.385931 0.576989 0.610925
0.586755 0.577905 0.576013
0.741970 0.585382 0.555413
0.862974 0.587304 0.526940
0.950011 0.574121 0.479866
0.000000 0.747280 0.655940
0.000000 0.746517 0.652369
0.079072 0.742763 0.639368
0.394934 0.733211 0.618647
0.586847 0.715480 0.596704
0.732113 0.714199 0.586999
0.860502 0.722011 0.556970
0.943297 0.702632 0.513146
0.000000 0.852018 0.646021
0.000000 0.850950 0.644160
0.218814 0.846555 0.638117
0.429603 0.837705 0.629816
0.598993 0.823331 0.625086
0.703944 0.808377 0.597833
0.837461 0.816495 0.610895
0.933715 0.811246 0.572747
0.106752 0.924895 0.646967
0.188876 0.923674 0.646998
0.334844 0.919402 0.647639
0.484993 0.911528 0.650752
0.634028 0.899199 0.666224
0.709071 0.890318 0.642298
0.810208 0.886595 0.645380
0.907683 0.887480 0.655879
0.112032 0.000000 0.751797
0.170504 0.000000 0.748959
0.287999 0.000000 0.738338
0.416663 0.000000 0.711971
0.523278 0.162051 0.649226
0.685512 0.197055 0.649256
0.823758 0.331487 0.648157
0.929137 0.392096 0.633509
0.033783 0.013306 0.754940
0.144076 0.000000 0.752102
0.280064 0.000000 0.741482
0.416297 0.040925 0.716915
0.528344 0.200290 0.654597
0.687526 0.237003 0.651850
0.824033 0.357763 0.650965
0.928954 0.409918 0.635920
0.000000 0.167391 0.766934
0.000000 0.185977 0.763546
0.263462 0.229526 0.751308
0.419226 0.243076 0.730068
0.545464 0.303807 0.673152
0.693935 0.341741 0.660456
0.824735 0.435767 0.660761
0.928405 0.465583 0.643977
0.000000 0.316503 0.780423
0.000000 0.312474 0.779538
0.000000 0.325383 0.772580
0.438361 0.419623 0.745724
0.574212 0.440375 0.702358
0.703243 0.470192 0.673884
0.829496 0.527855 0.674464
0.928374 0.541039 0.654932
0.000000 0.524987 0.778256
0.000000 0.525414 0.777218
0.000000 0.528954 0.773251
0.382177 0.540948 0.764614
0.602930 0.587488 0.734707
0.714656 0.598535 0.691157
0.838163 0.620111 0.687556
0.927550 0.629725 0.670100
0.000000 0.696132 0.774899
0.000000 0.697200 0.773709
0.120577 0.701595 0.769253
0.397314 0.709346 0.760342
0.582116 0.718044 0.744747
0.730739 0.717739 0.713863
0.844938 0.722560 0.698146
0.927428 0.716579 0.671931
0.000000 0.862150 0.789731
0.000000 0.861082 0.787228
0.176181 0.857053 0.778561
0.414740 0.849271 0.763333
0.590417 0.837156 0.744747
0.731777 0.819638 0.730007
0.834958 0.818296 0.724819
0.921324 0.818692 0.702205
0.000000 0.929198 0.756130
0.152346 0.928069 0.755367
0.319799 0.923919 0.752773
0.477699 0.916350 0.749783
0.621790 0.905791 0.748562
0.746090 0.892668 0.753994
0.814603 0.884062 0.734859
0.904387 0.887877 0.747860
0.131655 0.000000 0.854673
0.180423 0.000000 0.853361
0.288701 0.000000 0.848478
0.413916 0.000000 0.838651
0.548089 0.153964 0.812680
0.666590 0.279179 0.773617
0.812924 0.330999 0.771481
0.904845 0.487709 0.757687
0.113008 0.033692 0.855985
0.169650 0.034302 0.854643
0.285740 0.047120 0.849729
0.414679 0.081361 0.839872
0.550530 0.199527 0.814847
0.668116 0.307195 0.774655
0.813321 0.355779 0.772427
0.904326 0.503380 0.759548
0.000000 0.193912 0.860929
0.124849 0.217929 0.859129
0.292699 0.251286 0.853483
0.425635 0.267582 0.843534
0.560723 0.312871 0.821897
0.673426 0.388891 0.778012
0.814359 0.429419 0.775967
0.902647 0.552514 0.765866
0.000000 0.262516 0.870878
0.000000 0.282628 0.869139
0.229618 0.352972 0.862333
0.464240 0.439612 0.848936
0.583154 0.453407 0.832578
0.689815 0.494911 0.789822
0.815824 0.529808 0.781704
0.900481 0.621546 0.776120
0.000000 0.459388 0.870695
0.000000 0.462135 0.870268
0.110994 0.475746 0.868437
0.396948 0.507927 0.863828
0.623896 0.604089 0.841794
0.716457 0.611170 0.810117
0.818265 0.633631 0.789609
0.900389 0.692226 0.788205
0.000000 0.631830 0.866239
0.000000 0.634302 0.865721
0.196048 0.644068 0.863706
0.421180 0.662806 0.859831
0.598779 0.690852 0.853513
0.749996 0.733883 0.832822
0.822934 0.734829 0.800656
0.904448 0.756619 0.798886
0.000000 0.778744 0.861021
0.000000 0.780331 0.860472
0.267277 0.786099 0.858488
0.450294 0.796109 0.854795
0.610071 0.809323 0.848692
0.740444 0.821195 0.838834
0.832883 0.820676 0.816617
0.908690 0.823697 0.805875
0.000000 0.921294 0.871458
0.134707 0.922362 0.871519
0.306340 0.925963 0.871702
0.471260 0.921294 0.862852
0.620996 0.911589 0.849577
0.743954 0.900847 0.837461
0.833890 0.889372 0.828153
0.901762 0.889006 0.825315
0.168978 0.000000 0.921111
0.204166 0.000000 0.920562
0.294804 0.009735 0.918456
0.408087 0.097017 0.914275
0.534234 0.186893 0.906035
0.670863 0.348333 0.886076
0.785428 0.441779 0.867124
0.898528 0.497871 0.860655
0.173373 0.116030 0.921386
0.208560 0.120363 0.920806
0.299382 0.136355 0.918669
0.412818 0.168032 0.914397
0.537041 0.226078 0.906554
0.673548 0.369696 0.886656
0.786282 0.458320 0.867185
0.898131 0.511894 0.860899
0.176028 0.244358 0.922484
0.244388 0.273625 0.921294
0.329808 0.287816 0.918944
0.437171 0.308904 0.914549
0.552270 0.337926 0.907408
0.682979 0.435309 0.888670
0.789303 0.510887 0.867399
0.896880 0.556146 0.861692
0.000000 0.264469 0.927428
0.000000 0.291142 0.926299
0.316991 0.382483 0.921508
0.493141 0.465919 0.914214
0.590661 0.483803 0.907256
0.699672 0.528527 0.892302
0.794003 0.584039 0.867979
0.895109 0.619409 0.863310
0.000000 0.376867 0.930541
0.000000 0.382513 0.930236
0.042481 0.410010 0.928344
0.422614 0.500603 0.920958
0.644343 0.622644 0.907744
0.722103 0.630121 0.898009
0.802792 0.663478 0.871580
0.893278 0.692470 0.865934
0.000000 0.558251 0.926207
0.000000 0.562341 0.925841
0.194980 0.578058 0.924407
0.417945 0.609522 0.921477
0.600702 0.661158 0.916686
0.765316 0.747982 0.901396
0.822507 0.749386 0.882811
0.892332 0.766232 0.870054
0.000000 0.706508 0.921172
0.000000 0.709285 0.920775
0.283116 0.719356 0.919402
0.460914 0.739437 0.916686
0.621668 0.769253 0.912627
0.753323 0.803159 0.907836
0.848631 0.835721 0.896727
0.893858 0.832731 0.876616
0.193515 0.833127 0.915984
0.243137 0.834684 0.915648
0.363500 0.840299 0.914427
0.506584 0.850553 0.912139
0.644251 0.864164 0.908965
0.759457 0.878477 0.905241
0.843351 0.889830 0.900725
0.900175 0.890929 0.887785
