其他预设/【233】日式怀旧街道调色预设208款/1.3D LUT预设（视频调色-PR-AE-PS-FCPX-达芬奇用）/4.富士胶片风日式城市街拍预设 (自动曝光预设)/JA – Static Pop 2 (Classic Chrome) (Auto).cube
# Created by Adobe Lightroom plugin Export LUT (1.17.0)
# www.johnrellis.com/lightroom/exportlut.htm
# Preset: JA – Static Pop 2 (Classic Chrome) (Auto)
# Color profile: /Library/Application Support/Adobe/Color/Profiles/Recommended/AdobeRGB1998.icc
LUT_3D_SIZE 5
DOMAIN_MIN 0.000000 0.000000 0.000000
DOMAIN_MAX 0.903226 0.903226 0.903226
0.076265 0.078828 0.081788
0.344244 0.079225 0.051270
0.737789 0.107851 0.000000
0.951873 0.120241 0.000000
1.000000 0.121828 0.000000
0.000000 0.263401 0.083803
0.295506 0.268742 0.000000
0.728481 0.322362 0.000000
0.948577 0.285649 0.000000
1.000000 0.252750 0.000000
0.000000 0.623102 0.098421
0.269627 0.622736 0.000000
0.650263 0.576776 0.000000
0.937377 0.543297 0.000000
1.000000 0.467140 0.000000
0.000000 0.856016 0.147646
0.022187 0.852262 0.087251
0.592340 0.838804 0.000000
0.877989 0.772305 0.000000
1.000000 0.690791 0.000000
0.000000 1.000000 0.152773
0.000000 1.000000 0.282628
0.507256 0.996948 0.255100
0.802029 0.974395 0.062013
1.000000 0.921080 0.000000
0.000000 0.102693 0.258427
0.268864 0.000000 0.274601
0.706020 0.000000 0.200259
0.941161 0.000000 0.152926
1.000000 0.000000 0.000000
0.000000 0.259007 0.275944
0.244022 0.251408 0.260105
0.695949 0.232029 0.201663
0.937896 0.231052 0.155978
1.000000 0.207523 0.000000
0.000000 0.617762 0.344518
0.167758 0.610895 0.289250
0.631922 0.570825 0.211276
0.925933 0.534112 0.181491
1.000000 0.459022 0.000000
0.000000 0.854124 0.337438
0.000000 0.847562 0.335943
0.589837 0.835996 0.338140
0.868681 0.771908 0.185031
1.000000 0.695094 0.117281
0.000000 1.000000 0.287083
0.000000 1.000000 0.341955
0.538811 0.992523 0.426398
0.804074 0.973266 0.350225
1.000000 0.922362 0.000000
0.000000 0.186069 0.631098
0.134646 0.146517 0.627466
0.621576 0.000000 0.609735
0.904356 0.104005 0.546349
1.000000 0.324041 0.520531
0.000000 0.382971 0.626246
0.273808 0.384588 0.620935
0.607324 0.243046 0.600885
0.895109 0.308110 0.549554
1.000000 0.366705 0.511589
0.000000 0.612818 0.639857
0.000000 0.605737 0.628779
0.557977 0.560754 0.570977
0.878935 0.549493 0.547417
1.000000 0.529503 0.515007
0.000000 0.851560 0.605158
0.000000 0.846464 0.595605
0.571771 0.816464 0.614832
0.832975 0.773129 0.545892
1.000000 0.738582 0.545068
0.000000 1.000000 0.536065
0.000000 1.000000 0.519036
0.556023 0.986694 0.630701
0.816312 0.970703 0.641627
1.000000 0.928099 0.500938
0.000000 0.370459 0.847684
0.164920 0.372534 0.846525
0.469245 0.185794 0.835508
0.849210 0.089723 0.815457
1.000000 0.425818 0.757504
0.258976 0.497383 0.844480
0.363958 0.515740 0.843076
0.516808 0.408362 0.832425
0.841489 0.329473 0.811460
1.000000 0.495369 0.764004
0.075319 0.632288 0.846647
0.408423 0.662501 0.843565
0.670405 0.703365 0.829892
0.818967 0.585687 0.799649
1.000000 0.634943 0.773800
0.000000 0.823362 0.848722
0.000000 0.824063 0.845945
0.573114 0.821195 0.833005
0.777523 0.769680 0.773098
1.000000 0.771572 0.766232
0.000000 1.000000 0.782895
0.000000 1.000000 0.775937
0.208377 1.000000 0.768734
0.805173 0.966247 0.818173
0.987213 0.935973 0.748836
0.487892 0.596368 0.970550
0.487831 0.596307 0.970520
0.482948 0.477211 0.975586
0.663996 0.067170 0.976776
0.999756 0.334112 0.961761
0.491310 0.600793 0.970947
0.500450 0.611902 0.970245
0.576196 0.595758 0.971283
0.688289 0.363348 0.973693
0.995850 0.433021 0.960388
0.608606 0.727718 0.964111
0.607935 0.727016 0.964233
0.717647 0.771328 0.964202
0.767605 0.675257 0.965850
0.985107 0.621942 0.957031
0.516075 0.798611 0.967773
0.515679 0.798917 0.967864
0.612634 0.816495 0.966522
0.878050 0.889677 0.963714
0.970672 0.800626 0.952758
0.000000 0.931518 0.972473
0.000000 0.934478 0.972442
0.000000 0.945953 0.972320
0.780453 0.957336 0.966461
0.945068 0.938170 0.937346
