其他预设/【233】日式怀旧街道调色预设208款/1.3D LUT预设（视频调色-PR-AE-PS-FCPX-达芬奇用）/4.富士胶片风日式城市街拍预设 (自动曝光预设)/JA – Controlled Contrast 4 (Classic Chrome) (Auto).cube
# Created by Adobe Lightroom plugin Export LUT (1.17.0)
# www.johnrellis.com/lightroom/exportlut.htm
# Preset: JA – Controlled Contrast 4 (Classic Chrome) (Auto)
# Color profile: /Library/Application Support/Adobe/Color/Profiles/Recommended/AdobeRGB1998.icc
LUT_3D_SIZE 5
DOMAIN_MIN 0.000000 0.000000 0.000000
DOMAIN_MAX 0.903226 0.903226 0.903226
0.000000 0.000000 0.000000
0.236545 0.000000 0.000000
0.646937 0.000000 0.000000
0.847410 0.000000 0.000000
1.000000 0.000000 0.000000
0.041810 0.207645 0.000000
0.216098 0.188907 0.000000
0.652064 0.211307 0.000000
0.850706 0.000000 0.000000
1.000000 0.000000 0.000000
0.086091 0.608362 0.000000
0.354803 0.628077 0.000000
0.593561 0.538384 0.000000
0.861234 0.465492 0.000000
1.000000 0.337774 0.000000
0.114717 0.812863 0.000000
0.310704 0.826291 0.000000
0.621515 0.839292 0.000000
0.790127 0.724178 0.000000
1.000000 0.644404 0.000000
0.108217 0.985687 0.000000
0.272923 0.988678 0.000000
0.540612 0.988525 0.000000
0.792050 0.966857 0.000000
0.993408 0.909575 0.000000
0.036347 0.095430 0.190494
0.208316 0.006806 0.190433
0.613886 0.000000 0.248753
0.837705 0.000000 0.170016
1.000000 0.000000 0.076783
0.091646 0.178439 0.163516
0.227024 0.214603 0.206119
0.641108 0.000000 0.160372
0.844297 0.000000 0.131746
1.000000 0.000000 0.010224
0.000000 0.570855 0.198184
0.259098 0.605646 0.174868
0.599756 0.548119 0.000000
0.855802 0.444465 0.000000
1.000000 0.305516 0.000000
0.000000 0.796445 0.101045
0.311467 0.807736 0.193881
0.606714 0.837156 0.030304
0.791592 0.727718 0.000000
1.000000 0.636652 0.000000
0.256443 0.975708 0.208835
0.312413 0.981384 0.091157
0.517723 0.988495 0.000000
0.783352 0.969421 0.000000
0.993805 0.910002 0.000000
0.000000 0.216770 0.571466
0.208835 0.135714 0.569696
0.546441 0.000000 0.541680
0.738247 0.000000 0.468696
0.988525 0.000000 0.441535
0.180880 0.398962 0.566888
0.298405 0.364691 0.572137
0.554345 0.213901 0.550225
0.756405 0.136629 0.487068
0.990845 0.000000 0.464240
0.168643 0.526146 0.500603
0.341527 0.538018 0.520104
0.578668 0.576806 0.577050
0.800351 0.532769 0.557733
0.994202 0.473640 0.533989
0.299779 0.716243 0.506249
0.399908 0.730159 0.531762
0.604028 0.786282 0.591394
0.772122 0.739681 0.511162
0.999298 0.700282 0.524865
0.373419 0.942992 0.535943
0.437049 0.948302 0.546502
0.607843 0.964050 0.577874
0.806058 0.967102 0.555138
0.982055 0.912932 0.304509
0.309789 0.441596 0.765133
0.337774 0.405371 0.764126
0.495338 0.299351 0.756191
0.714046 0.150454 0.724666
0.882200 0.224430 0.683955
0.430274 0.548425 0.763119
0.446326 0.524315 0.763241
0.529137 0.434852 0.756008
0.715114 0.326116 0.725704
0.880095 0.318456 0.686244
0.467903 0.646937 0.746914
0.522850 0.657343 0.753780
0.613245 0.647639 0.764492
0.723384 0.556237 0.734463
0.917052 0.481025 0.710750
0.438087 0.709621 0.693416
0.489082 0.712734 0.699580
0.605402 0.726436 0.721279
0.759060 0.765591 0.771572
0.965545 0.732204 0.759457
0.510094 0.866545 0.726589
0.535210 0.875242 0.733120
0.614466 0.906523 0.751003
0.789120 0.950408 0.790982
0.952911 0.918547 0.691035
0.562707 0.659083 0.935088
0.560235 0.637263 0.936034
0.613275 0.594476 0.936187
0.724361 0.478798 0.935882
0.906584 0.386908 0.920775
0.611475 0.709773 0.933410
0.604395 0.688075 0.934478
0.632654 0.637903 0.935424
0.731533 0.535454 0.934905
0.906432 0.440558 0.920409
0.639155 0.781033 0.931182
0.655451 0.777920 0.932036
0.696773 0.755337 0.934142
0.748440 0.666072 0.933928
0.907073 0.562524 0.920378
0.622309 0.840146 0.917540
0.645747 0.841978 0.919463
0.719997 0.848692 0.926543
0.808560 0.840238 0.934874
0.909361 0.722408 0.921416
0.587396 0.911528 0.892119
0.606531 0.911742 0.893431
0.670497 0.912627 0.898283
0.781125 0.915038 0.908507
0.927550 0.932219 0.936095
