其他预设/【233】日式怀旧街道调色预设208款/1.3D LUT预设（视频调色-PR-AE-PS-FCPX-达芬奇用）/4.富士胶片风日式城市街拍预设 (自动曝光预设)/JA – Subdued 1 Classic Chrome (Auto).cube
# Created by Adobe Lightroom plugin Export LUT (1.17.0)
# www.johnrellis.com/lightroom/exportlut.htm
# Preset: JA – Subdued 1 Classic Chrome (Auto)
# Color profile: /Library/Application Support/Adobe/Color/Profiles/Recommended/AdobeRGB1998.icc
LUT_3D_SIZE 8
DOMAIN_MIN 0.000000 0.000000 0.000000
DOMAIN_MAX 0.903226 0.903226 0.903226
0.107851 0.103517 0.100435
0.138155 0.104402 0.101015
0.262455 0.103395 0.094911
0.448402 0.101900 0.069673
0.620111 0.106691 0.000000
0.770657 0.114748 0.000000
0.899474 0.122042 0.000000
1.000000 0.122530 0.000000
0.115969 0.127993 0.104250
0.139162 0.130068 0.102541
0.272435 0.150973 0.091249
0.455116 0.165835 0.061585
0.624964 0.173892 0.000000
0.773861 0.178378 0.000000
0.901335 0.179904 0.000000
1.000000 0.176028 0.000000
0.138552 0.214115 0.106447
0.165866 0.209171 0.106264
0.254520 0.232700 0.093935
0.462959 0.292821 0.000000
0.641871 0.308812 0.000000
0.784970 0.307805 0.000000
0.907805 0.301701 0.000000
1.000000 0.289586 0.000000
0.181186 0.348791 0.101564
0.209842 0.342779 0.101350
0.281041 0.334691 0.096498
0.411261 0.377508 0.040772
0.615503 0.435462 0.000000
0.801846 0.456550 0.000000
0.918395 0.440864 0.000000
1.000000 0.418280 0.000000
0.232517 0.470863 0.114839
0.254917 0.465278 0.113161
0.313268 0.445502 0.108431
0.405402 0.458106 0.087831
0.547173 0.506828 0.000000
0.742916 0.562402 0.000000
0.908721 0.576501 0.000000
1.000000 0.552361 0.000000
0.287602 0.582513 0.148867
0.304143 0.577783 0.146517
0.352056 0.560876 0.138125
0.412177 0.532128 0.123079
0.528954 0.578027 0.095033
0.679011 0.633112 0.000000
0.853208 0.674800 0.000000
0.992065 0.674556 0.000000
0.350561 0.706050 0.194278
0.363561 0.702449 0.191440
0.404028 0.689509 0.181247
0.460914 0.665675 0.162173
0.541466 0.666041 0.141207
0.668360 0.714595 0.117525
0.814420 0.761685 0.028260
0.954101 0.777066 0.000000
0.430915 0.842557 0.270451
0.441474 0.840574 0.267918
0.476509 0.833646 0.258732
0.531731 0.821195 0.241672
0.599084 0.803159 0.216464
0.701717 0.829343 0.210849
0.822873 0.863035 0.201938
0.949218 0.887602 0.170382
0.106447 0.109621 0.136690
0.140383 0.107027 0.133669
0.258610 0.089662 0.136141
0.441932 0.028382 0.123690
0.614405 0.020233 0.103456
0.766751 0.066255 0.071168
0.897246 0.090974 0.000000
1.000000 0.100221 0.000000
0.112306 0.139071 0.134890
0.143709 0.137942 0.134218
0.269291 0.139742 0.132113
0.448676 0.140841 0.119936
0.619257 0.146883 0.098970
0.769986 0.155703 0.066072
0.899107 0.163851 0.000000
1.000000 0.164279 0.000000
0.123690 0.233005 0.135897
0.169100 0.232425 0.140810
0.264591 0.244144 0.132235
0.467231 0.287327 0.103182
0.636408 0.297154 0.079866
0.781155 0.298863 0.032471
0.905455 0.296269 0.000000
1.000000 0.286534 0.000000
0.172976 0.367224 0.144747
0.210452 0.361700 0.147066
0.285496 0.344457 0.140352
0.417243 0.384924 0.118746
0.618921 0.436133 0.053956
0.799588 0.453681 0.000000
0.915831 0.440284 0.000000
1.000000 0.419745 0.000000
0.235386 0.484779 0.166964
0.258579 0.479072 0.164462
0.319127 0.459144 0.155947
0.408606 0.463813 0.142550
0.550561 0.511620 0.113527
0.744991 0.564721 0.000000
0.909453 0.578943 0.000000
1.000000 0.555718 0.000000
0.292729 0.592676 0.195102
0.309239 0.587915 0.192447
0.357092 0.570977 0.182345
0.416907 0.540429 0.164889
0.530663 0.581353 0.151736
0.680629 0.636133 0.119814
0.854520 0.677363 0.000000
0.991485 0.677302 0.000000
0.354406 0.712703 0.231846
0.367254 0.709133 0.228916
0.407446 0.696162 0.218082
0.464057 0.672297 0.198520
0.541619 0.667170 0.178988
0.668391 0.715755 0.168307
0.814389 0.762875 0.142061
0.954131 0.778744 0.102113
0.432898 0.845670 0.297856
0.443214 0.843748 0.295201
0.477760 0.836790 0.285557
0.532433 0.824216 0.268009
0.599481 0.805997 0.241917
0.700710 0.829221 0.237491
0.822141 0.863188 0.234226
0.948363 0.887907 0.214420
0.000000 0.125124 0.304509
0.132296 0.111055 0.297398
0.278050 0.088472 0.276921
0.437263 0.000000 0.276799
0.596918 0.068360 0.276524
0.748135 0.138491 0.282658
0.884703 0.168978 0.279759
0.993225 0.191043 0.270176
0.039185 0.192996 0.299413
0.118013 0.162295 0.292302
0.279057 0.145418 0.276005
0.439643 0.137697 0.275914
0.597559 0.167269 0.280156
0.753170 0.190005 0.282414
0.886595 0.214664 0.281132
0.993835 0.229435 0.272068
0.088228 0.290288 0.284245
0.155642 0.287449 0.281682
0.292699 0.285039 0.280186
0.455634 0.288823 0.278843
0.617243 0.301091 0.282689
0.764767 0.314458 0.285801
0.893095 0.325475 0.286595
0.995758 0.328161 0.279149
0.152834 0.406714 0.276432
0.201541 0.406012 0.275853
0.314611 0.398505 0.281987
0.434211 0.410864 0.273655
0.630579 0.451240 0.280430
0.784146 0.460243 0.291264
0.903929 0.458869 0.296422
0.998535 0.449348 0.292180
0.217105 0.521477 0.273716
0.251072 0.520012 0.275914
0.345159 0.504997 0.291142
0.421759 0.482643 0.271916
0.561059 0.529290 0.274479
0.751095 0.578912 0.280919
0.910338 0.596094 0.306615
1.000000 0.576898 0.312200
0.289677 0.626429 0.293400
0.326635 0.623133 0.310430
0.379126 0.606500 0.303838
0.438697 0.575189 0.280766
0.537621 0.592859 0.274083
0.685725 0.646967 0.276188
0.858549 0.688472 0.278294
0.988128 0.690974 0.308537
0.368353 0.736110 0.335424
0.381659 0.732570 0.333288
0.420935 0.719722 0.321996
0.476295 0.695735 0.299351
0.542138 0.670893 0.271672
0.668696 0.719936 0.278935
0.814206 0.767391 0.282261
0.953857 0.785183 0.288914
0.442878 0.856992 0.383520
0.451209 0.855100 0.378698
0.483680 0.848051 0.367742
0.536004 0.835233 0.347906
0.601312 0.816403 0.318517
0.696742 0.828702 0.310796
0.819272 0.863676 0.320623
0.945373 0.888975 0.321080
0.000000 0.157168 0.518791
0.000000 0.137789 0.513024
0.284428 0.119753 0.493416
0.452003 0.099001 0.466560
0.594568 0.114199 0.446296
0.736660 0.189090 0.447333
0.862730 0.276677 0.461646
0.969635 0.351110 0.483253
0.000000 0.247318 0.510246
0.000000 0.209995 0.506737
0.284154 0.190524 0.490150
0.452094 0.176638 0.464851
0.594537 0.187686 0.446693
0.736507 0.241703 0.450660
0.862058 0.313848 0.467201
0.971527 0.363745 0.481025
0.000000 0.374975 0.507744
0.146090 0.371283 0.503868
0.297246 0.335302 0.485725
0.455329 0.317815 0.461769
0.597620 0.329229 0.453254
0.736568 0.364508 0.463874
0.865873 0.399329 0.477852
0.976593 0.415137 0.478920
0.138918 0.479774 0.478370
0.204227 0.477272 0.475898
0.333349 0.470558 0.469429
0.468330 0.465736 0.465095
0.614710 0.472694 0.467567
0.755428 0.486946 0.476814
0.880613 0.501366 0.486244
0.980224 0.509361 0.489815
0.241855 0.573114 0.453620
0.276799 0.571374 0.452857
0.366583 0.565850 0.450690
0.470985 0.551568 0.450904
0.581262 0.564538 0.446601
0.763455 0.610803 0.476692
0.897002 0.624262 0.500633
0.983734 0.617700 0.506035
0.303563 0.670100 0.441016
0.327459 0.668360 0.441566
0.394965 0.662074 0.442664
0.482612 0.640192 0.444038
0.551965 0.614649 0.415259
0.695399 0.667903 0.435035
0.863310 0.711055 0.468025
0.980255 0.721004 0.510918
0.363500 0.770626 0.446540
0.379889 0.768765 0.446815
0.434363 0.761288 0.450874
0.502708 0.738216 0.442756
0.558587 0.701137 0.401160
0.669215 0.727596 0.404883
0.814206 0.776181 0.427192
0.952789 0.798093 0.457771
0.441535 0.878660 0.482094
0.457923 0.876677 0.486610
0.509819 0.868589 0.500572
0.546502 0.855802 0.467018
0.606500 0.836149 0.431708
0.687953 0.827146 0.403632
0.813748 0.864439 0.427527
0.940032 0.890959 0.446052
0.000000 0.222354 0.706966
0.000000 0.206516 0.703456
0.244022 0.208042 0.690303
0.453559 0.205325 0.667170
0.607721 0.203494 0.639673
0.735409 0.231266 0.611597
0.856107 0.299748 0.603265
0.959289 0.394476 0.615839
0.000000 0.308110 0.701411
0.000000 0.281559 0.698970
0.258457 0.267155 0.687312
0.456275 0.259556 0.665278
0.607507 0.253208 0.638056
0.734646 0.273320 0.611444
0.855589 0.333196 0.605768
0.958312 0.418982 0.619928
0.108492 0.445411 0.699306
0.200931 0.440955 0.693904
0.304784 0.400946 0.680995
0.465858 0.383185 0.660639
0.607843 0.369818 0.633600
0.732235 0.379278 0.611627
0.854093 0.426276 0.615167
0.954864 0.492988 0.634180
0.179965 0.556786 0.687282
0.241703 0.555993 0.684993
0.371923 0.553033 0.677790
0.486671 0.521599 0.656886
0.611078 0.499458 0.629206
0.733150 0.507561 0.618585
0.852354 0.543969 0.632624
0.951202 0.586358 0.653803
0.256809 0.649165 0.653468
0.295415 0.647486 0.651759
0.394049 0.641749 0.646021
0.508598 0.633143 0.637568
0.620020 0.624537 0.629053
0.748898 0.634638 0.635859
0.868223 0.650385 0.648493
0.961212 0.662715 0.658381
0.345281 0.725460 0.623560
0.369787 0.724178 0.623651
0.437659 0.718776 0.620233
0.523796 0.709560 0.613611
0.605921 0.687861 0.598413
0.712215 0.701137 0.596704
0.872618 0.748379 0.647120
0.965270 0.759426 0.677943
0.408484 0.809873 0.608789
0.424445 0.808377 0.608637
0.473030 0.802823 0.606928
0.537774 0.792020 0.599725
0.602197 0.764218 0.575555
0.669734 0.738613 0.533959
0.815640 0.790555 0.572747
0.949248 0.819364 0.626551
0.485451 0.900542 0.623896
0.495827 0.899351 0.623651
0.528496 0.894926 0.621271
0.573053 0.886381 0.610071
0.625055 0.866697 0.578637
0.683436 0.838315 0.520256
0.804593 0.865110 0.539117
0.932372 0.894133 0.576013
0.000000 0.317723 0.841489
0.000000 0.305577 0.839963
0.230076 0.312810 0.832975
0.438392 0.318975 0.820401
0.601190 0.319127 0.801419
0.738918 0.322118 0.780972
0.855711 0.354528 0.755642
0.950683 0.420722 0.737789
0.000000 0.383368 0.838376
0.000000 0.367346 0.837247
0.260868 0.357763 0.831205
0.447669 0.358953 0.819028
0.604089 0.355200 0.800290
0.738949 0.354162 0.779904
0.854856 0.381384 0.755550
0.949828 0.442847 0.739620
0.258244 0.511437 0.833860
0.298528 0.510216 0.831327
0.345617 0.475532 0.826474
0.476509 0.463203 0.815366
0.613886 0.452674 0.797269
0.739559 0.442939 0.776638
0.852201 0.458930 0.755367
0.946960 0.510643 0.746181
0.312779 0.619226 0.834745
0.350683 0.621424 0.833616
0.445502 0.619043 0.825132
0.525719 0.590967 0.811307
0.631006 0.571221 0.793912
0.741268 0.552850 0.772152
0.848234 0.558984 0.755154
0.942931 0.601617 0.756771
0.350927 0.706722 0.818509
0.381140 0.707210 0.817624
0.466682 0.708797 0.814572
0.573877 0.710933 0.809293
0.654414 0.686000 0.793210
0.744625 0.658930 0.768093
0.847166 0.662867 0.758541
0.938720 0.698146 0.771420
0.396643 0.786099 0.792172
0.419440 0.785153 0.791318
0.487129 0.782040 0.788266
0.576165 0.776730 0.783169
0.663905 0.769284 0.776028
0.749783 0.757961 0.765011
0.860807 0.770687 0.775265
0.943725 0.784634 0.787442
0.469337 0.851560 0.766537
0.485603 0.850523 0.766659
0.536034 0.847044 0.767056
0.602014 0.840909 0.764645
0.666072 0.829740 0.752346
0.723507 0.802487 0.724361
0.824094 0.816098 0.725734
0.942931 0.853025 0.785702
0.550286 0.922301 0.764157
0.559838 0.921416 0.764034
0.589776 0.918273 0.762722
0.631647 0.912688 0.757137
0.677516 0.903258 0.742458
0.720729 0.880949 0.703334
0.792721 0.864958 0.659083
0.923003 0.899290 0.709621
0.125521 0.432807 0.931182
0.157992 0.424079 0.930816
0.313603 0.431708 0.927764
0.460578 0.441444 0.922240
0.598749 0.449348 0.913787
0.728664 0.450446 0.901732
0.847196 0.455818 0.889494
0.944335 0.497230 0.866667
0.242618 0.479622 0.929229
0.256413 0.471168 0.928923
0.345312 0.465736 0.926543
0.476081 0.471992 0.921202
0.606104 0.476478 0.912963
0.731380 0.474586 0.901061
0.847440 0.476997 0.888792
0.943511 0.514672 0.866606
0.412085 0.595026 0.924010
0.420172 0.589471 0.923644
0.438331 0.564569 0.922698
0.523033 0.558007 0.918212
0.630335 0.555627 0.910399
0.740810 0.546929 0.898894
0.848478 0.541497 0.886595
0.940795 0.567681 0.866331
0.458198 0.676905 0.923552
0.480659 0.679225 0.922454
0.546654 0.686366 0.918517
0.594079 0.669123 0.914214
0.666987 0.656580 0.907317
0.755795 0.641291 0.896300
0.850431 0.625727 0.883574
0.937102 0.637995 0.865415
0.495735 0.754818 0.919127
0.516686 0.757504 0.918669
0.578820 0.765896 0.917296
0.654139 0.771756 0.913909
0.706630 0.752316 0.905943
0.772030 0.731533 0.895048
0.853269 0.709682 0.880552
0.932830 0.714107 0.863981
0.524681 0.824369 0.908721
0.541344 0.825223 0.908385
0.592432 0.827909 0.907439
0.661585 0.831510 0.906279
0.737423 0.835264 0.904753
0.794430 0.819211 0.895781
0.856504 0.791684 0.877165
0.928557 0.795865 0.866209
0.554070 0.889250 0.893523
0.566918 0.888884 0.893217
0.607111 0.887724 0.892180
0.664088 0.885740 0.890410
0.729519 0.882658 0.887663
0.796750 0.877440 0.882933
0.858488 0.865995 0.872221
0.929656 0.878477 0.883146
0.615320 0.939483 0.874784
0.624353 0.938842 0.874815
0.653376 0.936675 0.874846
0.697383 0.933165 0.874632
0.749599 0.928252 0.873503
0.795438 0.920439 0.863706
0.828794 0.900298 0.831662
0.915679 0.908721 0.837156
0.424994 0.571374 0.966217
0.431891 0.568048 0.966186
0.479164 0.572656 0.965240
0.554589 0.583093 0.963317
0.641413 0.594171 0.960662
0.732174 0.602075 0.957366
0.824125 0.604578 0.953338
0.914427 0.609400 0.948974
0.464942 0.602075 0.964508
0.470375 0.598779 0.964508
0.503716 0.597070 0.963958
0.571649 0.605280 0.962188
0.651911 0.613672 0.959716
0.737697 0.618982 0.956573
0.826413 0.619104 0.952728
0.914672 0.621851 0.948455
0.565026 0.684565 0.959472
0.568078 0.681514 0.959533
0.578149 0.670192 0.959747
0.620417 0.668025 0.958740
0.683406 0.670314 0.956725
0.755154 0.669703 0.954101
0.833646 0.663508 0.950652
0.915465 0.660670 0.946807
0.602716 0.739132 0.956664
0.619409 0.744350 0.955993
0.670008 0.761013 0.953857
0.686275 0.748074 0.953857
0.725917 0.742245 0.952697
0.779995 0.736477 0.950652
0.844144 0.724575 0.947814
0.916808 0.715206 0.944396
0.640681 0.798520 0.953460
0.651606 0.800473 0.953094
0.685420 0.806332 0.951934
0.731807 0.813352 0.950195
0.773861 0.814054 0.948455
0.808560 0.804196 0.947112
0.857084 0.790677 0.944762
0.918639 0.777584 0.941497
0.661128 0.844205 0.949737
0.671748 0.845975 0.949462
0.705501 0.851713 0.948577
0.755154 0.860868 0.947204
0.810269 0.871611 0.945464
0.846342 0.869657 0.943511
0.874937 0.856474 0.941619
0.920867 0.840940 0.938354
0.685267 0.891875 0.945190
0.693660 0.892485 0.945006
0.720790 0.894438 0.944457
0.763119 0.897826 0.943633
0.814450 0.902922 0.942535
0.866697 0.910124 0.941283
0.898772 0.910216 0.939483
0.923095 0.895048 0.935576
0.708888 0.937560 0.940002
0.715419 0.937407 0.939910
0.737118 0.936950 0.939544
0.772396 0.936187 0.938964
0.815885 0.935149 0.938201
0.860655 0.933928 0.937316
0.899290 0.932494 0.936217
0.923888 0.928923 0.933013
