其他预设/【233】日式怀旧街道调色预设208款/1.3D LUT预设（视频调色-PR-AE-PS-FCPX-达芬奇用）/4.富士胶片风日式城市街拍预设 (自动曝光预设)/JA – Neon 3 (Classic Chrome) (Auto).cube
# Created by Adobe Lightroom plugin Export LUT (1.17.0)
# www.johnrellis.com/lightroom/exportlut.htm
# Preset: JA – Neon 3 (Classic Chrome) (Auto)
# Color profile: /Library/Application Support/Adobe/Color/Profiles/Recommended/AdobeRGB1998.icc
LUT_3D_SIZE 8
DOMAIN_MIN 0.000000 0.000000 0.000000
DOMAIN_MAX 0.903226 0.903226 0.903226
0.115114 0.114839 0.114870
0.129397 0.116304 0.114748
0.290532 0.141115 0.103426
0.536980 0.204166 0.017914
0.705837 0.257115 0.000000
0.853819 0.305821 0.000000
0.972320 0.348669 0.000000
1.000000 0.373632 0.000000
0.114717 0.120974 0.114565
0.123171 0.121462 0.115328
0.288029 0.172488 0.099580
0.534417 0.240543 0.000000
0.703853 0.283787 0.000000
0.852750 0.326635 0.000000
0.971740 0.365332 0.000000
1.000000 0.386603 0.000000
0.109071 0.191867 0.108125
0.143130 0.194614 0.107057
0.208347 0.192447 0.111788
0.499031 0.317784 0.000000
0.697597 0.359655 0.000000
0.849241 0.391272 0.000000
0.969787 0.418921 0.000000
1.000000 0.429236 0.000000
0.076295 0.353887 0.066407
0.155306 0.355291 0.062989
0.280797 0.354437 0.060761
0.384802 0.344640 0.100526
0.637781 0.442786 0.000000
0.834226 0.482460 0.000000
0.966369 0.499886 0.000000
1.000000 0.495827 0.000000
0.000000 0.522057 0.000000
0.145174 0.521294 0.000000
0.307713 0.518975 0.000000
0.444984 0.506462 0.000000
0.549096 0.488899 0.142611
0.752285 0.557610 0.144076
0.937896 0.599878 0.028779
1.000000 0.578363 0.000000
0.000000 0.646754 0.000000
0.130800 0.645869 0.000000
0.303319 0.642847 0.000000
0.454475 0.636439 0.000000
0.581476 0.620935 0.115694
0.676356 0.604822 0.239628
0.872923 0.681727 0.274937
0.997070 0.692653 0.249516
0.000000 0.787381 0.000000
0.121248 0.786709 0.000000
0.306218 0.784360 0.000000
0.466773 0.780606 0.000000
0.612909 0.770504 0.054688
0.735164 0.756924 0.225467
0.825528 0.744442 0.352605
0.960327 0.784939 0.406928
0.000000 0.924193 0.000000
0.089601 0.923369 0.000000
0.300481 0.920378 0.000000
0.467231 0.915282 0.000000
0.620752 0.908110 0.000000
0.760830 0.894774 0.205478
0.873716 0.882567 0.353521
0.946288 0.867247 0.496864
0.112673 0.116304 0.127749
0.127169 0.114717 0.126772
0.260655 0.115450 0.125826
0.505577 0.172763 0.107362
0.688502 0.239170 0.076783
0.842802 0.299687 0.008972
0.967376 0.352453 0.000000
1.000000 0.384192 0.005188
0.111635 0.125124 0.126925
0.126314 0.126070 0.126284
0.256565 0.151064 0.127199
0.504997 0.212070 0.103365
0.687861 0.268193 0.071534
0.842344 0.321355 0.003906
0.967071 0.369085 0.000000
1.000000 0.396521 0.005798
0.099001 0.195041 0.138369
0.128023 0.198978 0.127169
0.211185 0.197696 0.136934
0.488624 0.305028 0.100099
0.683711 0.349462 0.061952
0.839658 0.388342 0.013489
0.965148 0.423377 0.000000
1.000000 0.438575 0.046571
0.000000 0.354925 0.133547
0.114412 0.355200 0.109041
0.272068 0.356237 0.110109
0.383978 0.346929 0.150454
0.633509 0.441993 0.130587
0.830686 0.482460 0.068727
0.961791 0.504845 0.059785
1.000000 0.504540 0.080903
0.000000 0.521630 0.091646
0.090364 0.521294 0.071015
0.293950 0.518456 0.071504
0.441566 0.507012 0.118196
0.547143 0.490272 0.197879
0.749386 0.560845 0.217685
0.935485 0.605402 0.189944
1.000000 0.585443 0.110719
0.000000 0.646479 0.066194
0.099947 0.645502 0.068666
0.294957 0.642237 0.073915
0.451118 0.636530 0.094331
0.580163 0.621118 0.187076
0.673976 0.606012 0.283879
0.870695 0.685817 0.324224
0.994202 0.699306 0.312230
0.000000 0.786862 0.060426
0.112306 0.786191 0.063264
0.303746 0.783810 0.072023
0.465278 0.779934 0.088167
0.612543 0.770443 0.169741
0.734340 0.757137 0.276036
0.823453 0.745388 0.383978
0.958709 0.787625 0.434333
0.000000 0.923796 0.000000
0.099428 0.922942 0.000000
0.302800 0.919951 0.000000
0.468574 0.914824 0.049439
0.620905 0.908019 0.095399
0.761196 0.894591 0.263279
0.872831 0.882658 0.382422
0.946410 0.867491 0.497108
0.050568 0.129641 0.238956
0.106966 0.112673 0.242313
0.244236 0.098543 0.240299
0.459236 0.081636 0.244663
0.654475 0.248753 0.284276
0.809842 0.348608 0.325383
0.946319 0.421057 0.355108
1.000000 0.468788 0.376654
0.065980 0.153384 0.223117
0.090639 0.137942 0.227359
0.239902 0.132479 0.236851
0.461769 0.158572 0.247074
0.652033 0.281407 0.289891
0.809476 0.366339 0.326970
0.946166 0.433753 0.355352
1.000000 0.477882 0.377264
0.003754 0.217380 0.231693
0.083009 0.215396 0.228183
0.244785 0.243229 0.244297
0.461799 0.293462 0.261997
0.649042 0.359503 0.296452
0.809140 0.420966 0.328923
0.945403 0.476204 0.356909
1.000000 0.508598 0.377600
0.000000 0.369207 0.277867
0.000000 0.369696 0.267826
0.247990 0.377691 0.245701
0.393530 0.367712 0.270848
0.626459 0.453101 0.306950
0.806363 0.503471 0.336675
0.942748 0.545037 0.364782
1.000000 0.561669 0.383825
0.000000 0.529931 0.289220
0.000000 0.527977 0.279454
0.267308 0.523766 0.262425
0.437079 0.514702 0.275029
0.543664 0.499001 0.324956
0.742214 0.577020 0.371160
0.927153 0.630579 0.387823
1.000000 0.628992 0.391791
0.000000 0.650172 0.289036
0.097444 0.647608 0.289036
0.297215 0.641962 0.289769
0.450538 0.636744 0.294072
0.579431 0.623835 0.333013
0.667720 0.611353 0.393866
0.865904 0.699214 0.437781
0.985718 0.719539 0.447761
0.000000 0.787839 0.307836
0.178836 0.785245 0.316014
0.323888 0.781704 0.312566
0.473579 0.778103 0.316045
0.614801 0.771206 0.336553
0.732540 0.758663 0.395514
0.818357 0.748959 0.461402
0.954467 0.795804 0.506493
0.140536 0.921386 0.327550
0.226505 0.919188 0.336950
0.335912 0.917479 0.320226
0.484932 0.912505 0.324620
0.627741 0.906096 0.331182
0.761990 0.894408 0.390814
0.869627 0.883268 0.461677
0.942718 0.869352 0.542107
0.000000 0.163241 0.412940
0.000000 0.118898 0.418341
0.234012 0.082673 0.441657
0.447517 0.068757 0.438514
0.598260 0.178988 0.397986
0.770687 0.386999 0.471565
0.918456 0.497383 0.530480
0.992340 0.564172 0.562982
0.000000 0.193881 0.396368
0.000000 0.168704 0.402838
0.211673 0.128817 0.430182
0.443397 0.142519 0.435096
0.599054 0.231510 0.404028
0.770626 0.416907 0.483711
0.918059 0.507561 0.531701
0.992432 0.568902 0.561425
0.000000 0.266728 0.388769
0.000000 0.256809 0.384771
0.137392 0.232853 0.401648
0.435828 0.274388 0.429541
0.602716 0.364843 0.434272
0.768338 0.474220 0.498604
0.917601 0.540215 0.533989
0.991974 0.588739 0.559258
0.000000 0.380011 0.412085
0.000000 0.377996 0.409033
0.156313 0.383917 0.407874
0.442664 0.435584 0.440192
0.605097 0.480293 0.467109
0.768612 0.537682 0.503868
0.917845 0.591699 0.535088
0.990387 0.625971 0.559014
0.000000 0.539147 0.452338
0.000000 0.540459 0.450446
0.236942 0.538903 0.440284
0.447333 0.536278 0.443519
0.549126 0.522911 0.460334
0.744106 0.604150 0.506767
0.916381 0.659815 0.538628
0.987182 0.677760 0.561181
0.000000 0.660700 0.450904
0.000000 0.658320 0.448951
0.299382 0.650629 0.451575
0.468238 0.642939 0.463050
0.585138 0.634882 0.470527
0.665797 0.624231 0.501030
0.866361 0.717800 0.545312
0.976471 0.742977 0.571679
0.000000 0.797055 0.462989
0.118196 0.794644 0.465400
0.342412 0.786984 0.477729
0.487465 0.779995 0.479652
0.616724 0.775937 0.479530
0.730922 0.764858 0.505791
0.814359 0.756039 0.545586
0.949615 0.808011 0.595117
0.000000 0.925872 0.470436
0.184085 0.923766 0.476143
0.366613 0.917266 0.492164
0.498512 0.911315 0.488167
0.631678 0.905150 0.488655
0.758297 0.896025 0.506004
0.864317 0.885100 0.550988
0.936156 0.872709 0.613642
0.000000 0.196689 0.549401
0.000000 0.165743 0.553552
0.052522 0.118044 0.571008
0.408515 0.148653 0.600855
0.600916 0.217502 0.589044
0.697444 0.288487 0.524468
0.884031 0.471473 0.603693
0.965087 0.662257 0.711086
0.000000 0.225467 0.540368
0.000000 0.203891 0.544823
0.000000 0.151858 0.563622
0.401404 0.193118 0.594659
0.597803 0.257176 0.586450
0.698451 0.321569 0.529900
0.884886 0.488930 0.608698
0.965148 0.665675 0.710628
0.000000 0.293431 0.514702
0.000000 0.284703 0.519249
0.000000 0.255406 0.540551
0.378637 0.291447 0.575494
0.589288 0.357763 0.579644
0.704128 0.412299 0.549615
0.888548 0.544518 0.626551
0.965637 0.676783 0.707942
0.000000 0.387243 0.531487
0.000000 0.382910 0.529351
0.000000 0.373205 0.525139
0.343297 0.396521 0.545647
0.581384 0.468330 0.574395
0.722164 0.520653 0.582971
0.892546 0.623590 0.653773
0.968261 0.690547 0.695949
0.000000 0.508812 0.553674
0.000000 0.508537 0.552087
0.000000 0.511345 0.548943
0.383337 0.528527 0.552270
0.584192 0.572778 0.580194
0.741085 0.618738 0.609339
0.896391 0.679896 0.652155
0.968078 0.724819 0.690730
0.000000 0.655909 0.585870
0.000000 0.656336 0.585290
0.236332 0.658167 0.586938
0.454871 0.661341 0.591333
0.587396 0.662104 0.582361
0.677089 0.648585 0.592279
0.876524 0.742306 0.649836
0.964446 0.775021 0.694545
0.000000 0.810575 0.620478
0.000000 0.808438 0.619623
0.302953 0.801602 0.618311
0.472786 0.794430 0.612238
0.602258 0.789090 0.595483
0.727840 0.779477 0.600183
0.813870 0.768185 0.629114
0.943847 0.826108 0.695155
0.000000 0.932250 0.617487
0.000000 0.930266 0.619135
0.323705 0.924193 0.623072
0.486458 0.916381 0.621363
0.620264 0.908263 0.611963
0.747158 0.900542 0.610925
0.857298 0.888640 0.644373
0.927672 0.877653 0.696681
0.000000 0.228580 0.660182
0.000000 0.208530 0.663752
0.000000 0.155215 0.679103
0.311955 0.189120 0.706477
0.588739 0.309850 0.746365
0.735653 0.367742 0.722438
0.832181 0.404700 0.671687
0.956909 0.576165 0.723354
0.000000 0.252262 0.653651
0.000000 0.236332 0.657374
0.000000 0.181369 0.673091
0.306981 0.221042 0.700984
0.585962 0.336736 0.741726
0.733639 0.388434 0.720760
0.830838 0.418128 0.671412
0.956237 0.589929 0.727413
0.000000 0.313512 0.633509
0.000000 0.304967 0.637324
0.000000 0.282475 0.652583
0.289830 0.300420 0.682918
0.575494 0.405402 0.726558
0.727840 0.446387 0.716060
0.826627 0.458503 0.669734
0.953735 0.636805 0.742885
0.000000 0.391272 0.627161
0.000000 0.386297 0.625147
0.000000 0.372107 0.619532
0.270054 0.395453 0.650996
0.550927 0.476204 0.701442
0.720851 0.519036 0.710780
0.836149 0.536767 0.683589
0.948760 0.712398 0.773404
0.000000 0.494545 0.648005
0.000000 0.492592 0.646326
0.000000 0.488869 0.641413
0.248112 0.492836 0.636225
0.498451 0.532616 0.662165
0.715969 0.598230 0.708064
0.858671 0.655238 0.721004
0.942351 0.791501 0.811765
0.000000 0.621607 0.676173
0.000000 0.621515 0.674830
0.000000 0.623224 0.671382
0.340764 0.631525 0.669123
0.522454 0.650996 0.676173
0.716609 0.703182 0.711849
0.874113 0.766567 0.759579
0.944335 0.817075 0.805142
0.000000 0.790341 0.731167
0.000000 0.790616 0.730709
0.137392 0.792020 0.730465
0.410163 0.799130 0.733730
0.581445 0.811154 0.735561
0.724910 0.806027 0.719356
0.819303 0.790158 0.728908
0.936278 0.853513 0.802274
0.000000 0.940215 0.765927
0.000000 0.938415 0.764950
0.243076 0.932769 0.760983
0.443763 0.925383 0.751614
0.606958 0.915740 0.742092
0.748959 0.903990 0.742702
0.852110 0.894163 0.749355
0.918242 0.884520 0.784176
0.000000 0.272160 0.798947
0.000000 0.259098 0.801297
0.000000 0.201785 0.812222
0.202396 0.241428 0.829923
0.523583 0.341833 0.853178
0.753048 0.469429 0.879057
0.869963 0.485664 0.856352
0.940917 0.534478 0.802060
0.000000 0.292424 0.794430
0.000000 0.281102 0.796902
0.000000 0.237797 0.807614
0.198337 0.265019 0.826291
0.523003 0.362036 0.850340
0.751400 0.481941 0.877317
0.869078 0.497200 0.855711
0.940307 0.542748 0.801938
0.000000 0.348394 0.779629
0.000000 0.340764 0.782284
0.000000 0.323827 0.792325
0.175692 0.328466 0.813352
0.517021 0.415991 0.840330
0.744778 0.518914 0.871275
0.866270 0.534386 0.853666
0.938262 0.570489 0.801785
0.000000 0.419471 0.753658
0.000000 0.414374 0.755642
0.000000 0.402014 0.765927
0.154238 0.416999 0.787564
0.490028 0.474434 0.821805
0.728878 0.566522 0.860288
0.862028 0.591424 0.850675
0.935058 0.613306 0.800717
0.000000 0.512413 0.772396
0.000000 0.509087 0.770474
0.000000 0.498726 0.764218
0.000000 0.484504 0.753414
0.424231 0.527337 0.787167
0.692805 0.610834 0.841337
0.856931 0.662745 0.847501
0.932158 0.689784 0.809628
0.000000 0.625483 0.795529
0.000000 0.624201 0.794064
0.000000 0.620996 0.789334
0.000000 0.619165 0.781552
0.377050 0.617731 0.771878
0.608515 0.646876 0.798367
0.850797 0.746517 0.843900
0.928344 0.813809 0.851591
0.000000 0.754879 0.820706
0.000000 0.755062 0.819760
0.000000 0.756252 0.816739
0.218906 0.760037 0.812650
0.451301 0.767697 0.809873
0.641535 0.785977 0.813626
0.845823 0.834745 0.841917
0.926909 0.880919 0.880827
0.000000 0.916716 0.864805
0.000000 0.917357 0.864439
0.000000 0.923064 0.866850
0.282689 0.921294 0.860838
0.530297 0.919585 0.854520
0.744350 0.912474 0.855772
0.857633 0.901793 0.853574
0.911467 0.893797 0.861479
0.000000 0.324773 0.926635
0.000000 0.320317 0.927123
0.000000 0.304448 0.929259
0.125399 0.330785 0.932128
0.487922 0.417090 0.933898
0.695003 0.516106 0.935119
0.855344 0.646571 0.933867
0.936400 0.652522 0.925719
0.000000 0.340734 0.925475
0.000000 0.336339 0.925994
0.000000 0.332982 0.927642
0.127047 0.347478 0.931029
0.488136 0.429633 0.933043
0.694636 0.525048 0.934478
0.855406 0.654414 0.933318
0.935882 0.660487 0.925353
0.000000 0.388251 0.921782
0.000000 0.383703 0.922271
0.000000 0.381964 0.923827
0.100252 0.393744 0.927276
0.482856 0.464851 0.930114
0.691707 0.551659 0.932372
0.855314 0.679072 0.931609
0.933989 0.686793 0.924132
0.000000 0.457832 0.915190
0.000000 0.452430 0.915801
0.000000 0.441260 0.917723
0.000000 0.465126 0.920043
0.453559 0.506432 0.925109
0.679957 0.587030 0.928862
0.853513 0.713008 0.928893
0.931060 0.726802 0.922332
0.000000 0.542626 0.912688
0.000000 0.538903 0.912169
0.000000 0.525994 0.910063
0.000000 0.508507 0.912016
0.378302 0.553765 0.916258
0.644800 0.619104 0.923552
0.847288 0.747433 0.925353
0.927214 0.776333 0.920012
0.000000 0.635981 0.917754
0.000000 0.634089 0.917357
0.000000 0.627955 0.915801
0.000000 0.619440 0.912444
0.061616 0.609552 0.906096
0.554864 0.648066 0.912444
0.830076 0.776883 0.919921
0.922942 0.829038 0.917418
0.000000 0.739193 0.921691
0.000000 0.738705 0.921386
0.000000 0.737819 0.920134
0.000000 0.738979 0.917388
0.246311 0.741970 0.912779
0.481575 0.738521 0.906279
0.758572 0.784329 0.906188
0.918944 0.875639 0.915129
0.000000 0.849027 0.923491
0.000000 0.849454 0.923217
0.000000 0.851499 0.922087
0.000000 0.856291 0.919738
0.355261 0.863035 0.916503
0.589563 0.872831 0.912322
0.796750 0.888396 0.907836
0.915648 0.908263 0.913054
