其他预设/【233】日式怀旧街道调色预设208款/1.3D LUT预设（视频调色-PR-AE-PS-FCPX-达芬奇用）/4.富士胶片风日式城市街拍预设 (自动曝光预设)/JA – Cityscape Pop 4 (Classic Chrome) (Auto).cube
# Created by Adobe Lightroom plugin Export LUT (1.17.0)
# www.johnrellis.com/lightroom/exportlut.htm
# Preset: JA – Cityscape Pop 4 (Classic Chrome) (Auto)
# Color profile: /Library/Application Support/Adobe/Color/Profiles/Recommended/AdobeRGB1998.icc
LUT_3D_SIZE 32
0.079744 0.086580 0.090974
0.081270 0.086641 0.090913
0.083528 0.086610 0.090883
0.088777 0.087007 0.090974
0.096223 0.086915 0.091341
0.106966 0.087282 0.091279
0.121187 0.087129 0.091066
0.140139 0.087678 0.090517
0.164187 0.088014 0.089876
0.193393 0.088472 0.088350
0.228397 0.089235 0.086519
0.269627 0.090791 0.082734
0.317479 0.092103 0.077607
0.370794 0.094850 0.069520
0.426673 0.097932 0.055238
0.482033 0.101350 0.020417
0.534203 0.104311 0.000000
0.581659 0.107424 0.000000
0.625269 0.109895 0.000000
0.666957 0.112123 0.000000
0.706325 0.112490 0.000000
0.744137 0.110689 0.000000
0.780209 0.108827 0.000000
0.814328 0.105318 0.000000
0.846311 0.098726 0.000000
0.875914 0.090455 0.000000
0.902922 0.078187 0.000000
0.927520 0.059419 0.000000
0.949859 0.003815 0.000000
0.970214 0.000000 0.000000
0.988830 0.000000 0.000000
1.000000 0.000000 0.000000
0.079957 0.087800 0.090852
0.081086 0.087922 0.090822
0.083680 0.087831 0.091035
0.088960 0.088228 0.090883
0.096345 0.088441 0.091218
0.107057 0.088808 0.091127
0.121492 0.088930 0.090913
0.140536 0.089693 0.090608
0.164370 0.090394 0.089662
0.193912 0.091249 0.088380
0.229038 0.092195 0.086213
0.270237 0.093935 0.082673
0.318090 0.096773 0.077058
0.371466 0.099794 0.068757
0.427283 0.103395 0.053407
0.482582 0.107820 0.017517
0.534569 0.110903 0.000000
0.581933 0.113405 0.000000
0.625422 0.115877 0.000000
0.667048 0.118196 0.000000
0.706477 0.118685 0.000000
0.744259 0.117494 0.000000
0.780362 0.115236 0.000000
0.814389 0.112093 0.000000
0.846372 0.106050 0.000000
0.875975 0.098268 0.000000
0.902983 0.087007 0.000000
0.927550 0.070802 0.000000
0.949889 0.037568 0.000000
0.970245 0.000000 0.000000
0.988861 0.000000 0.000000
1.000000 0.000000 0.000000
0.079988 0.089601 0.091005
0.081514 0.089693 0.090944
0.083772 0.089662 0.090913
0.088960 0.090028 0.091279
0.096651 0.090486 0.091310
0.107332 0.090822 0.091249
0.121981 0.091188 0.090700
0.140932 0.092256 0.090394
0.164981 0.093111 0.089693
0.194400 0.094514 0.088045
0.229587 0.096468 0.085786
0.270939 0.099062 0.082094
0.318700 0.102480 0.076326
0.372259 0.106294 0.067720
0.428077 0.110994 0.050782
0.483253 0.115053 0.014008
0.535088 0.118898 0.000000
0.582361 0.121645 0.000000
0.625910 0.124178 0.000000
0.667323 0.125795 0.000000
0.706722 0.126223 0.000000
0.744503 0.125124 0.000000
0.780514 0.123110 0.000000
0.814603 0.119722 0.000000
0.846525 0.114412 0.000000
0.876066 0.106996 0.000000
0.903075 0.096193 0.000000
0.927581 0.083986 0.000000
0.949920 0.062074 0.000000
0.970275 0.007996 0.000000
0.988861 0.000000 0.000000
1.000000 0.000000 0.000000
0.080293 0.093935 0.091432
0.082155 0.093965 0.091402
0.084749 0.094148 0.091310
0.089693 0.093996 0.091218
0.097627 0.094362 0.091249
0.108186 0.094972 0.091127
0.122805 0.096162 0.090791
0.142031 0.097566 0.090150
0.166171 0.099367 0.089082
0.195651 0.102144 0.087526
0.230900 0.105043 0.085115
0.272374 0.108888 0.081178
0.320226 0.114473 0.074952
0.373663 0.119722 0.065400
0.429419 0.124880 0.046082
0.484627 0.130068 0.006012
0.536217 0.134157 0.000000
0.583185 0.137301 0.000000
0.626581 0.140139 0.000000
0.667994 0.141268 0.000000
0.707301 0.142092 0.000000
0.744900 0.140902 0.000000
0.780911 0.139345 0.000000
0.814908 0.136324 0.000000
0.846769 0.130587 0.000000
0.876310 0.124544 0.000000
0.903227 0.115175 0.000000
0.927703 0.104891 0.000000
0.949981 0.089845 0.000000
0.970306 0.069490 0.000000
0.988861 0.023072 0.000000
1.000000 0.000000 0.000000
0.080934 0.099855 0.092012
0.082826 0.099886 0.091951
0.084993 0.100130 0.091890
0.090120 0.100710 0.091707
0.097871 0.100587 0.091493
0.109957 0.101900 0.091005
0.124300 0.103517 0.090333
0.143557 0.105745 0.089601
0.167941 0.108919 0.088594
0.197574 0.112886 0.086549
0.233127 0.117403 0.083497
0.274693 0.123079 0.079438
0.323003 0.130068 0.072511
0.376165 0.137209 0.061891
0.431708 0.144106 0.035645
0.486488 0.149722 0.000000
0.537835 0.154818 0.000000
0.584619 0.158236 0.000000
0.627710 0.160922 0.000000
0.669032 0.162387 0.000000
0.708095 0.162478 0.000000
0.745632 0.162387 0.000000
0.781521 0.160281 0.000000
0.815488 0.157443 0.000000
0.847196 0.153109 0.000000
0.876616 0.146944 0.000000
0.903441 0.139498 0.000000
0.927886 0.129824 0.000000
0.950103 0.118257 0.000000
0.970367 0.104280 0.000000
0.988922 0.086152 0.000000
1.000000 0.064088 0.000000
0.081880 0.107546 0.092622
0.083406 0.107607 0.092287
0.085542 0.108064 0.092195
0.090730 0.108370 0.091768
0.099611 0.110231 0.091341
0.110780 0.110353 0.091249
0.128573 0.114107 0.090181
0.147311 0.116945 0.089082
0.170382 0.120790 0.087373
0.200320 0.126314 0.085054
0.236057 0.132753 0.081758
0.277775 0.140261 0.076753
0.326055 0.148898 0.068910
0.379431 0.157778 0.055207
0.434821 0.166232 0.021027
0.489113 0.173220 0.000000
0.539818 0.178653 0.000000
0.586328 0.182284 0.000000
0.629236 0.184848 0.000000
0.670344 0.186496 0.000000
0.709255 0.187137 0.000000
0.746670 0.185977 0.000000
0.782315 0.184756 0.000000
0.816129 0.181979 0.000000
0.847745 0.177340 0.000000
0.877012 0.172519 0.000000
0.903777 0.165316 0.000000
0.928099 0.157382 0.000000
0.950286 0.147280 0.000000
0.970459 0.135683 0.000000
0.988952 0.122469 0.000000
1.000000 0.107698 0.000000
0.082795 0.117922 0.093111
0.084627 0.118166 0.093050
0.087098 0.118532 0.092683
0.092470 0.119203 0.092195
0.101503 0.120821 0.091493
0.114321 0.123964 0.090700
0.129213 0.125246 0.089998
0.153780 0.131868 0.088045
0.177523 0.136660 0.086030
0.205417 0.142519 0.083192
0.239902 0.150210 0.079225
0.281865 0.159487 0.073304
0.330388 0.170260 0.063508
0.383490 0.180453 0.042267
0.438666 0.190127 0.002106
0.492409 0.198489 0.000000
0.542687 0.204196 0.000000
0.588556 0.208042 0.000000
0.631250 0.210666 0.000000
0.671962 0.212253 0.000000
0.710658 0.212680 0.000000
0.747860 0.212100 0.000000
0.783322 0.210819 0.000000
0.816953 0.207767 0.000000
0.848417 0.203738 0.000000
0.877562 0.198947 0.000000
0.904173 0.192477 0.000000
0.928374 0.185397 0.000000
0.950439 0.176242 0.000000
0.970581 0.165957 0.000000
0.989014 0.154513 0.000000
1.000000 0.143282 0.000000
0.083375 0.131991 0.093050
0.085512 0.132357 0.092958
0.088228 0.132845 0.092836
0.094392 0.133486 0.092592
0.103517 0.135073 0.091859
0.117433 0.138735 0.090608
0.135378 0.143679 0.088960
0.154910 0.146212 0.087343
0.187167 0.156771 0.083711
0.216281 0.163516 0.079927
0.249699 0.171725 0.074952
0.287602 0.180667 0.067903
0.335515 0.192813 0.054108
0.388617 0.204990 0.020752
0.443214 0.215824 0.000000
0.496437 0.224826 0.000000
0.546014 0.231235 0.000000
0.591272 0.235172 0.000000
0.633448 0.237797 0.000000
0.673945 0.239780 0.000000
0.712306 0.239963 0.000000
0.749325 0.239445 0.000000
0.784604 0.238132 0.000000
0.817990 0.235264 0.000000
0.849210 0.231754 0.000000
0.878202 0.226871 0.000000
0.904631 0.220890 0.000000
0.928740 0.213321 0.000000
0.950683 0.205234 0.000000
0.970703 0.196017 0.000000
0.989075 0.186343 0.000000
1.000000 0.175814 0.000000
0.084291 0.150546 0.093172
0.086366 0.150851 0.093080
0.090089 0.151339 0.092653
0.096986 0.152316 0.092317
0.107149 0.153964 0.091493
0.121035 0.157229 0.090242
0.140169 0.162875 0.088533
0.163821 0.170138 0.085451
0.188540 0.174228 0.082765
0.229801 0.189181 0.075380
0.264805 0.198550 0.068025
0.304326 0.208865 0.058228
0.347387 0.219608 0.031586
0.394354 0.230716 0.000000
0.448341 0.242771 0.000000
0.500969 0.252262 0.000000
0.549645 0.259068 0.000000
0.594598 0.263401 0.000000
0.636316 0.266361 0.000000
0.676173 0.267887 0.000000
0.714351 0.268101 0.000000
0.751003 0.267704 0.000000
0.786099 0.266026 0.000000
0.819181 0.263493 0.000000
0.850248 0.259922 0.000000
0.878965 0.254887 0.000000
0.905241 0.248966 0.000000
0.929137 0.242222 0.000000
0.950958 0.234043 0.000000
0.970886 0.225437 0.000000
0.989136 0.216251 0.000000
1.000000 0.206851 0.000000
0.084840 0.173556 0.092134
0.087892 0.173892 0.092012
0.091524 0.174441 0.091554
0.099763 0.175387 0.091157
0.111055 0.177218 0.090455
0.125673 0.179446 0.089265
0.145602 0.185611 0.086885
0.170565 0.193851 0.083436
0.200473 0.203922 0.078584
0.230747 0.209415 0.074037
0.282414 0.229526 0.059174
0.323919 0.241398 0.029267
0.368017 0.253025 0.000000
0.413214 0.263340 0.000000
0.458350 0.272374 0.000000
0.506065 0.281010 0.000000
0.553979 0.287999 0.000000
0.598077 0.292149 0.000000
0.639338 0.295232 0.000000
0.678767 0.296452 0.000000
0.716609 0.297002 0.000000
0.753017 0.296330 0.000000
0.787747 0.294560 0.000000
0.820584 0.292058 0.000000
0.851347 0.288701 0.000000
0.879850 0.283543 0.000000
0.905882 0.277836 0.000000
0.929595 0.270878 0.000000
0.951263 0.263127 0.000000
0.971069 0.254673 0.000000
0.989227 0.245579 0.000000
1.000000 0.236881 0.000000
0.085328 0.200778 0.090120
0.088319 0.201266 0.089937
0.092805 0.201907 0.089693
0.102663 0.202823 0.088930
0.115541 0.204746 0.088045
0.131777 0.207401 0.086519
0.151766 0.211978 0.084169
0.177920 0.220920 0.079957
0.209171 0.232029 0.074128
0.246342 0.245426 0.064973
0.283055 0.253056 0.053193
0.345953 0.278386 0.000000
0.390692 0.290074 0.000000
0.436133 0.300542 0.000000
0.480018 0.308751 0.000000
0.521111 0.314183 0.000000
0.559075 0.317662 0.000000
0.601923 0.321996 0.000000
0.642786 0.324681 0.000000
0.681788 0.325933 0.000000
0.719173 0.326268 0.000000
0.755154 0.325536 0.000000
0.789670 0.323766 0.000000
0.822141 0.321202 0.000000
0.852567 0.317479 0.000000
0.880797 0.312566 0.000000
0.906584 0.306401 0.000000
0.930083 0.299840 0.000000
0.951598 0.291997 0.000000
0.971221 0.283543 0.000000
0.989288 0.274876 0.000000
1.000000 0.266392 0.000000
0.084810 0.232517 0.086763
0.088838 0.233005 0.086519
0.094575 0.233555 0.085908
0.105440 0.234806 0.085237
0.119997 0.236851 0.084138
0.138216 0.239414 0.081971
0.159030 0.243015 0.079438
0.185489 0.251530 0.074800
0.218448 0.263615 0.066712
0.256931 0.278202 0.051545
0.302312 0.295476 0.010590
0.345586 0.304570 0.000000
0.415717 0.331670 0.000000
0.460456 0.341131 0.000000
0.502770 0.347631 0.000000
0.541894 0.352056 0.000000
0.578149 0.353857 0.000000
0.611841 0.354192 0.000000
0.646448 0.354559 0.000000
0.684962 0.355810 0.000000
0.721920 0.356054 0.000000
0.757565 0.355047 0.000000
0.791623 0.353246 0.000000
0.823819 0.350500 0.000000
0.854032 0.346624 0.000000
0.881834 0.341711 0.000000
0.907317 0.335637 0.000000
0.930663 0.328740 0.000000
0.951934 0.321019 0.000000
0.971466 0.312474 0.000000
0.989380 0.303990 0.000000
1.000000 0.295323 0.000000
0.084962 0.268406 0.080964
0.089570 0.268925 0.080659
0.095857 0.269535 0.079927
0.107790 0.270939 0.079011
0.125185 0.273014 0.077180
0.145052 0.275944 0.074678
0.167941 0.279545 0.071382
0.193729 0.285374 0.066255
0.228000 0.298375 0.053071
0.267796 0.313939 0.019684
0.314000 0.331731 0.000000
0.366522 0.351537 0.000000
0.413886 0.360174 0.000000
0.485603 0.385229 0.000000
0.525872 0.389319 0.000000
0.563104 0.391363 0.000000
0.598047 0.392309 0.000000
0.630182 0.390997 0.000000
0.660517 0.389014 0.000000
0.690181 0.386664 0.000000
0.725002 0.386053 0.000000
0.760220 0.384955 0.000000
0.793820 0.383154 0.000000
0.825742 0.380072 0.000000
0.855497 0.376074 0.000000
0.882994 0.370794 0.000000
0.908202 0.364691 0.000000
0.931273 0.357580 0.000000
0.952331 0.349615 0.000000
0.971679 0.341161 0.000000
0.989471 0.332647 0.000000
1.000000 0.324071 0.000000
0.083619 0.308751 0.071443
0.089662 0.309270 0.071015
0.096834 0.309880 0.070100
0.110628 0.311376 0.068727
0.129824 0.313481 0.066285
0.152255 0.316472 0.062684
0.177218 0.320226 0.057374
0.204196 0.324926 0.045991
0.237552 0.335607 0.018585
0.278325 0.351415 0.000000
0.324712 0.369268 0.000000
0.376715 0.388861 0.000000
0.434424 0.409552 0.000000
0.481697 0.414557 0.000000
0.548791 0.433478 0.000000
0.584955 0.433387 0.000000
0.618036 0.431952 0.000000
0.649012 0.429694 0.000000
0.677852 0.426001 0.000000
0.706020 0.422339 0.000000
0.733913 0.418555 0.000000
0.763058 0.415137 0.000000
0.796231 0.413153 0.000000
0.827634 0.409888 0.000000
0.857053 0.405585 0.000000
0.884245 0.400153 0.000000
0.909117 0.393744 0.000000
0.931884 0.386481 0.000000
0.952789 0.378332 0.000000
0.971923 0.369940 0.000000
0.989532 0.361151 0.000000
1.000000 0.352575 0.000000
0.082460 0.352270 0.054017
0.089357 0.352636 0.053071
0.097658 0.353307 0.050782
0.113588 0.354833 0.046448
0.135317 0.356878 0.038697
0.159426 0.359869 0.029206
0.186221 0.363592 0.014710
0.215000 0.368078 0.000000
0.246067 0.373632 0.000000
0.287510 0.389349 0.000000
0.333349 0.406653 0.000000
0.384405 0.425422 0.000000
0.440162 0.444923 0.000000
0.500023 0.464729 0.000000
0.543664 0.464057 0.000000
0.605982 0.477455 0.000000
0.638636 0.474220 0.000000
0.667689 0.469337 0.000000
0.695460 0.464790 0.000000
0.722408 0.459449 0.000000
0.748928 0.454170 0.000000
0.774990 0.449134 0.000000
0.800473 0.443915 0.000000
0.829770 0.439887 0.000000
0.858732 0.435218 0.000000
0.885496 0.429664 0.000000
0.910063 0.422858 0.000000
0.932555 0.415351 0.000000
0.953185 0.407111 0.000000
0.972137 0.398474 0.000000
0.989593 0.389532 0.000000
1.000000 0.380835 0.000000
0.080018 0.397101 0.007416
0.088777 0.397559 0.005768
0.098329 0.398169 0.002441
0.115877 0.399451 0.000000
0.139834 0.401312 0.000000
0.165957 0.404211 0.000000
0.194339 0.407599 0.000000
0.224796 0.411719 0.000000
0.256870 0.416602 0.000000
0.294438 0.426642 0.000000
0.340307 0.443091 0.000000
0.389776 0.460517 0.000000
0.443061 0.478370 0.000000
0.499794 0.496254 0.000000
0.557702 0.512230 0.000000
0.599512 0.508598 0.000000
0.657435 0.517449 0.000000
0.686488 0.511131 0.000000
0.713008 0.504295 0.000000
0.738918 0.497963 0.000000
0.764096 0.491249 0.000000
0.788815 0.484657 0.000000
0.812924 0.477974 0.000000
0.836332 0.471351 0.000000
0.860502 0.465034 0.000000
0.886870 0.459174 0.000000
0.911040 0.452033 0.000000
0.933257 0.444251 0.000000
0.953613 0.435859 0.000000
0.972381 0.426886 0.000000
0.989685 0.417731 0.000000
1.000000 0.409003 0.000000
0.079835 0.441505 0.000000
0.088289 0.441840 0.000000
0.098451 0.442420 0.000000
0.118410 0.443610 0.000000
0.143526 0.445380 0.000000
0.171664 0.447974 0.000000
0.201175 0.450935 0.000000
0.232975 0.454566 0.000000
0.266087 0.458778 0.000000
0.300633 0.463325 0.000000
0.344579 0.477577 0.000000
0.392279 0.493294 0.000000
0.443366 0.509545 0.000000
0.497719 0.525963 0.000000
0.554772 0.542412 0.000000
0.610224 0.555108 0.000000
0.650019 0.548760 0.000000
0.703517 0.553613 0.000000
0.730373 0.545586 0.000000
0.755184 0.537407 0.000000
0.779355 0.529442 0.000000
0.802609 0.521202 0.000000
0.825315 0.513146 0.000000
0.847379 0.505180 0.000000
0.868589 0.497139 0.000000
0.888975 0.488899 0.000000
0.912047 0.481300 0.000000
0.933959 0.473121 0.000000
0.954070 0.464515 0.000000
0.972595 0.455299 0.000000
0.989715 0.445991 0.000000
1.000000 0.437018 0.000000
0.079286 0.483680 0.000000
0.088808 0.484047 0.000000
0.100130 0.484565 0.000000
0.121004 0.485573 0.000000
0.147250 0.487190 0.000000
0.176089 0.489143 0.000000
0.207156 0.491707 0.000000
0.239414 0.494820 0.000000
0.273320 0.498299 0.000000
0.307958 0.502251 0.000000
0.346654 0.509972 0.000000
0.393347 0.524315 0.000000
0.442573 0.539208 0.000000
0.494850 0.554589 0.000000
0.549645 0.570123 0.000000
0.606744 0.585595 0.000000
0.658991 0.594720 0.000000
0.696345 0.586114 0.000000
0.746304 0.587640 0.000000
0.771145 0.578088 0.000000
0.794247 0.568627 0.000000
0.816220 0.558709 0.000000
0.837522 0.549218 0.000000
0.858152 0.539696 0.000000
0.877958 0.530175 0.000000
0.897032 0.520775 0.000000
0.915373 0.511101 0.000000
0.934661 0.502098 0.000000
0.954498 0.493050 0.000000
0.972808 0.483558 0.000000
0.989746 0.474037 0.000000
1.000000 0.464820 0.000000
0.080903 0.523735 0.000000
0.089265 0.524010 0.000000
0.102358 0.524437 0.000000
0.123323 0.525261 0.000000
0.150057 0.526665 0.000000
0.180423 0.528466 0.000000
0.211917 0.530663 0.000000
0.244633 0.533257 0.000000
0.278691 0.536339 0.000000
0.313909 0.539727 0.000000
0.349798 0.543481 0.000000
0.393591 0.554772 0.000000
0.441535 0.568688 0.000000
0.492226 0.583215 0.000000
0.544945 0.597772 0.000000
0.599542 0.612116 0.000000
0.655879 0.626093 0.000000
0.704738 0.632074 0.000000
0.740200 0.621302 0.000000
0.786069 0.619562 0.000000
0.808377 0.608331 0.000000
0.829343 0.597040 0.000000
0.849302 0.585718 0.000000
0.868498 0.574792 0.000000
0.887022 0.563928 0.000000
0.904814 0.553124 0.000000
0.921996 0.542443 0.000000
0.938598 0.531914 0.000000
0.954925 0.521569 0.000000
0.973022 0.511833 0.000000
0.989746 0.502037 0.000000
1.000000 0.492592 0.000000
0.082948 0.562280 0.000000
0.091981 0.562585 0.000000
0.105226 0.562982 0.000000
0.126192 0.563622 0.000000
0.154147 0.564904 0.000000
0.184329 0.566461 0.000000
0.216281 0.568353 0.000000
0.249271 0.570581 0.000000
0.283330 0.573236 0.000000
0.318730 0.576287 0.000000
0.354925 0.579553 0.000000
0.393805 0.585138 0.000000
0.440681 0.598169 0.000000
0.489387 0.611505 0.000000
0.540307 0.624872 0.000000
0.592981 0.638239 0.000000
0.647211 0.651545 0.000000
0.702602 0.664424 0.000000
0.747677 0.667079 0.000000
0.780606 0.654170 0.000000
0.822049 0.648920 0.000000
0.841825 0.635920 0.000000
0.860441 0.622950 0.000000
0.878355 0.610376 0.000000
0.895567 0.597955 0.000000
0.912169 0.585870 0.000000
0.928252 0.574090 0.000000
0.943847 0.562554 0.000000
0.959014 0.551263 0.000000
0.973846 0.540246 0.000000
0.989715 0.529992 0.000000
1.000000 0.520287 0.000000
0.086244 0.599847 0.000000
0.096712 0.600092 0.000000
0.108431 0.600397 0.000000
0.129580 0.601038 0.000000
0.157870 0.602014 0.000000
0.187503 0.603418 0.000000
0.219730 0.605127 0.000000
0.253300 0.607172 0.000000
0.287663 0.609552 0.000000
0.323217 0.612177 0.000000
0.359380 0.615045 0.000000
0.396429 0.618189 0.000000
0.439399 0.627100 0.000000
0.486885 0.639368 0.000000
0.536004 0.651850 0.000000
0.586938 0.664424 0.000000
0.639094 0.676783 0.000000
0.692287 0.688869 0.000000
0.746151 0.700404 0.000000
0.787228 0.699275 0.000000
0.817136 0.684413 0.000000
0.854124 0.675593 0.000000
0.870817 0.660304 0.000000
0.887510 0.646143 0.000000
0.903593 0.632380 0.000000
0.919097 0.619043 0.000000
0.934142 0.606134 0.000000
0.948760 0.593530 0.000000
0.963043 0.581384 0.000000
0.977020 0.569543 0.000000
0.990753 0.558221 0.000000
1.000000 0.547906 0.000000
0.092042 0.636378 0.000000
0.101076 0.636591 0.000000
0.113527 0.636805 0.000000
0.133883 0.637446 0.000000
0.161776 0.638331 0.000000
0.192050 0.639521 0.000000
0.224155 0.640955 0.000000
0.257298 0.642695 0.000000
0.291875 0.644648 0.000000
0.327214 0.646937 0.000000
0.363256 0.649409 0.000000
0.400153 0.652125 0.000000
0.438270 0.655634 0.000000
0.484413 0.667079 0.000000
0.532067 0.678614 0.000000
0.581445 0.690303 0.000000
0.631708 0.701778 0.000000
0.682887 0.712917 0.000000
0.734554 0.723598 0.000000
0.786526 0.733516 0.000000
0.823087 0.728878 0.000000
0.849729 0.711513 0.000000
0.881865 0.699214 0.000000
0.895933 0.682246 0.000000
0.910948 0.667109 0.000000
0.925475 0.652491 0.000000
0.939544 0.638392 0.000000
0.953277 0.624842 0.000000
0.966705 0.611780 0.000000
0.979858 0.599268 0.000000
0.992859 0.587396 0.000000
1.000000 0.576287 0.000000
0.100008 0.671595 0.000000
0.108309 0.671748 0.000000
0.119265 0.672023 0.000000
0.139803 0.672480 0.000000
0.166720 0.673243 0.000000
0.196262 0.674281 0.000000
0.228275 0.675532 0.000000
0.261448 0.677058 0.000000
0.295659 0.678859 0.000000
0.330938 0.680781 0.000000
0.366674 0.682979 0.000000
0.403326 0.685328 0.000000
0.440375 0.687861 0.000000
0.482216 0.694606 0.000000
0.528557 0.705287 0.000000
0.576104 0.715999 0.000000
0.624811 0.726497 0.000000
0.673976 0.736660 0.000000
0.723751 0.746334 0.000000
0.773434 0.755367 0.000000
0.822934 0.763516 0.000000
0.854734 0.755062 0.000000
0.878050 0.735500 0.000000
0.905608 0.720058 0.000000
0.917540 0.701869 0.000000
0.931151 0.686091 0.000000
0.944427 0.670802 0.000000
0.957305 0.656306 0.000000
0.969940 0.642481 0.000000
0.982361 0.629206 0.000000
0.994598 0.616785 0.000000
1.000000 0.605371 0.000000
0.109621 0.705959 0.000000
0.116609 0.706111 0.000000
0.126986 0.706325 0.000000
0.147066 0.706691 0.000000
0.172854 0.707393 0.000000
0.201968 0.708217 0.000000
0.233188 0.709316 0.000000
0.265843 0.710689 0.000000
0.299870 0.712245 0.000000
0.334417 0.713924 0.000000
0.370092 0.715846 0.000000
0.406256 0.717830 0.000000
0.442969 0.720027 0.000000
0.480476 0.722255 0.000000
0.525017 0.731594 0.000000
0.571313 0.741329 0.000000
0.618311 0.750851 0.000000
0.665675 0.759976 0.000000
0.713405 0.768643 0.000000
0.761044 0.776577 0.000000
0.808255 0.783749 0.000000
0.854978 0.790066 0.000000
0.882139 0.778042 0.000000
0.902220 0.756619 0.000000
0.925902 0.738888 0.000000
0.936126 0.719692 0.000000
0.948577 0.703487 0.000000
0.960754 0.688075 0.000000
0.972656 0.673426 0.000000
0.984314 0.659571 0.000000
0.995880 0.646723 0.000000
1.000000 0.635065 0.000000
0.119417 0.739498 0.000000
0.127443 0.739590 0.000000
0.137148 0.739742 0.000000
0.155459 0.740139 0.000000
0.179599 0.740658 0.000000
0.208255 0.741421 0.000000
0.238560 0.742397 0.000000
0.270726 0.743496 0.000000
0.304356 0.744778 0.000000
0.338384 0.746242 0.000000
0.373388 0.747799 0.000000
0.409216 0.749538 0.000000
0.445441 0.751339 0.000000
0.482460 0.753201 0.000000
0.522271 0.757687 0.000000
0.566888 0.766354 0.000000
0.612177 0.774807 0.000000
0.657740 0.782864 0.000000
0.703548 0.790311 0.000000
0.749264 0.797147 0.000000
0.794583 0.803311 0.000000
0.839322 0.808743 0.000000
0.882658 0.813321 0.000000
0.905455 0.798459 0.000000
0.922911 0.775540 0.000000
0.943236 0.756008 0.000000
0.952056 0.736263 0.000000
0.963500 0.719997 0.000000
0.974731 0.704616 0.000000
0.985748 0.690272 0.000000
0.996551 0.676997 0.000000
1.000000 0.665278 0.080751
0.133394 0.771969 0.000000
0.139773 0.772061 0.000000
0.148104 0.772213 0.000000
0.165316 0.772488 0.000000
0.188602 0.772946 0.000000
0.215396 0.773617 0.000000
0.244846 0.774350 0.000000
0.276127 0.775265 0.000000
0.308904 0.776303 0.000000
0.342443 0.777493 0.000000
0.377050 0.778805 0.000000
0.412177 0.780179 0.000000
0.447883 0.781582 0.000000
0.484230 0.783078 0.000000
0.520684 0.784604 0.000000
0.562707 0.790951 0.000000
0.606348 0.798184 0.000000
0.650355 0.805051 0.000000
0.694240 0.811429 0.000000
0.738003 0.817166 0.000000
0.781521 0.822354 0.000000
0.824094 0.826841 0.000000
0.865354 0.830625 0.000000
0.906126 0.833768 0.000000
0.925383 0.816434 0.000000
0.940429 0.792782 0.000000
0.957763 0.772152 0.011597
0.965698 0.752285 0.000000
0.975982 0.736049 0.026795
0.986358 0.721218 0.090822
0.996490 0.707790 0.131441
1.000000 0.696101 0.172976
0.148745 0.803159 0.000000
0.154147 0.803250 0.000000
0.162448 0.803342 0.000000
0.177981 0.803586 0.000000
0.198978 0.803952 0.000000
0.224582 0.804440 0.000000
0.252934 0.805051 0.000000
0.283024 0.805722 0.000000
0.314702 0.806607 0.000000
0.347448 0.807462 0.000000
0.381018 0.808438 0.000000
0.415320 0.809476 0.000000
0.450355 0.810513 0.000000
0.485695 0.811612 0.000000
0.521508 0.812650 0.000000
0.558892 0.814969 0.000000
0.601038 0.821012 0.000000
0.643305 0.826688 0.000000
0.685451 0.831907 0.000000
0.727596 0.836698 0.000000
0.769131 0.840879 0.000000
0.809232 0.844419 0.000000
0.848814 0.847440 0.000000
0.887938 0.849912 0.000000
0.926268 0.851896 0.000000
0.942168 0.832700 0.000000
0.954955 0.808774 0.126131
0.969421 0.787961 0.189944
0.976806 0.768185 0.176608
0.986023 0.752468 0.189548
0.995514 0.738888 0.212375
1.000000 0.727260 0.242924
0.167361 0.832731 0.000000
0.171847 0.832792 0.000000
0.178866 0.832883 0.000000
0.192630 0.833036 0.000000
0.212589 0.833310 0.000000
0.235813 0.833677 0.000000
0.262272 0.834104 0.000000
0.290806 0.834592 0.000000
0.321508 0.835172 0.000000
0.353094 0.835752 0.000000
0.385779 0.836423 0.000000
0.419104 0.837095 0.000000
0.452857 0.837797 0.000000
0.487495 0.838468 0.000000
0.522301 0.839109 0.000000
