其他预设/【233】日式怀旧街道调色预设208款/1.3D LUT预设（视频调色-PR-AE-PS-FCPX-达芬奇用）/4.富士胶片风日式城市街拍预设 (自动曝光预设)/JA – Neon 1 (Classic Chrome) (Auto).cube
# Created by Adobe Lightroom plugin Export LUT (1.17.0)
# www.johnrellis.com/lightroom/exportlut.htm
# Preset: JA – Neon 1 (Classic Chrome) (Auto)
# Color profile: /Library/Application Support/Adobe/Color/Profiles/Recommended/AdobeRGB1998.icc
LUT_3D_SIZE 32
0.091188 0.081727 0.082094
0.094087 0.081819 0.082277
0.098146 0.081697 0.082185
0.107393 0.081361 0.082185
0.119173 0.081178 0.082063
0.133974 0.080751 0.082063
0.152010 0.080323 0.081483
0.173281 0.079652 0.081209
0.197848 0.078523 0.080507
0.225620 0.076844 0.079225
0.255863 0.074556 0.077668
0.288640 0.071473 0.075715
0.323491 0.068116 0.072297
0.359991 0.063081 0.068544
0.397925 0.057313 0.063264
0.436652 0.043000 0.054536
0.476173 0.026184 0.037629
0.516045 0.008820 0.013855
0.555810 0.000000 0.000000
0.596918 0.000000 0.000000
0.638514 0.000000 0.000000
0.679622 0.000000 0.000000
0.720211 0.000000 0.000000
0.759884 0.000000 0.000000
0.798367 0.000000 0.000000
0.835569 0.000000 0.000000
0.870939 0.000000 0.000000
0.903990 0.000000 0.000000
0.934264 0.000000 0.000000
0.961273 0.000000 0.000000
0.985199 0.000000 0.000000
1.000000 0.000000 0.000000
0.090822 0.084779 0.081849
0.094087 0.084504 0.082063
0.098482 0.084291 0.081941
0.107637 0.084291 0.081941
0.119631 0.084047 0.081819
0.134157 0.083680 0.081819
0.152377 0.083192 0.081239
0.173861 0.082795 0.080903
0.198734 0.081880 0.080171
0.226352 0.080659 0.078859
0.256809 0.078645 0.077241
0.289586 0.076387 0.075166
0.324468 0.073121 0.072114
0.361212 0.069795 0.068177
0.398932 0.064820 0.062898
0.437812 0.059663 0.053407
0.477180 0.048096 0.035035
0.516960 0.033295 0.012177
0.556725 0.015534 0.000000
0.597864 0.000000 0.000000
0.639277 0.000000 0.000000
0.680385 0.000000 0.000000
0.720882 0.000000 0.000000
0.760464 0.000000 0.000000
0.798978 0.000000 0.000000
0.836057 0.000000 0.000000
0.871275 0.000000 0.000000
0.904295 0.000000 0.000000
0.934478 0.000000 0.000000
0.961456 0.000000 0.000000
0.985321 0.000000 0.000000
1.000000 0.000000 0.000000
0.090578 0.088869 0.081788
0.094240 0.088869 0.081392
0.098573 0.088685 0.081575
0.107790 0.088380 0.081270
0.120058 0.087434 0.081514
0.134951 0.087282 0.081178
0.153170 0.087098 0.081178
0.174716 0.086671 0.080537
0.199680 0.086305 0.079713
0.227390 0.085389 0.078676
0.257939 0.084321 0.076967
0.290959 0.082918 0.074739
0.325811 0.079896 0.071687
0.362524 0.077455 0.067628
0.400427 0.074220 0.061646
0.439185 0.069886 0.051026
0.478614 0.064820 0.032624
0.518395 0.059907 0.008331
0.558160 0.047150 0.000000
0.599207 0.032898 0.000000
0.640620 0.018463 0.000000
0.681483 0.002533 0.000000
0.721889 0.000000 0.000000
0.761349 0.000000 0.000000
0.799710 0.000000 0.000000
0.836698 0.000000 0.000000
0.871855 0.000000 0.000000
0.904692 0.000000 0.000000
0.934813 0.000000 0.000000
0.961669 0.000000 0.000000
0.985443 0.000000 0.000000
1.000000 0.000000 0.000000
0.089906 0.098146 0.080934
0.093599 0.097841 0.080842
0.098329 0.097627 0.080720
0.107576 0.097383 0.080446
0.120424 0.096162 0.080385
0.135897 0.095308 0.080690
0.154849 0.095430 0.080293
0.176699 0.095674 0.079866
0.201999 0.095674 0.078920
0.229984 0.095674 0.077760
0.260624 0.095338 0.075929
0.293767 0.095003 0.073457
0.328801 0.094057 0.070100
0.365637 0.092531 0.065766
0.403449 0.090852 0.059846
0.442329 0.088533 0.047181
0.481666 0.085786 0.025940
0.521447 0.082612 0.002441
0.561181 0.079622 0.000000
0.602014 0.075929 0.000000
0.643061 0.071534 0.000000
0.683864 0.067750 0.000000
0.723995 0.063386 0.000000
0.763241 0.057557 0.000000
0.801450 0.052399 0.000000
0.838132 0.044373 0.000000
0.872984 0.036927 0.000000
0.905669 0.032868 0.000000
0.935515 0.028290 0.000000
0.962188 0.029145 0.000000
0.985809 0.029969 0.000000
1.000000 0.040040 0.000000
0.088838 0.110353 0.080262
0.092866 0.110292 0.080140
0.097658 0.110109 0.079683
0.107210 0.109834 0.079683
0.120150 0.109041 0.078920
0.136446 0.108858 0.078828
0.156405 0.108431 0.078737
0.179812 0.108583 0.078492
0.205478 0.109499 0.077394
0.233890 0.110536 0.075990
0.264744 0.111299 0.074189
0.298192 0.111940 0.071443
0.333471 0.112062 0.068025
0.370306 0.112520 0.063142
0.408240 0.112093 0.054353
0.447089 0.111543 0.037751
0.486397 0.110475 0.016754
0.526146 0.109895 0.000000
0.565667 0.108278 0.000000
0.606470 0.106813 0.000000
0.647211 0.105379 0.000000
0.687648 0.103243 0.000000
0.727291 0.102113 0.000000
0.766232 0.100343 0.000000
0.804013 0.099001 0.000000
0.840299 0.096590 0.000000
0.874846 0.095827 0.000000
0.907073 0.093843 0.000000
0.936645 0.092744 0.000000
0.962982 0.092897 0.000000
0.986358 0.092805 0.000000
1.000000 0.093843 0.000000
0.087404 0.125856 0.078859
0.091463 0.126009 0.078706
0.096620 0.126040 0.078553
0.107118 0.125887 0.078187
0.120943 0.125460 0.077668
0.136660 0.124819 0.077028
0.156802 0.125826 0.076417
0.181094 0.126711 0.075990
0.209384 0.127413 0.075257
0.239078 0.129000 0.073793
0.270634 0.131044 0.071565
0.304326 0.132815 0.068299
0.339666 0.134340 0.064271
0.376684 0.135317 0.058686
0.414862 0.136812 0.044221
0.453742 0.137148 0.024231
0.492988 0.137667 0.000946
0.532341 0.137942 0.000000
0.571923 0.137850 0.000000
0.612329 0.137911 0.000000
0.652644 0.137606 0.000000
0.692500 0.137179 0.000000
0.731777 0.136629 0.000000
0.770230 0.136416 0.000000
0.807462 0.135775 0.000000
0.843259 0.134737 0.000000
0.877317 0.134066 0.000000
0.909056 0.132631 0.000000
0.938079 0.131807 0.000000
0.964019 0.130739 0.000000
0.987060 0.130526 0.000000
1.000000 0.130892 0.000000
0.085359 0.145815 0.076722
0.089845 0.145724 0.076936
0.095644 0.146029 0.076692
0.107088 0.146151 0.076265
0.122957 0.146212 0.075593
0.139986 0.145571 0.075166
0.158328 0.144991 0.074159
0.181552 0.147280 0.072755
0.210086 0.149569 0.072023
0.242161 0.151949 0.070436
0.277836 0.153964 0.067628
0.311894 0.156649 0.064088
0.347631 0.159213 0.058625
0.384955 0.161685 0.045747
0.423102 0.163455 0.027405
0.461860 0.165072 0.006012
0.501183 0.166720 0.000000
0.540398 0.167697 0.000000
0.579797 0.168551 0.000000
0.619654 0.169100 0.000000
0.659388 0.169924 0.000000
0.698726 0.170474 0.000000
0.737362 0.170565 0.000000
0.775143 0.170474 0.000000
0.811795 0.170474 0.000000
0.846983 0.169833 0.000000
0.880339 0.169406 0.000000
0.911467 0.168368 0.000000
0.939910 0.167361 0.000000
0.965332 0.166354 0.000000
0.987945 0.164981 0.000000
1.000000 0.164248 0.000000
0.082429 0.169558 0.074159
0.087495 0.169619 0.073976
0.094087 0.169955 0.073671
0.107057 0.170230 0.073121
0.124422 0.170779 0.072572
0.143862 0.170748 0.071870
0.163668 0.170382 0.071046
0.184390 0.169802 0.070344
0.210727 0.172946 0.067842
0.242985 0.176761 0.065217
0.278843 0.180728 0.061860
0.317906 0.184146 0.054963
0.357397 0.187015 0.043244
0.394903 0.190158 0.024872
0.433173 0.192813 0.004791
0.471870 0.195224 0.000000
0.510948 0.197177 0.000000
0.550134 0.199161 0.000000
0.589197 0.200626 0.000000
0.628534 0.202121 0.000000
0.667506 0.202945 0.000000
0.706172 0.204044 0.000000
0.744076 0.204685 0.000000
0.781064 0.204715 0.000000
0.816892 0.204715 0.000000
0.851347 0.204654 0.000000
0.883909 0.203708 0.000000
0.914336 0.202670 0.000000
0.942046 0.201602 0.000000
0.966857 0.199680 0.000000
0.989014 0.198154 0.000000
1.000000 0.196445 0.000000
0.077668 0.197513 0.070588
0.083864 0.197635 0.069978
0.091463 0.197848 0.069642
0.106111 0.198306 0.069276
0.125399 0.199100 0.068086
0.147372 0.199802 0.067323
0.169833 0.199863 0.065675
0.192142 0.199374 0.064271
0.215183 0.198703 0.062837
0.243687 0.202365 0.058869
0.279667 0.208255 0.050172
0.318761 0.213321 0.036316
0.360662 0.218235 0.018280
0.404913 0.221897 0.000000
0.444892 0.225284 0.000000
0.483711 0.228214 0.000000
0.522728 0.230747 0.000000
0.561669 0.233097 0.000000
0.600305 0.234745 0.000000
0.638666 0.236149 0.000000
0.676875 0.237522 0.000000
0.714656 0.238163 0.000000
0.751766 0.239139 0.000000
0.787930 0.239445 0.000000
0.822843 0.239384 0.000000
0.856321 0.238621 0.000000
0.888060 0.237888 0.000000
0.917601 0.236698 0.000000
0.944488 0.235203 0.000000
0.968658 0.232975 0.000000
0.990204 0.230564 0.000000
1.000000 0.228275 0.000000
0.071168 0.229007 0.063569
0.078676 0.229160 0.063264
0.086732 0.229557 0.062806
0.103822 0.230320 0.061738
0.125521 0.231113 0.060670
0.149966 0.232242 0.058991
0.175937 0.233371 0.055177
0.200137 0.233066 0.051728
0.224949 0.232578 0.047547
0.250217 0.232242 0.040894
0.280339 0.235508 0.028443
0.319615 0.243168 0.009949
0.361486 0.249668 0.000000
0.405524 0.255344 0.000000
0.451240 0.260227 0.000000
0.497322 0.263890 0.000000
0.536126 0.266575 0.000000
0.574701 0.268833 0.000000
0.612634 0.270634 0.000000
0.650202 0.271885 0.000000
0.687495 0.272984 0.000000
0.724269 0.273930 0.000000
0.760403 0.274296 0.000000
0.795529 0.274418 0.000000
0.829435 0.274083 0.000000
0.862028 0.273472 0.000000
0.892699 0.272374 0.000000
0.921263 0.270542 0.000000
0.947204 0.268345 0.000000
0.970581 0.265690 0.000000
0.991547 0.262699 0.000000
1.000000 0.259617 0.000000
0.055909 0.264500 0.047272
0.067414 0.264622 0.046601
0.079713 0.264988 0.045167
0.099672 0.265812 0.042145
0.124514 0.266819 0.037659
0.151278 0.268009 0.032776
0.179660 0.269657 0.026917
0.208164 0.270695 0.018372
0.234714 0.270359 0.012909
0.261814 0.269932 0.005097
0.288945 0.269383 0.000000
0.320531 0.272496 0.000000
0.362341 0.281712 0.000000
0.406317 0.289006 0.000000
0.452033 0.295537 0.000000
0.498634 0.300908 0.000000
0.546136 0.304997 0.000000
0.589319 0.307469 0.000000
0.626246 0.308751 0.000000
0.662837 0.309483 0.000000
0.699184 0.310277 0.000000
0.734890 0.310582 0.000000
0.769924 0.310948 0.000000
0.803922 0.310338 0.000000
0.836790 0.309697 0.000000
0.868162 0.308415 0.000000
0.897734 0.306859 0.000000
0.925200 0.304479 0.000000
0.950164 0.301579 0.000000
0.972686 0.298314 0.000000
0.993011 0.294652 0.000000
1.000000 0.290990 0.000000
0.012726 0.303166 0.009247
0.041444 0.303380 0.008209
0.066102 0.303807 0.006531
0.091981 0.304570 0.004303
0.121218 0.305760 0.000000
0.151339 0.307134 0.000000
0.182284 0.308934 0.000000
0.214328 0.310887 0.000000
0.244358 0.311589 0.000000
0.272953 0.311070 0.000000
0.301762 0.310613 0.000000
0.330755 0.310002 0.000000
0.362493 0.311711 0.000000
0.407141 0.322942 0.000000
0.452583 0.330938 0.000000
0.499245 0.337621 0.000000
0.546410 0.343359 0.000000
0.593683 0.347478 0.000000
0.639216 0.348943 0.000000
0.676570 0.349279 0.000000
0.711727 0.349157 0.000000
0.746334 0.349065 0.000000
0.780148 0.348455 0.000000
0.812985 0.347448 0.000000
0.844633 0.346014 0.000000
0.874723 0.344274 0.000000
0.903105 0.341741 0.000000
0.929381 0.338659 0.000000
0.953277 0.335119 0.000000
0.974945 0.330938 0.000000
0.994537 0.326574 0.000000
1.000000 0.322087 0.000000
0.000000 0.344762 0.000000
0.000000 0.345098 0.000000
0.024048 0.345464 0.000000
0.079286 0.346197 0.000000
0.115633 0.347509 0.000000
0.149752 0.348974 0.000000
0.183810 0.350866 0.000000
0.218021 0.353246 0.000000
0.252659 0.355718 0.000000
0.283452 0.355200 0.000000
0.313909 0.354894 0.000000
0.344396 0.354070 0.000000
0.374975 0.353582 0.000000
0.405554 0.352911 0.000000
0.453254 0.366400 0.000000
0.499733 0.374731 0.000000
0.546838 0.381598 0.000000
0.593896 0.386816 0.000000
0.639185 0.389807 0.000000
0.683589 0.390723 0.000000
0.725216 0.390204 0.000000
0.758541 0.388861 0.000000
0.790982 0.387335 0.000000
0.822538 0.385534 0.000000
0.852842 0.383154 0.000000
0.881682 0.380285 0.000000
0.908782 0.377173 0.000000
0.933745 0.373266 0.000000
0.956573 0.368627 0.000000
0.977295 0.363806 0.000000
0.996124 0.358709 0.000000
1.000000 0.353216 0.000000
0.000000 0.388647 0.000000
0.000000 0.388861 0.000000
0.000000 0.389380 0.000000
0.056764 0.390112 0.000000
0.105318 0.391424 0.000000
0.145724 0.393072 0.000000
0.183200 0.394934 0.000000
0.220096 0.397345 0.000000
0.257328 0.399908 0.000000
0.292973 0.402136 0.000000
0.325078 0.401404 0.000000
0.357183 0.400793 0.000000
0.388983 0.400000 0.000000
0.420722 0.399298 0.000000
0.452430 0.398413 0.000000
0.500145 0.411780 0.000000
0.547234 0.419776 0.000000
0.593988 0.426032 0.000000
0.639185 0.429877 0.000000
0.683345 0.431952 0.000000
0.726101 0.432074 0.000000
0.767117 0.430640 0.000000
0.802365 0.427619 0.000000
0.832547 0.424750 0.000000
0.861418 0.421302 0.000000
0.888853 0.417365 0.000000
0.914519 0.412909 0.000000
0.938231 0.408118 0.000000
0.959899 0.402533 0.000000
0.979706 0.396796 0.000000
0.997772 0.390661 0.000000
1.000000 0.384466 0.000000
0.000000 0.434272 0.000000
0.000000 0.434455 0.000000
0.000000 0.434882 0.000000
0.000000 0.435737 0.000000
0.090547 0.437018 0.000000
0.138796 0.438911 0.000000
0.181125 0.440833 0.000000
0.221073 0.443091 0.000000
0.259892 0.445808 0.000000
0.299382 0.449165 0.000000
0.334966 0.449928 0.000000
0.368383 0.449134 0.000000
0.401587 0.448310 0.000000
0.434730 0.447456 0.000000
0.467597 0.446509 0.000000
0.500267 0.445594 0.000000
0.547356 0.458076 0.000000
0.593866 0.465309 0.000000
0.639002 0.469947 0.000000
0.683101 0.472755 0.000000
0.725795 0.473671 0.000000
0.766720 0.472755 0.000000
0.805447 0.469917 0.000000
0.841672 0.465156 0.000000
0.870146 0.460151 0.000000
0.896147 0.454994 0.000000
0.920378 0.449439 0.000000
0.942748 0.443397 0.000000
0.963256 0.436774 0.000000
0.982086 0.429969 0.000000
0.999390 0.422919 0.000000
1.000000 0.415778 0.000000
0.000000 0.481239 0.000000
0.000000 0.481422 0.000000
0.000000 0.481788 0.000000
0.000000 0.482795 0.000000
0.064485 0.483803 0.000000
0.128420 0.485695 0.000000
0.175601 0.487709 0.000000
0.218845 0.489998 0.000000
0.260838 0.492775 0.000000
0.302037 0.495888 0.000000
0.342931 0.499397 0.000000
0.378210 0.498817 0.000000
0.412604 0.497810 0.000000
0.446906 0.496803 0.000000
0.480873 0.495705 0.000000
0.514641 0.494575 0.000000
0.548089 0.493416 0.000000
0.593896 0.504326 0.000000
0.638849 0.509941 0.000000
0.682856 0.513359 0.000000
0.725429 0.514916 0.000000
0.766232 0.514458 0.000000
0.804807 0.512016 0.000000
0.840940 0.507652 0.000000
0.874174 0.501213 0.000000
0.903410 0.493416 0.000000
0.926177 0.486275 0.000000
0.947234 0.478950 0.000000
0.966613 0.471138 0.000000
0.984497 0.463264 0.000000
1.000000 0.455146 0.000000
1.000000 0.447059 0.000000
0.000000 0.528710 0.000000
0.000000 0.528862 0.000000
0.000000 0.529259 0.000000
0.000000 0.530083 0.000000
0.000000 0.531334 0.000000
0.111879 0.533043 0.000000
0.167514 0.535027 0.000000
0.215396 0.537285 0.000000
0.259831 0.539879 0.000000
0.302953 0.542901 0.000000
0.345495 0.546227 0.000000
0.385779 0.548486 0.000000
0.421424 0.547265 0.000000
0.456641 0.546014 0.000000
0.491554 0.544640 0.000000
0.526085 0.543328 0.000000
0.560357 0.541833 0.000000
0.594354 0.540429 0.000000
0.638697 0.549371 0.000000
0.682429 0.554101 0.000000
0.724910 0.556115 0.000000
0.765591 0.555993 0.000000
0.804105 0.553735 0.000000
0.840055 0.549584 0.000000
0.873259 0.543236 0.000000
0.903258 0.535027 0.000000
0.929931 0.524865 0.000000
0.951598 0.514885 0.000000
0.969879 0.505821 0.000000
0.986816 0.496681 0.000000
1.000000 0.487587 0.000000
1.000000 0.478492 0.000000
0.000000 0.575677 0.000000
0.000000 0.575860 0.000000
0.000000 0.576196 0.000000
0.000000 0.576959 0.000000
0.000000 0.577996 0.000000
0.087282 0.579553 0.000000
0.156680 0.581292 0.000000
0.208621 0.583337 0.000000
0.256413 0.585626 0.000000
0.301244 0.588281 0.000000
0.344884 0.591241 0.000000
0.387976 0.594385 0.000000
0.427131 0.594934 0.000000
0.463478 0.593622 0.000000
0.499123 0.592248 0.000000
0.534508 0.590814 0.000000
0.569696 0.589441 0.000000
0.604456 0.587793 0.000000
0.638880 0.586236 0.000000
0.682216 0.593652 0.000000
0.724239 0.597223 0.000000
0.764858 0.597284 0.000000
0.803311 0.595239 0.000000
0.839170 0.591089 0.000000
0.872190 0.584802 0.000000
0.902098 0.576440 0.000000
0.928618 0.566186 0.000000
0.952026 0.554192 0.000000
0.972656 0.541131 0.000000
0.989044 0.530388 0.000000
1.000000 0.520134 0.000000
1.000000 0.509941 0.000000
0.000000 0.621363 0.000000
0.000000 0.621485 0.000000
0.000000 0.621790 0.000000
0.000000 0.622400 0.000000
0.000000 0.623438 0.000000
0.030518 0.624842 0.000000
0.141054 0.626490 0.000000
0.200168 0.628199 0.000000
0.250767 0.630274 0.000000
0.297368 0.632654 0.000000
0.342565 0.635279 0.000000
0.386725 0.638025 0.000000
0.430304 0.641169 0.000000
0.467842 0.640009 0.000000
0.504387 0.638636 0.000000
0.540581 0.637079 0.000000
0.576349 0.635645 0.000000
0.611780 0.633997 0.000000
0.646906 0.632380 0.000000
0.681819 0.630732 0.000000
0.724117 0.636713 0.000000
0.763973 0.638605 0.000000
0.802365 0.636683 0.000000
0.838132 0.632471 0.000000
0.871061 0.625971 0.000000
0.900816 0.617426 0.000000
0.927276 0.606836 0.000000
0.950591 0.594537 0.000000
0.971221 0.581079 0.000000
0.989502 0.566796 0.000000
1.000000 0.552758 0.000000
1.000000 0.541558 0.000000
0.000000 0.665919 0.000000
0.000000 0.666133 0.000000
0.000000 0.666377 0.000000
0.000000 0.666957 0.000000
0.000000 0.667811 0.000000
0.000000 0.668940 0.000000
0.120882 0.670314 0.000000
0.188083 0.671962 0.000000
0.242039 0.673732 0.000000
0.291875 0.675776 0.000000
0.338323 0.678065 0.000000
0.383398 0.680507 0.000000
0.427893 0.683131 0.000000
0.469947 0.684749 0.000000
0.507286 0.683284 0.000000
0.544091 0.681697 0.000000
0.580468 0.680232 0.000000
0.616480 0.678553 0.000000
0.652064 0.676814 0.000000
0.687434 0.674983 0.000000
0.722438 0.673213 0.000000
0.763760 0.677943 0.000000
0.801297 0.678065 0.000000
0.836912 0.673762 0.000000
0.869749 0.667079 0.000000
0.899443 0.658167 0.000000
0.925780 0.647089 0.000000
0.949035 0.634516 0.000000
0.969635 0.620539 0.000000
0.987884 0.605829 0.000000
1.000000 0.590478 0.000000
1.000000 0.574762 0.000000
0.000000 0.709041 0.000000
0.000000 0.709133 0.000000
0.000000 0.709377 0.000000
0.000000 0.709865 0.000000
0.000000 0.710506 0.000000
0.000000 0.711452 0.000000
0.087373 0.712673 0.000000
0.172427 0.714107 0.000000
0.231693 0.715572 0.000000
0.284092 0.717281 0.000000
0.332219 0.719112 0.000000
0.378454 0.721218 0.000000
0.423438 0.723384 0.000000
0.467659 0.725704 0.000000
0.507774 0.725673 0.000000
0.545098 0.724117 0.000000
0.581933 0.722499 0.000000
0.618311 0.720790 0.000000
0.654353 0.718959 0.000000
0.689967 0.717067 0.000000
0.725307 0.715145 0.000000
0.760342 0.713069 0.000000
0.800900 0.716823 0.000000
0.835569 0.714870 0.000000
0.868315 0.707881 0.000000
0.897856 0.698726 0.000000
0.924132 0.687190 0.000000
0.947326 0.674098 0.000000
0.967895 0.659632 0.000000
0.986175 0.644434 0.000000
1.000000 0.628534 0.000000
1.000000 0.612329 0.000000
0.000000 0.749935 0.000000
0.000000 0.750118 0.000000
0.000000 0.750271 0.000000
0.000000 0.750668 0.000000
0.000000 0.751278 0.000000
0.000000 0.752010 0.000000
0.000000 0.752987 0.000000
0.152010 0.754116 0.000000
0.218570 0.755398 0.000000
0.274357 0.756741 0.000000
0.324041 0.758236 0.000000
0.371435 0.759792 0.000000
0.417334 0.761532 0.000000
0.461830 0.763363 0.000000
0.505608 0.765194 0.000000
0.543694 0.763821 0.000000
0.580804 0.762020 0.000000
0.617517 0.760250 0.000000
0.653803 0.758358 0.000000
0.689631 0.756374 0.000000
0.725124 0.754360 0.000000
0.760342 0.752224 0.000000
0.795224 0.749996 0.000000
0.835111 0.752956 0.000000
0.866728 0.748684 0.000000
0.896147 0.739040 0.000000
0.922332 0.727108 0.000000
0.945495 0.713436 0.000000
0.966064 0.698482 0.000000
0.984375 0.682673 0.000000
1.000000 0.666224 0.000000
1.000000 0.649500 0.000000
0.000000 0.788510 0.000000
0.000000 0.788602 0.000000
0.000000 0.788785 0.000000
0.000000 0.788998 0.000000
0.000000 0.789487 0.000000
0.000000 0.790066 0.000000
0.000000 0.790799 0.000000
0.125521 0.791714 0.000000
0.202487 0.792691 0.000000
0.262181 0.793698 0.000000
0.314153 0.794797 0.000000
0.362890 0.795926 0.000000
0.409125 0.797177 0.000000
0.454170 0.798459 0.000000
0.498177 0.799771 0.000000
0.539910 0.800290 0.000000
0.577203 0.798489 0.000000
0.614008 0.796628 0.000000
0.650385 0.794644 0.000000
0.686427 0.792538 0.000000
0.721950 0.790372 0.000000
0.757168 0.788113 0.000000
0.791989 0.785794 0.000000
0.826505 0.783322 0.000000
0.864042 0.784024 0.000000
0.894347 0.779080 0.000000
0.920348 0.766842 0.000000
0.943481 0.752560 0.000000
0.964050 0.737057 0.000000
0.982391 0.720607 0.000000
0.998871 0.703639 0.000000
1.000000 0.686397 0.000000
0.000000 0.824186 0.000000
0.000000 0.824247 0.000000
0.000000 0.824308 0.000000
0.000000 0.824552 0.000000
0.000000 0.824826 0.000000
0.000000 0.825284 0.000000
0.000000 0.825742 0.000000
0.088930 0.826383 0.000000
0.183688 0.827115 0.000000
0.248020 0.827695 0.000000
0.302220 0.828458 0.000000
0.352453 0.829191 0.000000
0.399481 0.829953 0.000000
0.444678 0.830716 0.000000
0.488716 0.831479 0.000000
0.531762 0.832212 0.000000
0.571191 0.831388 0.000000
0.608087 0.829374 0.000000
0.644373 0.827359 0.000000
0.680323 0.825132 0.000000
0.715724 0.822904 0.000000
0.750820 0.820523 0.000000
0.785519 0.818051 0.000000
0.819974 0.815427 0.000000
0.853910 0.812741 0.000000
0.888853 0.811124 0.000000
0.918395 0.805600 0.000000
0.941375 0.791501 0.000000
0.961913 0.775357 0.000000
0.980285 0.758328 0.000000
0.996796 0.740780 0.000000
1.000000 0.723018 0.000000
0.000000 0.856626 0.000000
0.000000 0.856626 0.000000
0.000000 0.856718 0.000000
0.000000 0.856809 0.000000
0.000000 0.856992 0.000000
0.000000 0.857206 0.000000
0.000000 0.857481 0.000000
0.000000 0.857816 0.000000
0.160372 0.858244 0.000000
0.230900 0.858579 0.000000
0.288396 0.858915 0.000000
0.340063 0.859220 0.000000
0.387884 0.859556 0.000000
0.433539 0.859800 0.000000
0.477546 0.860044 0.000000
0.520531 0.860197 0.000000
0.562585 0.860288 0.000000
0.599634 0.858396 0.000000
0.635859 0.856260 0.000000
0.671595 0.854002 0.000000
0.706813 0.851591 0.000000
0.741726 0.849088 0.000000
0.776242 0.846525 0.000000
0.810300 0.843809 0.000000
0.844083 0.841001 0.000000
0.877440 0.838102 0.000000
0.910552 0.835050 0.000000
0.939269 0.829099 0.000000
0.959594 0.813565 0.000000
0.978027 0.795926 0.000000
0.994598 0.777798 0.000000
1.000000 0.759426 0.000000
0.000000 0.885405 0.000000
0.000000 0.885405 0.000000
0.000000 0.885435 0.000000
0.000000 0.885496 0.000000
0.000000 0.885527 0.000000
0.000000 0.885618 0.000000
0.000000 0.885679 0.000000
0.000000 0.885740 0.000000
0.130617 0.885863 0.000000
0.211398 0.885924 0.000000
0.272984 0.885863 0.000000
0.325963 0.885801 0.000000
0.374517 0.885710 0.000000
0.420813 0.885527 0.000000
0.464881 0.885313 0.000000
0.507744 0.885008 0.000000
0.549462 0.884581 0.000000
0.589227 0.883665 0.000000
0.625238 0.881468 0.000000
0.660700 0.879179 0.000000
0.695674 0.876768 0.000000
0.730251 0.874205 0.000000
0.764431 0.871580 0.000000
0.798215 0.868833 0.000000
0.831662 0.865965 0.000000
0.864744 0.862974 0.000000
0.897490 0.859892 0.000000
0.929870 0.856687 0.000000
0.957427 0.849943 0.000000
0.975616 0.833371 0.000000
0.992248 0.814633 0.000000
1.000000 0.795682 0.000000
0.000000 0.910552 0.000000
0.000000 0.910552 0.000000
0.000000 0.910491 0.000000
0.000000 0.910491 0.000000
0.000000 0.910430 0.000000
0.000000 0.910369 0.000000
0.000000 0.910246 0.000000
0.000000 0.910155 0.000000
0.089326 0.910002 0.000000
0.189212 0.909850 0.000000
0.254612 0.909545 0.000000
0.309941 0.909178 0.000000
0.359808 0.908751 0.000000
0.406592 0.908232 0.000000
0.450721 0.907652 0.000000
0.493599 0.906950 0.000000
0.535027 0.906188 0.000000
0.575494 0.905272 0.000000
0.612970 0.903563 0.000000
0.648219 0.901244 0.000000
0.682826 0.898833 0.000000
0.717098 0.896300 0.000000
0.750912 0.893645 0.000000
0.784360 0.890898 0.000000
0.817502 0.887999 0.000000
0.850217 0.885008 0.000000
0.882628 0.881926 0.000000
0.914672 0.878721 0.000000
0.946441 0.875395 0.000000
0.973358 0.868467 0.000000
0.989776 0.851316 0.000000
1.000000 0.831785 0.000000
0.000000 0.932433 0.000000
0.000000 0.932433 0.000000
0.000000 0.932372 0.000000
0.000000 0.932311 0.000000
0.000000 0.932158 0.000000
0.000000 0.932006 0.000000
0.000000 0.931792 0.000000
0.000000 0.931518 0.000000
0.000000 0.931182 0.000000
0.162234 0.930816 0.000000
0.234989 0.930327 0.000000
0.292790 0.929747 0.000000
0.343999 0.929046 0.000000
0.391058 0.928313 0.000000
0.435645 0.927428 0.000000
