其他预设/【233】日式怀旧街道调色预设208款/1.3D LUT预设（视频调色-PR-AE-PS-FCPX-达芬奇用）/4.富士胶片风日式城市街拍预设 (自动曝光预设)/JA – Static Pop 2 (Classic Chrome) (Auto).cube
# Created by Adobe Lightroom plugin Export LUT (1.17.0)
# www.johnrellis.com/lightroom/exportlut.htm
# Preset: JA – Static Pop 2 (Classic Chrome) (Auto)
# Color profile: /Library/Application Support/Adobe/Color/Profiles/Recommended/AdobeRGB1998.icc
LUT_3D_SIZE 32
0.076265 0.078828 0.081788
0.084810 0.078798 0.081575
0.095888 0.078767 0.081239
0.121065 0.078645 0.080354
0.163607 0.078096 0.078096
0.218448 0.078004 0.073762
0.280156 0.078004 0.066377
0.344244 0.079225 0.051270
0.409583 0.081666 0.014710
0.474159 0.085298 0.000000
0.536126 0.089509 0.000000
0.593072 0.095644 0.000000
0.645258 0.102968 0.000000
0.693629 0.105257 0.000000
0.737789 0.107851 0.000000
0.777066 0.109834 0.000000
0.812528 0.111574 0.000000
0.844816 0.113405 0.000000
0.874083 0.115023 0.000000
0.901518 0.116854 0.000000
0.927459 0.118441 0.000000
0.951873 0.120241 0.000000
0.974762 0.121614 0.000000
0.996063 0.123171 0.000000
1.000000 0.124147 0.000000
1.000000 0.124819 0.000000
1.000000 0.125643 0.000000
1.000000 0.125948 0.000000
1.000000 0.121828 0.000000
1.000000 0.109560 0.000000
1.000000 0.093507 0.000000
1.000000 0.070771 0.000000
0.075319 0.084718 0.081636
0.083558 0.084749 0.081422
0.095430 0.085542 0.080720
0.120607 0.086427 0.079683
0.162997 0.088258 0.077241
0.217533 0.090791 0.072602
0.279454 0.093416 0.064790
0.343664 0.096712 0.047395
0.409003 0.100038 0.009125
0.473793 0.104067 0.000000
0.535698 0.108492 0.000000
0.592706 0.113436 0.000000
0.644923 0.117525 0.000000
0.693294 0.119326 0.000000
0.737514 0.121492 0.000000
0.776883 0.122103 0.000000
0.812314 0.123476 0.000000
0.844633 0.124208 0.000000
0.873899 0.125704 0.000000
0.901396 0.126680 0.000000
0.927337 0.127901 0.000000
0.951781 0.128969 0.000000
0.974670 0.129793 0.000000
0.996002 0.130617 0.000000
1.000000 0.131350 0.000000
1.000000 0.131777 0.000000
1.000000 0.131960 0.000000
1.000000 0.132082 0.000000
1.000000 0.128389 0.000000
1.000000 0.116976 0.000000
1.000000 0.101839 0.000000
1.000000 0.080873 0.000000
0.073701 0.092836 0.081880
0.083284 0.093263 0.081300
0.094301 0.093568 0.080629
0.119661 0.095796 0.079133
0.161990 0.100221 0.076081
0.216770 0.105715 0.070954
0.278416 0.110536 0.062409
0.342535 0.115419 0.040833
0.408209 0.119997 0.001495
0.472908 0.124666 0.000000
0.534997 0.129183 0.000000
0.592126 0.133150 0.000000
0.644404 0.134371 0.000000
0.692836 0.135683 0.000000
0.737026 0.136904 0.000000
0.776577 0.137423 0.000000
0.812070 0.137850 0.000000
0.844358 0.138369 0.000000
0.873716 0.138491 0.000000
0.901213 0.138857 0.000000
0.927214 0.139345 0.000000
0.951659 0.139742 0.000000
0.974548 0.140139 0.000000
0.995911 0.140169 0.000000
1.000000 0.140444 0.000000
1.000000 0.140139 0.000000
1.000000 0.140322 0.000000
1.000000 0.139895 0.000000
1.000000 0.136812 0.000000
1.000000 0.125887 0.000000
1.000000 0.111269 0.000000
1.000000 0.092622 0.000000
0.069978 0.111238 0.081544
0.080537 0.111543 0.080659
0.093904 0.111543 0.079957
0.117067 0.112154 0.078676
0.159121 0.120424 0.074678
0.214481 0.130495 0.067659
0.276097 0.139071 0.057038
0.340642 0.146609 0.027222
0.406317 0.152834 0.000000
0.471443 0.157778 0.000000
0.533562 0.161654 0.000000
0.590936 0.163790 0.000000
0.643183 0.165255 0.000000
0.691707 0.165621 0.000000
0.736294 0.165377 0.000000
0.775784 0.165011 0.000000
0.811429 0.164370 0.000000
0.843809 0.163546 0.000000
0.873259 0.162539 0.000000
0.900786 0.161929 0.000000
0.926848 0.161227 0.000000
0.951354 0.160494 0.000000
0.974304 0.159854 0.000000
0.995666 0.159121 0.000000
1.000000 0.158572 0.000000
1.000000 0.157504 0.000000
1.000000 0.156527 0.000000
1.000000 0.155520 0.000000
1.000000 0.153170 0.000000
1.000000 0.142489 0.000000
1.000000 0.129732 0.000000
1.000000 0.113588 0.000000
0.062348 0.137392 0.081575
0.074464 0.137819 0.079347
0.090761 0.138521 0.078767
0.117403 0.139162 0.077363
0.150759 0.141207 0.074250
0.208011 0.157259 0.065644
0.272587 0.171633 0.047852
0.337377 0.181430 0.012421
0.403540 0.189212 0.000000
0.468727 0.195407 0.000000
0.531273 0.199771 0.000000
0.588739 0.201755 0.000000
0.641474 0.202274 0.000000
0.690211 0.202365 0.000000
0.734859 0.201419 0.000000
0.774624 0.199954 0.000000
0.810422 0.197635 0.000000
0.842893 0.195773 0.000000
0.872496 0.193515 0.000000
0.900175 0.191562 0.000000
0.926299 0.189609 0.000000
0.950927 0.187778 0.000000
0.973907 0.186099 0.000000
0.995331 0.184390 0.000000
1.000000 0.182528 0.000000
1.000000 0.180667 0.000000
1.000000 0.178805 0.000000
1.000000 0.176669 0.000000
1.000000 0.174685 0.000000
1.000000 0.165408 0.000000
1.000000 0.153445 0.000000
1.000000 0.139467 0.000000
0.036286 0.172457 0.082155
0.061402 0.173098 0.076631
0.083131 0.173922 0.075959
0.116762 0.175418 0.074006
0.153353 0.175723 0.071199
0.193545 0.178622 0.065736
0.261784 0.200443 0.041016
0.330541 0.216373 0.000000
0.399268 0.228000 0.000000
0.465156 0.235294 0.000000
0.528130 0.240299 0.000000
0.586023 0.242344 0.000000
0.638941 0.242893 0.000000
0.688167 0.241886 0.000000
0.733181 0.240269 0.000000
0.773159 0.237613 0.000000
0.809140 0.234409 0.000000
0.841764 0.231388 0.000000
0.871458 0.227817 0.000000
0.899351 0.224582 0.000000
0.925597 0.221683 0.000000
0.950317 0.218418 0.000000
0.973358 0.215732 0.000000
0.994873 0.212894 0.000000
1.000000 0.210269 0.000000
1.000000 0.207492 0.000000
1.000000 0.204623 0.000000
1.000000 0.201694 0.000000
1.000000 0.198672 0.000000
1.000000 0.191135 0.000000
1.000000 0.180179 0.000000
1.000000 0.167453 0.000000
0.000000 0.215213 0.082338
0.009766 0.215793 0.073030
0.066468 0.216648 0.070375
0.111696 0.218021 0.068269
0.156191 0.219852 0.064607
0.197910 0.218875 0.059815
0.242832 0.222049 0.044678
0.317113 0.246586 0.000000
0.388586 0.263035 0.000000
0.460517 0.276463 0.000000
0.524041 0.282261 0.000000
0.582574 0.284520 0.000000
0.635981 0.284550 0.000000
0.685634 0.283268 0.000000
0.731044 0.280827 0.000000
0.771267 0.277226 0.000000
0.807492 0.273167 0.000000
0.840360 0.268589 0.000000
0.870268 0.264073 0.000000
0.898283 0.259617 0.000000
0.924681 0.255619 0.000000
0.949523 0.251347 0.000000
0.972686 0.247501 0.000000
0.994263 0.243687 0.000000
1.000000 0.240024 0.000000
1.000000 0.236210 0.000000
1.000000 0.232578 0.000000
1.000000 0.228794 0.000000
1.000000 0.224857 0.000000
1.000000 0.219028 0.000000
1.000000 0.208286 0.000000
1.000000 0.196262 0.000000
0.000000 0.263401 0.083803
0.000000 0.263981 0.072206
0.000000 0.264714 0.061402
0.099611 0.266026 0.057801
0.154543 0.268162 0.048676
0.203799 0.268437 0.036316
0.248173 0.266117 0.023163
0.295506 0.268742 0.000000
0.373236 0.293889 0.000000
0.446021 0.310185 0.000000
0.516320 0.322179 0.000000
0.578546 0.327337 0.000000
0.632624 0.327306 0.000000
0.682643 0.325566 0.000000
0.728481 0.322362 0.000000
0.769070 0.317845 0.000000
0.805570 0.312779 0.000000
0.838682 0.307042 0.000000
0.868803 0.301579 0.000000
0.897063 0.295964 0.000000
0.923613 0.290654 0.000000
0.948577 0.285649 0.000000
0.971862 0.280827 0.000000
0.993561 0.275944 0.000000
1.000000 0.271275 0.000000
1.000000 0.266697 0.000000
1.000000 0.262150 0.000000
1.000000 0.257450 0.000000
1.000000 0.252750 0.000000
1.000000 0.247898 0.000000
1.000000 0.237430 0.000000
1.000000 0.225742 0.000000
0.000000 0.315709 0.086061
0.000000 0.316075 0.071778
0.000000 0.316777 0.033814
0.072511 0.317815 0.026276
0.146609 0.319738 0.013794
0.204898 0.321996 0.000000
0.255344 0.319554 0.000000
0.301640 0.316075 0.000000
0.350744 0.317479 0.000000
0.429603 0.341955 0.000000
0.501274 0.356603 0.000000
0.567834 0.365637 0.000000
0.628687 0.370520 0.000000
0.679347 0.368414 0.000000
0.725490 0.364630 0.000000
0.766537 0.359319 0.000000
0.803372 0.353002 0.000000
0.836790 0.346563 0.000000
0.867124 0.339696 0.000000
0.895598 0.333196 0.000000
0.922362 0.327062 0.000000
0.947509 0.320836 0.000000
0.970916 0.314977 0.000000
0.992706 0.309270 0.000000
1.000000 0.303746 0.000000
1.000000 0.298100 0.000000
1.000000 0.292638 0.000000
1.000000 0.287297 0.000000
1.000000 0.281804 0.000000
1.000000 0.276371 0.000000
1.000000 0.267094 0.000000
1.000000 0.255650 0.000000
0.000000 0.370397 0.087404
0.000000 0.370642 0.071351
0.000000 0.371160 0.016480
0.000000 0.372045 0.000000
0.130373 0.373510 0.000000
0.199680 0.375525 0.000000
0.258732 0.376104 0.000000
0.310094 0.371771 0.000000
0.357275 0.367041 0.000000
0.406958 0.366796 0.000000
0.484535 0.388739 0.000000
0.552789 0.400244 0.000000
0.615259 0.406439 0.000000
0.672511 0.409277 0.000000
0.722286 0.407416 0.000000
0.763760 0.401251 0.000000
0.800961 0.394110 0.000000
0.834592 0.386389 0.000000
0.865202 0.378729 0.000000
0.893889 0.371099 0.000000
0.920928 0.363806 0.000000
0.946227 0.356847 0.000000
0.969818 0.349950 0.000000
0.991699 0.343359 0.000000
1.000000 0.336797 0.000000
1.000000 0.330297 0.000000
1.000000 0.324010 0.000000
1.000000 0.317845 0.000000
1.000000 0.311528 0.000000
1.000000 0.305211 0.000000
1.000000 0.297276 0.000000
1.000000 0.285740 0.000000
0.000000 0.425849 0.089265
0.000000 0.426093 0.071473
0.000000 0.426490 0.008240
0.000000 0.427131 0.000000
0.100343 0.428168 0.000000
0.187900 0.429725 0.000000
0.255436 0.431556 0.000000
0.313664 0.429023 0.000000
0.365423 0.423438 0.000000
0.413062 0.417243 0.000000
0.462440 0.415167 0.000000
0.536248 0.432929 0.000000
0.600244 0.441077 0.000000
0.659144 0.445014 0.000000
0.713039 0.446021 0.000000
0.760494 0.443671 0.000000
0.798184 0.435584 0.000000
0.832059 0.426947 0.000000
0.863035 0.418067 0.000000
0.892088 0.409491 0.000000
0.919341 0.401282 0.000000
0.944823 0.393256 0.000000
0.968597 0.385504 0.000000
0.990600 0.377874 0.000000
1.000000 0.370459 0.000000
1.000000 0.363104 0.000000
1.000000 0.355932 0.000000
1.000000 0.348882 0.000000
1.000000 0.341833 0.000000
1.000000 0.334844 0.000000
1.000000 0.327642 0.000000
1.000000 0.316045 0.000000
0.000000 0.480293 0.091127
0.000000 0.480507 0.072114
0.000000 0.480751 0.007050
0.000000 0.481056 0.000000
0.000000 0.481941 0.000000
0.168521 0.482795 0.000000
0.245548 0.483986 0.000000
0.311803 0.485298 0.000000
0.368231 0.479286 0.000000
0.419776 0.472541 0.000000
0.467140 0.465095 0.000000
0.515068 0.460792 0.000000
0.583856 0.473854 0.000000
0.644221 0.479408 0.000000
0.699763 0.481331 0.000000
0.748989 0.479591 0.000000
0.792508 0.475349 0.000000
0.829404 0.467872 0.000000
0.860655 0.457923 0.000000
0.890013 0.448432 0.000000
0.917540 0.439124 0.000000
0.943236 0.430243 0.000000
0.967163 0.421485 0.000000
0.989349 0.412909 0.000000
1.000000 0.404547 0.000000
1.000000 0.396368 0.000000
1.000000 0.388403 0.000000
1.000000 0.380499 0.000000
1.000000 0.372717 0.000000
1.000000 0.364935 0.000000
1.000000 0.357214 0.000000
1.000000 0.346441 0.000000
0.000000 0.531579 0.092378
0.000000 0.531762 0.074098
0.000000 0.531884 0.010010
0.000000 0.532097 0.000000
0.000000 0.532494 0.000000
0.139101 0.532982 0.000000
0.229953 0.533623 0.000000
0.301732 0.534203 0.000000
0.365087 0.532189 0.000000
0.420142 0.525261 0.000000
0.470863 0.517601 0.000000
0.517601 0.509056 0.000000
0.563684 0.502586 0.000000
0.627832 0.511833 0.000000
0.685084 0.515190 0.000000
0.736141 0.514549 0.000000
0.781308 0.510613 0.000000
0.821530 0.504906 0.000000
0.857877 0.498054 0.000000
0.887785 0.487678 0.000000
0.915557 0.477516 0.000000
0.941497 0.467536 0.000000
0.965576 0.457923 0.000000
0.987976 0.448402 0.000000
1.000000 0.439124 0.000000
1.000000 0.430091 0.000000
1.000000 0.421210 0.000000
1.000000 0.412482 0.000000
1.000000 0.403876 0.000000
1.000000 0.395331 0.000000
1.000000 0.386847 0.000000
1.000000 0.376837 0.000000
0.000000 0.579095 0.095644
0.000000 0.579187 0.076692
0.000000 0.579248 0.021515
0.000000 0.579339 0.000000
0.000000 0.579400 0.000000
0.092317 0.579553 0.000000
0.208804 0.579767 0.000000
0.287388 0.579980 0.000000
0.355932 0.580072 0.000000
0.415534 0.574884 0.000000
0.469184 0.567132 0.000000
0.518730 0.558648 0.000000
0.564416 0.549340 0.000000
0.608576 0.541070 0.000000
0.668208 0.546899 0.000000
0.722133 0.548119 0.000000
0.768887 0.544945 0.000000
0.810575 0.539513 0.000000
0.848386 0.532677 0.000000
0.883146 0.525444 0.000000
0.913359 0.516106 0.000000
0.939574 0.505211 0.000000
0.963897 0.494667 0.000000
0.986450 0.484291 0.000000
1.000000 0.474128 0.000000
1.000000 0.464118 0.000000
1.000000 0.454322 0.000000
1.000000 0.444739 0.000000
1.000000 0.435340 0.000000
1.000000 0.426123 0.000000
1.000000 0.416938 0.000000
1.000000 0.407385 0.000000
0.000000 0.623102 0.098421
0.000000 0.623133 0.082216
0.000000 0.623163 0.044526
0.000000 0.623163 0.000000
0.000000 0.623011 0.000000
0.000000 0.623041 0.000000
0.181857 0.622889 0.000000
0.269627 0.622736 0.000000
0.341863 0.622522 0.000000
0.407233 0.621515 0.000000
0.463294 0.613916 0.000000
0.515251 0.605432 0.000000
0.563409 0.596307 0.000000
0.608148 0.586542 0.000000
0.650263 0.576776 0.000000
0.705684 0.579431 0.000000
0.755276 0.578027 0.000000
0.798520 0.573144 0.000000
0.837827 0.566644 0.000000
0.874022 0.559472 0.000000
0.907164 0.551568 0.000000
0.937377 0.543297 0.000000
0.962036 0.531823 0.000000
0.984771 0.520439 0.000000
1.000000 0.509300 0.000000
1.000000 0.498482 0.000000
1.000000 0.487831 0.000000
1.000000 0.477363 0.000000
1.000000 0.467140 0.000000
1.000000 0.457160 0.000000
1.000000 0.447272 0.000000
1.000000 0.437324 0.000000
0.000000 0.664210 0.103334
0.000000 0.664179 0.088808
0.000000 0.664179 0.062867
0.000000 0.664027 0.000000
0.000000 0.663752 0.000000
0.000000 0.663569 0.000000
0.147555 0.663294 0.000000
0.248417 0.662989 0.000000
0.325628 0.662440 0.000000
0.393591 0.661891 0.000000
0.454536 0.657923 0.000000
0.508476 0.649805 0.000000
0.558618 0.640894 0.000000
0.605554 0.631281 0.000000
0.649073 0.620996 0.000000
0.689113 0.609857 0.000000
0.739101 0.608820 0.000000
0.785275 0.605676 0.000000
0.826322 0.599756 0.000000
0.864042 0.592859 0.000000
0.898558 0.585107 0.000000
0.929961 0.576684 0.000000
0.958404 0.567681 0.000000
0.982910 0.557031 0.000000
1.000000 0.544976 0.000000
1.000000 0.533165 0.000000
1.000000 0.521630 0.000000
1.000000 0.510307 0.000000
1.000000 0.499275 0.000000
1.000000 0.488441 0.000000
1.000000 0.477790 0.000000
1.000000 0.467140 0.000000
0.000000 0.701991 0.109163
0.000000 0.701991 0.096193
0.000000 0.701900 0.076387
0.000000 0.701747 0.000000
0.000000 0.701289 0.000000
0.000000 0.700923 0.000000
0.099580 0.700435 0.000000
0.224796 0.699763 0.000000
0.307042 0.698970 0.000000
0.377386 0.697993 0.000000
0.441871 0.696864 0.000000
0.498329 0.690181 0.000000
0.550134 0.681697 0.000000
0.598566 0.672511 0.000000
0.644099 0.662654 0.000000
0.686427 0.652308 0.000000
0.723934 0.639673 0.000000
0.769650 0.635828 0.000000
0.813748 0.631891 0.000000
0.853117 0.625544 0.000000
0.889097 0.618097 0.000000
0.921874 0.609766 0.000000
0.951476 0.600671 0.000000
0.978149 0.590967 0.000000
1.000000 0.580804 0.000000
1.000000 0.568200 0.000000
1.000000 0.555718 0.000000
1.000000 0.543542 0.000000
1.000000 0.531609 0.000000
1.000000 0.519951 0.000000
1.000000 0.508507 0.000000
1.000000 0.497200 0.000000
0.000000 0.735897 0.116121
0.000000 0.735805 0.105653
0.000000 0.735775 0.090028
0.000000 0.735531 0.015778
0.000000 0.735073 0.000000
0.000000 0.734463 0.000000
0.000000 0.733822 0.000000
0.198245 0.733059 0.000000
0.287266 0.732113 0.000000
0.359991 0.730983 0.000000
0.425513 0.729763 0.000000
0.485847 0.727169 0.000000
0.538933 0.719173 0.000000
0.588830 0.710628 0.000000
0.635798 0.701442 0.000000
0.679866 0.691676 0.000000
0.721431 0.681453 0.000000
0.756832 0.667811 0.000000
0.799039 0.661891 0.000000
0.841184 0.657191 0.000000
0.878813 0.650385 0.000000
0.912993 0.642329 0.000000
0.943938 0.633234 0.000000
0.971740 0.623468 0.000000
0.996674 0.613062 0.000000
1.000000 0.602289 0.000000
1.000000 0.590173 0.000000
1.000000 0.577081 0.000000
1.000000 0.564263 0.000000
1.000000 0.551690 0.000000
1.000000 0.539483 0.000000
1.000000 0.527367 0.000000
0.000000 0.767666 0.123629
0.000000 0.767575 0.115602
0.000000 0.767483 0.102358
0.000000 0.767269 0.069001
0.000000 0.766751 0.000000
0.000000 0.766049 0.000000
0.000000 0.765408 0.000000
0.169680 0.764614 0.000000
0.267033 0.763668 0.000000
0.342199 0.762539 0.000000
0.409094 0.761257 0.000000
0.471015 0.759762 0.000000
0.527031 0.754910 0.000000
0.577844 0.746944 0.000000
0.625940 0.738369 0.000000
0.671412 0.729213 0.000000
0.714473 0.719570 0.000000
0.755032 0.709438 0.000000
0.788602 0.695064 0.000000
0.827726 0.687404 0.000000
0.867643 0.681727 0.000000
0.903380 0.674250 0.000000
0.935729 0.665461 0.000000
0.964721 0.655726 0.000000
0.990753 0.645167 0.000000
1.000000 0.634089 0.000000
1.000000 0.622522 0.000000
1.000000 0.610742 0.000000
1.000000 0.597162 0.000000
1.000000 0.583734 0.000000
1.000000 0.570642 0.000000
1.000000 0.557794 0.000000
0.000000 0.798276 0.131563
0.000000 0.798215 0.125246
0.000000 0.798123 0.115450
0.000000 0.797879 0.092164
0.000000 0.797330 0.027344
0.000000 0.796506 0.000000
0.000000 0.795834 0.000000
0.137575 0.795041 0.000000
0.246555 0.794095 0.000000
0.325200 0.792935 0.000000
0.393225 0.791684 0.000000
0.455634 0.790219 0.000000
0.514580 0.788571 0.000000
0.566369 0.781613 0.000000
0.615259 0.773678 0.000000
0.661707 0.765133 0.000000
0.705928 0.756161 0.000000
0.747921 0.746670 0.000000
0.787716 0.736751 0.000000
0.819455 0.721584 0.000000
0.855558 0.712184 0.000000
0.892912 0.705379 0.000000
0.926787 0.697139 0.000000
0.957153 0.687587 0.000000
0.984314 0.677058 0.000000
1.000000 0.665797 0.000000
1.000000 0.653956 0.000000
1.000000 0.641810 0.000000
1.000000 0.629328 0.000000
1.000000 0.616052 0.000000
1.000000 0.602045 0.000000
1.000000 0.588342 0.000000
0.000000 0.827787 0.139773
0.000000 0.827726 0.134463
0.000000 0.827604 0.127169
0.000000 0.827359 0.110903
0.000000 0.826749 0.084993
0.000000 0.825803 0.037140
0.000000 0.825101 0.014343
0.098543 0.824308 0.000000
0.226780 0.823331 0.000000
0.308659 0.822202 0.000000
0.377783 0.820951 0.000000
0.440681 0.819455 0.000000
0.499672 0.817807 0.000000
0.554620 0.814542 0.000000
0.603937 0.807187 0.000000
0.651057 0.799344 0.000000
0.696101 0.790921 0.000000
0.739162 0.782101 0.000000
0.780209 0.772915 0.000000
0.819242 0.763241 0.000000
0.849271 0.747372 0.000000
0.882444 0.736263 0.000000
0.917113 0.728054 0.000000
0.948943 0.718959 0.000000
0.977386 0.708644 0.000000
1.000000 0.697414 0.000000
1.000000 0.685389 0.000000
1.000000 0.672877 0.000000
1.000000 0.659998 0.000000
1.000000 0.646906 0.000000
1.000000 0.633631 0.000000
1.000000 0.619165 0.000000
0.000000 0.856016 0.147646
0.000000 0.855955 0.143435
0.000000 0.855802 0.138064
0.000000 0.855528 0.126711
0.000000 0.854948 0.111452
0.000000 0.853941 0.098451
0.000000 0.853086 0.093202
0.022187 0.852262 0.087251
0.207553 0.851286 0.078889
0.293004 0.850156 0.068055
0.363256 0.848875 0.051209
0.426551 0.847379 0.008362
0.485512 0.845731 0.000000
0.541466 0.843900 0.000000
0.592340 0.838804 0.000000
0.639765 0.831601 0.000000
0.685237 0.823911 0.000000
0.729061 0.815732 0.000000
0.771023 0.807187 0.000000
0.811276 0.798215 0.000000
0.849729 0.788998 0.000000
0.877989 0.772305 0.000000
0.908324 0.759579 0.000000
0.940093 0.749813 0.000000
0.969940 0.739834 0.000000
0.996490 0.728756 0.000000
1.000000 0.716670 0.000000
1.000000 0.703975 0.000000
1.000000 0.690791 0.000000
1.000000 0.677180 0.000000
1.000000 0.663386 0.000000
1.000000 0.649470 0.000000
0.000000 0.882872 0.154788
0.000000 0.882811 0.151858
0.000000 0.882689 0.147890
0.000000 0.882322 0.140475
0.000000 0.881743 0.132326
0.000000 0.880705 0.129183
0.000000 0.879637 0.130343
0.000000 0.878813 0.126101
0.190036 0.877836 0.121675
0.278691 0.876707 0.115267
0.349859 0.875395 0.107912
0.413062 0.873930 0.099001
0.471626 0.872282 0.086793
0.527489 0.870451 0.070588
0.580865 0.868376 0.034028
0.628107 0.861845 0.000000
0.673793 0.854795 0.000000
0.717891 0.847318 0.000000
0.760494 0.839445 0.000000
0.801572 0.831205 0.000000
0.841062 0.822660 0.000000
0.878904 0.813779 0.000000
0.905516 0.796414 0.000000
0.933043 0.782040 0.000000
0.961852 0.770626 0.000000
0.989715 0.759792 0.000000
1.000000 0.747829 0.000000
1.000000 0.734981 0.000000
1.000000 0.721553 0.000000
1.000000 0.707607 0.000000
1.000000 0.693294 0.000000
1.000000 0.678798 0.000000
0.000000 0.908324 0.161166
0.000000 0.908232 0.159213
0.000000 0.908080 0.156466
0.000000 0.907744 0.152224
0.000000 0.907103 0.149294
0.000000 0.906065 0.152255
0.000000 0.904692 0.161898
0.000000 0.903868 0.158907
0.174929 0.902892 0.154879
0.266331 0.901762 0.150301
0.337682 0.900450 0.145022
0.400641 0.898985 0.138369
0.458930 0.897337 0.130129
0.514000 0.895506 0.120851
0.566857 0.893523 0.109194
0.616358 0.889860 0.082918
0.661891 0.883482 0.000000
0.705989 0.876707 0.000000
0.748867 0.869566 0.000000
0.790402 0.861997 0.000000
0.830625 0.854185 0.000000
0.869444 0.846067 0.000000
0.906859 0.837736 0.000000
0.931762 0.819516 0.000000
0.956634 0.803616 0.000000
0.982483 0.790524 0.000000
1.000000 0.778744 0.000000
1.000000 0.765957 0.000000
1.000000 0.752346 0.000000
1.000000 0.738125 0.000000
1.000000 0.723415 0.000000
1.000000 0.708339 0.000000
0.000000 0.932280 0.165866
0.000000 0.932158 0.164767
0.000000 0.932006 0.163363
0.000000 0.931670 0.161776
0.000000 0.930999 0.162753
0.000000 0.929900 0.170779
0.000000 0.928252 0.188815
0.000000 0.927367 0.188266
0.163149 0.926390 0.185122
0.256016 0.925231 0.181399
0.327001 0.923980 0.176516
0.389685 0.922484 0.171237
0.447150 0.920867 0.164767
0.501457 0.919036 0.157229
0.553552 0.917052 0.148501
0.603937 0.914885 0.137881
0.649836 0.910002 0.106691
0.693660 0.903899 0.016541
0.736416 0.897429 0.000000
0.778103 0.890623 0.000000
0.818692 0.883482 0.000000
0.858183 0.876097 0.000000
0.896452 0.868498 0.000000
0.933440 0.860716 0.000000
0.956756 0.841764 0.000000
0.979156 0.824399 0.000000
1.000000 0.809537 0.000000
1.000000 0.796780 0.000000
1.000000 0.783139 0.000000
1.000000 0.768704 0.000000
1.000000 0.753689 0.000000
1.000000 0.738125 0.000000
0.000000 0.954803 0.168826
0.000000 0.954681 0.168276
0.000000 0.954498 0.168063
0.000000 0.954101 0.168643
0.000000 0.953399 0.173373
0.000000 0.952270 0.185733
0.000000 0.950591 0.207523
0.000000 0.949340 0.215610
0.156252 0.948333 0.212772
0.248051 0.947234 0.209140
0.318456 0.945953 0.204868
0.379797 0.944518 0.200137
0.436347 0.942901 0.194553
0.489815 0.941100 0.188052
0.540917 0.939147 0.180606
0.590387 0.937011 0.171756
0.638056 0.934386 0.159640
0.681147 0.928923 0.124178
0.723507 0.923125 0.065187
0.765072 0.916991 0.000000
0.805753 0.910613 0.000000
0.845548 0.903929 0.000000
0.884337 0.897032 0.000000
0.922118 0.889982 0.000000
0.958770 0.882780 0.000000
0.980438 0.863096 0.000000
1.000000 0.844327 0.000000
1.000000 0.827909 0.000000
1.000000 0.813931 0.000000
1.000000 0.799374 0.000000
1.000000 0.784054 0.000000
1.000000 0.768154 0.000000
0.000000 0.975891 0.168704
0.000000 0.975769 0.168948
0.000000 0.975616 0.169375
0.000000 0.975189 0.171847
0.000000 0.974426 0.179995
0.000000 0.973236 0.196414
0.000000 0.971435 0.222599
0.000000 0.969787 0.241184
0.153719 0.968811 0.238437
0.243290 0.967742 0.235111
0.311650 0.966461 0.231357
0.371618 0.965057 0.226780
0.426734 0.963500 0.221317
0.479011 0.961730 0.215244
0.529107 0.959777 0.208469
0.577447 0.957733 0.200320
0.624598 0.955444 0.191073
0.668788 0.951873 0.171450
0.710445 0.946685 0.135439
0.751522 0.941253 0.078614
0.791989 0.935515 0.000000
0.831785 0.929564 0.000000
0.870909 0.923369 0.000000
0.909117 0.916960 0.000000
0.946471 0.910491 0.000000
0.982757 0.903899 0.000000
1.000000 0.883421 0.000000
1.000000 0.863310 0.000000
1.000000 0.845396 0.000000
1.000000 0.830106 0.000000
1.000000 0.814603 0.000000
1.000000 0.798337 0.000000
0.000000 0.995666 0.163943
0.000000 0.995575 0.164584
0.000000 0.995361 0.166110
0.000000 0.994965 0.170687
0.000000 0.994141 0.182010
0.000000 0.992889 0.202548
0.000000 0.990997 0.233036
0.000000 0.988769 0.264988
0.155062 0.987854 0.262303
0.240757 0.986786 0.259220
0.306615 0.985565 0.255283
0.364691 0.984192 0.250828
0.418280 0.982635 0.245792
0.469154 0.980926 0.240024
0.517876 0.979065 0.233127
