其他预设/【233】日式怀旧街道调色预设208款/1.3D LUT预设（视频调色-PR-AE-PS-FCPX-达芬奇用）/4.富士胶片风日式城市街拍预设 (自动曝光预设)/JA – Chrome 5 (Classic Chrome) (Auto).cube
# Created by Adobe Lightroom plugin Export LUT (1.17.0)
# www.johnrellis.com/lightroom/exportlut.htm
# Preset: JA – Chrome 5 (Classic Chrome) (Auto)
# Color profile: /Library/Application Support/Adobe/Color/Profiles/Recommended/AdobeRGB1998.icc
LUT_3D_SIZE 32
0.084840 0.084779 0.084474
0.091279 0.085237 0.084535
0.100679 0.085695 0.083894
0.118868 0.087343 0.083406
0.139101 0.089479 0.082307
0.158846 0.091890 0.081331
0.178531 0.095033 0.080110
0.198764 0.098604 0.078218
0.223087 0.103304 0.076234
0.255161 0.110384 0.072267
0.299870 0.119997 0.066163
0.357885 0.133181 0.051148
0.423041 0.149050 0.012604
0.487282 0.165652 0.000000
0.544121 0.180606 0.000000
0.594018 0.193881 0.000000
0.638331 0.205997 0.000000
0.678218 0.217136 0.000000
0.713954 0.227512 0.000000
0.747341 0.236851 0.000000
0.780026 0.246250 0.000000
0.811704 0.255558 0.000000
0.842344 0.264561 0.000000
0.871489 0.273442 0.000000
0.899046 0.281376 0.000000
0.924895 0.289403 0.000000
0.948821 0.296635 0.000000
0.970703 0.302892 0.000000
0.990661 0.308721 0.000000
1.000000 0.313725 0.000000
1.000000 0.317906 0.000000
1.000000 0.318944 0.000000
0.085084 0.091737 0.084749
0.092256 0.091768 0.084840
0.100862 0.092927 0.084169
0.119051 0.095277 0.082643
0.139467 0.096864 0.081910
0.159182 0.098787 0.080964
0.178866 0.100893 0.079469
0.199191 0.104158 0.077882
0.223697 0.108705 0.075563
0.256229 0.115602 0.072114
0.301122 0.125399 0.066224
0.359472 0.139254 0.049744
0.424414 0.154971 0.011383
0.488350 0.171115 0.000000
0.545068 0.186282 0.000000
0.594781 0.199161 0.000000
0.638911 0.211093 0.000000
0.678737 0.221622 0.000000
0.714412 0.231724 0.000000
0.747829 0.240879 0.000000
0.780423 0.250248 0.000000
0.812039 0.259251 0.000000
0.842649 0.268101 0.000000
0.871763 0.276493 0.000000
0.899260 0.284337 0.000000
0.925078 0.292302 0.000000
0.948974 0.299229 0.000000
0.970855 0.305730 0.000000
0.990723 0.311254 0.000000
1.000000 0.316014 0.000000
1.000000 0.320043 0.000000
1.000000 0.321477 0.000000
0.085359 0.101289 0.085573
0.094270 0.101350 0.084779
0.102754 0.101564 0.084474
0.119387 0.103426 0.083345
0.139925 0.105806 0.081849
0.159823 0.107027 0.080659
0.179446 0.108431 0.079530
0.199832 0.111177 0.077974
0.224369 0.115114 0.075990
0.257267 0.122042 0.072480
0.302647 0.132082 0.065980
0.361273 0.146426 0.050050
0.426307 0.162875 0.009430
0.489906 0.179110 0.000000
0.546349 0.193973 0.000000
0.595911 0.206271 0.000000
0.639857 0.217899 0.000000
0.679530 0.228428 0.000000
0.714961 0.237430 0.000000
0.748409 0.246677 0.000000
0.780911 0.255314 0.000000
0.812558 0.264073 0.000000
0.842985 0.272465 0.000000
0.872068 0.280522 0.000000
0.899596 0.288701 0.000000
0.925353 0.295964 0.000000
0.949157 0.302617 0.000000
0.970977 0.308995 0.000000
0.990845 0.314397 0.000000
1.000000 0.319127 0.000000
1.000000 0.322789 0.000000
1.000000 0.324346 0.000000
0.086427 0.119417 0.086458
0.094911 0.119051 0.086000
0.104829 0.119020 0.085389
0.121279 0.119265 0.084779
0.140200 0.119020 0.083345
0.160525 0.122255 0.081514
0.180270 0.123232 0.080140
0.200900 0.124666 0.078706
0.226139 0.128420 0.076936
0.259678 0.135317 0.073243
0.306065 0.146578 0.066102
0.365240 0.161715 0.048737
0.430274 0.178927 0.006531
0.493263 0.195132 0.000000
0.549096 0.208957 0.000000
0.598047 0.220981 0.000000
0.641749 0.231479 0.000000
0.681117 0.241398 0.000000
0.716426 0.249882 0.000000
0.749599 0.258030 0.000000
0.781979 0.266453 0.000000
0.813504 0.274357 0.000000
0.843870 0.282475 0.000000
0.872831 0.290043 0.000000
0.900206 0.297307 0.000000
0.925841 0.304204 0.000000
0.949554 0.310491 0.000000
0.971283 0.316411 0.000000
0.991058 0.321447 0.000000
1.000000 0.325597 0.000000
1.000000 0.329290 0.000000
1.000000 0.330724 0.000000
0.088685 0.138735 0.088197
0.095674 0.138582 0.087739
0.105043 0.138064 0.087221
0.121370 0.137758 0.086091
0.141634 0.138552 0.085115
0.160616 0.136873 0.083742
0.180880 0.139742 0.082063
0.202853 0.143740 0.080140
0.228916 0.147311 0.077852
0.263859 0.154971 0.074037
0.311528 0.167391 0.066377
0.371527 0.184146 0.047303
0.436378 0.202060 0.001526
0.498451 0.218387 0.000000
0.553155 0.231693 0.000000
0.601617 0.242985 0.000000
0.644617 0.252110 0.000000
0.683589 0.260960 0.000000
0.718532 0.268254 0.000000
0.751461 0.275120 0.000000
0.783719 0.282628 0.000000
0.815091 0.289769 0.000000
0.845243 0.297032 0.000000
0.873991 0.303655 0.000000
0.901244 0.310613 0.000000
0.926665 0.316564 0.000000
0.950195 0.322423 0.000000
0.971771 0.327337 0.000000
0.991394 0.331945 0.000000
1.000000 0.335760 0.000000
1.000000 0.338628 0.000000
1.000000 0.340581 0.000000
0.090852 0.157259 0.090364
0.097322 0.156985 0.090211
0.105379 0.156680 0.089754
0.120516 0.156069 0.088777
0.139681 0.156191 0.087678
0.161410 0.157565 0.086061
0.180667 0.155276 0.085298
0.202884 0.159213 0.083345
0.231418 0.167422 0.080354
0.269474 0.179110 0.075105
0.319280 0.193698 0.066285
0.379950 0.212161 0.042237
0.444251 0.230472 0.000000
0.505028 0.246464 0.000000
0.558770 0.259251 0.000000
0.606195 0.269322 0.000000
0.648646 0.277806 0.000000
0.686915 0.285161 0.000000
0.721279 0.291142 0.000000
0.754086 0.297459 0.000000
0.786038 0.303502 0.000000
0.817105 0.309270 0.000000
0.847044 0.315801 0.000000
0.875547 0.321538 0.000000
0.902495 0.327337 0.000000
0.927703 0.332738 0.000000
0.951080 0.337652 0.000000
0.972442 0.342138 0.000000
0.991882 0.345647 0.000000
1.000000 0.348791 0.000000
1.000000 0.351141 0.000000
1.000000 0.352941 0.000000
0.093538 0.175204 0.093233
0.099214 0.174990 0.093141
0.106538 0.174777 0.092683
0.120546 0.174075 0.092073
0.138766 0.173220 0.090394
0.158724 0.174441 0.089509
0.181430 0.176486 0.088106
0.202609 0.175296 0.086610
0.231266 0.183505 0.084169
0.271550 0.198703 0.078157
0.327672 0.222660 0.065064
0.390448 0.244663 0.031312
0.454108 0.263859 0.000000
0.513329 0.279759 0.000000
0.565637 0.290929 0.000000
0.611933 0.300145 0.000000
0.653346 0.306981 0.000000
0.690944 0.312932 0.000000
0.724849 0.318059 0.000000
0.757198 0.322728 0.000000
0.788907 0.327733 0.000000
0.819638 0.332921 0.000000
0.849241 0.337957 0.000000
0.877531 0.342992 0.000000
0.904173 0.347784 0.000000
0.929046 0.352087 0.000000
0.952087 0.356023 0.000000
0.973205 0.359564 0.000000
0.992432 0.362432 0.000000
1.000000 0.364752 0.000000
1.000000 0.366400 0.000000
1.000000 0.367407 0.000000
0.096468 0.193637 0.096315
0.101656 0.193637 0.095918
0.108492 0.193332 0.095766
0.121279 0.192935 0.094911
0.138521 0.192355 0.093568
0.158236 0.192294 0.092409
0.180117 0.195193 0.091157
0.205386 0.199344 0.089235
0.231327 0.201022 0.087098
0.271733 0.216831 0.080842
0.327855 0.241855 0.067475
0.395789 0.272251 0.022736
0.465919 0.301854 0.000000
0.523033 0.316381 0.000000
0.573449 0.326665 0.000000
0.618494 0.334234 0.000000
0.659022 0.340063 0.000000
0.695796 0.344427 0.000000
0.729061 0.348028 0.000000
0.761074 0.351843 0.000000
0.792325 0.355352 0.000000
0.822782 0.359289 0.000000
0.851987 0.363378 0.000000
0.879820 0.366979 0.000000
0.906126 0.370825 0.000000
0.930663 0.374365 0.000000
0.953338 0.377264 0.000000
0.974182 0.379828 0.000000
0.993103 0.381598 0.000000
1.000000 0.383062 0.000000
1.000000 0.384039 0.000000
1.000000 0.384283 0.000000
0.099245 0.216159 0.098512
0.103914 0.216159 0.098390
0.110567 0.216007 0.098207
0.123049 0.215885 0.097353
0.140139 0.215488 0.096559
0.160128 0.214939 0.094728
0.182162 0.217014 0.092836
0.207828 0.222812 0.090333
0.238102 0.230198 0.086915
0.270848 0.236454 0.082277
0.328099 0.262577 0.067781
0.395666 0.294133 0.019959
0.465278 0.324620 0.000000
0.528771 0.349615 0.000000
0.582483 0.365942 0.000000
0.626032 0.372076 0.000000
0.665614 0.376410 0.000000
0.701381 0.379065 0.000000
0.733852 0.381109 0.000000
0.765499 0.383337 0.000000
0.796323 0.385840 0.000000
0.826291 0.388495 0.000000
0.855131 0.391608 0.000000
0.882536 0.394202 0.000000
0.908354 0.396674 0.000000
0.932494 0.398932 0.000000
0.954803 0.400916 0.000000
0.975280 0.402411 0.000000
0.993866 0.403326 0.000000
1.000000 0.403784 0.000000
1.000000 0.403662 0.000000
1.000000 0.403265 0.000000
0.100160 0.245487 0.099519
0.105379 0.245457 0.099367
0.111910 0.245304 0.099214
0.125093 0.245396 0.098268
0.143221 0.245396 0.096834
0.164401 0.245121 0.094881
0.187259 0.244968 0.092622
0.214023 0.251408 0.089326
0.246098 0.261540 0.084169
0.284459 0.273930 0.076936
0.325109 0.284306 0.068116
0.395453 0.317388 0.011597
0.464393 0.348516 0.000000
0.527062 0.373388 0.000000
0.582574 0.392889 0.000000
0.632044 0.408423 0.000000
0.672938 0.415351 0.000000
0.707576 0.416205 0.000000
0.739284 0.416724 0.000000
0.770413 0.417426 0.000000
0.800839 0.418799 0.000000
0.830289 0.420294 0.000000
0.858610 0.421698 0.000000
0.885496 0.423285 0.000000
0.910857 0.424659 0.000000
0.934508 0.425879 0.000000
0.956420 0.426581 0.000000
0.976471 0.427039 0.000000
0.994690 0.426825 0.000000
1.000000 0.426337 0.000000
1.000000 0.425360 0.000000
1.000000 0.424109 0.000000
0.097353 0.283940 0.097230
0.103609 0.283940 0.097047
0.111482 0.284215 0.096223
0.126772 0.284245 0.095186
0.146944 0.284154 0.093874
0.170596 0.284489 0.091493
0.195895 0.284520 0.088869
0.223178 0.286168 0.084810
0.257481 0.298344 0.077790
0.297642 0.313146 0.067170
0.344549 0.330236 0.041505
0.388891 0.340642 0.006226
0.463020 0.373358 0.000000
0.525261 0.398474 0.000000
0.580591 0.417639 0.000000
0.629480 0.432654 0.000000
0.673976 0.444770 0.000000
0.713497 0.454719 0.000000
0.745327 0.454597 0.000000
0.775937 0.454017 0.000000
0.805814 0.453864 0.000000
0.834684 0.453864 0.000000
0.862455 0.454231 0.000000
0.888762 0.454536 0.000000
0.913603 0.454780 0.000000
0.936736 0.454505 0.000000
0.958129 0.454139 0.000000
0.977752 0.453407 0.000000
0.995605 0.452369 0.000000
1.000000 0.450629 0.000000
1.000000 0.448707 0.000000
1.000000 0.446540 0.000000
0.090059 0.331823 0.090028
0.097719 0.331975 0.089479
0.107790 0.332128 0.088838
0.126192 0.331975 0.087953
0.150179 0.332036 0.085664
0.177279 0.332189 0.082826
0.205905 0.332464 0.079011
0.235721 0.332586 0.074159
0.269322 0.338872 0.065583
0.310155 0.354223 0.043732
0.356817 0.371649 0.000000
0.409247 0.390326 0.000000
0.456855 0.400977 0.000000
0.523125 0.424353 0.000000
0.578058 0.443244 0.000000
0.626978 0.457679 0.000000
0.671321 0.469276 0.000000
0.710903 0.478431 0.000000
0.747433 0.486397 0.000000
0.781857 0.492500 0.000000
0.811124 0.490852 0.000000
0.839384 0.489540 0.000000
0.866545 0.488502 0.000000
0.892332 0.487434 0.000000
0.916533 0.486213 0.000000
0.939086 0.484779 0.000000
0.959960 0.483284 0.000000
0.979126 0.481453 0.000000
0.996521 0.479194 0.000000
1.000000 0.476478 0.000000
1.000000 0.473671 0.000000
1.000000 0.470436 0.000000
0.076051 0.383978 0.076173
0.087129 0.384009 0.075502
0.100649 0.384070 0.074617
0.123629 0.384009 0.072969
0.151736 0.384070 0.070253
0.182528 0.383856 0.066468
0.214450 0.383856 0.061128
0.247166 0.383703 0.050782
0.280583 0.383490 0.031403
0.320226 0.395178 0.000000
0.365911 0.411719 0.000000
0.415900 0.429023 0.000000
0.469337 0.446235 0.000000
0.518547 0.456397 0.000000
0.575189 0.469429 0.000000
0.623957 0.483558 0.000000
0.668391 0.494575 0.000000
0.708034 0.502861 0.000000
0.744686 0.510246 0.000000
0.780270 0.517418 0.000000
0.814328 0.524620 0.000000
0.844511 0.526970 0.000000
0.870939 0.524346 0.000000
0.896056 0.521935 0.000000
0.919677 0.519432 0.000000
0.941619 0.516716 0.000000
0.961944 0.513939 0.000000
0.980529 0.510796 0.000000
0.997467 0.507286 0.000000
1.000000 0.503532 0.000000
1.000000 0.499672 0.000000
1.000000 0.495491 0.000000
0.046235 0.435767 0.049744
0.070985 0.435462 0.048463
0.087739 0.435584 0.047120
0.116762 0.435401 0.040925
0.149935 0.435157 0.032715
0.184909 0.434730 0.021759
0.219913 0.434516 0.007294
0.255406 0.433783 0.000000
0.290959 0.433021 0.000000
0.327245 0.433417 0.000000
0.371069 0.448341 0.000000
0.418341 0.463844 0.000000
0.468696 0.479347 0.000000
0.521813 0.494820 0.000000
0.571130 0.504356 0.000000
0.620691 0.509880 0.000000
0.665064 0.520378 0.000000
0.704799 0.528191 0.000000
0.741665 0.534630 0.000000
0.777401 0.541375 0.000000
0.811704 0.547784 0.000000
0.844205 0.553979 0.000000
0.874571 0.559625 0.000000
0.899992 0.557946 0.000000
0.922881 0.553948 0.000000
0.944182 0.549828 0.000000
0.963897 0.545678 0.000000
0.981933 0.541222 0.000000
0.998383 0.536614 0.000000
1.000000 0.531823 0.000000
1.000000 0.526909 0.000000
1.000000 0.521782 0.000000
0.000000 0.482429 0.000000
0.030762 0.482338 0.000000
0.072297 0.482246 0.000000
0.108003 0.482002 0.000000
0.146242 0.481514 0.000000
0.184298 0.481056 0.000000
0.221683 0.480232 0.000000
0.258854 0.479316 0.000000
0.296330 0.478248 0.000000
0.333288 0.476936 0.000000
0.372717 0.481209 0.000000
0.417487 0.495064 0.000000
0.465095 0.509117 0.000000
0.515312 0.523278 0.000000
0.567529 0.537102 0.000000
0.616999 0.546746 0.000000
0.659907 0.546777 0.000000
0.701137 0.553735 0.000000
0.738369 0.559777 0.000000
0.774350 0.565881 0.000000
0.808865 0.571771 0.000000
0.841581 0.577356 0.000000
0.872190 0.582361 0.000000
0.900511 0.586603 0.000000
0.926116 0.589532 0.000000
0.946807 0.584100 0.000000
0.965850 0.578546 0.000000
0.983337 0.572808 0.000000
0.999329 0.567010 0.000000
1.000000 0.561120 0.000000
1.000000 0.555077 0.000000
1.000000 0.548913 0.000000
0.000000 0.523705 0.000000
0.000000 0.523613 0.000000
0.034699 0.523491 0.000000
0.097444 0.523064 0.000000
0.139986 0.522484 0.000000
0.180880 0.521874 0.000000
0.219821 0.520958 0.000000
0.258579 0.519860 0.000000
0.297307 0.518517 0.000000
0.335454 0.516838 0.000000
0.373083 0.515068 0.000000
0.414557 0.523369 0.000000
0.459602 0.536065 0.000000
0.507225 0.549035 0.000000
0.556634 0.562066 0.000000
0.607843 0.574792 0.000000
0.657496 0.584833 0.000000
0.694514 0.580346 0.000000
0.734707 0.585229 0.000000
0.770993 0.590906 0.000000
0.805783 0.596277 0.000000
0.838773 0.601251 0.000000
0.869627 0.605676 0.000000
0.898161 0.609339 0.000000
0.924193 0.612177 0.000000
0.947662 0.614008 0.000000
0.967773 0.612329 0.000000
0.984680 0.605371 0.000000
1.000000 0.598260 0.000000
1.000000 0.591089 0.000000
1.000000 0.583978 0.000000
1.000000 0.576806 0.000000
0.000000 0.560388 0.000000
0.000000 0.560235 0.000000
0.000000 0.560021 0.000000
0.083101 0.559686 0.000000
0.132052 0.559167 0.000000
0.175021 0.558434 0.000000
0.216434 0.557336 0.000000
0.256443 0.556054 0.000000
0.295781 0.554528 0.000000
0.334295 0.552880 0.000000
0.372442 0.550866 0.000000
0.410071 0.548821 0.000000
0.453376 0.560723 0.000000
0.498268 0.572625 0.000000
0.545312 0.584833 0.000000
0.593866 0.596918 0.000000
0.643763 0.608637 0.000000
0.693599 0.619135 0.000000
0.726680 0.612085 0.000000
0.767330 0.616297 0.000000
0.802426 0.621241 0.000000
0.835752 0.625727 0.000000
0.866819 0.629603 0.000000
0.895628 0.632715 0.000000
0.921904 0.634943 0.000000
0.945525 0.636194 0.000000
0.966613 0.636591 0.000000
0.985260 0.636103 0.000000
1.000000 0.630335 0.000000
1.000000 0.622034 0.000000
1.000000 0.613794 0.000000
1.000000 0.605554 0.000000
0.000000 0.593408 0.000000
0.000000 0.593256 0.000000
0.000000 0.593042 0.000000
0.065217 0.592676 0.000000
0.123293 0.592035 0.000000
0.169009 0.591272 0.000000
0.211643 0.590112 0.000000
0.252232 0.588922 0.000000
0.292180 0.587366 0.000000
0.331060 0.585687 0.000000
0.369451 0.583764 0.000000
0.407599 0.581537 0.000000
0.446571 0.583551 0.000000
0.489693 0.594965 0.000000
0.534569 0.606531 0.000000
0.581140 0.618006 0.000000
0.628595 0.629267 0.000000
0.677241 0.640284 0.000000
0.726894 0.651240 0.000000
0.758206 0.643275 0.000000
0.798734 0.646540 0.000000
0.832364 0.650568 0.000000
0.863890 0.653956 0.000000
0.892912 0.656580 0.000000
0.919402 0.658198 0.000000
0.943297 0.658961 0.000000
0.964569 0.658747 0.000000
0.983368 0.657588 0.000000
0.999969 0.655695 0.000000
1.000000 0.653193 0.000000
1.000000 0.644251 0.000000
1.000000 0.634943 0.000000
0.000000 0.624384 0.000000
0.000000 0.624262 0.000000
0.000000 0.624018 0.000000
0.026856 0.623713 0.000000
0.112581 0.623194 0.000000
0.161227 0.622370 0.000000
0.205264 0.621454 0.000000
0.247318 0.620142 0.000000
0.287602 0.618799 0.000000
0.326818 0.617090 0.000000
0.365820 0.615167 0.000000
0.403784 0.613184 0.000000
0.441688 0.610895 0.000000
0.481758 0.616876 0.000000
0.524773 0.627741 0.000000
0.569238 0.638575 0.000000
0.615015 0.649409 0.000000
0.661860 0.660365 0.000000
0.709834 0.671290 0.000000
0.758663 0.682063 0.000000
0.788632 0.673762 0.000000
0.828763 0.675776 0.000000
0.860594 0.678767 0.000000
0.889952 0.680903 0.000000
0.916747 0.682002 0.000000
0.940856 0.682185 0.000000
0.962371 0.681392 0.000000
0.981353 0.679652 0.000000
0.998138 0.677119 0.000000
1.000000 0.673976 0.000000
1.000000 0.670375 0.000000
1.000000 0.665003 0.000000
0.000000 0.654292 0.000000
0.000000 0.654200 0.000000
0.000000 0.653986 0.000000
0.000000 0.653651 0.000000
0.100465 0.653132 0.000000
0.153811 0.652399 0.000000
0.199496 0.651423 0.000000
0.241520 0.650263 0.000000
0.282017 0.648951 0.000000
0.322148 0.647333 0.000000
0.361151 0.645563 0.000000
0.399451 0.643549 0.000000
0.437476 0.641352 0.000000
0.474800 0.638972 0.000000
0.515892 0.648585 0.000000
0.558770 0.659022 0.000000
0.602777 0.669642 0.000000
0.648188 0.680415 0.000000
0.694575 0.691127 0.000000
0.741695 0.701747 0.000000
0.789181 0.712093 0.000000
0.817777 0.703304 0.000000
0.857053 0.703853 0.000000
0.886778 0.705501 0.000000
0.913878 0.706233 0.000000
0.938262 0.705867 0.000000
0.960021 0.704494 0.000000
0.979217 0.702144 0.000000
0.996155 0.699092 0.000000
1.000000 0.695399 0.000000
1.000000 0.691188 0.000000
1.000000 0.686580 0.000000
0.000000 0.683009 0.000000
0.000000 0.682887 0.000000
0.000000 0.682734 0.000000
0.000000 0.682460 0.000000
0.086458 0.681910 0.000000
0.145052 0.681239 0.000000
0.192660 0.680323 0.000000
0.235355 0.679286 0.000000
0.277165 0.677974 0.000000
0.316991 0.676509 0.000000
0.356268 0.674800 0.000000
0.394476 0.672969 0.000000
0.432532 0.670863 0.000000
0.470192 0.668574 0.000000
0.508141 0.669490 0.000000
0.549493 0.679652 0.000000
0.592248 0.690059 0.000000
0.636103 0.700557 0.000000
0.680903 0.711025 0.000000
0.726406 0.721340 0.000000
0.772396 0.731441 0.000000
0.818509 0.741146 0.000000
0.845579 0.731807 0.000000
0.883055 0.730617 0.000000
0.910826 0.730678 0.000000
0.935515 0.729885 0.000000
0.957519 0.727962 0.000000
0.976928 0.725093 0.000000
0.994049 0.721462 0.000000
1.000000 0.717250 0.000000
1.000000 0.712490 0.000000
1.000000 0.707332 0.000000
0.000000 0.711391 0.000000
0.000000 0.711299 0.000000
0.000000 0.711147 0.000000
0.000000 0.710872 0.000000
0.072145 0.710414 0.000000
0.137179 0.709743 0.000000
0.185763 0.708980 0.000000
0.229892 0.707942 0.000000
0.271397 0.706783 0.000000
0.311925 0.705379 0.000000
0.351202 0.703853 0.000000
0.389776 0.702174 0.000000
0.427771 0.700282 0.000000
0.465553 0.698177 0.000000
0.502647 0.695949 0.000000
0.541558 0.700649 0.000000
0.582849 0.710750 0.000000
0.625391 0.720943 0.000000
0.668696 0.731106 0.000000
0.712764 0.741085 0.000000
0.757137 0.750759 0.000000
0.801694 0.760098 0.000000
0.846128 0.768978 0.000000
0.872007 0.759426 0.000000
0.906340 0.756222 0.000000
0.932586 0.754177 0.000000
0.954864 0.751766 0.000000
0.974517 0.748348 0.000000
0.991791 0.744198 0.000000
1.000000 0.739437 0.000000
1.000000 0.734218 0.000000
1.000000 0.728603 0.000000
0.000000 0.739986 0.000000
0.000000 0.739864 0.000000
0.000000 0.739773 0.000000
0.000000 0.739467 0.000000
0.049165 0.739010 0.000000
0.128725 0.738399 0.000000
0.178897 0.737728 0.000000
0.224186 0.736782 0.000000
0.266453 0.735744 0.000000
0.307164 0.734463 0.000000
0.346685 0.733089 0.000000
0.385321 0.731502 0.000000
0.423438 0.729732 0.000000
0.461128 0.727871 0.000000
0.498360 0.725765 0.000000
0.535180 0.723598 0.000000
0.574914 0.731960 0.000000
0.616236 0.741726 0.000000
0.658198 0.751431 0.000000
0.700649 0.760983 0.000000
0.743618 0.770260 0.000000
0.786557 0.779080 0.000000
0.829496 0.787442 0.000000
0.871946 0.795254 0.000000
0.897459 0.786343 0.000000
0.927550 0.780240 0.000000
0.952026 0.775814 0.000000
0.971923 0.771939 0.000000
0.989410 0.767269 0.000000
1.000000 0.761990 0.000000
1.000000 0.756283 0.000000
1.000000 0.750240 0.000000
0.000000 0.768673 0.000000
0.000000 0.768612 0.000000
0.000000 0.768429 0.000000
0.000000 0.768215 0.000000
0.013031 0.767819 0.000000
0.120424 0.767300 0.000000
0.173495 0.766598 0.000000
0.219242 0.765805 0.000000
0.261784 0.764797 0.000000
0.302495 0.763668 0.000000
0.342565 0.762356 0.000000
0.380987 0.760952 0.000000
0.419165 0.759396 0.000000
0.457008 0.757595 0.000000
0.494331 0.755703 0.000000
0.531182 0.753658 0.000000
0.568383 0.753811 0.000000
0.608179 0.763058 0.000000
0.648951 0.772305 0.000000
0.690028 0.781277 0.000000
0.731472 0.789975 0.000000
0.772946 0.798245 0.000000
0.814328 0.805997 0.000000
0.855375 0.813230 0.000000
0.895689 0.819821 0.000000
0.920562 0.811307 0.000000
0.946746 0.802396 0.000000
0.969177 0.795712 0.000000
0.986908 0.790524 0.000000
1.000000 0.784756 0.000000
1.000000 0.778653 0.000000
1.000000 0.772213 0.000000
0.000000 0.797391 0.000000
0.000000 0.797299 0.000000
0.000000 0.797208 0.000000
0.000000 0.796994 0.000000
0.000000 0.796628 0.000000
0.112886 0.796170 0.000000
0.168368 0.795560 0.000000
0.214694 0.794797 0.000000
0.257939 0.793912 0.000000
0.298955 0.792844 0.000000
0.338231 0.791745 0.000000
0.377386 0.790372 0.000000
0.415656 0.788937 0.000000
0.453346 0.787381 0.000000
0.490394 0.785641 0.000000
0.527611 0.783780 0.000000
0.564111 0.781796 0.000000
0.601770 0.785275 0.000000
0.641199 0.793790 0.000000
0.680812 0.802121 0.000000
0.720882 0.810086 0.000000
0.760891 0.817685 0.000000
0.800717 0.824796 0.000000
0.840208 0.831327 0.000000
0.879118 0.837247 0.000000
0.917266 0.842496 0.000000
0.941344 0.834134 0.000000
0.963775 0.822873 0.000000
0.984253 0.813962 0.000000
1.000000 0.807767 0.000000
1.000000 0.801144 0.000000
1.000000 0.794339 0.000000
0.000000 0.826078 0.000000
0.000000 0.826017 0.000000
0.000000 0.825925 0.000000
0.000000 0.825711 0.000000
0.000000 0.825376 0.000000
0.109529 0.824979 0.000000
0.165743 0.824430 0.000000
0.211734 0.823758 0.000000
0.254765 0.822965 0.000000
0.295598 0.821988 0.000000
0.335088 0.820951 0.000000
0.374151 0.819791 0.000000
0.412116 0.818479 0.000000
0.449989 0.817014 0.000000
0.487160 0.815457 0.000000
0.524071 0.813809 0.000000
0.560662 0.811978 0.000000
0.596887 0.810086 0.000000
0.634730 0.816159 0.000000
0.673121 0.823667 0.000000
0.711696 0.830869 0.000000
0.750362 0.837613 0.000000
0.788724 0.843900 0.000000
0.826688 0.849638 0.000000
0.864164 0.854734 0.000000
0.900847 0.859281 0.000000
0.936522 0.863188 0.000000
0.960021 0.855253 0.000000
0.978820 0.841764 0.000000
0.997528 0.830777 0.000000
1.000000 0.823819 0.000000
1.000000 0.816648 0.000000
0.000000 0.854551 0.000000
0.000000 0.854490 0.000000
0.000000 0.854398 0.000000
0.000000 0.854246 0.000000
0.000000 0.853941 0.000000
0.111086 0.853544 0.000000
0.165713 0.853056 0.000000
0.211490 0.852445 0.000000
0.253666 0.851743 0.000000
0.294102 0.850889 0.000000
0.333257 0.849943 0.000000
0.371801 0.848905 0.000000
0.409522 0.847715 0.000000
0.447059 0.846403 0.000000
0.484260 0.844968 0.000000
0.520958 0.843442 0.000000
0.557397 0.841825 0.000000
0.593561 0.840116 0.000000
0.629664 0.839506 0.000000
0.666835 0.846036 0.000000
0.704005 0.852232 0.000000
0.741176 0.858061 0.000000
0.778103 0.863401 0.000000
0.814664 0.868223 0.000000
0.850584 0.872465 0.000000
0.885801 0.876127 0.000000
0.920226 0.879240 0.000000
0.953643 0.881834 0.000000
0.976440 0.874327 0.000000
0.992218 0.859098 0.000000
1.000000 0.846464 0.000000
1.000000 0.838895 0.000000
0.000000 0.882475 0.000000
0.000000 0.882383 0.000000
0.000000 0.882322 0.000000
0.000000 0.882170 0.000000
0.030243 0.881926 0.000000
0.120699 0.881559 0.000000
0.170413 0.881132 0.000000
0.214054 0.880583 0.000000
0.255100 0.879942 0.000000
0.294469 0.879179 0.000000
0.332921 0.878355 0.000000
0.370764 0.877379 0.000000
0.408057 0.876341 0.000000
0.445197 0.875090 0.000000
0.481910 0.873838 0.000000
