其他预设/【233】日式怀旧街道调色预设208款/1.3D LUT预设（视频调色-PR-AE-PS-FCPX-达芬奇用）/4.富士胶片风日式城市街拍预设 (自动曝光预设)/JA – Shaded Light 2 (Classic Chrome) (Auto).cube
# Created by Adobe Lightroom plugin Export LUT (1.17.0)
# www.johnrellis.com/lightroom/exportlut.htm
# Preset: JA – Shaded Light 2 (Classic Chrome) (Auto)
# Color profile: /Library/Application Support/Adobe/Color/Profiles/Recommended/AdobeRGB1998.icc
LUT_3D_SIZE 32
0.093874 0.090883 0.085451
0.096437 0.090730 0.085389
0.100069 0.090669 0.085573
0.108217 0.090852 0.085573
0.119173 0.090547 0.085786
0.132448 0.090547 0.085817
0.149233 0.089998 0.085664
0.169986 0.089204 0.085481
0.194644 0.088075 0.084871
0.222782 0.086030 0.084016
0.254124 0.083253 0.082856
0.288273 0.079011 0.081025
0.324376 0.073762 0.078248
0.361608 0.066102 0.074952
0.398993 0.054475 0.071015
0.435492 0.030793 0.065736
0.470314 0.001343 0.060334
0.502678 0.000000 0.050355
0.532128 0.000000 0.037598
0.560357 0.000000 0.024384
0.588251 0.000000 0.010010
0.615778 0.000000 0.000000
0.643885 0.000000 0.000000
0.673610 0.000000 0.000000
0.705959 0.000000 0.000000
0.742306 0.000000 0.000000
0.782681 0.000000 0.000000
0.825834 0.000000 0.000000
0.870024 0.000000 0.000000
0.913390 0.000000 0.000000
0.953429 0.000000 0.000000
0.987793 0.000000 0.000000
0.093782 0.093233 0.085817
0.096315 0.093385 0.085725
0.100252 0.093538 0.085603
0.108431 0.093416 0.085634
0.119356 0.093446 0.085542
0.132815 0.093385 0.085847
0.149905 0.092744 0.085664
0.170687 0.092500 0.085420
0.195651 0.091249 0.084810
0.223972 0.089754 0.083894
0.255436 0.087251 0.082704
0.289616 0.083742 0.080781
0.325780 0.079042 0.077943
0.363073 0.072938 0.074525
0.400366 0.064698 0.070192
0.436866 0.049805 0.065187
0.471504 0.025177 0.059632
0.503716 0.000000 0.049073
0.533043 0.000000 0.036072
0.561242 0.000000 0.022766
0.589044 0.000000 0.009491
0.616541 0.000000 0.000000
0.644617 0.000000 0.000000
0.674311 0.000000 0.000000
0.706722 0.000000 0.000000
0.743069 0.000000 0.000000
0.783444 0.000000 0.000000
0.826505 0.000000 0.000000
0.870634 0.000000 0.000000
0.913878 0.000000 0.000000
0.953796 0.000000 0.000000
0.988037 0.000000 0.000000
0.093904 0.096284 0.086122
0.096437 0.096437 0.086030
0.100282 0.097169 0.085847
0.108431 0.097322 0.085847
0.119631 0.096986 0.085756
0.133516 0.096864 0.085786
0.150668 0.096468 0.085878
0.171786 0.096345 0.085603
0.196811 0.095918 0.084901
0.225254 0.094911 0.083925
0.257023 0.092927 0.082338
0.291386 0.090303 0.080323
0.327581 0.086427 0.077699
0.364935 0.081392 0.074159
0.402136 0.074861 0.069703
0.438514 0.065980 0.064668
0.473152 0.053834 0.058503
0.505150 0.030182 0.047822
0.534356 0.002319 0.034516
0.562463 0.000000 0.021210
0.590173 0.000000 0.006867
0.617578 0.000000 0.000000
0.645624 0.000000 0.000000
0.675288 0.000000 0.000000
0.707729 0.000000 0.000000
0.744167 0.000000 0.000000
0.784482 0.000000 0.000000
0.827451 0.000000 0.000000
0.871489 0.000000 0.000000
0.914549 0.000000 0.000000
0.954284 0.000000 0.000000
0.988342 0.000000 0.000000
0.094484 0.103304 0.087160
0.096925 0.103426 0.087343
0.100282 0.103426 0.087251
0.107820 0.104952 0.086275
0.119539 0.105074 0.086122
0.134676 0.104921 0.086091
0.152407 0.104891 0.085847
0.173983 0.105318 0.085451
0.199710 0.105318 0.084627
0.228580 0.105074 0.083497
0.260594 0.104219 0.081727
0.295232 0.102754 0.079500
0.331609 0.100587 0.076661
0.368963 0.097414 0.072847
0.406195 0.092958 0.068055
0.442359 0.087343 0.062623
0.476661 0.080385 0.054688
0.508263 0.072511 0.043122
0.537163 0.063172 0.029480
0.565057 0.045808 0.016388
0.592554 0.019989 0.003082
0.619806 0.000000 0.000000
0.647822 0.000000 0.000000
0.677455 0.000000 0.000000
0.710018 0.000000 0.000000
0.746426 0.000000 0.000000
0.786679 0.000000 0.000000
0.829526 0.000000 0.000000
0.873259 0.000000 0.000000
0.915953 0.000000 0.000000
0.955322 0.000000 0.000000
0.989014 0.000000 0.000000
0.095186 0.112093 0.088502
0.097627 0.112215 0.088716
0.100557 0.112459 0.088869
0.106996 0.112886 0.088899
0.118379 0.115572 0.087343
0.134035 0.116701 0.086580
0.154086 0.117678 0.085786
0.177951 0.118685 0.085176
0.204257 0.119814 0.084077
0.233799 0.120821 0.082704
0.266300 0.121035 0.080659
0.301396 0.121126 0.078004
0.338048 0.120241 0.074464
0.375463 0.118898 0.070588
0.412360 0.116243 0.065400
0.448188 0.112947 0.059449
0.482033 0.108125 0.048615
0.513085 0.103243 0.035004
0.541527 0.096803 0.021729
0.569116 0.090303 0.009644
0.596246 0.082643 0.000000
0.623346 0.073793 0.000000
0.651240 0.063172 0.000000
0.680934 0.041749 0.000000
0.713497 0.004547 0.000000
0.750088 0.000000 0.000000
0.790219 0.000000 0.000000
0.832761 0.000000 0.000000
0.876066 0.000000 0.000000
0.918212 0.000000 0.000000
0.956939 0.000000 0.000000
0.990021 0.000000 0.000000
0.095949 0.122591 0.090333
0.097780 0.122988 0.089967
0.100710 0.123232 0.090120
0.107118 0.123384 0.090455
0.116976 0.125216 0.089906
0.132509 0.129671 0.087617
0.152743 0.132662 0.086549
0.178592 0.135897 0.084932
0.209842 0.139101 0.083070
0.240879 0.140963 0.081300
0.274174 0.142763 0.078401
0.309758 0.143923 0.075654
0.346593 0.144503 0.071473
0.383978 0.144259 0.066560
0.420661 0.142977 0.060578
0.456092 0.140871 0.051453
0.489174 0.137667 0.038575
0.519432 0.133730 0.023713
0.547295 0.129061 0.011688
0.574456 0.124056 0.000000
0.601190 0.118654 0.000000
0.628016 0.112703 0.000000
0.655818 0.106416 0.000000
0.685603 0.099489 0.000000
0.718318 0.091218 0.000000
0.754910 0.080964 0.000000
0.795010 0.066987 0.000000
0.837095 0.037324 0.000000
0.879789 0.000000 0.000000
0.921233 0.000000 0.000000
0.959106 0.000000 0.000000
0.991394 0.000000 0.000000
0.095918 0.135561 0.092012
0.097719 0.136110 0.091615
0.100404 0.136538 0.091188
0.107057 0.137026 0.091463
0.117220 0.137667 0.091859
0.130892 0.141756 0.090517
0.151369 0.148318 0.087495
0.177005 0.153964 0.085176
0.208133 0.159396 0.082918
0.244663 0.164645 0.079286
0.284184 0.168917 0.075227
0.320226 0.171176 0.071321
0.357397 0.172671 0.066651
0.394690 0.173342 0.060731
0.431128 0.172732 0.050355
0.465766 0.171115 0.036927
0.497993 0.168643 0.022583
0.527245 0.165103 0.009430
0.554498 0.161013 0.000000
0.581140 0.156680 0.000000
0.607416 0.152102 0.000000
0.633967 0.147372 0.000000
0.661707 0.142824 0.000000
0.691493 0.137850 0.000000
0.724422 0.132692 0.000000
0.761135 0.127169 0.000000
0.800961 0.120699 0.000000
0.842527 0.113405 0.000000
0.884459 0.104677 0.000000
0.924895 0.095033 0.000000
0.961730 0.084993 0.000000
0.993042 0.076875 0.000000
0.095308 0.151644 0.093782
0.097139 0.152285 0.093141
0.099245 0.153048 0.092134
0.106508 0.153719 0.092378
0.117128 0.154696 0.092683
0.130800 0.156252 0.092744
0.149599 0.163241 0.090242
0.175540 0.172244 0.086397
0.206210 0.180331 0.082979
0.242588 0.187839 0.078706
0.283879 0.195224 0.073091
0.329168 0.201816 0.065675
0.370397 0.205020 0.057862
0.407416 0.206058 0.046235
0.443366 0.205692 0.030396
0.477089 0.204196 0.014801
0.508141 0.201541 0.002319
0.536461 0.197940 0.000000
0.563043 0.193912 0.000000
0.589044 0.189609 0.000000
0.614801 0.185306 0.000000
0.641138 0.181216 0.000000
0.668849 0.177157 0.000000
0.698787 0.173434 0.000000
0.731899 0.169711 0.000000
0.768704 0.166232 0.000000
0.808103 0.162509 0.000000
0.849027 0.158480 0.000000
0.890013 0.153933 0.000000
0.929259 0.149081 0.000000
0.964782 0.144350 0.000000
0.994965 0.140047 0.000000
0.094026 0.171145 0.095735
0.095460 0.172000 0.095033
0.097871 0.173068 0.093751
0.105013 0.173953 0.093141
0.116915 0.175387 0.093294
0.131594 0.177005 0.093538
0.149294 0.180575 0.092927
0.173373 0.189975 0.089052
0.204410 0.201053 0.083680
0.239750 0.211246 0.078340
0.281163 0.221134 0.071687
0.326299 0.230045 0.062470
0.373968 0.237613 0.043915
0.422156 0.242924 0.015503
0.457252 0.242252 0.001862
0.489876 0.240269 0.000000
0.519646 0.236851 0.000000
0.547112 0.232700 0.000000
0.572869 0.228122 0.000000
0.598108 0.223545 0.000000
0.623438 0.219303 0.000000
0.649622 0.215183 0.000000
0.677363 0.211490 0.000000
0.707485 0.208499 0.000000
0.740932 0.205905 0.000000
0.777554 0.203311 0.000000
0.816526 0.201236 0.000000
0.856535 0.198795 0.000000
0.896330 0.196139 0.000000
0.934203 0.193210 0.000000
0.968231 0.189883 0.000000
0.997131 0.187137 0.000000
0.091310 0.193851 0.097658
0.092836 0.194736 0.096712
0.095216 0.195895 0.095399
0.101991 0.197299 0.093629
0.115511 0.198642 0.093721
0.131777 0.200473 0.093812
0.150423 0.202884 0.094087
0.172824 0.209445 0.091829
0.201785 0.220706 0.086763
0.237430 0.233951 0.079255
0.277104 0.245914 0.071138
0.323095 0.258183 0.059815
0.370550 0.267765 0.034180
0.418555 0.274998 0.002991
0.465064 0.279393 0.000000
0.503716 0.279088 0.000000
0.532311 0.274601 0.000000
0.558801 0.269383 0.000000
0.583764 0.264073 0.000000
0.608240 0.259068 0.000000
0.633326 0.254398 0.000000
0.659388 0.250248 0.000000
0.687251 0.246647 0.000000
0.717678 0.243961 0.000000
0.751339 0.241855 0.000000
0.787778 0.240299 0.000000
0.826047 0.238987 0.000000
0.865019 0.237491 0.000000
0.903410 0.235843 0.000000
0.939666 0.233524 0.000000
0.972015 0.231205 0.000000
0.999451 0.228794 0.000000
0.086824 0.218845 0.099733
0.088350 0.219821 0.098756
0.091188 0.221012 0.097169
0.097139 0.222934 0.093751
0.112581 0.224308 0.093782
0.130709 0.226352 0.093690
0.151034 0.228794 0.094087
0.173251 0.231815 0.094087
0.200443 0.241886 0.089845
0.234134 0.255344 0.082673
0.274357 0.270695 0.071839
0.317357 0.283970 0.059297
0.366583 0.297704 0.026642
0.414618 0.306767 0.000000
0.461158 0.312718 0.000000
0.504082 0.315007 0.000000
0.543114 0.313970 0.000000
0.571496 0.308690 0.000000
0.595575 0.302037 0.000000
0.619623 0.296086 0.000000
0.644404 0.290898 0.000000
0.670497 0.286473 0.000000
0.698604 0.283055 0.000000
0.729427 0.280552 0.000000
0.763210 0.278935 0.000000
0.799191 0.277714 0.000000
0.836576 0.276860 0.000000
0.874266 0.275761 0.000000
0.911070 0.274449 0.000000
0.945495 0.272770 0.000000
0.976013 0.270420 0.000000
1.000000 0.268101 0.000000
0.080415 0.245701 0.101839
0.082399 0.246616 0.100862
0.085084 0.247959 0.099031
0.090425 0.250401 0.093965
0.107790 0.251896 0.093599
0.127962 0.253941 0.093416
0.150393 0.256687 0.093812
0.174136 0.259770 0.093874
0.199863 0.264317 0.093416
0.231815 0.277836 0.086305
0.269780 0.293065 0.076265
0.313787 0.309880 0.060792
0.359228 0.323796 0.026154
0.410132 0.338201 0.000000
0.456672 0.345495 0.000000
0.499763 0.348852 0.000000
0.538994 0.348730 0.000000
0.575433 0.346441 0.000000
0.608331 0.342351 0.000000
0.632074 0.335424 0.000000
0.656794 0.329442 0.000000
0.683040 0.324743 0.000000
0.711513 0.321080 0.000000
0.742763 0.318791 0.000000
0.776425 0.317266 0.000000
0.811765 0.316197 0.000000
0.848020 0.315373 0.000000
0.884215 0.314397 0.000000
0.919188 0.313085 0.000000
0.951598 0.311223 0.000000
0.980102 0.308782 0.000000
1.000000 0.306126 0.000000
0.071077 0.274022 0.104128
0.073335 0.274998 0.102907
0.076814 0.276219 0.100862
0.083803 0.279026 0.096193
0.100374 0.281010 0.092866
0.123751 0.283085 0.092775
0.148135 0.285801 0.093050
0.173648 0.288975 0.093141
0.200504 0.292729 0.093477
0.230014 0.300664 0.090852
0.265965 0.315709 0.081575
0.307286 0.332158 0.067567
0.354009 0.350042 0.032319
0.402991 0.365881 0.000000
0.451637 0.377630 0.000000
0.494972 0.382147 0.000000
0.534356 0.382788 0.000000
0.571008 0.381109 0.000000
0.605524 0.377935 0.000000
0.640101 0.374823 0.000000
0.670588 0.370367 0.000000
0.697139 0.365118 0.000000
0.726131 0.361425 0.000000
0.757534 0.358892 0.000000
0.790860 0.357214 0.000000
0.825345 0.355962 0.000000
0.860197 0.354925 0.000000
0.894621 0.353582 0.000000
0.927550 0.351904 0.000000
0.957794 0.349615 0.000000
0.984253 0.346685 0.000000
1.000000 0.343450 0.000000
0.056275 0.303288 0.106386
0.060609 0.304265 0.104921
0.064820 0.305425 0.103120
0.073396 0.308171 0.098512
0.089998 0.310735 0.092134
0.117220 0.312840 0.092195
0.144320 0.315618 0.092531
0.171817 0.318791 0.092439
0.200290 0.322484 0.092866
0.229465 0.326848 0.093416
0.262577 0.338293 0.087709
0.301457 0.354314 0.075502
0.345190 0.371496 0.055207
0.393469 0.389441 0.000000
0.443732 0.405554 0.000000
0.489601 0.414679 0.000000
0.529259 0.416083 0.000000
0.566155 0.415076 0.000000
0.601007 0.412360 0.000000
0.635828 0.409766 0.000000
0.672206 0.407874 0.000000
0.711299 0.407446 0.000000
0.742336 0.404028 0.000000
0.773678 0.401190 0.000000
0.806302 0.399023 0.000000
0.839536 0.397192 0.000000
0.872831 0.395453 0.000000
0.905303 0.393500 0.000000
0.936065 0.391150 0.000000
0.963928 0.388067 0.000000
0.988312 0.384466 0.000000
1.000000 0.380652 0.000000
0.018402 0.332921 0.108858
0.026520 0.333776 0.107424
0.038270 0.334936 0.105409
0.059297 0.337591 0.100374
0.075196 0.340887 0.091463
0.108431 0.342931 0.091676
0.138827 0.345464 0.091676
0.168673 0.348669 0.091920
0.198489 0.352300 0.092409
0.228763 0.356451 0.093111
0.259739 0.361028 0.093935
0.296269 0.375921 0.084352
0.337102 0.392309 0.069642
0.382147 0.409400 0.034211
0.430762 0.426642 0.000000
0.480446 0.441840 0.000000
0.523613 0.448676 0.000000
0.560723 0.448249 0.000000
0.595972 0.446143 0.000000
0.631159 0.444007 0.000000
0.667720 0.442725 0.000000
0.707057 0.442969 0.000000
0.749752 0.444800 0.000000
0.790860 0.445655 0.000000
0.822446 0.442634 0.000000
0.854337 0.439918 0.000000
0.885740 0.437171 0.000000
0.916045 0.434302 0.000000
0.944396 0.430823 0.000000
0.969879 0.426825 0.000000
0.992218 0.422278 0.000000
1.000000 0.417700 0.000000
0.000000 0.362249 0.111696
0.000000 0.363104 0.110109
0.000000 0.364202 0.108095
0.021942 0.366674 0.103426
0.060365 0.370306 0.094301
0.096956 0.372442 0.091249
0.131502 0.374914 0.091432
0.163668 0.377935 0.092134
0.195132 0.381384 0.092500
0.226566 0.385321 0.093324
0.258335 0.389715 0.094545
0.291447 0.396857 0.093660
0.329717 0.412299 0.082063
0.371679 0.428351 0.065461
0.416693 0.444465 0.020478
0.464332 0.460273 0.000000
0.512902 0.474403 0.000000
0.554345 0.480079 0.000000
0.590509 0.479164 0.000000
0.626001 0.477546 0.000000
0.662837 0.476875 0.000000
0.702388 0.477821 0.000000
0.745327 0.480507 0.000000
0.790005 0.483711 0.000000
0.834287 0.486152 0.000000
0.869230 0.484199 0.000000
0.898558 0.480140 0.000000
0.926574 0.475898 0.000000
0.952392 0.471199 0.000000
0.975463 0.465888 0.000000
0.995819 0.460273 0.000000
1.000000 0.454871 0.000000
0.000000 0.390906 0.114626
0.000000 0.391608 0.113283
0.000000 0.392706 0.111330
0.000000 0.395026 0.106783
0.030304 0.398688 0.099092
0.081849 0.401251 0.091646
0.122652 0.403540 0.092012
0.157656 0.406317 0.092683
0.190799 0.409522 0.093538
0.223178 0.413153 0.094575
0.255589 0.417273 0.096254
0.288151 0.421607 0.098054
0.322911 0.431373 0.094484
0.361975 0.446326 0.082673
0.403876 0.461250 0.065919
0.448127 0.476051 0.021759
0.494759 0.490761 0.000000
0.542779 0.504570 0.000000
0.583307 0.509789 0.000000
0.620417 0.510277 0.000000
0.657557 0.510246 0.000000
0.697292 0.511864 0.000000
0.740505 0.515465 0.000000
0.785519 0.519677 0.000000
0.830198 0.523033 0.000000
0.872526 0.524712 0.000000
0.910979 0.524132 0.000000
0.936584 0.518242 0.000000
0.959838 0.511925 0.000000
0.980621 0.505241 0.000000
0.999115 0.498543 0.015290
1.000000 0.492103 0.075135
0.000000 0.418494 0.118379
0.000000 0.419165 0.117098
0.000000 0.420203 0.115206
0.000000 0.422339 0.110628
0.000000 0.425666 0.103548
0.062226 0.428656 0.092653
0.112093 0.430884 0.093477
0.150393 0.433356 0.094392
0.185489 0.436347 0.095460
0.218997 0.439643 0.097017
0.251743 0.443397 0.098909
0.284550 0.447425 0.101198
0.317601 0.451728 0.104005
0.353704 0.463630 0.097658
0.392767 0.477699 0.086763
0.434241 0.491829 0.071260
0.478248 0.506157 0.037324
0.524163 0.520317 0.000000
0.571527 0.533745 0.000000
0.612268 0.539635 0.000000
0.651789 0.542748 0.000000
0.691798 0.545190 0.000000
0.735286 0.549645 0.000000
0.780697 0.554955 0.000000
0.825742 0.559289 0.000000
0.868528 0.561883 0.000000
0.907378 0.561883 0.000000
0.941009 0.559167 0.000000
0.966552 0.553063 0.000000
0.985229 0.544884 0.059388
1.000000 0.536889 0.087861
1.000000 0.529412 0.113222
0.000000 0.445472 0.122408
0.000000 0.446082 0.120974
0.000000 0.447059 0.119173
0.000000 0.448981 0.115389
0.000000 0.451911 0.108736
0.009827 0.455482 0.094972
0.099825 0.457374 0.096132
0.142611 0.459663 0.097230
0.179477 0.462440 0.098756
0.213993 0.465461 0.100557
0.247562 0.468788 0.102693
0.280613 0.472419 0.105440
0.313603 0.476295 0.108919
0.346777 0.481056 0.111849
0.383642 0.494392 0.104158
0.422827 0.507958 0.093812
0.464240 0.521782 0.080446
0.507591 0.535546 0.060334
0.553124 0.549462 0.001068
0.600580 0.563348 0.000000
0.642542 0.570703 0.000000
0.685878 0.577600 0.000000
0.729671 0.583062 0.000000
0.775387 0.589441 0.000000
0.820951 0.594842 0.000000
0.864195 0.598322 0.000000
0.903502 0.598993 0.000000
0.937530 0.596704 0.000000
0.965484 0.591485 0.066529
0.988128 0.584314 0.102663
1.000000 0.575402 0.126101
1.000000 0.566857 0.146548
0.000000 0.471901 0.126894
0.000000 0.472480 0.125673
0.000000 0.473274 0.123995
0.000000 0.474952 0.120455
0.000000 0.477668 0.114565
0.000000 0.481209 0.105501
0.085664 0.483162 0.099855
0.134279 0.485206 0.101167
0.173129 0.487648 0.102968
0.208896 0.490425 0.104921
0.243076 0.493477 0.107698
0.276463 0.496803 0.110994
0.309453 0.500359 0.114565
0.342443 0.504295 0.118868
0.376471 0.511406 0.119875
0.413611 0.524468 0.112917
0.452644 0.537774 0.104250
0.493874 0.551232 0.093111
0.537163 0.565026 0.077546
0.582940 0.579492 0.047242
0.631342 0.594598 0.000000
0.675196 0.604059 0.000000
0.723568 0.615595 0.000000
0.769711 0.623133 0.000000
0.815732 0.629725 0.000000
0.859495 0.634119 0.000000
0.899290 0.635554 0.000000
0.933745 0.633600 0.059480
0.962036 0.628473 0.094026
0.984924 0.621210 0.124086
1.000000 0.612818 0.152102
1.000000 0.604273 0.178866
0.000000 0.497566 0.132021
0.000000 0.498054 0.130892
0.000000 0.498787 0.129458
0.000000 0.500267 0.126314
0.000000 0.502617 0.121218
0.000000 0.505852 0.114076
0.069856 0.508202 0.104524
0.125185 0.510155 0.106508
0.166873 0.512383 0.108431
0.203922 0.514885 0.110964
0.238682 0.517815 0.113985
0.272404 0.520989 0.117464
0.305730 0.524407 0.121187
0.338598 0.528069 0.126009
0.371588 0.531975 0.131258
0.406195 0.541405 0.130434
0.443366 0.554223 0.124666
0.482673 0.567529 0.117311
0.524163 0.581415 0.107607
0.568170 0.596094 0.094759
0.614923 0.611780 0.074891
0.665034 0.628656 0.019104
0.711391 0.640528 0.033234
0.763668 0.655879 0.036194
0.810147 0.663752 0.027863
0.854490 0.669215 0.041505
0.894774 0.671382 0.067475
0.929686 0.669917 0.091676
0.958343 0.664881 0.117891
0.981506 0.657435 0.144259
1.000000 0.648737 0.171054
1.000000 0.639857 0.197757
0.000000 0.522820 0.137789
0.000000 0.523308 0.136721
0.000000 0.523888 0.135561
0.000000 0.525292 0.132753
0.000000 0.527489 0.128511
0.000000 0.530419 0.122683
0.043061 0.533196 0.111086
0.116670 0.535027 0.112917
0.161013 0.537194 0.115297
0.199191 0.539574 0.117861
0.234653 0.542260 0.121279
0.268864 0.545220 0.124941
0.302342 0.548455 0.129305
0.335302 0.551934 0.134340
0.368139 0.555596 0.139742
0.401007 0.559594 0.146212
0.436378 0.571466 0.143221
0.474098 0.584741 0.138308
0.513970 0.598840 0.132174
0.556512 0.613916 0.123445
0.601923 0.630213 0.111818
0.650568 0.647791 0.094484
0.702632 0.666590 0.066468
0.750332 0.679744 0.074006
0.804227 0.696834 0.082216
0.849119 0.703487 0.086763
0.889982 0.706538 0.098878
0.925353 0.705562 0.117433
0.954437 0.700679 0.140078
0.977874 0.693080 0.164462
0.996857 0.684047 0.189914
1.000000 0.674678 0.215946
0.000000 0.548455 0.144167
0.000000 0.548852 0.143313
0.000000 0.549432 0.142367
0.000000 0.550683 0.139925
0.000000 0.552605 0.136141
0.000000 0.555230 0.131472
0.019562 0.558221 0.121096
0.108644 0.560021 0.120485
0.155612 0.562066 0.123262
0.194949 0.564324 0.126192
0.231479 0.566888 0.129702
0.265934 0.569696 0.133791
0.299565 0.572869 0.138277
0.332738 0.576226 0.143557
0.365576 0.579980 0.149386
0.398413 0.584009 0.156008
0.431769 0.589929 0.161135
0.468147 0.603326 0.157900
0.506798 0.617762 0.153719
0.548119 0.633387 0.147799
0.592370 0.650385 0.139864
0.639734 0.668605 0.128603
0.689998 0.687739 0.113252
0.742733 0.707088 0.090974
0.790280 0.720027 0.099580
0.843015 0.736416 0.114168
0.884855 0.740871 0.124971
0.920775 0.740536 0.140902
0.950256 0.735805 0.161379
0.974060 0.728054 0.184421
0.993256 0.718654 0.208713
1.000000 0.708827 0.234226
0.000000 0.574395 0.151431
0.000000 0.574792 0.150759
0.000000 0.575341 0.149722
0.000000 0.576471 0.147890
0.000000 0.578241 0.144869
0.000000 0.580621 0.141024
0.037201 0.583642 0.136294
0.101839 0.585657 0.129763
0.151583 0.587610 0.132479
0.192081 0.589837 0.135622
0.229007 0.592432 0.139437
0.264012 0.595270 0.143709
0.297948 0.598474 0.148379
0.331304 0.601984 0.153841
0.364355 0.605829 0.159915
0.397436 0.610040 0.166690
0.430549 0.614649 0.173983
0.465003 0.623896 0.177188
0.502708 0.638911 0.174105
0.543053 0.655207 0.169802
0.586267 0.672877 0.163943
0.632258 0.691463 0.156405
0.680781 0.710597 0.146304
0.731380 0.729702 0.133242
0.783444 0.748257 0.116457
0.830167 0.760433 0.125612
0.878416 0.773007 0.146212
0.915953 0.774624 0.163058
0.945861 0.770169 0.182223
0.970001 0.762325 0.204013
0.989471 0.752651 0.227665
1.000000 0.742306 0.252720
0.000000 0.601770 0.159426
0.000000 0.602106 0.158816
0.000000 0.602594 0.158114
0.000000 0.603662 0.156558
0.000000 0.605310 0.154147
0.000000 0.607599 0.151308
0.032471 0.610468 0.148592
0.096345 0.612970 0.139956
0.148775 0.614984 0.142824
0.190402 0.617304 0.146365
0.227909 0.620050 0.150149
0.263432 0.623072 0.154665
0.297734 0.626459 0.159609
0.331487 0.630213 0.165225
0.365026 0.634394 0.171359
0.398352 0.638972 0.178195
0.431922 0.644007 0.185611
0.465553 0.649561 0.193790
0.501946 0.663050 0.194095
0.541527 0.680049 0.191135
0.583673 0.698024 0.186923
0.628229 0.716670 0.181552
0.674891 0.735470 0.174655
0.723171 0.753933 0.166140
0.772671 0.771633 0.156344
0.822721 0.788113 0.144411
0.868803 0.799771 0.153902
0.909545 0.806027 0.180331
0.941283 0.803738 0.202152
0.965759 0.795804 0.223362
0.985534 0.785794 0.246403
1.000000 0.774960 0.270970
0.000000 0.631861 0.168582
0.000000 0.632227 0.168246
0.000000 0.632685 0.167605
0.000000 0.633753 0.166476
0.000000 0.635401 0.164767
0.000000 0.637568 0.162783
0.026856 0.640436 0.160891
0.091981 0.643458 0.151522
0.147158 0.645624 0.154696
0.189792 0.648157 0.158175
0.228244 0.651087 0.162264
0.264469 0.654444 0.166812
0.299382 0.658198 0.171847
0.333684 0.662440 0.177523
0.367681 0.667109 0.183780
0.401678 0.672267 0.190616
0.435798 0.677913 0.198184
0.470222 0.684016 0.206210
0.504997 0.691096 0.214481
0.543664 0.708400 0.212406
0.584588 0.726375 0.209598
0.627527 0.744564 0.206149
0.672175 0.762539 0.201663
0.718074 0.779965 0.196536
0.764797 0.796384 0.190341
0.811765 0.811368 0.183536
0.858488 0.824704 0.176089
0.901884 0.834043 0.186557
0.935180 0.834348 0.216342
0.961395 0.828550 0.242222
0.981445 0.818235 0.264591
0.997772 0.806882 0.288823
0.000000 0.666773 0.179294
0.000000 0.667109 0.178988
0.000000 0.667567 0.178470
0.000000 0.668605 0.177646
0.000000 0.670253 0.176364
0.000000 0.672572 0.175021
0.021454 0.675410 0.174075
0.100252 0.678767 0.169284
0.146731 0.681453 0.167666
0.190951 0.684352 0.171206
0.230228 0.687678 0.175418
0.267308 0.691493 0.179934
0.302983 0.695705 0.185153
0.338201 0.700404 0.190921
0.373053 0.705501 0.197269
0.407813 0.711086 0.204257
0.442725 0.717128 0.211978
0.477668 0.723507 0.220249
0.513024 0.730312 0.229129
0.549401 0.740688 0.235050
0.588891 0.757961 0.233555
0.629999 0.775143 0.231510
0.672450 0.791836 0.229068
0.715816 0.807675 0.226078
0.759579 0.822293 0.222904
0.803311 0.835386 0.219425
0.846586 0.846677 0.215457
0.888945 0.856077 0.211368
0.928222 0.862211 0.222904
0.955810 0.858213 0.253727
0.977295 0.849821 0.282322
0.993835 0.837980 0.306065
0.000000 0.708858 0.191775
0.000000 0.709224 0.191562
0.000000 0.709682 0.191318
0.000000 0.710750 0.190707
0.000000 0.712459 0.189883
0.000000 0.714778 0.189029
0.009766 0.717708 0.188785
0.111818 0.721248 0.189364
0.146761 0.724422 0.182254
0.193118 0.727565 0.186038
0.233951 0.731136 0.190249
0.272282 0.735103 0.195010
0.309026 0.739559 0.200534
0.345281 0.744350 0.206546
0.380987 0.749569 0.213199
