其他预设/【233】日式怀旧街道调色预设208款/1.3D LUT预设（视频调色-PR-AE-PS-FCPX-达芬奇用）/4.富士胶片风日式城市街拍预设 (自动曝光预设)/JA – Gritty Contrast 1 (Classic Chrome) (Auto).cube
# Created by Adobe Lightroom plugin Export LUT (1.17.0)
# www.johnrellis.com/lightroom/exportlut.htm
# Preset: JA – Gritty Contrast 1 (Classic Chrome) (Auto)
# Color profile: /Library/Application Support/Adobe/Color/Profiles/Recommended/AdobeRGB1998.icc
LUT_3D_SIZE 32
0.112947 0.115755 0.117494
0.112947 0.115755 0.117494
0.112947 0.115755 0.117494
0.125490 0.114473 0.118044
0.141756 0.112520 0.118715
0.159182 0.110231 0.119265
0.180270 0.110445 0.120363
0.206607 0.111025 0.121248
0.240085 0.111910 0.121889
0.281468 0.112398 0.122225
0.333165 0.112337 0.121187
0.393256 0.112917 0.118318
0.457649 0.114626 0.114076
0.521813 0.119356 0.108217
0.581994 0.126650 0.101228
0.638636 0.135134 0.093660
0.691463 0.144289 0.086275
0.739406 0.154635 0.079835
0.786160 0.166934 0.074952
0.827298 0.178683 0.074708
0.863737 0.190951 0.079927
0.895201 0.202762 0.091920
0.921965 0.215335 0.107820
0.944884 0.228641 0.128603
0.964721 0.243259 0.152132
0.982116 0.260258 0.179690
0.997498 0.281041 0.211185
1.000000 0.307042 0.248234
1.000000 0.338964 0.290654
1.000000 0.377752 0.338872
1.000000 0.422858 0.391791
1.000000 0.452308 0.426429
0.112947 0.115755 0.117494
0.112947 0.115755 0.117494
0.112947 0.115755 0.117494
0.126436 0.114290 0.118044
0.142214 0.112459 0.118502
0.159213 0.112764 0.119661
0.180117 0.113497 0.120546
0.206332 0.114290 0.121614
0.239414 0.115328 0.122225
0.280919 0.116274 0.122347
0.332036 0.117220 0.121096
0.391760 0.118654 0.118227
0.455879 0.121523 0.113741
0.519921 0.126070 0.107912
0.580255 0.133181 0.101137
0.636713 0.141573 0.093843
0.689479 0.150332 0.086275
0.737819 0.160586 0.079347
0.783993 0.172244 0.074372
0.824918 0.183139 0.074769
0.861387 0.194491 0.079530
0.893065 0.205997 0.090730
0.920073 0.217838 0.107088
0.943267 0.230808 0.127077
0.963348 0.245090 0.150576
0.980926 0.261601 0.177951
0.996521 0.281743 0.209384
1.000000 0.307378 0.246342
1.000000 0.338964 0.288914
1.000000 0.377234 0.337072
1.000000 0.422034 0.389899
1.000000 0.453559 0.426886
0.112947 0.115755 0.117494
0.112947 0.115755 0.117494
0.113466 0.115663 0.117494
0.127199 0.115053 0.118166
0.142519 0.115724 0.119051
0.159304 0.116548 0.119966
0.180026 0.117494 0.120821
0.205966 0.118593 0.121859
0.239231 0.119753 0.122286
0.280186 0.121523 0.122347
0.331365 0.123110 0.121065
0.391089 0.125521 0.118135
0.454932 0.129274 0.113771
0.518975 0.134951 0.107820
0.579004 0.142428 0.100771
0.635737 0.149752 0.093507
0.688441 0.159182 0.085420
0.737118 0.168399 0.079011
0.782925 0.178805 0.074372
0.823667 0.189517 0.074464
0.860136 0.200443 0.078920
0.891966 0.211185 0.090303
0.919097 0.222629 0.106508
0.942412 0.234714 0.126650
0.962585 0.248508 0.150240
0.980285 0.264439 0.177462
0.995941 0.284306 0.209171
1.000000 0.309361 0.246036
1.000000 0.340490 0.288396
1.000000 0.378515 0.336645
1.000000 0.422797 0.389349
1.000000 0.455329 0.427680
0.112917 0.121553 0.118013
0.113100 0.122133 0.117952
0.116762 0.122835 0.117800
0.127687 0.123049 0.119081
0.142489 0.123964 0.119936
0.159304 0.124727 0.120851
0.180331 0.125521 0.121706
0.206455 0.127077 0.122469
0.239353 0.129213 0.122805
0.280522 0.131899 0.122591
0.331456 0.135286 0.120943
0.390875 0.139590 0.117830
0.454383 0.145174 0.113039
0.518090 0.151888 0.107149
0.578241 0.159030 0.099947
0.634730 0.167025 0.092409
0.687434 0.174899 0.084657
0.736629 0.183932 0.077790
0.781674 0.193027 0.073518
0.821866 0.203067 0.073121
0.858152 0.212436 0.078340
0.890013 0.221805 0.089723
0.917449 0.232273 0.106020
0.941131 0.243687 0.126558
0.961700 0.256626 0.150423
0.979706 0.271977 0.178408
0.995544 0.291142 0.210330
1.000000 0.315770 0.247501
1.000000 0.346319 0.290440
1.000000 0.383398 0.338354
1.000000 0.426795 0.390753
1.000000 0.458991 0.429236
0.113588 0.133059 0.118563
0.114473 0.133486 0.118685
0.119905 0.133669 0.118349
0.130068 0.133028 0.119295
0.141817 0.132662 0.121706
0.159365 0.135042 0.122438
0.180362 0.136538 0.122805
0.206516 0.138979 0.123507
0.239658 0.141909 0.123537
0.280491 0.146273 0.122957
0.331243 0.151766 0.120851
0.390204 0.158236 0.117464
0.453529 0.165743 0.112581
0.517082 0.173709 0.105928
0.577264 0.181857 0.098543
0.633845 0.189578 0.090974
0.686824 0.197208 0.083070
0.736934 0.205753 0.075624
0.781399 0.213840 0.071717
0.821317 0.222080 0.072053
0.857328 0.229801 0.078370
0.889067 0.238499 0.090028
0.916472 0.247623 0.106630
0.940246 0.257694 0.127535
0.960906 0.269291 0.151705
0.979004 0.283452 0.179751
0.994873 0.301732 0.212192
1.000000 0.325017 0.249760
1.000000 0.354376 0.292393
1.000000 0.390448 0.340337
1.000000 0.432837 0.392828
1.000000 0.464851 0.431708
0.115419 0.143526 0.119478
0.118593 0.143801 0.119356
0.123354 0.143832 0.119020
0.132876 0.143679 0.118990
0.143496 0.142428 0.121706
0.158083 0.143709 0.124483
0.181125 0.148867 0.124971
0.207584 0.152773 0.124697
0.240757 0.157168 0.124361
0.281682 0.163485 0.123079
0.332464 0.171176 0.120851
0.391333 0.180179 0.116793
0.454414 0.189883 0.111147
0.517754 0.199100 0.104189
0.577752 0.207431 0.096681
0.634241 0.215579 0.088838
0.687129 0.223056 0.080476
0.737972 0.231052 0.073518
0.781979 0.238224 0.070100
0.821592 0.245304 0.070649
0.857481 0.252354 0.078035
0.889220 0.259281 0.091096
0.927398 0.273625 0.117983
0.949401 0.282841 0.140932
0.968414 0.294011 0.166873
0.985077 0.307836 0.196048
0.999664 0.325811 0.229679
1.000000 0.348882 0.268193
1.000000 0.377935 0.311376
1.000000 0.413397 0.359350
1.000000 0.454505 0.410895
1.000000 0.472450 0.434974
0.121004 0.155947 0.120150
0.123995 0.156222 0.120027
0.128267 0.156435 0.119692
0.137667 0.156741 0.118807
0.148959 0.155917 0.121248
0.158145 0.152743 0.124697
0.180392 0.158694 0.126741
0.210971 0.167117 0.126314
0.245151 0.175479 0.125154
0.287633 0.183993 0.123171
0.339513 0.194461 0.120180
0.399176 0.206119 0.115450
0.462135 0.218051 0.108888
0.524865 0.228458 0.101350
0.583978 0.237186 0.093416
0.639399 0.245274 0.085023
0.693812 0.253391 0.076173
0.743709 0.260594 0.069520
0.787015 0.266911 0.067109
0.826566 0.273045 0.070283
0.862730 0.279240 0.079805
0.894682 0.285679 0.095705
0.922301 0.292912 0.116030
0.945922 0.301274 0.140322
0.966125 0.311467 0.167636
0.983398 0.324224 0.197971
0.998260 0.341070 0.232578
1.000000 0.362707 0.271458
1.000000 0.390173 0.314549
1.000000 0.424018 0.362371
1.000000 0.463478 0.413764
1.000000 0.481788 0.438972
0.127932 0.170504 0.120394
0.130770 0.170596 0.120089
0.134829 0.170809 0.119753
0.143465 0.171237 0.118837
0.155001 0.170962 0.120455
0.167941 0.170291 0.123110
0.177371 0.166323 0.127138
0.207645 0.176974 0.127871
0.246525 0.189975 0.126375
0.289250 0.202548 0.123659
0.341619 0.216922 0.119814
0.400977 0.230991 0.114321
0.463722 0.244480 0.107485
0.525872 0.256474 0.099153
0.584436 0.266331 0.090425
0.640192 0.274601 0.081453
0.695644 0.283391 0.072328
0.744045 0.289860 0.066224
0.786557 0.295201 0.065064
0.825620 0.300298 0.069856
0.861387 0.305455 0.080446
0.893187 0.310704 0.097017
0.920653 0.316747 0.118044
0.944305 0.323674 0.143069
0.964538 0.332219 0.170748
0.981903 0.343664 0.201663
0.996857 0.358770 0.236423
1.000000 0.378851 0.275547
1.000000 0.404883 0.319158
1.000000 0.436988 0.366979
1.000000 0.474769 0.417975
1.000000 0.492866 0.443915
0.137301 0.188510 0.120272
0.140108 0.188693 0.119966
0.144045 0.188968 0.119417
0.152255 0.189212 0.118685
0.164096 0.189578 0.119203
0.177432 0.189181 0.121462
0.192020 0.189242 0.124239
0.204440 0.185824 0.128359
0.243168 0.201144 0.127749
0.291936 0.219638 0.124788
0.344457 0.237247 0.119905
0.404211 0.256291 0.113191
0.466957 0.272374 0.105348
0.528496 0.285679 0.096284
0.586297 0.296361 0.086885
0.644648 0.306462 0.077272
0.698146 0.314427 0.068421
0.745296 0.320531 0.063020
0.786984 0.324895 0.063203
0.825559 0.329229 0.068940
0.860929 0.333440 0.081605
0.892393 0.337530 0.099794
0.919707 0.342229 0.121706
0.943175 0.348058 0.147219
0.963348 0.355444 0.175753
0.980652 0.365270 0.207034
0.995575 0.379126 0.242435
1.000000 0.397772 0.281926
1.000000 0.422034 0.325597
1.000000 0.452338 0.373144
1.000000 0.488228 0.423682
1.000000 0.505425 0.449683
0.148989 0.210910 0.119051
0.151888 0.211032 0.118746
0.155642 0.211154 0.118379
0.164126 0.211551 0.117403
0.176059 0.211887 0.116854
0.189761 0.212100 0.118807
0.205417 0.212467 0.121126
0.222446 0.213077 0.123995
0.239475 0.211276 0.129030
0.287602 0.231968 0.126192
0.347478 0.256443 0.120577
0.406806 0.277287 0.113313
0.469673 0.297887 0.103975
0.531182 0.314916 0.093477
0.591943 0.327886 0.083162
0.649348 0.338598 0.072175
0.701656 0.346471 0.063600
0.747829 0.351995 0.059388
0.788815 0.356054 0.061555
0.826658 0.359533 0.069978
0.861295 0.362768 0.084535
0.891966 0.365789 0.103792
0.918639 0.369085 0.126650
0.941680 0.373388 0.152438
0.961639 0.379431 0.181247
0.978912 0.388098 0.213046
0.993896 0.400610 0.248966
1.000000 0.417853 0.288884
1.000000 0.440742 0.332738
1.000000 0.469551 0.380591
1.000000 0.503899 0.431220
1.000000 0.519280 0.456184
0.161288 0.238193 0.118563
0.164279 0.238346 0.118227
0.168551 0.238254 0.117678
0.177096 0.238621 0.116457
0.189944 0.239048 0.114748
0.204715 0.239506 0.115785
0.221622 0.240299 0.117556
0.240208 0.241489 0.119417
0.257359 0.240299 0.123018
0.284123 0.243565 0.128084
0.343175 0.270756 0.122042
0.410895 0.299199 0.113191
0.473121 0.320958 0.103426
0.537133 0.341680 0.091554
0.597345 0.359136 0.079103
0.653285 0.370642 0.068421
0.704036 0.378241 0.059846
0.749142 0.383429 0.056916
0.789425 0.386725 0.061341
0.826810 0.389563 0.072724
0.860990 0.392126 0.088258
0.891356 0.394354 0.109255
0.917815 0.396948 0.132753
0.940703 0.400305 0.159518
0.960540 0.405310 0.189029
0.977630 0.412818 0.221683
0.992493 0.424048 0.257603
1.000000 0.439918 0.297642
1.000000 0.461128 0.341527
1.000000 0.488075 0.389014
1.000000 0.520409 0.439124
1.000000 0.534356 0.463325
0.176455 0.271061 0.116182
0.179629 0.271061 0.115846
0.183841 0.271183 0.115419
0.192813 0.271458 0.114107
0.206149 0.271611 0.112337
0.222232 0.272313 0.111879
0.240574 0.273625 0.112764
0.261051 0.275212 0.114351
0.283421 0.277470 0.116274
0.300511 0.273686 0.120394
0.340246 0.284825 0.123995
0.408240 0.316503 0.114870
0.494972 0.356329 0.100099
0.558129 0.377417 0.087922
0.617304 0.394537 0.075441
0.672358 0.408789 0.063478
0.721370 0.418555 0.053803
0.764157 0.422522 0.058930
0.802335 0.424659 0.068299
0.837827 0.426429 0.082338
0.869902 0.427588 0.101137
0.898131 0.428504 0.123323
0.922759 0.429786 0.148257
0.944213 0.432074 0.175814
0.962890 0.436103 0.205936
0.979126 0.442939 0.239261
0.993256 0.453285 0.276036
1.000000 0.468055 0.315831
1.000000 0.487953 0.359319
1.000000 0.513176 0.405951
1.000000 0.543023 0.454261
1.000000 0.550408 0.471351
0.195987 0.313085 0.110842
0.199435 0.313115 0.110231
0.203891 0.312810 0.109865
0.213169 0.312627 0.108492
0.227085 0.312413 0.106386
0.244236 0.312291 0.104311
0.263767 0.313787 0.105135
0.285985 0.316075 0.106264
0.310674 0.318669 0.107546
0.337591 0.322301 0.109590
0.356451 0.317082 0.116304
0.413672 0.338872 0.116426
0.487892 0.372778 0.102724
0.560266 0.401740 0.088624
0.618982 0.419715 0.076722
0.673457 0.434089 0.065980
0.721767 0.444831 0.060639
0.764309 0.452705 0.062074
0.802121 0.455360 0.073213
0.837064 0.456611 0.089326
0.868711 0.457343 0.108522
0.896696 0.457465 0.131350
0.921080 0.458045 0.156771
0.942412 0.459480 0.184634
0.960967 0.462715 0.215579
0.977111 0.468513 0.249454
0.991180 0.477760 0.286290
1.000000 0.491249 0.326146
1.000000 0.509483 0.369421
1.000000 0.533043 0.415564
1.000000 0.561089 0.463447
1.000000 0.567193 0.479774
0.216709 0.356420 0.102663
0.220340 0.356420 0.102205
0.225040 0.356176 0.101259
0.234531 0.355779 0.100038
0.248661 0.355138 0.097444
0.266575 0.354284 0.094209
0.287297 0.355749 0.093751
0.310674 0.358099 0.094514
0.337530 0.361975 0.095583
0.368139 0.367803 0.096315
0.401221 0.374182 0.098268
0.418982 0.364782 0.109590
0.485359 0.391485 0.108309
0.554589 0.420478 0.092866
0.620630 0.444587 0.079377
0.674586 0.459388 0.070497
0.721920 0.469795 0.068025
0.763790 0.477272 0.071748
0.801633 0.483070 0.081849
0.836423 0.486763 0.097444
0.867765 0.486946 0.118044
0.895445 0.486793 0.141176
0.919677 0.486671 0.167147
0.940826 0.487526 0.196170
0.959258 0.490089 0.227298
0.975280 0.495033 0.261570
0.989227 0.503197 0.298497
1.000000 0.515557 0.338628
1.000000 0.532494 0.381506
1.000000 0.554284 0.427008
1.000000 0.580591 0.474464
1.000000 0.584649 0.489052
0.240238 0.402777 0.090242
0.243565 0.402777 0.089693
0.248051 0.402350 0.088960
0.257877 0.401740 0.086915
0.272221 0.400977 0.084108
0.290867 0.400214 0.079591
0.312840 0.401343 0.075685
0.338262 0.404974 0.075776
0.366461 0.409491 0.076143
0.397803 0.414527 0.076753
0.431403 0.420508 0.079042
0.464912 0.424933 0.083986
0.487984 0.416846 0.101320
0.551659 0.440131 0.101747
0.615534 0.464363 0.087831
0.675227 0.484108 0.077455
0.722683 0.495033 0.076387
0.763790 0.502129 0.082338
0.801175 0.507591 0.092866
0.835813 0.512444 0.108583
0.867033 0.516381 0.129274
0.894347 0.515923 0.152651
0.918242 0.515282 0.179324
0.939178 0.515587 0.208438
0.957458 0.517479 0.240452
0.973419 0.521813 0.275090
0.987335 0.529381 0.312627
0.999420 0.541009 0.353185
1.000000 0.557061 0.396460
1.000000 0.577569 0.441688
1.000000 0.602533 0.488869
1.000000 0.602502 0.498695
0.265599 0.452918 0.070832
0.269139 0.452979 0.070314
0.273686 0.452918 0.068574
0.283909 0.452461 0.065553
0.298863 0.451850 0.060639
0.317998 0.451087 0.049897
0.340337 0.450050 0.029328
0.365881 0.453315 0.028107
0.394659 0.457282 0.028595
0.425879 0.461769 0.032197
0.459541 0.466712 0.038666
0.495033 0.472175 0.049226
0.524010 0.470710 0.070741
0.552056 0.464576 0.096223
0.611353 0.483955 0.100496
0.669429 0.503807 0.090669
0.721553 0.518669 0.087098
0.763699 0.526757 0.093721
0.800992 0.532219 0.105715
0.835508 0.536889 0.122194
0.866575 0.540826 0.142916
0.893889 0.543816 0.167269
0.917571 0.544640 0.194736
0.938201 0.544518 0.224765
0.956207 0.545922 0.256931
0.971954 0.549798 0.292088
0.985657 0.556664 0.329931
0.997589 0.567315 0.370031
1.000000 0.582116 0.412726
1.000000 0.600916 0.456916
1.000000 0.624079 0.503075
1.000000 0.620569 0.508659
0.291203 0.501366 0.023926
0.294652 0.501122 0.020966
0.299168 0.500908 0.018463
0.309087 0.500206 0.009339
0.323735 0.499184 0.000000
0.342473 0.497871 0.000000
0.364385 0.496254 0.000000
0.389502 0.497047 0.000000
0.417792 0.500328 0.000000
0.448646 0.504143 0.000000
0.481880 0.508537 0.000000
0.516899 0.513237 0.000000
0.553338 0.518181 0.000000
0.577447 0.510948 0.064240
0.610590 0.507744 0.098299
0.665553 0.524132 0.106600
0.716670 0.539208 0.103304
0.762325 0.550164 0.106477
0.800778 0.556542 0.119417
0.834836 0.560967 0.136233
0.865507 0.564538 0.157473
0.892485 0.567468 0.182437
0.916014 0.570001 0.209934
0.936492 0.572595 0.240879
0.954314 0.573571 0.273533
0.969879 0.576837 0.308568
0.983520 0.582971 0.346258
0.995331 0.592676 0.386175
1.000000 0.606165 0.428138
1.000000 0.623682 0.471809
1.000000 0.645411 0.517601
1.000000 0.638911 0.519280
0.315587 0.546807 0.000000
0.319310 0.546654 0.000000
0.328740 0.555505 0.000000
0.338537 0.554589 0.000000
0.353185 0.553155 0.000000
0.371466 0.551263 0.000000
0.393072 0.548943 0.000000
0.417639 0.547112 0.000000
0.445716 0.549767 0.000000
0.476570 0.553002 0.000000
0.509453 0.556634 0.000000
0.544213 0.560601 0.000000
0.580163 0.564569 0.000000
0.617334 0.568841 0.000000
0.635706 0.555352 0.067659
0.671778 0.553674 0.111543
0.720333 0.565728 0.125002
0.764553 0.576135 0.129213
0.804196 0.583612 0.137819
0.838224 0.588128 0.156283
0.867674 0.590936 0.177310
0.893645 0.593347 0.202884
0.916411 0.595453 0.231083
0.936248 0.598138 0.261509
0.953399 0.601923 0.294255
0.968414 0.604822 0.328588
0.981567 0.609827 0.365118
0.993103 0.618219 0.403723
1.000000 0.630274 0.444343
1.000000 0.646265 0.487129
1.000000 0.666590 0.532464
1.000000 0.657221 0.530144
0.341131 0.592706 0.000000
0.344976 0.593652 0.000000
0.350164 0.594568 0.000000
0.360021 0.594812 0.000000
0.374273 0.594324 0.000000
0.392462 0.592706 0.000000
0.413794 0.590417 0.000000
0.437690 0.587579 0.000000
0.465003 0.588800 0.000000
0.495064 0.591699 0.000000
0.527398 0.595026 0.000000
0.561425 0.598505 0.000000
0.596857 0.602136 0.000000
0.633082 0.605585 0.000000
0.669398 0.608759 0.000000
0.681819 0.589349 0.084230
0.719478 0.589319 0.133242
0.762417 0.598230 0.148043
0.801755 0.605890 0.157290
0.836667 0.611170 0.171969
0.866392 0.614313 0.194430
0.892210 0.616541 0.220096
0.914794 0.618524 0.248478
0.934417 0.621027 0.279484
0.951446 0.624537 0.312291
0.966278 0.629847 0.347051
0.979278 0.635737 0.383459
0.990692 0.643153 0.421393
1.000000 0.654078 0.461402
1.000000 0.668818 0.503380
1.000000 0.687739 0.547967
1.000000 0.675471 0.541375
0.364446 0.634119 0.000000
0.368139 0.634943 0.000000
0.373083 0.635645 0.000000
0.382300 0.635828 0.000000
0.396185 0.635218 0.000000
0.413703 0.633631 0.000000
0.434333 0.631281 0.000000
0.457649 0.628412 0.000000
0.483742 0.627283 0.000000
0.513054 0.629694 0.000000
0.544518 0.632563 0.000000
0.577844 0.635584 0.000000
0.612299 0.638544 0.000000
0.647700 0.641627 0.000000
0.683558 0.644495 0.000000
0.713741 0.642054 0.015442
0.725368 0.621576 0.110262
0.763333 0.622797 0.163302
0.801633 0.629541 0.178988
0.836057 0.634668 0.192355
0.865629 0.637751 0.212985
0.890959 0.639704 0.238712
0.913268 0.641688 0.267277
0.932677 0.643854 0.298405
0.949554 0.646998 0.330907
0.964202 0.651789 0.365454
0.976959 0.658686 0.401740
0.988190 0.667414 0.439185
0.998016 0.677150 0.478065
1.000000 0.690669 0.519463
1.000000 0.707057 0.561456
1.000000 0.693446 0.552758
0.386938 0.673579 0.000000
0.390478 0.674342 0.000000
0.395239 0.674952 0.000000
0.404303 0.674983 0.000000
0.417334 0.674342 0.000000
0.434241 0.672755 0.000000
0.454047 0.670497 0.000000
0.476661 0.667720 0.000000
0.501762 0.664424 0.000000
0.529961 0.666255 0.000000
0.560510 0.668574 0.000000
0.592737 0.671046 0.000000
0.626307 0.673518 0.000000
0.660792 0.675990 0.000000
0.695857 0.678492 0.000000
0.731106 0.680964 0.000000
0.755367 0.673304 0.087617
0.768826 0.654444 0.145357
0.804898 0.655848 0.203220
0.838651 0.660822 0.219425
0.867796 0.663722 0.238407
0.892454 0.665278 0.263951
0.913634 0.666468 0.291752
0.932647 0.668666 0.323186
0.949126 0.671717 0.356146
0.963470 0.676295 0.390600
0.975921 0.682734 0.426154
0.986816 0.691524 0.463050
0.996124 0.703212 0.502068
1.000000 0.715908 0.542870
1.000000 0.724819 0.573236
1.000000 0.711055 0.564172
0.411536 0.714900 0.000000
0.414679 0.715053 0.000000
0.418555 0.715084 0.000000
0.426795 0.714595 0.000000
0.439124 0.713497 0.000000
0.455146 0.711788 0.000000
0.474159 0.709560 0.000000
0.496132 0.706966 0.000000
0.520623 0.704067 0.000000
0.547936 0.703639 0.000000
0.577600 0.705715 0.000000
0.609094 0.707790 0.000000
0.641779 0.709834 0.000000
0.675319 0.711818 0.000000
0.709468 0.713771 0.000000
0.743954 0.715694 0.000000
0.778347 0.717708 0.076814
0.796262 0.704677 0.137362
0.811795 0.688289 0.190219
0.842130 0.687312 0.248020
0.869993 0.689357 0.265599
0.893553 0.690242 0.290318
0.913573 0.690333 0.315892
0.930877 0.690669 0.343572
0.947112 0.693263 0.375891
0.961242 0.697292 0.409613
0.973632 0.703151 0.444465
0.984436 0.711299 0.480842
0.993652 0.722225 0.519280
1.000000 0.736141 0.559716
1.000000 0.741939 0.584741
1.000000 0.728145 0.575433
0.433234 0.750210 0.000000
0.436042 0.750454 0.000000
0.439826 0.750484 0.000000
0.447639 0.749996 0.000000
0.459297 0.748959 0.000000
0.474434 0.747311 0.000000
0.492683 0.745235 0.000000
0.513634 0.742733 0.000000
0.537316 0.739925 0.000000
0.563317 0.737514 0.000000
0.592004 0.739101 0.000000
0.622309 0.740780 0.000000
0.654017 0.742397 0.000000
0.686641 0.744015 0.000000
0.719905 0.745571 0.000000
0.753414 0.747097 0.000000
0.786954 0.748592 0.085817
0.820157 0.750149 0.133913
0.831601 0.731960 0.186526
0.847868 0.717708 0.240299
0.872679 0.715084 0.295354
0.895415 0.715602 0.319677
0.914733 0.715419 0.345403
0.931243 0.714961 0.371283
0.944732 0.713588 0.394324
0.958770 0.717037 0.427131
0.971099 0.722347 0.461463
0.981842 0.729854 0.497261
0.990936 0.740108 0.535424
0.998505 0.752926 0.574762
1.000000 0.757565 0.596063
1.000000 0.744778 0.586664
0.456550 0.786801 0.000000
0.459205 0.787045 0.000000
0.462745 0.786984 0.000000
0.469947 0.786404 0.000000
0.480842 0.785245 0.000000
0.495094 0.783597 0.000000
0.512230 0.781491 0.000000
0.532311 0.778958 0.000000
0.554864 0.776059 0.000000
0.579644 0.772824 0.000000
0.606806 0.772580 0.000000
0.635828 0.773495 0.000000
0.666224 0.774350 0.000000
0.697444 0.775082 0.000000
0.729213 0.775723 0.000000
0.761257 0.776242 0.000000
0.793240 0.776761 0.100832
0.824979 0.777401 0.147097
0.853208 0.775540 0.188785
0.861234 0.755245 0.237369
0.876982 0.742916 0.293309
0.896818 0.739895 0.349371
0.915435 0.739315 0.374304
0.931334 0.738308 0.399054
0.944945 0.737331 0.422644
0.956786 0.737179 0.447120
0.968902 0.741878 0.480476
0.979431 0.748653 0.515618
0.988434 0.758083 0.552789
0.995972 0.769741 0.590723
1.000000 0.771267 0.606806
1.000000 0.759548 0.597589
0.477028 0.817166 0.000000
0.479561 0.817350 0.000000
0.482918 0.817288 0.000000
0.489631 0.816770 0.000000
0.499763 0.815763 0.000000
0.513115 0.814328 0.000000
0.529381 0.812558 0.000000
0.548516 0.810361 0.000000
0.570092 0.807919 0.000000
0.594141 0.805142 0.000000
0.620050 0.803403 0.000000
0.648157 0.803891 0.000000
0.677455 0.804318 0.000000
0.707546 0.804562 0.000000
0.738216 0.804715 0.000000
0.769131 0.804746 0.069306
0.800046 0.804715 0.126650
0.830594 0.804746 0.169741
0.860502 0.804929 0.209049
0.881804 0.798154 0.250614
0.888243 0.778256 0.297978
0.902159 0.768002 0.360174
0.917815 0.764736 0.409186
0.932982 0.763333 0.432868
0.946014 0.762112 0.456031
0.957305 0.761379 0.478645
0.967041 0.761532 0.501640
0.977295 0.767849 0.536278
0.986206 0.776455 0.572381
0.993652 0.787167 0.609125
0.997589 0.784482 0.617395
1.000000 0.772824 0.608087
0.497963 0.845457 0.004364
0.500237 0.845518 0.000000
0.503105 0.845396 0.000000
0.509148 0.844846 0.000000
0.518486 0.843839 0.000000
0.530785 0.842557 0.000000
0.545892 0.840909 0.000000
0.564019 0.838926 0.000000
0.584436 0.836790 0.000000
0.607172 0.834409 0.000000
0.632044 0.831754 0.000000
0.658869 0.831693 0.000000
0.687037 0.831601 0.000000
0.716121 0.831388 0.000000
0.745602 0.831022 0.008118
0.775326 0.830503 0.109071
0.805020 0.829923 0.155215
0.834318 0.829343 0.195407
0.862974 0.828946 0.233829
0.890745 0.828641 0.271366
0.904997 0.817655 0.318242
0.909850 0.798764 0.365637
0.921904 0.790585 0.426093
0.934539 0.787472 0.467323
0.946960 0.786038 0.490059
0.957733 0.785092 0.512139
0.967041 0.785000 0.534142
0.975128 0.785794 0.555993
0.983795 0.792996 0.589471
0.991211 0.802823 0.625177
0.994781 0.797208 0.627710
0.997345 0.785641 0.618311
0.518395 0.870176 0.111208
0.520378 0.870176 0.110475
0.523095 0.870054 0.107485
0.528679 0.869596 0.100435
0.537285 0.868864 0.089937
0.548699 0.867979 0.073732
0.563043 0.866911 0.032959
0.580102 0.865690 0.000000
0.599786 0.864347 0.000000
0.621637 0.862821 0.000000
0.645563 0.861051 0.000000
0.671565 0.860166 0.000000
0.698909 0.859953 0.000000
0.727077 0.859464 0.027741
0.755764 0.858732 0.115328
0.784329 0.857786 0.160678
0.812863 0.856687 0.200504
0.840879 0.855589 0.237949
0.868284 0.854582 0.274327
0.894285 0.853758 0.315251
0.918700 0.853117 0.356878
0.926635 0.838773 0.400275
0.929961 0.821225 0.442084
0.939788 0.815305 0.499855
0.949645 0.812894 0.534905
0.959625 0.811856 0.555993
0.968353 0.811460 0.576501
0.976013 0.811856 0.596368
0.982544 0.813199 0.616175
0.989319 0.820737 0.647333
0.992004 0.809354 0.637781
0.994598 0.797971 0.628351
0.543114 0.895018 0.177798
0.544915 0.895018 0.177127
0.547082 0.894804 0.175051
0.552026 0.894377 0.171023
0.559655 0.893736 0.164157
0.569818 0.892851 0.154604
0.582635 0.891814 0.142275
0.597955 0.890623 0.125399
0.615747 0.889250 0.102480
0.635798 0.887724 0.067109
0.657862 0.885985 0.000000
0.681941 0.884245 0.000000
0.708003 0.883360 0.044129
0.734890 0.882292 0.118349
