其他预设/【233】日式怀旧街道调色预设208款/1.3D LUT预设（视频调色-PR-AE-PS-FCPX-达芬奇用）/4.富士胶片风日式城市街拍预设 (自动曝光预设)/JA – Cityscape Pop 5 (Classic Chrome) (Auto).cube
# Created by Adobe Lightroom plugin Export LUT (1.17.0)
# www.johnrellis.com/lightroom/exportlut.htm
# Preset: JA – Cityscape Pop 5 (Classic Chrome) (Auto)
# Color profile: /Library/Application Support/Adobe/Color/Profiles/Recommended/AdobeRGB1998.icc
LUT_3D_SIZE 8
DOMAIN_MIN 0.000000 0.000000 0.000000
DOMAIN_MAX 0.903226 0.903226 0.903226
0.108705 0.117098 0.122560
0.124544 0.119692 0.122927
0.178805 0.129213 0.122591
0.344518 0.167269 0.110201
0.608057 0.239902 0.015503
0.765957 0.288090 0.000000
0.871275 0.323857 0.000000
0.950042 0.348974 0.000000
0.111818 0.128359 0.123476
0.126284 0.129091 0.123995
0.184909 0.142916 0.122194
0.359014 0.191409 0.106111
0.616388 0.265080 0.000000
0.769375 0.307530 0.000000
0.872923 0.339239 0.000000
0.950866 0.361273 0.000000
0.122347 0.162142 0.125704
0.137575 0.162997 0.126650
0.195285 0.178256 0.123659
0.402014 0.264378 0.090486
0.642634 0.342107 0.000000
0.781033 0.369543 0.000000
0.878630 0.388251 0.000000
0.953643 0.401831 0.000000
0.152926 0.256840 0.119753
0.175875 0.258183 0.120150
0.255375 0.284062 0.113252
0.431220 0.348974 0.072297
0.668330 0.435309 0.000000
0.798398 0.459876 0.000000
0.887938 0.464057 0.000000
0.958221 0.465797 0.000000
0.231388 0.453620 0.042329
0.263401 0.454108 0.041016
0.355016 0.458595 0.026459
0.515831 0.512139 0.000000
0.677302 0.528099 0.000000
0.807736 0.542565 0.000000
0.895506 0.545068 0.000000
0.963958 0.545739 0.000000
0.312474 0.625788 0.000000
0.342992 0.624750 0.000000
0.430030 0.621759 0.000000
0.555047 0.635615 0.000000
0.706813 0.663325 0.000000
0.813657 0.634119 0.000000
0.899687 0.623377 0.000000
0.965393 0.617609 0.000000
0.376074 0.746059 0.000000
0.400702 0.744961 0.000000
0.475898 0.741146 0.000000
0.581720 0.736934 0.000000
0.706142 0.751797 0.000000
0.837308 0.766201 0.000000
0.905303 0.713863 0.000000
0.964874 0.694240 0.143191
0.434546 0.840787 0.000000
0.454719 0.839780 0.000000
0.517845 0.836271 0.000000
0.611017 0.830228 0.061585
0.715297 0.831998 0.129244
0.823270 0.839384 0.203067
0.927459 0.846647 0.289372
0.963012 0.794461 0.401556
0.107149 0.119234 0.140322
0.122286 0.123445 0.138399
0.178195 0.128634 0.137392
0.345800 0.156680 0.128969
0.607568 0.220432 0.083436
0.765469 0.273136 0.000000
0.871031 0.313878 0.000000
0.950225 0.348150 0.000000
0.108827 0.131624 0.140688
0.125185 0.134188 0.140322
0.183536 0.143374 0.138827
0.358434 0.180819 0.126375
0.615381 0.247959 0.075410
0.768856 0.294072 0.000000
0.872679 0.329625 0.000000
0.951019 0.360388 0.000000
0.113222 0.171633 0.138949
0.135622 0.173587 0.140841
0.198001 0.184085 0.139956
0.402350 0.261204 0.112947
0.641047 0.331395 0.003357
0.780240 0.359930 0.000000
0.878294 0.381170 0.000000
0.953704 0.401007 0.000000
0.134249 0.274937 0.131136
0.167849 0.277287 0.133303
0.257359 0.295323 0.130282
0.436347 0.354498 0.101228
0.668574 0.432990 0.000000
0.798550 0.456580 0.000000
0.887510 0.459724 0.000000
0.958190 0.465583 0.000000
0.204135 0.472328 0.077577
0.245548 0.472267 0.078035
0.350408 0.471687 0.080140
0.515038 0.518334 0.000000
0.678645 0.530571 0.000000
0.807584 0.542107 0.000000
0.895354 0.544640 0.000000
0.963775 0.546349 0.000000
0.287480 0.634974 0.000000
0.322332 0.633875 0.000000
0.419287 0.629969 0.000000
0.549645 0.639002 0.000000
0.704646 0.665675 0.000000
0.813352 0.636225 0.000000
0.899168 0.624720 0.000000
0.965209 0.619409 0.000000
0.357794 0.750698 0.000000
0.384924 0.749477 0.000000
0.465797 0.745296 0.000000
0.575921 0.738430 0.000000
0.702754 0.752987 0.000000
0.834836 0.767239 0.000000
0.903746 0.716701 0.156527
0.965118 0.695338 0.150210
0.424628 0.842924 0.000000
0.445594 0.841886 0.000000
0.511803 0.838193 0.072053
0.607752 0.831785 0.148653
0.713527 0.832181 0.195651
0.822629 0.839780 0.225345
0.927337 0.847074 0.291142
0.963043 0.795163 0.403082
0.084810 0.123293 0.214786
0.115297 0.126497 0.211673
0.173190 0.137484 0.197574
0.331518 0.115572 0.216373
0.598047 0.100893 0.182589
0.760220 0.215366 0.172519
0.867735 0.284520 0.165957
0.947539 0.338293 0.173892
0.087953 0.141634 0.217014
0.108980 0.138827 0.214420
0.177615 0.151003 0.200778
0.347356 0.129274 0.209384
0.605707 0.164736 0.184329
0.763424 0.245396 0.172091
0.869261 0.303838 0.166506
0.948241 0.352239 0.175540
0.087098 0.194064 0.216464
0.109743 0.195315 0.215671
0.191470 0.201602 0.209049
0.389960 0.233005 0.200412
0.630793 0.287449 0.181247
0.774624 0.328832 0.169619
0.874540 0.364233 0.169528
0.950561 0.397772 0.183322
0.000000 0.314397 0.237949
0.070985 0.322393 0.230686
0.228946 0.335027 0.202518
0.441627 0.369879 0.200107
0.665126 0.425422 0.171298
0.792355 0.441108 0.167697
0.883238 0.452583 0.178286
0.954284 0.468696 0.200870
0.000000 0.516655 0.214328
0.000000 0.521508 0.179782
0.300633 0.519036 0.182681
0.499031 0.533959 0.185794
0.677455 0.540398 0.194339
0.804227 0.545678 0.184512
0.891966 0.551812 0.202426
0.958648 0.555932 0.231693
0.100374 0.662013 0.145144
0.204593 0.660670 0.154665
0.369299 0.655177 0.176791
0.527367 0.647822 0.197940
0.693080 0.672145 0.207065
0.808225 0.647028 0.249790
0.893950 0.636866 0.249363
0.959136 0.637812 0.282444
0.289036 0.764828 0.177584
0.328649 0.763333 0.185794
0.432807 0.758145 0.205112
0.560845 0.749386 0.234775
0.692195 0.755795 0.261845
0.824063 0.770108 0.291142
0.895445 0.730373 0.346990
0.957458 0.713954 0.341131
0.405615 0.848753 0.246799
0.427100 0.847623 0.248203
0.500572 0.843351 0.267643
0.602838 0.836179 0.302312
0.710994 0.831785 0.343206
0.816861 0.840146 0.371466
0.918364 0.848631 0.401892
0.959869 0.801511 0.446815
0.000000 0.127810 0.445228
0.000000 0.129793 0.438849
0.208743 0.127443 0.408240
0.340154 0.140566 0.370459
0.563287 0.143282 0.399237
0.743435 0.160159 0.359625
0.847379 0.343420 0.390570
0.929107 0.425269 0.416632
0.000000 0.164584 0.449805
0.000000 0.146181 0.443885
0.201938 0.148959 0.415900
0.347112 0.163424 0.375830
0.572137 0.178775 0.399207
0.745876 0.207156 0.359655
0.848569 0.363531 0.395148
0.930053 0.434577 0.416663
0.000000 0.270787 0.451850
0.000000 0.260075 0.451057
0.121218 0.218173 0.438422
0.370459 0.247990 0.390723
0.597772 0.281712 0.396887
0.747738 0.357488 0.393286
0.853178 0.422583 0.408301
0.932464 0.471382 0.422736
0.000000 0.398199 0.443977
0.000000 0.397864 0.442237
0.107149 0.397864 0.433814
0.411139 0.405829 0.408087
0.631189 0.439033 0.407599
0.765133 0.472084 0.414374
0.861479 0.504295 0.426123
0.935698 0.534783 0.440314
0.000000 0.558831 0.449409
0.000000 0.562371 0.443275
0.129244 0.570459 0.416876
0.460090 0.562493 0.407080
0.657496 0.569268 0.430915
0.784115 0.584070 0.436561
0.872160 0.598901 0.450446
0.939910 0.611505 0.464576
0.000000 0.687343 0.403784
0.000000 0.688045 0.396612
0.267369 0.687190 0.383948
0.508232 0.673152 0.416236
0.670008 0.678126 0.437476
0.790341 0.673884 0.471412
0.876707 0.676844 0.476234
0.942870 0.687129 0.492805
0.175967 0.782864 0.375402
0.244144 0.781735 0.378882
0.421027 0.773159 0.418372
0.557275 0.762875 0.435523
0.682734 0.756161 0.457221
0.804807 0.773220 0.483711
0.880186 0.753719 0.520256
0.943145 0.748348 0.517174
0.417426 0.855711 0.434394
0.461463 0.852415 0.455238
0.525444 0.847745 0.463142
0.607355 0.841581 0.463691
0.709957 0.833005 0.488502
0.808286 0.839933 0.512627
0.902281 0.850828 0.536614
0.947997 0.819364 0.567620
0.000000 0.139345 0.644648
0.000000 0.142428 0.641169
0.161105 0.142672 0.629206
0.379950 0.156435 0.595453
0.552331 0.212955 0.567132
0.703792 0.363226 0.563928
0.819486 0.450507 0.568658
0.903349 0.530419 0.585412
0.000000 0.175448 0.646326
0.000000 0.162356 0.643427
0.138949 0.175021 0.631403
0.381323 0.191287 0.598810
0.556481 0.248966 0.568902
0.704829 0.390661 0.567315
0.820218 0.465003 0.571099
0.902068 0.546044 0.591699
0.000000 0.291936 0.650263
0.000000 0.279698 0.649866
0.000000 0.253971 0.638941
0.393744 0.302220 0.608850
0.571130 0.354314 0.574029
0.710170 0.461830 0.577173
0.823270 0.507774 0.577234
0.900847 0.584436 0.605066
0.000000 0.428717 0.642878
0.000000 0.425177 0.642176
0.000000 0.420325 0.638727
0.423529 0.450599 0.621424
0.594995 0.486336 0.580957
0.725399 0.535668 0.585412
0.826169 0.577661 0.592126
0.909667 0.610346 0.600275
0.000000 0.572930 0.630701
0.000000 0.573693 0.629603
0.132753 0.578790 0.624689
0.446418 0.590295 0.612512
0.622004 0.596948 0.590478
0.749233 0.619226 0.594751
0.843809 0.641749 0.601556
0.918395 0.662379 0.608057
0.000000 0.714290 0.613214
0.000000 0.713985 0.610529
0.224979 0.710719 0.601587
0.480568 0.701686 0.590448
0.647089 0.689021 0.590082
0.769009 0.698634 0.610956
0.858396 0.715145 0.618891
0.926574 0.728603 0.626093
0.152712 0.795895 0.570489
0.232792 0.794553 0.570916
0.394903 0.789242 0.574548
0.547784 0.780941 0.582330
0.673030 0.768704 0.592706
0.782284 0.774868 0.609003
0.865385 0.774929 0.636591
0.930144 0.779904 0.638270
0.415320 0.863859 0.573083
0.442603 0.862486 0.576074
0.519249 0.858122 0.585321
0.612970 0.851255 0.597223
0.701625 0.842191 0.600153
0.794278 0.838743 0.616114
0.884367 0.853025 0.637446
0.936645 0.836576 0.662379
0.000000 0.168856 0.758785
0.000000 0.178836 0.756954
0.081636 0.219455 0.749599
0.370214 0.260166 0.733761
0.544244 0.332921 0.703975
0.685695 0.416693 0.684413
0.795224 0.540429 0.688655
0.877653 0.622217 0.709468
0.000000 0.193423 0.759884
0.000000 0.199466 0.758114
0.112337 0.256504 0.749996
0.380804 0.295384 0.734707
0.551720 0.361639 0.704891
0.688045 0.436622 0.684779
0.795621 0.551904 0.690059
0.878325 0.627161 0.710048
0.000000 0.300328 0.762661
0.000000 0.297948 0.761196
0.024109 0.320867 0.754025
0.425483 0.400122 0.737423
0.577569 0.445472 0.708370
0.696162 0.495308 0.686336
0.797330 0.587152 0.694697
0.880919 0.642969 0.711238
0.000000 0.423285 0.760159
0.000000 0.425940 0.759640
0.214939 0.450355 0.756680
0.470741 0.507927 0.742000
0.614984 0.546349 0.715053
0.708736 0.570245 0.689601
0.801022 0.635462 0.701961
0.886381 0.665919 0.710384
0.000000 0.553460 0.752346
0.000000 0.557061 0.751583
0.289525 0.574578 0.748226
0.501366 0.605615 0.741695
0.640162 0.631769 0.727260
0.723903 0.641688 0.695186
0.813809 0.674769 0.704067
0.892454 0.702663 0.710445
0.000000 0.682307 0.741268
0.150362 0.684443 0.740414
0.357733 0.691981 0.736995
0.521996 0.702358 0.730983
0.645014 0.710933 0.721584
0.742000 0.712276 0.703365
0.834348 0.732326 0.710231
0.908110 0.750576 0.716396
0.229282 0.811246 0.739254
0.285588 0.809812 0.737362
0.412665 0.804929 0.731746
0.540917 0.797971 0.722683
0.655818 0.790646 0.709895
0.759152 0.780972 0.703365
0.850126 0.792203 0.724575
0.918547 0.807462 0.731899
0.419196 0.872313 0.710445
0.444373 0.871183 0.710567
0.516472 0.867521 0.710353
0.604669 0.862425 0.708522
0.693111 0.856626 0.705623
0.777737 0.847715 0.704616
0.864012 0.854307 0.719905
0.925689 0.853330 0.743099
0.000000 0.243107 0.841703
0.000000 0.266087 0.840269
0.261723 0.359991 0.833646
0.446265 0.417639 0.824491
0.589929 0.480446 0.807340
0.691859 0.529442 0.783139
0.781979 0.578088 0.771817
0.865873 0.666682 0.785458
0.000000 0.264439 0.842222
0.000000 0.287816 0.840635
0.274479 0.378729 0.833921
0.464607 0.444068 0.824430
0.598474 0.498604 0.807584
0.695827 0.541833 0.783688
0.783108 0.586419 0.772030
0.866209 0.671778 0.785946
0.000000 0.351751 0.843015
0.000000 0.364569 0.841733
0.299168 0.427832 0.835599
0.520287 0.520043 0.823636
0.623926 0.551080 0.808865
0.708309 0.579675 0.785702
0.787045 0.612970 0.772976
0.867399 0.688350 0.787747
0.000000 0.456428 0.843229
0.142733 0.468086 0.842527
0.363775 0.510765 0.838132
0.539147 0.573968 0.827359
0.656397 0.617884 0.812619
0.725948 0.631098 0.790127
0.793545 0.651301 0.774838
0.869902 0.713619 0.790555
0.203281 0.565942 0.837766
0.271763 0.574121 0.837064
0.418555 0.601038 0.834592
0.558282 0.636774 0.831144
0.670527 0.671839 0.820218
0.745418 0.687251 0.798337
0.802090 0.695552 0.778103
0.874022 0.745663 0.794736
0.327214 0.672694 0.830747
0.366491 0.677089 0.830167
0.468177 0.691127 0.828214
0.579370 0.710018 0.825406
0.677943 0.729213 0.822019
0.761074 0.745174 0.811765
0.813107 0.745357 0.783230
0.884855 0.773648 0.795285
0.413672 0.770169 0.822629
0.439124 0.771847 0.822202
0.511711 0.777340 0.820584
0.598444 0.785092 0.818112
0.684596 0.793759 0.814298
0.761959 0.800931 0.807584
0.827298 0.799924 0.791135
0.902708 0.819455 0.799863
0.477363 0.875975 0.830777
0.494026 0.876799 0.831052
0.543999 0.878233 0.830411
0.614343 0.874540 0.823453
0.689723 0.870237 0.814115
0.765591 0.865721 0.801724
0.841093 0.858824 0.791501
0.914824 0.868803 0.812680
0.227115 0.418433 0.903868
0.309880 0.446632 0.902159
0.479530 0.527031 0.896361
0.594629 0.584619 0.889952
0.672358 0.616175 0.882048
0.743740 0.647791 0.870207
0.800290 0.671717 0.854124
0.859525 0.700923 0.848997
0.243961 0.431891 0.903868
0.320470 0.458381 0.902190
0.483070 0.534508 0.896574
0.605066 0.597864 0.889677
0.677485 0.625177 0.882200
0.746487 0.654353 0.870512
0.801755 0.676631 0.854490
0.860136 0.704524 0.849180
0.290929 0.473762 0.904051
0.346075 0.492378 0.902678
0.484993 0.552697 0.897765
0.630610 0.632929 0.889494
0.692805 0.652888 0.883024
0.755001 0.675349 0.871733
0.806485 0.692439 0.855894
0.862089 0.716304 0.849912
0.309545 0.519677 0.905577
0.361608 0.535485 0.904295
0.486671 0.582666 0.899992
0.616388 0.644068 0.893095
0.714229 0.693141 0.884733
0.766995 0.706386 0.874510
0.813840 0.716945 0.858824
0.865446 0.735012 0.851316
0.385199 0.601495 0.902708
0.416205 0.609216 0.902190
0.500572 0.633051 0.900511
0.596307 0.663783 0.898070
0.709224 0.715724 0.889769
0.779477 0.742855 0.879606
0.822965 0.747890 0.863828
0.870237 0.759884 0.853605
0.457527 0.686061 0.898466
0.479347 0.690700 0.898039
0.542077 0.704921 0.896849
0.620966 0.724575 0.895354
0.702724 0.747768 0.893797
0.783108 0.776883 0.887266
0.834745 0.786740 0.871763
0.876646 0.790982 0.856901
0.519036 0.766171 0.893950
0.534234 0.768551 0.893706
0.580163 0.776028 0.892882
0.644678 0.787625 0.891752
0.715389 0.801968 0.890471
0.784115 0.817441 0.889342
0.846281 0.831998 0.884154
0.885130 0.829099 0.861631
0.567956 0.840543 0.889464
0.578912 0.841611 0.889281
0.613886 0.845212 0.888701
0.666590 0.851194 0.887724
0.726864 0.858915 0.886503
0.787716 0.867552 0.884886
0.846098 0.875853 0.881926
0.897124 0.876493 0.869535
