其他预设/【233】日式怀旧街道调色预设208款/1.3D LUT预设（视频调色-PR-AE-PS-FCPX-达芬奇用）/4.富士胶片风日式城市街拍预设 (自动曝光预设)/JA – Controlled Contrast 4 (Classic Chrome) (Auto).cube
# Created by Adobe Lightroom plugin Export LUT (1.17.0)
# www.johnrellis.com/lightroom/exportlut.htm
# Preset: JA – Controlled Contrast 4 (Classic Chrome) (Auto)
# Color profile: /Library/Application Support/Adobe/Color/Profiles/Recommended/AdobeRGB1998.icc
LUT_3D_SIZE 8
DOMAIN_MIN 0.000000 0.000000 0.000000
DOMAIN_MAX 0.903226 0.903226 0.903226
0.000000 0.000000 0.000000
0.122866 0.000000 0.000000
0.300999 0.000000 0.000000
0.560357 0.000000 0.000000
0.713649 0.000000 0.000000
0.821378 0.000000 0.000000
0.925902 0.000000 0.000000
1.000000 0.000000 0.000000
0.006775 0.109438 0.000000
0.117403 0.101961 0.000000
0.304814 0.090791 0.000000
0.562860 0.000000 0.000000
0.714839 0.000000 0.000000
0.822385 0.000000 0.000000
0.926757 0.000000 0.000000
1.000000 0.000000 0.000000
0.058900 0.266575 0.000000
0.167544 0.286046 0.000000
0.273472 0.240177 0.000000
0.570703 0.302220 0.000000
0.718837 0.235416 0.000000
0.825803 0.122225 0.000000
0.929747 0.000000 0.000000
1.000000 0.000000 0.000000
0.080018 0.521202 0.000000
0.208042 0.536187 0.000000
0.414435 0.548791 0.000000
0.512505 0.461463 0.000000
0.700649 0.444678 0.000000
0.831724 0.383642 0.000000
0.934844 0.309941 0.000000
1.000000 0.215366 0.000000
0.093202 0.675257 0.000000
0.202487 0.681819 0.000000
0.389899 0.693874 0.000000
0.561456 0.676905 0.000000
0.655360 0.597162 0.000000
0.789975 0.549462 0.000000
0.941405 0.508934 0.000000
1.000000 0.436225 0.000000
0.110262 0.785885 0.000000
0.196201 0.790280 0.000000
0.359747 0.802548 0.000000
0.543389 0.812650 0.000000
0.677913 0.774166 0.000000
0.762875 0.698817 0.000000
0.881285 0.647456 0.000000
1.000000 0.607080 0.000000
0.124636 0.893309 0.000000
0.193271 0.896361 0.000000
0.336706 0.906401 0.000000
0.505119 0.913634 0.000000
0.675776 0.915343 0.000000
0.789670 0.870024 0.000000
0.876585 0.804044 0.000000
0.978912 0.744442 0.000000
0.108217 0.985687 0.000000
0.174929 0.986664 0.000000
0.308843 0.989441 0.000000
0.462074 0.990021 0.000000
0.619318 0.986175 0.000000
0.761440 0.972778 0.000000
0.881834 0.946563 0.000000
0.993408 0.909575 0.000000
0.050263 0.063478 0.100038
0.113283 0.023682 0.101869
0.283421 0.000000 0.120577
0.551171 0.000000 0.098695
0.710140 0.000000 0.000000
0.819272 0.000000 0.000000
0.924834 0.000000 0.000000
1.000000 0.000000 0.000000
0.065522 0.100801 0.092500
0.114839 0.107179 0.102052
0.296300 0.010163 0.089876
0.556664 0.000000 0.037079
0.711543 0.000000 0.000000
0.820310 0.000000 0.000000
0.925750 0.000000 0.000000
1.000000 0.000000 0.000000
0.006744 0.239689 0.100099
0.120363 0.270451 0.077333
0.281773 0.250004 0.052033
0.565942 0.278843 0.000000
0.716060 0.202243 0.000000
0.824063 0.000000 0.000000
0.928862 0.000000 0.000000
1.000000 0.000000 0.000000
0.000000 0.507530 0.000000
0.126711 0.522271 0.000000
0.391821 0.547356 0.000000
0.516808 0.466346 0.000000
0.704524 0.438331 0.000000
0.830289 0.370947 0.000000
0.934173 0.294652 0.000000
1.000000 0.193179 0.000000
0.000000 0.668269 0.000000
0.139528 0.675074 0.000000
0.363531 0.690944 0.000000
0.555261 0.679622 0.000000
0.657008 0.599298 0.000000
0.792874 0.547265 0.000000
0.940978 0.502434 0.000000
1.000000 0.428443 0.000000
0.007599 0.780819 0.000000
0.162783 0.785397 0.000000
0.337560 0.800412 0.000000
0.530999 0.810788 0.000000
0.675166 0.776211 0.000000
0.763699 0.699916 0.000000
0.883574 0.646693 0.000000
1.000000 0.603662 0.000000
0.122866 0.889403 0.000000
0.184878 0.892790 0.000000
0.321172 0.903746 0.000000
0.493904 0.912779 0.000000
0.671809 0.917052 0.000000
0.788174 0.871458 0.000000
0.877012 0.804715 0.000000
0.980255 0.743740 0.000000
0.116243 0.983917 0.000000
0.169558 0.985199 0.000000
0.293248 0.988769 0.000000
0.449683 0.990295 0.000000
0.611810 0.986511 0.000000
0.758267 0.973602 0.000000
0.881163 0.946990 0.000000
0.993652 0.909483 0.000000
0.000000 0.108431 0.245029
0.115053 0.080110 0.249058
0.261143 0.000000 0.241581
0.476570 0.000000 0.282811
0.678462 0.000000 0.277806
0.800504 0.000000 0.241581
0.915587 0.000000 0.207431
1.000000 0.000000 0.164309
0.066011 0.170779 0.240024
0.105135 0.144015 0.251865
0.268650 0.075685 0.248722
0.500786 0.000000 0.280461
0.686275 0.000000 0.260258
0.805722 0.000000 0.227878
0.918853 0.000000 0.198062
1.000000 0.000000 0.160739
0.084138 0.224796 0.205966
0.128328 0.238865 0.220859
0.288396 0.274968 0.266148
0.550988 0.192569 0.234806
0.704005 0.081849 0.218021
0.814420 0.000000 0.206088
0.922332 0.000000 0.187778
1.000000 0.000000 0.147219
0.000000 0.440620 0.259617
0.000000 0.461891 0.261051
0.307469 0.519219 0.259403
0.523156 0.480568 0.195804
0.711147 0.424659 0.190249
0.820981 0.353765 0.188846
0.928008 0.280339 0.169711
1.000000 0.158907 0.115114
0.000000 0.637446 0.237949
0.000000 0.645380 0.232700
0.332952 0.667262 0.265446
0.544335 0.686915 0.226017
0.658442 0.606134 0.112795
0.800015 0.548547 0.124392
0.935332 0.498360 0.132113
1.000000 0.418494 0.000000
0.000000 0.760739 0.203830
0.120790 0.764889 0.214054
0.362280 0.777432 0.282963
0.519860 0.798978 0.242863
0.672541 0.781430 0.177981
0.763912 0.704005 0.000000
0.889738 0.648310 0.000000
1.000000 0.599268 0.000000
0.136538 0.874296 0.212039
0.252750 0.875486 0.261021
0.382544 0.885801 0.287297
0.499611 0.904387 0.208804
0.669551 0.913451 0.190219
0.785733 0.875547 0.000000
0.877287 0.807095 0.000000
0.984649 0.741726 0.000000
0.245029 0.973877 0.244907
0.313390 0.973388 0.285679
0.369238 0.978882 0.236820
0.444404 0.987701 0.000000
0.602411 0.985412 0.000000
0.752041 0.975555 0.000000
0.876036 0.949157 0.000000
0.993835 0.910246 0.000000
0.000000 0.173739 0.486824
0.000000 0.130800 0.487526
0.294316 0.000000 0.485634
0.474281 0.000000 0.462928
0.589960 0.000000 0.415656
0.747402 0.000000 0.408209
0.880522 0.000000 0.388678
1.000000 0.000000 0.364263
0.000000 0.259373 0.486458
0.000000 0.220188 0.489448
0.284703 0.127108 0.488502
0.478828 0.000000 0.467659
0.592737 0.000000 0.415137
0.753994 0.000000 0.408911
0.883055 0.000000 0.392645
1.000000 0.000000 0.370214
0.010498 0.370336 0.467506
0.170993 0.374456 0.475898
0.323919 0.357031 0.493874
0.490822 0.270207 0.480415
0.628168 0.227359 0.441260
0.768948 0.180819 0.430732
0.889738 0.146609 0.426703
1.000000 0.000000 0.418860
0.050019 0.444800 0.417700
0.162722 0.451881 0.426856
0.341955 0.472206 0.456031
0.509239 0.503105 0.500298
0.667597 0.467842 0.482368
0.785153 0.439551 0.472084
0.899992 0.404486 0.460578
1.000000 0.350530 0.439185
0.154177 0.565576 0.417273
0.215396 0.574823 0.427161
0.362249 0.603601 0.462348
0.525994 0.648859 0.509514
0.644343 0.617945 0.460304
0.797360 0.597314 0.472786
0.910033 0.556176 0.461189
1.000000 0.501579 0.433448
0.215030 0.714473 0.432197
0.268070 0.718593 0.441444
0.395209 0.733669 0.473121
0.542260 0.762875 0.518730
0.683955 0.787747 0.511192
0.751614 0.711421 0.416022
0.888090 0.681910 0.417975
1.000000 0.645777 0.420661
0.283574 0.840360 0.445045
0.321660 0.843259 0.453742
0.420569 0.854246 0.479591
0.553368 0.875151 0.520287
0.678187 0.898466 0.510826
0.791379 0.880156 0.466865
0.867552 0.811398 0.333288
0.982544 0.756527 0.290929
0.316350 0.956786 0.445136
0.345068 0.957977 0.450904
0.424811 0.962402 0.466682
0.547356 0.968109 0.500694
0.641749 0.975463 0.460548
0.774594 0.971984 0.452796
0.873838 0.949950 0.324681
0.989563 0.911833 0.000000
0.000000 0.271885 0.635248
0.000000 0.238895 0.635370
0.256260 0.194217 0.632410
0.442390 0.000000 0.625635
0.601068 0.000000 0.601678
0.685542 0.000000 0.538018
0.807797 0.000000 0.526818
0.968078 0.000000 0.518120
0.175509 0.354376 0.634180
0.170260 0.325200 0.634607
0.278264 0.265843 0.632807
0.443763 0.151888 0.626551
0.602533 0.000000 0.603357
0.685786 0.000000 0.539513
0.811856 0.000000 0.531334
0.970672 0.000000 0.519524
0.289860 0.466957 0.630091
0.327123 0.467292 0.630823
0.386206 0.442054 0.632868
0.467445 0.366674 0.628199
0.606775 0.301884 0.607996
0.684871 0.280278 0.548455
0.825711 0.232486 0.551171
0.974884 0.000000 0.537377
0.284764 0.529808 0.604578
0.330449 0.534813 0.608118
0.441169 0.551446 0.620233
0.531609 0.550896 0.633021
0.615198 0.496010 0.617304
0.704921 0.461707 0.584314
0.851194 0.428809 0.586999
0.980194 0.380774 0.573510
0.268528 0.586633 0.564233
0.311803 0.588708 0.568261
0.419318 0.596063 0.581903
0.533471 0.610651 0.604944
0.633112 0.634485 0.636988
0.758999 0.612299 0.627070
0.880827 0.588342 0.618372
0.986236 0.557916 0.605127
0.338445 0.641016 0.539086
0.364630 0.646113 0.546532
0.440131 0.664363 0.571496
0.536919 0.698207 0.609613
0.648402 0.752865 0.646632
0.739315 0.722011 0.603265
0.894682 0.721889 0.620630
0.989837 0.681636 0.605035
0.386114 0.787991 0.582361
0.406439 0.791318 0.587671
0.466896 0.803799 0.604211
0.548882 0.829038 0.625788
0.660395 0.869047 0.651179
0.795895 0.891447 0.652338
0.854124 0.817746 0.555444
0.975738 0.785275 0.554070
0.420447 0.926238 0.609033
0.435737 0.928099 0.611505
0.482918 0.934936 0.618158
0.552026 0.947326 0.623529
0.660853 0.960449 0.642878
0.773404 0.965759 0.638209
0.872435 0.951324 0.589502
0.973480 0.914244 0.457527
0.259678 0.406409 0.739712
0.257816 0.387854 0.739803
0.324529 0.357794 0.737850
0.429847 0.296696 0.733272
0.560571 0.146151 0.724788
0.691463 0.087526 0.700343
0.776730 0.125338 0.654902
0.891722 0.168704 0.655268
0.336309 0.460426 0.738582
0.332525 0.444129 0.738674
0.359960 0.404761 0.737453
0.445472 0.348272 0.733089
0.564141 0.226780 0.724880
0.691829 0.187289 0.700801
0.776059 0.194461 0.656062
0.894316 0.207919 0.658045
0.417762 0.546197 0.736812
0.433600 0.545434 0.737057
0.455482 0.522454 0.737209
0.493599 0.472145 0.733364
0.580438 0.392645 0.725216
0.693477 0.350774 0.702480
0.773892 0.327703 0.660395
0.904265 0.303166 0.667414
0.443244 0.607538 0.728054
0.464729 0.611902 0.730190
0.524437 0.624018 0.737453
0.561578 0.600732 0.737423
0.607782 0.543877 0.728725
0.698116 0.497169 0.707424
0.771695 0.454719 0.666926
0.924132 0.412177 0.681178
0.431434 0.648127 0.703182
0.451972 0.650782 0.705348
0.511284 0.659754 0.713161
0.587427 0.674250 0.727840
0.647913 0.669184 0.740261
0.709224 0.616236 0.719295
0.792721 0.570367 0.688319
0.954223 0.532647 0.695857
0.411902 0.685328 0.668360
0.431586 0.686305 0.670466
0.488746 0.690181 0.677882
0.562463 0.698390 0.691218
0.640925 0.712947 0.711604
0.733333 0.739162 0.744717
0.864683 0.720058 0.738125
0.970245 0.698360 0.729122
0.452552 0.726162 0.647791
0.465126 0.726650 0.649928
0.504021 0.730129 0.658259
0.561089 0.755489 0.683070
0.635981 0.797696 0.716884
0.753719 0.862577 0.758907
0.843931 0.827604 0.706905
0.971191 0.818387 0.733883
0.494453 0.880980 0.710323
0.503136 0.883391 0.712245
0.531945 0.892241 0.718441
0.578943 0.908476 0.726955
0.648402 0.931182 0.736385
0.763516 0.952636 0.762478
0.876616 0.954223 0.768399
0.957214 0.917510 0.649989
0.428565 0.539239 0.842130
0.426490 0.528405 0.842222
0.445869 0.505394 0.841367
0.497627 0.470405 0.838773
0.572961 0.403265 0.834134
0.676967 0.298039 0.824552
0.787991 0.266911 0.802518
0.894102 0.289769 0.788876
0.460945 0.568444 0.841642
0.458473 0.558282 0.841703
0.464881 0.529900 0.841276
0.510735 0.496437 0.838621
0.580438 0.434028 0.833982
0.679408 0.335058 0.824552
0.787991 0.303563 0.802487
0.893675 0.315221 0.789151
0.513359 0.628779 0.841154
0.523095 0.627863 0.841276
0.526452 0.604517 0.841367
0.546746 0.566674 0.839200
0.602472 0.516197 0.834165
0.687312 0.430915 0.825132
0.788418 0.397436 0.802823
0.892454 0.385351 0.789822
0.544457 0.688136 0.841184
0.552850 0.687434 0.841489
0.579278 0.683497 0.842222
0.601495 0.659236 0.842161
0.631159 0.612024 0.836973
0.698665 0.542779 0.827390
0.790402 0.501610 0.804685
0.891478 0.469184 0.789639
0.538018 0.722805 0.826322
0.549645 0.724758 0.827817
0.586572 0.731228 0.833402
0.642481 0.741604 0.844175
0.673396 0.714443 0.844724
0.712642 0.652583 0.833707
0.795712 0.600610 0.809934
0.891081 0.555474 0.786954
0.523552 0.757107 0.803738
0.534356 0.758358 0.805081
0.569299 0.762722 0.810117
0.621607 0.770260 0.819730
0.689570 0.782345 0.835752
0.750668 0.775509 0.848417
0.807828 0.709682 0.821836
0.906523 0.655451 0.792844
0.502312 0.788357 0.772702
0.512322 0.788876 0.773770
0.544518 0.790860 0.777676
0.592920 0.794980 0.784848
0.655848 0.802579 0.796597
0.735744 0.816709 0.816220
0.839139 0.846220 0.852354
0.948791 0.833036 0.849271
0.542535 0.846006 0.772000
0.549187 0.846433 0.772946
0.571069 0.847959 0.775906
0.606195 0.850584 0.780606
0.655940 0.870451 0.796750
0.733516 0.907378 0.824216
0.862455 0.943114 0.869688
0.939025 0.922362 0.810758
0.562707 0.659083 0.935088
0.560815 0.652064 0.935424
0.565148 0.633661 0.936034
0.593317 0.611444 0.936156
0.637934 0.572290 0.936187
0.703822 0.503746 0.936004
0.799435 0.424475 0.932036
0.906584 0.386908 0.920775
0.578576 0.675349 0.934539
0.576654 0.668666 0.934844
0.574426 0.646601 0.935760
0.600671 0.624872 0.935882
0.642908 0.586725 0.935912
0.706630 0.520867 0.935668
0.800259 0.442573 0.931884
0.906554 0.404273 0.920653
0.616968 0.719081 0.933135
0.623590 0.718715 0.933257
0.615930 0.696254 0.934356
0.622950 0.666011 0.935241
0.658350 0.631037 0.935210
0.715084 0.572198 0.934874
0.802640 0.495949 0.931579
0.906432 0.455695 0.920348
0.627161 0.755886 0.932097
0.634150 0.755856 0.932280
0.657160 0.755215 0.932799
0.668574 0.734432 0.934081
0.682063 0.694942 0.934691
0.727077 0.643061 0.934234
0.805142 0.566644 0.931762
0.906737 0.524193 0.920256
0.637934 0.797574 0.928374
0.645624 0.798703 0.928923
0.671687 0.802548 0.930938
0.698756 0.796963 0.932891
0.725551 0.776974 0.934356
0.744625 0.725612 0.934295
0.807248 0.649073 0.932555
0.907530 0.603326 0.920592
0.626001 0.830900 0.920104
0.633204 0.831571 0.920653
0.657618 0.833768 0.922698
0.698451 0.837797 0.926482
0.756435 0.845670 0.932311
0.790707 0.826566 0.934783
0.817227 0.758480 0.932799
0.908873 0.696254 0.921202
0.609461 0.869596 0.908415
0.615991 0.869902 0.908965
0.638239 0.870878 0.910826
0.676478 0.872709 0.914366
0.731197 0.876341 0.919982
0.803525 0.884428 0.928252
0.863218 0.882383 0.935119
0.911650 0.810788 0.922759
0.587396 0.911528 0.892119
0.593133 0.911589 0.892515
0.612940 0.911772 0.893889
0.647639 0.912261 0.896452
0.697078 0.913085 0.900511
0.762112 0.914519 0.906523
0.843748 0.917937 0.916197
0.927550 0.932219 0.936095
