其他预设/【233】日式怀旧街道调色预设208款/1.3D LUT预设（视频调色-PR-AE-PS-FCPX-达芬奇用）/4.富士胶片风日式城市街拍预设 (自动曝光预设)/JA – Cityscape Pop 5 (Classic Chrome) (Auto).cube
# Created by Adobe Lightroom plugin Export LUT (1.17.0)
# www.johnrellis.com/lightroom/exportlut.htm
# Preset: JA – Cityscape Pop 5 (Classic Chrome) (Auto)
# Color profile: /Library/Application Support/Adobe/Color/Profiles/Recommended/AdobeRGB1998.icc
LUT_3D_SIZE 5
DOMAIN_MIN 0.000000 0.000000 0.000000
DOMAIN_MAX 0.903226 0.903226 0.903226
0.108705 0.117098 0.122560
0.159731 0.125551 0.123049
0.485145 0.205753 0.084993
0.795682 0.297856 0.000000
0.950042 0.348974 0.000000
0.118807 0.150240 0.125002
0.169070 0.159335 0.124361
0.526513 0.289189 0.043732
0.805234 0.356512 0.000000
0.952758 0.389288 0.000000
0.186679 0.347845 0.101137
0.273838 0.354711 0.099702
0.575402 0.452766 0.000000
0.828000 0.502434 0.000000
0.960998 0.504143 0.000000
0.329747 0.659480 0.000000
0.418036 0.656062 0.000000
0.632319 0.674464 0.000000
0.839841 0.655818 0.000000
0.965454 0.636225 0.000000
0.434546 0.840787 0.000000
0.498512 0.837400 0.000000
0.662654 0.828275 0.115724
0.850126 0.841215 0.223789
0.963012 0.794461 0.401556
0.096620 0.122286 0.186313
0.154452 0.133150 0.175937
0.477729 0.114595 0.164950
0.792752 0.249729 0.126314
0.948882 0.337865 0.117708
0.100740 0.169924 0.187381
0.165988 0.176242 0.183322
0.516197 0.243473 0.160098
0.801907 0.323552 0.119753
0.951293 0.381811 0.122133
0.000000 0.405005 0.187411
0.241428 0.412726 0.163058
0.580407 0.463996 0.146304
0.826841 0.498756 0.108644
0.958526 0.505821 0.150210
0.226444 0.683070 0.096040
0.367376 0.678462 0.122377
0.617395 0.681636 0.153323
0.835752 0.665003 0.212619
0.961364 0.649348 0.239963
0.407202 0.847257 0.191684
0.480659 0.843259 0.214450
0.657954 0.830686 0.286351
0.844999 0.842130 0.339757
0.962524 0.797482 0.413855
0.000000 0.131685 0.561975
0.135409 0.128084 0.545708
0.458564 0.148470 0.481636
0.755825 0.303014 0.475807
0.912352 0.501610 0.524895
0.000000 0.256962 0.569116
0.000000 0.203525 0.557763
0.477516 0.257145 0.492531
0.761013 0.386206 0.485481
0.916014 0.524132 0.525200
0.000000 0.500389 0.553613
0.000000 0.501640 0.548302
0.534691 0.516747 0.513542
0.782193 0.562493 0.521386
0.925841 0.606439 0.536980
0.000000 0.724147 0.500267
0.221073 0.722377 0.491676
0.594141 0.702693 0.516655
0.806058 0.708644 0.558587
0.934874 0.724788 0.572076
0.411994 0.860319 0.501854
0.497414 0.855375 0.518669
0.657557 0.841306 0.537926
0.825589 0.842649 0.573602
0.942321 0.828000 0.616968
0.000000 0.181521 0.781827
0.000000 0.235538 0.775418
0.471870 0.331701 0.748348
0.712398 0.462623 0.708125
0.871550 0.642725 0.733364
0.000000 0.278721 0.784268
0.000000 0.300969 0.778653
0.509606 0.425513 0.750301
0.719173 0.512840 0.709255
0.874083 0.656977 0.734859
0.000000 0.489479 0.780270
0.219913 0.512139 0.777584
0.579644 0.590356 0.759701
0.738186 0.622461 0.714687
0.884550 0.694301 0.733944
0.186038 0.706111 0.763607
0.364782 0.713191 0.760891
0.600610 0.729793 0.751675
0.765682 0.736049 0.726955
0.906401 0.769192 0.739010
0.419440 0.874723 0.744167
0.494301 0.871183 0.742306
0.647120 0.862638 0.734981
0.794583 0.849943 0.727626
0.923033 0.857328 0.761379
0.227115 0.418433 0.903868
0.436255 0.504112 0.898161
0.631891 0.598383 0.886809
0.759396 0.654597 0.866667
0.859525 0.700923 0.848997
0.278264 0.461372 0.903960
0.445228 0.527642 0.899016
0.654719 0.632593 0.886809
0.766781 0.674250 0.867826
0.861448 0.712642 0.849668
0.346288 0.558953 0.904662
0.452705 0.589227 0.902739
0.666590 0.682124 0.891234
0.785153 0.726223 0.873381
0.867674 0.746670 0.852354
0.473945 0.706600 0.897337
0.535027 0.719142 0.896208
0.666651 0.750362 0.893736
0.799741 0.791196 0.886656
0.878538 0.799771 0.857908
0.567956 0.840543 0.889464
0.603082 0.844083 0.888853
0.696254 0.854887 0.887144
0.802609 0.869718 0.884367
0.897124 0.876493 0.869535
