其他预设/【233】日式怀旧街道调色预设208款/1.3D LUT预设（视频调色-PR-AE-PS-FCPX-达芬奇用）/4.富士胶片风日式城市街拍预设 (自动曝光预设)/JA – Gritty Contrast 1 (Classic Chrome) (Auto).cube
# Created by Adobe Lightroom plugin Export LUT (1.17.0)
# www.johnrellis.com/lightroom/exportlut.htm
# Preset: JA – Gritty Contrast 1 (Classic Chrome) (Auto)
# Color profile: /Library/Application Support/Adobe/Color/Profiles/Recommended/AdobeRGB1998.icc
LUT_3D_SIZE 8
DOMAIN_MIN 0.000000 0.000000 0.000000
DOMAIN_MAX 0.903226 0.903226 0.903226
0.112947 0.115755 0.117494
0.141756 0.112520 0.118715
0.240085 0.111910 0.121889
0.457649 0.114626 0.114076
0.691463 0.144289 0.086275
0.863737 0.190951 0.079927
0.964721 0.243259 0.152132
1.000000 0.338964 0.290654
0.113588 0.133059 0.118563
0.141817 0.132662 0.121706
0.239658 0.141909 0.123537
0.453529 0.165743 0.112581
0.686824 0.197208 0.083070
0.857328 0.229801 0.078370
0.960906 0.269291 0.151705
1.000000 0.354376 0.292393
0.137301 0.188510 0.120272
0.164096 0.189578 0.119203
0.243168 0.201144 0.127749
0.466957 0.272374 0.105348
0.698146 0.314427 0.068421
0.860929 0.333440 0.081605
0.963348 0.355444 0.175753
1.000000 0.422034 0.325597
0.195987 0.313085 0.110842
0.227085 0.312413 0.106386
0.310674 0.318669 0.107546
0.487892 0.372778 0.102724
0.721767 0.444831 0.060639
0.868711 0.457343 0.108522
0.960967 0.462715 0.215579
1.000000 0.509483 0.369421
0.291203 0.501366 0.023926
0.323735 0.499184 0.000000
0.417792 0.500328 0.000000
0.553338 0.518181 0.000000
0.716670 0.539208 0.103304
0.865507 0.564538 0.157473
0.954314 0.573571 0.273533
1.000000 0.606165 0.428138
0.386938 0.673579 0.000000
0.417334 0.674342 0.000000
0.501762 0.664424 0.000000
0.626307 0.673518 0.000000
0.755367 0.673304 0.087617
0.867796 0.663722 0.238407
0.949126 0.671717 0.356146
0.996124 0.703212 0.502068
0.477028 0.817166 0.000000
0.499763 0.815763 0.000000
0.570092 0.807919 0.000000
0.677455 0.804318 0.000000
0.800046 0.804715 0.126650
0.888243 0.778256 0.297978
0.946014 0.762112 0.456031
0.986206 0.776455 0.572381
0.566583 0.914916 0.233371
0.581262 0.913878 0.222416
0.631861 0.910491 0.180056
0.717678 0.905241 0.136568
0.819333 0.896300 0.274083
0.915984 0.890654 0.429877
0.956847 0.859770 0.579858
0.981170 0.853117 0.675898
0.115419 0.119142 0.142733
0.131228 0.117983 0.140841
0.228702 0.119875 0.136904
0.437995 0.135927 0.129152
0.676661 0.175113 0.099519
0.850126 0.222995 0.078096
0.957794 0.264012 0.147189
1.000000 0.342382 0.284092
0.111818 0.134920 0.142000
0.137026 0.140383 0.142428
0.229892 0.148440 0.141176
0.439948 0.174716 0.128908
0.677028 0.214450 0.098573
0.847837 0.253910 0.078340
0.955047 0.287205 0.148104
1.000000 0.356847 0.285527
0.125185 0.195377 0.144686
0.158297 0.199435 0.143374
0.239200 0.205020 0.146761
0.454475 0.269078 0.128878
0.686275 0.315068 0.096895
0.850675 0.340764 0.088380
0.955779 0.363134 0.167514
1.000000 0.420233 0.315435
0.170565 0.324468 0.137026
0.211429 0.325505 0.134157
0.310124 0.329381 0.130861
0.475349 0.368017 0.137392
0.701961 0.434943 0.108644
0.854826 0.452827 0.119570
0.953704 0.463264 0.203616
1.000000 0.505852 0.358556
0.265537 0.513725 0.103914
0.303532 0.510521 0.094392
0.406439 0.505089 0.067903
0.545769 0.518486 0.097200
0.705409 0.534630 0.149538
0.857572 0.561730 0.179080
0.950683 0.573266 0.266178
1.000000 0.604425 0.421790
0.364538 0.677974 0.046052
0.395117 0.675349 0.000000
0.485115 0.665431 0.000000
0.615076 0.671717 0.000000
0.752438 0.676234 0.143008
0.863859 0.665339 0.268864
0.947417 0.671168 0.352331
0.995148 0.701778 0.497597
0.460182 0.816526 0.106752
0.482399 0.813809 0.084382
0.555108 0.806577 0.000000
0.666407 0.802335 0.000000
0.793393 0.803952 0.171359
0.885344 0.779812 0.317266
0.943969 0.760067 0.449195
0.985138 0.773861 0.565789
0.559808 0.914122 0.273869
0.574670 0.913359 0.265263
0.624689 0.910277 0.229007
0.709987 0.905028 0.169650
0.817380 0.898711 0.301244
0.915190 0.891814 0.431281
0.956451 0.860075 0.576593
0.980987 0.853666 0.676478
0.102235 0.132509 0.244755
0.116518 0.137362 0.241550
0.201205 0.138857 0.221988
0.408118 0.087465 0.244450
0.677119 0.000000 0.211337
0.849088 0.168093 0.224277
0.956023 0.269352 0.254185
1.000000 0.366888 0.326177
0.089784 0.161166 0.242496
0.119600 0.157748 0.242374
0.206332 0.159060 0.224552
0.419043 0.121096 0.236790
0.675380 0.116243 0.216739
0.846464 0.214939 0.226139
0.953948 0.293492 0.255772
1.000000 0.381994 0.329595
0.100160 0.221561 0.240513
0.132570 0.223667 0.240024
0.226169 0.229984 0.232914
0.444251 0.252781 0.232700
0.683742 0.289860 0.231479
0.848417 0.328038 0.240085
0.952453 0.372656 0.275364
1.000000 0.438117 0.352148
0.091066 0.360357 0.274510
0.136599 0.366369 0.267216
0.277928 0.373358 0.227512
0.471962 0.387335 0.246403
0.696254 0.440955 0.255711
0.851011 0.458381 0.271672
0.949981 0.479225 0.314336
1.000000 0.522301 0.394568
0.111360 0.552758 0.263584
0.170230 0.554284 0.239384
0.358495 0.544945 0.220859
0.538048 0.545068 0.226230
0.701625 0.552239 0.285588
0.851255 0.578576 0.317754
0.944549 0.590692 0.368688
1.000000 0.615717 0.449348
0.280247 0.706294 0.258824
0.325566 0.703883 0.253880
0.440711 0.693416 0.225589
0.588403 0.683955 0.202731
0.747707 0.693721 0.279210
0.854002 0.678614 0.376043
0.939544 0.687068 0.434821
0.993042 0.709895 0.518059
0.428992 0.830900 0.311833
0.452003 0.828672 0.303166
0.524498 0.821073 0.266423
0.637629 0.808682 0.198672
0.776761 0.809079 0.292607
0.881956 0.794522 0.404913
0.938354 0.772213 0.508507
0.984222 0.781216 0.582879
0.557794 0.916594 0.411963
0.568353 0.915679 0.401221
0.612268 0.912810 0.372259
0.691951 0.908690 0.319829
0.802640 0.901335 0.371221
0.905394 0.894408 0.477485
0.954620 0.864836 0.585870
0.980468 0.855619 0.678309
0.000000 0.157748 0.495094
0.000000 0.162448 0.493782
0.219852 0.183047 0.456519
0.359625 0.151675 0.398535
0.605768 0.129366 0.423285
0.822995 0.147677 0.408911
0.941344 0.322301 0.430671
1.000000 0.430213 0.470985
0.000000 0.227024 0.493446
0.000000 0.210880 0.493721
0.223697 0.216312 0.462074
0.365759 0.179324 0.402686
0.613947 0.175753 0.424262
0.824643 0.204013 0.409155
0.939757 0.347448 0.434394
1.000000 0.441596 0.471962
0.000000 0.317662 0.485725
0.000000 0.312474 0.483925
0.209873 0.294713 0.476661
0.387976 0.272160 0.414893
0.641535 0.297093 0.427924
0.832212 0.358373 0.433509
0.939879 0.433326 0.458900
1.000000 0.494026 0.490089
0.000000 0.434150 0.476478
0.000000 0.435035 0.475105
0.242191 0.437232 0.465705
0.433204 0.431250 0.432349
0.664912 0.463478 0.445899
0.830320 0.494575 0.459571
0.934997 0.526390 0.479744
0.997711 0.566949 0.516381
0.000000 0.601434 0.503471
0.140871 0.601617 0.499336
0.312963 0.601007 0.480354
0.488777 0.586297 0.429999
0.680537 0.588495 0.467140
0.833921 0.620508 0.495583
0.930907 0.631006 0.517418
0.990814 0.652338 0.555901
0.252689 0.741787 0.500694
0.298650 0.743038 0.498238
0.404517 0.736934 0.477058
0.547997 0.718410 0.434424
0.722133 0.715145 0.450294
0.839567 0.708705 0.521416
0.926543 0.720851 0.559380
0.983093 0.737057 0.604852
0.422004 0.848173 0.514031
0.444373 0.847166 0.511345
0.525933 0.840574 0.511589
0.610529 0.830320 0.454627
0.746853 0.820279 0.439185
0.876616 0.820493 0.524285
0.927062 0.793515 0.601770
0.976135 0.801389 0.649012
0.601923 0.917815 0.597864
0.615595 0.916747 0.598840
0.632898 0.915923 0.568566
0.679530 0.913329 0.513207
0.773922 0.906584 0.466377
0.886625 0.898955 0.556268
0.948882 0.879240 0.644038
0.975525 0.864256 0.709895
0.000000 0.234440 0.718105
0.000000 0.243198 0.716640
0.171115 0.278447 0.698085
0.399725 0.276524 0.651698
0.548669 0.217899 0.594995
0.755093 0.307012 0.595087
0.907012 0.411139 0.600824
0.982361 0.535424 0.629908
0.000000 0.297581 0.714137
0.000000 0.289494 0.715023
0.180545 0.306004 0.701564
0.410712 0.313146 0.655543
0.552453 0.251041 0.596063
0.756985 0.338445 0.597192
0.907561 0.432288 0.603784
0.981933 0.547845 0.633082
0.000000 0.392889 0.708217
0.000000 0.392462 0.707607
0.228946 0.395605 0.705776
0.453101 0.422522 0.665126
0.566125 0.349371 0.599237
0.764462 0.420752 0.602594
0.908476 0.495491 0.612848
0.979187 0.593194 0.647425
0.000000 0.508995 0.701961
0.000000 0.510704 0.700893
0.295567 0.521141 0.696376
0.498329 0.539666 0.683955
0.595209 0.485206 0.608057
0.786007 0.533501 0.617700
0.911620 0.593042 0.635981
0.980041 0.628779 0.645777
0.000000 0.636408 0.689570
0.153750 0.637903 0.688197
0.346838 0.642054 0.681422
0.514305 0.643885 0.664576
0.632471 0.621912 0.619226
0.804135 0.651026 0.635767
0.910674 0.673671 0.648890
0.976440 0.692439 0.661524
0.273533 0.771176 0.692073
0.321050 0.770382 0.690486
0.440162 0.766140 0.684016
0.563378 0.757870 0.666804
0.664332 0.734401 0.609491
0.813901 0.739193 0.651270
0.908904 0.760128 0.679011
0.970703 0.767178 0.694179
0.473365 0.860807 0.693538
0.493324 0.859617 0.692256
0.553429 0.855741 0.687251
0.629877 0.849149 0.671809
0.706111 0.834928 0.615473
0.842313 0.830076 0.635340
0.911528 0.817166 0.695460
0.965301 0.824949 0.721859
0.621057 0.919799 0.715541
0.631067 0.919097 0.715053
0.663111 0.916838 0.712276
0.713863 0.914153 0.706569
0.753109 0.911559 0.643275
0.856199 0.904479 0.636805
0.940856 0.897063 0.708583
0.967376 0.877958 0.759884
0.000000 0.354162 0.844907
0.000000 0.358892 0.844205
0.247623 0.401770 0.837705
0.499184 0.489723 0.819486
0.580743 0.435035 0.786740
0.699306 0.372320 0.743923
0.864042 0.488472 0.740139
0.952575 0.619471 0.754421
0.000000 0.386297 0.841581
0.000000 0.388769 0.841154
0.271702 0.424262 0.837888
0.512963 0.511742 0.818631
0.587274 0.456794 0.785885
0.700587 0.392798 0.742702
0.863645 0.504387 0.740414
0.952361 0.627161 0.755215
0.000000 0.469490 0.839628
0.144625 0.475441 0.839231
0.351751 0.502861 0.837858
0.538659 0.562158 0.823880
0.618952 0.534081 0.789944
0.710628 0.462501 0.744259
0.864988 0.559625 0.744656
0.952636 0.656428 0.760159
0.195621 0.563958 0.835447
0.263005 0.570031 0.834592
0.415961 0.593957 0.832547
0.580896 0.636316 0.829984
0.676448 0.645258 0.800107
0.730770 0.564630 0.749783
0.869352 0.638544 0.754238
0.954284 0.701991 0.768978
0.296757 0.664485 0.826993
0.341558 0.668605 0.826474
0.461067 0.683375 0.824521
0.599725 0.707057 0.820829
0.715755 0.728664 0.813687
0.750179 0.662989 0.751949
0.879759 0.710689 0.762142
0.956725 0.751034 0.776089
0.383673 0.765957 0.816678
0.417151 0.768368 0.816617
0.508965 0.774685 0.814511
0.619379 0.783108 0.810025
0.715236 0.787442 0.799710
0.778988 0.765866 0.761715
0.890562 0.790280 0.778378
0.957061 0.801236 0.783597
0.500725 0.876432 0.825223
0.524132 0.875669 0.824491
0.590478 0.872343 0.820981
0.676112 0.867460 0.815640
0.750362 0.861265 0.804318
0.801358 0.844877 0.757626
0.894865 0.844846 0.789548
0.953857 0.855100 0.801968
0.659541 0.921599 0.821927
0.668574 0.921019 0.821500
0.697841 0.919249 0.820127
0.740780 0.917174 0.816861
0.786221 0.914794 0.806851
0.827329 0.911620 0.763210
0.918425 0.907317 0.780209
0.957366 0.894499 0.816678
0.334508 0.498665 0.906645
0.333654 0.501640 0.906310
0.415381 0.529107 0.904112
0.587427 0.612848 0.895171
0.678981 0.640558 0.883574
0.720882 0.591547 0.867460
0.810941 0.547112 0.848997
0.927184 0.663294 0.847257
0.337072 0.514580 0.906096
0.336370 0.516716 0.905791
0.437415 0.547539 0.903960
0.594842 0.623163 0.895323
0.688838 0.655390 0.883757
0.727077 0.606775 0.867918
0.813199 0.560906 0.849393
0.927459 0.673091 0.848264
0.340642 0.553887 0.903929
0.366888 0.559716 0.903593
0.477699 0.593133 0.901762
0.614984 0.652674 0.896025
0.718776 0.699672 0.884062
0.745144 0.651392 0.868437
0.818509 0.600214 0.848875
0.927245 0.699184 0.849332
0.390234 0.616266 0.900816
0.420478 0.623072 0.900328
0.514031 0.648798 0.898772
0.640314 0.695277 0.895933
0.747890 0.746792 0.886778
0.774228 0.716274 0.870268
0.827207 0.657618 0.848478
0.927794 0.738582 0.851621
0.454353 0.691615 0.896727
0.479805 0.696864 0.896361
0.555566 0.714473 0.895140
0.654597 0.742000 0.893431
0.760616 0.781308 0.891447
0.811826 0.788083 0.876158
0.839872 0.725826 0.849638
0.929870 0.785458 0.856016
0.521172 0.770077 0.891752
0.540581 0.773190 0.891447
0.600336 0.783597 0.890532
0.682063 0.800137 0.889281
0.766415 0.820615 0.888273
0.839536 0.841672 0.887480
0.854551 0.795804 0.851682
0.937469 0.829679 0.860960
0.582513 0.844175 0.886168
0.596887 0.845518 0.885954
0.643122 0.850309 0.885313
0.708919 0.857908 0.884428
0.779232 0.867247 0.883543
0.839628 0.875151 0.881407
0.873228 0.862516 0.858885
0.944274 0.875914 0.867063
0.655512 0.923430 0.894499
0.665980 0.923980 0.894804
0.698573 0.925719 0.895598
0.749203 0.922911 0.892027
0.805112 0.920378 0.888640
0.853208 0.919432 0.883940
0.888670 0.917754 0.857084
0.946624 0.912535 0.874754
0.557397 0.635554 0.941100
0.557946 0.636774 0.941009
0.567803 0.643610 0.940490
0.676783 0.706203 0.935698
0.780484 0.773739 0.929900
0.809323 0.769863 0.928130
0.837705 0.745907 0.926024
0.897307 0.731258 0.922850
0.560082 0.642115 0.940887
0.560143 0.643214 0.940764
0.573877 0.651240 0.940124
0.679957 0.710811 0.935576
0.781949 0.776730 0.929961
0.812985 0.776089 0.928038
0.840208 0.752285 0.926055
0.898314 0.736904 0.922972
0.566278 0.661097 0.940093
0.566308 0.662104 0.940002
0.587091 0.672145 0.939208
0.686122 0.722683 0.935332
0.784878 0.785061 0.930053
0.824155 0.795163 0.927642
0.847532 0.771664 0.925841
0.901061 0.753750 0.922911
0.576043 0.688746 0.938994
0.576135 0.689570 0.938933
0.591974 0.696742 0.938323
0.690883 0.741390 0.934813
0.785855 0.795377 0.930510
0.840452 0.822782 0.927306
0.858488 0.800443 0.925689
0.905394 0.779019 0.922972
0.591485 0.732204 0.937041
0.591394 0.732113 0.937041
0.606043 0.735042 0.936736
0.671870 0.755123 0.935058
0.779049 0.805142 0.931182
0.852903 0.847501 0.927886
0.872404 0.834958 0.926146
0.911315 0.811093 0.923461
0.610773 0.783078 0.934630
0.614130 0.783383 0.934600
0.649348 0.791623 0.933837
0.705074 0.806027 0.932494
0.771725 0.826139 0.930877
0.847898 0.858000 0.929046
0.889799 0.873136 0.927031
0.918486 0.847501 0.924254
0.655604 0.840269 0.931487
0.664179 0.841794 0.931334
0.692744 0.846983 0.930755
0.738186 0.855955 0.929870
0.793240 0.868345 0.928985
0.849058 0.882994 0.928466
0.902159 0.901701 0.928832
0.927611 0.888609 0.926268
0.700282 0.893095 0.927642
0.707088 0.893889 0.927520
0.729793 0.896635 0.927245
0.766720 0.901396 0.926818
0.812222 0.907927 0.926543
0.859892 0.915831 0.926879
0.904479 0.924651 0.928283
0.938109 0.931609 0.929351
