其他预设/【233】日式怀旧街道调色预设208款/1.3D LUT预设（视频调色-PR-AE-PS-FCPX-达芬奇用）/4.富士胶片风日式城市街拍预设 (自动曝光预设)/JA – Cityscape Pop 2 (Classic Chrome) (Auto).cube
# Created by Adobe Lightroom plugin Export LUT (1.17.0)
# www.johnrellis.com/lightroom/exportlut.htm
# Preset: JA – Cityscape Pop 2 (Classic Chrome) (Auto)
# Color profile: /Library/Application Support/Adobe/Color/Profiles/Recommended/AdobeRGB1998.icc
LUT_3D_SIZE 32
0.112947 0.115755 0.117494
0.113222 0.115724 0.117494
0.113680 0.115877 0.117464
0.116213 0.115908 0.117403
0.122866 0.116518 0.117159
0.135866 0.117617 0.116701
0.156283 0.119753 0.115816
0.184390 0.123690 0.114290
0.219028 0.129244 0.111971
0.258518 0.136782 0.108583
0.302098 0.146273 0.103853
0.348363 0.157870 0.097322
0.396490 0.170809 0.088594
0.445380 0.185397 0.076570
0.493843 0.200656 0.059358
0.540826 0.215671 0.011963
0.586175 0.230228 0.000000
0.629450 0.244511 0.000000
0.670527 0.258366 0.000000
0.709468 0.271031 0.000000
0.746578 0.282872 0.000000
0.781796 0.293614 0.000000
0.814786 0.303471 0.000000
0.845640 0.312139 0.000000
0.874052 0.319280 0.000000
0.899901 0.325139 0.000000
0.923339 0.329992 0.000000
0.944671 0.333593 0.000000
0.964111 0.335821 0.000000
0.981964 0.337285 0.000000
0.998413 0.337682 0.000000
1.000000 0.337285 0.000000
0.112917 0.115999 0.117464
0.113161 0.115938 0.117464
0.113649 0.116091 0.117433
0.116365 0.116518 0.117342
0.123201 0.117556 0.117067
0.136080 0.119295 0.116548
0.156710 0.122194 0.115602
0.184878 0.126375 0.114015
0.219486 0.132570 0.111604
0.259129 0.140688 0.108095
0.302434 0.150454 0.103273
0.348852 0.162173 0.096651
0.396979 0.175509 0.087648
0.445716 0.189944 0.075410
0.494209 0.205112 0.056947
0.541131 0.219974 0.007691
0.586297 0.234592 0.000000
0.629725 0.248661 0.000000
0.670680 0.261967 0.000000
0.709590 0.274388 0.000000
0.746670 0.286137 0.000000
0.781827 0.296696 0.000000
0.814878 0.306218 0.000000
0.845731 0.314702 0.000000
0.874052 0.321813 0.000000
0.899931 0.327672 0.000000
0.923369 0.332250 0.000000
0.944671 0.335760 0.000000
0.964080 0.338109 0.000000
0.981933 0.339300 0.000000
0.998383 0.339727 0.000000
1.000000 0.339086 0.000000
0.112795 0.116457 0.117647
0.113069 0.116396 0.117647
0.113558 0.116548 0.117617
0.116518 0.117372 0.117281
0.123476 0.119020 0.116945
0.136660 0.121523 0.116335
0.157290 0.125124 0.115297
0.185519 0.130343 0.113619
0.220066 0.137179 0.111086
0.259525 0.145876 0.107485
0.303166 0.156191 0.102449
0.349462 0.168154 0.095613
0.397406 0.181521 0.086397
0.446143 0.196017 0.073732
0.494667 0.210819 0.052888
0.541588 0.225528 0.002014
0.586694 0.239933 0.000000
0.629938 0.253635 0.000000
0.670985 0.266941 0.000000
0.709773 0.279179 0.000000
0.746792 0.290532 0.000000
0.781949 0.300603 0.000000
0.815061 0.310094 0.000000
0.845762 0.318181 0.000000
0.874113 0.325383 0.000000
0.899931 0.330846 0.000000
0.923369 0.335332 0.000000
0.944671 0.338781 0.000000
0.964080 0.341039 0.000000
0.981903 0.342138 0.000000
0.998322 0.342229 0.000000
1.000000 0.341588 0.000000
0.112673 0.118837 0.117647
0.112886 0.119020 0.117617
0.113954 0.118868 0.117617
0.116457 0.119112 0.117311
0.124422 0.122042 0.116854
0.137697 0.126223 0.115908
0.158694 0.131319 0.114687
0.187045 0.138308 0.112764
0.221500 0.146517 0.109987
0.260960 0.156222 0.106081
0.304417 0.167605 0.100710
0.350652 0.180179 0.093416
0.398474 0.193881 0.083619
0.447242 0.208377 0.070008
0.495491 0.222995 0.043030
0.542321 0.237461 0.000000
0.587335 0.251225 0.000000
0.630518 0.264591 0.000000
0.671412 0.277012 0.000000
0.710231 0.288640 0.000000
0.747127 0.299596 0.000000
0.782254 0.309483 0.000000
0.815213 0.318456 0.000000
0.845884 0.326299 0.000000
0.874266 0.332677 0.000000
0.899992 0.338079 0.000000
0.923400 0.342199 0.000000
0.944671 0.345251 0.000000
0.964050 0.347112 0.000000
0.981872 0.347936 0.000000
0.998291 0.347967 0.000000
1.000000 0.347021 0.000000
0.111788 0.125002 0.118135
0.112123 0.125154 0.117525
0.113985 0.124880 0.117494
0.117464 0.124971 0.117403
0.123537 0.125826 0.117159
0.139437 0.132692 0.115633
0.160922 0.140017 0.113924
0.189425 0.149233 0.111635
0.224033 0.159060 0.108522
0.263249 0.170382 0.103944
0.306676 0.182925 0.097993
0.352575 0.196353 0.090028
0.400488 0.210208 0.079316
0.449073 0.224521 0.064179
0.496925 0.238773 0.026246
0.543694 0.252476 0.000000
0.588617 0.265568 0.000000
0.631556 0.278325 0.000000
0.672358 0.290105 0.000000
0.710903 0.301671 0.000000
0.747677 0.312810 0.000000
0.782681 0.322637 0.000000
0.815579 0.330816 0.000000
0.846189 0.338170 0.000000
0.874418 0.344060 0.000000
0.900145 0.348821 0.000000
0.923430 0.352514 0.000000
0.944640 0.354955 0.000000
0.964019 0.356420 0.000000
0.981781 0.356970 0.000000
0.998230 0.356451 0.000000
1.000000 0.355413 0.000000
0.109957 0.136660 0.118898
0.110536 0.136812 0.117281
0.112734 0.136721 0.116823
0.117800 0.136233 0.116945
0.125704 0.136904 0.116670
0.136538 0.138308 0.115999
0.162570 0.150515 0.113344
0.192813 0.162020 0.110353
0.227390 0.174289 0.106416
0.266606 0.187137 0.101472
0.309789 0.200320 0.094942
0.355749 0.214206 0.086152
0.403235 0.228031 0.074311
0.451453 0.242374 0.055879
0.499245 0.256260 0.006653
0.545647 0.269444 0.000000
0.590295 0.282109 0.000000
0.633082 0.293919 0.000000
0.673548 0.305638 0.000000
0.712001 0.316411 0.000000
0.748684 0.326726 0.000000
0.783352 0.336614 0.000000
0.816068 0.346258 0.000000
0.846525 0.353460 0.000000
0.874632 0.358770 0.000000
0.900237 0.362921 0.000000
0.923491 0.365942 0.000000
0.944640 0.367742 0.000000
0.963928 0.368658 0.000000
0.981689 0.368750 0.000000
0.998077 0.367895 0.000000
1.000000 0.366217 0.000000
0.106386 0.155612 0.119966
0.107332 0.155856 0.117922
0.108919 0.155764 0.115694
0.116762 0.155032 0.115785
0.126986 0.154391 0.115572
0.140932 0.156344 0.114900
0.157748 0.158816 0.113802
0.193118 0.175753 0.109529
0.231052 0.191196 0.104402
0.270359 0.205631 0.098482
0.313512 0.221256 0.090730
0.359350 0.235477 0.080507
0.406592 0.249668 0.066682
0.454627 0.263798 0.035035
0.502098 0.277165 0.000000
0.547967 0.289891 0.000000
0.592401 0.301976 0.000000
0.634974 0.313329 0.000000
0.675105 0.324041 0.000000
0.713344 0.333837 0.000000
0.749783 0.343450 0.000000
0.784329 0.352819 0.000000
0.816831 0.361364 0.000000
0.847074 0.369635 0.000000
0.874937 0.376257 0.000000
0.900359 0.379614 0.000000
0.923552 0.382025 0.000000
0.944610 0.383276 0.000000
0.963897 0.383642 0.000000
0.981567 0.383124 0.000000
0.997925 0.381567 0.000000
1.000000 0.379553 0.000000
0.100435 0.181979 0.121523
0.101564 0.182345 0.118929
0.102419 0.182467 0.115053
0.112428 0.181613 0.113893
0.126955 0.180179 0.113710
0.143465 0.180453 0.113344
0.163973 0.183352 0.112123
0.187015 0.187015 0.110323
0.229984 0.207523 0.103670
0.274754 0.226474 0.094881
0.317723 0.242039 0.085969
0.363378 0.258457 0.073518
0.410498 0.274449 0.054047
0.458198 0.288304 0.005615
0.505241 0.301213 0.000000
0.550896 0.313512 0.000000
0.594873 0.324743 0.000000
0.637140 0.335393 0.000000
0.676997 0.345220 0.000000
0.714931 0.354223 0.000000
0.751064 0.363134 0.000000
0.785458 0.371618 0.000000
0.817746 0.379339 0.000000
0.847745 0.386664 0.000000
0.875425 0.393011 0.000000
0.900603 0.398993 0.000000
0.923644 0.400641 0.000000
0.944610 0.401099 0.000000
0.963775 0.400824 0.000000
0.981415 0.399573 0.000000
0.997742 0.397650 0.000000
1.000000 0.394903 0.000000
0.090181 0.214969 0.123781
0.091829 0.215213 0.121035
0.093324 0.215549 0.116213
0.103365 0.214755 0.110872
0.123781 0.213077 0.110842
0.144381 0.211002 0.110750
0.168002 0.213230 0.109651
0.194156 0.216922 0.107454
0.222568 0.221286 0.104952
0.271916 0.244388 0.095186
0.322148 0.266026 0.080659
0.367803 0.282231 0.065827
0.414649 0.298528 0.029358
0.462165 0.314366 0.000000
0.508904 0.328222 0.000000
0.554101 0.339727 0.000000
0.597650 0.350378 0.000000
0.639734 0.360113 0.000000
0.679164 0.369207 0.000000
0.716793 0.377264 0.000000
0.752651 0.385229 0.000000
0.786770 0.392645 0.000000
0.818814 0.399420 0.000000
0.848600 0.405921 0.000000
0.876036 0.411719 0.000000
0.901030 0.416602 0.000000
0.923705 0.420996 0.000000
0.944579 0.421118 0.000000
0.963684 0.420020 0.000000
0.981262 0.418128 0.000000
0.997528 0.415503 0.000000
1.000000 0.412360 0.000000
0.072908 0.252537 0.127016
0.075929 0.253086 0.123720
0.078126 0.253239 0.118044
0.087160 0.252934 0.106752
0.115419 0.251194 0.106661
0.142977 0.248936 0.106722
0.169528 0.247227 0.106447
0.199283 0.250889 0.104097
0.230472 0.255344 0.100801
0.263157 0.260349 0.096956
0.317571 0.285039 0.082612
0.370489 0.307347 0.058289
0.419165 0.324681 0.001160
0.466041 0.339849 0.000000
0.512535 0.354314 0.000000
0.557610 0.367987 0.000000
0.600885 0.378485 0.000000
0.642451 0.387243 0.000000
0.681483 0.395331 0.000000
0.718685 0.402564 0.000000
0.754360 0.409461 0.000000
0.788205 0.415869 0.000000
0.819974 0.422126 0.000000
0.849454 0.427436 0.000000
0.876677 0.432136 0.000000
0.901488 0.436164 0.000000
0.924010 0.439643 0.000000
0.944549 0.442695 0.000000
0.963561 0.441016 0.000000
0.981048 0.438422 0.000000
0.997253 0.435187 0.000000
1.000000 0.431403 0.000000
0.025513 0.293950 0.131380
0.035218 0.294408 0.127840
0.046143 0.294896 0.121920
0.059510 0.294591 0.105867
0.100069 0.292790 0.101411
0.137148 0.290349 0.101411
0.169192 0.287419 0.101595
0.201205 0.288029 0.099947
0.235569 0.292271 0.096315
0.270939 0.297154 0.091707
0.307347 0.302831 0.085512
0.365637 0.328313 0.063783
0.419867 0.350317 0.000000
0.470588 0.367864 0.000000
0.516503 0.381598 0.000000
0.560906 0.394202 0.000000
0.604059 0.405951 0.000000
0.645441 0.416663 0.000000
0.684016 0.423499 0.000000
0.720974 0.429694 0.000000
0.756252 0.435615 0.000000
0.789700 0.441382 0.000000
0.821195 0.446326 0.000000
0.850492 0.450568 0.000000
0.877440 0.454383 0.000000
0.902007 0.457435 0.000000
0.924346 0.460029 0.000000
0.944732 0.462135 0.000000
0.963409 0.463508 0.000000
0.980804 0.460243 0.000000
0.996979 0.456275 0.000000
1.000000 0.451911 0.000000
0.000000 0.337896 0.137118
0.000000 0.338262 0.133425
0.000000 0.338415 0.126925
0.000000 0.338354 0.109773
0.071077 0.337072 0.094850
0.125124 0.334508 0.094850
0.165560 0.331426 0.095247
0.200565 0.327672 0.095644
0.237827 0.331182 0.091646
0.275792 0.335973 0.086183
0.314275 0.341192 0.078920
0.353857 0.347082 0.069612
0.414771 0.372808 0.012268
0.469368 0.393744 0.000000
0.520592 0.410834 0.000000
0.564569 0.422339 0.000000
0.607233 0.433204 0.000000
0.648219 0.443244 0.000000
0.686580 0.452033 0.000000
0.723323 0.459022 0.000000
0.758267 0.463905 0.000000
0.791409 0.468177 0.000000
0.822507 0.472389 0.000000
0.851499 0.475685 0.000000
0.878202 0.478248 0.000000
0.902495 0.480446 0.000000
0.924651 0.481880 0.000000
0.944884 0.483040 0.000000
0.963409 0.483986 0.000000
0.980560 0.483284 0.000000
0.996643 0.478767 0.000000
1.000000 0.473732 0.000000
0.000000 0.382971 0.144564
0.000000 0.383276 0.140780
0.000000 0.383581 0.134646
0.000000 0.383368 0.115419
0.000000 0.382818 0.087526
0.103670 0.380163 0.087526
0.157168 0.376776 0.087739
0.198764 0.372992 0.088380
0.237034 0.371038 0.087434
0.277440 0.375555 0.081209
0.318242 0.380591 0.073030
0.359411 0.385962 0.062013
0.401221 0.391913 0.035828
0.464057 0.417395 0.000000
0.517205 0.436439 0.000000
0.568170 0.452491 0.000000
0.610651 0.462379 0.000000
0.651118 0.471168 0.000000
0.689021 0.478798 0.000000
0.725521 0.485969 0.000000
0.760250 0.492988 0.000000
0.793118 0.497108 0.000000
0.823941 0.499916 0.000000
0.852598 0.502098 0.000000
0.878935 0.503868 0.000000
0.903044 0.504753 0.000000
0.924987 0.505272 0.000000
0.945037 0.505364 0.000000
0.963439 0.505272 0.000000
0.980407 0.504967 0.000000
0.996246 0.502190 0.000000
1.000000 0.496498 0.000000
0.000000 0.428504 0.152438
0.000000 0.428656 0.148898
0.000000 0.428870 0.142855
0.000000 0.428992 0.125246
0.000000 0.428443 0.087587
0.065217 0.426001 0.080476
0.142458 0.422827 0.080873
0.193179 0.418830 0.081300
0.234867 0.414374 0.082246
0.276677 0.415167 0.078004
0.319341 0.419867 0.069337
0.362066 0.424994 0.055573
0.405035 0.430518 0.022950
0.448432 0.436439 0.000000
0.511162 0.460548 0.000000
0.563226 0.477729 0.000000
0.612177 0.491829 0.000000
0.653986 0.500786 0.000000
0.691554 0.507286 0.000000
0.727535 0.513359 0.000000
0.762081 0.519097 0.000000
0.794705 0.524376 0.000000
0.825315 0.528923 0.000000
0.853666 0.529961 0.000000
0.879728 0.530541 0.000000
0.903502 0.530510 0.000000
0.925261 0.529808 0.000000
0.945129 0.529015 0.000000
0.963409 0.527886 0.000000
0.980285 0.526604 0.000000
0.995911 0.525353 0.000000
1.000000 0.520165 0.000000
0.000000 0.473365 0.162478
0.000000 0.473548 0.158938
0.000000 0.473548 0.152987
0.000000 0.473732 0.137026
0.000000 0.473243 0.102113
0.000000 0.471321 0.074098
0.121218 0.468025 0.074617
0.183200 0.464057 0.075807
0.231235 0.459693 0.076112
0.272831 0.454749 0.077333
0.317540 0.458839 0.068360
0.361822 0.463569 0.055207
0.405768 0.468574 0.020844
0.449836 0.473945 0.000000
0.494209 0.479591 0.000000
0.557000 0.502739 0.000000
0.607080 0.517632 0.000000
0.653681 0.529595 0.000000
0.694057 0.537102 0.000000
0.729732 0.542107 0.000000
0.763790 0.546715 0.000000
0.796201 0.550927 0.000000
0.826535 0.554498 0.000000
0.854673 0.557519 0.000000
0.880461 0.558618 0.000000
0.903990 0.557336 0.000000
0.925505 0.555718 0.000000
0.945220 0.553674 0.000000
0.963348 0.551629 0.000000
0.980102 0.549340 0.000000
0.995666 0.547204 0.000000
1.000000 0.544610 0.000000
0.000000 0.516655 0.173098
0.000000 0.516716 0.169558
0.000000 0.516716 0.164858
0.000000 0.516899 0.151125
0.000000 0.516289 0.118166
0.000000 0.514977 0.071199
0.086000 0.511925 0.071717
0.168673 0.507988 0.072572
0.223728 0.503685 0.073884
0.269902 0.498756 0.074891
0.313329 0.496468 0.072206
0.359014 0.500786 0.061097
0.403723 0.505425 0.033295
0.448524 0.510185 0.000000
0.493172 0.515343 0.000000
0.538018 0.520775 0.000000
0.600671 0.543175 0.000000
0.648432 0.555840 0.000000
0.692103 0.565301 0.000000
0.731838 0.572229 0.000000
0.765652 0.575738 0.000000
0.797696 0.578637 0.000000
0.827665 0.581201 0.000000
0.855528 0.582971 0.000000
0.881041 0.584222 0.000000
0.904417 0.584680 0.000000
0.925689 0.582605 0.000000
0.945220 0.579614 0.000000
0.963226 0.576379 0.000000
0.979889 0.573144 0.000000
0.995331 0.570001 0.000000
1.000000 0.566918 0.000000
0.000000 0.558007 0.185580
0.000000 0.557977 0.182132
0.000000 0.557977 0.177676
0.000000 0.558129 0.165591
0.000000 0.557763 0.136355
0.000000 0.556970 0.079927
0.000000 0.553918 0.073915
0.148440 0.550225 0.074372
0.213046 0.545953 0.075410
0.264225 0.541039 0.076387
0.308629 0.535729 0.077882
0.353674 0.536706 0.071046
0.399664 0.540826 0.058412
0.444892 0.545342 0.024414
0.490059 0.550042 0.000000
0.534905 0.555016 0.000000
0.579828 0.560143 0.000000
0.642115 0.581933 0.000000
0.687098 0.592065 0.000000
0.728603 0.599847 0.000000
0.767056 0.605676 0.000000
0.799039 0.607660 0.000000
0.828702 0.608942 0.000000
0.856229 0.609674 0.000000
0.881559 0.609613 0.000000
0.904692 0.608942 0.000000
0.925780 0.607935 0.000000
0.945129 0.606561 0.000000
0.962982 0.602258 0.000000
0.979553 0.597894 0.000000
0.994965 0.593744 0.000000
1.000000 0.589746 0.000000
0.000000 0.597681 0.198093
0.000000 0.597620 0.194919
0.000000 0.597681 0.191379
0.000000 0.597650 0.182284
0.000000 0.597375 0.156100
0.000000 0.596551 0.109773
0.000000 0.594263 0.080659
0.122591 0.590723 0.080079
0.199435 0.586542 0.081086
0.256016 0.581994 0.082094
0.303990 0.576806 0.083497
0.347021 0.571588 0.084169
0.394141 0.575555 0.075196
0.440192 0.579950 0.061463
0.485695 0.584405 0.028290
0.530999 0.589014 0.000000
0.575952 0.593927 0.000000
0.620722 0.598718 0.000000
0.681392 0.619074 0.000000
0.723659 0.626795 0.000000
0.762844 0.632898 0.000000
0.799069 0.636927 0.000000
0.829618 0.637873 0.000000
0.856870 0.637354 0.000000
0.881895 0.636164 0.000000
0.904814 0.634485 0.000000
0.925750 0.632288 0.000000
0.945006 0.629816 0.000000
0.962737 0.627192 0.000000
0.979156 0.623590 0.000000
0.994507 0.618372 0.000000
1.000000 0.613367 0.000000
0.000000 0.636439 0.211582
0.000000 0.636500 0.208896
0.000000 0.636469 0.205356
0.000000 0.636347 0.197269
0.000000 0.636255 0.176577
0.000000 0.635492 0.137667
0.000000 0.634058 0.090791
0.084199 0.630732 0.091066
0.183230 0.626886 0.091768
0.246128 0.622461 0.091920
0.297795 0.617639 0.093233
0.343542 0.612299 0.093751
0.387976 0.610498 0.091798
0.434821 0.614343 0.081758
0.480720 0.618402 0.070039
0.526085 0.622583 0.049104
0.570916 0.626886 0.005341
0.615381 0.631128 0.000000
0.659571 0.635615 0.000000
0.717311 0.653529 0.000000
0.758083 0.659968 0.000000
0.794858 0.664210 0.000000
0.828367 0.666407 0.000000
0.857389 0.665980 0.000000
0.882078 0.663661 0.000000
0.904784 0.660822 0.000000
0.925597 0.657557 0.000000
0.944732 0.654017 0.000000
0.962371 0.650385 0.000000
0.978729 0.646693 0.000000
0.993957 0.643061 0.000000
1.000000 0.637934 0.000000
0.000000 0.673793 0.225986
0.000000 0.673732 0.223819
0.000000 0.673701 0.220645
0.000000 0.673610 0.213840
0.000000 0.673579 0.196689
0.000000 0.672969 0.163760
0.000000 0.672084 0.107027
0.000000 0.669093 0.105592
0.164370 0.665583 0.105867
0.234623 0.661524 0.106508
0.290349 0.657038 0.107057
0.338872 0.652064 0.107332
0.382788 0.646723 0.107759
0.428717 0.648096 0.103029
0.474891 0.651667 0.095735
0.520287 0.655329 0.085328
0.565057 0.659205 0.072297
0.609400 0.663050 0.052766
0.653193 0.666896 0.006622
0.696529 0.670741 0.000000
0.751308 0.686336 0.000000
0.790097 0.691310 0.000000
0.824155 0.693721 0.000000
0.854978 0.693904 0.000000
0.882078 0.692012 0.000000
0.904601 0.687984 0.000000
0.925231 0.683742 0.000000
0.944274 0.679103 0.000000
0.961852 0.674464 0.000000
0.978180 0.669764 0.000000
0.993408 0.665126 0.000000
1.000000 0.660700 0.000000
0.000000 0.709529 0.241398
0.000000 0.709499 0.239384
0.000000 0.709377 0.236637
0.000000 0.709255 0.231022
0.000000 0.709255 0.217685
0.000000 0.708675 0.188632
0.000000 0.708034 0.145754
0.000000 0.705837 0.123415
0.144381 0.702510 0.123812
0.222629 0.698817 0.124239
0.282170 0.694667 0.123842
0.333349 0.690089 0.124514
0.379156 0.685115 0.124727
0.421912 0.680812 0.124422
0.468574 0.683986 0.119081
0.513970 0.687282 0.112520
0.558770 0.690639 0.105623
0.602686 0.693996 0.096407
0.646052 0.697414 0.085573
0.688899 0.700740 0.070771
0.731106 0.704036 0.045777
0.782742 0.717189 0.000000
0.819455 0.720638 0.000000
0.850797 0.721035 0.000000
0.878843 0.719203 0.000000
0.903960 0.715755 0.000000
0.924651 0.710506 0.000000
0.943572 0.705013 0.000000
0.961120 0.699336 0.000000
0.977417 0.693690 0.000000
0.992676 0.688106 0.000000
1.000000 0.682643 0.000000
0.000000 0.743465 0.257542
0.000000 0.743496 0.255985
0.000000 0.743313 0.253696
0.000000 0.743160 0.249577
0.000000 0.742947 0.239628
0.000000 0.742733 0.214786
0.000000 0.742092 0.179599
0.000000 0.740688 0.144259
0.122835 0.737758 0.144625
0.211307 0.734310 0.144656
0.274083 0.730556 0.144656
0.327337 0.726314 0.144808
0.374792 0.721706 0.144900
0.418311 0.716823 0.145235
0.461952 0.715389 0.142947
0.507408 0.718227 0.138643
0.551843 0.721096 0.134218
0.595544 0.723995 0.129000
0.638575 0.726894 0.122072
0.680842 0.729732 0.114321
0.722438 0.732479 0.106477
0.763272 0.735164 0.096345
0.811856 0.746029 0.076844
0.846006 0.747768 0.005310
0.874540 0.746212 0.000000
0.900084 0.742733 0.000000
0.923095 0.737758 0.000000
0.942687 0.731533 0.000000
0.960143 0.725002 0.000000
0.976471 0.718349 0.000000
0.991699 0.711818 0.000000
1.000000 0.705440 0.000000
0.000000 0.775448 0.275151
0.000000 0.775418 0.273930
0.000000 0.775326 0.271885
0.000000 0.775051 0.268559
0.000000 0.774746 0.262150
0.000000 0.774624 0.241001
0.000000 0.774166 0.210300
0.000000 0.773526 0.167697
0.104982 0.770840 0.167300
0.201755 0.767697 0.167788
0.267521 0.764187 0.167758
0.321843 0.760372 0.167544
0.370336 0.756191 0.167514
0.415106 0.751644 0.167453
0.456580 0.746914 0.167819
0.500877 0.748013 0.165377
0.545037 0.750423 0.162234
0.588342 0.752804 0.158724
0.630732 0.755154 0.154940
0.672450 0.757504 0.150637
0.713252 0.759731 0.146059
0.753384 0.761837 0.140047
0.792752 0.763851 0.133700
0.837919 0.772488 0.124849
0.869657 0.772549 0.110872
0.895567 0.769406 0.000000
0.919036 0.764431 0.000000
0.940276 0.758236 0.000000
0.958923 0.751095 0.000000
0.975219 0.743679 0.000000
0.990478 0.736263 0.000000
1.000000 0.729030 0.000000
0.000000 0.805203 0.293400
0.000000 0.805142 0.292821
0.000000 0.805051 0.291417
0.000000 0.804715 0.288640
0.000000 0.804349 0.284489
0.000000 0.804349 0.267308
0.000000 0.803922 0.241672
0.000000 0.803494 0.206821
0.096010 0.801511 0.193088
0.196658 0.798764 0.193088
0.263127 0.795590 0.193118
0.318029 0.792081 0.193210
0.367102 0.788327 0.193118
0.412177 0.784237 0.192721
0.454261 0.779843 0.192538
0.494911 0.776516 0.192050
0.538659 0.778408 0.190585
0.581323 0.780301 0.188815
0.622980 0.782162 0.186648
0.663905 0.783963 0.183627
0.703944 0.785641 0.181491
0.743191 0.787167 0.177981
0.781582 0.788632 0.174899
0.819211 0.789853 0.170596
0.861082 0.796475 0.166262
0.890623 0.795193 0.160922
0.914366 0.790646 0.102083
0.935973 0.784604 0.000000
0.955749 0.777432 0.000000
0.973693 0.769375 0.000000
0.988983 0.761288 0.000000
1.000000 0.753292 0.000000
0.000000 0.832517 0.313237
0.000000 0.832395 0.312688
0.000000 0.832273 0.311650
0.000000 0.831998 0.310063
0.000000 0.831540 0.307530
0.000000 0.831479 0.294347
0.000000 0.831235 0.272831
0.000000 0.830869 0.243229
0.102510 0.829709 0.221195
0.198672 0.827146 0.220981
0.263066 0.824399 0.220798
0.317327 0.821256 0.220615
0.365850 0.817838 0.220676
0.410559 0.814176 0.220554
0.452522 0.810208 0.220401
0.492226 0.806119 0.220340
0.532921 0.804898 0.219669
0.574731 0.806302 0.219211
0.615778 0.807614 0.218021
0.655604 0.808865 0.217105
0.694728 0.810025 0.215518
0.733059 0.811032 0.214176
0.770443 0.811978 0.212131
0.807034 0.812772 0.209628
0.842832 0.813413 0.207095
0.881865 0.818326 0.204868
0.909300 0.815946 0.205692
0.931090 0.810300 0.161563
0.951171 0.803464 0.089174
0.969696 0.795468 0.000000
0.986999 0.786709 0.000000
1.000000 0.778012 0.000000
0.000000 0.857206 0.334417
0.000000 0.857084 0.334142
0.000000 0.856962 0.333623
0.000000 0.856657 0.332677
0.000000 0.856138 0.331670
0.050660 0.855955 0.322240
0.078462 0.855802 0.304479
0.099794 0.855558 0.280522
0.127230 0.855131 0.251438
0.208377 0.852903 0.251408
0.268772 0.850370 0.250980
0.320562 0.847623 0.251041
0.367529 0.844541 0.250706
0.411170 0.841276 0.251041
0.452430 0.837766 0.250675
0.491676 0.834073 0.250584
0.529076 0.830198 0.250919
0.569512 0.830564 0.250828
0.609308 0.831449 0.250706
0.648157 0.832242 0.250187
0.686275 0.832914 0.250126
0.723507 0.833494 0.249699
0.759854 0.833982 0.248875
0.795346 0.834318 0.248142
0.830106 0.834562 0.246799
0.863920 0.834653 0.245029
0.900175 0.838163 0.244450
0.926116 0.835294 0.249271
0.945922 0.828702 0.211856
0.964721 0.821195 0.159762
0.982330 0.812711 0.040314
0.998962 0.803342 0.000000
0.000000 0.879393 0.357183
0.000000 0.879301 0.357275
0.000000 0.879118 0.357122
0.005219 0.878782 0.357183
0.112673 0.878233 0.357031
0.148928 0.877836 0.352422
0.156710 0.877806 0.336675
0.165621 0.877684 0.316258
0.177157 0.877501 0.290990
0.227939 0.875944 0.284001
0.281682 0.873686 0.283696
0.329534 0.871244 0.283635
0.373663 0.868559 0.283360
0.415381 0.865690 0.283543
0.455055 0.862547 0.283665
0.493141 0.859251 0.283482
0.529747 0.855802 0.283635
0.566064 0.853269 0.284062
0.604639 0.853696 0.284886
0.642329 0.854063 0.285222
0.679133 0.854307 0.285893
0.715084 0.854520 0.286137
0.750271 0.854612 0.286595
0.784604 0.854612 0.286137
0.818112 0.854490 0.285832
0.850919 0.854276 0.285435
0.882872 0.853941 0.284459
0.916625 0.856291 0.284733
0.941192 0.853330 0.290867
0.959167 0.845823 0.258671
0.976928 0.838041 0.214694
0.993805 0.829252 0.146456
0.092531 0.899290 0.381994
0.105013 0.899199 0.382330
0.121187 0.898985 0.382422
0.147890 0.898619 0.383062
0.181460 0.898039 0.384375
0.212131 0.897368 0.383673
0.215579 0.897490 0.369726
0.222171 0.897429 0.353185
0.229648 0.897337 0.332616
0.256138 0.896483 0.318822
0.302281 0.894499 0.318975
0.344854 0.892363 0.318700
0.385321 0.890013 0.318700
0.424353 0.887419 0.319158
0.461677 0.884703 0.318944
