其他预设/【233】日式怀旧街道调色预设208款/1.3D LUT预设（视频调色-PR-AE-PS-FCPX-达芬奇用）/4.富士胶片风日式城市街拍预设 (自动曝光预设)/JA – Cityscape Pop 5 (Classic Chrome) (Auto).cube
# Created by Adobe Lightroom plugin Export LUT (1.17.0)
# www.johnrellis.com/lightroom/exportlut.htm
# Preset: JA – Cityscape Pop 5 (Classic Chrome) (Auto)
# Color profile: /Library/Application Support/Adobe/Color/Profiles/Recommended/AdobeRGB1998.icc
LUT_3D_SIZE 32
0.108705 0.117098 0.122560
0.110292 0.117311 0.122499
0.112581 0.117586 0.122621
0.117647 0.118502 0.122805
0.124544 0.119692 0.122927
0.133486 0.121035 0.123140
0.144961 0.123171 0.123171
0.159731 0.125551 0.123049
0.178805 0.129213 0.122591
0.204166 0.134249 0.121584
0.238743 0.141604 0.119966
0.284794 0.152255 0.116518
0.344518 0.167269 0.110201
0.413794 0.185641 0.100099
0.485145 0.205753 0.084993
0.551263 0.223850 0.064515
0.608057 0.239902 0.015503
0.656428 0.254185 0.000000
0.697536 0.266575 0.000000
0.733486 0.277684 0.000000
0.765957 0.288090 0.000000
0.795682 0.297856 0.000000
0.823026 0.307134 0.000000
0.848081 0.316014 0.000000
0.871275 0.323857 0.000000
0.892882 0.332067 0.000000
0.912963 0.338079 0.000000
0.932006 0.343633 0.000000
0.950042 0.348974 0.000000
0.967315 0.354223 0.000000
0.983856 0.359899 0.000000
0.999603 0.366461 0.000000
0.108827 0.118166 0.122469
0.110353 0.118379 0.122621
0.112612 0.118898 0.122713
0.117983 0.119539 0.122713
0.124788 0.120912 0.123018
0.133700 0.122255 0.123232
0.145418 0.124117 0.123079
0.160250 0.126833 0.123110
0.179263 0.130465 0.122652
0.205020 0.135836 0.121584
0.239567 0.143404 0.119722
0.286168 0.154299 0.116182
0.346044 0.169772 0.109682
0.415229 0.188266 0.099428
0.486549 0.208194 0.084382
0.552422 0.226596 0.063050
0.609064 0.242710 0.011566
0.657160 0.256901 0.000000
0.698054 0.268894 0.000000
0.733913 0.279942 0.000000
0.766262 0.290135 0.000000
0.795956 0.299596 0.000000
0.823209 0.308934 0.000000
0.848234 0.317235 0.000000
0.871427 0.325780 0.000000
0.892973 0.333532 0.000000
0.913085 0.339361 0.000000
0.932067 0.344976 0.000000
0.950103 0.350042 0.000000
0.967376 0.355413 0.000000
0.983886 0.361089 0.000000
0.999634 0.367559 0.000000
0.109590 0.119783 0.122713
0.111055 0.120180 0.122835
0.113161 0.120089 0.122805
0.118166 0.121187 0.122957
0.125246 0.122286 0.123079
0.134340 0.123781 0.123262
0.145968 0.125826 0.123110
0.160739 0.128481 0.122957
0.180087 0.132357 0.122621
0.205966 0.137758 0.121553
0.240970 0.145724 0.119417
0.287724 0.157321 0.115694
0.347845 0.172946 0.109255
0.417273 0.192050 0.098695
0.488258 0.212070 0.083345
0.554009 0.230442 0.061830
0.610163 0.246159 0.007874
0.657923 0.260075 0.000000
0.698756 0.271977 0.000000
0.734524 0.282902 0.000000
0.766751 0.292821 0.000000
0.796353 0.302068 0.000000
0.823545 0.311192 0.000000
0.848539 0.319677 0.000000
0.871702 0.327733 0.000000
0.893187 0.335271 0.000000
0.913268 0.341283 0.000000
0.932219 0.346685 0.000000
0.950225 0.351904 0.000000
0.967468 0.357061 0.000000
0.983948 0.362554 0.000000
0.999695 0.368994 0.000000
0.110414 0.123812 0.122927
0.112215 0.123751 0.123079
0.114443 0.124025 0.123201
0.118837 0.123934 0.123476
0.125887 0.125246 0.123384
0.135286 0.127230 0.123323
0.147189 0.129305 0.123171
0.162295 0.132387 0.122957
0.182010 0.136324 0.122377
0.208286 0.142458 0.121157
0.243931 0.151095 0.118868
0.291447 0.163729 0.114839
0.352239 0.180545 0.107912
0.421637 0.200046 0.096803
0.491981 0.219577 0.081209
0.557031 0.237797 0.058625
0.612573 0.253269 0.000916
0.659876 0.267033 0.000000
0.700343 0.278477 0.000000
0.735683 0.289189 0.000000
0.767819 0.298680 0.000000
0.797238 0.307713 0.000000
0.824247 0.316411 0.000000
0.849119 0.324559 0.000000
0.872129 0.332219 0.000000
0.893614 0.339635 0.000000
0.913603 0.345464 0.000000
0.932494 0.350683 0.000000
0.950469 0.355596 0.000000
0.967651 0.360449 0.000000
0.984131 0.365942 0.000000
0.999817 0.372168 0.000000
0.111818 0.128359 0.123476
0.113344 0.128359 0.123629
0.115785 0.128389 0.123934
0.120302 0.129274 0.123751
0.126284 0.129091 0.123995
0.136690 0.131411 0.123507
0.148898 0.134463 0.123232
0.164767 0.138125 0.122713
0.184909 0.142916 0.122194
0.211978 0.149722 0.120607
0.248661 0.159701 0.118166
0.297398 0.173648 0.113680
0.359014 0.191409 0.106111
0.428046 0.211429 0.094484
0.497749 0.231571 0.077363
0.561700 0.249790 0.048310
0.616388 0.265080 0.000000
0.662806 0.277684 0.000000
0.702754 0.288884 0.000000
0.737667 0.298558 0.000000
0.769375 0.307530 0.000000
0.798581 0.316075 0.000000
0.825376 0.324315 0.000000
0.850034 0.331884 0.000000
0.872923 0.339239 0.000000
0.894255 0.346227 0.000000
0.914153 0.351995 0.000000
0.932952 0.356542 0.000000
0.950866 0.361273 0.000000
0.967956 0.366003 0.000000
0.984344 0.370947 0.000000
0.999969 0.377173 0.000000
0.113527 0.134035 0.123873
0.115023 0.134005 0.124025
0.117250 0.133883 0.124178
0.121401 0.134585 0.124392
0.128450 0.136080 0.124269
0.136446 0.136263 0.124392
0.150942 0.140383 0.123537
0.167269 0.144747 0.122927
0.188632 0.151064 0.121798
0.217288 0.159976 0.119783
0.255131 0.171206 0.116945
0.305608 0.186679 0.111727
0.367834 0.206027 0.103426
0.436896 0.226963 0.090486
0.505699 0.247288 0.071473
0.568078 0.265263 0.030762
0.621302 0.279759 0.000000
0.666773 0.291783 0.000000
0.705898 0.302190 0.000000
0.740200 0.311162 0.000000
0.771511 0.319371 0.000000
0.800351 0.327245 0.000000
0.826841 0.334661 0.000000
0.851316 0.341711 0.000000
0.873960 0.348486 0.000000
0.895109 0.354772 0.000000
0.914916 0.360266 0.000000
0.933562 0.364538 0.000000
0.951354 0.368719 0.000000
0.968383 0.373053 0.000000
0.984649 0.377874 0.000000
1.000000 0.383673 0.000000
0.115846 0.141085 0.124483
0.117311 0.140871 0.124666
0.119478 0.140932 0.124788
0.123537 0.141238 0.125216
0.130190 0.143038 0.125063
0.139803 0.145480 0.124544
0.150576 0.145907 0.124361
0.170199 0.152682 0.122957
0.192416 0.159762 0.121614
0.222324 0.170230 0.119661
0.263066 0.185000 0.115755
0.315801 0.203189 0.109438
0.379065 0.224033 0.099855
0.447669 0.246006 0.084871
0.515312 0.266514 0.063111
0.575799 0.283970 0.006043
0.627558 0.297887 0.000000
0.671687 0.308873 0.000000
0.709743 0.318059 0.000000
0.743435 0.326146 0.000000
0.774166 0.333654 0.000000
0.802609 0.340856 0.000000
0.828702 0.347417 0.000000
0.852873 0.353765 0.000000
0.875303 0.359625 0.000000
0.896208 0.365698 0.000000
0.915831 0.370764 0.000000
0.934325 0.374456 0.000000
0.951965 0.378088 0.000000
0.968902 0.381964 0.000000
0.985046 0.386389 0.000000
1.000000 0.391760 0.000000
0.118807 0.150240 0.125002
0.120211 0.150240 0.125154
0.122255 0.150271 0.125460
0.126772 0.150332 0.125734
0.133181 0.151858 0.125765
0.142672 0.154604 0.125399
0.155398 0.158328 0.124758
0.169070 0.159335 0.124361
0.196933 0.170260 0.121920
0.227756 0.181735 0.119417
0.269932 0.198093 0.114931
0.325658 0.220066 0.106966
0.392523 0.246006 0.094331
0.460639 0.268711 0.076905
0.526513 0.289189 0.043732
0.584619 0.305699 0.000000
0.634668 0.318547 0.000000
0.677607 0.328771 0.000000
0.714351 0.336858 0.000000
0.747219 0.343969 0.000000
0.777340 0.350347 0.000000
0.805234 0.356512 0.000000
0.830930 0.362310 0.000000
0.854704 0.367803 0.000000
0.876829 0.373022 0.000000
0.897520 0.378149 0.000000
0.916930 0.382971 0.000000
0.935241 0.386206 0.000000
0.952758 0.389288 0.000000
0.969512 0.392554 0.000000
0.985534 0.396429 0.000000
1.000000 0.401587 0.000000
0.122347 0.162142 0.125704
0.123903 0.162264 0.125826
0.126162 0.162264 0.125948
0.130892 0.162417 0.126162
0.137575 0.162997 0.126650
0.147219 0.166171 0.126009
0.160067 0.170352 0.125277
0.176028 0.174960 0.124514
0.195285 0.178256 0.123659
0.234684 0.195651 0.119020
0.278172 0.213687 0.113588
0.334844 0.237186 0.104768
0.402014 0.264378 0.090486
0.472755 0.291875 0.067109
0.539147 0.314977 0.005097
0.594873 0.330327 0.000000
0.642634 0.342107 0.000000
0.684138 0.351141 0.000000
0.719661 0.358007 0.000000
0.751583 0.363958 0.000000
0.781033 0.369543 0.000000
0.808286 0.374395 0.000000
0.833494 0.379339 0.000000
0.856840 0.383795 0.000000
0.878630 0.388251 0.000000
0.898985 0.392462 0.000000
0.918242 0.396704 0.000000
0.936309 0.399298 0.000000
0.953643 0.401831 0.000000
0.970214 0.404639 0.000000
0.986053 0.408057 0.000000
1.000000 0.412787 0.000000
0.127352 0.177493 0.125795
0.128817 0.177584 0.125917
0.131380 0.177707 0.126040
0.136110 0.177920 0.126223
0.143526 0.178195 0.126528
0.153567 0.180911 0.126436
0.166964 0.185824 0.125521
0.184482 0.192020 0.124361
0.204227 0.197696 0.123049
0.232456 0.205356 0.120821
0.287938 0.231754 0.112215
0.345922 0.257389 0.101411
0.412848 0.285374 0.084810
0.482216 0.312871 0.057801
0.547662 0.336675 0.000000
0.604517 0.355596 0.000000
0.651850 0.368078 0.000000
0.691341 0.375616 0.000000
0.725429 0.381262 0.000000
0.756374 0.385779 0.000000
0.785153 0.390173 0.000000
0.811704 0.394202 0.000000
0.836393 0.397894 0.000000
0.859281 0.401587 0.000000
0.880644 0.405097 0.000000
0.900694 0.408453 0.000000
0.919646 0.411963 0.000000
0.937530 0.414069 0.000000
0.954620 0.416022 0.000000
0.971008 0.418128 0.000000
0.986694 0.421180 0.000000
1.000000 0.425330 0.000000
0.133272 0.197574 0.125185
0.135286 0.197726 0.125307
0.137911 0.197787 0.125399
0.143557 0.197971 0.125582
0.151583 0.198306 0.126009
0.161807 0.199802 0.126192
0.176547 0.205447 0.125002
0.195193 0.212802 0.123476
0.218936 0.222141 0.121157
0.244053 0.229709 0.118807
0.284642 0.243229 0.114168
0.358129 0.279637 0.097414
0.424903 0.308629 0.077577
0.492775 0.336156 0.031434
0.555962 0.359258 0.000000
0.610651 0.377050 0.000000
0.657923 0.390875 0.000000
0.698604 0.401495 0.000000
0.731716 0.406348 0.000000
0.761685 0.409613 0.000000
0.789639 0.412848 0.000000
0.815488 0.415625 0.000000
0.839536 0.418250 0.000000
0.861936 0.420996 0.000000
0.882902 0.423468 0.000000
0.902617 0.426032 0.000000
0.921233 0.428626 0.000000
0.938872 0.430182 0.000000
0.955718 0.431464 0.000000
0.971923 0.432990 0.000000
0.987366 0.435340 0.000000
1.000000 0.439216 0.000000
0.141756 0.223545 0.123384
0.143832 0.223636 0.123507
0.146792 0.223850 0.123568
0.152895 0.224125 0.123873
0.162020 0.224613 0.124239
0.173495 0.225284 0.124453
0.188968 0.230503 0.123659
0.209506 0.239231 0.121523
0.235142 0.250004 0.118441
0.267216 0.263371 0.113924
0.298528 0.272618 0.109926
0.353307 0.292912 0.099794
0.437781 0.334142 0.068421
0.504417 0.361486 0.000000
0.564660 0.383307 0.000000
0.617426 0.399908 0.000000
0.662959 0.412451 0.000000
0.702327 0.421942 0.000000
0.736416 0.429114 0.000000
0.767453 0.435004 0.000000
0.794461 0.436927 0.000000
0.819516 0.438514 0.000000
0.842954 0.440070 0.000000
0.864836 0.441718 0.000000
0.885344 0.443183 0.000000
0.904662 0.444831 0.000000
0.922942 0.446632 0.000000
0.940307 0.447578 0.000000
0.956939 0.448035 0.000000
0.972869 0.449073 0.000000
0.988067 0.450935 0.000000
1.000000 0.454322 0.000000
0.152926 0.256840 0.119753
0.155154 0.256962 0.119844
0.158724 0.257145 0.119875
0.165530 0.257694 0.120089
0.175875 0.258183 0.120150
0.188754 0.258976 0.120607
0.204715 0.261509 0.120516
0.227298 0.271519 0.117342
0.255375 0.284062 0.113252
0.289799 0.299107 0.107271
0.331029 0.316808 0.098543
0.367315 0.326024 0.091798
0.431220 0.348974 0.072297
0.515709 0.387854 0.000000
0.573846 0.408637 0.000000
0.624353 0.424048 0.000000
0.668330 0.435309 0.000000
0.706294 0.443519 0.000000
0.739559 0.449683 0.000000
0.770169 0.455055 0.000000
0.798398 0.459876 0.000000
0.823880 0.462715 0.000000
0.846616 0.463203 0.000000
0.867918 0.463569 0.000000
0.887938 0.464057 0.000000
0.906828 0.464790 0.000000
0.924804 0.465705 0.000000
0.941924 0.466102 0.000000
0.958221 0.465797 0.000000
0.973877 0.466224 0.000000
0.988830 0.467506 0.000000
1.000000 0.470558 0.000000
0.167544 0.298772 0.112917
0.170535 0.298802 0.112978
0.174319 0.298985 0.112978
0.182223 0.299413 0.112947
0.193881 0.299931 0.113069
0.208499 0.300969 0.113283
0.225895 0.302037 0.113497
0.249393 0.310918 0.110384
0.279240 0.324224 0.104768
0.315221 0.339940 0.096925
0.357275 0.357671 0.085237
0.405737 0.377539 0.067475
0.442847 0.383551 0.053315
0.508232 0.404242 0.000000
0.582208 0.434607 0.000000
0.631739 0.449226 0.000000
0.674128 0.459205 0.000000
0.710536 0.466194 0.000000
0.742855 0.471260 0.000000
0.772854 0.475502 0.000000
0.800534 0.479377 0.000000
0.826200 0.482918 0.000000
0.849973 0.486030 0.000000
0.871153 0.486610 0.000000
0.890684 0.486091 0.000000
0.909178 0.485817 0.000000
0.926787 0.485847 0.000000
0.943572 0.485481 0.000000
0.959564 0.484596 0.000000
0.974945 0.484321 0.000000
0.989624 0.485206 0.000000
1.000000 0.487770 0.000000
0.186679 0.347845 0.101137
0.189700 0.347967 0.101167
0.193729 0.347997 0.101411
0.202792 0.348363 0.101228
0.215549 0.349096 0.101137
0.231968 0.349859 0.101167
0.251072 0.350896 0.101076
0.273838 0.354711 0.099702
0.305028 0.368139 0.092287
0.341650 0.383581 0.081178
0.383398 0.400580 0.065126
0.430457 0.419074 0.017151
0.481971 0.438300 0.000000
0.515801 0.438666 0.000000
0.575402 0.452766 0.000000
0.637690 0.474311 0.000000
0.679744 0.483925 0.000000
0.714900 0.489479 0.000000
0.746395 0.493599 0.000000
0.775631 0.496925 0.000000
0.802823 0.499825 0.000000
0.828000 0.502434 0.000000
0.851438 0.504662 0.000000
0.873198 0.506828 0.000000
0.893553 0.508843 0.000000
0.911620 0.507774 0.000000
0.928862 0.506798 0.000000
0.945342 0.505730 0.000000
0.960998 0.504143 0.000000
0.976074 0.503380 0.000000
0.990448 0.503655 0.000000
1.000000 0.505943 0.037385
0.208347 0.400793 0.082246
0.211887 0.400885 0.081941
0.216007 0.400916 0.082185
0.225223 0.401221 0.082155
0.239353 0.401587 0.082216
0.257053 0.402258 0.081636
0.277379 0.402716 0.081971
0.300542 0.403632 0.081514
0.330632 0.413794 0.073091
0.366949 0.427985 0.055421
0.407843 0.443671 0.006195
0.452888 0.460090 0.000000
0.500969 0.476692 0.000000
0.550134 0.491737 0.000000
0.578454 0.485664 0.000000
0.630915 0.493507 0.000000
0.683772 0.508232 0.000000
0.719173 0.513573 0.000000
0.750027 0.516503 0.000000
0.778622 0.518914 0.000000
0.805173 0.520928 0.000000
0.829984 0.522484 0.000000
0.852964 0.523949 0.000000
0.874418 0.525383 0.000000
0.894499 0.526635 0.000000
0.913359 0.528008 0.000000
0.930999 0.528679 0.000000
0.947112 0.526848 0.000000
0.962463 0.524620 0.000000
0.977173 0.523186 0.000000
0.991211 0.523033 0.000000
1.000000 0.525078 0.075532
0.231388 0.453620 0.042329
0.234958 0.453651 0.041108
0.239322 0.453742 0.041627
0.249180 0.453803 0.041444
0.263401 0.454108 0.041016
0.281987 0.454261 0.040009
0.303136 0.454719 0.039765
0.327214 0.454963 0.039002
0.355016 0.458595 0.026459
0.389990 0.471138 0.000000
0.428962 0.484504 0.000000
0.471168 0.498299 0.000000
0.515831 0.512139 0.000000
0.562799 0.525994 0.000000
0.606104 0.534936 0.000000
0.631159 0.525170 0.000000
0.677302 0.528099 0.000000
0.722072 0.537102 0.000000
0.753658 0.540063 0.000000
0.781735 0.541527 0.000000
0.807736 0.542565 0.000000
0.831907 0.543359 0.000000
0.854490 0.543969 0.000000
0.875639 0.544549 0.000000
0.895506 0.545068 0.000000
0.914153 0.545678 0.000000
0.931823 0.546502 0.000000
0.948608 0.547295 0.000000
0.963958 0.545739 0.000000
0.978302 0.543786 0.000000
0.991974 0.543175 0.000000
1.000000 0.544945 0.099611
0.254002 0.503075 0.000000
0.256962 0.503044 0.000000
0.262089 0.503014 0.000000
0.271550 0.502922 0.000000
0.286381 0.502922 0.000000
0.304479 0.502983 0.000000
0.326390 0.502739 0.000000
0.350652 0.502495 0.000000
0.376989 0.502434 0.000000
0.409735 0.510887 0.000000
0.446265 0.521965 0.000000
0.485817 0.533379 0.000000
0.527550 0.545220 0.000000
0.571466 0.556939 0.000000
0.616724 0.568536 0.000000
0.654444 0.572290 0.000000
0.676722 0.559625 0.000000
0.717220 0.558282 0.000000
0.755978 0.563104 0.000000
0.784604 0.564569 0.000000
0.810208 0.564782 0.000000
0.833951 0.564630 0.000000
0.856168 0.564385 0.000000
0.876982 0.564233 0.000000
0.896513 0.563989 0.000000
0.914946 0.563958 0.000000
0.932433 0.564111 0.000000
0.949065 0.564263 0.000000
0.964752 0.564599 0.000000
0.979431 0.564965 0.000000
0.992676 0.563989 0.000000
1.000000 0.565637 0.123903
0.274784 0.547784 0.000000
0.278050 0.547692 0.000000
0.282933 0.547570 0.000000
0.292424 0.547448 0.000000
0.306676 0.547356 0.000000
0.325322 0.546899 0.000000
0.347051 0.546532 0.000000
0.371130 0.545953 0.000000
0.397345 0.545586 0.000000
0.426459 0.547997 0.000000
0.461402 0.557244 0.000000
0.498543 0.566888 0.000000
0.538079 0.576867 0.000000
0.579126 0.586877 0.000000
0.621607 0.596704 0.000000
0.664973 0.606287 0.000000
0.696742 0.604822 0.000000
0.716365 0.589776 0.000000
0.752834 0.585657 0.000000
0.786557 0.587366 0.000000
0.812619 0.587274 0.000000
0.836027 0.586419 0.000000
0.857847 0.585382 0.000000
0.878325 0.584375 0.000000
0.897551 0.583429 0.000000
0.915801 0.582696 0.000000
0.933074 0.582208 0.000000
0.949523 0.581842 0.000000
0.965026 0.581750 0.000000
0.979614 0.582483 0.000000
0.993194 0.584741 0.042634
1.000000 0.587030 0.147829
0.294224 0.588434 0.000000
0.297642 0.588373 0.000000
0.302220 0.588281 0.000000
0.311498 0.588006 0.000000
0.325444 0.587793 0.000000
0.343542 0.587213 0.000000
0.364630 0.586755 0.000000
0.388647 0.585931 0.000000
0.414771 0.585199 0.000000
0.442451 0.584283 0.000000
0.474769 0.590692 0.000000
0.510063 0.598810 0.000000
0.547295 0.607172 0.000000
0.585870 0.615534 0.000000
0.625818 0.623774 0.000000
0.666407 0.631800 0.000000
0.707637 0.639765 0.000000
0.734157 0.633661 0.000000
0.751919 0.617121 0.000000
0.784817 0.610864 0.000000
0.814542 0.609827 0.000000
0.837949 0.608453 0.000000
0.859495 0.606683 0.000000
0.879637 0.604913 0.000000
0.898619 0.603265 0.000000
0.916594 0.601862 0.000000
0.933715 0.600702 0.000000
0.949950 0.599847 0.000000
0.965240 0.599420 0.000000
0.979553 0.600000 0.000000
0.992859 0.602197 0.097597
1.000000 0.607385 0.174746
0.312474 0.625788 0.000000
0.315679 0.625635 0.000000
0.320256 0.625452 0.000000
0.329107 0.625299 0.000000
0.342992 0.624750 0.000000
0.360204 0.624262 0.000000
0.380987 0.623590 0.000000
0.404242 0.622766 0.000000
0.430030 0.621759 0.000000
0.457282 0.620539 0.000000
0.486854 0.622065 0.000000
0.520073 0.628748 0.000000
0.555047 0.635615 0.000000
0.591547 0.642573 0.000000
0.629145 0.649500 0.000000
0.667720 0.656519 0.000000
0.706813 0.663325 0.000000
0.746334 0.670100 0.000000
0.767880 0.659876 0.000000
0.783963 0.642023 0.000000
0.813657 0.634119 0.000000
0.839872 0.630823 0.000000
0.861021 0.628229 0.000000
0.880949 0.625727 0.000000
0.899687 0.623377 0.000000
0.917418 0.621393 0.000000
0.934356 0.619684 0.000000
0.950347 0.618341 0.000000
0.965393 0.617609 0.000000
0.979461 0.618067 0.005524
0.992401 0.620417 0.133761
1.000000 0.625879 0.203342
0.329747 0.659480 0.000000
0.332494 0.659480 0.000000
0.336858 0.659144 0.000000
0.345251 0.658991 0.000000
0.358587 0.658503 0.000000
0.375311 0.657832 0.000000
0.395209 0.657038 0.000000
0.418036 0.656062 0.000000
0.443000 0.654963 0.000000
0.469764 0.653559 0.000000
0.497719 0.652155 0.000000
0.528923 0.656794 0.000000
0.562158 0.662593 0.000000
0.596765 0.668513 0.000000
0.632319 0.674464 0.000000
0.669062 0.680476 0.000000
0.706325 0.686427 0.000000
0.743893 0.692256 0.000000
0.781430 0.697963 0.000000
0.798306 0.683742 0.000000
0.813107 0.665278 0.000000
0.839841 0.655818 0.000000
0.863035 0.650660 0.000000
0.882139 0.646815 0.000000
0.900664 0.643915 0.000000
0.918242 0.641199 0.000000
0.934905 0.638941 0.000000
0.950713 0.637110 0.000000
0.965454 0.636225 0.000000
0.979217 0.636561 0.091066
0.991760 0.639155 0.166964
1.000000 0.645106 0.233494
0.345647 0.690272 0.000000
0.348760 0.690150 0.000000
0.352331 0.690089 0.000000
0.360845 0.689693 0.000000
0.373144 0.689204 0.000000
0.389410 0.688533 0.000000
0.408545 0.687770 0.000000
0.430457 0.686671 0.000000
0.454719 0.685481 0.000000
0.480690 0.684169 0.000000
0.508049 0.682673 0.000000
0.537224 0.683497 0.000000
0.568780 0.688380 0.000000
0.601617 0.693416 0.000000
0.635676 0.698573 0.000000
0.670497 0.703761 0.000000
0.705928 0.708858 0.000000
0.741787 0.713863 0.000000
0.777798 0.718776 0.000000
0.812619 0.722652 0.000000
0.825925 0.705684 0.000000
0.839994 0.687007 0.000000
0.863615 0.676051 0.000000
0.884306 0.669459 0.000000
0.901518 0.664637 0.000000
0.918883 0.661341 0.000000
0.935485 0.658473 0.000000
0.950988 0.656275 0.000000
0.965423 0.655146 0.009155
0.978851 0.655604 0.132479
0.990997 0.658350 0.198642
1.000000 0.664637 0.262882
0.361151 0.719142 0.000000
0.363714 0.718959 0.000000
0.367468 0.718807 0.000000
0.375219 0.718502 0.000000
0.387182 0.718013 0.000000
0.402533 0.717311 0.000000
0.420966 0.716426 0.000000
0.442206 0.715389 0.000000
0.465797 0.714168 0.000000
0.490883 0.712734 0.000000
0.517632 0.711238 0.000000
0.545342 0.709468 0.000000
0.575067 0.713130 0.000000
0.606561 0.717403 0.000000
0.638849 0.721798 0.000000
0.672023 0.726223 0.000000
0.705867 0.730648 0.000000
0.740017 0.734951 0.000000
0.774441 0.739223 0.000000
0.808804 0.743343 0.000000
0.838865 0.743587 0.000000
0.851102 0.726009 0.000000
0.864378 0.707424 0.000000
0.885344 0.695308 0.000000
0.903929 0.687434 0.000000
0.919463 0.681758 0.000000
0.935882 0.678279 0.000000
0.951141 0.675746 0.000000
0.965270 0.674525 0.098665
0.978271 0.675044 0.168704
0.989960 0.678004 0.230594
1.000000 0.684627 0.293584
0.376074 0.746059 0.000000
0.378576 0.745968 0.000000
0.382238 0.745815 0.000000
0.389502 0.745480 0.000000
0.400702 0.744961 0.000000
0.415320 0.744320 0.000000
0.433082 0.743374 0.000000
0.453529 0.742306 0.000000
0.475898 0.741146 0.000000
0.500328 0.739773 0.000000
0.526268 0.738186 0.000000
0.553460 0.736446 0.000000
0.581720 0.736934 0.000000
0.611414 0.740536 0.000000
0.642298 0.744289 0.000000
0.673915 0.748013 0.000000
0.706142 0.751797 0.000000
0.738827 0.755520 0.000000
0.771664 0.759182 0.000000
0.804593 0.762753 0.000000
0.837308 0.766201 0.000000
0.862974 0.763088 0.000000
0.874144 0.745144 0.000000
0.886625 0.726711 0.000000
0.905303 0.713863 0.000000
0.922148 0.704952 0.000000
0.936187 0.698451 0.000000
0.951019 0.695674 0.072084
0.964874 0.694240 0.143191
0.977539 0.694697 0.202914
0.988769 0.697932 0.262516
0.998444 0.704616 0.323613
0.390387 0.771511 0.000000
0.393011 0.771420 0.000000
0.396307 0.771237 0.000000
0.402991 0.770993 0.000000
0.413855 0.770443 0.000000
0.428077 0.769711 0.000000
0.444678 0.768917 0.000000
0.464302 0.767880 0.000000
0.486152 0.766629 0.000000
0.509606 0.765255 0.000000
0.534844 0.763699 0.000000
0.561181 0.761990 0.000000
0.588434 0.760098 0.000000
0.616785 0.762936 0.000000
0.646143 0.766049 0.000000
0.676295 0.769253 0.000000
0.707027 0.772427 0.000000
0.738247 0.775601 0.000000
0.769680 0.778714 0.000000
0.801144 0.781796 0.000000
0.832517 0.784787 0.000000
0.863737 0.787686 0.000000
0.885130 0.781430 0.000000
0.895354 0.763333 0.000000
0.907103 0.745174 0.080751
0.923583 0.732021 0.130434
0.938506 0.722988 0.135195
0.951019 0.716274 0.136568
0.964141 0.714443 0.186984
0.976501 0.714748 0.238193
0.987396 0.717830 0.293919
0.996582 0.724697 0.354009
0.404852 0.795682 0.000000
0.407263 0.795529 0.000000
0.410315 0.795407 0.000000
0.417029 0.795071 0.000000
0.427253 0.794553 0.000000
0.440497 0.793912 0.000000
0.456672 0.793057 0.000000
0.475380 0.792050 0.000000
0.496345 0.790829 0.000000
0.519097 0.789517 0.000000
0.543389 0.787961 0.000000
0.569024 0.786282 0.000000
0.595453 0.784451 0.000000
0.622492 0.784604 0.000000
0.650507 0.787259 0.000000
0.679316 0.789944 0.000000
0.708736 0.792630 0.000000
0.738460 0.795315 0.000000
0.768551 0.797971 0.000000
0.798642 0.800595 0.000000
0.828733 0.803128 0.000000
0.858671 0.805661 0.000000
0.888243 0.808103 0.008698
0.905425 0.799039 0.097383
0.914366 0.781369 0.149935
0.924804 0.764218 0.191745
0.939055 0.751583 0.228458
0.952483 0.742489 0.231418
0.963775 0.735775 0.233585
0.975067 0.735195 0.276738
0.985657 0.738094 0.327520
0.994629 0.744381 0.383459
0.419440 0.818662 0.000000
0.421851 0.818540 0.000000
0.424567 0.818418 0.000000
0.430884 0.818143 0.000000
0.440558 0.817624 0.000000
0.453254 0.816953 0.000000
0.468605 0.816159 0.000000
0.486580 0.815183 0.000000
0.506767 0.814023 0.000000
0.528832 0.812680 0.000000
0.552392 0.811185 0.000000
0.577142 0.809567 0.000000
0.602930 0.807736 0.000000
0.629328 0.805875 0.000000
0.655940 0.807980 0.001648
