其他预设/【233】日式怀旧街道调色预设208款/1.3D LUT预设（视频调色-PR-AE-PS-FCPX-达芬奇用）/4.富士胶片风日式城市街拍预设 (自动曝光预设)/JA – Cityscape Pop 4 (Classic Chrome) (Auto).cube
# Created by Adobe Lightroom plugin Export LUT (1.17.0)
# www.johnrellis.com/lightroom/exportlut.htm
# Preset: JA – Cityscape Pop 4 (Classic Chrome) (Auto)
# Color profile: /Library/Application Support/Adobe/Color/Profiles/Recommended/AdobeRGB1998.icc
LUT_3D_SIZE 8
DOMAIN_MIN 0.000000 0.000000 0.000000
DOMAIN_MAX 0.903226 0.903226 0.903226
0.079744 0.086580 0.090974
0.096223 0.086915 0.091341
0.164187 0.088014 0.089876
0.317479 0.092103 0.077607
0.534203 0.104311 0.000000
0.706325 0.112490 0.000000
0.846311 0.098726 0.000000
0.949859 0.003815 0.000000
0.080934 0.099855 0.092012
0.097871 0.100587 0.091493
0.167941 0.108919 0.088594
0.323003 0.130068 0.072511
0.537835 0.154818 0.000000
0.708095 0.162478 0.000000
0.847196 0.153109 0.000000
0.950103 0.118257 0.000000
0.084291 0.150546 0.093172
0.107149 0.153964 0.091493
0.188540 0.174228 0.082765
0.347387 0.219608 0.031586
0.549645 0.259068 0.000000
0.714351 0.268101 0.000000
0.850248 0.259922 0.000000
0.950958 0.234043 0.000000
0.084962 0.268406 0.080964
0.125185 0.273014 0.077180
0.228000 0.298375 0.053071
0.413886 0.360174 0.000000
0.598047 0.392309 0.000000
0.725002 0.386053 0.000000
0.855497 0.376074 0.000000
0.952331 0.349615 0.000000
0.079835 0.441505 0.000000
0.143526 0.445380 0.000000
0.266087 0.458778 0.000000
0.443366 0.509545 0.000000
0.650019 0.548760 0.000000
0.779355 0.529442 0.000000
0.868589 0.497139 0.000000
0.954070 0.464515 0.000000
0.086244 0.599847 0.000000
0.157870 0.602014 0.000000
0.287663 0.609552 0.000000
0.439399 0.627100 0.000000
0.639094 0.676783 0.000000
0.817136 0.684413 0.000000
0.903593 0.632380 0.000000
0.963043 0.581384 0.000000
0.119417 0.739498 0.000000
0.179599 0.740658 0.000000
0.304356 0.744778 0.000000
0.445441 0.751339 0.000000
0.612177 0.774807 0.000000
0.794583 0.803311 0.000000
0.922911 0.775540 0.000000
0.974731 0.704616 0.000000
0.188663 0.860319 0.000000
0.228397 0.860685 0.000000
0.330236 0.861784 0.000000
0.456336 0.863279 0.000000
0.591913 0.864683 0.000000
0.744564 0.876219 0.000000
0.889921 0.881773 0.169741
0.975341 0.839139 0.331945
0.081971 0.090730 0.108003
0.094575 0.091371 0.108156
0.169406 0.083955 0.104280
0.326604 0.089540 0.091005
0.540551 0.115938 0.002106
0.709438 0.148287 0.000000
0.847776 0.146639 0.000000
0.950530 0.092744 0.000000
0.080873 0.102358 0.109621
0.097780 0.105989 0.111147
0.172976 0.109133 0.105226
0.331426 0.126864 0.087373
0.543664 0.158572 0.000000
0.711238 0.184451 0.000000
0.848661 0.184451 0.000000
0.950774 0.143954 0.000000
0.077699 0.157717 0.117098
0.101289 0.165255 0.112612
0.192233 0.180484 0.106416
0.349584 0.215152 0.069062
0.554711 0.256168 0.000000
0.717220 0.274754 0.000000
0.851682 0.275212 0.000000
0.951629 0.244877 0.000000
0.027497 0.279973 0.111238
0.104067 0.286320 0.104555
0.222995 0.306279 0.090822
0.417365 0.364477 0.000000
0.597162 0.387121 0.000000
0.727596 0.385657 0.000000
0.856779 0.383917 0.000000
0.953002 0.354925 0.000000
0.000000 0.452125 0.070619
0.105501 0.455848 0.062593
0.255863 0.468147 0.000000
0.438666 0.512993 0.000000
0.650721 0.550774 0.000000
0.778897 0.527276 0.000000
0.870726 0.501579 0.000000
0.954711 0.467262 0.000000
0.000000 0.605646 0.000000
0.118898 0.607691 0.000000
0.273655 0.614893 0.000000
0.430793 0.628626 0.000000
0.635431 0.678157 0.000000
0.816739 0.685817 0.000000
0.904540 0.634272 0.000000
0.963745 0.582971 0.000000
0.062135 0.742275 0.000000
0.152377 0.743435 0.000000
0.291142 0.747372 0.000000
0.438727 0.753780 0.000000
0.607019 0.775204 0.000000
0.791836 0.803891 0.000000
0.923339 0.776547 0.000000
0.975189 0.705531 0.000000
0.176150 0.861082 0.116030
0.218509 0.861418 0.112123
0.323888 0.862547 0.097017
0.452064 0.864012 0.043549
0.588464 0.865019 0.000000
0.744503 0.876616 0.000000
0.890043 0.882109 0.172335
0.975433 0.839597 0.333501
0.078126 0.097597 0.174685
0.099367 0.099001 0.179416
0.161807 0.100252 0.184451
0.299138 0.048676 0.196384
0.554314 0.000000 0.158480
0.718868 0.000000 0.123781
0.853696 0.000000 0.004608
0.953399 0.086885 0.000000
0.072724 0.108980 0.176852
0.099580 0.117128 0.184573
0.167819 0.121736 0.190463
0.320623 0.081697 0.196719
0.557244 0.000000 0.160189
0.720302 0.000000 0.120760
0.854490 0.099855 0.000000
0.953582 0.139925 0.000000
0.062531 0.169528 0.189822
0.090578 0.175418 0.194278
0.184665 0.198001 0.206760
0.363256 0.197391 0.183261
0.566613 0.209964 0.150607
0.725490 0.223331 0.104219
0.857084 0.235172 0.000000
0.954314 0.242771 0.000000
0.000000 0.291752 0.224887
0.031250 0.302525 0.224399
0.190127 0.333928 0.204562
0.416571 0.376349 0.202518
0.589563 0.367712 0.123659
0.734554 0.363989 0.056123
0.861570 0.361761 0.000000
0.955505 0.353582 0.000000
0.000000 0.462043 0.245396
0.000000 0.471473 0.235080
0.199710 0.494301 0.197726
0.413825 0.520256 0.186313
0.646754 0.557855 0.193637
0.773861 0.520500 0.080446
0.868559 0.488167 0.000000
0.956939 0.466896 0.000000
0.000000 0.614099 0.236484
0.000000 0.619776 0.222690
0.220981 0.630304 0.199191
0.408515 0.640131 0.184817
0.620447 0.681086 0.187228
0.811246 0.692500 0.217502
0.900969 0.634852 0.072786
0.964782 0.584222 0.000000
0.000000 0.748257 0.236759
0.000000 0.750790 0.222232
0.255924 0.754635 0.218112
0.420417 0.760616 0.206058
0.590906 0.775113 0.197848
0.781704 0.804959 0.225528
0.916167 0.783749 0.267277
0.974914 0.709621 0.088746
0.168612 0.862303 0.281498
0.208194 0.862699 0.277012
0.316808 0.863859 0.272648
0.446174 0.865415 0.263676
0.582696 0.866575 0.246860
0.737697 0.875944 0.263432
0.886259 0.882841 0.279973
0.975769 0.841001 0.338964
0.034852 0.109133 0.303593
0.095094 0.112947 0.313237
0.191257 0.114473 0.338781
0.312566 0.105531 0.344610
0.447120 0.000000 0.331212
0.685023 0.000000 0.331579
0.853513 0.000000 0.311437
0.952941 0.000000 0.261295
0.000000 0.123323 0.306615
0.085786 0.133547 0.318181
0.192233 0.141146 0.343664
0.320165 0.136843 0.351781
0.465064 0.080812 0.338781
0.695430 0.000000 0.330632
0.854093 0.030701 0.314672
0.953307 0.023468 0.257694
0.000000 0.188235 0.316045
0.000000 0.188907 0.322637
0.185428 0.215457 0.353826
0.344213 0.232914 0.373632
0.523644 0.207340 0.359747
0.724056 0.223819 0.348241
0.856168 0.229587 0.313939
0.954070 0.209110 0.249729
0.000000 0.305882 0.344579
0.000000 0.313085 0.350774
0.168704 0.339910 0.371344
0.382910 0.395087 0.404852
0.580102 0.382086 0.374212
0.733150 0.372992 0.343969
0.860410 0.360906 0.304204
0.954864 0.338659 0.242771
0.000000 0.471809 0.392218
0.000000 0.479835 0.394202
0.160494 0.505180 0.397070
0.388434 0.537194 0.400397
0.623133 0.572412 0.431067
0.753048 0.521904 0.342412
0.866178 0.489357 0.285710
0.955871 0.460792 0.230564
0.000000 0.616999 0.403357
0.000000 0.621973 0.401709
0.196628 0.637293 0.398352
0.400244 0.655970 0.400763
0.594690 0.679683 0.410437
0.792752 0.707332 0.462928
0.886229 0.651026 0.376226
0.958251 0.585168 0.235935
0.000000 0.747677 0.409308
0.000000 0.750088 0.408637
0.260807 0.757626 0.410193
0.420691 0.766690 0.408484
0.576745 0.773953 0.403113
0.764828 0.804044 0.444068
0.899840 0.798581 0.497017
0.961944 0.731075 0.398627
0.213046 0.860349 0.439948
0.252537 0.860746 0.441352
0.355322 0.862119 0.447089
0.457282 0.864988 0.433539
0.585595 0.866819 0.428138
0.729030 0.872953 0.439918
0.873808 0.882658 0.477943
0.963195 0.852689 0.507439
0.000000 0.130343 0.461585
0.080629 0.138338 0.471077
0.206271 0.142611 0.493019
0.351781 0.152255 0.528679
0.497719 0.139498 0.523033
0.587182 0.110536 0.465522
0.783108 0.111055 0.480293
0.926268 0.243992 0.486549
0.000000 0.145907 0.462623
0.048005 0.156954 0.472602
0.204410 0.169528 0.495766
0.353033 0.184421 0.530327
0.502525 0.179843 0.526879
0.590845 0.154940 0.467720
0.789090 0.171878 0.484779
0.927764 0.279240 0.491859
0.000000 0.190829 0.458106
0.000000 0.191135 0.466926
0.188144 0.238376 0.499367
0.359442 0.276280 0.534295
0.518608 0.292088 0.539361
0.612909 0.266392 0.483436
0.808164 0.306004 0.503929
0.931945 0.379644 0.512383
0.000000 0.314702 0.479408
0.000000 0.316930 0.484199
0.137392 0.327672 0.500328
0.377905 0.399298 0.536645
0.545098 0.440650 0.558343
0.673152 0.427832 0.531945
0.837583 0.459052 0.539666
0.935485 0.462654 0.517723
0.000000 0.458137 0.507378
0.000000 0.463600 0.511498
0.162234 0.483986 0.525536
0.385504 0.523735 0.549432
0.580529 0.580285 0.584070
0.727718 0.568902 0.562066
0.848966 0.554833 0.535576
0.939879 0.529320 0.496162
0.000000 0.619928 0.542260
0.000000 0.623957 0.543877
0.195956 0.636805 0.549615
0.404547 0.656580 0.561517
0.577661 0.682734 0.573968
0.767269 0.720058 0.615534
0.862242 0.670222 0.543542
0.942718 0.621393 0.479652
0.000000 0.746181 0.550927
0.030091 0.748287 0.551598
0.265507 0.754849 0.555077
0.430823 0.765499 0.562524
0.578546 0.779080 0.566552
0.739223 0.798672 0.585779
0.881559 0.813870 0.647059
0.944427 0.759152 0.571221
0.233890 0.858122 0.569055
0.268528 0.858518 0.569757
0.362066 0.859800 0.572107
0.479408 0.861997 0.575952
0.591455 0.865782 0.570855
0.714473 0.868132 0.569329
0.858396 0.881529 0.617578
0.945861 0.868132 0.662165
0.000000 0.169406 0.596155
0.101289 0.182315 0.602655
0.223331 0.194339 0.617426
0.358007 0.219181 0.641901
0.515892 0.273777 0.675044
0.645686 0.274388 0.658564
0.728054 0.257664 0.604211
0.868406 0.321294 0.611841
0.000000 0.182773 0.595727
0.075196 0.194888 0.601770
0.224460 0.217929 0.618250
0.360632 0.244694 0.642359
0.519158 0.300786 0.675227
0.648371 0.303410 0.660365
0.729213 0.282506 0.605646
0.870909 0.342626 0.615015
0.000000 0.210788 0.590631
0.000000 0.222477 0.596551
0.213748 0.274632 0.617121
0.371649 0.320592 0.642756
0.530663 0.379644 0.675441
0.657649 0.388159 0.666682
0.733028 0.354894 0.610620
0.879698 0.409369 0.626184
0.000000 0.309361 0.593713
0.000000 0.309880 0.596307
0.121798 0.316777 0.605402
0.385077 0.413306 0.639582
0.548699 0.478340 0.674617
0.673610 0.495979 0.677516
0.738857 0.447211 0.617884
0.893980 0.506523 0.646265
0.000000 0.441169 0.612665
0.000000 0.444068 0.615045
0.161318 0.456428 0.623163
0.358038 0.487129 0.637263
0.559319 0.565667 0.670130
0.695766 0.606134 0.693629
0.792233 0.583673 0.664179
0.911315 0.626642 0.680598
0.000000 0.583246 0.635431
0.000000 0.586847 0.637568
0.221469 0.600305 0.645045
0.399145 0.625513 0.658778
0.563317 0.663081 0.680720
0.727291 0.718868 0.717891
0.836667 0.710262 0.701228
0.919799 0.694911 0.677668
0.000000 0.744381 0.674861
0.093965 0.746090 0.675654
0.272526 0.751553 0.678218
0.424750 0.760922 0.682582
0.573816 0.775174 0.690059
0.719570 0.795132 0.705043
0.861662 0.825376 0.754574
0.924743 0.782223 0.692561
0.257176 0.855406 0.687526
0.286564 0.855711 0.687648
0.369238 0.856962 0.687800
0.477638 0.859098 0.688106
0.599298 0.862211 0.691279
0.718135 0.867155 0.698146
0.839658 0.877653 0.722896
0.929747 0.882506 0.775143
0.136385 0.245884 0.724392
0.189822 0.261082 0.727535
0.286900 0.285801 0.736446
0.401495 0.319463 0.750912
0.533898 0.375219 0.770443
0.672023 0.450507 0.793454
0.769375 0.432898 0.773251
0.849577 0.430488 0.736721
0.120516 0.254978 0.723293
0.179873 0.269810 0.726406
0.292363 0.304875 0.735988
0.406043 0.338018 0.750423
0.537407 0.392615 0.770047
0.674281 0.465187 0.793210
0.770596 0.448219 0.773922
0.849729 0.441962 0.737087
0.000000 0.274113 0.718685
0.109865 0.287938 0.721767
0.284977 0.342351 0.732509
0.419745 0.393103 0.748257
0.548272 0.444007 0.768338
0.681270 0.510216 0.792264
0.774807 0.497230 0.776333
0.850156 0.478889 0.738094
0.000000 0.317052 0.709895
0.000000 0.318486 0.711086
0.183200 0.351232 0.722530
0.420081 0.451057 0.742092
0.560662 0.510582 0.764675
0.690791 0.571710 0.790433
0.782132 0.567193 0.780850
0.850980 0.531945 0.738888
0.000000 0.441413 0.721859
0.000000 0.443183 0.722560
0.182528 0.450416 0.725063
0.338750 0.467292 0.729274
0.554345 0.566369 0.755856
0.697444 0.634119 0.786801
0.792660 0.647120 0.787808
0.851774 0.594934 0.738308
0.000000 0.569421 0.736599
0.084993 0.571527 0.737240
0.239231 0.579309 0.739651
0.376410 0.594018 0.743984
0.514824 0.617395 0.751492
0.694667 0.692164 0.777584
0.807980 0.735531 0.798825
0.878080 0.713344 0.772305
0.166995 0.699855 0.753140
0.207126 0.701717 0.753811
0.305425 0.708583 0.756222
0.423072 0.721035 0.760922
0.555261 0.741115 0.769467
0.698268 0.772885 0.785489
0.831510 0.821286 0.818509
0.903899 0.816007 0.807492
0.274418 0.853574 0.796139
0.299535 0.853880 0.795834
0.372564 0.854856 0.794766
0.473518 0.856596 0.792935
0.589868 0.859037 0.791379
0.712734 0.863188 0.794156
0.823178 0.873136 0.806516
0.917601 0.892699 0.847349
0.362768 0.415534 0.846403
0.389776 0.429511 0.846891
0.451148 0.457130 0.849088
0.522332 0.482643 0.853422
0.609918 0.520073 0.859525
0.704616 0.569635 0.867094
0.796872 0.629603 0.875761
0.863005 0.599054 0.862821
0.357244 0.418769 0.845945
0.384161 0.432197 0.846464
0.455695 0.467720 0.848478
0.525750 0.492439 0.852903
0.612543 0.529076 0.859098
0.706447 0.577478 0.866758
0.798062 0.636500 0.875578
0.863432 0.606653 0.862943
0.326238 0.423163 0.844572
0.355291 0.435859 0.845060
0.443915 0.480232 0.846921
0.534447 0.521874 0.851102
0.619715 0.556573 0.857603
0.711879 0.602289 0.865660
0.801755 0.658595 0.874907
0.864775 0.631464 0.863371
0.226200 0.417884 0.842252
0.267643 0.430060 0.842741
0.379004 0.472633 0.844572
0.523369 0.546532 0.848112
0.625788 0.593988 0.854856
0.717830 0.637446 0.863706
0.806729 0.690730 0.873899
0.867247 0.669764 0.864317
0.236820 0.496010 0.842924
0.257542 0.497139 0.842802
0.318090 0.500511 0.842313
0.412360 0.517082 0.844633
0.608362 0.619959 0.850431
0.719112 0.674525 0.860533
0.811154 0.727047 0.872435
0.870909 0.718471 0.866026
0.288365 0.600977 0.848508
0.305364 0.601984 0.848447
0.357061 0.605127 0.848112
0.432166 0.609613 0.847501
0.524346 0.617090 0.846464
0.702388 0.703731 0.854124
0.813413 0.765225 0.869627
0.876219 0.773678 0.869047
0.346349 0.706844 0.854795
0.360174 0.707759 0.854734
0.404547 0.710750 0.854551
0.473884 0.716243 0.854215
0.561273 0.724971 0.853758
0.663050 0.739528 0.853208
0.803037 0.796902 0.861692
0.884215 0.831449 0.874723
0.410163 0.810422 0.861357
0.421820 0.811246 0.861326
0.460334 0.814054 0.861326
0.523247 0.819364 0.861357
0.605859 0.827665 0.861540
0.702449 0.839811 0.862547
0.804074 0.857786 0.867033
0.899687 0.891203 0.888518
