其他预设/【233】日式怀旧街道调色预设208款/1.3D LUT预设（视频调色-PR-AE-PS-FCPX-达芬奇用）/4.富士胶片风日式城市街拍预设 (自动曝光预设)/JA – Harsh Shade 1 (Classic Chrome) (Auto).cube
# Created by Adobe Lightroom plugin Export LUT (1.17.0)
# www.johnrellis.com/lightroom/exportlut.htm
# Preset: JA – Harsh Shade 1 (Classic Chrome) (Auto)
# Color profile: /Library/Application Support/Adobe/Color/Profiles/Recommended/AdobeRGB1998.icc
LUT_3D_SIZE 32
0.035828 0.039033 0.053254
0.049836 0.041138 0.055268
0.063203 0.041932 0.057221
0.078431 0.047944 0.061524
0.095491 0.052918 0.065736
0.114046 0.058473 0.070527
0.134890 0.061677 0.074250
0.158724 0.063996 0.078126
0.187442 0.064881 0.081910
0.222141 0.064546 0.085023
0.264591 0.062867 0.087922
0.316381 0.055207 0.090181
0.378332 0.029969 0.090852
0.448005 0.000000 0.090944
0.519921 0.000000 0.089815
0.589044 0.000000 0.088960
0.650782 0.000000 0.089235
0.704463 0.000000 0.091463
0.750546 0.000000 0.096376
0.790311 0.000000 0.103487
0.824826 0.000000 0.113100
0.855222 0.000000 0.124208
0.882261 0.000000 0.136904
0.906889 0.000000 0.151278
0.929625 0.074891 0.166964
0.950469 0.123354 0.184878
0.969360 0.166903 0.205539
0.986175 0.212009 0.230411
1.000000 0.260655 0.262394
1.000000 0.313848 0.304845
1.000000 0.371557 0.359411
1.000000 0.433143 0.422248
0.036835 0.051301 0.056458
0.052094 0.052735 0.056031
0.065034 0.053162 0.057130
0.080659 0.054170 0.059876
0.097505 0.058808 0.064637
0.115938 0.062165 0.069001
0.136629 0.064729 0.073610
0.160494 0.067079 0.077485
0.189120 0.068574 0.081239
0.224094 0.068757 0.083986
0.266606 0.067689 0.087160
0.318456 0.062898 0.089082
0.380560 0.048402 0.090150
0.450233 0.010285 0.090028
0.521874 0.000000 0.088838
0.590631 0.000000 0.088136
0.652094 0.000000 0.088045
0.705440 0.000000 0.090333
0.751339 0.000000 0.095338
0.790951 0.000000 0.102541
0.825345 0.000000 0.112123
0.855589 0.000000 0.123384
0.882597 0.000000 0.136385
0.907164 0.000000 0.150820
0.929808 0.084352 0.166598
0.950652 0.128817 0.184543
0.969512 0.170382 0.205173
0.986267 0.214542 0.230228
1.000000 0.262394 0.262089
1.000000 0.315221 0.304723
1.000000 0.372473 0.359075
1.000000 0.433753 0.422004
0.038331 0.062074 0.059449
0.051728 0.062928 0.060548
0.065370 0.064515 0.059693
0.081147 0.064088 0.060945
0.099825 0.064759 0.063600
0.118379 0.066743 0.068147
0.138613 0.069459 0.072786
0.162631 0.071473 0.077028
0.191440 0.073335 0.080140
0.226261 0.074464 0.083406
0.269169 0.074006 0.086213
0.321294 0.071778 0.088228
0.383459 0.064424 0.089418
0.453040 0.043580 0.089113
0.524529 0.000000 0.087678
0.592920 0.000000 0.086519
0.654017 0.000000 0.086458
0.706905 0.000000 0.088838
0.752529 0.000000 0.093935
0.791836 0.000000 0.101320
0.826017 0.000000 0.111055
0.856138 0.000000 0.122499
0.883055 0.000000 0.135470
0.907500 0.037903 0.150057
0.930114 0.096345 0.165927
0.950896 0.135561 0.184024
0.969696 0.175326 0.204715
0.986450 0.217929 0.229831
1.000000 0.264866 0.261784
1.000000 0.316930 0.304234
1.000000 0.373632 0.358709
1.000000 0.434638 0.421637
0.044038 0.076020 0.065034
0.055390 0.075990 0.065675
0.064546 0.076448 0.066621
0.081666 0.079194 0.064668
0.100496 0.078614 0.065980
0.120760 0.078798 0.067720
0.143404 0.079866 0.070192
0.167544 0.081849 0.074495
0.196384 0.084047 0.078218
0.231693 0.085817 0.081727
0.274876 0.087129 0.084627
0.327520 0.087465 0.086275
0.390082 0.085420 0.086976
0.459266 0.079561 0.086244
0.530205 0.069306 0.084321
0.597833 0.049439 0.083162
0.657862 0.008759 0.083070
0.709957 0.000000 0.085542
0.755001 0.000000 0.090730
0.793606 0.000000 0.098817
0.827512 0.000000 0.108980
0.857267 0.000000 0.120760
0.883970 0.045655 0.134005
0.908293 0.084993 0.148867
0.930785 0.116915 0.164797
0.951446 0.149722 0.182956
0.970153 0.185092 0.203738
0.986816 0.225132 0.229038
1.000000 0.270146 0.260990
1.000000 0.320592 0.303380
1.000000 0.376349 0.357855
1.000000 0.436439 0.420874
0.050568 0.089387 0.071260
0.059205 0.089723 0.072541
0.065797 0.089906 0.073091
0.078584 0.091554 0.073274
0.100282 0.095918 0.071015
0.122316 0.096559 0.071412
0.145083 0.096468 0.071962
0.172091 0.098207 0.073854
0.204379 0.100282 0.074891
0.240177 0.103395 0.078523
0.284062 0.106477 0.081056
0.337377 0.109773 0.082734
0.400366 0.111666 0.082704
0.469276 0.111330 0.081147
0.539025 0.108949 0.078798
0.605127 0.104280 0.076905
0.663722 0.097871 0.077028
0.714748 0.091157 0.079530
0.758694 0.084810 0.085634
0.796567 0.082246 0.094209
0.829709 0.083314 0.105135
0.859129 0.091463 0.117311
0.885435 0.103700 0.131197
0.909514 0.121370 0.146334
0.931792 0.142916 0.162844
0.952270 0.169100 0.181186
0.970825 0.199863 0.202304
0.987366 0.235874 0.227634
1.000000 0.278172 0.259770
1.000000 0.326604 0.302159
1.000000 0.380529 0.356664
1.000000 0.439338 0.419593
0.054658 0.103334 0.077607
0.060975 0.103944 0.078096
0.067384 0.104341 0.078248
0.078645 0.105104 0.079530
0.096498 0.109377 0.078157
0.121981 0.115419 0.075746
0.148318 0.117678 0.076081
0.175082 0.118593 0.075898
0.207248 0.121157 0.076356
0.247532 0.125917 0.076478
0.296452 0.131258 0.075868
0.350927 0.136660 0.076997
0.414038 0.141878 0.075837
0.482338 0.145602 0.073274
0.550774 0.147585 0.069337
0.614923 0.146822 0.067140
0.671595 0.144289 0.066957
0.721004 0.141115 0.070527
0.763516 0.137667 0.077516
0.800381 0.135622 0.087404
0.832731 0.135286 0.099580
0.861479 0.138064 0.113039
0.887358 0.144747 0.127474
0.911131 0.155795 0.143099
0.933165 0.171450 0.160037
0.953399 0.191836 0.178866
0.971771 0.217838 0.200168
0.988098 0.249821 0.225711
1.000000 0.288731 0.257969
1.000000 0.334447 0.300481
1.000000 0.386206 0.354925
1.000000 0.443275 0.417823
0.057465 0.118868 0.083619
0.061555 0.119661 0.083131
0.067781 0.119997 0.083894
0.078981 0.120851 0.084749
0.094240 0.122286 0.086183
0.117556 0.130190 0.083162
0.147646 0.138125 0.080903
0.180423 0.143526 0.080262
0.213138 0.146395 0.079133
0.252049 0.150820 0.077516
0.301946 0.158480 0.076020
0.362860 0.167727 0.071382
0.431312 0.176577 0.064332
0.498573 0.183017 0.059571
0.565270 0.187045 0.050568
0.626764 0.188479 0.045014
0.681117 0.187900 0.043793
0.728695 0.185580 0.053040
0.769528 0.182834 0.065095
0.804990 0.180240 0.077607
0.836393 0.179171 0.091493
0.864439 0.179446 0.106416
0.889769 0.183047 0.122103
0.913146 0.189975 0.138735
0.934844 0.201266 0.156283
0.954772 0.217105 0.175540
0.972900 0.238590 0.197330
0.989014 0.266545 0.223423
1.000000 0.301640 0.255680
1.000000 0.344152 0.298314
1.000000 0.393225 0.352605
1.000000 0.448310 0.415717
0.058839 0.135988 0.090028
0.062318 0.136873 0.089570
0.068055 0.137392 0.089662
0.079530 0.138460 0.090394
0.095277 0.139956 0.091432
0.114443 0.144320 0.091859
0.143679 0.155123 0.088533
0.179355 0.165957 0.085573
0.221378 0.176028 0.083528
0.262058 0.182010 0.080873
0.310613 0.189548 0.076417
0.369604 0.199649 0.069245
0.439460 0.212039 0.059327
0.512505 0.222385 0.030915
0.581872 0.229160 0.000000
0.640314 0.231327 0.000000
0.692103 0.230900 0.000000
0.737575 0.228794 0.006195
0.776394 0.225986 0.031312
0.810452 0.222507 0.062257
0.840726 0.220157 0.080568
0.867887 0.219028 0.097780
0.892638 0.220279 0.115114
0.915557 0.224277 0.133120
0.936797 0.231815 0.151614
0.956420 0.244144 0.171603
0.974243 0.261418 0.193942
0.990143 0.285283 0.220127
1.000000 0.316625 0.252873
1.000000 0.355566 0.295384
1.000000 0.401801 0.349798
1.000000 0.454414 0.413153
0.058625 0.155795 0.097017
0.062379 0.156527 0.095827
0.067475 0.157626 0.095583
0.079683 0.158785 0.096468
0.096162 0.160586 0.097566
0.114992 0.162844 0.099428
0.140291 0.171786 0.098146
0.176608 0.186587 0.093080
0.220005 0.201083 0.089448
0.274632 0.218143 0.083864
0.325536 0.227970 0.077516
0.384497 0.239109 0.067353
0.448798 0.249943 0.047150
0.520348 0.262028 0.010895
0.589593 0.271000 0.000000
0.651575 0.275273 0.000000
0.704524 0.275273 0.000000
0.747524 0.272770 0.000000
0.784085 0.268528 0.000000
0.816526 0.264256 0.016541
0.845548 0.260685 0.062867
0.871855 0.257908 0.085420
0.895872 0.257145 0.106050
0.918273 0.258946 0.125490
0.939147 0.263767 0.145480
0.958312 0.272374 0.166598
0.975799 0.286107 0.189670
0.991394 0.306096 0.216434
1.000000 0.333440 0.249271
1.000000 0.368719 0.291905
1.000000 0.411688 0.346471
1.000000 0.461494 0.409766
0.056123 0.178622 0.104005
0.060670 0.179660 0.103334
0.066133 0.180850 0.102113
0.079652 0.182284 0.102571
0.096895 0.184268 0.103761
0.117098 0.187045 0.105318
0.139467 0.190707 0.107149
0.173373 0.206241 0.103243
0.219120 0.226474 0.096345
0.272160 0.245945 0.090242
0.343450 0.272221 0.077882
0.404639 0.285588 0.064210
0.469306 0.297704 0.031617
0.533776 0.306798 0.000000
0.597009 0.313634 0.000000
0.657465 0.318547 0.000000
0.710170 0.319371 0.000000
0.755337 0.316716 0.000000
0.792416 0.311864 0.000000
0.823056 0.306157 0.000000
0.850858 0.301061 0.011200
0.876127 0.296849 0.067353
0.899535 0.294163 0.093263
0.921355 0.293767 0.116121
0.941680 0.296056 0.137911
0.960449 0.301854 0.160311
0.977539 0.312291 0.184298
0.992828 0.328618 0.211673
1.000000 0.352087 0.245029
1.000000 0.383429 0.287755
1.000000 0.422889 0.342321
1.000000 0.469642 0.405707
0.049042 0.205081 0.111299
0.055451 0.206180 0.110231
0.061799 0.207675 0.108797
0.077028 0.209415 0.108461
0.097139 0.211704 0.109407
0.119020 0.214969 0.110658
0.143465 0.219059 0.112337
0.172427 0.228061 0.112245
0.215885 0.249546 0.106386
0.273564 0.277012 0.095674
0.339178 0.303014 0.084565
0.427558 0.338628 0.056580
0.492103 0.351232 0.006775
0.555413 0.360143 0.000000
0.613581 0.364324 0.000000
0.665034 0.363775 0.000000
0.715175 0.363439 0.000000
0.758938 0.360510 0.000000
0.795926 0.354986 0.000000
0.828336 0.348455 0.000000
0.856535 0.341833 0.000000
0.880827 0.335821 0.015808
0.903502 0.331426 0.075319
0.924681 0.329046 0.103395
0.944488 0.329107 0.128237
0.962768 0.332372 0.152529
0.979431 0.339727 0.177859
0.994385 0.352544 0.206180
1.000000 0.372198 0.239902
1.000000 0.399725 0.282841
1.000000 0.435401 0.337377
1.000000 0.478920 0.401068
0.031617 0.235294 0.118379
0.039704 0.236606 0.117067
0.051331 0.238224 0.115480
0.071260 0.240665 0.113771
0.094728 0.243320 0.114656
0.119966 0.246891 0.115816
0.146639 0.251560 0.116884
0.175509 0.257298 0.118593
0.214786 0.275029 0.115236
0.270207 0.304051 0.105226
0.342199 0.340002 0.087221
0.419715 0.371862 0.064759
0.517266 0.411139 0.000000
0.578241 0.418463 0.000000
0.633143 0.420203 0.000000
0.681697 0.417609 0.000000
0.724636 0.411780 0.000000
0.762966 0.404639 0.000000
0.798795 0.398291 0.000000
0.830503 0.390875 0.000000
0.858824 0.383337 0.000000
0.884520 0.375860 0.000000
0.907652 0.369360 0.032044
0.928252 0.364996 0.086213
0.947509 0.362829 0.115999
0.965270 0.363622 0.143099
0.981506 0.368261 0.170077
0.996033 0.377783 0.199527
1.000000 0.393835 0.233982
1.000000 0.417456 0.277104
1.000000 0.449317 0.331762
1.000000 0.489265 0.395605
0.000000 0.270024 0.124971
0.008148 0.271275 0.123354
0.022004 0.273136 0.121370
0.058106 0.276432 0.117891
0.089113 0.279484 0.118532
0.118624 0.283482 0.119326
0.149081 0.288701 0.120150
0.180697 0.295018 0.121340
0.214755 0.302770 0.122469
0.268284 0.332738 0.113344
0.336675 0.369482 0.096986
0.420447 0.411383 0.064027
0.505211 0.445716 0.000000
0.601434 0.481331 0.000000
0.653071 0.479896 0.000000
0.698695 0.474464 0.000000
0.738796 0.465949 0.000000
0.772946 0.454932 0.000000
0.802762 0.442695 0.000000
0.832822 0.433448 0.000000
0.860533 0.424872 0.000000
0.885801 0.416419 0.000000
0.909209 0.408911 0.011292
0.930968 0.402258 0.069429
0.950652 0.397375 0.099153
0.967864 0.395850 0.130953
0.983642 0.397772 0.160464
0.997803 0.404181 0.191653
1.000000 0.416663 0.226963
1.000000 0.436561 0.270512
1.000000 0.464363 0.325017
1.000000 0.500664 0.389319
0.000000 0.309300 0.130739
0.000000 0.310735 0.128939
0.000000 0.312810 0.126589
0.004486 0.317082 0.120455
0.077028 0.320256 0.120851
0.114809 0.324681 0.121462
0.149752 0.330602 0.121920
0.185092 0.337621 0.122499
0.222416 0.346014 0.123110
0.266819 0.362890 0.120272
0.331823 0.399512 0.105470
0.410163 0.440711 0.077943
0.500023 0.484260 0.000000
0.585901 0.516564 0.000000
0.672053 0.542657 0.000000
0.715724 0.534234 0.000000
0.752590 0.522118 0.000000
0.784207 0.508171 0.000000
0.812161 0.493477 0.000000
0.837766 0.479164 0.000000
0.862333 0.466377 0.000000
0.887144 0.457038 0.000000
0.910216 0.448524 0.000671
0.931731 0.441077 0.068879
0.951568 0.434730 0.097688
0.969757 0.429999 0.122164
0.985840 0.428138 0.148989
0.999603 0.431586 0.181979
1.000000 0.440681 0.218692
1.000000 0.456764 0.262638
1.000000 0.480781 0.317571
1.000000 0.513146 0.382025
0.000000 0.353094 0.135409
0.000000 0.354650 0.133425
0.000000 0.356756 0.130526
0.000000 0.361578 0.123140
0.045228 0.365667 0.121401
0.105531 0.370336 0.121614
0.147707 0.376287 0.121859
0.187808 0.383551 0.121828
0.228122 0.392157 0.122011
0.270237 0.402045 0.122011
0.326848 0.429450 0.112490
0.400122 0.469276 0.089631
0.483070 0.510582 0.027802
0.572381 0.550469 0.000000
0.655055 0.578424 0.000000
0.730587 0.595392 0.000000
0.765743 0.580163 0.000000
0.795102 0.562799 0.000000
0.821286 0.545495 0.000000
0.845487 0.528985 0.000000
0.867979 0.513329 0.000000
0.889250 0.498756 0.000000
0.911315 0.488289 0.000000
0.932464 0.479805 0.067170
0.951995 0.472511 0.100038
0.969879 0.466957 0.126406
0.986114 0.463203 0.151339
1.000000 0.462043 0.176974
1.000000 0.465858 0.209079
1.000000 0.478187 0.253666
1.000000 0.498268 0.308751
1.000000 0.526665 0.373571
0.000000 0.399878 0.138766
0.000000 0.401465 0.136751
0.000000 0.403540 0.133364
0.000000 0.408301 0.125429
0.000000 0.413275 0.119936
0.088991 0.417975 0.120027
0.141482 0.423835 0.119875
0.187045 0.431037 0.119722
0.231235 0.439399 0.119539
0.275853 0.448951 0.118990
0.321904 0.459480 0.118379
0.390295 0.496834 0.099336
0.466804 0.535515 0.066377
0.549279 0.573022 0.000000
0.634119 0.607080 0.000000
0.712551 0.631189 0.000000
0.776638 0.638727 0.000000
0.805295 0.618921 0.000000
0.829953 0.598627 0.000000
0.852873 0.579736 0.000000
0.874357 0.562127 0.000000
0.894774 0.545983 0.000000
0.914214 0.531151 0.003082
0.933196 0.518486 0.064179
0.952361 0.510338 0.101839
0.969940 0.503777 0.131197
0.985870 0.499184 0.158114
1.000000 0.497261 0.185824
1.000000 0.498604 0.216281
1.000000 0.503868 0.250858
1.000000 0.516930 0.298985
1.000000 0.541375 0.364080
0.000000 0.447608 0.140902
0.000000 0.449042 0.138582
0.000000 0.451148 0.135134
0.000000 0.455787 0.126619
0.000000 0.461433 0.117159
0.055268 0.465949 0.116945
0.130556 0.471626 0.116640
0.182925 0.478279 0.116426
0.231418 0.486122 0.115816
0.278447 0.494881 0.115145
0.325963 0.504601 0.114565
0.380194 0.522789 0.108370
0.451301 0.558801 0.083650
0.527306 0.593622 0.018280
0.606897 0.626612 0.000000
0.685939 0.654871 0.000000
0.758389 0.674098 0.000000
0.812863 0.674434 0.000000
0.838071 0.652857 0.000000
0.859861 0.631464 0.000000
0.880461 0.611902 0.000000
0.900084 0.593957 0.020172
0.918730 0.577661 0.068330
0.936461 0.562829 0.090089
0.953185 0.549340 0.108461
0.969940 0.540612 0.136202
0.985473 0.535180 0.165988
0.999390 0.532433 0.196445
1.000000 0.532891 0.229526
1.000000 0.537316 0.267582
1.000000 0.546441 0.311681
1.000000 0.561120 0.362127
0.000000 0.494636 0.142123
0.000000 0.496010 0.139467
0.000000 0.497993 0.135988
0.000000 0.502342 0.127077
0.000000 0.508446 0.113344
0.000000 0.512505 0.113008
0.114382 0.517662 0.112703
0.175998 0.523796 0.112215
0.228244 0.530816 0.111696
0.278080 0.538689 0.111269
0.326879 0.547295 0.110872
0.375921 0.556481 0.110719
0.436835 0.581018 0.098390
0.507866 0.613703 0.070100
0.581933 0.644648 0.000000
0.656733 0.672328 0.000000
0.729519 0.694881 0.000000
0.796475 0.710414 0.000000
0.842618 0.705287 0.000000
0.866331 0.683864 0.000000
0.886198 0.662257 0.061494
0.904997 0.642664 0.085603
0.922911 0.624720 0.104646
0.939849 0.608637 0.121920
0.955810 0.594079 0.138338
0.970794 0.581201 0.154910
0.985016 0.571069 0.175082
0.998535 0.567437 0.208591
1.000000 0.567071 0.244694
1.000000 0.570489 0.286015
1.000000 0.578546 0.332555
1.000000 0.591913 0.384009
0.000000 0.540795 0.141909
0.000000 0.542016 0.139590
0.000000 0.543816 0.135775
0.000000 0.547631 0.127413
0.000000 0.553613 0.110994
0.000000 0.557702 0.108614
0.090517 0.562280 0.108461
0.165713 0.567590 0.108217
0.223270 0.573816 0.108064
0.275090 0.580652 0.107973
0.325536 0.588037 0.108217
0.375067 0.596033 0.108736
0.424842 0.604425 0.109743
0.491005 0.634028 0.091463
0.560266 0.662837 0.064424
0.630243 0.688594 0.000000
0.699916 0.711208 0.000000
0.766781 0.729183 0.000000
0.828946 0.741970 0.000000
0.868894 0.733577 0.088289
0.891325 0.712917 0.113497
0.909392 0.691676 0.129458
0.926543 0.672328 0.144411
0.942687 0.654932 0.159335
0.957855 0.639338 0.174441
0.972076 0.625544 0.190433
0.985351 0.613672 0.207858
0.997620 0.604028 0.227695
1.000000 0.600885 0.262028
1.000000 0.603326 0.306401
1.000000 0.610193 0.354437
1.000000 0.622156 0.406073
0.000000 0.585107 0.141726
0.000000 0.586267 0.139376
0.000000 0.587793 0.135744
0.000000 0.591150 0.127443
0.000000 0.596368 0.111788
0.000000 0.600671 0.104921
0.049989 0.604608 0.105043
0.153567 0.609216 0.105318
0.216434 0.614527 0.105592
0.271183 0.620417 0.106111
0.322789 0.626917 0.107210
0.373083 0.633845 0.108705
0.422797 0.641108 0.110536
0.476631 0.654719 0.108797
0.541711 0.681117 0.094270
0.607385 0.704891 0.078004
0.672877 0.726040 0.059937
0.737514 0.744625 0.025055
0.799405 0.759274 0.048280
0.857176 0.770169 0.095918
0.892119 0.760067 0.158663
0.912932 0.740536 0.180056
0.929290 0.719936 0.192386
0.944671 0.701350 0.205753
0.959075 0.684779 0.220066
0.972503 0.670130 0.235874
0.984955 0.657527 0.253635
0.996429 0.647303 0.274083
1.000000 0.639460 0.297551
1.000000 0.635645 0.327733
1.000000 0.641260 0.376898
1.000000 0.651667 0.427802
0.000000 0.627070 0.141482
0.000000 0.628016 0.139010
0.000000 0.629419 0.135561
0.000000 0.632349 0.127840
0.000000 0.636774 0.114137
0.000000 0.641260 0.102876
0.000000 0.644587 0.103395
0.140200 0.648615 0.103975
0.209232 0.653132 0.105165
0.266636 0.658289 0.106538
0.319341 0.663844 0.108400
0.370245 0.669764 0.110933
0.419959 0.675837 0.114534
0.469001 0.682002 0.119326
0.525750 0.699184 0.117067
0.587732 0.721126 0.111116
0.649683 0.740810 0.107607
0.710933 0.758358 0.107240
0.771145 0.773953 0.110811
0.828550 0.786343 0.132418
0.881926 0.795926 0.170840
0.912078 0.784817 0.229557
0.930907 0.766384 0.252049
0.945556 0.746914 0.263523
0.959167 0.729488 0.276799
0.971801 0.714168 0.291752
0.983490 0.700954 0.308873
0.994171 0.690089 0.328527
1.000000 0.681697 0.350958
1.000000 0.676204 0.376593
1.000000 0.674067 0.405890
1.000000 0.680354 0.448951
0.000000 0.666773 0.141543
0.000000 0.667628 0.139559
0.000000 0.668757 0.136355
0.000000 0.671260 0.129549
0.000000 0.675166 0.117189
0.000000 0.679622 0.103212
0.000000 0.682460 0.104097
0.127901 0.685756 0.105653
0.202701 0.689601 0.107515
0.262333 0.693751 0.110201
0.316136 0.698238 0.113588
0.367407 0.702998 0.117556
0.416907 0.707881 0.122896
0.465309 0.712856 0.129458
0.512963 0.717861 0.137362
0.571435 0.737270 0.138125
0.630030 0.755459 0.141360
0.688319 0.771969 0.147829
0.745602 0.786862 0.158022
0.801785 0.800504 0.171389
0.854643 0.811124 0.201633
0.903288 0.819364 0.245792
0.928588 0.807706 0.305180
0.945098 0.790707 0.329778
0.958007 0.772671 0.340642
0.969940 0.756832 0.353735
0.980926 0.743038 0.368994
0.990936 0.731624 0.386419
0.999939 0.722652 0.406378
1.000000 0.716396 0.428901
1.000000 0.713283 0.454261
1.000000 0.713741 0.482582
0.000000 0.703944 0.143343
0.000000 0.704616 0.141299
0.000000 0.705592 0.138674
0.000000 0.707637 0.132662
0.000000 0.710780 0.122286
0.000000 0.714931 0.107729
0.000000 0.717220 0.109712
0.119173 0.719875 0.111910
0.198917 0.722866 0.114870
0.260044 0.726223 0.118746
0.314427 0.729793 0.123445
0.365362 0.733547 0.128878
0.414466 0.737453 0.135927
0.462409 0.741390 0.144076
0.509239 0.745418 0.153780
0.558312 0.753445 0.163790
0.614282 0.770199 0.171817
0.669703 0.785580 0.183322
0.724331 0.799771 0.198520
0.777768 0.812863 0.216831
0.829557 0.824674 0.238132
0.877470 0.833494 0.276158
0.920928 0.840482 0.323857
0.941711 0.828672 0.380743
0.955932 0.813169 0.405188
0.967254 0.796933 0.415442
0.977630 0.782742 0.427832
0.987091 0.770840 0.442237
0.995636 0.761196 0.458747
1.000000 0.754116 0.477516
1.000000 0.749905 0.499001
1.000000 0.749111 0.523674
0.000000 0.737972 0.147341
0.000000 0.738521 0.145693
0.000000 0.739284 0.143404
0.000000 0.740932 0.138582
0.000000 0.743404 0.131197
0.000000 0.746731 0.120851
0.000000 0.749020 0.120302
0.120882 0.751095 0.123507
0.200473 0.753445 0.127382
0.261082 0.756039 0.132448
0.315221 0.758877 0.138277
0.365698 0.761837 0.145174
0.414099 0.764920 0.153658
0.461280 0.768032 0.163485
0.507286 0.771206 0.174990
0.552331 0.774411 0.188602
0.602319 0.785031 0.202548
0.655207 0.799374 0.218662
0.707301 0.812772 0.237919
0.758053 0.825162 0.259953
0.807126 0.836362 0.284611
0.854185 0.846372 0.310643
0.896910 0.853513 0.352605
0.935241 0.859251 0.398901
0.952209 0.847623 0.449073
0.964263 0.833585 0.471687
0.974090 0.819150 0.481361
0.983093 0.806821 0.492988
0.991241 0.796658 0.506493
0.998535 0.788846 0.522271
1.000000 0.783749 0.540673
1.000000 0.781735 0.562219
0.000000 0.769284 0.154482
0.000000 0.769650 0.153414
0.000000 0.770291 0.151736
0.000000 0.771603 0.148440
0.000000 0.773526 0.143282
0.000000 0.776150 0.137484
0.000000 0.778256 0.136751
0.135653 0.779904 0.140841
0.209262 0.781735 0.145663
0.267918 0.783749 0.151736
0.320409 0.785946 0.158724
0.369940 0.788235 0.167300
0.417365 0.790646 0.177188
0.463325 0.793088 0.188602
0.508202 0.795621 0.202090
0.552178 0.798123 0.217685
0.594995 0.800717 0.235630
0.645106 0.813504 0.255711
0.694575 0.826017 0.278294
0.742794 0.837552 0.303288
0.789242 0.848051 0.329625
0.833646 0.857450 0.356664
0.875731 0.865660 0.383764
0.913390 0.871244 0.424201
0.946899 0.875822 0.465370
0.960662 0.864561 0.508690
0.970581 0.851896 0.530083
0.979095 0.839261 0.539178
0.986847 0.828733 0.550469
0.993835 0.820371 0.563745
1.000000 0.814481 0.579370
1.000000 0.811276 0.597803
0.000000 0.798428 0.166079
0.000000 0.798795 0.165377
0.000000 0.799252 0.164309
0.000000 0.800259 0.162722
0.000000 0.801755 0.160372
0.000000 0.803677 0.158480
0.063539 0.805600 0.159579
0.164462 0.806821 0.164614
0.227970 0.808225 0.170504
0.282109 0.809751 0.177493
0.332036 0.811460 0.185977
0.379461 0.813260 0.195743
0.425299 0.815122 0.207187
0.469856 0.817075 0.220584
0.513146 0.819089 0.235966
0.555596 0.821164 0.253605
0.596948 0.823239 0.273472
0.639582 0.828153 0.295689
0.686580 0.839658 0.320500
0.732204 0.850248 0.346746
0.776059 0.859861 0.373541
0.817868 0.868498 0.400153
0.857420 0.876066 0.425971
0.894560 0.882597 0.450690
0.927398 0.886809 0.487587
0.956329 0.890318 0.524010
0.967224 0.879545 0.562097
0.975402 0.868345 0.582361
0.982635 0.857267 0.590417
0.989380 0.848478 0.601251
0.995392 0.841794 0.614160
1.000000 0.837583 0.629786
0.000000 0.826139 0.183444
0.000000 0.826413 0.183413
0.000000 0.826780 0.183078
0.000000 0.827481 0.182834
0.000000 0.828580 0.183352
0.000000 0.829953 0.185367
0.142123 0.831510 0.190249
0.204135 0.832486 0.195987
0.257053 0.833555 0.203128
0.305455 0.834745 0.211337
0.351446 0.836057 0.221256
0.395972 0.837461 0.232609
0.439185 0.838926 0.245914
0.481636 0.840452 0.261051
0.523156 0.841978 0.278202
0.563714 0.843595 0.297093
0.603418 0.845212 0.317937
0.641932 0.846891 0.340124
0.683680 0.853788 0.365209
0.726589 0.863310 0.391089
0.767666 0.871946 0.416754
0.806851 0.879667 0.441596
0.843870 0.886473 0.465461
0.878538 0.892363 0.488289
0.910887 0.897337 0.510369
0.939086 0.900267 0.544335
0.963745 0.902831 0.576593
0.972381 0.892668 0.608972
0.979095 0.882780 0.627588
0.985290 0.873075 0.634668
0.991119 0.865873 0.645502
0.996246 0.860868 0.658839
0.000000 0.853117 0.209171
0.000000 0.853300 0.209567
0.000000 0.853513 0.210208
0.000000 0.854002 0.211795
0.077668 0.854734 0.215091
0.149111 0.855650 0.220829
0.207126 0.856657 0.230350
0.252995 0.857420 0.237858
0.295903 0.858213 0.246036
0.338170 0.859068 0.255863
0.379431 0.860014 0.267033
0.420264 0.861021 0.279789
0.460395 0.862089 0.294347
0.500175 0.863157 0.310552
0.539117 0.864286 0.328344
