其他预设/【233】日式怀旧街道调色预设208款/1.3D LUT预设（视频调色-PR-AE-PS-FCPX-达芬奇用）/4.富士胶片风日式城市街拍预设 (自动曝光预设)/JA – Subdued 1 Classic Chrome (Auto).cube
# Created by Adobe Lightroom plugin Export LUT (1.17.0)
# www.johnrellis.com/lightroom/exportlut.htm
# Preset: JA – Subdued 1 Classic Chrome (Auto)
# Color profile: /Library/Application Support/Adobe/Color/Profiles/Recommended/AdobeRGB1998.icc
LUT_3D_SIZE 32
0.107851 0.103517 0.100435
0.110750 0.103517 0.100587
0.114809 0.103792 0.100679
0.124269 0.104189 0.101076
0.138155 0.104402 0.101015
0.157687 0.104280 0.100710
0.184726 0.103975 0.099886
0.220157 0.103609 0.097963
0.262455 0.103395 0.094911
0.308476 0.102907 0.090578
0.355810 0.101991 0.085176
0.402533 0.101747 0.078065
0.448402 0.101900 0.069673
0.493172 0.102663 0.059327
0.536797 0.103853 0.036255
0.579065 0.105043 0.005829
0.620111 0.106691 0.000000
0.659785 0.108797 0.000000
0.697993 0.110933 0.000000
0.735073 0.112917 0.000000
0.770657 0.114748 0.000000
0.804929 0.116945 0.000000
0.837827 0.119020 0.000000
0.869322 0.120912 0.000000
0.899474 0.122042 0.000000
0.928252 0.122683 0.000000
0.955291 0.123415 0.000000
0.980285 0.123445 0.000000
1.000000 0.122530 0.000000
1.000000 0.121309 0.000000
1.000000 0.118654 0.000000
1.000000 0.114931 0.000000
0.108766 0.105837 0.100923
0.110842 0.106233 0.100832
0.114931 0.106477 0.100679
0.124666 0.106844 0.100832
0.138705 0.107271 0.100771
0.158267 0.107820 0.100374
0.185733 0.108095 0.099458
0.221256 0.108583 0.097444
0.263401 0.108827 0.094301
0.309514 0.109163 0.090120
0.356695 0.109316 0.084565
0.403357 0.109468 0.077668
0.449073 0.109895 0.069154
0.493812 0.111269 0.058656
0.537346 0.112367 0.033478
0.579675 0.113802 0.003876
0.620600 0.115572 0.000000
0.660212 0.117311 0.000000
0.698360 0.119295 0.000000
0.735409 0.121157 0.000000
0.770993 0.123232 0.000000
0.805203 0.124697 0.000000
0.838102 0.126436 0.000000
0.869566 0.127840 0.000000
0.899657 0.128939 0.000000
0.928374 0.129824 0.000000
0.955444 0.129946 0.000000
0.980377 0.130037 0.000000
1.000000 0.129183 0.000000
1.000000 0.127474 0.000000
1.000000 0.125093 0.000000
1.000000 0.121462 0.000000
0.109743 0.109285 0.101534
0.112367 0.109316 0.101472
0.115419 0.109743 0.101106
0.125063 0.110811 0.100710
0.139437 0.111360 0.100618
0.159365 0.112245 0.100191
0.186862 0.113375 0.099153
0.222477 0.114839 0.097017
0.264897 0.116182 0.093965
0.310704 0.117159 0.089693
0.357824 0.118257 0.083925
0.404334 0.119295 0.076539
0.449958 0.120089 0.068147
0.494667 0.121675 0.056367
0.538079 0.123323 0.030152
0.580407 0.124544 0.000000
0.621241 0.126772 0.000000
0.660822 0.128359 0.000000
0.699001 0.129671 0.000000
0.735927 0.131441 0.000000
0.771450 0.133181 0.000000
0.805631 0.134371 0.000000
0.838437 0.136019 0.000000
0.869871 0.136965 0.000000
0.899931 0.138033 0.000000
0.928588 0.138735 0.000000
0.955627 0.138888 0.000000
0.980499 0.138674 0.000000
1.000000 0.137240 0.000000
1.000000 0.135927 0.000000
1.000000 0.132815 0.000000
1.000000 0.129091 0.000000
0.112459 0.117433 0.102602
0.114992 0.117220 0.102785
0.118227 0.117372 0.102449
0.125246 0.118349 0.101656
0.140017 0.119875 0.100496
0.161440 0.121798 0.099855
0.189548 0.124392 0.098604
0.225559 0.127413 0.096468
0.267643 0.130434 0.092897
0.313573 0.133486 0.088167
0.360327 0.135866 0.082368
0.406622 0.137728 0.074586
0.451972 0.139834 0.065675
0.496437 0.141848 0.051698
0.539849 0.143618 0.022492
0.581903 0.145235 0.000000
0.622705 0.146883 0.000000
0.662165 0.148531 0.000000
0.700191 0.150027 0.000000
0.736995 0.151431 0.000000
0.772396 0.152499 0.000000
0.806455 0.153597 0.000000
0.839170 0.154574 0.000000
0.870481 0.155367 0.000000
0.900511 0.155978 0.000000
0.929107 0.155734 0.000000
0.955993 0.155703 0.000000
0.980835 0.155306 0.000000
1.000000 0.153902 0.000000
1.000000 0.151553 0.000000
1.000000 0.148684 0.000000
1.000000 0.144717 0.000000
0.115969 0.127993 0.104250
0.118410 0.127810 0.104433
0.121584 0.127535 0.104372
0.127901 0.128298 0.103853
0.139162 0.130068 0.102541
0.160800 0.134646 0.099702
0.191104 0.139864 0.097963
0.230320 0.145754 0.095064
0.272435 0.150973 0.091249
0.317845 0.155917 0.086000
0.364141 0.159915 0.079591
0.410071 0.163180 0.071412
0.455116 0.165835 0.061585
0.499306 0.168307 0.041199
0.542473 0.170443 0.010986
0.584405 0.172396 0.000000
0.624964 0.173892 0.000000
0.664210 0.175387 0.000000
0.702144 0.176364 0.000000
0.738705 0.177493 0.000000
0.773861 0.178378 0.000000
0.807797 0.179171 0.000000
0.840330 0.179660 0.000000
0.871519 0.179995 0.000000
0.901335 0.179904 0.000000
0.929839 0.179477 0.000000
0.956573 0.179110 0.000000
0.981262 0.177615 0.000000
1.000000 0.176028 0.000000
1.000000 0.173434 0.000000
1.000000 0.170016 0.000000
1.000000 0.165652 0.000000
0.119966 0.142092 0.105776
0.122408 0.141756 0.105745
0.125887 0.141421 0.105684
0.132174 0.140505 0.105806
0.142672 0.143191 0.104433
0.158053 0.146670 0.102419
0.187747 0.155459 0.098543
0.228458 0.165621 0.094362
0.275883 0.175296 0.088777
0.323613 0.182773 0.082551
0.369268 0.188144 0.075288
0.414710 0.192203 0.066407
0.459297 0.195682 0.052644
0.503197 0.198459 0.024048
0.546075 0.200961 0.000000
0.587701 0.202914 0.000000
0.628016 0.204227 0.000000
0.666957 0.205783 0.000000
0.704616 0.206729 0.000000
0.740963 0.207401 0.000000
0.775906 0.207767 0.000000
0.809567 0.207950 0.000000
0.841855 0.208011 0.000000
0.872892 0.207828 0.000000
0.902556 0.207431 0.000000
0.930816 0.206607 0.000000
0.957427 0.205631 0.000000
0.981872 0.203891 0.000000
1.000000 0.201724 0.000000
1.000000 0.198642 0.000000
1.000000 0.194766 0.000000
1.000000 0.189944 0.000000
0.124819 0.160678 0.106477
0.127535 0.160342 0.106661
0.130892 0.159915 0.106630
0.137972 0.158816 0.106508
0.148013 0.159335 0.106081
0.163272 0.163638 0.104158
0.183871 0.169253 0.101381
0.220523 0.182040 0.096040
0.270115 0.197177 0.088380
0.321569 0.209293 0.080079
0.374975 0.219272 0.068940
0.420386 0.224338 0.057740
0.464546 0.228428 0.032227
0.508110 0.231418 0.001953
0.550591 0.233951 0.000000
0.591821 0.235966 0.000000
0.631891 0.237430 0.000000
0.670558 0.238437 0.000000
0.707881 0.239200 0.000000
0.743801 0.239445 0.000000
0.778439 0.239506 0.000000
0.811795 0.239384 0.000000
0.843809 0.239017 0.000000
0.874601 0.238254 0.000000
0.904021 0.237400 0.000000
0.932036 0.236118 0.000000
0.958404 0.234501 0.000000
0.982635 0.232425 0.000000
1.000000 0.229404 0.000000
1.000000 0.226139 0.000000
1.000000 0.221622 0.000000
1.000000 0.216403 0.000000
0.130953 0.184726 0.106844
0.134035 0.184268 0.106813
0.137636 0.183719 0.106752
0.145357 0.182406 0.106691
0.155734 0.180392 0.106813
0.170565 0.184298 0.105074
0.190829 0.190707 0.102541
0.216648 0.198703 0.098787
0.257633 0.213260 0.091798
0.313756 0.232486 0.078828
0.366522 0.245335 0.066743
0.419867 0.255711 0.043122
0.470954 0.263218 0.003265
0.513909 0.266545 0.000000
0.555993 0.269047 0.000000
0.596796 0.270970 0.000000
0.636469 0.272251 0.000000
0.674830 0.272923 0.000000
0.711757 0.273411 0.000000
0.747250 0.273259 0.000000
0.781460 0.273045 0.000000
0.814450 0.272374 0.000000
0.846189 0.271427 0.000000
0.876616 0.270298 0.000000
0.905760 0.268742 0.000000
0.933562 0.267124 0.000000
0.959594 0.264958 0.000000
0.983520 0.262394 0.000000
1.000000 0.258976 0.000000
1.000000 0.254917 0.000000
1.000000 0.250065 0.000000
1.000000 0.244114 0.000000
0.138552 0.214115 0.106447
0.141878 0.213474 0.106447
0.146059 0.212833 0.106386
0.154421 0.211398 0.106325
0.165866 0.209171 0.106264
0.179660 0.208103 0.105806
0.199527 0.214817 0.103243
0.224338 0.223087 0.099245
0.254520 0.232700 0.093935
0.296757 0.247318 0.085237
0.356664 0.269078 0.065248
0.409674 0.281987 0.035676
0.462959 0.292821 0.000000
0.516167 0.301640 0.000000
0.562219 0.306249 0.000000
0.602625 0.307866 0.000000
0.641871 0.308812 0.000000
0.679896 0.309392 0.000000
0.716243 0.309117 0.000000
0.751217 0.308629 0.000000
0.784970 0.307805 0.000000
0.817563 0.306584 0.000000
0.848905 0.305180 0.000000
0.878996 0.303624 0.000000
0.907805 0.301701 0.000000
0.935241 0.299321 0.000000
0.960967 0.296696 0.000000
0.984558 0.293431 0.000000
1.000000 0.289586 0.000000
1.000000 0.284825 0.000000
1.000000 0.279301 0.000000
1.000000 0.272801 0.000000
0.148196 0.246738 0.105196
0.151247 0.246189 0.105196
0.155734 0.245426 0.105196
0.164584 0.243809 0.105165
0.176730 0.241306 0.105165
0.190738 0.237888 0.105196
0.208835 0.240848 0.103517
0.232853 0.249027 0.099519
0.261357 0.258488 0.093996
0.294591 0.269200 0.086641
0.335882 0.282200 0.075959
0.396887 0.304723 0.035187
0.451026 0.318730 0.000000
0.504051 0.329717 0.000000
0.556573 0.338659 0.000000
0.607996 0.345769 0.000000
0.648096 0.346990 0.000000
0.685664 0.346899 0.000000
0.721340 0.346319 0.000000
0.755673 0.345068 0.000000
0.788968 0.343694 0.000000
0.821042 0.341985 0.000000
0.851987 0.340063 0.000000
0.881651 0.337774 0.000000
0.910094 0.335363 0.000000
0.937163 0.332647 0.000000
0.962524 0.329351 0.000000
0.985718 0.325475 0.000000
1.000000 0.320806 0.000000
1.000000 0.315587 0.000000
1.000000 0.309300 0.000000
1.000000 0.302098 0.000000
0.158328 0.281102 0.103853
0.161563 0.280461 0.103914
0.166079 0.279606 0.103914
0.175174 0.277836 0.103731
0.187778 0.275090 0.103822
0.202579 0.271580 0.103670
0.218448 0.267613 0.103731
0.241123 0.275486 0.099580
0.268315 0.284581 0.094148
0.299565 0.294896 0.086946
0.334813 0.306249 0.076631
0.374029 0.316838 0.064393
0.434791 0.339483 0.000000
0.490639 0.354955 0.000000
0.543328 0.366094 0.000000
0.594873 0.375036 0.000000
0.645502 0.381933 0.000000
0.691951 0.385962 0.000000
0.726894 0.384527 0.000000
0.760678 0.382635 0.000000
0.793362 0.380591 0.000000
0.824949 0.378302 0.000000
0.855436 0.375708 0.000000
0.884611 0.372930 0.000000
0.912657 0.369879 0.000000
0.939300 0.366522 0.000000
0.964172 0.362585 0.000000
0.986938 0.358160 0.000000
1.000000 0.352911 0.000000
1.000000 0.346868 0.000000
1.000000 0.339849 0.000000
1.000000 0.331975 0.000000
0.169253 0.315404 0.102235
0.172732 0.314794 0.102266
0.177188 0.314031 0.102266
0.186282 0.312200 0.102388
0.198978 0.309300 0.102083
0.213809 0.305669 0.102296
0.230106 0.301030 0.102144
0.249363 0.301518 0.100374
0.274815 0.310216 0.094881
0.304112 0.320012 0.087739
0.337133 0.330724 0.078248
0.373724 0.342290 0.064118
0.411994 0.351690 0.036988
0.471168 0.373541 0.000000
0.528435 0.390295 0.000000
0.580316 0.401343 0.000000
0.631281 0.410163 0.000000
0.680842 0.416999 0.000000
0.727626 0.421454 0.000000
0.766049 0.421363 0.000000
0.798184 0.418463 0.000000
0.829160 0.415534 0.000000
0.859098 0.412177 0.000000
0.887846 0.408759 0.000000
0.915404 0.405066 0.000000
0.941588 0.401068 0.000000
0.965972 0.396460 0.000000
0.988251 0.391394 0.000000
1.000000 0.385443 0.000000
1.000000 0.378637 0.000000
1.000000 0.370916 0.000000
1.000000 0.362188 0.000000
0.181186 0.348791 0.101564
0.184390 0.348272 0.101595
0.188907 0.347326 0.101442
0.197238 0.345617 0.101564
0.209842 0.342779 0.101350
0.224735 0.339055 0.101198
0.241062 0.334295 0.100954
0.257939 0.328771 0.100832
0.281041 0.334691 0.096498
0.308507 0.344030 0.089754
0.339422 0.354345 0.080903
0.373663 0.365515 0.067903
0.411261 0.377508 0.040772
0.448554 0.385748 0.000885
0.505791 0.406439 0.000000
0.564202 0.424567 0.000000
0.615503 0.435462 0.000000
0.665583 0.444251 0.000000
0.713802 0.450599 0.000000
0.759243 0.454566 0.000000
0.801846 0.456550 0.000000
0.833738 0.453346 0.000000
0.863035 0.449470 0.000000
0.891295 0.445228 0.000000
0.918395 0.440864 0.000000
0.944030 0.436133 0.000000
0.967895 0.430854 0.000000
0.989624 0.424994 0.000000
1.000000 0.418280 0.000000
1.000000 0.410773 0.000000
1.000000 0.402319 0.000000
1.000000 0.392737 0.000000
0.193393 0.381201 0.102480
0.196597 0.380468 0.102327
0.200595 0.379736 0.102388
0.208988 0.377905 0.102113
0.221012 0.375128 0.101747
0.235477 0.371405 0.101717
0.251591 0.366735 0.101106
0.268437 0.361120 0.100923
0.287083 0.358312 0.099367
0.312871 0.367102 0.093202
0.341802 0.376898 0.085145
0.373938 0.387732 0.073884
0.409094 0.399207 0.056245
0.447395 0.411566 0.006531
0.483223 0.418524 0.000000
0.538811 0.438361 0.000000
0.597681 0.457069 0.000000
0.648798 0.468421 0.000000
0.698329 0.477089 0.000000
0.745235 0.483162 0.000000
0.789334 0.486732 0.000000
0.830503 0.488197 0.000000
0.867247 0.487221 0.000000
0.894957 0.482338 0.000000
0.921508 0.477180 0.000000
0.946532 0.471687 0.000000
0.969818 0.465644 0.000000
0.990967 0.459022 0.000000
1.000000 0.451545 0.000000
1.000000 0.443153 0.000000
1.000000 0.433875 0.000000
1.000000 0.423468 0.000000
0.206424 0.412238 0.104646
0.209110 0.411597 0.104738
0.212802 0.410803 0.104402
0.220676 0.409033 0.104189
0.232242 0.406317 0.103883
0.246159 0.402594 0.103517
0.261662 0.398077 0.102785
0.278233 0.392340 0.102358
0.295048 0.385870 0.101564
0.317113 0.388952 0.097322
0.344213 0.398383 0.090333
0.374365 0.408637 0.080842
0.407446 0.419898 0.067170
0.443366 0.431861 0.035004
0.482063 0.444495 0.000000
0.516655 0.450263 0.000000
0.570245 0.469032 0.000000
0.628412 0.487800 0.000000
0.681056 0.500481 0.000000
0.729702 0.509056 0.000000
0.775387 0.514672 0.000000
0.818112 0.517754 0.000000
0.857816 0.518791 0.000000
0.894621 0.517937 0.000000
0.924712 0.513848 0.000000
0.949157 0.507561 0.000000
0.971771 0.500725 0.000000
0.992340 0.493263 0.000000
1.000000 0.484993 0.000000
1.000000 0.475837 0.000000
1.000000 0.465705 0.000000
1.000000 0.454292 0.000000
0.219242 0.442145 0.108980
0.221988 0.441596 0.108827
0.225345 0.440772 0.108522
0.232639 0.439063 0.108156
0.243290 0.436378 0.107729
0.256687 0.432715 0.107027
0.271702 0.428077 0.106081
0.287633 0.422705 0.105257
0.304326 0.416175 0.104036
0.321111 0.409705 0.102815
0.346777 0.418738 0.096345
0.375158 0.428748 0.088563
0.406073 0.439521 0.077546
0.439918 0.451026 0.061891
0.476295 0.463325 0.016724
0.515282 0.476234 0.000000
0.548577 0.480964 0.000000
0.600061 0.498512 0.000000
0.658503 0.517906 0.000000
0.712581 0.531884 0.000000
0.759945 0.540032 0.000000
0.804349 0.545159 0.000000
0.845640 0.547753 0.000000
0.883879 0.548241 0.000000
0.919036 0.546746 0.000000
0.950591 0.543297 0.000000
0.973724 0.536004 0.000000
0.993652 0.527764 0.000000
1.000000 0.518639 0.000000
1.000000 0.508598 0.000000
1.000000 0.497566 0.000000
1.000000 0.485298 0.000000
0.232517 0.470863 0.114839
0.234806 0.470283 0.114321
0.238010 0.469581 0.114443
0.244816 0.467903 0.113924
0.254917 0.465278 0.113161
0.267277 0.461738 0.112581
0.281621 0.457313 0.111330
0.297154 0.451881 0.109895
0.313268 0.445502 0.108431
0.329473 0.438270 0.106722
0.349523 0.438087 0.103273
0.376104 0.447700 0.096559
0.405402 0.458106 0.087831
0.437079 0.469215 0.076234
0.471321 0.481178 0.058259
0.508019 0.493690 0.005097
0.547173 0.506828 0.000000
0.579431 0.510674 0.000000
0.629725 0.527733 0.000000
0.688746 0.548119 0.000000
0.742916 0.562402 0.000000
0.789151 0.570001 0.000000
0.832181 0.574578 0.000000
0.872007 0.576715 0.000000
0.908721 0.576501 0.000000
0.941863 0.574090 0.000000
0.970855 0.569451 0.000000
0.994873 0.562341 0.000000
1.000000 0.552361 0.000000
1.000000 0.541436 0.000000
1.000000 0.529412 0.000000
1.000000 0.516320 0.000000
0.245792 0.498573 0.121828
0.247929 0.497993 0.121767
0.250858 0.497322 0.121492
0.257176 0.495674 0.121035
0.266606 0.493080 0.120211
0.278050 0.489784 0.119112
0.291752 0.485389 0.118044
0.306462 0.480140 0.116213
0.322148 0.474006 0.114290
0.338018 0.466957 0.112428
0.353796 0.459022 0.110140
0.377722 0.465919 0.105043
0.405280 0.476081 0.098085
0.435309 0.487007 0.088808
0.467750 0.498665 0.075990
0.502495 0.511009 0.056794
0.539696 0.523919 0.000427
0.579095 0.537377 0.000000
0.610437 0.540703 0.000000
0.659724 0.557336 0.000000
0.718227 0.577661 0.000000
0.772213 0.591913 0.000000
0.817350 0.599023 0.000000
0.859007 0.603113 0.000000
0.897368 0.604517 0.000000
0.932219 0.603479 0.000000
0.962860 0.599878 0.000000
0.989014 0.593774 0.000000
1.000000 0.585290 0.000000
1.000000 0.574212 0.000000
1.000000 0.561334 0.000000
1.000000 0.547265 0.000000
0.259373 0.526055 0.130282
0.261265 0.525566 0.130037
0.264073 0.524834 0.129671
0.269841 0.523278 0.129091
0.278416 0.520867 0.128145
0.289372 0.517571 0.127230
0.302281 0.513451 0.125521
0.316442 0.508415 0.123659
0.331426 0.502556 0.121614
0.347021 0.495735 0.118990
0.362493 0.488045 0.116365
0.380224 0.484382 0.112642
0.406439 0.494362 0.107179
0.434943 0.505028 0.099733
0.465736 0.516533 0.090028
0.498756 0.528649 0.077058
0.534203 0.541405 0.056489
0.571679 0.554711 0.000000
0.611627 0.568597 0.000000
0.642390 0.571496 0.000000
0.689937 0.586999 0.000000
0.747127 0.606592 0.000000
0.799802 0.620081 0.000000
0.844724 0.627253 0.000000
0.884947 0.630579 0.000000
0.921630 0.631220 0.000000
0.954131 0.628931 0.000000
0.981903 0.623835 0.000000
1.000000 0.616052 0.000000
1.000000 0.605676 0.000000
1.000000 0.592981 0.000000
1.000000 0.578149 0.000000
0.273167 0.553979 0.139193
0.275029 0.553521 0.139132
0.277592 0.552819 0.138613
0.282872 0.551354 0.138094
0.291051 0.549035 0.136904
0.301335 0.545892 0.135561
0.313390 0.541894 0.134096
0.326879 0.537133 0.131899
0.341344 0.531456 0.129335
0.356481 0.524926 0.126619
0.371801 0.517510 0.123507
0.386877 0.509239 0.119783
0.408728 0.512963 0.115572
0.435920 0.523491 0.109682
0.465309 0.534752 0.101930
0.496864 0.546746 0.092378
0.530602 0.559411 0.078614
0.566552 0.572595 0.058747
0.604700 0.586358 0.000000
0.645045 0.600580 0.000000
0.675044 0.602869 0.000000
0.719570 0.616114 0.000000
0.775479 0.634974 0.000000
0.826658 0.647761 0.000000
0.871305 0.654566 0.000000
0.910033 0.657160 0.000000
0.944488 0.656580 0.000000
0.974151 0.652705 0.000000
0.998718 0.645808 0.000000
1.000000 0.636011 0.000000
1.000000 0.623590 0.000000
1.000000 0.608728 0.000000
0.287602 0.582513 0.148867
0.289403 0.581994 0.148684
0.291539 0.581384 0.148379
0.296544 0.580011 0.147555
0.304143 0.577783 0.146517
0.313878 0.574792 0.145144
0.325231 0.570977 0.143038
0.338079 0.566369 0.140902
0.352056 0.560876 0.138125
0.366735 0.554589 0.134981
0.381659 0.547509 0.131289
0.396674 0.539513 0.127413
0.412177 0.532128 0.123079
0.438148 0.542504 0.118410
0.466316 0.553643 0.112612
0.496498 0.565515 0.104524
0.528954 0.578027 0.095033
0.563409 0.591211 0.081422
0.600000 0.604913 0.060548
0.638697 0.618982 0.000000
0.679011 0.633112 0.000000
0.707546 0.634089 0.000000
0.749325 0.645167 0.000000
0.803464 0.662867 0.000000
0.853208 0.674800 0.000000
0.897307 0.681147 0.000000
0.933959 0.682521 0.000000
0.965667 0.680323 0.000000
0.992065 0.674556 0.000000
1.000000 0.665583 0.000000
1.000000 0.653529 0.000000
1.000000 0.638788 0.000000
0.302403 0.611902 0.159030
0.304051 0.611475 0.158663
0.306035 0.610834 0.158267
0.310796 0.609491 0.157687
0.317754 0.607416 0.156435
0.327031 0.604547 0.155062
0.337896 0.600916 0.152987
0.350195 0.596490 0.150301
0.363531 0.591302 0.147311
0.377752 0.585229 0.144015
0.392523 0.578393 0.140322
0.407324 0.570703 0.135988
0.422065 0.562158 0.131228
0.441749 0.562463 0.126528
0.468757 0.573449 0.121950
0.497902 0.585229 0.115755
0.528985 0.597650 0.108125
0.562280 0.610773 0.097902
0.597498 0.624353 0.084108
0.634485 0.638087 0.064179
0.672938 0.651820 0.005615
0.712764 0.665370 0.000000
0.739834 0.665034 0.000000
0.779812 0.674647 0.000000
0.831113 0.690455 0.000000
0.879362 0.701411 0.000000
0.922454 0.706813 0.000000
0.956451 0.706538 0.000000
0.984863 0.702235 0.000000
1.000000 0.694209 0.000000
1.000000 0.682765 0.000000
1.000000 0.668208 0.000000
0.317693 0.642451 0.169833
0.319280 0.642054 0.169528
0.321355 0.641474 0.169131
0.325719 0.640162 0.168368
0.332280 0.638117 0.167117
0.340917 0.635431 0.165438
0.351293 0.631952 0.163272
0.362951 0.627771 0.160678
0.376104 0.622797 0.157656
0.389837 0.616999 0.154208
0.404334 0.610468 0.149813
0.418921 0.603143 0.145541
0.433631 0.595026 0.140352
0.448096 0.586084 0.134890
0.472908 0.594659 0.130587
0.501061 0.606317 0.125551
0.531151 0.618647 0.119539
0.563165 0.631647 0.111604
0.597009 0.644831 0.101717
0.632319 0.658137 0.089204
0.669062 0.671412 0.071260
0.707149 0.684535 0.025574
0.746517 0.697444 0.000000
0.772091 0.695796 0.000000
0.810117 0.703822 0.000000
0.858640 0.717678 0.000000
0.905180 0.727565 0.000000
0.945678 0.731136 0.000000
0.977081 0.728725 0.000000
1.000000 0.721950 0.000000
1.000000 0.711299 0.000000
1.000000 0.697139 0.000000
0.333867 0.674067 0.181369
0.335210 0.673671 0.181094
0.337163 0.673091 0.180728
0.341283 0.671931 0.179873
0.347662 0.670039 0.178470
0.355718 0.667567 0.176761
0.365637 0.664363 0.174594
0.376959 0.660456 0.171817
0.389654 0.655756 0.168643
0.403143 0.650355 0.164767
0.417365 0.644190 0.160586
0.431861 0.637263 0.155764
0.446601 0.629511 0.150301
0.461219 0.620966 0.144533
0.478889 0.617670 0.138857
0.506188 0.629267 0.135073
0.535332 0.641444 0.130159
0.566094 0.653895 0.124544
0.598474 0.666590 0.117189
0.632288 0.679408 0.108034
0.667475 0.692195 0.096712
0.703944 0.704891 0.080903
0.741604 0.717342 0.054719
0.780331 0.729488 0.000000
0.804410 0.726589 0.000000
0.840330 0.732753 0.000000
0.886198 0.744778 0.000000
0.930327 0.752926 0.000000
0.967285 0.753994 0.000000
0.995361 0.748775 0.000000
1.000000 0.739101 0.000000
1.000000 0.725429 0.000000
0.350561 0.706050 0.194278
0.351904 0.705653 0.194034
0.353735 0.705196 0.193668
0.357610 0.704128 0.192874
0.363561 0.702449 0.191440
0.371344 0.700160 0.189639
0.380865 0.697261 0.187472
0.391821 0.693751 0.184482
0.404028 0.689509 0.181247
0.417304 0.684627 0.177340
0.431342 0.679042 0.172915
0.445930 0.672724 0.167727
0.460914 0.665675 0.162173
0.475868 0.657923 0.155886
0.490578 0.649378 0.149111
0.513451 0.654414 0.144656
0.541466 0.666041 0.141207
0.571069 0.677943 0.136904
0.602136 0.690089 0.131807
0.634607 0.702358 0.125490
0.668360 0.714595 0.117525
0.703334 0.726741 0.107515
0.739406 0.738735 0.094148
0.776455 0.750393 0.074952
0.814420 0.761685 0.028260
0.837308 0.757687 0.021027
0.870665 0.761685 0.024048
0.913451 0.771511 0.000000
0.954101 0.777066 0.000000
0.986725 0.774990 0.000000
1.000000 0.766232 0.000000
1.000000 0.753231 0.000000
0.368170 0.738705 0.209232
0.369451 0.738399 0.208774
0.371191 0.737942 0.208377
0.374914 0.736995 0.207492
0.380560 0.735500 0.206119
0.388006 0.733486 0.204318
0.397040 0.730892 0.201968
0.407660 0.727718 0.199191
0.419562 0.723964 0.195682
0.432593 0.719631 0.191806
0.446571 0.714595 0.187289
0.461067 0.709071 0.182162
0.476143 0.702785 0.176455
0.491432 0.695857 0.170047
0.506767 0.688319 0.162844
0.523033 0.681910 0.155612
0.550011 0.692958 0.153567
0.578485 0.704280 0.150546
0.608301 0.715846 0.147097
0.639490 0.727474 0.142428
0.671962 0.739101 0.137057
0.705531 0.750668 0.130434
0.740078 0.762020 0.121767
0.775570 0.773129 0.110536
0.811917 0.783871 0.094942
0.848966 0.794125 0.072511
0.870970 0.789364 0.070710
0.901396 0.790799 0.077485
0.939696 0.797330 0.038392
0.975799 0.799466 0.000000
1.000000 0.793545 0.000000
1.000000 0.780453 0.000000
0.387152 0.772244 0.226047
0.388373 0.772000 0.225803
0.390021 0.771572 0.225406
0.393439 0.770779 0.224613
0.398810 0.769467 0.223026
0.405921 0.767697 0.221317
0.414710 0.765408 0.219028
0.424994 0.762661 0.216190
0.436561 0.759365 0.212924
0.449348 0.755642 0.208988
0.463050 0.751308 0.204532
0.477638 0.746426 0.199527
0.492744 0.741024 0.193729
0.508354 0.735042 0.187381
0.524163 0.728542 0.180423
0.540124 0.721401 0.172702
0.561303 0.722896 0.167941
0.588708 0.733516 0.166140
0.617487 0.744350 0.164187
0.647425 0.755306 0.161532
0.678492 0.766171 0.158053
0.710689 0.777035 0.153689
0.743801 0.787655 0.147951
0.777768 0.798062 0.140688
0.812528 0.808072 0.131289
0.847898 0.817655 0.119051
0.883787 0.826719 0.101900
0.904540 0.820798 0.099519
0.931243 0.819089 0.108370
0.964019 0.821469 0.099245
0.994507 0.819394 0.000000
1.000000 0.809049 0.000000
0.407935 0.806851 0.246250
0.408972 0.806638 0.245945
0.410468 0.806332 0.245548
0.413855 0.805600 0.244724
0.418921 0.804471 0.243442
0.425757 0.802976 0.241764
0.434180 0.801114 0.239414
0.444007 0.798764 0.236790
0.455268 0.796017 0.233524
0.467872 0.792813 0.229831
0.481453 0.789151 0.225528
0.495888 0.785092 0.220462
0.511131 0.780514 0.215091
0.527001 0.775509 0.208988
0.543267 0.770047 0.202365
