其他预设/【233】日式怀旧街道调色预设208款/1.3D LUT预设（视频调色-PR-AE-PS-FCPX-达芬奇用）/4.富士胶片风日式城市街拍预设 (自动曝光预设)/JA – Static Pop 3 (Classic Chrome) (Auto).cube
# Created by Adobe Lightroom plugin Export LUT (1.17.0)
# www.johnrellis.com/lightroom/exportlut.htm
# Preset: JA – Static Pop 3 (Classic Chrome) (Auto)
# Color profile: /Library/Application Support/Adobe/Color/Profiles/Recommended/AdobeRGB1998.icc
LUT_3D_SIZE 32
0.074311 0.079377 0.084535
0.081178 0.079347 0.084382
0.090822 0.079316 0.084108
0.113039 0.078920 0.083406
0.153719 0.078981 0.081514
0.210147 0.078584 0.077546
0.275517 0.078889 0.070436
0.345068 0.080812 0.057954
0.416083 0.083192 0.019898
0.484657 0.086793 0.000000
0.547265 0.090425 0.000000
0.601984 0.096284 0.000000
0.650782 0.102296 0.000000
0.695766 0.104311 0.000000
0.737942 0.105776 0.000000
0.777798 0.106783 0.000000
0.816037 0.107240 0.000000
0.851957 0.108217 0.000000
0.885100 0.108949 0.000000
0.916350 0.109926 0.000000
0.945739 0.110384 0.000000
0.972992 0.111360 0.000000
0.997955 0.111666 0.000000
1.000000 0.112642 0.000000
1.000000 0.112551 0.000000
1.000000 0.112856 0.000000
1.000000 0.112703 0.000000
1.000000 0.112459 0.000000
1.000000 0.106477 0.000000
1.000000 0.090028 0.000000
1.000000 0.067018 0.000000
1.000000 0.000000 0.000000
0.073976 0.083803 0.084504
0.080476 0.084169 0.084321
0.090211 0.084504 0.083711
0.112367 0.085756 0.082856
0.153140 0.087739 0.080812
0.209201 0.090669 0.076539
0.274907 0.094087 0.068849
0.344457 0.097932 0.054078
0.415412 0.102083 0.014038
0.484291 0.106264 0.000000
0.546838 0.109957 0.000000
0.601648 0.114351 0.000000
0.650416 0.117617 0.000000
0.695430 0.118288 0.000000
0.737728 0.119417 0.000000
0.777584 0.119478 0.000000
0.815793 0.119905 0.000000
0.851774 0.120027 0.000000
0.884916 0.120272 0.000000
0.916228 0.120638 0.000000
0.945617 0.120638 0.000000
0.972900 0.120851 0.000000
0.997864 0.120882 0.000000
1.000000 0.120912 0.000000
1.000000 0.121035 0.000000
1.000000 0.120882 0.000000
1.000000 0.120272 0.000000
1.000000 0.119417 0.000000
1.000000 0.114595 0.000000
1.000000 0.099214 0.000000
1.000000 0.078096 0.000000
1.000000 0.029267 0.000000
0.072694 0.090517 0.084565
0.080079 0.091005 0.084352
0.089174 0.091432 0.083742
0.111757 0.093721 0.082490
0.152346 0.098054 0.079835
0.208438 0.104341 0.075105
0.273777 0.110628 0.066804
0.343297 0.116670 0.048951
0.414618 0.122286 0.006104
0.483345 0.127291 0.000000
0.546136 0.131136 0.000000
0.601099 0.134676 0.000000
0.649928 0.134981 0.000000
0.694972 0.135164 0.000000
0.737240 0.135317 0.000000
0.777279 0.134737 0.000000
0.815518 0.134951 0.000000
0.851499 0.134524 0.000000
0.884733 0.133669 0.000000
0.916014 0.133852 0.000000
0.945464 0.133364 0.000000
0.972778 0.133150 0.000000
0.997742 0.132448 0.000000
1.000000 0.131868 0.000000
1.000000 0.131594 0.000000
1.000000 0.130678 0.000000
1.000000 0.129763 0.000000
1.000000 0.128389 0.000000
1.000000 0.123934 0.000000
1.000000 0.109957 0.000000
1.000000 0.090944 0.000000
1.000000 0.063050 0.000000
0.070314 0.105898 0.083986
0.079011 0.106416 0.084016
0.089265 0.106874 0.083406
0.109010 0.108034 0.082307
0.149508 0.116487 0.078798
0.206180 0.127840 0.072663
0.271366 0.138430 0.062562
0.341283 0.147921 0.035859
0.412665 0.155703 0.000000
0.481880 0.161318 0.000000
0.544671 0.164645 0.000000
0.599878 0.165866 0.000000
0.648737 0.165896 0.000000
0.693874 0.165438 0.000000
0.736477 0.164401 0.000000
0.776516 0.163149 0.000000
0.814908 0.161715 0.000000
0.850950 0.160739 0.000000
0.884215 0.159274 0.000000
0.915587 0.157809 0.000000
0.945129 0.156863 0.000000
0.972473 0.155428 0.000000
0.997498 0.154299 0.000000
1.000000 0.152865 0.000000
1.000000 0.151461 0.000000
1.000000 0.149691 0.000000
1.000000 0.147890 0.000000
1.000000 0.145876 0.000000
1.000000 0.142580 0.000000
1.000000 0.129671 0.000000
1.000000 0.113497 0.000000
1.000000 0.092531 0.000000
0.064332 0.129580 0.083284
0.075929 0.130007 0.083589
0.088258 0.131167 0.082490
0.110842 0.132692 0.080903
0.141207 0.135500 0.078462
0.199435 0.153567 0.070405
0.267765 0.170047 0.057374
0.337896 0.182742 0.019837
0.409766 0.192721 0.000000
0.479103 0.199954 0.000000
0.542351 0.203738 0.000000
0.597742 0.204593 0.000000
0.647059 0.203555 0.000000
0.692439 0.202090 0.000000
0.735103 0.200168 0.000000
0.775357 0.198154 0.000000
0.813870 0.196017 0.000000
0.850004 0.193881 0.000000
0.883513 0.191318 0.000000
0.914977 0.189212 0.000000
0.944579 0.186801 0.000000
0.972045 0.184634 0.000000
0.997101 0.182406 0.000000
1.000000 0.179995 0.000000
1.000000 0.177523 0.000000
1.000000 0.174960 0.000000
1.000000 0.172213 0.000000
1.000000 0.169223 0.000000
1.000000 0.166079 0.000000
1.000000 0.155001 0.000000
1.000000 0.140902 0.000000
1.000000 0.123598 0.000000
0.047883 0.163302 0.081697
0.067475 0.164126 0.081880
0.084291 0.165377 0.080323
0.112581 0.168063 0.077790
0.146120 0.169436 0.075227
0.184665 0.174014 0.070436
0.256352 0.199344 0.050355
0.330663 0.218204 0.003449
0.405310 0.232181 0.000000
0.475441 0.240787 0.000000
0.539178 0.245365 0.000000
0.595026 0.245914 0.000000
0.644587 0.244419 0.000000
0.690394 0.241855 0.000000
0.733425 0.239353 0.000000
0.773861 0.236271 0.000000
0.812558 0.233219 0.000000
0.848844 0.230076 0.000000
0.882444 0.226658 0.000000
0.914153 0.223392 0.000000
0.943847 0.220218 0.000000
0.971435 0.216800 0.000000
0.996551 0.213535 0.000000
1.000000 0.210391 0.000000
1.000000 0.206973 0.000000
1.000000 0.203494 0.000000
1.000000 0.199893 0.000000
1.000000 0.195773 0.000000
1.000000 0.191897 0.000000
1.000000 0.182956 0.000000
1.000000 0.170016 0.000000
1.000000 0.155032 0.000000
0.000000 0.206699 0.079072
0.037659 0.207401 0.076265
0.074525 0.208560 0.075746
0.111116 0.211276 0.072633
0.151888 0.214481 0.067872
0.191653 0.214633 0.063325
0.236240 0.219944 0.051606
0.316258 0.249149 0.000000
0.393835 0.268498 0.000000
0.470619 0.282933 0.000000
0.535119 0.288090 0.000000
0.591608 0.288792 0.000000
0.641688 0.286656 0.000000
0.687892 0.283604 0.000000
0.731319 0.279820 0.000000
0.771969 0.275975 0.000000
0.810910 0.272007 0.000000
0.847440 0.267918 0.000000
0.881254 0.263676 0.000000
0.913054 0.259495 0.000000
0.942962 0.255528 0.000000
0.970642 0.251194 0.000000
0.995880 0.247074 0.000000
1.000000 0.242679 0.000000
1.000000 0.238376 0.000000
1.000000 0.233768 0.000000
1.000000 0.229282 0.000000
1.000000 0.224552 0.000000
1.000000 0.219516 0.000000
1.000000 0.212497 0.000000
1.000000 0.199985 0.000000
1.000000 0.186221 0.000000
0.000000 0.257298 0.074434
0.000000 0.258305 0.063508
0.041444 0.258885 0.066835
0.104585 0.261204 0.062776
0.153933 0.264714 0.054261
0.200748 0.266361 0.039612
0.244327 0.265537 0.024079
0.292882 0.270756 0.000000
0.377295 0.300725 0.000000
0.455360 0.318822 0.000000
0.527306 0.329625 0.000000
0.587610 0.332189 0.000000
0.638361 0.329717 0.000000
0.684993 0.325902 0.000000
0.728786 0.321386 0.000000
0.769772 0.316564 0.000000
0.809018 0.311803 0.000000
0.845762 0.306859 0.000000
0.879759 0.301823 0.000000
0.911833 0.296635 0.000000
0.941894 0.291691 0.000000
0.969726 0.286595 0.000000
0.995056 0.281559 0.000000
1.000000 0.276341 0.000000
1.000000 0.270970 0.000000
1.000000 0.265629 0.000000
1.000000 0.260075 0.000000
1.000000 0.254337 0.000000
1.000000 0.248569 0.000000
1.000000 0.242588 0.000000
1.000000 0.230564 0.000000
1.000000 0.217288 0.000000
0.000000 0.313634 0.067079
0.000000 0.314366 0.031678
0.000000 0.314702 0.043610
0.088197 0.316503 0.033265
0.150881 0.319524 0.015503
0.205570 0.323095 0.000000
0.255344 0.322118 0.000000
0.301793 0.320226 0.000000
0.352911 0.324254 0.000000
0.438056 0.352575 0.000000
0.512169 0.366827 0.000000
0.577173 0.372625 0.000000
0.634455 0.373419 0.000000
0.681727 0.368963 0.000000
0.725826 0.363653 0.000000
0.767208 0.358129 0.000000
0.806760 0.352422 0.000000
0.843839 0.346807 0.000000
0.878080 0.340673 0.000000
0.910369 0.334752 0.000000
0.940642 0.328923 0.000000
0.968658 0.322881 0.000000
0.994141 0.316899 0.000000
1.000000 0.310918 0.000000
1.000000 0.304692 0.000000
1.000000 0.298131 0.000000
1.000000 0.291814 0.000000
1.000000 0.285252 0.000000
1.000000 0.278599 0.000000
1.000000 0.271946 0.000000
1.000000 0.261418 0.000000
1.000000 0.248417 0.000000
0.000000 0.373144 0.049531
0.000000 0.373754 0.000000
0.000000 0.373968 0.000000
0.043214 0.375128 0.000000
0.141512 0.377417 0.000000
0.205051 0.380163 0.000000
0.262150 0.381811 0.000000
0.313512 0.379065 0.000000
0.361639 0.375830 0.000000
0.413703 0.378088 0.000000
0.495125 0.401312 0.000000
0.562432 0.409918 0.000000
0.621576 0.411963 0.000000
0.675105 0.410651 0.000000
0.722621 0.406439 0.000000
0.764462 0.400031 0.000000
0.804349 0.393683 0.000000
0.841642 0.386938 0.000000
0.876158 0.380163 0.000000
0.908721 0.373266 0.000000
0.939239 0.366674 0.000000
0.967407 0.359869 0.000000
0.993072 0.353033 0.000000
1.000000 0.345983 0.000000
1.000000 0.338781 0.000000
1.000000 0.331456 0.000000
1.000000 0.324163 0.000000
1.000000 0.316655 0.000000
1.000000 0.309209 0.000000
1.000000 0.301732 0.000000
1.000000 0.292363 0.000000
1.000000 0.279332 0.000000
0.000000 0.433082 0.009491
0.000000 0.433600 0.000000
0.000000 0.433936 0.000000
0.000000 0.434150 0.000000
0.122866 0.435645 0.000000
0.198459 0.437690 0.000000
0.262425 0.439857 0.000000
0.319554 0.438514 0.000000
0.371893 0.434180 0.000000
0.420844 0.429664 0.000000
0.472175 0.429206 0.000000
0.546136 0.445197 0.000000
0.607141 0.449104 0.000000
0.662226 0.448646 0.000000
0.713466 0.446326 0.000000
0.761196 0.442420 0.000000
0.801541 0.435187 0.000000
0.839109 0.427771 0.000000
0.873991 0.420020 0.000000
0.906889 0.412421 0.000000
0.937652 0.404883 0.000000
0.966003 0.397284 0.000000
0.991821 0.389502 0.000000
1.000000 0.381567 0.000000
1.000000 0.373510 0.000000
1.000000 0.365209 0.000000
1.000000 0.356939 0.000000
1.000000 0.348577 0.000000
1.000000 0.340307 0.000000
1.000000 0.331945 0.000000
1.000000 0.323491 0.000000
1.000000 0.310460 0.000000
0.000000 0.490242 0.000000
0.000000 0.490578 0.000000
0.000000 0.490883 0.000000
0.000000 0.490303 0.000000
0.089296 0.491127 0.000000
0.185245 0.492256 0.000000
0.255833 0.493446 0.000000
0.319036 0.494636 0.000000
0.375067 0.489784 0.000000
0.427192 0.484504 0.000000
0.475868 0.478523 0.000000
0.524895 0.474922 0.000000
0.591363 0.484443 0.000000
0.648005 0.485267 0.000000
0.700435 0.483467 0.000000
0.749294 0.479866 0.000000
0.795621 0.475593 0.000000
0.836423 0.468971 0.000000
0.871611 0.460426 0.000000
0.904845 0.452033 0.000000
0.935882 0.443580 0.000000
0.964416 0.435126 0.000000
0.990387 0.426459 0.000000
1.000000 0.417639 0.000000
1.000000 0.408637 0.000000
1.000000 0.399481 0.000000
1.000000 0.390173 0.000000
1.000000 0.380957 0.000000
1.000000 0.371771 0.000000
1.000000 0.362615 0.000000
1.000000 0.353521 0.000000
1.000000 0.341375 0.000000
0.000000 0.541497 0.000000
0.000000 0.541680 0.000000
0.000000 0.541894 0.000000
0.000000 0.540948 0.000000
0.000000 0.541161 0.000000
0.166110 0.541527 0.000000
0.244083 0.541894 0.000000
0.310430 0.542138 0.000000
0.371283 0.540246 0.000000
0.426123 0.534569 0.000000
0.477302 0.528283 0.000000
0.525170 0.521324 0.000000
0.571588 0.515160 0.000000
0.632288 0.520043 0.000000
0.686122 0.519188 0.000000
0.736141 0.516228 0.000000
0.783566 0.512230 0.000000
0.827909 0.507195 0.000000
0.868864 0.501030 0.000000
0.902647 0.491859 0.000000
0.933928 0.482734 0.000000
0.962737 0.473304 0.000000
0.988830 0.463813 0.000000
1.000000 0.454017 0.000000
1.000000 0.444068 0.000000
1.000000 0.433967 0.000000
1.000000 0.423774 0.000000
1.000000 0.413581 0.000000
1.000000 0.403479 0.000000
1.000000 0.393469 0.000000
1.000000 0.383612 0.000000
1.000000 0.372198 0.000000
0.000000 0.587030 0.000000
0.000000 0.587121 0.000000
0.000000 0.587243 0.000000
0.000000 0.586389 0.000000
0.000000 0.585809 0.000000
0.140047 0.585626 0.000000
0.228305 0.585443 0.000000
0.298375 0.585168 0.000000
0.362005 0.584680 0.000000
0.419745 0.580285 0.000000
0.472938 0.573877 0.000000
0.522881 0.566827 0.000000
0.569665 0.559197 0.000000
0.613550 0.551080 0.000000
0.669825 0.552819 0.000000
0.721981 0.551141 0.000000
0.770352 0.547539 0.000000
0.815946 0.542962 0.000000
0.858335 0.537194 0.000000
0.897704 0.530663 0.000000
0.931762 0.522057 0.000000
0.960815 0.511894 0.000000
0.987152 0.501427 0.000000
1.000000 0.490791 0.000000
1.000000 0.479957 0.000000
1.000000 0.468788 0.000000
1.000000 0.457588 0.000000
1.000000 0.446479 0.000000
1.000000 0.435492 0.000000
1.000000 0.424659 0.000000
1.000000 0.414008 0.000000
1.000000 0.403082 0.000000
0.000000 0.628046 0.000000
0.000000 0.628077 0.000000
0.000000 0.628107 0.000000
0.000000 0.627405 0.000000
0.000000 0.626215 0.000000
0.107179 0.625879 0.000000
0.209903 0.625422 0.000000
0.284184 0.624781 0.000000
0.349340 0.623987 0.000000
0.410163 0.622461 0.000000
0.465003 0.616175 0.000000
0.516442 0.609155 0.000000
0.564904 0.601648 0.000000
0.610498 0.593530 0.000000
0.652308 0.584039 0.000000
0.705592 0.583917 0.000000
0.755978 0.581598 0.000000
0.802792 0.577600 0.000000
0.846708 0.572381 0.000000
0.887663 0.566278 0.000000
0.925048 0.559014 0.000000
0.958618 0.550683 0.000000
0.985290 0.539483 0.000000
1.000000 0.527886 0.000000
1.000000 0.515953 0.000000
1.000000 0.503899 0.000000
1.000000 0.491798 0.000000
1.000000 0.479683 0.000000
1.000000 0.467750 0.000000
1.000000 0.456031 0.000000
1.000000 0.444587 0.000000
1.000000 0.433204 0.000000
0.000000 0.666163 0.000000
0.000000 0.666163 0.000000
0.000000 0.666072 0.000000
0.000000 0.665553 0.000000
0.000000 0.663783 0.000000
0.053285 0.663355 0.000000
0.189944 0.662776 0.000000
0.268589 0.662074 0.000000
0.336034 0.661128 0.000000
0.397650 0.659998 0.000000
0.455268 0.656275 0.000000
0.508049 0.649500 0.000000
0.557580 0.642084 0.000000
0.604669 0.634119 0.000000
0.649012 0.625544 0.000000
0.688899 0.615076 0.000000
0.739162 0.613184 0.000000
0.788479 0.610864 0.000000
0.834073 0.606439 0.000000
0.876616 0.601007 0.000000
0.915557 0.594263 0.000000
0.950622 0.586084 0.000000
0.981506 0.576623 0.000000
1.000000 0.565240 0.000000
1.000000 0.552453 0.000000
1.000000 0.539330 0.000000
1.000000 0.526146 0.000000
1.000000 0.513146 0.000000
1.000000 0.500267 0.000000
1.000000 0.487648 0.000000
1.000000 0.475257 0.000000
1.000000 0.463172 0.000000
0.000000 0.702083 0.000000
0.000000 0.702052 0.000000
0.000000 0.701930 0.000000
0.000000 0.701625 0.000000
0.000000 0.699519 0.000000
0.000000 0.698878 0.000000
0.169192 0.698177 0.000000
0.253300 0.697322 0.000000
0.322271 0.696223 0.000000
0.384741 0.694911 0.000000
0.443732 0.693446 0.000000
0.497932 0.687648 0.000000
0.548669 0.680476 0.000000
0.596674 0.672663 0.000000
0.642206 0.664363 0.000000
0.685206 0.655634 0.000000
0.723262 0.644190 0.000000
0.771695 0.641596 0.000000
0.820249 0.639277 0.000000
0.864530 0.634699 0.000000
0.905211 0.628595 0.000000
0.941833 0.620813 0.000000
0.974151 0.611566 0.000000
1.000000 0.600916 0.000000
1.000000 0.589044 0.000000
1.000000 0.575036 0.000000
1.000000 0.560876 0.000000
1.000000 0.546868 0.000000
1.000000 0.533013 0.000000
1.000000 0.519432 0.000000
1.000000 0.506218 0.000000
1.000000 0.493263 0.000000
0.000000 0.736019 0.000000
0.000000 0.735927 0.000000
0.000000 0.735805 0.000000
0.000000 0.735500 0.000000
0.000000 0.733516 0.000000
0.000000 0.732326 0.000000
0.149264 0.731624 0.000000
0.238468 0.730770 0.000000
0.309026 0.729732 0.000000
0.372168 0.728481 0.000000
0.431159 0.727108 0.000000
0.487373 0.724514 0.000000
0.538933 0.717647 0.000000
0.588006 0.710231 0.000000
0.634546 0.702358 0.000000
0.678828 0.693965 0.000000
0.720943 0.685145 0.000000
0.757687 0.673335 0.000000
0.804166 0.669856 0.000000
0.851408 0.667201 0.000000
0.893858 0.662074 0.000000
0.932219 0.654932 0.000000
0.966155 0.646021 0.000000
0.995575 0.635462 0.000000
1.000000 0.623407 0.000000
1.000000 0.610346 0.000000
1.000000 0.595911 0.000000
1.000000 0.580835 0.000000
1.000000 0.566003 0.000000
1.000000 0.551446 0.000000
1.000000 0.537316 0.000000
1.000000 0.523522 0.000000
0.000000 0.769650 0.000000
0.000000 0.769589 0.000000
0.000000 0.769436 0.000000
0.000000 0.769100 0.000000
0.000000 0.767422 0.000000
0.000000 0.765652 0.068055
0.130129 0.765103 0.029999
0.225437 0.764279 0.000000
0.297459 0.763363 0.000000
0.360754 0.762173 0.000000
0.420050 0.760830 0.000000
0.476509 0.759304 0.000000
0.529808 0.754879 0.000000
0.579583 0.747890 0.000000
0.627161 0.740414 0.000000
0.672541 0.732418 0.000000
0.715877 0.723964 0.000000
0.757107 0.715145 0.000000
0.792569 0.702815 0.000000
0.836576 0.698024 0.000000
0.881590 0.694392 0.000000
0.921752 0.688228 0.000000
0.957397 0.679835 0.000000
0.988312 0.669581 0.000000
1.000000 0.657557 0.000000
1.000000 0.644190 0.000000
1.000000 0.629847 0.000000
1.000000 0.615015 0.000000
1.000000 0.599237 0.000000
1.000000 0.583734 0.000000
1.000000 0.568597 0.000000
1.000000 0.553918 0.000000
0.000000 0.803311 0.000000
0.000000 0.803220 0.000000
0.000000 0.803098 0.000000
0.000000 0.802731 0.000000
0.000000 0.801328 0.000000
0.000000 0.798978 0.113710
0.113375 0.798398 0.101991
0.214694 0.797604 0.084016
0.287327 0.796750 0.053559
0.351049 0.795621 0.000000
0.410071 0.794369 0.000000
0.466346 0.792905 0.000000
0.520836 0.791196 0.000000
0.571374 0.785031 0.000000
0.619654 0.777920 0.000000
0.665919 0.770352 0.000000
0.710323 0.762448 0.000000
0.752773 0.754055 0.000000
0.793332 0.745296 0.000000
0.827268 0.732265 0.000000
0.868315 0.725643 0.000000
0.910338 0.720546 0.000000
0.947814 0.713039 0.000000
0.980377 0.703182 0.000000
1.000000 0.691341 0.000000
1.000000 0.677913 0.000000
1.000000 0.663264 0.000000
1.000000 0.647944 0.000000
1.000000 0.632258 0.000000
1.000000 0.616175 0.000000
1.000000 0.600092 0.000000
1.000000 0.584466 0.000000
0.000000 0.836393 0.017029
0.000000 0.836271 0.000000
0.000000 0.836118 0.000000
0.000000 0.835752 0.000000
0.000000 0.834531 0.000000
0.000000 0.831815 0.145388
0.102235 0.831052 0.141421
0.206607 0.830350 0.129610
0.279576 0.829404 0.113710
0.342840 0.828367 0.090944
0.401251 0.827146 0.048768
0.457069 0.825681 0.000000
0.510948 0.824033 0.000000
0.562982 0.820890 0.000000
0.611688 0.814328 0.000000
0.658595 0.807309 0.000000
0.703792 0.799771 0.000000
0.747311 0.791897 0.000000
0.788998 0.783658 0.000000
0.828977 0.775082 0.000000
0.861204 0.761166 0.000000
0.898924 0.752499 0.000000
0.937438 0.745296 0.000000
0.971832 0.736202 0.000000
1.000000 0.724758 0.000000
1.000000 0.711421 0.000000
1.000000 0.696498 0.000000
1.000000 0.680812 0.000000
1.000000 0.664576 0.000000
1.000000 0.648188 0.000000
1.000000 0.631739 0.000000
1.000000 0.615198 0.000000
0.000000 0.868284 0.065949
0.000000 0.868193 0.059510
0.000000 0.867979 0.043793
0.000000 0.867582 0.012024
0.000000 0.866636 0.059205
0.000000 0.863920 0.159091
0.099977 0.862516 0.176974
0.202914 0.861753 0.167330
0.274388 0.860899 0.154818
0.336553 0.859861 0.139071
0.393988 0.858640 0.118837
0.449012 0.857176 0.089509
0.502068 0.855589 0.009308
0.553826 0.853696 0.000000
0.603235 0.848966 0.000000
0.650568 0.842435 0.000000
0.696162 0.835508 0.000000
0.740352 0.828153 0.000000
0.782986 0.820462 0.000000
0.824125 0.812406 0.000000
0.863615 0.804135 0.000000
0.893919 0.789120 0.000000
0.928008 0.778195 0.000000
0.962493 0.768612 0.000000
0.993591 0.757748 0.000000
1.000000 0.744594 0.000000
1.000000 0.729641 0.000000
1.000000 0.713619 0.000000
1.000000 0.696956 0.000000
1.000000 0.679957 0.000000
1.000000 0.662867 0.000000
1.000000 0.645899 0.000000
0.000000 0.898528 0.088594
0.000000 0.898375 0.086854
0.000000 0.898222 0.084047
0.000000 0.897734 0.082399
0.000000 0.896941 0.087556
0.000000 0.894377 0.173648
0.109285 0.892241 0.210391
0.203586 0.891539 0.201907
0.272465 0.890654 0.191653
0.332555 0.889616 0.178958
0.388464 0.888396 0.163455
0.441932 0.886961 0.143496
0.493721 0.885344 0.116945
0.544579 0.883482 0.076539
0.594476 0.881346 0.000000
0.641657 0.875395 0.000000
0.687434 0.869017 0.000000
0.732021 0.862242 0.000000
0.775204 0.855100 0.000000
0.817136 0.847684 0.000000
0.857603 0.839963 0.000000
0.896635 0.831998 0.000000
0.924865 0.815885 0.000000
0.955108 0.802426 0.000000
0.985321 0.790249 0.000000
1.000000 0.777462 0.000000
1.000000 0.762570 0.000000
1.000000 0.746334 0.000000
1.000000 0.729305 0.000000
1.000000 0.711788 0.000000
1.000000 0.694087 0.000000
1.000000 0.676417 0.000000
0.000000 0.926696 0.107790
0.000000 0.926574 0.108217
0.000000 0.926329 0.108522
0.000000 0.925872 0.112520
0.000000 0.925048 0.122927
0.000000 0.922728 0.188235
0.127291 0.919860 0.242710
0.209689 0.919127 0.235264
0.273960 0.918273 0.225986
0.331151 0.917205 0.215122
0.384863 0.915984 0.202060
0.436316 0.914611 0.185641
0.486580 0.912993 0.165835
0.535882 0.911162 0.140322
0.584497 0.909087 0.105257
0.631983 0.905608 0.018677
0.677577 0.899809 0.000000
0.722133 0.893645 0.000000
0.765591 0.887144 0.000000
0.807980 0.880308 0.000000
0.849088 0.873198 0.000000
0.888975 0.865873 0.000000
0.927581 0.858396 0.000000
0.953582 0.840909 0.000000
0.979950 0.825010 0.000000
1.000000 0.809995 0.000000
1.000000 0.795315 0.000000
1.000000 0.778958 0.000000
1.000000 0.761624 0.000000
1.000000 0.743679 0.000000
1.000000 0.725429 0.000000
1.000000 0.707057 0.000000
0.000000 0.952483 0.123751
0.000000 0.952331 0.125216
0.000000 0.952117 0.127810
0.000000 0.951598 0.135225
0.000000 0.950713 0.150149
0.000000 0.948577 0.203006
0.142031 0.945190 0.268803
0.221103 0.944244 0.267552
0.279423 0.943359 0.259373
0.332738 0.942321 0.249699
0.383246 0.941161 0.237736
0.432624 0.939727 0.223667
0.480690 0.938170 0.206973
0.528099 0.936339 0.186740
0.575128 0.934325 0.161685
0.621637 0.932097 0.128237
0.666926 0.927581 0.078431
0.711025 0.921996 0.000000
0.754299 0.916106 0.000000
0.796719 0.909941 0.000000
0.838193 0.903441 0.000000
0.878630 0.896727 0.000000
0.917998 0.889830 0.000000
0.956085 0.882841 0.000000
0.979736 0.863981 0.000000
1.000000 0.845579 0.000000
1.000000 0.827909 0.000000
1.000000 0.811490 0.000000
1.000000 0.793881 0.000000
1.000000 0.775570 0.000000
1.000000 0.756832 0.000000
1.000000 0.737881 0.000000
0.000000 0.975708 0.136995
0.000000 0.975525 0.139742
0.000000 0.975280 0.143954
0.000000 0.974731 0.154208
0.000000 0.973785 0.172305
0.000000 0.971832 0.216892
0.136019 0.968475 0.282048
0.236790 0.966674 0.298802
0.288396 0.965789 0.291325
0.336950 0.964782 0.282231
0.384192 0.963592 0.271519
0.430396 0.962249 0.259068
0.476081 0.960693 0.244236
0.521386 0.958953 0.226871
0.566339 0.956970 0.205966
0.611048 0.954803 0.180209
0.655604 0.952117 0.147311
0.698909 0.947143 0.102632
0.741726 0.941833 0.000000
0.783810 0.936248 0.000000
0.825223 0.930419 0.000000
0.865843 0.924315 0.000000
0.905516 0.918059 0.000000
0.944244 0.911650 0.000000
0.981903 0.905119 0.000000
1.000000 0.884794 0.000000
1.000000 0.864073 0.000000
1.000000 0.844236 0.000000
1.000000 0.826200 0.000000
1.000000 0.807523 0.000000
1.000000 0.788327 0.000000
1.000000 0.768856 0.000000
0.000000 0.996246 0.146242
0.000000 0.996063 0.150149
0.000000 0.995819 0.155703
0.000000 0.995209 0.168399
0.000000 0.994171 0.189853
0.000000 0.992340 0.229099
0.133150 0.988952 0.294652
0.255680 0.986267 0.328710
0.300633 0.985443 0.321782
0.344305 0.984466 0.313573
0.387549 0.983307 0.303685
0.430396 0.981994 0.292119
0.473060 0.980499 0.278538
0.515862 0.978790 0.262913
0.558526 0.976867 0.244388
0.601099 0.974762 0.222110
0.643854 0.972442 0.195224
0.686213 0.968963 0.162203
0.728084 0.964233 0.119326
0.769528 0.959258 0.002441
0.810422 0.954009 0.000000
0.850858 0.948516 0.000000
0.890593 0.942809 0.000000
0.929534 0.936980 0.000000
0.967620 0.930999 0.000000
1.000000 0.924987 0.000000
1.000000 0.903166 0.000000
1.000000 0.880583 0.000000
1.000000 0.859037 0.000000
1.000000 0.839506 0.000000
1.000000 0.819944 0.000000
1.000000 0.799924 0.000000
0.000000 1.000000 0.149905
0.000000 1.000000 0.154849
0.000000 1.000000 0.162173
0.000000 1.000000 0.177615
0.000000 1.000000 0.202823
0.000000 1.000000 0.238865
0.128847 1.000000 0.305333
0.276524 1.000000 0.357366
0.314977 1.000000 0.350683
0.353979 1.000000 0.343023
0.392920 1.000000 0.333806
0.432227 0.999084 0.322972
0.471809 0.997650 0.310552
0.511681 0.996033 0.295933
0.551751 0.994263 0.278752
