其他预设/【233】日式怀旧街道调色预设208款/1.3D LUT预设（视频调色-PR-AE-PS-FCPX-达芬奇用）/4.富士胶片风日式城市街拍预设 (自动曝光预设)/JA – Cine Night 3 (Classic Chrome) (Auto).cube
# Created by Adobe Lightroom plugin Export LUT (1.17.0)
# www.johnrellis.com/lightroom/exportlut.htm
# Preset: JA – Cine Night 3 (Classic Chrome) (Auto)
# Color profile: /Library/Application Support/Adobe/Color/Profiles/Recommended/AdobeRGB1998.icc
LUT_3D_SIZE 32
0.008881 0.025910 0.052979
0.017853 0.026734 0.053559
0.027558 0.028534 0.055695
0.048157 0.031952 0.058900
0.065217 0.037171 0.062318
0.077913 0.044648 0.065888
0.093874 0.049928 0.069429
0.115328 0.052186 0.072480
0.144259 0.046815 0.075410
0.182376 0.023041 0.078187
0.230106 0.000000 0.080323
0.286381 0.000000 0.082002
0.349279 0.000000 0.083406
0.416144 0.000000 0.084382
0.483803 0.000000 0.085451
0.548669 0.000000 0.086580
0.608789 0.000000 0.088350
0.663691 0.000000 0.091310
0.711910 0.000000 0.095613
0.756069 0.000000 0.101045
0.797055 0.000000 0.107851
0.835508 0.000000 0.116426
0.871763 0.000000 0.126040
0.906126 0.000000 0.137270
0.938842 0.000000 0.149722
0.969451 0.000000 0.164004
0.997284 0.000000 0.180240
1.000000 0.000000 0.199039
1.000000 0.000000 0.220401
1.000000 0.137087 0.244572
1.000000 0.208103 0.272221
1.000000 0.267979 0.303624
0.008240 0.034089 0.055726
0.015625 0.035157 0.057160
0.027131 0.036744 0.057649
0.047822 0.040131 0.059937
0.065064 0.045350 0.063355
0.077913 0.050446 0.066468
0.094087 0.055940 0.070344
0.116030 0.056947 0.073335
0.145022 0.051423 0.076204
0.183536 0.029450 0.078584
0.231510 0.000000 0.080934
0.287816 0.000000 0.082307
0.350652 0.000000 0.083955
0.417578 0.000000 0.084840
0.485115 0.000000 0.085817
0.549828 0.000000 0.087190
0.609796 0.000000 0.089113
0.664515 0.000000 0.091707
0.712642 0.000000 0.095949
0.756680 0.000000 0.101534
0.797543 0.000000 0.108278
0.835935 0.000000 0.116579
0.872099 0.000000 0.126497
0.906462 0.000000 0.137514
0.939117 0.000000 0.150179
0.969665 0.000000 0.164401
0.997406 0.000000 0.180880
1.000000 0.000000 0.199680
1.000000 0.000000 0.220920
1.000000 0.145266 0.245212
1.000000 0.212985 0.272740
1.000000 0.271550 0.304143
0.007996 0.045655 0.059297
0.015381 0.046723 0.060060
0.025513 0.048127 0.060334
0.047974 0.050507 0.061280
0.065187 0.053529 0.064729
0.077882 0.058900 0.068055
0.094575 0.061250 0.071138
0.116701 0.061219 0.074128
0.146090 0.058381 0.076570
0.184756 0.039246 0.079255
0.233097 0.000000 0.081178
0.289586 0.000000 0.083070
0.352544 0.000000 0.084352
0.419409 0.000000 0.085695
0.486763 0.000000 0.086580
0.551385 0.000000 0.087831
0.611231 0.000000 0.089906
0.665705 0.000000 0.092409
0.713649 0.000000 0.096559
0.757504 0.000000 0.102235
0.798306 0.000000 0.109071
0.836576 0.000000 0.117250
0.872648 0.000000 0.126894
0.906859 0.000000 0.138155
0.939452 0.000000 0.150698
0.969970 0.000000 0.165164
0.997620 0.000000 0.181521
1.000000 0.000000 0.200351
1.000000 0.034852 0.221653
1.000000 0.155123 0.245945
1.000000 0.219181 0.273533
1.000000 0.276341 0.305028
0.005798 0.061707 0.064179
0.014282 0.061555 0.065736
0.022583 0.061891 0.067170
0.043091 0.063355 0.067262
0.064057 0.065309 0.068360
0.078492 0.067323 0.070497
0.095766 0.068818 0.073030
0.118593 0.068910 0.075959
0.148684 0.066407 0.078218
0.187961 0.056641 0.080751
0.236790 0.012085 0.082795
0.293736 0.000000 0.084810
0.356634 0.000000 0.086091
0.423407 0.000000 0.087251
0.490669 0.000000 0.087892
0.554803 0.000000 0.089174
0.614191 0.000000 0.091249
0.668238 0.000000 0.093782
0.715785 0.000000 0.097902
0.759243 0.000000 0.103639
0.799832 0.000000 0.110231
0.837797 0.000000 0.118593
0.873716 0.000000 0.128359
0.907774 0.000000 0.139559
0.940246 0.000000 0.152071
0.970550 0.000000 0.166476
0.998047 0.000000 0.182925
1.000000 0.000000 0.201907
1.000000 0.097719 0.223301
1.000000 0.174624 0.247684
1.000000 0.232578 0.275273
1.000000 0.286442 0.306859
0.004364 0.072236 0.070771
0.011688 0.072206 0.071748
0.020172 0.072084 0.073121
0.037232 0.072633 0.075044
0.060731 0.075196 0.074922
0.077607 0.078126 0.075685
0.097780 0.079957 0.076234
0.121340 0.080415 0.078553
0.152560 0.078706 0.080659
0.192935 0.072053 0.082887
0.242435 0.050416 0.085023
0.299840 0.000000 0.086641
0.363104 0.000000 0.088197
0.429786 0.000000 0.089509
0.496529 0.000000 0.090364
0.560082 0.000000 0.091524
0.618860 0.000000 0.093477
0.672084 0.000000 0.096162
0.719051 0.000000 0.100160
0.762020 0.000000 0.105684
0.802121 0.000000 0.112398
0.839841 0.000000 0.120760
0.875395 0.000000 0.130373
0.909239 0.000000 0.141451
0.941405 0.000000 0.154147
0.971496 0.000000 0.168673
0.998718 0.000000 0.185183
1.000000 0.030426 0.204166
1.000000 0.142611 0.225803
1.000000 0.200931 0.250309
1.000000 0.251926 0.278141
1.000000 0.301732 0.309758
0.002747 0.082490 0.077852
0.009003 0.082856 0.078096
0.016754 0.082826 0.078370
0.033753 0.082948 0.080507
0.057404 0.084932 0.081666
0.073274 0.088746 0.081636
0.095949 0.093538 0.082124
0.123995 0.095308 0.082460
0.158022 0.094636 0.084199
0.199710 0.089784 0.086091
0.250217 0.078065 0.088350
0.308354 0.041230 0.089815
0.371710 0.000000 0.091463
0.438300 0.000000 0.092226
0.504509 0.000000 0.093111
0.567102 0.000000 0.094514
0.625025 0.000000 0.096223
0.677241 0.000000 0.098665
0.723262 0.000000 0.102968
0.765713 0.000000 0.108278
0.805234 0.000000 0.114961
0.842466 0.000000 0.123507
0.877653 0.000000 0.133059
0.911162 0.000000 0.144350
0.943023 0.000000 0.157107
0.972717 0.000000 0.171633
0.999603 0.029755 0.188418
1.000000 0.132143 0.207584
1.000000 0.185214 0.229313
1.000000 0.231510 0.254032
1.000000 0.275914 0.281956
1.000000 0.321233 0.313787
0.000000 0.094942 0.085176
0.003845 0.095277 0.084504
0.010346 0.095888 0.084108
0.028748 0.096223 0.085725
0.052461 0.096834 0.088075
0.069429 0.100526 0.088899
0.090364 0.105806 0.089296
0.121889 0.112184 0.089570
0.160098 0.114168 0.089845
0.208377 0.112123 0.090394
0.260136 0.104402 0.092134
0.318944 0.088716 0.093843
0.382727 0.052491 0.095064
0.449104 0.000000 0.095735
0.514458 0.000000 0.096468
0.575799 0.000000 0.097780
0.632715 0.000000 0.099275
0.683589 0.000000 0.101961
0.728664 0.000000 0.106203
0.770169 0.000000 0.111482
0.809049 0.000000 0.118441
0.845701 0.000000 0.126650
0.880400 0.000000 0.136385
0.913512 0.000000 0.147738
0.944945 0.000000 0.160616
0.974212 0.093385 0.175326
1.000000 0.146395 0.192477
1.000000 0.188540 0.211917
1.000000 0.226963 0.233768
1.000000 0.264805 0.258732
1.000000 0.303197 0.286809
1.000000 0.344244 0.318883
0.000000 0.110079 0.093263
0.000000 0.110414 0.092653
0.002258 0.110903 0.091188
0.020050 0.111727 0.091279
0.046235 0.112642 0.093935
0.065736 0.114626 0.096895
0.086244 0.120851 0.097353
0.114412 0.127596 0.097597
0.158145 0.135592 0.098207
0.208530 0.137728 0.097902
0.269596 0.135378 0.097505
0.331823 0.126802 0.097993
0.395972 0.111543 0.098939
0.461830 0.086915 0.099611
0.526146 0.031586 0.100313
0.586145 0.000000 0.101137
0.641657 0.000000 0.102693
0.691005 0.000000 0.105318
0.734951 0.000000 0.109438
0.775479 0.000000 0.115236
0.813535 0.000000 0.122255
0.849516 0.000000 0.130648
0.883696 0.067170 0.140414
0.916258 0.111696 0.151980
0.947234 0.146242 0.164981
0.975952 0.178164 0.180179
1.000000 0.208499 0.197452
1.000000 0.238102 0.217136
1.000000 0.268498 0.239322
1.000000 0.299809 0.264469
1.000000 0.333410 0.293004
1.000000 0.370123 0.325200
0.000000 0.128573 0.102388
0.000000 0.129030 0.101350
0.000000 0.129885 0.100038
0.004273 0.131014 0.098329
0.032654 0.132265 0.100710
0.061830 0.133822 0.103883
0.082155 0.138033 0.106264
0.110140 0.146365 0.106935
0.148501 0.155093 0.107515
0.206607 0.165621 0.107576
0.268345 0.168734 0.106752
0.338628 0.167666 0.104952
0.411353 0.161715 0.103212
0.476661 0.151125 0.103700
0.539300 0.139590 0.104097
0.597864 0.129366 0.105074
0.651728 0.122774 0.106416
0.699580 0.120760 0.109071
0.741939 0.122988 0.113649
0.781460 0.130983 0.119326
0.818631 0.143923 0.126375
0.853910 0.159762 0.135012
0.887419 0.178134 0.145083
0.919432 0.198184 0.156893
0.949798 0.218814 0.170443
0.977935 0.240177 0.185855
1.000000 0.262425 0.203464
1.000000 0.285557 0.223453
1.000000 0.309972 0.245945
1.000000 0.336522 0.271489
1.000000 0.365545 0.300359
1.000000 0.398505 0.332891
0.000000 0.151186 0.111818
0.000000 0.151736 0.110872
0.000000 0.152407 0.109682
0.000000 0.154208 0.106752
0.010224 0.155917 0.107942
0.050935 0.157870 0.111177
0.077424 0.160189 0.115175
0.105562 0.168185 0.116701
0.144289 0.178958 0.117403
0.194827 0.189883 0.117433
0.266361 0.203555 0.116976
0.337285 0.208347 0.115023
0.413458 0.209873 0.112245
0.490455 0.209354 0.108339
0.554101 0.206088 0.107668
0.610956 0.204440 0.108492
0.662867 0.204929 0.109865
0.708675 0.206760 0.113069
0.749722 0.210544 0.117769
0.788052 0.216556 0.123690
0.824308 0.225742 0.131197
0.858701 0.237095 0.140322
0.891569 0.249729 0.150576
0.922911 0.264073 0.162844
0.952636 0.279484 0.176669
0.980041 0.295689 0.192599
1.000000 0.313054 0.210513
1.000000 0.331579 0.230991
1.000000 0.351751 0.253971
1.000000 0.374090 0.279789
1.000000 0.399420 0.308904
1.000000 0.428779 0.341894
0.000000 0.178225 0.121950
0.000000 0.178958 0.120882
0.000000 0.179904 0.119539
0.000000 0.181796 0.116640
0.000000 0.184268 0.115755
0.023835 0.186648 0.118807
0.071107 0.189639 0.122713
0.100893 0.193362 0.127291
0.139834 0.205600 0.127718
0.190280 0.219181 0.128054
0.252384 0.232486 0.127474
0.335698 0.249729 0.125948
0.412024 0.256992 0.122683
0.489174 0.262394 0.118776
0.562066 0.268101 0.114015
0.624994 0.273259 0.111482
0.674556 0.275517 0.113222
0.718379 0.278386 0.117006
0.757961 0.281712 0.122194
0.795132 0.286961 0.128511
0.830350 0.294102 0.136599
0.863920 0.302647 0.145876
0.896056 0.312688 0.156985
0.926696 0.323735 0.169741
0.955718 0.335576 0.184146
0.982330 0.348241 0.200565
1.000000 0.362005 0.219028
1.000000 0.377020 0.239963
1.000000 0.393744 0.263279
1.000000 0.412482 0.289555
1.000000 0.434485 0.319066
1.000000 0.460578 0.352422
0.000000 0.210483 0.131838
0.000000 0.211276 0.130983
0.000000 0.212314 0.129763
0.000000 0.214389 0.127047
0.000000 0.217624 0.123659
0.000000 0.220340 0.126711
0.057954 0.223789 0.130312
0.096254 0.227604 0.135103
0.135470 0.235203 0.138582
0.185733 0.250248 0.138735
0.247471 0.266484 0.138247
0.319158 0.282261 0.136812
0.410437 0.303777 0.134005
0.487648 0.314092 0.129885
0.560204 0.323980 0.125124
0.626703 0.334386 0.120546
0.685389 0.343755 0.117403
0.728664 0.346593 0.121187
0.766659 0.348974 0.126802
0.802609 0.352819 0.134127
0.836790 0.357977 0.142733
0.869444 0.364477 0.153079
0.900755 0.372015 0.164523
0.930755 0.380346 0.177951
0.958923 0.389502 0.192996
0.984680 0.399420 0.210056
1.000000 0.410224 0.228977
1.000000 0.422217 0.250340
1.000000 0.435889 0.274174
1.000000 0.451606 0.300877
1.000000 0.470497 0.330877
1.000000 0.493568 0.364599
0.000000 0.247288 0.141726
0.000000 0.248142 0.140749
0.000000 0.249149 0.139620
0.000000 0.251560 0.136995
0.000000 0.255192 0.133211
0.000000 0.258640 0.134096
0.009155 0.262272 0.137789
0.087190 0.266575 0.142184
0.131594 0.271092 0.147433
0.181430 0.283635 0.149477
0.241978 0.301305 0.149264
0.313237 0.320134 0.147768
0.391516 0.338659 0.145449
0.485481 0.364782 0.141817
0.558038 0.378180 0.136843
0.624323 0.391302 0.132387
0.682795 0.402228 0.129397
0.733669 0.410559 0.128481
0.775601 0.414923 0.132387
0.810361 0.416815 0.140536
0.843473 0.420111 0.150332
0.875242 0.424323 0.161044
0.905760 0.429664 0.173587
0.934905 0.435554 0.187778
0.962188 0.442359 0.203250
0.986999 0.449622 0.220859
1.000000 0.457862 0.240635
1.000000 0.467201 0.262486
1.000000 0.477913 0.286748
1.000000 0.491005 0.313970
1.000000 0.507012 0.344152
1.000000 0.527306 0.378302
0.000000 0.288273 0.151431
0.000000 0.289128 0.150515
0.000000 0.290257 0.149386
0.000000 0.292638 0.146792
0.000000 0.296391 0.143008
0.000000 0.300725 0.141451
0.000000 0.304784 0.144839
0.070771 0.309300 0.149203
0.126986 0.314214 0.154299
0.177096 0.319432 0.160098
0.237247 0.337560 0.159976
0.306706 0.357702 0.158999
0.384192 0.379095 0.156741
0.465003 0.400183 0.153353
0.554559 0.430060 0.149935
0.621668 0.446082 0.145052
0.679805 0.458198 0.142367
0.730526 0.467170 0.142123
0.775906 0.473854 0.144289
0.817807 0.479896 0.148959
0.850340 0.481209 0.159335
0.881224 0.483345 0.171328
0.910948 0.486275 0.184482
0.939178 0.490089 0.199161
0.965484 0.494362 0.215610
0.989288 0.499245 0.233799
1.000000 0.504875 0.254002
1.000000 0.511711 0.276341
1.000000 0.519982 0.301244
1.000000 0.530419 0.328832
1.000000 0.544030 0.359533
1.000000 0.561700 0.393988
0.000000 0.332708 0.160494
0.000000 0.333501 0.159762
0.000000 0.334569 0.158572
0.000000 0.337102 0.156008
0.000000 0.341009 0.152499
0.000000 0.346227 0.148196
0.000000 0.350317 0.151644
0.016907 0.355047 0.155795
0.118318 0.360174 0.160616
0.175967 0.365576 0.166232
0.232822 0.375189 0.170413
0.300938 0.395850 0.169802
0.376104 0.417823 0.168154
0.456214 0.441688 0.165164
0.534325 0.465309 0.161929
0.617121 0.497536 0.159457
0.676509 0.512016 0.156680
0.727138 0.521233 0.156893
0.772580 0.528222 0.159426
0.814572 0.534203 0.164736
0.853696 0.539300 0.172122
0.887388 0.541619 0.183169
0.916228 0.542321 0.197330
0.943450 0.543633 0.212985
0.968719 0.545464 0.229984
0.991485 0.548028 0.248844
1.000000 0.551324 0.269505
1.000000 0.555810 0.292546
1.000000 0.561730 0.317754
1.000000 0.569787 0.345647
1.000000 0.580896 0.376715
1.000000 0.596185 0.411658
0.000000 0.379675 0.169558
0.000000 0.380529 0.168826
0.000000 0.381659 0.167636
0.000000 0.384100 0.165194
0.000000 0.387976 0.161654
0.000000 0.393317 0.156985
0.000000 0.398108 0.157809
0.000000 0.402991 0.161929
0.103792 0.408240 0.166506
0.171786 0.413733 0.172091
0.231449 0.419532 0.178103
0.295933 0.434455 0.180545
0.368994 0.456641 0.179355
0.446540 0.480293 0.177310
0.524132 0.505974 0.174472
0.597101 0.531518 0.171725
0.671077 0.561730 0.172641
0.723354 0.573266 0.173190
0.768978 0.580407 0.176272
0.811093 0.586236 0.182040
0.850370 0.590997 0.189914
0.887175 0.594690 0.200443
0.921538 0.597436 0.212802
0.947723 0.596338 0.229068
0.971832 0.595880 0.246830
0.993469 0.596033 0.266270
1.000000 0.597040 0.287419
1.000000 0.599237 0.310674
1.000000 0.602899 0.336584
1.000000 0.608728 0.364721
1.000000 0.617639 0.396185
1.000000 0.630701 0.431525
0.000000 0.428443 0.178225
0.000000 0.429236 0.177401
0.000000 0.430396 0.176516
0.000000 0.432807 0.174136
0.000000 0.436713 0.170657
0.000000 0.441871 0.166140
0.000000 0.447517 0.163729
0.000000 0.452155 0.167758
0.080049 0.457374 0.172396
0.164767 0.462806 0.177615
0.230442 0.468727 0.183536
0.292119 0.474556 0.190341
0.362890 0.494881 0.190463
0.437842 0.518181 0.189517
0.513024 0.543328 0.187594
0.585168 0.569879 0.185672
0.651850 0.594720 0.185336
0.717525 0.620874 0.191226
0.765133 0.630335 0.194858
0.807370 0.636103 0.200992
0.846830 0.640436 0.209445
0.883726 0.643641 0.220157
0.918181 0.645624 0.233280
0.949523 0.646448 0.248569
0.974792 0.644923 0.266300
0.995209 0.642847 0.286320
1.000000 0.641627 0.307927
1.000000 0.641657 0.331670
1.000000 0.643153 0.357610
1.000000 0.646937 0.386297
1.000000 0.653834 0.417823
1.000000 0.664790 0.453498
0.000000 0.478218 0.186831
0.000000 0.478950 0.186069
0.000000 0.480049 0.184939
0.000000 0.482307 0.182895
0.000000 0.486061 0.179538
0.000000 0.490974 0.175021
0.000000 0.497292 0.169955
0.000000 0.501854 0.173495
0.007630 0.506920 0.178103
0.154757 0.512444 0.183413
0.227695 0.518059 0.189334
0.293370 0.523949 0.196017
0.357794 0.533135 0.201968
0.431098 0.556176 0.201633
0.503563 0.580224 0.201083
0.573053 0.605219 0.200839
0.639551 0.631037 0.201358
0.700740 0.654353 0.203922
0.759792 0.676081 0.214786
0.803525 0.683284 0.221775
0.843076 0.687373 0.230838
0.880125 0.689967 0.242130
0.914702 0.691279 0.255650
0.946014 0.691371 0.271305
0.973510 0.690181 0.289311
0.996643 0.688075 0.309392
1.000000 0.684810 0.331243
1.000000 0.682734 0.355230
1.000000 0.682277 0.381323
1.000000 0.684138 0.410163
1.000000 0.689113 0.441932
1.000000 0.698116 0.477913
0.000000 0.529351 0.195621
0.000000 0.530175 0.194827
0.000000 0.531151 0.193790
0.000000 0.533440 0.191867
0.000000 0.536919 0.188388
0.000000 0.541741 0.184360
0.000000 0.547723 0.178958
0.000000 0.553155 0.179446
0.000000 0.558129 0.184085
0.141726 0.563470 0.189425
0.224491 0.568994 0.195285
0.294438 0.574792 0.202060
0.359503 0.580774 0.209812
0.426398 0.594873 0.214176
0.496437 0.617548 0.215030
0.563378 0.640772 0.216556
0.627344 0.664729 0.218601
0.688533 0.688746 0.221988
0.745357 0.709834 0.228153
0.798978 0.726986 0.244205
0.839292 0.731441 0.254032
0.876463 0.733639 0.265812
0.911070 0.734340 0.279698
0.942382 0.733639 0.295995
0.969787 0.731655 0.314366
0.993042 0.728786 0.334783
1.000000 0.725521 0.357244
1.000000 0.722042 0.381689
1.000000 0.719844 0.407904
1.000000 0.719997 0.436835
1.000000 0.723232 0.468727
1.000000 0.730312 0.504509
0.000000 0.582574 0.204807
0.000000 0.583307 0.204166
0.000000 0.584283 0.203128
0.000000 0.586450 0.201144
0.000000 0.589776 0.198001
0.000000 0.594293 0.193790
0.000000 0.599878 0.188815
0.000000 0.605768 0.186069
0.000000 0.610468 0.190677
0.126375 0.615320 0.196201
0.220737 0.620478 0.202335
0.295537 0.625605 0.209445
0.362921 0.630976 0.217319
0.425360 0.636622 0.226383
0.491341 0.654749 0.230106
0.555810 0.676295 0.232853
0.617487 0.698360 0.236790
0.676539 0.720333 0.242008
0.733394 0.742000 0.248814
0.786618 0.760189 0.258244
0.835660 0.772671 0.279057
0.872801 0.774228 0.291356
0.907408 0.774411 0.305882
0.938659 0.772976 0.322545
0.965942 0.770321 0.341375
0.989014 0.766690 0.362249
1.000000 0.762570 0.385138
1.000000 0.758663 0.410254
1.000000 0.755489 0.437324
1.000000 0.754177 0.466163
1.000000 0.755795 0.497902
1.000000 0.760830 0.532647
0.000000 0.636103 0.214939
0.000000 0.636683 0.214237
0.000000 0.637629 0.213230
0.000000 0.639582 0.211154
0.000000 0.642542 0.208255
0.000000 0.646571 0.204471
0.000000 0.651575 0.199680
0.000000 0.657465 0.194827
0.000000 0.661738 0.199008
0.107942 0.666072 0.204776
0.217166 0.670527 0.211154
0.296483 0.675044 0.218601
0.365972 0.679713 0.226871
0.429328 0.684657 0.236362
0.487861 0.691646 0.246189
0.550256 0.711452 0.250523
0.609796 0.731441 0.256046
0.666682 0.751400 0.262974
0.721523 0.770932 0.271275
0.774838 0.789609 0.281437
0.825071 0.804593 0.294377
0.869932 0.812284 0.319158
0.903838 0.811124 0.333684
0.934966 0.809110 0.350774
0.962097 0.805783 0.370031
0.984894 0.801572 0.391363
1.000000 0.796780 0.414832
1.000000 0.792081 0.440406
1.000000 0.788266 0.468025
1.000000 0.786099 0.497749
1.000000 0.786160 0.528740
1.000000 0.789364 0.562219
0.000000 0.688167 0.225834
0.000000 0.688777 0.225315
0.000000 0.689540 0.224308
0.000000 0.691249 0.222446
0.000000 0.693874 0.219730
0.000000 0.697444 0.216281
0.000000 0.701747 0.212406
0.000000 0.706905 0.208225
0.000000 0.711360 0.209476
0.088869 0.715053 0.215549
0.214908 0.718868 0.222446
0.298589 0.722713 0.230259
0.369787 0.726680 0.239078
0.433631 0.730861 0.248966
0.490944 0.735500 0.260105
0.546746 0.745968 0.269688
0.604059 0.763882 0.276738
0.659022 0.781765 0.285100
0.711788 0.799161 0.295079
0.763088 0.815671 0.306676
0.813596 0.831022 0.320256
0.861448 0.842588 0.336126
0.901518 0.845792 0.364080
0.931334 0.842100 0.380896
0.958221 0.838254 0.400519
0.980743 0.833402 0.422309
0.998688 0.828061 0.446143
1.000000 0.822751 0.472175
1.000000 0.818204 0.499886
1.000000 0.815091 0.529076
1.000000 0.814084 0.559869
1.000000 0.815824 0.592676
0.000000 0.738338 0.238102
0.000000 0.738857 0.237552
0.000000 0.739590 0.236912
0.000000 0.740963 0.235233
0.000000 0.743282 0.232944
0.000000 0.746304 0.229923
0.000000 0.750027 0.226810
0.000000 0.754330 0.223667
0.000000 0.758816 0.222904
0.075227 0.761807 0.229282
0.216037 0.764920 0.236606
0.302251 0.768063 0.244907
0.374578 0.771298 0.254002
0.438453 0.774716 0.264439
0.495460 0.778531 0.276127
0.547295 0.782773 0.289067
0.600580 0.795499 0.298955
0.653437 0.811246 0.308873
0.704311 0.826413 0.320439
0.753628 0.840848 0.333471
0.801999 0.854154 0.348241
0.849973 0.866148 0.364813
0.895140 0.874510 0.383703
0.929412 0.873716 0.414038
0.954345 0.867796 0.432502
0.976501 0.862486 0.454688
0.994049 0.856626 0.478981
1.000000 0.850675 0.504692
1.000000 0.845365 0.531914
1.000000 0.841428 0.560418
1.000000 0.839445 0.590356
1.000000 0.840055 0.622522
0.000000 0.786191 0.252201
0.000000 0.786618 0.251804
0.000000 0.787167 0.251011
0.000000 0.788418 0.249882
0.000000 0.790280 0.247990
0.000000 0.792813 0.245640
0.000000 0.795834 0.243351
0.000000 0.799435 0.241245
0.000000 0.803372 0.240452
0.078340 0.805966 0.246281
0.222202 0.808347 0.253941
0.309117 0.810697 0.262699
0.381598 0.813138 0.272282
0.444648 0.815793 0.283207
0.500938 0.818784 0.295415
0.552178 0.822049 0.308904
0.599512 0.825956 0.323644
0.650324 0.839536 0.334813
0.699184 0.852567 0.347509
0.746517 0.864897 0.361913
0.792691 0.876249 0.377874
0.838193 0.886442 0.395544
0.883238 0.895293 0.414893
0.924743 0.900755 0.436408
0.952483 0.896666 0.468879
0.972290 0.888975 0.488136
0.989441 0.882536 0.511894
1.000000 0.875975 0.537224
1.000000 0.869993 0.563714
1.000000 0.865293 0.591424
1.000000 0.862455 0.620600
1.000000 0.862089 0.651728
0.000000 0.831144 0.268101
0.000000 0.831479 0.267796
0.000000 0.831937 0.267369
0.000000 0.832914 0.266361
0.000000 0.834409 0.264866
0.000000 0.836423 0.263462
0.000000 0.838834 0.262242
0.000000 0.841581 0.261570
0.000000 0.844602 0.262272
0.102846 0.846952 0.267247
0.235233 0.848600 0.275120
0.321019 0.850217 0.284306
0.391669 0.851896 0.294408
0.453132 0.853758 0.305852
0.508232 0.855863 0.318608
0.558495 0.858244 0.332555
0.604730 0.860868 0.347997
0.649714 0.866545 0.363317
0.696498 0.877531 0.377234
0.741634 0.887846 0.392767
0.785580 0.897276 0.409766
0.828611 0.905669 0.428473
0.870970 0.912902 0.448646
0.912169 0.918883 0.470436
0.949126 0.921904 0.493751
0.970306 0.915160 0.526024
0.984955 0.906126 0.544915
0.997162 0.898894 0.569360
1.000000 0.892302 0.595148
1.000000 0.886900 0.621973
1.000000 0.883299 0.650202
1.000000 0.882017 0.680293
0.000000 0.872831 0.286351
0.000000 0.873075 0.286137
0.000000 0.873442 0.285801
0.000000 0.874174 0.285283
0.000000 0.875303 0.284489
0.000000 0.876799 0.283879
0.000000 0.878569 0.283665
0.000000 0.880491 0.284428
0.000000 0.882567 0.286961
0.142367 0.884459 0.292180
0.256687 0.885374 0.300542
0.337713 0.886259 0.310094
0.405432 0.887236 0.320745
0.464881 0.888334 0.332708
0.518120 0.889647 0.345861
0.566857 0.891142 0.360388
0.611872 0.892821 0.376318
0.653773 0.894682 0.393530
0.696437 0.901122 0.409888
0.739284 0.909453 0.426429
0.780880 0.917052 0.444465
0.821408 0.923674 0.464057
0.860929 0.929320 0.484932
0.899229 0.933867 0.506554
0.935760 0.937438 0.528954
0.967620 0.938354 0.552483
0.982422 0.929625 0.583612
0.992462 0.919921 0.602045
1.000000 0.912444 0.625818
1.000000 0.906432 0.651850
1.000000 0.902098 0.678981
1.000000 0.899992 0.707942
0.000000 0.910796 0.307225
0.000000 0.910948 0.307134
0.000000 0.911192 0.306950
0.000000 0.911711 0.306737
0.000000 0.912474 0.306767
0.000000 0.913481 0.307012
0.000000 0.914611 0.308141
0.000000 0.915801 0.310338
0.000000 0.916991 0.314763
0.190860 0.918059 0.321874
0.286748 0.918456 0.330755
0.360876 0.918669 0.340673
0.423957 0.919005 0.351659
0.480140 0.919402 0.364111
0.531060 0.919951 0.377813
0.577752 0.920623 0.392798
0.621118 0.921447 0.409186
0.661463 0.922393 0.426947
0.699458 0.923400 0.446235
0.739590 0.929564 0.463783
0.778561 0.935302 0.482582
0.816403 0.940276 0.502312
0.853147 0.944335 0.522789
0.888457 0.947478 0.544030
0.921965 0.949798 0.566003
0.953307 0.951263 0.588342
0.979736 0.950439 0.611383
0.989044 0.940581 0.640558
0.995605 0.931060 0.658167
1.000000 0.923949 0.680690
1.000000 0.918975 0.706844
1.000000 0.916106 0.734585
0.000000 0.944823 0.330663
0.000000 0.944945 0.330755
0.000000 0.945068 0.330846
0.000000 0.945342 0.331121
0.000000 0.945800 0.331823
0.000000 0.946288 0.333165
0.000000 0.946838 0.335576
0.000000 0.947295 0.339422
0.117311 0.947601 0.345647
0.242313 0.947723 0.355108
0.325353 0.947539 0.366217
0.390539 0.947204 0.376471
0.448005 0.946899 0.388037
0.499977 0.946654 0.400916
0.547601 0.946502 0.414954
