其他预设/【233】日式怀旧街道调色预设208款/1.3D LUT预设（视频调色-PR-AE-PS-FCPX-达芬奇用）/4.富士胶片风日式城市街拍预设 (自动曝光预设)/JA – Gritty Contrast 1 (Classic Chrome) (Auto).cube
# Created by Adobe Lightroom plugin Export LUT (1.17.0)
# www.johnrellis.com/lightroom/exportlut.htm
# Preset: JA – Gritty Contrast 1 (Classic Chrome) (Auto)
# Color profile: /Library/Application Support/Adobe/Color/Profiles/Recommended/AdobeRGB1998.icc
LUT_3D_SIZE 5
DOMAIN_MIN 0.000000 0.000000 0.000000
DOMAIN_MAX 0.903226 0.903226 0.903226
0.112947 0.115755 0.117494
0.206607 0.111025 0.121248
0.581994 0.126650 0.101228
0.895201 0.202762 0.091920
1.000000 0.338964 0.290654
0.127932 0.170504 0.120394
0.207645 0.176974 0.127871
0.584436 0.266331 0.090425
0.893187 0.310704 0.097017
1.000000 0.404883 0.319158
0.240238 0.402777 0.090242
0.338262 0.404974 0.075776
0.615534 0.464363 0.087831
0.894347 0.515923 0.152651
1.000000 0.557061 0.396460
0.411536 0.714900 0.000000
0.496132 0.706966 0.000000
0.709468 0.713771 0.000000
0.893553 0.690242 0.290318
0.993652 0.722225 0.519280
0.566583 0.914916 0.233371
0.615717 0.911528 0.194461
0.766354 0.899382 0.199496
0.936706 0.889647 0.466163
0.981170 0.853117 0.675898
0.112856 0.128603 0.205570
0.176761 0.134157 0.193545
0.561059 0.000000 0.181643
0.880369 0.204105 0.185458
1.000000 0.354894 0.291539
0.110262 0.189700 0.204288
0.194705 0.198489 0.201297
0.568750 0.241947 0.192325
0.880583 0.310277 0.197604
1.000000 0.412573 0.315496
0.107362 0.447303 0.220615
0.294835 0.447242 0.187320
0.596582 0.466712 0.220066
0.881834 0.519280 0.259342
1.000000 0.562890 0.398688
0.345190 0.737819 0.218387
0.450721 0.729641 0.189456
0.692012 0.723110 0.200992
0.885100 0.702022 0.381201
0.992737 0.724666 0.520104
0.559045 0.917327 0.375525
0.602869 0.914458 0.346715
0.751888 0.904601 0.296910
0.930846 0.892790 0.490944
0.980621 0.855009 0.677699
0.000000 0.189578 0.620783
0.091585 0.217716 0.600275
0.458137 0.169863 0.502495
0.834623 0.266514 0.511467
0.994018 0.492683 0.560113
0.000000 0.333074 0.611719
0.094697 0.311528 0.608362
0.476387 0.274662 0.511650
0.840757 0.368688 0.519249
0.993042 0.526635 0.565362
0.000000 0.545800 0.595758
0.221012 0.547906 0.587518
0.539574 0.532769 0.531823
0.848997 0.585534 0.559258
0.987030 0.633173 0.593835
0.323064 0.785489 0.605951
0.421180 0.780636 0.594995
0.620539 0.756039 0.528740
0.856901 0.748104 0.603815
0.974975 0.768399 0.657130
0.603693 0.919036 0.653071
0.639033 0.916960 0.650813
0.715633 0.912200 0.579248
0.897002 0.899596 0.615167
0.971710 0.870634 0.733547
0.000000 0.386816 0.863127
0.207187 0.412848 0.860899
0.565759 0.518669 0.833188
0.730068 0.412818 0.773739
0.943969 0.636194 0.779690
0.000000 0.465461 0.859586
0.316625 0.494148 0.858549
0.608576 0.588037 0.833829
0.736721 0.472786 0.772793
0.943938 0.660304 0.781949
0.294041 0.620325 0.850889
0.425299 0.639887 0.849271
0.667689 0.700740 0.843778
0.763485 0.627100 0.776272
0.947814 0.733516 0.792844
0.445350 0.790158 0.838773
0.524285 0.795529 0.836790
0.690700 0.810269 0.830930
0.806546 0.793790 0.789639
0.952758 0.821317 0.806119
0.666377 0.922148 0.843412
0.697871 0.920378 0.842802
0.771481 0.917205 0.837003
0.844785 0.912840 0.790188
0.954528 0.898619 0.830777
0.557397 0.635554 0.941100
0.558495 0.639948 0.940764
0.732357 0.741787 0.932708
0.815702 0.765713 0.927672
0.897307 0.731258 0.922850
0.564172 0.655238 0.940307
0.564233 0.657465 0.940093
0.737850 0.752560 0.932616
0.826108 0.785061 0.927367
0.900145 0.748318 0.922850
0.583124 0.709041 0.938109
0.583062 0.708614 0.938140
0.738460 0.775265 0.932799
0.853086 0.834592 0.927153
0.908232 0.794430 0.923186
0.616480 0.796048 0.933928
0.649439 0.803189 0.933227
0.744472 0.827054 0.931060
0.862760 0.869780 0.928801
0.920684 0.857481 0.924712
0.700282 0.893095 0.927642
0.722560 0.895750 0.927337
0.788846 0.904479 0.926635
0.871489 0.917937 0.927092
0.938109 0.931609 0.929351
