其他预设/【232】美食博客调色预设124款/3.XMP格式(PS 19LR用)预设/0 The Cheesecake Factory_.xmp
<x:xmpmeta xmlns:x="adobe:ns:meta/" x:xmptk="Adobe XMP Core 5.6-c140 79.160451, 2017/05/06-01:08:21        ">
 <rdf:RDF xmlns:rdf="http://www.w3.org/1999/02/22-rdf-syntax-ns#">
  <rdf:Description rdf:about=""
    xmlns:crs="http://ns.adobe.com/camera-raw-settings/1.0/"
   crs:PresetType="Normal"
   crs:Cluster=""
   crs:UUID="E8A8DB265E00A638F057BEC7864BA37A"
   crs:SupportsAmount="False"
   crs:SupportsColor="True"
   crs:SupportsMonochrome="True"
   crs:SupportsHighDynamicRange="True"
   crs:SupportsNormalDynamicRange="True"
   crs:SupportsSceneReferred="True"
   crs:SupportsOutputReferred="True"
   crs:CameraModelRestriction=""
   crs:Copyright=""
   crs:ContactInfo=""
   crs:Version="10.5"
   crs:ProcessVersion="6.7"
   crs:WhiteBalance="As Shot"
   crs:Saturation="0"
   crs:Sharpness="0"
   crs:LuminanceSmoothing="0"
   crs:ColorNoiseReduction="0"
   crs:VignetteAmount="0"
   crs:ShadowTint="0"
   crs:RedHue="0"
   crs:RedSaturation="0"
   crs:GreenHue="0"
   crs:GreenSaturation="0"
   crs:BlueHue="0"
   crs:BlueSaturation="0"
   crs:Vibrance="-10"
   crs:HueAdjustmentRed="+5"
   crs:HueAdjustmentOrange="+5"
   crs:HueAdjustmentYellow="+5"
   crs:HueAdjustmentGreen="+5"
   crs:HueAdjustmentAqua="+5"
   crs:HueAdjustmentBlue="-10"
   crs:HueAdjustmentPurple="+5"
   crs:HueAdjustmentMagenta="+5"
   crs:SaturationAdjustmentRed="-5"
   crs:SaturationAdjustmentOrange="+5"
   crs:SaturationAdjustmentYellow="-5"
   crs:SaturationAdjustmentGreen="-10"
   crs:SaturationAdjustmentAqua="-10"
   crs:SaturationAdjustmentBlue="-15"
   crs:SaturationAdjustmentPurple="-10"
   crs:SaturationAdjustmentMagenta="-10"
   crs:LuminanceAdjustmentRed="+10"
   crs:LuminanceAdjustmentOrange="+5"
   crs:LuminanceAdjustmentYellow="+5"
   crs:LuminanceAdjustmentGreen="-5"
   crs:LuminanceAdjustmentAqua="+5"
   crs:LuminanceAdjustmentBlue="+5"
   crs:LuminanceAdjustmentPurple="-5"
   crs:LuminanceAdjustmentMagenta="+5"
   crs:SplitToningShadowHue="50"
   crs:SplitToningShadowSaturation="5"
   crs:SplitToningHighlightHue="50"
   crs:SplitToningHighlightSaturation="5"
   crs:SplitToningBalance="0"
   crs:ParametricShadows="0"
   crs:ParametricDarks="0"
   crs:ParametricLights="0"
   crs:ParametricHighlights="0"
   crs:ParametricShadowSplit="25"
   crs:ParametricMidtoneSplit="50"
   crs:ParametricHighlightSplit="75"
   crs:SharpenRadius="+1.0"
   crs:SharpenDetail="25"
   crs:SharpenEdgeMasking="0"
   crs:PostCropVignetteAmount="-20"
   crs:PostCropVignetteMidpoint="40"
   crs:PostCropVignetteFeather="50"
   crs:PostCropVignetteRoundness="0"
   crs:PostCropVignetteStyle="1"
   crs:PostCropVignetteHighlightContrast="0"
   crs:GrainAmount="0"
   crs:LensProfileEnable="0"
   crs:LensManualDistortionAmount="0"
   crs:PerspectiveVertical="0"
   crs:PerspectiveHorizontal="0"
   crs:PerspectiveRotate="0.0"
   crs:PerspectiveScale="100"
   crs:PerspectiveAspect="0"
   crs:PerspectiveUpright="0"
   crs:PerspectiveX="0.00"
   crs:PerspectiveY="0.00"
   crs:AutoLateralCA="0"
   crs:Exposure2012="+0.75"
   crs:Contrast2012="0"
   crs:Highlights2012="-10"
   crs:Shadows2012="+10"
   crs:Whites2012="-10"
   crs:Blacks2012="-40"
   crs:Clarity2012="0"
   crs:DefringePurpleAmount="0"
   crs:DefringePurpleHueLo="30"
   crs:DefringePurpleHueHi="70"
   crs:DefringeGreenAmount="0"
   crs:DefringeGreenHueLo="40"
   crs:DefringeGreenHueHi="60"
   crs:Dehaze="0"
   crs:ConvertToGrayscale="False"
   crs:OverrideLookVignette="True"
   crs:ToneCurveName2012="Custom"
   crs:CameraProfile="Embedded"
   crs:LensProfileSetup="LensDefaults"
   crs:HasSettings="True">
   <crs:Name>
    <rdf:Alt>
     <rdf:li xml:lang="x-default">0 The Cheesecake Factory </rdf:li>
    </rdf:Alt>
   </crs:Name>
   <crs:ShortName>
    <rdf:Alt>
     <rdf:li xml:lang="x-default"/>
    </rdf:Alt>
   </crs:ShortName>
   <crs:SortName>
    <rdf:Alt>
     <rdf:li xml:lang="x-default"/>
    </rdf:Alt>
   </crs:SortName>
   <crs:Group>
    <rdf:Alt>
     <rdf:li xml:lang="x-default">美食博客调色[sujinyinxiang.taobao.com]</rdf:li>
    </rdf:Alt>
   </crs:Group>
   <crs:Description>
    <rdf:Alt>
     <rdf:li xml:lang="x-default"/>
    </rdf:Alt>
   </crs:Description>
   <crs:ToneCurvePV2012>
    <rdf:Seq>
     <rdf:li>0, 39</rdf:li>
     <rdf:li>85, 103</rdf:li>
     <rdf:li>255, 250</rdf:li>
    </rdf:Seq>
   </crs:ToneCurvePV2012>
   <crs:ToneCurvePV2012Red>
    <rdf:Seq>
     <rdf:li>0, 8</rdf:li>
     <rdf:li>41, 46</rdf:li>
     <rdf:li>158, 157</rdf:li>
     <rdf:li>255, 252</rdf:li>
    </rdf:Seq>
   </crs:ToneCurvePV2012Red>
   <crs:ToneCurvePV2012Green>
    <rdf:Seq>
     <rdf:li>0, 9</rdf:li>
     <rdf:li>51, 54</rdf:li>
     <rdf:li>151, 149</rdf:li>
     <rdf:li>255, 255</rdf:li>
    </rdf:Seq>
   </crs:ToneCurvePV2012Green>
   <crs:ToneCurvePV2012Blue>
    <rdf:Seq>
     <rdf:li>0, 13</rdf:li>
     <rdf:li>49, 52</rdf:li>
     <rdf:li>171, 170</rdf:li>
     <rdf:li>255, 248</rdf:li>
    </rdf:Seq>
   </crs:ToneCurvePV2012Blue>
   <crs:Look
    crs:Name=""/>
  </rdf:Description>
 </rdf:RDF>
</x:xmpmeta>
