其他预设/【237】莫兰迪灰色调LR预设合集/Clean/Desktop Lightroom/Clean no.2.lrtemplate
s = {
	id = "170D15C3-D0F4-4C3A-B99D-385198E56D5D",
	internalName = "Clean no.2",
	title = "Clean no.2",
	type = "Develop",
	value = {
		settings = {
			AutoLateralCA = 1,
			Blacks2012 = -33,
			BlueHue = -8,
			BlueSaturation = 11,
			CameraProfile = "Adobe Standard",
			ChromaticAberrationB = 0,
			ChromaticAberrationR = 0,
			Clarity2012 = -12,
			ColorNoiseReduction = 48,
			ColorNoiseReductionDetail = 50,
			ColorNoiseReductionSmoothness = 50,
			Contrast2012 = -23,
			ConvertToGrayscale = false,
			CropConstrainToWarp = 0,
			Defringe = 0,
			DefringeGreenAmount = 0,
			DefringeGreenHueHi = 60,
			DefringeGreenHueLo = 40,
			DefringePurpleAmount = 0,
			DefringePurpleHueHi = 70,
			DefringePurpleHueLo = 30,
			Dehaze = 0,
			EnableCalibration = true,
			EnableColorAdjustments = true,
			EnableDetail = true,
			EnableEffects = true,
			EnableLensCorrections = true,
			EnableSplitToning = true,
			Exposure2012 = 0,
			GrainAmount = 0,
			GrainFrequency = 50,
			GrainSize = 25,
			GreenHue = 5,
			GreenSaturation = -8,
			Highlights2012 = -29,
			HueAdjustmentAqua = -15,
			HueAdjustmentBlue = -2,
			HueAdjustmentGreen = 5,
			HueAdjustmentMagenta = -8,
			HueAdjustmentOrange = -10,
			HueAdjustmentPurple = -14,
			HueAdjustmentRed = 5,
			HueAdjustmentYellow = -8,
			LensManualDistortionAmount = 0,
			LuminanceAdjustmentAqua = -7,
			LuminanceAdjustmentBlue = 5,
			LuminanceAdjustmentGreen = 7,
			LuminanceAdjustmentMagenta = -5,
			LuminanceAdjustmentOrange = 15,
			LuminanceAdjustmentPurple = 3,
			LuminanceAdjustmentRed = 8,
			LuminanceAdjustmentYellow = -8,
			LuminanceNoiseReductionContrast = 0,
			LuminanceNoiseReductionDetail = 50,
			LuminanceSmoothing = 30,
			ParametricDarks = 16,
			ParametricHighlightSplit = 75,
			ParametricHighlights = 0,
			ParametricLights = 0,
			ParametricMidtoneSplit = 50,
			ParametricShadowSplit = 25,
			ParametricShadows = -16,
			PostCropVignetteAmount = 0,
			PostCropVignetteFeather = 50,
			PostCropVignetteHighlightContrast = 0,
			PostCropVignetteMidpoint = 50,
			PostCropVignetteRoundness = 0,
			PostCropVignetteStyle = 1,
			ProcessVersion = "10.0",
			RedHue = 5,
			RedSaturation = -17,
			Saturation = -18,
			SaturationAdjustmentAqua = 2,
			SaturationAdjustmentBlue = 0,
			SaturationAdjustmentGreen = -5,
			SaturationAdjustmentMagenta = 2,
			SaturationAdjustmentOrange = 5,
			SaturationAdjustmentPurple = 4,
			SaturationAdjustmentRed = -8,
			SaturationAdjustmentYellow = 10,
			ShadowTint = 0,
			Shadows2012 = 56,
			SharpenDetail = 20,
			SharpenEdgeMasking = 0,
			SharpenRadius = 1.1,
			Sharpness = 25,
			SplitToningBalance = -5,
			SplitToningHighlightHue = 222,
			SplitToningHighlightSaturation = 15,
			SplitToningShadowHue = 0,
			SplitToningShadowSaturation = 0,
			Temperature = 5519,
			Tint = 19,
			ToneCurveName2012 = "Custom",
			ToneCurvePV2012 = {
				1,
				0,
				42,
				40,
				72,
				71,
				119,
				128,
				178,
				188,
				216,
				219,
				255,
				255,
			},
			ToneCurvePV2012Blue = {
				0,
				0,
				255,
				255,
			},
			ToneCurvePV2012Green = {
				0,
				0,
				255,
				255,
			},
			ToneCurvePV2012Red = {
				0,
				0,
				255,
				255,
			},
			Vibrance = 12,
			VignetteAmount = -55,
			VignetteMidpoint = 50,
			WhiteBalance = "Custom",
			Whites2012 = -13,
		},
		uuid = "1D475E51-9AFB-4151-B9C9-35E48E4AB304",
	},
	version = 0,
}
