其他预设/【234】港风调色预设/1.3D LUT预设（视频调色-PR-AE-PS-FCPX-达芬奇用）/10.港风色调 __.cube
# Created by Adobe Lightroom plugin Export LUT (1.17.0)
# www.johnrellis.com/lightroom/exportlut.htm
# Preset: 10.港风色调 [素锦印象]
# Color profile: /Library/Application Support/Adobe/Color/Profiles/Recommended/AdobeRGB1998.icc
LUT_3D_SIZE 8
DOMAIN_MIN 0.000000 0.000000 0.000000
DOMAIN_MAX 0.903226 0.903226 0.903226
0.106844 0.104646 0.094331
0.114473 0.105501 0.095033
0.156130 0.106600 0.095857
0.276585 0.105409 0.094209
0.474922 0.094514 0.083284
0.707088 0.078523 0.065248
0.882231 0.128450 0.113985
0.966461 0.244785 0.229892
0.108492 0.113832 0.095460
0.117647 0.114534 0.096651
0.161166 0.117281 0.096101
0.277379 0.126040 0.094575
0.469398 0.133333 0.082521
0.689998 0.138430 0.064698
0.867918 0.168429 0.107362
0.961608 0.260227 0.224430
0.113741 0.167056 0.097841
0.125856 0.168978 0.098634
0.174441 0.167758 0.104891
0.322087 0.203342 0.092958
0.533501 0.239261 0.068574
0.739193 0.264591 0.069551
0.900542 0.301122 0.158846
0.969726 0.369177 0.289006
0.118105 0.316686 0.089662
0.143832 0.315526 0.090425
0.209964 0.320623 0.092042
0.353643 0.336187 0.118288
0.591821 0.399329 0.104494
0.819150 0.435309 0.121553
0.917723 0.443763 0.228336
0.968200 0.484413 0.359136
0.131655 0.538567 0.061402
0.171450 0.537346 0.063600
0.265080 0.540215 0.073884
0.402472 0.545617 0.107607
0.551781 0.523613 0.173373
0.722286 0.532006 0.213626
0.904509 0.574853 0.298314
0.962768 0.606317 0.452796
0.210117 0.729397 0.145937
0.249271 0.740871 0.159854
0.329503 0.737850 0.168093
0.433112 0.734920 0.184298
0.584894 0.716304 0.231724
0.728298 0.693629 0.305180
0.841154 0.673579 0.402930
0.941070 0.712825 0.540307
0.366735 0.862943 0.330175
0.384771 0.863462 0.335485
0.428412 0.858885 0.336309
0.499702 0.853849 0.346777
0.581323 0.846250 0.358038
0.727657 0.827848 0.423285
0.843015 0.811185 0.496040
0.893492 0.775448 0.603143
0.557794 0.917479 0.553887
0.563378 0.916869 0.554192
0.586114 0.915160 0.559777
0.629023 0.912963 0.577111
0.658808 0.905669 0.561120
0.736477 0.899535 0.601526
0.832334 0.888823 0.672663
0.897520 0.880095 0.730739
0.107698 0.105867 0.097749
0.112856 0.106142 0.099825
0.148013 0.108064 0.105257
0.255833 0.104372 0.110018
0.444221 0.079500 0.107881
0.661341 0.027771 0.105959
0.849393 0.100862 0.138613
0.953277 0.227359 0.234104
0.109163 0.113100 0.101442
0.117556 0.115236 0.104067
0.156954 0.119020 0.107332
0.266728 0.122377 0.110079
0.450965 0.120027 0.106996
0.659388 0.119112 0.105653
0.839475 0.149477 0.134829
0.947692 0.242008 0.227176
0.113252 0.162997 0.107637
0.127077 0.165743 0.110811
0.173556 0.167514 0.116793
0.315007 0.194766 0.108736
0.503197 0.221836 0.103609
0.698390 0.244663 0.112123
0.865660 0.277226 0.165621
0.956542 0.346807 0.278080
0.104311 0.302525 0.105257
0.136812 0.304234 0.111330
0.205570 0.313817 0.113344
0.326818 0.311528 0.135714
0.537102 0.360998 0.127443
0.759518 0.398016 0.133852
0.887694 0.416449 0.214237
0.957855 0.462013 0.338903
0.119173 0.529534 0.111269
0.161776 0.525963 0.111910
0.255314 0.523949 0.116609
0.379065 0.520531 0.134768
0.521141 0.495033 0.184787
0.699214 0.513573 0.218753
0.892760 0.562799 0.298528
0.957427 0.595117 0.443244
0.201144 0.713069 0.174777
0.231937 0.713069 0.177676
0.313481 0.711421 0.184543
0.419165 0.713405 0.200504
0.570397 0.701961 0.244877
0.719173 0.685542 0.318425
0.836210 0.669764 0.409308
0.937896 0.707881 0.538537
0.350713 0.850797 0.328466
0.362249 0.848264 0.325444
0.410925 0.845274 0.329564
0.489204 0.843626 0.346502
0.575616 0.839109 0.364294
0.719081 0.820676 0.421912
0.833677 0.801755 0.486366
0.888151 0.765927 0.586084
0.548760 0.914275 0.549767
0.557153 0.914000 0.553155
0.581689 0.912505 0.560357
0.626032 0.910582 0.578882
0.675288 0.906981 0.594629
0.741268 0.900053 0.619867
0.830808 0.887755 0.675227
0.895506 0.877836 0.726162
0.109499 0.108888 0.114046
0.115694 0.109071 0.118746
0.148684 0.111788 0.132448
0.243656 0.111757 0.162509
0.428809 0.000000 0.183474
0.649165 0.000000 0.204501
0.844572 0.126925 0.252842
0.948241 0.279759 0.337896
0.118563 0.121431 0.119661
0.122591 0.121614 0.125460
0.155306 0.123507 0.138369
0.252720 0.124849 0.163943
0.435431 0.068727 0.175998
0.649714 0.090883 0.203525
0.841245 0.162448 0.247654
0.946105 0.295811 0.336706
0.120333 0.163210 0.143038
0.132265 0.166873 0.147250
0.178470 0.175051 0.159396
0.303197 0.187503 0.171084
0.499336 0.208896 0.191684
0.693141 0.237430 0.220249
0.857420 0.288792 0.273808
0.947753 0.378820 0.368597
0.100893 0.314397 0.176028
0.126223 0.318059 0.176730
0.211002 0.328283 0.185092
0.344060 0.330632 0.206912
0.571527 0.375891 0.221805
0.754208 0.401251 0.258274
0.882719 0.436957 0.329442
0.950011 0.497047 0.433967
0.075746 0.533684 0.207889
0.132906 0.534874 0.207340
0.258671 0.535271 0.223209
0.378058 0.540917 0.233066
0.540398 0.516747 0.274754
0.729244 0.539849 0.311254
0.895140 0.580621 0.399664
0.948058 0.618463 0.518181
0.176791 0.717372 0.256138
0.216770 0.717372 0.261692
0.327703 0.712306 0.291051
0.427863 0.709804 0.298619
0.562463 0.699886 0.323247
0.711757 0.681819 0.383093
0.838651 0.679530 0.466621
0.932616 0.726192 0.604578
0.360754 0.854520 0.392737
0.388342 0.851560 0.406348
0.443244 0.845518 0.420630
0.508904 0.841032 0.425727
0.587701 0.835569 0.434913
0.718746 0.821012 0.479988
0.834562 0.806424 0.543328
0.891569 0.782773 0.643854
0.571099 0.911925 0.595789
0.582361 0.910155 0.602533
0.601068 0.908476 0.604364
0.647028 0.907378 0.626520
0.690272 0.903960 0.636927
0.746426 0.899168 0.656397
0.832700 0.887877 0.706020
0.894591 0.879362 0.751980
0.112886 0.116213 0.153719
0.121248 0.117220 0.162631
0.163180 0.115053 0.191684
0.247013 0.111147 0.224887
0.400153 0.114626 0.286687
0.613245 0.049958 0.343420
0.804105 0.108095 0.375402
0.923491 0.282261 0.426154
0.121950 0.133455 0.169223
0.127504 0.132082 0.176669
0.169436 0.129793 0.203220
0.258396 0.127413 0.235904
0.411841 0.145174 0.295018
0.616480 0.117800 0.342199
0.802640 0.155550 0.371130
0.920867 0.321355 0.436469
0.144442 0.178622 0.186618
0.157870 0.183505 0.191989
0.187442 0.190127 0.226413
0.290013 0.196597 0.267002
0.458320 0.230228 0.322393
0.656855 0.249271 0.359625
0.831540 0.328832 0.413153
0.929137 0.431006 0.487373
0.123507 0.307683 0.270665
0.147066 0.312108 0.276036
0.223606 0.326238 0.295140
0.349035 0.344244 0.326879
0.528710 0.369207 0.354101
0.703029 0.402960 0.391394
0.852171 0.455116 0.449958
0.932586 0.529595 0.532952
0.080995 0.552056 0.347021
0.140810 0.549157 0.346532
0.259709 0.546960 0.354101
0.406836 0.549187 0.385626
0.552667 0.536187 0.407813
0.753872 0.572900 0.457893
0.879728 0.605524 0.527123
0.932464 0.648219 0.609857
0.208713 0.734005 0.399176
0.256138 0.741573 0.412116
0.348760 0.733150 0.424231
0.473030 0.725093 0.457862
0.572229 0.721157 0.461799
0.719844 0.696834 0.500389
0.851194 0.706691 0.569757
0.924437 0.754788 0.693996
0.383246 0.855558 0.488930
0.406409 0.854948 0.497383
0.471595 0.851377 0.521294
0.559808 0.845060 0.557000
0.625818 0.839994 0.559594
0.725765 0.828000 0.578698
0.832761 0.810697 0.621057
0.892393 0.799008 0.705104
0.591699 0.912474 0.649378
0.603906 0.911498 0.656550
0.637476 0.907805 0.675013
0.683650 0.903044 0.698939
0.717830 0.900175 0.703273
0.759884 0.897154 0.712093
0.834409 0.887877 0.746304
0.892729 0.880583 0.783047
0.109804 0.129763 0.243046
0.123568 0.130007 0.254063
0.176028 0.126528 0.286778
0.284092 0.099245 0.347387
0.415167 0.091951 0.395941
0.588403 0.155917 0.466285
0.772885 0.237613 0.532372
0.901793 0.359258 0.577783
0.112398 0.147280 0.260227
0.126436 0.147829 0.271366
0.180453 0.144991 0.301701
0.288426 0.124147 0.356573
0.423377 0.127901 0.404913
0.594476 0.194553 0.472724
0.776944 0.267796 0.536584
0.901976 0.379309 0.580468
0.164248 0.220890 0.285649
0.175998 0.225559 0.299626
0.197177 0.213779 0.329442
0.304356 0.211704 0.385779
0.446571 0.225528 0.430335
0.604028 0.292699 0.485542
0.783474 0.345312 0.542931
0.901091 0.430243 0.582238
0.186435 0.315801 0.342657
0.206668 0.319707 0.347539
0.275029 0.336614 0.365759
0.352483 0.359106 0.427649
0.492226 0.374609 0.481453
0.643610 0.426825 0.527611
0.805020 0.461707 0.564385
0.905638 0.523217 0.600855
0.157382 0.508354 0.469306
0.191531 0.511681 0.474311
0.284520 0.518578 0.487373
0.409918 0.529168 0.511009
0.539544 0.536248 0.536278
0.700771 0.559472 0.563775
0.835599 0.596887 0.606714
0.910796 0.650782 0.667079
0.213809 0.722927 0.524895
0.249210 0.721767 0.527489
0.340276 0.714351 0.533654
0.456886 0.707424 0.551690
0.573144 0.699275 0.573877
0.706355 0.692683 0.598993
0.852995 0.731136 0.679316
0.912932 0.769589 0.754238
0.402808 0.853086 0.592187
0.419989 0.851133 0.595239
0.476417 0.846403 0.607599
0.560174 0.840604 0.631952
0.650477 0.832700 0.661860
0.718502 0.827237 0.662531
0.823972 0.808621 0.690181
0.893065 0.811429 0.756985
0.594446 0.908690 0.694179
0.603723 0.907591 0.697810
0.635279 0.904112 0.711147
0.695094 0.900755 0.744015
0.742336 0.895384 0.763790
0.775937 0.892821 0.765560
0.831540 0.886503 0.780392
0.888365 0.878813 0.805814
0.075624 0.154879 0.398077
0.106935 0.154635 0.407782
0.184726 0.150027 0.435889
0.301610 0.132204 0.494087
0.458473 0.061860 0.565362
0.595209 0.134096 0.595636
0.758694 0.277745 0.656641
0.876738 0.451179 0.709621
0.080323 0.173892 0.402197
0.109621 0.173617 0.410101
0.185397 0.170932 0.438788
0.299748 0.159304 0.493782
0.456275 0.115480 0.563531
0.594018 0.171572 0.594507
0.757443 0.301579 0.656275
0.875914 0.461646 0.709468
0.170474 0.270146 0.439765
0.172183 0.263981 0.447150
0.207279 0.251743 0.474861
0.316869 0.251621 0.523613
0.470436 0.238132 0.586419
0.612818 0.281834 0.616052
0.766537 0.391241 0.671687
0.877928 0.512322 0.718349
0.261753 0.372534 0.455390
0.273228 0.376959 0.464729
0.318090 0.395666 0.504234
0.374914 0.399084 0.565026
0.506615 0.407294 0.627405
0.652125 0.437079 0.661982
0.785641 0.519890 0.704524
0.882628 0.594079 0.737728
0.270176 0.501854 0.551019
0.291997 0.504479 0.554528
0.360418 0.513359 0.565362
0.459846 0.531273 0.582483
0.540673 0.549737 0.636194
0.670436 0.565667 0.683986
0.793820 0.620081 0.720577
0.883879 0.664820 0.746639
0.284520 0.687953 0.661952
0.313115 0.691920 0.667811
0.387182 0.694820 0.676234
0.486183 0.698421 0.689326
0.592035 0.700740 0.704250
0.709316 0.709010 0.729030
0.826352 0.737057 0.759792
0.893187 0.769192 0.793759
0.448432 0.850492 0.712459
0.468879 0.851347 0.716884
0.522271 0.850919 0.725185
0.597925 0.846372 0.739834
0.677333 0.838132 0.757076
0.751064 0.827848 0.773861
0.821714 0.815244 0.777340
0.895567 0.837736 0.830625
0.626490 0.906554 0.763912
0.634211 0.905547 0.766018
0.661280 0.902495 0.774380
0.706386 0.898711 0.790799
0.753536 0.894133 0.807553
0.797787 0.889311 0.822385
0.831174 0.887022 0.823239
0.885008 0.878935 0.837675
0.000000 0.198734 0.578027
0.055085 0.200229 0.588891
0.186221 0.198337 0.611322
0.312139 0.190921 0.651637
0.456977 0.166262 0.701747
0.613092 0.150118 0.745418
0.744259 0.245487 0.762570
0.860868 0.431495 0.788571
0.000000 0.216281 0.571038
0.067933 0.217838 0.580987
0.185946 0.216342 0.603174
0.306859 0.209812 0.640345
0.448127 0.189639 0.689143
0.602564 0.172122 0.732876
0.732021 0.252415 0.749355
0.852964 0.421759 0.778683
0.148653 0.308751 0.599878
0.151369 0.301396 0.605524
0.213230 0.294316 0.623133
0.322942 0.293400 0.656855
0.456947 0.284947 0.700221
0.613733 0.278538 0.746304
0.746426 0.349676 0.765438
0.859495 0.498573 0.792660
0.300633 0.439734 0.619776
0.310033 0.439887 0.624537
0.336004 0.436957 0.645106
0.374792 0.420539 0.680293
0.487434 0.422431 0.721828
0.638727 0.423224 0.771725
0.767239 0.479438 0.788632
0.863188 0.595056 0.808042
0.360418 0.531701 0.638972
0.372717 0.531151 0.637232
0.417304 0.535363 0.637537
0.473793 0.553216 0.673304
0.522942 0.547448 0.723415
0.643763 0.553216 0.771389
0.772305 0.587274 0.795102
0.861662 0.684688 0.820218
0.391638 0.670588 0.731899
0.406928 0.671168 0.732967
0.454963 0.673243 0.736690
0.527703 0.678035 0.743618
0.613977 0.684718 0.749233
0.695735 0.704494 0.789822
0.797299 0.726955 0.822202
0.867216 0.772122 0.841398
0.466926 0.824552 0.810025
0.483375 0.825254 0.811978
0.528161 0.824491 0.815122
0.596429 0.823453 0.820706
0.672969 0.819944 0.825956
0.750698 0.817746 0.833585
0.818845 0.819944 0.844694
0.882994 0.836912 0.861448
0.636774 0.896269 0.821469
0.645563 0.895964 0.823178
0.683284 0.896269 0.833036
0.726833 0.895720 0.843259
0.771847 0.894163 0.854124
0.811398 0.890471 0.863706
0.845701 0.886137 0.870390
0.882170 0.879881 0.871244
0.000000 0.275792 0.753841
0.106416 0.277134 0.759365
0.213107 0.274388 0.768795
0.332341 0.272984 0.790890
0.460304 0.266728 0.816953
0.598352 0.253605 0.843687
0.732174 0.294865 0.860349
0.841733 0.392920 0.865019
0.043427 0.291234 0.749203
0.115694 0.292851 0.754757
0.216770 0.290654 0.765560
0.330938 0.288273 0.786160
0.457618 0.282780 0.812680
0.594995 0.270634 0.840024
0.728389 0.304051 0.856687
0.838376 0.396521 0.861723
0.153933 0.356512 0.751369
0.167971 0.352819 0.755642
0.239322 0.349310 0.763516
0.348577 0.355749 0.789792
0.465644 0.352300 0.813657
0.595972 0.342382 0.838407
0.729732 0.366796 0.856748
0.838865 0.447181 0.862333
0.328771 0.485115 0.755703
0.332738 0.482612 0.760616
0.337407 0.465034 0.770718
0.386816 0.452949 0.791775
0.488533 0.455146 0.816190
0.608087 0.453498 0.841215
0.738338 0.467262 0.861814
0.843442 0.533989 0.867247
0.423774 0.581079 0.747982
0.432380 0.583886 0.753445
0.451240 0.583948 0.764523
0.485237 0.581445 0.786343
0.517906 0.557794 0.811643
0.619440 0.560296 0.837797
0.745968 0.569635 0.864591
0.847990 0.637324 0.872129
0.477333 0.681025 0.794156
0.483619 0.679500 0.792569
0.507744 0.676387 0.789059
0.552453 0.674922 0.785489
0.606867 0.681544 0.800687
0.666835 0.686030 0.838529
0.771756 0.711269 0.870054
0.859434 0.755306 0.883635
0.554314 0.796353 0.849485
0.560479 0.795499 0.849027
0.583429 0.793515 0.848173
0.627649 0.792813 0.848783
0.685237 0.793118 0.849729
0.748836 0.797055 0.851041
0.806546 0.812345 0.873869
0.866575 0.827268 0.890532
0.668635 0.889311 0.885557
0.672969 0.888762 0.885496
0.691402 0.887327 0.886198
0.724514 0.885618 0.888212
0.764157 0.883543 0.890867
0.805234 0.881712 0.894133
0.844938 0.880980 0.898375
0.880430 0.881651 0.903380
