其他预设/【234】港风调色预设/1.3D LUT预设（视频调色-PR-AE-PS-FCPX-达芬奇用）/10.港风色调 __.cube
# Created by Adobe Lightroom plugin Export LUT (1.17.0)
# www.johnrellis.com/lightroom/exportlut.htm
# Preset: 10.港风色调 [素锦印象]
# Color profile: /Library/Application Support/Adobe/Color/Profiles/Recommended/AdobeRGB1998.icc
LUT_3D_SIZE 5
DOMAIN_MIN 0.000000 0.000000 0.000000
DOMAIN_MAX 0.903226 0.903226 0.903226
0.106844 0.104646 0.094331
0.141207 0.106355 0.095766
0.371099 0.101839 0.090364
0.763149 0.082155 0.068421
0.966461 0.244785 0.229892
0.111513 0.148074 0.097169
0.153964 0.148562 0.102358
0.412543 0.194705 0.083711
0.784146 0.239322 0.079438
0.970977 0.348425 0.281956
0.120424 0.422736 0.073732
0.214572 0.425574 0.077394
0.462745 0.438972 0.139315
0.829648 0.502525 0.180453
0.965667 0.543267 0.399451
0.250095 0.779141 0.193668
0.330419 0.779263 0.204685
0.502312 0.773129 0.233707
0.765682 0.730617 0.350530
0.934203 0.730159 0.546960
0.557794 0.917479 0.553887
0.578271 0.915618 0.557183
0.630671 0.907500 0.550988
0.763394 0.896727 0.619898
0.897520 0.880095 0.730739
0.109010 0.107973 0.107881
0.135256 0.109712 0.120119
0.330175 0.078157 0.152743
0.698512 0.000000 0.178714
0.947051 0.251011 0.297826
0.117281 0.144411 0.127291
0.155245 0.152224 0.138003
0.378332 0.168276 0.152926
0.729580 0.207767 0.191470
0.950225 0.344091 0.331853
0.082948 0.418189 0.165286
0.201663 0.419776 0.169528
0.432166 0.412634 0.207279
0.808072 0.484657 0.260899
0.953429 0.556085 0.459541
0.235935 0.776577 0.272740
0.348363 0.774441 0.312078
0.511406 0.767605 0.328161
0.758999 0.727565 0.412085
0.928313 0.740536 0.598047
0.584985 0.913573 0.604303
0.602533 0.911864 0.606073
0.666255 0.907317 0.623621
0.772366 0.897276 0.665766
0.896574 0.881498 0.755764
0.113069 0.122377 0.192111
0.153201 0.121675 0.223026
0.322393 0.102235 0.299443
0.647272 0.142580 0.424079
0.913481 0.318029 0.503258
0.148165 0.184176 0.225223
0.169070 0.178622 0.257206
0.358984 0.183566 0.337072
0.665278 0.249607 0.434150
0.915679 0.396094 0.517662
0.129274 0.406104 0.365087
0.221866 0.416052 0.380255
0.445594 0.441138 0.430610
0.742000 0.494240 0.491585
0.921965 0.594049 0.604456
0.260349 0.772671 0.483009
0.346960 0.764187 0.491676
0.546899 0.754849 0.542779
0.751339 0.731807 0.576135
0.914855 0.774319 0.726223
0.585626 0.910033 0.664179
0.625025 0.907042 0.685603
0.712123 0.898924 0.730678
0.775509 0.893767 0.736538
0.889708 0.878447 0.789578
0.059236 0.161074 0.431495
0.159487 0.159060 0.462440
0.373999 0.123964 0.560845
0.631037 0.153597 0.636072
0.869108 0.453132 0.729244
0.125154 0.243290 0.462928
0.173526 0.232914 0.488808
0.379339 0.225437 0.573236
0.638697 0.261326 0.645319
0.866026 0.498848 0.732845
0.278874 0.428321 0.508873
0.336431 0.439277 0.517510
0.440101 0.459449 0.604913
0.665705 0.480842 0.677607
0.872892 0.622553 0.754452
0.335546 0.735622 0.713680
0.397620 0.733211 0.715846
0.556909 0.736416 0.734524
0.742367 0.742580 0.765133
0.888823 0.785183 0.810147
0.633509 0.905821 0.779904
0.662531 0.903166 0.788937
0.738613 0.896880 0.814633
0.813077 0.889067 0.838010
0.883818 0.878630 0.844999
0.000000 0.275792 0.753841
0.185397 0.275090 0.765316
0.395422 0.270909 0.803861
0.634974 0.250156 0.850645
0.841733 0.392920 0.865019
0.120821 0.335821 0.753750
0.213016 0.335515 0.764736
0.402045 0.335149 0.801816
0.631891 0.319860 0.846281
0.840208 0.436896 0.863584
0.377173 0.534966 0.752071
0.398810 0.532799 0.763241
0.448554 0.500694 0.798306
0.637385 0.496895 0.842130
0.844724 0.580652 0.868711
0.501732 0.715114 0.814054
0.524712 0.712184 0.811307
0.604883 0.710384 0.806699
0.704768 0.719722 0.846128
0.861234 0.776211 0.885405
0.668635 0.889311 0.885557
0.685145 0.887724 0.885893
0.744045 0.884642 0.889525
0.815457 0.881437 0.895140
0.880430 0.881651 0.903380
