其他预设/【234】港风调色预设/1.3D LUT预设（视频调色-PR-AE-PS-FCPX-达芬奇用）/10.港风色调 __.cube
# Created by Adobe Lightroom plugin Export LUT (1.17.0)
# www.johnrellis.com/lightroom/exportlut.htm
# Preset: 10.港风色调 [素锦印象]
# Color profile: /Library/Application Support/Adobe/Color/Profiles/Recommended/AdobeRGB1998.icc
LUT_3D_SIZE 32
0.106844 0.104646 0.094331
0.107362 0.104799 0.094270
0.108400 0.104860 0.094514
0.110475 0.105257 0.094667
0.114473 0.105501 0.095033
0.121218 0.105959 0.095277
0.130007 0.105898 0.095491
0.141207 0.106355 0.095766
0.156130 0.106600 0.095857
0.175967 0.106630 0.095888
0.202640 0.106416 0.095583
0.236423 0.106081 0.095277
0.276585 0.105409 0.094209
0.322026 0.103944 0.092744
0.371099 0.101839 0.090364
0.422370 0.098878 0.087037
0.474922 0.094514 0.083284
0.527642 0.090211 0.078279
0.579156 0.085725 0.073243
0.644709 0.080751 0.067475
0.707088 0.078523 0.065248
0.763149 0.082155 0.068421
0.811002 0.092714 0.078279
0.850217 0.108186 0.094606
0.882231 0.128450 0.113985
0.908751 0.151919 0.136904
0.931182 0.178744 0.163760
0.950317 0.209598 0.194553
0.966461 0.244785 0.229892
0.979644 0.285649 0.271489
0.989837 0.332799 0.320500
0.996887 0.386542 0.377295
0.106996 0.105348 0.094514
0.107515 0.105501 0.094484
0.108553 0.105562 0.094697
0.110597 0.105959 0.094850
0.114870 0.106172 0.095216
0.121553 0.106630 0.095460
0.130282 0.106813 0.095644
0.141329 0.107301 0.095674
0.156069 0.107332 0.095796
0.175601 0.107698 0.095796
0.201480 0.108003 0.095766
0.234623 0.107820 0.095247
0.273716 0.107607 0.094545
0.318517 0.107118 0.092836
0.366613 0.105470 0.090639
0.417304 0.102968 0.087526
0.469215 0.099977 0.083650
0.521782 0.096742 0.078462
0.573083 0.093233 0.073640
0.637537 0.089021 0.068208
0.698146 0.088045 0.065003
0.753536 0.090181 0.067048
0.801877 0.098054 0.075380
0.842252 0.111513 0.089998
0.875517 0.129183 0.108736
0.903288 0.150362 0.131807
0.926940 0.176364 0.157595
0.946990 0.206058 0.188205
0.963928 0.240635 0.223514
0.977844 0.280552 0.264469
0.988647 0.326848 0.312810
0.996155 0.379919 0.369238
0.107332 0.106538 0.094636
0.107881 0.106447 0.094636
0.108644 0.106538 0.094850
0.110964 0.106874 0.095033
0.115450 0.107301 0.095338
0.122103 0.107729 0.095613
0.130770 0.107912 0.095796
0.141787 0.108400 0.095796
0.156222 0.108949 0.095888
0.175753 0.109346 0.095888
0.201480 0.109926 0.095857
0.234257 0.110353 0.095308
0.273289 0.110658 0.094545
0.317479 0.110353 0.092897
0.365148 0.109651 0.090700
0.415534 0.107912 0.087587
0.467109 0.105928 0.083742
0.519127 0.103334 0.079072
0.570581 0.100282 0.073976
0.634699 0.098726 0.068116
0.694453 0.097261 0.065126
0.749416 0.099702 0.066651
0.797848 0.106661 0.074769
0.838468 0.118135 0.088533
0.872251 0.134432 0.107485
0.900572 0.154391 0.129305
0.924712 0.178439 0.155184
0.945281 0.207126 0.185428
0.962646 0.241001 0.220584
0.976898 0.280217 0.261479
0.987945 0.325689 0.309758
0.995697 0.378088 0.365850
0.107973 0.108797 0.095186
0.108492 0.108980 0.095155
0.109255 0.109071 0.095369
0.111788 0.109102 0.095827
0.116548 0.109712 0.095613
0.124056 0.110201 0.095796
0.132601 0.110628 0.095705
0.143771 0.111238 0.095979
0.158480 0.112123 0.095979
0.177920 0.113100 0.096162
0.203708 0.114229 0.095796
0.236362 0.115419 0.095399
0.274998 0.116854 0.094514
0.318608 0.118044 0.093019
0.365911 0.118166 0.090486
0.415717 0.118257 0.087282
0.466529 0.117311 0.083467
0.518120 0.116396 0.078706
0.571344 0.115267 0.073548
0.631830 0.114717 0.068147
0.688930 0.115419 0.065309
0.742611 0.118135 0.065980
0.791409 0.123903 0.073152
0.833616 0.133730 0.087312
0.869352 0.148470 0.105898
0.899199 0.166323 0.129671
0.924254 0.189334 0.156313
0.945190 0.217319 0.187350
0.962554 0.249546 0.222995
0.976623 0.287266 0.263951
0.987518 0.330907 0.310979
0.995239 0.380896 0.365545
0.108492 0.113832 0.095460
0.109194 0.114168 0.095644
0.110231 0.114443 0.095583
0.112764 0.114717 0.095735
0.117647 0.114534 0.096651
0.123781 0.114565 0.096681
0.134218 0.115511 0.096193
0.146426 0.116091 0.096132
0.161166 0.117281 0.096101
0.180789 0.118929 0.096193
0.206668 0.120882 0.095918
0.239078 0.123568 0.095338
0.277379 0.126040 0.094575
0.320775 0.128603 0.092622
0.367834 0.130800 0.090364
0.417884 0.132631 0.086824
0.469398 0.133333 0.082521
0.521080 0.134401 0.077638
0.577295 0.134951 0.072175
0.635096 0.136599 0.067384
0.689998 0.138430 0.064698
0.742123 0.141878 0.066621
0.790097 0.148074 0.073487
0.832090 0.156039 0.088289
0.867918 0.168429 0.107362
0.898039 0.184451 0.130678
0.923278 0.205264 0.157534
0.944213 0.230014 0.188968
0.961608 0.260227 0.224430
0.975769 0.295811 0.264775
0.986694 0.337743 0.312016
0.994446 0.386481 0.366644
0.109224 0.121706 0.095888
0.109987 0.122011 0.095827
0.110964 0.122286 0.096040
0.113436 0.122744 0.096162
0.118837 0.122713 0.096498
0.125917 0.122347 0.097780
0.132753 0.121126 0.098421
0.147982 0.123568 0.097292
0.165682 0.125399 0.096529
0.186923 0.127749 0.096407
0.213504 0.130983 0.096132
0.246372 0.134768 0.095247
0.284825 0.138979 0.094087
0.328099 0.143069 0.092287
0.375341 0.147066 0.089265
0.425269 0.150393 0.085817
0.476570 0.152895 0.081270
0.528069 0.155550 0.076143
0.587304 0.159213 0.070466
0.643244 0.162295 0.065797
0.696986 0.165713 0.064790
0.748714 0.170291 0.067323
0.851072 0.199008 0.104982
0.883330 0.210819 0.128145
0.909209 0.225803 0.152529
0.930266 0.243290 0.179446
0.947784 0.264439 0.208621
0.962402 0.289342 0.241550
0.974548 0.319158 0.278202
0.984314 0.354223 0.320226
0.991485 0.394873 0.367926
0.996063 0.440864 0.421393
0.110109 0.133944 0.096254
0.111086 0.134188 0.096437
0.112581 0.134371 0.096620
0.115450 0.135073 0.096712
0.120150 0.135866 0.096956
0.129397 0.135195 0.098207
0.139071 0.134493 0.099916
0.146578 0.131777 0.101595
0.171237 0.138308 0.098970
0.198123 0.143008 0.097627
0.234226 0.148928 0.095369
0.269932 0.154421 0.094148
0.310307 0.160159 0.092348
0.354742 0.165835 0.089723
0.401526 0.170779 0.086366
0.450080 0.175326 0.082277
0.499916 0.179477 0.077333
0.556359 0.184390 0.071778
0.615106 0.190097 0.066224
0.671931 0.195041 0.063935
0.728725 0.201236 0.066865
0.783627 0.209110 0.076967
0.831998 0.218936 0.096101
0.871641 0.231083 0.120912
0.902739 0.245823 0.149233
0.926513 0.262303 0.178408
0.945129 0.281987 0.209567
0.960327 0.304784 0.242222
0.972747 0.332250 0.279271
0.982635 0.364721 0.320806
0.990051 0.402716 0.367559
0.994812 0.446509 0.420600
0.111513 0.148074 0.097169
0.112795 0.148257 0.097108
0.113985 0.148440 0.097292
0.117586 0.148959 0.097353
0.122591 0.149783 0.097810
0.130465 0.150332 0.098451
0.142061 0.149416 0.100130
0.153964 0.148562 0.102358
0.161013 0.143526 0.105470
0.194156 0.154665 0.101472
0.231388 0.163790 0.098482
0.275425 0.173037 0.094362
0.322240 0.181430 0.090242
0.366064 0.188327 0.087556
0.412543 0.194705 0.083711
0.460121 0.200290 0.079622
0.512169 0.206394 0.074250
0.569787 0.213657 0.068055
0.623774 0.219394 0.063966
0.677485 0.225101 0.062867
0.731563 0.231754 0.067140
0.784146 0.239322 0.079438
0.830900 0.248386 0.099123
0.869657 0.258824 0.124269
0.900389 0.271366 0.152163
0.924224 0.286046 0.181155
0.942992 0.302953 0.212131
0.958373 0.323369 0.245121
0.970977 0.348425 0.281956
0.980987 0.378637 0.323552
0.988525 0.414496 0.370459
0.993408 0.456275 0.423133
0.113741 0.167056 0.097841
0.114931 0.167208 0.098024
0.116640 0.167453 0.097932
0.120089 0.168063 0.098238
0.125856 0.168978 0.098634
0.133181 0.170047 0.098939
0.145449 0.169680 0.100252
0.160006 0.168643 0.102419
0.174441 0.167758 0.104891
0.182712 0.161227 0.109194
0.222232 0.175601 0.104494
0.271611 0.191073 0.098665
0.322087 0.203342 0.092958
0.379492 0.215183 0.084993
0.428595 0.223026 0.079469
0.478035 0.230594 0.074342
0.533501 0.239261 0.068574
0.586664 0.246128 0.063447
0.636530 0.251621 0.061036
0.687648 0.257603 0.062684
0.739193 0.264591 0.069551
0.789303 0.272160 0.083619
0.833738 0.280674 0.104891
0.870848 0.290043 0.130983
0.900542 0.301122 0.158846
0.923705 0.313298 0.188327
0.942199 0.328374 0.219059
0.957305 0.346441 0.252262
0.969726 0.369177 0.289006
0.979583 0.396857 0.330388
0.987030 0.430365 0.376837
0.991882 0.469459 0.428687
0.115389 0.192203 0.098268
0.117067 0.192416 0.098177
0.118959 0.192599 0.098329
0.123079 0.193057 0.098360
0.129549 0.193851 0.098726
0.138003 0.195071 0.098939
0.148013 0.196658 0.099458
0.165835 0.195315 0.101564
0.183719 0.193851 0.104250
0.201297 0.192813 0.107332
0.210758 0.184726 0.112856
0.254154 0.199985 0.108064
0.315007 0.222110 0.098695
0.370397 0.236881 0.091310
0.435950 0.253208 0.080354
0.505760 0.268070 0.065461
0.558587 0.276677 0.059968
0.608270 0.283207 0.054780
0.655756 0.288609 0.057221
0.703822 0.294377 0.062440
0.751492 0.300298 0.073762
0.796841 0.306950 0.090364
0.836942 0.313603 0.112123
0.871122 0.321172 0.136599
0.899168 0.329839 0.164401
0.921843 0.340246 0.193637
0.940429 0.353338 0.224613
0.955718 0.369970 0.259068
0.968322 0.391302 0.296880
0.978271 0.417884 0.339513
0.985595 0.450263 0.387396
0.990265 0.488411 0.440589
0.116823 0.222751 0.097322
0.118379 0.223117 0.097444
0.120974 0.223331 0.097322
0.125856 0.223819 0.097536
0.133547 0.224857 0.097780
0.143404 0.226261 0.097810
0.155001 0.228031 0.098421
0.170962 0.229191 0.099367
0.193179 0.227451 0.102174
0.214572 0.226078 0.105409
0.235019 0.224643 0.109529
0.245335 0.214084 0.116640
0.290990 0.229221 0.113100
0.364508 0.259190 0.099977
0.432898 0.280827 0.088899
0.500755 0.298466 0.075837
0.569482 0.312840 0.058076
0.625818 0.321141 0.040375
0.670588 0.325505 0.050690
0.715969 0.330541 0.064027
0.761196 0.336370 0.078004
0.804074 0.342290 0.097658
0.842222 0.348333 0.120974
0.874510 0.354864 0.147646
0.901091 0.362280 0.175967
0.922637 0.371099 0.205264
0.940337 0.382238 0.235874
0.955016 0.396887 0.270085
0.967102 0.416022 0.307958
0.976745 0.440223 0.349981
0.983886 0.470283 0.397559
0.988403 0.506188 0.450507
0.117556 0.260655 0.095064
0.119844 0.261021 0.095155
0.122560 0.261265 0.095247
0.128939 0.261723 0.095155
0.137758 0.262821 0.095521
0.149172 0.264378 0.095644
0.162875 0.266209 0.096040
0.178042 0.268559 0.096132
0.201328 0.268254 0.098360
0.227359 0.266697 0.102174
0.252537 0.265080 0.106813
0.280186 0.266880 0.112337
0.323461 0.280247 0.126772
0.377081 0.296056 0.125887
0.465431 0.333013 0.107179
0.545525 0.359442 0.091615
0.612390 0.374823 0.082826
0.675502 0.385534 0.076051
0.735012 0.393072 0.073793
0.777371 0.395819 0.090608
0.813352 0.397894 0.112978
0.845884 0.400244 0.136751
0.874052 0.403052 0.162142
0.898131 0.407019 0.188937
0.918303 0.412451 0.217288
0.935119 0.419959 0.246708
0.949004 0.429816 0.278080
0.960662 0.443000 0.311254
0.970184 0.460365 0.348211
0.977752 0.482551 0.389441
0.983185 0.510033 0.435309
0.986450 0.542901 0.485908
0.118105 0.316686 0.089662
0.121279 0.316594 0.089601
0.124910 0.316136 0.089906
0.132723 0.315740 0.089998
0.143832 0.315526 0.090425
0.157473 0.315343 0.090913
0.173220 0.316197 0.091127
0.190494 0.317815 0.091676
0.209964 0.320623 0.092042
0.245182 0.324010 0.096040
0.281315 0.327916 0.101747
0.317754 0.332128 0.108949
0.353643 0.336187 0.118288
0.371374 0.323217 0.135012
0.419806 0.332738 0.139101
0.509087 0.371221 0.121767
0.591821 0.399329 0.104494
0.653925 0.412879 0.102052
0.713741 0.423407 0.102022
0.770748 0.431037 0.107454
0.819150 0.435309 0.121553
0.849424 0.436133 0.146517
0.875792 0.437598 0.172702
0.898497 0.439918 0.200015
0.917723 0.443763 0.228336
0.933928 0.449317 0.257481
0.947448 0.457588 0.288853
0.958801 0.468849 0.322118
0.968200 0.484413 0.359136
0.975647 0.504784 0.400366
0.980987 0.530510 0.446448
0.984131 0.561578 0.497261
0.118685 0.363165 0.083650
0.122438 0.363226 0.083467
0.126528 0.362829 0.083803
0.135348 0.362341 0.083925
0.148104 0.361700 0.084199
0.163760 0.362890 0.084596
0.181949 0.365972 0.084993
0.202518 0.369726 0.085054
0.225193 0.374762 0.085542
0.254246 0.380011 0.087678
0.294713 0.382177 0.094667
0.334478 0.385077 0.103365
0.373022 0.387518 0.114351
0.409430 0.388800 0.126925
0.425422 0.371984 0.146548
0.461128 0.369390 0.156191
0.547814 0.406409 0.141054
0.627527 0.433570 0.125063
0.690455 0.448524 0.125307
0.748562 0.459571 0.130831
0.802029 0.467567 0.142550
0.847562 0.472053 0.160830
0.878935 0.473121 0.185489
0.900359 0.474281 0.213626
0.918547 0.476661 0.242924
0.933898 0.480995 0.272801
0.946868 0.487678 0.303929
0.957671 0.497658 0.337865
0.966644 0.511620 0.375189
0.973724 0.530510 0.416968
0.978729 0.554498 0.463081
0.981689 0.583490 0.513054
0.120424 0.422736 0.073732
0.124697 0.423255 0.073854
0.129305 0.422950 0.074189
0.139925 0.422827 0.074769
0.154788 0.422492 0.075135
0.172519 0.422461 0.075715
0.192630 0.423468 0.076570
0.214572 0.425574 0.077394
0.238590 0.429206 0.078096
0.264591 0.434607 0.079408
0.302800 0.437842 0.086213
0.346288 0.439582 0.097627
0.387884 0.440955 0.110384
0.427131 0.440955 0.124300
0.462745 0.438972 0.139315
0.476234 0.418494 0.160311
0.498726 0.403693 0.175570
0.582177 0.439368 0.163272
0.659724 0.466163 0.151186
0.725978 0.484108 0.151095
0.781399 0.495308 0.163455
0.829648 0.502525 0.180453
0.869139 0.506371 0.202121
0.900816 0.508415 0.228458
0.919463 0.509880 0.258579
0.934203 0.513268 0.289860
0.946685 0.519493 0.323491
0.957153 0.529229 0.359838
0.965667 0.543267 0.399451
0.972137 0.562158 0.443610
0.976471 0.586023 0.491737
0.978698 0.614374 0.542870
0.124300 0.484199 0.064210
0.128908 0.484840 0.064607
0.134798 0.484718 0.064332
0.146181 0.484688 0.065248
0.162936 0.484504 0.066194
0.182773 0.484657 0.067567
0.204532 0.485603 0.069001
0.228946 0.487495 0.070192
0.254337 0.490455 0.072877
0.281407 0.493935 0.075563
0.309789 0.498299 0.078462
0.355566 0.497444 0.092622
0.398718 0.495399 0.107851
0.438972 0.492470 0.123293
0.475685 0.488228 0.138796
0.508629 0.482643 0.154543
0.521111 0.460334 0.175937
0.537499 0.439796 0.194186
0.613733 0.470802 0.188602
0.692103 0.499702 0.181460
0.761929 0.520867 0.182376
0.813413 0.531853 0.201633
0.855955 0.538598 0.224216
0.889982 0.542535 0.251774
0.916594 0.545586 0.282200
0.936248 0.549279 0.315984
0.947631 0.554681 0.350713
0.957061 0.563622 0.387976
0.964538 0.576410 0.428412
0.970214 0.593439 0.471260
0.973877 0.614588 0.517266
0.975494 0.640589 0.566674
0.131655 0.538567 0.061402
0.136202 0.538628 0.061463
0.142123 0.538140 0.062470
0.154757 0.537774 0.062348
0.171450 0.537346 0.063600
0.191867 0.537133 0.065675
0.214511 0.537438 0.068605
0.239261 0.538323 0.070405
0.265080 0.540215 0.073884
0.292302 0.542657 0.077882
0.321019 0.545892 0.082002
0.355932 0.547967 0.090822
0.402472 0.545617 0.107607
0.445502 0.542077 0.124453
0.484840 0.537133 0.141054
0.520012 0.530755 0.157290
0.551781 0.523613 0.173373
0.564233 0.501091 0.194919
0.578271 0.478553 0.214755
0.645319 0.502373 0.216098
0.722286 0.532006 0.213626
0.790707 0.553521 0.216709
0.838102 0.563989 0.238407
0.875334 0.570306 0.266484
0.904509 0.574853 0.298314
0.927306 0.579339 0.333104
0.944854 0.585718 0.371649
0.955871 0.594476 0.411658
0.962768 0.606317 0.452796
0.967803 0.622187 0.496345
0.971008 0.642054 0.542077
0.971984 0.667048 0.592187
0.144991 0.590387 0.070344
0.149783 0.591333 0.070893
0.169528 0.626520 0.086458
0.181430 0.625788 0.087831
0.198398 0.624628 0.089113
0.218784 0.623133 0.090822
0.242008 0.621637 0.092378
0.266819 0.620386 0.094636
0.293217 0.619989 0.099062
0.321386 0.620264 0.103029
0.350072 0.621088 0.108553
0.379187 0.622034 0.113375
0.420752 0.618830 0.126314
0.466835 0.612848 0.143801
0.508537 0.605921 0.160464
0.546258 0.597894 0.176761
0.580377 0.589288 0.192752
0.611017 0.580224 0.208621
0.622736 0.556359 0.229618
0.634150 0.531121 0.250523
0.691279 0.547173 0.258152
0.764401 0.575586 0.261570
0.824552 0.593652 0.269780
0.866392 0.602472 0.292546
0.895933 0.607050 0.323857
0.918975 0.611048 0.357031
0.936767 0.616114 0.393591
0.950469 0.623896 0.433387
0.960449 0.635706 0.477943
0.965270 0.649836 0.520745
0.967864 0.668360 0.566613
0.968353 0.691585 0.615717
0.166903 0.647700 0.094667
0.173007 0.652277 0.097536
0.180514 0.656825 0.101411
0.193881 0.660365 0.104158
0.210971 0.662623 0.107637
0.231357 0.662867 0.109957
0.253819 0.661982 0.111635
0.277653 0.660883 0.114443
0.303563 0.660334 0.117861
0.330419 0.660121 0.121431
0.358373 0.660365 0.126497
0.386877 0.660700 0.131868
0.415381 0.660426 0.136934
0.462379 0.654627 0.152682
0.505943 0.647578 0.169100
0.545739 0.639704 0.185306
0.582055 0.630854 0.200687
0.615229 0.622095 0.216526
0.645808 0.613550 0.232334
0.658869 0.591547 0.253910
0.669612 0.566491 0.276127
0.719142 0.576989 0.290043
0.788418 0.604852 0.298650
0.843320 0.621698 0.311284
0.882506 0.630396 0.333837
0.907988 0.635767 0.369360
0.927642 0.641566 0.407752
0.942565 0.649256 0.449134
0.953552 0.660304 0.493874
0.960937 0.675257 0.541802
0.964446 0.694667 0.592645
0.964508 0.716365 0.640894
0.186099 0.689387 0.118379
0.192477 0.693385 0.121675
0.200137 0.697383 0.125154
0.212100 0.700618 0.128237
0.228336 0.702449 0.131807
0.246921 0.702693 0.133791
0.267948 0.701839 0.135988
0.290806 0.700740 0.137575
0.315373 0.700099 0.141176
0.341497 0.699611 0.144839
0.368780 0.699641 0.149203
0.396399 0.699702 0.154635
0.424048 0.699031 0.159213
0.457465 0.696651 0.166903
0.503410 0.689631 0.182437
0.545159 0.681880 0.198123
0.583612 0.673518 0.213260
0.618860 0.664912 0.228733
0.651850 0.656641 0.244755
0.682612 0.649073 0.261448
0.696925 0.628717 0.282811
0.706905 0.604334 0.306981
0.747890 0.608240 0.325963
0.811429 0.634546 0.340307
0.860044 0.649622 0.357397
0.895689 0.657832 0.379919
0.917845 0.664088 0.418341
0.934295 0.671626 0.460334
0.946441 0.681819 0.505547
0.954711 0.695674 0.554040
0.959258 0.714137 0.606043
0.960327 0.737636 0.661250
0.210117 0.729397 0.145937
0.215885 0.732998 0.149477
0.222995 0.736507 0.153628
0.234195 0.739284 0.156863
0.249271 0.740871 0.159854
0.266026 0.740902 0.162234
0.285252 0.740108 0.164004
0.306401 0.738888 0.165621
0.329503 0.737850 0.168093
0.354162 0.736965 0.171298
0.379889 0.736477 0.175509
0.406409 0.735927 0.179599
0.433112 0.734920 0.184298
0.460029 0.733791 0.189090
0.499153 0.729458 0.200290
0.543420 0.722927 0.215671
0.584894 0.716304 0.231724
0.623774 0.709987 0.248905
0.660609 0.703914 0.266606
0.695430 0.698543 0.285557
0.728298 0.693629 0.305180
0.745449 0.676875 0.329381
0.754696 0.652796 0.355474
0.786099 0.650202 0.380804
0.841154 0.673579 0.402930
0.881315 0.686824 0.426856
0.910460 0.694911 0.454475
0.929107 0.702632 0.493996
0.941070 0.712825 0.540307
0.948913 0.726589 0.590112
0.953063 0.744442 0.642359
0.953979 0.766232 0.695338
0.250095 0.779141 0.193668
0.254246 0.780484 0.195346
0.258885 0.781460 0.197055
0.267613 0.782010 0.198947
0.279362 0.781888 0.200473
0.294041 0.781155 0.201328
0.311040 0.780209 0.203098
0.330419 0.779263 0.204685
0.351873 0.778622 0.207614
0.375280 0.778195 0.211093
0.400031 0.777890 0.215854
0.425483 0.777310 0.220371
0.451118 0.776364 0.224796
0.476783 0.774929 0.229465
0.502312 0.773129 0.233707
0.546410 0.767117 0.247440
0.588983 0.760647 0.262852
0.628748 0.754147 0.278874
0.666316 0.747982 0.295720
0.701656 0.741939 0.313329
0.734676 0.736202 0.331518
0.765682 0.730617 0.350530
0.781643 0.714015 0.372473
0.787503 0.688533 0.396948
0.809354 0.679103 0.423682
0.857237 0.699916 0.449287
0.892088 0.712673 0.477607
0.917418 0.721248 0.507652
0.934203 0.730159 0.546960
0.943084 0.743130 0.598169
0.948028 0.759640 0.650752
0.949737 0.779660 0.703517
0.282048 0.809842 0.231022
0.286015 0.811032 0.233036
0.290593 0.812009 0.235599
0.297978 0.812436 0.237003
0.308446 0.812314 0.238682
0.320714 0.811490 0.239628
0.335485 0.810330 0.240238
0.352361 0.809110 0.241672
0.371710 0.808133 0.243809
0.392798 0.807309 0.246891
0.415534 0.806668 0.250675
0.439063 0.805936 0.255192
0.463081 0.804868 0.259312
0.487556 0.803525 0.263890
0.511925 0.801968 0.267735
0.542016 0.799222 0.274968
0.585168 0.793606 0.290288
0.626093 0.787991 0.306371
0.664607 0.782498 0.323583
0.700984 0.777218 0.341466
0.735409 0.772213 0.360174
0.767575 0.767483 0.379706
0.797543 0.762966 0.399207
0.813870 0.748470 0.421637
0.812284 0.717281 0.434882
0.829252 0.705501 0.462562
0.869657 0.722896 0.492531
0.900237 0.735622 0.523949
0.922026 0.745480 0.558434
0.936889 0.755764 0.598291
0.943267 0.771328 0.652644
0.945861 0.790005 0.706416
0.330694 0.843290 0.288060
0.334508 0.844327 0.290837
0.338201 0.844785 0.292027
0.343877 0.844694 0.293339
0.351537 0.844053 0.293736
0.360967 0.842924 0.293614
0.372473 0.841428 0.292729
0.385840 0.839750 0.292729
0.401617 0.837949 0.293065
0.419013 0.836271 0.294011
0.438025 0.834562 0.295445
0.458412 0.833005 0.297856
0.479713 0.831296 0.300633
0.501335 0.829282 0.303227
0.523003 0.826871 0.305577
0.544976 0.824338 0.307927
0.578759 0.819669 0.316228
0.618738 0.813870 0.330541
0.657130 0.808591 0.346593
0.693965 0.803830 0.364324
0.729000 0.799405 0.383490
0.761776 0.795132 0.403265
0.792020 0.790677 0.422278
0.819699 0.786069 0.441108
0.834836 0.772152 0.460456
0.836759 0.747280 0.481697
0.851499 0.736141 0.510185
0.882109 0.747860 0.542596
0.907652 0.760708 0.578149
0.925536 0.772030 0.616876
0.937163 0.784390 0.659480
0.942077 0.800565 0.709895
0.366735 0.862943 0.330175
0.370428 0.863706 0.332647
0.373846 0.864134 0.334722
0.378607 0.864042 0.335637
0.384771 0.863462 0.335485
0.393011 0.862577 0.335698
0.402991 0.861448 0.335760
0.414588 0.860166 0.335607
0.428412 0.858885 0.336309
0.444251 0.857633 0.338293
0.461463 0.856352 0.340337
0.480232 0.855131 0.343481
0.499702 0.853849 0.346777
0.519615 0.852293 0.349737
0.539818 0.850431 0.352361
0.560327 0.848386 0.355077
0.581323 0.846250 0.358038
0.619257 0.841398 0.371527
0.657099 0.836576 0.387274
0.693263 0.832120 0.404669
0.727657 0.827848 0.423285
0.760006 0.823728 0.441871
0.789914 0.819638 0.460883
0.817655 0.815427 0.478920
0.843015 0.811185 0.496040
0.857420 0.799130 0.514336
0.858610 0.776211 0.534539
0.871000 0.766903 0.565881
0.893492 0.775448 0.603143
0.913878 0.789487 0.644251
0.927459 0.802396 0.685664
0.936034 0.816007 0.727199
0.410254 0.881102 0.380926
0.413062 0.881498 0.383001
0.415320 0.881559 0.383703
0.418769 0.881254 0.384009
0.423163 0.880552 0.383368
0.429297 0.879637 0.382605
0.436927 0.878508 0.381689
0.446540 0.877287 0.381659
0.458137 0.876097 0.382055
0.471595 0.875029 0.383581
0.486885 0.873899 0.385718
0.503655 0.872923 0.389075
0.521202 0.871794 0.392554
0.539300 0.870481 0.395758
0.557519 0.868864 0.398749
0.576043 0.867033 0.401282
0.594903 0.865141 0.404120
0.618921 0.862577 0.410285
0.655482 0.858091 0.425055
0.690578 0.853880 0.441749
0.724056 0.849882 0.459419
0.755550 0.845975 0.477394
0.784939 0.842161 0.495338
0.812161 0.838346 0.513115
0.837308 0.834501 0.530205
0.860319 0.830747 0.547356
0.873899 0.820584 0.565545
0.874907 0.800504 0.585199
0.884703 0.792691 0.618616
0.900938 0.799496 0.658534
0.917235 0.813993 0.701015
0.927977 0.827787 0.741604
0.450813 0.894591 0.428351
0.452766 0.894743 0.429511
0.454719 0.894774 0.430671
0.457527 0.894591 0.430640
0.462104 0.894163 0.431373
0.468330 0.893797 0.432380
0.476905 0.893462 0.434638
0.487556 0.893217 0.437903
0.500145 0.893034 0.442329
0.514580 0.892882 0.448035
0.530175 0.892699 0.454658
0.546654 0.892454 0.461067
0.563378 0.891997 0.467414
0.580072 0.891295 0.473030
0.596674 0.890227 0.477729
0.612848 0.888853 0.481331
0.629114 0.887327 0.484443
0.646052 0.885832 0.488319
0.672511 0.882933 0.498238
0.704616 0.879088 0.513634
0.735195 0.875395 0.529870
0.764187 0.871794 0.547021
0.791226 0.868254 0.564111
0.816342 0.864775 0.581079
0.839475 0.861387 0.597986
0.860594 0.858152 0.614496
0.879850 0.855192 0.631037
0.891386 0.847379 0.648341
0.891997 0.831601 0.666651
0.898466 0.826230 0.698909
0.908843 0.832181 0.736904
0.920775 0.845945 0.774380
0.514153 0.909453 0.502708
0.515587 0.909514 0.503532
0.516625 0.909422 0.503838
0.518303 0.909117 0.503593
0.520897 0.908721 0.502831
0.524956 0.908171 0.502647
0.530480 0.907591 0.503166
0.537530 0.907073 0.504021
0.546380 0.906462 0.506096
0.556756 0.905852 0.509117
0.568109 0.905211 0.512352
0.580560 0.904509 0.516197
0.593744 0.903685 0.520287
0.607172 0.902708 0.523857
0.620966 0.901610 0.527367
0.635065 0.900389 0.530877
