其他预设/【234】港风调色预设/1.3D LUT预设（视频调色-PR-AE-PS-FCPX-达芬奇用）/11.港风色调 __.cube
# Created by Adobe Lightroom plugin Export LUT (1.17.0)
# www.johnrellis.com/lightroom/exportlut.htm
# Preset: 11.港风色调 [素锦印象]
# Color profile: /Library/Application Support/Adobe/Color/Profiles/Recommended/AdobeRGB1998.icc
LUT_3D_SIZE 8
DOMAIN_MIN 0.000000 0.000000 0.000000
DOMAIN_MAX 0.903226 0.903226 0.903226
0.023560 0.031159 0.036866
0.050141 0.035859 0.040101
0.134463 0.034180 0.040070
0.342809 0.000000 0.011505
0.589105 0.000000 0.000000
0.789242 0.000000 0.000000
0.925109 0.000000 0.000000
1.000000 0.303197 0.102205
0.018524 0.061677 0.050874
0.049195 0.060670 0.041840
0.145571 0.066316 0.028809
0.348669 0.000000 0.000000
0.589197 0.000000 0.000000
0.784421 0.000000 0.000000
0.921080 0.017945 0.000000
1.000000 0.312810 0.064973
0.000000 0.163180 0.084108
0.000000 0.160708 0.062684
0.133761 0.158328 0.032197
0.378820 0.158724 0.000000
0.614923 0.100160 0.000000
0.797177 0.109743 0.000000
0.930327 0.234989 0.000000
1.000000 0.375341 0.000000
0.000000 0.364233 0.137026
0.000000 0.363073 0.113252
0.072145 0.323217 0.081697
0.352850 0.356603 0.000000
0.638025 0.372168 0.000000
0.817502 0.359594 0.000000
0.935485 0.389441 0.000000
1.000000 0.462989 0.000000
0.000000 0.593530 0.233524
0.000000 0.592096 0.215000
0.000000 0.577508 0.161196
0.297307 0.517845 0.151278
0.587671 0.565026 0.000000
0.801175 0.576257 0.000000
0.931151 0.567407 0.000000
1.000000 0.577661 0.000000
0.000000 0.780484 0.359350
0.000000 0.783291 0.348943
0.000000 0.777920 0.305333
0.244846 0.739559 0.223301
0.534783 0.707088 0.237308
0.769467 0.740902 0.111452
0.920256 0.747494 0.000000
1.000000 0.737911 0.000000
0.000000 0.917845 0.500755
0.000000 0.917662 0.492622
0.000000 0.912505 0.463478
0.311467 0.892668 0.433021
0.541558 0.851682 0.397986
0.729854 0.846738 0.386481
0.895018 0.863890 0.304753
0.994415 0.862242 0.138735
0.000000 1.000000 0.639155
0.000000 1.000000 0.634638
0.000000 0.997864 0.623529
0.384100 0.983215 0.624323
0.589075 0.959716 0.578180
0.755154 0.929503 0.630549
0.872190 0.935607 0.607843
0.972473 0.942077 0.542199
0.023499 0.035981 0.060334
0.047364 0.037964 0.059144
0.131685 0.045747 0.056031
0.340642 0.000000 0.008850
0.584955 0.000000 0.000000
0.779721 0.000000 0.000000
0.918059 0.000000 0.000000
1.000000 0.297826 0.081056
0.010376 0.064820 0.072694
0.050355 0.064637 0.067872
0.141024 0.069368 0.060334
0.347631 0.000000 0.003174
0.588861 0.000000 0.000000
0.779232 0.000000 0.000000
0.915496 0.071778 0.000000
1.000000 0.307561 0.007935
0.000000 0.164096 0.112612
0.000000 0.165743 0.098146
0.138613 0.162844 0.076997
0.373877 0.149569 0.000000
0.607294 0.114534 0.000000
0.789456 0.135164 0.000000
0.921691 0.232853 0.000000
1.000000 0.367895 0.000000
0.000000 0.361303 0.172366
0.000000 0.361395 0.155734
0.078889 0.335760 0.114900
0.346715 0.350103 0.068421
0.618128 0.357458 0.000000
0.801602 0.344549 0.000000
0.926513 0.383154 0.000000
1.000000 0.456306 0.000000
0.000000 0.592218 0.268467
0.000000 0.590082 0.251835
0.000000 0.581781 0.202976
0.299596 0.510765 0.185397
0.578271 0.556054 0.062684
0.792874 0.568750 0.000000
0.926513 0.560388 0.000000
1.000000 0.574395 0.000000
0.000000 0.776577 0.384344
0.000000 0.775906 0.371923
0.000000 0.771023 0.330510
0.239933 0.738308 0.245945
0.533165 0.702449 0.265995
0.766964 0.738796 0.171511
0.917571 0.745724 0.000000
1.000000 0.735348 0.000000
0.000000 0.913787 0.516167
0.000000 0.912413 0.506493
0.000000 0.908049 0.478309
0.312352 0.890806 0.454414
0.540978 0.851255 0.412543
0.727047 0.843809 0.405982
0.890929 0.861051 0.329351
0.991272 0.859861 0.184268
0.000000 1.000000 0.649592
0.000000 1.000000 0.645655
0.000000 0.997101 0.634180
0.371374 0.982879 0.633173
0.595575 0.961669 0.597528
0.757656 0.930968 0.643091
0.871000 0.935058 0.620691
0.970397 0.941375 0.557244
0.000000 0.049866 0.124086
0.023682 0.052613 0.126284
0.133120 0.050446 0.122469
0.332952 0.000000 0.124605
0.581018 0.000000 0.102388
0.783505 0.000000 0.000000
0.924010 0.121218 0.000000
1.000000 0.316991 0.071809
0.000000 0.075929 0.131258
0.017395 0.077638 0.138674
0.137697 0.084657 0.135134
0.333928 0.095308 0.144778
0.582513 0.000000 0.106996
0.781827 0.000000 0.000000
0.922484 0.158175 0.000000
1.000000 0.328588 0.000000
0.000000 0.157168 0.192905
0.000000 0.160739 0.187686
0.148135 0.177096 0.171695
0.362280 0.181796 0.152255
0.601343 0.172976 0.109071
0.788907 0.199893 0.000000
0.925078 0.268437 0.000000
1.000000 0.379431 0.000000
0.000000 0.369390 0.279667
0.000000 0.376562 0.272801
0.014649 0.374640 0.230472
0.361913 0.362524 0.199924
0.621942 0.361028 0.110658
0.799008 0.365667 0.000000
0.928069 0.406073 0.000000
1.000000 0.466224 0.000000
0.000000 0.601221 0.372381
0.000000 0.600397 0.359716
0.000000 0.594324 0.318212
0.327398 0.544213 0.271855
0.588067 0.565728 0.232944
0.792996 0.573236 0.101350
0.926879 0.561151 0.000000
1.000000 0.580377 0.000000
0.000000 0.781857 0.471778
0.000000 0.781094 0.462074
0.000000 0.775570 0.426734
0.307469 0.751858 0.375647
0.541497 0.700984 0.357977
0.764065 0.738674 0.301946
0.913603 0.746731 0.180758
1.000000 0.737087 0.000000
0.000000 0.917296 0.586328
0.000000 0.916106 0.578271
0.000000 0.911040 0.551690
0.282109 0.896757 0.518883
0.549187 0.859312 0.474159
0.729305 0.843137 0.483589
0.888548 0.863310 0.431037
0.989075 0.864103 0.323674
0.000000 1.000000 0.696529
0.000000 1.000000 0.690913
0.000000 0.998291 0.678004
0.335424 0.984955 0.672724
0.625147 0.961181 0.668452
0.760891 0.934325 0.675990
0.869474 0.935149 0.667964
0.966339 0.942412 0.618952
0.000000 0.069703 0.244114
0.000000 0.074189 0.251408
0.139590 0.086213 0.272251
0.339788 0.000000 0.252964
0.572290 0.000000 0.251133
0.764309 0.195529 0.274907
0.911681 0.260319 0.228946
1.000000 0.328038 0.109224
0.000000 0.100526 0.251926
0.000000 0.100343 0.260899
0.146914 0.119783 0.280674
0.344427 0.097993 0.264164
0.573785 0.107698 0.263706
0.764401 0.223148 0.277440
0.910796 0.281773 0.229984
1.000000 0.341863 0.102083
0.000000 0.161410 0.279271
0.000000 0.168307 0.276158
0.138705 0.199100 0.293675
0.354772 0.222843 0.296422
0.578515 0.267979 0.306065
0.773251 0.309972 0.290867
0.916930 0.360357 0.240055
1.000000 0.402686 0.096376
0.000000 0.327550 0.379339
0.000000 0.332067 0.376013
0.000000 0.348455 0.365087
0.368414 0.372625 0.347448
0.598657 0.390173 0.326665
0.780606 0.416815 0.293980
0.917205 0.454231 0.236149
1.000000 0.492103 0.088502
0.000000 0.585046 0.498024
0.000000 0.589166 0.494362
0.000000 0.605493 0.480720
0.322210 0.592828 0.423804
0.591730 0.573877 0.393317
0.788296 0.574792 0.319615
0.920867 0.578485 0.234073
1.000000 0.602594 0.080079
0.000000 0.795041 0.611048
0.000000 0.796902 0.605188
0.000000 0.790738 0.571313
0.260868 0.773678 0.519554
0.563439 0.719783 0.480873
0.762264 0.743984 0.459632
0.907866 0.750820 0.375433
1.000000 0.737148 0.188296
0.000000 0.922240 0.691035
0.000000 0.921813 0.684932
0.000000 0.918364 0.662867
0.200351 0.905943 0.626856
0.574945 0.875639 0.593133
0.733089 0.843931 0.590753
0.882261 0.865721 0.560632
0.982147 0.867765 0.474983
0.000000 1.000000 0.773037
0.000000 1.000000 0.769039
0.000000 1.000000 0.753872
0.199741 0.990967 0.734676
0.617731 0.967254 0.738369
0.761624 0.941131 0.723751
0.866117 0.935027 0.730434
0.959930 0.943664 0.698909
0.000000 0.100435 0.392798
0.000000 0.106874 0.401160
0.097902 0.124880 0.427527
0.386847 0.143557 0.467262
0.576013 0.080201 0.422827
0.759304 0.196963 0.416022
0.892607 0.379004 0.454658
0.984894 0.512139 0.484413
0.000000 0.138308 0.397131
0.000000 0.133822 0.405921
0.110414 0.155062 0.431830
0.394018 0.190280 0.476509
0.576776 0.152163 0.430549
0.758663 0.242588 0.425757
0.890074 0.415045 0.471626
0.985321 0.518212 0.482338
0.000000 0.194186 0.381842
0.000000 0.205509 0.394324
0.105531 0.228946 0.433783
0.388556 0.285191 0.482734
0.577661 0.283543 0.455146
0.753719 0.354314 0.455360
0.882231 0.502953 0.514702
0.986816 0.534997 0.469276
0.000000 0.308598 0.462867
0.000000 0.312963 0.459785
0.000000 0.329320 0.450141
0.354040 0.383490 0.480232
0.580560 0.431525 0.496345
0.750149 0.494697 0.510307
0.888792 0.549737 0.510826
0.993042 0.564782 0.436255
0.000000 0.515648 0.578393
0.000000 0.519005 0.576379
0.000000 0.529717 0.568627
0.284001 0.546807 0.557580
0.578576 0.571588 0.544427
0.759823 0.593530 0.527703
0.896941 0.618677 0.494453
0.995300 0.638331 0.421729
0.000000 0.732753 0.675837
0.000000 0.739986 0.678859
0.000000 0.760922 0.685664
0.000000 0.773861 0.672175
0.540124 0.753109 0.617243
0.748989 0.741634 0.600824
0.896208 0.746853 0.535698
0.995697 0.740444 0.429175
0.000000 0.918730 0.792966
0.000000 0.919738 0.790982
0.000000 0.923369 0.783963
0.000000 0.914427 0.752224
0.518700 0.891356 0.708766
0.730373 0.847410 0.683803
0.871611 0.865843 0.676539
0.972351 0.868070 0.606775
0.000000 1.000000 0.851438
0.000000 1.000000 0.848356
0.000000 1.000000 0.837034
0.000000 0.997436 0.817990
0.518334 0.977935 0.794858
0.755215 0.951110 0.783169
0.859403 0.933532 0.789731
0.952148 0.944091 0.773159
0.000000 0.151400 0.568048
0.000000 0.158114 0.575280
0.000000 0.177554 0.599084
0.386206 0.212680 0.642390
0.618036 0.248997 0.663630
0.756680 0.258518 0.605402
0.883757 0.398169 0.601709
0.965515 0.579492 0.661463
0.000000 0.185214 0.564660
0.000000 0.181003 0.572076
0.000000 0.202304 0.596490
0.384283 0.241062 0.639521
0.617792 0.287114 0.666163
0.754330 0.291905 0.608942
0.881621 0.421302 0.607660
0.963897 0.592096 0.666682
0.000000 0.252171 0.550683
0.000000 0.259281 0.560754
0.000000 0.270024 0.594293
0.379095 0.320989 0.638849
0.625238 0.400580 0.684840
0.752346 0.392828 0.628351
0.877134 0.497536 0.632837
0.959625 0.636591 0.687770
0.000000 0.330205 0.563409
0.000000 0.332982 0.559411
0.000000 0.350072 0.557671
0.343969 0.409247 0.629023
0.618677 0.516014 0.696162
0.750790 0.522728 0.662440
0.872160 0.598962 0.673091
0.951904 0.710872 0.729641
0.000000 0.486549 0.660121
0.000000 0.488655 0.657832
0.000000 0.495735 0.649622
0.258793 0.507744 0.634913
0.552270 0.570367 0.667292
0.741543 0.634119 0.692287
0.863859 0.692287 0.710964
0.957000 0.737240 0.716701
0.000000 0.680323 0.751156
0.000000 0.683040 0.750759
0.000000 0.689174 0.746731
0.088838 0.698421 0.740200
0.492622 0.711696 0.732143
0.733974 0.739742 0.729274
0.870878 0.762631 0.721248
0.967681 0.778775 0.688746
0.000000 0.862882 0.828733
0.000000 0.865232 0.828946
0.000000 0.871672 0.828061
0.000000 0.892821 0.838437
0.416999 0.899321 0.832609
0.715328 0.877928 0.795102
0.861570 0.867613 0.784329
0.962737 0.867613 0.731746
0.000000 1.000000 0.907195
0.000000 1.000000 0.906340
0.000000 1.000000 0.903258
0.000000 1.000000 0.897551
0.400305 0.988190 0.879454
0.710079 0.964446 0.854459
0.854307 0.935088 0.845487
0.945556 0.945525 0.843748
0.000000 0.227756 0.746517
0.000000 0.234684 0.752377
0.000000 0.254948 0.766903
0.401831 0.295323 0.792111
0.637690 0.384100 0.824063
0.785061 0.418006 0.819486
0.872953 0.453803 0.766781
0.953307 0.588922 0.770047
0.000000 0.253178 0.738827
0.000000 0.251041 0.744900
0.000000 0.271641 0.760189
0.394476 0.312200 0.785702
0.630243 0.398413 0.818357
0.779660 0.435462 0.816037
0.867918 0.463294 0.763241
0.950042 0.590692 0.766537
0.000000 0.323674 0.730098
0.000000 0.329778 0.736446
0.000000 0.328191 0.754635
0.385809 0.374060 0.781582
0.623346 0.460151 0.815335
0.780087 0.519066 0.823941
0.866117 0.531731 0.777279
0.948241 0.640009 0.784176
0.000000 0.382300 0.702480
0.000000 0.387030 0.707576
0.000000 0.407996 0.728939
0.341558 0.444831 0.769894
0.603235 0.534112 0.809323
0.783536 0.629450 0.839170
0.863645 0.622553 0.798520
0.944762 0.703120 0.805997
0.000000 0.497658 0.756222
0.000000 0.496864 0.752255
0.000000 0.496040 0.740444
0.197635 0.495766 0.719478
0.527031 0.574884 0.783413
0.766445 0.700404 0.839872
0.855253 0.702083 0.813901
0.939422 0.766659 0.827115
0.000000 0.657893 0.825772
0.000000 0.658259 0.824247
0.000000 0.658930 0.818814
0.000000 0.658808 0.808774
0.422278 0.658289 0.790066
0.699214 0.724422 0.815061
0.852659 0.790951 0.840635
0.936278 0.834531 0.855558
0.000000 0.822232 0.879088
0.000000 0.823697 0.879057
0.000000 0.826291 0.877104
0.000000 0.829923 0.873960
0.391302 0.832822 0.867979
0.657069 0.840085 0.861601
0.846128 0.861692 0.862547
0.943572 0.876738 0.858244
0.000000 0.957610 0.924743
0.000000 0.958404 0.924681
0.000000 0.962341 0.925811
0.000000 0.965515 0.925750
0.364446 0.972015 0.929564
0.646601 0.970336 0.927123
0.843015 0.953765 0.906767
0.940398 0.946899 0.902556
0.000000 0.349126 0.890166
0.000000 0.355169 0.891966
0.261357 0.372656 0.895506
0.473365 0.413367 0.903502
0.661402 0.489204 0.913603
0.814054 0.603326 0.925078
0.893858 0.598474 0.915099
0.943481 0.633814 0.878264
0.000000 0.367285 0.886778
0.000000 0.366888 0.888884
0.253117 0.384802 0.893034
0.467323 0.424537 0.900969
0.657191 0.499275 0.911559
0.810941 0.610498 0.923552
0.891478 0.608240 0.914061
0.941741 0.639490 0.877684
0.000000 0.430243 0.879484
0.000000 0.436439 0.881712
0.213901 0.422644 0.887114
0.453376 0.466621 0.897673
0.648463 0.538048 0.908598
0.804440 0.640345 0.921233
0.888090 0.651942 0.915282
0.939147 0.671656 0.881712
0.000000 0.472969 0.867430
0.000000 0.477638 0.869932
0.156130 0.494087 0.876524
0.400824 0.514672 0.890318
0.622644 0.584802 0.903655
0.792081 0.681209 0.918761
0.885069 0.717800 0.919738
0.936584 0.722621 0.890196
0.000000 0.552056 0.868254
0.000000 0.551568 0.866758
0.000000 0.544976 0.857877
0.232273 0.556939 0.870481
0.543267 0.613214 0.892088
0.758572 0.709102 0.911864
0.881010 0.785306 0.925353
0.933715 0.780636 0.901061
0.000000 0.678950 0.905577
0.000000 0.677180 0.903838
0.000000 0.671351 0.898192
0.000000 0.660822 0.887846
0.358434 0.645777 0.868528
0.679744 0.724941 0.898985
0.875303 0.842130 0.931548
0.934020 0.844846 0.917571
0.000000 0.817960 0.938018
0.000000 0.817411 0.937224
0.000000 0.815274 0.934661
0.000000 0.811856 0.930327
0.301274 0.805753 0.922423
0.575799 0.798337 0.907927
0.815885 0.845121 0.916045
0.932067 0.895964 0.931060
0.000000 0.937102 0.961486
0.000000 0.937072 0.961120
0.000000 0.937407 0.960235
0.000000 0.937377 0.958801
0.267399 0.934997 0.956023
0.587915 0.931151 0.951659
0.789700 0.930327 0.946197
0.930632 0.942504 0.945525
