其他预设/【234】港风调色预设/1.3D LUT预设（视频调色-PR-AE-PS-FCPX-达芬奇用）/11.港风色调 __.cube
# Created by Adobe Lightroom plugin Export LUT (1.17.0)
# www.johnrellis.com/lightroom/exportlut.htm
# Preset: 11.港风色调 [素锦印象]
# Color profile: /Library/Application Support/Adobe/Color/Profiles/Recommended/AdobeRGB1998.icc
LUT_3D_SIZE 32
0.023560 0.031159 0.036866
0.026276 0.030701 0.036835
0.028595 0.031464 0.037781
0.036194 0.032532 0.038605
0.050141 0.035859 0.040101
0.064881 0.039582 0.041260
0.080690 0.043336 0.041840
0.103029 0.043763 0.041627
0.134463 0.034180 0.040070
0.175753 0.005188 0.037568
0.225742 0.000000 0.032898
0.282017 0.000000 0.024140
0.342809 0.000000 0.011505
0.405829 0.000000 0.000000
0.468788 0.000000 0.000000
0.530510 0.000000 0.000000
0.589105 0.000000 0.000000
0.644129 0.000000 0.000000
0.694423 0.000000 0.000000
0.744533 0.000000 0.000000
0.789242 0.000000 0.000000
0.829313 0.000000 0.000000
0.865110 0.000000 0.000000
0.896849 0.000000 0.000000
0.925109 0.000000 0.000000
0.950317 0.112642 0.000000
0.972992 0.189700 0.000000
0.993439 0.249180 0.018341
1.000000 0.303197 0.102205
1.000000 0.355352 0.151980
1.000000 0.407019 0.201236
1.000000 0.459846 0.255680
0.024353 0.033326 0.037751
0.025727 0.033112 0.037720
0.029847 0.033631 0.036500
0.037446 0.034699 0.037293
0.051087 0.038025 0.038788
0.065766 0.042725 0.039857
0.081727 0.047333 0.040314
0.103792 0.047639 0.040101
0.135012 0.038300 0.039643
0.176272 0.010285 0.037018
0.226047 0.000000 0.031281
0.281804 0.000000 0.022522
0.341985 0.000000 0.010040
0.404700 0.000000 0.000000
0.467536 0.000000 0.000000
0.528985 0.000000 0.000000
0.587427 0.000000 0.000000
0.642359 0.000000 0.000000
0.692805 0.000000 0.000000
0.742275 0.000000 0.000000
0.786770 0.000000 0.000000
0.826841 0.000000 0.000000
0.862669 0.000000 0.000000
0.894682 0.000000 0.000000
0.923156 0.000000 0.000000
0.948669 0.111177 0.000000
0.971649 0.187778 0.000000
0.992309 0.247837 0.000244
1.000000 0.301610 0.096223
1.000000 0.353765 0.147738
1.000000 0.405402 0.197818
1.000000 0.457954 0.251621
0.023438 0.036927 0.039643
0.026368 0.036500 0.038514
0.028931 0.037232 0.038392
0.038300 0.038087 0.036988
0.052796 0.042390 0.037293
0.067048 0.046876 0.038331
0.082704 0.051331 0.038727
0.104799 0.052399 0.038392
0.136141 0.044190 0.037903
0.177401 0.015717 0.035218
0.226871 0.000000 0.029297
0.282506 0.000000 0.020447
0.342412 0.000000 0.007904
0.404852 0.000000 0.000000
0.467475 0.000000 0.000000
0.528710 0.000000 0.000000
0.586999 0.000000 0.000000
0.641779 0.000000 0.000000
0.692561 0.000000 0.000000
0.741329 0.000000 0.000000
0.785733 0.000000 0.000000
0.825772 0.000000 0.000000
0.861570 0.000000 0.000000
0.893706 0.000000 0.000000
0.922301 0.000000 0.000000
0.947875 0.114107 0.000000
0.970977 0.189731 0.000000
0.991730 0.248569 0.000000
1.000000 0.302007 0.091279
1.000000 0.354009 0.144076
1.000000 0.405463 0.194858
1.000000 0.457710 0.248936
0.022217 0.047364 0.044221
0.025391 0.047028 0.042023
0.028260 0.045441 0.042084
0.036500 0.046509 0.039612
0.053712 0.051301 0.036408
0.069917 0.056550 0.034913
0.085664 0.059724 0.035248
0.108339 0.060334 0.035828
0.140017 0.054170 0.034058
0.181094 0.030365 0.031006
0.230259 0.000000 0.024781
0.285435 0.000000 0.015595
0.344854 0.000000 0.002533
0.406714 0.000000 0.000000
0.468818 0.000000 0.000000
0.529473 0.000000 0.000000
0.587518 0.000000 0.000000
0.641810 0.000000 0.000000
0.692531 0.000000 0.000000
0.740475 0.000000 0.000000
0.784207 0.000000 0.000000
0.824002 0.000000 0.000000
0.859983 0.000000 0.000000
0.892363 0.000000 0.000000
0.921508 0.000000 0.000000
0.947509 0.126986 0.000000
0.970825 0.197269 0.000000
0.991760 0.254368 0.000000
1.000000 0.306706 0.082948
1.000000 0.357397 0.138247
1.000000 0.407630 0.189517
1.000000 0.459205 0.244633
0.018524 0.061677 0.050874
0.020142 0.062074 0.049165
0.025025 0.061311 0.046693
0.034028 0.058869 0.045899
0.049195 0.060670 0.041840
0.068116 0.066133 0.036500
0.087953 0.069459 0.031861
0.113344 0.069490 0.029969
0.145571 0.066316 0.028809
0.186618 0.055634 0.025208
0.235142 0.011353 0.018494
0.289860 0.000000 0.007507
0.348669 0.000000 0.000000
0.409674 0.000000 0.000000
0.471168 0.000000 0.000000
0.531548 0.000000 0.000000
0.589197 0.000000 0.000000
0.643275 0.000000 0.000000
0.694362 0.000000 0.000000
0.741421 0.000000 0.000000
0.784421 0.000000 0.000000
0.823850 0.000000 0.000000
0.859586 0.000000 0.000000
0.891936 0.000000 0.000000
0.921080 0.017945 0.000000
0.947173 0.146426 0.000000
0.970581 0.208743 0.000000
0.991516 0.262547 0.000000
1.000000 0.312810 0.064973
1.000000 0.361883 0.127749
1.000000 0.411048 0.181979
1.000000 0.461341 0.236973
0.010254 0.076753 0.060548
0.012085 0.077058 0.059205
0.017060 0.077211 0.055482
0.028534 0.074159 0.047730
0.046815 0.071626 0.047852
0.064393 0.074678 0.042298
0.085481 0.081697 0.035401
0.113741 0.085206 0.026795
0.152804 0.082795 0.019989
0.194736 0.075898 0.015686
0.243168 0.061158 0.007904
0.297215 0.001709 0.000000
0.355138 0.000000 0.000000
0.415473 0.000000 0.000000
0.476173 0.000000 0.000000
0.535912 0.000000 0.000000
0.592767 0.000000 0.000000
0.646509 0.000000 0.000000
0.697383 0.000000 0.000000
0.743679 0.000000 0.000000
0.786282 0.000000 0.000000
0.825467 0.000000 0.000000
0.875975 0.000000 0.000000
0.906371 0.039460 0.000000
0.933440 0.141054 0.000000
0.957580 0.198215 0.000000
0.979187 0.247562 0.000000
0.998596 0.293797 0.000000
1.000000 0.339086 0.062196
1.000000 0.384283 0.128695
1.000000 0.430488 0.184298
1.000000 0.478035 0.240726
0.000000 0.098817 0.067994
0.000000 0.098970 0.066407
0.002106 0.099153 0.063905
0.013764 0.098024 0.057221
0.038117 0.090913 0.052033
0.061280 0.090822 0.049836
0.080171 0.095827 0.042267
0.112215 0.104555 0.030121
0.152560 0.106783 0.018372
0.202365 0.104616 0.004425
0.258366 0.093690 0.000000
0.312413 0.077211 0.000000
0.369848 0.030030 0.000000
0.429053 0.000000 0.000000
0.488472 0.000000 0.000000
0.546410 0.000000 0.000000
0.601648 0.000000 0.000000
0.656184 0.000000 0.000000
0.705928 0.000000 0.000000
0.751858 0.000000 0.000000
0.794644 0.000000 0.000000
0.834318 0.000000 0.000000
0.870329 0.000000 0.000000
0.902739 0.106966 0.000000
0.931243 0.168460 0.000000
0.956207 0.217685 0.000000
0.978271 0.262547 0.000000
0.997894 0.305638 0.000000
1.000000 0.348211 0.000000
1.000000 0.391394 0.107729
1.000000 0.435706 0.169131
1.000000 0.481727 0.227695
0.000000 0.127199 0.075502
0.000000 0.127321 0.073671
0.000000 0.127443 0.070771
0.000000 0.128023 0.064759
0.011933 0.121706 0.050813
0.052003 0.111574 0.058839
0.073548 0.116609 0.051575
0.101930 0.123201 0.039734
0.148165 0.132937 0.021454
0.198276 0.134188 0.003021
0.255467 0.131563 0.000000
0.317266 0.123690 0.000000
0.378882 0.106142 0.000000
0.436988 0.083772 0.000000
0.495033 0.032227 0.000000
0.551659 0.000000 0.000000
0.607263 0.000000 0.000000
0.660578 0.000000 0.000000
0.708583 0.000000 0.000000
0.753414 0.000000 0.000000
0.795346 0.000000 0.000000
0.834287 0.000000 0.000000
0.869902 0.105653 0.000000
0.901976 0.156252 0.000000
0.930388 0.200412 0.000000
0.955413 0.241489 0.000000
0.977508 0.281193 0.000000
0.997253 0.320409 0.000000
1.000000 0.360388 0.000000
1.000000 0.400732 0.076081
1.000000 0.442908 0.149081
1.000000 0.487098 0.211673
0.000000 0.163180 0.084108
0.000000 0.163333 0.081605
0.000000 0.163394 0.078676
0.000000 0.163668 0.072053
0.000000 0.160708 0.062684
0.018891 0.150423 0.057221
0.064546 0.142153 0.061769
0.092348 0.150271 0.051057
0.133761 0.158328 0.032197
0.193423 0.168887 0.004059
0.251652 0.169375 0.000000
0.313970 0.165713 0.000000
0.378820 0.158724 0.000000
0.444312 0.147555 0.000000
0.503532 0.131106 0.000000
0.559625 0.114748 0.000000
0.614923 0.100160 0.000000
0.666224 0.088319 0.000000
0.712734 0.083650 0.000000
0.756283 0.090822 0.000000
0.797177 0.109743 0.000000
0.835477 0.136355 0.000000
0.870542 0.167727 0.000000
0.902159 0.200870 0.000000
0.930327 0.234989 0.000000
0.955169 0.268956 0.000000
0.977264 0.303624 0.000000
0.997009 0.338964 0.000000
1.000000 0.375341 0.000000
1.000000 0.412909 0.000000
1.000000 0.452491 0.123690
1.000000 0.494392 0.192020
0.000000 0.205753 0.093294
0.000000 0.205844 0.091371
0.000000 0.206149 0.087953
0.000000 0.206149 0.080995
0.000000 0.206516 0.070893
0.000000 0.196872 0.053315
0.033692 0.183932 0.062562
0.081453 0.180667 0.063386
0.121553 0.190127 0.047211
0.175326 0.199100 0.015930
0.246189 0.210880 0.000000
0.309575 0.210422 0.000000
0.375128 0.206424 0.000000
0.440986 0.200290 0.000000
0.506249 0.192599 0.000000
0.569787 0.184085 0.000000
0.623987 0.177371 0.000000
0.673396 0.172488 0.000000
0.718410 0.171450 0.000000
0.760525 0.174533 0.000000
0.800259 0.184176 0.000000
0.837186 0.198734 0.000000
0.871153 0.218662 0.000000
0.902007 0.242313 0.000000
0.929686 0.269047 0.000000
0.954437 0.297704 0.000000
0.976593 0.327611 0.000000
0.996551 0.359106 0.000000
1.000000 0.392370 0.000000
1.000000 0.427375 0.000000
1.000000 0.464515 0.085359
1.000000 0.504326 0.169467
0.000000 0.253025 0.104891
0.000000 0.253056 0.102785
0.000000 0.253208 0.099336
0.000000 0.253208 0.091798
0.000000 0.253483 0.081086
0.000000 0.248356 0.070558
0.000000 0.236057 0.059205
0.065766 0.220584 0.070985
0.110048 0.224582 0.064973
0.161868 0.235386 0.038422
0.225254 0.244846 0.000000
0.304509 0.257908 0.000000
0.371069 0.257145 0.000000
0.439399 0.254093 0.000000
0.505730 0.249851 0.000000
0.568688 0.245274 0.000000
0.627649 0.241855 0.000000
0.679164 0.236851 0.000000
0.722621 0.235264 0.000000
0.763729 0.236759 0.000000
0.802518 0.242557 0.000000
0.838743 0.252323 0.000000
0.872313 0.266819 0.000000
0.902678 0.284703 0.000000
0.930053 0.306157 0.000000
0.954589 0.329625 0.000000
0.976562 0.355108 0.000000
0.996399 0.382513 0.000000
1.000000 0.412116 0.000000
1.000000 0.443915 0.000000
1.000000 0.478096 0.000000
1.000000 0.515221 0.138430
0.000000 0.304967 0.119203
0.000000 0.304997 0.116548
0.000000 0.304967 0.113252
0.000000 0.304967 0.106203
0.000000 0.305119 0.095369
0.000000 0.304723 0.083467
0.000000 0.292973 0.061952
0.000000 0.278080 0.068116
0.098482 0.261479 0.081636
0.150271 0.272923 0.065980
0.210636 0.284184 0.024781
0.282719 0.295476 0.000000
0.383276 0.321599 0.000000
0.453712 0.321904 0.000000
0.521233 0.319402 0.000000
0.584375 0.315801 0.000000
0.642359 0.312779 0.000000
0.693812 0.309697 0.000000
0.739681 0.307713 0.000000
0.779934 0.304967 0.000000
0.816434 0.307744 0.000000
0.850309 0.314061 0.000000
0.881559 0.323186 0.000000
0.910185 0.336248 0.000000
0.936065 0.352331 0.000000
0.959350 0.370977 0.000000
0.980438 0.391730 0.000000
0.999512 0.414801 0.000000
1.000000 0.440192 0.000000
1.000000 0.468147 0.000000
1.000000 0.498665 0.000000
1.000000 0.532433 0.101778
0.000000 0.364233 0.137026
0.000000 0.364111 0.134493
0.000000 0.364080 0.131014
0.000000 0.363592 0.123781
0.000000 0.363073 0.113252
0.000000 0.362219 0.100923
0.000000 0.354467 0.089113
0.000000 0.340612 0.063447
0.072145 0.323217 0.081697
0.141146 0.314916 0.088838
0.202487 0.329137 0.068696
0.273259 0.343175 0.007965
0.352850 0.356603 0.000000
0.446876 0.375830 0.000000
0.515679 0.376867 0.000000
0.579553 0.375311 0.000000
0.638025 0.372168 0.000000
0.689479 0.368170 0.000000
0.735714 0.364355 0.000000
0.778256 0.362615 0.000000
0.817502 0.359594 0.000000
0.850828 0.362615 0.000000
0.881559 0.368536 0.000000
0.909850 0.377600 0.000000
0.935485 0.389441 0.000000
0.958679 0.404242 0.000000
0.979736 0.421363 0.000000
0.998901 0.440986 0.000000
1.000000 0.462989 0.000000
1.000000 0.487800 0.000000
1.000000 0.515343 0.000000
1.000000 0.546166 0.000000
0.000000 0.420111 0.156435
0.000000 0.419989 0.153841
0.000000 0.419806 0.150790
0.000000 0.419562 0.144228
0.000000 0.418524 0.134066
0.000000 0.417792 0.121523
0.000000 0.415961 0.109621
0.000000 0.403357 0.081117
0.000000 0.387884 0.079713
0.127962 0.369818 0.099367
0.192233 0.370001 0.096254
0.259709 0.384649 0.071839
0.334813 0.398566 0.000000
0.416388 0.411536 0.000000
0.509178 0.431220 0.000000
0.574090 0.432593 0.000000
0.632593 0.430640 0.000000
0.684352 0.426429 0.000000
0.731014 0.421576 0.000000
0.773983 0.418067 0.000000
0.813626 0.416602 0.000000
0.849943 0.416144 0.000000
0.881956 0.414496 0.000000
0.909911 0.420203 0.000000
0.935332 0.428626 0.000000
0.958434 0.439643 0.000000
0.979431 0.453285 0.000000
0.998596 0.469551 0.000000
1.000000 0.488502 0.000000
1.000000 0.510185 0.000000
1.000000 0.534691 0.000000
1.000000 0.562554 0.000000
0.000000 0.479133 0.179080
0.000000 0.479011 0.177005
0.000000 0.478737 0.173953
0.000000 0.478370 0.167727
0.000000 0.477821 0.158389
0.000000 0.477058 0.146365
0.000000 0.476173 0.132662
0.000000 0.466651 0.119570
0.000000 0.452979 0.077913
0.093690 0.435248 0.099947
0.182834 0.415198 0.119539
0.248417 0.425208 0.105470
0.319585 0.439429 0.077150
0.397131 0.453132 0.000000
0.478065 0.465522 0.000000
0.567254 0.485389 0.000000
0.627283 0.486519 0.000000
0.679408 0.483101 0.000000
0.726345 0.478401 0.000000
0.769619 0.473915 0.000000
0.809506 0.470680 0.000000
0.846098 0.468818 0.000000
0.879332 0.469001 0.000000
0.909514 0.464790 0.000000
0.935149 0.468757 0.000000
0.958251 0.476753 0.000000
0.979309 0.487282 0.000000
0.998657 0.500786 0.000000
1.000000 0.516899 0.000000
1.000000 0.535790 0.000000
1.000000 0.557580 0.000000
1.000000 0.582574 0.000000
0.000000 0.538140 0.205325
0.000000 0.538262 0.203494
0.000000 0.537987 0.200626
0.000000 0.537774 0.194919
0.000000 0.537041 0.186099
0.000000 0.536187 0.174502
0.000000 0.535271 0.160922
0.000000 0.531456 0.147860
0.000000 0.518120 0.114504
0.000000 0.502312 0.102480
0.166232 0.482795 0.122988
0.239628 0.466133 0.137148
0.307622 0.479713 0.116518
0.380713 0.492683 0.085328
0.457343 0.504967 0.000000
0.534722 0.516381 0.000000
0.618372 0.535607 0.000000
0.673701 0.536034 0.000000
0.721492 0.532311 0.000000
0.765408 0.528496 0.000000
0.805905 0.524956 0.000000
0.842985 0.522087 0.000000
0.876616 0.520134 0.000000
0.907073 0.519799 0.000000
0.934539 0.516869 0.000000
0.958892 0.516289 0.000000
0.979828 0.523766 0.000000
0.999084 0.534112 0.000000
1.000000 0.547173 0.000000
1.000000 0.562737 0.000000
1.000000 0.581170 0.000000
1.000000 0.602869 0.000000
0.000000 0.593530 0.233524
0.000000 0.593469 0.231754
0.000000 0.593194 0.229282
0.000000 0.592676 0.223697
0.000000 0.592096 0.215000
0.000000 0.591089 0.204135
0.000000 0.589990 0.191196
0.000000 0.588373 0.176150
0.000000 0.577508 0.161196
0.000000 0.564111 0.107668
0.129793 0.545922 0.127993
0.229709 0.525017 0.147494
0.297307 0.517845 0.151278
0.367132 0.530877 0.129305
0.440314 0.542901 0.096468
0.514672 0.554284 0.000183
0.587671 0.565026 0.000000
0.664515 0.582330 0.000000
0.716213 0.582818 0.000000
0.760464 0.579553 0.000000
0.801175 0.576257 0.000000
0.838529 0.573083 0.000000
0.872496 0.570245 0.000000
0.903349 0.568292 0.000000
0.931151 0.567407 0.000000
0.956268 0.565118 0.000000
0.979248 0.561669 0.000000
0.998840 0.567590 0.000000
1.000000 0.577661 0.000000
1.000000 0.590417 0.000000
1.000000 0.606012 0.000000
1.000000 0.624750 0.000000
0.000000 0.645594 0.263645
0.000000 0.645624 0.261997
0.000000 0.657008 0.266880
0.000000 0.656458 0.261326
0.000000 0.655756 0.253391
0.000000 0.654444 0.242802
0.000000 0.652735 0.229435
0.000000 0.650721 0.214755
0.000000 0.644678 0.201480
0.000000 0.631678 0.165377
0.052277 0.616358 0.140780
0.217441 0.597009 0.159854
0.298436 0.574456 0.178500
0.364477 0.576013 0.171145
0.434363 0.587243 0.148287
0.504997 0.597833 0.116579
0.575189 0.607904 0.059937
0.642908 0.617487 0.000000
0.712642 0.632074 0.000000
0.760464 0.632410 0.000000
0.800565 0.628870 0.000000
0.837552 0.625391 0.000000
0.871275 0.622034 0.000000
0.901762 0.619104 0.000000
0.929198 0.616388 0.000000
0.954101 0.614618 0.000000
0.976715 0.611780 0.000000
0.997589 0.608240 0.000000
1.000000 0.609369 0.000000
1.000000 0.619165 0.000000
1.000000 0.631769 0.000000
1.000000 0.647364 0.000000
0.000000 0.696284 0.296300
0.000000 0.697627 0.295995
0.000000 0.698878 0.294377
0.000000 0.699886 0.290532
0.000000 0.700160 0.283696
0.000000 0.699550 0.274327
0.000000 0.698238 0.262028
0.000000 0.696315 0.248142
0.000000 0.693935 0.233494
0.000000 0.682582 0.218265
0.000000 0.670527 0.163973
0.185275 0.653803 0.171298
0.287205 0.633814 0.188815
0.356512 0.611719 0.206668
0.422736 0.621790 0.189242
0.490272 0.631800 0.166293
0.557214 0.641321 0.135775
0.622919 0.650416 0.089693
0.686519 0.659449 0.000000
0.750698 0.672755 0.000000
0.795346 0.673304 0.000000
0.832700 0.670466 0.000000
0.866758 0.667414 0.000000
0.897612 0.664576 0.000000
0.925383 0.661555 0.000000
0.950622 0.659205 0.000000
0.973602 0.657191 0.000000
0.994629 0.654719 0.000000
1.000000 0.651881 0.000000
1.000000 0.649348 0.000000
1.000000 0.658747 0.000000
1.000000 0.671412 0.000000
0.000000 0.739712 0.327214
0.000000 0.740871 0.327092
0.000000 0.742000 0.325994
0.000000 0.742763 0.322332
0.000000 0.743069 0.315923
0.000000 0.742458 0.307042
0.000000 0.741268 0.295781
0.000000 0.739498 0.282841
0.000000 0.737331 0.269017
0.000000 0.730556 0.256840
0.000000 0.719509 0.221347
0.135561 0.706752 0.187808
0.269383 0.689082 0.203830
0.352361 0.669459 0.220768
0.415473 0.656062 0.229007
0.479652 0.665431 0.211032
0.543786 0.674342 0.188998
0.606928 0.683009 0.160861
0.668544 0.691432 0.121523
0.728023 0.699947 0.031525
0.786831 0.711849 0.000000
0.828061 0.712367 0.000000
0.862394 0.709957 0.000000
0.893492 0.707210 0.000000
0.921508 0.704433 0.000000
0.946929 0.701595 0.000000
0.970062 0.699153 0.000000
0.991394 0.697230 0.000000
1.000000 0.694911 0.000000
1.000000 0.692683 0.000000
1.000000 0.690852 0.000000
1.000000 0.696040 0.000000
0.000000 0.780484 0.359350
0.000000 0.781491 0.359228
0.000000 0.782437 0.357977
0.000000 0.783139 0.354955
0.000000 0.783291 0.348943
0.000000 0.782803 0.340917
0.000000 0.781704 0.330388
0.000000 0.780148 0.318700
0.000000 0.777920 0.305333
0.000000 0.774960 0.292027
0.000000 0.763943 0.277775
0.105837 0.753964 0.226108
0.244846 0.739559 0.223301
0.342779 0.722103 0.238743
0.413642 0.702937 0.254429
0.473243 0.698299 0.254002
0.534783 0.707088 0.237308
0.595727 0.715694 0.216312
0.655604 0.724178 0.191073
0.713893 0.732509 0.158572
0.769467 0.740902 0.111452
0.823423 0.751705 0.003296
0.860960 0.752071 0.000000
0.892149 0.749966 0.000000
0.920256 0.747494 0.000000
0.945678 0.744869 0.000000
0.968872 0.742275 0.000000
0.990204 0.739925 0.000000
1.000000 0.737911 0.000000
1.000000 0.735836 0.000000
1.000000 0.734035 0.000000
1.000000 0.732723 0.000000
0.000000 0.822385 0.396094
0.000000 0.822751 0.395636
0.000000 0.823026 0.394141
0.000000 0.823117 0.390570
0.000000 0.822782 0.385046
0.000000 0.822110 0.377417
0.000000 0.821012 0.367956
0.000000 0.819547 0.356970
0.000000 0.817746 0.345037
0.000000 0.815091 0.332647
0.000000 0.808072 0.324041
0.147280 0.798550 0.289860
0.220218 0.788266 0.250187
0.334142 0.772976 0.264347
0.414252 0.755917 0.278843
0.475166 0.737667 0.294224
0.531670 0.740505 0.285893
0.589532 0.748257 0.269383
0.646540 0.755795 0.249943
0.702083 0.763088 0.226963
0.755612 0.770260 0.198337
0.806332 0.777310 0.160494
0.854734 0.786191 0.119600
0.887785 0.785489 0.014405
0.915953 0.783261 0.000000
0.941497 0.780819 0.000000
0.964935 0.778347 0.000000
0.986542 0.775967 0.000000
1.000000 0.773861 0.000000
1.000000 0.771939 0.000000
1.000000 0.770321 0.000000
1.000000 0.769162 0.000000
0.000000 0.856718 0.429603
0.000000 0.857115 0.429297
0.000000 0.857420 0.427802
0.000000 0.857389 0.424811
0.000000 0.857115 0.419959
0.000000 0.856413 0.412879
0.000000 0.855406 0.404242
0.000000 0.853941 0.394354
0.000000 0.852140 0.383337
0.000000 0.849577 0.371984
0.000000 0.845853 0.361730
0.186343 0.835813 0.350958
0.231846 0.827970 0.303136
0.320684 0.815976 0.291447
0.409552 0.801083 0.305089
0.477119 0.785153 0.319463
0.530541 0.770413 0.332464
0.585107 0.777584 0.319158
0.639246 0.784512 0.304143
0.692531 0.791165 0.286046
0.744137 0.797696 0.265049
0.793423 0.803952 0.239841
0.839750 0.810208 0.208377
0.883085 0.817594 0.177859
0.910857 0.814267 0.133120
0.936584 0.812192 0.000000
0.960235 0.810056 0.000000
0.982055 0.807980 0.000000
1.000000 0.805875 0.000000
1.000000 0.804013 0.000000
1.000000 0.802396 0.000000
1.000000 0.801297 0.000000
0.000000 0.890684 0.467231
0.000000 0.891020 0.466682
0.000000 0.891142 0.465461
0.000000 0.891020 0.462715
0.000000 0.890532 0.458015
0.000000 0.889738 0.451331
0.000000 0.888609 0.443641
0.000000 0.886931 0.434333
0.000000 0.884825 0.424201
0.000000 0.882139 0.413855
0.000000 0.878538 0.403906
0.191501 0.870817 0.399298
0.269535 0.862608 0.367712
0.307988 0.854704 0.323583
0.404669 0.841245 0.335668
0.477241 0.826871 0.348699
0.534478 0.811673 0.362463
0.583246 0.804074 0.367895
0.634119 0.810208 0.355047
0.684535 0.816220 0.340764
0.733944 0.821988 0.324529
0.781369 0.827573 0.304784
0.826322 0.832761 0.281834
0.868070 0.837705 0.253330
0.906615 0.843534 0.227329
0.932372 0.841062 0.196933
0.955962 0.839170 0.132418
0.977844 0.837156 0.000000
0.998291 0.835264 0.000000
1.000000 0.833463 0.000000
1.000000 0.831785 0.000000
1.000000 0.830228 0.000000
0.000000 0.917845 0.500755
0.000000 0.918120 0.500420
0.000000 0.918273 0.499519
0.000000 0.918120 0.496742
0.000000 0.917662 0.492622
0.000000 0.916899 0.486885
0.000000 0.915862 0.480018
0.000000 0.914427 0.471901
0.000000 0.912505 0.463478
0.000000 0.910002 0.454597
0.000000 0.906767 0.446174
0.177584 0.901823 0.440223
0.311467 0.892668 0.433021
0.342504 0.886534 0.389471
0.403632 0.877256 0.372412
0.480537 0.864744 0.384619
0.541558 0.851682 0.397986
0.591150 0.838193 0.412512
0.636622 0.836698 0.411109
0.683680 0.841855 0.399725
0.729854 0.846738 0.386481
0.774807 0.851408 0.370733
0.817594 0.855741 0.352636
0.857816 0.859892 0.330632
0.895018 0.863890 0.304753
0.929412 0.868498 0.281376
0.951995 0.865415 0.256718
0.973846 0.863828 0.207156
0.994415 0.862242 0.138735
1.000000 0.860777 0.000000
1.000000 0.859098 0.000000
1.000000 0.857359 0.000000
0.000000 0.942931 0.535515
0.000000 0.943084 0.535027
0.000000 0.943114 0.534081
0.000000 0.942870 0.531762
0.000000 0.942290 0.527825
0.000000 0.941497 0.522789
0.000000 0.940398 0.516716
0.000000 0.938964 0.509728
0.000000 0.937072 0.502495
0.000000 0.934661 0.495125
0.000000 0.931456 0.488350
0.177096 0.927489 0.482795
0.329564 0.919524 0.484535
0.383886 0.912963 0.457923
0.410376 0.907317 0.416663
0.485084 0.896696 0.424201
0.548638 0.885222 0.436744
0.600458 0.873533 0.450477
0.643275 0.861631 0.465400
0.686061 0.864652 0.457923
0.728817 0.868833 0.447456
0.770687 0.872740 0.434699
0.810971 0.876402 0.420172
0.849119 0.879881 0.402441
0.884886 0.883207 0.381689
0.918151 0.886412 0.357183
0.948943 0.890135 0.335180
0.969024 0.886839 0.314244
0.989258 0.885222 0.271183
1.000000 0.883970 0.218936
1.000000 0.882567 0.142885
1.000000 0.881163 0.000000
0.000000 0.964752 0.568994
0.000000 0.964813 0.568444
0.000000 0.964782 0.567651
0.000000 0.964569 0.565606
0.000000 0.964111 0.562432
0.000000 0.963531 0.558465
0.000000 0.962768 0.554009
0.000000 0.961669 0.549065
0.000000 0.960174 0.543755
0.000000 0.958099 0.538842
0.000000 0.955261 0.534752
0.207187 0.951568 0.532403
0.344091 0.946044 0.533806
0.437354 0.937835 0.533745
0.461921 0.933501 0.497566
0.503288 0.926940 0.478187
0.566857 0.916960 0.490272
0.618921 0.906920 0.502953
0.662531 0.896788 0.516838
0.699763 0.889342 0.527367
0.738125 0.892668 0.519249
0.775814 0.895811 0.509453
0.812345 0.898711 0.498024
0.847318 0.901488 0.484108
0.880400 0.904112 0.467750
0.911559 0.906676 0.447852
0.940978 0.909239 0.423957
0.968414 0.912078 0.402899
0.986053 0.908476 0.384131
1.000000 0.906615 0.344152
1.000000 0.905455 0.299535
1.000000 0.904295 0.244236
0.000000 0.986694 0.606592
0.000000 0.986664 0.606287
0.000000 0.986542 0.605493
0.000000 0.986236 0.603662
0.000000 0.985687 0.601068
0.000000 0.984924 0.597589
0.000000 0.983886 0.593713
0.000000 0.982513 0.589563
0.000000 0.980682 0.585290
0.000000 0.978241 0.581292
0.000000 0.975036 0.578485
0.235080 0.971038 0.577081
0.358495 0.966247 0.578119
0.464454 0.957946 0.588006
0.505211 0.952758 0.568078
0.526452 0.948760 0.534661
