其他预设/【234】港风调色预设/1.3D LUT预设（视频调色-PR-AE-PS-FCPX-达芬奇用）/11.港风色调 __.cube
# Created by Adobe Lightroom plugin Export LUT (1.17.0)
# www.johnrellis.com/lightroom/exportlut.htm
# Preset: 11.港风色调 [素锦印象]
# Color profile: /Library/Application Support/Adobe/Color/Profiles/Recommended/AdobeRGB1998.icc
LUT_3D_SIZE 5
DOMAIN_MIN 0.000000 0.000000 0.000000
DOMAIN_MAX 0.903226 0.903226 0.903226
0.023560 0.031159 0.036866
0.103029 0.043763 0.041627
0.468788 0.000000 0.000000
0.829313 0.000000 0.000000
1.000000 0.303197 0.102205
0.000000 0.127199 0.075502
0.101930 0.123201 0.039734
0.495033 0.032227 0.000000
0.834287 0.000000 0.000000
1.000000 0.360388 0.000000
0.000000 0.479133 0.179080
0.000000 0.466651 0.119570
0.478065 0.465522 0.000000
0.846098 0.468818 0.000000
1.000000 0.516899 0.000000
0.000000 0.822385 0.396094
0.000000 0.819547 0.356970
0.414252 0.755917 0.278843
0.806332 0.777310 0.160494
1.000000 0.773861 0.000000
0.000000 1.000000 0.639155
0.000000 0.999786 0.626307
0.540429 0.967346 0.627100
0.785397 0.929473 0.630976
0.972473 0.942077 0.542199
0.004517 0.045838 0.101320
0.100221 0.050752 0.099306
0.459602 0.000000 0.084535
0.822354 0.000000 0.000000
1.000000 0.308537 0.068788
0.000000 0.125643 0.154391
0.109255 0.138308 0.137209
0.479377 0.116548 0.089387
0.826505 0.145510 0.000000
1.000000 0.360235 0.000000
0.000000 0.486000 0.291325
0.000000 0.481483 0.247044
0.473793 0.460243 0.175937
0.836515 0.457374 0.000000
1.000000 0.519921 0.000000
0.000000 0.824552 0.479988
0.000000 0.821408 0.447639
0.427497 0.769833 0.354589
0.803555 0.777371 0.298253
1.000000 0.774746 0.000000
0.000000 1.000000 0.684260
0.000000 1.000000 0.671015
0.532982 0.972961 0.670832
0.788846 0.929473 0.675196
0.968353 0.943084 0.605646
0.000000 0.082643 0.316716
0.006531 0.100282 0.341222
0.460731 0.000000 0.333806
0.800656 0.231937 0.347631
1.000000 0.410773 0.310155
0.000000 0.157534 0.314977
0.039826 0.182498 0.353094
0.469764 0.214328 0.364752
0.794186 0.372961 0.399908
1.000000 0.444282 0.300084
0.000000 0.422400 0.479683
0.000000 0.435157 0.470100
0.480110 0.474220 0.444526
0.809781 0.515984 0.404303
1.000000 0.566766 0.280613
0.000000 0.824674 0.687068
0.000000 0.831052 0.675868
0.413214 0.803799 0.593225
0.791897 0.779782 0.554162
0.996674 0.772824 0.355749
0.000000 1.000000 0.811612
0.000000 1.000000 0.799771
0.390387 0.984588 0.764248
0.787442 0.937865 0.754360
0.955688 0.943389 0.734310
0.000000 0.166506 0.610864
0.000000 0.186984 0.633326
0.519310 0.265263 0.704616
0.790249 0.304234 0.647395
0.962280 0.580407 0.688624
0.000000 0.251011 0.599695
0.000000 0.254856 0.627924
0.512383 0.348882 0.701350
0.785641 0.397314 0.661860
0.957580 0.621393 0.704707
0.000000 0.401740 0.631647
0.000000 0.408698 0.620783
0.441321 0.485695 0.673610
0.771817 0.588342 0.702296
0.946990 0.732052 0.755489
0.000000 0.720119 0.790158
0.000000 0.723934 0.785733
0.306493 0.737545 0.775418
0.765316 0.774746 0.768246
0.960052 0.805570 0.739406
0.000000 0.997742 0.917205
0.000000 0.998230 0.915068
0.000000 0.995209 0.906279
0.749813 0.961730 0.869261
0.943999 0.945769 0.859312
0.000000 0.349126 0.890166
0.200168 0.366491 0.894194
0.570459 0.446204 0.908476
0.840055 0.621057 0.925902
0.943481 0.633814 0.878264
0.000000 0.421546 0.882780
0.162661 0.407630 0.888731
0.559411 0.486671 0.904265
0.837797 0.662379 0.925628
0.940337 0.663630 0.881193
0.000000 0.503685 0.857877
0.000000 0.508415 0.864347
0.472572 0.561395 0.889830
0.812650 0.719875 0.919158
0.934813 0.750027 0.894804
0.000000 0.716487 0.915892
0.000000 0.711788 0.911437
0.182406 0.695094 0.894774
0.713802 0.754635 0.901793
0.933440 0.858091 0.920836
0.000000 0.937102 0.961486
0.000000 0.937316 0.960479
0.000000 0.936522 0.957641
0.645472 0.930388 0.950347
0.930632 0.942504 0.945525
