其他预设/【234】港风调色预设/1.3D LUT预设（视频调色-PR-AE-PS-FCPX-达芬奇用）/12.港风色调 __.cube
# Created by Adobe Lightroom plugin Export LUT (1.17.0)
# www.johnrellis.com/lightroom/exportlut.htm
# Preset: 12.港风色调 [素锦印象]
# Color profile: /Library/Application Support/Adobe/Color/Profiles/Recommended/AdobeRGB1998.icc
LUT_3D_SIZE 5
DOMAIN_MIN 0.000000 0.000000 0.000000
DOMAIN_MAX 0.903226 0.903226 0.903226
0.106355 0.104616 0.097169
0.136812 0.107271 0.098116
0.382452 0.124666 0.085847
0.729671 0.177951 0.044373
0.949157 0.301274 0.214237
0.109224 0.146487 0.098695
0.157107 0.155093 0.100191
0.415778 0.198611 0.078431
0.743191 0.260197 0.062715
0.951934 0.362768 0.246616
0.105592 0.430762 0.059693
0.208560 0.427558 0.063600
0.463386 0.457069 0.089479
0.775967 0.471504 0.120851
0.951751 0.505089 0.323033
0.214847 0.744747 0.165927
0.294255 0.740658 0.169711
0.456397 0.723476 0.174716
0.743374 0.733242 0.269413
0.929808 0.712673 0.448798
0.484260 0.910918 0.482277
0.507683 0.908965 0.482551
0.575616 0.901152 0.475044
0.717128 0.893492 0.518029
0.889494 0.885618 0.648096
0.106661 0.107454 0.113191
0.132143 0.110719 0.122835
0.371344 0.020508 0.152041
0.711299 0.179019 0.194614
0.938445 0.334569 0.314733
0.111055 0.153170 0.138369
0.160250 0.157931 0.147494
0.413550 0.192020 0.163851
0.727169 0.262089 0.204562
0.939788 0.387915 0.336065
0.035340 0.443153 0.174563
0.203250 0.443580 0.178470
0.458747 0.452735 0.199252
0.773648 0.457618 0.232090
0.943084 0.527489 0.406409
0.204776 0.753170 0.258183
0.316320 0.748165 0.289433
0.470863 0.730526 0.283024
0.743801 0.734524 0.352911
0.925963 0.718471 0.510887
0.517205 0.908934 0.545647
0.536797 0.907103 0.544244
0.602533 0.901701 0.543816
0.722988 0.893462 0.566217
0.888853 0.885954 0.683040
0.005066 0.125856 0.304021
0.154543 0.130709 0.320562
0.358038 0.135958 0.360479
0.670893 0.192569 0.454994
0.916136 0.376471 0.521416
0.114351 0.240208 0.368872
0.181674 0.222354 0.377295
0.394537 0.237766 0.397864
0.690394 0.296544 0.469215
0.915221 0.457008 0.546838
0.089174 0.497688 0.470192
0.243687 0.496132 0.475441
0.480446 0.478004 0.482155
0.747219 0.524559 0.523308
0.916136 0.608240 0.613031
0.275151 0.771267 0.501640
0.358068 0.765866 0.512444
0.539208 0.752316 0.548211
0.749508 0.744106 0.563104
0.915068 0.740475 0.670039
0.554742 0.908232 0.652644
0.589166 0.905486 0.667750
0.670588 0.897063 0.698543
0.733242 0.889952 0.677089
0.885130 0.884276 0.755367
0.000000 0.230594 0.689937
0.133089 0.248417 0.694667
0.426337 0.302220 0.702876
0.663050 0.335760 0.713588
0.873655 0.509148 0.764218
0.159304 0.372656 0.719875
0.234867 0.359380 0.721279
0.463081 0.394812 0.721706
0.675624 0.412940 0.724758
0.872099 0.551690 0.768856
0.379309 0.602655 0.771450
0.457313 0.610346 0.773342
0.565209 0.596185 0.765652
0.706661 0.581170 0.750515
0.877012 0.666865 0.789731
0.433021 0.810575 0.809140
0.490059 0.805631 0.808682
0.629541 0.792447 0.809049
0.763851 0.765621 0.800656
0.888273 0.796841 0.828061
0.652674 0.905394 0.801541
0.677424 0.903105 0.808804
0.740261 0.897398 0.827237
0.803464 0.888945 0.839475
0.883360 0.884581 0.843656
0.337133 0.473304 0.904875
0.401495 0.488808 0.903899
0.554253 0.537774 0.901579
0.707759 0.600397 0.896971
0.843778 0.624811 0.895689
0.433173 0.550896 0.903990
0.467475 0.554650 0.903471
0.589227 0.590143 0.901061
0.719905 0.634546 0.895842
0.844724 0.651942 0.894896
0.625269 0.720546 0.904417
0.647669 0.724117 0.903227
0.682246 0.715389 0.902037
0.761318 0.728939 0.897398
0.853483 0.735988 0.897581
0.711757 0.826780 0.910521
0.729091 0.827909 0.909972
0.781369 0.834226 0.909728
0.820737 0.830777 0.908080
0.872892 0.832944 0.908507
0.768246 0.906554 0.918364
0.777920 0.905394 0.918334
0.811093 0.902556 0.919341
0.851926 0.898711 0.920500
0.887907 0.889799 0.917693
