其他预设/【234】港风调色预设/1.3D LUT预设（视频调色-PR-AE-PS-FCPX-达芬奇用）/12.港风色调 __.cube
# Created by Adobe Lightroom plugin Export LUT (1.17.0)
# www.johnrellis.com/lightroom/exportlut.htm
# Preset: 12.港风色调 [素锦印象]
# Color profile: /Library/Application Support/Adobe/Color/Profiles/Recommended/AdobeRGB1998.icc
LUT_3D_SIZE 32
0.106355 0.104616 0.097169
0.106905 0.104799 0.097139
0.107362 0.104952 0.097353
0.108919 0.105165 0.097536
0.112276 0.105562 0.097658
0.117922 0.106020 0.097932
0.125521 0.106752 0.098085
0.136812 0.107271 0.098116
0.152529 0.108156 0.098146
0.174838 0.109071 0.097719
0.204990 0.111025 0.096803
0.242710 0.113344 0.095613
0.286198 0.116426 0.093233
0.333532 0.120333 0.089876
0.382452 0.124666 0.085847
0.432593 0.129641 0.080934
0.482826 0.135561 0.074586
0.532341 0.141787 0.067811
0.579858 0.148440 0.061006
0.631373 0.157107 0.051026
0.681636 0.167086 0.042023
0.729671 0.177951 0.044373
0.774380 0.189822 0.059907
0.814878 0.203647 0.075227
0.850278 0.218387 0.095613
0.881010 0.235203 0.120638
0.907469 0.254307 0.148379
0.930022 0.276127 0.179416
0.949157 0.301274 0.214237
0.965118 0.330480 0.253910
0.978058 0.364263 0.298497
0.987915 0.403876 0.349920
0.106477 0.105348 0.097353
0.107057 0.105257 0.097322
0.107546 0.105409 0.097566
0.109407 0.105592 0.097475
0.112642 0.106233 0.097810
0.118318 0.106691 0.097841
0.126162 0.107088 0.098054
0.137179 0.107912 0.098054
0.152987 0.109010 0.098054
0.175204 0.110170 0.097597
0.205295 0.112093 0.096925
0.242527 0.114748 0.095491
0.285527 0.118044 0.093141
0.332525 0.122377 0.090028
0.381415 0.127138 0.086000
0.431159 0.132174 0.080842
0.481056 0.138155 0.074952
0.530358 0.144381 0.067903
0.577813 0.151278 0.061128
0.628901 0.159701 0.050965
0.678431 0.169345 0.042054
0.726070 0.179446 0.044587
0.770809 0.191684 0.057038
0.811460 0.204685 0.074037
0.847318 0.219455 0.093599
0.878569 0.235752 0.117891
0.905486 0.254490 0.145754
0.928435 0.276036 0.177401
0.947967 0.300847 0.211826
0.964202 0.329717 0.251225
0.977356 0.363256 0.296117
0.987427 0.402472 0.347173
0.106630 0.106050 0.097536
0.107149 0.106233 0.097505
0.107698 0.106111 0.097475
0.109499 0.106294 0.097902
0.113313 0.106874 0.097993
0.118959 0.107301 0.098024
0.126680 0.108186 0.098177
0.137850 0.108949 0.098177
0.153811 0.109987 0.097902
0.175967 0.111543 0.097688
0.206027 0.113893 0.096956
0.243320 0.117098 0.095460
0.286229 0.120485 0.093324
0.332891 0.125032 0.089967
0.381476 0.130037 0.085908
0.431128 0.135531 0.080995
0.480964 0.141756 0.074678
0.529931 0.147890 0.068086
0.577325 0.154696 0.061341
0.628077 0.163485 0.051392
0.677150 0.172793 0.043305
0.724636 0.183291 0.043519
0.769284 0.194644 0.058412
0.810025 0.207828 0.073121
0.846036 0.222171 0.093477
0.877409 0.238102 0.117983
0.904540 0.256413 0.145205
0.927672 0.277684 0.176333
0.947326 0.302251 0.211368
0.963684 0.330907 0.250675
0.976989 0.363836 0.295171
0.987152 0.402655 0.345922
0.107088 0.108156 0.097810
0.107546 0.108309 0.098024
0.108064 0.108461 0.097993
0.110414 0.108797 0.098146
0.114473 0.109041 0.098268
0.120546 0.109133 0.098299
0.128664 0.109957 0.098177
0.140139 0.111269 0.098360
0.156313 0.112612 0.098054
0.178683 0.114656 0.097749
0.208957 0.117769 0.096864
0.246189 0.121523 0.095247
0.288701 0.126131 0.092958
0.335119 0.131319 0.089723
0.383185 0.136843 0.085573
0.432563 0.142611 0.080537
0.481819 0.148898 0.074556
0.530571 0.155886 0.067720
0.578332 0.163149 0.060548
0.627558 0.171298 0.051087
0.675624 0.180575 0.043793
0.722377 0.190402 0.045197
0.767086 0.201694 0.059083
0.808286 0.214420 0.074128
0.844938 0.228305 0.094270
0.876921 0.244236 0.118746
0.904356 0.262486 0.146883
0.927672 0.283391 0.178714
0.947295 0.307622 0.213626
0.963592 0.335393 0.252506
0.976715 0.367926 0.296941
0.986847 0.405768 0.347173
0.107698 0.112520 0.098146
0.108217 0.112642 0.098116
0.108919 0.113008 0.098299
0.111208 0.113527 0.098421
0.115663 0.114137 0.098726
0.121889 0.114412 0.098756
0.130861 0.114534 0.098421
0.143221 0.114931 0.098390
0.159762 0.117128 0.098177
0.182864 0.120027 0.097719
0.213321 0.123934 0.096681
0.250370 0.128817 0.095125
0.292851 0.134524 0.092561
0.338659 0.140536 0.089143
0.386389 0.147066 0.084993
0.435584 0.153628 0.079622
0.484840 0.160555 0.073915
0.533196 0.167697 0.066896
0.581659 0.175174 0.060334
0.629755 0.183566 0.050813
0.676905 0.192294 0.045197
0.722988 0.202365 0.047486
0.767178 0.213046 0.060700
0.808164 0.225345 0.076112
0.844633 0.238712 0.096773
0.876677 0.253910 0.121401
0.904051 0.271427 0.149111
0.927306 0.291539 0.180758
0.946899 0.314855 0.215610
0.963104 0.341955 0.254917
0.976257 0.373571 0.298955
0.986328 0.410773 0.349157
0.108064 0.119722 0.098390
0.108858 0.119814 0.098360
0.109560 0.120119 0.098543
0.111879 0.120638 0.098421
0.116762 0.121340 0.098695
0.124147 0.122408 0.099092
0.133272 0.122652 0.099214
0.146487 0.123842 0.098817
0.165255 0.124666 0.098146
0.189609 0.127993 0.097475
0.220462 0.133059 0.096162
0.257939 0.139315 0.094209
0.299962 0.146029 0.091829
0.345403 0.153262 0.088319
0.392706 0.160708 0.083742
0.441352 0.168063 0.078584
0.489937 0.175631 0.072114
0.538048 0.183078 0.065339
0.586999 0.191287 0.058595
0.634089 0.199313 0.050172
0.680720 0.208255 0.045838
0.726528 0.217929 0.051667
0.794217 0.237583 0.075074
0.831815 0.250095 0.094331
0.864469 0.263676 0.117739
0.892546 0.278508 0.143771
0.916381 0.295781 0.172091
0.936614 0.315557 0.203830
0.953735 0.338415 0.239414
0.967926 0.365270 0.278416
0.979339 0.396490 0.322728
0.987884 0.433173 0.373114
0.108675 0.130892 0.098634
0.109438 0.131167 0.098604
0.110719 0.131380 0.098543
0.113405 0.131960 0.098878
0.117494 0.132876 0.098878
0.126558 0.134340 0.099153
0.138064 0.136141 0.099763
0.151247 0.137057 0.099825
0.171389 0.140047 0.098756
0.199008 0.143679 0.097261
0.234928 0.147433 0.094759
0.273014 0.155001 0.092744
0.315373 0.162814 0.089693
0.360235 0.171145 0.086030
0.406806 0.179232 0.081056
0.454261 0.187045 0.075593
0.501732 0.195102 0.069032
0.550774 0.203098 0.062226
0.599329 0.211521 0.055390
0.646479 0.220249 0.048188
0.694209 0.229709 0.049256
0.741421 0.240055 0.059876
0.786435 0.251865 0.074342
0.826871 0.264439 0.094759
0.861753 0.277836 0.118959
0.890959 0.292607 0.145571
0.915312 0.308965 0.174960
0.935668 0.327672 0.207218
0.952819 0.349645 0.242374
0.966979 0.375097 0.281651
0.978393 0.405097 0.325719
0.986999 0.440497 0.375860
0.109224 0.146487 0.098695
0.110506 0.146822 0.098604
0.112001 0.146975 0.098787
0.115175 0.147585 0.098848
0.120089 0.148470 0.099092
0.127993 0.149996 0.099336
0.141238 0.152438 0.099489
0.157107 0.155093 0.100191
0.173617 0.156008 0.100710
0.203372 0.163180 0.097749
0.238621 0.169497 0.095003
0.280888 0.175021 0.091341
0.325872 0.181186 0.087037
0.370123 0.190066 0.083040
0.415778 0.198611 0.078431
0.462196 0.207065 0.072602
0.509819 0.215457 0.066194
0.558404 0.224399 0.059541
0.604883 0.232395 0.050965
0.650629 0.240726 0.047425
0.697078 0.249973 0.050416
0.743191 0.260197 0.062715
0.787259 0.271183 0.078492
0.826871 0.283055 0.098848
0.861295 0.295659 0.123476
0.890257 0.309483 0.150118
0.914458 0.324590 0.179294
0.934813 0.342168 0.211582
0.951934 0.362768 0.246616
0.966094 0.387091 0.286137
0.977478 0.415961 0.330205
0.986053 0.450202 0.380255
0.110109 0.168826 0.098421
0.111330 0.169131 0.098329
0.113100 0.169528 0.098238
0.117189 0.169924 0.098543
0.123110 0.170962 0.098665
0.131106 0.172091 0.098695
0.144717 0.174624 0.098756
0.163272 0.178286 0.099062
0.184451 0.182071 0.099550
0.205844 0.183871 0.100191
0.242924 0.194095 0.095460
0.284520 0.202457 0.091310
0.330724 0.209476 0.086061
0.380774 0.213870 0.079255
0.427161 0.221469 0.073823
0.473548 0.230594 0.067750
0.521508 0.239445 0.061341
0.568017 0.247959 0.052705
0.612329 0.255589 0.047150
0.656916 0.263951 0.045289
0.702113 0.272831 0.052949
0.747036 0.282628 0.066621
0.789944 0.293187 0.083192
0.828580 0.304326 0.104952
0.862211 0.316228 0.129427
0.890562 0.328618 0.156497
0.914427 0.342748 0.186160
0.934478 0.359258 0.218051
0.951415 0.378454 0.253056
0.965423 0.401373 0.292210
0.976623 0.429053 0.336461
0.985077 0.461830 0.386450
0.110140 0.199496 0.096834
0.111910 0.199710 0.096742
0.114137 0.199863 0.096895
0.119417 0.200320 0.096864
0.126772 0.201358 0.096925
0.136355 0.202365 0.096864
0.147707 0.203616 0.097139
0.168917 0.207584 0.097108
0.193240 0.212345 0.097078
0.219791 0.217014 0.097383
0.245029 0.218723 0.098634
0.286839 0.230106 0.092592
0.332647 0.240085 0.086061
0.381353 0.247623 0.078828
0.434302 0.253483 0.069978
0.488624 0.257572 0.059388
0.534874 0.266453 0.048890
0.579797 0.274327 0.040223
0.622675 0.281743 0.036835
0.665766 0.289372 0.043061
0.709285 0.297917 0.056428
0.752193 0.307164 0.070344
0.793027 0.316716 0.088716
0.829953 0.326665 0.110811
0.862486 0.337346 0.134676
0.890349 0.348913 0.162722
0.913970 0.362097 0.192081
0.933989 0.377264 0.224704
0.950835 0.395636 0.260258
0.964752 0.417731 0.300175
0.975830 0.444343 0.345006
0.984100 0.476448 0.395789
0.109316 0.236820 0.093507
0.111879 0.236942 0.093660
0.114900 0.237095 0.093507
0.121340 0.237491 0.093446
0.130587 0.238071 0.093477
0.142092 0.239353 0.093477
0.155428 0.240299 0.093690
0.173495 0.242649 0.093477
0.200748 0.247379 0.093507
0.230198 0.253056 0.093324
0.261234 0.258183 0.093843
0.289738 0.259159 0.096071
0.333989 0.270329 0.088960
0.384436 0.281926 0.078950
0.436042 0.290501 0.070588
0.489204 0.296300 0.059998
0.542657 0.298802 0.037568
0.590600 0.302098 0.023041
0.631739 0.308721 0.026001
0.673640 0.315953 0.036530
0.715877 0.324041 0.058900
0.757534 0.332738 0.075257
0.797238 0.341955 0.094423
0.833066 0.351110 0.117678
0.864591 0.360998 0.143099
0.891569 0.371435 0.170748
0.914519 0.383307 0.200290
0.933928 0.397436 0.233158
0.950408 0.414496 0.269108
0.963989 0.435279 0.309178
0.974853 0.460578 0.353979
0.982940 0.491310 0.404761
0.108461 0.279881 0.088289
0.111208 0.280217 0.088380
0.114992 0.280308 0.088502
0.122621 0.280552 0.088411
0.134096 0.281010 0.088350
0.147585 0.281804 0.088319
0.163241 0.282506 0.088716
0.180362 0.283391 0.088563
0.206302 0.286778 0.088502
0.238529 0.292088 0.088075
0.272343 0.297917 0.088289
0.308324 0.304509 0.089357
0.353582 0.317510 0.092775
0.401068 0.327581 0.084657
0.454902 0.339239 0.070192
0.507897 0.346899 0.060945
0.560296 0.351293 0.045960
0.610529 0.351904 0.028779
0.659510 0.349615 0.017029
0.701167 0.354101 0.040345
0.740597 0.360876 0.068879
0.779019 0.368200 0.089052
0.814603 0.375708 0.111299
0.846677 0.383429 0.135744
0.874968 0.391791 0.161929
0.899260 0.400977 0.190433
0.920043 0.411688 0.220188
0.937804 0.424567 0.252537
0.952789 0.440253 0.288304
0.965179 0.459998 0.328771
0.975006 0.484138 0.373724
0.982300 0.513603 0.424353
0.106508 0.331365 0.080293
0.109926 0.331548 0.080415
0.114931 0.331395 0.080293
0.124117 0.331121 0.080629
0.138064 0.330663 0.080507
0.153902 0.330510 0.080964
0.171450 0.330449 0.081178
0.190463 0.330571 0.081392
0.210697 0.330999 0.081514
0.246494 0.337713 0.081209
0.284703 0.345373 0.081361
0.325109 0.353704 0.081666
0.366125 0.361517 0.084199
0.402441 0.363653 0.091859
0.448890 0.370977 0.085664
0.502708 0.382238 0.070619
0.554528 0.388952 0.061555
0.603845 0.391760 0.056519
0.651942 0.391913 0.054780
0.700465 0.390570 0.058595
0.746792 0.389288 0.067720
0.783658 0.395697 0.092348
0.817838 0.402258 0.116335
0.848753 0.409033 0.142153
0.876127 0.416266 0.169039
0.899687 0.424384 0.197910
0.919982 0.433936 0.228397
0.937316 0.445747 0.261265
0.951995 0.460243 0.297520
0.964141 0.478889 0.338415
0.973816 0.501671 0.383459
0.980896 0.529931 0.434516
0.105196 0.379278 0.071260
0.109010 0.379248 0.071473
0.115206 0.378912 0.071412
0.126101 0.378454 0.071534
0.140841 0.377874 0.072145
0.158755 0.377783 0.072480
0.178958 0.377905 0.072755
0.199954 0.378546 0.072786
0.221927 0.379187 0.072847
0.249393 0.381842 0.073671
0.289555 0.388495 0.073854
0.330785 0.396033 0.075166
0.373541 0.403815 0.078279
0.415686 0.410285 0.083864
0.453925 0.412451 0.093996
0.493172 0.412482 0.094942
0.546746 0.423163 0.080262
0.596216 0.428473 0.072816
0.643824 0.430640 0.076326
0.691768 0.431830 0.080110
0.739284 0.431403 0.087800
0.784787 0.429145 0.100496
0.822080 0.429908 0.121645
0.851865 0.435706 0.149477
0.878141 0.441962 0.177646
0.900908 0.449104 0.207248
0.920531 0.457588 0.238315
0.937316 0.468238 0.272038
0.951568 0.481788 0.308843
0.963378 0.499092 0.349889
0.972686 0.520958 0.395880
0.979461 0.548180 0.447425
0.105592 0.430762 0.059693
0.109773 0.430915 0.060212
0.116487 0.430518 0.060182
0.128786 0.430152 0.060182
0.145327 0.429541 0.061311
0.165042 0.428626 0.061830
0.186374 0.428046 0.062501
0.208560 0.427558 0.063600
0.232029 0.427375 0.064424
0.255741 0.427680 0.065614
0.291386 0.431708 0.066590
0.333928 0.438300 0.069734
0.377081 0.445136 0.074098
0.420661 0.451881 0.079988
0.463386 0.457069 0.089479
0.502647 0.459052 0.101320
0.533867 0.451637 0.110658
0.587243 0.462318 0.097292
0.635676 0.466926 0.091432
0.683162 0.470069 0.099245
0.730465 0.471565 0.108705
0.775967 0.471504 0.120851
0.817380 0.469184 0.137057
0.854063 0.464546 0.156771
0.880461 0.468086 0.185458
0.902434 0.474311 0.216617
0.921538 0.482002 0.248997
0.937926 0.491981 0.284276
0.951751 0.505089 0.323033
0.963104 0.521813 0.365332
0.971923 0.543267 0.412848
0.978180 0.569879 0.465705
0.107942 0.482063 0.044892
0.113985 0.482033 0.045197
0.120333 0.481758 0.044953
0.133089 0.481422 0.045991
0.151492 0.480568 0.046937
0.172213 0.479713 0.049317
0.194491 0.478859 0.051667
0.217960 0.478248 0.054383
0.242374 0.477577 0.057099
0.267094 0.477150 0.059876
0.292241 0.476356 0.061372
0.335180 0.481300 0.066773
0.378637 0.486458 0.072786
0.422065 0.491646 0.080720
0.464973 0.496254 0.089540
0.506889 0.499672 0.101167
0.547234 0.502007 0.114229
0.573693 0.490455 0.127962
0.625299 0.499855 0.119478
0.674739 0.505608 0.116182
0.722316 0.509697 0.126528
0.768246 0.511864 0.140932
0.810208 0.511315 0.157870
0.847410 0.508507 0.177859
0.879362 0.504051 0.201022
0.905303 0.501122 0.228489
0.923461 0.507866 0.262089
0.938964 0.517052 0.298680
0.952056 0.529137 0.338201
0.962707 0.544945 0.381628
0.970916 0.564965 0.429175
0.976593 0.590356 0.482277
0.115969 0.529351 0.041566
0.119875 0.529320 0.042206
0.127169 0.528862 0.042329
0.140536 0.528283 0.043824
0.158419 0.527489 0.046906
0.179324 0.526360 0.048188
0.202060 0.525322 0.051667
0.226352 0.524041 0.053773
0.251041 0.523003 0.057862
0.276097 0.521874 0.060883
0.301701 0.520775 0.063844
0.332494 0.521080 0.067475
0.377020 0.525566 0.075593
0.420783 0.529961 0.085481
0.463996 0.534081 0.095125
0.506340 0.537438 0.105623
0.547509 0.539605 0.118746
0.588159 0.542107 0.132570
0.613367 0.529381 0.148196
0.662898 0.537438 0.144625
0.711818 0.543725 0.145846
0.758511 0.547723 0.156497
0.801053 0.549126 0.174899
0.838895 0.548119 0.195895
0.871733 0.544945 0.219669
0.899351 0.540948 0.246006
0.922454 0.537499 0.275547
0.939452 0.541161 0.311406
0.951965 0.552300 0.352117
0.962005 0.567376 0.397040
0.969757 0.586572 0.445533
0.974884 0.611078 0.499580
0.126925 0.574731 0.060304
0.132265 0.574853 0.059785
0.143435 0.587549 0.066560
0.156008 0.586908 0.066835
0.173800 0.585718 0.068696
0.194461 0.584131 0.068605
0.217105 0.582238 0.070375
0.241001 0.580255 0.071992
0.265873 0.578363 0.074495
0.291234 0.576440 0.076875
0.317082 0.574212 0.078370
0.342596 0.571954 0.081147
0.380316 0.572778 0.087648
0.424598 0.575830 0.098360
0.468269 0.578668 0.108614
0.510979 0.581323 0.119203
0.553033 0.583612 0.131472
0.593652 0.585168 0.145327
0.633906 0.586908 0.159701
0.659052 0.574182 0.176394
0.705470 0.579614 0.176883
0.752743 0.585443 0.182406
0.795987 0.587945 0.193668
0.833555 0.587823 0.216617
0.866056 0.585199 0.241032
0.893462 0.581506 0.267582
0.916533 0.577966 0.297276
0.935760 0.575891 0.329808
0.951415 0.576898 0.366979
0.961303 0.589685 0.412299
0.968475 0.607874 0.461646
0.973175 0.631159 0.515984
0.145113 0.620874 0.080934
0.150271 0.622431 0.082582
0.156771 0.623896 0.083955
0.168734 0.624872 0.085939
0.185855 0.624903 0.086275
0.205539 0.624079 0.088502
0.227298 0.622675 0.089448
0.250675 0.620569 0.090608
0.275029 0.618677 0.092317
0.300023 0.616510 0.093355
0.325353 0.614374 0.095888
0.350866 0.611780 0.097597
0.375982 0.609033 0.100160
0.419806 0.611231 0.109560
0.463691 0.613672 0.120027
0.506676 0.615961 0.130861
0.548913 0.618219 0.142367
0.590265 0.620203 0.155276
0.630793 0.621698 0.169589
0.670924 0.623499 0.184176
0.696254 0.611780 0.202335
0.739773 0.615229 0.206973
0.784634 0.620386 0.216159
0.824521 0.621668 0.229801
0.857969 0.620478 0.255985
0.886229 0.617792 0.284794
0.909972 0.614771 0.315190
0.929656 0.612940 0.349340
0.945739 0.613581 0.387610
0.958373 0.618097 0.430274
0.967163 0.629419 0.478676
0.971405 0.651423 0.533043
0.163394 0.661524 0.104799
0.168429 0.662867 0.106325
0.174533 0.664210 0.107729
0.185580 0.665003 0.108644
0.200931 0.665034 0.109773
0.219455 0.664210 0.110842
0.239963 0.662745 0.112062
0.262272 0.660822 0.112703
0.285893 0.658869 0.113710
0.310307 0.656733 0.114778
0.335119 0.654566 0.116823
0.360174 0.652155 0.118563
0.385107 0.649165 0.120241
0.415503 0.647395 0.123751
0.459754 0.649439 0.134585
0.502922 0.651362 0.145052
0.545342 0.653285 0.156619
0.587091 0.655238 0.168795
0.627985 0.657038 0.182284
0.668269 0.658686 0.197177
0.707790 0.660548 0.212528
0.733242 0.649500 0.232212
0.771847 0.649470 0.241337
0.813748 0.653742 0.254215
0.849363 0.653681 0.271458
0.878782 0.651606 0.298772
0.903105 0.649042 0.331792
0.923369 0.647181 0.367376
0.939818 0.647517 0.406409
0.952758 0.651240 0.449928
0.962371 0.659571 0.497688
0.968658 0.673732 0.550622
0.185458 0.701198 0.131167
0.189700 0.702541 0.132815
0.195315 0.703609 0.133486
0.205234 0.704433 0.135317
0.219394 0.704311 0.136263
0.236179 0.703609 0.137209
0.255283 0.702052 0.137270
0.276219 0.700313 0.138369
0.298711 0.698238 0.138491
0.322087 0.696101 0.139559
0.345983 0.693843 0.141146
0.370550 0.691371 0.142153
0.395026 0.688380 0.143282
0.419440 0.685176 0.144808
0.456001 0.684932 0.151431
0.499641 0.686824 0.162234
0.542657 0.688899 0.173892
0.584771 0.691188 0.186862
0.626734 0.693751 0.199985
0.667872 0.696071 0.215244
0.707942 0.698238 0.232181
0.747524 0.700496 0.249241
0.772366 0.689601 0.270817
0.804776 0.685481 0.285618
0.843259 0.688746 0.301610
0.873899 0.687404 0.324376
0.899077 0.684749 0.354437
0.919219 0.683192 0.392676
0.935546 0.683314 0.433722
0.948241 0.686641 0.478584
0.957610 0.694087 0.527153
0.963500 0.707332 0.580987
0.214847 0.744747 0.165927
0.218051 0.745235 0.166629
0.222293 0.745480 0.167269
0.230900 0.745327 0.167697
0.242618 0.744747 0.168032
0.257725 0.743587 0.168460
0.275029 0.742245 0.169131
0.294255 0.740658 0.169711
0.315557 0.739040 0.170413
0.338018 0.737179 0.171267
0.361151 0.735195 0.172305
0.385016 0.732876 0.173098
0.408820 0.730129 0.173800
0.432624 0.726986 0.174197
0.456397 0.723476 0.174716
0.498970 0.724575 0.184970
0.541619 0.725978 0.196628
0.583642 0.727474 0.209293
0.624903 0.729061 0.222232
0.665522 0.730800 0.236667
0.704952 0.732174 0.252445
0.743374 0.733242 0.269413
0.780697 0.734524 0.287541
0.803708 0.723171 0.309117
0.829953 0.715084 0.327886
0.864652 0.717189 0.346471
0.891234 0.715206 0.373236
0.913085 0.712795 0.405371
0.929808 0.712673 0.448798
0.942901 0.715236 0.495003
0.952544 0.721492 0.544488
0.958526 0.733211 0.599084
0.242954 0.779294 0.199161
0.246067 0.779629 0.199344
0.249607 0.779965 0.200351
0.257084 0.779843 0.200900
0.267430 0.779294 0.201266
0.280522 0.778286 0.201389
0.295872 0.776913 0.201572
0.313329 0.775296 0.201480
0.332921 0.773587 0.201694
0.353552 0.771817 0.202762
0.375341 0.769986 0.203586
0.397833 0.767788 0.204044
0.420661 0.765286 0.204593
0.443824 0.762478 0.204837
0.467018 0.759396 0.205295
0.495460 0.757198 0.207889
0.538109 0.758175 0.219730
0.579828 0.759274 0.232242
0.620600 0.760464 0.245975
0.660700 0.761685 0.260288
0.699855 0.763027 0.275944
0.737972 0.763943 0.292943
0.774746 0.764767 0.311345
0.810330 0.765530 0.330663
0.829587 0.752132 0.348730
0.851804 0.742306 0.370336
0.882109 0.742824 0.392493
0.905150 0.740993 0.424079
0.923705 0.739498 0.460273
0.937591 0.740932 0.506676
0.947570 0.746426 0.558434
0.953826 0.756283 0.613458
0.278538 0.813504 0.240787
0.281163 0.813901 0.241917
0.284367 0.813993 0.241947
0.290288 0.813687 0.242527
0.298833 0.812985 0.242496
0.309819 0.811856 0.241825
0.323033 0.810452 0.241672
0.338018 0.808682 0.240879
0.355047 0.806821 0.240757
0.373358 0.804776 0.240269
0.393164 0.802609 0.240208
0.413550 0.800351 0.239994
0.434943 0.797787 0.240177
0.456550 0.794980 0.239872
0.478187 0.791745 0.238712
0.500053 0.788327 0.238346
0.533776 0.786893 0.244175
0.574578 0.787137 0.256291
0.614374 0.787747 0.270024
0.653773 0.788510 0.284306
0.692287 0.789395 0.300023
0.729763 0.790188 0.316381
0.765713 0.790524 0.334783
0.800259 0.790494 0.353399
0.833219 0.790372 0.372656
0.853086 0.779660 0.394598
0.872557 0.769528 0.419074
0.897581 0.767880 0.444129
0.916869 0.766506 0.480751
0.932158 0.766384 0.521416
0.942901 0.769894 0.571160
0.949371 0.778134 0.627131
0.311864 0.839231 0.279973
0.314244 0.839506 0.280766
0.317052 0.839597 0.281071
0.321904 0.839353 0.281071
0.329137 0.838712 0.280949
0.338384 0.837827 0.280644
0.349950 0.836637 0.280766
0.363165 0.835294 0.280003
0.378149 0.833768 0.279911
0.394873 0.832120 0.279698
0.412604 0.830411 0.279576
0.431739 0.828519 0.279881
0.451331 0.826444 0.279484
0.471626 0.824125 0.279057
0.492195 0.821530 0.278813
0.513024 0.818692 0.278172
0.534081 0.815671 0.277043
0.572564 0.815335 0.288670
0.611627 0.815335 0.301915
0.649897 0.815518 0.316655
0.687373 0.815671 0.332433
0.723659 0.815854 0.348791
0.758724 0.816007 0.365942
0.792264 0.815640 0.384436
0.824338 0.815152 0.404150
0.854765 0.814633 0.423896
0.873594 0.804959 0.446021
0.890318 0.795193 0.473945
0.910765 0.792599 0.503288
0.926482 0.792447 0.545129
0.937896 0.794156 0.590967
0.945251 0.800015 0.643244
0.349737 0.862058 0.323980
0.351781 0.862211 0.325017
0.353887 0.862181 0.325078
0.357733 0.861814 0.325048
0.363409 0.861173 0.324346
0.371008 0.860349 0.323919
0.380499 0.859251 0.323186
0.391730 0.858061 0.322789
0.404700 0.856718 0.322362
0.419135 0.855375 0.321965
0.435065 0.853849 0.321782
0.452125 0.852384 0.321996
0.470069 0.850645 0.322087
0.488624 0.848722 0.321935
0.507469 0.846525 0.321416
0.526757 0.844114 0.320684
0.546563 0.841550 0.319890
0.571252 0.839475 0.322362
0.609033 0.839048 0.335485
0.646052 0.838743 0.350195
0.682246 0.838437 0.365667
0.717403 0.838132 0.382574
0.751278 0.837827 0.399573
0.783871 0.837461 0.417395
0.814878 0.836667 0.436713
0.844266 0.835904 0.456397
0.872129 0.835294 0.477028
0.890471 0.827451 0.498970
0.904112 0.817899 0.530053
0.920226 0.814878 0.563439
0.932372 0.815854 0.608850
0.940429 0.820157 0.659785
0.388891 0.880674 0.369970
0.390417 0.880705 0.370489
0.392065 0.880674 0.370703
0.395270 0.880400 0.370428
0.400244 0.879973 0.370184
0.406958 0.879454 0.370306
0.415778 0.878935 0.371160
0.426123 0.878325 0.371801
0.438270 0.877684 0.372869
0.451881 0.877012 0.374548
0.466499 0.876249 0.375525
0.482246 0.875364 0.377508
0.498634 0.874296 0.378607
0.515435 0.872953 0.379400
0.532708 0.871366 0.379736
0.550103 0.869566 0.379339
0.567956 0.867521 0.378851
0.586267 0.865446 0.378149
0.614984 0.864134 0.385992
0.650263 0.863279 0.400763
0.684657 0.862486 0.416205
0.717891 0.861723 0.432746
0.749935 0.860929 0.450080
0.780758 0.860105 0.467536
0.810208 0.859312 0.485847
0.838041 0.858274 0.505455
0.864347 0.857328 0.525475
0.888945 0.856626 0.546624
0.905791 0.850553 0.568536
0.915679 0.841459 0.601770
0.927092 0.839078 0.640040
0.935790 0.842283 0.688014
0.439277 0.898436 0.429236
0.440253 0.898436 0.429297
0.441505 0.898344 0.429267
0.443824 0.898070 0.429084
0.447608 0.897673 0.428870
0.452705 0.897124 0.428534
0.459266 0.896544 0.428260
0.467201 0.895872 0.428077
0.476814 0.895140 0.428626
0.487556 0.894347 0.429053
0.499428 0.893431 0.429358
0.512413 0.892454 0.430060
0.526146 0.891356 0.430732
0.540520 0.890135 0.430976
0.555505 0.888762 0.431312
0.570977 0.887236 0.430854
