其他预设/【234】港风调色预设/1.3D LUT预设（视频调色-PR-AE-PS-FCPX-达芬奇用）/12.港风色调 __.cube
# Created by Adobe Lightroom plugin Export LUT (1.17.0)
# www.johnrellis.com/lightroom/exportlut.htm
# Preset: 12.港风色调 [素锦印象]
# Color profile: /Library/Application Support/Adobe/Color/Profiles/Recommended/AdobeRGB1998.icc
LUT_3D_SIZE 8
DOMAIN_MIN 0.000000 0.000000 0.000000
DOMAIN_MAX 0.903226 0.903226 0.903226
0.106355 0.104616 0.097169
0.112276 0.105562 0.097658
0.152529 0.108156 0.098146
0.286198 0.116426 0.093233
0.482826 0.135561 0.074586
0.681636 0.167086 0.042023
0.850278 0.218387 0.095613
0.949157 0.301274 0.214237
0.107698 0.112520 0.098146
0.115663 0.114137 0.098726
0.159762 0.117128 0.098177
0.292851 0.134524 0.092561
0.484840 0.160555 0.073915
0.676905 0.192294 0.045197
0.844633 0.238712 0.096773
0.946899 0.314855 0.215610
0.110109 0.168826 0.098421
0.123110 0.170962 0.098665
0.184451 0.182071 0.099550
0.330724 0.209476 0.086061
0.521508 0.239445 0.061341
0.702113 0.272831 0.052949
0.862211 0.316228 0.129427
0.951415 0.378454 0.253056
0.106508 0.331365 0.080293
0.138064 0.330663 0.080507
0.210697 0.330999 0.081514
0.366125 0.361517 0.084199
0.554528 0.388952 0.061555
0.746792 0.389288 0.067720
0.876127 0.416266 0.169039
0.951995 0.460243 0.297520
0.115969 0.529351 0.041566
0.158419 0.527489 0.046906
0.251041 0.523003 0.057862
0.377020 0.525566 0.075593
0.547509 0.539605 0.118746
0.711818 0.543725 0.145846
0.871733 0.544945 0.219669
0.951965 0.552300 0.352117
0.185458 0.701198 0.131167
0.219394 0.704311 0.136263
0.298711 0.698238 0.138491
0.395026 0.688380 0.143282
0.542657 0.688899 0.173892
0.707942 0.698238 0.232181
0.843259 0.688746 0.301610
0.935546 0.683314 0.433722
0.311864 0.839231 0.279973
0.329137 0.838712 0.280949
0.378149 0.833768 0.279911
0.451331 0.826444 0.279484
0.534081 0.815671 0.277043
0.687373 0.815671 0.332433
0.824338 0.815152 0.404150
0.910765 0.792599 0.503288
0.484260 0.910918 0.482277
0.491005 0.910307 0.481941
0.515740 0.908385 0.482979
0.558679 0.905577 0.487587
0.604517 0.898894 0.476753
0.686885 0.894469 0.500603
0.799863 0.890074 0.571221
0.889494 0.885618 0.648096
0.106691 0.105715 0.100526
0.110933 0.106172 0.101778
0.149905 0.106355 0.106233
0.283635 0.112001 0.109224
0.476387 0.124636 0.103548
0.667048 0.158541 0.103212
0.837217 0.216739 0.141817
0.942626 0.305272 0.240696
0.107881 0.112978 0.104097
0.116060 0.114504 0.106233
0.160952 0.119539 0.108888
0.293950 0.131014 0.108766
0.482521 0.152590 0.102785
0.667903 0.185824 0.104250
0.833982 0.237675 0.142550
0.940215 0.317815 0.240879
0.108339 0.169619 0.109499
0.123323 0.173434 0.110933
0.185428 0.183169 0.113527
0.333165 0.200717 0.103426
0.513725 0.232578 0.098634
0.688808 0.266453 0.110414
0.847105 0.311589 0.163485
0.944213 0.378454 0.271702
0.080598 0.331884 0.098573
0.128206 0.332708 0.105562
0.210086 0.334478 0.106233
0.357763 0.353124 0.115419
0.538262 0.373022 0.106233
0.723598 0.376745 0.116762
0.861265 0.409522 0.192996
0.945495 0.458686 0.311315
0.103273 0.531548 0.108888
0.151583 0.528618 0.108949
0.248020 0.522515 0.111391
0.368505 0.518914 0.119112
0.538415 0.530785 0.152865
0.704372 0.536248 0.174624
0.866545 0.539391 0.241825
0.947692 0.553063 0.367407
0.186404 0.698299 0.172519
0.216831 0.696986 0.173404
0.296025 0.691463 0.174472
0.393164 0.683406 0.177737
0.537804 0.684657 0.203159
0.705806 0.696132 0.257908
0.841245 0.687190 0.322423
0.933165 0.682277 0.446723
0.313390 0.834714 0.300694
0.327916 0.832731 0.298680
0.377325 0.828611 0.298528
0.451575 0.822751 0.299626
0.534722 0.813352 0.298436
0.684291 0.812741 0.347478
0.820645 0.811643 0.413916
0.907958 0.789578 0.507378
0.487251 0.909056 0.493996
0.495064 0.908659 0.495094
0.519615 0.906889 0.496193
0.561852 0.904234 0.500359
0.614099 0.899992 0.502129
0.689479 0.894713 0.517540
0.799588 0.889403 0.580591
0.888457 0.884642 0.652430
0.106111 0.108400 0.122316
0.113191 0.109468 0.125460
0.147189 0.112825 0.138003
0.270115 0.099672 0.176883
0.470283 0.000000 0.183719
0.663233 0.179538 0.227176
0.837034 0.254459 0.270787
0.938048 0.354406 0.351354
0.112978 0.122408 0.134157
0.119112 0.121706 0.137942
0.157321 0.125338 0.147372
0.285008 0.118563 0.179385
0.479530 0.096529 0.183352
0.667811 0.205753 0.226902
0.836149 0.271031 0.269810
0.937041 0.366369 0.353216
0.109316 0.182315 0.163577
0.125856 0.185397 0.167666
0.190982 0.188357 0.177005
0.336492 0.208316 0.188846
0.519219 0.240909 0.208042
0.691463 0.282200 0.236027
0.844663 0.338018 0.284794
0.937835 0.416083 0.372595
0.073915 0.347784 0.193179
0.113405 0.351080 0.193301
0.218997 0.356756 0.199527
0.371313 0.366461 0.211276
0.561456 0.371344 0.214267
0.725093 0.390234 0.248051
0.859617 0.433021 0.311131
0.939483 0.492470 0.409247
0.059419 0.544579 0.218723
0.127871 0.545190 0.218875
0.258762 0.542626 0.233433
0.369421 0.534142 0.230838
0.551354 0.543786 0.261631
0.719387 0.544671 0.281285
0.871122 0.542809 0.339971
0.940581 0.578180 0.453071
0.169955 0.709865 0.262516
0.208743 0.709346 0.266148
0.317052 0.703120 0.291508
0.409796 0.693141 0.287938
0.537591 0.688045 0.297429
0.706996 0.697902 0.344457
0.842344 0.690700 0.399908
0.929992 0.691585 0.515862
0.321538 0.841215 0.369299
0.351934 0.838834 0.383337
0.409613 0.833005 0.395453
0.474006 0.825986 0.390539
0.550103 0.816098 0.382483
0.686122 0.813779 0.417945
0.822019 0.814145 0.480110
0.906981 0.795651 0.567590
0.513664 0.908263 0.549981
0.526940 0.906706 0.557336
0.546654 0.904875 0.555749
0.586053 0.902770 0.560357
0.631617 0.898650 0.557733
0.693965 0.893889 0.562341
0.801907 0.888945 0.621332
0.887816 0.885039 0.687648
0.088411 0.116762 0.214725
0.108217 0.118105 0.222202
0.169650 0.122866 0.239261
0.271153 0.119875 0.265995
0.440711 0.119631 0.327031
0.639582 0.122103 0.364599
0.816922 0.198489 0.385504
0.920348 0.396185 0.473335
0.095003 0.144747 0.244053
0.107424 0.138399 0.248417
0.179873 0.143740 0.258579
0.284855 0.144686 0.279820
0.450660 0.158114 0.334234
0.645197 0.169345 0.366583
0.818448 0.233890 0.384924
0.918334 0.426917 0.486488
0.112398 0.233188 0.290440
0.145541 0.234836 0.295781
0.212436 0.227604 0.304692
0.323125 0.234592 0.316747
0.492409 0.259373 0.359838
0.675013 0.288823 0.380285
0.828763 0.403388 0.447974
0.922698 0.487129 0.514092
0.065888 0.383673 0.352575
0.125673 0.384863 0.355505
0.243656 0.385595 0.363439
0.381231 0.377966 0.371588
0.549126 0.402625 0.391241
0.706172 0.436164 0.420356
0.843503 0.482460 0.465339
0.925048 0.545556 0.536095
0.104097 0.568688 0.372259
0.159915 0.567346 0.373663
0.277592 0.565209 0.383246
0.415839 0.560510 0.407416
0.565148 0.559289 0.417731
0.737179 0.557641 0.436378
0.862150 0.574548 0.488899
0.927031 0.620325 0.570794
0.215396 0.729061 0.412085
0.253727 0.731472 0.419165
0.343572 0.726284 0.431586
0.460182 0.716762 0.456306
0.547723 0.702846 0.441138
0.716182 0.709102 0.478553
0.846983 0.701259 0.518669
0.924254 0.707973 0.614557
0.360693 0.846769 0.484291
0.381476 0.845945 0.490059
0.442267 0.842344 0.507500
0.525475 0.834501 0.531609
0.587640 0.825132 0.517571
0.692470 0.818204 0.525658
0.822904 0.817136 0.574182
0.903258 0.802701 0.647730
0.540307 0.909514 0.616602
0.551385 0.908659 0.621759
0.584314 0.905486 0.636103
0.630915 0.900420 0.653620
0.665400 0.896818 0.646174
0.709590 0.892576 0.637568
0.805264 0.888060 0.680323
0.886656 0.885222 0.735134
0.000000 0.140841 0.408392
0.000000 0.142916 0.413642
0.181765 0.151339 0.425116
0.307500 0.171481 0.439918
0.450019 0.173617 0.465248
0.619898 0.218753 0.519921
0.787655 0.293523 0.564019
0.904479 0.412940 0.601556
0.000000 0.180514 0.432898
0.000000 0.175937 0.437415
0.192477 0.185031 0.444617
0.318761 0.203769 0.453101
0.458839 0.207797 0.474250
0.625086 0.252262 0.525536
0.791165 0.320775 0.568322
0.904662 0.431189 0.604913
0.142245 0.307408 0.481300
0.182071 0.308965 0.484260
0.234287 0.287633 0.488167
0.357702 0.302464 0.491646
0.485054 0.304997 0.501122
0.637110 0.344152 0.540154
0.799924 0.397498 0.579248
0.904753 0.484443 0.613275
0.172824 0.441688 0.533623
0.216770 0.442664 0.536065
0.328161 0.448157 0.543755
0.423194 0.440986 0.544030
0.527428 0.439796 0.543297
0.670130 0.466957 0.574029
0.817350 0.504143 0.598505
0.903380 0.586236 0.648310
0.170230 0.602228 0.583337
0.216037 0.601831 0.584680
0.327001 0.597864 0.587243
0.455177 0.588739 0.590051
0.570886 0.569818 0.586053
0.716396 0.590631 0.603967
0.834897 0.621942 0.634577
0.906615 0.666896 0.683223
0.267979 0.741482 0.564935
0.297917 0.740597 0.568261
0.380438 0.735592 0.577691
0.485817 0.728756 0.594049
0.590143 0.717159 0.607446
0.719051 0.715602 0.616114
0.846891 0.714443 0.653468
0.911315 0.735836 0.716121
0.413428 0.851835 0.611078
0.429938 0.850462 0.614374
0.482460 0.846494 0.625849
0.557641 0.840330 0.644221
0.636744 0.830533 0.660822
0.694728 0.819486 0.638025
0.821408 0.818509 0.675380
0.898405 0.810056 0.729183
0.577996 0.907500 0.695613
0.587213 0.906554 0.698970
0.617121 0.903563 0.710140
0.665919 0.899779 0.730800
0.711025 0.894041 0.743221
0.741115 0.890257 0.729793
0.807309 0.886229 0.741085
0.884550 0.884337 0.781247
0.000000 0.207553 0.640620
0.000000 0.212619 0.642512
0.182345 0.228519 0.645594
0.345922 0.257572 0.652308
0.483162 0.293248 0.657862
0.624140 0.299596 0.668757
0.779538 0.374578 0.713924
0.879118 0.493690 0.737911
0.000000 0.248417 0.649470
0.000000 0.250340 0.650477
0.203372 0.264134 0.653346
0.356420 0.288670 0.657649
0.488899 0.320348 0.660670
0.627161 0.325109 0.671351
0.779934 0.395178 0.715206
0.879057 0.506645 0.739406
0.211002 0.394415 0.684657
0.224094 0.388098 0.684901
0.278264 0.372290 0.685969
0.404150 0.389105 0.686336
0.521477 0.410559 0.684352
0.645411 0.409461 0.689052
0.785916 0.465339 0.725307
0.880522 0.554681 0.748196
0.328374 0.530785 0.726284
0.352209 0.531518 0.725307
0.423346 0.536217 0.723964
0.483253 0.524407 0.725978
0.577508 0.533562 0.722316
0.677272 0.525872 0.719875
0.796262 0.563592 0.743130
0.883391 0.627283 0.764248
0.351934 0.648035 0.750637
0.378820 0.648920 0.751614
0.457435 0.651453 0.754177
0.559777 0.656519 0.757565
0.626673 0.642756 0.749752
0.702022 0.631373 0.741024
0.805936 0.655695 0.757626
0.885740 0.699245 0.778134
0.372168 0.777127 0.773281
0.396887 0.776974 0.774716
0.464149 0.773037 0.775723
0.554681 0.765347 0.776333
0.646723 0.752865 0.774441
0.732753 0.734188 0.767971
0.829221 0.752834 0.784207
0.891112 0.777646 0.807828
0.492164 0.857389 0.745113
0.508263 0.857023 0.747677
0.554009 0.854582 0.753353
0.619776 0.849393 0.765042
0.688777 0.841764 0.778622
0.751583 0.830594 0.787228
0.824735 0.825101 0.786465
0.894408 0.828031 0.820523
0.637507 0.905882 0.782254
0.645014 0.905089 0.784451
0.669734 0.902525 0.791867
0.707424 0.899077 0.803708
0.748104 0.894743 0.815213
0.785916 0.889281 0.821927
0.813107 0.885008 0.807340
0.883543 0.884550 0.831785
0.000000 0.327703 0.823972
0.089998 0.335973 0.826230
0.264622 0.354528 0.826047
0.407416 0.385687 0.826230
0.535393 0.423713 0.824765
0.651331 0.455268 0.823178
0.765499 0.461585 0.823850
0.868864 0.556176 0.838468
0.020233 0.355413 0.821103
0.149538 0.362188 0.822873
0.282872 0.377844 0.822965
0.414008 0.403571 0.822202
0.535760 0.435523 0.819760
0.646906 0.461738 0.816892
0.758877 0.463142 0.816587
0.864256 0.549767 0.832334
0.320592 0.483955 0.835874
0.330327 0.480323 0.835874
0.372930 0.473823 0.834714
0.470802 0.490700 0.832731
0.570031 0.509453 0.828367
0.666651 0.527977 0.824613
0.770626 0.527794 0.825925
0.867247 0.606531 0.840696
0.475288 0.617670 0.850584
0.488411 0.618402 0.849363
0.522301 0.617212 0.846921
0.555200 0.604974 0.846952
0.628107 0.614405 0.842863
0.703792 0.627253 0.838926
0.788083 0.620508 0.838987
0.868864 0.674952 0.849363
0.532616 0.705013 0.858579
0.546136 0.705776 0.857755
0.594079 0.712001 0.856809
0.647639 0.716854 0.854368
0.680018 0.704219 0.850950
0.733791 0.705623 0.845731
0.796628 0.695399 0.842618
0.868132 0.734096 0.854398
0.559686 0.785733 0.865019
0.573297 0.786160 0.865141
0.616876 0.787564 0.865446
0.679042 0.790951 0.866514
0.742306 0.795132 0.867124
0.779782 0.788998 0.863554
0.817716 0.779812 0.857939
0.873136 0.795071 0.865324
0.599237 0.869017 0.873686
0.612055 0.868528 0.874296
0.645808 0.865629 0.874693
0.694423 0.861265 0.875517
0.744259 0.854765 0.875090
0.792142 0.846952 0.873808
0.832975 0.835080 0.868833
0.885435 0.846769 0.877989
0.692287 0.900999 0.854337
0.698512 0.900572 0.855375
0.724483 0.900084 0.861204
0.754635 0.898680 0.866514
0.787472 0.896544 0.872496
0.818631 0.893309 0.878477
0.845457 0.888151 0.879667
0.884031 0.885771 0.878599
0.337133 0.473304 0.904875
0.360479 0.479683 0.905028
0.419715 0.493507 0.903502
0.507713 0.521294 0.902373
0.599939 0.554559 0.900359
0.687007 0.590661 0.897581
0.767727 0.617395 0.896391
0.843778 0.624811 0.895689
0.361028 0.493385 0.903655
0.381903 0.499062 0.903838
0.436652 0.512047 0.902647
0.516564 0.535027 0.901183
0.604883 0.565637 0.899199
0.689021 0.598596 0.896422
0.766903 0.621637 0.894835
0.842313 0.626856 0.894102
0.459052 0.572778 0.903258
0.466438 0.572442 0.903380
0.493080 0.572107 0.902129
0.564721 0.595514 0.902098
0.636347 0.616846 0.899718
0.706538 0.638880 0.896361
0.775296 0.656794 0.894652
0.844541 0.658350 0.894285
0.587121 0.681331 0.903380
0.592767 0.681575 0.903655
0.603326 0.676326 0.903166
0.632044 0.675898 0.903075
0.685573 0.689693 0.901244
0.739437 0.703120 0.898650
0.792813 0.713863 0.896727
0.850584 0.710262 0.896635
0.661524 0.757229 0.906035
0.669612 0.759457 0.906065
0.687739 0.761593 0.905028
0.714717 0.763943 0.903563
0.730617 0.754757 0.902922
0.769100 0.760067 0.900633
0.810208 0.767575 0.898711
0.857969 0.764858 0.899748
0.698634 0.811673 0.908751
0.703914 0.811948 0.908415
0.723201 0.813870 0.907774
0.755093 0.818540 0.907469
0.785306 0.821622 0.906737
0.805478 0.817624 0.906554
0.837003 0.823484 0.906371
0.870573 0.822416 0.907195
0.731411 0.861875 0.912810
0.735592 0.861723 0.912688
0.750149 0.861479 0.912474
0.775784 0.862211 0.912810
0.807034 0.863798 0.913512
0.840116 0.867185 0.914946
0.860868 0.866087 0.915099
0.878843 0.859617 0.911864
0.768246 0.906554 0.918364
0.770901 0.906157 0.918303
0.781430 0.905058 0.918395
0.800076 0.903471 0.919005
0.822507 0.901518 0.919677
0.846036 0.899290 0.920378
0.868803 0.896605 0.920684
0.887907 0.889799 0.917693
