其他预设/【234】港风调色预设/1.3D LUT预设（视频调色-PR-AE-PS-FCPX-达芬奇用）/13.港风色调 __.cube
# Created by Adobe Lightroom plugin Export LUT (1.17.0)
# www.johnrellis.com/lightroom/exportlut.htm
# Preset: 13.港风色调 [素锦印象]
# Color profile: /Library/Application Support/Adobe/Color/Profiles/Recommended/AdobeRGB1998.icc
LUT_3D_SIZE 5
DOMAIN_MIN 0.000000 0.000000 0.000000
DOMAIN_MAX 0.903226 0.903226 0.903226
0.138979 0.134249 0.127626
0.164767 0.135012 0.128725
0.358068 0.132418 0.126192
0.767544 0.117250 0.107698
0.968048 0.234806 0.224521
0.144900 0.163333 0.131411
0.176303 0.168612 0.133822
0.394415 0.202579 0.121675
0.787472 0.252049 0.107240
0.974273 0.340917 0.275120
0.182345 0.388556 0.139773
0.244694 0.387518 0.148714
0.505699 0.478157 0.163088
0.845701 0.517815 0.159426
0.969665 0.531365 0.372015
0.345800 0.763058 0.279515
0.410620 0.761807 0.300298
0.558404 0.749691 0.357397
0.800443 0.768917 0.413886
0.941650 0.747585 0.563561
0.646387 0.902678 0.654658
0.663905 0.900175 0.660975
0.703151 0.888975 0.661280
0.800717 0.885435 0.724514
0.899413 0.888884 0.786252
0.140139 0.134829 0.142000
0.159365 0.137118 0.146944
0.314977 0.121706 0.171389
0.693965 0.000000 0.187594
0.945312 0.220829 0.284977
0.142580 0.167056 0.157137
0.174228 0.168276 0.160952
0.358556 0.178347 0.170871
0.723445 0.203159 0.194339
0.949676 0.320531 0.315435
0.141665 0.390692 0.182101
0.230503 0.390051 0.197635
0.449317 0.426551 0.219242
0.809659 0.479561 0.228305
0.956329 0.539544 0.435126
0.322515 0.762783 0.328405
0.416815 0.759701 0.375555
0.562493 0.745968 0.420020
0.789822 0.761593 0.468757
0.934752 0.752865 0.608728
0.658534 0.900481 0.684321
0.674434 0.898070 0.689052
0.731594 0.892088 0.717220
0.808682 0.886564 0.757076
0.899107 0.890257 0.806027
0.144839 0.133822 0.270207
0.187961 0.133028 0.273655
0.310033 0.129580 0.295323
0.642542 0.104128 0.427466
0.910307 0.285283 0.501366
0.104555 0.181979 0.334539
0.186130 0.175143 0.327123
0.348699 0.181308 0.335454
0.660182 0.221653 0.434607
0.912810 0.374731 0.518486
0.000000 0.453712 0.435828
0.168276 0.450294 0.435889
0.435554 0.427008 0.430854
0.737758 0.480049 0.490517
0.921172 0.579858 0.602319
0.263188 0.766903 0.488228
0.351690 0.755642 0.496254
0.570245 0.741421 0.572686
0.770413 0.752956 0.616114
0.918608 0.768856 0.718929
0.622614 0.901274 0.698360
0.659724 0.898405 0.720790
0.746029 0.889067 0.773281
0.805386 0.880919 0.792874
0.892943 0.886107 0.825864
0.114199 0.107240 0.643061
0.226291 0.093629 0.640101
0.410529 0.034821 0.624720
0.624231 0.078187 0.641413
0.864408 0.423377 0.731197
0.000000 0.188052 0.684596
0.187686 0.183322 0.678309
0.414832 0.173342 0.649439
0.630274 0.209995 0.648615
0.860288 0.468635 0.732692
0.000000 0.483345 0.762753
0.215793 0.479347 0.762753
0.460395 0.456397 0.723323
0.658656 0.451026 0.682795
0.868498 0.601129 0.754940
0.273564 0.794064 0.799100
0.360571 0.785763 0.793973
0.551904 0.769863 0.789029
0.733303 0.732296 0.768338
0.886290 0.774228 0.810788
0.624781 0.903990 0.785580
0.655634 0.901030 0.794766
0.737819 0.893736 0.822568
0.819577 0.883299 0.852506
0.887175 0.884092 0.865202
0.147433 0.146334 0.900877
0.255283 0.147646 0.898436
0.449653 0.164523 0.889952
0.638453 0.191318 0.868040
0.839170 0.351537 0.872892
0.125521 0.242222 0.904234
0.249302 0.246220 0.901671
0.452735 0.264012 0.892576
0.639612 0.274357 0.869047
0.838193 0.402075 0.872038
0.308232 0.503685 0.914336
0.364996 0.503838 0.911254
0.510124 0.506126 0.901335
0.661830 0.485573 0.879698
0.843290 0.555413 0.877348
0.532860 0.753658 0.916258
0.568322 0.755337 0.915160
0.674708 0.766476 0.913207
0.757748 0.756435 0.901457
0.858610 0.761288 0.892149
0.689418 0.904448 0.916167
0.706569 0.902861 0.915892
0.762966 0.898955 0.916350
0.827054 0.893339 0.916320
0.878080 0.879454 0.909361
