其他预设/【234】港风调色预设/1.3D LUT预设（视频调色-PR-AE-PS-FCPX-达芬奇用）/13.港风色调 __.cube
# Created by Adobe Lightroom plugin Export LUT (1.17.0)
# www.johnrellis.com/lightroom/exportlut.htm
# Preset: 13.港风色调 [素锦印象]
# Color profile: /Library/Application Support/Adobe/Color/Profiles/Recommended/AdobeRGB1998.icc
LUT_3D_SIZE 8
DOMAIN_MIN 0.000000 0.000000 0.000000
DOMAIN_MAX 0.903226 0.903226 0.903226
0.138979 0.134249 0.127626
0.144350 0.134401 0.128176
0.176638 0.135195 0.128634
0.273625 0.134432 0.128206
0.459480 0.127749 0.121523
0.708675 0.116304 0.107027
0.885191 0.145663 0.132937
0.968048 0.234806 0.224521
0.140536 0.139742 0.128908
0.146578 0.141146 0.129305
0.179294 0.142763 0.128939
0.270237 0.148196 0.128267
0.447517 0.154391 0.121767
0.683314 0.160159 0.106600
0.865202 0.179843 0.124178
0.961395 0.248081 0.213382
0.147494 0.176608 0.132845
0.155703 0.176638 0.134310
0.193790 0.184817 0.135897
0.315923 0.211215 0.126131
0.520348 0.246342 0.109712
0.739803 0.275669 0.100313
0.904784 0.305852 0.160586
0.972717 0.360266 0.278508
0.165652 0.289433 0.138399
0.180423 0.286290 0.139986
0.223667 0.285588 0.146914
0.379675 0.358618 0.147677
0.634180 0.435676 0.109224
0.829587 0.446540 0.107607
0.923247 0.444739 0.210452
0.971832 0.474220 0.339696
0.210056 0.510857 0.146670
0.234501 0.507988 0.149996
0.304967 0.508171 0.163851
0.423743 0.531151 0.185855
0.597559 0.566461 0.196109
0.784054 0.583520 0.186893
0.914153 0.581933 0.272282
0.967681 0.593835 0.418769
0.300298 0.709133 0.226322
0.334997 0.724086 0.246250
0.399176 0.717983 0.261936
0.487861 0.711116 0.293126
0.614374 0.717067 0.320134
0.769467 0.736782 0.357977
0.885985 0.721767 0.420874
0.947631 0.724727 0.547204
0.465858 0.847410 0.428717
0.482307 0.848051 0.437568
0.516716 0.841337 0.443153
0.576928 0.833982 0.464973
0.644251 0.823178 0.491096
0.752865 0.828275 0.526116
0.858457 0.833799 0.573632
0.914214 0.811063 0.647089
0.646387 0.902678 0.654658
0.651026 0.901823 0.655756
0.670985 0.899535 0.665003
0.709285 0.896849 0.689540
0.727108 0.886717 0.676295
0.783566 0.884733 0.713832
0.847959 0.887480 0.755154
0.899413 0.888884 0.786252
0.139162 0.134493 0.130831
0.143099 0.134890 0.131563
0.168917 0.136110 0.135439
0.253361 0.134340 0.139193
0.421363 0.119661 0.138003
0.650385 0.091951 0.133516
0.843290 0.110750 0.149416
0.951019 0.206485 0.221653
0.139895 0.140230 0.133089
0.146242 0.141207 0.134371
0.175509 0.143801 0.136934
0.259861 0.145998 0.139193
0.425879 0.144259 0.137148
0.645106 0.140566 0.132082
0.828397 0.155001 0.143832
0.942840 0.220523 0.209567
0.144991 0.174380 0.137575
0.156100 0.175967 0.141817
0.190890 0.182528 0.144686
0.301823 0.199680 0.136660
0.482490 0.225864 0.131868
0.688014 0.249851 0.129976
0.859831 0.274846 0.161440
0.955566 0.328588 0.256596
0.155520 0.276463 0.144808
0.174685 0.277012 0.150546
0.220645 0.281468 0.157870
0.337224 0.318975 0.160800
0.551843 0.376501 0.134157
0.753689 0.398291 0.122591
0.884123 0.409796 0.187533
0.958251 0.443427 0.305882
0.197452 0.501335 0.165957
0.222568 0.495399 0.168215
0.291295 0.488624 0.178836
0.391852 0.493416 0.195346
0.552178 0.523247 0.199283
0.747860 0.552850 0.188998
0.898192 0.563287 0.261418
0.961120 0.577142 0.399176
0.283268 0.688685 0.234501
0.306004 0.688136 0.239261
0.371740 0.683925 0.254368
0.464607 0.683192 0.287144
0.594202 0.696315 0.319310
0.757687 0.725765 0.364538
0.879423 0.714626 0.420630
0.944366 0.715541 0.535454
0.437079 0.831632 0.406317
0.445045 0.827909 0.403540
0.486671 0.823301 0.414771
0.557397 0.820401 0.446632
0.632837 0.813596 0.482216
0.741421 0.818570 0.514366
0.848661 0.823056 0.552178
0.910002 0.799161 0.618250
0.629938 0.899016 0.639643
0.638087 0.898650 0.644678
0.660395 0.896666 0.655818
0.701411 0.894255 0.682521
0.743008 0.889769 0.706081
0.788296 0.885649 0.728267
0.846036 0.886046 0.754574
0.897368 0.886351 0.779416
0.140658 0.135012 0.149844
0.146334 0.135225 0.151186
0.169680 0.138369 0.156863
0.243687 0.139559 0.178988
0.409979 0.089601 0.197391
0.646021 0.000000 0.214511
0.845823 0.084993 0.252079
0.948241 0.254612 0.331060
0.141207 0.142245 0.157595
0.149264 0.143282 0.158328
0.174533 0.146517 0.161288
0.249454 0.148745 0.179873
0.415473 0.110262 0.190219
0.644343 0.083894 0.210666
0.837400 0.137118 0.245029
0.945159 0.268559 0.325719
0.142550 0.184634 0.172915
0.152499 0.185702 0.174746
0.191714 0.185336 0.177737
0.291386 0.193393 0.185611
0.487953 0.208530 0.200839
0.689876 0.228977 0.221042
0.854978 0.272374 0.264744
0.947478 0.355840 0.353521
0.141756 0.295384 0.188754
0.158053 0.298619 0.189792
0.227268 0.307347 0.204532
0.350835 0.334295 0.219791
0.578943 0.376928 0.213077
0.755154 0.393164 0.241245
0.883085 0.423590 0.310277
0.951537 0.478279 0.414466
0.138125 0.512993 0.217563
0.171084 0.514458 0.217136
0.288914 0.513085 0.249516
0.398993 0.513451 0.275486
0.570031 0.543175 0.289982
0.760433 0.562402 0.294316
0.898863 0.570733 0.363378
0.951476 0.601160 0.489387
0.225559 0.699214 0.267704
0.271183 0.698543 0.286442
0.375830 0.690486 0.332372
0.468025 0.683192 0.354986
0.583642 0.687007 0.384131
0.744381 0.715633 0.423560
0.874662 0.715175 0.475868
0.938170 0.729519 0.601190
0.438788 0.839048 0.455207
0.461494 0.835416 0.469123
0.507408 0.827176 0.485328
0.567529 0.820035 0.501793
0.637659 0.811612 0.526421
0.740139 0.816831 0.560845
0.848539 0.826658 0.608728
0.909636 0.812589 0.678889
0.639918 0.898497 0.668635
0.648035 0.896544 0.673426
0.665827 0.894011 0.678950
0.711025 0.892851 0.709773
0.748653 0.888304 0.727443
0.791379 0.884489 0.749996
0.847532 0.886107 0.775509
0.897063 0.887816 0.800443
0.143038 0.134981 0.208499
0.153414 0.135225 0.212680
0.186160 0.136324 0.216068
0.245457 0.137514 0.230411
0.384405 0.134157 0.287602
0.606928 0.000000 0.347936
0.799069 0.000000 0.374853
0.920500 0.247868 0.422156
0.140658 0.144900 0.231479
0.153964 0.145022 0.231815
0.192355 0.145388 0.229923
0.255222 0.147829 0.239963
0.397436 0.153750 0.295903
0.609064 0.089937 0.344915
0.796139 0.098512 0.368200
0.917357 0.290929 0.431769
0.127840 0.201053 0.266392
0.142672 0.198184 0.269810
0.199130 0.190005 0.263859
0.282719 0.196475 0.267491
0.449134 0.219974 0.324193
0.656092 0.229709 0.362829
0.831205 0.316716 0.420142
0.929076 0.413489 0.487434
0.099611 0.335119 0.315404
0.126589 0.336614 0.317754
0.208713 0.338445 0.323400
0.340185 0.331395 0.327214
0.523949 0.354620 0.352087
0.701167 0.387488 0.388159
0.850370 0.440070 0.446235
0.932403 0.514885 0.529503
0.075593 0.546960 0.354589
0.134646 0.542443 0.351598
0.253574 0.538659 0.355230
0.417762 0.538140 0.401617
0.571893 0.552392 0.426123
0.765805 0.573999 0.449866
0.881682 0.593774 0.513298
0.934539 0.633783 0.598383
0.227451 0.726253 0.404669
0.277073 0.736385 0.422217
0.368475 0.725246 0.437232
0.504387 0.712215 0.493111
0.599664 0.703517 0.516350
0.746181 0.724422 0.541192
0.871000 0.727382 0.583093
0.928832 0.749447 0.685603
0.423926 0.845304 0.514427
0.446693 0.844755 0.524926
0.509392 0.840818 0.554009
0.605188 0.831724 0.609094
0.668849 0.823545 0.626490
0.748592 0.821836 0.648615
0.845243 0.828702 0.678492
0.906889 0.821225 0.731044
0.641535 0.902983 0.697963
0.652613 0.902068 0.705348
0.686091 0.897551 0.727596
0.728450 0.892210 0.753079
0.760983 0.887846 0.764370
0.797513 0.883665 0.780545
0.848417 0.885649 0.801755
0.895933 0.888792 0.823911
0.145022 0.130556 0.357641
0.164218 0.129305 0.361120
0.218326 0.125460 0.358923
0.286015 0.121340 0.351507
0.404364 0.107942 0.394598
0.582574 0.124666 0.470253
0.767636 0.197269 0.533471
0.898405 0.328496 0.577722
0.130526 0.143130 0.385046
0.155856 0.141848 0.389654
0.221225 0.137758 0.382879
0.293217 0.134340 0.365515
0.413184 0.129824 0.404334
0.589441 0.164248 0.476478
0.772000 0.231968 0.537438
0.898558 0.350530 0.580346
0.000000 0.210086 0.446326
0.065614 0.201572 0.445258
0.208408 0.196750 0.431189
0.317693 0.194888 0.418006
0.436866 0.205142 0.430488
0.597101 0.263554 0.485298
0.776852 0.316381 0.541711
0.896574 0.403876 0.580285
0.000000 0.378180 0.512169
0.000000 0.374456 0.512932
0.201236 0.363928 0.520012
0.354498 0.345800 0.499977
0.485573 0.350652 0.485847
0.638849 0.407568 0.529534
0.799069 0.445686 0.566583
0.901762 0.506950 0.602594
0.000000 0.571435 0.561028
0.000000 0.571557 0.562310
0.220340 0.565820 0.560327
0.388464 0.553674 0.556786
0.531762 0.524926 0.540185
0.694301 0.546899 0.565118
0.830625 0.583612 0.606592
0.909422 0.635096 0.663508
0.156954 0.718166 0.526452
0.204044 0.716579 0.528069
0.311467 0.706447 0.531273
0.443885 0.696132 0.549371
0.576989 0.681819 0.585626
0.717769 0.704005 0.621942
0.857877 0.731075 0.680934
0.915068 0.757198 0.745418
0.409796 0.846525 0.600366
0.426795 0.844114 0.603021
0.484535 0.838224 0.616724
0.572045 0.831174 0.645808
0.671229 0.820401 0.690913
0.738064 0.813016 0.707515
0.833616 0.821897 0.728878
0.901823 0.821408 0.767453
0.619623 0.901518 0.717617
0.628046 0.900298 0.721096
0.657008 0.896513 0.734005
0.717189 0.893706 0.770291
0.766415 0.886656 0.796048
0.800168 0.882109 0.805661
0.843687 0.882261 0.820615
0.891875 0.886137 0.837766
0.121004 0.110994 0.606439
0.161593 0.107088 0.605585
0.250492 0.095064 0.592798
0.352605 0.072724 0.585718
0.452155 0.042786 0.569238
0.590906 0.067048 0.603449
0.754299 0.235203 0.661189
0.873259 0.426154 0.713313
0.088106 0.134035 0.606592
0.141024 0.131411 0.603937
0.241184 0.122164 0.595056
0.348577 0.108461 0.586419
0.447669 0.098054 0.564813
0.587823 0.119173 0.600122
0.751736 0.260441 0.659358
0.872038 0.435676 0.712032
0.000000 0.217685 0.664942
0.000000 0.216098 0.661494
0.218112 0.212375 0.652461
0.358099 0.208499 0.635828
0.468116 0.202853 0.601282
0.607935 0.238956 0.623438
0.761563 0.360510 0.675105
0.874327 0.489815 0.721187
0.000000 0.405676 0.736690
0.000000 0.399756 0.730373
0.223850 0.388922 0.718105
0.397925 0.393866 0.707515
0.523186 0.385321 0.676173
0.651881 0.410925 0.674861
0.782864 0.504936 0.711818
0.880034 0.579156 0.742702
0.000000 0.585687 0.745052
0.116457 0.585199 0.745754
0.290837 0.583337 0.746487
0.450721 0.582727 0.747463
0.560449 0.556725 0.716426
0.664698 0.547143 0.690913
0.787747 0.606317 0.724422
0.880369 0.649775 0.748867
0.168215 0.752926 0.755886
0.228122 0.755367 0.759457
0.343908 0.750851 0.758877
0.470008 0.741207 0.755825
0.586206 0.723293 0.746242
0.700893 0.699001 0.733150
0.821744 0.728023 0.763760
0.891447 0.759609 0.796078
0.427527 0.855711 0.726955
0.450599 0.855863 0.730373
0.505089 0.851896 0.733913
0.586053 0.844694 0.745968
0.672847 0.833982 0.763821
0.754788 0.819760 0.787320
0.827237 0.822049 0.797848
0.897246 0.836576 0.834531
0.625757 0.903655 0.772427
0.633173 0.902495 0.774228
0.660365 0.898985 0.782254
0.708095 0.894774 0.799985
0.757168 0.889250 0.818143
0.806241 0.882567 0.838834
0.840757 0.879728 0.847868
0.888579 0.885008 0.860380
0.091859 0.099977 0.794095
0.151064 0.096712 0.796109
0.262394 0.083864 0.791684
0.380468 0.062837 0.783200
0.491646 0.021546 0.762814
0.600366 0.061036 0.745602
0.735409 0.175326 0.765438
0.855863 0.392370 0.791348
0.001648 0.132448 0.792081
0.126955 0.130526 0.793393
0.251133 0.122957 0.788754
0.372534 0.111116 0.777432
0.484718 0.100069 0.756008
0.591485 0.106172 0.735439
0.725124 0.189517 0.754482
0.848783 0.386145 0.782712
0.000000 0.234440 0.820706
0.000000 0.233768 0.818906
0.231907 0.231632 0.811612
0.372595 0.230411 0.799161
0.493263 0.226200 0.775723
0.601556 0.228550 0.749935
0.739498 0.300084 0.770596
0.855161 0.467353 0.796048
0.025147 0.408484 0.850858
0.131441 0.405158 0.847471
0.273960 0.404578 0.839109
0.407630 0.404913 0.828702
0.524498 0.397040 0.808225
0.626001 0.382422 0.777707
0.760067 0.442725 0.793362
0.859251 0.568109 0.810849
0.261845 0.583734 0.861875
0.292638 0.583154 0.860624
0.385443 0.585626 0.858732
0.480049 0.582025 0.849638
0.568200 0.565515 0.831205
0.653651 0.538201 0.802579
0.766903 0.562188 0.801450
0.858183 0.665461 0.823545
0.360693 0.732235 0.862455
0.384436 0.732265 0.862364
0.455146 0.732815 0.861997
0.553338 0.734951 0.861967
0.655543 0.737667 0.860655
0.723018 0.721950 0.843992
0.791135 0.710506 0.827512
0.863493 0.760067 0.844816
0.465461 0.859586 0.867033
0.484718 0.859251 0.867613
0.535515 0.856291 0.867460
0.608820 0.851408 0.867369
0.683864 0.843015 0.864866
0.754330 0.831662 0.860319
0.811856 0.812589 0.848692
0.879759 0.829770 0.864622
0.624781 0.901823 0.835691
0.633661 0.901183 0.836667
0.670466 0.900023 0.843626
0.713069 0.897246 0.849912
0.759670 0.893156 0.857786
0.805997 0.888090 0.868742
0.846433 0.881651 0.879301
0.884764 0.883604 0.885100
0.147433 0.146334 0.900877
0.187961 0.147951 0.900969
0.280949 0.148348 0.897459
0.392554 0.157015 0.893248
0.505760 0.172305 0.885222
0.612909 0.187259 0.872007
0.725216 0.244541 0.867460
0.839170 0.351537 0.872892
0.134279 0.175051 0.900328
0.178988 0.176791 0.900298
0.276707 0.178653 0.897307
0.389715 0.185824 0.892332
0.503960 0.199008 0.884184
0.611200 0.210788 0.870665
0.722103 0.256748 0.864439
0.836332 0.357580 0.870146
0.123629 0.269047 0.904631
0.173892 0.270909 0.904082
0.275273 0.271977 0.900145
0.397955 0.287510 0.897368
0.511315 0.296788 0.888487
0.615625 0.298619 0.873899
0.723445 0.327001 0.865202
0.837125 0.414313 0.871092
0.233249 0.421332 0.911376
0.264164 0.424231 0.911040
0.336339 0.425299 0.907836
0.437049 0.432868 0.903319
0.539239 0.437385 0.895476
0.634546 0.432227 0.882689
0.731716 0.435645 0.870359
0.841794 0.506157 0.875822
0.393011 0.587488 0.916930
0.411017 0.590082 0.916594
0.452857 0.590387 0.913787
0.514916 0.589197 0.908721
0.586236 0.582574 0.901335
0.661555 0.568414 0.889952
0.739101 0.545647 0.873625
0.846433 0.614008 0.880491
0.498421 0.720577 0.915709
0.509361 0.720699 0.915190
0.548791 0.722896 0.914061
0.614435 0.730037 0.912871
0.676509 0.733455 0.908934
0.727871 0.726040 0.900938
0.780117 0.708278 0.889555
0.856870 0.738125 0.890562
0.595911 0.827878 0.914458
0.603937 0.827756 0.914214
0.632288 0.827726 0.913573
0.681209 0.829618 0.913176
0.738979 0.832822 0.912902
0.796353 0.837797 0.913054
0.830198 0.830381 0.906645
0.864103 0.819272 0.897154
0.689418 0.904448 0.916167
0.694118 0.903929 0.916014
0.712703 0.902403 0.915923
0.744594 0.900267 0.916167
0.781552 0.897490 0.916411
0.818235 0.894194 0.916381
0.851652 0.890043 0.915557
0.878080 0.879454 0.909361
