其他预设/【234】港风调色预设/1.3D LUT预设（视频调色-PR-AE-PS-FCPX-达芬奇用）/13.港风色调 __.cube
# Created by Adobe Lightroom plugin Export LUT (1.17.0)
# www.johnrellis.com/lightroom/exportlut.htm
# Preset: 13.港风色调 [素锦印象]
# Color profile: /Library/Application Support/Adobe/Color/Profiles/Recommended/AdobeRGB1998.icc
LUT_3D_SIZE 32
0.138979 0.134249 0.127626
0.139193 0.134218 0.127626
0.139773 0.134127 0.127810
0.141482 0.134371 0.127901
0.144350 0.134401 0.128176
0.149325 0.134585 0.128359
0.156039 0.134951 0.128481
0.164767 0.135012 0.128725
0.176638 0.135195 0.128634
0.192508 0.135225 0.128878
0.213718 0.135012 0.128847
0.240604 0.134829 0.128542
0.273625 0.134432 0.128206
0.312840 0.133669 0.127504
0.358068 0.132418 0.126192
0.407233 0.130373 0.124239
0.459480 0.127749 0.121523
0.512840 0.124727 0.118410
0.565667 0.121798 0.115053
0.640192 0.117983 0.110109
0.708675 0.116304 0.107027
0.767544 0.117250 0.107698
0.815854 0.123903 0.111635
0.854276 0.132631 0.120851
0.885191 0.145663 0.132937
0.910735 0.161654 0.148409
0.932647 0.180758 0.168704
0.951690 0.204929 0.193393
0.968048 0.234806 0.224521
0.981689 0.272068 0.263493
0.992432 0.317571 0.311986
0.999786 0.371923 0.370825
0.139132 0.134401 0.127779
0.139345 0.134371 0.127779
0.139925 0.134463 0.127779
0.141604 0.134707 0.128054
0.144656 0.134920 0.128115
0.149447 0.135317 0.128298
0.156130 0.135500 0.128603
0.164675 0.135775 0.128664
0.176089 0.135836 0.128786
0.191775 0.135958 0.128847
0.212192 0.136202 0.128817
0.238315 0.136141 0.128573
0.270146 0.135775 0.128328
0.308385 0.135500 0.127504
0.352087 0.134646 0.126345
0.400275 0.133242 0.124575
0.451453 0.131411 0.122011
0.504143 0.128511 0.118990
0.556878 0.126162 0.115389
0.630182 0.123140 0.110689
0.696407 0.121523 0.107362
0.754849 0.122927 0.106630
0.803799 0.127291 0.110018
0.843870 0.135470 0.117128
0.876310 0.145785 0.128328
0.903471 0.160342 0.142641
0.926909 0.177859 0.161624
0.947173 0.200656 0.185763
0.964630 0.229252 0.215702
0.979248 0.264958 0.253910
0.990753 0.309087 0.301518
0.998871 0.362402 0.359167
0.139223 0.135134 0.127901
0.139590 0.135073 0.128084
0.140139 0.135317 0.128054
0.141878 0.135378 0.128176
0.144930 0.135592 0.128237
0.150057 0.135927 0.128420
0.156374 0.136355 0.128542
0.164889 0.136629 0.128756
0.176089 0.136934 0.128847
0.191409 0.137148 0.128756
0.211704 0.137423 0.128725
0.237461 0.137667 0.128664
0.269017 0.137819 0.128206
0.306523 0.137911 0.127596
0.349706 0.137514 0.126497
0.397345 0.136660 0.124758
0.447883 0.135042 0.122133
0.500298 0.133608 0.119081
0.553124 0.131289 0.115541
0.626184 0.129854 0.110445
0.691157 0.128481 0.107271
0.749111 0.129976 0.106355
0.798245 0.133852 0.109163
0.838743 0.140566 0.115846
0.871916 0.150607 0.126101
0.899748 0.163180 0.140200
0.923827 0.180148 0.158877
0.944793 0.201694 0.182254
0.962799 0.229038 0.212406
0.977844 0.264042 0.250340
0.989776 0.306889 0.296696
0.998230 0.359197 0.354131
0.139925 0.136629 0.128298
0.140047 0.136782 0.128450
0.140597 0.136873 0.128603
0.142306 0.137301 0.128695
0.145907 0.137575 0.128573
0.151186 0.138064 0.128542
0.157839 0.138216 0.128664
0.166262 0.138674 0.128695
0.177646 0.139101 0.128969
0.192874 0.139803 0.128817
0.212863 0.140291 0.128969
0.238437 0.141085 0.128664
0.269535 0.141848 0.128359
0.306615 0.142794 0.127687
0.348974 0.143160 0.126406
0.395941 0.143313 0.124636
0.446021 0.143038 0.121981
0.497505 0.142550 0.119020
0.553338 0.141634 0.115297
0.621393 0.141176 0.110689
0.683009 0.141970 0.107362
0.739345 0.143404 0.106142
0.789212 0.147005 0.108064
0.831907 0.153353 0.114321
0.867704 0.162539 0.124269
0.897581 0.173983 0.139620
0.923095 0.190555 0.158572
0.944610 0.211368 0.183261
0.962676 0.237583 0.213809
0.977569 0.270939 0.251530
0.989288 0.311833 0.297459
0.997711 0.361212 0.352361
0.140536 0.139742 0.128908
0.140902 0.139864 0.128878
0.141665 0.139895 0.129030
0.143099 0.140169 0.129335
0.146578 0.141146 0.129305
0.152041 0.141756 0.129091
0.159060 0.141878 0.128847
0.168063 0.142184 0.128847
0.179294 0.142763 0.128939
0.194461 0.143771 0.128939
0.214359 0.144869 0.128817
0.239536 0.146548 0.128603
0.270237 0.148196 0.128267
0.307042 0.149996 0.127535
0.349371 0.151736 0.126253
0.396857 0.153323 0.124269
0.447517 0.154391 0.121767
0.499489 0.155398 0.118532
0.560418 0.156863 0.114199
0.624628 0.158541 0.109682
0.683314 0.160159 0.106600
0.737697 0.163027 0.105684
0.786587 0.166903 0.107393
0.829191 0.172519 0.113497
0.865202 0.179843 0.124178
0.895781 0.191043 0.138796
0.921416 0.204990 0.158663
0.943175 0.223819 0.182986
0.961395 0.248081 0.213382
0.976379 0.279057 0.250889
0.988281 0.317784 0.296269
0.996857 0.365423 0.351110
0.141421 0.144930 0.129305
0.141970 0.144991 0.129458
0.142702 0.145052 0.129610
0.144167 0.145144 0.129915
0.147433 0.145754 0.130098
0.152895 0.147005 0.130190
0.160006 0.147250 0.129915
0.170047 0.148013 0.129488
0.182925 0.148684 0.129122
0.199039 0.149996 0.129030
0.219303 0.151980 0.128786
0.244938 0.154330 0.128634
0.275883 0.157290 0.128054
0.312871 0.160250 0.127291
0.355718 0.163363 0.125734
0.403357 0.166476 0.123629
0.454200 0.169436 0.120729
0.506371 0.172061 0.117281
0.572259 0.176028 0.112306
0.633875 0.179934 0.108248
0.691310 0.183505 0.105318
0.744930 0.187259 0.105104
0.863859 0.215579 0.128878
0.894072 0.224887 0.145968
0.917937 0.236057 0.165652
0.937407 0.249607 0.187716
0.953643 0.266728 0.213199
0.967315 0.288121 0.243076
0.978851 0.314977 0.278019
0.988220 0.348150 0.319493
0.995056 0.388190 0.368231
0.999268 0.434302 0.423316
0.143099 0.153750 0.130343
0.143709 0.153658 0.130343
0.144594 0.153841 0.130465
0.146609 0.153841 0.130953
0.149599 0.154116 0.131533
0.155612 0.155489 0.131716
0.164126 0.157137 0.131807
0.173617 0.157259 0.131807
0.190890 0.160281 0.130312
0.211124 0.162783 0.129488
0.237705 0.165743 0.128176
0.266941 0.169497 0.127657
0.301305 0.173892 0.126802
0.341131 0.178561 0.125429
0.385229 0.183200 0.123476
0.432074 0.187686 0.120912
0.481758 0.191714 0.117769
0.542931 0.197726 0.113039
0.608576 0.204562 0.108064
0.670466 0.210330 0.105074
0.731319 0.217044 0.103914
0.788785 0.224033 0.108125
0.838590 0.232609 0.118807
0.878599 0.242283 0.136599
0.909270 0.253758 0.158968
0.932250 0.266850 0.183322
0.950103 0.282719 0.210300
0.964569 0.301823 0.240787
0.976562 0.326299 0.275914
0.986206 0.356451 0.316258
0.993408 0.393439 0.363958
0.998016 0.436896 0.418189
0.144900 0.163333 0.131411
0.145632 0.163363 0.131563
0.146731 0.163333 0.131716
0.148898 0.163455 0.131991
0.152224 0.163516 0.132753
0.157107 0.164065 0.133394
0.165316 0.166079 0.133608
0.176303 0.168612 0.133822
0.187716 0.168368 0.134096
0.212650 0.175082 0.131075
0.239048 0.179629 0.129915
0.272557 0.184695 0.127626
0.310826 0.190494 0.125429
0.350713 0.196506 0.123842
0.394415 0.202579 0.121675
0.440894 0.208347 0.118898
0.494697 0.215213 0.114961
0.558251 0.224125 0.109926
0.617456 0.231113 0.105562
0.675319 0.237919 0.102632
0.732540 0.244663 0.102541
0.787472 0.252049 0.107240
0.835660 0.260197 0.117922
0.874907 0.268193 0.135866
0.905516 0.277714 0.158236
0.928771 0.288975 0.182498
0.947021 0.302068 0.209537
0.961913 0.318791 0.239597
0.974273 0.340917 0.275120
0.984253 0.368475 0.315160
0.991730 0.403082 0.363012
0.996582 0.444404 0.417121
0.147494 0.176608 0.132845
0.148409 0.176455 0.132998
0.149447 0.176577 0.133303
0.151919 0.176516 0.133761
0.155703 0.176638 0.134310
0.160342 0.176730 0.135164
0.168032 0.178225 0.135592
0.179202 0.181155 0.135714
0.193790 0.184817 0.135897
0.208103 0.184970 0.136477
0.241764 0.195682 0.132143
0.275181 0.202945 0.129519
0.315923 0.211215 0.126131
0.364233 0.219547 0.121492
0.409888 0.226841 0.118318
0.459815 0.235264 0.114656
0.520348 0.246342 0.109712
0.577569 0.254765 0.105013
0.631556 0.261875 0.101595
0.685512 0.268498 0.099702
0.739803 0.275669 0.100313
0.791836 0.283024 0.106447
0.837430 0.290227 0.119448
0.875181 0.297765 0.137545
0.904784 0.305852 0.160586
0.927520 0.314916 0.185794
0.945586 0.326177 0.213138
0.960418 0.340764 0.243198
0.972717 0.360266 0.278508
0.982605 0.385473 0.319005
0.990143 0.417060 0.365484
0.995087 0.455573 0.418982
0.150729 0.194125 0.134401
0.151614 0.194003 0.134554
0.152865 0.193973 0.134707
0.155612 0.193973 0.135134
0.159792 0.193912 0.135836
0.165133 0.193881 0.136690
0.171481 0.193912 0.137789
0.183139 0.197055 0.138003
0.197848 0.200961 0.137911
0.216434 0.205814 0.137972
0.233890 0.206363 0.138582
0.275212 0.220768 0.132723
0.316899 0.231937 0.128420
0.364355 0.242985 0.123873
0.425147 0.257511 0.116548
0.492866 0.272160 0.106935
0.549493 0.282902 0.101991
0.603204 0.291203 0.097841
0.653468 0.297826 0.095521
0.703304 0.303929 0.095552
0.752682 0.310124 0.098482
0.798825 0.315984 0.106600
0.839689 0.321630 0.119753
0.873960 0.327062 0.138399
0.902007 0.333043 0.160647
0.924498 0.340032 0.185885
0.942931 0.349645 0.213748
0.958251 0.362890 0.245518
0.970947 0.381201 0.282383
0.981079 0.405310 0.325139
0.988708 0.436011 0.373358
0.993561 0.473548 0.428443
0.153964 0.215061 0.135897
0.155032 0.215030 0.135866
0.156741 0.215061 0.135988
0.159915 0.215000 0.136568
0.164584 0.215183 0.137240
0.170626 0.215366 0.138155
0.178164 0.215640 0.139345
0.188052 0.217197 0.140383
0.203799 0.221683 0.140444
0.223117 0.227176 0.140291
0.246220 0.233463 0.140017
0.266636 0.234073 0.141085
0.315526 0.252140 0.134188
0.375860 0.273899 0.125307
0.436835 0.291752 0.118166
0.501366 0.307683 0.108461
0.566735 0.320470 0.096101
0.622156 0.328405 0.087892
0.668879 0.333867 0.087678
0.715511 0.339300 0.089143
0.761776 0.344732 0.095125
0.805417 0.349828 0.105989
0.844114 0.354589 0.122286
0.876768 0.359350 0.142336
0.903441 0.363958 0.166506
0.924865 0.369665 0.192203
0.942473 0.377386 0.220737
0.957214 0.388739 0.252689
0.969543 0.404700 0.289250
0.979492 0.426307 0.331395
0.986969 0.454566 0.379828
0.991760 0.489723 0.434760
0.158297 0.242435 0.136965
0.159579 0.242557 0.137240
0.161410 0.242557 0.137362
0.164981 0.242466 0.137758
0.170382 0.242679 0.138521
0.177554 0.242802 0.139590
0.186191 0.243381 0.140963
0.195926 0.244053 0.142580
0.211215 0.247776 0.143130
0.232029 0.254093 0.142916
0.256535 0.261540 0.143008
0.290623 0.274998 0.142855
0.365759 0.317693 0.146853
0.436530 0.344976 0.135958
0.517784 0.375525 0.115297
0.583246 0.391608 0.105898
0.643397 0.401740 0.096651
0.699458 0.407111 0.088411
0.751644 0.409583 0.080720
0.791165 0.410071 0.093324
0.825620 0.410346 0.111757
0.856504 0.410651 0.132387
0.883085 0.411078 0.155184
0.905852 0.412512 0.180117
0.924804 0.415198 0.207218
0.940642 0.419959 0.235386
0.953826 0.427008 0.265202
0.964874 0.437476 0.297826
0.974060 0.452277 0.334569
0.981476 0.472480 0.376257
0.986847 0.498512 0.423163
0.990021 0.530816 0.475746
0.165652 0.289433 0.138399
0.167422 0.289342 0.138521
0.169345 0.288579 0.138766
0.173709 0.287755 0.139284
0.180423 0.286290 0.139986
0.188693 0.285008 0.141207
0.198581 0.284337 0.142702
0.210391 0.284428 0.144594
0.223667 0.285588 0.146914
0.251347 0.299535 0.147463
0.286534 0.316686 0.147829
0.329442 0.336645 0.147921
0.379675 0.358618 0.147677
0.421729 0.367651 0.151247
0.490974 0.391608 0.142702
0.574823 0.423682 0.117281
0.634180 0.435676 0.109224
0.688411 0.442573 0.104341
0.739590 0.446235 0.100679
0.787961 0.447639 0.100099
0.829587 0.446540 0.107607
0.858366 0.445136 0.132235
0.883330 0.444007 0.156954
0.904936 0.443732 0.183139
0.923247 0.444739 0.210452
0.938689 0.447547 0.239109
0.951598 0.452857 0.269871
0.962615 0.461402 0.302495
0.971832 0.474220 0.339696
0.979248 0.492683 0.381994
0.984710 0.516869 0.429328
0.987854 0.547356 0.482490
0.172122 0.329107 0.139040
0.173800 0.329046 0.139345
0.176455 0.328252 0.139437
0.181125 0.327184 0.140169
0.188754 0.325505 0.140902
0.198611 0.326085 0.142306
0.211337 0.328679 0.144228
0.226291 0.331853 0.146487
0.243656 0.336645 0.149508
0.266728 0.345068 0.152346
0.302373 0.361456 0.152712
0.344701 0.380407 0.152987
0.392828 0.400671 0.153170
0.445075 0.420417 0.153262
0.485267 0.425116 0.158358
0.541436 0.436652 0.154330
0.621698 0.465675 0.125643
0.675807 0.474434 0.117433
0.726314 0.479713 0.117922
0.774594 0.482887 0.120241
0.818814 0.483558 0.126711
0.857359 0.481483 0.138094
0.885313 0.478248 0.160220
0.905913 0.476570 0.188754
0.923400 0.476326 0.218021
0.938231 0.477821 0.247379
0.950744 0.481727 0.279118
0.961364 0.488808 0.312993
0.970275 0.500175 0.350805
0.977447 0.517021 0.393927
0.982635 0.539513 0.441718
0.985534 0.568353 0.495521
0.182345 0.388556 0.139773
0.184665 0.389014 0.140200
0.187778 0.388525 0.140383
0.193973 0.387732 0.141176
0.202731 0.386816 0.142367
0.214633 0.385840 0.144045
0.228519 0.386267 0.146120
0.244694 0.387518 0.148714
0.263401 0.390631 0.152224
0.284642 0.395941 0.156710
0.316564 0.408057 0.159030
0.358312 0.425849 0.159823
0.404791 0.444404 0.161013
0.454719 0.462440 0.161990
0.505699 0.478157 0.163088
0.542107 0.477607 0.168887
0.585290 0.477119 0.171481
0.658961 0.502098 0.144289
0.714626 0.511803 0.131868
0.762448 0.516411 0.138033
0.806607 0.518517 0.147066
0.845701 0.517815 0.159426
0.878660 0.514549 0.175174
0.906249 0.510033 0.194705
0.923857 0.508232 0.225010
0.938262 0.508812 0.257816
0.950622 0.512291 0.292424
0.961059 0.519615 0.330266
0.969665 0.531365 0.372015
0.976287 0.548852 0.419165
0.980682 0.572107 0.470924
0.982849 0.600641 0.526299
0.195895 0.453468 0.141787
0.198734 0.454047 0.142123
0.201877 0.453864 0.142550
0.208927 0.453407 0.143496
0.219577 0.452491 0.144930
0.232914 0.451881 0.147005
0.248814 0.452338 0.149447
0.267247 0.453773 0.153140
0.288029 0.456001 0.157137
0.310430 0.459480 0.162631
0.334691 0.463600 0.168856
0.373938 0.476509 0.170504
0.416602 0.490089 0.172061
0.461646 0.502983 0.173648
0.507683 0.514611 0.175235
0.554131 0.524498 0.176730
0.587823 0.521019 0.183139
0.623682 0.514427 0.189883
0.693111 0.536584 0.168887
0.751827 0.549004 0.156313
0.797818 0.553735 0.166995
0.837888 0.555108 0.183841
0.871794 0.553582 0.203159
0.899901 0.550408 0.224643
0.923033 0.546563 0.249088
0.940856 0.544305 0.278141
0.952117 0.547173 0.315526
0.961578 0.553704 0.355077
0.969116 0.564630 0.398413
0.974731 0.580438 0.445472
0.978363 0.601038 0.495399
0.980041 0.626215 0.547784
0.210056 0.510857 0.146670
0.212741 0.510704 0.146944
0.216159 0.510094 0.147311
0.223453 0.509117 0.148592
0.234501 0.507988 0.149996
0.248447 0.506889 0.152407
0.264958 0.506493 0.155245
0.283848 0.506950 0.159060
0.304967 0.508171 0.163851
0.327916 0.510338 0.169497
0.352575 0.513329 0.176608
0.382116 0.519066 0.183108
0.423743 0.531151 0.185855
0.466835 0.542290 0.188510
0.510430 0.551873 0.191196
0.553765 0.559594 0.193454
0.597559 0.566461 0.196109
0.630396 0.562249 0.202823
0.662989 0.553277 0.211734
0.725795 0.570459 0.198795
0.784054 0.583520 0.186893
0.825681 0.586450 0.199832
0.860655 0.586542 0.221744
0.889982 0.584649 0.245792
0.914153 0.581933 0.272282
0.933959 0.579736 0.301335
0.950042 0.579217 0.333593
0.960754 0.583612 0.373114
0.967681 0.593835 0.418769
0.972717 0.608728 0.467170
0.975860 0.628138 0.517815
0.976928 0.652216 0.570947
0.227634 0.566674 0.156832
0.231083 0.567864 0.157351
0.255589 0.615900 0.175235
0.263645 0.614618 0.176455
0.275395 0.612512 0.178195
0.290257 0.609796 0.180423
0.307561 0.607050 0.183749
0.327184 0.604608 0.187778
0.349157 0.602930 0.193332
0.372808 0.602289 0.200778
0.398016 0.602136 0.208713
0.423621 0.601953 0.218051
0.457893 0.605829 0.223972
0.498878 0.612543 0.227848
0.540063 0.618585 0.231022
0.581384 0.623560 0.234287
0.622675 0.627649 0.237095
0.664118 0.631373 0.240024
0.695155 0.624964 0.247257
0.722469 0.611475 0.258396
0.774746 0.620325 0.252934
0.826688 0.629389 0.243534
0.860838 0.628260 0.257603
0.887938 0.626062 0.284337
0.910216 0.622431 0.310826
0.928649 0.619013 0.338140
0.943816 0.617060 0.367590
0.956176 0.618036 0.401221
0.965911 0.623285 0.440467
0.970642 0.636011 0.488075
0.973205 0.653681 0.538659
0.973816 0.675807 0.591150
0.254429 0.629175 0.178714
0.260075 0.635340 0.182223
0.267155 0.641169 0.185885
0.277592 0.645869 0.190188
0.290990 0.648463 0.194583
0.306065 0.648432 0.198398
0.323491 0.646479 0.201755
0.342382 0.644282 0.206119
0.363653 0.642573 0.211643
0.386450 0.641382 0.218631
0.410742 0.640558 0.226627
0.435920 0.639979 0.235752
0.460456 0.638361 0.245609
0.498207 0.643244 0.249546
0.537163 0.648005 0.253239
0.576257 0.651972 0.256138
0.615473 0.655329 0.259220
0.654902 0.658473 0.262364
0.695277 0.662135 0.266941
0.726955 0.657282 0.275242
0.751980 0.643488 0.288914
0.798001 0.648707 0.292363
0.846403 0.657038 0.286748
0.878080 0.655543 0.299535
0.901488 0.653193 0.329320
0.920745 0.650782 0.360479
0.936492 0.649470 0.392645
0.949279 0.650599 0.427985
0.959258 0.655451 0.467964
0.966491 0.664668 0.512383
0.970459 0.679103 0.560601
0.970520 0.699702 0.612970
0.275731 0.670039 0.199680
0.281773 0.675380 0.203769
0.288334 0.680751 0.208438
0.298466 0.684688 0.213077
0.311315 0.687037 0.217899
0.325902 0.686824 0.221256
0.341985 0.685115 0.224918
0.360235 0.683009 0.229129
0.380377 0.681300 0.234745
0.402472 0.679957 0.241398
0.425879 0.679133 0.249821
0.450324 0.678035 0.258671
0.474189 0.676112 0.268070
0.501518 0.675502 0.275914
0.538415 0.679347 0.279606
0.575555 0.682460 0.283085
0.612604 0.685237 0.286534
0.650263 0.687922 0.290166
0.688716 0.690974 0.294469
0.728145 0.694850 0.300603
0.759762 0.691249 0.310826
0.782071 0.676905 0.327550
0.820706 0.677760 0.338872
0.863584 0.684199 0.338018
0.892668 0.682399 0.349248
0.912932 0.679927 0.379065
0.929076 0.678767 0.413184
0.942199 0.679774 0.450263
0.952514 0.683986 0.490791
0.960113 0.691890 0.534295
0.964904 0.704280 0.581323
0.966674 0.721736 0.632166
0.300298 0.709133 0.226322
0.306310 0.713863 0.231113
0.313207 0.718563 0.235966
0.322942 0.722133 0.241276
0.334997 0.724086 0.246250
0.348272 0.723751 0.249943
0.363287 0.722164 0.253330
0.380194 0.719936 0.256931
0.399176 0.717983 0.261936
0.419776 0.716213 0.268437
0.441840 0.714839 0.276066
0.464790 0.713222 0.284398
0.487861 0.711116 0.293126
0.510918 0.708614 0.302525
0.541283 0.709621 0.309239
0.577325 0.713130 0.314092
0.614374 0.717067 0.320134
0.652033 0.721309 0.326909
0.690608 0.726009 0.335363
0.729854 0.731197 0.345922
0.769467 0.736782 0.357977
0.801724 0.735653 0.373541
0.820462 0.720882 0.394507
0.850767 0.717739 0.414771
0.885985 0.721767 0.420874
0.910704 0.720180 0.434943
0.926665 0.718685 0.465888
0.938506 0.720333 0.505882
0.947631 0.724727 0.547204
0.954009 0.732601 0.590692
0.957641 0.744656 0.636896
0.958709 0.760708 0.684443
0.345800 0.763058 0.279515
0.349737 0.764767 0.282353
0.353979 0.766140 0.284977
0.360967 0.766690 0.287785
0.370397 0.766354 0.290379
0.381537 0.765133 0.293156
0.394873 0.763516 0.296330
0.410620 0.761807 0.300298
0.428748 0.760464 0.305730
0.448920 0.759396 0.312963
0.470314 0.758541 0.321660
0.492653 0.757229 0.330358
0.514702 0.755337 0.339239
0.536767 0.752743 0.348333
0.558404 0.749691 0.357397
0.590784 0.751583 0.362707
0.624720 0.753933 0.368200
0.659297 0.756466 0.374670
0.694301 0.759457 0.382696
0.729641 0.762509 0.392126
0.765133 0.765682 0.402258
0.800443 0.768917 0.413886
0.828946 0.766415 0.427405
0.842527 0.749386 0.445869
0.865629 0.742580 0.468391
0.895750 0.745418 0.476692
0.918364 0.744381 0.489876
0.932280 0.743679 0.520470
0.941650 0.747585 0.563561
0.948211 0.754635 0.608423
0.952148 0.765225 0.654139
0.953582 0.779660 0.700954
0.378424 0.793179 0.319036
0.382361 0.794583 0.322393
0.386694 0.795895 0.325536
0.393133 0.796414 0.328374
0.401373 0.796078 0.331121
0.411048 0.794797 0.333257
0.422553 0.793027 0.335668
0.436225 0.791135 0.338689
0.452247 0.789487 0.343481
0.470375 0.787991 0.349554
0.489967 0.786740 0.357122
0.510491 0.785336 0.365728
0.531121 0.783536 0.374243
0.552270 0.781338 0.383246
0.573083 0.778775 0.392157
0.596551 0.777279 0.400641
0.628412 0.779446 0.407233
0.660945 0.781796 0.415015
0.693782 0.784329 0.423713
0.726864 0.787106 0.433814
0.760067 0.789975 0.445258
0.792996 0.792905 0.458198
0.825223 0.795773 0.471809
0.851865 0.794095 0.486702
0.857298 0.770626 0.487770
0.876432 0.762875 0.511742
0.902403 0.765194 0.524407
0.923308 0.765011 0.538109
0.935424 0.765805 0.570001
0.942870 0.771481 0.614649
0.947295 0.781125 0.662409
0.949187 0.794522 0.710445
0.431189 0.828763 0.385016
0.435401 0.830076 0.388952
0.438880 0.830655 0.391272
0.443702 0.830503 0.393286
0.449622 0.829557 0.394141
0.456703 0.827878 0.394720
0.465278 0.825803 0.395544
0.475746 0.823270 0.396246
0.487892 0.820706 0.398352
0.502251 0.818204 0.401617
0.517784 0.815610 0.405676
0.534936 0.813230 0.411231
0.552789 0.810636 0.417700
0.570794 0.807584 0.423835
0.588464 0.804074 0.429328
0.606378 0.800290 0.435492
0.630121 0.798917 0.440345
0.659052 0.799863 0.445930
0.689204 0.801572 0.454108
0.720302 0.804074 0.464515
0.751522 0.806821 0.476722
0.782345 0.809445 0.489631
0.812192 0.811673 0.502312
0.840909 0.813291 0.514000
0.864866 0.811032 0.525689
0.872343 0.793790 0.539940
0.888396 0.786343 0.564324
0.908873 0.787015 0.580957
0.926513 0.787808 0.597711
0.937102 0.790158 0.628717
0.942626 0.797391 0.672602
0.944945 0.809415 0.721218
0.465858 0.847410 0.428717
0.469703 0.848508 0.432471
0.473152 0.848997 0.435157
0.477150 0.848844 0.436744
0.482307 0.848051 0.437568
0.488502 0.846738 0.438453
0.496162 0.845151 0.439338
0.505394 0.843259 0.440711
0.516716 0.841337 0.443153
0.529839 0.839536 0.447089
0.544305 0.837644 0.451881
0.560235 0.835904 0.458228
0.576928 0.833982 0.464973
0.593744 0.831693 0.471443
0.610468 0.829038 0.477760
0.627253 0.826108 0.484138
0.644251 0.823178 0.491096
0.669703 0.823514 0.497230
0.696834 0.824735 0.504784
0.724819 0.826383 0.514702
0.752865 0.828275 0.526116
0.780636 0.830106 0.538140
0.807523 0.831724 0.550286
0.833494 0.832944 0.562280
0.858457 0.833799 0.573632
0.879850 0.832029 0.584802
0.885466 0.816312 0.598657
0.898436 0.810269 0.624872
0.914214 0.811063 0.647089
0.928405 0.813840 0.668452
0.937072 0.818479 0.699886
0.940642 0.827420 0.741299
0.508141 0.865599 0.482277
0.511162 0.866087 0.484993
0.513207 0.866178 0.486244
0.515862 0.865782 0.486671
0.519127 0.864805 0.486305
0.523613 0.863462 0.486000
0.529442 0.861906 0.485817
0.536980 0.860197 0.486702
0.546410 0.858518 0.488808
0.557702 0.856901 0.492073
0.570642 0.855314 0.496651
0.585016 0.853910 0.502708
0.600092 0.852354 0.509361
0.615351 0.850492 0.515679
0.630365 0.848234 0.521447
0.645624 0.845701 0.527398
0.660883 0.843076 0.533471
0.678584 0.841306 0.540215
0.702907 0.841978 0.547662
0.727993 0.843107 0.556695
0.753353 0.844388 0.567742
0.778439 0.845731 0.579431
0.802914 0.846891 0.591211
0.826474 0.847868 0.602930
0.849058 0.848539 0.614008
0.870695 0.848997 0.624659
0.889891 0.847868 0.635767
0.894469 0.834226 0.648798
0.904692 0.829221 0.675502
0.916899 0.830716 0.701625
0.928618 0.835233 0.725551
0.936095 0.841001 0.754177
0.544396 0.878752 0.527825
0.546441 0.878996 0.529656
0.548302 0.878996 0.530663
0.550805 0.878721 0.531456
0.554498 0.878172 0.532616
0.559777 0.877592 0.534447
0.567468 0.877165 0.538231
0.577173 0.876799 0.543542
0.588830 0.876555 0.550500
0.602136 0.876341 0.559014
0.616510 0.876158 0.568414
0.631739 0.875792 0.578820
0.646937 0.875242 0.588617
0.661646 0.874266 0.597620
0.675715 0.872953 0.605493
0.688899 0.871153 0.611780
0.702052 0.869169 0.618006
0.715602 0.867247 0.625025
0.732967 0.866667 0.632563
0.753506 0.867063 0.640986
0.774136 0.867643 0.650752
0.794583 0.868254 0.661250
0.814389 0.868772 0.671473
0.833494 0.869200 0.681544
0.851743 0.869535 0.691371
0.869261 0.869780 0.700832
0.886107 0.870054 0.710140
0.901213 0.869535 0.719753
0.904570 0.859373 0.731319
0.911711 0.856321 0.754910
0.920043 0.858610 0.779355
0.928557 0.863890 0.800473
0.608118 0.894896 0.607599
0.609369 0.894957 0.608637
0.610254 0.894835 0.608820
0.611505 0.894469 0.608728
0.613519 0.893858 0.608392
0.616632 0.893126 0.608759
0.621180 0.892363 0.609827
0.627344 0.891569 0.612146
0.635096 0.890776 0.615747
0.644251 0.889982 0.620661
0.654383 0.889097 0.626032
0.665370 0.888151 0.632197
0.676722 0.887114 0.638544
0.688258 0.885863 0.644770
0.699702 0.884459 0.650660
0.711086 0.882902 0.656214
