其他预设/【234】港风调色预设/1.3D LUT预设（视频调色-PR-AE-PS-FCPX-达芬奇用）/14.港风色调 __.cube
# Created by Adobe Lightroom plugin Export LUT (1.17.0)
# www.johnrellis.com/lightroom/exportlut.htm
# Preset: 14.港风色调 [素锦印象]
# Color profile: /Library/Application Support/Adobe/Color/Profiles/Recommended/AdobeRGB1998.icc
LUT_3D_SIZE 5
DOMAIN_MIN 0.000000 0.000000 0.000000
DOMAIN_MAX 0.903226 0.903226 0.903226
0.000000 0.000000 0.000000
0.168276 0.079652 0.000000
0.481178 0.149538 0.000000
0.768276 0.238560 0.000000
0.977173 0.335576 0.000000
0.000000 0.194705 0.000793
0.162356 0.207584 0.007202
0.469642 0.228519 0.000000
0.762325 0.297917 0.000000
0.972961 0.374212 0.000000
0.000000 0.433967 0.060975
0.000000 0.439246 0.076600
0.455421 0.466011 0.007538
0.743435 0.447028 0.000000
0.962463 0.478401 0.000000
0.000000 0.667445 0.103212
0.000000 0.669215 0.113344
0.296422 0.673610 0.143191
0.720516 0.699977 0.108919
0.953918 0.661646 0.000000
0.000000 0.891875 0.160464
0.000000 0.893187 0.168185
0.307897 0.897398 0.195407
0.611627 0.905760 0.203006
0.930755 0.917052 0.207553
0.000000 0.062623 0.229892
0.149325 0.051087 0.222660
0.472297 0.000000 0.182498
0.769192 0.261631 0.229618
0.979339 0.363561 0.246067
0.000000 0.213931 0.220676
0.146914 0.207095 0.227695
0.474434 0.232120 0.206851
0.763760 0.309422 0.211429
0.976318 0.394995 0.234562
0.000000 0.436530 0.220462
0.095796 0.440772 0.235569
0.452522 0.463203 0.236912
0.744076 0.433600 0.126497
0.965667 0.485084 0.180179
0.000000 0.666377 0.252842
0.000000 0.668421 0.245518
0.331487 0.672145 0.259831
0.717739 0.698390 0.259586
0.953979 0.661952 0.213596
0.000000 0.888792 0.295720
0.000000 0.891722 0.269841
0.346593 0.894316 0.286168
0.614008 0.902953 0.300847
0.930541 0.916320 0.311345
0.000000 0.092317 0.477394
0.000000 0.082612 0.467597
0.426215 0.000000 0.445991
0.709194 0.000000 0.440284
0.970245 0.231327 0.421851
0.000000 0.305821 0.474250
0.000000 0.236332 0.468055
0.429297 0.203525 0.446662
0.721920 0.196078 0.441108
0.970336 0.419074 0.474006
0.000000 0.487465 0.445624
0.111421 0.480751 0.446632
0.449439 0.454932 0.454994
0.741360 0.495399 0.455360
0.968048 0.561883 0.486580
0.000000 0.666712 0.399573
0.147311 0.667720 0.413123
0.443122 0.668025 0.453346
0.709651 0.692958 0.474617
0.956878 0.655818 0.400397
0.000000 0.890318 0.424109
0.219211 0.889158 0.438483
0.454231 0.888579 0.465003
0.625452 0.895689 0.487556
0.932006 0.915923 0.512749
0.000000 0.153902 0.711879
0.000000 0.143557 0.706081
0.437659 0.029236 0.684810
0.692195 0.000000 0.662989
0.886503 0.000000 0.654292
0.000000 0.348913 0.710231
0.000000 0.279759 0.707485
0.438178 0.240574 0.686702
0.691798 0.204868 0.663264
0.887510 0.217411 0.654658
0.000000 0.596033 0.714046
0.254948 0.590967 0.714107
0.460700 0.501274 0.695460
0.690089 0.458198 0.664576
0.918181 0.486091 0.668971
0.000000 0.733608 0.664942
0.229191 0.728023 0.666011
0.501091 0.707790 0.669154
0.693874 0.682155 0.676051
0.957336 0.748043 0.719295
0.112520 0.888212 0.584558
0.263798 0.887755 0.593317
0.496620 0.886229 0.624750
0.674525 0.892699 0.673365
0.931853 0.915068 0.713741
0.000000 0.229160 0.935424
0.000000 0.219394 0.933593
0.372778 0.189975 0.925811
0.684291 0.137514 0.911040
0.905821 0.129793 0.901061
0.000000 0.390631 0.934264
0.000000 0.338476 0.934020
0.388251 0.313848 0.926452
0.683253 0.281987 0.911711
0.905913 0.266026 0.900999
0.310124 0.653742 0.933410
0.404761 0.646113 0.931365
0.461860 0.553857 0.929259
0.682979 0.517266 0.914885
0.906554 0.477577 0.901122
0.344854 0.818753 0.929961
0.428748 0.816739 0.930602
0.582879 0.812650 0.933989
0.695003 0.739803 0.927337
0.909514 0.681971 0.903136
0.303075 0.962951 0.894316
0.380652 0.959625 0.895537
0.533715 0.950317 0.899474
0.706081 0.935393 0.906676
0.919097 0.905272 0.913451
