其他预设/【234】港风调色预设/1.3D LUT预设（视频调色-PR-AE-PS-FCPX-达芬奇用）/14.港风色调 __.cube
# Created by Adobe Lightroom plugin Export LUT (1.17.0)
# www.johnrellis.com/lightroom/exportlut.htm
# Preset: 14.港风色调 [素锦印象]
# Color profile: /Library/Application Support/Adobe/Color/Profiles/Recommended/AdobeRGB1998.icc
LUT_3D_SIZE 8
DOMAIN_MIN 0.000000 0.000000 0.000000
DOMAIN_MAX 0.903226 0.903226 0.903226
0.000000 0.000000 0.000000
0.089998 0.021363 0.005951
0.201755 0.092714 0.000000
0.377234 0.133761 0.000000
0.585290 0.165255 0.000000
0.740627 0.219669 0.000000
0.852628 0.290013 0.000000
0.977173 0.335576 0.000000
0.000000 0.107271 0.005158
0.087617 0.111208 0.000000
0.201144 0.128481 0.000000
0.376654 0.163790 0.000000
0.585016 0.193545 0.000000
0.740688 0.242161 0.000000
0.852781 0.306218 0.000000
0.977295 0.348150 0.000000
0.000000 0.226169 0.017792
0.005798 0.228214 0.030365
0.194705 0.242191 0.015076
0.365332 0.241184 0.000000
0.570306 0.263401 0.000000
0.732021 0.301518 0.000000
0.844755 0.352300 0.000000
0.972198 0.386297 0.000000
0.000000 0.361578 0.049531
0.000000 0.363714 0.057649
0.110536 0.369268 0.074372
0.359503 0.389899 0.011780
0.558679 0.378180 0.000000
0.715694 0.376532 0.000000
0.834012 0.418585 0.000000
0.966186 0.444678 0.000000
0.000000 0.504570 0.071504
0.000000 0.505821 0.075715
0.000000 0.509422 0.089021
0.277531 0.521233 0.087098
0.549310 0.538018 0.022065
0.713863 0.516838 0.000000
0.825589 0.514549 0.000000
0.957733 0.513695 0.000000
0.000000 0.637201 0.095613
0.000000 0.636957 0.098360
0.000000 0.639246 0.109621
0.217533 0.642237 0.126955
0.463966 0.655848 0.105440
0.694209 0.667323 0.094545
0.822232 0.644373 0.104402
0.954131 0.629358 0.000000
0.000000 0.760708 0.126955
0.000000 0.761044 0.129519
0.000000 0.762936 0.138705
0.209445 0.765316 0.153201
0.374395 0.768032 0.173098
0.627771 0.783047 0.138125
0.800931 0.797421 0.151034
0.952636 0.757748 0.187350
0.000000 0.891875 0.160464
0.000000 0.892302 0.162875
0.000000 0.893492 0.170962
0.215030 0.894865 0.184634
0.386450 0.898405 0.205814
0.559289 0.902953 0.212131
0.736477 0.915160 0.186374
0.930755 0.917052 0.207553
0.000000 0.055634 0.121126
0.083223 0.000000 0.121523
0.201205 0.049928 0.099123
0.377935 0.136477 0.112184
0.588281 0.164828 0.097597
0.742947 0.223484 0.087678
0.855253 0.295720 0.095705
0.979248 0.343023 0.118318
0.000000 0.116487 0.119570
0.078401 0.112062 0.123140
0.197940 0.136202 0.117952
0.375799 0.163180 0.105013
0.586114 0.191714 0.091310
0.741756 0.244297 0.082063
0.854948 0.311040 0.091737
0.979400 0.354955 0.116274
0.000000 0.228214 0.123507
0.033021 0.229587 0.132143
0.190158 0.240787 0.132021
0.365515 0.232792 0.070405
0.573724 0.261448 0.051179
0.734157 0.302312 0.034607
0.848295 0.355901 0.066407
0.974975 0.391363 0.100374
0.000000 0.363958 0.145418
0.000000 0.365698 0.139345
0.122683 0.370733 0.147066
0.360113 0.390478 0.135988
0.562402 0.377874 0.075074
0.720150 0.377813 0.000000
0.838071 0.420844 0.000000
0.969207 0.447791 0.040040
0.000000 0.504753 0.166445
0.000000 0.506767 0.146853
0.060761 0.510430 0.154177
0.277562 0.520958 0.157778
0.550561 0.538750 0.141726
0.714290 0.517662 0.108949
0.827054 0.513176 0.000000
0.960143 0.514916 0.000000
0.000000 0.637690 0.174411
0.000000 0.638788 0.159091
0.000000 0.640894 0.165774
0.231296 0.643366 0.177035
0.464515 0.655543 0.168215
0.693812 0.667292 0.163851
0.822110 0.645411 0.165286
0.955169 0.629480 0.070344
0.000000 0.761624 0.188388
0.000000 0.762753 0.178195
0.000000 0.764340 0.184421
0.225956 0.766110 0.195224
0.384741 0.768307 0.210666
0.628443 0.783322 0.188937
0.801694 0.798306 0.200931
0.953521 0.759792 0.228275
0.000000 0.892149 0.207401
0.000000 0.892699 0.201297
0.000000 0.893767 0.207767
0.233188 0.894987 0.218936
0.395239 0.896910 0.235325
0.560479 0.901854 0.244419
0.736721 0.915160 0.224949
0.931334 0.917388 0.244938
0.000000 0.055238 0.265476
0.000000 0.025544 0.262394
0.178775 0.058106 0.255863
0.339635 0.000000 0.254826
0.572412 0.000000 0.213321
0.739590 0.249485 0.269596
0.853880 0.326055 0.276555
0.978454 0.375250 0.286717
0.000000 0.155795 0.263523
0.000000 0.124056 0.262028
0.178622 0.123934 0.256657
0.349554 0.105715 0.251591
0.578454 0.134157 0.239139
0.738979 0.271153 0.267643
0.853452 0.337652 0.272953
0.978180 0.384436 0.283970
0.000000 0.249546 0.254154
0.000000 0.247288 0.255009
0.180087 0.240665 0.261845
0.367590 0.246586 0.243809
0.575402 0.270878 0.241703
0.732753 0.315251 0.245701
0.848478 0.373388 0.256443
0.975463 0.413581 0.271458
0.000000 0.364446 0.236637
0.000000 0.366003 0.243626
0.164218 0.371801 0.264225
0.353124 0.385077 0.265599
0.557885 0.359838 0.199557
0.720974 0.379553 0.195010
0.838956 0.428016 0.220066
0.970092 0.460395 0.244511
0.000000 0.506340 0.250401
0.000000 0.506950 0.257481
0.137942 0.510002 0.268162
0.278660 0.513664 0.275242
0.544427 0.533104 0.271885
0.709804 0.513573 0.238102
0.826413 0.502007 0.164065
0.962463 0.520165 0.192660
0.000000 0.637415 0.267491
0.000000 0.637537 0.274327
0.106355 0.639826 0.273808
0.274907 0.642023 0.280858
0.464607 0.650904 0.284062
0.690913 0.665278 0.285954
0.819791 0.646998 0.277745
0.955200 0.627222 0.214572
0.000000 0.759609 0.288975
0.000000 0.759670 0.295842
0.084382 0.762356 0.283177
0.275883 0.764248 0.290501
0.417273 0.766354 0.301122
0.628504 0.780575 0.296818
0.799863 0.796658 0.309026
0.950958 0.762387 0.323064
0.000000 0.889250 0.316381
0.000000 0.889342 0.321263
0.094850 0.892363 0.297032
0.286656 0.893095 0.304509
0.428412 0.894987 0.316747
0.565820 0.899016 0.329808
0.737057 0.913878 0.320012
0.931151 0.916655 0.338933
0.000000 0.076356 0.407782
0.000000 0.070100 0.404181
0.166506 0.063905 0.393805
0.336248 0.000000 0.384161
0.492714 0.000000 0.381018
0.703182 0.000000 0.372351
0.843137 0.106294 0.349767
0.975799 0.394446 0.422278
0.000000 0.178195 0.403571
0.000000 0.140383 0.402197
0.160922 0.133181 0.393408
0.336614 0.115419 0.384131
0.494362 0.074464 0.381170
0.707820 0.000000 0.370916
0.844175 0.227237 0.367498
0.975982 0.435981 0.439277
0.000000 0.314244 0.405005
0.000000 0.310216 0.404334
0.142885 0.256382 0.397009
0.341192 0.241428 0.386023
0.524559 0.228336 0.383459
0.721187 0.242161 0.366155
0.845335 0.424903 0.423102
0.973877 0.482399 0.444282
0.000000 0.406043 0.382544
0.000000 0.404120 0.382971
0.170382 0.397101 0.385107
0.353582 0.383307 0.392096
0.562371 0.390173 0.380194
0.719997 0.424201 0.384710
0.840543 0.471778 0.397986
0.970764 0.507256 0.414740
0.000000 0.504997 0.342199
0.000000 0.506279 0.346838
0.173709 0.509880 0.363470
0.346014 0.513970 0.390021
0.539361 0.526574 0.395789
0.705989 0.499702 0.339727
0.829068 0.511925 0.329412
0.965240 0.544884 0.363653
0.000000 0.636561 0.352209
0.000000 0.636316 0.356298
0.182620 0.637751 0.372992
0.344976 0.638697 0.392218
0.467323 0.640772 0.400031
0.685573 0.660761 0.409064
0.816190 0.647822 0.388281
0.956786 0.619776 0.322972
0.000000 0.760037 0.365148
0.000000 0.759823 0.369909
0.212070 0.758999 0.387182
0.349676 0.759792 0.397650
0.469184 0.761746 0.406195
0.628443 0.773739 0.413947
0.797787 0.794430 0.429847
0.948760 0.767910 0.433387
0.000000 0.889158 0.384100
0.000000 0.888853 0.388983
0.254337 0.887907 0.406622
0.360876 0.889525 0.407141
0.479530 0.891447 0.417273
0.586603 0.895079 0.431342
0.738064 0.911650 0.432715
0.931243 0.915740 0.454627
0.000000 0.108888 0.547143
0.000000 0.101015 0.544182
0.083986 0.093355 0.534874
0.356207 0.000000 0.517693
0.514244 0.000000 0.506889
0.652247 0.000000 0.499672
0.787625 0.000000 0.499855
0.950988 0.172030 0.489998
0.000000 0.199283 0.544915
0.000000 0.163821 0.542809
0.069856 0.153628 0.534203
0.354711 0.119417 0.518120
0.514855 0.065064 0.507012
0.652369 0.000000 0.499580
0.790311 0.107118 0.500481
0.953155 0.224338 0.491859
0.000000 0.360418 0.544762
0.000000 0.350225 0.541314
0.000000 0.277989 0.536522
0.351171 0.255894 0.520928
0.518029 0.233890 0.507897
0.653376 0.221256 0.500114
0.800961 0.274571 0.504143
0.961181 0.350286 0.501427
0.000000 0.480903 0.540032
0.000000 0.478187 0.539788
0.203342 0.467720 0.538994
0.350164 0.404608 0.527306
0.524285 0.379522 0.509911
0.672847 0.380224 0.507286
0.822812 0.436896 0.514214
0.966430 0.554376 0.568933
0.000000 0.564050 0.508080
0.000000 0.562097 0.508141
0.187778 0.554894 0.508934
0.375433 0.541131 0.511315
0.539422 0.522332 0.517540
0.701686 0.543542 0.518975
0.831235 0.583307 0.535760
0.965637 0.615839 0.555474
0.000000 0.636133 0.444038
0.000000 0.636561 0.447364
0.205386 0.637751 0.459846
0.378912 0.638697 0.483436
0.533898 0.639887 0.515435
0.680110 0.657038 0.529686
0.816251 0.640101 0.482002
0.961028 0.633600 0.467140
0.000000 0.758938 0.452827
0.000000 0.759091 0.456367
0.232853 0.759121 0.469001
0.395789 0.758450 0.492256
0.531914 0.758419 0.516838
0.627832 0.764340 0.527672
0.796170 0.792721 0.549279
0.948608 0.773861 0.539605
0.000000 0.890013 0.467628
0.104952 0.889952 0.471168
0.268833 0.889494 0.483986
0.419257 0.887083 0.507134
0.533989 0.887999 0.523491
0.620630 0.892882 0.535485
0.738155 0.907988 0.547173
0.932097 0.915587 0.568750
0.000000 0.143557 0.677211
0.000000 0.135225 0.675502
0.000000 0.130282 0.669520
0.332219 0.086580 0.657404
0.534234 0.000000 0.640040
0.664393 0.000000 0.631159
0.761837 0.000000 0.622187
0.895354 0.000000 0.623041
0.000000 0.222171 0.677699
0.000000 0.192203 0.676722
0.000000 0.181674 0.670649
0.332403 0.154116 0.658625
0.535485 0.075593 0.640558
0.664698 0.000000 0.631495
0.761776 0.085115 0.622400
0.897948 0.133516 0.623865
0.000000 0.388342 0.675227
0.000000 0.371374 0.674556
0.000000 0.302953 0.671565
0.331914 0.282811 0.659846
0.535210 0.247807 0.641535
0.664393 0.235660 0.631312
0.760494 0.245731 0.622217
0.906371 0.279911 0.626642
0.000000 0.534752 0.682643
0.000000 0.528801 0.680659
0.261479 0.506401 0.672908
0.344793 0.430732 0.663325
0.535088 0.399756 0.644526
0.663478 0.382788 0.630854
0.757961 0.382269 0.621485
0.922026 0.430274 0.635035
0.000000 0.626947 0.668086
0.000000 0.624964 0.667933
0.266484 0.617731 0.667659
0.443946 0.605432 0.667720
0.547417 0.548150 0.655085
0.665217 0.520836 0.634394
0.772396 0.528374 0.633570
0.949340 0.581476 0.655146
0.000000 0.701259 0.633509
0.000000 0.699275 0.633448
0.251255 0.692805 0.634150
0.417121 0.680964 0.635798
0.560357 0.665217 0.638788
0.670192 0.649653 0.643519
0.816892 0.686458 0.662013
0.959014 0.720668 0.685908
0.000000 0.760525 0.557458
0.103761 0.759701 0.558343
0.258183 0.757229 0.561822
0.405493 0.755612 0.576684
0.549584 0.756069 0.605066
0.658167 0.763058 0.638849
0.791684 0.788479 0.662379
0.949950 0.770718 0.633448
0.090791 0.888548 0.560235
0.162264 0.888487 0.563073
0.291417 0.888090 0.572992
0.428687 0.887083 0.590845
0.556909 0.887144 0.617456
0.649378 0.891447 0.642481
0.732876 0.900450 0.656397
0.931975 0.915129 0.684138
0.000000 0.183627 0.810086
0.000000 0.174990 0.809018
0.000000 0.172152 0.804746
0.285008 0.146426 0.796506
0.521386 0.067170 0.783871
0.669306 0.000000 0.769802
0.768521 0.000000 0.761807
0.895109 0.022522 0.757168
0.000000 0.251255 0.809903
0.000000 0.226413 0.809293
0.000000 0.215824 0.805234
0.287602 0.196414 0.797116
0.521935 0.151431 0.784451
0.669429 0.108003 0.770016
0.768490 0.135317 0.761959
0.895293 0.137118 0.757382
0.000000 0.408728 0.808713
0.000000 0.393500 0.808225
0.000000 0.333532 0.806424
0.299840 0.316289 0.798459
0.524285 0.289555 0.785763
0.669429 0.263890 0.769802
0.767697 0.271031 0.761563
0.894713 0.266667 0.757076
0.121462 0.564660 0.810513
0.196445 0.560693 0.809262
0.305211 0.538384 0.805356
0.341009 0.462562 0.801480
0.533013 0.437385 0.788785
0.669368 0.408179 0.770169
0.766629 0.404669 0.761257
0.894224 0.393591 0.756680
0.180911 0.675013 0.812589
0.240848 0.674159 0.812741
0.376684 0.671565 0.813443
0.501762 0.649592 0.806729
0.552972 0.579187 0.796506
0.667536 0.548699 0.776730
0.766934 0.531060 0.762387
0.894347 0.514946 0.756313
0.167422 0.759823 0.798032
0.226352 0.758328 0.798093
0.357702 0.753201 0.798459
0.494331 0.745052 0.799680
0.604761 0.736507 0.803037
0.669245 0.682643 0.790890
0.769802 0.650446 0.765713
0.909453 0.648981 0.764675
0.157290 0.832639 0.762966
0.212100 0.831144 0.763210
0.333837 0.825834 0.764187
0.463600 0.817014 0.766018
0.575494 0.806607 0.768765
0.669520 0.795468 0.772396
0.780056 0.778347 0.775875
0.949310 0.825162 0.813107
0.201541 0.893645 0.684535
0.238285 0.893095 0.685420
0.332525 0.891112 0.688350
0.445930 0.887968 0.693324
0.555596 0.886259 0.705409
0.653376 0.890898 0.734829
0.768734 0.896483 0.771176
0.930175 0.914092 0.801358
0.000000 0.229160 0.935424
0.000000 0.219791 0.935027
0.000000 0.218204 0.932921
0.208713 0.203922 0.928771
0.489693 0.172122 0.922332
0.652552 0.142824 0.913634
0.773800 0.140841 0.906218
0.905821 0.129793 0.901061
0.000000 0.286198 0.935149
0.000000 0.266148 0.935058
0.000000 0.256168 0.933135
0.218448 0.244480 0.928985
0.491768 0.219608 0.922576
0.652399 0.197543 0.913878
0.774105 0.192813 0.906249
0.905943 0.183444 0.901122
0.000000 0.431373 0.933837
0.000000 0.418555 0.933745
0.000000 0.367895 0.933562
0.255253 0.353704 0.929534
0.500359 0.336278 0.923156
0.652094 0.319371 0.914519
0.775051 0.307134 0.906157
0.905974 0.296239 0.900999
0.261143 0.596674 0.931701
0.268833 0.588556 0.931609
0.294133 0.557733 0.931304
0.333257 0.493751 0.930602
0.520073 0.475074 0.924498
0.653010 0.456916 0.915923
0.777188 0.433661 0.906157
0.906157 0.418097 0.900908
0.339391 0.709804 0.935821
0.368383 0.707668 0.935271
0.446082 0.699458 0.933440
0.531182 0.681025 0.930022
0.546380 0.607385 0.928405
0.655207 0.586175 0.919799
0.780545 0.553246 0.907225
0.907134 0.535332 0.901457
0.348882 0.797971 0.932036
0.377752 0.797513 0.932219
0.455940 0.796078 0.932952
0.544579 0.794339 0.934783
0.624140 0.779995 0.933501
0.664302 0.713771 0.927550
0.781094 0.678859 0.913024
0.908843 0.651850 0.902617
0.326909 0.884977 0.923308
0.354589 0.883940 0.923430
0.430030 0.880461 0.924010
0.519127 0.875364 0.925353
0.608820 0.870268 0.927886
0.718135 0.864439 0.932372
0.796201 0.814633 0.926146
0.911742 0.774533 0.905180
0.303075 0.962951 0.894316
0.329137 0.961944 0.894682
0.401740 0.958556 0.895903
0.490333 0.953307 0.897978
0.577478 0.947051 0.901244
0.677089 0.938323 0.905486
0.798154 0.924773 0.910399
0.919097 0.905272 0.913451
