其他预设/【234】港风调色预设/1.3D LUT预设（视频调色-PR-AE-PS-FCPX-达芬奇用）/14.港风色调 __.cube
# Created by Adobe Lightroom plugin Export LUT (1.17.0)
# www.johnrellis.com/lightroom/exportlut.htm
# Preset: 14.港风色调 [素锦印象]
# Color profile: /Library/Application Support/Adobe/Color/Profiles/Recommended/AdobeRGB1998.icc
LUT_3D_SIZE 32
0.000000 0.000000 0.000000
0.000000 0.000000 0.000000
0.002564 0.000763 0.000000
0.064485 0.008240 0.003815
0.089998 0.021363 0.005951
0.113619 0.043458 0.006744
0.139193 0.065858 0.003021
0.168276 0.079652 0.000000
0.201755 0.092714 0.000000
0.239658 0.104768 0.000000
0.281926 0.116213 0.000000
0.328099 0.125277 0.000000
0.377234 0.133761 0.000000
0.428717 0.141634 0.000000
0.481178 0.149538 0.000000
0.533776 0.157046 0.000000
0.585290 0.165255 0.000000
0.633173 0.175631 0.000000
0.674464 0.187716 0.000000
0.710109 0.202396 0.000000
0.740627 0.219669 0.000000
0.768276 0.238560 0.000000
0.795041 0.257420 0.000000
0.822721 0.274968 0.000000
0.852628 0.290013 0.000000
0.884123 0.303044 0.000000
0.915862 0.314733 0.000000
0.947112 0.325505 0.000000
0.977173 0.335576 0.000000
1.000000 0.345617 0.000000
1.000000 0.355779 0.000000
1.000000 0.366186 0.000000
0.000000 0.000000 0.000000
0.000000 0.000000 0.000000
0.004883 0.001495 0.000824
0.065888 0.009949 0.003571
0.090303 0.031739 0.005066
0.113436 0.056794 0.005432
0.139437 0.071565 0.001648
0.168460 0.084596 0.000000
0.202029 0.097108 0.000000
0.240055 0.108980 0.000000
0.282322 0.119905 0.000000
0.328557 0.128786 0.000000
0.377844 0.137240 0.000000
0.429358 0.145144 0.000000
0.482063 0.152834 0.000000
0.534722 0.160159 0.000000
0.586175 0.168460 0.000000
0.634028 0.178592 0.000000
0.675227 0.190707 0.000000
0.710780 0.205386 0.000000
0.741207 0.222538 0.000000
0.768765 0.241093 0.000000
0.795560 0.259739 0.000000
0.823301 0.276890 0.000000
0.853178 0.291875 0.000000
0.884642 0.304814 0.000000
0.916442 0.316320 0.000000
0.947601 0.326970 0.000000
0.977600 0.337072 0.000000
1.000000 0.347051 0.000000
1.000000 0.357092 0.000000
1.000000 0.367468 0.000000
0.000000 0.010590 0.000214
0.000000 0.015412 0.000946
0.005921 0.021271 0.000275
0.066163 0.033356 0.001617
0.090547 0.052155 0.003235
0.113558 0.066804 0.003479
0.139406 0.078645 0.000000
0.168551 0.090730 0.000000
0.201968 0.102693 0.000000
0.240085 0.114076 0.000000
0.282414 0.124422 0.000000
0.328679 0.133516 0.000000
0.377996 0.141573 0.000000
0.429603 0.149477 0.000000
0.482094 0.157137 0.000000
0.534966 0.164401 0.000000
0.586450 0.172702 0.000000
0.634241 0.182681 0.000000
0.675471 0.194491 0.000000
0.710964 0.208804 0.000000
0.741360 0.225742 0.000000
0.768917 0.244114 0.000000
0.795651 0.262486 0.000000
0.823392 0.279454 0.000000
0.853330 0.294255 0.000000
0.884825 0.307012 0.000000
0.916564 0.318334 0.000000
0.947753 0.328862 0.000000
0.977752 0.338811 0.000000
1.000000 0.348699 0.000000
1.000000 0.358679 0.000000
1.000000 0.368933 0.000000
0.000000 0.077119 0.001770
0.000000 0.078584 0.002472
0.000000 0.079408 0.000855
0.064271 0.080232 0.000000
0.089784 0.077119 0.000000
0.113130 0.082033 0.000000
0.139040 0.091920 0.000000
0.168246 0.102693 0.000000
0.201511 0.113680 0.000000
0.239658 0.124300 0.000000
0.281834 0.133974 0.000000
0.328161 0.142672 0.000000
0.377356 0.150759 0.000000
0.428931 0.158480 0.000000
0.481788 0.165805 0.000000
0.534600 0.173098 0.000000
0.586175 0.181247 0.000000
0.634058 0.190921 0.000000
0.675349 0.202457 0.000000
0.710903 0.216312 0.000000
0.741390 0.232547 0.000000
0.768978 0.250401 0.000000
0.795743 0.268254 0.000000
0.823392 0.284642 0.000000
0.853239 0.299046 0.000000
0.884611 0.311467 0.000000
0.916320 0.322484 0.000000
0.947478 0.332738 0.000000
0.977508 0.342535 0.000000
1.000000 0.352148 0.000000
1.000000 0.361852 0.000000
1.000000 0.371954 0.000000
0.000000 0.107271 0.005158
0.000000 0.107973 0.001617
0.000000 0.108217 0.000000
0.034913 0.109102 0.000702
0.087617 0.111208 0.000000
0.112795 0.107698 0.000000
0.138827 0.111147 0.000000
0.167758 0.118318 0.000000
0.201144 0.128481 0.000000
0.238926 0.138247 0.000000
0.281071 0.147372 0.000000
0.327367 0.155734 0.000000
0.376654 0.163790 0.000000
0.428138 0.171328 0.000000
0.480842 0.178439 0.000000
0.533532 0.185794 0.000000
0.585016 0.193545 0.000000
0.632807 0.202884 0.000000
0.674281 0.213687 0.000000
0.710079 0.226719 0.000000
0.740688 0.242161 0.000000
0.768399 0.259434 0.000000
0.795193 0.276493 0.000000
0.822934 0.292363 0.000000
0.852781 0.306218 0.000000
0.884215 0.318242 0.000000
0.915923 0.328893 0.000000
0.947204 0.338689 0.000000
0.977295 0.348150 0.000000
1.000000 0.357519 0.000000
1.000000 0.366949 0.000000
1.000000 0.376715 0.000000
0.000000 0.135958 0.001099
0.000000 0.136568 0.000000
0.000000 0.136690 0.000000
0.017853 0.137331 0.000000
0.073884 0.140200 0.000000
0.110719 0.142855 0.000000
0.138247 0.138552 0.000000
0.167239 0.142550 0.000000
0.199619 0.146334 0.000000
0.237217 0.153933 0.000000
0.279210 0.162936 0.000000
0.325383 0.171237 0.000000
0.374456 0.179080 0.000000
0.426001 0.186740 0.000000
0.478614 0.193729 0.000000
0.531395 0.200839 0.000000
0.582788 0.208682 0.000000
0.630762 0.217685 0.000000
0.672419 0.227817 0.000000
0.708461 0.239841 0.000000
0.739284 0.254459 0.000000
0.767117 0.270420 0.000000
0.789883 0.283848 0.000000
0.817624 0.299443 0.000000
0.847471 0.313176 0.000000
0.879118 0.325048 0.000000
0.911284 0.335546 0.000000
0.943084 0.345068 0.000000
0.973724 0.354253 0.000000
1.000000 0.363226 0.000000
1.000000 0.372351 0.000000
1.000000 0.381872 0.000000
0.000000 0.164767 0.000000
0.000000 0.164767 0.000000
0.000000 0.165011 0.000000
0.003693 0.165530 0.000000
0.052033 0.166476 0.001984
0.096620 0.171359 0.000000
0.134585 0.173892 0.000000
0.165072 0.168765 0.000000
0.197787 0.172702 0.000000
0.234257 0.175906 0.000000
0.274327 0.178775 0.000000
0.319829 0.187106 0.000000
0.368597 0.195102 0.000000
0.419959 0.202670 0.000000
0.472786 0.210056 0.000000
0.525658 0.217441 0.000000
0.577508 0.225162 0.000000
0.626093 0.233707 0.000000
0.668330 0.243229 0.000000
0.704829 0.254276 0.000000
0.735927 0.267674 0.000000
0.763729 0.282383 0.000000
0.790341 0.297612 0.000000
0.817716 0.311955 0.000000
0.847227 0.324804 0.000000
0.878721 0.335882 0.000000
0.910887 0.345861 0.000000
0.942657 0.354864 0.000000
0.973419 0.363409 0.000000
1.000000 0.371923 0.000000
1.000000 0.380652 0.000000
1.000000 0.389715 0.000000
0.000000 0.194705 0.000793
0.000000 0.194858 0.001434
0.000000 0.195132 0.003998
0.000000 0.195590 0.008118
0.034028 0.196689 0.015747
0.078614 0.199100 0.019074
0.121431 0.204379 0.006378
0.162356 0.207584 0.007202
0.197238 0.200931 0.015503
0.234318 0.204685 0.000000
0.274754 0.207340 0.000000
0.318364 0.208896 0.000000
0.365698 0.213016 0.000000
0.416815 0.220920 0.000000
0.469642 0.228519 0.000000
0.522545 0.236057 0.000000
0.574456 0.243839 0.000000
0.623346 0.252232 0.000000
0.665919 0.261204 0.000000
0.702846 0.271641 0.000000
0.734279 0.283940 0.000000
0.762325 0.297917 0.000000
0.789151 0.312169 0.000000
0.816648 0.325719 0.000000
0.846281 0.337835 0.000000
0.877897 0.348302 0.000000
0.910155 0.357610 0.000000
0.942107 0.366155 0.000000
0.972961 0.374212 0.000000
1.000000 0.382147 0.000000
1.000000 0.390387 0.000000
1.000000 0.398932 0.000000
0.000000 0.226169 0.017792
0.000000 0.226291 0.018433
0.000000 0.226658 0.020905
0.000000 0.227115 0.025086
0.005798 0.228214 0.030365
0.061921 0.229343 0.038361
0.103517 0.233829 0.031128
0.149081 0.239048 0.017700
0.194705 0.242191 0.015076
0.233616 0.235142 0.022980
0.275120 0.237308 0.000000
0.319066 0.239780 0.000000
0.365332 0.241184 0.000000
0.413458 0.241459 0.000000
0.465339 0.247562 0.000000
0.518212 0.255589 0.000000
0.570306 0.263401 0.000000
0.619562 0.271733 0.000000
0.662623 0.280339 0.000000
0.700130 0.290043 0.000000
0.732021 0.301518 0.000000
0.760372 0.314458 0.000000
0.787381 0.327947 0.000000
0.815000 0.340856 0.000000
0.844755 0.352300 0.000000
0.876555 0.362127 0.000000
0.909026 0.370886 0.000000
0.941131 0.378790 0.000000
0.972198 0.386297 0.000000
1.000000 0.393713 0.000000
1.000000 0.401373 0.000000
1.000000 0.409430 0.000000
0.000000 0.258762 0.027741
0.000000 0.258976 0.029389
0.000000 0.259220 0.029816
0.000000 0.259770 0.033783
0.000000 0.260777 0.038941
0.035370 0.262058 0.046540
0.079194 0.263523 0.054231
0.131289 0.269993 0.037171
0.180880 0.274937 0.024598
0.231418 0.278416 0.018189
0.274052 0.270756 0.025422
0.319890 0.271244 0.000000
0.366491 0.273564 0.000000
0.414618 0.274723 0.000000
0.463661 0.274815 0.000000
0.513115 0.275303 0.000000
0.565148 0.283299 0.000000
0.614527 0.291478 0.000000
0.658228 0.299809 0.000000
0.696437 0.309026 0.000000
0.729091 0.319829 0.000000
0.757900 0.332219 0.000000
0.785306 0.345037 0.000000
0.813199 0.357244 0.000000
0.843229 0.367956 0.000000
0.875181 0.377295 0.000000
0.907836 0.385382 0.000000
0.940124 0.392737 0.000000
0.971313 0.399634 0.000000
1.000000 0.406470 0.000000
1.000000 0.413519 0.000000
1.000000 0.420996 0.000000
0.000000 0.292882 0.036988
0.000000 0.293034 0.037537
0.000000 0.293400 0.038849
0.000000 0.293858 0.041718
0.000000 0.294713 0.047700
0.000000 0.295903 0.053315
0.065522 0.297307 0.059693
0.107179 0.300420 0.059846
0.162753 0.307561 0.039948
0.216709 0.312139 0.028626
0.272129 0.315618 0.016724
0.317693 0.307744 0.022553
0.367376 0.306493 0.000000
0.415778 0.308537 0.000000
0.464851 0.309514 0.000000
0.513725 0.309514 0.000000
0.561608 0.308507 0.000000
0.609216 0.311955 0.000000
0.653681 0.320073 0.000000
0.692683 0.328954 0.000000
0.725917 0.339086 0.000000
0.755184 0.350591 0.000000
0.782834 0.362768 0.000000
0.810849 0.374304 0.000000
0.841001 0.384558 0.000000
0.873228 0.393317 0.000000
0.906096 0.400793 0.000000
0.938689 0.407599 0.000000
0.970184 0.414008 0.000000
0.999969 0.420264 0.000000
1.000000 0.426825 0.000000
1.000000 0.433753 0.000000
0.000000 0.327794 0.043305
0.000000 0.328008 0.044862
0.000000 0.328191 0.046326
0.000000 0.328740 0.049317
0.000000 0.329595 0.053010
0.000000 0.330632 0.058534
0.027527 0.332036 0.061921
0.086915 0.333501 0.066896
0.139437 0.338506 0.062470
0.198917 0.345953 0.038544
0.256596 0.350072 0.027955
0.315770 0.353460 0.013184
0.359106 0.342016 0.019837
0.411444 0.339300 0.000000
0.460304 0.341253 0.000000
0.509056 0.341985 0.000000
0.557061 0.342046 0.000000
0.603052 0.341344 0.000000
0.644617 0.339727 0.000000
0.684627 0.346868 0.000000
0.719387 0.356542 0.000000
0.749569 0.367590 0.000000
0.777768 0.379248 0.000000
0.806119 0.390570 0.000000
0.836454 0.400641 0.000000
0.868956 0.409033 0.000000
0.902281 0.416266 0.000000
0.935393 0.422614 0.000000
0.967437 0.428626 0.000000
0.997772 0.434424 0.000000
1.000000 0.440528 0.000000
1.000000 0.446998 0.000000
0.000000 0.361578 0.049531
0.000000 0.361822 0.050629
0.000000 0.362097 0.051606
0.000000 0.362737 0.054231
0.000000 0.363714 0.057649
0.000000 0.364904 0.061280
0.000000 0.366308 0.065309
0.069978 0.367742 0.069825
0.110536 0.369268 0.074372
0.175051 0.376287 0.063722
0.237217 0.383154 0.041291
0.297917 0.386755 0.029053
0.359503 0.389899 0.011780
0.408423 0.381537 0.018036
0.462348 0.376379 0.000000
0.510887 0.377783 0.000000
0.558679 0.378180 0.000000
0.604242 0.377935 0.000000
0.645533 0.376593 0.000000
0.682734 0.375372 0.000000
0.715694 0.376532 0.000000
0.746426 0.386999 0.000000
0.774929 0.398260 0.000000
0.803494 0.409033 0.000000
0.834012 0.418585 0.000000
0.866758 0.426520 0.000000
0.900389 0.433356 0.000000
0.933837 0.439216 0.000000
0.966186 0.444678 0.000000
0.996796 0.450050 0.000000
1.000000 0.455604 0.000000
1.000000 0.461555 0.000000
0.000000 0.397955 0.056336
0.000000 0.398047 0.056825
0.000000 0.398413 0.058412
0.000000 0.398993 0.060334
0.000000 0.399786 0.062165
0.000000 0.400946 0.065614
0.000000 0.402197 0.069215
0.027741 0.403632 0.072969
0.098360 0.405005 0.077913
0.147463 0.408087 0.078462
0.215122 0.415442 0.065339
0.279759 0.421637 0.044587
0.343114 0.425116 0.029236
0.407233 0.428321 0.007782
0.459998 0.421912 0.011353
0.512505 0.413062 0.007935
0.560021 0.414160 0.000000
0.605341 0.414252 0.000000
0.646296 0.413245 0.000000
0.683070 0.412085 0.000000
0.715267 0.411170 0.000000
0.743771 0.411322 0.000000
0.771664 0.417273 0.000000
0.800473 0.427680 0.000000
0.831083 0.436835 0.000000
0.864103 0.444465 0.000000
0.898070 0.450752 0.000000
0.931853 0.456306 0.000000
0.964599 0.461311 0.000000
0.995544 0.466255 0.000000
1.000000 0.471351 0.000000
1.000000 0.476783 0.000000
0.000000 0.433967 0.060975
0.000000 0.434089 0.061646
0.000000 0.434363 0.062562
0.000000 0.434882 0.063905
0.000000 0.435737 0.066316
0.000000 0.436835 0.069001
0.000000 0.437995 0.072724
0.000000 0.439246 0.076600
0.082277 0.440558 0.081209
0.128573 0.441810 0.086061
0.188876 0.446693 0.081544
0.257664 0.453986 0.066804
0.324346 0.459388 0.048310
0.389807 0.462867 0.029603
0.455421 0.466011 0.007538
0.511223 0.461646 0.004883
0.561242 0.449317 0.027893
0.606134 0.449928 0.000000
0.646693 0.449134 0.000000
0.683192 0.448096 0.000000
0.715023 0.447120 0.000000
0.743435 0.447028 0.000000
0.770321 0.447425 0.000000
0.797330 0.447639 0.000000
0.827909 0.455299 0.000000
0.861082 0.462593 0.000000
0.895354 0.468574 0.000000
0.929442 0.473732 0.000000
0.962463 0.478401 0.000000
0.993744 0.482887 0.000000
1.000000 0.487465 0.000000
1.000000 0.492409 0.000000
0.000000 0.469581 0.066194
0.000000 0.469642 0.066804
0.000000 0.469825 0.066896
0.000000 0.470314 0.068482
0.000000 0.470954 0.070497
0.000000 0.471809 0.072999
0.000000 0.472694 0.076265
0.000000 0.473915 0.080507
0.058167 0.474952 0.084871
0.117433 0.476173 0.089418
0.159731 0.477333 0.094179
0.232425 0.484321 0.084169
0.302251 0.491493 0.067689
0.370489 0.496284 0.053162
0.437110 0.499702 0.035676
0.503410 0.502861 0.010834
0.561120 0.500420 0.002838
0.606012 0.485542 0.045960
0.647059 0.484138 0.000000
0.682979 0.483223 0.000000
0.714382 0.482307 0.000000
0.742672 0.481971 0.000000
0.769558 0.482033 0.000000
0.796719 0.481849 0.000000
0.825681 0.480903 0.000000
0.857420 0.480720 0.000000
0.892027 0.486549 0.000000
0.926543 0.491463 0.000000
0.960082 0.495827 0.000000
0.991821 0.499977 0.000000
1.000000 0.504204 0.000000
1.000000 0.508843 0.000000
0.000000 0.504570 0.071504
0.000000 0.504723 0.071260
0.000000 0.504906 0.072389
0.000000 0.505272 0.073548
0.000000 0.505821 0.075715
0.000000 0.506645 0.078340
0.000000 0.507439 0.081025
0.000000 0.508354 0.084749
0.000000 0.509422 0.089021
0.104829 0.510399 0.093355
0.152560 0.511437 0.098360
0.203647 0.514122 0.099519
0.277531 0.521233 0.087098
0.348547 0.528008 0.068849
0.417182 0.531914 0.059937
0.483955 0.535149 0.045472
0.549310 0.538018 0.022065
0.607172 0.537346 0.011963
0.645411 0.520562 0.062440
0.682765 0.517571 0.000000
0.713863 0.516838 0.000000
0.741939 0.516503 0.000000
0.768887 0.516350 0.000000
0.796292 0.515892 0.000000
0.825589 0.514549 0.000000
0.857053 0.512139 0.000000
0.889708 0.508721 0.000000
0.923766 0.509606 0.000000
0.957733 0.513695 0.000000
0.989990 0.517571 0.000000
1.000000 0.521477 0.000000
1.000000 0.525719 0.000000
0.000000 0.538354 0.076783
0.000000 0.538384 0.077302
0.000000 0.535821 0.076905
0.000000 0.536156 0.078309
0.000000 0.536767 0.080262
0.000000 0.537469 0.082734
0.000000 0.538384 0.085389
0.000000 0.539300 0.088869
0.000000 0.540337 0.092836
0.087556 0.541405 0.097353
0.143130 0.542473 0.101778
0.186465 0.543542 0.107057
0.249302 0.548211 0.102876
0.322881 0.555169 0.089631
0.393988 0.561608 0.071901
0.461860 0.564782 0.065736
0.527794 0.567651 0.058381
0.590631 0.570306 0.042237
0.646632 0.571618 0.028046
0.678553 0.553521 0.075563
0.712093 0.549462 0.057740
0.740169 0.549432 0.000000
0.767300 0.549371 0.000000
0.794980 0.548882 0.000000
0.824674 0.547478 0.000000
0.856535 0.545006 0.000000
0.889525 0.541497 0.000000
0.922728 0.537346 0.000000
0.955383 0.532616 0.000000
0.988067 0.535485 0.000000
1.000000 0.539178 0.000000
1.000000 0.543114 0.000000
0.000000 0.571405 0.082185
0.000000 0.571130 0.082582
0.000000 0.570916 0.082948
0.000000 0.570947 0.083833
0.000000 0.571191 0.085542
0.000000 0.571740 0.088197
0.000000 0.572503 0.090394
0.000000 0.573388 0.093812
0.000000 0.574334 0.097780
0.067750 0.575219 0.101778
0.134920 0.576165 0.106203
0.181735 0.577203 0.111147
0.223148 0.578241 0.116335
0.297826 0.584375 0.106874
0.370764 0.590478 0.093385
0.440955 0.595514 0.078889
0.507774 0.598138 0.074525
0.571221 0.600610 0.069612
0.630182 0.603296 0.064485
0.682338 0.606653 0.058717
0.708217 0.587457 0.090578
0.739254 0.582574 0.085725
0.766415 0.582544 0.031983
0.794308 0.582025 0.000000
0.824308 0.580499 0.000000
0.856443 0.577874 0.000000
0.889555 0.574273 0.000000
0.922789 0.569940 0.000000
0.955413 0.565209 0.000000
0.986908 0.560082 0.000000
1.000000 0.557214 0.000000
1.000000 0.560876 0.000000
0.000000 0.604852 0.088533
0.000000 0.604639 0.088899
0.000000 0.604486 0.088869
0.000000 0.604486 0.089967
0.000000 0.604669 0.091554
0.000000 0.605127 0.093721
0.000000 0.605737 0.096590
0.000000 0.606500 0.099763
0.000000 0.607324 0.103243
0.021668 0.608148 0.106966
0.125887 0.608972 0.111543
0.177096 0.609827 0.116213
0.220432 0.610712 0.121126
0.270756 0.612940 0.122744
0.346532 0.618555 0.112490
0.418036 0.623896 0.098970
0.486549 0.627832 0.087617
0.551049 0.630121 0.085054
0.611078 0.632441 0.082216
0.664820 0.635462 0.079835
0.710842 0.639643 0.078553
0.734371 0.621210 0.105715
0.765286 0.615106 0.108400
0.793423 0.614679 0.079896
0.823880 0.613123 0.012512
0.856229 0.610468 0.000000
0.889525 0.606806 0.000000
0.922820 0.602533 0.000000
0.955444 0.597650 0.000000
0.986847 0.592584 0.000000
1.000000 0.587457 0.000000
1.000000 0.582513 0.000000
0.000000 0.637201 0.095613
0.000000 0.636988 0.095949
0.000000 0.636774 0.096498
0.000000 0.636835 0.096925
0.000000 0.636957 0.098360
0.000000 0.637354 0.100893
0.000000 0.637903 0.103243
0.000000 0.638605 0.106172
0.000000 0.639246 0.109621
0.000000 0.639979 0.113527
0.116365 0.640742 0.117556
0.172213 0.641474 0.122133
0.217533 0.642237 0.126955
0.258701 0.642969 0.131991
0.320806 0.646326 0.129244
0.394110 0.651270 0.118746
0.463966 0.655848 0.105440
0.530022 0.658869 0.097963
0.591272 0.661067 0.096193
0.646540 0.663661 0.095338
0.694209 0.667323 0.094545
0.735927 0.671992 0.094850
0.758816 0.653681 0.119265
0.791623 0.645777 0.127932
0.822232 0.644373 0.104402
0.854734 0.641932 0.073945
0.888090 0.638361 0.000000
0.921416 0.634150 0.000000
0.954131 0.629358 0.000000
0.985565 0.624292 0.000000
1.000000 0.619165 0.000000
1.000000 0.614191 0.000000
0.000000 0.667445 0.103212
0.000000 0.667445 0.103120
0.000000 0.667384 0.103517
0.000000 0.667506 0.104524
0.000000 0.667781 0.105959
0.000000 0.668177 0.108003
0.000000 0.668696 0.110597
0.000000 0.669215 0.113344
0.000000 0.669764 0.116365
0.000000 0.670344 0.120027
0.106416 0.670954 0.124025
0.167056 0.671595 0.128359
0.214420 0.672236 0.132906
0.256748 0.672908 0.137819
0.296422 0.673610 0.143191
0.369299 0.678035 0.135714
0.440497 0.682582 0.125246
0.508110 0.686976 0.111788
0.571191 0.689631 0.107820
0.628321 0.692134 0.107332
0.677974 0.695521 0.107698
0.720516 0.699977 0.108919
0.761349 0.704799 0.110414
0.785153 0.686397 0.133333
0.821683 0.676173 0.147189
0.854429 0.673915 0.126772
0.887907 0.670527 0.103548
0.921294 0.666346 0.073518
0.953918 0.661646 0.000000
0.985260 0.656611 0.000000
1.000000 0.651484 0.000000
1.000000 0.646448 0.000000
0.000000 0.698421 0.111482
0.000000 0.698360 0.111452
0.000000 0.698360 0.111971
0.000000 0.698421 0.112520
0.000000 0.698665 0.114015
0.000000 0.699062 0.116060
0.000000 0.699580 0.118196
0.000000 0.700099 0.120882
0.000000 0.700679 0.123995
0.000000 0.701228 0.127535
0.096895 0.701808 0.131228
0.162814 0.702419 0.135378
0.212161 0.703029 0.139651
0.255772 0.703670 0.144564
0.296086 0.704311 0.149477
0.344366 0.705928 0.151461
0.417578 0.710323 0.142489
0.486366 0.714565 0.131777
0.551202 0.718776 0.118379
0.610071 0.721157 0.118227
0.661585 0.724147 0.119081
0.705318 0.728176 0.120699
0.745632 0.732784 0.123110
0.788388 0.736965 0.124941
0.814694 0.718532 0.147066
0.853971 0.706416 0.163851
0.887877 0.702632 0.148226
0.921324 0.698634 0.128511
0.953918 0.694057 0.106355
0.985168 0.689082 0.079164
1.000000 0.683925 0.019776
1.000000 0.678920 0.000000
0.000000 0.728847 0.118929
0.000000 0.728756 0.119326
0.000000 0.728756 0.119203
0.000000 0.728878 0.120241
0.000000 0.729183 0.121584
0.000000 0.729580 0.123232
0.000000 0.730098 0.125551
0.000000 0.730709 0.127932
0.000000 0.731319 0.130953
0.000000 0.731960 0.134493
0.087251 0.732631 0.138033
0.158968 0.733272 0.142031
0.210361 0.733974 0.146426
0.254948 0.734646 0.151003
0.296239 0.735409 0.155978
0.335576 0.736110 0.161105
0.394812 0.738949 0.159091
0.465309 0.743130 0.150118
0.531090 0.747189 0.139254
0.591791 0.751034 0.128054
0.645167 0.753689 0.129488
0.690425 0.757290 0.131411
0.730861 0.761624 0.134310
0.772183 0.765805 0.137514
0.819120 0.769009 0.140139
0.846281 0.749477 0.160372
0.886290 0.736385 0.177768
0.920958 0.730495 0.168124
0.953552 0.726192 0.151095
0.984680 0.721370 0.132784
1.000000 0.716365 0.113100
1.000000 0.711299 0.091402
0.000000 0.760708 0.126955
0.000000 0.760616 0.127108
0.000000 0.760616 0.127382
0.000000 0.760769 0.128298
0.000000 0.761044 0.129519
0.000000 0.761410 0.131044
0.000000 0.761868 0.133364
0.000000 0.762387 0.135592
0.000000 0.762936 0.138705
0.000000 0.763485 0.141695
0.077546 0.764126 0.145144
0.156283 0.764675 0.149233
0.209445 0.765316 0.153201
0.255009 0.765927 0.157809
0.296818 0.766598 0.162661
0.336370 0.767330 0.167514
0.374395 0.768032 0.173098
0.443549 0.771664 0.166476
0.510613 0.775540 0.157198
0.572412 0.779416 0.145998
0.627771 0.783047 0.138125
0.674861 0.786191 0.140841
0.715816 0.790158 0.143740
0.756100 0.794186 0.147189
0.800931 0.797421 0.151034
0.851255 0.799496 0.154177
0.879240 0.779873 0.173373
0.918334 0.765652 0.191348
0.952636 0.757748 0.187350
0.983642 0.753231 0.171969
1.000000 0.748318 0.156405
1.000000 0.743374 0.140719
0.000000 0.792813 0.135042
0.000000 0.792782 0.135164
0.000000 0.792813 0.135348
0.000000 0.792996 0.136355
0.000000 0.793240 0.137484
0.000000 0.793637 0.139010
0.000000 0.794095 0.140963
0.000000 0.794644 0.143465
0.000000 0.795163 0.146212
0.000000 0.795682 0.149294
0.070436 0.796231 0.152834
0.154543 0.796811 0.156466
0.209323 0.797330 0.160616
0.255863 0.797971 0.164920
0.298253 0.798581 0.169772
0.338231 0.799283 0.174716
0.376532 0.799985 0.179995
0.421912 0.801389 0.182589
0.490700 0.804990 0.174502
0.553552 0.808591 0.164858
0.610163 0.812467 0.153689
0.659297 0.816037 0.149203
0.701106 0.819516 0.153017
0.740871 0.823239 0.156985
0.783902 0.826352 0.160891
0.832547 0.828428 0.164858
0.884459 0.829618 0.168704
0.914214 0.811246 0.186496
0.949798 0.794888 0.205478
0.982910 0.785031 0.206882
1.000000 0.780392 0.193027
1.000000 0.775570 0.179782
0.000000 0.825772 0.143374
0.000000 0.825803 0.143435
0.000000 0.825803 0.143801
0.000000 0.825956 0.144411
0.000000 0.826169 0.145449
0.000000 0.826474 0.147097
0.000000 0.826749 0.148989
0.000000 0.827054 0.151125
0.000000 0.827329 0.153811
0.000000 0.827665 0.156527
0.062257 0.827939 0.159823
0.152895 0.828305 0.163210
0.208774 0.828672 0.167117
0.255985 0.829129 0.171389
0.298711 0.829648 0.176059
0.338964 0.830259 0.181033
0.377447 0.830930 0.186313
0.414466 0.831601 0.191928
0.469368 0.833738 0.190311
0.533684 0.837003 0.181552
0.591485 0.840452 0.171847
0.642084 0.844419 0.160525
0.685298 0.847959 0.159396
0.725063 0.851316 0.163729
0.766598 0.854307 0.168368
0.813443 0.856352 0.172854
0.864164 0.857511 0.176974
0.916167 0.858000 0.181430
0.946838 0.840970 0.198184
0.978454 0.822690 0.217838
1.000000 0.811093 0.224552
1.000000 0.806607 0.212345
0.000000 0.857969 0.150942
0.000000 0.858030 0.151125
0.000000 0.858061 0.151431
0.000000 0.858244 0.152132
0.000000 0.858488 0.153231
0.000000 0.858793 0.154849
0.000000 0.859159 0.156710
0.000000 0.859525 0.158785
0.000000 0.859922 0.161501
0.000000 0.860319 0.164614
0.060578 0.860716 0.167880
0.154055 0.861173 0.171481
0.211032 0.861631 0.175418
0.258824 0.862119 0.179782
0.301884 0.862669 0.184329
0.342351 0.863249 0.189578
