其他预设/【234】港风调色预设/1.3D LUT预设（视频调色-PR-AE-PS-FCPX-达芬奇用）/16.港风色调 __.cube
# Created by Adobe Lightroom plugin Export LUT (1.17.0)
# www.johnrellis.com/lightroom/exportlut.htm
# Preset: 16.港风色调 [素锦印象]
# Color profile: /Library/Application Support/Adobe/Color/Profiles/Recommended/AdobeRGB1998.icc
LUT_3D_SIZE 32
0.106264 0.115694 0.123690
0.107759 0.116121 0.123995
0.109834 0.116457 0.124117
0.114168 0.117494 0.124666
0.120607 0.118990 0.125521
0.128573 0.120974 0.126467
0.139254 0.122927 0.127108
0.153017 0.125216 0.127596
0.170932 0.127993 0.127993
0.194125 0.130892 0.128115
0.224582 0.133883 0.127871
0.263706 0.136385 0.127047
0.312230 0.137484 0.125368
0.369299 0.136202 0.122530
0.431586 0.132998 0.118288
0.495918 0.128817 0.112642
0.558465 0.127535 0.105440
0.618860 0.132723 0.096376
0.674434 0.146120 0.085237
0.723812 0.165560 0.072297
0.768276 0.189029 0.055451
0.808225 0.215152 0.019898
0.843778 0.242741 0.000000
0.875456 0.271031 0.000000
0.903716 0.299565 0.000000
0.929076 0.328740 0.000000
0.951904 0.358587 0.000000
0.972534 0.389349 0.045350
0.991180 0.421271 0.089479
1.000000 0.454932 0.128664
1.000000 0.490730 0.172763
1.000000 0.529015 0.224216
0.106203 0.116976 0.124147
0.107546 0.117220 0.124086
0.109926 0.117525 0.124025
0.114290 0.118563 0.124605
0.120485 0.119875 0.125460
0.128725 0.121798 0.126192
0.139193 0.123751 0.126864
0.152895 0.126253 0.127504
0.170718 0.128817 0.127779
0.193759 0.131960 0.128023
0.223819 0.135042 0.127626
0.262516 0.137728 0.126833
0.310613 0.139101 0.125154
0.367224 0.138399 0.122347
0.429145 0.135561 0.118135
0.493202 0.132204 0.112520
0.555718 0.131106 0.105379
0.616052 0.136324 0.096071
0.671077 0.149050 0.085237
0.720272 0.167514 0.072267
0.764706 0.190463 0.054963
0.804868 0.215854 0.020813
0.840665 0.242832 0.000000
0.872770 0.270603 0.000000
0.901366 0.299077 0.000000
0.927062 0.328069 0.000000
0.950225 0.357763 0.000000
0.971130 0.388495 0.036408
0.989990 0.420478 0.086183
1.000000 0.454017 0.125673
1.000000 0.489723 0.169802
1.000000 0.527855 0.221042
0.105928 0.118959 0.124941
0.107332 0.118959 0.124910
0.109529 0.119295 0.124453
0.114321 0.120058 0.124483
0.120607 0.121126 0.125185
0.128847 0.122805 0.125917
0.139254 0.124971 0.126741
0.152804 0.127474 0.127230
0.170413 0.130251 0.127657
0.193240 0.133394 0.127749
0.223362 0.136812 0.127504
0.261906 0.139712 0.126680
0.309819 0.141360 0.124819
0.366094 0.141299 0.121981
0.427802 0.139315 0.117739
0.491981 0.136110 0.112093
0.554253 0.135958 0.104891
0.614679 0.141268 0.095521
0.669337 0.153475 0.084749
0.718379 0.171695 0.071748
0.762905 0.193820 0.053101
0.803159 0.218570 0.017456
0.839170 0.245212 0.000000
0.871366 0.272496 0.000000
0.900145 0.300603 0.000000
0.925963 0.329259 0.000000
0.949310 0.358892 0.000000
0.970367 0.389471 0.028443
0.989380 0.421149 0.083162
1.000000 0.454536 0.123384
1.000000 0.490028 0.167727
1.000000 0.527977 0.218997
0.105928 0.123079 0.126467
0.107393 0.122896 0.126253
0.109010 0.122652 0.126436
0.113527 0.123659 0.125338
0.120974 0.124758 0.125246
0.128878 0.125643 0.125887
0.139345 0.127749 0.126345
0.153048 0.130159 0.126802
0.170626 0.133242 0.127230
0.193515 0.136660 0.127291
0.223331 0.140414 0.126986
0.261723 0.144106 0.126101
0.309239 0.146731 0.124178
0.365270 0.147341 0.121279
0.427008 0.146212 0.116945
0.490761 0.144778 0.111147
0.552972 0.145663 0.103548
0.613489 0.151736 0.093874
0.667170 0.163577 0.082734
0.715602 0.180728 0.069612
0.759945 0.201450 0.048920
0.800259 0.225101 0.010010
0.836606 0.250950 0.000000
0.869352 0.277836 0.000000
0.898802 0.305547 0.000000
0.925200 0.334234 0.000000
0.948882 0.363439 0.000000
0.970123 0.393744 0.015412
0.989197 0.425116 0.079347
1.000000 0.457954 0.120943
1.000000 0.492775 0.165499
1.000000 0.530053 0.216648
0.105867 0.128237 0.128420
0.107729 0.128176 0.128725
0.108766 0.127871 0.128023
0.111879 0.128023 0.128115
0.118715 0.129610 0.126558
0.129213 0.131807 0.126101
0.139590 0.132692 0.126650
0.152987 0.134676 0.126986
0.170565 0.137850 0.126986
0.193332 0.141695 0.126833
0.223087 0.146151 0.126253
0.261234 0.150607 0.125124
0.308507 0.154147 0.123262
0.364355 0.156100 0.120211
0.425849 0.156649 0.115694
0.489876 0.157015 0.109407
0.552453 0.159304 0.101381
0.613367 0.166812 0.090974
0.666712 0.178805 0.079194
0.714748 0.194949 0.064851
0.758724 0.214694 0.036378
0.798917 0.237186 0.000000
0.835264 0.261540 0.000000
0.868132 0.287510 0.000000
0.897734 0.314214 0.000000
0.924315 0.341955 0.000000
0.948089 0.370520 0.000000
0.969451 0.399878 0.000000
0.988586 0.430457 0.072480
1.000000 0.462684 0.115999
1.000000 0.496773 0.161563
1.000000 0.533410 0.213199
0.105318 0.134859 0.130892
0.106935 0.134829 0.131044
0.108431 0.134646 0.130678
0.111086 0.134157 0.129946
0.116121 0.134981 0.129610
0.125551 0.137514 0.127535
0.140261 0.141421 0.126772
0.153994 0.142672 0.127138
0.171206 0.144839 0.127596
0.194003 0.148440 0.127413
0.223819 0.153414 0.126772
0.262028 0.158633 0.125704
0.309239 0.163272 0.123537
0.365087 0.166354 0.120333
0.426520 0.168673 0.115572
0.490394 0.170413 0.109285
0.554101 0.174838 0.100893
0.614191 0.183566 0.090211
0.667079 0.195804 0.077729
0.715114 0.212009 0.061433
0.759121 0.231785 0.021759
0.799405 0.254154 0.000000
0.853574 0.292821 0.000000
0.884215 0.317632 0.000000
0.911406 0.342992 0.000000
0.935729 0.368811 0.000000
0.957458 0.395270 0.000000
0.977050 0.422766 0.000000
0.994690 0.451545 0.079164
1.000000 0.482124 0.124483
1.000000 0.514611 0.171389
1.000000 0.549615 0.224033
0.104402 0.144228 0.134096
0.105837 0.144045 0.134096
0.107820 0.144015 0.133883
0.109560 0.143709 0.131624
0.114809 0.142336 0.132326
0.122591 0.144961 0.131044
0.135653 0.148836 0.128725
0.156313 0.155489 0.127260
0.174502 0.157534 0.127474
0.198123 0.160647 0.127626
0.228794 0.164523 0.127169
0.268193 0.170321 0.125826
0.316625 0.175967 0.123690
0.373144 0.180484 0.119875
0.434607 0.184146 0.114900
0.497536 0.188052 0.108156
0.562860 0.194888 0.098817
0.622095 0.205203 0.087495
0.674403 0.218296 0.073701
0.722438 0.235080 0.053590
0.767025 0.255375 0.006806
0.808225 0.278202 0.000000
0.845487 0.303288 0.000000
0.878782 0.329015 0.000000
0.907988 0.354345 0.000000
0.933379 0.379858 0.000000
0.955749 0.405707 0.000000
0.975616 0.432197 0.000000
0.993500 0.459937 0.065034
1.000000 0.489357 0.115450
1.000000 0.520775 0.164065
1.000000 0.554681 0.217472
0.102998 0.155459 0.137819
0.104219 0.155337 0.137636
0.105989 0.155306 0.137270
0.108980 0.154879 0.135561
0.113313 0.153658 0.134066
0.120211 0.152987 0.134676
0.131075 0.157412 0.132418
0.147921 0.162631 0.129824
0.175784 0.173007 0.127321
0.199954 0.176364 0.127382
0.230961 0.181003 0.126925
0.270085 0.185763 0.125826
0.317845 0.190127 0.123812
0.374182 0.196139 0.119905
0.435401 0.201541 0.114626
0.500023 0.207736 0.107301
0.564019 0.216159 0.097597
0.621790 0.226963 0.086030
0.673213 0.240085 0.072114
0.720821 0.256138 0.049561
0.765072 0.275273 0.001251
0.806058 0.296910 0.000000
0.843229 0.320348 0.000000
0.876524 0.345037 0.000000
0.905943 0.370153 0.000000
0.931548 0.394324 0.000000
0.954070 0.418677 0.000000
0.974182 0.443824 0.000000
0.992218 0.470375 0.028809
1.000000 0.498573 0.104097
1.000000 0.528862 0.155550
1.000000 0.561608 0.210422
0.100374 0.169955 0.142428
0.101625 0.170016 0.142092
0.103517 0.169833 0.141756
0.107668 0.169467 0.141085
0.110262 0.168643 0.136172
0.118318 0.166659 0.137209
0.127810 0.168002 0.136873
0.142641 0.173983 0.134127
0.164431 0.181094 0.130709
0.202304 0.196902 0.126619
0.234134 0.201877 0.125948
0.274083 0.207645 0.124727
0.322179 0.213016 0.122347
0.377569 0.217075 0.119020
0.438880 0.222446 0.113893
0.504112 0.230808 0.105959
0.566461 0.240360 0.095827
0.622919 0.251743 0.083711
0.673518 0.264775 0.068940
0.720607 0.280278 0.041566
0.764492 0.298405 0.000000
0.805112 0.318761 0.000000
0.842039 0.340826 0.000000
0.875212 0.363958 0.000000
0.904540 0.387610 0.000000
0.930266 0.411292 0.000000
0.952911 0.434516 0.000000
0.973083 0.458289 0.000000
0.991180 0.483314 0.000000
1.000000 0.510033 0.090455
1.000000 0.538903 0.146120
1.000000 0.570245 0.202609
0.096101 0.188479 0.148013
0.097475 0.188388 0.147707
0.099519 0.188235 0.147066
0.104005 0.187930 0.146120
0.108461 0.187015 0.142061
0.115023 0.185245 0.139712
0.125399 0.182681 0.140902
0.138338 0.187350 0.139071
0.158022 0.195438 0.135531
0.186282 0.205051 0.131014
0.237308 0.227756 0.124361
0.278050 0.234226 0.122530
0.326879 0.240665 0.119844
0.383490 0.247044 0.115846
0.445991 0.252964 0.110201
0.509056 0.257939 0.103365
0.570397 0.267857 0.092805
0.626062 0.279728 0.079896
0.675959 0.292699 0.063935
0.722225 0.307378 0.027466
0.765133 0.324437 0.000000
0.804685 0.343114 0.000000
0.840787 0.363287 0.000000
0.873320 0.384375 0.000000
0.902373 0.406195 0.000000
0.928191 0.428473 0.000000
0.951171 0.451179 0.000000
0.971649 0.473915 0.000000
0.990051 0.497780 0.000000
1.000000 0.523308 0.071199
1.000000 0.551019 0.135653
1.000000 0.581140 0.195132
0.088716 0.211398 0.154818
0.090669 0.211307 0.154238
0.092927 0.211185 0.153628
0.098146 0.210880 0.152438
0.104860 0.210147 0.149599
0.108919 0.208621 0.142123
0.121706 0.205783 0.143496
0.134585 0.203525 0.144747
0.152895 0.212619 0.141024
0.178927 0.223697 0.136324
0.215213 0.236393 0.130251
0.282902 0.267063 0.118837
0.334051 0.275181 0.115389
0.391913 0.282994 0.110506
0.453254 0.290043 0.104128
0.514916 0.296422 0.096193
0.573938 0.302556 0.086366
0.627436 0.309056 0.075502
0.676661 0.321721 0.057832
0.722316 0.335729 0.012543
0.764858 0.351629 0.000000
0.804135 0.369085 0.000000
0.840055 0.387884 0.000000
0.872435 0.407568 0.000000
0.901396 0.428016 0.000000
0.927062 0.448798 0.000000
0.949950 0.470008 0.000000
0.970581 0.491798 0.000000
0.989014 0.514122 0.000000
1.000000 0.537987 0.022522
1.000000 0.564080 0.122011
1.000000 0.592706 0.185336
0.075807 0.240696 0.162783
0.078065 0.240604 0.162356
0.080934 0.240421 0.161532
0.087251 0.240055 0.160006
0.097200 0.239475 0.157839
0.103304 0.237705 0.149722
0.114473 0.235080 0.146090
0.130800 0.231327 0.147951
0.147738 0.233188 0.147433
0.172549 0.245548 0.142367
0.206699 0.259770 0.135927
0.254215 0.277012 0.127199
0.359258 0.330144 0.103883
0.420752 0.338872 0.096773
0.483467 0.346410 0.087861
0.544396 0.353124 0.076875
0.600610 0.359289 0.063691
0.650782 0.364233 0.041199
0.696101 0.369085 0.011200
0.738827 0.377966 0.000000
0.778836 0.392004 0.000000
0.815671 0.407477 0.000000
0.849180 0.423713 0.000000
0.879606 0.441108 0.000000
0.906920 0.459205 0.000000
0.931365 0.477913 0.000000
0.953216 0.497139 0.000000
0.972930 0.516899 0.000000
0.990906 0.537438 0.000000
1.000000 0.559289 0.000000
1.000000 0.583185 0.113466
1.000000 0.609766 0.181308
0.033600 0.280003 0.173251
0.041444 0.279942 0.172610
0.051881 0.279515 0.171481
0.065370 0.278813 0.169589
0.079866 0.277867 0.166720
0.092256 0.275761 0.159884
0.100343 0.272770 0.148379
0.122316 0.268437 0.150332
0.142702 0.263676 0.152712
0.166598 0.272923 0.149538
0.200931 0.290929 0.142489
0.248325 0.311345 0.133028
0.311376 0.333440 0.119295
0.423346 0.384375 0.083253
0.487648 0.392950 0.070527
0.548028 0.399786 0.052369
0.603204 0.405005 0.017762
0.652308 0.408881 0.000000
0.696834 0.412604 0.000000
0.738582 0.417334 0.000000
0.777554 0.423621 0.000000
0.813993 0.435615 0.000000
0.847288 0.450416 0.000000
0.877592 0.466163 0.000000
0.904875 0.482765 0.000000
0.929290 0.499916 0.000000
0.951202 0.517784 0.000000
0.971038 0.536339 0.000000
0.989075 0.555657 0.000000
1.000000 0.575921 0.000000
1.000000 0.598383 0.091249
1.000000 0.623346 0.168002
0.000000 0.322118 0.184085
0.000000 0.321843 0.183169
0.000000 0.321416 0.182010
0.000000 0.320745 0.179782
0.032319 0.319402 0.176455
0.072328 0.317662 0.171664
0.084108 0.314397 0.157809
0.106050 0.310735 0.152285
0.133639 0.306493 0.154879
0.158541 0.302190 0.157626
0.191653 0.320745 0.150484
0.236454 0.341863 0.140749
0.295476 0.364599 0.127169
0.369055 0.387823 0.107576
0.487160 0.440070 0.033997
0.552087 0.449592 0.000000
0.605737 0.453071 0.000000
0.653803 0.455238 0.000000
0.697688 0.457313 0.000000
0.738827 0.460700 0.000000
0.777371 0.465370 0.000000
0.813107 0.471412 0.000000
0.845945 0.478767 0.000000
0.876188 0.493080 0.000000
0.903349 0.508232 0.000000
0.927764 0.523980 0.000000
0.949676 0.540520 0.000000
0.969512 0.557671 0.000000
0.987610 0.575799 0.000000
1.000000 0.594812 0.000000
1.000000 0.615198 0.058869
1.000000 0.638575 0.153628
0.000000 0.369787 0.196048
0.000000 0.369787 0.195285
0.000000 0.369421 0.194095
0.000000 0.369024 0.191440
0.000000 0.368109 0.187839
0.000000 0.366796 0.183352
0.043061 0.364050 0.170443
0.071870 0.360540 0.153567
0.115389 0.355505 0.156374
0.149081 0.350164 0.159609
0.180972 0.352758 0.159457
0.224216 0.374121 0.149691
0.280186 0.397223 0.136477
0.349645 0.420630 0.117861
0.429877 0.443641 0.089509
0.545251 0.492927 0.000000
0.609125 0.503685 0.000000
0.656092 0.503624 0.000000
0.699214 0.503807 0.000000
0.739712 0.505364 0.000000
0.777615 0.508232 0.000000
0.812833 0.512596 0.000000
0.845243 0.518181 0.000000
0.874907 0.524956 0.000000
0.901915 0.534783 0.000000
0.926360 0.549340 0.000000
0.948455 0.564721 0.000000
0.968475 0.581018 0.000000
0.986725 0.598138 0.000000
1.000000 0.616297 0.000000
1.000000 0.635279 0.048402
1.000000 0.656764 0.141390
0.000000 0.425055 0.210636
0.000000 0.425116 0.209812
0.000000 0.424781 0.208438
0.000000 0.424170 0.205600
0.000000 0.423041 0.201419
0.000000 0.421698 0.196262
0.000000 0.419440 0.186069
0.000000 0.415808 0.165988
0.078492 0.411017 0.157687
0.130892 0.405158 0.161257
0.170596 0.398322 0.165194
0.211643 0.409125 0.160342
0.265202 0.431067 0.147646
0.330816 0.453651 0.130220
0.406287 0.475624 0.105592
0.488167 0.496803 0.063172
0.595300 0.540795 0.000000
0.658259 0.553277 0.000000
0.701106 0.551568 0.000000
0.741329 0.551507 0.000000
0.778988 0.552972 0.000000
0.813901 0.555688 0.000000
0.846006 0.559625 0.000000
0.875334 0.564904 0.000000
0.901976 0.571283 0.000000
0.926116 0.579004 0.000000
0.948058 0.591089 0.000000
0.967926 0.606073 0.000000
0.986023 0.621851 0.000000
1.000000 0.638483 0.000000
1.000000 0.655970 0.081117
1.000000 0.674495 0.123110
0.000000 0.479896 0.226413
0.000000 0.479683 0.225315
0.000000 0.479286 0.224002
0.000000 0.478553 0.220981
0.000000 0.477302 0.216434
0.000000 0.475776 0.210758
0.000000 0.473762 0.204593
0.000000 0.469856 0.182742
0.000000 0.465461 0.158846
0.097658 0.459327 0.162875
0.154147 0.452491 0.167178
0.197696 0.444739 0.172000
0.249607 0.464607 0.160678
0.312505 0.486427 0.144747
0.384680 0.507774 0.122988
0.462654 0.527794 0.091005
0.541985 0.546563 0.000000
0.639979 0.585077 0.000000
0.702846 0.600092 0.000000
0.742458 0.597772 0.000000
0.779446 0.597162 0.000000
0.813870 0.598047 0.000000
0.845548 0.600244 0.000000
0.874632 0.603784 0.000000
0.901091 0.608576 0.000000
0.925048 0.614710 0.000000
0.946838 0.622095 0.000000
0.966705 0.630884 0.000000
0.984771 0.645197 0.000000
1.000000 0.660670 0.061707
1.000000 0.676936 0.104402
1.000000 0.694331 0.142702
0.000000 0.534539 0.244053
0.000000 0.534661 0.243107
0.000000 0.548150 0.246647
0.000000 0.547204 0.243168
0.000000 0.545769 0.238254
0.000000 0.543816 0.232242
0.000000 0.541314 0.225345
0.000000 0.537377 0.207401
0.000000 0.532677 0.179110
0.000000 0.526696 0.167422
0.129305 0.519371 0.172244
0.189029 0.511009 0.177462
0.239872 0.509026 0.178317
0.302617 0.529381 0.163119
0.372656 0.548852 0.143465
0.447669 0.567071 0.116915
0.524376 0.584314 0.075380
0.599176 0.600702 0.000000
0.687953 0.633600 0.000000
0.749538 0.650202 0.000000
0.785000 0.646662 0.000000
0.818173 0.645014 0.000000
0.848844 0.644862 0.000000
0.876860 0.646204 0.000000
0.902251 0.648615 0.000000
0.925322 0.652369 0.000000
0.946349 0.657465 0.000000
0.965728 0.664057 0.000000
0.983551 0.672267 0.004211
0.999969 0.683131 0.089631
1.000000 0.698146 0.125856
1.000000 0.714168 0.162112
0.000000 0.590204 0.264836
0.000000 0.591821 0.264622
0.000000 0.593194 0.263767
0.000000 0.594110 0.261265
0.000000 0.594110 0.257084
0.000000 0.592950 0.251408
0.000000 0.590784 0.244694
0.000000 0.587762 0.233555
0.000000 0.583490 0.204837
0.000000 0.578759 0.173342
0.082918 0.571893 0.178256
0.169680 0.564141 0.183566
0.228550 0.555138 0.189242
0.286015 0.561273 0.183780
0.353277 0.579339 0.166659
0.425330 0.596460 0.144656
0.499336 0.612573 0.115023
0.572229 0.627985 0.065736
0.643214 0.643000 0.000000
0.724697 0.671931 0.000000
0.785397 0.690517 0.000000
0.818265 0.687098 0.000000
0.848631 0.685298 0.000000
0.876402 0.684962 0.000000
0.901579 0.685847 0.000000
0.924529 0.688075 0.000000
0.945403 0.691615 0.000000
0.964630 0.696681 0.000000
0.982330 0.703334 0.027619
0.998627 0.711482 0.102052
1.000000 0.721218 0.144808
1.000000 0.734463 0.182864
0.000000 0.637934 0.285313
0.000000 0.639338 0.285130
0.000000 0.640711 0.284398
0.000000 0.641413 0.282139
0.000000 0.641382 0.278111
0.000000 0.640345 0.272770
0.000000 0.638361 0.266758
0.000000 0.635737 0.260990
0.000000 0.632136 0.235325
0.000000 0.627924 0.202121
0.000000 0.622461 0.188357
0.144503 0.615290 0.193576
0.217288 0.606958 0.199191
0.273960 0.597620 0.205051
0.337804 0.610742 0.192752
0.407080 0.626673 0.174228
0.478462 0.641810 0.150668
0.549248 0.656275 0.119081
0.618555 0.670253 0.066468
0.685481 0.684047 0.000000
0.759762 0.709010 0.000000
0.818906 0.728969 0.000000
0.848936 0.725429 0.000000
0.876310 0.723384 0.000000
0.901183 0.722621 0.000000
0.923796 0.723201 0.000000
0.944427 0.725124 0.000000
0.963439 0.728542 0.000000
0.980957 0.733577 0.058534
0.997162 0.740078 0.113191
1.000000 0.748196 0.155520
1.000000 0.757839 0.197208
0.000000 0.683467 0.307378
0.000000 0.684718 0.307286
0.000000 0.685878 0.306676
0.000000 0.686580 0.304662
0.000000 0.686519 0.301122
0.000000 0.685481 0.296422
0.000000 0.683742 0.291081
0.000000 0.681270 0.286107
0.000000 0.678065 0.270115
0.000000 0.674311 0.237919
0.000000 0.670100 0.202914
0.109682 0.663508 0.208133
0.203525 0.655756 0.213474
0.268681 0.647211 0.219303
0.325536 0.642176 0.221866
0.392737 0.657282 0.206210
0.462013 0.671839 0.187320
0.531212 0.685969 0.163516
0.599207 0.699641 0.132357
0.665278 0.712917 0.084993
0.728389 0.725887 0.000000
0.796292 0.747555 0.000000
0.852781 0.767849 0.000000
0.879759 0.764340 0.000000
0.904082 0.762173 0.000000
0.926177 0.761257 0.000000
0.946288 0.761654 0.000000
0.964813 0.763485 0.000000
0.981872 0.766812 0.095216
0.997620 0.771603 0.139528
1.000000 0.777920 0.179934
1.000000 0.785458 0.219699
0.000000 0.731991 0.334203
0.000000 0.732448 0.333806
0.000000 0.732692 0.332952
0.000000 0.732509 0.330938
0.000000 0.731899 0.327611
0.000000 0.730678 0.323583
0.000000 0.728969 0.319158
0.000000 0.726772 0.315404
0.000000 0.724086 0.310155
0.000000 0.721004 0.279698
0.000000 0.717708 0.244694
0.063142 0.712642 0.230198
0.193057 0.705684 0.235630
0.267124 0.697780 0.241184
0.326848 0.688960 0.246983
0.385931 0.690761 0.243381
0.452033 0.704005 0.227512
0.518303 0.716732 0.208286
0.583703 0.729030 0.185183
0.647456 0.740871 0.155825
0.708766 0.752193 0.115328
0.766781 0.763088 0.007446
0.827359 0.780636 0.000000
0.880156 0.799863 0.000000
0.903929 0.796048 0.000000
0.925658 0.793668 0.000000
0.945556 0.792630 0.000000
0.963867 0.793027 0.058106
0.980743 0.794919 0.114473
0.996368 0.798215 0.155856
1.000000 0.803006 0.195560
1.000000 0.808621 0.233921
0.000000 0.772000 0.359197
0.000000 0.772488 0.358892
0.000000 0.772793 0.358404
0.000000 0.772671 0.356725
0.000000 0.772030 0.354253
0.000000 0.770840 0.350866
0.000000 0.769223 0.347509
0.000000 0.767025 0.344762
0.000000 0.764309 0.343511
0.000000 0.761410 0.322545
0.000000 0.758511 0.289921
0.000000 0.755001 0.255192
0.180789 0.748714 0.260319
0.263828 0.741543 0.265690
0.328405 0.733608 0.271397
0.383398 0.725063 0.277501
0.443977 0.732937 0.268040
0.507286 0.744747 0.252537
0.570031 0.756130 0.234318
0.631678 0.767025 0.212436
0.691371 0.777371 0.185794
0.748379 0.787259 0.151583
0.801816 0.796658 0.101411
0.855985 0.810910 0.000000
0.903380 0.827054 0.000000
0.924773 0.823301 0.000000
0.944427 0.821042 0.000000
0.962554 0.820188 0.085512
0.979309 0.820768 0.132418
0.994812 0.822751 0.172030
1.000000 0.826047 0.209934
1.000000 0.830289 0.247929
0.000000 0.813169 0.388586
0.000000 0.813596 0.388617
0.000000 0.813748 0.388251
0.000000 0.813413 0.386877
0.000000 0.812589 0.384833
0.000000 0.811276 0.382452
0.000000 0.809415 0.380041
0.000000 0.807004 0.378210
0.000000 0.803983 0.377996
0.000000 0.800656 0.369238
0.000000 0.797604 0.339178
0.068269 0.794400 0.304753
0.176455 0.789425 0.290806
0.264836 0.782528 0.295506
0.332189 0.774807 0.300450
0.389166 0.766598 0.305821
0.439796 0.759945 0.309575
0.499123 0.770382 0.296330
0.558618 0.780636 0.281102
0.617517 0.790616 0.263706
0.675257 0.800076 0.243534
0.730678 0.808957 0.219333
0.783108 0.817136 0.189425
0.831693 0.824704 0.149569
0.879576 0.835691 0.089326
0.925261 0.852171 0.000000
0.944396 0.848631 0.060975
0.962066 0.846464 0.115602
0.978515 0.845762 0.155032
0.993774 0.846464 0.192081
1.000000 0.848203 0.227573
1.000000 0.851164 0.264744
0.000000 0.846525 0.415229
0.000000 0.846921 0.415381
0.000000 0.847074 0.415259
0.000000 0.846738 0.414435
0.000000 0.846006 0.413062
0.000000 0.844755 0.411597
0.000000 0.843107 0.410376
0.000000 0.840909 0.410132
0.000000 0.838132 0.411322
0.001923 0.834684 0.414893
0.105440 0.832303 0.388800
0.145724 0.829740 0.358312
0.183322 0.826749 0.326543
0.273503 0.820645 0.331090
0.342473 0.813901 0.335973
0.400427 0.806638 0.341222
0.450874 0.799008 0.347051
0.500542 0.798367 0.345953
0.556054 0.807462 0.333410
0.611597 0.816220 0.319432
0.666194 0.824460 0.303319
0.719234 0.832120 0.284520
0.769772 0.839109 0.262181
0.817197 0.845548 0.235111
0.860807 0.851560 0.201724
0.903044 0.860014 0.160311
0.944884 0.874693 0.113802
0.962524 0.871794 0.148806
0.978576 0.870085 0.183993
0.993378 0.869566 0.217746
1.000000 0.870054 0.251499
1.000000 0.871794 0.287877
0.000000 0.878111 0.443885
0.000000 0.878294 0.444068
0.000000 0.878264 0.443946
0.000000 0.877806 0.443488
0.000000 0.876921 0.442634
0.000000 0.875639 0.441901
0.000000 0.873930 0.441749
0.000000 0.871733 0.442603
0.000000 0.868956 0.445167
0.100557 0.865599 0.449897
0.185153 0.862821 0.438178
0.209903 0.860838 0.411719
0.233127 0.858610 0.381506
0.289281 0.854368 0.370153
0.357031 0.848325 0.374762
0.414588 0.841825 0.379797
0.464729 0.834989 0.385138
0.509392 0.828153 0.391394
0.557977 0.831937 0.385626
0.609522 0.839536 0.374060
0.660609 0.846677 0.360967
0.710658 0.853239 0.345953
0.758816 0.859190 0.328222
0.804471 0.864683 0.307439
0.846983 0.869749 0.282414
0.885985 0.874510 0.252567
0.923430 0.881071 0.217838
0.961883 0.894133 0.185214
0.978149 0.891844 0.209812
0.992462 0.890105 0.240421
1.000000 0.889555 0.272435
1.000000 0.890257 0.307652
0.000000 0.905516 0.472084
0.000000 0.905547 0.472267
0.000000 0.905455 0.472358
0.000000 0.905058 0.472267
0.000000 0.904326 0.472389
0.000000 0.903319 0.472969
0.000000 0.902068 0.474586
0.000000 0.900420 0.477607
0.000000 0.898222 0.482612
0.171572 0.895384 0.489937
0.266636 0.892424 0.492988
0.285863 0.891325 0.471504
0.304814 0.889982 0.447150
0.327337 0.888090 0.422065
0.390661 0.882963 0.427161
0.444892 0.877379 0.432166
0.493050 0.871489 0.437629
0.536309 0.865568 0.443641
0.576043 0.860044 0.449989
0.622156 0.866239 0.440864
0.668360 0.872007 0.430488
0.713924 0.877317 0.418494
0.758175 0.882109 0.404395
0.800595 0.886473 0.387945
0.840543 0.890532 0.368658
0.877592 0.894377 0.345769
0.911894 0.898100 0.318578
0.944518 0.902922 0.287755
0.978576 0.913481 0.261051
0.993408 0.911528 0.277836
1.000000 0.910002 0.308232
1.000000 0.909636 0.341772
0.000000 0.933257 0.506065
0.000000 0.933227 0.506340
0.000000 0.933013 0.506523
0.000000 0.932464 0.506859
0.000000 0.931579 0.507530
0.000000 0.930327 0.508934
0.000000 0.928710 0.511406
0.000000 0.926604 0.515312
0.059937 0.923949 0.521141
0.232639 0.920592 0.529351
0.328130 0.916533 0.539849
0.352361 0.914885 0.525414
0.366918 0.913573 0.504448
0.381811 0.912078 0.480842
0.420325 0.908629 0.472847
0.470985 0.903655 0.477668
