其他预设/【234】港风调色预设/1.3D LUT预设（视频调色-PR-AE-PS-FCPX-达芬奇用）/16.港风色调 __.cube
# Created by Adobe Lightroom plugin Export LUT (1.17.0)
# www.johnrellis.com/lightroom/exportlut.htm
# Preset: 16.港风色调 [素锦印象]
# Color profile: /Library/Application Support/Adobe/Color/Profiles/Recommended/AdobeRGB1998.icc
LUT_3D_SIZE 5
DOMAIN_MIN 0.000000 0.000000 0.000000
DOMAIN_MAX 0.903226 0.903226 0.903226
0.106264 0.115694 0.123690
0.153017 0.125216 0.127596
0.431586 0.132998 0.118288
0.808225 0.215152 0.019898
0.991180 0.421271 0.089479
0.102998 0.155459 0.137819
0.147921 0.162631 0.129824
0.435401 0.201541 0.114626
0.806058 0.296910 0.000000
0.992218 0.470375 0.028809
0.000000 0.369787 0.196048
0.071870 0.360540 0.153567
0.429877 0.443641 0.089509
0.812833 0.512596 0.000000
0.986725 0.598138 0.000000
0.000000 0.731991 0.334203
0.000000 0.726772 0.315404
0.326848 0.688960 0.246983
0.766781 0.763088 0.007446
0.980743 0.794919 0.114473
0.000000 0.954711 0.535668
0.000000 0.947692 0.549950
0.444129 0.928099 0.510613
0.721828 0.911742 0.535088
0.947204 0.930785 0.425177
0.104250 0.122927 0.163943
0.150973 0.125277 0.168887
0.414069 0.129091 0.176486
0.788632 0.207553 0.166964
0.985321 0.426551 0.174533
0.097505 0.158938 0.179538
0.148684 0.165194 0.181338
0.423926 0.197299 0.183993
0.790036 0.286412 0.169009
0.984375 0.471504 0.183261
0.000000 0.394079 0.270268
0.077882 0.387030 0.248692
0.419440 0.428595 0.191531
0.797971 0.493507 0.178286
0.981048 0.604669 0.223484
0.000000 0.742306 0.410529
0.000000 0.737270 0.396338
0.357244 0.700801 0.336309
0.765347 0.760403 0.251652
0.975097 0.794980 0.297154
0.000000 0.957824 0.572992
0.000000 0.951202 0.582788
0.512932 0.928740 0.594385
0.731106 0.910796 0.591943
0.944213 0.931304 0.511070
0.000000 0.141817 0.362829
0.122805 0.141360 0.400732
0.472206 0.004791 0.429938
0.797543 0.148348 0.410040
0.961913 0.515648 0.514885
0.000000 0.198856 0.345068
0.092042 0.195041 0.391638
0.465034 0.190463 0.440223
0.781338 0.288518 0.430091
0.962310 0.545159 0.515679
0.000000 0.379309 0.450660
0.000000 0.388525 0.452369
0.422461 0.420233 0.460273
0.770352 0.516747 0.489174
0.960357 0.645930 0.529442
0.000000 0.778531 0.617548
0.000000 0.771084 0.601251
0.445228 0.735012 0.576226
0.758358 0.754635 0.542626
0.954711 0.798062 0.577295
0.000000 0.967224 0.694697
0.000000 0.963134 0.692500
0.514519 0.937285 0.705928
0.743923 0.907561 0.699977
0.934081 0.929870 0.669154
0.000000 0.192416 0.681727
0.000000 0.194797 0.701381
0.555200 0.169284 0.761746
0.814054 0.298466 0.737423
0.954864 0.588952 0.749844
0.000000 0.277775 0.667079
0.000000 0.259586 0.689296
0.533623 0.291051 0.751247
0.805417 0.396063 0.739773
0.950103 0.619348 0.752468
0.000000 0.424048 0.650965
0.000000 0.427710 0.647883
0.439033 0.473976 0.705470
0.777584 0.572992 0.742428
0.938689 0.696071 0.756008
0.000000 0.695918 0.744533
0.000000 0.699062 0.743343
0.388647 0.710018 0.742885
0.738918 0.733364 0.746975
0.932158 0.809751 0.773037
0.000000 0.971771 0.843626
0.000000 0.972595 0.842954
0.370611 0.962280 0.838773
0.770047 0.925719 0.826413
0.925811 0.929778 0.815213
0.000000 0.353460 0.890379
0.278904 0.361639 0.893797
0.601801 0.407874 0.906249
0.864897 0.544274 0.924743
0.945220 0.651911 0.894316
0.144564 0.429175 0.882200
0.267338 0.415961 0.887083
0.591791 0.464057 0.900572
0.855009 0.583764 0.920287
0.941955 0.678309 0.894591
0.000000 0.550927 0.855100
0.174838 0.551598 0.861021
0.525261 0.573175 0.882658
0.822049 0.674220 0.909148
0.935943 0.757778 0.900237
0.000000 0.723201 0.875639
0.000000 0.719875 0.872648
0.392340 0.712795 0.864195
0.734401 0.752285 0.886870
0.932036 0.854337 0.913634
0.000000 0.916442 0.912291
0.000000 0.916228 0.912169
0.386145 0.915099 0.913024
0.712490 0.910430 0.911589
0.912505 0.918578 0.914122
