其他预设/【234】港风调色预设/1.3D LUT预设（视频调色-PR-AE-PS-FCPX-达芬奇用）/16.港风色调 __.cube
# Created by Adobe Lightroom plugin Export LUT (1.17.0)
# www.johnrellis.com/lightroom/exportlut.htm
# Preset: 16.港风色调 [素锦印象]
# Color profile: /Library/Application Support/Adobe/Color/Profiles/Recommended/AdobeRGB1998.icc
LUT_3D_SIZE 8
DOMAIN_MIN 0.000000 0.000000 0.000000
DOMAIN_MAX 0.903226 0.903226 0.903226
0.106264 0.115694 0.123690
0.120607 0.118990 0.125521
0.170932 0.127993 0.127993
0.312230 0.137484 0.125368
0.558465 0.127535 0.105440
0.768276 0.189029 0.055451
0.903716 0.299565 0.000000
0.991180 0.421271 0.089479
0.105867 0.128237 0.128420
0.118715 0.129610 0.126558
0.170565 0.137850 0.126986
0.308507 0.154147 0.123262
0.552453 0.159304 0.101381
0.758724 0.214694 0.036378
0.897734 0.314214 0.000000
0.988586 0.430457 0.072480
0.100374 0.169955 0.142428
0.110262 0.168643 0.136172
0.164431 0.181094 0.130709
0.322179 0.213016 0.122347
0.566461 0.240360 0.095827
0.764492 0.298405 0.000000
0.904540 0.387610 0.000000
0.991180 0.483314 0.000000
0.033600 0.280003 0.173251
0.079866 0.277867 0.166720
0.142702 0.263676 0.152712
0.311376 0.333440 0.119295
0.603204 0.405005 0.017762
0.777554 0.423621 0.000000
0.904875 0.482765 0.000000
0.989075 0.555657 0.000000
0.000000 0.479896 0.226413
0.000000 0.477302 0.216434
0.000000 0.465461 0.158846
0.249607 0.464607 0.160678
0.541985 0.546563 0.000000
0.779446 0.597162 0.000000
0.901091 0.608576 0.000000
0.984771 0.645197 0.000000
0.000000 0.683467 0.307378
0.000000 0.686519 0.301122
0.000000 0.678065 0.270115
0.203525 0.655756 0.213474
0.462013 0.671839 0.187320
0.728389 0.725887 0.000000
0.904082 0.762173 0.000000
0.981872 0.766812 0.095216
0.000000 0.846525 0.415229
0.000000 0.846006 0.413062
0.000000 0.838132 0.411322
0.183322 0.826749 0.326543
0.450874 0.799008 0.347051
0.666194 0.824460 0.303319
0.860807 0.851560 0.201724
0.978576 0.870085 0.183993
0.000000 0.954711 0.535668
0.000000 0.952850 0.538659
0.176638 0.944884 0.557183
0.429603 0.933867 0.560357
0.535973 0.919432 0.521447
0.684138 0.907744 0.541466
0.828672 0.921386 0.504936
0.947204 0.930785 0.425177
0.106691 0.118776 0.137240
0.118868 0.119661 0.137270
0.166842 0.129824 0.140139
0.300450 0.141054 0.141390
0.543664 0.131411 0.127810
0.751247 0.184360 0.098054
0.893919 0.296239 0.040253
0.986847 0.417487 0.076844
0.104952 0.128847 0.140810
0.118776 0.130587 0.141390
0.167391 0.140078 0.143038
0.301732 0.154726 0.141909
0.543816 0.157107 0.127535
0.747646 0.208774 0.097261
0.889647 0.310521 0.035035
0.984131 0.426307 0.056947
0.097047 0.173526 0.156710
0.114382 0.173342 0.155581
0.164675 0.181430 0.147066
0.313817 0.207279 0.143008
0.552331 0.234318 0.125673
0.751492 0.289158 0.092256
0.892699 0.375708 0.024537
0.985809 0.476478 0.000122
0.010986 0.282780 0.191623
0.075410 0.281743 0.186496
0.145296 0.271122 0.168765
0.301823 0.322820 0.143435
0.576349 0.382025 0.104402
0.757900 0.405585 0.079652
0.892790 0.470069 0.014923
0.983215 0.548730 0.061341
0.000000 0.484016 0.251255
0.000000 0.480568 0.241276
0.000000 0.468299 0.197421
0.247196 0.454994 0.186282
0.529992 0.533898 0.101564
0.768734 0.584894 0.000000
0.894713 0.600427 0.000000
0.980865 0.642023 0.117891
0.000000 0.681483 0.329595
0.000000 0.679988 0.321386
0.000000 0.672297 0.302586
0.205814 0.652552 0.237491
0.459144 0.665461 0.220523
0.725765 0.722499 0.106569
0.900633 0.758450 0.000000
0.978820 0.763943 0.166018
0.000000 0.842161 0.429236
0.000000 0.839902 0.425025
0.000000 0.833219 0.422217
0.210727 0.822721 0.358312
0.453956 0.797269 0.366522
0.663294 0.820371 0.329870
0.856504 0.847837 0.240024
0.974823 0.866819 0.227024
0.000000 0.953399 0.543206
0.000000 0.952026 0.546288
0.141482 0.944488 0.563256
0.445899 0.931945 0.579675
0.549065 0.921569 0.543481
0.688716 0.907683 0.560174
0.828092 0.920500 0.522728
0.945190 0.929808 0.447120
0.101259 0.124575 0.179049
0.115846 0.124910 0.183841
0.170321 0.127199 0.187320
0.314916 0.113680 0.186923
0.544427 0.113161 0.196719
0.750362 0.185183 0.200961
0.893645 0.309087 0.204257
0.985809 0.436500 0.221714
0.106081 0.138766 0.178927
0.115541 0.137942 0.185916
0.169192 0.140963 0.190890
0.307439 0.139010 0.190646
0.541772 0.147585 0.200076
0.746792 0.210422 0.200839
0.890654 0.323796 0.203006
0.984192 0.446693 0.221469
0.089265 0.175143 0.200443
0.105653 0.177096 0.201297
0.166018 0.184329 0.203250
0.310704 0.206912 0.208042
0.553704 0.233127 0.208194
0.751034 0.292699 0.205447
0.890867 0.385626 0.209323
0.982635 0.490913 0.230442
0.000000 0.310735 0.265873
0.000000 0.309819 0.259464
0.150484 0.303471 0.241886
0.311192 0.327123 0.218845
0.573846 0.369085 0.213687
0.757870 0.411597 0.214908
0.892088 0.481819 0.223697
0.980591 0.563958 0.250706
0.000000 0.508537 0.333745
0.000000 0.506859 0.326085
0.000000 0.498268 0.304631
0.267185 0.470283 0.272251
0.540093 0.538445 0.227420
0.765743 0.579034 0.216495
0.891203 0.600275 0.244511
0.976715 0.653468 0.283513
0.000000 0.696620 0.407752
0.000000 0.695338 0.402014
0.000000 0.687465 0.386450
0.231998 0.668940 0.327764
0.467781 0.660792 0.325963
0.723964 0.718868 0.268681
0.894163 0.754238 0.268894
0.973754 0.766781 0.326787
0.000000 0.851560 0.493141
0.000000 0.849699 0.490120
0.000000 0.842100 0.485023
0.330114 0.825742 0.480934
0.479927 0.803433 0.442420
0.668635 0.817990 0.426459
0.856199 0.849027 0.371740
0.970581 0.869017 0.377600
0.000000 0.957244 0.582727
0.000000 0.955505 0.582422
0.000000 0.948058 0.593561
0.478462 0.932311 0.633051
0.567498 0.922850 0.591150
0.697780 0.905425 0.609003
0.829404 0.919738 0.583307
0.942260 0.930358 0.528893
0.043030 0.134340 0.280095
0.081392 0.135225 0.290898
0.185672 0.131014 0.326818
0.335912 0.108980 0.324987
0.584741 0.000000 0.328649
0.745052 0.143465 0.325994
0.878630 0.338933 0.373266
0.972839 0.473671 0.408606
0.067384 0.155612 0.282261
0.078340 0.150454 0.292882
0.179446 0.150301 0.326574
0.335363 0.135164 0.329015
0.579034 0.049897 0.330358
0.737240 0.209628 0.340276
0.877104 0.355230 0.375128
0.972290 0.482277 0.407202
0.053040 0.194675 0.284092
0.083955 0.196536 0.285435
0.152987 0.201602 0.316930
0.328283 0.210636 0.340276
0.560479 0.212192 0.336889
0.738491 0.317357 0.368109
0.881926 0.424018 0.395514
0.973022 0.527276 0.419776
0.000000 0.291478 0.349035
0.000000 0.294347 0.350072
0.109041 0.305150 0.353704
0.311803 0.323857 0.359625
0.549859 0.367346 0.372564
0.740871 0.427405 0.386664
0.879332 0.505425 0.407050
0.969879 0.592035 0.435309
0.000000 0.523796 0.465156
0.000000 0.529992 0.464820
0.000000 0.542473 0.455848
0.312993 0.517937 0.426764
0.544182 0.536797 0.398810
0.752163 0.571710 0.412238
0.880461 0.614527 0.435370
0.966217 0.675776 0.462898
0.000000 0.726833 0.535515
0.000000 0.728511 0.532677
0.000000 0.719478 0.515190
0.314458 0.697993 0.501335
0.497566 0.662440 0.473274
0.724941 0.719326 0.449317
0.882811 0.752804 0.464240
0.962768 0.772702 0.500877
0.000000 0.865476 0.589563
0.000000 0.864683 0.587091
0.000000 0.859159 0.580743
0.342382 0.842557 0.582208
0.525566 0.819913 0.554406
0.680354 0.815976 0.551232
0.852934 0.849454 0.523400
0.960418 0.869749 0.536065
0.000000 0.964843 0.654841
0.000000 0.963745 0.654383
0.000000 0.957702 0.654231
0.416052 0.941985 0.670497
0.619776 0.923796 0.680964
0.714107 0.909545 0.668421
0.830167 0.918181 0.659907
0.937591 0.930785 0.627008
0.000000 0.151522 0.456184
0.000000 0.152438 0.467567
0.136934 0.148257 0.504570
0.430518 0.044587 0.569055
0.600977 0.000000 0.535790
0.780514 0.170871 0.532555
0.885710 0.330663 0.523217
0.949737 0.560235 0.606714
0.000000 0.175479 0.454871
0.000000 0.169528 0.466773
0.127321 0.169558 0.503075
0.420020 0.123568 0.565881
0.597803 0.096712 0.537560
0.776699 0.218448 0.535271
0.882933 0.355383 0.527398
0.949187 0.569116 0.608148
0.000000 0.230350 0.426337
0.000000 0.233188 0.441016
0.080049 0.227970 0.486793
0.379889 0.238834 0.551476
0.585412 0.246220 0.542321
0.760220 0.324590 0.539818
0.870176 0.433417 0.543969
0.948882 0.589807 0.605188
0.000000 0.312535 0.468299
0.000000 0.314183 0.468605
0.058717 0.322362 0.470375
0.311009 0.351110 0.519005
0.566094 0.393408 0.552392
0.736355 0.444984 0.548974
0.855711 0.545983 0.578820
0.951873 0.627771 0.598871
0.000000 0.475044 0.548821
0.000000 0.477821 0.549432
0.000000 0.487007 0.550439
0.277928 0.502403 0.553002
0.530571 0.519310 0.555993
0.721157 0.569726 0.571008
0.859770 0.630030 0.588312
0.951110 0.694697 0.607630
0.000000 0.697169 0.636103
0.000000 0.701198 0.636683
0.000000 0.712703 0.637049
0.217288 0.726162 0.635676
0.536126 0.689387 0.608453
0.714656 0.708766 0.594995
0.865049 0.745266 0.615412
0.949340 0.778561 0.636713
0.000000 0.882444 0.706569
0.000000 0.881010 0.703304
0.000000 0.875364 0.693629
0.253483 0.860777 0.681666
0.559167 0.835019 0.673854
0.683680 0.805325 0.652949
0.845945 0.846464 0.645441
0.948119 0.867063 0.660090
0.000000 0.971649 0.740169
0.000000 0.970550 0.738521
0.000000 0.965393 0.734310
0.308232 0.953826 0.734463
0.598901 0.933165 0.741329
0.726131 0.916045 0.730861
0.827298 0.914488 0.730983
0.931579 0.930022 0.714382
0.000000 0.182162 0.644495
0.000000 0.183444 0.651301
0.000000 0.181765 0.672999
0.414618 0.155489 0.712123
0.676265 0.134463 0.748562
0.782589 0.238010 0.704463
0.894865 0.440070 0.713161
0.956359 0.572686 0.718166
0.000000 0.204593 0.638148
0.000000 0.201511 0.644770
0.000000 0.203891 0.667628
0.405097 0.192142 0.706630
0.672023 0.194858 0.746456
0.778500 0.275090 0.704067
0.891966 0.458045 0.713893
0.954742 0.582055 0.718929
0.000000 0.282689 0.619196
0.000000 0.282963 0.628321
0.000000 0.269749 0.656519
0.381689 0.288884 0.696834
0.666438 0.335882 0.747494
0.771084 0.383337 0.709316
0.884825 0.518425 0.719814
0.950378 0.616205 0.723934
0.000000 0.359197 0.601099
0.000000 0.360052 0.599786
0.000000 0.372168 0.614771
0.332280 0.397559 0.674098
0.625513 0.469581 0.731624
0.761196 0.511559 0.719448
0.874723 0.596704 0.727657
0.944427 0.663996 0.728969
0.000000 0.485969 0.652705
0.000000 0.487465 0.652552
0.000000 0.492988 0.651637
0.282170 0.503502 0.649287
0.538048 0.546441 0.687984
0.738033 0.609674 0.719417
0.855833 0.657099 0.720516
0.931456 0.732601 0.742550
0.000000 0.652705 0.708797
0.000000 0.655482 0.709743
0.000000 0.661128 0.709926
0.245823 0.668940 0.709987
0.510613 0.677974 0.709987
0.704067 0.695705 0.714321
0.844938 0.743923 0.730922
0.936095 0.790829 0.746365
0.000000 0.847379 0.779538
0.000000 0.849729 0.780362
0.000000 0.854582 0.781125
0.178317 0.859831 0.782467
0.521141 0.864897 0.784726
0.717464 0.833249 0.761563
0.840818 0.844327 0.752773
0.937102 0.866087 0.768704
0.000000 0.977386 0.828977
0.000000 0.977630 0.828428
0.000000 0.977844 0.826963
0.109957 0.966857 0.820157
0.538354 0.948119 0.812436
0.739315 0.926360 0.809537
0.825467 0.908751 0.798734
0.926940 0.929992 0.797024
0.000000 0.241917 0.790219
0.000000 0.245182 0.795041
0.137667 0.249516 0.805570
0.439734 0.257176 0.824338
0.675166 0.301518 0.848325
0.829679 0.383398 0.857969
0.888029 0.475257 0.822019
0.951659 0.639704 0.831113
0.000000 0.257633 0.781796
0.000000 0.261082 0.786496
0.116274 0.267338 0.797971
0.427466 0.278111 0.817075
0.663752 0.321386 0.841703
0.822202 0.396765 0.852689
0.881804 0.478218 0.816678
0.948394 0.636439 0.826596
0.000000 0.353765 0.773251
0.000000 0.355322 0.777768
0.083803 0.334539 0.790188
0.415747 0.358343 0.810086
0.650660 0.409979 0.835172
0.818173 0.485267 0.852750
0.879179 0.544915 0.822202
0.946960 0.679316 0.834714
0.000000 0.432349 0.747219
0.000000 0.433539 0.750851
0.119997 0.442664 0.766232
0.380682 0.454200 0.795346
0.625208 0.512932 0.824552
0.814511 0.598016 0.855680
0.875242 0.631525 0.830533
0.943328 0.727169 0.840970
0.000000 0.525689 0.755245
0.000000 0.524498 0.752987
0.000000 0.523796 0.747768
0.289342 0.529808 0.746548
0.549004 0.574823 0.795224
0.774472 0.661769 0.839384
0.862486 0.698360 0.830533
0.936645 0.769070 0.841825
0.000000 0.656184 0.790158
0.000000 0.656703 0.789670
0.000000 0.658289 0.787961
0.260533 0.661036 0.785153
0.487892 0.663935 0.778500
0.702235 0.709468 0.809384
0.853574 0.776669 0.838041
0.929198 0.812528 0.841245
0.000000 0.803128 0.828367
0.000000 0.804776 0.828977
0.000000 0.806912 0.828824
0.232059 0.809720 0.828733
0.497078 0.811063 0.826963
0.683131 0.815640 0.826383
0.826871 0.829496 0.830686
0.924010 0.864317 0.845457
0.000000 0.945403 0.874723
0.000000 0.946380 0.875242
0.000000 0.950896 0.878965
0.081605 0.949889 0.879576
0.497658 0.945739 0.879820
0.709926 0.943023 0.882017
0.842771 0.923217 0.869047
0.923400 0.929198 0.865385
0.000000 0.353460 0.890379
0.140841 0.357275 0.891997
0.325017 0.364508 0.894865
0.511162 0.387549 0.901854
0.687678 0.435920 0.910918
0.834806 0.517845 0.921660
0.913573 0.582635 0.921447
0.945220 0.651911 0.894316
0.000000 0.368048 0.886870
0.128298 0.371801 0.888548
0.319493 0.380224 0.891997
0.504845 0.402258 0.898833
0.682338 0.449531 0.908293
0.830533 0.528344 0.919524
0.910887 0.589807 0.919768
0.943420 0.655573 0.893126
0.182345 0.454200 0.878630
0.206485 0.447181 0.880552
0.301274 0.431006 0.884825
0.497536 0.460670 0.894194
0.673030 0.503960 0.903899
0.820981 0.572717 0.915557
0.906462 0.631006 0.918486
0.940673 0.685054 0.894347
0.000000 0.514702 0.865599
0.125246 0.518303 0.867887
0.320775 0.529656 0.873350
0.464942 0.529290 0.885008
0.650324 0.571710 0.896788
0.805325 0.634974 0.910674
0.901518 0.694728 0.918761
0.937896 0.732845 0.898314
0.000000 0.591089 0.850217
0.000000 0.592004 0.850034
0.155337 0.591089 0.851255
0.383764 0.598169 0.864622
0.587335 0.622522 0.883024
0.770199 0.683497 0.900816
0.893919 0.757626 0.918669
0.934569 0.786007 0.903471
0.000000 0.691188 0.868315
0.000000 0.689693 0.867094
0.000000 0.685878 0.863615
0.289647 0.681147 0.858457
0.474586 0.676936 0.850919
0.705257 0.725399 0.885313
0.876402 0.812345 0.916045
0.933440 0.843778 0.912688
0.000000 0.806394 0.889525
0.000000 0.805661 0.888853
0.000000 0.803647 0.887053
0.253208 0.802152 0.884916
0.475196 0.800137 0.881468
0.644495 0.798672 0.876188
0.821744 0.835142 0.897002
0.927642 0.885466 0.916930
0.000000 0.916442 0.912291
0.000000 0.916228 0.912108
0.000000 0.916320 0.912322
0.243076 0.916320 0.913268
0.496193 0.913542 0.912596
0.674434 0.910765 0.911742
0.811337 0.911101 0.911467
0.912505 0.918578 0.914122
