其他预设/【234】港风调色预设/1.3D LUT预设（视频调色-PR-AE-PS-FCPX-达芬奇用）/17.港风色调 __.cube
# Created by Adobe Lightroom plugin Export LUT (1.17.0)
# www.johnrellis.com/lightroom/exportlut.htm
# Preset: 17.港风色调 [素锦印象]
# Color profile: /Library/Application Support/Adobe/Color/Profiles/Recommended/AdobeRGB1998.icc
LUT_3D_SIZE 5
DOMAIN_MIN 0.000000 0.000000 0.000000
DOMAIN_MAX 0.903226 0.903226 0.903226
0.113741 0.143038 0.141299
0.157015 0.149081 0.145266
0.400519 0.141726 0.145846
0.753689 0.150240 0.144381
0.967620 0.379736 0.248692
0.107118 0.189700 0.157809
0.164126 0.189334 0.149569
0.432502 0.206760 0.131075
0.763577 0.245212 0.119142
0.972290 0.427070 0.231724
0.000000 0.436316 0.239658
0.121706 0.429816 0.204440
0.457557 0.445869 0.175143
0.792203 0.483894 0.000000
0.978210 0.558129 0.140322
0.000000 0.770504 0.420630
0.000000 0.768399 0.392279
0.452644 0.716762 0.346014
0.777035 0.752224 0.325017
0.974609 0.778164 0.234623
0.000000 0.972351 0.667720
0.195621 0.966613 0.662959
0.610468 0.939361 0.670649
0.791989 0.910796 0.689570
0.945739 0.931884 0.696162
0.114473 0.149081 0.165713
0.155978 0.153719 0.168063
0.397589 0.163577 0.171603
0.748379 0.198550 0.133700
0.965057 0.384161 0.239567
0.103548 0.190646 0.194064
0.169223 0.196902 0.189181
0.422889 0.216403 0.178195
0.757015 0.268864 0.133883
0.968292 0.426612 0.221103
0.000000 0.442847 0.303655
0.096315 0.442298 0.275303
0.451026 0.440314 0.242191
0.781613 0.470802 0.145113
0.977813 0.560571 0.135866
0.000000 0.772976 0.481788
0.000000 0.770748 0.457679
0.461585 0.729580 0.398138
0.773526 0.751797 0.397528
0.971160 0.779263 0.318151
0.000000 0.973602 0.701259
0.131624 0.968048 0.695003
0.608026 0.945281 0.704128
0.794278 0.911284 0.717861
0.943694 0.932952 0.726619
0.083589 0.165408 0.280583
0.160983 0.174563 0.300053
0.402106 0.179629 0.314611
0.732601 0.268437 0.346654
0.959625 0.448554 0.370886
0.099001 0.211215 0.290776
0.163180 0.221012 0.319554
0.420020 0.252506 0.342290
0.731960 0.373754 0.391455
0.962036 0.480537 0.371710
0.000000 0.406012 0.432959
0.000000 0.414252 0.429908
0.457343 0.452857 0.423590
0.759304 0.508507 0.417365
0.966461 0.593194 0.388190
0.000000 0.774136 0.646632
0.000000 0.781338 0.638727
0.450629 0.761349 0.578820
0.763699 0.753353 0.569879
0.961639 0.778347 0.497230
0.000000 0.976928 0.802060
0.000000 0.973510 0.794095
0.523827 0.955535 0.772946
0.792111 0.919677 0.770687
0.936675 0.933165 0.790249
0.000000 0.205844 0.513725
0.093599 0.217899 0.538262
0.468879 0.273411 0.618830
0.731197 0.320348 0.592096
0.928832 0.572076 0.665278
0.000000 0.264805 0.514488
0.091920 0.264927 0.543481
0.468421 0.337896 0.622797
0.731075 0.395392 0.609033
0.925444 0.609339 0.681300
0.000000 0.393042 0.562982
0.000000 0.397162 0.557549
0.427741 0.463264 0.615930
0.729641 0.565728 0.657710
0.919341 0.713863 0.733486
0.000000 0.683040 0.739162
0.000000 0.686763 0.736782
0.374609 0.703883 0.733730
0.742214 0.748959 0.739559
0.934905 0.797879 0.742763
0.000000 0.966735 0.896025
0.000000 0.966949 0.894835
0.390387 0.966033 0.890379
0.761776 0.943023 0.861662
0.930419 0.935424 0.866331
0.000000 0.315770 0.819394
0.126925 0.331304 0.827878
0.513756 0.405341 0.856229
0.802487 0.587732 0.890623
0.914641 0.622858 0.848051
0.000000 0.377905 0.813046
0.080903 0.367590 0.823087
0.505241 0.444099 0.852659
0.801602 0.627680 0.891691
0.912261 0.650263 0.851957
0.000000 0.462531 0.785092
0.000000 0.466346 0.795712
0.430457 0.519005 0.838193
0.778286 0.685664 0.886351
0.909697 0.732845 0.869535
0.000000 0.680873 0.873289
0.000000 0.675837 0.868406
0.249424 0.659846 0.850797
0.687709 0.725399 0.869230
0.913420 0.842527 0.902373
0.000000 0.911528 0.940276
0.000000 0.911284 0.939422
0.325536 0.911803 0.937560
0.674678 0.912383 0.933288
0.918700 0.931853 0.934997
