其他预设/【234】港风调色预设/1.3D LUT预设（视频调色-PR-AE-PS-FCPX-达芬奇用）/17.港风色调 __.cube
# Created by Adobe Lightroom plugin Export LUT (1.17.0)
# www.johnrellis.com/lightroom/exportlut.htm
# Preset: 17.港风色调 [素锦印象]
# Color profile: /Library/Application Support/Adobe/Color/Profiles/Recommended/AdobeRGB1998.icc
LUT_3D_SIZE 32
0.113741 0.143038 0.141299
0.114870 0.143404 0.141573
0.116732 0.143679 0.141848
0.120302 0.144533 0.142336
0.125673 0.145632 0.143221
0.133181 0.146731 0.143923
0.143282 0.147982 0.144656
0.157015 0.149081 0.145266
0.175021 0.150271 0.145693
0.198276 0.151247 0.146212
0.227909 0.151553 0.146487
0.263432 0.151156 0.146639
0.304662 0.149630 0.146700
0.350744 0.146548 0.146395
0.400519 0.141726 0.145846
0.452674 0.135317 0.144961
0.505760 0.128176 0.143832
0.558373 0.121859 0.142702
0.609430 0.119051 0.141695
0.661830 0.122072 0.141207
0.709773 0.132662 0.141909
0.753689 0.150240 0.144381
0.793668 0.173404 0.148714
0.830076 0.200473 0.155856
0.863127 0.230869 0.166323
0.893217 0.263890 0.179843
0.920653 0.299657 0.197635
0.945373 0.338384 0.220523
0.967620 0.379736 0.248692
0.987243 0.424231 0.283940
1.000000 0.471931 0.326329
1.000000 0.523339 0.377874
0.113832 0.144381 0.141848
0.115145 0.144381 0.141634
0.117128 0.144472 0.141604
0.120974 0.145144 0.142092
0.126528 0.146212 0.143008
0.133913 0.147433 0.143832
0.144167 0.148653 0.144411
0.157809 0.149783 0.145022
0.175723 0.151095 0.145449
0.198886 0.152071 0.145937
0.228244 0.152590 0.146395
0.263554 0.152407 0.146548
0.304448 0.150881 0.146456
0.350347 0.148226 0.145998
0.399756 0.143709 0.145602
0.451606 0.137728 0.144564
0.504509 0.131014 0.143465
0.556786 0.125093 0.142214
0.607965 0.122621 0.141024
0.659632 0.125216 0.140719
0.707179 0.135439 0.141024
0.751064 0.151949 0.143465
0.791073 0.174319 0.147616
0.827604 0.200900 0.154543
0.860929 0.230655 0.164492
0.891356 0.263218 0.178073
0.919036 0.298924 0.195865
0.944030 0.337407 0.218509
0.966491 0.378515 0.246708
0.986358 0.422889 0.281559
1.000000 0.470344 0.323766
1.000000 0.521630 0.374945
0.113832 0.146029 0.142489
0.115175 0.145876 0.142306
0.116854 0.146181 0.142275
0.121431 0.146609 0.141970
0.127291 0.147280 0.142733
0.134890 0.148318 0.143404
0.145022 0.149660 0.144137
0.158724 0.150912 0.144747
0.176669 0.152193 0.145174
0.199954 0.153262 0.145663
0.229038 0.154116 0.146059
0.264378 0.154055 0.146029
0.305241 0.152834 0.145937
0.350988 0.150393 0.145602
0.400183 0.146365 0.144869
0.451911 0.140719 0.143984
0.504417 0.134646 0.142885
0.556634 0.129427 0.141451
0.607965 0.126894 0.140414
0.658930 0.130190 0.139803
0.706233 0.139803 0.140536
0.749966 0.155856 0.142550
0.790005 0.177707 0.146731
0.826596 0.203555 0.153445
0.859983 0.232578 0.163088
0.890471 0.264683 0.176822
0.918303 0.299870 0.194217
0.943389 0.338018 0.216983
0.965972 0.379004 0.245060
0.985931 0.423041 0.279820
1.000000 0.470405 0.322057
1.000000 0.521324 0.373236
0.113619 0.149966 0.144045
0.115450 0.149905 0.143862
0.117037 0.149386 0.143893
0.120851 0.149905 0.143587
0.127993 0.150607 0.142763
0.137179 0.151247 0.142794
0.147738 0.152163 0.143557
0.161501 0.153628 0.144137
0.179507 0.154971 0.144686
0.202762 0.156405 0.144961
0.231968 0.157412 0.145327
0.267185 0.157687 0.145266
0.307805 0.157046 0.145083
0.353155 0.155184 0.144564
0.402136 0.151705 0.143923
0.453407 0.147280 0.142672
0.505669 0.142123 0.141512
0.557397 0.137911 0.140047
0.608637 0.136507 0.138735
0.658564 0.140047 0.137942
0.705104 0.149264 0.138460
0.748470 0.164553 0.140078
0.788510 0.184878 0.144381
0.825376 0.209720 0.150881
0.859251 0.238132 0.160616
0.890166 0.269718 0.174228
0.918242 0.304417 0.192142
0.943542 0.342168 0.214939
0.966125 0.382605 0.243290
0.986023 0.426062 0.277897
1.000000 0.472602 0.320134
1.000000 0.522759 0.370977
0.113344 0.155642 0.146212
0.114900 0.155612 0.146029
0.116823 0.155398 0.145541
0.120638 0.154330 0.145724
0.126802 0.155428 0.144869
0.137026 0.156893 0.143709
0.150118 0.157565 0.143008
0.165408 0.158541 0.143099
0.183658 0.159976 0.143618
0.207218 0.161624 0.143832
0.236393 0.162875 0.144015
0.271427 0.163882 0.143984
0.311955 0.163790 0.143557
0.356909 0.162661 0.142947
0.405493 0.160250 0.142061
0.456672 0.156954 0.140810
0.508568 0.153323 0.139376
0.559930 0.150637 0.137789
0.611597 0.150729 0.136233
0.660426 0.154818 0.135470
0.706142 0.164004 0.135348
0.748898 0.178164 0.137087
0.788571 0.197269 0.140719
0.825315 0.220768 0.147402
0.859068 0.247868 0.157229
0.890043 0.278050 0.171023
0.918151 0.311589 0.188540
0.943389 0.348211 0.211521
0.965972 0.387518 0.239475
0.985901 0.430060 0.274571
1.000000 0.475532 0.316503
1.000000 0.525170 0.367712
0.112551 0.163455 0.149050
0.113619 0.163638 0.148714
0.115541 0.163760 0.148043
0.119570 0.162448 0.146853
0.125948 0.161410 0.147280
0.135317 0.163180 0.146151
0.149722 0.165591 0.144778
0.167025 0.167086 0.143160
0.189242 0.168124 0.142306
0.213657 0.169741 0.142306
0.243168 0.171572 0.142336
0.278325 0.172885 0.142061
0.318364 0.173587 0.141512
0.363165 0.173312 0.140749
0.411536 0.172000 0.139528
0.462135 0.170016 0.137942
0.513695 0.167910 0.136324
0.564752 0.167056 0.134310
0.616052 0.168490 0.132540
0.664057 0.173831 0.131258
0.709133 0.182956 0.131289
0.751492 0.196475 0.132967
0.807858 0.226383 0.138094
0.842649 0.249607 0.146212
0.874266 0.276036 0.157412
0.902953 0.305303 0.172641
0.928893 0.337316 0.191684
0.952178 0.372015 0.216190
0.973053 0.409705 0.245792
0.991547 0.450263 0.281651
1.000000 0.494301 0.325017
1.000000 0.541802 0.376654
0.110323 0.175051 0.153048
0.111757 0.175204 0.152407
0.113497 0.175326 0.151614
0.118227 0.174899 0.150088
0.125185 0.171847 0.149508
0.134340 0.172000 0.149294
0.147677 0.174685 0.147768
0.168093 0.178744 0.145724
0.191287 0.180972 0.143587
0.220554 0.183505 0.141176
0.255314 0.184604 0.139651
0.291081 0.186282 0.139162
0.331701 0.187503 0.138369
0.376379 0.188083 0.137331
0.424109 0.187655 0.135836
0.473884 0.187076 0.133791
0.524071 0.186496 0.131777
0.576287 0.187442 0.129488
0.626520 0.190982 0.127138
0.673976 0.197452 0.125673
0.719387 0.207767 0.125460
0.762295 0.222263 0.126894
0.802304 0.240818 0.131258
0.839048 0.263279 0.138857
0.872251 0.289036 0.150240
0.901823 0.317174 0.165530
0.928161 0.347875 0.185153
0.951629 0.381262 0.209689
0.972625 0.417273 0.239048
0.991150 0.456458 0.275181
1.000000 0.499001 0.318761
1.000000 0.545312 0.370520
0.107118 0.189700 0.157809
0.108278 0.189975 0.157198
0.110445 0.190066 0.156161
0.114992 0.190433 0.154299
0.121431 0.187839 0.150942
0.133181 0.183169 0.152956
0.145846 0.185885 0.151492
0.164126 0.189334 0.149569
0.191226 0.195315 0.147127
0.220676 0.198795 0.143984
0.256291 0.201938 0.140780
0.297398 0.204349 0.136843
0.341283 0.204990 0.134401
0.385412 0.206149 0.132998
0.432502 0.206760 0.131075
0.481300 0.207248 0.129000
0.531945 0.208164 0.126284
0.583062 0.210880 0.123415
0.631281 0.215000 0.120851
0.677455 0.221805 0.118868
0.721553 0.231724 0.117922
0.763577 0.245212 0.119142
0.802914 0.262272 0.123110
0.839139 0.282780 0.130343
0.872038 0.306340 0.141726
0.901457 0.332647 0.157198
0.927764 0.361273 0.176913
0.951232 0.392645 0.201907
0.972290 0.427070 0.231724
0.990906 0.464637 0.268070
1.000000 0.505608 0.311589
1.000000 0.550347 0.363470
0.101747 0.209049 0.163821
0.103395 0.209049 0.163241
0.105318 0.209384 0.162234
0.110231 0.209720 0.160067
0.119600 0.208408 0.156985
0.130556 0.203677 0.154726
0.144594 0.199893 0.156527
0.162203 0.204227 0.154452
0.186252 0.209110 0.151980
0.221256 0.217533 0.148409
0.257450 0.221866 0.144289
0.298924 0.225406 0.139590
0.344976 0.228244 0.134310
0.394934 0.229679 0.128145
0.443214 0.230076 0.125002
0.491585 0.231601 0.122072
0.542199 0.234104 0.118898
0.591455 0.237613 0.115114
0.637781 0.242344 0.112093
0.682368 0.249241 0.109529
0.725338 0.258854 0.108034
0.766384 0.271214 0.108797
0.804868 0.286961 0.112428
0.840421 0.305577 0.119997
0.872862 0.327214 0.131655
0.901946 0.351110 0.147555
0.928069 0.377783 0.167910
0.951446 0.407141 0.193210
0.972381 0.439551 0.223606
0.990997 0.475074 0.260197
1.000000 0.514275 0.304204
1.000000 0.557244 0.355962
0.092958 0.233768 0.171572
0.094759 0.233890 0.170901
0.097414 0.233951 0.169711
0.103120 0.234318 0.167391
0.113039 0.234806 0.163851
0.123720 0.230137 0.157504
0.143130 0.223362 0.159884
0.160891 0.222202 0.160555
0.184054 0.227939 0.157931
0.214633 0.234409 0.154452
0.258030 0.245090 0.149844
0.299992 0.250004 0.144106
0.346410 0.253941 0.137942
0.396521 0.256931 0.130739
0.449531 0.259159 0.122408
0.504570 0.260807 0.113161
0.554192 0.263981 0.108461
0.601678 0.267948 0.104158
0.646326 0.272984 0.100435
0.689265 0.279637 0.097078
0.730587 0.288579 0.095003
0.769955 0.299809 0.095460
0.807004 0.313664 0.098939
0.841428 0.330144 0.106477
0.873167 0.349340 0.118563
0.901946 0.371191 0.135103
0.927977 0.395758 0.156283
0.951446 0.423163 0.182284
0.972503 0.453742 0.214115
0.991211 0.487678 0.251438
1.000000 0.525078 0.296025
1.000000 0.566613 0.349004
0.077821 0.263493 0.181033
0.080476 0.263737 0.180240
0.083680 0.263890 0.178866
0.090913 0.264195 0.176425
0.102785 0.264622 0.172488
0.120272 0.262119 0.167666
0.136355 0.255528 0.162387
0.159915 0.247074 0.166354
0.182620 0.250004 0.165225
0.212436 0.257389 0.161715
0.249973 0.265141 0.157259
0.301640 0.278233 0.151278
0.348486 0.283726 0.143618
0.400122 0.288457 0.135348
0.453986 0.292363 0.125490
0.508263 0.295628 0.114260
0.561608 0.298711 0.100984
0.610864 0.300969 0.089357
0.653742 0.305577 0.084169
0.695186 0.311681 0.079896
0.735225 0.319829 0.076814
0.773678 0.330053 0.076234
0.809934 0.342718 0.079896
0.843717 0.357397 0.088289
0.874846 0.375006 0.101442
0.903166 0.394690 0.120333
0.928771 0.416846 0.143191
0.951934 0.441871 0.170565
0.972839 0.470192 0.203006
0.991455 0.501732 0.241245
1.000000 0.537102 0.286473
1.000000 0.576471 0.339849
0.039521 0.299077 0.192355
0.048402 0.299229 0.191409
0.058228 0.299260 0.190036
0.069856 0.299504 0.187076
0.086122 0.300114 0.182895
0.107424 0.300175 0.177554
0.126040 0.293614 0.168185
0.154940 0.284886 0.169467
0.181582 0.275486 0.174228
0.210941 0.283604 0.170504
0.247593 0.292515 0.166049
0.292821 0.302281 0.160189
0.364385 0.326635 0.152621
0.418402 0.333440 0.142000
0.473518 0.338415 0.130282
0.528222 0.342412 0.116579
0.581018 0.346136 0.100313
0.629877 0.349126 0.080873
0.674830 0.351904 0.050874
0.715206 0.355047 0.026001
0.752712 0.361852 0.018830
0.788510 0.370611 0.019409
0.822354 0.381201 0.032593
0.853910 0.394079 0.059480
0.883207 0.409155 0.079774
0.910002 0.426398 0.103273
0.934325 0.446204 0.129702
0.956390 0.468727 0.160220
0.976318 0.494301 0.194888
0.994232 0.523186 0.234379
1.000000 0.555840 0.281041
1.000000 0.592615 0.335393
0.000000 0.342779 0.206607
0.000000 0.342901 0.205753
0.000000 0.342931 0.204166
0.000000 0.342809 0.200870
0.047089 0.342870 0.196231
0.085725 0.342748 0.189914
0.119600 0.338140 0.183108
0.141848 0.329992 0.172915
0.179751 0.318975 0.178470
0.210880 0.314763 0.181735
0.248539 0.326055 0.177493
0.294530 0.338109 0.171817
0.348913 0.350835 0.164431
0.419104 0.370825 0.154543
0.474922 0.377813 0.141054
0.529564 0.383032 0.126406
0.582116 0.386969 0.109010
0.630121 0.389746 0.089235
0.674586 0.391821 0.063355
0.716732 0.394903 0.000000
0.756619 0.396704 0.000000
0.791470 0.403815 0.000000
0.824399 0.412909 0.000000
0.855375 0.423865 0.000000
0.884092 0.436835 0.018433
0.910491 0.452064 0.074525
0.934630 0.469642 0.107637
0.956512 0.489937 0.141848
0.976410 0.513115 0.179171
0.994324 0.539849 0.220310
1.000000 0.570214 0.268101
1.000000 0.604791 0.323827
0.000000 0.386908 0.221866
0.000000 0.386999 0.220676
0.000000 0.386908 0.219242
0.000000 0.386908 0.215702
0.000000 0.386664 0.210788
0.029114 0.386572 0.204166
0.097292 0.386023 0.197086
0.129549 0.378119 0.183871
0.169986 0.368200 0.182712
0.210575 0.356481 0.189975
0.247196 0.358526 0.190555
0.291447 0.371283 0.185092
0.343450 0.384283 0.177981
0.402686 0.397650 0.168795
0.475868 0.418372 0.157595
0.530907 0.425116 0.141054
0.582483 0.429328 0.123415
0.630060 0.431769 0.103548
0.674037 0.433570 0.079347
0.715908 0.435981 0.027802
0.755825 0.439277 0.000000
0.793271 0.442725 0.000000
0.827085 0.446265 0.000000
0.857481 0.455482 0.000000
0.885710 0.466621 0.000000
0.911711 0.479774 0.000000
0.935485 0.495155 0.076204
0.957153 0.513359 0.120119
0.976959 0.534417 0.161288
0.994812 0.558801 0.205478
1.000000 0.586816 0.254917
1.000000 0.619074 0.312108
0.000000 0.436316 0.239658
0.000000 0.436378 0.238437
0.000000 0.436347 0.237125
0.000000 0.436378 0.233616
0.000000 0.436316 0.228305
0.000000 0.436316 0.221225
0.046967 0.436225 0.213291
0.121706 0.429816 0.204440
0.149447 0.421088 0.187564
0.204349 0.409003 0.195224
0.246555 0.395697 0.203799
0.289250 0.405280 0.200443
0.339178 0.418769 0.194003
0.395941 0.432502 0.185611
0.457557 0.445869 0.175143
0.530999 0.467079 0.162325
0.583429 0.472938 0.143832
0.630243 0.475288 0.123964
0.673884 0.476661 0.101564
0.715419 0.478279 0.072145
0.754910 0.480690 0.000000
0.792203 0.483894 0.000000
0.827115 0.488106 0.000000
0.859281 0.489326 0.000000
0.887358 0.497475 0.000000
0.913054 0.508965 0.000000
0.936736 0.522698 0.000000
0.958404 0.539025 0.088960
0.978210 0.558129 0.140322
0.996094 0.580560 0.189212
1.000000 0.606622 0.242435
1.000000 0.636835 0.302129
0.000000 0.488685 0.260227
0.000000 0.488716 0.258976
0.000000 0.488777 0.257511
0.000000 0.488746 0.253971
0.000000 0.488594 0.248508
0.000000 0.488533 0.241215
0.000000 0.488289 0.233005
0.090608 0.485908 0.224308
0.140322 0.476844 0.207248
0.190066 0.465705 0.201816
0.245182 0.451881 0.210666
0.288426 0.441199 0.218418
0.336126 0.454047 0.212284
0.389990 0.467170 0.204440
0.448646 0.480232 0.194736
0.510277 0.493111 0.182773
0.581140 0.513603 0.169680
0.630213 0.518395 0.150576
0.673854 0.519921 0.129610
0.715358 0.521447 0.105531
0.754757 0.523613 0.073396
0.792111 0.526238 0.000000
0.826841 0.529412 0.000000
0.859281 0.533715 0.000000
0.888975 0.535882 0.000000
0.915618 0.540581 0.000000
0.938842 0.552392 0.000000
0.960204 0.566674 0.009125
0.979706 0.583581 0.113527
0.997345 0.603540 0.170413
1.000000 0.626917 0.227024
1.000000 0.654292 0.288762
0.000000 0.539818 0.282170
0.000000 0.539757 0.281102
0.000000 0.539574 0.279179
0.000000 0.539483 0.275669
0.000000 0.539330 0.270420
0.000000 0.538842 0.262913
0.000000 0.538567 0.254429
0.000000 0.537865 0.245090
0.135378 0.529931 0.234592
0.164492 0.520745 0.209293
0.234745 0.507378 0.218173
0.288273 0.492378 0.228244
0.333806 0.488746 0.232090
0.385382 0.501732 0.225101
0.441505 0.514549 0.216617
0.500450 0.527214 0.206149
0.560601 0.539452 0.193606
0.626703 0.557977 0.181216
0.673487 0.562585 0.162722
0.714656 0.563958 0.141421
0.753719 0.565698 0.117189
0.790677 0.567803 0.085725
0.825284 0.570245 0.009918
0.857572 0.573663 0.000000
0.887541 0.577691 0.000000
0.914855 0.580621 0.000000
0.939879 0.583246 0.000000
0.961364 0.594202 0.000000
0.980743 0.609064 0.070497
0.998260 0.626825 0.146212
1.000000 0.647791 0.208530
1.000000 0.672786 0.274296
0.000000 0.590143 0.306188
0.000000 0.590265 0.305241
0.000000 0.601556 0.309514
0.000000 0.601312 0.305821
0.000000 0.600763 0.300023
0.000000 0.600031 0.292760
0.000000 0.598993 0.283909
0.000000 0.597711 0.273655
0.111757 0.593164 0.264164
0.170504 0.583459 0.243198
0.222751 0.572015 0.230747
0.289372 0.557183 0.241062
0.340795 0.540703 0.252079
0.389502 0.544213 0.251133
0.443305 0.556115 0.243442
0.499611 0.567742 0.234379
0.557000 0.579095 0.223697
0.614069 0.590265 0.211032
0.675135 0.606378 0.199771
0.718990 0.610468 0.182528
0.757015 0.611444 0.160922
0.793057 0.612665 0.137484
0.826963 0.614313 0.109407
0.858488 0.616541 0.070802
0.887541 0.619135 0.000000
0.914458 0.622675 0.000000
0.938933 0.625422 0.000000
0.961517 0.628077 0.000000
0.981811 0.635401 0.000000
0.999176 0.650843 0.114107
1.000000 0.669459 0.187381
1.000000 0.691707 0.257420
0.000000 0.640436 0.333379
0.000000 0.641749 0.333013
0.000000 0.643153 0.332250
0.000000 0.644221 0.329595
0.000000 0.644831 0.324865
0.000000 0.644556 0.318029
0.000000 0.643702 0.309361
0.000000 0.642481 0.299809
0.057313 0.640925 0.289860
0.176211 0.632044 0.278874
0.206119 0.622980 0.247959
0.278477 0.610010 0.252903
0.339971 0.594751 0.263828
0.388281 0.578058 0.275425
0.439368 0.588830 0.269535
0.492775 0.599725 0.261601
0.547356 0.610468 0.252781
0.602350 0.620996 0.242405
0.656916 0.631708 0.230381
0.713893 0.646632 0.220859
0.755367 0.650904 0.205631
0.791318 0.652308 0.185672
0.825071 0.653834 0.163699
0.856504 0.655787 0.139223
0.885527 0.657923 0.109529
0.912322 0.660822 0.065156
0.937133 0.664240 0.000000
0.959777 0.667506 0.000000
0.980621 0.671229 0.000000
1.000000 0.675898 0.065980
1.000000 0.691798 0.162051
1.000000 0.711604 0.239017
0.000000 0.684321 0.359625
0.000000 0.685542 0.359289
0.000000 0.686732 0.358618
0.000000 0.687617 0.356085
0.000000 0.688136 0.351904
0.000000 0.687800 0.345525
0.000000 0.687007 0.337224
0.000000 0.685695 0.328222
0.000000 0.684199 0.318395
0.165469 0.678889 0.309880
0.218936 0.670161 0.287022
0.264622 0.660273 0.268376
0.335851 0.646448 0.279026
0.392035 0.631189 0.290410
0.438972 0.621851 0.297978
0.489662 0.632013 0.291691
0.541405 0.642145 0.284306
0.593927 0.652155 0.275669
0.646418 0.662135 0.265995
0.698085 0.672328 0.255039
0.750973 0.686061 0.247074
0.789883 0.690364 0.234592
0.823362 0.692012 0.215702
0.854551 0.693751 0.196292
0.883360 0.695674 0.175113
0.909972 0.697902 0.150515
0.934600 0.700710 0.121462
0.957519 0.704341 0.080995
0.978393 0.708095 0.085756
0.997589 0.712581 0.118654
1.000000 0.718471 0.153201
1.000000 0.731685 0.217075
0.000000 0.726345 0.387518
0.000000 0.727382 0.387549
0.000000 0.728481 0.386694
0.000000 0.729335 0.384680
0.000000 0.729610 0.380285
0.000000 0.729244 0.374762
0.000000 0.728389 0.367163
0.000000 0.727199 0.358648
0.000000 0.725490 0.349340
0.145541 0.723293 0.340185
0.237156 0.714260 0.330602
0.264805 0.706447 0.298528
0.329320 0.694820 0.297978
0.392889 0.680873 0.309056
0.443793 0.666133 0.320928
0.489967 0.664027 0.324071
0.539574 0.673976 0.318486
0.589960 0.683894 0.312230
0.640620 0.693904 0.304845
0.690669 0.704036 0.297032
0.739742 0.714199 0.287602
0.788663 0.727108 0.282475
0.824643 0.731258 0.273045
0.855497 0.733303 0.256291
0.884001 0.735134 0.238773
0.910185 0.737240 0.220859
0.934447 0.739620 0.200839
0.957000 0.742672 0.179690
0.978180 0.746304 0.155001
0.997009 0.750515 0.170657
1.000000 0.755886 0.202121
1.000000 0.762875 0.238895
0.000000 0.770504 0.420630
0.000000 0.770993 0.420081
0.000000 0.771267 0.419074
0.000000 0.771420 0.416907
0.000000 0.771176 0.412634
0.000000 0.770535 0.407111
0.000000 0.769619 0.400061
0.000000 0.768399 0.392279
0.000000 0.767025 0.384100
0.139223 0.764920 0.375891
0.244205 0.759121 0.370153
0.291600 0.751278 0.347753
0.326696 0.742947 0.323522
0.396674 0.730373 0.334447
0.452644 0.716762 0.346014
0.498024 0.702571 0.358465
0.543236 0.707088 0.357366
0.590600 0.716121 0.352361
0.638148 0.725246 0.347021
0.685664 0.734279 0.340398
0.732113 0.743282 0.333349
0.777035 0.752224 0.325017
0.821286 0.763333 0.321386
0.853178 0.766354 0.314366
0.881193 0.768185 0.298741
0.907134 0.770138 0.283116
0.931151 0.772305 0.267124
0.953582 0.774960 0.251133
0.974609 0.778164 0.234623
0.994324 0.782010 0.216953
1.000000 0.786923 0.244541
1.000000 0.793271 0.281468
0.000000 0.807645 0.452003
0.000000 0.808133 0.451667
0.000000 0.808377 0.450690
0.000000 0.808408 0.448554
0.000000 0.808164 0.444770
0.000000 0.807523 0.439734
0.000000 0.806516 0.433539
0.000000 0.805173 0.426398
0.000000 0.803555 0.418921
0.138521 0.801480 0.411505
0.242741 0.798459 0.405432
0.320409 0.789761 0.398596
0.344793 0.783200 0.367498
0.397772 0.773312 0.361852
0.458228 0.761105 0.373083
0.507500 0.748379 0.385351
0.548577 0.736995 0.396948
0.592981 0.745510 0.393469
0.637934 0.753964 0.389624
0.682734 0.762417 0.385443
0.726955 0.770779 0.380468
0.769924 0.779049 0.374762
0.811063 0.787228 0.368627
0.850797 0.796994 0.366064
0.877531 0.797299 0.358160
0.903105 0.799252 0.344244
0.926970 0.801419 0.331243
0.949218 0.803891 0.318181
0.970062 0.806790 0.305730
0.989715 0.810239 0.293278
1.000000 0.814481 0.287541
1.000000 0.820279 0.324804
0.000000 0.845212 0.487770
0.000000 0.845548 0.487617
0.000000 0.845731 0.486854
0.000000 0.845579 0.484596
0.000000 0.845029 0.481209
0.000000 0.844144 0.476539
0.000000 0.842924 0.470832
0.000000 0.841306 0.464485
0.000000 0.839231 0.457404
0.151888 0.836790 0.450843
0.253330 0.833646 0.445136
0.337530 0.826841 0.443091
0.377935 0.819730 0.422461
0.402289 0.813046 0.394446
0.464881 0.801663 0.404913
0.516533 0.789761 0.416022
0.559289 0.777493 0.428138
0.597742 0.772366 0.435645
0.639399 0.780026 0.432898
0.681422 0.787778 0.430152
0.723049 0.795438 0.427344
0.763790 0.802976 0.423682
0.802914 0.810208 0.419348
0.839872 0.817136 0.413886
0.875090 0.825162 0.412268
0.899840 0.826444 0.409308
0.923156 0.828458 0.397589
0.945006 0.830686 0.386816
0.965515 0.833310 0.376654
0.984833 0.836484 0.368048
1.000000 0.840238 0.360754
1.000000 0.844785 0.370642
0.000000 0.875822 0.520684
0.000000 0.876158 0.520653
0.000000 0.876280 0.520104
0.000000 0.876036 0.518395
0.000000 0.875517 0.515251
0.000000 0.874662 0.511345
0.000000 0.873503 0.506340
0.000000 0.872007 0.500999
0.000000 0.870085 0.495430
0.173678 0.867674 0.490150
0.269627 0.864775 0.485969
0.349310 0.860472 0.483803
0.415717 0.852445 0.480690
0.436439 0.847044 0.452094
0.476539 0.839139 0.442847
0.529473 0.828641 0.453773
0.573938 0.817868 0.465553
0.611505 0.806973 0.478157
0.647944 0.807431 0.482185
0.686732 0.814298 0.480934
0.725246 0.821073 0.479347
0.763241 0.827634 0.477424
0.799771 0.833951 0.474952
0.834592 0.839994 0.471656
0.867338 0.845792 0.467445
0.898253 0.852506 0.466926
0.919707 0.853086 0.465888
0.940978 0.855375 0.457374
0.961059 0.858000 0.450446
0.980011 0.861112 0.445014
0.997772 0.864439 0.441169
1.000000 0.868284 0.439124
0.000000 0.904356 0.556268
0.000000 0.904448 0.555871
0.000000 0.904448 0.555261
0.000000 0.904082 0.553704
0.000000 0.903410 0.551019
0.000000 0.902434 0.547631
0.000000 0.901152 0.543389
0.000000 0.899535 0.539025
0.001282 0.897551 0.534478
0.203281 0.895171 0.530755
0.292271 0.892241 0.527703
0.367712 0.888731 0.526452
0.440833 0.881834 0.529900
0.474739 0.876188 0.513176
0.493507 0.871214 0.486641
0.543297 0.862333 0.493965
0.588251 0.852842 0.504631
0.626642 0.843229 0.516411
0.659297 0.833707 0.529107
0.694270 0.838437 0.530053
0.729732 0.844297 0.529900
0.764797 0.849973 0.529412
0.798642 0.855406 0.528466
0.831205 0.860655 0.526879
0.861875 0.865721 0.524590
0.890654 0.870603 0.521416
0.917937 0.876219 0.521843
0.936706 0.876432 0.522789
0.955840 0.878660 0.517327
0.974273 0.881590 0.514275
0.991577 0.884733 0.512810
1.000000 0.888426 0.514275
0.000000 0.928954 0.591119
0.000000 0.928985 0.590906
0.000000 0.928893 0.590448
0.000000 0.928588 0.589166
0.000000 0.927977 0.587182
0.000000 0.927184 0.584771
0.000000 0.926207 0.582238
0.000000 0.924956 0.579583
0.140902 0.923339 0.577356
0.248997 0.921294 0.575708
0.330114 0.918700 0.575463
0.401312 0.915557 0.576593
0.467262 0.911101 0.580377
0.521752 0.904356 0.580804
0.539300 0.900633 0.557397
0.567681 0.895079 0.545647
0.611688 0.886931 0.555688
0.649653 0.878721 0.566674
0.682368 0.870603 0.578424
0.711421 0.865080 0.588708
0.743191 0.869932 0.589624
0.774624 0.874632 0.590204
0.805173 0.879149 0.590509
0.834592 0.883482 0.590356
0.862486 0.887694 0.589685
0.888792 0.891752 0.588495
0.913695 0.895720 0.586542
0.937346 0.900298 0.587488
0.953307 0.900114 0.590509
0.970031 0.901823 0.586664
0.986542 0.904753 0.587762
1.000000 0.908171 0.591974
0.000000 0.953399 0.631800
0.000000 0.953307 0.631586
0.000000 0.953155 0.631098
0.000000 0.952667 0.630030
0.000000 0.951934 0.628534
0.000000 0.950896 0.626612
0.000000 0.949615 0.624567
0.086152 0.947997 0.622675
0.214298 0.945983 0.621241
0.297826 0.943511 0.620661
0.369177 0.940520 0.621057
0.433570 0.937133 0.622705
0.492378 0.933379 0.625483
0.551293 0.926940 0.632044
0.577905 0.922606 0.618708
0.593591 0.919188 0.597284
