其他预设/【234】港风调色预设/1.3D LUT预设（视频调色-PR-AE-PS-FCPX-达芬奇用）/17.港风色调 __.cube
# Created by Adobe Lightroom plugin Export LUT (1.17.0)
# www.johnrellis.com/lightroom/exportlut.htm
# Preset: 17.港风色调 [素锦印象]
# Color profile: /Library/Application Support/Adobe/Color/Profiles/Recommended/AdobeRGB1998.icc
LUT_3D_SIZE 8
DOMAIN_MIN 0.000000 0.000000 0.000000
DOMAIN_MAX 0.903226 0.903226 0.903226
0.113741 0.143038 0.141299
0.125673 0.145632 0.143221
0.175021 0.150271 0.145693
0.304662 0.149630 0.146700
0.505760 0.128176 0.143832
0.709773 0.132662 0.141909
0.863127 0.230869 0.166323
0.967620 0.379736 0.248692
0.113344 0.155642 0.146212
0.126802 0.155428 0.144869
0.183658 0.159976 0.143618
0.311955 0.163790 0.143557
0.508568 0.153323 0.139376
0.706142 0.164004 0.135348
0.859068 0.247868 0.157229
0.965972 0.387518 0.239475
0.101747 0.209049 0.163821
0.119600 0.208408 0.156985
0.186252 0.209110 0.151980
0.344976 0.228244 0.134310
0.542199 0.234104 0.118898
0.725338 0.258854 0.108034
0.872862 0.327214 0.131655
0.972381 0.439551 0.223606
0.000000 0.342779 0.206607
0.047089 0.342870 0.196231
0.179751 0.318975 0.178470
0.348913 0.350835 0.164431
0.582116 0.386969 0.109010
0.756619 0.396704 0.000000
0.884092 0.436835 0.018433
0.976410 0.513115 0.179171
0.000000 0.539818 0.282170
0.000000 0.539330 0.270420
0.135378 0.529931 0.234592
0.333806 0.488746 0.232090
0.560601 0.539452 0.193606
0.753719 0.565698 0.117189
0.887541 0.577691 0.000000
0.980743 0.609064 0.070497
0.000000 0.726345 0.387518
0.000000 0.729610 0.380285
0.000000 0.725490 0.349340
0.329320 0.694820 0.297978
0.539574 0.673976 0.318486
0.739742 0.714199 0.287602
0.884001 0.735134 0.238773
0.978180 0.746304 0.155001
0.000000 0.875822 0.520684
0.000000 0.875517 0.515251
0.000000 0.870085 0.495430
0.415717 0.852445 0.480690
0.573938 0.817868 0.465553
0.725246 0.821073 0.479347
0.867338 0.845792 0.467445
0.961059 0.858000 0.450446
0.000000 0.972351 0.667720
0.000000 0.970764 0.665614
0.277165 0.964508 0.662837
0.523613 0.952270 0.671443
0.645594 0.933043 0.640101
0.767178 0.909483 0.684230
0.863981 0.920684 0.695552
0.945739 0.931884 0.696162
0.114656 0.145541 0.149325
0.125032 0.146883 0.148867
0.174105 0.153933 0.150454
0.305730 0.160464 0.146761
0.504234 0.150088 0.140200
0.700710 0.156374 0.136629
0.855283 0.236271 0.158724
0.963561 0.375586 0.240726
0.112703 0.156008 0.155550
0.127779 0.157321 0.154147
0.181460 0.163821 0.152895
0.313268 0.172000 0.147036
0.510338 0.170840 0.135744
0.701595 0.182864 0.130831
0.853056 0.253666 0.151095
0.961852 0.383185 0.231540
0.099275 0.209720 0.176883
0.119783 0.211215 0.172305
0.187991 0.211429 0.165377
0.341588 0.225040 0.148074
0.536034 0.238590 0.126284
0.717830 0.266392 0.104524
0.863096 0.325292 0.124758
0.967407 0.432837 0.214542
0.000000 0.340978 0.223606
0.044984 0.341924 0.215030
0.181125 0.327520 0.191714
0.342382 0.345281 0.182925
0.562493 0.373205 0.136934
0.739681 0.385748 0.053101
0.873930 0.430671 0.000977
0.971679 0.506340 0.170169
0.000000 0.538781 0.302342
0.000000 0.537713 0.290990
0.133761 0.533227 0.258030
0.332403 0.482277 0.248997
0.550958 0.530571 0.215305
0.744747 0.557763 0.150912
0.881926 0.570977 0.000000
0.978088 0.605463 0.060243
0.000000 0.722377 0.404028
0.000000 0.721981 0.394934
0.000000 0.718532 0.364904
0.324468 0.692897 0.310216
0.536980 0.669337 0.334936
0.736721 0.711879 0.309392
0.880858 0.733089 0.264286
0.975677 0.743648 0.185336
0.000000 0.871244 0.530724
0.000000 0.869596 0.523644
0.000000 0.865141 0.504570
0.413764 0.850309 0.494362
0.572625 0.817227 0.474617
0.722042 0.817929 0.490120
0.863157 0.842557 0.478035
0.957794 0.855283 0.459968
0.000000 0.971038 0.674159
0.000000 0.969757 0.672541
0.260838 0.963775 0.669306
0.515831 0.951781 0.676661
0.650538 0.935393 0.654200
0.769192 0.911070 0.692775
0.862974 0.920165 0.702205
0.944244 0.931090 0.701503
0.113527 0.150423 0.174868
0.125154 0.151949 0.176547
0.174868 0.157046 0.179294
0.301823 0.163851 0.184878
0.503838 0.164828 0.183200
0.707515 0.192935 0.167971
0.863279 0.268132 0.152163
0.967712 0.391089 0.242191
0.117006 0.162417 0.180453
0.128145 0.164034 0.184512
0.179965 0.170443 0.186099
0.305394 0.187381 0.195560
0.508110 0.185336 0.186618
0.707057 0.213291 0.168673
0.862119 0.284123 0.144808
0.967254 0.400488 0.235019
0.094331 0.209873 0.215488
0.114748 0.211398 0.213993
0.194064 0.219455 0.209201
0.335027 0.233005 0.204959
0.533776 0.248966 0.193668
0.719448 0.283085 0.171389
0.867857 0.346471 0.133303
0.969940 0.442603 0.214786
0.000000 0.347906 0.282170
0.000000 0.354162 0.279667
0.174655 0.355749 0.255497
0.352514 0.354955 0.243046
0.567071 0.371740 0.206943
0.738430 0.393561 0.175875
0.876219 0.444495 0.140719
0.975067 0.515373 0.172580
0.000000 0.547448 0.370214
0.000000 0.547662 0.361669
0.097017 0.545373 0.332708
0.350378 0.510826 0.302983
0.558831 0.539178 0.290929
0.744991 0.560204 0.242649
0.881773 0.570062 0.171756
0.979492 0.611139 0.111940
0.000000 0.727901 0.467689
0.000000 0.727474 0.460273
0.000000 0.723568 0.434211
0.364752 0.705715 0.400000
0.542168 0.668116 0.396582
0.733364 0.711238 0.381628
0.876280 0.733577 0.345037
0.973877 0.745846 0.280095
0.000000 0.875334 0.585229
0.000000 0.873991 0.579339
0.000000 0.868711 0.560021
0.397345 0.856413 0.542077
0.577905 0.825162 0.517266
0.723110 0.817472 0.540276
0.861234 0.844816 0.537652
0.955444 0.859617 0.524743
0.000000 0.972778 0.709499
0.000000 0.971283 0.706081
0.207156 0.965301 0.700343
0.497261 0.953887 0.704494
0.668788 0.936095 0.702388
0.771450 0.914641 0.714839
0.862058 0.920439 0.729274
0.942260 0.932189 0.731685
0.100954 0.158785 0.234897
0.117952 0.161227 0.240116
0.187961 0.170352 0.256046
0.307225 0.170718 0.256260
0.498787 0.176577 0.265537
0.691798 0.248722 0.291356
0.852354 0.313054 0.282292
0.968017 0.398016 0.255192
0.108919 0.176303 0.243717
0.119783 0.175021 0.249912
0.192905 0.186130 0.264469
0.313878 0.189609 0.264775
0.503227 0.203983 0.274601
0.693446 0.267277 0.295140
0.852110 0.328923 0.284642
0.968017 0.408515 0.254185
0.092805 0.215488 0.267765
0.116091 0.217777 0.267430
0.193759 0.232578 0.282170
0.331395 0.253422 0.291417
0.517784 0.289860 0.307897
0.708095 0.332219 0.311803
0.861997 0.391577 0.299840
0.971557 0.457923 0.264317
0.000000 0.329076 0.348028
0.000000 0.331243 0.346960
0.162325 0.341344 0.343816
0.357824 0.363287 0.338750
0.549493 0.387243 0.334386
0.723293 0.421790 0.325322
0.866453 0.471565 0.309941
0.972290 0.532433 0.281621
0.000000 0.535393 0.458045
0.000000 0.539666 0.456703
0.000000 0.556634 0.450690
0.346136 0.552697 0.413092
0.562219 0.546532 0.400366
0.741665 0.560327 0.362066
0.876127 0.581872 0.330999
0.973541 0.628290 0.311009
0.000000 0.741787 0.577264
0.000000 0.744137 0.573114
0.000000 0.739437 0.547112
0.336675 0.727077 0.510002
0.560693 0.685573 0.489052
0.731991 0.716152 0.491005
0.870939 0.737362 0.458930
0.970184 0.746944 0.395727
0.000000 0.881224 0.670527
0.000000 0.880766 0.665827
0.000000 0.877256 0.649104
0.357916 0.866606 0.625544
0.595727 0.842557 0.605127
0.725704 0.818967 0.614313
0.856992 0.847135 0.617182
0.950347 0.862608 0.603937
0.000000 0.976410 0.770565
0.000000 0.975402 0.767941
0.000000 0.970733 0.758419
0.442634 0.959655 0.749477
0.663722 0.942565 0.754147
0.771695 0.921599 0.747646
0.859648 0.920531 0.766812
0.939208 0.933501 0.772335
0.030579 0.173831 0.334325
0.084352 0.176761 0.341192
0.182681 0.186862 0.363958
0.347631 0.205753 0.401251
0.506157 0.195926 0.385626
0.690120 0.246921 0.396551
0.837858 0.384405 0.444007
0.945495 0.521691 0.499611
0.071656 0.195010 0.341863
0.085664 0.191409 0.349218
0.186404 0.203250 0.371191
0.355596 0.229801 0.411627
0.509819 0.222141 0.393072
0.691554 0.275669 0.405432
0.836606 0.414374 0.458991
0.946105 0.528283 0.499641
0.079591 0.233921 0.341070
0.105806 0.239261 0.351415
0.185031 0.250980 0.383642
0.360479 0.292149 0.426490
0.520165 0.301061 0.418006
0.692683 0.358862 0.433082
0.832303 0.490883 0.498604
0.947753 0.547936 0.496101
0.000000 0.319158 0.412634
0.000000 0.321111 0.411810
0.168460 0.330816 0.409277
0.349310 0.372595 0.439857
0.537377 0.417914 0.462165
0.698939 0.478859 0.486488
0.842466 0.540917 0.506767
0.954498 0.582452 0.484108
0.000000 0.487587 0.523674
0.000000 0.489998 0.523186
0.000000 0.498817 0.520775
0.320806 0.516594 0.518334
0.552331 0.544884 0.516289
0.717494 0.573938 0.515587
0.854978 0.611444 0.510796
0.958251 0.654231 0.494667
0.000000 0.684596 0.627893
0.000000 0.691341 0.631373
0.000000 0.711574 0.640162
0.212009 0.727260 0.633600
0.540887 0.714778 0.594476
0.721126 0.713436 0.593256
0.861692 0.732265 0.564782
0.960784 0.749020 0.530480
0.000000 0.877897 0.759335
0.000000 0.878965 0.757961
0.000000 0.883268 0.753079
0.227237 0.875639 0.727749
0.552789 0.857694 0.696101
0.722255 0.822324 0.682063
0.849149 0.846921 0.693812
0.944152 0.861875 0.676844
0.000000 0.979034 0.836790
0.000000 0.977996 0.834348
0.000000 0.973907 0.825711
0.353185 0.966369 0.813535
0.598138 0.951690 0.797696
0.765408 0.931609 0.790249
0.853788 0.919127 0.804074
0.934966 0.933867 0.811917
0.000000 0.198245 0.474769
0.000000 0.201663 0.482277
0.160128 0.213474 0.507042
0.356359 0.238743 0.553796
0.556085 0.268528 0.584314
0.693874 0.285924 0.550805
0.833005 0.402014 0.567651
0.931548 0.571069 0.641352
0.000000 0.219242 0.476143
0.000000 0.215854 0.483284
0.162142 0.229191 0.508324
0.356268 0.257542 0.553887
0.557855 0.295018 0.588586
0.693080 0.310277 0.555077
0.831693 0.421790 0.573724
0.930297 0.582361 0.646418
0.000000 0.268803 0.474556
0.000000 0.272221 0.484138
0.158785 0.277470 0.516564
0.357763 0.316838 0.562280
0.571832 0.383459 0.613184
0.696681 0.390234 0.576959
0.830655 0.488228 0.599084
0.927764 0.623316 0.667170
0.000000 0.333532 0.496895
0.000000 0.334936 0.494942
0.159152 0.346563 0.498268
0.342077 0.393225 0.566888
0.576989 0.487129 0.634760
0.703975 0.504356 0.615778
0.831357 0.580377 0.640772
0.922972 0.692958 0.708309
0.000000 0.467201 0.596124
0.000000 0.468635 0.595148
0.000000 0.474189 0.591699
0.301549 0.486549 0.585290
0.532189 0.545281 0.620905
0.704463 0.608301 0.652277
0.828824 0.668757 0.681605
0.928801 0.725032 0.706477
0.000000 0.643610 0.696986
0.000000 0.646082 0.697444
0.000000 0.652094 0.696101
0.260410 0.663020 0.694331
0.504356 0.680293 0.692927
0.709529 0.712459 0.698756
0.841703 0.742916 0.704402
0.940124 0.773861 0.701381
0.000000 0.822904 0.791135
0.000000 0.825284 0.791836
0.000000 0.831815 0.792569
0.199374 0.854246 0.805539
0.477363 0.865690 0.804654
0.709163 0.851926 0.775143
0.841886 0.848569 0.774990
0.939147 0.860349 0.755093
0.000000 0.971099 0.887053
0.000000 0.971069 0.886442
0.000000 0.970886 0.884459
0.240696 0.970489 0.881468
0.524254 0.961425 0.867796
0.730983 0.944244 0.848325
0.848661 0.920653 0.844144
0.931426 0.935241 0.855802
0.000000 0.239414 0.648493
0.000000 0.243900 0.655787
0.129488 0.258427 0.674861
0.366064 0.289464 0.708827
0.583978 0.362493 0.753323
0.732753 0.404547 0.756954
0.828000 0.449683 0.717220
0.921630 0.580743 0.739773
0.000000 0.257816 0.642969
0.000000 0.256046 0.650416
0.126772 0.271031 0.669886
0.361395 0.303014 0.703151
0.578027 0.375250 0.747738
0.727871 0.419379 0.753628
0.822751 0.457435 0.713649
0.917998 0.581811 0.735927
0.000000 0.314336 0.640803
0.000000 0.317815 0.648341
0.111330 0.315892 0.670344
0.358190 0.354528 0.704219
0.575616 0.431159 0.748653
0.732296 0.493996 0.766323
0.824033 0.518486 0.730587
0.918151 0.627405 0.755245
0.000000 0.368688 0.621424
0.000000 0.372045 0.627619
0.110506 0.387854 0.652522
0.331212 0.419532 0.700038
0.564294 0.502556 0.748531
0.741848 0.596857 0.789303
0.826261 0.602228 0.756771
0.917174 0.687160 0.779599
0.000000 0.474067 0.685481
0.000000 0.473030 0.682277
0.000000 0.471901 0.673548
0.252171 0.472999 0.658320
0.506950 0.546899 0.728603
0.730831 0.667079 0.795773
0.822263 0.678126 0.777279
0.914305 0.748928 0.803769
0.000000 0.625849 0.770962
0.000000 0.626093 0.769863
0.000000 0.626978 0.766049
0.199496 0.628717 0.758938
0.443000 0.633112 0.745205
0.678096 0.698756 0.778164
0.826291 0.767666 0.811978
0.914458 0.817777 0.836423
0.000000 0.787564 0.841703
0.000000 0.788998 0.842008
0.000000 0.791836 0.841062
0.173800 0.796933 0.839841
0.456428 0.803586 0.836820
0.659510 0.816190 0.835264
0.828061 0.842893 0.842527
0.924651 0.865202 0.848325
0.000000 0.927245 0.901732
0.000000 0.927886 0.901823
0.000000 0.931762 0.903868
0.269047 0.935485 0.905089
0.497719 0.945098 0.911131
0.681788 0.949462 0.912383
0.838590 0.938750 0.896391
0.927916 0.936400 0.898558
0.000000 0.315770 0.819394
0.000000 0.320867 0.822721
0.198215 0.336706 0.830625
0.414649 0.373877 0.846464
0.608362 0.448432 0.866453
0.773617 0.567498 0.888273
0.859251 0.578332 0.879637
0.914641 0.622858 0.848051
0.000000 0.331456 0.815946
0.000000 0.331182 0.819547
0.191470 0.347662 0.828092
0.409918 0.384405 0.843717
0.604669 0.458228 0.864225
0.770687 0.574548 0.886625
0.856992 0.586999 0.878630
0.912902 0.627802 0.847471
0.000000 0.387304 0.809262
0.000000 0.391882 0.813138
0.154543 0.381811 0.822629
0.399023 0.423743 0.841489
0.598230 0.496345 0.862119
0.765042 0.603815 0.884886
0.855161 0.627863 0.881590
0.911254 0.657710 0.852720
0.000000 0.431891 0.795285
0.000000 0.435767 0.799588
0.123201 0.449836 0.811765
0.353887 0.470588 0.834653
0.576562 0.543297 0.857969
0.754421 0.644953 0.883604
0.854887 0.691310 0.889281
0.910491 0.706203 0.863645
0.000000 0.511254 0.802090
0.000000 0.510338 0.800595
0.000000 0.503136 0.790890
0.223789 0.514946 0.810452
0.505516 0.573358 0.845274
0.722774 0.674037 0.876707
0.853788 0.758480 0.898405
0.909819 0.763241 0.877501
0.000000 0.642054 0.858183
0.000000 0.640040 0.856260
0.000000 0.633845 0.850034
0.032166 0.623346 0.838926
0.361608 0.609888 0.818601
0.651240 0.693111 0.863279
0.851377 0.818570 0.908293
0.913268 0.828885 0.898253
0.000000 0.787198 0.906249
0.000000 0.786496 0.905455
0.000000 0.784085 0.902831
0.000000 0.781216 0.898711
0.375097 0.777310 0.891234
0.579217 0.773007 0.878019
0.797818 0.825681 0.893797
0.914549 0.882078 0.915465
0.000000 0.911528 0.940276
0.000000 0.911376 0.939940
0.000000 0.911376 0.939208
0.161288 0.911742 0.938293
0.440742 0.911681 0.936584
0.631861 0.911955 0.934020
0.791348 0.915831 0.931426
0.918700 0.931853 0.934997
