其他预设/【234】港风调色预设/1.3D LUT预设（视频调色-PR-AE-PS-FCPX-达芬奇用）/20.港风色调 __.cube
# Created by Adobe Lightroom plugin Export LUT (1.17.0)
# www.johnrellis.com/lightroom/exportlut.htm
# Preset: 20.港风色调 [素锦印象]
# Color profile: /Library/Application Support/Adobe/Color/Profiles/Recommended/AdobeRGB1998.icc
LUT_3D_SIZE 8
DOMAIN_MIN 0.000000 0.000000 0.000000
DOMAIN_MAX 0.903226 0.903226 0.903226
0.123018 0.125093 0.135103
0.128115 0.125216 0.135470
0.170565 0.125216 0.135744
0.299413 0.122103 0.133974
0.501640 0.107851 0.128450
0.688746 0.085542 0.127962
0.824949 0.108705 0.158267
0.919768 0.189181 0.232395
0.124269 0.130343 0.136019
0.129274 0.131441 0.136812
0.167788 0.137881 0.138338
0.295323 0.150393 0.138003
0.496925 0.158968 0.133242
0.683345 0.159121 0.135866
0.820768 0.175204 0.169772
0.916808 0.233433 0.246586
0.133303 0.179843 0.141512
0.145022 0.180728 0.142885
0.183749 0.185672 0.148318
0.293645 0.220951 0.159274
0.488777 0.265232 0.164858
0.676143 0.288792 0.177401
0.815579 0.307927 0.222629
0.910185 0.350317 0.306523
0.165835 0.332219 0.155978
0.188510 0.331395 0.157870
0.248875 0.329473 0.165011
0.339849 0.339055 0.184482
0.494636 0.385718 0.216495
0.661219 0.426734 0.278630
0.799557 0.452918 0.325719
0.893523 0.489784 0.409125
0.240665 0.536919 0.206149
0.264927 0.534661 0.208560
0.332921 0.527581 0.217258
0.423896 0.520073 0.235172
0.527092 0.518395 0.268284
0.656397 0.542046 0.323919
0.778775 0.577173 0.428626
0.868040 0.622919 0.536217
0.353948 0.690852 0.322148
0.371832 0.690303 0.325536
0.422614 0.683833 0.332036
0.494667 0.672694 0.342382
0.583032 0.663722 0.368139
0.672816 0.658198 0.406806
0.769467 0.672511 0.477760
0.854124 0.707210 0.593164
0.502739 0.794949 0.485542
0.511711 0.793881 0.486885
0.540154 0.789303 0.490089
0.585534 0.781735 0.495857
0.640192 0.771115 0.503502
0.711238 0.765255 0.532555
0.777066 0.760830 0.565759
0.844541 0.773220 0.629297
0.648402 0.861143 0.640101
0.652461 0.860441 0.640406
0.666957 0.858183 0.642573
0.691890 0.854459 0.646784
0.722499 0.848356 0.649866
0.763729 0.843595 0.662135
0.811490 0.841306 0.685603
0.854765 0.840146 0.710109
0.122744 0.125154 0.139254
0.127749 0.125307 0.140108
0.175265 0.121340 0.146639
0.312230 0.096681 0.147585
0.513176 0.003998 0.147341
0.691096 0.000000 0.153536
0.824277 0.057435 0.184604
0.918608 0.178012 0.253269
0.122835 0.132784 0.142550
0.131563 0.133761 0.144503
0.180056 0.136965 0.148440
0.312627 0.138521 0.151736
0.509667 0.132204 0.153262
0.687373 0.128206 0.162173
0.820829 0.154269 0.196017
0.915618 0.225498 0.266453
0.128511 0.184634 0.150393
0.146639 0.187381 0.156954
0.189425 0.191470 0.163394
0.303777 0.225559 0.181460
0.498726 0.262242 0.187533
0.678889 0.280949 0.203067
0.813962 0.300999 0.245121
0.908507 0.347173 0.323186
0.152895 0.338811 0.171572
0.186282 0.338659 0.181582
0.252293 0.336645 0.188876
0.342657 0.341833 0.207065
0.495552 0.385626 0.241672
0.660578 0.424903 0.297063
0.797299 0.450629 0.342046
0.891844 0.488930 0.421057
0.238804 0.541588 0.237644
0.263890 0.538872 0.239231
0.333959 0.530999 0.246342
0.424201 0.520928 0.260685
0.527123 0.518212 0.290867
0.656275 0.542412 0.345251
0.777310 0.578943 0.447120
0.867277 0.623194 0.543969
0.359442 0.691371 0.349584
0.375647 0.689601 0.350927
0.425635 0.683192 0.356146
0.497139 0.672602 0.365759
0.584039 0.663539 0.388464
0.673457 0.658625 0.425299
0.769192 0.673304 0.492744
0.853239 0.708156 0.602411
0.508904 0.793759 0.502037
0.516838 0.792386 0.502525
0.544549 0.788083 0.505333
0.589136 0.780972 0.510765
0.642786 0.770779 0.517540
0.711818 0.764706 0.543664
0.776455 0.760067 0.574182
0.843717 0.772763 0.634974
0.651789 0.860563 0.647974
0.655940 0.859983 0.648524
0.670100 0.857816 0.650385
0.694514 0.854154 0.654200
0.726162 0.848997 0.659144
0.765377 0.843839 0.668910
0.811856 0.841215 0.690364
0.854582 0.839902 0.713466
0.117769 0.125643 0.179965
0.130220 0.125002 0.180026
0.170260 0.126711 0.185733
0.298222 0.109194 0.229007
0.522087 0.000000 0.254826
0.700771 0.000000 0.234195
0.830472 0.000000 0.263828
0.921721 0.126467 0.317845
0.116274 0.141970 0.194919
0.129732 0.137423 0.194400
0.179080 0.139345 0.195193
0.314305 0.124727 0.232761
0.529198 0.000000 0.241917
0.701320 0.000000 0.238682
0.829679 0.000000 0.271092
0.919280 0.195499 0.329717
0.115145 0.207919 0.215610
0.134401 0.208865 0.218173
0.203647 0.205661 0.222293
0.350011 0.216983 0.236057
0.537743 0.227451 0.252567
0.698848 0.243809 0.275608
0.822171 0.277928 0.315496
0.910369 0.340093 0.380224
0.124758 0.360052 0.247135
0.157534 0.361913 0.249332
0.259281 0.361608 0.269474
0.361883 0.360327 0.284550
0.518700 0.400763 0.330205
0.678553 0.429816 0.363378
0.804410 0.453773 0.404120
0.893309 0.493416 0.468727
0.185031 0.558465 0.292576
0.221317 0.557549 0.297246
0.342901 0.548760 0.339818
0.435462 0.534997 0.345617
0.540551 0.530785 0.371344
0.666072 0.553704 0.423316
0.778988 0.592706 0.513024
0.868894 0.628656 0.575189
0.333471 0.701381 0.386511
0.370123 0.698421 0.406073
0.448219 0.689662 0.440406
0.514092 0.678584 0.443793
0.592645 0.667353 0.455787
0.677668 0.662287 0.484657
0.771054 0.678706 0.542382
0.852934 0.714961 0.636316
0.516289 0.797452 0.539544
0.534691 0.795071 0.550896
0.568627 0.789670 0.561913
0.607324 0.782528 0.563714
0.654994 0.772549 0.565545
0.717250 0.765896 0.583001
0.778714 0.762020 0.607843
0.845060 0.776120 0.661280
0.662318 0.861387 0.672541
0.670405 0.860166 0.677272
0.682887 0.858000 0.678004
0.705409 0.854643 0.680873
0.734127 0.849607 0.683406
0.769406 0.844236 0.688960
0.814084 0.841733 0.707210
0.855558 0.840665 0.727626
0.071321 0.124056 0.328527
0.119783 0.121889 0.326116
0.204013 0.116396 0.313878
0.300725 0.109560 0.322972
0.477974 0.104372 0.385870
0.679866 0.000000 0.420630
0.823148 0.000000 0.419409
0.915129 0.107607 0.430426
0.000000 0.144137 0.354223
0.095491 0.141604 0.349523
0.208133 0.135164 0.332341
0.311681 0.133425 0.334447
0.486793 0.148226 0.391852
0.684871 0.000000 0.419837
0.824399 0.000000 0.417792
0.914122 0.168307 0.432471
0.000000 0.276188 0.404425
0.028687 0.269810 0.406683
0.205325 0.226291 0.384375
0.343206 0.223789 0.367193
0.525078 0.240543 0.410437
0.703151 0.212009 0.418555
0.825315 0.232212 0.421180
0.911101 0.317296 0.459052
0.000000 0.420569 0.425025
0.087984 0.418860 0.424994
0.240208 0.409400 0.422705
0.387152 0.383520 0.412970
0.560510 0.396246 0.429267
0.702083 0.413886 0.450568
0.814420 0.441535 0.481025
0.897276 0.484077 0.524895
0.183444 0.582727 0.434943
0.224857 0.580957 0.437232
0.331029 0.574243 0.447517
0.463935 0.558282 0.478004
0.559106 0.547173 0.486336
0.677882 0.573419 0.534234
0.788022 0.602655 0.575921
0.873625 0.628992 0.613397
0.348241 0.713985 0.488289
0.374884 0.712703 0.495216
0.446876 0.705135 0.514549
0.547997 0.690181 0.553399
0.610132 0.675502 0.550500
0.686732 0.670008 0.567803
0.776059 0.688533 0.610834
0.853635 0.724819 0.682765
0.514488 0.804440 0.583185
0.528252 0.802945 0.588678
0.570520 0.797726 0.606165
0.635096 0.787350 0.635279
0.675257 0.777737 0.632959
0.726070 0.769070 0.637629
0.782376 0.765011 0.653895
0.847227 0.780514 0.697536
0.654475 0.866453 0.687617
0.661555 0.865629 0.691066
0.690303 0.861662 0.707332
0.721523 0.856626 0.719692
0.746426 0.851621 0.719539
0.776547 0.845792 0.720180
0.817197 0.842802 0.732235
0.856992 0.841855 0.748318
0.000000 0.119448 0.556603
0.000000 0.113985 0.552300
0.231601 0.095277 0.534783
0.353643 0.069551 0.498238
0.487282 0.055268 0.511162
0.649683 0.164340 0.550042
0.791104 0.240940 0.577111
0.895476 0.293217 0.586145
0.000000 0.152041 0.573114
0.000000 0.148043 0.568841
0.224949 0.134249 0.549340
0.359350 0.116091 0.510765
0.494209 0.120638 0.518090
0.653223 0.210239 0.554070
0.792966 0.269444 0.579370
0.895750 0.314214 0.587518
0.000000 0.315618 0.612421
0.000000 0.302922 0.606561
0.198886 0.256565 0.587823
0.376532 0.237888 0.548028
0.515435 0.247532 0.538811
0.662013 0.327123 0.567834
0.798215 0.349889 0.586938
0.896696 0.375006 0.590600
0.000000 0.489265 0.635950
0.061891 0.486000 0.635431
0.283024 0.474403 0.632502
0.416510 0.424659 0.599145
0.545922 0.409979 0.568963
0.682460 0.451820 0.591638
0.807950 0.450111 0.595483
0.896666 0.461097 0.594659
0.147707 0.635096 0.635035
0.208347 0.632349 0.633906
0.337804 0.621118 0.629725
0.471565 0.599237 0.620264
0.578332 0.563409 0.600275
0.701686 0.571160 0.609552
0.803922 0.583795 0.623041
0.883513 0.605035 0.644251
0.377478 0.727169 0.606409
0.401221 0.725216 0.609522
0.469734 0.717983 0.618585
0.554101 0.706325 0.631769
0.634089 0.688594 0.645899
0.696254 0.677974 0.647089
0.782650 0.700221 0.682155
0.859709 0.727077 0.717800
0.538567 0.810636 0.657557
0.550530 0.809201 0.660639
0.587457 0.804562 0.670497
0.637263 0.797238 0.683131
0.695399 0.785275 0.700038
0.733974 0.772946 0.692927
0.786465 0.768276 0.702510
0.850889 0.785397 0.737514
0.666957 0.869200 0.727596
0.672908 0.868467 0.729702
0.692042 0.866087 0.736263
0.720607 0.862821 0.745754
0.759854 0.855924 0.760433
0.785977 0.849546 0.757595
0.820096 0.844388 0.760494
0.858579 0.843046 0.772061
0.000000 0.133242 0.732845
0.000000 0.129946 0.729702
0.228428 0.117800 0.717708
0.389746 0.096162 0.693965
0.512169 0.065644 0.657374
0.650080 0.141817 0.668330
0.773159 0.308873 0.683253
0.864622 0.451484 0.710475
0.000000 0.177951 0.738186
0.000000 0.175998 0.735012
0.221958 0.167788 0.723079
0.390173 0.153445 0.698787
0.514092 0.133211 0.660182
0.652461 0.190158 0.670405
0.773434 0.336919 0.685267
0.864836 0.463447 0.711910
0.000000 0.337591 0.754574
0.000000 0.319097 0.751858
0.230655 0.304326 0.739864
0.403235 0.292882 0.716121
0.528313 0.269169 0.676356
0.661891 0.309880 0.679469
0.775479 0.420874 0.693812
0.866667 0.501549 0.716670
0.226017 0.526848 0.778256
0.272160 0.524224 0.774685
0.380682 0.514672 0.761715
0.462959 0.476661 0.740414
0.564385 0.443458 0.704280
0.676356 0.454231 0.693263
0.779080 0.527459 0.708888
0.871122 0.553307 0.721798
0.329778 0.657923 0.772122
0.362921 0.657374 0.771511
0.453468 0.655116 0.768978
0.556939 0.649439 0.764034
0.615351 0.605646 0.735958
0.691005 0.581231 0.707179
0.787900 0.612665 0.721859
0.878202 0.608057 0.720729
0.417792 0.765713 0.764431
0.440040 0.763699 0.764157
0.502464 0.756069 0.761837
0.578851 0.743038 0.756741
0.649500 0.723690 0.747005
0.711147 0.690578 0.726040
0.800076 0.695247 0.730831
0.874327 0.704982 0.740169
0.567346 0.818387 0.740108
0.578759 0.817502 0.741604
0.613031 0.814237 0.745693
0.658930 0.808530 0.751766
0.706233 0.799985 0.756863
0.753536 0.785031 0.761044
0.793606 0.774319 0.757259
0.856931 0.793851 0.785031
0.685145 0.873625 0.775814
0.690486 0.873014 0.777218
0.707729 0.871153 0.781491
0.733547 0.868376 0.787594
0.763333 0.864439 0.793423
0.799039 0.856687 0.801511
0.824216 0.847654 0.794522
0.861479 0.845487 0.801541
0.000000 0.194095 0.842008
0.000000 0.197024 0.841550
0.242557 0.201114 0.834623
0.402747 0.205661 0.821256
0.535088 0.204349 0.798978
0.648585 0.213138 0.775906
0.766323 0.294926 0.777859
0.854459 0.454627 0.781308
0.000000 0.232547 0.839078
0.000000 0.235111 0.838407
0.243839 0.237888 0.831754
0.401862 0.239689 0.818143
0.531792 0.233585 0.794980
0.642237 0.232242 0.769406
0.759091 0.303899 0.770962
0.848661 0.451850 0.775204
0.111635 0.370275 0.847562
0.179507 0.370245 0.845640
0.305364 0.368780 0.838102
0.434394 0.365576 0.824826
0.548791 0.349950 0.801785
0.650019 0.332219 0.773434
0.765194 0.392767 0.776730
0.851957 0.513573 0.783749
0.406195 0.567376 0.854856
0.426154 0.566979 0.852262
0.467781 0.555810 0.844877
0.517082 0.530205 0.834653
0.594903 0.506371 0.814481
0.669917 0.465949 0.783078
0.774441 0.506249 0.785458
0.854154 0.586450 0.792721
0.489052 0.682734 0.856229
0.504814 0.682795 0.855039
0.556603 0.684810 0.852598
0.611658 0.675044 0.843046
0.642176 0.636011 0.825254
0.693172 0.593225 0.795315
0.774868 0.595819 0.785916
0.853178 0.656001 0.798886
0.542565 0.769070 0.847868
0.555810 0.768765 0.847593
0.596124 0.767636 0.846525
0.652522 0.765682 0.845396
0.710658 0.760464 0.842924
0.741207 0.725032 0.822965
0.788540 0.698543 0.798856
0.859739 0.724544 0.809873
0.598779 0.843809 0.843259
0.609400 0.843229 0.843626
0.637903 0.839597 0.842863
0.679103 0.833768 0.841611
0.722133 0.823911 0.837461
0.764858 0.809049 0.829770
0.801236 0.780697 0.810819
0.869322 0.784634 0.814267
0.694759 0.875761 0.825223
0.699886 0.875425 0.825864
0.721309 0.875883 0.830472
0.747799 0.874846 0.834318
0.777676 0.872557 0.838041
0.806790 0.867796 0.840421
0.836332 0.857298 0.840330
0.865293 0.848722 0.835874
0.098634 0.278264 0.901305
0.170718 0.282658 0.900633
0.292424 0.290318 0.895872
0.421698 0.306035 0.888731
0.540642 0.318456 0.876921
0.644190 0.316228 0.859068
0.744259 0.344610 0.847593
0.839353 0.417456 0.846281
0.141604 0.310521 0.899962
0.196384 0.314549 0.899321
0.305943 0.320897 0.894926
0.427649 0.332158 0.887327
0.542840 0.340581 0.875578
0.644038 0.334874 0.857694
0.741756 0.354925 0.845029
0.836820 0.423560 0.843870
0.269566 0.417182 0.899870
0.296788 0.419165 0.898924
0.365820 0.418982 0.894133
0.469368 0.429419 0.888426
0.565209 0.426917 0.876585
0.652888 0.408698 0.858427
0.743282 0.410986 0.843870
0.836301 0.468574 0.843534
0.472145 0.584283 0.899443
0.476722 0.580407 0.899077
0.483223 0.559991 0.896269
0.540978 0.555077 0.890105
0.608820 0.544366 0.879606
0.676326 0.519097 0.863096
0.750210 0.496498 0.845243
0.838651 0.539117 0.845701
0.562615 0.694453 0.902983
0.573877 0.695460 0.902464
0.600488 0.693050 0.899077
0.636164 0.684413 0.893156
0.655634 0.652430 0.884215
0.702602 0.623926 0.868559
0.755550 0.580285 0.845457
0.841520 0.617029 0.848417
0.617884 0.774228 0.899687
0.624598 0.773922 0.899199
0.649012 0.773739 0.898192
0.688594 0.774380 0.897612
0.726436 0.766293 0.893034
0.747646 0.735286 0.881315
0.784451 0.700099 0.860990
0.850889 0.708186 0.857298
0.667536 0.840970 0.895964
0.672663 0.840452 0.895720
0.690150 0.839048 0.895140
0.720729 0.837827 0.895140
0.758846 0.836088 0.895293
0.801022 0.833707 0.895842
0.823423 0.807340 0.883635
0.855924 0.779629 0.862211
0.717586 0.897246 0.896117
0.720821 0.896635 0.895903
0.733394 0.895048 0.895720
0.755581 0.892790 0.895842
0.783230 0.889372 0.895659
0.813474 0.884245 0.894530
0.843900 0.875517 0.890684
0.867704 0.850217 0.873472
