其他预设/【234】港风调色预设/1.3D LUT预设（视频调色-PR-AE-PS-FCPX-达芬奇用）/20.港风色调 __.cube
# Created by Adobe Lightroom plugin Export LUT (1.17.0)
# www.johnrellis.com/lightroom/exportlut.htm
# Preset: 20.港风色调 [素锦印象]
# Color profile: /Library/Application Support/Adobe/Color/Profiles/Recommended/AdobeRGB1998.icc
LUT_3D_SIZE 5
DOMAIN_MIN 0.000000 0.000000 0.000000
DOMAIN_MAX 0.903226 0.903226 0.903226
0.123018 0.125093 0.135103
0.154116 0.125490 0.135744
0.396674 0.116823 0.131991
0.727291 0.084871 0.131838
0.919768 0.189181 0.232395
0.129397 0.160006 0.139101
0.161776 0.163882 0.144106
0.387304 0.220493 0.152956
0.718624 0.258579 0.169863
0.913146 0.318517 0.288334
0.198215 0.436469 0.173678
0.271702 0.430671 0.181765
0.437659 0.433082 0.219791
0.693324 0.494453 0.324437
0.881529 0.559014 0.471595
0.389807 0.722072 0.361822
0.435767 0.716640 0.367987
0.551843 0.697841 0.384924
0.702358 0.687037 0.446754
0.851713 0.724361 0.601190
0.648402 0.861143 0.640101
0.662318 0.858915 0.641871
0.705318 0.851102 0.646845
0.776181 0.843137 0.668238
0.854765 0.840146 0.710109
0.120394 0.125490 0.162844
0.153170 0.126284 0.167330
0.416114 0.000000 0.216129
0.735195 0.000000 0.213107
0.920470 0.143679 0.297215
0.120729 0.176822 0.185214
0.174746 0.176974 0.191318
0.433661 0.192294 0.211673
0.730892 0.213870 0.247318
0.912596 0.307134 0.347051
0.146273 0.456825 0.238041
0.272587 0.452338 0.270817
0.449195 0.443915 0.298863
0.696803 0.504509 0.405707
0.881468 0.564355 0.511070
0.394415 0.728023 0.420996
0.460365 0.720729 0.449226
0.566400 0.702205 0.457038
0.705745 0.689784 0.500847
0.851164 0.729305 0.632624
0.663508 0.861112 0.669368
0.675959 0.858976 0.670466
0.716396 0.852201 0.674586
0.780179 0.843687 0.688197
0.855680 0.840879 0.724239
0.000000 0.121736 0.442725
0.193118 0.109194 0.427375
0.393042 0.084779 0.417456
0.701625 0.114656 0.497353
0.909087 0.193179 0.507652
0.000000 0.257694 0.502434
0.155215 0.207156 0.481666
0.422339 0.199863 0.446906
0.714809 0.245640 0.504448
0.907713 0.297551 0.514366
0.000000 0.539330 0.541161
0.234134 0.529412 0.537804
0.490059 0.480507 0.515007
0.730282 0.502525 0.541192
0.889799 0.549340 0.589685
0.405402 0.745907 0.561944
0.470069 0.738979 0.576898
0.611963 0.716884 0.619226
0.717433 0.699580 0.625422
0.852750 0.742824 0.708919
0.659663 0.867552 0.706081
0.680140 0.865171 0.714382
0.740505 0.856016 0.739925
0.788113 0.845426 0.737301
0.857481 0.842161 0.759243
0.000000 0.143740 0.765103
0.173800 0.136477 0.755703
0.459846 0.109804 0.715145
0.682765 0.179324 0.699275
0.859007 0.470527 0.731319
0.000000 0.282628 0.779263
0.177157 0.279576 0.769070
0.471138 0.262425 0.729152
0.689357 0.299168 0.705470
0.857725 0.518090 0.737819
0.329351 0.603265 0.801114
0.430945 0.606165 0.798306
0.555200 0.555840 0.762966
0.700984 0.517510 0.716518
0.865721 0.597620 0.744869
0.473915 0.789792 0.788815
0.525933 0.783200 0.786801
0.637293 0.763119 0.779141
0.737423 0.716487 0.750790
0.872526 0.726558 0.760403
0.689998 0.874907 0.788418
0.707088 0.873228 0.792447
0.752193 0.868589 0.802029
0.808865 0.857115 0.811734
0.862333 0.846250 0.809720
0.098634 0.278264 0.901305
0.260319 0.287694 0.897307
0.482979 0.313481 0.883574
0.667933 0.313115 0.853635
0.839353 0.417456 0.846281
0.237949 0.387762 0.900511
0.327703 0.392432 0.896666
0.508385 0.403265 0.883146
0.671962 0.381292 0.852934
0.837461 0.458289 0.844572
0.520439 0.641810 0.900847
0.553063 0.640589 0.897154
0.600183 0.604547 0.886107
0.698970 0.555993 0.858213
0.839231 0.575402 0.846250
0.635828 0.794217 0.899687
0.657618 0.793668 0.898741
0.722499 0.793484 0.897887
0.767575 0.753872 0.881102
0.852323 0.727291 0.858732
0.717586 0.897246 0.896117
0.729213 0.895506 0.895720
0.769009 0.891264 0.895872
0.821195 0.882597 0.893980
0.867704 0.850217 0.873472
