其他预设/【234】港风调色预设/1.3D LUT预设（视频调色-PR-AE-PS-FCPX-达芬奇用）/20.港风色调 __.cube
# Created by Adobe Lightroom plugin Export LUT (1.17.0)
# www.johnrellis.com/lightroom/exportlut.htm
# Preset: 20.港风色调 [素锦印象]
# Color profile: /Library/Application Support/Adobe/Color/Profiles/Recommended/AdobeRGB1998.icc
LUT_3D_SIZE 32
0.123018 0.125093 0.135103
0.123262 0.125032 0.135103
0.123659 0.125185 0.135256
0.125032 0.125154 0.135225
0.128115 0.125216 0.135470
0.133852 0.125429 0.135470
0.142458 0.125429 0.135744
0.154116 0.125490 0.135744
0.170565 0.125216 0.135744
0.192905 0.125063 0.135592
0.222416 0.124208 0.135225
0.258091 0.123201 0.134798
0.299413 0.122103 0.133974
0.346197 0.119905 0.133181
0.396674 0.116823 0.131991
0.449134 0.112581 0.130404
0.501640 0.107851 0.128450
0.552483 0.101747 0.126833
0.600214 0.095247 0.126131
0.646113 0.090639 0.125978
0.688746 0.085542 0.127962
0.727291 0.084871 0.131838
0.762570 0.088991 0.138064
0.795010 0.096742 0.147097
0.824949 0.108705 0.158267
0.852140 0.124178 0.172152
0.876799 0.143160 0.189120
0.899260 0.164645 0.209110
0.919768 0.189181 0.232395
0.938415 0.217533 0.259495
0.955352 0.249607 0.291051
0.970672 0.285863 0.326665
0.123171 0.125246 0.135256
0.123415 0.125216 0.135256
0.123629 0.125368 0.135225
0.124910 0.125551 0.135531
0.127749 0.125887 0.135592
0.133761 0.126040 0.135592
0.142306 0.126467 0.135836
0.153780 0.126558 0.135836
0.170077 0.126711 0.135805
0.192599 0.126558 0.135836
0.221897 0.126162 0.135592
0.257420 0.125887 0.134981
0.298772 0.124849 0.134340
0.345403 0.123903 0.133486
0.395636 0.121584 0.132296
0.447913 0.118471 0.130648
0.500542 0.113863 0.129091
0.551232 0.109163 0.127474
0.599115 0.104219 0.126528
0.644953 0.100587 0.126528
0.687190 0.097505 0.128511
0.725917 0.096162 0.132570
0.761318 0.099916 0.138766
0.793881 0.106355 0.147738
0.823850 0.117220 0.158846
0.851194 0.131502 0.173037
0.875975 0.148653 0.189822
0.898528 0.169619 0.210117
0.919097 0.193759 0.233341
0.937804 0.221347 0.260380
0.954833 0.252720 0.291783
0.970153 0.288487 0.327703
0.123354 0.125612 0.135225
0.123568 0.125582 0.135378
0.123720 0.125734 0.135531
0.124788 0.126162 0.135653
0.127565 0.126711 0.135866
0.133486 0.127260 0.136019
0.141939 0.127504 0.136110
0.153567 0.127962 0.136080
0.169711 0.128359 0.136049
0.192111 0.128634 0.136019
0.221164 0.129335 0.135744
0.256748 0.129458 0.135409
0.298100 0.129091 0.134920
0.344610 0.128878 0.134035
0.394903 0.127504 0.132937
0.447150 0.125093 0.131289
0.499702 0.121981 0.129702
0.550469 0.118959 0.128145
0.598260 0.114717 0.127230
0.644038 0.110964 0.127474
0.686397 0.108888 0.129580
0.724971 0.110201 0.133486
0.760464 0.112367 0.139986
0.793088 0.118441 0.148989
0.823209 0.127718 0.160433
0.850523 0.140993 0.174350
0.875334 0.157931 0.191379
0.897948 0.177340 0.211582
0.918608 0.199802 0.235203
0.937346 0.226688 0.262242
0.954376 0.257481 0.293248
0.969726 0.292760 0.329381
0.123751 0.126925 0.135622
0.123934 0.127108 0.135775
0.124392 0.127230 0.135744
0.125399 0.127443 0.136049
0.127901 0.128206 0.136416
0.133089 0.129274 0.136568
0.141421 0.130312 0.136751
0.152865 0.131167 0.136873
0.169039 0.132143 0.136782
0.191287 0.133394 0.136690
0.220462 0.134981 0.136660
0.255802 0.136507 0.136416
0.296849 0.138155 0.135958
0.343603 0.139010 0.135317
0.393683 0.139590 0.133974
0.446052 0.139223 0.132540
0.498421 0.137819 0.131044
0.549279 0.135622 0.129854
0.597131 0.133761 0.129152
0.642542 0.132662 0.129702
0.684810 0.131411 0.131746
0.723415 0.131991 0.136294
0.758938 0.135470 0.142855
0.791806 0.139742 0.152407
0.822080 0.148165 0.163882
0.849699 0.159396 0.178164
0.874632 0.174258 0.195560
0.897337 0.192081 0.216159
0.917937 0.213718 0.239658
0.936675 0.239048 0.266819
0.953674 0.268315 0.298039
0.968963 0.302556 0.334234
0.124269 0.130343 0.136019
0.124697 0.130465 0.136172
0.125307 0.130556 0.136294
0.126802 0.130892 0.136416
0.129274 0.131441 0.136812
0.134127 0.132692 0.137270
0.141299 0.134066 0.137789
0.151858 0.135622 0.138369
0.167788 0.137881 0.138338
0.189914 0.140536 0.138491
0.218936 0.143526 0.138521
0.254246 0.146853 0.138460
0.295323 0.150393 0.138003
0.341955 0.153414 0.137209
0.392035 0.155917 0.136019
0.444190 0.157839 0.134615
0.496925 0.158968 0.133242
0.547814 0.158938 0.132448
0.595880 0.158938 0.132113
0.641169 0.158877 0.133120
0.683345 0.159121 0.135866
0.722042 0.160128 0.140841
0.757504 0.163027 0.147921
0.790372 0.167971 0.157717
0.820768 0.175204 0.169772
0.848447 0.185000 0.184390
0.873472 0.198001 0.202060
0.896178 0.213626 0.222660
0.916808 0.233433 0.246586
0.935485 0.256962 0.274052
0.952453 0.284642 0.305638
0.967712 0.317327 0.341619
0.125338 0.136873 0.136629
0.125948 0.136965 0.136782
0.126802 0.136995 0.136934
0.128725 0.137423 0.137026
0.132021 0.137789 0.137423
0.136385 0.138338 0.138094
0.143099 0.140017 0.138918
0.152987 0.142275 0.139925
0.166903 0.145235 0.141176
0.188357 0.149416 0.141695
0.217166 0.154330 0.141695
0.252750 0.159823 0.141573
0.293767 0.165194 0.141085
0.340185 0.170443 0.140414
0.390173 0.175784 0.139315
0.442512 0.179721 0.138186
0.495125 0.183200 0.137118
0.545922 0.185580 0.136599
0.594232 0.186679 0.137148
0.639673 0.187961 0.138430
0.681910 0.189395 0.142061
0.720668 0.191562 0.147555
0.762478 0.196933 0.157717
0.794827 0.201755 0.168734
0.824613 0.208377 0.181582
0.851560 0.217136 0.197360
0.875853 0.228672 0.215518
0.897887 0.243351 0.236637
0.917906 0.261601 0.261234
0.936126 0.283757 0.288975
0.952575 0.310216 0.320867
0.967376 0.341192 0.356878
0.126802 0.146334 0.137636
0.127687 0.146395 0.137606
0.128695 0.146578 0.137911
0.131197 0.146883 0.138155
0.134859 0.147158 0.138521
0.140414 0.147921 0.139467
0.146761 0.148867 0.140658
0.156100 0.151156 0.141970
0.170596 0.155306 0.143221
0.190524 0.160525 0.145052
0.216342 0.166903 0.147005
0.251957 0.174563 0.146609
0.293278 0.182559 0.146273
0.339849 0.190433 0.145571
0.390051 0.197635 0.144656
0.442206 0.204196 0.143862
0.494667 0.209323 0.143374
0.545739 0.213718 0.143160
0.594293 0.217014 0.144137
0.639857 0.219547 0.146853
0.682460 0.222690 0.150942
0.721706 0.225284 0.157748
0.757809 0.228794 0.166995
0.791104 0.233707 0.178103
0.821592 0.240055 0.192050
0.848936 0.248051 0.208194
0.873472 0.258976 0.226871
0.895689 0.272038 0.248569
0.915801 0.288762 0.273167
0.933959 0.309209 0.301518
0.950378 0.333867 0.333318
0.965118 0.363165 0.369574
0.129397 0.160006 0.139101
0.130251 0.160067 0.139254
0.131655 0.160159 0.139528
0.134707 0.160342 0.139925
0.139193 0.160769 0.140414
0.145144 0.161379 0.141329
0.152834 0.162417 0.142458
0.161776 0.163882 0.144106
0.174197 0.167361 0.145876
0.194430 0.174075 0.147158
0.220645 0.182101 0.149538
0.251926 0.190677 0.152285
0.290623 0.200381 0.154025
0.336919 0.210697 0.153475
0.387304 0.220493 0.152956
0.439216 0.229343 0.152285
0.491798 0.236851 0.152041
0.542809 0.242893 0.152621
0.591089 0.247593 0.154330
0.636713 0.251591 0.157443
0.679530 0.255100 0.162600
0.718624 0.258579 0.169863
0.754788 0.262577 0.179477
0.788144 0.267216 0.191470
0.818753 0.273167 0.205722
0.846220 0.280858 0.222385
0.870817 0.290654 0.241245
0.893065 0.302892 0.263249
0.913146 0.318517 0.288334
0.931304 0.337530 0.316869
0.947692 0.360662 0.348852
0.962402 0.388525 0.384894
0.133303 0.179843 0.141512
0.134524 0.179965 0.141634
0.136080 0.180179 0.141909
0.139803 0.180240 0.142275
0.145022 0.180728 0.142885
0.151980 0.181216 0.143587
0.160922 0.182284 0.144930
0.171695 0.183841 0.146304
0.183749 0.185672 0.148318
0.199954 0.190402 0.150515
0.225620 0.199619 0.152651
0.257023 0.209873 0.155428
0.293645 0.220951 0.159274
0.335119 0.232242 0.163821
0.383825 0.244450 0.164920
0.436286 0.255650 0.164645
0.488777 0.265232 0.164858
0.539605 0.273014 0.165988
0.587579 0.279210 0.168215
0.633417 0.284092 0.171939
0.676143 0.288792 0.177401
0.715450 0.292729 0.185275
0.751736 0.296910 0.195529
0.785000 0.302037 0.208042
0.815579 0.307927 0.222629
0.843198 0.315221 0.239628
0.867887 0.324315 0.259068
0.890105 0.335729 0.281468
0.910185 0.350317 0.306523
0.928344 0.368139 0.334966
0.944610 0.390143 0.367254
0.959228 0.416480 0.403113
0.138491 0.207279 0.144045
0.139803 0.207340 0.144320
0.141939 0.207340 0.144411
0.146426 0.207523 0.144747
0.152834 0.207889 0.145296
0.161196 0.208316 0.146242
0.170901 0.208804 0.147433
0.183474 0.210422 0.149081
0.197513 0.212314 0.151217
0.212802 0.214603 0.153872
0.232425 0.220035 0.156710
0.262486 0.231113 0.159457
0.299351 0.243778 0.163333
0.340154 0.256718 0.168551
0.384924 0.269657 0.175082
0.432532 0.282231 0.181674
0.485054 0.293889 0.182254
0.536004 0.303593 0.183566
0.584039 0.311192 0.186069
0.629908 0.317449 0.190036
0.672724 0.322698 0.196262
0.711727 0.327459 0.204288
0.747921 0.332036 0.214939
0.781186 0.337011 0.227481
0.811734 0.343084 0.242313
0.839384 0.350103 0.259831
0.864225 0.358679 0.279515
0.886503 0.369909 0.302159
0.906645 0.383673 0.327611
0.924773 0.400641 0.356420
0.941070 0.421454 0.388464
0.955657 0.446448 0.424353
0.145296 0.241825 0.146853
0.147097 0.241917 0.147097
0.149691 0.241855 0.147189
0.154696 0.242100 0.147951
0.162417 0.242161 0.148470
0.171969 0.242405 0.149508
0.183597 0.242679 0.150729
0.196902 0.243565 0.152377
0.213016 0.245426 0.154726
0.230289 0.247593 0.157717
0.248631 0.250095 0.161044
0.270909 0.255406 0.164950
0.304967 0.268284 0.168948
0.345892 0.282689 0.173617
0.389990 0.296849 0.180758
0.435859 0.310277 0.189242
0.482765 0.322545 0.198917
0.530999 0.333776 0.205600
0.579248 0.342779 0.207980
0.625238 0.350225 0.212406
0.668208 0.356664 0.218692
0.707485 0.362097 0.227146
0.743740 0.367437 0.237888
0.777035 0.372656 0.250797
0.807675 0.378943 0.265934
0.835325 0.385992 0.283513
0.860166 0.394415 0.303563
0.882506 0.404974 0.326055
0.902586 0.418067 0.351568
0.920653 0.434119 0.380163
0.936919 0.453773 0.411749
0.951415 0.477607 0.447211
0.154055 0.283238 0.150668
0.156283 0.283360 0.150729
0.158968 0.283360 0.151095
0.165225 0.283268 0.151522
0.173983 0.283482 0.152407
0.185336 0.283207 0.153567
0.198367 0.283421 0.154971
0.212802 0.283268 0.156619
0.230045 0.284520 0.159243
0.249271 0.286381 0.162264
0.269444 0.288640 0.166079
0.290776 0.291264 0.170748
0.318273 0.298955 0.177066
0.356298 0.313756 0.182773
0.400580 0.329137 0.188724
0.446296 0.343328 0.197971
0.492348 0.356359 0.208743
0.537285 0.367681 0.220768
0.580468 0.377691 0.234928
0.625208 0.386542 0.241764
0.667781 0.393744 0.248051
0.706508 0.399664 0.256901
0.742214 0.405219 0.267674
0.775143 0.411017 0.280766
0.805386 0.417182 0.296239
0.832700 0.424201 0.313512
0.857176 0.432441 0.333684
0.879149 0.442634 0.355871
0.898955 0.455085 0.381079
0.916777 0.470344 0.408942
0.932830 0.488869 0.439918
0.947173 0.511315 0.474403
0.165835 0.332219 0.155978
0.168338 0.332372 0.156161
0.171847 0.332097 0.156252
0.178378 0.331701 0.156832
0.188510 0.331395 0.157870
0.201022 0.330907 0.158938
0.215640 0.330480 0.160708
0.231662 0.329870 0.162661
0.248875 0.329473 0.165011
0.270054 0.331182 0.168612
0.292424 0.333654 0.173251
0.315831 0.336248 0.178408
0.339849 0.339055 0.184482
0.364324 0.341955 0.190982
0.404181 0.357183 0.198154
0.449561 0.372473 0.205905
0.494636 0.385718 0.216495
0.538567 0.397375 0.229526
0.580926 0.407691 0.244022
0.621790 0.417487 0.261021
0.661219 0.426734 0.278630
0.700221 0.433722 0.286870
0.736110 0.440101 0.297856
0.769100 0.446357 0.310796
0.799557 0.452918 0.325719
0.826993 0.459998 0.343175
0.851591 0.468147 0.362768
0.873686 0.477943 0.384802
0.893523 0.489784 0.409125
0.911437 0.504387 0.436683
0.927520 0.521965 0.466712
0.941924 0.543023 0.500084
0.180484 0.383490 0.163241
0.183078 0.383093 0.163394
0.186618 0.382971 0.163729
0.194003 0.382757 0.164340
0.204776 0.381933 0.165255
0.218326 0.381048 0.166812
0.234104 0.380377 0.168612
0.251438 0.379522 0.170809
0.269810 0.378454 0.173526
0.290227 0.378363 0.176974
0.313909 0.380072 0.181613
0.338445 0.382177 0.187289
0.363500 0.384253 0.193606
0.388708 0.386328 0.200443
0.413977 0.388281 0.207919
0.451972 0.401251 0.216770
0.496651 0.415137 0.226017
0.539727 0.427008 0.237919
0.581292 0.437354 0.253361
0.621485 0.447150 0.270787
0.659541 0.456550 0.290990
0.694972 0.465705 0.313573
0.729335 0.474250 0.331243
0.762692 0.481056 0.343816
0.793240 0.488045 0.358434
0.820829 0.495460 0.375250
0.845548 0.503593 0.394263
0.867704 0.513146 0.415686
0.887694 0.524651 0.439521
0.905669 0.538506 0.466102
0.921782 0.555047 0.495277
0.936370 0.574670 0.526970
0.198215 0.436469 0.173678
0.200809 0.436286 0.174166
0.204440 0.436042 0.174228
0.211948 0.435431 0.175021
0.223270 0.434607 0.176181
0.237369 0.433509 0.177676
0.253635 0.432013 0.179446
0.271702 0.430671 0.181765
0.291020 0.429206 0.184665
0.311376 0.427436 0.187472
0.334539 0.427649 0.192142
0.359838 0.428962 0.198093
0.385595 0.430335 0.204685
0.411658 0.431830 0.212100
0.437659 0.433082 0.219791
0.463050 0.434028 0.228183
0.498329 0.444190 0.238285
0.540612 0.456306 0.249210
0.581750 0.466651 0.262455
0.621057 0.476417 0.280644
0.658534 0.485542 0.301610
0.693324 0.494453 0.324437
0.725704 0.503716 0.349218
0.755917 0.514061 0.376532
0.786221 0.522179 0.393072
0.814023 0.529961 0.409339
0.838956 0.538293 0.427649
0.861357 0.547906 0.448524
0.881529 0.559014 0.471595
0.899626 0.572290 0.497261
0.915953 0.588006 0.525017
0.930755 0.606195 0.555077
0.218143 0.488563 0.188022
0.221134 0.488258 0.188113
0.224826 0.488014 0.188418
0.232273 0.487434 0.189334
0.243565 0.486275 0.190249
0.257877 0.485176 0.191928
0.274357 0.483558 0.193790
0.292729 0.482094 0.196445
0.312535 0.480110 0.198947
0.333349 0.478004 0.202274
0.354467 0.475593 0.205936
0.380224 0.475929 0.211856
0.406043 0.476356 0.218540
0.432258 0.476692 0.226047
0.458259 0.477058 0.233890
0.483894 0.477211 0.242405
0.509117 0.477302 0.251225
0.542290 0.485542 0.262425
0.581781 0.495735 0.275853
0.620966 0.505333 0.291356
0.657710 0.514244 0.312078
0.692012 0.522789 0.335851
0.723995 0.531670 0.361151
0.753811 0.541253 0.388281
0.781521 0.552026 0.417487
0.807095 0.563348 0.445197
0.832212 0.571862 0.462806
0.854734 0.581353 0.482490
0.874968 0.592157 0.504448
0.893278 0.604578 0.528130
0.909789 0.619013 0.554131
0.924743 0.635920 0.582208
0.240665 0.536919 0.206149
0.243320 0.536645 0.206241
0.246616 0.536522 0.206882
0.254063 0.535668 0.207340
0.264927 0.534661 0.208560
0.278752 0.533379 0.210086
0.295201 0.531701 0.211856
0.313420 0.529656 0.214084
0.332921 0.527581 0.217258
0.353643 0.524926 0.219974
0.375067 0.522332 0.223484
0.397742 0.520165 0.228336
0.423896 0.520073 0.235172
0.450111 0.519738 0.242374
0.476204 0.519463 0.250706
0.501823 0.518914 0.259007
0.527092 0.518395 0.268284
0.551965 0.517998 0.277806
0.583917 0.525078 0.289799
0.619867 0.533501 0.305760
0.656397 0.542046 0.323919
0.690242 0.550011 0.346349
0.721920 0.558312 0.372076
0.751369 0.567224 0.399603
0.778775 0.577173 0.428626
0.803647 0.588373 0.458900
0.826017 0.600824 0.490517
0.847501 0.612543 0.515770
0.868040 0.622919 0.536217
0.886564 0.634699 0.558312
0.903410 0.648219 0.582391
0.918761 0.663752 0.608484
0.265110 0.581292 0.228428
0.267704 0.581170 0.229007
0.273503 0.585046 0.231907
0.280461 0.584192 0.232425
0.290715 0.583093 0.233585
0.303746 0.581537 0.234806
0.319310 0.579675 0.236423
0.336767 0.577508 0.238865
0.355840 0.574884 0.241245
0.376135 0.572259 0.244358
0.397253 0.569268 0.247379
0.418524 0.565972 0.251225
0.442786 0.564019 0.256901
0.468666 0.563165 0.264530
0.494453 0.562310 0.272587
0.519951 0.561242 0.280858
0.545068 0.560204 0.290043
0.569787 0.559106 0.299565
0.593652 0.558007 0.309209
0.624475 0.564324 0.322210
0.656153 0.570581 0.340520
0.689540 0.578027 0.360845
0.720912 0.585443 0.384222
0.749874 0.593469 0.411933
0.776761 0.602441 0.440650
0.801266 0.612360 0.470680
0.823362 0.623560 0.501488
0.843290 0.636347 0.533104
0.861326 0.650782 0.565332
0.879850 0.662501 0.587366
0.897032 0.675044 0.609308
0.912779 0.689418 0.633265
0.292790 0.622461 0.256352
0.295323 0.622766 0.257053
0.298650 0.623041 0.257755
0.305241 0.622736 0.258610
0.314977 0.622034 0.259800
0.327367 0.620905 0.261723
0.341924 0.619165 0.263218
0.358404 0.616968 0.265141
0.376562 0.614710 0.267521
0.395880 0.612024 0.270237
0.416236 0.608972 0.273045
0.437018 0.605768 0.276616
0.458198 0.602289 0.280552
0.483131 0.601007 0.287694
0.508598 0.599756 0.295567
0.533715 0.598322 0.303685
0.558465 0.596857 0.312840
0.582666 0.595544 0.322179
0.606470 0.594263 0.331762
0.629694 0.593103 0.342138
0.659052 0.598657 0.355657
0.687129 0.603693 0.375769
0.718196 0.610620 0.397681
0.747463 0.617884 0.422034
0.774136 0.626062 0.450874
0.798489 0.635035 0.481025
0.820554 0.645197 0.511528
0.840513 0.656672 0.542718
0.858610 0.669734 0.574334
0.875181 0.684382 0.605798
0.890806 0.699641 0.634913
0.906981 0.713191 0.657130
0.322026 0.658320 0.287694
0.324193 0.658534 0.288487
0.327428 0.658656 0.288762
0.333379 0.658442 0.290074
0.341924 0.657740 0.291112
0.353155 0.656611 0.292729
0.366400 0.654902 0.293919
0.381781 0.652918 0.295750
0.398596 0.650782 0.298222
0.416693 0.648249 0.300481
0.435950 0.645441 0.303624
0.455818 0.642481 0.306798
0.476051 0.638972 0.309636
0.497536 0.635981 0.314549
0.522179 0.634516 0.322118
0.546593 0.632929 0.330266
0.570672 0.631342 0.338872
0.594507 0.629755 0.347997
0.617700 0.628260 0.357641
0.640497 0.626886 0.367681
0.662470 0.625605 0.377966
0.690547 0.630915 0.391241
0.715541 0.635004 0.413062
0.744442 0.641749 0.436591
0.771450 0.648920 0.461799
0.795804 0.656886 0.490669
0.817746 0.665980 0.521080
0.837736 0.676295 0.551904
0.855924 0.688106 0.582971
0.872618 0.701320 0.613611
0.888029 0.716243 0.644373
0.902251 0.733120 0.675746
0.353948 0.690852 0.322148
0.355932 0.691096 0.322942
0.358770 0.691249 0.323705
0.364019 0.691035 0.324620
0.371832 0.690303 0.325536
0.381689 0.689235 0.326787
0.393530 0.687678 0.328374
0.407172 0.685878 0.329900
0.422614 0.683833 0.332036
0.439277 0.681422 0.334142
0.457038 0.678828 0.336767
0.475593 0.675929 0.339696
0.494667 0.672694 0.342382
0.513970 0.669215 0.345647
0.535973 0.666773 0.351415
0.559503 0.665309 0.359655
0.583032 0.663722 0.368139
0.606104 0.662196 0.377111
0.628870 0.660731 0.386572
0.651179 0.659327 0.396429
0.672816 0.658198 0.406806
0.693812 0.657099 0.417243
0.719265 0.661189 0.430823
0.742641 0.665705 0.452949
0.769467 0.672511 0.477760
0.793942 0.679530 0.504143
0.816037 0.687343 0.532403
0.835935 0.696651 0.562982
0.854124 0.707210 0.593164
0.870878 0.719234 0.623438
0.886412 0.732876 0.653559
0.900847 0.748623 0.684504
0.389807 0.722072 0.361822
0.391424 0.722103 0.362249
0.393500 0.721920 0.362493
0.397925 0.721523 0.363256
0.404730 0.720760 0.364172
0.413092 0.719692 0.364843
0.423621 0.718227 0.366247
0.435767 0.716640 0.367987
0.449653 0.714687 0.369512
0.464698 0.712551 0.371405
0.481025 0.710231 0.374121
0.498054 0.707515 0.376562
0.515740 0.704585 0.379278
0.533684 0.701350 0.381842
0.551843 0.697841 0.384924
0.573968 0.696071 0.392279
0.596185 0.694453 0.400336
0.618341 0.692775 0.408850
0.640101 0.691249 0.417945
0.661433 0.689631 0.426917
0.682246 0.688289 0.436622
0.702358 0.687037 0.446754
0.721889 0.685817 0.456886
0.744137 0.688319 0.469368
0.766415 0.693477 0.491646
0.790768 0.700008 0.516960
0.813016 0.706996 0.543542
0.833402 0.714870 0.571221
0.851713 0.724361 0.601190
0.868650 0.735225 0.630854
0.884337 0.747890 0.660914
0.898894 0.762203 0.691005
0.425971 0.749081 0.401617
0.427466 0.749111 0.402045
0.429267 0.748989 0.402564
0.433112 0.748592 0.403113
0.438697 0.747890 0.403479
0.446143 0.746914 0.404486
0.455238 0.745663 0.405707
0.465797 0.744076 0.406744
0.477913 0.742336 0.408362
0.491310 0.740322 0.409918
0.505974 0.738216 0.412390
0.521233 0.735683 0.414405
0.537255 0.733059 0.416968
0.553857 0.730037 0.419379
0.570581 0.726864 0.422034
0.588739 0.723934 0.425849
0.609705 0.722316 0.433326
0.630640 0.720729 0.441230
0.651362 0.719173 0.449775
0.671748 0.717678 0.458778
0.691646 0.716304 0.467933
0.710994 0.715023 0.477546
0.729732 0.713863 0.487160
0.747768 0.712795 0.497047
0.766506 0.713283 0.507225
0.787869 0.719203 0.529412
0.809812 0.725460 0.554925
0.830350 0.732540 0.581506
0.849210 0.740749 0.608606
0.866392 0.750637 0.637720
0.882383 0.762325 0.667689
0.896849 0.775082 0.696803
0.465034 0.773983 0.444373
0.466346 0.773953 0.444770
0.467811 0.773800 0.445075
0.470954 0.773434 0.445563
0.475593 0.772763 0.446082
0.481910 0.771817 0.446662
0.489418 0.770596 0.447364
0.498390 0.769162 0.448157
0.508812 0.767483 0.449592
0.520348 0.765591 0.450660
0.532982 0.763516 0.452216
0.546441 0.761257 0.454231
0.560662 0.758724 0.455879
0.575372 0.756008 0.458015
0.590539 0.753017 0.460090
0.605982 0.749905 0.462226
0.623804 0.747524 0.467048
0.643366 0.745876 0.474647
0.662745 0.744320 0.482582
0.681880 0.742916 0.490669
0.700771 0.741512 0.499367
0.719081 0.740230 0.508110
0.736904 0.739071 0.517235
0.754086 0.737911 0.526329
0.770535 0.736843 0.535454
0.787137 0.736812 0.545129
0.808103 0.743709 0.567071
0.827604 0.749752 0.592370
0.846647 0.757198 0.618585
0.864317 0.765927 0.645686
0.880430 0.776211 0.674037
0.894987 0.787716 0.702541
0.502739 0.794949 0.485542
0.503777 0.794888 0.485634
0.505150 0.794797 0.486091
0.507744 0.794461 0.486336
0.511711 0.793881 0.486885
0.516960 0.793057 0.487434
0.523491 0.792020 0.488258
0.531212 0.790768 0.488899
0.540154 0.789303 0.490089
0.550134 0.787716 0.491310
0.561059 0.785885 0.492470
0.572992 0.783932 0.494301
0.585534 0.781735 0.495857
0.598627 0.779385 0.497566
0.612116 0.776761 0.499397
0.626032 0.774014 0.501305
0.640192 0.771115 0.503502
0.657862 0.769467 0.509575
0.675807 0.767971 0.516869
0.693629 0.766598 0.524468
0.711238 0.765255 0.532555
0.728481 0.763973 0.540581
0.745174 0.762844 0.548730
0.761440 0.761776 0.557183
0.777066 0.760830 0.565759
0.792081 0.759976 0.574090
0.806516 0.759304 0.582818
0.826993 0.767086 0.604303
0.844541 0.773220 0.629297
0.862425 0.781399 0.655818
0.878538 0.790097 0.681819
0.893492 0.800473 0.708919
0.540826 0.813870 0.526452
0.541802 0.813840 0.526757
0.542840 0.813718 0.526940
0.544945 0.813352 0.527184
0.548150 0.812863 0.527642
0.552483 0.812131 0.527886
0.557916 0.811185 0.528466
0.564385 0.810086 0.528985
0.571954 0.808835 0.530053
0.580438 0.807431 0.530877
0.589868 0.805844 0.532128
0.600153 0.804135 0.533623
0.611139 0.802243 0.535088
0.622644 0.800168 0.536553
0.634607 0.797940 0.538231
0.646937 0.795560 0.539879
0.659541 0.792996 0.541588
0.673182 0.790738 0.544579
0.689662 0.789334 0.550988
0.706081 0.788052 0.557855
0.722347 0.786801 0.565148
0.738308 0.785733 0.572656
0.753964 0.784665 0.580133
0.769192 0.783658 0.587854
0.783932 0.782803 0.595605
0.798184 0.782071 0.603418
0.811917 0.781491 0.611383
0.825162 0.781155 0.619501
0.844450 0.789120 0.640284
0.860136 0.795254 0.664393
0.876371 0.803159 0.689601
0.891661 0.812711 0.715877
0.577661 0.830747 0.565850
0.578363 0.830686 0.566003
0.579248 0.830564 0.566125
0.580957 0.830289 0.566186
0.583734 0.829862 0.566583
0.587518 0.829282 0.567132
0.592187 0.828580 0.567681
0.597925 0.827756 0.568475
0.604608 0.826810 0.569665
0.612177 0.825742 0.570886
0.620569 0.824521 0.572442
0.629511 0.823178 0.573877
0.639155 0.821683 0.575525
0.649256 0.820005 0.577111
0.659693 0.818143 0.578454
0.670558 0.816129 0.580072
0.681575 0.813962 0.581415
0.693019 0.811765 0.583215
0.706508 0.810147 0.587396
0.721370 0.808988 0.593469
0.736141 0.807889 0.600000
0.750759 0.806912 0.606561
0.765164 0.805997 0.613519
0.779202 0.805173 0.620539
0.792935 0.804471 0.627527
0.806271 0.803891 0.634821
0.819242 0.803525 0.642420
0.831815 0.803311 0.650050
0.843565 0.803006 0.657343
0.860990 0.810361 0.675654
0.875120 0.816678 0.699275
0.890623 0.825589 0.725063
0.614832 0.846891 0.605005
0.615412 0.846830 0.605127
0.616114 0.846708 0.605249
0.617487 0.846464 0.605371
0.619715 0.846067 0.605463
0.622797 0.845518 0.605921
0.626581 0.844907 0.606317
0.631250 0.844144 0.606867
0.636683 0.843290 0.607599
0.642908 0.842344 0.608606
0.649866 0.841215 0.609613
0.657435 0.840024 0.610712
0.665461 0.838682 0.611749
0.674159 0.837217 0.613214
0.683131 0.835599 0.614252
0.692592 0.833921 0.615778
