其他预设/【234】港风调色预设/1.3D LUT预设（视频调色-PR-AE-PS-FCPX-达芬奇用）/21.港风色调-适合街道 __.cube
# Created by Adobe Lightroom plugin Export LUT (1.17.0)
# www.johnrellis.com/lightroom/exportlut.htm
# Preset: 21.港风色调-适合街道 [素锦印象]
# Color profile: /Library/Application Support/Adobe/Color/Profiles/Recommended/AdobeRGB1998.icc
LUT_3D_SIZE 5
DOMAIN_MIN 0.000000 0.000000 0.000000
DOMAIN_MAX 0.903226 0.903226 0.903226
0.171267 0.153201 0.160189
0.167880 0.152438 0.159365
0.364996 0.135164 0.151339
0.742824 0.186923 0.215671
0.910307 0.439582 0.451392
0.168582 0.154910 0.157198
0.180972 0.162478 0.156069
0.380529 0.207889 0.154421
0.742000 0.302251 0.238010
0.908904 0.509239 0.490578
0.260838 0.432563 0.197604
0.317296 0.435157 0.185458
0.522423 0.489601 0.165072
0.760830 0.530144 0.310033
0.892515 0.631220 0.547906
0.552911 0.758541 0.483040
0.572290 0.758267 0.472847
0.637629 0.749569 0.425910
0.766506 0.741482 0.381476
0.887572 0.746059 0.559472
0.775051 0.863462 0.734768
0.776242 0.862882 0.729183
0.776852 0.857816 0.699062
0.811917 0.857298 0.678370
0.873503 0.856260 0.660609
0.170535 0.152651 0.156893
0.170565 0.150942 0.159548
0.370825 0.101320 0.202365
0.715023 0.162295 0.287755
0.895872 0.442573 0.484596
0.167239 0.157229 0.163546
0.185153 0.165743 0.173190
0.397894 0.195773 0.210330
0.719295 0.289036 0.308171
0.893126 0.497200 0.506462
0.251102 0.428168 0.259922
0.326207 0.437415 0.279881
0.490730 0.457557 0.245060
0.736782 0.519371 0.384070
0.884947 0.634730 0.575708
0.573449 0.754849 0.536461
0.602625 0.753964 0.544457
0.648981 0.746304 0.497566
0.762997 0.737423 0.445075
0.882078 0.748898 0.598291
0.784970 0.861936 0.753140
0.785489 0.861326 0.747829
0.793545 0.860410 0.732418
0.818570 0.858244 0.705592
0.874388 0.857237 0.684688
0.172305 0.140505 0.337346
0.229160 0.128298 0.347112
0.393530 0.062898 0.371252
0.722683 0.172244 0.484810
0.885954 0.483345 0.597772
0.198764 0.236240 0.403906
0.255680 0.219913 0.402716
0.433356 0.179110 0.409064
0.725582 0.305821 0.496986
0.882841 0.539452 0.617151
0.339727 0.478920 0.474098
0.399359 0.483467 0.482246
0.522240 0.485176 0.494026
0.739193 0.552850 0.560235
0.875212 0.654932 0.658167
0.620264 0.745937 0.637995
0.634546 0.742824 0.638819
0.688167 0.742397 0.648005
0.762722 0.736080 0.596399
0.870054 0.761990 0.695430
0.788754 0.858427 0.774746
0.794797 0.859159 0.777218
0.812131 0.858457 0.780667
0.823087 0.854520 0.749538
0.870512 0.852934 0.721859
0.280125 0.210422 0.700740
0.348516 0.200565 0.698909
0.501610 0.114199 0.683162
0.708492 0.134829 0.679591
0.878447 0.489937 0.715572
0.380133 0.378393 0.718502
0.414649 0.361364 0.714351
0.520287 0.283421 0.693935
0.710872 0.275853 0.681880
0.874113 0.532311 0.718746
0.593591 0.639673 0.744900
0.626062 0.647028 0.745907
0.638025 0.600000 0.725917
0.721309 0.518181 0.693019
0.867948 0.648066 0.737087
0.683955 0.767453 0.759518
0.697353 0.764645 0.758053
0.736172 0.760739 0.757565
0.766842 0.739620 0.741207
0.864958 0.769436 0.769924
0.819577 0.855558 0.820829
0.822843 0.856199 0.821958
0.832486 0.858915 0.824613
0.842741 0.858213 0.818112
0.868925 0.851194 0.780880
0.527459 0.476143 0.853605
0.543877 0.467842 0.852171
0.598169 0.430182 0.847562
0.686152 0.299535 0.833555
0.851194 0.411475 0.828336
0.596643 0.570031 0.850553
0.603693 0.559472 0.849363
0.632715 0.516350 0.845212
0.692653 0.383368 0.830961
0.848753 0.456825 0.825925
0.732631 0.736202 0.850767
0.733608 0.730617 0.849454
0.728084 0.695552 0.844450
0.731228 0.590814 0.831174
0.848600 0.588037 0.826505
0.798886 0.820096 0.854734
0.803281 0.819913 0.854459
0.820035 0.821775 0.855955
0.816526 0.793149 0.848112
0.857542 0.749264 0.837461
0.833646 0.865965 0.861295
0.836210 0.865782 0.861357
0.847257 0.866911 0.863340
0.862058 0.866972 0.864622
0.869230 0.851804 0.851377
