其他预设/【234】港风调色预设/1.3D LUT预设（视频调色-PR-AE-PS-FCPX-达芬奇用）/21.港风色调-适合街道 __.cube
# Created by Adobe Lightroom plugin Export LUT (1.17.0)
# www.johnrellis.com/lightroom/exportlut.htm
# Preset: 21.港风色调-适合街道 [素锦印象]
# Color profile: /Library/Application Support/Adobe/Color/Profiles/Recommended/AdobeRGB1998.icc
LUT_3D_SIZE 32
0.171267 0.153201 0.160189
0.171084 0.153231 0.160189
0.171084 0.153231 0.160189
0.170809 0.153109 0.160067
0.170047 0.153109 0.160098
0.168521 0.152926 0.159884
0.167117 0.152865 0.159792
0.167880 0.152438 0.159365
0.172793 0.151675 0.158877
0.184329 0.150515 0.157931
0.204623 0.148714 0.156680
0.234318 0.145998 0.155123
0.272038 0.142855 0.153597
0.316228 0.139254 0.152193
0.364996 0.135164 0.151339
0.416663 0.131777 0.151369
0.469490 0.129000 0.152743
0.522454 0.128756 0.155825
0.573846 0.132204 0.161532
0.639216 0.142794 0.174166
0.696162 0.161746 0.192599
0.742824 0.186923 0.215671
0.781460 0.215335 0.241672
0.814115 0.246189 0.270085
0.840909 0.278843 0.300053
0.863066 0.313481 0.332525
0.881743 0.352026 0.368414
0.897368 0.393896 0.408118
0.910307 0.439582 0.451392
0.920653 0.488563 0.497993
0.928649 0.539055 0.546136
0.934874 0.588342 0.593439
0.171267 0.153017 0.160220
0.171115 0.153048 0.160220
0.170962 0.153079 0.160220
0.170687 0.152987 0.160098
0.169924 0.152987 0.159976
0.168551 0.152773 0.159884
0.167178 0.152529 0.159670
0.167910 0.152255 0.159396
0.172763 0.151827 0.158877
0.183719 0.150790 0.157931
0.203311 0.149203 0.156680
0.232090 0.146975 0.155154
0.268681 0.144381 0.153658
0.312016 0.141421 0.152285
0.359594 0.138033 0.151400
0.410437 0.134859 0.151553
0.462745 0.133333 0.152529
0.515312 0.132998 0.155612
0.566735 0.136110 0.161044
0.631159 0.146151 0.172580
0.687495 0.162814 0.189670
0.734188 0.185702 0.211368
0.773281 0.212375 0.235752
0.806607 0.241581 0.263218
0.834653 0.272923 0.292332
0.858030 0.307012 0.324437
0.877806 0.344732 0.360082
0.894438 0.386297 0.399725
0.908141 0.431922 0.443030
0.919097 0.481086 0.490028
0.927581 0.532097 0.538903
0.934112 0.582025 0.586847
0.171115 0.153048 0.160220
0.171115 0.153048 0.160220
0.170962 0.152926 0.160220
0.170687 0.152834 0.160098
0.169802 0.152682 0.160006
0.168399 0.152621 0.159915
0.167208 0.152377 0.159670
0.167941 0.152102 0.159274
0.172793 0.151675 0.158724
0.183566 0.151003 0.157900
0.202762 0.149813 0.156497
0.231022 0.148104 0.155123
0.267185 0.146059 0.153597
0.309911 0.143679 0.152255
0.357092 0.141390 0.151461
0.407446 0.139010 0.151492
0.459327 0.138125 0.152682
0.511559 0.138613 0.155642
0.563104 0.141787 0.160922
0.627405 0.151614 0.172396
0.683314 0.167666 0.188724
0.729793 0.189090 0.209751
0.769100 0.214511 0.233677
0.802762 0.242344 0.260472
0.831357 0.272831 0.289189
0.855222 0.305821 0.320928
0.875547 0.342992 0.356237
0.892668 0.383948 0.395758
0.906828 0.429328 0.439216
0.918151 0.478279 0.486275
0.926909 0.529198 0.535241
0.933593 0.579278 0.583551
0.171054 0.152590 0.160098
0.170901 0.152621 0.159976
0.170779 0.152499 0.159976
0.170291 0.152438 0.160006
0.169406 0.152132 0.159915
0.168215 0.152041 0.159670
0.167300 0.151888 0.159579
0.168338 0.151858 0.159121
0.173434 0.151888 0.158419
0.184543 0.151583 0.157534
0.203677 0.151064 0.156222
0.231601 0.150423 0.154910
0.267033 0.149416 0.153475
0.308995 0.148562 0.152224
0.355413 0.147646 0.151553
0.405158 0.147189 0.151644
0.456489 0.147585 0.152987
0.508019 0.149599 0.155917
0.561547 0.153780 0.161593
0.622309 0.163210 0.172580
0.676356 0.178286 0.187533
0.722255 0.197421 0.207279
0.762203 0.220523 0.230900
0.797208 0.247257 0.257481
0.827665 0.277226 0.286931
0.853086 0.310552 0.319982
0.874357 0.347906 0.356634
0.891966 0.389014 0.396979
0.906249 0.433875 0.440620
0.917571 0.481666 0.487251
0.926299 0.530999 0.535119
0.932982 0.579522 0.582361
0.170596 0.151736 0.159762
0.170443 0.151614 0.159792
0.170443 0.151614 0.159792
0.169833 0.151400 0.159823
0.168948 0.150942 0.159884
0.167544 0.150881 0.159792
0.167422 0.151247 0.159335
0.168917 0.151614 0.158724
0.174411 0.152041 0.158114
0.185489 0.152682 0.157168
0.204379 0.153323 0.155886
0.231815 0.154177 0.154604
0.266545 0.154849 0.153231
0.308049 0.155764 0.152285
0.354162 0.157107 0.151766
0.403876 0.158785 0.151980
0.455451 0.161044 0.153567
0.507408 0.164675 0.156863
0.564019 0.171725 0.163241
0.622339 0.181888 0.174319
0.674372 0.195926 0.189303
0.719265 0.213596 0.208438
0.758724 0.234806 0.231540
0.793759 0.259586 0.257694
0.824643 0.287663 0.287205
0.850614 0.319280 0.320256
0.872313 0.355077 0.356420
0.890166 0.394537 0.396582
0.904692 0.437873 0.439887
0.916197 0.484321 0.486091
0.925170 0.532586 0.533806
0.932067 0.580468 0.580957
0.170230 0.150210 0.159487
0.169924 0.150118 0.159487
0.169772 0.149966 0.159518
0.169284 0.150057 0.159518
0.168673 0.150027 0.159548
0.168032 0.150149 0.159426
0.168154 0.150790 0.159213
0.170626 0.152102 0.158480
0.176638 0.153201 0.157382
0.188266 0.154818 0.156466
0.207919 0.157198 0.155306
0.235538 0.159640 0.154116
0.270115 0.162539 0.152956
0.311192 0.165682 0.152255
0.356909 0.169436 0.151919
0.406470 0.173709 0.152621
0.457862 0.178286 0.154665
0.509606 0.184024 0.158511
0.569512 0.193454 0.166354
0.625910 0.205173 0.177554
0.676905 0.219516 0.193240
0.721401 0.236515 0.213230
0.808499 0.299962 0.280217
0.836576 0.327947 0.312352
0.858946 0.357763 0.345586
0.877195 0.389410 0.379858
0.892058 0.423529 0.416419
0.904326 0.459998 0.454536
0.914397 0.499092 0.494759
0.922545 0.540185 0.536645
0.929107 0.580896 0.577661
0.934295 0.620752 0.617762
0.169284 0.150271 0.158541
0.169253 0.150423 0.158511
0.169253 0.150423 0.158511
0.169223 0.150759 0.158480
0.169314 0.151400 0.158450
0.169863 0.152102 0.158358
0.171450 0.153384 0.158083
0.176120 0.155795 0.157626
0.184878 0.158572 0.156405
0.199680 0.161868 0.155215
0.221469 0.165774 0.154330
0.252140 0.171176 0.153353
0.288914 0.176883 0.152651
0.331151 0.182925 0.152407
0.377020 0.189151 0.153017
0.425086 0.195468 0.154452
0.475013 0.202426 0.157626
0.532372 0.212284 0.163577
0.592340 0.224918 0.173709
0.648768 0.239231 0.188327
0.700130 0.256840 0.208438
0.746609 0.278172 0.234775
0.787808 0.303868 0.265751
0.823056 0.332738 0.300908
0.850675 0.364263 0.338323
0.871733 0.396429 0.375372
0.888060 0.430182 0.413306
0.901152 0.465339 0.451850
0.911803 0.502922 0.491951
0.920317 0.542168 0.533257
0.927245 0.581598 0.574121
0.932799 0.620447 0.614038
0.168582 0.154910 0.157198
0.168704 0.155184 0.157168
0.169009 0.155276 0.157168
0.169558 0.155947 0.157076
0.170565 0.156863 0.156985
0.172427 0.158053 0.156832
0.175753 0.160037 0.156435
0.180972 0.162478 0.156069
0.191470 0.167025 0.155337
0.207370 0.171847 0.154025
0.229831 0.177432 0.153048
0.258762 0.183810 0.152834
0.294102 0.191226 0.153231
0.335424 0.199435 0.153414
0.380529 0.207889 0.154421
0.427649 0.216220 0.156435
0.479957 0.226413 0.160311
0.538445 0.239048 0.167727
0.593988 0.252049 0.178103
0.647547 0.266361 0.192782
0.696895 0.282597 0.212741
0.742000 0.302251 0.238010
0.782467 0.325109 0.268498
0.817441 0.351324 0.302464
0.845457 0.379614 0.338445
0.867094 0.409277 0.374945
0.884062 0.440284 0.412299
0.897765 0.473274 0.450294
0.908904 0.509239 0.490578
0.917937 0.546654 0.531273
0.925261 0.584833 0.572137
0.931121 0.622553 0.611902
0.168917 0.166537 0.155795
0.169345 0.166720 0.155764
0.169924 0.167208 0.155703
0.171237 0.167971 0.155581
0.173404 0.169162 0.155428
0.177005 0.170809 0.155154
0.182132 0.173342 0.154757
0.189670 0.176486 0.154208
0.200168 0.180240 0.153475
0.217350 0.187381 0.152102
0.241123 0.194766 0.151034
0.270329 0.202487 0.150637
0.304845 0.210971 0.151675
0.343908 0.220218 0.154604
0.387579 0.230350 0.156863
0.436500 0.241794 0.160006
0.492439 0.255650 0.165591
0.546868 0.268986 0.173648
0.598962 0.281834 0.184665
0.649775 0.296025 0.199649
0.696925 0.311833 0.219852
0.740444 0.330083 0.244816
0.779843 0.351141 0.274571
0.814176 0.374884 0.307958
0.841917 0.400580 0.343084
0.863676 0.427283 0.378882
0.880888 0.455879 0.415595
0.894835 0.486366 0.452827
0.906279 0.519677 0.492103
0.915557 0.554955 0.532341
0.923186 0.590936 0.572198
0.929351 0.626886 0.611383
0.171511 0.187533 0.154849
0.172213 0.187930 0.154788
0.173251 0.188266 0.154726
0.175296 0.188937 0.154574
0.179019 0.190341 0.154177
0.184146 0.192233 0.153811
0.191012 0.194247 0.153384
0.200626 0.197848 0.152651
0.213138 0.202152 0.151827
0.228946 0.207248 0.150576
0.251804 0.215671 0.148623
0.281865 0.225376 0.147738
0.316167 0.234775 0.148440
0.355047 0.244968 0.151339
0.401587 0.258457 0.156802
0.453712 0.274022 0.166110
0.507164 0.288975 0.172824
0.559258 0.303014 0.181979
0.608972 0.316167 0.194247
0.656611 0.330022 0.210056
0.700221 0.344244 0.229892
0.740444 0.360235 0.254276
0.776974 0.378149 0.281895
0.809445 0.398413 0.312871
0.836606 0.420386 0.346166
0.858549 0.444343 0.380591
0.876493 0.470527 0.416754
0.891203 0.499397 0.454383
0.903288 0.531304 0.494057
0.913115 0.565454 0.534783
0.921141 0.600366 0.575036
0.927642 0.635340 0.614496
0.177249 0.216434 0.155306
0.178103 0.216861 0.155245
0.179507 0.217288 0.155154
0.182589 0.218235 0.154788
0.187472 0.219760 0.154299
0.194186 0.221683 0.153658
0.203250 0.224125 0.152895
0.214603 0.227298 0.151888
0.229160 0.232029 0.150820
0.246860 0.237430 0.149538
0.267430 0.243168 0.147982
0.294347 0.252079 0.145083
0.331121 0.264958 0.143984
0.374151 0.278721 0.146578
0.420661 0.292943 0.152712
0.469123 0.307469 0.162509
0.518181 0.321965 0.176944
0.566613 0.336095 0.191196
0.613611 0.348852 0.203861
0.658930 0.362005 0.219852
0.700740 0.375494 0.239811
0.739681 0.390448 0.263859
0.775387 0.407263 0.291752
0.807248 0.425727 0.322393
0.833951 0.445777 0.354772
0.855619 0.467201 0.388464
0.873381 0.490517 0.423072
0.888090 0.516594 0.459907
0.900328 0.545647 0.498329
0.910399 0.577050 0.537835
0.918761 0.609522 0.577081
0.925536 0.642634 0.615839
0.187411 0.255009 0.157931
0.188418 0.255497 0.157961
0.190311 0.255863 0.157717
0.194125 0.256718 0.157198
0.200198 0.258183 0.156619
0.208530 0.260044 0.155612
0.219272 0.262577 0.154513
0.232425 0.265507 0.153079
0.248447 0.269688 0.151705
0.267857 0.275425 0.149905
0.290105 0.281712 0.148043
0.319524 0.292302 0.145480
0.390875 0.336889 0.140383
0.440803 0.356085 0.138705
0.489784 0.370275 0.150179
0.537926 0.383124 0.166171
0.584039 0.395117 0.186740
0.626978 0.406256 0.210971
0.666072 0.417273 0.238895
0.702876 0.427558 0.260777
0.737728 0.438453 0.282750
0.769986 0.450599 0.307744
0.799252 0.464149 0.335027
0.824765 0.479347 0.363989
0.846220 0.495979 0.394995
0.864103 0.514275 0.426673
0.878935 0.534417 0.459174
0.891386 0.556603 0.492470
0.901884 0.581079 0.527031
0.910887 0.607691 0.562371
0.918486 0.635248 0.597375
0.924804 0.664393 0.632898
0.208042 0.315404 0.166323
0.209476 0.315526 0.166262
0.211490 0.315129 0.165743
0.215702 0.314885 0.164950
0.222538 0.314733 0.163668
0.231754 0.314733 0.161959
0.243595 0.315801 0.160311
0.258030 0.317693 0.158175
0.275578 0.320867 0.155856
0.301427 0.332341 0.154147
0.331884 0.345464 0.152102
0.366827 0.359838 0.149599
0.405188 0.374426 0.146395
0.445014 0.387274 0.142031
0.497139 0.408026 0.138552
0.544457 0.420203 0.155367
0.588586 0.430121 0.176455
0.629084 0.438666 0.200717
0.666529 0.446967 0.229129
0.701411 0.456703 0.261021
0.734463 0.468391 0.293828
0.765713 0.479164 0.317693
0.794369 0.490944 0.343969
0.819608 0.503990 0.371801
0.841093 0.518242 0.401343
0.859098 0.534173 0.431678
0.874266 0.551904 0.463081
0.887144 0.571771 0.495583
0.898131 0.594141 0.529625
0.907561 0.618677 0.564263
0.915679 0.644495 0.598810
0.922362 0.672267 0.634302
0.228946 0.366339 0.177737
0.230838 0.366461 0.177279
0.232944 0.366094 0.176883
0.237461 0.365667 0.175814
0.244388 0.365148 0.174289
0.255009 0.366461 0.172335
0.269169 0.369970 0.170626
0.286107 0.374182 0.168429
0.306371 0.379828 0.166293
0.330877 0.387427 0.163821
0.360204 0.398627 0.161898
0.393744 0.411139 0.159518
0.429694 0.423529 0.156832
0.466896 0.434577 0.152865
0.503716 0.443275 0.147860
0.549645 0.458259 0.141482
0.591455 0.465766 0.163729
0.630304 0.471778 0.189151
0.666224 0.477577 0.217411
0.700221 0.484688 0.249241
0.732601 0.494087 0.284672
0.762875 0.506462 0.323095
0.790677 0.518914 0.355383
0.815702 0.530571 0.382605
0.837095 0.543145 0.411292
0.855161 0.557092 0.440833
0.870512 0.572595 0.471290
0.883604 0.590326 0.502831
0.894865 0.610529 0.535821
0.904662 0.632837 0.569604
0.912993 0.656825 0.603601
0.920043 0.682765 0.638422
0.260838 0.432563 0.197604
0.262821 0.433234 0.197482
0.264897 0.433051 0.196811
0.269993 0.432685 0.195590
0.277470 0.432349 0.193515
0.287785 0.432380 0.191318
0.301091 0.433143 0.188632
0.317296 0.435157 0.185458
0.337163 0.438880 0.182620
0.360174 0.443977 0.179263
0.387793 0.452399 0.177005
0.419471 0.463111 0.175204
0.453223 0.473487 0.172915
0.487892 0.482643 0.169345
0.522423 0.489601 0.165072
0.555200 0.493629 0.158968
0.595300 0.503746 0.148745
0.632471 0.507286 0.175387
0.666957 0.510491 0.204807
0.699672 0.514733 0.237369
0.731167 0.521233 0.272190
0.760830 0.530144 0.310033
0.787991 0.541802 0.350195
0.812009 0.556085 0.392126
0.833158 0.567987 0.422431
0.851560 0.580499 0.451423
0.867338 0.595056 0.482185
0.880827 0.611963 0.514580
0.892515 0.631220 0.547906
0.902647 0.652155 0.581415
0.911284 0.675074 0.615595
0.918395 0.699916 0.650690
0.297978 0.499702 0.225284
0.300206 0.500359 0.224949
0.302403 0.500175 0.224277
0.307286 0.500053 0.223087
0.314794 0.499794 0.220890
0.324865 0.499825 0.218479
0.338170 0.500572 0.215335
0.354284 0.502281 0.212345
0.373297 0.504692 0.209018
0.394965 0.507652 0.204898
0.419013 0.510979 0.200320
0.446876 0.517479 0.198428
0.476295 0.523613 0.195438
0.506523 0.528649 0.191745
0.536950 0.532219 0.186587
0.567224 0.534661 0.181064
0.597070 0.535760 0.174441
0.633600 0.543084 0.162264
0.667536 0.544701 0.190860
0.700496 0.547478 0.224857
0.732082 0.552026 0.261265
0.761837 0.558679 0.300633
0.788998 0.567620 0.341344
0.812833 0.578851 0.383917
0.833036 0.592645 0.427802
0.850126 0.608209 0.469154
0.865629 0.621149 0.499153
0.878965 0.636072 0.530266
0.890532 0.652827 0.561883
0.900603 0.671199 0.593408
0.909117 0.691341 0.625635
0.916289 0.713466 0.658686
0.334905 0.556451 0.256443
0.336431 0.556542 0.255833
0.338018 0.555932 0.255009
0.342382 0.555535 0.253361
0.348943 0.554803 0.251011
0.358038 0.554223 0.248020
0.370031 0.554284 0.245029
0.384558 0.554803 0.241184
0.401801 0.556023 0.237156
0.421424 0.557855 0.233463
0.443458 0.559930 0.228824
0.467842 0.562921 0.224887
0.495216 0.567803 0.222538
0.523064 0.571435 0.218784
0.551141 0.573816 0.214237
0.578698 0.574640 0.208103
0.606317 0.574487 0.201663
0.634180 0.573968 0.194430
0.668147 0.579156 0.183352
0.699214 0.579614 0.209171
0.730159 0.581689 0.246891
0.759487 0.585534 0.285954
0.786709 0.591608 0.327550
0.810788 0.599847 0.370611
0.831388 0.610437 0.414832
0.848692 0.623987 0.459724
0.863127 0.640467 0.504601
0.875975 0.656519 0.541772
0.887846 0.671412 0.572290
0.898070 0.688106 0.603204
0.906798 0.706722 0.634852
0.914153 0.727291 0.667384
0.374548 0.607874 0.293980
0.376745 0.608637 0.294072
0.409613 0.641535 0.325383
0.412787 0.640803 0.323095
0.417670 0.639551 0.319982
0.424140 0.637873 0.315435
0.432959 0.636103 0.310735
0.443854 0.634394 0.304631
0.457588 0.633326 0.299138
0.473762 0.632685 0.293858
0.491951 0.632136 0.287266
0.511833 0.631342 0.280644
0.533898 0.631403 0.275029
0.557824 0.631922 0.270420
0.582025 0.631617 0.264530
0.606531 0.630304 0.257420
0.631250 0.628351 0.249454
0.656184 0.625849 0.241032
0.681666 0.623163 0.231876
0.713161 0.626215 0.220829
0.740017 0.624140 0.243015
0.767514 0.624262 0.283482
0.792996 0.626490 0.325475
0.815244 0.630488 0.368414
0.834104 0.636469 0.411414
0.850065 0.645228 0.454932
0.863615 0.656886 0.497871
0.875242 0.671809 0.540612
0.885374 0.689296 0.581933
0.895476 0.704616 0.612940
0.904356 0.721340 0.643519
0.911864 0.739925 0.674861
0.423651 0.658595 0.343633
0.428779 0.662440 0.347509
0.434546 0.666255 0.351629
0.441169 0.669276 0.354162
0.448157 0.670954 0.354101
0.455177 0.670924 0.352087
0.462745 0.669886 0.347814
0.471870 0.668452 0.342290
0.483345 0.667323 0.336614
0.496834 0.666316 0.330724
0.512383 0.665461 0.324407
0.529595 0.664424 0.317784
0.547692 0.662562 0.309667
0.568811 0.662409 0.304326
0.590387 0.661555 0.298009
0.612573 0.660060 0.290990
0.635248 0.657893 0.283085
0.658412 0.655512 0.274662
0.682460 0.653101 0.266484
0.707454 0.650935 0.257633
0.738430 0.654505 0.247562
0.764248 0.652949 0.265751
0.790219 0.653010 0.309453
0.813016 0.654505 0.353185
0.832395 0.657771 0.397650
0.848936 0.663539 0.442298
0.862943 0.672450 0.486732
0.874876 0.684718 0.530938
0.885283 0.699733 0.573541
0.894194 0.717311 0.614832
0.901976 0.736019 0.652857
0.909667 0.752926 0.683314
0.460731 0.691890 0.382727
0.465766 0.695064 0.386999
0.471077 0.698299 0.390936
0.476814 0.700740 0.393286
0.482856 0.702174 0.393500
0.488411 0.702113 0.391302
0.494545 0.701137 0.386847
0.501915 0.699855 0.381781
0.511284 0.698848 0.376593
0.522484 0.697749 0.370794
0.535576 0.696895 0.364599
0.550103 0.695857 0.357855
0.565576 0.693996 0.349645
0.582788 0.692134 0.341955
0.601984 0.691127 0.335424
0.621729 0.689509 0.328435
0.642237 0.687465 0.320592
0.663539 0.685084 0.312322
0.685725 0.682795 0.303868
0.709071 0.680873 0.295903
0.733211 0.679133 0.288090
0.763973 0.683436 0.279728
0.787961 0.681636 0.292546
0.811032 0.680629 0.338079
0.830838 0.680934 0.383612
0.847684 0.683619 0.428717
0.861967 0.689357 0.474159
0.874205 0.698421 0.519249
0.884794 0.710689 0.563226
0.893980 0.725704 0.605402
0.901640 0.743313 0.646662
0.907988 0.762997 0.686702
0.498909 0.722133 0.423896
0.503380 0.724819 0.427466
0.508232 0.727504 0.431281
0.513451 0.729610 0.433631
0.518486 0.730800 0.433997
0.522911 0.730709 0.431708
0.527581 0.729824 0.427741
0.533379 0.728634 0.423011
0.540581 0.727504 0.417639
0.549432 0.726284 0.411627
0.559930 0.725246 0.405341
0.571801 0.724025 0.398596
0.584802 0.722255 0.390600
0.598871 0.720058 0.381506
0.615259 0.718563 0.374487
0.633295 0.717617 0.368383
0.652766 0.716732 0.362188
0.673213 0.715938 0.356237
0.694820 0.715236 0.350347
0.717586 0.714870 0.344732
0.741146 0.714626 0.339391
0.765438 0.714351 0.334173
0.794705 0.718563 0.328038
0.816373 0.716274 0.336767
0.835996 0.714137 0.385290
0.852384 0.714137 0.433387
0.866209 0.716976 0.480201
0.877897 0.723293 0.526513
0.888060 0.732662 0.570306
0.896727 0.744869 0.612451
0.903990 0.759884 0.653590
0.910002 0.777249 0.693538
0.552911 0.758541 0.483040
0.555047 0.759457 0.484352
0.557092 0.760220 0.485420
0.559350 0.760586 0.485298
0.561822 0.760494 0.483925
0.564385 0.759915 0.480659
0.567742 0.759060 0.476936
0.572290 0.758267 0.472847
0.578058 0.757534 0.467842
0.585382 0.756924 0.463233
0.594049 0.756344 0.458106
0.603754 0.755428 0.452125
0.614160 0.753994 0.444343
0.625452 0.752102 0.436042
0.637629 0.749569 0.425910
0.652827 0.748379 0.419562
0.669154 0.747219 0.413214
0.686641 0.746029 0.406806
0.705287 0.744900 0.400671
0.724849 0.743771 0.393896
0.745296 0.742580 0.387671
0.766506 0.741482 0.381476
0.788205 0.740078 0.374609
0.813352 0.741512 0.367224
0.833707 0.739406 0.368933
0.850584 0.736416 0.417762
0.864927 0.736233 0.465949
0.877073 0.739467 0.513939
0.887572 0.746059 0.559472
0.896513 0.755673 0.603113
0.904051 0.768185 0.645228
0.910246 0.783444 0.686275
0.589197 0.779843 0.523217
0.591180 0.780636 0.524559
0.593103 0.781308 0.525780
0.595087 0.781643 0.525841
0.597101 0.781582 0.524681
0.598810 0.780972 0.521782
0.600793 0.780148 0.517632
0.603754 0.779263 0.513207
0.607996 0.778500 0.508873
0.613458 0.777768 0.504356
0.620142 0.777096 0.499214
0.627680 0.776272 0.493355
0.636042 0.775082 0.486580
0.645289 0.773587 0.478676
0.655390 0.771725 0.469825
0.667109 0.769894 0.461250
0.681422 0.769100 0.455909
0.696773 0.768276 0.450599
0.713313 0.767453 0.445136
0.730709 0.766751 0.439704
0.749203 0.766049 0.434607
0.768368 0.765255 0.429328
0.788174 0.764462 0.423957
0.808530 0.763394 0.418036
0.826932 0.759152 0.401495
0.847135 0.758267 0.399695
0.862211 0.755245 0.446357
0.875059 0.755367 0.495857
0.886046 0.759030 0.543816
0.895537 0.765896 0.589136
0.903563 0.776242 0.633448
0.910155 0.789334 0.675990
0.634180 0.803189 0.573632
0.636164 0.803952 0.575311
0.637476 0.804318 0.575982
0.638361 0.804318 0.575219
0.639002 0.803891 0.573144
0.639612 0.803128 0.569909
0.640467 0.802152 0.566125
0.641566 0.800931 0.561089
0.643458 0.799710 0.555627
0.646448 0.798489 0.550286
0.650141 0.797177 0.543938
0.655024 0.795987 0.537530
0.660792 0.794553 0.530510
0.667140 0.792813 0.522240
0.674067 0.790616 0.512535
0.682033 0.788144 0.501762
0.692317 0.786221 0.493019
0.704860 0.785000 0.486946
0.718959 0.784207 0.481727
0.734463 0.783719 0.477516
0.750973 0.783383 0.473243
0.768124 0.782956 0.469001
0.785763 0.782132 0.464118
0.803647 0.780880 0.457771
0.821744 0.779171 0.450477
0.841001 0.777737 0.442359
0.860777 0.778012 0.441596
0.873930 0.774838 0.481788
0.885161 0.775204 0.530816
0.894957 0.779110 0.577417
0.903288 0.786587 0.622858
0.910216 0.797238 0.666957
0.662684 0.817166 0.605737
0.664485 0.817807 0.607355
0.665583 0.818112 0.607813
0.666468 0.818143 0.607568
0.666896 0.817807 0.605707
0.667323 0.817258 0.603113
0.667872 0.816526 0.599573
0.668940 0.815702 0.595819
0.670497 0.814878 0.591180
0.673030 0.814084 0.586908
0.676173 0.813260 0.581964
0.680415 0.812497 0.577111
0.685206 0.811521 0.571405
0.690517 0.810330 0.564813
0.696315 0.808774 0.557122
0.702876 0.806973 0.548577
0.710353 0.804990 0.539208
0.720729 0.804044 0.533501
0.732509 0.803403 0.529015
0.745571 0.802976 0.525261
0.759487 0.802640 0.521355
0.774197 0.802213 0.517510
0.789334 0.801633 0.513054
0.804898 0.800687 0.508080
0.820920 0.799374 0.501640
0.837308 0.797787 0.494759
0.854337 0.796048 0.487221
0.873655 0.797604 0.488685
0.885527 0.795224 0.523827
0.895537 0.796323 0.571954
0.903929 0.800900 0.618341
0.911009 0.809171 0.663844
0.693263 0.830747 0.640467
0.694514 0.831113 0.641566
0.694942 0.831205 0.641505
0.695125 0.831022 0.640497
0.694911 0.830625 0.638422
0.694820 0.830045 0.635828
0.694759 0.829343 0.632410
0.695125 0.828611 0.628565
0.696132 0.827909 0.624750
0.697932 0.827298 0.620783
0.700404 0.826658 0.616541
0.703792 0.826139 0.612543
0.707515 0.825498 0.607630
0.711849 0.824613 0.602167
0.716335 0.823453 0.595392
0.721431 0.822019 0.588006
0.727260 0.820432 0.579553
0.734615 0.819059 0.572168
0.744411 0.818479 0.568017
0.755398 0.818082 0.564416
0.767239 0.817838 0.561151
0.779873 0.817563 0.558160
0.792905 0.817075 0.554528
0.806424 0.816434 0.550225
0.820401 0.815488 0.545129
0.834806 0.814298 0.539361
0.849760 0.813016 0.533471
0.865263 0.811490 0.526848
0.883665 0.813931 0.530083
0.894743 0.812192 0.559197
0.903563 0.813840 0.606714
0.911009 0.819364 0.653925
0.718929 0.841459 0.669917
0.719631 0.841642 0.670436
0.720027 0.841733 0.670375
0.720333 0.841672 0.669856
0.720546 0.841459 0.668605
0.721157 0.841306 0.667201
0.722347 0.841337 0.665919
0.724239 0.841459 0.664851
0.726772 0.841642 0.663874
0.729915 0.841947 0.662989
0.733425 0.842252 0.661738
0.737301 0.842496 0.660395
0.741299 0.842588 0.658137
0.745266 0.842435 0.655024
0.749050 0.841947 0.650416
0.752865 0.841123 0.644617
0.757046 0.840085 0.637903
0.762081 0.838987 0.630823
0.769009 0.838315 0.626062
0.777462 0.838010 0.622827
0.786709 0.837827 0.620111
0.796567 0.837583 0.617090
0.806943 0.837186 0.613733
0.817777 0.836698 0.610010
0.829099 0.836027 0.605829
0.840879 0.835203 0.601251
0.853269 0.834257 0.596063
0.866239 0.833249 0.591028
0.879789 0.832151 0.585534
0.896269 0.834958 0.590112
0.906096 0.834318 0.614832
0.913329 0.837278 0.662562
0.754360 0.855009 0.710842
0.754726 0.855100 0.711025
0.754726 0.855039 0.710658
0.754665 0.854856 0.709895
0.754360 0.854643 0.708339
0.754330 0.854337 0.706783
0.754482 0.854093 0.704921
0.755032 0.853910 0.702998
0.756008 0.853788 0.701015
0.757504 0.853666 0.699123
0.759182 0.853544 0.696834
0.761227 0.853422 0.694362
0.763455 0.853239 0.691402
0.765957 0.852903 0.687892
0.768429 0.852415 0.683406
