其他预设/【234】港风调色预设/1.3D LUT预设（视频调色-PR-AE-PS-FCPX-达芬奇用）/21.港风色调-适合街道 __.cube
# Created by Adobe Lightroom plugin Export LUT (1.17.0)
# www.johnrellis.com/lightroom/exportlut.htm
# Preset: 21.港风色调-适合街道 [素锦印象]
# Color profile: /Library/Application Support/Adobe/Color/Profiles/Recommended/AdobeRGB1998.icc
LUT_3D_SIZE 8
DOMAIN_MIN 0.000000 0.000000 0.000000
DOMAIN_MAX 0.903226 0.903226 0.903226
0.171267 0.153201 0.160189
0.170047 0.153109 0.160098
0.172793 0.151675 0.158877
0.272038 0.142855 0.153597
0.469490 0.129000 0.152743
0.696162 0.161746 0.192599
0.840909 0.278843 0.300053
0.910307 0.439582 0.451392
0.170596 0.151736 0.159762
0.168948 0.150942 0.159884
0.174411 0.152041 0.158114
0.266545 0.154849 0.153231
0.455451 0.161044 0.153567
0.674372 0.195926 0.189303
0.824643 0.287663 0.287205
0.904692 0.437873 0.439887
0.168917 0.166537 0.155795
0.173404 0.169162 0.155428
0.200168 0.180240 0.153475
0.304845 0.210971 0.151675
0.492439 0.255650 0.165591
0.696925 0.311833 0.219852
0.841917 0.400580 0.343084
0.906279 0.519677 0.492103
0.208042 0.315404 0.166323
0.222538 0.314733 0.163668
0.275578 0.320867 0.155856
0.405188 0.374426 0.146395
0.588586 0.430121 0.176455
0.734463 0.468391 0.293828
0.841093 0.518242 0.401343
0.898131 0.594141 0.529625
0.334905 0.556451 0.256443
0.348943 0.554803 0.251011
0.401801 0.556023 0.237156
0.495216 0.567803 0.222538
0.606317 0.574487 0.201663
0.730159 0.581689 0.246891
0.831388 0.610437 0.414832
0.887846 0.671412 0.572290
0.498909 0.722133 0.423896
0.518486 0.730800 0.433997
0.540581 0.727504 0.417639
0.584802 0.722255 0.390600
0.652766 0.716732 0.362188
0.741146 0.714626 0.339391
0.835996 0.714137 0.385290
0.888060 0.732662 0.570306
0.662684 0.817166 0.605737
0.666896 0.817807 0.605707
0.670497 0.814878 0.591180
0.685206 0.811521 0.571405
0.710353 0.804990 0.539208
0.759487 0.802640 0.521355
0.820920 0.799374 0.501640
0.885527 0.795224 0.523827
0.775051 0.863462 0.734768
0.775082 0.863218 0.732784
0.777249 0.862852 0.727871
0.784451 0.863066 0.721767
0.783108 0.857298 0.691524
0.804257 0.856931 0.679133
0.836484 0.857725 0.673915
0.873503 0.856260 0.660609
0.171115 0.153079 0.159365
0.169772 0.153201 0.158846
0.173648 0.149599 0.158022
0.269047 0.133394 0.158267
0.454688 0.114260 0.169284
0.663935 0.143160 0.209628
0.815671 0.256657 0.300542
0.899626 0.416968 0.440009
0.170474 0.151644 0.158816
0.168704 0.150881 0.157809
0.178225 0.149691 0.156893
0.272587 0.148318 0.158999
0.453285 0.150851 0.170901
0.655695 0.183841 0.210330
0.803189 0.271275 0.292729
0.893309 0.414343 0.427497
0.166751 0.164248 0.157321
0.171969 0.169741 0.158663
0.199863 0.180056 0.156680
0.301366 0.206302 0.165042
0.478645 0.245609 0.184817
0.670008 0.294652 0.232975
0.813077 0.369940 0.328679
0.894957 0.490333 0.469795
0.199557 0.301183 0.179873
0.219364 0.305547 0.183719
0.271336 0.316808 0.175631
0.373785 0.343786 0.165927
0.533776 0.385962 0.192325
0.689326 0.430335 0.280125
0.813443 0.483955 0.374945
0.887907 0.568017 0.505669
0.337835 0.548425 0.285771
0.348547 0.544671 0.278660
0.393133 0.541070 0.261051
0.472786 0.541039 0.238041
0.577478 0.544854 0.214755
0.708034 0.560601 0.258091
0.817746 0.597223 0.414862
0.881559 0.659327 0.562188
0.494881 0.709102 0.433631
0.501396 0.708919 0.430060
0.523980 0.706783 0.415198
0.571038 0.705409 0.393500
0.642206 0.704494 0.370550
0.734798 0.707759 0.353857
0.830014 0.708400 0.398077
0.883452 0.727016 0.569665
0.651209 0.807828 0.598627
0.650080 0.806088 0.592401
0.656641 0.804349 0.581079
0.676295 0.803464 0.567132
0.705135 0.799191 0.540642
0.753414 0.796475 0.520592
0.813870 0.791806 0.495583
0.879698 0.787259 0.515129
0.770779 0.860258 0.732082
0.772030 0.860410 0.731533
0.774716 0.860349 0.727291
0.782528 0.860807 0.721981
0.791745 0.859739 0.708370
0.807553 0.857664 0.689662
0.835569 0.856504 0.676539
0.871366 0.853910 0.658320
0.170260 0.152132 0.159609
0.170291 0.151736 0.161440
0.179690 0.147646 0.168399
0.287724 0.122621 0.205478
0.482551 0.061982 0.245365
0.691096 0.136080 0.304295
0.825315 0.305669 0.397955
0.897551 0.469734 0.516472
0.166384 0.150546 0.165286
0.168185 0.149935 0.167910
0.185367 0.147372 0.173770
0.294102 0.135531 0.205753
0.485389 0.115877 0.243046
0.682490 0.181643 0.302037
0.817472 0.317418 0.391608
0.894316 0.473518 0.512230
0.169497 0.173037 0.178347
0.176822 0.177584 0.183322
0.209873 0.188144 0.196475
0.331060 0.210056 0.221988
0.521813 0.250156 0.266819
0.693080 0.309636 0.327398
0.817624 0.400824 0.414710
0.890623 0.521386 0.529503
0.215793 0.309758 0.239292
0.232334 0.318944 0.245365
0.294804 0.343206 0.263706
0.396979 0.365270 0.248814
0.564263 0.407568 0.304417
0.708125 0.453590 0.375097
0.819730 0.514855 0.460426
0.885954 0.596368 0.564355
0.332982 0.551507 0.342138
0.351843 0.555138 0.346593
0.425696 0.558495 0.371649
0.493263 0.560449 0.344244
0.597314 0.564599 0.318944
0.718746 0.573541 0.367742
0.816861 0.618647 0.502129
0.879118 0.672572 0.602411
0.505028 0.711727 0.481178
0.523644 0.711360 0.491890
0.558495 0.707759 0.500023
0.588403 0.703975 0.473548
0.644739 0.700313 0.442451
0.730617 0.702876 0.422065
0.824277 0.707393 0.468727
0.879759 0.736721 0.616815
0.670954 0.809659 0.637171
0.676600 0.808011 0.639521
0.683131 0.804623 0.632532
0.693019 0.801907 0.613794
0.714046 0.797208 0.585962
0.757351 0.795346 0.565881
0.816342 0.794247 0.548272
0.879820 0.793271 0.574395
0.780484 0.859586 0.750240
0.781796 0.858824 0.750088
0.782528 0.858244 0.744625
0.791043 0.859770 0.742000
0.797848 0.858518 0.728267
0.811734 0.856901 0.710506
0.837980 0.856443 0.698604
0.872343 0.854917 0.682795
0.168276 0.145907 0.241733
0.178470 0.143465 0.249699
0.217594 0.133791 0.260868
0.297978 0.112337 0.280339
0.493355 0.010559 0.357183
0.683925 0.124361 0.412970
0.813626 0.302922 0.474769
0.887480 0.481483 0.569116
0.164004 0.155184 0.272007
0.178256 0.152773 0.275029
0.224308 0.141390 0.278935
0.311284 0.125246 0.293034
0.505058 0.107698 0.364233
0.683040 0.178470 0.413703
0.809873 0.327550 0.476570
0.885252 0.494026 0.571893
0.194583 0.233158 0.308721
0.214847 0.236667 0.315892
0.253544 0.223819 0.320348
0.346990 0.204196 0.326360
0.539635 0.246220 0.388861
0.704372 0.328405 0.446204
0.821622 0.453315 0.527276
0.885954 0.558679 0.602411
0.250431 0.353338 0.352819
0.270817 0.357641 0.358068
0.333043 0.369421 0.373480
0.414893 0.379828 0.390356
0.574731 0.418585 0.430365
0.708400 0.469123 0.479835
0.814267 0.537713 0.545556
0.880766 0.617060 0.621607
0.415808 0.560967 0.467292
0.427070 0.560815 0.468879
0.468238 0.567529 0.479713
0.536645 0.579400 0.496956
0.614282 0.580407 0.462867
0.726772 0.599420 0.518547
0.816800 0.642725 0.589929
0.875883 0.688197 0.653010
0.562219 0.719692 0.575067
0.581109 0.726589 0.587121
0.601404 0.723415 0.589166
0.642390 0.719448 0.597559
0.672694 0.713222 0.563043
0.739559 0.711574 0.535241
0.822141 0.717189 0.575982
0.874296 0.751766 0.679744
0.686976 0.809842 0.675074
0.692500 0.810117 0.677852
0.709438 0.809445 0.685542
0.732113 0.806973 0.690974
0.741909 0.803342 0.665675
0.769680 0.799161 0.637751
0.818204 0.795926 0.613062
0.876097 0.795895 0.638361
0.788022 0.861509 0.768460
0.790829 0.861509 0.770199
0.798215 0.860624 0.773556
0.805417 0.859709 0.772274
0.809049 0.858366 0.759426
0.818540 0.856504 0.741451
0.840818 0.856168 0.728237
0.872801 0.855467 0.713497
0.185672 0.138521 0.450385
0.210666 0.134676 0.454902
0.279362 0.115663 0.455116
0.366003 0.043732 0.447822
0.504448 0.000000 0.477699
0.683925 0.117220 0.532280
0.811734 0.309483 0.572229
0.884367 0.486397 0.629725
0.191684 0.175051 0.474311
0.218509 0.171786 0.479194
0.287877 0.151919 0.475532
0.373449 0.098909 0.460426
0.512047 0.072999 0.485206
0.687709 0.180117 0.536675
0.811887 0.341955 0.576745
0.883116 0.502251 0.633661
0.257603 0.307561 0.521813
0.276616 0.305364 0.523064
0.326177 0.283116 0.513970
0.404089 0.234379 0.500755
0.532830 0.226322 0.504936
0.690791 0.308843 0.544244
0.807675 0.424720 0.587304
0.877836 0.543389 0.641169
0.364569 0.465492 0.558068
0.386481 0.468330 0.560418
0.453529 0.479866 0.569940
0.490913 0.450385 0.559136
0.573907 0.408087 0.544945
0.707362 0.472480 0.576623
0.808469 0.541039 0.616388
0.874296 0.616571 0.665156
0.450843 0.591241 0.583398
0.467750 0.592645 0.585748
0.513664 0.592920 0.589227
0.571130 0.591272 0.592401
0.613733 0.578088 0.584344
0.718837 0.602869 0.608423
0.808469 0.639216 0.643336
0.869993 0.687251 0.689601
0.607507 0.703059 0.640528
0.613672 0.703639 0.642512
0.628931 0.702876 0.644984
0.653132 0.704646 0.649256
0.680659 0.702968 0.644739
0.734401 0.705501 0.620050
0.815885 0.724880 0.667262
0.868894 0.758724 0.724575
0.717800 0.804593 0.724086
0.719875 0.803983 0.724056
0.728450 0.803250 0.725612
0.742550 0.803586 0.727596
0.760830 0.801328 0.726162
0.774258 0.795956 0.695857
0.815152 0.792386 0.669123
0.869352 0.794888 0.696742
0.796017 0.857115 0.787533
0.796841 0.856962 0.787411
0.800198 0.856809 0.787411
0.810575 0.859464 0.791714
0.820157 0.857939 0.790524
0.824796 0.855680 0.773434
0.840909 0.853941 0.755459
0.870420 0.852811 0.738491
0.260685 0.191073 0.671473
0.285496 0.188693 0.671077
0.352422 0.170596 0.663508
0.444709 0.123598 0.655634
0.542870 0.000000 0.637690
0.680415 0.090242 0.651087
0.807584 0.307164 0.672450
0.881529 0.499916 0.702388
0.279179 0.242222 0.670893
0.299443 0.237736 0.669398
0.359777 0.219577 0.663844
0.445899 0.178164 0.654994
0.539422 0.055085 0.634455
0.678096 0.153841 0.648890
0.805509 0.333227 0.671931
0.879759 0.510857 0.702754
0.396246 0.410559 0.698268
0.403632 0.404303 0.696345
0.433112 0.382605 0.690669
0.486885 0.339422 0.679286
0.558251 0.255436 0.653803
0.689570 0.299321 0.660487
0.807248 0.429572 0.681910
0.877134 0.559686 0.711238
0.551019 0.587152 0.727169
0.555200 0.584253 0.724422
0.572930 0.577600 0.719387
0.593408 0.552575 0.713130
0.617975 0.479652 0.691890
0.714168 0.475532 0.685634
0.813504 0.555962 0.704036
0.874784 0.631586 0.727779
0.595422 0.670253 0.726253
0.605921 0.672114 0.727169
0.636957 0.677058 0.729427
0.677668 0.682460 0.732174
0.679957 0.645624 0.714290
0.721553 0.598993 0.693599
0.810117 0.644953 0.713069
0.868376 0.691279 0.737423
0.639643 0.737942 0.729427
0.649744 0.739986 0.732082
0.670771 0.739681 0.733303
0.698390 0.737423 0.733425
0.723201 0.730129 0.729000
0.744350 0.715419 0.717647
0.814115 0.734920 0.736385
0.867063 0.759121 0.759792
0.754849 0.805539 0.771084
0.759548 0.806516 0.773251
0.769619 0.806821 0.776150
0.780240 0.807706 0.778866
0.788266 0.807614 0.777798
0.795865 0.802792 0.768124
0.818173 0.795468 0.738949
0.867521 0.805753 0.767269
0.815152 0.856077 0.815061
0.815732 0.855985 0.814969
0.818235 0.856016 0.815183
0.823972 0.857450 0.816648
0.829343 0.858457 0.815488
0.836912 0.857176 0.811093
0.843961 0.853605 0.790372
0.869535 0.851835 0.772641
0.382879 0.319707 0.793729
0.399939 0.322118 0.795010
0.441566 0.312718 0.791928
0.504295 0.286625 0.786191
0.577630 0.223148 0.773068
0.670405 0.156283 0.758175
0.787869 0.269169 0.761196
0.870390 0.461860 0.762356
0.402716 0.357641 0.788663
0.416968 0.358373 0.789670
0.452094 0.346288 0.786923
0.506157 0.315557 0.780026
0.574029 0.251713 0.766354
0.662135 0.179202 0.749294
0.778897 0.274449 0.751827
0.864714 0.452522 0.754818
0.520348 0.509941 0.797971
0.523430 0.505150 0.797086
0.534295 0.486061 0.793149
0.559838 0.450813 0.786557
0.599847 0.384039 0.772702
0.670192 0.303929 0.754391
0.785824 0.381903 0.759274
0.866880 0.525444 0.765011
0.644800 0.655329 0.807736
0.645472 0.652003 0.805997
0.650233 0.642145 0.801694
0.652644 0.614069 0.796628
0.661067 0.559167 0.785183
0.692531 0.463996 0.766079
0.795529 0.514885 0.769924
0.867185 0.607202 0.775448
0.707515 0.733486 0.808957
0.710933 0.733303 0.808103
0.725948 0.735927 0.807492
0.731655 0.726955 0.803830
0.722774 0.690578 0.793301
0.722866 0.616480 0.774350
0.794675 0.610224 0.769589
0.864012 0.680446 0.782773
0.734188 0.779477 0.808103
0.738094 0.780026 0.808316
0.750729 0.781765 0.809110
0.769589 0.784634 0.810971
0.788968 0.785519 0.811978
0.785733 0.759548 0.800168
0.807919 0.721492 0.784329
0.864469 0.753597 0.796536
0.765621 0.819150 0.812955
0.769284 0.819821 0.813901
0.777523 0.819852 0.814542
0.790036 0.819974 0.815671
0.802060 0.817624 0.814542
0.813565 0.812314 0.810666
0.819638 0.797055 0.797391
0.865324 0.808011 0.807919
0.821897 0.852720 0.831388
0.823362 0.852934 0.831907
0.831022 0.855558 0.835904
0.839445 0.857511 0.839292
0.847440 0.859342 0.841978
0.852049 0.860380 0.841520
0.855070 0.857389 0.833280
0.869108 0.851469 0.810605
0.527459 0.476143 0.853605
0.534691 0.476478 0.853758
0.548882 0.464393 0.851591
0.579248 0.446174 0.849363
0.618952 0.406073 0.844816
0.670436 0.327214 0.836240
0.757076 0.316320 0.830167
0.851194 0.411475 0.828336
0.545373 0.502739 0.851255
0.551843 0.502953 0.851469
0.563897 0.490913 0.849760
0.587884 0.468482 0.847135
0.623072 0.427008 0.842649
0.670832 0.348150 0.834104
0.754238 0.326268 0.827054
0.848508 0.416022 0.825467
0.612634 0.591638 0.849393
0.615076 0.589593 0.849241
0.616907 0.573968 0.847044
0.635828 0.559136 0.846677
0.653834 0.515404 0.841978
0.684016 0.435370 0.833188
0.755550 0.392248 0.825376
0.847440 0.467659 0.824552
0.700832 0.697963 0.849912
0.701930 0.696559 0.850034
0.698970 0.684291 0.848447
0.700069 0.664820 0.846738
0.703639 0.628412 0.842985
0.715755 0.562585 0.835477
0.762997 0.493904 0.826383
0.848783 0.547936 0.826352
0.763485 0.770809 0.852293
0.765377 0.771145 0.852537
0.765530 0.766445 0.851347
0.765438 0.756374 0.849424
0.757626 0.728023 0.844816
0.752743 0.676448 0.837339
0.768826 0.587671 0.825589
0.849943 0.634485 0.828275
0.790738 0.809781 0.852842
0.791775 0.809445 0.852537
0.796780 0.809354 0.852262
0.806912 0.810575 0.853056
0.811368 0.804929 0.852201
0.805814 0.781247 0.846952
0.805173 0.729915 0.836881
0.856687 0.731380 0.836332
0.811429 0.840116 0.855344
0.812406 0.839994 0.855253
0.816190 0.839872 0.855253
0.824399 0.840909 0.856382
0.835508 0.842374 0.858152
0.848966 0.844175 0.860655
0.847562 0.827604 0.854459
0.859831 0.795377 0.840452
0.833646 0.865965 0.861295
0.834287 0.865812 0.861204
0.837339 0.865843 0.861509
0.843473 0.866545 0.862638
0.851286 0.867155 0.863859
0.859861 0.867155 0.864591
0.868009 0.865171 0.863462
0.869230 0.851804 0.851377
