其他预设/【234】港风调色预设/1.3D LUT预设（视频调色-PR-AE-PS-FCPX-达芬奇用）/22.港风色调-适合街道 __.cube
# Created by Adobe Lightroom plugin Export LUT (1.17.0)
# www.johnrellis.com/lightroom/exportlut.htm
# Preset: 22.港风色调-适合街道 [素锦印象]
# Color profile: /Library/Application Support/Adobe/Color/Profiles/Recommended/AdobeRGB1998.icc
LUT_3D_SIZE 5
DOMAIN_MIN 0.000000 0.000000 0.000000
DOMAIN_MAX 0.903226 0.903226 0.903226
0.111727 0.149508 0.144747
0.122957 0.149081 0.145205
0.262303 0.135378 0.148257
0.723903 0.000000 0.171176
0.903532 0.456397 0.456611
0.115206 0.156497 0.146090
0.130922 0.156954 0.148501
0.284031 0.167025 0.154299
0.734615 0.241886 0.199710
0.899901 0.558984 0.540154
0.155093 0.348211 0.162875
0.218418 0.352117 0.171633
0.468299 0.436530 0.236179
0.769406 0.568872 0.403204
0.880888 0.701259 0.659388
0.513542 0.753140 0.471168
0.563409 0.751614 0.494972
0.670802 0.744167 0.554650
0.777249 0.746914 0.630793
0.870726 0.805447 0.762966
0.789029 0.864805 0.778286
0.795529 0.863920 0.781064
0.809140 0.857206 0.781582
0.847135 0.862333 0.810452
0.883360 0.871733 0.841550
0.111482 0.149538 0.149355
0.122744 0.149416 0.150484
0.254337 0.135195 0.168002
0.673365 0.000000 0.214511
0.887572 0.427100 0.465278
0.115419 0.157870 0.155215
0.138766 0.159609 0.159121
0.290410 0.161624 0.175631
0.694759 0.201022 0.246342
0.883665 0.514488 0.519860
0.150546 0.348577 0.198001
0.226902 0.357031 0.213230
0.424262 0.390356 0.266575
0.744106 0.542351 0.425696
0.873869 0.694453 0.665888
0.526726 0.750362 0.515831
0.586145 0.747707 0.548882
0.679316 0.740902 0.592218
0.774502 0.743435 0.650507
0.868986 0.804562 0.769711
0.791531 0.864012 0.786191
0.797574 0.863127 0.788388
0.820249 0.863157 0.801114
0.851133 0.865293 0.820981
0.885008 0.873808 0.848142
0.102754 0.146853 0.245884
0.146029 0.145113 0.241032
0.277958 0.134646 0.261357
0.690425 0.151949 0.454994
0.871122 0.494942 0.610224
0.070344 0.170443 0.298497
0.147219 0.165255 0.290654
0.333135 0.171756 0.308232
0.701686 0.276097 0.473213
0.869780 0.546471 0.628595
0.000000 0.428077 0.423621
0.210971 0.433936 0.431220
0.522362 0.473457 0.485939
0.742153 0.553124 0.566918
0.865660 0.686549 0.701686
0.520745 0.752621 0.607935
0.573297 0.743862 0.618921
0.699001 0.740078 0.673243
0.778439 0.746700 0.711299
0.867948 0.804318 0.790829
0.783597 0.862058 0.795712
0.794980 0.862486 0.802579
0.821561 0.862699 0.817105
0.848753 0.862455 0.829892
0.881895 0.869841 0.851621
0.000000 0.121645 0.665492
0.121340 0.099458 0.659022
0.440314 0.000000 0.636194
0.688777 0.204532 0.658656
0.854124 0.627924 0.763210
0.000000 0.177768 0.690455
0.112917 0.174594 0.683558
0.464210 0.186587 0.656214
0.694301 0.321599 0.664973
0.851072 0.649928 0.765438
0.186038 0.511681 0.741299
0.343999 0.516777 0.740017
0.568505 0.520928 0.716579
0.720180 0.558312 0.695308
0.853849 0.707668 0.778927
0.563439 0.768887 0.774197
0.603571 0.763821 0.771572
0.702449 0.759762 0.773526
0.792508 0.761410 0.780819
0.866453 0.788815 0.808072
0.784482 0.866575 0.831083
0.793484 0.866239 0.833768
0.820279 0.867216 0.843320
0.852476 0.867460 0.854673
0.882078 0.869932 0.866880
0.000000 0.120455 0.864805
0.245457 0.123507 0.861753
0.521141 0.219364 0.851469
0.712917 0.400702 0.828000
0.840299 0.593378 0.833310
0.123964 0.232242 0.865385
0.295506 0.250126 0.861997
0.544610 0.339361 0.850706
0.716976 0.461585 0.825864
0.838499 0.616785 0.831632
0.463783 0.561120 0.869535
0.516808 0.568841 0.865354
0.632624 0.588708 0.853727
0.743496 0.616571 0.831785
0.842252 0.695766 0.837980
0.682063 0.775113 0.876524
0.697200 0.774807 0.875029
0.745388 0.777493 0.873930
0.797482 0.770840 0.863798
0.861631 0.794919 0.863859
0.790555 0.875486 0.891752
0.796292 0.874907 0.891539
0.819028 0.875425 0.893278
0.850492 0.875883 0.895476
0.884916 0.873167 0.894774
