其他预设/【234】港风调色预设/1.3D LUT预设（视频调色-PR-AE-PS-FCPX-达芬奇用）/22.港风色调-适合街道 __.cube
# Created by Adobe Lightroom plugin Export LUT (1.17.0)
# www.johnrellis.com/lightroom/exportlut.htm
# Preset: 22.港风色调-适合街道 [素锦印象]
# Color profile: /Library/Application Support/Adobe/Color/Profiles/Recommended/AdobeRGB1998.icc
LUT_3D_SIZE 32
0.111727 0.149508 0.144747
0.111727 0.149508 0.144747
0.111727 0.149508 0.144747
0.111971 0.149660 0.144747
0.112978 0.149538 0.144900
0.114473 0.149508 0.145022
0.118013 0.149233 0.144961
0.122957 0.149081 0.145205
0.129702 0.148836 0.145388
0.138888 0.148470 0.145510
0.151614 0.147860 0.145846
0.169223 0.146792 0.146181
0.192630 0.144961 0.146914
0.223301 0.141451 0.147677
0.262303 0.135378 0.148257
0.309483 0.124971 0.149020
0.363714 0.107851 0.149599
0.423743 0.079469 0.150118
0.486793 0.000000 0.151034
0.577569 0.000000 0.153567
0.659236 0.000000 0.159579
0.723903 0.000000 0.171176
0.771786 0.057038 0.189670
0.807980 0.147555 0.215549
0.836118 0.211368 0.247684
0.858518 0.270665 0.287114
0.876921 0.330571 0.335149
0.891844 0.392493 0.392004
0.903532 0.456397 0.456611
0.912322 0.522606 0.525963
0.918975 0.587884 0.594873
0.924834 0.646754 0.657069
0.111727 0.149508 0.144747
0.111727 0.149508 0.144747
0.111727 0.149508 0.144747
0.111971 0.149660 0.144747
0.112978 0.149538 0.144900
0.114748 0.149477 0.145022
0.117983 0.149416 0.144961
0.122927 0.149264 0.145174
0.129458 0.149020 0.145357
0.138216 0.148714 0.145632
0.150668 0.148196 0.145846
0.167544 0.147280 0.146365
0.189944 0.145724 0.146975
0.219547 0.142672 0.147738
0.256992 0.137301 0.148226
0.302556 0.127840 0.149081
0.355261 0.112917 0.149630
0.414099 0.087800 0.150332
0.476570 0.023163 0.151278
0.565332 0.000000 0.153353
0.645350 0.000000 0.158419
0.711055 0.000000 0.168429
0.760616 0.018067 0.184604
0.798672 0.133791 0.208042
0.828428 0.198062 0.238224
0.852476 0.257176 0.275669
0.872374 0.316960 0.321599
0.888518 0.379400 0.378027
0.901183 0.444038 0.442756
0.910796 0.510918 0.512810
0.917906 0.577630 0.583459
0.923888 0.638331 0.647761
0.111727 0.149508 0.144747
0.111727 0.149508 0.144747
0.111696 0.149691 0.144747
0.111971 0.149660 0.144747
0.113222 0.149660 0.144869
0.114717 0.149630 0.144991
0.117922 0.149569 0.145113
0.122896 0.149416 0.145174
0.129183 0.149386 0.145327
0.137972 0.149081 0.145632
0.150027 0.148623 0.145968
0.166781 0.147921 0.146487
0.188724 0.146517 0.147097
0.217807 0.143648 0.147890
0.254551 0.138674 0.148562
0.299351 0.129885 0.149142
0.351324 0.116304 0.149874
0.409369 0.094057 0.150454
0.471809 0.052186 0.151431
0.559899 0.000000 0.153475
0.639002 0.000000 0.158328
0.704921 0.000000 0.167575
0.755215 0.038911 0.182986
0.793942 0.134096 0.205509
0.824491 0.196353 0.234531
0.849241 0.253880 0.270848
0.869810 0.313268 0.316625
0.886564 0.375250 0.372137
0.899809 0.439673 0.436744
0.909758 0.506645 0.507225
0.917113 0.573602 0.578454
0.923247 0.634668 0.643336
0.111940 0.149813 0.144717
0.111940 0.149813 0.144717
0.111879 0.149813 0.144900
0.112428 0.149752 0.144869
0.113405 0.149783 0.145022
0.115114 0.149905 0.145113
0.118532 0.149966 0.145205
0.123445 0.149996 0.145418
0.129702 0.149966 0.145418
0.138399 0.149813 0.145846
0.150393 0.149538 0.146181
0.166903 0.149020 0.146853
0.188540 0.147860 0.147463
0.217014 0.145571 0.148074
0.253361 0.141176 0.148898
0.297337 0.133608 0.149599
0.348516 0.121614 0.150210
0.405585 0.103090 0.150942
0.470954 0.071015 0.151949
0.553338 0.000000 0.154116
0.628870 0.000000 0.158297
0.694209 0.000000 0.166720
0.746181 0.073671 0.181186
0.787350 0.143343 0.203098
0.820340 0.203159 0.232639
0.846921 0.261082 0.270756
0.868620 0.320592 0.318181
0.885832 0.382788 0.375402
0.899046 0.446418 0.440620
0.908995 0.511498 0.509941
0.916289 0.576135 0.579461
0.922484 0.634943 0.642359
0.112276 0.150240 0.144991
0.112276 0.150240 0.144991
0.112551 0.150210 0.144991
0.113069 0.150149 0.144991
0.113802 0.150240 0.145113
0.115480 0.150515 0.145235
0.119051 0.150729 0.145449
0.123964 0.150729 0.145510
0.130098 0.150851 0.145815
0.138766 0.150881 0.146059
0.150637 0.150942 0.146700
0.166751 0.150820 0.147311
0.188083 0.150057 0.147890
0.216190 0.148409 0.148775
0.252323 0.144930 0.149386
0.296910 0.138674 0.150301
0.348608 0.128389 0.151095
0.406256 0.113527 0.151797
0.476967 0.089082 0.153017
0.555444 0.049653 0.155276
0.627863 0.006378 0.159854
0.691218 0.061830 0.168307
0.742580 0.114778 0.182803
0.783963 0.167788 0.204593
0.817380 0.220462 0.234348
0.844511 0.274815 0.272679
0.866423 0.331670 0.320287
0.883818 0.390692 0.376928
0.897276 0.452033 0.441444
0.907378 0.515099 0.510246
0.914916 0.578210 0.578943
0.921294 0.636042 0.641596
0.112581 0.151186 0.145083
0.112795 0.151156 0.145235
0.113039 0.151278 0.145205
0.113832 0.151186 0.145205
0.114992 0.151217 0.145480
0.116915 0.151461 0.145571
0.119936 0.151705 0.145815
0.124971 0.152010 0.145998
0.131624 0.152377 0.146426
0.140291 0.152712 0.146792
0.152529 0.152987 0.147372
0.168826 0.153292 0.148104
0.190616 0.153017 0.148775
0.219089 0.152163 0.149569
0.255802 0.149569 0.150484
0.300816 0.144869 0.151247
0.353368 0.137057 0.152193
0.411414 0.126497 0.153048
0.488045 0.110628 0.154726
0.564294 0.096590 0.157565
0.635004 0.098482 0.162966
0.697047 0.123140 0.172763
0.810300 0.255344 0.241367
0.837919 0.303655 0.280613
0.858915 0.351232 0.324895
0.875242 0.398810 0.373754
0.888029 0.446723 0.426642
0.898131 0.496101 0.482582
0.906157 0.547112 0.539849
0.912749 0.597803 0.596338
0.918700 0.644617 0.647944
0.924285 0.687098 0.694270
0.113741 0.153567 0.145449
0.114260 0.153506 0.145449
0.114748 0.153445 0.145602
0.115663 0.153658 0.145724
0.117586 0.153597 0.145998
0.120150 0.153750 0.146242
0.123507 0.153933 0.146639
0.128023 0.154269 0.147250
0.135653 0.155093 0.147768
0.146548 0.156100 0.148348
0.161776 0.157168 0.149050
0.181125 0.157870 0.149722
0.206424 0.158450 0.150576
0.238743 0.158145 0.151339
0.278538 0.156741 0.152285
0.325170 0.153445 0.153323
0.378515 0.148745 0.154269
0.447913 0.142733 0.155734
0.527184 0.138552 0.158297
0.604730 0.143160 0.163668
0.676905 0.166079 0.173922
0.738247 0.204562 0.193515
0.786496 0.252781 0.224735
0.823239 0.304540 0.266789
0.850248 0.357153 0.317205
0.869566 0.406653 0.370397
0.883848 0.454566 0.425544
0.894652 0.502281 0.481575
0.903197 0.551415 0.538628
0.910124 0.599908 0.594141
0.916442 0.645136 0.645136
0.922301 0.686671 0.691249
0.115206 0.156497 0.146090
0.115663 0.156435 0.146242
0.116396 0.156527 0.146242
0.117556 0.156527 0.146517
0.119936 0.156405 0.146792
0.122621 0.156527 0.147189
0.126558 0.156771 0.147677
0.130922 0.156954 0.148501
0.137118 0.157595 0.149203
0.147951 0.159365 0.149813
0.163394 0.161196 0.150576
0.184329 0.163333 0.151522
0.211093 0.165042 0.152316
0.243931 0.166415 0.153292
0.284031 0.167025 0.154299
0.330571 0.166842 0.155276
0.388617 0.166262 0.156619
0.461524 0.167453 0.158694
0.534752 0.171176 0.161837
0.607263 0.183047 0.167849
0.675624 0.207065 0.179141
0.734615 0.241886 0.199710
0.781704 0.284977 0.231144
0.817960 0.330999 0.272892
0.845121 0.377752 0.322118
0.864805 0.423163 0.374426
0.879545 0.467445 0.428626
0.890898 0.512261 0.483833
0.899901 0.558984 0.540154
0.907286 0.605066 0.594568
0.913939 0.648859 0.645136
0.920195 0.689052 0.690700
0.118044 0.161135 0.147311
0.118502 0.161074 0.147463
0.119234 0.161135 0.147433
0.120821 0.161105 0.147738
0.123323 0.161105 0.147982
0.126375 0.161166 0.148531
0.130587 0.161349 0.149172
0.135805 0.161837 0.149752
0.142336 0.162387 0.150576
0.151003 0.163729 0.151888
0.166262 0.166629 0.152682
0.187564 0.170199 0.153719
0.216037 0.174105 0.154788
0.253147 0.177981 0.155978
0.294835 0.181399 0.157229
0.345495 0.185306 0.158511
0.411048 0.191348 0.160464
0.479347 0.198184 0.163180
0.547967 0.207889 0.167269
0.615869 0.224949 0.174594
0.680232 0.251041 0.188083
0.735866 0.284550 0.210788
0.780636 0.323491 0.243839
0.815549 0.364813 0.286595
0.841917 0.407202 0.335454
0.861357 0.447517 0.387213
0.876097 0.487922 0.440070
0.887510 0.529290 0.493660
0.896727 0.572290 0.547601
0.904387 0.615229 0.600092
0.911437 0.655848 0.648341
0.917998 0.693904 0.692470
0.121492 0.168521 0.148836
0.122164 0.168582 0.148989
0.123110 0.168460 0.148959
0.124849 0.168551 0.149233
0.127687 0.168490 0.149630
0.131258 0.168612 0.150118
0.135683 0.168734 0.150759
0.141848 0.169314 0.151461
0.149477 0.169924 0.152377
0.158389 0.171084 0.153658
0.170657 0.173373 0.155123
0.190707 0.178347 0.156435
0.219516 0.184665 0.157778
0.257115 0.191806 0.159213
0.309056 0.201663 0.161318
0.373388 0.213596 0.163790
0.438270 0.224918 0.166415
0.504631 0.237369 0.170291
0.569818 0.252903 0.176089
0.632410 0.273716 0.185977
0.690120 0.299565 0.202304
0.739345 0.329900 0.226688
0.779507 0.362676 0.259556
0.811643 0.397467 0.300206
0.836820 0.433021 0.346654
0.856260 0.468910 0.396368
0.871397 0.506279 0.448493
0.883482 0.545434 0.501884
0.893187 0.586786 0.556237
0.901488 0.627741 0.607965
0.909026 0.666835 0.655726
0.916014 0.703365 0.699123
0.125216 0.179599 0.150546
0.126070 0.179629 0.150668
0.126955 0.179660 0.150637
0.129305 0.179782 0.150881
0.132570 0.179934 0.151369
0.137148 0.180148 0.151980
0.142672 0.180484 0.152712
0.149477 0.181277 0.153628
0.158419 0.182498 0.154726
0.169192 0.184085 0.156130
0.181582 0.186007 0.157839
0.197665 0.189456 0.159884
0.226535 0.198611 0.162173
0.270207 0.212375 0.164462
0.324620 0.227848 0.167117
0.387610 0.244327 0.170169
0.456611 0.261814 0.174136
0.522759 0.279210 0.179782
0.583520 0.297124 0.187503
0.641993 0.319402 0.199802
0.695857 0.345678 0.218784
0.741939 0.374090 0.245426
0.780026 0.404517 0.280888
0.810636 0.435706 0.322515
0.834684 0.467384 0.369146
0.853269 0.499092 0.417517
0.867979 0.532067 0.467140
0.879820 0.567041 0.517418
0.889647 0.604211 0.568383
0.898283 0.641138 0.616815
0.906218 0.677028 0.662074
0.913603 0.711147 0.703700
0.130037 0.197757 0.152499
0.131044 0.197879 0.152590
0.132082 0.197879 0.152712
0.134920 0.198032 0.152926
0.138766 0.198428 0.153536
0.144381 0.198947 0.154208
0.151247 0.199741 0.155093
0.159396 0.200687 0.156222
0.169863 0.202457 0.157717
0.183047 0.205203 0.159396
0.198581 0.208438 0.161440
0.221103 0.215702 0.164828
0.292638 0.257420 0.176944
0.347814 0.281651 0.183230
0.415473 0.309117 0.188998
0.485969 0.335882 0.196780
0.554223 0.361456 0.207492
0.616571 0.385962 0.222202
0.671809 0.409857 0.242344
0.715084 0.430182 0.265354
0.751614 0.450172 0.293400
0.782712 0.471412 0.327764
0.808469 0.493233 0.365454
0.829679 0.516747 0.407355
0.846830 0.541253 0.450263
0.860777 0.566918 0.493233
0.872160 0.593530 0.535363
0.881804 0.621332 0.576898
0.890532 0.649653 0.616815
0.898619 0.678340 0.655360
0.906249 0.706752 0.692012
0.913542 0.734676 0.726772
0.137545 0.237797 0.155612
0.138735 0.237797 0.155734
0.140414 0.237247 0.155917
0.143832 0.236667 0.156191
0.149142 0.235966 0.156863
0.155917 0.235477 0.157626
0.164553 0.235782 0.158755
0.175021 0.236851 0.160250
0.187716 0.239109 0.162203
0.209659 0.249058 0.165286
0.237552 0.261631 0.169345
0.272129 0.276738 0.175051
0.312718 0.293553 0.182620
0.356298 0.310216 0.191897
0.418402 0.339666 0.202701
0.487800 0.371038 0.212741
0.553735 0.398779 0.225162
0.612848 0.423499 0.240940
0.666011 0.446693 0.261479
0.712245 0.468727 0.288151
0.750729 0.489631 0.321263
0.780056 0.507500 0.354192
0.804532 0.526146 0.390600
0.824949 0.546227 0.429664
0.841825 0.567163 0.469490
0.855711 0.589410 0.509483
0.867308 0.612970 0.548852
0.877348 0.637598 0.587732
0.886503 0.663081 0.625391
0.895048 0.689479 0.662226
0.903166 0.715877 0.697414
0.910918 0.742184 0.731136
0.143862 0.279698 0.158450
0.145571 0.279637 0.158541
0.147372 0.279210 0.158724
0.151766 0.278477 0.158999
0.158053 0.277470 0.159854
0.167239 0.278752 0.160922
0.179019 0.282139 0.162783
0.194034 0.286839 0.164950
0.212467 0.293187 0.168063
0.235660 0.302220 0.171969
0.266972 0.315526 0.177005
0.304448 0.331121 0.183902
0.346349 0.347906 0.192874
0.390539 0.364141 0.204044
0.434150 0.378546 0.216983
0.489113 0.403052 0.231632
0.551354 0.431617 0.245060
0.607996 0.456794 0.261204
0.659602 0.479561 0.281804
0.704982 0.500786 0.309148
0.743984 0.521263 0.342840
0.776669 0.541711 0.382269
0.801785 0.559808 0.420691
0.821530 0.577356 0.457679
0.837949 0.595880 0.495033
0.851652 0.615381 0.532311
0.863310 0.635889 0.568719
0.873594 0.657404 0.604273
0.883116 0.679988 0.639002
0.892027 0.703731 0.673457
0.900542 0.727871 0.706600
0.908721 0.752132 0.738552
0.155093 0.348211 0.162875
0.157382 0.348943 0.163088
0.159945 0.348669 0.163485
0.165591 0.348272 0.164218
0.174533 0.347753 0.165164
0.185977 0.347692 0.166690
0.200839 0.349065 0.168704
0.218418 0.352117 0.171633
0.239780 0.357427 0.175479
0.265568 0.365454 0.180941
0.298283 0.377661 0.187839
0.337865 0.393072 0.196811
0.381415 0.409155 0.208164
0.425696 0.424048 0.221378
0.468299 0.436530 0.236179
0.506340 0.445502 0.251133
0.551751 0.463630 0.269047
0.605676 0.488655 0.285557
0.655329 0.511131 0.306371
0.699214 0.531426 0.333257
0.737209 0.550347 0.365454
0.769406 0.568872 0.403204
0.795956 0.587304 0.443397
0.817899 0.606531 0.485756
0.834226 0.623346 0.521508
0.847959 0.641016 0.556939
0.860014 0.659937 0.591638
0.870817 0.680079 0.625879
0.880888 0.701259 0.659388
0.890379 0.723445 0.692256
0.899382 0.745968 0.723903
0.907988 0.768429 0.753964
0.173892 0.429633 0.171511
0.176791 0.430640 0.172091
0.180362 0.430762 0.172580
0.187655 0.430640 0.173556
0.198917 0.430365 0.175296
0.213748 0.430579 0.177462
0.232059 0.432319 0.180789
0.253819 0.435462 0.185153
0.279057 0.440314 0.191165
0.307469 0.446509 0.198642
0.339055 0.453681 0.207828
0.377813 0.463813 0.218387
0.418189 0.474098 0.230838
0.458503 0.483314 0.244724
0.496925 0.491066 0.259556
0.532311 0.497047 0.274540
0.564874 0.502342 0.290074
0.604028 0.517052 0.310338
0.651972 0.539940 0.333013
0.695888 0.561425 0.361425
0.733669 0.580682 0.394781
0.765713 0.598901 0.432807
0.792142 0.616541 0.472206
0.813901 0.634302 0.512932
0.831785 0.652796 0.553246
0.846494 0.671046 0.590478
0.858457 0.687312 0.621271
0.869322 0.704585 0.651545
0.879393 0.722835 0.681300
0.888945 0.741726 0.709987
0.897978 0.760983 0.737819
0.906554 0.780423 0.764584
0.201755 0.503899 0.188266
0.204623 0.504051 0.188815
0.208286 0.503532 0.189181
0.216403 0.502922 0.190249
0.228519 0.502159 0.192508
0.244388 0.501793 0.195285
0.264103 0.502464 0.199252
0.287053 0.504265 0.204959
0.313298 0.507347 0.211917
0.342840 0.511589 0.220676
0.375128 0.516960 0.231998
0.410712 0.523491 0.244907
0.450507 0.531945 0.259312
0.489418 0.538842 0.274510
0.525841 0.544427 0.290288
0.558526 0.548211 0.305364
0.588434 0.551202 0.320989
0.616693 0.554498 0.337072
0.651545 0.567132 0.359411
0.690394 0.585504 0.387152
0.727382 0.604242 0.419074
0.758938 0.621485 0.454597
0.785489 0.638025 0.492226
0.807614 0.654658 0.530724
0.826047 0.671656 0.569390
0.841733 0.688960 0.605798
0.855375 0.706752 0.640406
0.866972 0.723445 0.670466
0.877348 0.739803 0.697719
0.887175 0.756832 0.724331
0.896513 0.774350 0.750149
0.905333 0.792233 0.775296
0.244450 0.574243 0.218997
0.248722 0.575769 0.220371
0.302312 0.628382 0.261570
0.310430 0.627283 0.262943
0.322210 0.625635 0.265232
0.337652 0.623224 0.267735
0.356603 0.620905 0.271733
0.378454 0.618982 0.277348
0.404211 0.618097 0.285252
0.432166 0.618219 0.295811
0.462013 0.618860 0.308446
0.492164 0.619745 0.322728
0.523888 0.620905 0.337011
0.555993 0.622492 0.351720
0.585626 0.623499 0.366369
0.612696 0.623590 0.380499
0.637659 0.623255 0.394324
0.660487 0.622919 0.408026
0.682124 0.623102 0.422522
0.708980 0.631342 0.443915
0.736110 0.642756 0.472480
0.763912 0.657252 0.503746
0.787778 0.671138 0.536584
0.807828 0.684718 0.569543
0.824796 0.697658 0.600275
0.839506 0.710933 0.629603
0.852506 0.724727 0.657862
0.864469 0.739620 0.685878
0.875669 0.755673 0.713558
0.885588 0.770748 0.737667
0.895109 0.786404 0.761288
0.904021 0.802487 0.784390
0.312840 0.644617 0.275303
0.323095 0.650477 0.282841
0.334508 0.656001 0.290684
0.348852 0.660243 0.298528
0.364935 0.662593 0.305272
0.381506 0.662531 0.310796
0.399207 0.661219 0.315709
0.419196 0.659449 0.321599
0.442145 0.658167 0.329107
0.467140 0.657313 0.339025
0.493782 0.657130 0.351171
0.520500 0.657008 0.364477
0.546075 0.656275 0.377752
0.574487 0.656550 0.391394
0.601007 0.656397 0.404669
0.625727 0.655665 0.417182
0.648646 0.654688 0.429572
0.670039 0.653864 0.442206
0.690578 0.653742 0.455940
0.710292 0.654749 0.471382
0.734615 0.662898 0.492866
0.757717 0.673579 0.523522
0.781979 0.687526 0.555413
0.802609 0.700740 0.586542
0.820157 0.713161 0.615747
0.835416 0.725704 0.643610
0.848936 0.738613 0.670558
0.861357 0.752438 0.697078
0.872984 0.767239 0.723232
0.883909 0.782712 0.748775
0.894011 0.798123 0.772519
0.902983 0.812711 0.793881
0.368170 0.683650 0.325505
0.378058 0.687922 0.333379
0.389014 0.692073 0.341466
0.401923 0.695247 0.349828
0.416175 0.696895 0.356878
0.430549 0.696681 0.362188
0.445686 0.695308 0.366613
0.462867 0.693660 0.372259
0.482673 0.692317 0.379675
0.504204 0.691249 0.388495
0.527337 0.690669 0.399939
0.550744 0.690059 0.412421
0.573236 0.688899 0.424323
0.595727 0.687800 0.436805
0.619379 0.687068 0.448219
0.641535 0.686000 0.459846
0.662226 0.684718 0.470588
0.681880 0.683650 0.482033
0.700801 0.683253 0.494453
0.719142 0.683742 0.508415
0.736690 0.685267 0.523674
0.758145 0.693172 0.545251
0.777523 0.702876 0.575341
0.798367 0.715694 0.604273
0.816129 0.727565 0.631373
0.831662 0.739101 0.657130
0.845487 0.750942 0.682063
0.858213 0.763577 0.706783
0.870146 0.777188 0.731441
0.881437 0.791531 0.755520
0.891966 0.806302 0.778866
0.901671 0.821164 0.801328
0.426215 0.715724 0.381842
0.435584 0.719020 0.389715
0.445716 0.722255 0.398169
0.457404 0.724575 0.406256
0.469459 0.725704 0.412970
0.481361 0.725368 0.417975
0.493629 0.724117 0.422156
0.507469 0.722469 0.426337
0.523552 0.721004 0.432807
0.541283 0.719661 0.440558
0.560418 0.718532 0.449714
0.580224 0.717464 0.460426
0.599664 0.716182 0.470893
0.618433 0.714717 0.481514
0.638483 0.713771 0.492805
0.659144 0.713283 0.504326
0.679225 0.713222 0.516777
0.698573 0.713649 0.530022
0.717403 0.714870 0.545006
0.735470 0.716854 0.561059
0.752529 0.719631 0.577661
0.768429 0.722896 0.594476
0.785885 0.729976 0.614130
0.802213 0.739467 0.640925
0.819699 0.751247 0.666041
0.834836 0.762356 0.689540
0.848417 0.773404 0.711910
0.860960 0.784909 0.733730
0.872740 0.797086 0.755367
0.883757 0.809720 0.776455
0.894041 0.822721 0.797086
0.903349 0.835904 0.817319
0.513542 0.753140 0.471168
0.518029 0.754208 0.474800
0.522362 0.754940 0.478035
0.528252 0.755245 0.481392
0.535271 0.754971 0.484871
0.542992 0.753994 0.487434
0.552178 0.752834 0.490486
0.563409 0.751614 0.494972
0.576837 0.750576 0.501183
0.591913 0.749813 0.508965
0.608331 0.749142 0.518334
0.624781 0.748348 0.527825
0.640650 0.747189 0.536919
0.656031 0.745785 0.546014
0.670802 0.744167 0.554650
0.687373 0.743374 0.563958
0.703670 0.742885 0.573571
0.719539 0.742763 0.583825
0.735012 0.743069 0.594934
0.749844 0.743923 0.606561
0.763943 0.745144 0.618341
0.777249 0.746914 0.630793
0.789578 0.748836 0.642786
0.802823 0.753231 0.656641
0.816648 0.761410 0.678737
0.831937 0.772122 0.700557
0.845823 0.782864 0.721798
0.858671 0.793912 0.742519
0.870726 0.805447 0.762966
0.881987 0.817411 0.783078
0.892454 0.829679 0.802792
0.901976 0.842130 0.822232
0.567010 0.773068 0.527855
0.570977 0.773892 0.531182
0.575036 0.774655 0.534569
0.580041 0.774899 0.537987
0.585412 0.774624 0.540642
0.591058 0.773739 0.542473
0.597681 0.772549 0.544396
0.606012 0.771298 0.547570
0.616022 0.770199 0.551995
0.627680 0.769253 0.557763
0.640650 0.768490 0.565118
0.653986 0.767697 0.572808
0.667109 0.766720 0.580407
0.680140 0.765652 0.588220
0.692805 0.764492 0.595880
0.705776 0.763485 0.603723
0.720150 0.763302 0.612512
0.734218 0.763455 0.621637
0.748013 0.764004 0.631464
0.761440 0.764981 0.642023
0.774350 0.766384 0.652888
0.786618 0.768246 0.664118
0.798093 0.770352 0.675288
0.808743 0.772641 0.686091
0.815305 0.770565 0.687373
0.828122 0.778714 0.707149
0.842100 0.789120 0.727535
0.855314 0.799924 0.747494
0.867674 0.811093 0.767239
0.879332 0.822690 0.786709
0.890257 0.834775 0.806271
0.900145 0.846921 0.825437
0.633448 0.796048 0.599969
0.636988 0.796872 0.603388
0.639643 0.797269 0.605615
0.642115 0.797208 0.606897
0.644892 0.796597 0.607630
0.647913 0.795590 0.607996
0.651545 0.794247 0.608179
0.656062 0.792752 0.608667
0.661738 0.791165 0.609888
0.668818 0.789700 0.612329
0.676783 0.788266 0.615442
0.685908 0.786984 0.619623
0.695277 0.785641 0.624170
0.704677 0.784115 0.628656
0.713710 0.782315 0.632715
0.722744 0.780484 0.636927
0.732967 0.779141 0.642023
0.744503 0.778653 0.648432
0.756527 0.778958 0.656550
0.768765 0.779995 0.666072
0.780850 0.781552 0.676265
0.792294 0.783322 0.686458
0.802762 0.785092 0.696071
0.812314 0.786648 0.704860
0.820890 0.787961 0.712734
0.829191 0.789761 0.720546
0.841398 0.798093 0.738033
0.853635 0.807553 0.755978
0.865965 0.818051 0.774166
0.877684 0.829068 0.792569
0.888731 0.840543 0.811154
0.898802 0.852232 0.829740
0.669337 0.809567 0.639857
0.672175 0.810361 0.642695
0.674372 0.810727 0.644617
0.676417 0.810666 0.645655
0.678523 0.810208 0.646326
0.681025 0.809415 0.646723
0.684108 0.808438 0.647120
0.688014 0.807340 0.648096
0.692866 0.806302 0.649561
0.699001 0.805325 0.652216
0.705837 0.804410 0.655299
0.713558 0.803647 0.659327
0.721706 0.802823 0.663813
0.729702 0.801846 0.667964
0.737575 0.800717 0.672023
0.745327 0.799435 0.675990
0.753231 0.798276 0.680293
0.762844 0.798001 0.685847
0.773007 0.798337 0.692561
0.783413 0.799222 0.700343
0.793729 0.800565 0.708614
0.803647 0.802121 0.717128
0.812924 0.803677 0.725124
0.821530 0.805203 0.732784
0.829404 0.806607 0.739742
0.836698 0.807858 0.746242
0.843565 0.809323 0.752621
0.855253 0.818051 0.768612
0.866514 0.827390 0.785580
0.878202 0.838071 0.802914
0.889128 0.848905 0.820371
0.899107 0.859983 0.838132
0.705287 0.824033 0.680537
0.707027 0.824491 0.682155
0.708095 0.824613 0.683009
0.709163 0.824338 0.683345
0.710231 0.823728 0.683070
0.711604 0.822904 0.682765
0.713588 0.821988 0.682673
0.716365 0.820951 0.683009
0.720150 0.820005 0.684169
0.724941 0.819272 0.686122
0.730556 0.818570 0.688869
0.737118 0.818143 0.692439
0.743893 0.817624 0.696345
0.750759 0.816922 0.700160
0.757259 0.816068 0.703487
0.763760 0.815061 0.706752
0.770321 0.814084 0.710292
0.777523 0.813504 0.714565
0.786099 0.813809 0.720027
0.795102 0.814603 0.726406
0.804105 0.815793 0.733364
0.812894 0.817227 0.740566
0.821225 0.818692 0.747585
0.829068 0.820157 0.754269
0.836362 0.821530 0.760525
0.843137 0.822843 0.766415
0.849607 0.824277 0.772183
0.855711 0.825772 0.777859
0.866728 0.834348 0.792386
0.877134 0.843534 0.808682
0.888029 0.854002 0.825345
0.898131 0.864683 0.842405
0.732296 0.836088 0.711543
0.733364 0.836362 0.712581
0.734279 0.836454 0.713252
0.735256 0.836332 0.713649
0.736660 0.836057 0.714137
0.738796 0.835813 0.715145
0.742092 0.835813 0.717098
0.746334 0.835996 0.719966
0.751553 0.836332 0.723690
0.757504 0.836881 0.728054
0.763943 0.837522 0.732876
0.770565 0.838193 0.737881
0.777157 0.838682 0.742702
0.783383 0.838987 0.747066
0.789212 0.838926 0.750790
0.794522 0.838529 0.753811
0.799741 0.838041 0.756771
0.805142 0.837644 0.760037
0.811460 0.837858 0.764126
0.818448 0.838590 0.768917
0.825559 0.839628 0.774197
0.832578 0.840848 0.779629
0.839322 0.842069 0.784878
0.845762 0.843290 0.790066
0.851865 0.844511 0.795010
0.857633 0.845731 0.799771
0.863218 0.847044 0.804562
0.868589 0.848447 0.809323
0.873777 0.850004 0.814176
0.883268 0.857816 0.826566
0.892180 0.866178 0.841489
0.901396 0.875669 0.856779
0.769314 0.853849 0.754849
0.769894 0.854002 0.755337
0.770230 0.853910 0.755428
0.770596 0.853696 0.755337
0.771267 0.853300 0.755306
0.772244 0.852873 0.755337
0.773953 0.852506 0.755917
0.776272 0.852232 0.756985
0.779263 0.852079 0.758602
0.782864 0.852049 0.760708
0.786801 0.852049 0.763149
0.791196 0.852110 0.765896
0.795712 0.852110 0.768704
0.800229 0.852018 0.771450
0.804715 0.851804 0.774075
