其他预设/【234】港风调色预设/1.3D LUT预设（视频调色-PR-AE-PS-FCPX-达芬奇用）/22.港风色调-适合街道 __.cube
# Created by Adobe Lightroom plugin Export LUT (1.17.0)
# www.johnrellis.com/lightroom/exportlut.htm
# Preset: 22.港风色调-适合街道 [素锦印象]
# Color profile: /Library/Application Support/Adobe/Color/Profiles/Recommended/AdobeRGB1998.icc
LUT_3D_SIZE 8
DOMAIN_MIN 0.000000 0.000000 0.000000
DOMAIN_MAX 0.903226 0.903226 0.903226
0.111727 0.149508 0.144747
0.112978 0.149538 0.144900
0.129702 0.148836 0.145388
0.192630 0.144961 0.146914
0.363714 0.107851 0.149599
0.659236 0.000000 0.159579
0.836118 0.211368 0.247684
0.903532 0.456397 0.456611
0.112276 0.150240 0.144991
0.113802 0.150240 0.145113
0.130098 0.150851 0.145815
0.188083 0.150057 0.147890
0.348608 0.128389 0.151095
0.627863 0.006378 0.159854
0.817380 0.220462 0.234348
0.897276 0.452033 0.441444
0.118044 0.161135 0.147311
0.123323 0.161105 0.147982
0.142336 0.162387 0.150576
0.216037 0.174105 0.154788
0.411048 0.191348 0.160464
0.680232 0.251041 0.188083
0.841917 0.407202 0.335454
0.896727 0.572290 0.547601
0.137545 0.237797 0.155612
0.149142 0.235966 0.156863
0.187716 0.239109 0.162203
0.312718 0.293553 0.182620
0.553735 0.398779 0.225162
0.750729 0.489631 0.321263
0.841825 0.567163 0.469490
0.886503 0.663081 0.625391
0.201755 0.503899 0.188266
0.228519 0.502159 0.192508
0.313298 0.507347 0.211917
0.450507 0.531945 0.259312
0.588434 0.551202 0.320989
0.727382 0.604242 0.419074
0.826047 0.671656 0.569390
0.877348 0.739803 0.697719
0.426215 0.715724 0.381842
0.469459 0.725704 0.412970
0.523552 0.721004 0.432807
0.599664 0.716182 0.470893
0.679225 0.713222 0.516777
0.752529 0.719631 0.577661
0.819699 0.751247 0.666041
0.872740 0.797086 0.755367
0.669337 0.809567 0.639857
0.678523 0.810208 0.646326
0.692866 0.806302 0.649561
0.721706 0.802823 0.663813
0.753231 0.798276 0.680293
0.793729 0.800565 0.708614
0.829404 0.806607 0.739742
0.866514 0.827390 0.785580
0.789029 0.864805 0.778286
0.790677 0.864378 0.778744
0.798215 0.863981 0.782681
0.813260 0.865080 0.792996
0.818692 0.857603 0.788083
0.840818 0.860746 0.805142
0.864561 0.866941 0.825376
0.883360 0.871733 0.841550
0.111574 0.149691 0.145205
0.112917 0.149508 0.145205
0.127718 0.149050 0.147097
0.184207 0.145693 0.150637
0.337102 0.115389 0.156161
0.602258 0.000000 0.168917
0.803494 0.146395 0.236088
0.891844 0.408606 0.420569
0.112123 0.150240 0.145632
0.114260 0.150454 0.146029
0.131044 0.151125 0.148074
0.187320 0.150088 0.151949
0.338689 0.128908 0.157809
0.593378 0.000000 0.170901
0.788998 0.174838 0.230106
0.884581 0.403326 0.403845
0.117922 0.160189 0.149538
0.124697 0.160983 0.150973
0.143130 0.162448 0.153933
0.212924 0.172702 0.159701
0.384894 0.184390 0.168582
0.632868 0.218875 0.193423
0.807797 0.343542 0.292485
0.885649 0.519707 0.494606
0.135409 0.225864 0.160159
0.148440 0.227756 0.162387
0.187716 0.235019 0.168826
0.274449 0.258518 0.183749
0.465370 0.328588 0.209537
0.686458 0.417395 0.270970
0.813596 0.506767 0.399176
0.876493 0.622614 0.578637
0.201144 0.491707 0.204959
0.224857 0.486091 0.207034
0.300694 0.483192 0.221408
0.412634 0.489815 0.252995
0.539696 0.503044 0.297978
0.698604 0.571527 0.389960
0.814084 0.649561 0.542748
0.870817 0.722805 0.677790
0.405676 0.699916 0.375586
0.426184 0.699367 0.382544
0.486030 0.695979 0.402777
0.573510 0.695827 0.447242
0.663630 0.698756 0.502678
0.745418 0.711727 0.573816
0.814572 0.744442 0.660182
0.868254 0.789181 0.746395
0.645106 0.798672 0.617365
0.646845 0.796353 0.614801
0.667536 0.793729 0.623194
0.706081 0.793088 0.646632
0.744625 0.791318 0.670863
0.785885 0.792996 0.698329
0.821286 0.797024 0.726314
0.859709 0.817655 0.772519
0.781247 0.860105 0.770565
0.784390 0.860410 0.772671
0.792905 0.860380 0.777584
0.809110 0.861936 0.788907
0.825650 0.862150 0.799252
0.843107 0.862486 0.810086
0.863218 0.865446 0.824155
0.880888 0.868711 0.837736
0.111513 0.149569 0.152926
0.115419 0.149294 0.152865
0.130404 0.149538 0.154726
0.191897 0.146975 0.168368
0.363958 0.101228 0.188479
0.640436 0.000000 0.225284
0.815305 0.197665 0.330266
0.889372 0.460792 0.506676
0.112276 0.151186 0.155367
0.117250 0.151064 0.155581
0.134554 0.151919 0.156863
0.197452 0.150240 0.169772
0.369390 0.111757 0.187961
0.630243 0.000000 0.225376
0.806607 0.224308 0.325719
0.885618 0.467720 0.504143
0.117830 0.164614 0.162966
0.124819 0.165347 0.164248
0.157900 0.168765 0.170474
0.238102 0.174166 0.181369
0.437263 0.183536 0.210269
0.665187 0.231174 0.266178
0.811368 0.371008 0.380224
0.880552 0.543481 0.550652
0.134035 0.242924 0.185214
0.148867 0.247501 0.188205
0.211917 0.266606 0.204685
0.315923 0.289891 0.233066
0.525689 0.369787 0.288182
0.709041 0.448310 0.366674
0.817441 0.540520 0.490761
0.874601 0.646143 0.629023
0.193729 0.504051 0.262577
0.229557 0.507500 0.270787
0.334752 0.514794 0.301488
0.455421 0.523949 0.342260
0.579950 0.539300 0.392401
0.716762 0.597192 0.478096
0.815732 0.667597 0.601892
0.869505 0.730434 0.701381
0.416571 0.705226 0.432471
0.446296 0.704524 0.445991
0.516014 0.699092 0.475257
0.588952 0.694850 0.503349
0.666468 0.694942 0.544091
0.741939 0.707271 0.600519
0.812345 0.744350 0.678767
0.869139 0.793851 0.762081
0.662684 0.802243 0.650843
0.669703 0.800198 0.654108
0.687495 0.795590 0.660304
0.715480 0.792538 0.671870
0.748745 0.789944 0.688899
0.788327 0.793118 0.714992
0.825284 0.801541 0.745846
0.865141 0.826230 0.791897
0.784207 0.860624 0.779507
0.786343 0.859464 0.780331
0.793057 0.858671 0.782956
0.811215 0.861784 0.796414
0.826535 0.861631 0.804837
0.844205 0.862730 0.816159
0.864561 0.866514 0.830411
0.882689 0.870909 0.844694
0.111360 0.148409 0.189487
0.119570 0.148013 0.190524
0.146822 0.147738 0.188815
0.199283 0.146151 0.199466
0.377386 0.119966 0.264866
0.634150 0.000000 0.353033
0.798154 0.225895 0.438392
0.876768 0.453407 0.553765
0.108492 0.151369 0.201755
0.119905 0.151186 0.201175
0.152682 0.151064 0.197787
0.210880 0.150454 0.207645
0.395575 0.136080 0.276371
0.635248 0.088045 0.353674
0.794705 0.249088 0.435798
0.874907 0.462348 0.553094
0.105867 0.176944 0.228519
0.117525 0.176089 0.231205
0.166690 0.173007 0.230747
0.252781 0.180789 0.238987
0.460151 0.206180 0.317693
0.681849 0.257939 0.398016
0.813962 0.410315 0.498665
0.875669 0.563348 0.612024
0.104829 0.284733 0.281865
0.128115 0.288365 0.285832
0.210178 0.303014 0.302373
0.376806 0.336461 0.345098
0.547509 0.371649 0.385351
0.705287 0.443122 0.455970
0.808927 0.544732 0.556207
0.869993 0.650721 0.664057
0.186679 0.546166 0.391669
0.225742 0.542687 0.392248
0.342992 0.545739 0.411292
0.511131 0.565240 0.473121
0.619684 0.575830 0.515465
0.736782 0.629816 0.585534
0.816403 0.682979 0.659327
0.868101 0.735470 0.727230
0.452552 0.724514 0.533318
0.498024 0.730404 0.555566
0.561639 0.721645 0.574701
0.643854 0.716304 0.612085
0.699825 0.714382 0.635187
0.755367 0.721157 0.664759
0.817624 0.755367 0.719509
0.870878 0.799344 0.782376
0.669093 0.805783 0.682063
0.679927 0.805570 0.688289
0.708492 0.803769 0.704250
0.742458 0.801877 0.722988
0.769436 0.799954 0.734157
0.798978 0.800595 0.748989
0.829068 0.805753 0.768124
0.867735 0.830442 0.806760
0.790585 0.864897 0.796414
0.793942 0.864988 0.798581
0.802396 0.864012 0.802945
0.815640 0.863432 0.810025
0.829740 0.863005 0.816434
0.846220 0.863737 0.825803
0.865812 0.867521 0.838682
0.884154 0.872679 0.852720
0.052979 0.143984 0.344823
0.091402 0.142458 0.345159
0.166323 0.138155 0.334417
0.251987 0.131655 0.320012
0.405097 0.099214 0.375341
0.641688 0.150423 0.495552
0.791653 0.357153 0.584436
0.865629 0.538170 0.663050
0.000000 0.149172 0.365942
0.069703 0.147951 0.369238
0.168399 0.143557 0.357336
0.262852 0.138521 0.335149
0.418067 0.121828 0.387213
0.649744 0.200748 0.505608
0.792630 0.385901 0.590234
0.864866 0.550011 0.666072
0.000000 0.192630 0.428626
0.000000 0.189242 0.427802
0.167788 0.182528 0.411994
0.308385 0.186435 0.397925
0.458442 0.208103 0.424598
0.660609 0.318486 0.524865
0.790768 0.451728 0.599725
0.861265 0.574762 0.667628
0.000000 0.353704 0.504234
0.000000 0.353002 0.505150
0.213931 0.356756 0.517418
0.399420 0.357061 0.512810
0.546838 0.390356 0.511131
0.698939 0.483436 0.580652
0.797665 0.555261 0.631037
0.862364 0.629541 0.684779
0.125887 0.577417 0.569970
0.194156 0.578851 0.572320
0.336522 0.579278 0.576898
0.501152 0.584466 0.590417
0.640986 0.594324 0.609400
0.730251 0.615259 0.630823
0.805478 0.659083 0.674983
0.862364 0.714656 0.731136
0.423011 0.719966 0.606775
0.449287 0.718257 0.609705
0.518395 0.710506 0.616754
0.613001 0.705623 0.638331
0.694453 0.705867 0.668025
0.753994 0.718532 0.699458
0.819852 0.758511 0.748135
0.869505 0.794644 0.792325
0.666865 0.807126 0.715572
0.673548 0.805570 0.716884
0.698024 0.802335 0.724666
0.735012 0.800381 0.739864
0.770962 0.799435 0.756100
0.798703 0.799130 0.767483
0.827390 0.803494 0.781979
0.867094 0.828794 0.815274
0.782528 0.862486 0.802884
0.784878 0.861997 0.803616
0.793332 0.860899 0.806821
0.813474 0.863981 0.819638
0.829191 0.863127 0.826322
0.845426 0.863127 0.833494
0.863859 0.865629 0.843778
0.882322 0.870359 0.855955
0.000000 0.125948 0.629419
0.000000 0.120699 0.627283
0.177249 0.100710 0.610590
0.349523 0.035126 0.596826
0.490578 0.017670 0.576440
0.653590 0.154452 0.621485
0.788876 0.421973 0.686366
0.857725 0.626429 0.753811
0.000000 0.138949 0.624994
0.000000 0.135042 0.621576
0.170443 0.120180 0.609766
0.348333 0.092531 0.595819
0.486915 0.103670 0.571496
0.650904 0.193057 0.618616
0.786648 0.439979 0.685939
0.856443 0.629999 0.752956
0.000000 0.204349 0.669642
0.000000 0.204349 0.666072
0.191684 0.205417 0.657191
0.392035 0.213596 0.641352
0.529137 0.240726 0.610529
0.672389 0.330816 0.641535
0.790066 0.525170 0.701991
0.856565 0.656794 0.760006
0.000000 0.423041 0.719875
0.130282 0.420081 0.715480
0.319738 0.422492 0.708034
0.491371 0.441871 0.701930
0.612329 0.465248 0.680415
0.713802 0.522515 0.687861
0.801724 0.634028 0.734829
0.859861 0.697780 0.773617
0.290776 0.608698 0.728145
0.334356 0.609949 0.728573
0.449744 0.614191 0.729458
0.580407 0.626337 0.732631
0.666712 0.623468 0.720119
0.733089 0.636011 0.710628
0.804959 0.690242 0.747097
0.859525 0.721920 0.772702
0.478645 0.740414 0.741787
0.508507 0.741787 0.744594
0.572168 0.739254 0.745541
0.646509 0.736416 0.747158
0.711360 0.734066 0.749050
0.773281 0.739162 0.758053
0.821225 0.754086 0.772976
0.867399 0.780331 0.799222
0.682643 0.815213 0.771878
0.692683 0.815640 0.774655
0.714778 0.813962 0.777981
0.745510 0.812070 0.784115
0.777615 0.810391 0.791501
0.808957 0.809171 0.801053
0.833494 0.810391 0.809567
0.873808 0.836271 0.837949
0.784848 0.865995 0.825437
0.786831 0.865476 0.825650
0.794614 0.864439 0.827451
0.809842 0.864897 0.833280
0.827146 0.865019 0.839414
0.845975 0.864988 0.846738
0.863828 0.866239 0.854795
0.882475 0.870420 0.864927
0.000000 0.106294 0.782162
0.000000 0.099062 0.783627
0.224643 0.070100 0.778439
0.410132 0.023835 0.769986
0.556664 0.126101 0.752865
0.671229 0.243565 0.739712
0.776089 0.399542 0.755917
0.849516 0.615229 0.791531
0.000000 0.128939 0.776364
0.000000 0.125277 0.777462
0.217746 0.111452 0.772793
0.403418 0.106111 0.762387
0.548638 0.156985 0.744350
0.660578 0.248783 0.728420
0.766415 0.389807 0.744900
0.843503 0.600855 0.782010
0.000000 0.231815 0.794736
0.000000 0.233860 0.793149
0.267948 0.241581 0.786313
0.441108 0.265202 0.775418
0.573785 0.305852 0.756313
0.675105 0.367864 0.737362
0.775265 0.488289 0.756039
0.848020 0.652613 0.795682
0.297368 0.459113 0.813230
0.328862 0.459205 0.810117
0.410407 0.458106 0.802670
0.531060 0.480690 0.793820
0.630549 0.502403 0.777707
0.707118 0.527764 0.757046
0.788998 0.603662 0.773648
0.852537 0.705226 0.809812
0.457618 0.626215 0.817685
0.476387 0.626459 0.815946
0.541650 0.633143 0.813016
0.619165 0.641047 0.806455
0.679622 0.638788 0.793668
0.733700 0.639277 0.774502
0.793545 0.672847 0.780209
0.854948 0.746639 0.819394
0.589776 0.742489 0.820554
0.602777 0.743221 0.820462
0.641382 0.745602 0.820310
0.692836 0.750240 0.821286
0.742123 0.754269 0.822416
0.781094 0.750240 0.814939
0.816251 0.755642 0.808560
0.863340 0.790066 0.835203
0.690974 0.820859 0.832547
0.699214 0.821286 0.833555
0.719020 0.820645 0.834012
0.747494 0.820340 0.835386
0.776608 0.818509 0.835355
0.807553 0.817319 0.836057
0.839231 0.816861 0.837491
0.872892 0.826902 0.847318
0.778500 0.865354 0.848356
0.781308 0.865354 0.848844
0.794766 0.867643 0.853666
0.810056 0.868833 0.857359
0.827573 0.869596 0.861265
0.846738 0.870146 0.866148
0.866209 0.870024 0.871580
0.883299 0.871336 0.877562
0.000000 0.120455 0.864805
0.113649 0.121431 0.864866
0.286656 0.127077 0.860533
0.448402 0.174990 0.855436
0.585779 0.269535 0.845975
0.691157 0.374853 0.831815
0.775845 0.489876 0.827054
0.840299 0.593378 0.833310
0.000000 0.151247 0.862852
0.126802 0.155062 0.862943
0.293797 0.166079 0.859159
0.450813 0.209506 0.853086
0.586175 0.293889 0.843565
0.689723 0.388342 0.829374
0.772305 0.491005 0.823301
0.837491 0.591363 0.829892
0.157839 0.265141 0.864714
0.218387 0.271672 0.864012
0.339361 0.286015 0.858915
0.490974 0.343664 0.855375
0.609094 0.405310 0.844785
0.699580 0.464881 0.829557
0.774563 0.538323 0.822141
0.837247 0.621393 0.830289
0.375982 0.468177 0.867826
0.393927 0.468910 0.867704
0.461738 0.480201 0.863493
0.562402 0.512383 0.857725
0.654017 0.548394 0.848661
0.725246 0.577935 0.835813
0.784024 0.612696 0.826047
0.840848 0.672267 0.835721
0.542809 0.640223 0.871733
0.559564 0.644495 0.871489
0.594507 0.647944 0.867979
0.642359 0.651606 0.862394
0.694240 0.655879 0.854276
0.747097 0.664698 0.842771
0.791714 0.675044 0.829191
0.845914 0.723629 0.843046
0.651667 0.749599 0.873381
0.656550 0.749142 0.872618
0.675380 0.749264 0.870970
0.707576 0.751583 0.869932
0.742824 0.751553 0.866880
0.780331 0.751369 0.860563
0.817960 0.757229 0.851774
0.859251 0.783536 0.860655
0.731441 0.824186 0.879881
0.734249 0.823880 0.879545
0.744717 0.823239 0.878843
0.764706 0.824125 0.879210
0.790097 0.825620 0.880308
0.819394 0.828519 0.882811
0.845121 0.825956 0.879728
0.868589 0.826688 0.873289
0.790555 0.875486 0.891752
0.792020 0.875181 0.891539
0.798581 0.874876 0.891600
0.811246 0.875212 0.892638
0.827298 0.875517 0.893858
0.845579 0.875792 0.895109
0.865415 0.875944 0.896361
0.884916 0.873167 0.894774
