其他预设/【234】港风调色预设/1.3D LUT预设（视频调色-PR-AE-PS-FCPX-达芬奇用）/23.港风色调-适合街道 __.cube
# Created by Adobe Lightroom plugin Export LUT (1.17.0)
# www.johnrellis.com/lightroom/exportlut.htm
# Preset: 23.港风色调-适合街道 [素锦印象]
# Color profile: /Library/Application Support/Adobe/Color/Profiles/Recommended/AdobeRGB1998.icc
LUT_3D_SIZE 32
0.133364 0.130190 0.141726
0.133364 0.130190 0.141726
0.133364 0.130190 0.141726
0.133364 0.130190 0.141726
0.133364 0.130190 0.141726
0.133364 0.130190 0.141726
0.133791 0.130129 0.141726
0.135470 0.130007 0.141665
0.139590 0.129671 0.141604
0.147738 0.129335 0.141421
0.162112 0.128511 0.141054
0.184237 0.127810 0.140352
0.214481 0.126192 0.139254
0.251621 0.123598 0.137636
0.294011 0.120241 0.135317
0.340063 0.116030 0.132418
0.388678 0.110384 0.128634
0.439155 0.103334 0.124178
0.489998 0.095583 0.118593
0.554864 0.084260 0.110475
0.616846 0.070161 0.101381
0.673304 0.051698 0.091798
0.727810 0.021057 0.081971
0.779416 0.000000 0.072358
0.826566 0.000000 0.064973
0.868284 0.000000 0.063386
0.905180 0.000000 0.071199
0.937591 0.008057 0.087129
0.965881 0.068147 0.111147
0.990417 0.106081 0.140414
1.000000 0.145785 0.176059
1.000000 0.189822 0.218021
0.133364 0.130190 0.141726
0.133364 0.130190 0.141726
0.133364 0.130190 0.141726
0.133364 0.130190 0.141726
0.133364 0.130190 0.141726
0.133364 0.130190 0.141726
0.133791 0.130129 0.141726
0.135470 0.130007 0.141665
0.139559 0.129885 0.141573
0.147707 0.129519 0.141390
0.161379 0.129061 0.141024
0.183169 0.128450 0.140352
0.212741 0.126925 0.139284
0.249058 0.124971 0.137667
0.290715 0.122225 0.135409
0.336095 0.118563 0.132570
0.384161 0.113893 0.128817
0.434119 0.108125 0.124269
0.484810 0.101167 0.118990
0.548394 0.091707 0.111177
0.609094 0.080354 0.102296
0.664607 0.069429 0.093233
0.718563 0.051270 0.083284
0.770260 0.021363 0.073732
0.818204 0.000488 0.065400
0.861143 0.000000 0.062654
0.899321 0.000488 0.068147
0.932830 0.032502 0.084108
0.962158 0.076326 0.107027
0.987488 0.109560 0.136080
1.000000 0.146578 0.170962
1.000000 0.188296 0.212955
0.133364 0.130190 0.141726
0.133364 0.130190 0.141726
0.133364 0.130190 0.141726
0.133364 0.130190 0.141726
0.133364 0.130190 0.141726
0.133364 0.130190 0.141726
0.133791 0.130129 0.141726
0.135653 0.130190 0.141665
0.139528 0.130068 0.141573
0.147677 0.129732 0.141390
0.161318 0.129671 0.140993
0.182803 0.129335 0.140291
0.211795 0.128206 0.139223
0.248234 0.126894 0.137575
0.289250 0.124758 0.135317
0.334356 0.121675 0.132479
0.382238 0.118074 0.128695
0.431739 0.113405 0.124361
0.482460 0.107851 0.119051
0.545525 0.100496 0.111086
0.605585 0.092042 0.102296
0.660670 0.083558 0.093141
0.714199 0.073548 0.083650
0.765743 0.064973 0.073487
0.814084 0.053437 0.065126
0.857481 0.043336 0.061433
0.896208 0.048188 0.066957
0.930327 0.067903 0.082551
0.960174 0.090089 0.105318
0.985901 0.117891 0.134463
1.000000 0.151400 0.169223
1.000000 0.191318 0.210636
0.133364 0.130190 0.141726
0.133364 0.130190 0.141726
0.133364 0.130190 0.141726
0.133364 0.130190 0.141726
0.133364 0.130190 0.141726
0.133364 0.130190 0.141726
0.133974 0.130282 0.141695
0.135836 0.130343 0.141634
0.140078 0.130556 0.141512
0.148348 0.130556 0.141299
0.162173 0.131014 0.140871
0.183658 0.131044 0.140139
0.212558 0.131075 0.138979
0.248203 0.130617 0.137301
0.288975 0.129610 0.135134
0.333593 0.128145 0.132021
0.380926 0.126192 0.128389
0.430060 0.122896 0.123812
0.482063 0.119539 0.118166
0.542107 0.115511 0.110719
0.600153 0.111025 0.102205
0.653864 0.106722 0.093294
0.707271 0.101015 0.083650
0.759731 0.096040 0.073579
0.809903 0.091432 0.064790
0.855192 0.090822 0.060609
0.895201 0.093355 0.066590
0.929931 0.101991 0.082887
0.959899 0.117006 0.106477
0.985504 0.138338 0.136049
1.000000 0.167391 0.170230
1.000000 0.202426 0.211154
0.133364 0.130190 0.141726
0.133364 0.130190 0.141726
0.133364 0.130190 0.141726
0.133364 0.130190 0.141726
0.133364 0.130190 0.141726
0.133547 0.130343 0.141695
0.134157 0.130434 0.141665
0.136172 0.130861 0.141604
0.140780 0.131197 0.141451
0.149081 0.132143 0.141146
0.163302 0.133059 0.140658
0.184360 0.134279 0.139864
0.213321 0.135164 0.138643
0.248631 0.136263 0.136843
0.289250 0.136995 0.134524
0.333928 0.137392 0.131411
0.381689 0.137331 0.127565
0.430793 0.137087 0.122866
0.485237 0.135866 0.116854
0.543481 0.135317 0.109224
0.599664 0.134096 0.100649
0.652094 0.132753 0.091951
0.704646 0.130098 0.082826
0.756954 0.129152 0.072389
0.807248 0.127077 0.063569
0.853025 0.127535 0.060334
0.893278 0.130343 0.066835
0.928191 0.137057 0.083253
0.958282 0.147219 0.107454
0.984009 0.164370 0.136568
1.000000 0.187869 0.171054
1.000000 0.219181 0.212070
0.133364 0.130190 0.141726
0.133364 0.130190 0.141726
0.133364 0.130190 0.141726
0.133333 0.130373 0.141695
0.133333 0.130373 0.141695
0.133547 0.130343 0.141695
0.134096 0.130831 0.141665
0.136507 0.131563 0.141543
0.141390 0.132601 0.141329
0.150484 0.134096 0.140963
0.165255 0.136141 0.140352
0.187350 0.138643 0.139406
0.216983 0.141482 0.137942
0.252323 0.144381 0.136110
0.292882 0.147036 0.133394
0.337560 0.149599 0.130190
0.385077 0.151827 0.126192
0.434302 0.154116 0.121096
0.491188 0.156008 0.114626
0.548150 0.158267 0.106752
0.603601 0.160159 0.098054
0.656001 0.160739 0.089265
0.766476 0.171206 0.069551
0.815610 0.172549 0.064057
0.858335 0.174166 0.065400
0.895079 0.176730 0.075410
0.926848 0.180850 0.092744
0.954406 0.188083 0.115114
0.978363 0.199435 0.141360
0.999023 0.215671 0.172030
1.000000 0.238254 0.207462
1.000000 0.267185 0.248631
0.133242 0.130983 0.141665
0.133211 0.131167 0.141634
0.133425 0.131136 0.141634
0.133425 0.131136 0.141634
0.133852 0.131258 0.141634
0.134432 0.131533 0.141604
0.135195 0.131991 0.141543
0.137362 0.132937 0.141421
0.143221 0.135073 0.141085
0.154330 0.138125 0.140536
0.172854 0.142214 0.139620
0.197543 0.146944 0.138460
0.229191 0.151858 0.136629
0.266789 0.157229 0.134249
0.308690 0.162387 0.131289
0.353185 0.167239 0.127535
0.399939 0.171878 0.123171
0.453773 0.177096 0.117220
0.511406 0.182406 0.109590
0.569726 0.187533 0.100893
0.627039 0.191867 0.091493
0.684474 0.195651 0.081758
0.742977 0.200198 0.071443
0.799008 0.204166 0.063233
0.848173 0.208042 0.063539
0.888701 0.210819 0.075074
0.922301 0.215122 0.092988
0.950744 0.221012 0.115663
0.975311 0.230137 0.142367
0.996246 0.243076 0.173404
1.000000 0.261723 0.208743
1.000000 0.286992 0.249271
0.133364 0.133211 0.141482
0.133364 0.133211 0.141482
0.133547 0.133364 0.141482
0.133730 0.133547 0.141451
0.134554 0.133761 0.141421
0.135348 0.134005 0.141390
0.136690 0.134707 0.141299
0.138979 0.135622 0.141329
0.143069 0.137453 0.141085
0.154208 0.141878 0.140414
0.172488 0.147860 0.139498
0.199344 0.155215 0.137819
0.232547 0.162783 0.135897
0.269749 0.170382 0.133211
0.311162 0.177737 0.130098
0.355871 0.184970 0.126070
0.405341 0.192569 0.120974
0.461067 0.200961 0.114168
0.515709 0.208286 0.106569
0.571313 0.214817 0.098054
0.626551 0.221042 0.088808
0.682185 0.226688 0.079530
0.739315 0.232609 0.069520
0.794339 0.238163 0.062562
0.843351 0.242191 0.064546
0.884123 0.246220 0.075990
0.918181 0.249607 0.094667
0.947173 0.254337 0.118105
0.972168 0.261967 0.144991
0.993500 0.272465 0.176120
1.000000 0.288518 0.211521
1.000000 0.310643 0.252445
0.133425 0.138521 0.141238
0.133608 0.138674 0.141207
0.133822 0.138613 0.141207
0.134432 0.138888 0.141176
0.135409 0.139284 0.141115
0.136995 0.139742 0.141054
0.139071 0.140627 0.141085
0.142397 0.142000 0.141054
0.146944 0.143648 0.140932
0.154849 0.146822 0.140780
0.172519 0.154604 0.139528
0.199130 0.164584 0.137911
0.233463 0.175357 0.135378
0.274357 0.186252 0.132296
0.316442 0.196201 0.128420
0.362402 0.206241 0.124178
0.414984 0.217166 0.118196
0.468086 0.227451 0.111208
0.521477 0.236240 0.103365
0.576013 0.244419 0.094728
0.629450 0.252171 0.085267
0.683833 0.259281 0.076081
0.739498 0.266148 0.067597
0.793393 0.272831 0.062715
0.841550 0.278141 0.066712
0.881926 0.281621 0.080598
0.915923 0.285039 0.099886
0.944915 0.289128 0.123293
0.969909 0.295201 0.150851
0.991302 0.304143 0.181674
1.000000 0.317632 0.217411
1.000000 0.336980 0.257694
0.133730 0.148745 0.140688
0.133913 0.148867 0.140688
0.134524 0.148959 0.140658
0.135470 0.149294 0.140749
0.137057 0.149722 0.140688
0.139376 0.150179 0.140749
0.142580 0.150973 0.140749
0.147036 0.152834 0.140780
0.153109 0.155001 0.140597
0.161349 0.157656 0.140566
0.173434 0.162600 0.140352
0.198093 0.174136 0.138582
0.232212 0.187716 0.135836
0.272496 0.201846 0.132479
0.321233 0.217166 0.127718
0.374762 0.232456 0.121706
0.426368 0.245457 0.115633
0.478431 0.256962 0.108431
0.530449 0.267338 0.100587
0.583062 0.276829 0.091646
0.634424 0.284794 0.082948
0.686793 0.292851 0.074220
0.739803 0.300175 0.066743
0.790860 0.307225 0.063935
0.837369 0.312383 0.070436
0.877531 0.316350 0.084901
0.912047 0.319646 0.104646
0.941741 0.323430 0.129366
0.967376 0.328893 0.157748
0.989227 0.336919 0.189883
1.000000 0.349218 0.226505
1.000000 0.366827 0.268132
0.134401 0.164950 0.140139
0.135012 0.165011 0.140108
0.135805 0.165194 0.140078
0.137362 0.165560 0.140169
0.139895 0.166079 0.140047
0.143374 0.167056 0.140169
0.147890 0.168246 0.140261
0.153902 0.169924 0.140414
0.161837 0.172732 0.140352
0.171695 0.176333 0.140322
0.184054 0.180209 0.140261
0.200626 0.186618 0.140047
0.231815 0.201755 0.137636
0.275151 0.220768 0.133608
0.323796 0.239506 0.128573
0.376471 0.257206 0.122438
0.431708 0.273594 0.114809
0.485084 0.287022 0.107057
0.535271 0.298283 0.099336
0.586297 0.308476 0.091249
0.636194 0.317449 0.083894
0.687678 0.326360 0.076753
0.740169 0.335241 0.071473
0.791257 0.342992 0.070649
0.837491 0.348882 0.077485
0.876890 0.352605 0.093812
0.910643 0.355535 0.113893
0.939788 0.358831 0.138827
0.965209 0.363409 0.166903
0.986908 0.370245 0.199191
1.000000 0.380926 0.235538
1.000000 0.396704 0.277592
0.136141 0.189548 0.139376
0.136721 0.189731 0.139345
0.137911 0.189975 0.139284
0.140230 0.190311 0.139345
0.143923 0.191104 0.139467
0.148928 0.192081 0.139712
0.155276 0.193423 0.139681
0.163088 0.195041 0.139895
0.172702 0.197940 0.140200
0.184970 0.202121 0.140230
0.199252 0.206760 0.140230
0.218204 0.214328 0.140352
0.262699 0.242802 0.140932
0.306432 0.264836 0.137484
0.360113 0.288762 0.130495
0.415930 0.310307 0.123293
0.472724 0.328832 0.115297
0.528405 0.344182 0.106630
0.582330 0.356207 0.098238
0.629694 0.364721 0.093233
0.676967 0.372778 0.089662
0.725460 0.380835 0.088502
0.773404 0.387976 0.089937
0.818601 0.393713 0.096986
0.858671 0.397742 0.108675
0.893523 0.400092 0.125460
0.923522 0.401556 0.144778
0.949340 0.403479 0.168215
0.971588 0.406836 0.196384
0.990906 0.412665 0.227878
1.000000 0.422065 0.263920
1.000000 0.436591 0.305303
0.139467 0.229984 0.138308
0.140627 0.230076 0.138247
0.142245 0.229831 0.138399
0.145510 0.229709 0.138491
0.150851 0.229679 0.138674
0.157687 0.229648 0.138979
0.166079 0.230564 0.139223
0.176181 0.231815 0.139681
0.187930 0.233890 0.140414
0.204807 0.241581 0.140505
0.225498 0.251164 0.140993
0.249546 0.261601 0.141604
0.276890 0.273198 0.142702
0.306340 0.284306 0.143954
0.353063 0.308110 0.141024
0.409094 0.333288 0.133150
0.465003 0.354528 0.125368
0.519554 0.371740 0.117891
0.572869 0.385840 0.110780
0.624201 0.397009 0.104891
0.675288 0.406836 0.101534
0.722774 0.415381 0.101717
0.769375 0.423011 0.105196
0.813993 0.429053 0.112917
0.853696 0.433387 0.124666
0.888457 0.435645 0.140993
0.918608 0.437232 0.159854
0.944884 0.438697 0.182681
0.967773 0.441077 0.208896
0.987671 0.445686 0.238956
1.000000 0.453925 0.275273
1.000000 0.466926 0.317021
0.143862 0.269291 0.137911
0.145357 0.269322 0.138033
0.147524 0.269017 0.138033
0.151736 0.268894 0.138247
0.158267 0.268589 0.138460
0.166903 0.269474 0.138827
0.177829 0.271702 0.139376
0.190738 0.274479 0.140017
0.205783 0.278141 0.141176
0.223362 0.283757 0.142275
0.245182 0.292485 0.142916
0.270176 0.302739 0.144167
0.297642 0.313512 0.145968
0.326787 0.323674 0.147829
0.356664 0.333165 0.150484
0.400458 0.353582 0.148806
0.455604 0.377478 0.140352
0.509514 0.397040 0.132723
0.562341 0.413367 0.127047
0.613611 0.426612 0.123140
0.665370 0.438453 0.121126
0.718349 0.449805 0.119997
0.767300 0.458778 0.123507
0.811307 0.465278 0.131838
0.850675 0.469734 0.144381
0.885191 0.472358 0.160220
0.915312 0.473579 0.179446
0.941497 0.474922 0.201785
0.964416 0.477089 0.228336
0.984344 0.481086 0.258579
1.000000 0.488228 0.293523
1.000000 0.499641 0.334051
0.151797 0.320897 0.138766
0.153964 0.321263 0.138796
0.156497 0.321019 0.138766
0.161929 0.320897 0.139101
0.170077 0.320989 0.139498
0.180453 0.320867 0.140139
0.192996 0.321721 0.140932
0.207492 0.323339 0.142092
0.223941 0.326207 0.143618
0.242954 0.330358 0.145418
0.265171 0.337682 0.147158
0.290623 0.347173 0.149386
0.318547 0.357183 0.151827
0.347784 0.366918 0.154635
0.377386 0.375555 0.157656
0.406531 0.382605 0.160586
0.446509 0.399115 0.161288
0.499763 0.421180 0.152773
0.552728 0.439887 0.145724
0.603815 0.455116 0.143221
0.654536 0.468360 0.142367
0.706966 0.481331 0.143557
0.758785 0.492500 0.146578
0.808011 0.501427 0.152987
0.847745 0.506096 0.165560
0.882383 0.508934 0.182071
0.912810 0.510704 0.202335
0.939422 0.512535 0.225986
0.962646 0.515007 0.253819
0.982574 0.519554 0.285710
0.999115 0.527031 0.322972
1.000000 0.538781 0.365332
0.163272 0.377722 0.142519
0.166018 0.378149 0.142641
0.168856 0.378119 0.142885
0.175296 0.378149 0.143282
0.184817 0.377966 0.143801
0.197055 0.378088 0.144747
0.211185 0.379034 0.146120
0.227756 0.380682 0.147433
0.246281 0.382940 0.149660
0.266575 0.386267 0.152285
0.288273 0.389837 0.155612
0.313237 0.396918 0.158114
0.339849 0.404273 0.161044
0.367407 0.411292 0.164004
0.395514 0.417731 0.167178
0.423682 0.423316 0.170443
0.452033 0.428534 0.174136
0.490242 0.443061 0.176272
0.542077 0.464179 0.170932
0.594995 0.483009 0.166171
0.646296 0.498817 0.166567
0.699153 0.514061 0.169467
0.751522 0.527459 0.174533
0.801297 0.538170 0.182376
0.845457 0.545068 0.194339
0.882933 0.548486 0.210575
0.912749 0.550134 0.231113
0.938659 0.551568 0.255558
0.961151 0.553796 0.283574
0.980316 0.557763 0.314916
0.996185 0.564355 0.351324
1.000000 0.575158 0.393500
0.178012 0.432258 0.150210
0.180606 0.432288 0.150423
0.183810 0.431922 0.150423
0.190280 0.431617 0.151034
0.200381 0.431281 0.151797
0.213230 0.431128 0.152834
0.228458 0.431647 0.154391
0.245853 0.432502 0.156283
0.265019 0.433967 0.158633
0.285649 0.436439 0.162051
0.307958 0.439338 0.165591
0.332036 0.443610 0.169680
0.358679 0.450324 0.173068
0.386114 0.456489 0.176577
0.413794 0.461952 0.180331
0.441230 0.466529 0.184390
0.468757 0.470466 0.188144
0.496773 0.474556 0.192111
0.534508 0.487953 0.195438
0.583032 0.506859 0.194064
0.634333 0.524773 0.191836
0.687129 0.541924 0.194095
0.739528 0.557458 0.200259
0.790036 0.570397 0.209232
0.835355 0.579095 0.221256
0.874784 0.584253 0.238132
0.908598 0.586847 0.258152
0.935790 0.588464 0.282536
0.958129 0.590539 0.311009
0.977050 0.594324 0.343542
0.992645 0.600763 0.380621
1.000000 0.611139 0.423041
0.196445 0.488014 0.163119
0.199344 0.488869 0.163699
0.215579 0.521202 0.175204
0.223087 0.520317 0.175479
0.233677 0.519402 0.176486
0.247135 0.517998 0.177371
0.263188 0.516777 0.179019
0.281193 0.515618 0.181003
0.301274 0.515404 0.183688
0.323156 0.515801 0.187137
0.345861 0.516777 0.191470
0.369451 0.517601 0.195895
0.394842 0.520104 0.200229
0.421393 0.523705 0.203983
0.448188 0.526787 0.207828
0.474983 0.529229 0.211612
0.501701 0.531243 0.215610
0.528405 0.532952 0.219455
0.555383 0.534905 0.223697
0.591516 0.545953 0.228397
0.635340 0.560998 0.231174
0.687404 0.579461 0.231449
0.739437 0.595789 0.235080
0.788327 0.609094 0.244541
0.831785 0.617548 0.256809
0.869596 0.622278 0.272313
0.902281 0.624598 0.291081
0.930541 0.625666 0.313787
0.954742 0.627039 0.340642
0.973358 0.630152 0.372686
0.988586 0.636042 0.409857
1.000000 0.645502 0.451850
0.221744 0.550317 0.185763
0.226352 0.554376 0.187716
0.231632 0.558495 0.190066
0.240482 0.561913 0.192569
0.252262 0.563714 0.194797
0.266087 0.564050 0.196719
0.281956 0.563317 0.198459
0.299779 0.562280 0.200565
0.319524 0.561852 0.203494
0.340490 0.561730 0.206973
0.363043 0.561975 0.211032
0.386328 0.562249 0.215915
0.409766 0.562097 0.220890
0.435370 0.564416 0.224643
0.461128 0.566339 0.228672
0.486976 0.567926 0.232395
0.512779 0.569116 0.236149
0.538903 0.570397 0.240360
0.565484 0.572168 0.244877
0.592828 0.574548 0.250004
0.629816 0.586358 0.256107
0.673518 0.602228 0.262486
0.726223 0.621576 0.265873
0.776791 0.637568 0.271519
0.821439 0.648371 0.284794
0.860441 0.655146 0.300877
0.894072 0.658747 0.320562
0.922972 0.660883 0.343755
0.947692 0.662837 0.371557
0.968200 0.665736 0.403998
0.984405 0.670649 0.440528
0.996063 0.679408 0.482185
0.245274 0.596979 0.209079
0.249638 0.600610 0.211765
0.254856 0.604211 0.214420
0.262974 0.607080 0.217197
0.274235 0.608850 0.219486
0.287541 0.608911 0.221164
0.302861 0.608148 0.223056
0.319921 0.607202 0.225254
0.338811 0.606531 0.227817
0.359258 0.606256 0.231601
0.381201 0.606165 0.235813
0.404028 0.606226 0.240452
0.427008 0.605615 0.244938
0.450690 0.605554 0.249882
0.475776 0.607080 0.253361
0.501061 0.608423 0.257237
0.526482 0.609400 0.260777
0.552148 0.610529 0.265049
0.578454 0.612116 0.269596
0.605646 0.614374 0.274846
0.633509 0.617273 0.280735
0.671656 0.630243 0.288182
0.713588 0.645533 0.298924
0.764920 0.664363 0.304997
0.811002 0.677485 0.314275
0.850980 0.685756 0.329564
0.885252 0.690669 0.349462
0.914763 0.693721 0.373083
0.939879 0.696132 0.401404
0.960876 0.699214 0.433448
0.977783 0.703944 0.470100
0.990753 0.711391 0.510918
0.271580 0.643549 0.237430
0.275944 0.647059 0.239933
0.281224 0.650477 0.242832
0.289250 0.653346 0.245823
0.299687 0.654932 0.248203
0.312200 0.654932 0.250126
0.326299 0.654139 0.251865
0.342290 0.653101 0.253788
0.360571 0.651942 0.256138
0.380133 0.651362 0.259342
0.401068 0.650904 0.263249
0.423194 0.650416 0.267521
0.445533 0.649622 0.272129
0.468177 0.648524 0.276799
0.492164 0.649073 0.281315
0.517601 0.650965 0.285557
0.543572 0.653132 0.290562
0.570459 0.655665 0.295537
0.598108 0.658930 0.301884
0.626642 0.662837 0.309300
0.656062 0.667384 0.317266
0.685969 0.672236 0.325566
0.723873 0.684657 0.335393
0.764553 0.699763 0.351293
0.810880 0.715114 0.362493
0.850919 0.724575 0.377050
0.884764 0.730037 0.396216
0.913298 0.733516 0.421241
0.937469 0.736202 0.450294
0.957366 0.739345 0.482612
0.973297 0.743862 0.518578
0.985504 0.750637 0.557946
0.311406 0.705013 0.280735
0.314580 0.706508 0.282536
0.318059 0.707637 0.283970
0.324254 0.708309 0.285405
0.333165 0.708309 0.286717
0.344244 0.707607 0.287846
0.357214 0.706600 0.289555
0.372595 0.705684 0.291417
0.389929 0.705165 0.294285
0.409339 0.704891 0.297856
0.430091 0.704707 0.301946
0.451667 0.704555 0.306615
0.473579 0.703822 0.311009
0.495644 0.702510 0.315648
0.517937 0.700862 0.320256
0.542168 0.701839 0.324620
0.567346 0.703243 0.328923
0.593133 0.704921 0.333898
0.619593 0.707088 0.339666
0.646662 0.709590 0.346136
0.674220 0.712490 0.353063
0.702144 0.715541 0.360510
0.730129 0.718685 0.368475
0.763363 0.726833 0.378149
0.799344 0.738857 0.396124
0.840177 0.750607 0.410071
0.875273 0.757748 0.427893
0.905058 0.762051 0.449744
0.929717 0.765408 0.478737
0.950042 0.768612 0.511009
0.966430 0.772702 0.545953
0.978759 0.779019 0.585351
0.344854 0.750698 0.318273
0.348028 0.752102 0.319921
0.351476 0.753262 0.321477
0.357153 0.753902 0.322942
0.365209 0.753811 0.324285
0.375097 0.753048 0.325505
0.386969 0.751675 0.326635
0.400671 0.750484 0.328038
0.416785 0.749416 0.330205
0.434638 0.748867 0.333745
0.454017 0.748348 0.337713
0.474495 0.747890 0.341833
0.495552 0.746853 0.345922
0.516960 0.745693 0.350500
0.538750 0.744381 0.355230
0.561212 0.743343 0.359777
0.585748 0.744747 0.364721
0.610742 0.746334 0.370306
0.636530 0.748379 0.376623
0.662806 0.750668 0.383429
0.689540 0.753201 0.390997
0.716609 0.756039 0.399359
0.743893 0.758938 0.408148
0.771023 0.761776 0.417212
0.794553 0.760708 0.417945
0.827909 0.771542 0.438178
0.863523 0.780667 0.456397
0.894530 0.786557 0.477424
0.920684 0.790372 0.502342
0.942016 0.793790 0.533410
0.959167 0.798001 0.568963
0.971771 0.804166 0.609247
0.391516 0.801358 0.371191
0.394446 0.802701 0.373571
0.397620 0.803403 0.374731
0.402075 0.803403 0.375586
0.408576 0.802579 0.376074
0.416663 0.801236 0.376196
0.426368 0.799588 0.376440
0.438056 0.797452 0.376776
0.451606 0.795468 0.377661
0.466896 0.793637 0.379309
0.483680 0.791775 0.381476
0.501640 0.790097 0.384314
0.520531 0.788327 0.387243
0.540002 0.786160 0.390448
0.559594 0.783566 0.393042
0.579522 0.780789 0.396399
0.600824 0.779507 0.399786
0.623835 0.779751 0.403967
0.647974 0.780972 0.409918
0.673121 0.782895 0.417060
0.698848 0.785336 0.425208
0.724727 0.787686 0.433631
0.750332 0.789731 0.442329
0.775387 0.791348 0.450355
0.799863 0.792508 0.457832
0.825162 0.794491 0.465858
0.856413 0.804379 0.487556
0.885710 0.810452 0.508721
0.912352 0.814878 0.531792
0.934630 0.818235 0.559258
0.952117 0.822232 0.594141
0.964996 0.827939 0.634699
0.428840 0.834195 0.414527
0.431647 0.835325 0.416754
0.434516 0.835904 0.418189
0.438636 0.835813 0.418830
0.444099 0.835172 0.419318
0.451301 0.834073 0.419440
0.460182 0.832761 0.420050
0.470588 0.831266 0.420356
0.482856 0.829770 0.421485
0.497078 0.828428 0.423529
0.512505 0.827085 0.426032
0.529595 0.825834 0.428992
0.547387 0.824521 0.432685
0.565728 0.822873 0.435920
0.584344 0.820890 0.439185
0.603326 0.818723 0.442634
0.622644 0.816464 0.446021
0.644160 0.816373 0.450446
0.666651 0.817075 0.456184
0.690059 0.818265 0.463325
0.713863 0.819699 0.471229
0.737850 0.821256 0.479164
0.761624 0.822660 0.487495
0.785122 0.823789 0.495521
0.808164 0.824643 0.503563
0.830777 0.825254 0.510979
0.853147 0.825895 0.518761
0.882170 0.835080 0.541650
0.906218 0.839414 0.566949
0.928405 0.843473 0.595483
0.945830 0.847105 0.628595
0.958801 0.852323 0.667781
0.472175 0.864317 0.464454
0.474403 0.864897 0.466041
0.476295 0.864958 0.466468
0.479438 0.864683 0.466896
0.483589 0.863798 0.466468
0.489143 0.862638 0.466194
0.496407 0.861326 0.466224
0.505211 0.859922 0.466285
0.515770 0.858549 0.467292
0.528252 0.857359 0.468849
0.542260 0.856107 0.471138
0.557641 0.855131 0.474525
0.573968 0.854032 0.478035
0.590723 0.852628 0.481270
0.607721 0.850858 0.484382
0.625147 0.848875 0.487495
0.643000 0.846830 0.490578
0.661769 0.845335 0.494514
0.682460 0.845548 0.499977
0.703914 0.846189 0.506401
0.725887 0.847105 0.513848
0.747982 0.848112 0.521630
0.769955 0.849027 0.529290
0.791714 0.849821 0.536950
0.813199 0.850401 0.544305
0.834226 0.850828 0.551873
0.855070 0.851255 0.559686
0.875608 0.851682 0.567834
0.901579 0.859831 0.593561
0.920714 0.863218 0.624018
0.938506 0.867002 0.656489
0.951965 0.871763 0.694331
0.512932 0.887388 0.510979
0.514611 0.887663 0.511986
0.516350 0.887724 0.512718
0.518975 0.887480 0.512840
0.523125 0.887083 0.513573
0.528832 0.886625 0.514519
0.536584 0.886381 0.516411
0.546197 0.886198 0.519066
0.557580 0.886198 0.522850
0.570489 0.886320 0.527184
0.584710 0.886412 0.532311
0.599756 0.886412 0.537346
0.615198 0.886198 0.542504
0.631037 0.885588 0.547295
0.646876 0.884581 0.551537
0.662440 0.883116 0.554864
0.678370 0.881468 0.557977
0.694759 0.879881 0.561761
0.712551 0.879179 0.566705
0.731441 0.879301 0.572808
0.750790 0.879545 0.579583
0.770321 0.879881 0.587304
0.789639 0.880125 0.594781
0.808865 0.880339 0.602533
0.827756 0.880461 0.610559
0.846311 0.880491 0.618372
0.864622 0.880613 0.626612
0.882567 0.880827 0.635218
0.899962 0.881010 0.644068
0.920958 0.887388 0.670893
0.934356 0.890227 0.705318
0.947051 0.894408 0.740291
0.570153 0.912078 0.575311
0.571283 0.912139 0.575769
0.572320 0.912047 0.575921
0.574090 0.911711 0.575830
0.576867 0.911162 0.575769
0.580774 0.910552 0.575677
0.586297 0.909911 0.576410
0.593194 0.909270 0.577356
0.601617 0.908659 0.579248
0.611536 0.908049 0.582055
0.622400 0.907408 0.584863
0.634424 0.906706 0.588281
0.647028 0.905913 0.591974
0.660182 0.904906 0.595483
0.673640 0.903746 0.598688
