其他预设/【234】港风调色预设/1.3D LUT预设（视频调色-PR-AE-PS-FCPX-达芬奇用）/23.港风色调-适合街道 __.cube
# Created by Adobe Lightroom plugin Export LUT (1.17.0)
# www.johnrellis.com/lightroom/exportlut.htm
# Preset: 23.港风色调-适合街道 [素锦印象]
# Color profile: /Library/Application Support/Adobe/Color/Profiles/Recommended/AdobeRGB1998.icc
LUT_3D_SIZE 5
DOMAIN_MIN 0.000000 0.000000 0.000000
DOMAIN_MAX 0.903226 0.903226 0.903226
0.133364 0.130190 0.141726
0.135470 0.130007 0.141665
0.294011 0.120241 0.135317
0.673304 0.051698 0.091798
0.965881 0.068147 0.111147
0.133364 0.133211 0.141482
0.138979 0.135622 0.141329
0.311162 0.177737 0.130098
0.682185 0.226688 0.079530
0.972168 0.261967 0.144991
0.151797 0.320897 0.138766
0.207492 0.323339 0.142092
0.377386 0.375555 0.157656
0.706966 0.481331 0.143557
0.962646 0.515007 0.253819
0.311406 0.705013 0.280735
0.372595 0.705684 0.291417
0.517937 0.700862 0.320256
0.702144 0.715541 0.360510
0.929717 0.765408 0.478737
0.614954 0.926177 0.624628
0.635187 0.924102 0.628290
0.689265 0.914488 0.628107
0.793973 0.911070 0.673610
0.897398 0.911467 0.731075
0.133150 0.130190 0.142672
0.135622 0.129702 0.144076
0.293919 0.071107 0.168948
0.642481 0.000000 0.151553
0.950958 0.000000 0.199039
0.131838 0.135470 0.146853
0.141512 0.138094 0.150210
0.314244 0.138430 0.153841
0.655177 0.135561 0.157412
0.953094 0.196933 0.221469
0.115297 0.326390 0.180270
0.195773 0.333684 0.193271
0.358862 0.356512 0.211490
0.688930 0.453529 0.225010
0.955169 0.503685 0.324804
0.290471 0.708522 0.333989
0.377356 0.708766 0.367926
0.521141 0.702235 0.388006
0.699519 0.712978 0.418311
0.926909 0.764370 0.522210
0.630762 0.924559 0.660426
0.649042 0.922545 0.662776
0.713313 0.917693 0.679683
0.803403 0.912230 0.709743
0.899138 0.912627 0.756039
0.120729 0.122286 0.291966
0.170382 0.112428 0.304967
0.311345 0.069978 0.329839
0.644556 0.000000 0.448524
0.947570 0.000000 0.474006
0.000000 0.161563 0.340185
0.149813 0.150301 0.343664
0.338079 0.145571 0.358465
0.656306 0.128389 0.445777
0.947814 0.045686 0.463996
0.000000 0.387610 0.400763
0.161288 0.389563 0.405097
0.387152 0.385718 0.412573
0.689845 0.413153 0.440589
0.942473 0.475380 0.503014
0.265965 0.716091 0.499184
0.342229 0.711177 0.505333
0.533318 0.711818 0.553613
0.705287 0.718471 0.568475
0.923430 0.760922 0.634668
0.611810 0.924743 0.700099
0.647578 0.922942 0.716426
0.739284 0.915587 0.759304
0.810575 0.908690 0.769100
0.897124 0.909575 0.794827
0.000000 0.065339 0.703761
0.220157 0.000000 0.707210
0.452491 0.000000 0.714015
0.676478 0.081636 0.708614
0.909789 0.450385 0.766567
0.000000 0.198856 0.723690
0.191958 0.197086 0.723323
0.453407 0.199893 0.721828
0.677790 0.242832 0.710292
0.905730 0.497353 0.767483
0.108919 0.499702 0.758633
0.271550 0.500389 0.759426
0.484077 0.489143 0.742214
0.681788 0.477241 0.715114
0.910124 0.594018 0.767300
0.313146 0.773617 0.774838
0.383215 0.768185 0.771817
0.543450 0.759335 0.769406
0.716030 0.727321 0.749905
0.913115 0.746120 0.767300
0.643458 0.925689 0.804349
0.672145 0.923796 0.811032
0.749508 0.919615 0.830991
0.833249 0.912566 0.853574
0.899046 0.909514 0.855863
0.223392 0.220462 0.935912
0.315312 0.232792 0.934874
0.510369 0.281834 0.932311
0.713649 0.352880 0.925780
0.897246 0.457740 0.916075
0.266148 0.334936 0.934356
0.344915 0.343847 0.933196
0.525566 0.379583 0.930175
0.715633 0.421332 0.922545
0.894621 0.500511 0.913787
0.427741 0.582635 0.932341
0.470588 0.585809 0.930571
0.586694 0.593072 0.926329
0.732998 0.596674 0.918883
0.893767 0.645594 0.912840
0.585016 0.793606 0.928161
0.615412 0.795590 0.927153
0.710842 0.807950 0.926146
0.801938 0.811612 0.921569
0.901518 0.822416 0.918975
0.721614 0.929931 0.926482
0.736812 0.928771 0.926207
0.790005 0.926726 0.927062
0.852750 0.923186 0.927398
0.902068 0.909789 0.919005
