其他预设/【234】港风调色预设/1.3D LUT预设（视频调色-PR-AE-PS-FCPX-达芬奇用）/23.港风色调-适合街道 __.cube
# Created by Adobe Lightroom plugin Export LUT (1.17.0)
# www.johnrellis.com/lightroom/exportlut.htm
# Preset: 23.港风色调-适合街道 [素锦印象]
# Color profile: /Library/Application Support/Adobe/Color/Profiles/Recommended/AdobeRGB1998.icc
LUT_3D_SIZE 8
DOMAIN_MIN 0.000000 0.000000 0.000000
DOMAIN_MAX 0.903226 0.903226 0.903226
0.133364 0.130190 0.141726
0.133364 0.130190 0.141726
0.139590 0.129671 0.141604
0.214481 0.126192 0.139254
0.388678 0.110384 0.128634
0.616846 0.070161 0.101381
0.826566 0.000000 0.064973
0.965881 0.068147 0.111147
0.133364 0.130190 0.141726
0.133364 0.130190 0.141726
0.140780 0.131197 0.141451
0.213321 0.135164 0.138643
0.381689 0.137331 0.127565
0.599664 0.134096 0.100649
0.807248 0.127077 0.063569
0.958282 0.147219 0.107454
0.133425 0.138521 0.141238
0.135409 0.139284 0.141115
0.146944 0.143648 0.140932
0.233463 0.175357 0.135378
0.414984 0.217166 0.118196
0.629450 0.252171 0.085267
0.841550 0.278141 0.066712
0.969909 0.295201 0.150851
0.139467 0.229984 0.138308
0.150851 0.229679 0.138674
0.187930 0.233890 0.140414
0.276890 0.273198 0.142702
0.465003 0.354528 0.125368
0.675288 0.406836 0.101534
0.853696 0.433387 0.124666
0.967773 0.441077 0.208896
0.178012 0.432258 0.150210
0.200381 0.431281 0.151797
0.265019 0.433967 0.158633
0.358679 0.450324 0.173068
0.468757 0.470466 0.188144
0.634333 0.524773 0.191836
0.835355 0.579095 0.221256
0.958129 0.590539 0.311009
0.271580 0.643549 0.237430
0.299687 0.654932 0.248203
0.360571 0.651942 0.256138
0.445533 0.649622 0.272129
0.543572 0.653132 0.290562
0.656062 0.667384 0.317266
0.810880 0.715114 0.362493
0.937469 0.736202 0.450294
0.428840 0.834195 0.414527
0.444099 0.835172 0.419318
0.482856 0.829770 0.421485
0.547387 0.824521 0.432685
0.622644 0.816464 0.446021
0.713863 0.819699 0.471229
0.808164 0.824643 0.503563
0.906218 0.839414 0.566949
0.614954 0.926177 0.624628
0.620569 0.925475 0.625238
0.642634 0.923644 0.630457
0.683650 0.921630 0.645594
0.716335 0.912688 0.637385
0.777340 0.910765 0.664424
0.841306 0.911589 0.699886
0.897398 0.911467 0.731075
0.133364 0.130190 0.141726
0.133364 0.130190 0.141726
0.139162 0.129152 0.142123
0.208713 0.117586 0.140597
0.374243 0.080934 0.133913
0.585870 0.000000 0.117647
0.793545 0.000000 0.100160
0.950805 0.000000 0.132418
0.133364 0.130190 0.141726
0.133364 0.130190 0.141726
0.141482 0.130098 0.141665
0.213107 0.127169 0.140078
0.376226 0.115663 0.132784
0.581140 0.091585 0.115969
0.780240 0.062501 0.098390
0.942321 0.095857 0.128298
0.132418 0.138460 0.142061
0.134554 0.140414 0.142336
0.147768 0.144289 0.142947
0.233768 0.170504 0.139376
0.402594 0.201450 0.128237
0.602838 0.227085 0.110140
0.802335 0.247440 0.103212
0.952667 0.270756 0.160525
0.130434 0.224887 0.142824
0.145266 0.227329 0.145876
0.185763 0.234012 0.148470
0.259495 0.255650 0.152468
0.425177 0.320348 0.141360
0.627344 0.370855 0.125978
0.815183 0.403540 0.138399
0.952453 0.421881 0.208194
0.168460 0.429206 0.169986
0.191501 0.426307 0.171054
0.256016 0.424659 0.176455
0.341894 0.429847 0.187106
0.444709 0.445350 0.198550
0.613489 0.504387 0.202609
0.818692 0.562799 0.231907
0.949462 0.579492 0.313176
0.261204 0.630884 0.252934
0.282383 0.630823 0.255131
0.343664 0.629267 0.262882
0.430915 0.630976 0.279728
0.531945 0.639338 0.300572
0.648646 0.659571 0.330510
0.804318 0.708248 0.371984
0.932525 0.729519 0.451118
0.413031 0.820066 0.411688
0.423255 0.816892 0.409796
0.465583 0.813718 0.415045
0.535607 0.812741 0.431250
0.615290 0.808591 0.449714
0.705745 0.811429 0.471809
0.798398 0.814817 0.498207
0.899351 0.830716 0.555901
0.606256 0.922637 0.621302
0.614038 0.922423 0.623957
0.637537 0.920928 0.630426
0.679835 0.919249 0.646296
0.728328 0.915557 0.661280
0.781827 0.911650 0.678431
0.840299 0.910430 0.702876
0.895232 0.909392 0.728359
0.132998 0.130098 0.145357
0.133944 0.129915 0.145968
0.140536 0.128817 0.149081
0.210575 0.114168 0.173678
0.394995 0.000000 0.196445
0.606989 0.000000 0.174868
0.810330 0.000000 0.189334
0.957092 0.000000 0.234501
0.131930 0.130556 0.147951
0.133242 0.130098 0.149020
0.143130 0.129580 0.151949
0.218235 0.116670 0.172915
0.395880 0.000000 0.182712
0.600671 0.000000 0.171603
0.801511 0.000000 0.187778
0.953094 0.000000 0.234501
0.129763 0.144442 0.155703
0.132052 0.146059 0.157534
0.152895 0.149325 0.162478
0.248905 0.152804 0.167575
0.426062 0.156313 0.174960
0.619715 0.162387 0.183749
0.811185 0.181643 0.203830
0.953185 0.232151 0.256413
0.118868 0.238010 0.181674
0.130068 0.243320 0.182437
0.187747 0.257084 0.193179
0.277684 0.273838 0.204929
0.459663 0.329900 0.210636
0.646082 0.360723 0.219974
0.829221 0.389319 0.245396
0.954437 0.415076 0.307134
0.118959 0.439216 0.223850
0.149722 0.442542 0.224369
0.254795 0.447730 0.250675
0.354284 0.451606 0.263798
0.465492 0.467079 0.277043
0.634516 0.517082 0.286320
0.829313 0.563409 0.322240
0.948211 0.580499 0.390906
0.213077 0.641230 0.291264
0.252171 0.641993 0.304784
0.348180 0.638972 0.340764
0.434333 0.636103 0.351202
0.531762 0.638666 0.366186
0.645747 0.656641 0.390661
0.804990 0.707546 0.428779
0.932433 0.732937 0.508934
0.409155 0.828733 0.457465
0.433448 0.826047 0.469886
0.481727 0.819944 0.481910
0.544274 0.815061 0.488991
0.619806 0.809171 0.500114
0.708736 0.812253 0.520043
0.803616 0.819760 0.547936
0.903990 0.838010 0.607324
0.618402 0.922484 0.654108
0.628107 0.920897 0.658930
0.647791 0.918914 0.661799
0.691981 0.918273 0.680049
0.736385 0.914488 0.691066
0.787930 0.911009 0.707424
0.844175 0.910613 0.729915
0.897093 0.910643 0.754025
0.129122 0.127596 0.206729
0.135927 0.126040 0.212802
0.166110 0.120058 0.224613
0.224857 0.108766 0.238254
0.378912 0.055177 0.304204
0.600397 0.000000 0.360632
0.805631 0.000000 0.371679
0.948608 0.000000 0.366857
0.118624 0.129519 0.226505
0.129458 0.128176 0.229679
0.168063 0.123232 0.237034
0.233646 0.114870 0.247654
0.387915 0.093141 0.309117
0.602075 0.000000 0.354772
0.802731 0.000000 0.360815
0.946349 0.000000 0.357671
0.097902 0.172671 0.253849
0.108583 0.170077 0.258305
0.163333 0.161501 0.263005
0.255650 0.163088 0.271214
0.425360 0.167727 0.324834
0.632288 0.077394 0.347265
0.822141 0.000000 0.348791
0.952422 0.150484 0.380957
0.074495 0.276585 0.288823
0.100587 0.278874 0.291722
0.177646 0.284794 0.300450
0.291600 0.287846 0.310521
0.465064 0.300023 0.324102
0.640925 0.317754 0.342535
0.821897 0.346807 0.372015
0.949279 0.395422 0.422217
0.093660 0.463752 0.345922
0.135958 0.463264 0.345953
0.234501 0.468299 0.352911
0.369848 0.479133 0.385748
0.484688 0.487465 0.397314
0.660487 0.529961 0.415564
0.834836 0.560143 0.445106
0.945006 0.579065 0.491798
0.223636 0.663142 0.416785
0.261234 0.672206 0.427588
0.340764 0.668666 0.437720
0.462043 0.665248 0.475837
0.554650 0.661097 0.483772
0.660945 0.672572 0.496773
0.817075 0.716457 0.523247
0.932464 0.735714 0.586358
0.400702 0.835508 0.524346
0.420539 0.835843 0.530449
0.477150 0.835142 0.547204
0.571099 0.830137 0.585290
0.641718 0.823819 0.590539
0.721370 0.821134 0.600183
0.808682 0.824369 0.616693
0.905119 0.841245 0.666133
0.618769 0.926879 0.686122
0.629786 0.926238 0.691646
0.666896 0.922606 0.711513
0.714778 0.917998 0.733669
0.752621 0.914397 0.739559
0.797848 0.910796 0.749752
0.848997 0.910582 0.766262
0.898894 0.911589 0.786160
0.104280 0.112215 0.402899
0.132387 0.107240 0.407904
0.206851 0.088838 0.416175
0.304631 0.014954 0.428260
0.419806 0.000000 0.444434
0.594781 0.010163 0.505272
0.791379 0.062654 0.560754
0.938354 0.126986 0.574548
0.062989 0.121523 0.421210
0.110262 0.117952 0.427527
0.203281 0.103761 0.432349
0.307103 0.074067 0.436805
0.425422 0.037873 0.450477
0.598627 0.122194 0.508537
0.794400 0.132906 0.561395
0.938598 0.168887 0.573053
0.000000 0.196078 0.458350
0.000000 0.187778 0.459724
0.179751 0.181704 0.459113
0.315831 0.177676 0.463935
0.439063 0.183993 0.465370
0.600946 0.247349 0.512169
0.797330 0.238254 0.555688
0.937438 0.246860 0.559991
0.000000 0.348608 0.492988
0.000000 0.347112 0.494911
0.191867 0.343633 0.502861
0.334722 0.334234 0.499733
0.465980 0.335698 0.494392
0.626368 0.375952 0.531945
0.812833 0.355444 0.546593
0.938872 0.358770 0.541436
0.000000 0.506645 0.518578
0.076478 0.507836 0.520653
0.227085 0.507012 0.522332
0.363806 0.503441 0.524071
0.485756 0.488502 0.517082
0.650690 0.498024 0.526238
0.818357 0.516258 0.544060
0.934630 0.546624 0.574029
0.210330 0.660761 0.530846
0.241398 0.660883 0.532891
0.324285 0.658106 0.537865
0.432868 0.657923 0.551720
0.546990 0.656031 0.573754
0.657710 0.668849 0.587427
0.823423 0.712734 0.617639
0.928222 0.728145 0.659022
0.407477 0.837766 0.618280
0.422980 0.836362 0.619837
0.473610 0.833768 0.627192
0.550896 0.831937 0.642512
0.648615 0.826169 0.671382
0.723262 0.819516 0.674647
0.807218 0.821988 0.683955
0.904021 0.838621 0.719234
0.616785 0.924559 0.726284
0.625452 0.923674 0.729030
0.655207 0.920989 0.739101
0.711635 0.919615 0.764889
0.766049 0.913970 0.786831
0.805264 0.910216 0.790951
0.850370 0.908721 0.799252
0.897887 0.909850 0.812284
0.005859 0.072572 0.657435
0.123110 0.062074 0.658625
0.246098 0.000000 0.657404
0.374792 0.000000 0.663111
0.505760 0.000000 0.665553
0.631403 0.000000 0.663508
0.796323 0.245853 0.706844
0.915953 0.425666 0.741207
0.000000 0.111269 0.656428
0.087404 0.106447 0.656672
0.235447 0.089815 0.657069
0.369787 0.059113 0.660822
0.501396 0.001648 0.661463
0.628321 0.111727 0.660365
0.793851 0.275547 0.705562
0.915068 0.434760 0.739834
0.000000 0.227726 0.685847
0.000000 0.226993 0.684993
0.222324 0.226322 0.684199
0.376318 0.227817 0.683253
0.512657 0.229557 0.677485
0.639246 0.259495 0.671778
0.798093 0.375860 0.713436
0.916472 0.477790 0.741604
0.000000 0.413245 0.721981
0.094545 0.410163 0.718441
0.258549 0.406378 0.713344
0.410346 0.413550 0.714687
0.544549 0.415564 0.709194
0.664668 0.425177 0.697871
0.809140 0.506279 0.731319
0.920714 0.545129 0.744747
0.142123 0.574701 0.722133
0.196841 0.575250 0.723140
0.316716 0.576806 0.725307
0.448829 0.579034 0.728298
0.553552 0.560540 0.714046
0.664546 0.550011 0.698665
0.808469 0.594903 0.728054
0.922087 0.594110 0.725277
0.241123 0.720058 0.724453
0.276799 0.722438 0.727260
0.362829 0.720790 0.727779
0.466346 0.715755 0.726772
0.567041 0.703944 0.720638
0.673091 0.683467 0.708186
0.821286 0.696101 0.719783
0.919219 0.715450 0.738155
0.435554 0.849760 0.733700
0.453681 0.850553 0.736172
0.502647 0.848692 0.738766
0.576440 0.845609 0.746334
0.660517 0.840421 0.757534
0.746212 0.831235 0.773373
0.814939 0.828031 0.772519
0.907500 0.845762 0.797665
0.638819 0.925628 0.789120
0.646571 0.924804 0.790738
0.673335 0.922393 0.796841
0.718349 0.919890 0.809506
0.767025 0.916594 0.822995
0.818296 0.911772 0.839078
0.855650 0.908568 0.840818
0.899107 0.909819 0.847501
0.087770 0.097108 0.848447
0.160433 0.099275 0.851164
0.286564 0.098848 0.850401
0.421057 0.110292 0.849973
0.554894 0.135866 0.846403
0.684291 0.182834 0.840238
0.804990 0.259068 0.832303
0.908141 0.453986 0.834195
0.028382 0.146212 0.841672
0.143618 0.148684 0.843961
0.277989 0.149783 0.843717
0.413428 0.156588 0.841855
0.546349 0.172152 0.837247
0.673487 0.201877 0.829618
0.792294 0.263066 0.820493
0.900511 0.443183 0.825559
0.092348 0.289158 0.856260
0.164736 0.290013 0.855619
0.291783 0.292760 0.852659
0.426307 0.301091 0.849424
0.555535 0.309728 0.842405
0.680903 0.325902 0.834745
0.801266 0.372259 0.828946
0.904448 0.522332 0.835142
0.250309 0.470649 0.869200
0.278264 0.469490 0.866880
0.361944 0.470558 0.862058
0.472816 0.476814 0.859525
0.585351 0.478645 0.853178
0.700313 0.481636 0.846525
0.813748 0.505119 0.840818
0.904601 0.621180 0.844968
0.341680 0.620600 0.868223
0.362646 0.619928 0.866819
0.431830 0.621942 0.865232
0.516442 0.621241 0.860838
0.605768 0.613886 0.853361
0.704768 0.605097 0.844968
0.808774 0.609552 0.836332
0.898985 0.709010 0.850370
0.407599 0.751339 0.863157
0.425940 0.751736 0.863188
0.484382 0.753140 0.863554
0.571862 0.757198 0.864744
0.668482 0.762112 0.864988
0.744472 0.755276 0.857237
0.819821 0.744533 0.846555
0.899504 0.786404 0.859251
0.488624 0.868101 0.863981
0.505913 0.868559 0.864988
0.551415 0.866972 0.865141
0.619715 0.864500 0.865629
0.691249 0.858091 0.863279
0.760616 0.848508 0.858518
0.818753 0.829770 0.845731
0.903624 0.835843 0.851255
0.649805 0.924041 0.851286
0.658167 0.923583 0.852201
0.694881 0.923674 0.858976
0.736416 0.922026 0.864622
0.781430 0.919493 0.870939
0.825864 0.916564 0.878660
0.866636 0.912047 0.885649
0.901091 0.910369 0.884703
0.223392 0.220462 0.935912
0.256748 0.226352 0.936278
0.339971 0.236576 0.934447
0.451362 0.263920 0.933288
0.569055 0.300603 0.930694
0.684932 0.341100 0.926726
0.797269 0.399237 0.922362
0.897246 0.457740 0.916075
0.229496 0.253666 0.933959
0.261906 0.259159 0.934356
0.343847 0.269261 0.932952
0.452552 0.291142 0.931151
0.569055 0.323156 0.928618
0.683589 0.358526 0.924590
0.794278 0.406989 0.919707
0.894163 0.460639 0.913512
0.279149 0.364172 0.933257
0.304387 0.367346 0.933135
0.371588 0.371252 0.930877
0.478737 0.397467 0.931029
0.584649 0.417395 0.927733
0.689906 0.435920 0.922820
0.795499 0.467353 0.918090
0.893065 0.510857 0.912505
0.383276 0.515526 0.932830
0.402045 0.519005 0.932891
0.448585 0.520897 0.931243
0.526604 0.531121 0.929778
0.615717 0.541924 0.927184
0.707973 0.550500 0.923064
0.803281 0.565667 0.918547
0.894316 0.599237 0.913359
0.477455 0.649409 0.931975
0.493568 0.653101 0.932006
0.531121 0.656428 0.930175
0.590143 0.662531 0.927703
0.655299 0.663508 0.924620
0.729915 0.664454 0.920745
0.811795 0.669001 0.916808
0.894743 0.699397 0.913512
0.554070 0.762997 0.927794
0.562860 0.763058 0.927276
0.596612 0.765652 0.926238
0.655482 0.773770 0.925505
0.717769 0.781765 0.923735
0.777066 0.786801 0.921569
0.839017 0.791775 0.920256
0.900999 0.804471 0.918639
0.636866 0.859281 0.925139
0.643702 0.859220 0.924865
0.668727 0.859648 0.924315
0.713497 0.862577 0.924407
0.767636 0.867033 0.924865
0.823941 0.873655 0.926146
0.865690 0.874296 0.924956
0.901732 0.865568 0.919005
0.721614 0.929931 0.926482
0.725734 0.929503 0.926299
0.742458 0.928557 0.926238
0.772457 0.927428 0.926757
0.807919 0.925841 0.927214
0.843992 0.923766 0.927428
0.877226 0.920592 0.926604
0.902068 0.909789 0.919005
