其他预设/【234】港风调色预设/1.3D LUT预设（视频调色-PR-AE-PS-FCPX-达芬奇用）/24.港风色调-适合街道 __.cube
# Created by Adobe Lightroom plugin Export LUT (1.17.0)
# www.johnrellis.com/lightroom/exportlut.htm
# Preset: 24.港风色调-适合街道 [素锦印象]
# Color profile: /Library/Application Support/Adobe/Color/Profiles/Recommended/AdobeRGB1998.icc
LUT_3D_SIZE 32
0.142977 0.131746 0.131472
0.142977 0.131746 0.131472
0.143191 0.131685 0.131472
0.144106 0.131716 0.131624
0.145388 0.132052 0.131716
0.147555 0.132387 0.131991
0.151339 0.132784 0.132021
0.156191 0.133333 0.132174
0.163363 0.134096 0.132204
0.173434 0.134859 0.132326
0.187320 0.136202 0.132204
0.206516 0.138003 0.131930
0.231693 0.140780 0.131533
0.262608 0.144533 0.130861
0.298741 0.149355 0.129793
0.339269 0.155612 0.128023
0.383642 0.163088 0.125704
0.430549 0.172183 0.122713
0.478981 0.182773 0.119417
0.542290 0.198398 0.114076
0.603479 0.215671 0.109316
0.658808 0.232822 0.106569
0.709468 0.250095 0.106508
0.755550 0.267369 0.110018
0.796750 0.284611 0.118257
0.832944 0.301671 0.132021
0.864927 0.319463 0.151247
0.892699 0.338659 0.175998
0.916503 0.360174 0.206973
0.936492 0.385168 0.244968
0.952697 0.414801 0.290074
0.965148 0.450263 0.342321
0.142977 0.131746 0.131472
0.142977 0.131746 0.131472
0.143191 0.131685 0.131472
0.144106 0.131899 0.131594
0.145510 0.132204 0.131868
0.147890 0.132692 0.131960
0.151461 0.132937 0.132174
0.156527 0.133639 0.132113
0.163333 0.134279 0.132204
0.173373 0.135256 0.132296
0.187137 0.136629 0.132174
0.205844 0.138521 0.132082
0.230442 0.141329 0.131533
0.260685 0.145174 0.131106
0.296117 0.150027 0.129915
0.336126 0.156130 0.128206
0.379583 0.163607 0.126040
0.426154 0.172549 0.123201
0.474067 0.183169 0.119844
0.536156 0.198611 0.114626
0.595972 0.215061 0.109865
0.650538 0.231998 0.106630
0.700893 0.248753 0.106264
0.747250 0.265843 0.108827
0.789273 0.282933 0.116182
0.826505 0.299962 0.129000
0.859709 0.317693 0.147158
0.888579 0.336797 0.171572
0.913329 0.358099 0.202335
0.934081 0.382696 0.239811
0.950988 0.411841 0.284031
0.963958 0.446754 0.335943
0.143130 0.131899 0.131624
0.143099 0.132082 0.131624
0.143313 0.132052 0.131594
0.144198 0.132265 0.131746
0.145602 0.132753 0.132021
0.148196 0.132998 0.132082
0.151766 0.133455 0.132113
0.156771 0.134127 0.132265
0.163760 0.134737 0.132326
0.173587 0.135927 0.132387
0.187198 0.137331 0.132296
0.205997 0.139376 0.132174
0.230350 0.142397 0.131624
0.260594 0.146212 0.131014
0.295537 0.151186 0.130037
0.335332 0.157534 0.128328
0.378546 0.165225 0.126131
0.424567 0.174136 0.123354
0.472602 0.184787 0.119814
0.533928 0.200168 0.114961
0.592981 0.216403 0.110201
0.646998 0.233036 0.106996
0.697261 0.249943 0.106203
0.743618 0.266850 0.108675
0.785885 0.283787 0.115419
0.823575 0.300816 0.127535
0.857206 0.318334 0.145876
0.886503 0.337255 0.170352
0.911772 0.358312 0.200565
0.932921 0.382727 0.237675
0.950042 0.411536 0.281804
0.963256 0.446082 0.333623
0.143313 0.132967 0.131868
0.143496 0.133120 0.131868
0.143862 0.133059 0.132021
0.144564 0.133303 0.132174
0.146426 0.133516 0.132082
0.149142 0.133944 0.132143
0.152834 0.134524 0.132357
0.158022 0.135164 0.132296
0.165042 0.136110 0.132509
0.174929 0.137240 0.132570
0.188937 0.139040 0.132418
0.207767 0.141360 0.132265
0.232181 0.144747 0.131838
0.262150 0.148989 0.131167
0.296941 0.154330 0.129976
0.336309 0.160922 0.128420
0.379126 0.168826 0.126223
0.424659 0.178103 0.123415
0.473915 0.189487 0.119966
0.532189 0.204135 0.115236
0.588769 0.219913 0.110811
0.641749 0.236301 0.107485
0.691890 0.252934 0.106630
0.739101 0.269932 0.109102
0.783047 0.287358 0.115908
0.822293 0.304723 0.128573
0.856931 0.322820 0.147311
0.886748 0.341772 0.172274
0.911894 0.362951 0.203128
0.932830 0.386969 0.240055
0.949676 0.415137 0.283757
0.962707 0.448646 0.334508
0.143801 0.134554 0.132265
0.144198 0.134493 0.132265
0.144320 0.134646 0.132418
0.145235 0.134829 0.132540
0.146853 0.135286 0.132631
0.149905 0.135805 0.132662
0.153994 0.136324 0.132509
0.159426 0.137087 0.132601
0.166873 0.138064 0.132631
0.177066 0.139651 0.132631
0.191104 0.141695 0.132601
0.210147 0.144533 0.132418
0.234836 0.148470 0.132052
0.264775 0.153292 0.131289
0.299779 0.159304 0.130159
0.339361 0.166842 0.128420
0.382544 0.175479 0.126192
0.428534 0.185214 0.123384
0.480354 0.197696 0.119448
0.536431 0.212558 0.114992
0.590784 0.227970 0.110811
0.642176 0.243992 0.107973
0.691524 0.260624 0.107179
0.738369 0.277287 0.109926
0.782223 0.294469 0.117189
0.821683 0.311803 0.130282
0.856260 0.329564 0.149050
0.885954 0.348119 0.174258
0.911131 0.368841 0.204959
0.932006 0.392370 0.242100
0.948913 0.420081 0.285435
0.961944 0.452918 0.336156
0.144656 0.137301 0.132692
0.144808 0.137453 0.132845
0.145205 0.137392 0.132845
0.146090 0.137575 0.132967
0.147829 0.138155 0.133211
0.151003 0.138827 0.133425
0.155215 0.139284 0.133425
0.161440 0.140383 0.133120
0.169863 0.141665 0.133059
0.180972 0.143618 0.132998
0.195834 0.146181 0.132876
0.215732 0.149722 0.132723
0.240696 0.154330 0.132235
0.271397 0.159976 0.131441
0.306676 0.166873 0.130098
0.346532 0.175204 0.128298
0.390082 0.184726 0.125948
0.435828 0.195407 0.123018
0.490242 0.209689 0.118746
0.545068 0.224857 0.114443
0.598505 0.240513 0.110872
0.649317 0.256535 0.108675
0.753872 0.296971 0.116609
0.795621 0.313909 0.127352
0.831388 0.330205 0.142489
0.861997 0.346349 0.162173
0.888090 0.363104 0.185885
0.910185 0.381262 0.214664
0.929076 0.401892 0.247745
0.944762 0.426062 0.286748
0.957305 0.454231 0.330968
0.966674 0.487007 0.380743
0.145876 0.142367 0.133425
0.146212 0.142458 0.133577
0.146761 0.142367 0.133761
0.147799 0.142702 0.133852
0.149538 0.142885 0.134310
0.152987 0.143832 0.134646
0.157961 0.145113 0.135042
0.163912 0.145510 0.135164
0.175021 0.148165 0.134524
0.188907 0.151156 0.134066
0.208377 0.155001 0.133242
0.230991 0.159854 0.132876
0.258518 0.165682 0.132143
0.290745 0.172732 0.131075
0.327276 0.180819 0.129397
0.367285 0.190341 0.127260
0.410376 0.200595 0.124788
0.461219 0.214054 0.121218
0.516503 0.229587 0.117189
0.572442 0.246464 0.113100
0.627710 0.264225 0.110262
0.682460 0.282689 0.110536
0.735164 0.302007 0.115175
0.783536 0.321019 0.126040
0.824735 0.339361 0.142336
0.858244 0.356207 0.163302
0.885557 0.373114 0.188357
0.908202 0.390845 0.217350
0.927337 0.410895 0.250523
0.943023 0.434058 0.289158
0.955688 0.461158 0.332769
0.965240 0.492866 0.382177
0.147341 0.148623 0.134524
0.147890 0.148714 0.134676
0.148409 0.148775 0.134829
0.149813 0.148867 0.135134
0.151705 0.149020 0.135561
0.154543 0.149660 0.136080
0.159762 0.151156 0.136629
0.167025 0.153048 0.136873
0.174502 0.153506 0.137575
0.191531 0.158938 0.136263
0.211429 0.163882 0.135286
0.238193 0.170291 0.133822
0.268925 0.177554 0.132113
0.301549 0.185580 0.130739
0.337987 0.194766 0.129061
0.377600 0.204746 0.127199
0.422858 0.216922 0.124300
0.474983 0.231907 0.120638
0.526787 0.247196 0.116854
0.579706 0.263340 0.113558
0.632227 0.280400 0.111666
0.684840 0.298711 0.112459
0.735836 0.317418 0.118227
0.782956 0.335973 0.129274
0.823270 0.353277 0.146426
0.856474 0.369787 0.167575
0.883848 0.385931 0.192325
0.906523 0.402869 0.221561
0.925719 0.422370 0.255344
0.941527 0.444556 0.293462
0.954223 0.470741 0.337285
0.963836 0.501457 0.386419
0.149630 0.157839 0.136294
0.150393 0.157717 0.136294
0.150881 0.157961 0.136416
0.152590 0.157961 0.136873
0.154757 0.158389 0.137270
0.157717 0.158633 0.137972
0.162661 0.159915 0.138521
0.170138 0.162173 0.139040
0.180270 0.165042 0.139559
0.190768 0.165896 0.140536
0.215396 0.174838 0.138460
0.242161 0.182864 0.136751
0.275364 0.192081 0.134279
0.315129 0.202640 0.130861
0.353307 0.213016 0.128573
0.394812 0.224643 0.126253
0.443336 0.239261 0.122988
0.492256 0.254032 0.119692
0.541100 0.268681 0.116640
0.591302 0.284764 0.113893
0.641321 0.301305 0.113313
0.691798 0.318914 0.115816
0.740902 0.337041 0.122835
0.786038 0.354711 0.135744
0.825071 0.371496 0.153170
0.857298 0.386999 0.174746
0.884001 0.402350 0.200351
0.906249 0.418555 0.229709
0.924987 0.437018 0.263401
0.940490 0.458320 0.301640
0.952941 0.483436 0.345037
0.962341 0.512871 0.393896
0.152865 0.170962 0.138216
0.153536 0.170993 0.138338
0.154391 0.170993 0.138491
0.156069 0.171176 0.138735
0.158724 0.171176 0.139315
0.162264 0.171450 0.139986
0.166629 0.171969 0.140932
0.174563 0.174472 0.141543
0.185245 0.178012 0.142061
0.199191 0.182132 0.142855
0.213046 0.183536 0.144045
0.244511 0.195712 0.141512
0.278508 0.207218 0.138643
0.317967 0.219638 0.135317
0.366430 0.234989 0.130526
0.420294 0.251987 0.124819
0.467567 0.266911 0.121767
0.514549 0.281529 0.118746
0.561395 0.296117 0.116457
0.608118 0.310796 0.115358
0.654780 0.326329 0.116243
0.701381 0.342443 0.120638
0.746639 0.358892 0.128817
0.788357 0.374670 0.142367
0.825162 0.389990 0.160250
0.856596 0.404547 0.182071
0.882994 0.419318 0.207950
0.905364 0.435126 0.238254
0.924163 0.453254 0.272984
0.939635 0.474342 0.312444
0.951965 0.499184 0.356756
0.961212 0.528344 0.406226
0.156832 0.188357 0.140566
0.157473 0.188388 0.140688
0.158480 0.188510 0.140810
0.160616 0.188571 0.141085
0.163790 0.188724 0.141756
0.168093 0.189212 0.142519
0.173312 0.189639 0.143557
0.180514 0.191226 0.144717
0.192264 0.195315 0.145388
0.207340 0.200351 0.146090
0.225681 0.206058 0.146944
0.242466 0.207767 0.148714
0.279973 0.222293 0.146120
0.326024 0.241062 0.141878
0.374548 0.258549 0.137301
0.427741 0.276921 0.131258
0.483619 0.295109 0.123873
0.534173 0.310918 0.118410
0.578058 0.324376 0.117006
0.621881 0.338048 0.117861
0.666346 0.352636 0.120760
0.711147 0.368170 0.126589
0.754513 0.383886 0.136965
0.794553 0.398840 0.151980
0.829465 0.413123 0.171267
0.859190 0.426490 0.193912
0.884398 0.440223 0.220096
0.905730 0.454932 0.250401
0.923796 0.471992 0.285130
0.938720 0.491981 0.324559
0.950622 0.515709 0.368994
0.959533 0.543755 0.418097
0.162020 0.212375 0.143343
0.162997 0.212375 0.143496
0.164065 0.212436 0.143771
0.166751 0.212528 0.144137
0.170535 0.212894 0.144747
0.175723 0.213169 0.145632
0.182071 0.213779 0.146883
0.189334 0.214542 0.148379
0.200961 0.217838 0.149630
0.217166 0.223667 0.150484
0.236912 0.230137 0.151461
0.262882 0.240238 0.153109
0.310185 0.264347 0.160678
0.360571 0.284733 0.158572
0.422065 0.312200 0.151217
0.477699 0.333196 0.145266
0.533684 0.352453 0.138491
0.587579 0.369421 0.131838
0.638636 0.383856 0.126436
0.679622 0.395453 0.130190
0.718715 0.407172 0.138216
0.756924 0.419104 0.150118
0.792416 0.430854 0.164675
0.824613 0.442267 0.182986
0.852720 0.453285 0.204654
0.876829 0.464454 0.229343
0.897368 0.476173 0.256809
0.914855 0.489418 0.287205
0.929656 0.504906 0.321324
0.942016 0.523674 0.360052
0.951873 0.545892 0.402808
0.959258 0.572229 0.450050
0.170657 0.250431 0.147738
0.171695 0.250492 0.148013
0.173342 0.250065 0.148013
0.176455 0.249454 0.148470
0.181003 0.248936 0.149294
0.187137 0.248295 0.150240
0.194614 0.248173 0.151644
0.203311 0.248264 0.153353
0.213382 0.249271 0.155581
0.233829 0.258824 0.157504
0.259312 0.270665 0.159731
0.290379 0.284306 0.162387
0.326329 0.299413 0.165713
0.356512 0.305699 0.171420
0.407691 0.325170 0.171237
0.474769 0.356878 0.162509
0.529198 0.377325 0.157656
0.581323 0.394781 0.152560
0.631189 0.409827 0.148501
0.680964 0.424262 0.146059
0.727901 0.437659 0.148287
0.763790 0.448066 0.161135
0.797147 0.458259 0.176944
0.827420 0.468116 0.195956
0.854154 0.477852 0.218021
0.877165 0.487678 0.242527
0.896910 0.498421 0.270237
0.913848 0.510552 0.300877
0.928283 0.525078 0.335088
0.940398 0.542718 0.373510
0.949981 0.564080 0.416754
0.957183 0.589288 0.463722
0.179599 0.286717 0.152255
0.181033 0.286625 0.152529
0.182528 0.286259 0.152834
0.186007 0.285771 0.153262
0.191531 0.284764 0.154116
0.198856 0.285008 0.155398
0.208225 0.286107 0.157168
0.219059 0.287877 0.159670
0.231693 0.290318 0.162631
0.248356 0.295445 0.165927
0.274449 0.307012 0.168612
0.305516 0.320531 0.171725
0.340673 0.335088 0.175509
0.379187 0.349950 0.179538
0.409827 0.354681 0.186221
0.454902 0.367437 0.188632
0.522118 0.399573 0.179080
0.573785 0.418708 0.175082
0.622675 0.434485 0.172580
0.671717 0.449653 0.171450
0.720211 0.464485 0.173434
0.766964 0.477974 0.178775
0.803464 0.488075 0.192325
0.832090 0.496681 0.212314
0.857267 0.505119 0.235142
0.879088 0.513878 0.260288
0.897795 0.523369 0.288029
0.913878 0.534478 0.318883
0.927642 0.548058 0.353613
0.939178 0.564813 0.392096
0.948241 0.585046 0.435126
0.955077 0.609155 0.481849
0.193210 0.335607 0.159792
0.194858 0.335790 0.160128
0.196597 0.335576 0.160403
0.200900 0.335119 0.161166
0.207431 0.334203 0.162203
0.215640 0.333501 0.163394
0.225589 0.333410 0.165591
0.237369 0.333989 0.168063
0.251072 0.335363 0.171389
0.266453 0.337865 0.175540
0.289647 0.346319 0.179477
0.320714 0.359503 0.183078
0.355413 0.373663 0.187503
0.392798 0.387945 0.191989
0.431891 0.401404 0.196750
0.461463 0.403632 0.203830
0.498787 0.408484 0.209232
0.562982 0.439216 0.200839
0.614984 0.458808 0.197665
0.662959 0.474861 0.198337
0.710689 0.490272 0.201083
0.756924 0.504540 0.207095
0.798856 0.516442 0.216861
0.835660 0.526116 0.231479
0.860441 0.533501 0.254398
0.881254 0.541344 0.280583
0.899321 0.550378 0.309728
0.914794 0.561334 0.342657
0.927977 0.574884 0.378820
0.938811 0.591638 0.419318
0.947204 0.611719 0.463386
0.953307 0.635218 0.510460
0.210513 0.389899 0.170596
0.212375 0.390356 0.170962
0.214511 0.390204 0.171420
0.219303 0.389776 0.172244
0.226566 0.388891 0.173312
0.235935 0.388312 0.175082
0.247166 0.388159 0.177523
0.260319 0.388739 0.180636
0.275212 0.389532 0.184360
0.291417 0.391180 0.188846
0.308690 0.392828 0.194461
0.337987 0.403418 0.198184
0.370611 0.414801 0.202243
0.405341 0.426429 0.206790
0.441505 0.437568 0.211551
0.478950 0.448127 0.216312
0.507378 0.448829 0.223667
0.540185 0.449226 0.231601
0.600336 0.476967 0.227115
0.655238 0.499763 0.225986
0.703273 0.517144 0.231144
0.749935 0.532921 0.238682
0.792264 0.546044 0.249943
0.829313 0.556756 0.265263
0.860899 0.565362 0.284459
0.885710 0.572900 0.308751
0.902220 0.581018 0.338872
0.916411 0.590997 0.372015
0.928283 0.603632 0.408789
0.937987 0.618891 0.448127
0.945525 0.636957 0.489906
0.951019 0.658106 0.534264
0.229709 0.442298 0.184115
0.231266 0.442359 0.184390
0.233555 0.441840 0.184787
0.238712 0.440925 0.185519
0.245945 0.440101 0.186831
0.255650 0.439094 0.188632
0.267308 0.438422 0.191257
0.280705 0.438148 0.194339
0.295903 0.438361 0.198306
0.312505 0.439002 0.203281
0.330114 0.440131 0.208804
0.351995 0.443977 0.214359
0.383764 0.454688 0.219242
0.417273 0.465217 0.224277
0.451942 0.475288 0.229343
0.487282 0.484382 0.234226
0.523339 0.493111 0.239414
0.551263 0.493233 0.247623
0.580987 0.491096 0.257267
0.636194 0.514672 0.257511
0.692622 0.539666 0.258671
0.738918 0.556634 0.267247
0.781582 0.571191 0.279332
0.819394 0.583093 0.294896
0.851774 0.592645 0.314641
0.878752 0.601038 0.338109
0.901030 0.609186 0.365545
0.916533 0.618616 0.398566
0.927611 0.630152 0.435096
0.936553 0.644465 0.474403
0.943481 0.661433 0.515831
0.948455 0.681331 0.559319
0.252232 0.495827 0.202243
0.254490 0.496559 0.203037
0.273381 0.529046 0.217777
0.278508 0.527855 0.218357
0.286320 0.526268 0.219791
0.296086 0.524071 0.221347
0.307683 0.521660 0.223606
0.321294 0.519341 0.226627
0.336675 0.517815 0.230655
0.353521 0.516442 0.235203
0.371283 0.515648 0.240940
0.389441 0.514488 0.247288
0.415198 0.518364 0.252415
0.447303 0.526177 0.257633
0.480079 0.533440 0.262638
0.513298 0.540276 0.268162
0.546838 0.546624 0.273625
0.581109 0.552911 0.279057
0.607721 0.551202 0.287358
0.633814 0.546075 0.299016
0.683345 0.564813 0.303868
0.738979 0.589593 0.306859
0.780179 0.604089 0.319493
0.816312 0.615564 0.335576
0.846983 0.624323 0.353704
0.872770 0.631647 0.375433
0.894255 0.638605 0.400488
0.911986 0.646784 0.429694
0.926329 0.656947 0.463233
0.934844 0.669673 0.501122
0.941253 0.684993 0.540948
0.945647 0.703487 0.583368
0.282444 0.555474 0.229374
0.286503 0.559594 0.232303
0.291478 0.563317 0.234958
0.298619 0.566247 0.238102
0.307774 0.567651 0.240940
0.317937 0.567102 0.243412
0.329839 0.565423 0.245762
0.342748 0.563287 0.248936
0.357794 0.561608 0.252842
0.373999 0.559777 0.257145
0.391150 0.558495 0.262821
0.408972 0.556909 0.268620
0.426551 0.554650 0.274662
0.456001 0.560479 0.280186
0.486885 0.566552 0.285100
0.518181 0.572351 0.290318
0.550256 0.577996 0.295720
0.582849 0.583734 0.301732
0.616358 0.589929 0.308354
0.643641 0.589441 0.317510
0.668025 0.583795 0.330694
0.713863 0.599725 0.341070
0.766506 0.623835 0.348394
0.805814 0.638270 0.363439
0.837461 0.648402 0.382544
0.864164 0.656672 0.404578
0.886229 0.664363 0.429938
0.904509 0.672511 0.458717
0.919310 0.682338 0.491951
0.930877 0.694148 0.527916
0.938750 0.708736 0.567651
0.942596 0.725856 0.609155
0.308965 0.599451 0.255650
0.313390 0.603082 0.258366
0.318029 0.606622 0.261814
0.324865 0.609094 0.264866
0.333532 0.610498 0.268009
0.343145 0.609827 0.270268
0.354131 0.608240 0.272801
0.366644 0.606195 0.275547
0.380896 0.604334 0.279393
0.396307 0.602502 0.283543
0.412909 0.601038 0.289097
0.430030 0.599237 0.294926
0.447059 0.596612 0.300389
0.467079 0.595972 0.306462
0.496651 0.601465 0.311437
0.526390 0.606531 0.316838
0.556756 0.611627 0.322179
0.587915 0.616846 0.328161
0.619959 0.622400 0.334569
0.653101 0.628687 0.342504
0.680446 0.629114 0.352667
0.703029 0.623102 0.368139
0.744045 0.635370 0.382879
0.791775 0.657130 0.393500
0.827970 0.670649 0.410346
0.855253 0.679683 0.432197
0.877958 0.687617 0.457038
0.896757 0.695644 0.484993
0.912047 0.704891 0.516564
0.924071 0.715999 0.551690
0.932952 0.729610 0.590326
0.938811 0.746304 0.632227
0.338628 0.642817 0.286320
0.342718 0.646143 0.289372
0.347478 0.649256 0.292668
0.353918 0.651637 0.295811
0.362097 0.652705 0.298955
0.370977 0.652125 0.301579
0.381079 0.650538 0.303868
0.392615 0.648402 0.306157
0.405707 0.646265 0.309697
0.420172 0.644129 0.313451
0.435645 0.642298 0.318242
0.451942 0.640070 0.323613
0.468269 0.637507 0.329168
0.484535 0.634363 0.334539
0.508019 0.636103 0.340154
0.536767 0.641413 0.346441
0.566857 0.647089 0.353155
0.597955 0.653223 0.360601
0.629877 0.660090 0.369299
0.662867 0.667414 0.379217
0.696651 0.675257 0.389929
0.725154 0.677699 0.403235
0.745205 0.670954 0.420813
0.779782 0.678767 0.440742
0.821042 0.697536 0.456306
0.852445 0.709651 0.475410
0.874601 0.717861 0.500664
0.892790 0.725856 0.528466
0.907469 0.734707 0.559197
0.918853 0.745205 0.593133
0.927214 0.757931 0.630182
0.932830 0.773251 0.669612
0.382666 0.697841 0.334051
0.385260 0.699153 0.335760
0.388098 0.700160 0.337621
0.392767 0.700374 0.339147
0.398901 0.699947 0.341100
0.406378 0.698634 0.342657
0.415534 0.696864 0.344549
0.426123 0.694972 0.346899
0.438636 0.693385 0.350317
0.452613 0.691951 0.354833
0.467659 0.690364 0.359747
0.483192 0.688502 0.365118
0.498848 0.686000 0.370397
0.514275 0.682826 0.375555
0.529534 0.679225 0.380499
0.555779 0.682918 0.386542
0.583581 0.687526 0.393103
0.612421 0.692470 0.399908
0.641962 0.697719 0.408118
0.672114 0.703334 0.416938
0.702632 0.709041 0.426856
0.733425 0.714717 0.436988
0.759243 0.715846 0.448951
0.774441 0.706172 0.465095
0.802335 0.708949 0.485939
0.838041 0.724971 0.503075
0.866331 0.736294 0.522606
0.885191 0.744625 0.550439
0.900389 0.753323 0.580713
0.912261 0.763363 0.614160
0.921111 0.775174 0.649836
0.927306 0.788968 0.687068
0.417945 0.736110 0.373968
0.420508 0.737270 0.375860
0.423255 0.738338 0.377783
0.427527 0.738552 0.379461
0.432898 0.738033 0.380743
0.439490 0.736721 0.382361
0.447303 0.734829 0.383398
0.456611 0.732937 0.385565
0.467597 0.731106 0.388403
0.480140 0.729335 0.392004
0.493690 0.727565 0.396551
0.508049 0.725521 0.401068
0.522576 0.723110 0.405890
0.537407 0.720424 0.411048
0.552056 0.717311 0.415991
0.569543 0.715724 0.421424
0.595819 0.719844 0.427955
0.622858 0.724239 0.435492
0.650568 0.728878 0.443793
0.678798 0.733791 0.453040
0.707546 0.738857 0.462989
0.736263 0.743984 0.473915
0.764950 0.749081 0.485115
0.789364 0.750301 0.497597
0.796811 0.734127 0.503838
0.820310 0.734768 0.525689
0.851041 0.748318 0.545373
0.876005 0.759274 0.567193
0.892821 0.768215 0.596368
0.905486 0.777859 0.629145
0.915038 0.789242 0.664698
0.921935 0.801846 0.700313
0.465553 0.778164 0.429603
0.468177 0.779232 0.431739
0.470466 0.779721 0.433051
0.473579 0.779446 0.433906
0.477546 0.778470 0.434394
0.482399 0.776883 0.434913
0.488533 0.774838 0.435462
0.495613 0.772244 0.435767
0.504204 0.769680 0.436866
0.514061 0.766995 0.438453
0.524956 0.764218 0.440711
0.536980 0.761563 0.443763
0.549493 0.758633 0.446937
0.562249 0.755276 0.450172
0.574701 0.751431 0.453162
0.587366 0.747219 0.456306
0.606348 0.746761 0.460548
0.630549 0.749630 0.466560
0.655879 0.753292 0.474495
0.682277 0.757534 0.483253
0.709071 0.762051 0.493477
0.735836 0.766537 0.503990
0.762112 0.770626 0.514427
0.787869 0.774166 0.524559
0.809934 0.774411 0.534966
0.818540 0.762203 0.547662
0.838529 0.762173 0.570611
0.863188 0.772244 0.592554
0.884337 0.782742 0.616297
0.899138 0.792203 0.645869
0.909300 0.802579 0.679622
0.916869 0.814023 0.713619
0.501427 0.804776 0.471962
0.503777 0.805631 0.474128
0.505913 0.806027 0.475563
0.508690 0.805844 0.476417
0.512047 0.804990 0.476844
0.516289 0.803708 0.477058
0.521630 0.802060 0.477699
0.528099 0.800168 0.478340
0.535790 0.798154 0.479561
0.544793 0.796170 0.481453
0.554803 0.794156 0.484108
0.565789 0.792020 0.486976
0.577508 0.789792 0.490455
0.589227 0.787198 0.493629
0.601038 0.784085 0.496773
0.612879 0.780728 0.499550
0.624994 0.777279 0.502831
0.646174 0.779080 0.508690
0.669276 0.781857 0.516045
0.693050 0.785122 0.524224
0.717250 0.788449 0.533806
0.741421 0.791836 0.543572
0.765255 0.794980 0.553613
0.788571 0.797818 0.563775
0.811368 0.800198 0.573571
0.831205 0.800351 0.583398
0.837675 0.788632 0.595575
0.854398 0.788540 0.619776
0.873991 0.796719 0.644465
0.891661 0.807340 0.670771
0.904265 0.816983 0.699062
0.912352 0.827481 0.731197
0.540826 0.829313 0.519127
0.542718 0.829770 0.520684
0.543999 0.829831 0.521263
0.545922 0.829374 0.521660
0.548241 0.828397 0.521263
0.551324 0.827115 0.521141
0.555383 0.825589 0.520928
0.560601 0.823850 0.521202
0.567071 0.822141 0.522026
0.574853 0.820432 0.523583
0.583581 0.818723 0.525750
0.593530 0.817014 0.528801
0.603876 0.815213 0.531853
0.614588 0.813016 0.535119
0.625177 0.810422 0.537591
0.636011 0.807584 0.540429
0.646876 0.804501 0.542962
0.660212 0.802640 0.546807
0.680903 0.804715 0.553643
0.702358 0.807034 0.561608
0.724208 0.809567 0.570550
0.746059 0.812131 0.579828
0.767544 0.814572 0.589685
0.788724 0.816770 0.599268
0.809262 0.818753 0.608759
0.829160 0.820523 0.618189
0.847105 0.820890 0.628046
0.852476 0.810513 0.639704
0.866026 0.810269 0.663844
0.881651 0.817014 0.689540
0.896544 0.827207 0.715053
0.907866 0.837064 0.741665
0.577020 0.847898 0.562554
0.578241 0.848081 0.563531
0.579370 0.848112 0.564050
0.581018 0.847807 0.564416
0.583551 0.847227 0.564935
0.587091 0.846647 0.565820
0.592126 0.846128 0.567803
0.598444 0.845640 0.570550
0.606073 0.845212 0.574121
0.614740 0.844785 0.578241
0.624323 0.844358 0.583246
0.634333 0.843778 0.588159
0.644617 0.842954 0.593133
0.654658 0.841672 0.597162
0.664515 0.840055 0.600763
0.673945 0.837949 0.603540
0.683436 0.835599 0.606043
0.693141 0.833310 0.608972
0.707607 0.833005 0.614282
0.725765 0.834440 0.621546
0.744350 0.835996 0.629603
0.762753 0.837613 0.638148
0.780972 0.839078 0.646693
0.798825 0.840513 0.655329
0.816159 0.841825 0.663935
0.833005 0.843046 0.672480
0.849393 0.844297 0.681270
0.864347 0.844816 0.690181
0.868467 0.836271 0.700221
0.878477 0.835843 0.721279
0.890288 0.841367 0.745083
0.902434 0.851072 0.768673
0.628626 0.867918 0.624292
0.629419 0.867948 0.624811
0.629999 0.867826 0.624933
0.630915 0.867430 0.624689
0.632288 0.866850 0.624445
0.634424 0.866148 0.624292
0.637568 0.865385 0.624903
0.641627 0.864561 0.625818
0.646784 0.863737 0.627527
0.652888 0.862852 0.629786
0.659449 0.861875 0.632044
0.666865 0.860838 0.634943
0.674525 0.859648 0.637781
0.682460 0.858274 0.640650
0.690364 0.856687 0.643000
