其他预设/【234】港风调色预设/1.3D LUT预设（视频调色-PR-AE-PS-FCPX-达芬奇用）/24.港风色调-适合街道 __.cube
# Created by Adobe Lightroom plugin Export LUT (1.17.0)
# www.johnrellis.com/lightroom/exportlut.htm
# Preset: 24.港风色调-适合街道 [素锦印象]
# Color profile: /Library/Application Support/Adobe/Color/Profiles/Recommended/AdobeRGB1998.icc
LUT_3D_SIZE 8
DOMAIN_MIN 0.000000 0.000000 0.000000
DOMAIN_MAX 0.903226 0.903226 0.903226
0.142977 0.131746 0.131472
0.145388 0.132052 0.131716
0.163363 0.134096 0.132204
0.231693 0.140780 0.131533
0.383642 0.163088 0.125704
0.603479 0.215671 0.109316
0.796750 0.284611 0.118257
0.916503 0.360174 0.206973
0.143801 0.134554 0.132265
0.146853 0.135286 0.132631
0.166873 0.138064 0.132631
0.234836 0.148470 0.132052
0.382544 0.175479 0.126192
0.590784 0.227970 0.110811
0.782223 0.294469 0.117189
0.911131 0.368841 0.204959
0.149630 0.157839 0.136294
0.154757 0.158389 0.137270
0.180270 0.165042 0.139559
0.275364 0.192081 0.134279
0.443336 0.239261 0.122988
0.641321 0.301305 0.113313
0.825071 0.371496 0.153170
0.924987 0.437018 0.263401
0.170657 0.250431 0.147738
0.181003 0.248936 0.149294
0.213382 0.249271 0.155581
0.326329 0.299413 0.165713
0.529198 0.377325 0.157656
0.727901 0.437659 0.148287
0.854154 0.477852 0.218021
0.928283 0.525078 0.335088
0.229709 0.442298 0.184115
0.245945 0.440101 0.186831
0.295903 0.438361 0.198306
0.383764 0.454688 0.219242
0.523339 0.493111 0.239414
0.692622 0.539666 0.258671
0.851774 0.592645 0.314641
0.927611 0.630152 0.435096
0.338628 0.642817 0.286320
0.362097 0.652705 0.298955
0.405707 0.646265 0.309697
0.468269 0.637507 0.329168
0.566857 0.647089 0.353155
0.696651 0.675257 0.389929
0.821042 0.697536 0.456306
0.907469 0.734707 0.559197
0.501427 0.804776 0.471962
0.512047 0.804990 0.476844
0.535790 0.798154 0.479561
0.577508 0.789792 0.490455
0.624994 0.777279 0.502831
0.717250 0.788449 0.533806
0.811368 0.800198 0.573571
0.873991 0.796719 0.644465
0.665034 0.879454 0.667201
0.668147 0.878630 0.667628
0.680964 0.876371 0.671504
0.705715 0.873472 0.682765
0.720455 0.863371 0.673396
0.763058 0.861479 0.694423
0.820676 0.866209 0.726162
0.870603 0.869535 0.753170
0.142885 0.131899 0.133028
0.145083 0.132021 0.133455
0.162081 0.132021 0.134646
0.223087 0.139071 0.137697
0.363561 0.154482 0.135836
0.564782 0.196536 0.128450
0.760922 0.263676 0.136904
0.900481 0.344793 0.209354
0.143557 0.134890 0.134310
0.147127 0.135500 0.135164
0.165805 0.138674 0.137026
0.230594 0.146517 0.138369
0.371252 0.167849 0.136019
0.565240 0.212894 0.128939
0.752132 0.276158 0.136904
0.894316 0.352972 0.206119
0.148775 0.157595 0.139345
0.155886 0.158785 0.142397
0.179294 0.164584 0.145510
0.269444 0.186557 0.141085
0.420600 0.225528 0.136812
0.606744 0.280430 0.133791
0.785611 0.345739 0.159945
0.908537 0.417517 0.252903
0.165042 0.244511 0.152682
0.179202 0.245060 0.157626
0.213260 0.248295 0.164706
0.303014 0.277806 0.173312
0.478187 0.338628 0.165743
0.671473 0.397925 0.156466
0.818448 0.448829 0.207309
0.915099 0.505272 0.316747
0.226383 0.437690 0.199374
0.242130 0.433356 0.201053
0.290013 0.427649 0.209812
0.364569 0.431312 0.225559
0.494453 0.464332 0.241215
0.667720 0.517662 0.259770
0.837888 0.578058 0.310002
0.920928 0.618891 0.425360
0.330877 0.629297 0.293645
0.345434 0.628382 0.297246
0.389715 0.623255 0.306981
0.454780 0.618830 0.328283
0.553826 0.632288 0.355657
0.687770 0.666590 0.396338
0.815335 0.692348 0.459022
0.904112 0.728908 0.554467
0.486061 0.791958 0.462715
0.491432 0.788571 0.461067
0.518822 0.783566 0.466896
0.566278 0.778866 0.483894
0.618311 0.769772 0.501366
0.708827 0.780392 0.529564
0.803006 0.791501 0.564111
0.869535 0.789181 0.632074
0.657069 0.876310 0.661494
0.661952 0.875944 0.663752
0.676081 0.873899 0.668879
0.702052 0.871336 0.681086
0.730159 0.866331 0.690944
0.765774 0.862211 0.703273
0.819242 0.864988 0.726955
0.868711 0.867552 0.750271
0.143557 0.132143 0.143526
0.147066 0.132387 0.144686
0.161624 0.134920 0.149020
0.219791 0.134157 0.166171
0.371099 0.080842 0.161440
0.565820 0.161685 0.180606
0.760494 0.245457 0.210941
0.897826 0.347082 0.284123
0.144411 0.136202 0.148775
0.149477 0.137270 0.149783
0.165835 0.140383 0.152926
0.229374 0.139071 0.167208
0.373693 0.125063 0.165499
0.564935 0.186252 0.181888
0.756161 0.261753 0.211002
0.895750 0.359350 0.285863
0.148013 0.164858 0.161776
0.154635 0.166110 0.163546
0.182345 0.168582 0.168429
0.265080 0.180545 0.172641
0.421820 0.212558 0.182742
0.605158 0.264775 0.197574
0.778988 0.334783 0.234867
0.901366 0.419379 0.318090
0.159213 0.261418 0.185763
0.172335 0.263523 0.188205
0.224704 0.268315 0.203525
0.312657 0.289067 0.219577
0.499031 0.345312 0.219577
0.668544 0.392920 0.235966
0.815488 0.450904 0.290074
0.909819 0.516411 0.385870
0.200473 0.451911 0.235264
0.222019 0.451881 0.239017
0.300237 0.447852 0.267094
0.373785 0.445502 0.285069
0.505791 0.478614 0.305486
0.676417 0.528801 0.328710
0.840146 0.583429 0.375372
0.913695 0.627619 0.478889
0.306493 0.641169 0.321233
0.334539 0.639307 0.335241
0.401923 0.630701 0.366644
0.463600 0.622187 0.380133
0.548180 0.625757 0.401251
0.677668 0.658747 0.437476
0.812436 0.694697 0.497780
0.901274 0.736385 0.593896
0.490364 0.799771 0.498146
0.505303 0.796292 0.507042
0.535576 0.788235 0.516075
0.575891 0.780240 0.523644
0.624109 0.769863 0.534874
0.707485 0.778592 0.561395
0.802914 0.794003 0.600214
0.871275 0.799130 0.669398
0.665614 0.876555 0.683406
0.670985 0.874876 0.686183
0.682307 0.872404 0.688167
0.709987 0.870878 0.702296
0.735378 0.865782 0.708827
0.767239 0.861173 0.719356
0.819730 0.864897 0.741787
0.868528 0.868528 0.764858
0.145327 0.131746 0.185519
0.152010 0.132021 0.188724
0.176547 0.133974 0.194553
0.223362 0.137697 0.207950
0.335851 0.141970 0.255558
0.549493 0.000000 0.296178
0.743374 0.000000 0.274388
0.879179 0.283574 0.345190
0.145022 0.138643 0.201480
0.153689 0.139132 0.202976
0.182376 0.141207 0.205570
0.232303 0.146548 0.216526
0.346715 0.157290 0.262974
0.556207 0.062226 0.292149
0.740139 0.012970 0.277684
0.876524 0.319158 0.352850
0.141268 0.179446 0.232029
0.151583 0.178103 0.235050
0.193912 0.177371 0.235874
0.259586 0.188052 0.242954
0.398596 0.202731 0.286412
0.595514 0.178408 0.285283
0.763607 0.312474 0.335912
0.887327 0.417304 0.402075
0.143709 0.291386 0.280369
0.161044 0.292302 0.281895
0.219455 0.294682 0.287968
0.314580 0.295933 0.297429
0.465949 0.322515 0.308507
0.628168 0.369085 0.332952
0.786404 0.436408 0.379644
0.894713 0.516930 0.458137
0.193973 0.485542 0.337621
0.218173 0.481697 0.337652
0.290654 0.476173 0.344915
0.398718 0.472358 0.377752
0.509545 0.488197 0.398108
0.686702 0.540093 0.422187
0.826505 0.586023 0.467597
0.901427 0.634119 0.543511
0.320623 0.668238 0.419135
0.349493 0.674311 0.431647
0.406836 0.663050 0.443549
0.495979 0.648951 0.479164
0.559930 0.637842 0.490333
0.678981 0.665614 0.516472
0.813291 0.705592 0.567590
0.897917 0.745632 0.646387
0.487312 0.808743 0.544335
0.500816 0.807858 0.550378
0.540093 0.803220 0.567102
0.603876 0.793515 0.599634
0.647974 0.783200 0.605188
0.712093 0.782498 0.619409
0.800534 0.795132 0.647486
0.871214 0.806760 0.706844
0.667811 0.881529 0.705684
0.674342 0.880797 0.709499
0.695918 0.876982 0.722469
0.723812 0.871946 0.736294
0.745937 0.866850 0.739437
0.771878 0.861112 0.744472
0.819425 0.864225 0.762173
0.867491 0.869017 0.783078
0.148714 0.127657 0.308568
0.163088 0.127047 0.311986
0.206973 0.125612 0.315190
0.269657 0.127962 0.318730
0.362615 0.136172 0.346380
0.512596 0.168246 0.412818
0.703487 0.189914 0.473640
0.871672 0.233890 0.488045
0.142000 0.137789 0.328435
0.159609 0.137423 0.332036
0.210697 0.137179 0.332525
0.276951 0.141268 0.330694
0.370764 0.154635 0.354864
0.519432 0.193668 0.419257
0.709773 0.214359 0.476051
0.873350 0.255589 0.487037
0.103243 0.191745 0.376135
0.129335 0.187778 0.376104
0.212589 0.190249 0.372137
0.301274 0.199283 0.369482
0.394629 0.218906 0.379522
0.532494 0.266667 0.433387
0.724269 0.278447 0.475959
0.872770 0.318883 0.478126
0.104097 0.331121 0.435248
0.140627 0.328893 0.435706
0.230564 0.324193 0.440833
0.341985 0.321569 0.432776
0.440986 0.336095 0.429114
0.581201 0.372381 0.470771
0.755795 0.379706 0.476081
0.872374 0.466835 0.508415
0.156222 0.508293 0.493660
0.190677 0.508049 0.494331
0.278874 0.503471 0.493629
0.387945 0.495552 0.492561
0.492409 0.479072 0.486122
0.638209 0.506218 0.498054
0.780941 0.552758 0.528832
0.880247 0.611200 0.581750
0.306767 0.673884 0.516869
0.327794 0.671870 0.518608
0.387762 0.661646 0.522148
0.470771 0.649989 0.533837
0.557397 0.633875 0.554192
0.660639 0.652491 0.578332
0.810483 0.705928 0.628046
0.888975 0.741604 0.684627
0.490333 0.814817 0.613642
0.500450 0.812528 0.615320
0.536004 0.806607 0.623468
0.590692 0.798795 0.639185
0.655634 0.786404 0.662287
0.702846 0.775174 0.665278
0.791104 0.789364 0.687739
0.869322 0.809476 0.738582
0.663661 0.881498 0.729824
0.668666 0.880522 0.731594
0.685847 0.877440 0.738186
0.720668 0.875181 0.756466
0.753689 0.868193 0.770230
0.777066 0.861814 0.771145
0.814725 0.861143 0.779782
0.863676 0.866667 0.796994
0.147127 0.109102 0.529015
0.174716 0.106935 0.529534
0.246799 0.101350 0.524041
0.337499 0.102205 0.522911
0.430732 0.126802 0.517418
0.540124 0.170016 0.536217
0.686610 0.273320 0.596277
0.826200 0.404700 0.658991
0.130098 0.129854 0.532403
0.163180 0.128511 0.531426
0.242069 0.125917 0.528099
0.336553 0.130648 0.525017
0.429847 0.153689 0.516533
0.539910 0.194308 0.536065
0.685878 0.292790 0.596521
0.826596 0.413123 0.658015
0.000000 0.207309 0.577111
0.118105 0.207797 0.574853
0.238285 0.211154 0.570275
0.352514 0.221866 0.562249
0.451850 0.241245 0.546258
0.558404 0.278752 0.557031
0.696437 0.367224 0.611688
0.834104 0.454139 0.662928
0.072938 0.367224 0.638209
0.140414 0.364080 0.633631
0.259586 0.360021 0.624079
0.392279 0.373388 0.618402
0.499184 0.386053 0.602197
0.595331 0.410071 0.598993
0.718502 0.478676 0.643305
0.849058 0.518914 0.670649
0.198581 0.540612 0.663050
0.233829 0.540246 0.663355
0.326452 0.538445 0.663172
0.437995 0.535912 0.661891
0.531975 0.522728 0.639460
0.615198 0.524743 0.622583
0.737453 0.562127 0.656550
0.861662 0.578271 0.657832
0.308965 0.703792 0.692256
0.335271 0.705196 0.694606
0.400580 0.700496 0.692897
0.484108 0.691371 0.689174
0.566979 0.675624 0.679835
0.653651 0.654414 0.667384
0.781094 0.684199 0.685115
0.867277 0.721706 0.716396
0.507439 0.826169 0.710628
0.521569 0.826352 0.713191
0.558007 0.823331 0.716365
0.609827 0.816709 0.723140
0.665431 0.805783 0.730282
0.721248 0.788083 0.738582
0.785611 0.789273 0.744778
0.870665 0.818875 0.786374
0.675410 0.885191 0.774319
0.679835 0.884306 0.775326
0.695735 0.881590 0.779446
0.723415 0.878325 0.788327
0.753567 0.873411 0.796780
0.786252 0.865507 0.806119
0.810544 0.858549 0.804837
0.860319 0.865354 0.818296
0.142428 0.089052 0.733669
0.181552 0.088014 0.736843
0.273472 0.088441 0.732753
0.381598 0.106813 0.726467
0.487861 0.148989 0.712917
0.587945 0.205905 0.700099
0.692348 0.275303 0.705409
0.811917 0.418219 0.743923
0.122286 0.124269 0.726131
0.167300 0.124727 0.728756
0.265171 0.127321 0.725368
0.374640 0.141176 0.717067
0.480140 0.173098 0.702266
0.577020 0.218235 0.686519
0.678950 0.278080 0.690791
0.801724 0.408331 0.732113
0.066865 0.229526 0.755337
0.143313 0.231022 0.753719
0.263890 0.236301 0.746883
0.384222 0.251072 0.737118
0.492927 0.272404 0.718654
0.589593 0.304265 0.700313
0.694179 0.357977 0.708034
0.811398 0.475166 0.747189
0.163272 0.392004 0.788663
0.200473 0.389685 0.784512
0.303777 0.392798 0.774868
0.421241 0.405249 0.766445
0.526421 0.416724 0.749752
0.618036 0.431952 0.728695
0.716732 0.470283 0.733577
0.818784 0.557427 0.762112
0.289708 0.558465 0.803220
0.310796 0.556481 0.800900
0.379858 0.554559 0.797086
0.464729 0.551690 0.786709
0.553002 0.546899 0.768917
0.636378 0.544518 0.746548
0.722255 0.560571 0.740475
0.819577 0.635798 0.771359
0.399939 0.709071 0.810758
0.416297 0.708919 0.810513
0.466041 0.707851 0.809445
0.538506 0.706844 0.808499
0.616876 0.702602 0.805264
0.686244 0.690578 0.788327
0.750149 0.686000 0.771603
0.831662 0.720150 0.789487
0.512261 0.833097 0.824491
0.525597 0.833127 0.825193
0.559838 0.830289 0.824582
0.611292 0.825834 0.823606
0.665736 0.816800 0.819089
0.721401 0.803799 0.811521
0.772213 0.781460 0.795682
0.853422 0.800778 0.807736
0.670253 0.883848 0.819089
0.675898 0.883421 0.819852
0.701686 0.883696 0.825986
0.731014 0.882444 0.830869
0.762387 0.879606 0.835660
0.791684 0.873960 0.839567
0.818997 0.863676 0.840970
0.855741 0.863310 0.842985
0.170901 0.120333 0.859525
0.205722 0.124819 0.859892
0.291508 0.135897 0.855772
0.399329 0.167788 0.851926
0.509667 0.217258 0.844327
0.612940 0.274205 0.832151
0.711452 0.340795 0.825254
0.802182 0.408331 0.823148
0.161715 0.154360 0.857481
0.199374 0.158114 0.857908
0.288792 0.168856 0.854490
0.397253 0.195468 0.849546
0.508080 0.238590 0.841825
0.610864 0.289128 0.829435
0.707424 0.347570 0.821134
0.798215 0.410864 0.819120
0.158053 0.252689 0.861082
0.198581 0.256291 0.860594
0.290349 0.263523 0.855711
0.408362 0.293614 0.854246
0.517235 0.324559 0.845274
0.615930 0.357183 0.831052
0.709163 0.400397 0.821103
0.798856 0.453559 0.820035
0.228428 0.395636 0.868803
0.261204 0.400305 0.868681
0.336706 0.406653 0.864805
0.439521 0.424750 0.860258
0.541375 0.446143 0.852201
0.633509 0.465248 0.839567
0.718563 0.487648 0.827329
0.804623 0.527214 0.826352
0.360204 0.556023 0.876982
0.379217 0.558984 0.876738
0.422095 0.558984 0.873014
0.486183 0.558465 0.866819
0.568902 0.564630 0.858274
0.650202 0.569970 0.846159
0.726406 0.576928 0.831327
0.810666 0.614832 0.833036
0.475837 0.699153 0.878111
0.483833 0.698207 0.877287
0.513695 0.696498 0.875364
0.565942 0.696315 0.873533
0.626307 0.695521 0.868528
0.693935 0.698817 0.859770
0.759030 0.703517 0.849516
0.824643 0.723201 0.847715
0.589258 0.813779 0.880308
0.595026 0.813230 0.879881
0.615686 0.811948 0.878813
0.654139 0.811856 0.878080
0.702419 0.811826 0.877195
0.754665 0.812222 0.876310
0.796292 0.806149 0.868498
0.831785 0.795804 0.855131
0.692531 0.890074 0.886473
0.695644 0.889525 0.886198
0.708553 0.888212 0.885832
0.732479 0.886259 0.885832
0.761227 0.883421 0.885405
0.791379 0.879301 0.884092
0.820798 0.872740 0.880797
0.845457 0.856199 0.868559
