其他预设/【234】港风调色预设/1.3D LUT预设（视频调色-PR-AE-PS-FCPX-达芬奇用）/24.港风色调-适合街道 __.cube
# Created by Adobe Lightroom plugin Export LUT (1.17.0)
# www.johnrellis.com/lightroom/exportlut.htm
# Preset: 24.港风色调-适合街道 [素锦印象]
# Color profile: /Library/Application Support/Adobe/Color/Profiles/Recommended/AdobeRGB1998.icc
LUT_3D_SIZE 5
DOMAIN_MIN 0.000000 0.000000 0.000000
DOMAIN_MAX 0.903226 0.903226 0.903226
0.142977 0.131746 0.131472
0.156191 0.133333 0.132174
0.298741 0.149355 0.129793
0.658808 0.232822 0.106569
0.916503 0.360174 0.206973
0.147341 0.148623 0.134524
0.167025 0.153048 0.136873
0.337987 0.194766 0.129061
0.684840 0.298711 0.112459
0.925719 0.422370 0.255344
0.193210 0.335607 0.159792
0.237369 0.333989 0.168063
0.431891 0.401404 0.196750
0.756924 0.504540 0.207095
0.927977 0.574884 0.378820
0.382666 0.697841 0.334051
0.426123 0.694972 0.346899
0.529534 0.679225 0.380499
0.733425 0.714717 0.436988
0.900389 0.753323 0.580713
0.665034 0.879454 0.667201
0.676478 0.876951 0.669734
0.704402 0.865965 0.666865
0.778164 0.862760 0.702815
0.870603 0.869535 0.753170
0.143282 0.131960 0.139071
0.154696 0.133791 0.142641
0.287602 0.113588 0.149966
0.608057 0.188724 0.165133
0.894804 0.340551 0.255100
0.146578 0.152255 0.150301
0.167605 0.154849 0.154665
0.319127 0.177584 0.160372
0.638575 0.261143 0.177249
0.902159 0.400855 0.288212
0.173983 0.342718 0.191470
0.238224 0.340520 0.210208
0.399603 0.371893 0.236454
0.730068 0.477302 0.253239
0.916289 0.573297 0.419532
0.376471 0.700465 0.373053
0.437659 0.695705 0.403510
0.536675 0.679133 0.427832
0.724727 0.708400 0.475166
0.896117 0.756039 0.608759
0.674952 0.878325 0.689937
0.685328 0.875914 0.691432
0.722744 0.869535 0.702876
0.782589 0.863645 0.724178
0.870420 0.870451 0.767300
0.147097 0.130556 0.235966
0.179599 0.130922 0.242435
0.282292 0.136599 0.265568
0.576318 0.119905 0.375006
0.882017 0.162356 0.380621
0.130526 0.167056 0.284245
0.185061 0.166476 0.284062
0.314611 0.184390 0.297734
0.602502 0.197391 0.378912
0.880156 0.330297 0.415930
0.137850 0.395453 0.381445
0.219425 0.393256 0.382452
0.402594 0.384710 0.388556
0.672511 0.448951 0.422644
0.887877 0.565942 0.523339
0.362036 0.716793 0.494942
0.414771 0.705409 0.501823
0.555200 0.686976 0.547967
0.710445 0.701717 0.578607
0.888762 0.762600 0.679286
0.661311 0.880552 0.712520
0.682887 0.878264 0.724147
0.737819 0.869718 0.752346
0.779049 0.858793 0.755612
0.864744 0.866789 0.786770
0.145144 0.104067 0.572961
0.230716 0.096742 0.573480
0.396643 0.108125 0.567773
0.576623 0.188296 0.576745
0.814786 0.420142 0.681605
0.063722 0.182223 0.606592
0.214298 0.184268 0.602533
0.406958 0.205966 0.588220
0.585077 0.267948 0.586542
0.813107 0.460151 0.683833
0.141085 0.450507 0.681422
0.262913 0.446754 0.679591
0.456214 0.441840 0.649073
0.611719 0.453010 0.617945
0.837369 0.554803 0.692012
0.368139 0.750515 0.739773
0.420630 0.742947 0.734920
0.549432 0.727443 0.727749
0.687892 0.691615 0.705379
0.862242 0.740200 0.738460
0.677394 0.886046 0.785458
0.694881 0.883818 0.790311
0.743038 0.878141 0.804349
0.796414 0.865965 0.816953
0.858976 0.864561 0.823453
0.170901 0.120333 0.859525
0.267094 0.131533 0.856870
0.455116 0.191287 0.848844
0.637293 0.289433 0.828824
0.802182 0.408331 0.823148
0.159121 0.226047 0.861387
0.266117 0.236637 0.858610
0.460700 0.282689 0.849790
0.638392 0.348333 0.827329
0.800381 0.445045 0.821561
0.288182 0.474495 0.872892
0.345861 0.474617 0.868833
0.502617 0.492927 0.857328
0.655390 0.509148 0.835019
0.806424 0.566491 0.828397
0.515038 0.735653 0.880217
0.541222 0.734279 0.878447
0.627008 0.735286 0.875425
0.722164 0.728847 0.860838
0.826688 0.743801 0.849790
0.692531 0.890074 0.886473
0.704250 0.888548 0.885893
0.746578 0.885008 0.885710
0.798978 0.877989 0.883574
0.845457 0.856199 0.868559
