其他预设/【234】港风调色预设/1.3D LUT预设（视频调色-PR-AE-PS-FCPX-达芬奇用）/26.港风色调-适合街道 __.cube
# Created by Adobe Lightroom plugin Export LUT (1.17.0)
# www.johnrellis.com/lightroom/exportlut.htm
# Preset: 26.港风色调-适合街道 [素锦印象]
# Color profile: /Library/Application Support/Adobe/Color/Profiles/Recommended/AdobeRGB1998.icc
LUT_3D_SIZE 8
DOMAIN_MIN 0.000000 0.000000 0.000000
DOMAIN_MAX 0.903226 0.903226 0.903226
0.159945 0.157992 0.172030
0.161105 0.157961 0.172274
0.170504 0.157961 0.172915
0.207950 0.158633 0.173678
0.298466 0.159426 0.176272
0.432929 0.162234 0.182498
0.648371 0.170993 0.198672
0.922728 0.209110 0.244938
0.160464 0.159274 0.172702
0.161532 0.159670 0.172885
0.172152 0.161105 0.173281
0.210849 0.164309 0.174533
0.300999 0.169680 0.177340
0.431098 0.177890 0.184176
0.641444 0.196628 0.201114
0.919219 0.241184 0.248051
0.163119 0.172122 0.175021
0.165896 0.173465 0.175448
0.179202 0.177279 0.177646
0.227970 0.191653 0.179660
0.322911 0.210147 0.183841
0.455390 0.233768 0.194553
0.684382 0.280430 0.218753
0.935851 0.341955 0.276280
0.175265 0.230289 0.185031
0.181338 0.232059 0.185397
0.203830 0.239658 0.187289
0.257176 0.255894 0.197635
0.354986 0.289860 0.208530
0.502007 0.332555 0.225467
0.732540 0.403082 0.253452
0.945953 0.467872 0.322118
0.211978 0.349462 0.217258
0.220615 0.350835 0.218082
0.251133 0.356847 0.221469
0.306950 0.369512 0.231632
0.384039 0.384222 0.253819
0.511254 0.432837 0.274815
0.764401 0.542138 0.307225
0.953429 0.607416 0.398505
0.283268 0.524712 0.285313
0.295903 0.532280 0.288304
0.330694 0.537896 0.291173
0.388647 0.549584 0.296788
0.477302 0.567132 0.314214
0.590967 0.595850 0.345373
0.784207 0.685512 0.389776
0.946899 0.748287 0.511070
0.403479 0.813382 0.401038
0.416510 0.815366 0.403204
0.455390 0.816037 0.405676
0.520134 0.819669 0.412177
0.600793 0.823545 0.421393
0.716487 0.832517 0.464332
0.829526 0.841794 0.528405
0.926940 0.862699 0.662593
0.656245 0.936950 0.684627
0.661494 0.936675 0.685817
0.681666 0.935851 0.692592
0.718044 0.934752 0.707942
0.752529 0.931762 0.711879
0.812558 0.929747 0.749142
0.876280 0.927489 0.805539
0.919524 0.927306 0.849638
0.159915 0.158114 0.172915
0.161013 0.158083 0.173281
0.171023 0.158083 0.174899
0.210575 0.157534 0.177981
0.300053 0.155856 0.182467
0.426978 0.156191 0.191592
0.632410 0.160464 0.211154
0.912993 0.188693 0.256535
0.160281 0.159243 0.173587
0.161868 0.159854 0.174258
0.173434 0.161379 0.175967
0.214359 0.163790 0.179232
0.304051 0.166720 0.184115
0.428992 0.173312 0.193637
0.629633 0.186954 0.213779
0.909178 0.224063 0.258671
0.163180 0.172427 0.177462
0.167208 0.174319 0.179294
0.180240 0.178408 0.181857
0.230564 0.191897 0.185458
0.322271 0.208133 0.191836
0.448920 0.229099 0.205020
0.661372 0.267857 0.229953
0.924804 0.327276 0.283787
0.173983 0.230320 0.189517
0.182010 0.233036 0.192416
0.204776 0.240787 0.194766
0.254124 0.252689 0.204715
0.346715 0.282872 0.215671
0.484749 0.321111 0.233860
0.705837 0.386297 0.262181
0.936492 0.456184 0.326726
0.213779 0.350072 0.229038
0.222202 0.350713 0.229618
0.251560 0.355627 0.232547
0.303471 0.365087 0.240452
0.377844 0.377813 0.260990
0.504387 0.426368 0.282048
0.755123 0.533013 0.316258
0.948913 0.600793 0.404089
0.282597 0.520531 0.296422
0.292638 0.522515 0.297459
0.326513 0.528344 0.300298
0.383978 0.541466 0.306004
0.472328 0.561334 0.323064
0.588128 0.592889 0.354833
0.782284 0.682734 0.398688
0.944762 0.745174 0.517510
0.397070 0.804990 0.408179
0.408118 0.804074 0.407843
0.448096 0.806485 0.411048
0.514733 0.813260 0.419562
0.597498 0.819730 0.430213
0.712428 0.828580 0.470314
0.825010 0.837186 0.530510
0.924681 0.859159 0.660273
0.656153 0.935302 0.689052
0.662776 0.935149 0.691707
0.683345 0.934478 0.698909
0.719661 0.933562 0.714076
0.763180 0.932006 0.731533
0.816709 0.929717 0.760494
0.876524 0.927062 0.809262
0.919005 0.926726 0.850217
0.160098 0.158358 0.178103
0.161593 0.158358 0.178897
0.171054 0.158785 0.183902
0.213962 0.157107 0.197787
0.308812 0.146212 0.212924
0.442786 0.126986 0.226719
0.654932 0.093446 0.256596
0.923369 0.091493 0.306767
0.160708 0.160525 0.181308
0.162966 0.161135 0.182742
0.173892 0.162325 0.187076
0.219425 0.161715 0.199893
0.314305 0.154879 0.212436
0.444312 0.151034 0.229099
0.654292 0.143099 0.259190
0.922637 0.161898 0.310338
0.163943 0.175662 0.189853
0.167697 0.177249 0.192020
0.184085 0.181949 0.198276
0.239017 0.190127 0.207797
0.334173 0.203006 0.223209
0.462989 0.221164 0.244724
0.678859 0.246525 0.276188
0.930053 0.295109 0.331609
0.174594 0.235630 0.211276
0.181827 0.239384 0.214237
0.211521 0.249485 0.225467
0.262943 0.261173 0.236393
0.361975 0.290379 0.254612
0.497475 0.323217 0.277836
0.725185 0.380194 0.310033
0.941863 0.443641 0.376654
0.207736 0.355962 0.254551
0.218753 0.358892 0.257816
0.261265 0.365789 0.274815
0.311223 0.376074 0.280430
0.389227 0.388952 0.300877
0.523583 0.438849 0.323308
0.774929 0.536400 0.363806
0.949920 0.597345 0.451698
0.266789 0.531395 0.319646
0.283970 0.534051 0.327276
0.333318 0.540063 0.345373
0.390204 0.550530 0.349157
0.475227 0.567864 0.361669
0.592493 0.597070 0.392432
0.792203 0.687678 0.438300
0.944518 0.749599 0.570825
0.386297 0.816403 0.444739
0.406317 0.816068 0.453712
0.453895 0.816037 0.463569
0.519036 0.819333 0.468452
0.601434 0.823789 0.476417
0.715328 0.831785 0.515038
0.829709 0.841428 0.580255
0.924590 0.864530 0.709346
0.681270 0.933501 0.728786
0.690333 0.932494 0.734066
0.706844 0.931792 0.738247
0.741421 0.931395 0.753109
0.778927 0.930144 0.765713
0.824857 0.928862 0.786618
0.880400 0.926909 0.827787
0.920195 0.927214 0.863127
0.160311 0.158877 0.199832
0.163210 0.158999 0.202823
0.176638 0.159854 0.210727
0.213748 0.158877 0.229740
0.310185 0.148959 0.269932
0.443214 0.133181 0.305974
0.658076 0.000000 0.354040
0.923522 0.000000 0.392462
0.161105 0.163027 0.210361
0.164797 0.163333 0.212345
0.180179 0.164248 0.219150
0.220127 0.163821 0.236820
0.317327 0.158785 0.274388
0.448066 0.150454 0.307836
0.662348 0.062135 0.351598
0.925170 0.000000 0.386603
0.163027 0.185550 0.231571
0.168429 0.186587 0.235630
0.190616 0.188937 0.243870
0.239750 0.192325 0.258152
0.338964 0.201968 0.289250
0.474525 0.208438 0.319615
0.704067 0.168032 0.351049
0.937774 0.193057 0.401648
0.172580 0.251011 0.266667
0.181704 0.253544 0.269810
0.214908 0.261082 0.280217
0.272648 0.270298 0.294835
0.370245 0.288182 0.315190
0.505699 0.310857 0.341436
0.737789 0.342412 0.378180
0.945068 0.404120 0.445533
0.220523 0.367376 0.315160
0.231266 0.369116 0.318273
0.266850 0.377111 0.329900
0.328038 0.390204 0.351720
0.403296 0.402747 0.365179
0.554162 0.453956 0.394995
0.792844 0.527489 0.438331
0.950134 0.587396 0.524407
0.279820 0.551690 0.395911
0.293065 0.559472 0.401526
0.331487 0.566735 0.408728
0.406867 0.578668 0.430121
0.488045 0.592981 0.433417
0.612421 0.617121 0.462196
0.815152 0.699825 0.511894
0.942321 0.758694 0.654658
0.383581 0.828367 0.517388
0.398108 0.830014 0.520256
0.446296 0.833829 0.530663
0.543572 0.834775 0.567895
0.622950 0.837217 0.573754
0.726131 0.840452 0.599573
0.835599 0.846250 0.657160
0.923278 0.869535 0.766323
0.700465 0.934478 0.766842
0.709468 0.933867 0.771908
0.739742 0.931212 0.789578
0.775540 0.928679 0.807187
0.804349 0.928038 0.814176
0.838987 0.927764 0.824796
0.885527 0.926787 0.852323
0.921721 0.927733 0.879728
0.159945 0.160159 0.269261
0.165927 0.160128 0.272862
0.188388 0.160342 0.282719
0.229984 0.159670 0.295964
0.307317 0.155367 0.331060
0.445014 0.143648 0.393256
0.672297 0.000000 0.483253
0.923827 0.000000 0.554070
0.159182 0.166171 0.284306
0.166232 0.166415 0.287297
0.191318 0.166690 0.294835
0.235172 0.166903 0.305180
0.313542 0.165835 0.337713
0.451942 0.161135 0.398932
0.680140 0.073884 0.486336
0.926116 0.000000 0.552422
0.157168 0.197879 0.319005
0.166171 0.198459 0.322484
0.200809 0.200809 0.327367
0.253025 0.203494 0.334264
0.333043 0.208682 0.359350
0.472450 0.216922 0.415229
0.702358 0.177768 0.491951
0.931762 0.148318 0.544701
0.177279 0.276493 0.359197
0.189670 0.278264 0.362554
0.231296 0.284428 0.374212
0.289769 0.288731 0.383124
0.367895 0.292271 0.398230
0.512047 0.307439 0.444465
0.746395 0.293034 0.497688
0.944091 0.318364 0.535454
0.215335 0.390234 0.411414
0.228336 0.392493 0.414466
0.269718 0.398627 0.423285
0.334417 0.407050 0.436591
0.413275 0.411994 0.448920
0.566064 0.437049 0.476814
0.795041 0.475013 0.518364
0.946105 0.555779 0.602319
0.295628 0.564019 0.484260
0.307378 0.566949 0.487800
0.345220 0.574456 0.497292
0.406836 0.589227 0.513329
0.494148 0.604089 0.529564
0.623743 0.627771 0.551751
0.831449 0.704799 0.622583
0.936736 0.763821 0.733486
0.416205 0.838071 0.626062
0.429908 0.838315 0.628534
0.477699 0.839933 0.638636
0.555291 0.842832 0.658564
0.654597 0.842313 0.690333
0.734493 0.844022 0.693782
0.839719 0.848417 0.737728
0.922332 0.873014 0.817227
0.729976 0.931975 0.813596
0.736599 0.931426 0.816434
0.758419 0.929870 0.826047
0.794430 0.928557 0.843503
0.829526 0.926238 0.858549
0.855192 0.926482 0.862791
0.889586 0.926421 0.875273
0.922698 0.927703 0.894987
0.157534 0.162600 0.397955
0.168887 0.162509 0.400580
0.204959 0.162570 0.407446
0.261479 0.162600 0.418280
0.331823 0.162905 0.430610
0.446052 0.158114 0.481422
0.680446 0.044953 0.610163
0.924437 0.000000 0.702724
0.155825 0.172610 0.409796
0.168093 0.172610 0.411536
0.206546 0.173068 0.417578
0.264988 0.174289 0.426276
0.335241 0.175662 0.435706
0.450385 0.174350 0.486213
0.685908 0.101289 0.613977
0.925322 0.034516 0.702205
0.153719 0.218692 0.453559
0.169741 0.218967 0.454200
0.217075 0.220523 0.457069
0.282994 0.222812 0.462196
0.356725 0.224094 0.465888
0.472786 0.228367 0.510613
0.714626 0.193149 0.634607
0.931151 0.222019 0.703365
0.182254 0.317449 0.512932
0.197269 0.317235 0.513817
0.242893 0.316869 0.518730
0.316411 0.318273 0.524712
0.398474 0.315526 0.524926
0.518395 0.318822 0.559747
0.763790 0.314549 0.667842
0.939391 0.376684 0.708553
0.219821 0.451301 0.570489
0.235538 0.453193 0.574029
0.286076 0.458289 0.585626
0.363745 0.463416 0.604150
0.447364 0.448432 0.602380
0.571038 0.440742 0.615869
0.803006 0.469520 0.688502
0.938354 0.557794 0.728420
0.268437 0.628656 0.651270
0.284672 0.632807 0.656001
0.335485 0.640009 0.664942
0.414038 0.649317 0.677760
0.520592 0.655055 0.690059
0.652125 0.653864 0.699794
0.835142 0.699947 0.744381
0.928985 0.764340 0.804318
0.475288 0.851286 0.748531
0.493904 0.852750 0.752163
0.549584 0.854582 0.761776
0.625788 0.856016 0.778775
0.704707 0.856046 0.798093
0.779751 0.853330 0.816251
0.850523 0.855955 0.826474
0.923308 0.882139 0.873106
0.774411 0.930419 0.865171
0.779416 0.930083 0.866850
0.795895 0.929046 0.872496
0.821408 0.928191 0.881743
0.848356 0.927489 0.891112
0.875181 0.926482 0.899931
0.895537 0.927001 0.900816
0.924743 0.928466 0.913054
0.153689 0.169039 0.615656
0.175998 0.169070 0.623377
0.237766 0.168612 0.628046
0.320409 0.166964 0.635523
0.411505 0.163241 0.640650
0.517632 0.150973 0.659113
0.683406 0.088502 0.727718
0.908385 0.082063 0.819547
0.149142 0.184237 0.611841
0.171542 0.184604 0.618067
0.233646 0.184268 0.623041
0.315373 0.182956 0.628138
0.403723 0.179599 0.629938
0.503288 0.169863 0.641749
0.662837 0.126131 0.707485
0.896666 0.074403 0.808286
0.126528 0.245853 0.674861
0.158053 0.245731 0.675135
0.235843 0.244175 0.673060
0.328740 0.242008 0.673518
0.422614 0.235996 0.667475
0.524285 0.225742 0.671168
0.696925 0.203311 0.741024
0.912596 0.245212 0.821317
0.086397 0.366003 0.756374
0.125307 0.360632 0.753658
0.224521 0.351141 0.748257
0.344427 0.347875 0.748226
0.457374 0.337591 0.739956
0.567864 0.322301 0.731167
0.748562 0.322026 0.790738
0.924559 0.408148 0.833494
0.198917 0.532647 0.805234
0.220279 0.528862 0.803677
0.286320 0.520562 0.805447
0.366033 0.501274 0.804623
0.476204 0.476997 0.794980
0.598657 0.452766 0.780362
0.770993 0.460121 0.812009
0.924193 0.588861 0.845975
0.313024 0.710109 0.843656
0.332494 0.710414 0.844846
0.396094 0.711666 0.848295
0.497688 0.715908 0.855070
0.616785 0.720821 0.860533
0.710872 0.711330 0.855375
0.822629 0.705776 0.858732
0.920836 0.777951 0.878080
0.519432 0.874479 0.879728
0.539818 0.875395 0.881407
0.589654 0.874784 0.883299
0.663600 0.874052 0.886778
0.737148 0.870542 0.888426
0.805509 0.867063 0.890318
0.859709 0.861570 0.890135
0.921843 0.880644 0.905913
0.792203 0.927947 0.900420
0.797574 0.927764 0.901518
0.822324 0.928527 0.908232
0.847715 0.928740 0.914336
0.871916 0.929076 0.920531
0.891234 0.929320 0.925536
0.908202 0.928801 0.928679
0.927092 0.929534 0.930663
0.186770 0.190585 0.868315
0.215824 0.190829 0.870420
0.289921 0.187686 0.868437
0.389105 0.183810 0.870939
0.495979 0.174289 0.871427
0.604700 0.153506 0.869047
0.732326 0.130251 0.883177
0.878080 0.137118 0.907286
0.176761 0.209476 0.867277
0.207279 0.209934 0.869444
0.284611 0.206912 0.868406
0.384161 0.202029 0.869017
0.491829 0.192905 0.869352
0.600824 0.173220 0.866423
0.726528 0.149630 0.878416
0.873716 0.151522 0.903563
0.145724 0.273655 0.880522
0.183444 0.273564 0.881071
0.269505 0.268925 0.877501
0.381689 0.269780 0.883177
0.492561 0.260960 0.880613
0.602319 0.242344 0.874083
0.727626 0.226322 0.881712
0.877134 0.241367 0.906432
0.098878 0.379400 0.902831
0.157107 0.380591 0.903655
0.260044 0.376776 0.901457
0.378943 0.375280 0.901183
0.497475 0.369085 0.899016
0.613062 0.353246 0.893492
0.736873 0.338293 0.894072
0.887633 0.372534 0.915129
0.289403 0.551659 0.921019
0.307530 0.551659 0.921691
0.345129 0.541131 0.920012
0.408240 0.521355 0.917540
0.515801 0.511711 0.913573
0.627039 0.495491 0.907958
0.744228 0.474708 0.902434
0.896208 0.553735 0.921904
0.479316 0.726528 0.928466
0.487800 0.725399 0.927916
0.523217 0.724361 0.926970
0.589532 0.727779 0.926696
0.658534 0.728908 0.925048
0.729549 0.727626 0.922759
0.808072 0.724056 0.921111
0.907958 0.773526 0.930663
0.686091 0.866453 0.933989
0.691829 0.866331 0.933806
0.713344 0.866667 0.933440
0.753933 0.869841 0.933837
0.802029 0.874754 0.934722
0.849912 0.881773 0.936370
0.881193 0.881651 0.935943
0.915068 0.876310 0.935668
0.829099 0.934081 0.942504
0.831113 0.933837 0.942443
0.840452 0.933288 0.942657
0.857542 0.932921 0.943511
0.877256 0.932586 0.944549
0.896727 0.932311 0.945678
0.914458 0.932036 0.946685
0.928008 0.929107 0.945556
