其他预设/【234】港风调色预设/1.3D LUT预设（视频调色-PR-AE-PS-FCPX-达芬奇用）/26.港风色调-适合街道 __.cube
# Created by Adobe Lightroom plugin Export LUT (1.17.0)
# www.johnrellis.com/lightroom/exportlut.htm
# Preset: 26.港风色调-适合街道 [素锦印象]
# Color profile: /Library/Application Support/Adobe/Color/Profiles/Recommended/AdobeRGB1998.icc
LUT_3D_SIZE 32
0.159945 0.157992 0.172030
0.159945 0.157992 0.172030
0.159945 0.157992 0.172030
0.160281 0.157931 0.172152
0.161105 0.157961 0.172274
0.162081 0.157931 0.172366
0.163882 0.157931 0.172457
0.166598 0.157900 0.172641
0.170504 0.157961 0.172915
0.175845 0.158022 0.173037
0.183291 0.158267 0.173190
0.193759 0.158572 0.173373
0.207950 0.158633 0.173678
0.225925 0.158694 0.174044
0.247349 0.159152 0.174716
0.271824 0.159274 0.175418
0.298466 0.159426 0.176272
0.326848 0.159731 0.177218
0.356878 0.160250 0.178408
0.392859 0.160922 0.180301
0.432929 0.162234 0.182498
0.477241 0.163607 0.185306
0.525658 0.165652 0.189181
0.581689 0.168276 0.193698
0.648371 0.170993 0.198672
0.722957 0.175051 0.204929
0.798459 0.181369 0.213779
0.866911 0.192203 0.226505
0.922728 0.209110 0.244938
0.964935 0.232761 0.269627
0.996002 0.263401 0.300572
1.000000 0.301274 0.340124
0.159945 0.157992 0.172030
0.159945 0.157992 0.172030
0.159945 0.157992 0.172030
0.160281 0.157931 0.172152
0.161105 0.157961 0.172274
0.162234 0.158053 0.172366
0.164004 0.158053 0.172580
0.166690 0.158175 0.172732
0.170626 0.158236 0.172885
0.175937 0.158480 0.172976
0.183383 0.158724 0.173159
0.193851 0.158846 0.173342
0.207889 0.159091 0.173770
0.225742 0.159335 0.174258
0.247166 0.159792 0.174777
0.271397 0.160006 0.175509
0.297826 0.160403 0.176333
0.326116 0.160891 0.177310
0.355810 0.161593 0.178592
0.391302 0.162264 0.180301
0.430762 0.163546 0.182589
0.474403 0.165164 0.185428
0.522240 0.167300 0.189120
0.577417 0.170260 0.193515
0.643488 0.173983 0.198459
0.717678 0.178042 0.204715
0.793790 0.183963 0.213321
0.863279 0.195254 0.225772
0.919982 0.211673 0.244175
0.963073 0.234592 0.268528
0.994720 0.264500 0.299382
1.000000 0.301793 0.338445
0.159945 0.157992 0.172030
0.159945 0.157992 0.172030
0.159945 0.157992 0.172030
0.160403 0.158083 0.172274
0.161196 0.158236 0.172366
0.162325 0.158358 0.172457
0.164096 0.158328 0.172671
0.166995 0.158450 0.172732
0.170687 0.158694 0.172976
0.176181 0.158877 0.173068
0.183566 0.159274 0.173220
0.194003 0.159579 0.173526
0.208164 0.159915 0.173800
0.226078 0.160281 0.174289
0.247349 0.160800 0.174960
0.271427 0.161318 0.175662
0.298039 0.161807 0.176486
0.326085 0.162387 0.177432
0.355871 0.163180 0.178836
0.391058 0.164279 0.180545
0.430152 0.165866 0.182681
0.473548 0.167788 0.185550
0.521019 0.170199 0.189364
0.575830 0.173709 0.193668
0.641566 0.177462 0.198734
0.715541 0.181552 0.205051
0.791806 0.188571 0.213535
0.861631 0.199527 0.225956
0.918791 0.216220 0.244022
0.962188 0.238468 0.268528
0.994049 0.267399 0.299443
1.000000 0.304234 0.338415
0.160006 0.158450 0.172244
0.160159 0.158419 0.172396
0.160159 0.158419 0.172396
0.160616 0.158633 0.172488
0.161410 0.158816 0.172580
0.162539 0.158907 0.172671
0.164462 0.159030 0.172732
0.167300 0.159274 0.172885
0.171359 0.159457 0.173037
0.176730 0.159976 0.173220
0.184390 0.160464 0.173373
0.195041 0.160830 0.173648
0.209171 0.161624 0.174044
0.227146 0.162387 0.174594
0.248417 0.163149 0.175235
0.272587 0.164034 0.176028
0.298894 0.164858 0.176822
0.326879 0.165866 0.177859
0.356725 0.167147 0.179110
0.391119 0.168521 0.181033
0.429480 0.170871 0.183200
0.472206 0.173098 0.186069
0.519554 0.176394 0.189731
0.574334 0.179995 0.194430
0.640558 0.185031 0.199557
0.715572 0.190768 0.205905
0.792416 0.198489 0.214603
0.862364 0.209903 0.227573
0.919280 0.226871 0.245670
0.962341 0.248234 0.270176
0.993866 0.276127 0.301122
1.000000 0.311528 0.339940
0.160464 0.159274 0.172702
0.160464 0.159274 0.172702
0.160647 0.159243 0.172702
0.160922 0.159487 0.172793
0.161532 0.159670 0.172885
0.162814 0.159915 0.172976
0.165042 0.160281 0.173007
0.168032 0.160647 0.173037
0.172152 0.161105 0.173281
0.177798 0.161715 0.173465
0.185641 0.162295 0.173709
0.196506 0.163333 0.174044
0.210849 0.164309 0.174533
0.229068 0.165530 0.175051
0.250370 0.166934 0.175753
0.274510 0.168307 0.176455
0.300999 0.169680 0.177340
0.328893 0.171298 0.178439
0.359228 0.173068 0.179965
0.393225 0.175418 0.181704
0.431098 0.177890 0.184176
0.473548 0.181247 0.187167
0.520531 0.185367 0.191073
0.575219 0.190463 0.195621
0.641444 0.196628 0.201114
0.716335 0.203525 0.207675
0.793027 0.213199 0.216464
0.862608 0.225132 0.229435
0.919219 0.241184 0.248051
0.962036 0.262364 0.272526
0.993439 0.288884 0.303685
1.000000 0.322911 0.342565
0.160708 0.160555 0.172976
0.160891 0.160525 0.172976
0.161044 0.160647 0.172946
0.161318 0.160891 0.173037
0.162264 0.161196 0.173129
0.163485 0.161563 0.173312
0.165591 0.162234 0.173587
0.168887 0.162844 0.173587
0.173465 0.163363 0.173556
0.179446 0.164340 0.173831
0.187839 0.165347 0.174166
0.199008 0.166690 0.174594
0.213687 0.168246 0.175113
0.232059 0.170321 0.175814
0.253666 0.172183 0.176547
0.277836 0.174350 0.177188
0.304326 0.176516 0.178225
0.332067 0.178897 0.179355
0.363043 0.181247 0.181094
0.396979 0.184329 0.183108
0.434882 0.188083 0.185519
0.477455 0.192386 0.188815
0.549859 0.202426 0.195895
0.610620 0.209598 0.201297
0.680385 0.217960 0.207370
0.754849 0.227909 0.214939
0.825925 0.239231 0.225437
0.887602 0.252537 0.240574
0.936309 0.269596 0.260899
0.973236 0.290379 0.286961
1.000000 0.316258 0.319646
1.000000 0.349493 0.360143
0.161227 0.163119 0.173404
0.161379 0.163241 0.173373
0.161532 0.163363 0.173373
0.162142 0.163546 0.173465
0.163210 0.164096 0.173526
0.164767 0.164431 0.173709
0.166873 0.164920 0.174105
0.169986 0.165835 0.174472
0.175051 0.166964 0.174502
0.182040 0.168399 0.174838
0.191714 0.170077 0.175174
0.203922 0.172091 0.175753
0.219577 0.174655 0.176272
0.238621 0.177127 0.176852
0.260441 0.179873 0.177615
0.284672 0.182773 0.178500
0.310887 0.185641 0.179660
0.339635 0.188937 0.180972
0.371160 0.192477 0.182864
0.406165 0.196719 0.185275
0.446021 0.202029 0.188235
0.491676 0.208194 0.192355
0.542779 0.215854 0.197421
0.605066 0.224949 0.203311
0.677180 0.235996 0.209812
0.753567 0.247593 0.217899
0.825345 0.260441 0.228916
0.887053 0.274662 0.244205
0.935668 0.290898 0.264744
0.972259 0.310399 0.290990
0.999207 0.334783 0.323613
1.000000 0.366278 0.364508
0.161868 0.166751 0.173983
0.162203 0.166842 0.173953
0.162509 0.166934 0.173953
0.163119 0.167269 0.174044
0.164309 0.167788 0.174197
0.165927 0.168338 0.174502
0.168460 0.169039 0.174868
0.171817 0.169863 0.175601
0.176089 0.171084 0.176272
0.183505 0.173342 0.176364
0.193606 0.175967 0.176730
0.207340 0.178897 0.177066
0.224186 0.182162 0.177584
0.243320 0.185672 0.178164
0.265385 0.189090 0.179049
0.289525 0.192752 0.180087
0.315831 0.196597 0.181338
0.344823 0.200809 0.182956
0.375708 0.205264 0.184970
0.410285 0.210361 0.187686
0.449714 0.216617 0.191012
0.494789 0.224094 0.195346
0.545586 0.233005 0.200778
0.607568 0.244114 0.206760
0.679255 0.256809 0.213596
0.754788 0.270573 0.221988
0.825925 0.284520 0.233219
0.887144 0.299107 0.248783
0.935241 0.315221 0.269596
0.971557 0.333440 0.296269
0.998291 0.356512 0.329534
1.000000 0.386023 0.371008
0.163119 0.172122 0.175021
0.163394 0.172213 0.175113
0.163851 0.172427 0.175113
0.164614 0.172702 0.175174
0.165896 0.173465 0.175448
0.167788 0.174228 0.175723
0.170718 0.175082 0.176211
0.174472 0.176089 0.176761
0.179202 0.177279 0.177646
0.185489 0.179477 0.178531
0.195895 0.182925 0.178775
0.210117 0.187106 0.179080
0.227970 0.191653 0.179660
0.249180 0.196323 0.180270
0.271550 0.200778 0.181125
0.296056 0.205417 0.182315
0.322911 0.210147 0.183841
0.351202 0.215122 0.185580
0.381689 0.220249 0.187991
0.416144 0.226352 0.190829
0.455390 0.233768 0.194553
0.500023 0.242527 0.199344
0.551019 0.252873 0.205264
0.613001 0.265782 0.211429
0.684382 0.280430 0.218753
0.759121 0.295903 0.227268
0.829068 0.311131 0.239109
0.888853 0.326421 0.255009
0.935851 0.341955 0.276280
0.971435 0.359258 0.303410
0.997589 0.380865 0.337041
1.000000 0.408637 0.379339
0.165194 0.180026 0.176669
0.165286 0.180270 0.176761
0.165927 0.180453 0.176730
0.166781 0.180819 0.176944
0.168368 0.181613 0.177066
0.170535 0.182559 0.177310
0.173526 0.183749 0.177615
0.177981 0.185061 0.178378
0.183566 0.186526 0.179171
0.190341 0.188479 0.180392
0.199130 0.191440 0.181674
0.213046 0.196597 0.181979
0.231205 0.202487 0.182376
0.252567 0.208499 0.183169
0.277348 0.214603 0.184146
0.304326 0.220706 0.185367
0.330877 0.226413 0.187137
0.359228 0.231968 0.189242
0.389746 0.237949 0.192111
0.424018 0.245029 0.195346
0.462898 0.253452 0.199496
0.506737 0.263310 0.204746
0.557214 0.274846 0.210636
0.618677 0.289189 0.216983
0.688777 0.305455 0.224430
0.762387 0.322606 0.233280
0.831418 0.339147 0.245426
0.890318 0.354986 0.261814
0.936614 0.370123 0.284031
0.971557 0.387091 0.311833
0.997162 0.407568 0.346960
1.000000 0.434516 0.390356
0.167453 0.191440 0.178683
0.167880 0.191623 0.178775
0.168460 0.191897 0.178744
0.169589 0.192447 0.178897
0.171450 0.193271 0.179141
0.174105 0.194430 0.179355
0.177676 0.196017 0.179721
0.182376 0.197879 0.180270
0.189090 0.199710 0.181216
0.196872 0.201877 0.182467
0.206210 0.204471 0.183963
0.217655 0.208225 0.185702
0.234867 0.214878 0.186465
0.257145 0.222690 0.186954
0.281865 0.230167 0.188266
0.308690 0.237400 0.189944
0.337560 0.244175 0.191714
0.366979 0.250828 0.194247
0.397284 0.257633 0.197147
0.431495 0.265476 0.200931
0.470375 0.274998 0.205509
0.514122 0.285924 0.211124
0.565545 0.299138 0.217380
0.627436 0.315282 0.224094
0.697414 0.333532 0.231907
0.769589 0.351934 0.241123
0.836484 0.369451 0.253758
0.893309 0.385016 0.270817
0.937835 0.400275 0.293309
0.971649 0.416083 0.321996
0.996460 0.435523 0.357885
1.000000 0.461097 0.402564
0.170687 0.207492 0.181338
0.171115 0.207767 0.181277
0.171969 0.208103 0.181369
0.173190 0.208682 0.181521
0.175570 0.209689 0.181704
0.178805 0.211063 0.182071
0.183078 0.212833 0.182406
0.188418 0.214817 0.182895
0.195682 0.217197 0.183841
0.204715 0.219547 0.185214
0.215274 0.222446 0.187045
0.227390 0.226017 0.189151
0.247196 0.235264 0.193118
0.268711 0.243931 0.194827
0.295109 0.253330 0.195560
0.322606 0.261936 0.197879
0.352331 0.270268 0.200687
0.383917 0.278477 0.203677
0.418677 0.287083 0.206851
0.454383 0.296330 0.211215
0.494026 0.306889 0.216312
0.538659 0.319005 0.222446
0.592676 0.334447 0.228672
0.655787 0.352514 0.235721
0.724849 0.371832 0.243839
0.793088 0.390814 0.254246
0.854704 0.407568 0.268040
0.905516 0.422492 0.286320
0.945373 0.436286 0.310094
0.975769 0.451209 0.340246
0.998016 0.469612 0.377600
1.000000 0.494240 0.423987
0.175265 0.230289 0.185031
0.175967 0.230503 0.185092
0.176822 0.230686 0.185061
0.178622 0.231144 0.185214
0.181338 0.232059 0.185397
0.185031 0.233310 0.185733
0.190066 0.234958 0.186130
0.196170 0.237064 0.186648
0.203830 0.239658 0.187289
0.214542 0.242954 0.189120
0.227115 0.246830 0.191440
0.241367 0.251194 0.194247
0.257176 0.255894 0.197635
0.274022 0.260685 0.201694
0.297337 0.270146 0.204593
0.325444 0.280369 0.205875
0.354986 0.289860 0.208530
0.386236 0.299168 0.211948
0.420508 0.308965 0.215763
0.459358 0.320104 0.220401
0.502007 0.332555 0.225467
0.547234 0.345953 0.231601
0.601740 0.362829 0.238010
0.664576 0.382361 0.245304
0.732540 0.403082 0.253452
0.798917 0.422705 0.264164
0.858488 0.439887 0.278416
0.907469 0.454475 0.297612
0.945953 0.467872 0.322118
0.975280 0.482094 0.353338
0.996735 0.499702 0.392004
1.000000 0.523339 0.440040
0.181277 0.254978 0.189700
0.181918 0.255253 0.189761
0.182895 0.255406 0.189700
0.184726 0.255955 0.189944
0.187900 0.256718 0.190097
0.192447 0.258122 0.190616
0.198184 0.259953 0.191135
0.205173 0.262425 0.191989
0.213657 0.265141 0.192752
0.224002 0.268528 0.194247
0.237705 0.272129 0.196841
0.252781 0.276310 0.200015
0.269047 0.280766 0.203830
0.286290 0.285222 0.208255
0.304234 0.289769 0.213169
0.327550 0.298497 0.217014
0.357061 0.309300 0.218570
0.388617 0.319982 0.221347
0.422583 0.330938 0.225620
0.461067 0.343389 0.230655
0.504295 0.357458 0.236210
0.554864 0.374121 0.242466
0.612726 0.393591 0.248966
0.675776 0.414832 0.256229
0.742611 0.436622 0.264866
0.807034 0.456825 0.275731
0.863890 0.473945 0.290990
0.910613 0.488167 0.310979
0.947265 0.500938 0.336736
0.975219 0.514580 0.369238
0.995605 0.531395 0.409522
1.000000 0.554253 0.458900
0.189090 0.284459 0.196384
0.189975 0.284672 0.196567
0.191012 0.284794 0.196628
0.193393 0.285374 0.196811
0.196902 0.286046 0.197086
0.201755 0.287144 0.197452
0.207919 0.288670 0.198154
0.215549 0.290593 0.198978
0.224521 0.293156 0.199985
0.234989 0.296330 0.201358
0.248356 0.299809 0.203708
0.264164 0.303624 0.207401
0.281071 0.307927 0.211643
0.298955 0.312352 0.216373
0.317296 0.316533 0.221561
0.335882 0.320623 0.227146
0.359045 0.328679 0.232059
0.390417 0.340642 0.233768
0.424933 0.353185 0.236240
0.463386 0.367071 0.241855
0.506004 0.382361 0.248112
0.556756 0.400977 0.254520
0.617762 0.423651 0.261204
0.687098 0.448615 0.268315
0.753445 0.471717 0.277348
0.815702 0.492378 0.289189
0.870359 0.509483 0.305364
0.914885 0.523461 0.327214
0.949676 0.535973 0.355108
0.976013 0.549279 0.389685
0.994995 0.565881 0.432685
1.000000 0.588678 0.485023
0.199680 0.316197 0.205814
0.200473 0.316533 0.205966
0.201572 0.316686 0.206027
0.204166 0.317144 0.206394
0.208042 0.317876 0.206607
0.213352 0.318975 0.207218
0.220005 0.320439 0.207950
0.228092 0.322332 0.208865
0.237552 0.324681 0.210086
0.248478 0.327520 0.211521
0.260624 0.330694 0.213077
0.276646 0.334142 0.216617
0.293797 0.337743 0.221012
0.311894 0.341497 0.225772
0.330358 0.345220 0.230961
0.349401 0.349096 0.236698
0.368780 0.352972 0.242802
0.392950 0.361364 0.248417
0.426856 0.375067 0.251194
0.466163 0.390997 0.254398
0.509422 0.408209 0.260685
0.561028 0.429297 0.267826
0.622766 0.454505 0.275120
0.691920 0.482063 0.282536
0.763119 0.508782 0.292332
0.827726 0.530907 0.305333
0.878752 0.547387 0.323247
0.919921 0.560388 0.346715
0.952148 0.572015 0.376349
0.976349 0.584344 0.412818
0.993652 0.599969 0.456916
1.000000 0.623133 0.512963
0.211978 0.349462 0.217258
0.212772 0.349584 0.217441
0.213993 0.349737 0.217563
0.216709 0.350134 0.217624
0.220615 0.350835 0.218082
0.226169 0.351690 0.218692
0.233158 0.352941 0.219333
0.241367 0.354711 0.220371
0.251133 0.356847 0.221469
0.262150 0.359503 0.223056
0.274632 0.362646 0.224704
0.289067 0.365942 0.227207
0.306950 0.369512 0.231632
0.325566 0.373175 0.236637
0.344671 0.376837 0.241947
0.364141 0.380468 0.247807
0.384039 0.384222 0.253819
0.404517 0.388281 0.260227
0.431128 0.398047 0.266697
0.467414 0.413825 0.270848
0.511254 0.432837 0.274815
0.563653 0.456153 0.280797
0.625269 0.483711 0.288396
0.694331 0.513603 0.296818
0.764401 0.542138 0.307225
0.829160 0.565942 0.321630
0.883146 0.583917 0.341466
0.923461 0.596643 0.367102
0.953429 0.607416 0.398505
0.975891 0.619043 0.436927
0.991730 0.634302 0.483742
1.000000 0.658808 0.545525
0.226444 0.385840 0.231205
0.227451 0.386236 0.231205
0.232914 0.396185 0.235355
0.235752 0.396490 0.235660
0.240177 0.396948 0.235904
0.245792 0.397498 0.236301
0.252934 0.398413 0.237003
0.261570 0.399664 0.237766
0.271641 0.401373 0.239017
0.283238 0.403693 0.240330
0.295842 0.406195 0.241825
0.309789 0.409277 0.243809
0.326879 0.412268 0.247227
0.346319 0.415534 0.252110
0.366308 0.418982 0.257542
0.386694 0.422400 0.263249
0.407446 0.425910 0.269230
0.428687 0.429603 0.275669
0.450416 0.433783 0.282567
0.480018 0.444923 0.289525
0.519188 0.462623 0.295018
0.573083 0.488838 0.299138
0.635889 0.518944 0.304631
0.703914 0.550500 0.313756
0.771420 0.579248 0.325353
0.832670 0.602930 0.340642
0.883696 0.620233 0.361791
0.923766 0.632685 0.389105
0.954192 0.643000 0.423285
0.975006 0.653742 0.463386
0.988922 0.669337 0.514519
0.996063 0.694606 0.580865
0.244327 0.429084 0.248264
0.245853 0.430762 0.248783
0.247868 0.432410 0.249699
0.251408 0.434028 0.250462
0.256260 0.435554 0.251072
0.262333 0.436683 0.251926
0.269780 0.437781 0.252598
0.278508 0.439033 0.253422
0.288945 0.440803 0.254673
0.300572 0.442908 0.255802
0.313451 0.445502 0.257389
0.327733 0.448310 0.259190
0.342779 0.451301 0.261051
0.362707 0.454475 0.265599
0.383246 0.457740 0.271000
0.404303 0.461067 0.276707
0.425940 0.464576 0.282780
0.448035 0.468330 0.289128
0.470924 0.472724 0.296117
0.494545 0.477607 0.303532
0.528313 0.491737 0.311040
0.574701 0.514946 0.317937
0.637842 0.547875 0.322759
0.706569 0.582025 0.329168
0.773281 0.612665 0.342016
0.833341 0.637293 0.359136
0.883024 0.654963 0.381994
0.921904 0.667475 0.411597
0.951324 0.677577 0.447364
0.972412 0.688594 0.492317
0.985382 0.704891 0.550042
0.990631 0.730556 0.620111
0.262791 0.473548 0.265660
0.264500 0.475013 0.266423
0.266514 0.476814 0.267430
0.269963 0.478523 0.268040
0.274846 0.480018 0.269017
0.281254 0.481086 0.269749
0.288914 0.482246 0.270390
0.297734 0.483467 0.271183
0.308385 0.485206 0.272282
0.320378 0.487160 0.273472
0.333684 0.489784 0.274937
0.348180 0.492714 0.276646
0.363653 0.495613 0.278416
0.381384 0.498878 0.281071
0.403204 0.502495 0.286320
0.425483 0.506218 0.291905
0.448432 0.510338 0.297734
0.472358 0.514885 0.304112
0.497017 0.519982 0.310948
0.522881 0.525933 0.318334
0.549828 0.532494 0.326329
0.588739 0.549950 0.334569
0.640314 0.576989 0.343725
0.708705 0.613611 0.350652
0.775204 0.645747 0.360693
0.834043 0.671046 0.378607
0.882078 0.688869 0.403265
0.919615 0.701198 0.434363
0.948028 0.710994 0.472663
0.967864 0.722225 0.522332
0.979797 0.739132 0.585016
0.984344 0.765011 0.659388
0.283268 0.524712 0.285313
0.284916 0.526696 0.286168
0.286992 0.528496 0.286870
0.290654 0.530602 0.287694
0.295903 0.532280 0.288304
0.302373 0.533562 0.289067
0.310277 0.534722 0.289677
0.319707 0.536126 0.290318
0.330694 0.537896 0.291173
0.343175 0.540215 0.292485
0.357061 0.543175 0.293736
0.372290 0.546288 0.295293
0.388647 0.549584 0.296788
0.406073 0.552880 0.298283
0.427436 0.557000 0.302220
0.451850 0.561822 0.307866
0.477302 0.567132 0.314214
0.503899 0.573236 0.321019
0.531640 0.580011 0.328496
0.560601 0.587457 0.336461
0.590967 0.595850 0.345373
0.622431 0.604761 0.354742
0.664576 0.623163 0.364660
0.719142 0.651972 0.377569
0.784207 0.685512 0.389776
0.841062 0.710567 0.406958
0.886534 0.727291 0.432319
0.921263 0.738582 0.466743
0.946899 0.748287 0.511070
0.964141 0.759915 0.566796
0.973785 0.777035 0.633234
0.976715 0.802152 0.707362
0.308873 0.596429 0.308873
0.310460 0.597559 0.309056
0.312200 0.598505 0.309422
0.315801 0.599603 0.310002
0.321019 0.600610 0.310307
0.328008 0.601556 0.310765
0.336400 0.602869 0.311345
0.346502 0.604425 0.312322
0.358465 0.606561 0.313115
0.371984 0.609430 0.314397
0.387182 0.612543 0.315618
0.403632 0.616052 0.317418
0.421271 0.619532 0.318822
0.440009 0.623102 0.320317
0.459724 0.626551 0.321904
0.485481 0.631159 0.327550
0.512688 0.636378 0.333898
0.540917 0.642237 0.341070
0.570214 0.648615 0.348638
0.600397 0.655329 0.357153
0.631434 0.662531 0.366094
0.663233 0.670222 0.375891
0.695613 0.678096 0.386511
0.735103 0.692439 0.398199
0.784848 0.716945 0.416114
0.840116 0.742580 0.434546
0.884489 0.759335 0.459480
0.918547 0.770321 0.493568
0.942779 0.779721 0.542687
0.958709 0.791043 0.602014
0.967315 0.807309 0.669886
0.970031 0.829343 0.739681
0.334844 0.669581 0.332036
0.336492 0.670832 0.332616
0.338445 0.671992 0.332982
0.342199 0.673060 0.333471
0.347906 0.674067 0.333867
0.355200 0.674830 0.334264
0.364141 0.675807 0.335027
0.374823 0.677058 0.335729
0.387396 0.678798 0.336461
0.401770 0.681056 0.337560
0.417578 0.683955 0.339117
0.434791 0.687068 0.340764
0.453223 0.689998 0.342382
0.472847 0.693141 0.343938
0.493385 0.696376 0.345647
0.516503 0.700008 0.348791
0.545190 0.704799 0.355840
0.574609 0.709957 0.363684
0.604852 0.715480 0.372229
0.635737 0.721492 0.381781
0.667353 0.727626 0.391882
0.699245 0.734066 0.402960
0.731411 0.740566 0.414832
0.763516 0.747189 0.427680
0.794949 0.752865 0.438270
0.838437 0.772152 0.461677
0.880766 0.788815 0.489815
0.913848 0.799893 0.527092
0.937743 0.808530 0.574060
0.952972 0.818906 0.635004
0.961028 0.833829 0.703243
0.964050 0.851987 0.766812
0.368231 0.750515 0.364294
0.370031 0.751705 0.364904
0.372137 0.752499 0.365423
0.375769 0.752987 0.365789
0.381384 0.753323 0.366094
0.388861 0.753414 0.366217
0.397864 0.753536 0.366644
0.408667 0.753811 0.367163
0.421210 0.754269 0.367651
0.435462 0.755215 0.368658
0.451148 0.756435 0.369696
0.468177 0.757931 0.371160
0.486671 0.759701 0.372778
0.506157 0.761349 0.374395
0.526146 0.762936 0.376013
0.547265 0.764401 0.377630
0.572808 0.766812 0.382818
0.601923 0.769955 0.390997
0.631952 0.773953 0.400305
0.662623 0.778317 0.410498
0.693568 0.783078 0.422126
0.724514 0.787778 0.434180
0.755276 0.792172 0.447150
0.785306 0.796231 0.460639
0.814511 0.800015 0.475502
0.844114 0.804807 0.491920
0.880247 0.819089 0.526238
0.909483 0.828519 0.566796
0.932097 0.836576 0.615747
0.947051 0.845274 0.672419
0.955138 0.857176 0.734371
0.958648 0.871855 0.791928
0.403479 0.813382 0.401038
0.405432 0.814328 0.401892
0.407324 0.814939 0.402380
0.411078 0.815244 0.402777
0.416510 0.815366 0.403204
0.423621 0.815488 0.403632
0.432532 0.815488 0.403967
0.443000 0.815610 0.404547
0.455390 0.816037 0.405676
0.469429 0.816587 0.406592
0.484962 0.817441 0.408118
0.501946 0.818570 0.410224
0.520134 0.819669 0.412177
0.539086 0.820737 0.414130
0.558831 0.821744 0.416724
0.579370 0.822599 0.418860
0.600793 0.823545 0.421393
0.628687 0.825345 0.429999
0.657710 0.827451 0.439979
0.687098 0.829892 0.451514
0.716487 0.832517 0.464332
0.745846 0.835019 0.478340
0.774563 0.837522 0.494026
0.802579 0.839719 0.510613
0.829526 0.841794 0.528405
0.855314 0.843778 0.547265
0.879789 0.845792 0.567254
0.908263 0.856657 0.611414
0.926940 0.862699 0.662593
0.940978 0.870207 0.717189
0.949371 0.878752 0.768734
0.954009 0.889647 0.816831
0.446845 0.863981 0.449409
0.448341 0.864439 0.449928
0.450141 0.864652 0.450446
0.453376 0.864561 0.450416
0.457984 0.864408 0.450599
0.464271 0.864195 0.451026
0.472358 0.863920 0.451301
0.481788 0.863737 0.451942
0.493141 0.863676 0.452918
0.506157 0.863859 0.454292
0.520378 0.864134 0.456062
0.536339 0.864683 0.458473
0.553185 0.865171 0.461067
0.571099 0.865599 0.463508
0.589593 0.865934 0.466499
0.608698 0.866117 0.468940
0.628534 0.866270 0.472114
0.650629 0.866606 0.477394
0.678401 0.867399 0.489387
0.706325 0.868315 0.503075
0.734157 0.869322 0.518364
0.761563 0.870420 0.534997
0.788266 0.871427 0.552728
0.813931 0.872343 0.571801
0.838437 0.873259 0.591547
0.861509 0.874144 0.612055
0.883055 0.875181 0.633326
0.902861 0.876341 0.655543
0.923949 0.884733 0.702754
0.935210 0.889128 0.752132
0.944060 0.895628 0.797360
0.949767 0.903716 0.837675
0.499397 0.899016 0.509697
0.500816 0.899168 0.510460
0.502312 0.899229 0.510582
0.505119 0.899199 0.511040
0.509392 0.899168 0.511681
0.515221 0.899138 0.512505
0.523125 0.899321 0.514549
0.532525 0.899535 0.516777
0.543694 0.899870 0.519585
0.556390 0.900420 0.523400
0.570336 0.900877 0.527459
0.585321 0.901335 0.531792
0.601190 0.901732 0.536553
0.617609 0.901915 0.541314
0.634363 0.901884 0.545647
0.651362 0.901671 0.549432
0.668971 0.901427 0.554040
0.687098 0.901183 0.558831
0.709651 0.900877 0.569360
0.735134 0.900603 0.584833
0.760311 0.900359 0.601953
0.784848 0.900206 0.620111
0.808377 0.900053 0.638941
0.830686 0.899931 0.658350
0.851591 0.899931 0.678187
0.870970 0.900053 0.697902
0.888731 0.900389 0.717861
0.904784 0.900999 0.737728
0.918853 0.901549 0.755825
0.933257 0.907469 0.792264
0.940215 0.911192 0.829831
0.946502 0.917052 0.862089
0.577325 0.924437 0.598352
0.578363 0.924498 0.598871
0.579339 0.924437 0.599023
0.581384 0.924315 0.599359
0.584344 0.924132 0.599573
0.588617 0.923919 0.600305
0.594171 0.923705 0.601068
0.601251 0.923522 0.602869
0.609583 0.923339 0.605066
0.619532 0.923125 0.608179
0.630243 0.922972 0.611383
0.642145 0.922728 0.615290
0.654658 0.922484 0.619104
0.667933 0.922148 0.623377
0.681697 0.921782 0.627863
