其他预设/【234】港风调色预设/1.3D LUT预设（视频调色-PR-AE-PS-FCPX-达芬奇用）/26.港风色调-适合街道 __.cube
# Created by Adobe Lightroom plugin Export LUT (1.17.0)
# www.johnrellis.com/lightroom/exportlut.htm
# Preset: 26.港风色调-适合街道 [素锦印象]
# Color profile: /Library/Application Support/Adobe/Color/Profiles/Recommended/AdobeRGB1998.icc
LUT_3D_SIZE 5
DOMAIN_MIN 0.000000 0.000000 0.000000
DOMAIN_MAX 0.903226 0.903226 0.903226
0.159945 0.157992 0.172030
0.166598 0.157900 0.172641
0.247349 0.159152 0.174716
0.477241 0.163607 0.185306
0.922728 0.209110 0.244938
0.161868 0.166751 0.173983
0.171817 0.169863 0.175601
0.265385 0.189090 0.179049
0.494789 0.224094 0.195346
0.935241 0.315221 0.269596
0.189090 0.284459 0.196384
0.215549 0.290593 0.198978
0.317296 0.316533 0.221561
0.556756 0.400977 0.254520
0.949676 0.535973 0.355108
0.308873 0.596429 0.308873
0.346502 0.604425 0.312322
0.459724 0.626551 0.321904
0.663233 0.670222 0.375891
0.942779 0.779721 0.542687
0.656245 0.936950 0.684627
0.674952 0.936065 0.689967
0.728054 0.932586 0.701137
0.830777 0.929076 0.764889
0.919524 0.927306 0.849638
0.160067 0.158297 0.175906
0.166720 0.158541 0.179263
0.254734 0.152651 0.196414
0.476722 0.136110 0.219760
0.916991 0.133516 0.289677
0.162448 0.168612 0.182803
0.174533 0.172396 0.187930
0.273930 0.183719 0.201419
0.493812 0.209445 0.233188
0.926116 0.274235 0.310338
0.185428 0.288945 0.219974
0.221042 0.296818 0.233066
0.316747 0.315648 0.253025
0.558251 0.395819 0.293370
0.947417 0.524712 0.397559
0.299229 0.605951 0.341802
0.350195 0.614191 0.358129
0.464485 0.634485 0.365789
0.667109 0.674006 0.414405
0.940917 0.782071 0.589105
0.684840 0.934203 0.727993
0.700587 0.933471 0.731594
0.755489 0.931609 0.750393
0.839750 0.928740 0.793149
0.920684 0.927733 0.862394
0.160281 0.159304 0.227481
0.176089 0.159854 0.237797
0.255589 0.156710 0.274937
0.489204 0.129946 0.364416
0.923674 0.000000 0.475349
0.158999 0.180972 0.262943
0.183200 0.182376 0.270390
0.277165 0.186618 0.298589
0.508721 0.192477 0.374884
0.933257 0.020600 0.465888
0.188754 0.313939 0.331884
0.227237 0.320439 0.341039
0.336522 0.334539 0.364935
0.582757 0.376074 0.412146
0.948211 0.471809 0.516167
0.303685 0.630396 0.471077
0.343053 0.636835 0.477394
0.476387 0.662562 0.504936
0.687343 0.693843 0.539757
0.934936 0.793973 0.719478
0.711055 0.933043 0.787259
0.738216 0.931365 0.801297
0.803067 0.927092 0.833707
0.853666 0.926787 0.844327
0.921752 0.927367 0.886015
0.156527 0.163546 0.437812
0.197848 0.163546 0.446204
0.306798 0.164157 0.463478
0.489937 0.156893 0.528527
0.921294 0.000000 0.734432
0.151705 0.207004 0.481666
0.203159 0.208286 0.485023
0.323796 0.211521 0.494087
0.510063 0.211795 0.550195
0.925780 0.194522 0.735103
0.193698 0.392798 0.588220
0.247410 0.393652 0.599023
0.377478 0.379461 0.597559
0.569207 0.365057 0.613245
0.935027 0.461189 0.744198
0.289677 0.715572 0.733639
0.343023 0.718379 0.738125
0.505882 0.728695 0.755276
0.721920 0.724086 0.767300
0.924956 0.801144 0.837369
0.784909 0.930114 0.876249
0.801297 0.929351 0.881712
0.842985 0.928283 0.895872
0.885374 0.927214 0.908904
0.925200 0.928649 0.917418
0.186770 0.190585 0.868315
0.268284 0.188540 0.868620
0.442329 0.180331 0.871916
0.632471 0.146212 0.868620
0.878080 0.137118 0.907286
0.159731 0.255558 0.878813
0.253910 0.253605 0.878538
0.438178 0.246494 0.879454
0.630549 0.216587 0.871336
0.878294 0.223056 0.907408
0.183963 0.460578 0.912383
0.237339 0.443885 0.910521
0.435920 0.431647 0.905455
0.638575 0.400031 0.894255
0.891020 0.451331 0.917906
0.549706 0.773678 0.931487
0.580102 0.773739 0.930571
0.684779 0.783413 0.929900
0.778531 0.777401 0.924926
0.909728 0.807248 0.931853
0.829099 0.934081 0.942504
0.837278 0.933410 0.942535
0.867399 0.932769 0.944030
0.901427 0.932280 0.945983
0.928008 0.929107 0.945556
