其他预设/【234】港风调色预设/1.3D LUT预设（视频调色-PR-AE-PS-FCPX-达芬奇用）/27.港风色调-适合街道 __.cube
# Created by Adobe Lightroom plugin Export LUT (1.17.0)
# www.johnrellis.com/lightroom/exportlut.htm
# Preset: 27.港风色调-适合街道 [素锦印象]
# Color profile: /Library/Application Support/Adobe/Color/Profiles/Recommended/AdobeRGB1998.icc
LUT_3D_SIZE 8
DOMAIN_MIN 0.000000 0.000000 0.000000
DOMAIN_MAX 0.903226 0.903226 0.903226
0.096529 0.093996 0.091035
0.109926 0.095979 0.092897
0.160769 0.098360 0.096101
0.261234 0.100984 0.101442
0.412268 0.098726 0.106996
0.600702 0.090028 0.116945
0.770657 0.108248 0.146456
0.897581 0.177615 0.208621
0.100374 0.110048 0.093996
0.116579 0.111818 0.095125
0.161044 0.111910 0.097658
0.253971 0.120119 0.103151
0.398413 0.127260 0.108522
0.578576 0.130800 0.116426
0.749111 0.144381 0.141787
0.887236 0.195773 0.202121
0.113130 0.176242 0.104372
0.128695 0.178164 0.105898
0.185946 0.173312 0.108919
0.261601 0.170565 0.110109
0.400824 0.192264 0.112886
0.577569 0.213931 0.121584
0.757565 0.238499 0.152895
0.890135 0.275486 0.216159
0.136538 0.315984 0.120058
0.158846 0.315007 0.121096
0.219364 0.318425 0.126284
0.330541 0.302068 0.129915
0.422797 0.278965 0.131014
0.576379 0.304356 0.126619
0.737057 0.328618 0.155612
0.872923 0.355749 0.215091
0.181918 0.514702 0.152621
0.208682 0.513359 0.154025
0.281712 0.513787 0.160952
0.391974 0.504051 0.168307
0.486671 0.440772 0.157595
0.538018 0.369299 0.155520
0.693690 0.400580 0.159884
0.844785 0.431861 0.202152
0.270176 0.686427 0.238956
0.297642 0.694423 0.247929
0.356634 0.690364 0.253086
0.439246 0.685237 0.262516
0.548852 0.644373 0.246006
0.633692 0.572992 0.208927
0.662654 0.469490 0.192996
0.819120 0.509239 0.222110
0.413397 0.819730 0.389746
0.426703 0.820035 0.393378
0.460121 0.815000 0.393133
0.516320 0.809110 0.397864
0.582910 0.800046 0.402594
0.682856 0.756619 0.354437
0.763790 0.694179 0.288334
0.776333 0.565637 0.238590
0.573663 0.887358 0.562982
0.578210 0.886656 0.562768
0.596490 0.884764 0.564813
0.630549 0.882383 0.572808
0.658442 0.873869 0.559960
0.714992 0.865049 0.555749
0.790890 0.840879 0.503990
0.872404 0.803464 0.420905
0.095827 0.096010 0.100862
0.108156 0.097108 0.102113
0.156466 0.103944 0.112276
0.258518 0.107027 0.122988
0.407538 0.098238 0.131044
0.582513 0.085176 0.143008
0.749264 0.101595 0.168948
0.884794 0.171633 0.223484
0.099580 0.111879 0.105318
0.115785 0.112886 0.109071
0.164340 0.118715 0.115389
0.259770 0.124392 0.123110
0.402411 0.126467 0.131075
0.571313 0.126802 0.142184
0.733181 0.138460 0.165194
0.873686 0.188510 0.215885
0.113588 0.173068 0.118074
0.132692 0.175448 0.123842
0.185885 0.174838 0.125978
0.265049 0.173800 0.125795
0.399939 0.191501 0.132692
0.564477 0.208316 0.144381
0.730800 0.227726 0.169619
0.873991 0.265721 0.225498
0.128847 0.305760 0.135561
0.158145 0.306676 0.143374
0.218845 0.313481 0.148348
0.316289 0.290532 0.147127
0.401740 0.267247 0.144839
0.548699 0.289952 0.143801
0.709194 0.314611 0.168460
0.856626 0.345495 0.222110
0.181216 0.507713 0.181247
0.206638 0.504875 0.181674
0.276951 0.501946 0.185672
0.376562 0.489113 0.188998
0.469703 0.426642 0.173861
0.528283 0.363775 0.168948
0.682918 0.394263 0.173434
0.835477 0.425910 0.213596
0.268345 0.674067 0.257969
0.288212 0.673548 0.259403
0.346746 0.670832 0.264225
0.430213 0.669032 0.274632
0.539605 0.635950 0.262821
0.629297 0.569726 0.226352
0.660883 0.469337 0.207095
0.813077 0.505425 0.231846
0.404669 0.808591 0.392279
0.412818 0.806119 0.389868
0.449012 0.802670 0.392035
0.509483 0.799649 0.401160
0.579187 0.793393 0.409888
0.676051 0.750637 0.363195
0.753902 0.685542 0.294835
0.766537 0.558618 0.243473
0.569177 0.883879 0.563409
0.575555 0.883604 0.565148
0.594659 0.881987 0.568017
0.629511 0.879881 0.576715
0.669978 0.875700 0.582177
0.718959 0.866178 0.572045
0.789395 0.839902 0.511742
0.868711 0.800259 0.423987
0.085634 0.103883 0.146639
0.104616 0.099367 0.147646
0.159457 0.109163 0.151614
0.254185 0.122316 0.181704
0.421485 0.094392 0.209323
0.617121 0.099062 0.237552
0.775845 0.151156 0.273411
0.895628 0.235233 0.325963
0.099153 0.133883 0.156161
0.112154 0.123781 0.157290
0.166842 0.126894 0.158694
0.262791 0.138643 0.185183
0.427955 0.122011 0.205631
0.608148 0.139712 0.233433
0.765377 0.171572 0.265537
0.890562 0.243656 0.318425
0.113405 0.188876 0.171054
0.133181 0.189273 0.173953
0.194156 0.189059 0.184146
0.298039 0.196536 0.193637
0.449317 0.209323 0.210452
0.606470 0.222660 0.230198
0.757443 0.246525 0.260960
0.883116 0.295659 0.313542
0.132479 0.316594 0.201450
0.157321 0.318944 0.204837
0.233310 0.326757 0.219455
0.337072 0.313878 0.215457
0.444678 0.295659 0.208743
0.590723 0.311955 0.223453
0.740261 0.334478 0.254490
0.870390 0.368627 0.307500
0.167483 0.512779 0.250065
0.198978 0.512749 0.252903
0.290654 0.510735 0.271580
0.384466 0.512169 0.278813
0.492744 0.451179 0.248325
0.561425 0.390631 0.232181
0.706050 0.410132 0.237858
0.847471 0.440070 0.287419
0.262852 0.677821 0.316136
0.289281 0.676753 0.322545
0.368048 0.670588 0.346715
0.443549 0.665888 0.350683
0.539757 0.641505 0.338781
0.631403 0.575311 0.291295
0.674891 0.484352 0.262516
0.823331 0.516838 0.287877
0.415351 0.811826 0.440833
0.436255 0.808713 0.451179
0.477729 0.802396 0.460761
0.528038 0.797055 0.462104
0.590600 0.790036 0.464271
0.678248 0.755032 0.424659
0.759518 0.694270 0.353429
0.784298 0.576898 0.295903
0.585748 0.882139 0.598291
0.595392 0.880369 0.603326
0.610620 0.878416 0.603174
0.645655 0.877348 0.613550
0.681514 0.873259 0.615564
0.725704 0.866697 0.612573
0.790402 0.841764 0.551446
0.868742 0.803342 0.463050
0.000000 0.127169 0.255528
0.009949 0.107851 0.257816
0.178683 0.108339 0.253361
0.267338 0.121279 0.257145
0.401831 0.152438 0.305669
0.590936 0.149508 0.358343
0.762325 0.191531 0.395117
0.889738 0.297093 0.443458
0.000000 0.169223 0.273320
0.058473 0.149660 0.273167
0.181582 0.131807 0.266331
0.276677 0.143587 0.266300
0.410590 0.178470 0.312963
0.593896 0.178225 0.358556
0.761349 0.217014 0.392706
0.888060 0.322484 0.447852
0.024384 0.268620 0.303288
0.096895 0.265202 0.304936
0.184634 0.216342 0.298528
0.304326 0.216007 0.293553
0.450385 0.249882 0.338537
0.625849 0.271366 0.375494
0.786038 0.328466 0.420569
0.890288 0.387457 0.463630
0.105043 0.362707 0.326268
0.143069 0.361486 0.327642
0.235874 0.357794 0.334051
0.359655 0.349004 0.348058
0.495674 0.353491 0.355779
0.631678 0.364874 0.371649
0.768093 0.385962 0.398230
0.880705 0.423468 0.440253
0.182803 0.528893 0.365637
0.213321 0.526024 0.366705
0.300023 0.522606 0.376562
0.418463 0.522484 0.405432
0.519585 0.485847 0.377325
0.610193 0.439673 0.352331
0.743252 0.450843 0.367529
0.862913 0.476722 0.410559
0.290959 0.691188 0.425635
0.323217 0.695857 0.436744
0.391791 0.687190 0.448981
0.487282 0.677668 0.474983
0.562127 0.670222 0.472236
0.649531 0.600458 0.406165
0.707240 0.521447 0.364477
0.838682 0.538384 0.378546
0.434485 0.813443 0.514092
0.451606 0.812558 0.520073
0.500755 0.808469 0.536675
0.569482 0.801419 0.560479
0.622095 0.794858 0.557763
0.689693 0.769528 0.525780
0.764950 0.706020 0.441657
0.800534 0.599054 0.375372
0.599573 0.883513 0.639307
0.608728 0.882689 0.643824
0.634913 0.879332 0.655268
0.673121 0.874571 0.670436
0.702358 0.870787 0.668605
0.739071 0.866453 0.667628
0.791867 0.844724 0.611963
0.866880 0.806668 0.519249
0.000000 0.178775 0.449622
0.000000 0.147433 0.449592
0.142550 0.114290 0.438880
0.318914 0.104829 0.420752
0.435706 0.134493 0.427863
0.580529 0.207126 0.472602
0.739315 0.281468 0.526787
0.871305 0.369818 0.573785
0.000000 0.223484 0.462409
0.000000 0.198428 0.463722
0.124331 0.146090 0.453132
0.321843 0.138827 0.429938
0.441688 0.166171 0.434150
0.584619 0.236667 0.477363
0.742458 0.303410 0.530602
0.871672 0.384833 0.575311
0.000000 0.350286 0.494789
0.000000 0.335882 0.491829
0.120974 0.265354 0.480476
0.331151 0.235233 0.461067
0.459113 0.254215 0.451759
0.590509 0.316533 0.487404
0.748135 0.362860 0.536706
0.871336 0.425208 0.575097
0.000000 0.479622 0.527642
0.000000 0.475105 0.526390
0.228428 0.462165 0.526513
0.359503 0.392981 0.510216
0.495705 0.384222 0.488930
0.621698 0.425360 0.520104
0.767300 0.452094 0.551965
0.878080 0.494942 0.581415
0.149844 0.573602 0.528862
0.195499 0.571862 0.529870
0.302251 0.562005 0.530022
0.425147 0.545556 0.531762
0.537652 0.520897 0.531884
0.652949 0.516442 0.529900
0.771298 0.521233 0.537865
0.871275 0.538476 0.558221
0.305364 0.685176 0.528466
0.328496 0.683680 0.531029
0.393713 0.676143 0.537194
0.482795 0.668238 0.551659
0.573968 0.659174 0.568231
0.657130 0.620478 0.530297
0.740414 0.569024 0.493996
0.853086 0.575006 0.506340
0.453742 0.812253 0.596429
0.466621 0.810300 0.598474
0.509300 0.805234 0.607416
0.573327 0.798978 0.623133
0.643366 0.790524 0.640131
0.696620 0.780789 0.628901
0.764950 0.715480 0.538201
0.814450 0.624567 0.472541
0.604883 0.880095 0.680751
0.612116 0.879057 0.683009
0.636530 0.875914 0.691249
0.682277 0.873381 0.711604
0.723018 0.867613 0.723476
0.753170 0.863218 0.718379
0.792386 0.847410 0.680354
0.860197 0.806607 0.580133
0.000000 0.245212 0.669001
0.000000 0.214389 0.667018
0.000000 0.143130 0.654566
0.314641 0.127169 0.637568
0.491951 0.133364 0.611902
0.608026 0.199954 0.607660
0.740230 0.320317 0.641413
0.851011 0.452644 0.686854
0.000000 0.283574 0.665583
0.000000 0.258457 0.663203
0.000000 0.176699 0.654170
0.308415 0.166690 0.636835
0.489845 0.171481 0.609339
0.606592 0.228367 0.606012
0.738705 0.339574 0.641077
0.850370 0.461311 0.686549
0.000000 0.413184 0.686732
0.000000 0.395575 0.684260
0.000000 0.329381 0.676722
0.307408 0.280919 0.659419
0.502373 0.281468 0.627161
0.618830 0.320043 0.618738
0.743984 0.409674 0.651270
0.852995 0.500084 0.692470
0.000000 0.578973 0.720241
0.000000 0.568078 0.715602
0.267216 0.534722 0.703944
0.373327 0.462684 0.692927
0.533165 0.434028 0.665553
0.646174 0.447669 0.646967
0.757137 0.509300 0.673152
0.859586 0.561303 0.703883
0.166598 0.672755 0.718441
0.220096 0.670253 0.717952
0.340154 0.660883 0.716030
0.469429 0.644862 0.712947
0.554864 0.573663 0.689448
0.659297 0.553216 0.659907
0.764279 0.589014 0.683101
0.863676 0.617090 0.703944
0.322820 0.739834 0.697566
0.350469 0.739590 0.699763
0.421424 0.731655 0.699916
0.510399 0.717922 0.699367
0.598962 0.697322 0.695949
0.688960 0.669947 0.690425
0.784085 0.663691 0.685634
0.865721 0.664942 0.688136
0.490211 0.817288 0.694697
0.505486 0.816983 0.697841
0.545983 0.812894 0.702815
0.603326 0.806790 0.711910
0.665522 0.798581 0.721523
0.727871 0.786679 0.729763
0.775631 0.741085 0.668513
0.839139 0.676509 0.613825
0.629206 0.879240 0.740322
0.635431 0.878294 0.741787
0.657130 0.875486 0.747219
0.693324 0.872190 0.757809
0.733669 0.867552 0.768551
0.774472 0.861326 0.777584
0.803067 0.854673 0.764706
0.854520 0.811582 0.667170
0.000000 0.299199 0.820157
0.000000 0.276616 0.821195
0.000000 0.191379 0.816709
0.232425 0.189151 0.805325
0.486091 0.199954 0.785183
0.640436 0.238224 0.762387
0.746639 0.312108 0.752407
0.846159 0.449866 0.766598
0.000000 0.332311 0.814267
0.000000 0.313085 0.815000
0.000000 0.226871 0.811521
0.222324 0.218570 0.798978
0.479072 0.226535 0.778073
0.632441 0.254520 0.753170
0.736904 0.318395 0.742245
0.838865 0.445319 0.758389
0.000000 0.449653 0.823270
0.000000 0.435798 0.822141
0.000000 0.382727 0.817197
0.232761 0.327153 0.806943
0.486946 0.331243 0.785122
0.641535 0.344182 0.759121
0.746090 0.395209 0.751553
0.843900 0.503838 0.768399
0.144686 0.607324 0.833433
0.200748 0.600000 0.830625
0.303441 0.572168 0.823697
0.366979 0.507622 0.817380
0.514794 0.472541 0.800137
0.662257 0.466773 0.773312
0.760067 0.497169 0.765560
0.846891 0.577447 0.778317
0.298497 0.722103 0.833982
0.325628 0.719448 0.832517
0.407996 0.713069 0.829770
0.504326 0.683253 0.821866
0.558434 0.612085 0.808316
0.668208 0.576928 0.783139
0.761929 0.583093 0.767086
0.845029 0.648524 0.784207
0.404242 0.797421 0.828855
0.423651 0.795743 0.828489
0.482643 0.789944 0.827481
0.564904 0.780911 0.826535
0.651026 0.767575 0.824308
0.707973 0.714687 0.809506
0.780545 0.692653 0.785641
0.850004 0.723659 0.797543
0.513115 0.845548 0.810391
0.527276 0.844755 0.811307
0.565698 0.840177 0.812345
0.621698 0.832822 0.813993
0.681727 0.820706 0.813382
0.741848 0.804135 0.810452
0.795773 0.778622 0.800717
0.857877 0.768856 0.791745
0.641413 0.876524 0.795865
0.648402 0.875883 0.796994
0.677302 0.875212 0.804074
0.712367 0.872587 0.810880
0.751064 0.868742 0.818204
0.788632 0.863951 0.824979
0.823056 0.856626 0.827726
0.851041 0.822995 0.771817
0.000000 0.338689 0.897490
0.000000 0.323430 0.897734
0.000000 0.258793 0.895720
0.000000 0.252934 0.890684
0.435279 0.280125 0.881102
0.621607 0.315648 0.866850
0.748653 0.371649 0.854826
0.838376 0.436744 0.845731
0.000000 0.367559 0.895506
0.000000 0.354192 0.895720
0.000000 0.299107 0.894133
0.000000 0.278080 0.888945
0.435187 0.303105 0.879332
0.620050 0.333684 0.865049
0.746120 0.381048 0.852018
0.835599 0.441230 0.842954
0.000000 0.464179 0.893858
0.000000 0.454841 0.893675
0.000000 0.416327 0.891325
0.143160 0.369848 0.889677
0.450660 0.387640 0.879637
0.624537 0.403784 0.864591
0.747982 0.433692 0.850797
0.835355 0.482185 0.842557
0.216587 0.608606 0.891936
0.237919 0.602686 0.891936
0.284215 0.576806 0.890166
0.355993 0.532189 0.887968
0.486702 0.503593 0.881224
0.639124 0.507256 0.867735
0.755581 0.515404 0.852689
0.838163 0.550774 0.845090
0.383185 0.731014 0.891661
0.404974 0.728847 0.891508
0.456764 0.716793 0.889250
0.528252 0.693782 0.885435
0.559533 0.637171 0.881102
0.654047 0.609339 0.870146
0.762631 0.600336 0.853239
0.841123 0.630335 0.847715
0.491890 0.808469 0.887816
0.502892 0.807248 0.887327
0.541497 0.803738 0.886168
0.603632 0.799191 0.885252
0.669429 0.781735 0.882231
0.709102 0.734798 0.876432
0.782803 0.714168 0.863951
0.850004 0.724056 0.856107
0.587457 0.866453 0.884947
0.595026 0.865324 0.884672
0.621241 0.861753 0.883970
0.666682 0.856596 0.883635
0.721798 0.850034 0.883330
0.778775 0.843168 0.883421
0.812802 0.811887 0.876890
0.854063 0.791287 0.859831
0.678614 0.895323 0.872709
0.682979 0.894530 0.872740
0.699794 0.892210 0.873320
0.729152 0.888518 0.874937
0.764187 0.883452 0.876616
0.800198 0.876982 0.877775
0.834409 0.868132 0.877195
0.863432 0.849668 0.868833
