其他预设/【234】港风调色预设/1.3D LUT预设（视频调色-PR-AE-PS-FCPX-达芬奇用）/27.港风色调-适合街道 __.cube
# Created by Adobe Lightroom plugin Export LUT (1.17.0)
# www.johnrellis.com/lightroom/exportlut.htm
# Preset: 27.港风色调-适合街道 [素锦印象]
# Color profile: /Library/Application Support/Adobe/Color/Profiles/Recommended/AdobeRGB1998.icc
LUT_3D_SIZE 32
0.096529 0.093996 0.091035
0.097627 0.094362 0.091249
0.099062 0.094667 0.091432
0.102998 0.095094 0.092103
0.109926 0.095979 0.092897
0.119783 0.096437 0.093568
0.131136 0.097139 0.094392
0.144717 0.097505 0.095125
0.160769 0.098360 0.096101
0.180331 0.099062 0.097078
0.203616 0.099855 0.098360
0.230625 0.100374 0.099977
0.261234 0.100984 0.101442
0.295323 0.101228 0.102724
0.332250 0.101106 0.104463
0.371405 0.100038 0.105684
0.412268 0.098726 0.106996
0.454047 0.096834 0.108461
0.495705 0.094514 0.110170
0.549126 0.091768 0.112947
0.600702 0.090028 0.116945
0.648219 0.090700 0.122194
0.692134 0.093782 0.128847
0.732753 0.100160 0.136782
0.770657 0.108248 0.146456
0.805966 0.120027 0.157534
0.839017 0.135286 0.171176
0.869596 0.154269 0.187900
0.897581 0.177615 0.208621
0.922423 0.205386 0.233066
0.944152 0.238560 0.263310
0.962615 0.276738 0.298985
0.096864 0.095338 0.091463
0.098054 0.095430 0.091402
0.099489 0.095735 0.091615
0.103395 0.096132 0.092287
0.110292 0.097017 0.093080
0.119844 0.097780 0.093721
0.131167 0.098482 0.094545
0.144533 0.099184 0.095247
0.160281 0.099855 0.096254
0.179446 0.100679 0.097230
0.202090 0.101747 0.098573
0.228763 0.102480 0.099947
0.258946 0.103151 0.101442
0.292332 0.103731 0.103029
0.328679 0.103761 0.104616
0.367315 0.103456 0.105898
0.407568 0.102388 0.107118
0.448920 0.100984 0.108461
0.490578 0.099123 0.110201
0.542931 0.096834 0.112642
0.593408 0.095247 0.116152
0.640314 0.096010 0.121309
0.684077 0.098238 0.127626
0.724941 0.103120 0.135134
0.763180 0.111208 0.144015
0.799252 0.121431 0.155001
0.833219 0.135866 0.168154
0.864775 0.154025 0.184817
0.893584 0.176181 0.204868
0.919249 0.203159 0.228946
0.941650 0.235477 0.258762
0.960723 0.272831 0.294133
0.097414 0.097169 0.091829
0.098268 0.097292 0.092042
0.100313 0.097475 0.092256
0.103944 0.097658 0.092958
0.110780 0.098787 0.093416
0.120302 0.099550 0.094087
0.131380 0.100282 0.094636
0.144503 0.101015 0.095583
0.159945 0.101747 0.096376
0.178958 0.102632 0.097597
0.201389 0.104036 0.098909
0.227573 0.105226 0.100282
0.257450 0.106142 0.101778
0.290440 0.106996 0.103182
0.326543 0.107362 0.104768
0.364874 0.107240 0.106081
0.404852 0.106691 0.107362
0.446052 0.105776 0.108492
0.487526 0.104494 0.110292
0.539544 0.102876 0.112795
0.589258 0.102449 0.116030
0.635981 0.102907 0.120912
0.679652 0.105165 0.127169
0.720668 0.109163 0.134401
0.759091 0.115755 0.143404
0.795377 0.126040 0.153689
0.829801 0.139193 0.166842
0.861845 0.156466 0.182895
0.891264 0.177707 0.203250
0.917388 0.204288 0.227390
0.940154 0.235447 0.256626
0.959503 0.272190 0.291539
0.098634 0.101717 0.092988
0.099794 0.101778 0.093233
0.101137 0.102327 0.093385
0.106111 0.102754 0.093721
0.112520 0.102388 0.094087
0.121859 0.103365 0.094728
0.132631 0.103853 0.095064
0.145205 0.104891 0.095979
0.160525 0.105867 0.096986
0.179171 0.107057 0.097932
0.201144 0.108736 0.099489
0.226871 0.110567 0.100801
0.256138 0.111940 0.102327
0.288609 0.113344 0.103731
0.323980 0.114473 0.105104
0.361791 0.115145 0.106447
0.401495 0.115084 0.107729
0.442084 0.115297 0.109133
0.485084 0.114687 0.110689
0.534386 0.114412 0.112764
0.582452 0.114748 0.115908
0.628412 0.115572 0.120455
0.672053 0.117739 0.126101
0.714015 0.121492 0.133486
0.753933 0.128023 0.142306
0.792020 0.136751 0.153323
0.827573 0.149142 0.166567
0.860472 0.165194 0.183108
0.890135 0.185428 0.202884
0.916350 0.210483 0.227085
0.939117 0.239933 0.255863
0.958404 0.275029 0.290318
0.100374 0.110048 0.093996
0.101411 0.110567 0.094179
0.103029 0.111025 0.094331
0.107637 0.111452 0.094667
0.116579 0.111818 0.095125
0.123720 0.109071 0.095918
0.133883 0.109895 0.096254
0.146151 0.110903 0.096925
0.161044 0.111910 0.097658
0.178927 0.113649 0.099062
0.200259 0.115663 0.100374
0.225406 0.117800 0.101656
0.253971 0.120119 0.103151
0.286198 0.122286 0.104463
0.321019 0.124178 0.105837
0.358831 0.125795 0.107118
0.398413 0.127260 0.108522
0.439185 0.127932 0.109682
0.483864 0.128817 0.111299
0.531701 0.129854 0.113313
0.578576 0.130800 0.116426
0.623621 0.132479 0.120699
0.666865 0.135012 0.126070
0.708858 0.138796 0.133455
0.749111 0.144381 0.141787
0.787655 0.152285 0.152804
0.823880 0.163088 0.166293
0.857115 0.177340 0.182040
0.887236 0.195773 0.202121
0.913878 0.218479 0.225742
0.937041 0.246098 0.253971
0.956725 0.279515 0.287907
0.102052 0.121675 0.095583
0.103182 0.121950 0.095521
0.105043 0.122316 0.095705
0.108919 0.122988 0.096284
0.117525 0.123140 0.096742
0.129244 0.122805 0.097383
0.136355 0.117647 0.098390
0.148043 0.118685 0.098543
0.162509 0.120089 0.099245
0.180117 0.121950 0.100374
0.201236 0.124422 0.101564
0.225742 0.127382 0.102785
0.253819 0.130220 0.104219
0.285222 0.133089 0.105715
0.319677 0.136110 0.106752
0.357275 0.138674 0.108156
0.396399 0.140871 0.109316
0.437079 0.142885 0.110567
0.483772 0.145449 0.112123
0.530663 0.147402 0.114565
0.577111 0.149844 0.117372
0.622309 0.152193 0.121706
0.711269 0.166476 0.136995
0.751308 0.172274 0.146517
0.788296 0.179171 0.157748
0.822141 0.188235 0.170291
0.852995 0.199619 0.185428
0.881071 0.213993 0.203433
0.906218 0.231907 0.224521
0.928588 0.254307 0.249638
0.947997 0.281041 0.278996
0.964416 0.312688 0.313207
0.104982 0.137850 0.097688
0.106294 0.138033 0.097871
0.108339 0.138308 0.098268
0.112642 0.139010 0.098543
0.119234 0.140078 0.099458
0.132570 0.138979 0.100343
0.146365 0.137911 0.101137
0.153292 0.129885 0.102480
0.168185 0.131716 0.102541
0.186282 0.134035 0.102785
0.207889 0.137026 0.103334
0.232883 0.140475 0.104585
0.261387 0.144106 0.105745
0.292912 0.147738 0.107240
0.327062 0.151431 0.108278
0.363531 0.154757 0.109346
0.401984 0.158022 0.110536
0.446082 0.161563 0.111818
0.493568 0.165591 0.113710
0.541833 0.169009 0.116487
0.591028 0.173281 0.120058
0.639673 0.177798 0.125734
0.687465 0.183108 0.133333
0.733059 0.189395 0.142916
0.775082 0.196872 0.154330
0.812436 0.205356 0.167575
0.845487 0.215763 0.182925
0.874846 0.228397 0.200656
0.901091 0.244327 0.221256
0.924224 0.264134 0.245975
0.944366 0.288457 0.274601
0.961486 0.317815 0.308476
0.108553 0.154726 0.101015
0.110109 0.155032 0.100954
0.112367 0.155245 0.101076
0.116670 0.155978 0.101564
0.123537 0.156832 0.102174
0.133608 0.157198 0.103212
0.149081 0.155520 0.104005
0.164126 0.153780 0.104982
0.169894 0.142428 0.106813
0.188144 0.145480 0.106661
0.209262 0.148775 0.106691
0.233310 0.152499 0.106508
0.260502 0.156649 0.106966
0.291173 0.161013 0.108156
0.324529 0.165316 0.109377
0.360113 0.169772 0.110353
0.399603 0.174197 0.111452
0.444434 0.179507 0.113039
0.489326 0.184024 0.114748
0.535790 0.188754 0.117220
0.583612 0.193240 0.121004
0.631220 0.198367 0.126009
0.678035 0.204013 0.133089
0.723293 0.209995 0.142214
0.765560 0.216861 0.153445
0.803616 0.224613 0.166049
0.837583 0.233738 0.180667
0.868009 0.244816 0.197696
0.895415 0.258915 0.218296
0.919524 0.276371 0.242374
0.940520 0.298528 0.270939
0.958434 0.325475 0.304234
0.113130 0.176242 0.104372
0.114565 0.176364 0.104555
0.116976 0.176638 0.104646
0.121553 0.177218 0.105104
0.128695 0.178164 0.105898
0.137606 0.179080 0.106813
0.152132 0.178256 0.107515
0.169406 0.175845 0.108248
0.185946 0.173312 0.108919
0.191012 0.159243 0.111421
0.211368 0.161868 0.111086
0.235080 0.166110 0.110597
0.261601 0.170565 0.110109
0.291112 0.175296 0.109712
0.323308 0.180362 0.110445
0.359503 0.185946 0.111513
0.400824 0.192264 0.112886
0.443030 0.198093 0.113954
0.486030 0.203098 0.115816
0.531151 0.208377 0.118166
0.577569 0.213931 0.121584
0.624384 0.219669 0.126619
0.670619 0.225589 0.133730
0.715389 0.231693 0.142092
0.757565 0.238499 0.152895
0.795987 0.245426 0.165042
0.830777 0.253452 0.179568
0.862028 0.263218 0.196475
0.890135 0.275486 0.216159
0.915038 0.291142 0.240055
0.936706 0.310796 0.268070
0.955261 0.335454 0.300755
0.117769 0.202243 0.107912
0.119631 0.202426 0.108034
0.121950 0.202548 0.108186
0.126986 0.202976 0.108614
0.134646 0.203799 0.109102
0.144045 0.204685 0.110140
0.155337 0.205844 0.111238
0.174685 0.202914 0.112001
0.193606 0.199527 0.112520
0.211276 0.195926 0.113222
0.215122 0.179019 0.116121
0.236332 0.179782 0.115389
0.262394 0.184939 0.114778
0.291173 0.190280 0.114076
0.324620 0.196780 0.113130
0.361975 0.203799 0.112673
0.401831 0.210971 0.113710
0.442908 0.217197 0.114931
0.485084 0.223362 0.116976
0.528893 0.229129 0.119356
0.573541 0.235050 0.122683
0.618341 0.240787 0.127657
0.662226 0.246403 0.133761
0.705318 0.252445 0.141482
0.746700 0.258640 0.151431
0.785550 0.265171 0.163149
0.821439 0.272709 0.177279
0.854276 0.281621 0.194003
0.884092 0.292943 0.213962
0.910307 0.307286 0.237400
0.933135 0.325566 0.266117
0.952636 0.348608 0.299382
0.122896 0.231937 0.111391
0.124910 0.232059 0.111543
0.127291 0.232151 0.111879
0.132906 0.232639 0.112245
0.141146 0.233433 0.112642
0.151461 0.234470 0.113558
0.163699 0.235752 0.114687
0.179873 0.235782 0.115663
0.201785 0.231601 0.116213
0.222110 0.227085 0.116976
0.240696 0.222080 0.117769
0.242741 0.201938 0.121126
0.264378 0.200198 0.120394
0.294652 0.207401 0.119448
0.327703 0.214542 0.118318
0.363073 0.221683 0.117311
0.400336 0.228550 0.115694
0.439307 0.235233 0.115999
0.480018 0.241825 0.117678
0.522637 0.248112 0.120089
0.566491 0.254643 0.123232
0.610712 0.261082 0.127596
0.654261 0.267277 0.133852
0.697261 0.273533 0.141543
0.738643 0.279850 0.151156
0.777615 0.286137 0.162509
0.813870 0.293248 0.175937
0.847318 0.301396 0.192355
0.877806 0.311406 0.211765
0.904906 0.323980 0.234867
0.928618 0.340307 0.262547
0.948943 0.361364 0.295659
0.128756 0.266941 0.115175
0.130800 0.267185 0.115267
0.133700 0.267308 0.115541
0.139620 0.267765 0.115877
0.148470 0.268437 0.116640
0.159701 0.269474 0.117403
0.173190 0.270848 0.118379
0.187961 0.272435 0.119753
0.209751 0.270024 0.120607
0.233463 0.264622 0.121248
0.255131 0.258671 0.121920
0.276738 0.254246 0.122499
0.295323 0.244358 0.129854
0.318425 0.238560 0.128420
0.353613 0.246921 0.127291
0.390295 0.254734 0.125460
0.428290 0.262089 0.123995
0.466590 0.268528 0.122530
0.505364 0.274510 0.121096
0.546532 0.280858 0.123262
0.588312 0.287053 0.127291
0.629664 0.292912 0.132998
0.670741 0.298558 0.139742
0.710842 0.304265 0.147768
0.749844 0.309941 0.158022
0.786954 0.315984 0.169986
0.821164 0.322271 0.183719
0.852720 0.329473 0.199924
0.881529 0.338476 0.219638
0.907286 0.349889 0.243168
0.929870 0.364630 0.270817
0.949493 0.383642 0.303349
0.136538 0.315984 0.120058
0.138979 0.315892 0.119997
0.141970 0.315709 0.120333
0.148836 0.315435 0.120760
0.158846 0.315007 0.121096
0.170962 0.314946 0.122011
0.185397 0.315251 0.123262
0.201450 0.316411 0.124514
0.219364 0.318425 0.126284
0.249821 0.315892 0.127077
0.278843 0.312383 0.128267
0.306126 0.307988 0.129183
0.330541 0.302068 0.129915
0.330419 0.274144 0.136049
0.349615 0.262394 0.134340
0.385992 0.271214 0.132570
0.422797 0.278965 0.131014
0.459785 0.285649 0.129183
0.497566 0.291966 0.127718
0.536400 0.298192 0.126680
0.576379 0.304356 0.126619
0.617304 0.310765 0.131838
0.657740 0.316716 0.138125
0.697932 0.322637 0.146120
0.737057 0.328618 0.155612
0.774563 0.334539 0.166873
0.809934 0.340734 0.179995
0.842679 0.347662 0.195804
0.872923 0.355749 0.215091
0.900145 0.366155 0.237858
0.924102 0.379431 0.265354
0.944945 0.396918 0.298253
0.143801 0.358953 0.124575
0.146609 0.359014 0.124666
0.149996 0.358831 0.124788
0.157198 0.358465 0.125216
0.167819 0.357763 0.125765
0.181064 0.358556 0.126894
0.197238 0.360601 0.128176
0.215488 0.362982 0.129702
0.235355 0.366430 0.131991
0.260746 0.368322 0.134035
0.293187 0.363012 0.134798
0.323400 0.357000 0.135470
0.350286 0.349432 0.136172
0.373175 0.339940 0.136080
0.369299 0.307103 0.142489
0.379522 0.285618 0.140261
0.416175 0.294377 0.138125
0.452155 0.301518 0.136385
0.488930 0.308263 0.134890
0.527123 0.315007 0.133547
0.566522 0.321721 0.132937
0.605951 0.328069 0.132937
0.645502 0.334325 0.136477
0.685756 0.340795 0.144045
0.725277 0.347021 0.153323
0.763272 0.353216 0.164004
0.799619 0.359503 0.176761
0.833616 0.366247 0.192721
0.864988 0.374182 0.211460
0.893523 0.383703 0.233951
0.918761 0.395880 0.261173
0.940703 0.411994 0.294255
0.154055 0.412055 0.131319
0.157412 0.412268 0.131502
0.160891 0.411963 0.131807
0.168765 0.411780 0.132143
0.180240 0.411353 0.132906
0.194583 0.411231 0.133577
0.211154 0.411597 0.135134
0.229953 0.412848 0.136904
0.250553 0.415045 0.138979
0.273045 0.418463 0.141726
0.304417 0.415869 0.142977
0.337774 0.408942 0.143801
0.367864 0.400336 0.143771
0.393591 0.389593 0.143465
0.414496 0.376593 0.142794
0.406744 0.339269 0.148592
0.407965 0.307958 0.146670
0.444953 0.316869 0.143954
0.480873 0.324041 0.142214
0.518151 0.331182 0.140841
0.556664 0.338231 0.140017
0.595697 0.345129 0.139956
0.634211 0.351446 0.140597
0.673030 0.357702 0.142153
0.712764 0.364416 0.150332
0.751858 0.371252 0.160952
0.789700 0.378241 0.173617
0.825528 0.385687 0.189578
0.858915 0.393927 0.209323
0.889097 0.403601 0.232822
0.915709 0.415625 0.261173
0.938659 0.431220 0.295384
0.166842 0.466163 0.140932
0.170108 0.466499 0.141207
0.174197 0.466377 0.141268
0.182406 0.466102 0.141726
0.194400 0.465766 0.142519
0.209506 0.465675 0.143374
0.226932 0.466102 0.145144
0.246586 0.467018 0.146883
0.268070 0.468635 0.149355
0.290929 0.470710 0.151888
0.315038 0.473243 0.155215
0.350591 0.464424 0.155184
0.382513 0.453376 0.154574
0.410224 0.440436 0.153506
0.433204 0.425757 0.151553
0.451240 0.409277 0.149660
0.441199 0.369299 0.154940
0.437537 0.332708 0.153017
0.472663 0.338689 0.150088
0.509850 0.346929 0.148745
0.548608 0.355077 0.147951
0.587823 0.362829 0.147951
0.626520 0.369909 0.148348
0.665705 0.376867 0.150332
0.704616 0.383642 0.153384
0.743313 0.390417 0.158633
0.782071 0.398016 0.171450
0.818936 0.405707 0.187869
0.853117 0.413794 0.206943
0.884062 0.423133 0.230472
0.911315 0.434058 0.258518
0.934874 0.448188 0.292332
0.181918 0.514702 0.152621
0.184329 0.514733 0.152834
0.188510 0.514366 0.153262
0.196384 0.513970 0.153414
0.208682 0.513359 0.154025
0.223270 0.512902 0.155489
0.240726 0.512871 0.157076
0.260227 0.512963 0.158663
0.281712 0.513787 0.160952
0.304326 0.515038 0.163973
0.328374 0.516686 0.167391
0.356786 0.515129 0.169497
0.391974 0.504051 0.168307
0.422797 0.491279 0.166690
0.448890 0.476417 0.164248
0.470039 0.459297 0.161196
0.486671 0.440772 0.157595
0.475166 0.398962 0.162264
0.469429 0.360082 0.159609
0.500084 0.360540 0.156283
0.538018 0.369299 0.155520
0.576745 0.377630 0.155062
0.615351 0.385473 0.155581
0.654261 0.393133 0.157076
0.693690 0.400580 0.159884
0.732662 0.408057 0.164309
0.771298 0.415320 0.170199
0.808988 0.423316 0.182712
0.844785 0.431861 0.202152
0.877317 0.441169 0.226017
0.906035 0.451850 0.254246
0.930907 0.465187 0.288457
0.199496 0.561486 0.168551
0.202762 0.562158 0.169253
0.218723 0.587732 0.181491
0.226871 0.587030 0.181582
0.238499 0.585931 0.182132
0.252781 0.584436 0.182803
0.269902 0.582971 0.183993
0.289006 0.581537 0.185519
0.310124 0.580560 0.187503
0.332708 0.580163 0.190127
0.356115 0.579919 0.193210
0.380438 0.579675 0.197055
0.412268 0.571527 0.196262
0.445624 0.557061 0.191867
0.474311 0.541131 0.187472
0.498695 0.523308 0.182345
0.518486 0.503685 0.176669
0.533776 0.482765 0.170596
0.520165 0.438025 0.173587
0.511711 0.395666 0.170077
0.536614 0.388922 0.165255
0.574426 0.397436 0.164797
0.612421 0.405493 0.165194
0.650416 0.413214 0.166751
0.688472 0.420447 0.169162
0.726314 0.427588 0.172488
0.763790 0.434668 0.178134
0.800595 0.441901 0.186069
0.836088 0.449439 0.197482
0.869780 0.458534 0.219730
0.899962 0.468879 0.248325
0.926085 0.481392 0.282689
0.223789 0.611414 0.192111
0.228061 0.614649 0.194125
0.233677 0.617823 0.195987
0.242374 0.620356 0.198428
0.254520 0.621668 0.200381
0.268925 0.621393 0.201724
0.285161 0.620417 0.202884
0.303441 0.619013 0.203922
0.323491 0.618128 0.206394
0.345129 0.617243 0.208804
0.367864 0.616541 0.211582
0.391272 0.616022 0.214725
0.414832 0.614801 0.218418
0.449012 0.601801 0.213870
0.479927 0.586267 0.208011
0.506767 0.569085 0.201724
0.529778 0.550408 0.194827
0.548821 0.530785 0.187503
0.564080 0.509941 0.180331
0.550774 0.465278 0.181827
0.541711 0.422431 0.178042
0.561364 0.409216 0.172091
0.600153 0.418647 0.172000
0.638422 0.427314 0.173373
0.676967 0.435676 0.176028
0.715328 0.443702 0.179294
0.753689 0.451667 0.184726
0.791531 0.459724 0.192447
0.828000 0.467994 0.203525
0.862303 0.476509 0.219089
0.893584 0.485817 0.241459
0.921172 0.497871 0.276127
0.245792 0.649531 0.213657
0.249973 0.652461 0.215824
0.255253 0.655299 0.218357
0.263493 0.657404 0.220279
0.274846 0.658503 0.222110
0.287816 0.658412 0.224033
0.303075 0.657343 0.224887
0.320165 0.656001 0.226291
0.339147 0.654871 0.227909
0.359808 0.653925 0.230259
0.381537 0.653193 0.233127
0.404059 0.652308 0.236210
0.426764 0.650965 0.239384
0.452766 0.645930 0.239841
0.485389 0.631312 0.233249
0.514214 0.615015 0.225864
0.539513 0.597345 0.217502
0.561334 0.578515 0.209049
0.579980 0.558618 0.200443
0.595514 0.538293 0.192081
0.582757 0.494026 0.191867
0.573175 0.450324 0.187778
0.587060 0.430274 0.179873
0.626734 0.440589 0.180575
0.665309 0.449775 0.182650
0.703975 0.458595 0.186038
0.742702 0.467292 0.190951
0.781155 0.476234 0.198123
0.818692 0.485267 0.208927
0.854124 0.494331 0.224216
0.886564 0.503746 0.244236
0.915373 0.514122 0.270787
0.270176 0.686427 0.238956
0.274693 0.688991 0.241123
0.279423 0.691554 0.243381
0.287205 0.693477 0.246159
0.297642 0.694423 0.247929
0.309514 0.694118 0.249027
0.323308 0.693111 0.250126
0.339055 0.691707 0.251133
0.356634 0.690364 0.253086
0.375830 0.689113 0.254795
0.396277 0.688014 0.257359
0.417609 0.686824 0.260075
0.439246 0.685237 0.262516
0.461189 0.683314 0.265568
0.489998 0.674372 0.262364
0.520623 0.659937 0.254276
0.548852 0.644373 0.246006
0.574151 0.627863 0.237095
0.596918 0.610529 0.228305
0.616724 0.592126 0.218814
0.633692 0.572992 0.208927
0.622461 0.529564 0.207523
0.612512 0.485115 0.201968
0.621027 0.457679 0.191501
0.662654 0.469490 0.192996
0.702358 0.479652 0.196628
0.741909 0.489570 0.202304
0.781216 0.499550 0.210544
0.819120 0.509239 0.222110
0.854673 0.518761 0.237827
0.887083 0.528588 0.259159
0.915801 0.539269 0.287083
0.307317 0.731563 0.277256
0.310185 0.732570 0.278538
0.313573 0.733211 0.279698
0.319402 0.733577 0.280766
0.327642 0.733242 0.281376
0.337957 0.732418 0.282170
0.350317 0.731289 0.282872
0.364782 0.730129 0.284123
0.381170 0.729152 0.286137
0.399390 0.728206 0.288029
0.418891 0.727443 0.291051
0.439094 0.726284 0.293584
0.459663 0.724788 0.296300
0.480568 0.722744 0.298955
0.501549 0.720394 0.301244
0.531853 0.707912 0.293065
0.560784 0.693446 0.283391
0.587396 0.677974 0.272892
0.611749 0.661372 0.262242
0.633570 0.643915 0.251133
0.652674 0.625147 0.239139
0.668788 0.605066 0.226596
0.656672 0.560723 0.222568
0.644862 0.514427 0.215335
0.646967 0.479286 0.200626
0.689448 0.492012 0.202213
0.729885 0.503044 0.207675
0.770047 0.514031 0.215366
0.809171 0.524926 0.226963
0.846098 0.535454 0.242405
0.879973 0.545922 0.263523
0.909911 0.556909 0.291203
0.337957 0.762783 0.309087
0.340642 0.763699 0.310674
0.343938 0.764431 0.312261
0.349218 0.764736 0.313146
0.356481 0.764431 0.314183
0.365301 0.763516 0.314427
0.376226 0.762295 0.314916
0.388830 0.760952 0.315862
0.403388 0.759701 0.316747
0.419806 0.758541 0.318639
0.437476 0.757565 0.321324
0.456306 0.756344 0.323919
0.475502 0.754696 0.326116
0.495155 0.752926 0.328466
0.515190 0.750851 0.330602
0.538079 0.746181 0.330205
0.567254 0.733761 0.319982
0.594934 0.720424 0.309636
0.620935 0.705928 0.298222
0.644892 0.690394 0.286473
0.666743 0.673640 0.273655
0.686183 0.655970 0.260838
0.702815 0.636652 0.246464
0.691646 0.592767 0.239658
0.673823 0.541344 0.228031
0.673457 0.502586 0.209964
0.714748 0.513268 0.211215
0.755795 0.525536 0.218570
0.796292 0.537652 0.229221
0.835050 0.549401 0.244205
0.871000 0.561120 0.265263
0.902647 0.572717 0.292638
0.380163 0.797055 0.354223
0.382940 0.797910 0.355993
0.385718 0.798306 0.357366
0.389715 0.798123 0.357580
0.395422 0.797452 0.358007
0.402441 0.796231 0.357397
0.411078 0.794766 0.357183
0.421210 0.792996 0.357000
0.433082 0.791104 0.356695
0.446723 0.789303 0.357092
0.461555 0.787320 0.357794
0.477729 0.785489 0.359258
0.494759 0.783474 0.360449
0.512230 0.781125 0.361669
0.529870 0.778470 0.362646
0.547875 0.775509 0.363592
0.571496 0.767330 0.356939
0.598444 0.755184 0.345129
0.624628 0.742519 0.333379
0.649775 0.729213 0.321538
0.673579 0.715023 0.309178
0.695460 0.699458 0.295232
0.714748 0.682277 0.280522
0.731106 0.663172 0.264225
0.719844 0.619318 0.254520
0.706142 0.571588 0.244419
0.707362 0.533349 0.223697
0.743709 0.537652 0.222477
0.784939 0.550896 0.232670
0.824949 0.563745 0.247044
0.862394 0.576287 0.267552
0.895781 0.588708 0.294774
0.413397 0.819730 0.389746
0.415991 0.820432 0.391669
0.418433 0.820798 0.392859
0.421942 0.820615 0.393072
0.426703 0.820035 0.393378
0.432746 0.819089 0.393072
0.440314 0.817899 0.392889
0.449226 0.816464 0.392554
0.460121 0.815000 0.393133
0.472419 0.813565 0.393866
0.485878 0.812100 0.394690
0.500755 0.810636 0.396185
0.516320 0.809110 0.397864
0.532403 0.807156 0.399176
0.548882 0.804959 0.400336
0.565606 0.802579 0.401343
0.582910 0.800046 0.402594
0.607843 0.790677 0.392126
0.633387 0.779995 0.379736
0.658534 0.768734 0.367529
0.682856 0.756619 0.354437
0.705959 0.743282 0.340093
0.727413 0.728634 0.324437
0.746822 0.712276 0.307042
0.763790 0.694179 0.288334
0.753872 0.651453 0.275944
0.740536 0.603784 0.263798
0.744076 0.566888 0.241306
0.776333 0.565637 0.238590
0.818326 0.580224 0.252873
0.856870 0.593835 0.273442
0.891722 0.607294 0.301518
0.451423 0.840940 0.430915
0.453407 0.841306 0.431891
0.455116 0.841367 0.432868
0.457679 0.841032 0.432868
0.461097 0.840269 0.431983
0.465888 0.839322 0.431525
0.471778 0.838132 0.430854
0.479377 0.836851 0.430488
0.488411 0.835508 0.430243
0.499031 0.834287 0.430793
0.511040 0.832944 0.431800
0.524254 0.831724 0.433356
0.538445 0.830381 0.435187
0.553002 0.828763 0.436530
0.567742 0.826871 0.437598
0.582971 0.824735 0.438605
0.598566 0.822446 0.439338
0.616480 0.818662 0.437201
0.640284 0.809873 0.425574
0.664302 0.800504 0.413214
0.688106 0.790463 0.400153
0.711360 0.779507 0.385992
0.733730 0.767269 0.370001
0.754971 0.753628 0.352605
0.774655 0.738460 0.333440
0.792355 0.721706 0.312963
0.784329 0.680812 0.298222
0.773037 0.634974 0.283513
0.778225 0.599145 0.260624
0.806363 0.592126 0.255619
0.847684 0.607568 0.274266
0.884489 0.622156 0.302281
0.486915 0.857664 0.469337
0.488289 0.857816 0.469886
0.489693 0.857847 0.470253
0.492073 0.857603 0.470680
0.495460 0.857176 0.470741
0.500267 0.856718 0.471107
0.506920 0.856321 0.472267
0.514977 0.855985 0.473884
0.524773 0.855680 0.476356
0.535821 0.855467 0.479438
0.548089 0.855100 0.482918
0.561028 0.854704 0.486549
0.574273 0.854093 0.489418
0.587915 0.853147 0.492378
0.601373 0.851865 0.494270
0.614771 0.850217 0.495613
0.628443 0.848386 0.496620
0.642603 0.846555 0.497719
0.660700 0.841794 0.491890
0.681849 0.834531 0.479835
0.703365 0.826596 0.466560
0.725154 0.817990 0.452674
0.746853 0.808377 0.436988
0.768246 0.797726 0.419348
0.789212 0.785855 0.400000
0.809384 0.772610 0.378637
0.828702 0.757961 0.355657
0.823453 0.719661 0.337469
0.815427 0.676356 0.318883
0.822568 0.641810 0.295140
0.847532 0.629572 0.288365
0.886198 0.645838 0.317174
0.537102 0.876036 0.523491
0.538109 0.876066 0.523919
0.538964 0.875975 0.524071
0.540276 0.875669 0.523461
0.542565 0.875181 0.523156
0.545769 0.874571 0.522667
0.550256 0.873991 0.522698
0.556085 0.873320 0.523186
0.563104 0.872648 0.524041
0.571313 0.871946 0.525170
0.580438 0.871183 0.526665
0.590570 0.870329 0.528740
0.601129 0.869383 0.530236
0.612146 0.868254 0.531701
0.623499 0.866972 0.532799
