其他预设/【234】港风调色预设/1.3D LUT预设（视频调色-PR-AE-PS-FCPX-达芬奇用）/27.港风色调-适合街道 __.cube
# Created by Adobe Lightroom plugin Export LUT (1.17.0)
# www.johnrellis.com/lightroom/exportlut.htm
# Preset: 27.港风色调-适合街道 [素锦印象]
# Color profile: /Library/Application Support/Adobe/Color/Profiles/Recommended/AdobeRGB1998.icc
LUT_3D_SIZE 5
DOMAIN_MIN 0.000000 0.000000 0.000000
DOMAIN_MAX 0.903226 0.903226 0.903226
0.096529 0.093996 0.091035
0.144717 0.097505 0.095125
0.332250 0.101106 0.104463
0.648219 0.090700 0.122194
0.897581 0.177615 0.208621
0.108553 0.154726 0.101015
0.164126 0.153780 0.104982
0.324529 0.165316 0.109377
0.631220 0.198367 0.126009
0.895415 0.258915 0.218296
0.154055 0.412055 0.131319
0.229953 0.412848 0.136904
0.414496 0.376593 0.142794
0.595697 0.345129 0.139956
0.858915 0.393927 0.209323
0.307317 0.731563 0.277256
0.364782 0.730129 0.284123
0.501549 0.720394 0.301244
0.668788 0.605066 0.226596
0.809171 0.524926 0.226963
0.573663 0.887358 0.562982
0.590204 0.885313 0.563622
0.635492 0.876005 0.555871
0.733272 0.859953 0.545403
0.872404 0.803464 0.420905
0.090455 0.100984 0.129915
0.142000 0.105135 0.134585
0.332616 0.104433 0.174685
0.641505 0.091402 0.210819
0.889128 0.203494 0.287633
0.110506 0.162234 0.148135
0.167269 0.162814 0.158267
0.353307 0.176089 0.175174
0.634516 0.196506 0.207218
0.883238 0.267247 0.286564
0.142336 0.409827 0.202213
0.231968 0.409430 0.214542
0.405402 0.372198 0.205661
0.599390 0.347509 0.197879
0.859953 0.401495 0.277989
0.308598 0.729000 0.336645
0.387793 0.725246 0.365942
0.512902 0.715358 0.373846
0.670008 0.609522 0.290349
0.814054 0.532128 0.276493
0.595117 0.884062 0.602197
0.609552 0.882109 0.601953
0.661067 0.876951 0.607263
0.741085 0.862333 0.591485
0.872221 0.806363 0.459724
0.000000 0.149844 0.345281
0.130556 0.110994 0.340002
0.344335 0.125490 0.334569
0.624292 0.201358 0.430182
0.881010 0.332128 0.510277
0.000000 0.280766 0.387213
0.116793 0.216526 0.377844
0.373571 0.209232 0.363684
0.638819 0.279179 0.440589
0.884062 0.390082 0.517723
0.102052 0.471473 0.428870
0.230472 0.462959 0.429572
0.451179 0.437171 0.441810
0.673732 0.444129 0.454719
0.876280 0.483650 0.501579
0.336431 0.728176 0.497566
0.399207 0.719417 0.506065
0.552239 0.707179 0.543999
0.684047 0.637232 0.473213
0.834257 0.564599 0.425727
0.597436 0.881041 0.655146
0.626947 0.878569 0.668360
0.697169 0.870817 0.696101
0.753292 0.862943 0.688930
0.862242 0.804562 0.543359
0.000000 0.257603 0.706294
0.000000 0.156497 0.700649
0.407935 0.136294 0.670466
0.642847 0.222141 0.644343
0.845457 0.458198 0.705592
0.000000 0.382605 0.717891
0.000000 0.316930 0.711635
0.407019 0.256870 0.680476
0.646662 0.308354 0.648066
0.842283 0.495644 0.707454
0.000000 0.636347 0.747646
0.267338 0.627100 0.744808
0.459205 0.519524 0.713863
0.663020 0.489815 0.664332
0.851316 0.589502 0.719997
0.379400 0.776791 0.736019
0.437171 0.767697 0.734035
0.576043 0.745113 0.732998
0.719875 0.701015 0.722591
0.861906 0.689448 0.712917
0.634852 0.878782 0.754818
0.657588 0.876524 0.760739
0.720211 0.870817 0.777951
0.788998 0.860868 0.792660
0.852659 0.813016 0.691218
0.000000 0.338689 0.897490
0.000000 0.281315 0.896269
0.307317 0.265110 0.886534
0.660121 0.325505 0.862730
0.838376 0.436744 0.845731
0.000000 0.435492 0.895109
0.000000 0.397711 0.893797
0.325628 0.352941 0.885405
0.660456 0.389166 0.860716
0.836545 0.472999 0.843809
0.309117 0.671046 0.891752
0.379553 0.658320 0.889281
0.464729 0.583490 0.883574
0.671321 0.549065 0.862547
0.838865 0.587121 0.845548
0.525658 0.825925 0.888090
0.559838 0.822507 0.886992
0.660426 0.814389 0.885527
0.738979 0.756130 0.875792
0.851164 0.742672 0.857145
0.678614 0.895323 0.872709
0.694148 0.892912 0.873045
0.746395 0.886168 0.875853
0.809079 0.875090 0.877897
0.863432 0.849668 0.868833
