其他预设/【234】港风调色预设/1.3D LUT预设（视频调色-PR-AE-PS-FCPX-达芬奇用）/28.港风色调-夸张效果 __.cube
# Created by Adobe Lightroom plugin Export LUT (1.17.0)
# www.johnrellis.com/lightroom/exportlut.htm
# Preset: 28.港风色调-夸张效果 [素锦印象]
# Color profile: /Library/Application Support/Adobe/Color/Profiles/Recommended/AdobeRGB1998.icc
LUT_3D_SIZE 32
0.000000 0.000000 0.000000
0.000000 0.007202 0.000519
0.000000 0.016846 0.000000
0.050904 0.030091 0.000000
0.095338 0.046204 0.000000
0.133272 0.060182 0.000000
0.172244 0.070130 0.000000
0.212131 0.079622 0.000000
0.252689 0.089723 0.000000
0.294560 0.099458 0.000000
0.337926 0.109071 0.000000
0.382452 0.119356 0.000000
0.427832 0.129366 0.000000
0.474189 0.140383 0.000000
0.521111 0.151492 0.000000
0.567681 0.164034 0.000000
0.611841 0.177584 0.000000
0.651606 0.191440 0.000000
0.686824 0.205264 0.000000
0.719112 0.218814 0.000000
0.749447 0.232059 0.000000
0.779232 0.243961 0.000000
0.809537 0.254856 0.000000
0.840452 0.263615 0.000000
0.872282 0.270054 0.000000
0.904082 0.274723 0.000000
0.934508 0.278355 0.000000
0.963134 0.280797 0.000000
0.989593 0.282994 0.000000
1.000000 0.284642 0.000000
1.000000 0.286290 0.000000
1.000000 0.287633 0.000000
0.000000 0.032471 0.000732
0.000000 0.039704 0.000000
0.000000 0.044495 0.000000
0.052094 0.053468 0.000000
0.096345 0.062654 0.000000
0.134463 0.071107 0.000000
0.174044 0.080140 0.000000
0.214328 0.089204 0.000000
0.255467 0.097902 0.000000
0.297795 0.107240 0.000000
0.341680 0.116335 0.000000
0.386572 0.126162 0.000000
0.432624 0.136080 0.000000
0.479591 0.146883 0.000000
0.526787 0.158053 0.000000
0.573449 0.170443 0.000000
0.617609 0.183688 0.000000
0.656947 0.197543 0.000000
0.691768 0.210697 0.000000
0.723751 0.224125 0.000000
0.753872 0.237003 0.000000
0.783413 0.248447 0.000000
0.813535 0.258701 0.000000
0.844419 0.267124 0.000000
0.876097 0.273228 0.000000
0.907561 0.277867 0.000000
0.937621 0.280919 0.000000
0.965850 0.283543 0.000000
0.991943 0.285405 0.000000
1.000000 0.287083 0.000000
1.000000 0.288609 0.000000
1.000000 0.290043 0.000000
0.000000 0.067048 0.000000
0.000000 0.069215 0.000000
0.000000 0.072084 0.000000
0.054414 0.071290 0.000000
0.097078 0.076356 0.000000
0.135744 0.083589 0.000000
0.175692 0.091798 0.000000
0.216098 0.099702 0.000000
0.257542 0.108064 0.000000
0.300237 0.116732 0.000000
0.344274 0.125551 0.000000
0.389410 0.134798 0.000000
0.435645 0.144381 0.000000
0.482612 0.154391 0.000000
0.529900 0.165591 0.000000
0.576837 0.177737 0.000000
0.620661 0.190921 0.000000
0.659876 0.204105 0.000000
0.694514 0.216892 0.000000
0.726101 0.229862 0.000000
0.756039 0.242039 0.000000
0.785489 0.253422 0.000000
0.815518 0.262913 0.000000
0.846342 0.270939 0.000000
0.877958 0.276921 0.000000
0.909331 0.281041 0.000000
0.939178 0.284001 0.000000
0.967224 0.286442 0.000000
0.993103 0.288273 0.000000
1.000000 0.289982 0.000000
1.000000 0.291203 0.000000
1.000000 0.292576 0.000000
0.000000 0.097749 0.000000
0.000000 0.098848 0.000000
0.000000 0.100740 0.000000
0.047547 0.102571 0.000000
0.096529 0.101381 0.000000
0.136202 0.104982 0.000000
0.175814 0.111879 0.000000
0.216861 0.119081 0.000000
0.258762 0.126497 0.000000
0.301518 0.134401 0.000000
0.346166 0.142580 0.000000
0.391943 0.151278 0.000000
0.438361 0.160281 0.000000
0.485695 0.169802 0.000000
0.533288 0.180026 0.000000
0.580194 0.191867 0.000000
0.623896 0.204074 0.000000
0.663020 0.216648 0.000000
0.697749 0.228824 0.000000
0.729488 0.240940 0.000000
0.759487 0.252537 0.000000
0.788937 0.262852 0.000000
0.818662 0.271885 0.000000
0.848936 0.278935 0.000000
0.879820 0.284215 0.000000
0.910338 0.287755 0.000000
0.939635 0.290379 0.000000
0.967346 0.292332 0.000000
0.993164 0.294011 0.000000
1.000000 0.295415 0.000000
1.000000 0.296574 0.000000
1.000000 0.297581 0.000000
0.000000 0.132448 0.000000
0.000000 0.133211 0.000000
0.000000 0.134371 0.000000
0.000000 0.136538 0.000000
0.092226 0.138216 0.000000
0.135683 0.136629 0.000000
0.177432 0.140078 0.000000
0.219364 0.144472 0.000000
0.261784 0.151247 0.000000
0.305180 0.158358 0.000000
0.349889 0.165927 0.000000
0.395941 0.174105 0.000000
0.442756 0.182010 0.000000
0.490028 0.190982 0.000000
0.537102 0.200534 0.000000
0.583154 0.211185 0.000000
0.625971 0.222416 0.000000
0.664271 0.233555 0.000000
0.698787 0.244724 0.000000
0.730465 0.255863 0.000000
0.760586 0.266178 0.000000
0.790249 0.275792 0.000000
0.820035 0.283848 0.000000
0.850309 0.290196 0.000000
0.881010 0.294743 0.000000
0.911376 0.297704 0.000000
0.940520 0.299870 0.000000
0.968170 0.301427 0.000000
0.993957 0.302617 0.000000
1.000000 0.303807 0.000000
1.000000 0.304448 0.000000
1.000000 0.305272 0.000000
0.000000 0.166629 0.000000
0.000000 0.166934 0.000000
0.000000 0.167941 0.000000
0.000000 0.169436 0.000000
0.067292 0.171450 0.000000
0.129122 0.173800 0.000000
0.174411 0.171084 0.000000
0.217350 0.174899 0.000000
0.261265 0.178225 0.000000
0.305241 0.183932 0.000000
0.350256 0.191409 0.000000
0.396368 0.198795 0.000000
0.443183 0.206546 0.000000
0.490761 0.214725 0.000000
0.537774 0.223941 0.000000
0.583551 0.233646 0.000000
0.626093 0.243503 0.000000
0.663966 0.253666 0.000000
0.698207 0.263340 0.000000
0.729702 0.273198 0.000000
0.759609 0.282811 0.000000
0.789090 0.290898 0.000000
0.794430 0.288701 0.000000
0.825498 0.296391 0.000000
0.857389 0.301854 0.000000
0.889708 0.305547 0.000000
0.921386 0.307927 0.000000
0.951598 0.309453 0.000000
0.979858 0.310307 0.000000
1.000000 0.310857 0.000000
1.000000 0.311345 0.000000
1.000000 0.311711 0.000000
0.000000 0.193484 0.000000
0.000000 0.193973 0.000000
0.000000 0.194705 0.000000
0.000000 0.195865 0.000000
0.000000 0.196963 0.000000
0.101625 0.199649 0.000000
0.159304 0.202426 0.000000
0.204746 0.199069 0.000000
0.247379 0.203220 0.000000
0.291203 0.207248 0.000000
0.336156 0.211093 0.000000
0.381262 0.218357 0.000000
0.427558 0.225895 0.000000
0.475135 0.234257 0.000000
0.523156 0.243076 0.000000
0.570672 0.252811 0.000000
0.614954 0.262516 0.000000
0.654414 0.271916 0.000000
0.689326 0.280797 0.000000
0.720699 0.289281 0.000000
0.749630 0.297215 0.000000
0.777340 0.304295 0.000000
0.804837 0.310185 0.000000
0.833066 0.315007 0.000000
0.862486 0.318730 0.000000
0.893248 0.321050 0.000000
0.924041 0.322759 0.000000
0.953796 0.323644 0.000000
0.981750 0.323919 0.000000
1.000000 0.324071 0.000000
1.000000 0.324041 0.000000
1.000000 0.324102 0.000000
0.000000 0.226871 0.000000
0.000000 0.227481 0.000000
0.000000 0.228275 0.000000
0.000000 0.228977 0.000000
0.000000 0.230137 0.000000
0.069062 0.232029 0.000000
0.140261 0.235264 0.000000
0.197757 0.238407 0.000000
0.245029 0.233829 0.000000
0.289128 0.238590 0.000000
0.334295 0.243168 0.000000
0.381201 0.247379 0.000000
0.428870 0.253239 0.000000
0.476692 0.261265 0.000000
0.524743 0.269841 0.000000
0.572229 0.279423 0.000000
0.616327 0.288670 0.000000
0.655818 0.297124 0.000000
0.690578 0.305089 0.000000
0.722072 0.312566 0.000000
0.751095 0.319463 0.000000
0.779080 0.325322 0.000000
0.806821 0.330388 0.000000
0.835294 0.334234 0.000000
0.864897 0.336950 0.000000
0.895628 0.338720 0.000000
0.926238 0.339574 0.000000
0.955779 0.339788 0.000000
0.983520 0.339544 0.000000
1.000000 0.339086 0.000000
1.000000 0.338628 0.000000
1.000000 0.338170 0.000000
0.000000 0.260166 0.000000
0.000000 0.260594 0.000000
0.000000 0.261265 0.000000
0.000000 0.261814 0.000000
0.000000 0.262974 0.000000
0.000000 0.264195 0.000000
0.112764 0.267063 0.000000
0.177829 0.270481 0.000000
0.235843 0.273777 0.000000
0.284215 0.269627 0.000000
0.330022 0.273533 0.000000
0.376806 0.278569 0.000000
0.425238 0.283818 0.000000
0.474983 0.288945 0.000000
0.523522 0.296757 0.000000
0.571008 0.305913 0.000000
0.615503 0.314885 0.000000
0.654963 0.323003 0.000000
0.689845 0.329808 0.000000
0.721492 0.336675 0.000000
0.750820 0.342504 0.000000
0.779049 0.347539 0.000000
0.807279 0.351598 0.000000
0.835966 0.354742 0.000000
0.865812 0.356664 0.000000
0.896666 0.357610 0.000000
0.927276 0.357885 0.000000
0.956817 0.357427 0.000000
0.984527 0.356695 0.000000
1.000000 0.355779 0.000000
1.000000 0.354742 0.000000
1.000000 0.353704 0.000000
0.000000 0.293339 0.000000
0.000000 0.293706 0.000000
0.000000 0.294377 0.000000
0.000000 0.295109 0.000000
0.000000 0.296056 0.000000
0.000000 0.297429 0.000000
0.070039 0.298680 0.000000
0.153567 0.302434 0.000000
0.216831 0.306188 0.000000
0.274998 0.309636 0.000000
0.325048 0.306432 0.000000
0.372778 0.309239 0.000000
0.421149 0.315221 0.000000
0.470283 0.320958 0.000000
0.519982 0.326543 0.000000
0.568688 0.332341 0.000000
0.612329 0.340642 0.000000
0.651514 0.347845 0.000000
0.686519 0.354284 0.000000
0.718624 0.360113 0.000000
0.748867 0.365881 0.000000
0.778195 0.370581 0.000000
0.807492 0.374212 0.000000
0.837186 0.376776 0.000000
0.867796 0.378088 0.000000
0.898802 0.378363 0.000000
0.929229 0.377691 0.000000
0.958343 0.376654 0.000000
0.985626 0.375158 0.000000
1.000000 0.373602 0.000000
1.000000 0.371984 0.000000
1.000000 0.370336 0.000000
0.000000 0.328099 0.000000
0.000000 0.328496 0.000000
0.000000 0.328832 0.000000
0.000000 0.329625 0.000000
0.000000 0.330205 0.000000
0.000000 0.330999 0.000000
0.031678 0.331823 0.000000
0.119326 0.333532 0.000000
0.192905 0.337285 0.000000
0.255253 0.341161 0.000000
0.314183 0.345006 0.000000
0.365667 0.342657 0.000000
0.415320 0.344579 0.000000
0.464668 0.351385 0.000000
0.514397 0.357763 0.000000
0.563287 0.363928 0.000000
0.609186 0.369055 0.000000
0.649500 0.374182 0.000000
0.684932 0.380011 0.000000
0.717372 0.385504 0.000000
0.747860 0.390417 0.000000
0.777401 0.394324 0.000000
0.806882 0.397375 0.000000
0.836820 0.399176 0.000000
0.867674 0.399908 0.000000
0.898924 0.399512 0.000000
0.929595 0.398413 0.000000
0.958923 0.396735 0.000000
0.986358 0.394690 0.000000
1.000000 0.392584 0.000000
1.000000 0.390387 0.000000
1.000000 0.388190 0.000000
0.000000 0.361578 0.000000
0.000000 0.361730 0.000000
0.000000 0.362127 0.000000
0.000000 0.362768 0.000000
0.000000 0.363226 0.000000
0.000000 0.363622 0.000000
0.000000 0.364050 0.000000
0.088777 0.364477 0.000000
0.162783 0.367041 0.000000
0.231479 0.370977 0.000000
0.293278 0.374914 0.000000
0.352422 0.379034 0.000000
0.384466 0.361273 0.000000
0.433722 0.362676 0.000000
0.482185 0.370275 0.000000
0.530938 0.377478 0.000000
0.578759 0.384497 0.000000
0.622766 0.389990 0.000000
0.662562 0.393866 0.000000
0.697902 0.399634 0.000000
0.730434 0.405432 0.000000
0.761593 0.410346 0.000000
0.792691 0.414343 0.000000
0.824063 0.417090 0.000000
0.856199 0.418311 0.000000
0.888701 0.418219 0.000000
0.920806 0.417121 0.000000
0.951537 0.415320 0.000000
0.980377 0.413153 0.000000
1.000000 0.410651 0.000000
1.000000 0.408148 0.000000
1.000000 0.405524 0.000000
0.000000 0.385565 0.000000
0.000000 0.385962 0.000000
0.000000 0.386694 0.000000
0.000000 0.387884 0.000000
0.000000 0.389258 0.000000
0.000000 0.390600 0.000000
0.000000 0.391455 0.000000
0.062562 0.391974 0.000000
0.120821 0.391943 0.000000
0.200290 0.395270 0.000000
0.264988 0.398383 0.000000
0.324224 0.401007 0.000000
0.380896 0.403723 0.000000
0.431159 0.401831 0.000000
0.479927 0.400366 0.000000
0.527459 0.407660 0.000000
0.574945 0.414923 0.000000
0.619043 0.420844 0.000000
0.659144 0.425177 0.000000
0.696468 0.428504 0.000000
0.730617 0.431342 0.000000
0.762081 0.435798 0.000000
0.793454 0.439216 0.000000
0.825162 0.441199 0.000000
0.857664 0.441871 0.000000
0.890379 0.441169 0.000000
0.922515 0.439460 0.000000
0.953246 0.437201 0.000000
0.981903 0.434394 0.000000
1.000000 0.431373 0.000000
1.000000 0.428321 0.000000
1.000000 0.425177 0.000000
0.000000 0.419287 0.000000
0.000000 0.419501 0.000000
0.000000 0.420050 0.000000
0.000000 0.421210 0.000000
0.000000 0.422431 0.000000
0.000000 0.423651 0.000000
0.000000 0.424414 0.000000
0.000000 0.424903 0.000000
0.106264 0.424689 0.000000
0.166140 0.425422 0.000000
0.240085 0.428626 0.000000
0.303563 0.431800 0.000000
0.362768 0.434791 0.000000
0.420539 0.438331 0.000000
0.474769 0.439582 0.000000
0.522698 0.435889 0.000000
0.570153 0.443885 0.000000
0.614466 0.450477 0.000000
0.655085 0.455177 0.000000
0.692805 0.458869 0.000000
0.727687 0.461402 0.000000
0.761044 0.462470 0.000000
0.793362 0.463813 0.000000
0.825284 0.465309 0.000000
0.858000 0.465370 0.000000
0.890867 0.464088 0.000000
0.923095 0.461952 0.000000
0.953826 0.459083 0.000000
0.982483 0.455879 0.000000
1.000000 0.452369 0.000000
1.000000 0.448829 0.000000
1.000000 0.445045 0.000000
0.000000 0.451453 0.000000
0.000000 0.451606 0.000000
0.000000 0.452064 0.000000
0.000000 0.453101 0.000000
0.000000 0.454627 0.000000
0.000000 0.455787 0.000000
0.000000 0.456458 0.000000
0.000000 0.456733 0.000000
0.085359 0.456519 0.000000
0.140566 0.455726 0.000000
0.208988 0.457313 0.000000
0.278813 0.460609 0.000000
0.341497 0.463996 0.000000
0.401404 0.467781 0.000000
0.460151 0.472236 0.000000
0.517784 0.476692 0.000000
0.563500 0.470558 0.000000
0.608576 0.477943 0.000000
0.649744 0.483497 0.000000
0.688136 0.487831 0.000000
0.723659 0.490791 0.000000
0.757595 0.492134 0.000000
0.791226 0.492042 0.000000
0.825040 0.490028 0.000000
0.858061 0.488991 0.000000
0.891020 0.487221 0.000000
0.922911 0.484443 0.000000
0.953246 0.481117 0.000000
0.981506 0.477180 0.000000
1.000000 0.473121 0.000000
1.000000 0.468879 0.000000
1.000000 0.464637 0.000000
0.000000 0.482643 0.000000
0.000000 0.482582 0.000000
0.000000 0.482918 0.000000
0.000000 0.483589 0.000000
0.000000 0.484504 0.000000
0.000000 0.485145 0.000000
0.000000 0.485328 0.000000
0.000000 0.485267 0.000000
0.042206 0.484840 0.000000
0.124453 0.484108 0.000000
0.170565 0.483131 0.000000
0.249058 0.487129 0.000000
0.316747 0.491463 0.000000
0.379980 0.496132 0.000000
0.440955 0.501244 0.000000
0.500694 0.506920 0.000000
0.558984 0.513024 0.000000
0.601617 0.505211 0.000000
0.643580 0.510155 0.000000
0.682246 0.514885 0.000000
0.717952 0.518151 0.000000
0.752193 0.519799 0.000000
0.786038 0.519799 0.000000
0.820005 0.518059 0.000000
0.854643 0.514366 0.000000
0.888884 0.509697 0.000000
0.920928 0.506493 0.000000
0.951415 0.502739 0.000000
0.979950 0.498604 0.000000
1.000000 0.494087 0.000000
1.000000 0.489631 0.000000
1.000000 0.485054 0.000000
0.000000 0.513756 0.000000
0.000000 0.513909 0.000000
0.000000 0.514153 0.000000
0.000000 0.514824 0.000000
0.000000 0.515618 0.000000
0.000000 0.516167 0.000000
0.000000 0.516289 0.000000
0.000000 0.516106 0.000000
0.000000 0.515618 0.000000
0.105501 0.514946 0.000000
0.159121 0.513848 0.000000
0.214145 0.514214 0.000000
0.289128 0.518547 0.000000
0.355962 0.523278 0.000000
0.419135 0.528466 0.000000
0.480018 0.534173 0.000000
0.538903 0.540063 0.000000
0.595483 0.546105 0.000000
0.636194 0.538415 0.000000
0.676570 0.541283 0.000000
0.713069 0.545281 0.000000
0.747829 0.547417 0.000000
0.782010 0.547814 0.000000
0.816526 0.546227 0.000000
0.851469 0.542626 0.000000
0.886320 0.537285 0.000000
0.919890 0.530755 0.000000
0.951019 0.525048 0.000000
0.979522 0.520439 0.000000
1.000000 0.515557 0.000000
1.000000 0.510552 0.000000
1.000000 0.505577 0.000000
0.000000 0.542992 0.000000
0.000000 0.542840 0.000000
0.000000 0.530419 0.000000
0.000000 0.531060 0.000000
0.000000 0.531884 0.000000
0.000000 0.532891 0.000000
0.000000 0.533410 0.000000
0.000000 0.533837 0.000000
0.000000 0.533989 0.000000
0.072175 0.533684 0.000000
0.139315 0.533288 0.000000
0.185245 0.532799 0.000000
0.251102 0.535790 0.000000
0.322606 0.541314 0.000000
0.387884 0.547082 0.000000
0.450202 0.553002 0.000000
0.510338 0.559167 0.000000
0.567590 0.565423 0.000000
0.622644 0.571862 0.000000
0.662409 0.564996 0.000000
0.701900 0.566491 0.000000
0.737697 0.570031 0.000000
0.772793 0.571466 0.000000
0.808103 0.570916 0.000000
0.844205 0.568414 0.000000
0.880400 0.563928 0.000000
0.915557 0.557824 0.000000
0.948547 0.550591 0.000000
0.978759 0.542687 0.000000
1.000000 0.537133 0.000000
1.000000 0.531762 0.000000
1.000000 0.526360 0.000000
0.000000 0.569268 0.000000
0.000000 0.567834 0.000000
0.000000 0.566308 0.000000
0.000000 0.565332 0.000000
0.000000 0.564874 0.000000
0.000000 0.565332 0.000000
0.000000 0.565545 0.000000
0.000000 0.565789 0.000000
0.000000 0.565850 0.000000
0.000000 0.565667 0.000000
0.122621 0.565240 0.000000
0.174868 0.564721 0.000000
0.217014 0.564355 0.000000
0.294713 0.569390 0.000000
0.364233 0.574914 0.000000
0.429114 0.580652 0.000000
0.490578 0.586542 0.000000
0.548943 0.592493 0.000000
0.604425 0.598505 0.000000
0.657069 0.604334 0.000000
0.694881 0.597314 0.000000
0.732723 0.595636 0.000000
0.768185 0.597528 0.000000
0.803769 0.597375 0.000000
0.840116 0.594995 0.000000
0.876677 0.590661 0.000000
0.912200 0.584680 0.000000
0.945586 0.577569 0.000000
0.976257 0.569635 0.000000
1.000000 0.561120 0.000000
1.000000 0.552941 0.000000
1.000000 0.547173 0.000000
0.000000 0.600122 0.000000
0.000000 0.598779 0.000000
0.000000 0.597528 0.000000
0.000000 0.596551 0.000000
0.000000 0.596246 0.000000
0.000000 0.596643 0.000000
0.000000 0.596826 0.000000
0.000000 0.596979 0.000000
0.000000 0.596918 0.000000
0.000000 0.596735 0.000000
0.100313 0.596277 0.000000
0.162112 0.595758 0.000000
0.208316 0.595453 0.000000
0.261051 0.596674 0.000000
0.337102 0.601953 0.000000
0.405524 0.607355 0.000000
0.468818 0.612940 0.000000
0.528679 0.618524 0.000000
0.584955 0.624079 0.000000
0.638148 0.629450 0.000000
0.688472 0.634668 0.000000
0.724849 0.627070 0.000000
0.762661 0.622400 0.000000
0.798642 0.622705 0.000000
0.835447 0.620813 0.000000
0.872587 0.616785 0.000000
0.908721 0.611017 0.000000
0.942748 0.604028 0.000000
0.974029 0.596155 0.000000
1.000000 0.587640 0.000000
1.000000 0.578698 0.000000
1.000000 0.569574 0.000000
0.000000 0.630121 0.000000
0.000000 0.628901 0.000000
0.000000 0.627741 0.000000
0.000000 0.626917 0.000000
0.000000 0.626551 0.000000
0.000000 0.626917 0.000000
0.000000 0.627283 0.000000
0.000000 0.627466 0.000000
0.000000 0.627405 0.000000
0.000000 0.627314 0.000000
0.065400 0.626978 0.000000
0.146670 0.626642 0.000000
0.197879 0.626276 0.000000
0.240635 0.625971 0.000000
0.305882 0.628809 0.000000
0.379095 0.633631 0.000000
0.445106 0.638239 0.000000
0.506157 0.642817 0.000000
0.562768 0.647181 0.000000
0.615900 0.651331 0.000000
0.665644 0.655482 0.000000
0.713649 0.659358 0.000000
0.749538 0.651148 0.000000
0.787778 0.643549 0.000000
0.824338 0.642390 0.000000
0.861723 0.639094 0.000000
0.898497 0.633906 0.000000
0.933379 0.627344 0.000000
0.965728 0.619806 0.000000
0.995239 0.611475 0.000000
1.000000 0.602747 0.000000
1.000000 0.593683 0.000000
0.000000 0.654383 0.000000
0.000000 0.653925 0.000000
0.000000 0.653498 0.000000
0.000000 0.653468 0.000000
0.000000 0.653651 0.000000
0.000000 0.654322 0.000000
0.000000 0.654902 0.000000
0.000000 0.654932 0.000000
0.000000 0.654749 0.000000
0.000000 0.654353 0.000000
0.000000 0.653895 0.000000
0.124544 0.653376 0.000000
0.183627 0.653010 0.000000
0.229770 0.652735 0.000000
0.269993 0.652552 0.000000
0.347326 0.656764 0.000000
0.417182 0.661158 0.000000
0.480751 0.665461 0.000000
0.539391 0.669673 0.000000
0.593866 0.673732 0.000000
0.644953 0.677760 0.000000
0.693294 0.681727 0.000000
0.741390 0.685328 0.000000
0.779049 0.676967 0.000000
0.819242 0.666621 0.000000
0.857237 0.663813 0.000000
0.894530 0.659022 0.000000
0.930022 0.652644 0.000000
0.962982 0.645167 0.000000
0.993042 0.636957 0.000000
1.000000 0.628260 0.000000
1.000000 0.619135 0.000000
0.000000 0.683345 0.000000
0.000000 0.682826 0.000000
0.000000 0.682490 0.000000
0.000000 0.682338 0.000000
0.000000 0.682551 0.000000
0.000000 0.683162 0.000000
0.000000 0.684047 0.000000
0.000000 0.684138 0.000000
0.000000 0.684138 0.000000
0.000000 0.683925 0.000000
0.000000 0.683497 0.000000
0.098146 0.683040 0.000000
0.168887 0.682673 0.000000
0.219364 0.682307 0.000000
0.262211 0.682033 0.000000
0.313176 0.682887 0.000000
0.388983 0.686641 0.000000
0.455970 0.690272 0.000000
0.516747 0.693751 0.000000
0.572656 0.697230 0.000000
0.624506 0.700557 0.000000
0.673030 0.703792 0.000000
0.720119 0.706844 0.000000
0.769070 0.709163 0.000000
0.811978 0.702510 0.000000
0.853758 0.689479 0.000000
0.891844 0.684199 0.000000
0.927947 0.678065 0.000000
0.961456 0.670741 0.000000
0.991943 0.662531 0.000000
1.000000 0.653712 0.000000
1.000000 0.644526 0.000000
0.000000 0.707607 0.000000
0.000000 0.707057 0.000000
0.000000 0.706752 0.000000
0.000000 0.706874 0.000000
0.000000 0.707393 0.000000
0.000000 0.708186 0.000000
0.000000 0.709316 0.000000
0.000000 0.710018 0.000000
0.000000 0.710384 0.000000
0.000000 0.710658 0.000000
0.000000 0.710811 0.000000
0.040345 0.710780 0.000000
0.150362 0.710750 0.000000
0.206821 0.710780 0.000000
0.253056 0.710994 0.000000
0.294133 0.711177 0.000000
0.358495 0.713466 0.000000
0.430457 0.716915 0.000000
0.494575 0.719997 0.000000
0.552331 0.722713 0.000000
0.605402 0.725277 0.000000
0.654749 0.727901 0.000000
0.701839 0.730556 0.000000
0.749538 0.732876 0.000000
0.801389 0.734127 0.000000
0.844327 0.724605 0.000000
0.886351 0.710201 0.000000
0.924163 0.702296 0.000000
0.958648 0.695308 0.000000
0.989899 0.687312 0.000000
1.000000 0.678614 0.000000
1.000000 0.669368 0.000000
0.000000 0.736110 0.000000
0.000000 0.735592 0.000000
0.000000 0.735317 0.000000
0.000000 0.735470 0.000000
0.000000 0.735897 0.000000
0.000000 0.736629 0.000000
0.000000 0.737575 0.000000
0.000000 0.738277 0.000000
0.000000 0.738491 0.000000
0.000000 0.738521 0.000000
0.000000 0.738491 0.000000
0.000000 0.738277 0.000000
0.126589 0.738094 0.000000
0.191897 0.737911 0.000000
0.241672 0.737911 0.000000
0.284764 0.737942 0.000000
0.324010 0.737881 0.000000
0.399451 0.740505 0.000000
0.467414 0.743008 0.000000
0.528069 0.745235 0.000000
0.582940 0.747311 0.000000
0.633570 0.749416 0.000000
0.680964 0.751614 0.000000
0.727504 0.753567 0.000000
0.776669 0.754818 0.000000
0.831327 0.754604 0.000000
0.876768 0.744656 0.000000
0.917296 0.728847 0.000000
0.953521 0.718471 0.000000
0.985687 0.710780 0.000000
1.000000 0.702205 0.000000
1.000000 0.693111 0.000000
0.000000 0.762600 0.000000
0.000000 0.762264 0.000000
0.000000 0.762234 0.000000
0.000000 0.762509 0.000000
0.000000 0.763149 0.000000
0.000000 0.763973 0.000000
0.000000 0.764981 0.000000
0.000000 0.765927 0.000000
0.000000 0.766110 0.000000
0.000000 0.766171 0.000000
0.000000 0.766079 0.000000
0.000000 0.765835 0.000000
0.093904 0.765530 0.000000
0.174960 0.765316 0.000000
0.229435 0.765255 0.000000
0.275273 0.765225 0.000000
0.316289 0.765225 0.000000
0.365576 0.765682 0.000000
0.439277 0.767666 0.000000
0.503532 0.769345 0.000000
0.560815 0.770901 0.000000
0.613031 0.772396 0.000000
0.661402 0.773953 0.000000
0.707668 0.775479 0.000000
0.755032 0.776516 0.000000
0.806516 0.776425 0.000000
0.863920 0.774594 0.000000
0.912779 0.765316 0.000000
0.949187 0.747585 0.000000
0.983215 0.734737 0.000000
1.000000 0.726375 0.000000
1.000000 0.717372 0.000000
0.000000 0.789792 0.000000
0.000000 0.789609 0.000000
0.000000 0.789578 0.000000
0.000000 0.789822 0.000000
0.000000 0.790158 0.000000
0.000000 0.790616 0.000000
0.000000 0.790921 0.000000
0.000000 0.791196 0.000000
0.000000 0.790646 0.000000
0.000000 0.789883 0.000000
0.000000 0.788907 0.000000
0.000000 0.787961 0.000000
0.000000 0.787076 0.000000
0.148470 0.786374 0.000000
0.210056 0.785885 0.000000
0.259190 0.785733 0.000000
0.302129 0.785611 0.000000
0.341222 0.785458 0.000000
0.402441 0.786191 0.000000
0.471443 0.787472 0.000000
0.531884 0.788602 0.000000
0.586389 0.789761 0.000000
0.636255 0.790951 0.000000
0.682856 0.792233 0.000000
0.728939 0.793240 0.000000
0.777432 0.793454 0.000000
0.830900 0.792264 0.000000
0.889311 0.789456 0.000000
0.940276 0.781003 0.000000
0.972778 0.762051 0.000000
1.000000 0.747494 0.000000
1.000000 0.739040 0.000000
0.000000 0.811276 0.000000
0.000000 0.811215 0.000000
0.000000 0.811307 0.000000
0.000000 0.811673 0.000000
0.000000 0.812192 0.000000
0.000000 0.812833 0.000000
0.000000 0.813535 0.000000
0.000000 0.814206 0.000000
0.000000 0.814328 0.000000
0.000000 0.814084 0.000000
0.000000 0.813748 0.000000
0.000000 0.813382 0.000000
0.000000 0.813016 0.000000
0.120089 0.812650 0.000000
0.193454 0.812436 0.000000
