其他预设/【234】港风调色预设/1.3D LUT预设（视频调色-PR-AE-PS-FCPX-达芬奇用）/28.港风色调-夸张效果 __.cube
# Created by Adobe Lightroom plugin Export LUT (1.17.0)
# www.johnrellis.com/lightroom/exportlut.htm
# Preset: 28.港风色调-夸张效果 [素锦印象]
# Color profile: /Library/Application Support/Adobe/Color/Profiles/Recommended/AdobeRGB1998.icc
LUT_3D_SIZE 8
DOMAIN_MIN 0.000000 0.000000 0.000000
DOMAIN_MAX 0.903226 0.903226 0.903226
0.000000 0.000000 0.000000
0.095338 0.046204 0.000000
0.252689 0.089723 0.000000
0.427832 0.129366 0.000000
0.611841 0.177584 0.000000
0.749447 0.232059 0.000000
0.872282 0.270054 0.000000
0.989593 0.282994 0.000000
0.000000 0.132448 0.000000
0.092226 0.138216 0.000000
0.261784 0.151247 0.000000
0.442756 0.182010 0.000000
0.625971 0.222416 0.000000
0.760586 0.266178 0.000000
0.881010 0.294743 0.000000
0.993957 0.302617 0.000000
0.000000 0.260166 0.000000
0.000000 0.262974 0.000000
0.235843 0.273777 0.000000
0.425238 0.283818 0.000000
0.615503 0.314885 0.000000
0.750820 0.342504 0.000000
0.865812 0.356664 0.000000
0.984527 0.356695 0.000000
0.000000 0.385565 0.000000
0.000000 0.389258 0.000000
0.120821 0.391943 0.000000
0.380896 0.403723 0.000000
0.574945 0.414923 0.000000
0.730617 0.431342 0.000000
0.857664 0.441871 0.000000
0.981903 0.434394 0.000000
0.000000 0.513756 0.000000
0.000000 0.515618 0.000000
0.000000 0.515618 0.000000
0.289128 0.518547 0.000000
0.538903 0.540063 0.000000
0.713069 0.545281 0.000000
0.851469 0.542626 0.000000
0.979522 0.520439 0.000000
0.000000 0.630121 0.000000
0.000000 0.626551 0.000000
0.000000 0.627405 0.000000
0.197879 0.626276 0.000000
0.445106 0.638239 0.000000
0.665644 0.655482 0.000000
0.824338 0.642390 0.000000
0.965728 0.619806 0.000000
0.000000 0.736110 0.000000
0.000000 0.735897 0.000000
0.000000 0.738491 0.000000
0.126589 0.738094 0.000000
0.324010 0.737881 0.000000
0.582940 0.747311 0.000000
0.776669 0.754818 0.000000
0.953521 0.718471 0.000000
0.000000 0.837308 0.000000
0.000000 0.838132 0.000000
0.000000 0.839994 0.000000
0.000000 0.838102 0.000000
0.285100 0.842771 0.000000
0.482124 0.840513 0.000000
0.691096 0.838956 0.000000
0.897704 0.830594 0.000000
0.000000 0.017304 0.115389
0.102327 0.031647 0.113405
0.267002 0.028199 0.098878
0.446235 0.137728 0.098756
0.630182 0.185550 0.075685
0.765652 0.243565 0.047333
0.886046 0.280674 0.032929
0.998077 0.295537 0.054170
0.000000 0.144625 0.112947
0.099550 0.142184 0.111177
0.265934 0.159274 0.105989
0.448371 0.186374 0.093538
0.633631 0.226627 0.069123
0.768978 0.274235 0.041688
0.891569 0.304204 0.041840
1.000000 0.314885 0.068086
0.000000 0.269871 0.097902
0.037263 0.271336 0.099489
0.242435 0.278141 0.080415
0.437140 0.286748 0.065461
0.627161 0.321416 0.011505
0.761807 0.350408 0.000000
0.882719 0.366064 0.000000
0.995239 0.366369 0.040101
0.000000 0.398718 0.099306
0.000000 0.400244 0.082460
0.144015 0.401434 0.036072
0.397681 0.417304 0.000000
0.600580 0.430762 0.000000
0.749874 0.444587 0.000000
0.876005 0.450813 0.000000
0.992493 0.442054 0.009613
0.000000 0.518456 0.100343
0.000000 0.520989 0.056886
0.034974 0.523247 0.000000
0.293950 0.527825 0.000000
0.552026 0.550927 0.000000
0.723720 0.552941 0.000000
0.861509 0.546715 0.000000
0.986114 0.525139 0.000000
0.000000 0.636225 0.090425
0.000000 0.636805 0.007935
0.000000 0.637934 0.000000
0.211948 0.635096 0.000000
0.448371 0.643610 0.000000
0.669306 0.658595 0.000000
0.829404 0.644923 0.000000
0.971069 0.622034 0.000000
0.000000 0.743191 0.087800
0.000000 0.744930 0.000000
0.000000 0.747097 0.000000
0.143801 0.744594 0.000000
0.332311 0.742397 0.000000
0.585657 0.751308 0.000000
0.782956 0.759274 0.000000
0.961151 0.721889 0.000000
0.000000 0.840665 0.089601
0.000000 0.840909 0.000000
0.000000 0.842741 0.000000
0.000000 0.840787 0.000000
0.286137 0.839445 0.000000
0.478126 0.839261 0.000000
0.691249 0.839963 0.000000
0.900969 0.831998 0.000000
0.037781 0.017243 0.243198
0.124941 0.016205 0.239902
0.249699 0.048188 0.231022
0.399084 0.086793 0.232029
0.607568 0.000000 0.214908
0.753475 0.259251 0.259159
0.875853 0.310918 0.273594
0.990723 0.335180 0.286168
0.000000 0.132082 0.240787
0.125246 0.142824 0.238834
0.251164 0.143221 0.232212
0.414649 0.154452 0.235142
0.618463 0.163699 0.222477
0.756802 0.292210 0.264561
0.879576 0.331548 0.276432
0.992554 0.351141 0.289006
0.000000 0.282292 0.230838
0.086854 0.280339 0.229679
0.246555 0.274174 0.226780
0.426947 0.292485 0.231937
0.611322 0.321355 0.240085
0.750484 0.358099 0.252689
0.875792 0.384680 0.269230
0.990967 0.395026 0.285527
0.000000 0.398901 0.198062
0.006073 0.398779 0.202243
0.213077 0.401892 0.212161
0.394965 0.411078 0.196139
0.593683 0.421180 0.206638
0.739651 0.444678 0.229313
0.867582 0.459236 0.252995
0.986755 0.459327 0.276066
0.000000 0.522393 0.206302
0.000000 0.522698 0.209781
0.171603 0.524346 0.203464
0.286778 0.522271 0.178927
0.545983 0.543938 0.171084
0.719783 0.549065 0.192477
0.859770 0.546685 0.231083
0.982940 0.535515 0.262791
0.000000 0.637751 0.221073
0.000000 0.637568 0.222995
0.104036 0.639399 0.198734
0.247318 0.639307 0.158175
0.443763 0.644282 0.151949
0.671839 0.660487 0.149783
0.832853 0.646632 0.183108
0.970642 0.623835 0.230076
0.000000 0.741390 0.237644
0.000000 0.741970 0.239353
0.000000 0.744930 0.196719
0.183841 0.746212 0.128145
0.352178 0.744320 0.115846
0.581353 0.750668 0.120882
0.781186 0.757321 0.136049
0.957183 0.720302 0.182712
0.000000 0.839200 0.257969
0.000000 0.839719 0.257328
0.000000 0.842161 0.196170
0.000000 0.841367 0.065187
0.302800 0.840116 0.011994
0.467506 0.838865 0.000000
0.687648 0.839231 0.061494
0.900603 0.830716 0.109651
0.098604 0.000000 0.419989
0.158022 0.000000 0.413123
0.270390 0.000000 0.397833
0.401007 0.004517 0.385016
0.530205 0.125399 0.382696
0.715206 0.125826 0.401617
0.865293 0.200198 0.389532
0.986267 0.367254 0.452216
0.097780 0.144198 0.407904
0.155642 0.141543 0.405249
0.268254 0.133272 0.395117
0.399237 0.134829 0.383062
0.531304 0.179294 0.383825
0.720974 0.186984 0.402899
0.869322 0.253025 0.395941
0.985809 0.412665 0.475868
0.000000 0.272404 0.408942
0.123995 0.270817 0.407782
0.272129 0.280583 0.398260
0.400061 0.271550 0.384253
0.556725 0.288609 0.393194
0.728634 0.313512 0.397803
0.860105 0.421820 0.453132
0.979858 0.463935 0.485481
0.000000 0.423011 0.385931
0.000000 0.422370 0.386236
0.240208 0.417700 0.384680
0.395544 0.406470 0.379492
0.582544 0.434546 0.403021
0.728450 0.469215 0.429145
0.860044 0.495949 0.454902
0.978668 0.508324 0.475196
0.000000 0.524804 0.326085
0.000000 0.526238 0.330632
0.217136 0.527611 0.344762
0.359472 0.525750 0.359564
0.540246 0.537133 0.351934
0.712245 0.547662 0.385443
0.851164 0.560937 0.425116
0.975463 0.564294 0.455543
0.000000 0.637446 0.335821
0.000000 0.634394 0.335546
0.186221 0.636194 0.346654
0.323705 0.636652 0.347204
0.426764 0.635096 0.322789
0.666163 0.655787 0.339147
0.830198 0.647944 0.378454
0.968444 0.632593 0.422156
0.000000 0.743282 0.348608
0.000000 0.742733 0.349981
0.149966 0.741482 0.355291
0.281498 0.741176 0.337652
0.384649 0.740841 0.302556
0.568627 0.745266 0.307774
0.779477 0.755276 0.334508
0.955932 0.722286 0.376287
0.000000 0.838102 0.358801
0.000000 0.837675 0.359228
0.083436 0.837095 0.362737
0.225772 0.838102 0.329046
0.335027 0.839475 0.279332
0.468055 0.837827 0.268162
0.681086 0.838224 0.291081
0.901457 0.829221 0.320562
0.166842 0.000000 0.578271
0.208164 0.000000 0.574578
0.308629 0.000000 0.565942
0.416449 0.000000 0.545373
0.547356 0.000000 0.536614
0.660426 0.147677 0.529900
0.801938 0.217350 0.542412
0.961212 0.270909 0.539544
0.165286 0.140444 0.573724
0.205142 0.136294 0.569055
0.304662 0.124544 0.562188
0.416114 0.108553 0.545464
0.547539 0.118654 0.536889
0.659968 0.195163 0.529808
0.804990 0.252415 0.543511
0.963165 0.303868 0.542382
0.113741 0.271580 0.570733
0.200015 0.286656 0.566766
0.306310 0.283482 0.562127
0.418616 0.265537 0.548638
0.548516 0.266178 0.537804
0.661524 0.306798 0.532708
0.818906 0.353033 0.550866
0.970397 0.405554 0.558190
0.000000 0.422644 0.563714
0.127047 0.421637 0.563897
0.288518 0.417090 0.562310
0.427497 0.418036 0.548882
0.544244 0.404059 0.533501
0.675532 0.433936 0.541650
0.839933 0.482124 0.564843
0.973877 0.548760 0.597162
0.000000 0.562646 0.540612
0.000000 0.561181 0.539849
0.235782 0.556695 0.538262
0.398077 0.547356 0.534600
0.541222 0.535088 0.530022
0.703761 0.575128 0.562219
0.849393 0.605310 0.587884
0.972839 0.619959 0.604425
0.000000 0.648951 0.464210
0.000000 0.649042 0.466957
0.220554 0.650050 0.477516
0.375494 0.648890 0.495125
0.509636 0.646632 0.512902
0.666987 0.657252 0.512078
0.833188 0.659541 0.549462
0.967590 0.661158 0.578515
0.000000 0.748470 0.465187
0.000000 0.748806 0.467475
0.186069 0.748440 0.474372
0.345159 0.745815 0.485847
0.466194 0.742977 0.488380
0.556725 0.742031 0.466194
0.783658 0.755764 0.501610
0.958892 0.731838 0.543206
0.000000 0.843320 0.469276
0.000000 0.843290 0.470558
0.146242 0.842527 0.475288
0.312108 0.837766 0.479255
0.423713 0.836912 0.469825
0.507927 0.837644 0.439673
0.674739 0.837980 0.452766
0.908659 0.828946 0.487739
0.247074 0.000000 0.674037
0.274449 0.000000 0.672663
0.353521 0.000000 0.670649
0.452644 0.000000 0.661280
0.553491 0.000000 0.648829
0.673304 0.000000 0.645075
0.776089 0.192477 0.635126
0.906981 0.283207 0.634546
0.253910 0.138796 0.677577
0.280674 0.136385 0.676692
0.357214 0.122774 0.673396
0.456123 0.108431 0.664424
0.555138 0.082246 0.650782
0.675013 0.130587 0.646296
0.777340 0.231235 0.635767
0.910491 0.309575 0.635950
0.262425 0.296910 0.672236
0.287755 0.295232 0.672053
0.360113 0.286931 0.669642
0.455848 0.271092 0.662531
0.553521 0.251621 0.649378
0.672908 0.269657 0.644190
0.775601 0.325994 0.634607
0.918395 0.384710 0.638788
0.209476 0.403388 0.674464
0.247135 0.405676 0.673884
0.358465 0.421698 0.668421
0.465187 0.423743 0.658259
0.553216 0.397681 0.645502
0.665614 0.400427 0.637659
0.769558 0.437446 0.631403
0.931731 0.484199 0.644221
0.157626 0.555138 0.663111
0.211551 0.554376 0.662776
0.334356 0.552270 0.661891
0.471809 0.551812 0.659937
0.576684 0.550500 0.649836
0.667445 0.533288 0.637537
0.790066 0.562524 0.642115
0.959258 0.603418 0.662806
0.000000 0.683070 0.645258
0.109651 0.680995 0.644251
0.273167 0.677119 0.643153
0.420111 0.670283 0.641352
0.551904 0.661860 0.639155
0.665217 0.649134 0.633478
0.834379 0.686244 0.664179
0.967926 0.704524 0.686549
0.000000 0.752834 0.578485
0.000000 0.751644 0.577447
0.231327 0.749630 0.575799
0.373816 0.747005 0.581598
0.510826 0.743618 0.596674
0.628046 0.740505 0.611902
0.789609 0.751369 0.620844
0.961669 0.745693 0.656916
0.000000 0.844816 0.563226
0.000000 0.844755 0.564569
0.205264 0.843992 0.568658
0.350195 0.840940 0.575097
0.487617 0.836515 0.587884
0.594934 0.832883 0.594965
0.671748 0.833249 0.579309
0.920775 0.826841 0.610529
0.321630 0.000000 0.770047
0.341253 0.000000 0.769314
0.401587 0.000000 0.766842
0.486427 0.000000 0.760769
0.578271 0.000000 0.751492
0.674372 0.000000 0.742031
0.795773 0.099153 0.737850
0.917174 0.237797 0.721614
0.325811 0.149874 0.769497
0.344793 0.147646 0.768826
0.403540 0.137209 0.766506
0.487404 0.124178 0.761135
0.578515 0.116701 0.751736
0.673732 0.112093 0.741787
0.795712 0.163577 0.737636
0.917174 0.268345 0.721584
0.344671 0.308385 0.767636
0.361578 0.306310 0.767025
0.414618 0.299077 0.764797
0.491646 0.284703 0.760616
0.579919 0.273228 0.751278
0.671351 0.259312 0.740200
0.794705 0.285100 0.736110
0.916136 0.351476 0.721187
0.343786 0.427955 0.767178
0.376867 0.438331 0.766140
0.452613 0.457557 0.762325
0.513024 0.443610 0.758358
0.587976 0.423590 0.750881
0.668574 0.396399 0.737789
0.793362 0.412909 0.733577
0.914885 0.454841 0.720943
0.333806 0.544030 0.764828
0.362951 0.546014 0.764736
0.447669 0.554498 0.764309
0.532616 0.566217 0.759609
0.612543 0.569360 0.751003
0.677943 0.538231 0.738521
0.793027 0.534691 0.730739
0.914031 0.559594 0.722011
0.281621 0.665827 0.752071
0.313573 0.665614 0.752010
0.403357 0.665675 0.751736
0.513085 0.666987 0.751461
0.620172 0.671565 0.751980
0.703609 0.669184 0.742153
0.793545 0.646052 0.727596
0.927062 0.665187 0.732143
0.185885 0.781216 0.735836
0.228061 0.780392 0.735653
0.332494 0.777401 0.735073
0.452399 0.772427 0.734157
0.568566 0.766201 0.732723
0.678309 0.758328 0.730404
0.796292 0.744198 0.725093
0.965972 0.773648 0.768521
0.138033 0.849638 0.667750
0.183810 0.849058 0.667384
0.286503 0.846891 0.666224
0.404059 0.842924 0.664393
0.523369 0.837766 0.667781
0.638849 0.832700 0.685237
0.754299 0.826017 0.701503
0.934630 0.823789 0.718502
0.367559 0.077852 0.856291
0.382361 0.073548 0.855985
0.429358 0.054566 0.854948
0.499641 0.000000 0.852811
0.583093 0.044068 0.848051
0.668757 0.048127 0.841672
0.777859 0.064759 0.836698
0.926818 0.112245 0.832975
0.372869 0.169863 0.855863
0.387030 0.168124 0.855558
0.432563 0.159518 0.854582
0.501030 0.142123 0.852689
0.583703 0.148501 0.847929
0.668940 0.144594 0.841581
0.777737 0.144656 0.836515
0.926879 0.169986 0.832792
0.395911 0.318181 0.854246
0.408240 0.316625 0.853971
0.448249 0.310460 0.853117
0.510094 0.297978 0.851377
0.587366 0.289586 0.847379
0.670344 0.279606 0.841215
0.777310 0.270665 0.835599
0.926879 0.285161 0.831907
0.453315 0.473243 0.851347
0.461891 0.471687 0.851133
0.490700 0.465797 0.850370
0.538109 0.454108 0.848936
0.600031 0.435981 0.846403
0.676326 0.419318 0.840482
0.777279 0.398260 0.834012
0.927092 0.408026 0.830381
0.438911 0.548363 0.852354
0.453712 0.551446 0.851957
0.505058 0.565270 0.850309
0.589929 0.596826 0.846525
0.632227 0.579309 0.844572
0.693141 0.555108 0.840208
0.779477 0.521263 0.831998
0.928008 0.526543 0.828580
0.427649 0.650996 0.847715
0.447028 0.652613 0.847623
0.505333 0.658503 0.847471
0.584405 0.669062 0.847440
0.657465 0.679103 0.846006
0.731167 0.679408 0.840726
0.800320 0.646357 0.832364
0.929992 0.635401 0.826780
0.373175 0.753231 0.840787
0.394141 0.753292 0.840757
0.456977 0.753506 0.840696
0.542901 0.754726 0.840696
0.638880 0.757900 0.841062
0.749874 0.762051 0.842252
0.842771 0.756985 0.837064
0.933257 0.731594 0.825528
0.275731 0.861601 0.832334
0.302556 0.860899 0.832303
0.378454 0.858701 0.832090
0.477852 0.855009 0.831724
0.582238 0.850401 0.831235
0.692775 0.843748 0.830533
0.817563 0.832609 0.829221
0.937469 0.816556 0.824857
