其他预设/【234】港风调色预设/1.3D LUT预设（视频调色-PR-AE-PS-FCPX-达芬奇用）/28.港风色调-夸张效果 __.cube
# Created by Adobe Lightroom plugin Export LUT (1.17.0)
# www.johnrellis.com/lightroom/exportlut.htm
# Preset: 28.港风色调-夸张效果 [素锦印象]
# Color profile: /Library/Application Support/Adobe/Color/Profiles/Recommended/AdobeRGB1998.icc
LUT_3D_SIZE 5
DOMAIN_MIN 0.000000 0.000000 0.000000
DOMAIN_MAX 0.903226 0.903226 0.903226
0.000000 0.000000 0.000000
0.212131 0.079622 0.000000
0.521111 0.151492 0.000000
0.779232 0.243961 0.000000
0.989593 0.282994 0.000000
0.000000 0.226871 0.000000
0.197757 0.238407 0.000000
0.524743 0.269841 0.000000
0.779080 0.325322 0.000000
0.983520 0.339544 0.000000
0.000000 0.451453 0.000000
0.000000 0.456733 0.000000
0.460151 0.472236 0.000000
0.757595 0.492134 0.000000
0.981506 0.477180 0.000000
0.000000 0.654383 0.000000
0.000000 0.654932 0.000000
0.269993 0.652552 0.000000
0.693294 0.681727 0.000000
0.962982 0.645167 0.000000
0.000000 0.837308 0.000000
0.000000 0.839719 0.000000
0.179873 0.843656 0.000000
0.542473 0.840024 0.000000
0.897704 0.830594 0.000000
0.013794 0.018158 0.211337
0.214908 0.044129 0.200504
0.527550 0.000000 0.182437
0.791592 0.272892 0.220249
0.995697 0.323400 0.238987
0.000000 0.247745 0.197848
0.210117 0.241428 0.194644
0.529503 0.278935 0.199008
0.787503 0.343114 0.211978
0.993103 0.370367 0.234592
0.000000 0.462043 0.174990
0.142824 0.466499 0.173800
0.477058 0.483925 0.140536
0.769589 0.497719 0.172488
0.984375 0.490394 0.216922
0.000000 0.657252 0.193729
0.000000 0.657862 0.155978
0.294987 0.656947 0.082856
0.695644 0.683467 0.058717
0.966064 0.647059 0.163760
0.000000 0.836271 0.224399
0.000000 0.838712 0.155673
0.197086 0.839506 0.000000
0.533379 0.837827 0.000000
0.897459 0.829374 0.000000
0.128298 0.000000 0.505272
0.260380 0.000000 0.493172
0.475990 0.000000 0.464515
0.716640 0.164401 0.475776
0.979553 0.280125 0.474067
0.070405 0.236362 0.495735
0.256687 0.247745 0.488014
0.475349 0.232822 0.464179
0.731014 0.290959 0.481605
0.978943 0.409247 0.510552
0.000000 0.496284 0.469886
0.191318 0.492378 0.468849
0.471595 0.472969 0.460121
0.750149 0.534752 0.512779
0.974212 0.567224 0.550256
0.000000 0.667567 0.400214
0.144961 0.669215 0.410071
0.406165 0.666163 0.424628
0.693385 0.682734 0.425147
0.967315 0.665034 0.504082
0.000000 0.841855 0.415991
0.000000 0.840177 0.418677
0.330694 0.838193 0.399573
0.513451 0.838407 0.353155
0.906004 0.829984 0.410010
0.272801 0.000000 0.702541
0.348455 0.000000 0.698238
0.513481 0.000000 0.682094
0.704555 0.019104 0.669215
0.901884 0.283757 0.654749
0.284398 0.263127 0.700099
0.354864 0.254704 0.697322
0.515831 0.229557 0.683467
0.705470 0.242466 0.669429
0.904692 0.364904 0.657435
0.243473 0.483925 0.698604
0.358862 0.487465 0.697932
0.541344 0.501549 0.683406
0.701991 0.476509 0.664820
0.933318 0.537591 0.669062
0.000000 0.708003 0.665858
0.252934 0.705837 0.666133
0.494392 0.694606 0.663325
0.696040 0.675929 0.656062
0.969207 0.725490 0.709773
0.000000 0.845548 0.584222
0.182864 0.844297 0.587518
0.427680 0.838468 0.600031
0.631464 0.830838 0.619898
0.925231 0.826505 0.637720
0.367559 0.077852 0.856291
0.414984 0.062623 0.855314
0.540856 0.011566 0.850614
0.691127 0.027131 0.839750
0.926818 0.112245 0.832975
0.387549 0.279911 0.854734
0.429450 0.274144 0.853849
0.545098 0.254887 0.850065
0.691951 0.240116 0.839475
0.926818 0.254643 0.832181
0.439551 0.506676 0.852018
0.505394 0.532250 0.849668
0.586542 0.521202 0.846647
0.703273 0.481971 0.838499
0.927459 0.468086 0.829526
0.416236 0.676081 0.846036
0.477302 0.680018 0.845884
0.620050 0.694881 0.846006
0.758663 0.700801 0.839841
0.930724 0.660761 0.826444
0.275731 0.861601 0.832334
0.356176 0.859403 0.832181
0.529961 0.852811 0.831510
0.722866 0.841459 0.830289
0.937469 0.816556 0.824857
