其他预设/【234】港风调色预设/1.3D LUT预设（视频调色-PR-AE-PS-FCPX-达芬奇用）/29.港风色调-夸张效果 __.cube
# Created by Adobe Lightroom plugin Export LUT (1.17.0)
# www.johnrellis.com/lightroom/exportlut.htm
# Preset: 29.港风色调-夸张效果 [素锦印象]
# Color profile: /Library/Application Support/Adobe/Color/Profiles/Recommended/AdobeRGB1998.icc
LUT_3D_SIZE 5
DOMAIN_MIN 0.000000 0.000000 0.000000
DOMAIN_MAX 0.903226 0.903226 0.903226
0.000000 0.079957 0.043610
0.185885 0.092988 0.018250
0.566918 0.162234 0.000000
0.822110 0.252964 0.000000
1.000000 0.236362 0.000000
0.000000 0.216464 0.000000
0.175753 0.229557 0.000000
0.559075 0.267796 0.000000
0.817288 0.325719 0.000000
1.000000 0.299168 0.000000
0.000000 0.459236 0.000000
0.000000 0.468727 0.000000
0.518791 0.503990 0.000000
0.800565 0.498024 0.000000
1.000000 0.443977 0.000000
0.000000 0.695918 0.000000
0.000000 0.702480 0.000000
0.249943 0.714595 0.000000
0.734066 0.744259 0.000000
1.000000 0.642542 0.000000
0.000000 0.890990 0.000000
0.000000 0.893919 0.000000
0.000000 0.897551 0.000000
0.546685 0.896880 0.000000
0.941711 0.877684 0.000000
0.000000 0.080293 0.164950
0.174685 0.083436 0.163485
0.539300 0.000000 0.145663
0.814267 0.266392 0.193668
1.000000 0.296880 0.249149
0.000000 0.226017 0.162783
0.173007 0.220584 0.160159
0.546960 0.256657 0.158724
0.810361 0.332799 0.184268
1.000000 0.344030 0.249027
0.000000 0.456123 0.142855
0.000000 0.465187 0.126833
0.509300 0.494209 0.071870
0.797024 0.489509 0.135897
1.000000 0.466804 0.242649
0.000000 0.692744 0.169345
0.000000 0.698421 0.119936
0.274937 0.712123 0.000000
0.731746 0.741878 0.000000
1.000000 0.646326 0.213901
0.000000 0.887999 0.223819
0.000000 0.890867 0.160586
0.103609 0.896696 0.000000
0.542748 0.896239 0.087800
0.943542 0.876890 0.189639
0.111208 0.024475 0.482795
0.237919 0.000000 0.478004
0.459846 0.000000 0.458198
0.722133 0.060700 0.482124
1.000000 0.285649 0.505730
0.000000 0.213077 0.489784
0.220890 0.218235 0.482826
0.462867 0.187167 0.461555
0.735775 0.257359 0.490486
1.000000 0.444465 0.558587
0.000000 0.487129 0.475166
0.000000 0.483040 0.473823
0.463172 0.453407 0.460822
0.760769 0.551537 0.547051
1.000000 0.598932 0.592523
0.000000 0.684474 0.378576
0.000000 0.687831 0.384649
0.389899 0.694881 0.431891
0.715480 0.730434 0.470466
1.000000 0.682734 0.556725
0.000000 0.884611 0.402228
0.000000 0.884977 0.410010
0.330938 0.885832 0.430793
0.541955 0.889952 0.445167
0.949889 0.872801 0.502708
0.276280 0.000000 0.689479
0.346380 0.000000 0.687190
0.511406 0.000000 0.675135
0.694453 0.000000 0.664973
0.911131 0.229221 0.650080
0.273228 0.232456 0.690394
0.343175 0.219181 0.687922
0.510857 0.164431 0.676692
0.693294 0.170016 0.664210
0.912322 0.320562 0.650874
0.192813 0.452705 0.694820
0.343969 0.458320 0.692927
0.545922 0.471717 0.677852
0.687953 0.441535 0.659968
0.961486 0.529900 0.666743
0.000000 0.723171 0.666285
0.000000 0.719966 0.665644
0.456245 0.706233 0.662684
0.680323 0.682612 0.652705
1.000000 0.769986 0.734218
0.000000 0.879850 0.556085
0.000000 0.880308 0.558801
0.337713 0.878904 0.575891
0.631983 0.875456 0.629145
0.970489 0.866484 0.669337
0.379736 0.064179 0.845670
0.424140 0.000000 0.844877
0.545342 0.000000 0.842313
0.667964 0.000000 0.831846
0.934478 0.000000 0.826658
0.397650 0.260105 0.844846
0.437751 0.249271 0.844114
0.549096 0.200870 0.841672
0.666804 0.165621 0.831662
0.934874 0.130037 0.825742
0.473945 0.493019 0.843717
0.530755 0.516136 0.841459
0.589685 0.498543 0.838956
0.672145 0.442908 0.832090
0.938842 0.418585 0.823819
0.380255 0.656001 0.845365
0.466438 0.662745 0.844114
0.608484 0.694667 0.841337
0.744167 0.709377 0.833707
0.948089 0.655421 0.822202
0.000000 0.894041 0.828336
0.230503 0.891722 0.828122
0.482643 0.884825 0.827848
0.675654 0.877836 0.827329
0.955322 0.843687 0.819120
