其他预设/【234】港风调色预设/1.3D LUT预设（视频调色-PR-AE-PS-FCPX-达芬奇用）/29.港风色调-夸张效果 __.cube
# Created by Adobe Lightroom plugin Export LUT (1.17.0)
# www.johnrellis.com/lightroom/exportlut.htm
# Preset: 29.港风色调-夸张效果 [素锦印象]
# Color profile: /Library/Application Support/Adobe/Color/Profiles/Recommended/AdobeRGB1998.icc
LUT_3D_SIZE 32
0.000000 0.079957 0.043610
0.000000 0.079957 0.043610
0.000000 0.079957 0.043610
0.009094 0.080934 0.042390
0.077424 0.080659 0.039704
0.111238 0.081086 0.035889
0.146670 0.085695 0.028962
0.185885 0.092988 0.018250
0.229770 0.101503 0.002960
0.278416 0.111147 0.000000
0.332006 0.121462 0.000000
0.388769 0.133028 0.000000
0.447364 0.143191 0.000000
0.507042 0.152987 0.000000
0.566918 0.162234 0.000000
0.624720 0.171145 0.000000
0.672663 0.182528 0.000000
0.707851 0.198398 0.000000
0.734066 0.216373 0.000000
0.759518 0.233219 0.000000
0.788083 0.246036 0.000000
0.822110 0.252964 0.000000
0.861143 0.253849 0.000000
0.900969 0.251041 0.000000
0.938628 0.246525 0.000000
0.972930 0.242039 0.000000
1.000000 0.238468 0.000000
1.000000 0.236515 0.000000
1.000000 0.236362 0.000000
1.000000 0.238376 0.000000
1.000000 0.241733 0.000000
1.000000 0.246250 0.000000
0.000000 0.079957 0.043610
0.000000 0.079957 0.043610
0.000000 0.079957 0.043610
0.013153 0.080751 0.042329
0.078614 0.080812 0.039551
0.111055 0.085725 0.034546
0.146609 0.091524 0.027131
0.185641 0.099184 0.016175
0.229496 0.107179 0.000885
0.278141 0.116701 0.000000
0.331487 0.127016 0.000000
0.388281 0.137881 0.000000
0.446723 0.147951 0.000000
0.506401 0.157443 0.000000
0.566278 0.166476 0.000000
0.624109 0.175448 0.000000
0.672023 0.186557 0.000000
0.707362 0.201755 0.000000
0.733639 0.219364 0.000000
0.759060 0.236088 0.000000
0.787472 0.248569 0.000000
0.821378 0.255375 0.000000
0.860349 0.256291 0.000000
0.900175 0.253361 0.000000
0.937957 0.248936 0.000000
0.972320 0.244480 0.000000
1.000000 0.240665 0.000000
1.000000 0.238773 0.000000
1.000000 0.238560 0.000000
1.000000 0.240269 0.000000
1.000000 0.243473 0.000000
1.000000 0.247929 0.000000
0.000000 0.079957 0.043610
0.000000 0.079957 0.043610
0.000000 0.081025 0.044434
0.017792 0.084871 0.041016
0.078157 0.088930 0.037171
0.111238 0.093812 0.031952
0.146334 0.099428 0.024475
0.185458 0.106142 0.013581
0.229191 0.114290 0.000000
0.277806 0.123445 0.000000
0.331121 0.133761 0.000000
0.387701 0.144503 0.000000
0.446235 0.154055 0.000000
0.505852 0.163638 0.000000
0.565576 0.172702 0.000000
0.623560 0.181003 0.000000
0.671534 0.191958 0.000000
0.706935 0.206668 0.000000
0.733333 0.223545 0.000000
0.758694 0.239872 0.000000
0.787076 0.252171 0.000000
0.820920 0.258824 0.000000
0.859861 0.259617 0.000000
0.899718 0.256657 0.000000
0.937530 0.252079 0.000000
0.971954 0.247471 0.000000
1.000000 0.243809 0.000000
1.000000 0.241703 0.000000
1.000000 0.241215 0.000000
1.000000 0.242985 0.000000
1.000000 0.245975 0.000000
1.000000 0.250156 0.000000
0.000000 0.105928 0.039704
0.000000 0.107179 0.039246
0.000000 0.108888 0.036408
0.007507 0.110964 0.032044
0.077333 0.106905 0.030854
0.110689 0.109010 0.026429
0.145907 0.113954 0.018830
0.185214 0.120333 0.007660
0.228824 0.128267 0.000000
0.277409 0.137270 0.000000
0.330571 0.147524 0.000000
0.387030 0.157076 0.000000
0.445289 0.166720 0.000000
0.504753 0.176181 0.000000
0.564660 0.184634 0.000000
0.622583 0.192905 0.000000
0.670741 0.202823 0.000000
0.706233 0.216587 0.000000
0.732723 0.232578 0.000000
0.757992 0.247929 0.000000
0.786282 0.259525 0.000000
0.819974 0.265873 0.000000
0.858915 0.266545 0.000000
0.898894 0.263523 0.000000
0.936919 0.258976 0.000000
0.971527 0.254215 0.000000
1.000000 0.250309 0.000000
1.000000 0.248020 0.000000
1.000000 0.247349 0.000000
1.000000 0.248692 0.000000
1.000000 0.251438 0.000000
1.000000 0.255253 0.000000
0.000000 0.133181 0.034485
0.000000 0.133944 0.034089
0.000000 0.134920 0.026032
0.000000 0.137240 0.021485
0.069459 0.137881 0.017121
0.108888 0.132631 0.015869
0.145388 0.133700 0.009644
0.184543 0.138888 0.000000
0.228367 0.146456 0.000000
0.276829 0.155673 0.000000
0.329534 0.165072 0.000000
0.385870 0.174594 0.000000
0.444038 0.184024 0.000000
0.503380 0.193362 0.000000
0.563195 0.201785 0.000000
0.621210 0.209415 0.000000
0.669612 0.218662 0.000000
0.705318 0.231174 0.000000
0.732021 0.245823 0.000000
0.757290 0.260014 0.000000
0.785458 0.270909 0.000000
0.819120 0.276768 0.000000
0.858061 0.277195 0.000000
0.898131 0.273960 0.000000
0.936248 0.269291 0.000000
0.970977 0.264256 0.000000
1.000000 0.260227 0.000000
1.000000 0.257450 0.000000
1.000000 0.256657 0.000000
1.000000 0.257450 0.000000
1.000000 0.259709 0.000000
1.000000 0.263035 0.000000
0.000000 0.159243 0.027802
0.000000 0.160006 0.025147
0.000000 0.160952 0.013733
0.000000 0.162875 0.007050
0.012634 0.164279 0.003418
0.102510 0.165988 0.000000
0.143282 0.160769 0.000000
0.183230 0.164065 0.000000
0.227543 0.167880 0.000000
0.276036 0.175784 0.000000
0.328618 0.185183 0.000000
0.384680 0.195010 0.000000
0.442573 0.204654 0.000000
0.501946 0.213748 0.000000
0.561700 0.221897 0.000000
0.619806 0.229343 0.000000
0.668391 0.237675 0.000000
0.704250 0.248997 0.000000
0.731106 0.262486 0.000000
0.756405 0.275425 0.000000
0.784634 0.285405 0.000000
0.818387 0.290532 0.000000
0.861479 0.290776 0.000000
0.901457 0.287205 0.000000
0.939239 0.282292 0.000000
0.973449 0.277195 0.000000
1.000000 0.272984 0.000000
1.000000 0.270085 0.000000
1.000000 0.268894 0.000000
1.000000 0.269352 0.000000
1.000000 0.271153 0.000000
1.000000 0.273838 0.000000
0.000000 0.187228 0.015534
0.000000 0.187716 0.006470
0.000000 0.188754 0.000000
0.000000 0.190463 0.000000
0.000000 0.192142 0.000000
0.077577 0.194400 0.000000
0.138003 0.196719 0.000000
0.181186 0.191165 0.000000
0.225681 0.196414 0.000000
0.274998 0.201907 0.000000
0.328496 0.207553 0.000000
0.384466 0.217441 0.000000
0.442298 0.227268 0.000000
0.501579 0.236454 0.000000
0.561273 0.244541 0.000000
0.619074 0.251743 0.000000
0.667506 0.259648 0.000000
0.703639 0.269932 0.000000
0.730556 0.282078 0.000000
0.756069 0.293706 0.000000
0.784634 0.302831 0.000000
0.818967 0.307225 0.000000
0.858640 0.306859 0.000000
0.899260 0.303075 0.000000
0.937621 0.297856 0.000000
0.972259 0.292576 0.000000
1.000000 0.288090 0.000000
1.000000 0.284825 0.000000
1.000000 0.282994 0.000000
1.000000 0.282933 0.000000
1.000000 0.283970 0.000000
1.000000 0.285924 0.000000
0.000000 0.216464 0.000000
0.000000 0.217105 0.000000
0.000000 0.217838 0.000000
0.000000 0.219303 0.000000
0.000000 0.220981 0.000000
0.005097 0.223545 0.000000
0.116548 0.226535 0.000000
0.175753 0.229557 0.000000
0.222324 0.223575 0.000000
0.271580 0.230503 0.000000
0.325109 0.237278 0.000000
0.381964 0.243137 0.000000
0.440345 0.250340 0.000000
0.499458 0.259648 0.000000
0.559075 0.267796 0.000000
0.616938 0.275090 0.000000
0.665705 0.282719 0.000000
0.702052 0.292119 0.000000
0.729030 0.303014 0.000000
0.754543 0.313603 0.000000
0.783047 0.321721 0.000000
0.817288 0.325719 0.000000
0.856962 0.324956 0.000000
0.897704 0.320989 0.000000
0.936217 0.315618 0.000000
0.971038 0.310094 0.000000
1.000000 0.305150 0.000000
1.000000 0.301427 0.000000
1.000000 0.299168 0.000000
1.000000 0.298222 0.000000
1.000000 0.298802 0.000000
1.000000 0.299962 0.000000
0.000000 0.247929 0.000000
0.000000 0.248386 0.000000
0.000000 0.249088 0.000000
0.000000 0.250340 0.000000
0.000000 0.252049 0.000000
0.000000 0.254246 0.000000
0.084077 0.257633 0.000000
0.156497 0.261295 0.000000
0.217411 0.264958 0.000000
0.267491 0.259770 0.000000
0.321172 0.266484 0.000000
0.377783 0.273899 0.000000
0.436713 0.280186 0.000000
0.497108 0.284581 0.000000
0.556756 0.291997 0.000000
0.614771 0.299596 0.000000
0.663874 0.307042 0.000000
0.700374 0.315709 0.000000
0.727352 0.325414 0.000000
0.752926 0.334997 0.000000
0.781399 0.342382 0.000000
0.815640 0.345769 0.000000
0.855344 0.344671 0.000000
0.896178 0.340581 0.000000
0.934844 0.335058 0.000000
0.969848 0.329198 0.000000
1.000000 0.323949 0.000000
1.000000 0.319707 0.000000
1.000000 0.316838 0.000000
1.000000 0.315343 0.000000
1.000000 0.315099 0.000000
1.000000 0.315557 0.000000
0.000000 0.280827 0.000000
0.000000 0.281285 0.000000
0.000000 0.282048 0.000000
0.000000 0.283299 0.000000
0.000000 0.284947 0.000000
0.000000 0.287175 0.000000
0.000000 0.289921 0.000000
0.130587 0.293950 0.000000
0.199771 0.298192 0.000000
0.262791 0.302464 0.000000
0.315587 0.297673 0.000000
0.373205 0.303075 0.000000
0.431952 0.310948 0.000000
0.491981 0.317205 0.000000
0.553155 0.321508 0.000000
0.612757 0.324681 0.000000
0.661921 0.332189 0.000000
0.698512 0.340093 0.000000
0.725673 0.348943 0.000000
0.751186 0.357610 0.000000
0.779751 0.364294 0.000000
0.813840 0.367254 0.000000
0.853544 0.365789 0.000000
0.894347 0.361547 0.000000
0.933165 0.355718 0.000000
0.968383 0.349645 0.000000
0.999359 0.344030 0.000000
1.000000 0.339422 0.000000
1.000000 0.335943 0.000000
1.000000 0.333745 0.000000
1.000000 0.332769 0.000000
1.000000 0.332525 0.000000
0.000000 0.315190 0.000000
0.000000 0.315587 0.000000
0.000000 0.316320 0.000000
0.000000 0.317571 0.000000
0.000000 0.319158 0.000000
0.000000 0.321324 0.000000
0.000000 0.323949 0.000000
0.086366 0.327398 0.000000
0.175784 0.331975 0.000000
0.245518 0.336675 0.000000
0.311437 0.341283 0.000000
0.366430 0.336767 0.000000
0.426795 0.340459 0.000000
0.487098 0.348577 0.000000
0.548028 0.354650 0.000000
0.607935 0.358465 0.000000
0.658778 0.360388 0.000000
0.696162 0.364935 0.000000
0.723537 0.373022 0.000000
0.749172 0.380987 0.000000
0.777707 0.387091 0.000000
0.811795 0.389563 0.000000
0.851591 0.388037 0.000000
0.892607 0.383551 0.000000
0.931640 0.377539 0.000000
0.967010 0.371191 0.000000
0.998138 0.365240 0.000000
1.000000 0.360143 0.000000
1.000000 0.356146 0.000000
1.000000 0.353307 0.000000
1.000000 0.351476 0.000000
1.000000 0.350530 0.000000
0.000000 0.350500 0.000000
0.000000 0.350958 0.000000
0.000000 0.351507 0.000000
0.000000 0.352667 0.000000
0.000000 0.354498 0.000000
0.000000 0.356512 0.000000
0.000000 0.358923 0.000000
0.003815 0.361822 0.000000
0.140688 0.366003 0.000000
0.222629 0.371099 0.000000
0.293706 0.376135 0.000000
0.362463 0.381262 0.000000
0.421668 0.378607 0.000000
0.484779 0.380468 0.000000
0.545953 0.388159 0.000000
0.605768 0.393530 0.000000
0.656580 0.396674 0.000000
0.694514 0.398596 0.000000
0.722805 0.400183 0.000000
0.748745 0.406500 0.000000
0.777523 0.411780 0.000000
0.811887 0.413581 0.000000
0.851804 0.411536 0.000000
0.892821 0.406683 0.000000
0.931731 0.400458 0.000000
0.967010 0.393866 0.000000
0.998077 0.387518 0.000000
1.000000 0.381964 0.000000
1.000000 0.377447 0.000000
1.000000 0.373999 0.000000
1.000000 0.371618 0.000000
1.000000 0.369787 0.000000
0.000000 0.386999 0.000000
0.000000 0.387457 0.000000
0.000000 0.387945 0.000000
0.000000 0.389044 0.000000
0.000000 0.390814 0.000000
0.000000 0.392615 0.000000
0.000000 0.394781 0.000000
0.000000 0.397406 0.000000
0.081971 0.400458 0.000000
0.191104 0.405890 0.000000
0.271427 0.411597 0.000000
0.344701 0.417273 0.000000
0.415839 0.423011 0.000000
0.474556 0.418982 0.000000
0.538842 0.418067 0.000000
0.599084 0.425330 0.000000
0.650690 0.429633 0.000000
0.689509 0.432227 0.000000
0.718318 0.434180 0.000000
0.745235 0.435492 0.000000
0.774838 0.435676 0.000000
0.809201 0.437293 0.000000
0.849180 0.435126 0.000000
0.890410 0.430121 0.000000
0.929595 0.423713 0.000000
0.965148 0.416815 0.000000
0.996490 0.410193 0.000000
1.000000 0.404181 0.000000
1.000000 0.399054 0.000000
1.000000 0.395026 0.000000
1.000000 0.391882 0.000000
1.000000 0.389441 0.000000
0.000000 0.422919 0.000000
0.000000 0.423255 0.000000
0.000000 0.423743 0.000000
0.000000 0.424811 0.000000
0.000000 0.426429 0.000000
0.000000 0.428321 0.000000
0.000000 0.430457 0.000000
0.000000 0.433051 0.000000
0.037812 0.435981 0.000000
0.143893 0.440009 0.000000
0.241154 0.445869 0.000000
0.320836 0.451820 0.000000
0.395087 0.457771 0.000000
0.467628 0.463661 0.000000
0.530480 0.461677 0.000000
0.591638 0.455512 0.000000
0.644129 0.461311 0.000000
0.684016 0.464820 0.000000
0.713497 0.467170 0.000000
0.740536 0.468879 0.000000
0.770291 0.468421 0.000000
0.805814 0.464240 0.000000
0.846464 0.459113 0.000000
0.888029 0.454078 0.000000
0.927459 0.447486 0.000000
0.963348 0.440314 0.000000
0.994903 0.433295 0.000000
1.000000 0.426856 0.000000
1.000000 0.421271 0.000000
1.000000 0.416663 0.000000
1.000000 0.412909 0.000000
1.000000 0.409674 0.000000
0.000000 0.459236 0.000000
0.000000 0.459632 0.000000
0.000000 0.459968 0.000000
0.000000 0.461006 0.000000
0.000000 0.462562 0.000000
0.000000 0.464485 0.000000
0.000000 0.466377 0.000000
0.000000 0.468727 0.000000
0.000000 0.471473 0.000000
0.102388 0.474556 0.000000
0.199893 0.479530 0.000000
0.290776 0.485634 0.000000
0.370031 0.491829 0.000000
0.444984 0.498024 0.000000
0.518791 0.503990 0.000000
0.584985 0.504021 0.000000
0.636957 0.491737 0.000000
0.678035 0.496193 0.000000
0.708339 0.499275 0.000000
0.735561 0.501549 0.000000
0.765194 0.501549 0.000000
0.800565 0.498024 0.000000
0.842069 0.490272 0.000000
0.885252 0.479103 0.000000
0.925231 0.471534 0.000000
0.961425 0.464149 0.000000
0.993317 0.456794 0.000000
1.000000 0.449989 0.000000
1.000000 0.443977 0.000000
1.000000 0.438758 0.000000
1.000000 0.434394 0.000000
1.000000 0.430579 0.000000
0.000000 0.495308 0.000000
0.000000 0.495674 0.000000
0.000000 0.496101 0.000000
0.000000 0.496986 0.000000
0.000000 0.498512 0.000000
0.000000 0.500450 0.000000
0.000000 0.502220 0.000000
0.000000 0.504479 0.000000
0.000000 0.506981 0.000000
0.069215 0.509880 0.000000
0.143587 0.513115 0.000000
0.252689 0.519066 0.000000
0.339788 0.525200 0.000000
0.418524 0.531487 0.000000
0.493660 0.537407 0.000000
0.567315 0.542809 0.000000
0.631403 0.544579 0.000000
0.671077 0.527855 0.000000
0.702754 0.530266 0.000000
0.730373 0.533257 0.000000
0.759976 0.533989 0.000000
0.795285 0.531121 0.000000
0.836912 0.524071 0.000000
0.880613 0.513512 0.000000
0.922210 0.500725 0.000000
0.959747 0.488350 0.000000
0.991882 0.480659 0.000000
1.000000 0.473457 0.000000
1.000000 0.466957 0.000000
1.000000 0.461250 0.000000
1.000000 0.456245 0.000000
1.000000 0.451759 0.000000
0.000000 0.530755 0.000000
0.000000 0.531090 0.000000
0.000000 0.531456 0.000000
0.000000 0.532311 0.000000
0.000000 0.533715 0.000000
0.000000 0.535637 0.000000
0.000000 0.537469 0.000000
0.000000 0.539452 0.000000
0.000000 0.541802 0.000000
0.000000 0.544427 0.000000
0.121767 0.547448 0.000000
0.200870 0.551476 0.000000
0.302831 0.557519 0.000000
0.387152 0.563317 0.000000
0.464485 0.568872 0.000000
0.538567 0.573785 0.000000
0.608881 0.578454 0.000000
0.666682 0.583124 0.000000
0.695857 0.564233 0.000000
0.724636 0.564019 0.000000
0.754238 0.565545 0.000000
0.789364 0.563439 0.000000
0.831052 0.557061 0.000000
0.875273 0.547112 0.000000
0.917571 0.534752 0.000000
0.955962 0.521233 0.000000
0.989715 0.507286 0.000000
1.000000 0.497078 0.000000
1.000000 0.490089 0.000000
1.000000 0.483864 0.000000
1.000000 0.478309 0.000000
1.000000 0.473213 0.000000
0.000000 0.565789 0.000000
0.000000 0.566094 0.000000
0.000000 0.568383 0.000000
0.000000 0.569177 0.000000
0.000000 0.570428 0.000000
0.000000 0.572107 0.000000
0.000000 0.573968 0.000000
0.000000 0.575647 0.000000
0.000000 0.577691 0.000000
0.000000 0.580011 0.000000
0.089448 0.582574 0.000000
0.163546 0.585351 0.000000
0.256870 0.589746 0.000000
0.351324 0.595056 0.000000
0.432715 0.600122 0.000000
0.508537 0.604700 0.000000
0.580896 0.608881 0.000000
0.644160 0.613672 0.000000
0.692470 0.620874 0.000000
0.717830 0.601007 0.000000
0.748836 0.596857 0.000000
0.783902 0.595514 0.000000
0.825834 0.589685 0.000000
0.870420 0.580285 0.000000
0.913146 0.568292 0.000000
0.952056 0.554955 0.000000
0.986267 0.541131 0.000000
1.000000 0.527306 0.000000
1.000000 0.513878 0.000000
1.000000 0.506615 0.000000
1.000000 0.500481 0.000000
1.000000 0.494820 0.000000
0.000000 0.600336 0.000000
0.000000 0.600793 0.000000
0.000000 0.601343 0.000000
0.000000 0.602350 0.000000
0.000000 0.603662 0.000000
0.000000 0.605249 0.000000
0.000000 0.607172 0.000000
0.000000 0.608698 0.000000
0.000000 0.610559 0.000000
0.000000 0.612543 0.000000
0.000000 0.614801 0.000000
0.139895 0.617182 0.000000
0.199832 0.619806 0.000000
0.307134 0.624475 0.000000
0.395758 0.629114 0.000000
0.474739 0.633356 0.000000
0.549065 0.637232 0.000000
0.616602 0.641382 0.000000
0.670924 0.647333 0.000000
0.713283 0.655329 0.000000
0.740261 0.635279 0.000000
0.777218 0.626215 0.000000
0.819181 0.621332 0.000000
0.864408 0.612512 0.000000
0.907927 0.600977 0.000000
0.947601 0.587945 0.000000
0.982483 0.574212 0.000000
1.000000 0.560418 0.000000
1.000000 0.546899 0.000000
1.000000 0.533837 0.000000
1.000000 0.522820 0.000000
1.000000 0.516594 0.000000
0.000000 0.632959 0.000000
0.000000 0.633417 0.000000
0.000000 0.633967 0.000000
0.000000 0.634791 0.000000
0.000000 0.635981 0.000000
0.000000 0.637476 0.000000
0.000000 0.639277 0.000000
0.000000 0.640742 0.000000
0.000000 0.642329 0.000000
0.000000 0.644099 0.000000
0.000000 0.646021 0.000000
0.107149 0.648188 0.000000
0.180331 0.650355 0.000000
0.252445 0.653254 0.000000
0.353979 0.657496 0.000000
0.438331 0.661555 0.000000
0.515496 0.665461 0.000000
0.586847 0.669245 0.000000
0.647120 0.674067 0.000000
0.692226 0.681147 0.000000
0.735592 0.688350 0.000000
0.767269 0.667262 0.000000
0.812192 0.652308 0.000000
0.857939 0.644190 0.000000
0.902373 0.633112 0.000000
0.942840 0.620294 0.000000
0.978454 0.606653 0.000000
1.000000 0.592859 0.000000
1.000000 0.579217 0.000000
1.000000 0.566003 0.000000
1.000000 0.553185 0.000000
1.000000 0.540673 0.000000
0.000000 0.664393 0.000000
0.000000 0.664790 0.000000
0.000000 0.665278 0.000000
0.000000 0.666072 0.000000
0.000000 0.667109 0.000000
0.000000 0.668421 0.000000
0.000000 0.670069 0.000000
0.000000 0.671656 0.000000
0.000000 0.672999 0.000000
0.000000 0.674586 0.000000
0.000000 0.676295 0.000000
0.036194 0.678218 0.000000
0.155825 0.680232 0.000000
0.216037 0.682399 0.000000
0.304631 0.685725 0.000000
0.398260 0.689754 0.000000
0.479866 0.693507 0.000000
0.554833 0.697139 0.000000
0.620539 0.701167 0.000000
0.671046 0.706935 0.000000
0.712276 0.714015 0.000000
0.762966 0.719265 0.000000
0.801755 0.696437 0.000000
0.852201 0.675532 0.000000
0.897459 0.664973 0.000000
0.938781 0.652430 0.000000
0.975067 0.638849 0.000000
1.000000 0.625086 0.000000
1.000000 0.611261 0.000000
1.000000 0.597864 0.000000
1.000000 0.584771 0.000000
1.000000 0.571954 0.000000
0.000000 0.695918 0.000000
0.000000 0.696193 0.000000
0.000000 0.696529 0.000000
0.000000 0.697169 0.000000
0.000000 0.698085 0.000000
0.000000 0.699275 0.000000
0.000000 0.700771 0.000000
0.000000 0.702480 0.000000
0.000000 0.703822 0.000000
0.000000 0.705257 0.000000
0.000000 0.706935 0.000000
0.000000 0.708675 0.000000
0.124819 0.710536 0.000000
0.195987 0.712520 0.000000
0.249943 0.714595 0.000000
0.353185 0.718166 0.000000
0.441382 0.721645 0.000000
0.520409 0.724849 0.000000
0.590875 0.728176 0.000000
0.647944 0.732509 0.000000
0.690517 0.738613 0.000000
0.734066 0.744259 0.000000
0.795956 0.746365 0.000000
0.840330 0.721828 0.000000
0.891142 0.695888 0.000000
0.933379 0.683711 0.000000
0.970581 0.670314 0.000000
1.000000 0.656428 0.000000
1.000000 0.642542 0.000000
1.000000 0.628901 0.000000
1.000000 0.615503 0.000000
1.000000 0.602350 0.000000
0.000000 0.726467 0.000000
0.000000 0.726741 0.000000
0.000000 0.727047 0.000000
0.000000 0.727596 0.000000
0.000000 0.728450 0.000000
0.000000 0.729549 0.000000
0.000000 0.730953 0.000000
0.000000 0.732631 0.000000
0.000000 0.733913 0.000000
0.000000 0.735225 0.000000
0.000000 0.736690 0.000000
0.000000 0.738247 0.000000
0.075319 0.739956 0.000000
0.172183 0.741695 0.000000
0.232120 0.743587 0.000000
0.298955 0.745876 0.000000
0.398383 0.749020 0.000000
0.482521 0.751919 0.000000
0.557916 0.754513 0.000000
0.621271 0.757748 0.000000
0.668635 0.762448 0.000000
0.709010 0.767819 0.000000
0.759518 0.771267 0.000000
0.832822 0.769955 0.000000
0.879026 0.744381 0.000000
0.927214 0.715389 0.000000
0.965606 0.701167 0.000000
0.998322 0.687343 0.000000
1.000000 0.673304 0.000000
1.000000 0.659449 0.000000
1.000000 0.645808 0.000000
1.000000 0.632258 0.000000
0.000000 0.757107 0.000000
0.000000 0.757382 0.000000
0.000000 0.757656 0.000000
0.000000 0.758114 0.000000
0.000000 0.758877 0.000000
0.000000 0.759854 0.000000
0.000000 0.761074 0.000000
0.000000 0.762570 0.000000
0.000000 0.763882 0.000000
0.000000 0.764950 0.000000
0.000000 0.766171 0.000000
0.000000 0.767483 0.000000
0.000000 0.768887 0.000000
0.142031 0.770382 0.000000
0.211643 0.771908 0.000000
0.265263 0.773556 0.000000
0.348974 0.775723 0.000000
0.441016 0.778073 0.000000
0.521294 0.780179 0.000000
0.590814 0.782315 0.000000
0.644984 0.785550 0.000000
0.685847 0.790066 0.000000
0.728878 0.793851 0.000000
0.788937 0.794430 0.000000
0.869017 0.790402 0.000000
0.916228 0.765072 0.000000
0.959899 0.735164 0.000000
0.994202 0.717769 0.000000
1.000000 0.703731 0.000000
1.000000 0.689601 0.000000
1.000000 0.675654 0.000000
1.000000 0.661799 0.000000
0.000000 0.786252 0.000000
0.000000 0.786435 0.000000
0.000000 0.786709 0.000000
0.000000 0.787167 0.000000
0.000000 0.787839 0.000000
0.000000 0.788724 0.000000
0.000000 0.789822 0.000000
0.000000 0.791196 0.000000
0.000000 0.792660 0.000000
0.000000 0.793606 0.000000
0.000000 0.794644 0.000000
0.000000 0.795773 0.000000
0.000000 0.796994 0.000000
0.100099 0.798245 0.000000
0.188327 0.799588 0.000000
0.247288 0.800961 0.000000
0.296574 0.802396 0.000000
0.395026 0.804166 0.000000
0.481544 0.805631 0.000000
0.556817 0.806882 0.000000
0.618189 0.808713 0.000000
0.663355 0.811887 0.000000
0.702876 0.815427 0.000000
0.751980 0.817166 0.000000
0.821469 0.814939 0.000000
0.903929 0.809079 0.000000
0.950896 0.784451 0.000000
0.988983 0.753872 0.000000
1.000000 0.733822 0.000000
1.000000 0.719570 0.000000
1.000000 0.705318 0.000000
1.000000 0.691066 0.000000
0.000000 0.814511 0.000000
0.000000 0.814694 0.000000
0.000000 0.814878 0.000000
0.000000 0.815274 0.000000
0.000000 0.815793 0.000000
0.000000 0.816587 0.000000
0.000000 0.817563 0.000000
0.000000 0.818753 0.000000
0.000000 0.820188 0.000000
0.000000 0.821103 0.000000
0.000000 0.821927 0.000000
0.000000 0.822873 0.000000
0.000000 0.823850 0.000000
0.000000 0.824887 0.000000
0.160006 0.825956 0.000000
0.227085 0.827024 0.000000
0.279881 0.828122 0.000000
0.341619 0.829252 0.000000
0.437537 0.830167 0.000000
0.518975 0.830716 0.000000
0.587366 0.831418 0.000000
0.639460 0.833158 0.000000
0.679194 0.835966 0.000000
0.721279 0.838102 0.000000
0.778531 0.837522 0.000000
0.854124 0.833036 0.000000
0.935546 0.825986 0.000000
0.982605 0.803189 0.000000
1.000000 0.771695 0.000000
1.000000 0.749020 0.000000
1.000000 0.734524 0.000000
1.000000 0.719966 0.000000
0.000000 0.841184 0.000000
0.000000 0.841337 0.000000
0.000000 0.841520 0.000000
0.000000 0.841855 0.000000
0.000000 0.842344 0.000000
0.000000 0.843076 0.000000
0.000000 0.843992 0.000000
0.000000 0.845182 0.000000
0.000000 0.846555 0.000000
0.000000 0.847654 0.000000
0.000000 0.848417 0.000000
0.000000 0.849271 0.000000
0.000000 0.850126 0.000000
0.000000 0.850950 0.000000
0.125063 0.851804 0.000000
0.205173 0.852628 0.000000
0.262547 0.853452 0.000000
0.310826 0.854368 0.000000
0.389166 0.854856 0.000000
0.478004 0.854795 0.000000
0.553155 0.854612 0.000000
0.612940 0.855070 0.000000
0.656550 0.856748 0.000000
0.695308 0.858640 0.000000
0.742855 0.858946 0.000000
0.808560 0.855955 0.000000
0.886625 0.849790 0.000000
0.964660 0.842008 0.000000
1.000000 0.821225 0.000000
1.000000 0.788937 0.000000
1.000000 0.763729 0.000000
1.000000 0.748867 0.000000
0.000000 0.867094 0.000000
0.000000 0.867216 0.000000
0.000000 0.867369 0.000000
0.000000 0.867643 0.000000
0.000000 0.868070 0.000000
0.000000 0.868681 0.000000
0.000000 0.869444 0.000000
0.000000 0.870359 0.000000
0.000000 0.871550 0.000000
0.000000 0.872648 0.000000
0.000000 0.873198 0.000000
0.000000 0.873777 0.000000
0.000000 0.874357 0.000000
0.000000 0.874937 0.000000
0.068910 0.875547 0.000000
