其他预设/【234】港风调色预设/1.3D LUT预设（视频调色-PR-AE-PS-FCPX-达芬奇用）/29.港风色调-夸张效果 __.cube
# Created by Adobe Lightroom plugin Export LUT (1.17.0)
# www.johnrellis.com/lightroom/exportlut.htm
# Preset: 29.港风色调-夸张效果 [素锦印象]
# Color profile: /Library/Application Support/Adobe/Color/Profiles/Recommended/AdobeRGB1998.icc
LUT_3D_SIZE 8
DOMAIN_MIN 0.000000 0.000000 0.000000
DOMAIN_MAX 0.903226 0.903226 0.903226
0.000000 0.079957 0.043610
0.077424 0.080659 0.039704
0.229770 0.101503 0.002960
0.447364 0.143191 0.000000
0.672663 0.182528 0.000000
0.788083 0.246036 0.000000
0.938628 0.246525 0.000000
1.000000 0.236362 0.000000
0.000000 0.133181 0.034485
0.069459 0.137881 0.017121
0.228367 0.146456 0.000000
0.444038 0.184024 0.000000
0.669612 0.218662 0.000000
0.785458 0.270909 0.000000
0.936248 0.269291 0.000000
1.000000 0.256657 0.000000
0.000000 0.247929 0.000000
0.000000 0.252049 0.000000
0.217411 0.264958 0.000000
0.436713 0.280186 0.000000
0.663874 0.307042 0.000000
0.781399 0.342382 0.000000
0.934844 0.335058 0.000000
1.000000 0.316838 0.000000
0.000000 0.386999 0.000000
0.000000 0.390814 0.000000
0.081971 0.400458 0.000000
0.415839 0.423011 0.000000
0.650690 0.429633 0.000000
0.774838 0.435676 0.000000
0.929595 0.423713 0.000000
1.000000 0.399054 0.000000
0.000000 0.530755 0.000000
0.000000 0.533715 0.000000
0.000000 0.541802 0.000000
0.302831 0.557519 0.000000
0.608881 0.578454 0.000000
0.754238 0.565545 0.000000
0.917571 0.534752 0.000000
1.000000 0.490089 0.000000
0.000000 0.664393 0.000000
0.000000 0.667109 0.000000
0.000000 0.672999 0.000000
0.155825 0.680232 0.000000
0.479866 0.693507 0.000000
0.712276 0.714015 0.000000
0.897459 0.664973 0.000000
1.000000 0.611261 0.000000
0.000000 0.786252 0.000000
0.000000 0.787839 0.000000
0.000000 0.792660 0.000000
0.000000 0.796994 0.000000
0.296574 0.802396 0.000000
0.618189 0.808713 0.000000
0.821469 0.814939 0.000000
1.000000 0.733822 0.000000
0.000000 0.890990 0.000000
0.000000 0.891844 0.000000
0.000000 0.894896 0.000000
0.000000 0.897490 0.000000
0.220584 0.898466 0.000000
0.471260 0.898253 0.000000
0.686122 0.896880 0.000000
0.941711 0.877684 0.000000
0.000000 0.082612 0.094026
0.077546 0.071382 0.094942
0.224338 0.077150 0.081544
0.440284 0.137850 0.065858
0.668025 0.171359 0.000000
0.784726 0.242741 0.000000
0.935943 0.251652 0.000000
1.000000 0.249912 0.000000
0.000000 0.137087 0.092836
0.072969 0.136965 0.092103
0.224308 0.153567 0.086183
0.438544 0.178988 0.056245
0.665888 0.209751 0.000000
0.782895 0.267887 0.000000
0.934020 0.273411 0.000000
1.000000 0.268498 0.000000
0.000000 0.246647 0.079042
0.000000 0.250828 0.079011
0.216037 0.262425 0.060395
0.433722 0.271244 0.000000
0.660151 0.301183 0.000000
0.778653 0.339666 0.000000
0.931701 0.337804 0.000000
1.000000 0.325566 0.000000
0.000000 0.385657 0.070069
0.000000 0.389319 0.028687
0.097658 0.399756 0.000000
0.411658 0.418891 0.000000
0.646540 0.422705 0.000000
0.771206 0.432685 0.000000
0.926299 0.424964 0.000000
1.000000 0.404822 0.000000
0.000000 0.529351 0.050599
0.000000 0.532219 0.000000
0.000000 0.540703 0.000000
0.292241 0.554620 0.000000
0.605768 0.575158 0.000000
0.752712 0.562432 0.000000
0.916350 0.533196 0.000000
1.000000 0.493782 0.000000
0.000000 0.662623 0.000000
0.000000 0.664668 0.000000
0.000000 0.671351 0.000000
0.162631 0.678614 0.000000
0.474708 0.691859 0.000000
0.711421 0.712764 0.000000
0.896971 0.664332 0.000000
1.000000 0.611872 0.000000
0.000000 0.784237 0.000000
0.000000 0.785550 0.000000
0.000000 0.790707 0.000000
0.000000 0.795743 0.000000
0.302892 0.801297 0.000000
0.616266 0.807767 0.000000
0.820829 0.814115 0.000000
1.000000 0.733761 0.000000
0.000000 0.889708 0.076020
0.000000 0.890654 0.000000
0.000000 0.893767 0.000000
0.000000 0.896849 0.000000
0.231205 0.898466 0.000000
0.469398 0.898161 0.000000
0.685328 0.896605 0.000000
0.941955 0.877287 0.000000
0.001831 0.077150 0.197299
0.099641 0.063752 0.198489
0.211887 0.082582 0.193942
0.383490 0.053895 0.207980
0.646204 0.000000 0.179629
0.777401 0.261234 0.247379
0.931762 0.301061 0.282475
1.000000 0.324102 0.318059
0.000000 0.130587 0.197574
0.100160 0.137789 0.197513
0.212528 0.136721 0.194217
0.398779 0.121492 0.204868
0.651392 0.099336 0.186557
0.775845 0.288426 0.248295
0.930266 0.316991 0.279850
1.000000 0.336431 0.316777
0.000000 0.260380 0.194980
0.000000 0.259709 0.194919
0.211185 0.251987 0.191348
0.422675 0.271244 0.196902
0.651759 0.299107 0.209049
0.772183 0.351354 0.236454
0.927611 0.368566 0.273838
1.000000 0.377752 0.314672
0.000000 0.383825 0.162173
0.000000 0.387060 0.163272
0.158297 0.395300 0.169497
0.404486 0.410193 0.155947
0.642481 0.407996 0.166964
0.765713 0.437385 0.210605
0.923186 0.443854 0.260197
1.000000 0.440894 0.309575
0.000000 0.526299 0.175998
0.000000 0.528832 0.174777
0.065797 0.536797 0.159579
0.265324 0.548852 0.144503
0.601038 0.569238 0.120821
0.750271 0.557733 0.159304
0.915373 0.534783 0.232883
1.000000 0.516625 0.297276
0.000000 0.659968 0.192874
0.000000 0.661433 0.191745
0.000000 0.667048 0.160189
0.197116 0.675898 0.103548
0.459815 0.687465 0.123720
0.707851 0.709285 0.123903
0.895811 0.664027 0.192721
1.000000 0.618708 0.278416
0.000000 0.781949 0.218204
0.000000 0.782620 0.219059
0.000000 0.786831 0.172915
0.007904 0.793820 0.033478
0.329747 0.798917 0.107057
0.610773 0.805875 0.140291
0.821836 0.813077 0.177462
1.000000 0.736446 0.252750
0.000000 0.887114 0.252659
0.000000 0.887236 0.253452
0.000000 0.890227 0.198245
0.000000 0.895323 0.000000
0.267155 0.896605 0.097047
0.463691 0.897032 0.154665
0.682460 0.895995 0.201877
0.943725 0.876402 0.243748
0.084840 0.058625 0.380285
0.140200 0.053590 0.379736
0.244663 0.019379 0.370825
0.375921 0.000000 0.363622
0.522271 0.021027 0.369512
0.731167 0.000000 0.398505
0.901244 0.164584 0.396307
1.000000 0.393347 0.503960
0.069917 0.136385 0.382910
0.131655 0.132601 0.381994
0.242313 0.117159 0.374548
0.377264 0.100526 0.365393
0.524681 0.127352 0.369909
0.733852 0.113161 0.398688
0.904662 0.231327 0.406134
1.000000 0.440833 0.527581
0.000000 0.248142 0.391333
0.000000 0.243290 0.389105
0.235203 0.251743 0.380224
0.379370 0.237797 0.368017
0.570855 0.250614 0.387915
0.744137 0.305180 0.409155
0.909728 0.448951 0.508080
1.000000 0.498390 0.545678
0.000000 0.411017 0.378149
0.000000 0.410163 0.377935
0.156344 0.404730 0.375921
0.378241 0.386267 0.367041
0.613031 0.420142 0.408698
0.742184 0.476814 0.458076
0.907164 0.510582 0.504387
1.000000 0.531548 0.535790
0.000000 0.521324 0.294591
0.000000 0.523522 0.296422
0.064607 0.529900 0.307805
0.331945 0.535851 0.345708
0.584222 0.553735 0.354498
0.735561 0.556847 0.408606
0.903380 0.569085 0.474708
1.000000 0.578027 0.519158
0.000000 0.656214 0.314397
0.000000 0.658045 0.315648
0.000000 0.661677 0.323766
0.290410 0.667018 0.340612
0.437049 0.676967 0.348180
0.697658 0.702541 0.370092
0.890135 0.668605 0.424659
1.000000 0.643122 0.492317
0.000000 0.778958 0.332189
0.000000 0.779782 0.333562
0.000000 0.781949 0.342931
0.246311 0.786435 0.344305
0.381842 0.793729 0.330877
0.601099 0.801266 0.365576
0.822171 0.810178 0.401251
1.000000 0.744076 0.455146
0.000000 0.885985 0.351995
0.000000 0.886137 0.354253
0.000000 0.886137 0.366094
0.203586 0.888334 0.355169
0.328832 0.892454 0.323247
0.484291 0.893095 0.357244
0.678157 0.894194 0.396185
0.946899 0.874388 0.431250
0.151949 0.000000 0.568200
0.192844 0.000000 0.567010
0.290257 0.000000 0.562310
0.398016 0.000000 0.544305
0.544427 0.000000 0.540826
0.665980 0.000000 0.534142
0.803861 0.162387 0.552483
1.000000 0.239078 0.554253
0.139834 0.123842 0.569543
0.184268 0.118074 0.568475
0.285588 0.089631 0.563684
0.397559 0.000000 0.546532
0.545159 0.000000 0.541405
0.665949 0.113344 0.534112
0.809995 0.208927 0.554528
1.000000 0.288396 0.560266
0.000000 0.246098 0.574243
0.152255 0.259464 0.571710
0.275425 0.251102 0.566247
0.397314 0.223301 0.552850
0.546838 0.210849 0.542351
0.664546 0.259129 0.534081
0.832120 0.328038 0.563531
1.000000 0.416876 0.581750
0.000000 0.402258 0.577600
0.000000 0.398840 0.576593
0.238712 0.389929 0.572534
0.410620 0.391272 0.558099
0.548730 0.369299 0.542535
0.680415 0.413947 0.552911
0.867643 0.494575 0.588769
1.000000 0.586969 0.624537
0.000000 0.560937 0.553826
0.000000 0.560052 0.553613
0.000000 0.555383 0.552239
0.345647 0.543633 0.548394
0.547356 0.519402 0.538811
0.705837 0.586877 0.583093
0.890349 0.630304 0.612665
1.000000 0.655482 0.632227
0.000000 0.648554 0.433661
0.000000 0.649928 0.435676
0.000000 0.653559 0.444129
0.277928 0.657160 0.468574
0.504082 0.657649 0.517632
0.680598 0.686946 0.539971
0.881956 0.683680 0.583276
1.000000 0.689296 0.613550
0.000000 0.773953 0.443977
0.000000 0.774624 0.445258
0.000000 0.776638 0.451972
0.266361 0.778683 0.472786
0.468727 0.780301 0.506249
0.589288 0.789639 0.522148
0.824949 0.804379 0.549798
1.000000 0.757443 0.582177
0.000000 0.883391 0.451270
0.000000 0.883482 0.452735
0.000000 0.883604 0.459846
0.263127 0.883024 0.480262
0.442115 0.882078 0.501915
0.543450 0.885557 0.505730
0.678584 0.890135 0.534325
0.955077 0.871244 0.556054
0.254154 0.000000 0.668696
0.279088 0.000000 0.667994
0.351385 0.000000 0.665278
0.448798 0.000000 0.658747
0.554131 0.000000 0.646693
0.673548 0.000000 0.645106
0.760952 0.129397 0.635492
0.926329 0.233982 0.634546
0.249851 0.112856 0.668757
0.275059 0.106142 0.668025
0.348211 0.072419 0.665400
0.447089 0.000000 0.659144
0.552331 0.000000 0.646479
0.673121 0.000000 0.644770
0.760678 0.179721 0.635157
0.930175 0.264073 0.635309
0.250736 0.271366 0.669642
0.275273 0.267918 0.668910
0.347723 0.254704 0.666163
0.446784 0.225864 0.660883
0.552819 0.189212 0.647669
0.672175 0.207187 0.644221
0.760555 0.291966 0.634546
0.944335 0.355200 0.639124
0.182864 0.377325 0.674647
0.223270 0.378607 0.673457
0.355718 0.400641 0.667994
0.468818 0.400214 0.660914
0.563684 0.363989 0.650141
0.670069 0.367895 0.642847
0.760250 0.421851 0.634607
0.968658 0.482002 0.648981
0.000000 0.539269 0.668452
0.000000 0.537957 0.668421
0.284520 0.534234 0.667018
0.473152 0.534783 0.662837
0.590539 0.535393 0.650568
0.664942 0.515465 0.638819
0.790158 0.562646 0.644831
0.994598 0.631922 0.674464
0.000000 0.692012 0.645899
0.000000 0.691310 0.645838
0.102235 0.687800 0.645136
0.356390 0.679988 0.643397
0.539300 0.666163 0.639857
0.657862 0.650721 0.633112
0.871519 0.718044 0.679194
1.000000 0.751217 0.714565
0.000000 0.772976 0.561913
0.000000 0.772946 0.560204
0.000000 0.772122 0.553307
0.207431 0.773037 0.557671
0.458412 0.772366 0.580743
0.628199 0.775357 0.617456
0.829129 0.794217 0.638514
1.000000 0.781704 0.683619
0.000000 0.880674 0.537926
0.000000 0.880797 0.538811
0.000000 0.881041 0.542443
0.222232 0.880613 0.552056
0.459998 0.876738 0.575555
0.603174 0.876036 0.606104
0.685756 0.882902 0.618524
0.967864 0.867552 0.644831
0.329686 0.000000 0.758633
0.347814 0.000000 0.758389
0.404456 0.000000 0.756313
0.488472 0.000000 0.752499
0.582635 0.000000 0.742855
0.664942 0.000000 0.732998
0.776913 0.000000 0.731197
0.927794 0.141634 0.712367
0.329046 0.118471 0.757961
0.347021 0.112703 0.757656
0.403235 0.083253 0.755673
0.487007 0.000000 0.751766
0.581353 0.000000 0.742245
0.663355 0.000000 0.731685
0.775021 0.000000 0.729732
0.925566 0.184665 0.711147
0.343053 0.280156 0.759396
0.359411 0.276951 0.758846
0.411658 0.264866 0.756649
0.491432 0.239017 0.752682
0.582208 0.204929 0.743893
0.660639 0.184482 0.731685
0.776913 0.221225 0.729915
0.927642 0.295384 0.711849
0.355474 0.407996 0.762661
0.386481 0.416693 0.761288
0.461219 0.431861 0.757443
0.521141 0.412360 0.753689
0.591852 0.380072 0.747036
0.657557 0.348272 0.732174
0.780270 0.370886 0.729763
0.929198 0.420508 0.712795
0.319280 0.518273 0.764462
0.355108 0.520989 0.763882
0.460700 0.533654 0.762081
0.553643 0.552209 0.756466
0.614557 0.552056 0.747616
0.662257 0.512139 0.734615
0.781399 0.510185 0.726741
0.929290 0.541253 0.713741
0.153506 0.657984 0.756161
0.213901 0.657618 0.756191
0.349035 0.656977 0.756283
0.501732 0.658900 0.756191
0.613886 0.670954 0.753841
0.685786 0.674281 0.741238
0.787625 0.642573 0.725124
0.950683 0.675502 0.729763
0.000000 0.806332 0.735195
0.000000 0.805783 0.735317
0.192874 0.803128 0.735042
0.386450 0.797726 0.734463
0.539208 0.790097 0.732845
0.641474 0.784237 0.730037
0.792233 0.763424 0.721157
0.994568 0.816220 0.786435
0.000000 0.881621 0.637842
0.000000 0.881407 0.636957
0.000000 0.881102 0.634028
0.199954 0.879149 0.627527
0.418128 0.874662 0.627710
0.592309 0.871244 0.657191
0.762936 0.866270 0.708949
0.975006 0.862852 0.744228
0.379736 0.064179 0.845670
0.393408 0.047761 0.845548
0.438056 0.000000 0.844602
0.506798 0.000000 0.843259
0.584497 0.000000 0.840116
0.651362 0.000000 0.833707
0.747341 0.000000 0.829526
0.934478 0.000000 0.826658
0.383185 0.153567 0.845151
0.396551 0.149294 0.845060
0.440192 0.129366 0.844236
0.507652 0.072084 0.842802
0.584131 0.000000 0.839841
0.650752 0.000000 0.833433
0.746426 0.000000 0.828855
0.933928 0.000000 0.825956
0.406836 0.297368 0.844419
0.418463 0.294652 0.844236
0.456703 0.283360 0.843290
0.517479 0.262272 0.842405
0.585687 0.225284 0.840177
0.650019 0.214359 0.833555
0.745480 0.202518 0.828183
0.934813 0.181979 0.825284
0.477150 0.453956 0.842771
0.484779 0.451881 0.842710
0.509361 0.443030 0.842008
0.549859 0.426886 0.841032
0.597589 0.400183 0.839353
0.652338 0.374426 0.834318
0.745815 0.348882 0.827604
0.937469 0.344762 0.824613
0.472267 0.532250 0.844846
0.485695 0.535515 0.844602
0.537713 0.555871 0.842496
0.594720 0.587030 0.839109
0.621546 0.565332 0.837522
0.664363 0.530297 0.834623
0.748714 0.487160 0.825864
0.940887 0.488930 0.823209
0.416632 0.629236 0.844999
0.442115 0.631922 0.844572
0.512474 0.642023 0.843259
0.584985 0.662745 0.841642
0.645075 0.685023 0.839078
0.709926 0.683375 0.834531
0.781979 0.637659 0.827726
0.946929 0.623407 0.822660
0.283299 0.751705 0.839963
0.316258 0.751583 0.839841
0.409186 0.751583 0.839658
0.515892 0.754238 0.839719
0.601831 0.764431 0.840360
0.739132 0.779995 0.838621
0.854643 0.777615 0.831907
0.951019 0.744198 0.820462
0.000000 0.894041 0.828336
0.100923 0.893339 0.828244
0.270176 0.890959 0.828061
0.420447 0.886809 0.827909
0.532097 0.883604 0.827848
0.638056 0.880186 0.827573
0.808438 0.865721 0.825895
0.955322 0.843687 0.819120
