其他预设/【234】港风调色预设/1.3D LUT预设（视频调色-PR-AE-PS-FCPX-达芬奇用）/31.港风色调-夸张效果 __.cube
# Created by Adobe Lightroom plugin Export LUT (1.17.0)
# www.johnrellis.com/lightroom/exportlut.htm
# Preset: 31.港风色调-夸张效果 [素锦印象]
# Color profile: /Library/Application Support/Adobe/Color/Profiles/Recommended/AdobeRGB1998.icc
LUT_3D_SIZE 32
0.053101 0.085359 0.094179
0.053101 0.085359 0.094179
0.054139 0.085298 0.094148
0.071199 0.083497 0.094026
0.089448 0.080598 0.093843
0.107454 0.079896 0.093416
0.126070 0.081941 0.092622
0.147005 0.084627 0.091554
0.170871 0.088411 0.090028
0.198489 0.092622 0.087953
0.231693 0.096010 0.085939
0.272129 0.096956 0.085206
0.321721 0.093751 0.083223
0.382269 0.081270 0.081117
0.454292 0.026673 0.076753
0.530846 0.000000 0.069368
0.599695 0.000000 0.059174
0.655818 0.000000 0.040009
0.703182 0.000000 0.018769
0.746548 0.000000 0.000000
0.787594 0.000000 0.000000
0.827604 0.000000 0.000000
0.866361 0.000000 0.000000
0.902556 0.000000 0.000000
0.935515 0.000000 0.000000
0.965179 0.000000 0.000000
0.991730 0.000000 0.000000
1.000000 0.000000 0.000000
1.000000 0.000000 0.004883
1.000000 0.000000 0.037476
1.000000 0.000000 0.062745
1.000000 0.000000 0.076081
0.053101 0.085359 0.094179
0.053101 0.085359 0.094179
0.055146 0.085267 0.094148
0.072023 0.083742 0.093996
0.089296 0.084627 0.093568
0.106844 0.086000 0.092988
0.125795 0.087800 0.092195
0.146578 0.090608 0.091096
0.170352 0.093904 0.089601
0.198032 0.098360 0.087434
0.231296 0.101564 0.085725
0.271794 0.102693 0.084993
0.321386 0.100282 0.083528
0.381994 0.089784 0.081331
0.454200 0.057557 0.076570
0.530816 0.000000 0.069062
0.599603 0.000000 0.058625
0.655756 0.000000 0.037293
0.703151 0.000000 0.016938
0.746609 0.000000 0.000000
0.787625 0.000000 0.000000
0.827665 0.000000 0.000000
0.866423 0.000000 0.000000
0.902647 0.000000 0.000000
0.935576 0.000000 0.000000
0.965209 0.000000 0.000000
0.991760 0.000000 0.000000
1.000000 0.000000 0.000000
1.000000 0.000000 0.003113
1.000000 0.000000 0.035798
1.000000 0.000000 0.061280
1.000000 0.000000 0.075319
0.052186 0.087282 0.094301
0.051942 0.087922 0.094240
0.054688 0.089021 0.093874
0.071260 0.090669 0.093507
0.088594 0.092073 0.093019
0.106020 0.093111 0.092470
0.124880 0.095094 0.091646
0.145815 0.097658 0.090517
0.169680 0.101198 0.088991
0.197330 0.105074 0.086824
0.230533 0.108583 0.085939
0.270970 0.110201 0.084871
0.320470 0.108614 0.083345
0.380987 0.100221 0.081117
0.452949 0.076173 0.076600
0.529900 0.000000 0.068544
0.598779 0.000000 0.057191
0.654994 0.000000 0.036164
0.702632 0.000000 0.014221
0.746029 0.000000 0.000000
0.787198 0.000000 0.000000
0.827237 0.000000 0.000000
0.866026 0.000000 0.000000
0.902312 0.000000 0.000000
0.935302 0.000000 0.000000
0.964965 0.000000 0.000000
0.991547 0.000000 0.000000
1.000000 0.000000 0.000000
1.000000 0.000000 0.000000
1.000000 0.000000 0.032105
1.000000 0.000000 0.060334
1.000000 0.000000 0.074617
0.043336 0.104128 0.093996
0.042847 0.104891 0.093935
0.048920 0.105653 0.093050
0.071077 0.107057 0.092073
0.087678 0.104616 0.091951
0.104524 0.106844 0.091249
0.123445 0.108339 0.090455
0.144167 0.111116 0.089296
0.167819 0.114504 0.087709
0.195407 0.118196 0.086671
0.228458 0.121614 0.085756
0.268833 0.124239 0.084565
0.317998 0.124453 0.083253
0.378149 0.119478 0.080873
0.450111 0.103151 0.076234
0.526970 0.070375 0.067475
0.596429 0.000000 0.055116
0.653071 0.000000 0.031250
0.700893 0.000000 0.006256
0.744564 0.000000 0.000000
0.785946 0.001587 0.000000
0.826139 0.011963 0.000000
0.865019 0.005249 0.000000
0.901396 0.000000 0.000000
0.934447 0.000000 0.000000
0.964202 0.000000 0.000000
0.990814 0.000000 0.000000
1.000000 0.000000 0.000000
1.000000 0.000000 0.000000
1.000000 0.000000 0.021973
1.000000 0.000000 0.055299
1.000000 0.000000 0.071504
0.029114 0.123720 0.093904
0.029633 0.124147 0.092805
0.038361 0.124544 0.091341
0.059205 0.125429 0.091341
0.087190 0.127047 0.089509
0.104158 0.120485 0.089784
0.121645 0.124117 0.088777
0.141543 0.127871 0.087434
0.165164 0.131228 0.086641
0.192569 0.134890 0.086458
0.225467 0.138705 0.085451
0.265415 0.142489 0.084749
0.314214 0.144656 0.082918
0.373693 0.142824 0.080415
0.445075 0.133333 0.075166
0.521874 0.115572 0.065553
0.592157 0.097627 0.050019
0.649317 0.091096 0.022034
0.697688 0.094331 0.000000
0.741756 0.103273 0.000000
0.783352 0.110536 0.000000
0.823850 0.114137 0.000000
0.862974 0.113039 0.000000
0.899626 0.108125 0.000000
0.932891 0.100679 0.000000
0.962860 0.091279 0.000000
0.989685 0.082033 0.000000
1.000000 0.070863 0.000000
1.000000 0.060456 0.000000
1.000000 0.043610 0.008148
1.000000 0.027588 0.043732
1.000000 0.019776 0.067048
0.011170 0.143221 0.092927
0.014984 0.143557 0.089296
0.025513 0.143648 0.089204
0.047089 0.144137 0.089540
0.074891 0.146304 0.087404
0.104128 0.147982 0.086061
0.121889 0.138705 0.087953
0.140871 0.143008 0.087678
0.161990 0.148440 0.086641
0.188540 0.153017 0.086030
0.221012 0.157839 0.084871
0.260410 0.162661 0.083955
0.308354 0.166720 0.082277
0.367102 0.167849 0.079164
0.437690 0.163638 0.072816
0.514611 0.153719 0.062745
0.585809 0.145113 0.040864
0.643977 0.144289 0.009735
0.692927 0.149203 0.000000
0.737514 0.156191 0.000000
0.779446 0.162570 0.000000
0.820279 0.165896 0.000000
0.856474 0.164614 0.000000
0.893889 0.161746 0.000000
0.927977 0.156863 0.000000
0.958709 0.150729 0.000000
0.986236 0.144076 0.000000
1.000000 0.136599 0.000000
1.000000 0.130098 0.000000
1.000000 0.124331 0.000000
1.000000 0.119112 0.017304
1.000000 0.115206 0.055390
0.000000 0.163119 0.089174
0.000336 0.163302 0.087678
0.009125 0.163546 0.087861
0.030304 0.163821 0.089082
0.058686 0.164614 0.090394
0.090700 0.168215 0.087404
0.120912 0.170260 0.087465
0.140322 0.158633 0.090333
0.161837 0.163699 0.089296
0.186069 0.169802 0.086763
0.214450 0.176547 0.083406
0.252689 0.182559 0.082033
0.299413 0.188357 0.080171
0.356634 0.192538 0.076692
0.425940 0.192477 0.070283
0.502861 0.188449 0.058686
0.575738 0.185153 0.027192
0.635737 0.187015 0.000000
0.685756 0.193057 0.000000
0.730983 0.200351 0.000000
0.773281 0.207034 0.000000
0.814237 0.210758 0.000000
0.853941 0.211185 0.000000
0.891356 0.208591 0.000000
0.925597 0.204471 0.000000
0.956542 0.198978 0.000000
0.984314 0.192966 0.000000
1.000000 0.186526 0.000000
1.000000 0.180392 0.000000
1.000000 0.174563 0.000000
1.000000 0.169162 0.000000
1.000000 0.164797 0.034913
0.000000 0.184726 0.091981
0.000000 0.184939 0.090303
0.000000 0.185153 0.090730
0.008545 0.185672 0.091585
0.042023 0.186282 0.093141
0.073243 0.188205 0.093721
0.107637 0.192508 0.090913
0.140261 0.195407 0.091554
0.162081 0.181643 0.095521
0.187015 0.187442 0.092012
0.215579 0.194369 0.087251
0.248875 0.202182 0.081056
0.291203 0.210178 0.075715
0.346990 0.216739 0.071992
0.414923 0.220554 0.064485
0.491585 0.220706 0.046113
0.565820 0.221347 0.007843
0.627527 0.225864 0.000000
0.678676 0.233249 0.000000
0.724727 0.241489 0.000000
0.767697 0.248692 0.000000
0.809140 0.253056 0.000000
0.849363 0.254185 0.000000
0.887480 0.252232 0.000000
0.922271 0.248386 0.000000
0.953674 0.243320 0.000000
0.981903 0.237308 0.000000
1.000000 0.230930 0.000000
1.000000 0.224643 0.000000
1.000000 0.218601 0.000000
1.000000 0.212863 0.000000
1.000000 0.207675 0.003937
0.000000 0.208286 0.096407
0.000000 0.208560 0.094240
0.000000 0.208835 0.094881
0.000000 0.209171 0.095979
0.017731 0.209964 0.097414
0.057343 0.210910 0.099184
0.090455 0.214817 0.097780
0.127016 0.219516 0.095399
0.162905 0.223239 0.095308
0.187015 0.208927 0.099367
0.217197 0.214023 0.094636
0.251286 0.221958 0.087282
0.291081 0.230716 0.077760
0.337682 0.239658 0.065766
0.401617 0.246708 0.052827
0.477668 0.250919 0.022889
0.553338 0.254734 0.000000
0.617212 0.261692 0.000000
0.669856 0.270451 0.000000
0.716976 0.279911 0.000000
0.760739 0.288060 0.000000
0.802823 0.293126 0.000000
0.843717 0.294926 0.000000
0.882475 0.293797 0.000000
0.917998 0.290257 0.000000
0.950103 0.284947 0.000000
0.978912 0.279210 0.000000
1.000000 0.272618 0.000000
1.000000 0.265965 0.000000
1.000000 0.259525 0.000000
1.000000 0.253239 0.000000
1.000000 0.247501 0.000000
0.000000 0.234073 0.100893
0.000000 0.234348 0.098360
0.000000 0.234623 0.098756
0.000000 0.235080 0.099519
0.000000 0.235874 0.100618
0.030091 0.236851 0.102266
0.068299 0.238132 0.104463
0.110414 0.244572 0.100404
0.150027 0.249760 0.098451
0.189914 0.254520 0.097475
0.216709 0.239750 0.102083
0.254093 0.243717 0.095918
0.294926 0.252873 0.085847
0.342351 0.262119 0.072236
0.397620 0.270909 0.047822
0.461463 0.278599 0.000000
0.538231 0.285344 0.000000
0.604669 0.294377 0.000000
0.659174 0.304814 0.000000
0.707515 0.315709 0.000000
0.752407 0.325078 0.000000
0.795254 0.331395 0.000000
0.837034 0.334081 0.000000
0.876707 0.333562 0.000000
0.913176 0.330358 0.000000
0.946014 0.325444 0.000000
0.975402 0.319341 0.000000
1.000000 0.312657 0.000000
1.000000 0.305608 0.000000
1.000000 0.298619 0.000000
1.000000 0.291875 0.000000
1.000000 0.285313 0.000000
0.000000 0.262516 0.104799
0.000000 0.262882 0.101656
0.000000 0.263096 0.101534
0.000000 0.263584 0.102480
0.000000 0.264347 0.103517
0.000000 0.265324 0.104860
0.049317 0.266758 0.106691
0.087861 0.269963 0.106935
0.133883 0.278080 0.101411
0.177432 0.283940 0.099794
0.222782 0.289799 0.097993
0.252873 0.274144 0.102632
0.299199 0.276951 0.095766
0.347875 0.286687 0.081178
0.404364 0.295933 0.060609
0.466377 0.304417 0.001923
0.528435 0.313390 0.000000
0.590112 0.324498 0.000000
0.647089 0.336736 0.000000
0.696986 0.349187 0.000000
0.743008 0.360143 0.000000
0.786679 0.367712 0.000000
0.829221 0.371557 0.000000
0.869810 0.371771 0.000000
0.907286 0.369177 0.000000
0.941039 0.364355 0.000000
0.971252 0.358068 0.000000
0.998260 0.351293 0.000000
1.000000 0.343999 0.000000
1.000000 0.336400 0.000000
1.000000 0.329015 0.000000
1.000000 0.322026 0.000000
0.000000 0.293858 0.107393
0.000000 0.294194 0.104311
0.000000 0.294499 0.103273
0.000000 0.294926 0.104189
0.000000 0.295781 0.105104
0.000000 0.296849 0.106142
0.002106 0.298283 0.107881
0.065278 0.299962 0.109651
0.111696 0.306188 0.107393
0.161593 0.315465 0.100923
0.210269 0.322301 0.098665
0.263005 0.329259 0.094697
0.293828 0.310094 0.100862
0.350408 0.311101 0.093050
0.407416 0.320897 0.072816
0.469490 0.330022 0.024109
0.531121 0.339727 0.000000
0.585565 0.351293 0.000000
0.631952 0.364050 0.000000
0.682277 0.378363 0.000000
0.729946 0.391363 0.000000
0.774807 0.400855 0.000000
0.818418 0.406348 0.000000
0.860349 0.407782 0.000000
0.899229 0.405890 0.000000
0.934264 0.401617 0.000000
0.965606 0.395514 0.000000
0.993561 0.388495 0.000000
1.000000 0.380926 0.000000
1.000000 0.372992 0.000000
1.000000 0.365179 0.000000
1.000000 0.357549 0.000000
0.000000 0.327398 0.108675
0.000000 0.327642 0.105440
0.000000 0.327977 0.103456
0.000000 0.328649 0.104036
0.000000 0.329595 0.104677
0.000000 0.330846 0.106050
0.000000 0.332372 0.107454
0.020874 0.334203 0.109316
0.080079 0.336187 0.111208
0.139284 0.346014 0.104646
0.193942 0.356054 0.097902
0.249454 0.363531 0.094026
0.310246 0.371008 0.088228
0.347387 0.352117 0.095491
0.416236 0.349706 0.086702
0.478523 0.359442 0.053437
0.538903 0.369970 0.000000
0.591547 0.381781 0.000000
0.636683 0.394415 0.000000
0.677699 0.408148 0.000000
0.718105 0.421912 0.000000
0.764126 0.433356 0.000000
0.808591 0.440375 0.000000
0.851682 0.442969 0.000000
0.891814 0.441993 0.000000
0.928038 0.437995 0.000000
0.960388 0.432136 0.000000
0.989197 0.425055 0.000000
1.000000 0.417151 0.000000
1.000000 0.408911 0.000000
1.000000 0.400580 0.000000
1.000000 0.392340 0.000000
0.000000 0.365118 0.108675
0.000000 0.365270 0.104768
0.000000 0.365637 0.101778
0.000000 0.366339 0.102327
0.000000 0.367254 0.102937
0.000000 0.368475 0.104067
0.000000 0.370092 0.105592
0.000000 0.371923 0.107179
0.054810 0.373938 0.109163
0.108339 0.378668 0.108675
0.172549 0.390387 0.099580
0.233890 0.400793 0.091188
0.297704 0.409033 0.084382
0.369268 0.416785 0.074464
0.413916 0.398016 0.082979
0.487861 0.390539 0.074434
0.546899 0.401740 0.000000
0.597620 0.413825 0.000000
0.641535 0.426215 0.000000
0.681727 0.439277 0.000000
0.719875 0.452094 0.000000
0.756558 0.463508 0.000000
0.797543 0.472389 0.000000
0.841794 0.476539 0.000000
0.883299 0.476539 0.000000
0.920867 0.473243 0.000000
0.954406 0.467597 0.000000
0.984253 0.460487 0.000000
1.000000 0.452491 0.000000
1.000000 0.444007 0.000000
1.000000 0.435309 0.000000
1.000000 0.426551 0.000000
0.000000 0.405158 0.106874
0.000000 0.405402 0.103059
0.000000 0.405737 0.098054
0.000000 0.406470 0.098329
0.000000 0.407446 0.099367
0.000000 0.408820 0.100160
0.000000 0.410346 0.101686
0.000000 0.412085 0.102998
0.000000 0.414160 0.105135
0.077638 0.416419 0.107271
0.143526 0.424750 0.102266
0.212558 0.437812 0.089143
0.281498 0.448096 0.078767
0.355810 0.456733 0.066712
0.437629 0.464302 0.036896
0.486030 0.446204 0.059571
0.554772 0.434852 0.052399
0.603662 0.446937 0.000000
0.646387 0.459052 0.000000
0.685969 0.471504 0.000000
0.723537 0.483253 0.000000
0.759976 0.493538 0.000000
0.795987 0.501915 0.000000
0.831876 0.508019 0.000000
0.873808 0.509545 0.000000
0.912840 0.507134 0.000000
0.947662 0.502007 0.000000
0.978637 0.495094 0.000000
1.000000 0.487007 0.000000
1.000000 0.478309 0.000000
1.000000 0.469276 0.000000
1.000000 0.460060 0.000000
0.000000 0.447456 0.102785
0.000000 0.447669 0.098817
0.000000 0.447974 0.092744
0.000000 0.448585 0.091981
0.000000 0.449439 0.092836
0.000000 0.450752 0.093843
0.000000 0.452216 0.095186
0.000000 0.453956 0.096956
0.000000 0.456001 0.098634
0.021332 0.458167 0.100771
0.102754 0.460548 0.103212
0.184237 0.473365 0.091157
0.260472 0.487312 0.071839
0.338933 0.497108 0.053651
0.423285 0.505455 0.007691
0.506950 0.513664 0.000000
0.552453 0.497353 0.000000
0.608179 0.482979 0.000000
0.651301 0.492775 0.000000
0.690150 0.504417 0.000000
0.727199 0.515160 0.000000
0.763302 0.524224 0.000000
0.799161 0.531334 0.000000
0.834806 0.536309 0.000000
0.869352 0.539269 0.000000
0.903655 0.539727 0.000000
0.940032 0.535271 0.000000
0.972290 0.528710 0.000000
1.000000 0.520745 0.000000
1.000000 0.511894 0.000000
1.000000 0.502586 0.000000
1.000000 0.493080 0.000000
0.000000 0.491432 0.097566
0.000000 0.491676 0.092500
0.000000 0.492012 0.085512
0.000000 0.492683 0.082155
0.000000 0.493538 0.083040
0.000000 0.494759 0.084199
0.000000 0.496162 0.085847
0.000000 0.497810 0.087190
0.000000 0.499733 0.089509
0.000000 0.501823 0.091432
0.076936 0.504204 0.093965
0.145815 0.509728 0.091981
0.232395 0.523857 0.072572
0.317571 0.537560 0.021271
0.405402 0.546197 0.000000
0.491249 0.554345 0.000000
0.565759 0.563561 0.000000
0.606439 0.548760 0.000000
0.652613 0.532036 0.000000
0.694484 0.538170 0.000000
0.731106 0.547845 0.000000
0.766934 0.555749 0.000000
0.802640 0.561608 0.000000
0.838041 0.565454 0.000000
0.872221 0.567254 0.000000
0.904417 0.567285 0.000000
0.934478 0.566033 0.000000
0.965454 0.561486 0.000000
0.995361 0.553704 0.000000
1.000000 0.544884 0.000000
1.000000 0.535393 0.000000
1.000000 0.525566 0.000000
0.000000 0.536339 0.089052
0.000000 0.536461 0.083101
0.000000 0.534722 0.075410
0.000000 0.535332 0.068086
0.000000 0.536217 0.069093
0.000000 0.537346 0.070466
0.000000 0.538872 0.072236
0.000000 0.540551 0.074006
0.000000 0.542565 0.076204
0.000000 0.544732 0.078859
0.000000 0.547143 0.081209
0.113527 0.549706 0.083894
0.196292 0.559289 0.073091
0.288426 0.573358 0.018860
0.381811 0.585168 0.000000
0.471260 0.593164 0.000000
0.548943 0.602014 0.000000
0.614069 0.612360 0.000000
0.651759 0.598871 0.000000
0.692378 0.579339 0.000000
0.734249 0.580316 0.000000
0.769924 0.587182 0.000000
0.805600 0.591913 0.000000
0.840787 0.594690 0.000000
0.874632 0.595422 0.000000
0.906493 0.594598 0.000000
0.936248 0.592370 0.000000
0.963928 0.589319 0.000000
0.989624 0.585626 0.000000
1.000000 0.577234 0.000000
1.000000 0.567712 0.000000
1.000000 0.557671 0.000000
0.000000 0.582208 0.076692
0.000000 0.582208 0.069581
0.000000 0.582208 0.057313
0.000000 0.582605 0.028656
0.000000 0.583185 0.031983
0.000000 0.584283 0.035401
0.000000 0.585657 0.038483
0.000000 0.587213 0.044587
0.000000 0.589166 0.050629
0.000000 0.591211 0.055909
0.000000 0.593469 0.060517
0.087648 0.595850 0.063996
0.153140 0.598505 0.068605
0.255192 0.611170 0.013001
0.354467 0.623835 0.000000
0.450141 0.633570 0.000000
0.531670 0.641749 0.000000
0.598810 0.651362 0.000000
0.657984 0.662043 0.000000
0.694697 0.648890 0.000000
0.731014 0.625055 0.000000
0.773861 0.619623 0.000000
0.809323 0.623163 0.000000
0.844175 0.624720 0.000000
0.877531 0.624384 0.000000
0.908873 0.622431 0.000000
0.938170 0.619257 0.000000
0.965393 0.615259 0.000000
0.990784 0.610742 0.000000
1.000000 0.605768 0.000000
1.000000 0.599481 0.000000
1.000000 0.589288 0.000000
0.000000 0.629175 0.056428
0.000000 0.629175 0.038911
0.000000 0.629236 0.005005
0.000000 0.629603 0.000000
0.000000 0.630182 0.000000
0.000000 0.631159 0.000000
0.000000 0.632380 0.000000
0.000000 0.633906 0.000000
0.000000 0.635645 0.000000
0.000000 0.637568 0.000000
0.000000 0.639673 0.000000
0.018067 0.641901 0.007233
0.138308 0.644251 0.018158
0.213291 0.649378 0.005097
0.321782 0.661494 0.000000
0.424018 0.672602 0.000000
0.511650 0.681239 0.000000
0.581659 0.689784 0.000000
0.641718 0.699214 0.000000
0.698177 0.708858 0.000000
0.735286 0.695216 0.000000
0.768490 0.667048 0.000000
0.812985 0.654688 0.000000
0.847440 0.655116 0.000000
0.880369 0.653620 0.000000
0.911223 0.650660 0.000000
0.940032 0.646540 0.000000
0.966918 0.641657 0.000000
0.991913 0.636225 0.000000
1.000000 0.630549 0.000000
1.000000 0.624628 0.000000
1.000000 0.618677 0.000000
0.000000 0.675746 0.003998
0.000000 0.675715 0.000000
0.000000 0.675746 0.000000
0.000000 0.676204 0.000000
0.000000 0.676692 0.000000
0.000000 0.677607 0.000000
0.000000 0.678737 0.000000
0.000000 0.680171 0.000000
0.000000 0.681758 0.000000
0.000000 0.683497 0.000000
0.000000 0.685481 0.000000
0.000000 0.687495 0.000000
0.117617 0.689631 0.000000
0.187930 0.691829 0.000000
0.282658 0.699367 0.000000
0.392279 0.709590 0.000000
0.487282 0.719295 0.000000
0.561456 0.726894 0.000000
0.623224 0.734920 0.000000
0.679591 0.743221 0.000000
0.735897 0.751034 0.000000
0.774777 0.736477 0.000000
0.805173 0.704219 0.000000
0.850065 0.685084 0.000000
0.882444 0.682612 0.000000
0.912810 0.678706 0.000000
0.941222 0.673701 0.000000
0.967712 0.667964 0.000000
0.992432 0.661799 0.000000
1.000000 0.655360 0.000000
1.000000 0.648737 0.000000
1.000000 0.642145 0.000000
0.000000 0.720577 0.000000
0.000000 0.720699 0.000000
0.000000 0.720821 0.000000
0.000000 0.721309 0.000000
0.000000 0.721950 0.000000
0.000000 0.722805 0.000000
0.000000 0.723842 0.000000
0.000000 0.725093 0.000000
0.000000 0.726528 0.000000
0.000000 0.727993 0.000000
0.000000 0.729671 0.000000
0.000000 0.731472 0.000000
0.086488 0.733303 0.000000
0.176028 0.735103 0.000000
0.239200 0.736934 0.000000
0.354711 0.745480 0.000000
0.456855 0.753872 0.000000
0.537926 0.762631 0.000000
0.602441 0.769345 0.000000
0.659602 0.776425 0.000000
0.715053 0.783261 0.000000
0.773312 0.788968 0.000000
0.814420 0.773556 0.000000
0.841367 0.737942 0.000000
0.885191 0.712245 0.000000
0.915068 0.707362 0.000000
0.942992 0.701442 0.000000
0.969085 0.694881 0.000000
0.993408 0.687922 0.000000
1.000000 0.680690 0.000000
1.000000 0.673335 0.000000
1.000000 0.666011 0.000000
0.000000 0.764370 0.000000
0.000000 0.764462 0.000000
0.000000 0.764584 0.000000
0.000000 0.765011 0.000000
0.000000 0.765530 0.000000
0.000000 0.766293 0.000000
0.000000 0.767300 0.000000
0.000000 0.768338 0.000000
0.000000 0.769619 0.000000
0.000000 0.770932 0.000000
0.000000 0.772366 0.000000
0.000000 0.773831 0.000000
0.000000 0.775326 0.000000
0.160678 0.776791 0.000000
0.232090 0.778225 0.000000
0.309819 0.781064 0.000000
0.422095 0.788144 0.000000
0.509972 0.795468 0.000000
0.579400 0.802762 0.000000
0.638025 0.808560 0.000000
0.693172 0.814176 0.000000
0.749355 0.818967 0.000000
0.809995 0.822354 0.000000
0.852293 0.806058 0.000000
0.875578 0.768032 0.000000
0.916716 0.737758 0.000000
0.944762 0.729397 0.000000
0.970459 0.722042 0.000000
0.994385 0.714290 0.000000
1.000000 0.706294 0.000000
1.000000 0.698238 0.000000
1.000000 0.690211 0.000000
0.000000 0.805020 0.000000
0.000000 0.805051 0.000000
0.000000 0.805173 0.000000
0.000000 0.805600 0.000000
0.000000 0.806180 0.000000
0.000000 0.806851 0.000000
0.000000 0.807706 0.000000
0.000000 0.808713 0.000000
0.000000 0.809812 0.000000
0.000000 0.810971 0.000000
0.000000 0.812222 0.000000
0.000000 0.813474 0.000000
0.000000 0.814725 0.000000
0.140414 0.815946 0.000000
0.222293 0.817044 0.000000
0.287236 0.818021 0.000000
0.381384 0.821714 0.000000
0.478614 0.827481 0.000000
0.553033 0.833860 0.000000
0.614618 0.839506 0.000000
0.670100 0.843870 0.000000
0.724880 0.847715 0.000000
0.782803 0.850401 0.000000
0.844938 0.851591 0.000000
0.887724 0.834653 0.000000
0.906798 0.794553 0.000000
0.944457 0.762509 0.000000
0.971527 0.749142 0.000000
0.995117 0.740688 0.000000
1.000000 0.731991 0.000000
1.000000 0.723232 0.000000
1.000000 0.714534 0.000000
0.000000 0.843687 0.000000
0.000000 0.843748 0.000000
0.000000 0.843870 0.000000
0.000000 0.844236 0.000000
0.000000 0.844724 0.000000
0.000000 0.845304 0.000000
0.000000 0.845975 0.000000
0.000000 0.846799 0.000000
0.000000 0.847654 0.000000
0.000000 0.848600 0.000000
0.000000 0.849607 0.000000
0.000000 0.850553 0.000000
0.000000 0.851469 0.000000
0.112764 0.852323 0.000000
0.209537 0.853056 0.000000
0.279271 0.853666 0.000000
0.339025 0.854093 0.000000
0.442115 0.858000 0.000000
0.523247 0.862669 0.000000
0.588342 0.867796 0.000000
0.645258 0.871611 0.000000
0.699397 0.874479 0.000000
0.755001 0.876524 0.000000
0.814328 0.877317 0.000000
0.876768 0.876738 0.000000
0.919738 0.859495 0.000000
0.935637 0.818448 0.000000
0.969604 0.785061 0.000000
0.995514 0.766964 0.000000
1.000000 0.757656 0.000000
1.000000 0.748287 0.000000
1.000000 0.738918 0.000000
0.000000 0.879240 0.000000
0.000000 0.879301 0.000000
0.000000 0.879423 0.000000
0.000000 0.879759 0.000000
0.000000 0.880217 0.000000
0.000000 0.880735 0.000000
0.000000 0.881285 0.000000
0.000000 0.881956 0.000000
0.000000 0.882628 0.000000
0.000000 0.883360 0.000000
0.000000 0.884062 0.000000
0.000000 0.884794 0.000000
0.000000 0.885435 0.000000
0.069520 0.885954 0.000000
0.194217 0.886381 0.000000
0.269444 0.886625 0.000000
0.331609 0.886748 0.000000
0.399786 0.887449 0.000000
0.490333 0.890562 0.000000
0.559869 0.894163 0.000000
0.618891 0.897917 0.000000
0.673304 0.900084 0.000000
0.727352 0.901457 0.000000
0.784237 0.901823 0.000000
0.844175 0.900999 0.000000
0.906279 0.898985 0.000000
0.949004 0.881743 0.000000
0.963378 0.840909 0.000000
0.992676 0.805814 0.000000
1.000000 0.783413 0.019257
1.000000 0.773434 0.000000
1.000000 0.763485 0.000000
0.000000 0.911772 0.000000
0.000000 0.911833 0.000000
0.000000 0.911925 0.000000
0.000000 0.912261 0.000000
0.000000 0.912627 0.000000
0.000000 0.912993 0.000000
0.000000 0.913329 0.000000
0.000000 0.913725 0.000000
0.000000 0.914153 0.000000
0.000000 0.914580 0.000000
0.000000 0.914977 0.000000
0.000000 0.915343 0.000000
0.000000 0.915648 0.000000
0.000000 0.915892 0.000000
0.174868 0.915953 0.000000
0.256687 0.915892 0.000000
0.321569 0.915740 0.000000
0.376959 0.915526 0.000000
0.452735 0.916503 0.000000
0.528710 0.918761 0.000000
0.590509 0.921324 0.000000
0.645899 0.923827 0.000000
0.699245 0.924620 0.000000
0.753994 0.924651 0.000000
0.811704 0.923644 0.000000
0.871580 0.921569 0.000000
0.932738 0.918425 0.000000
0.975097 0.901335 0.000000
0.987945 0.860807 0.000000
1.000000 0.824582 0.069245
1.000000 0.798276 0.091463
1.000000 0.787808 0.001007
0.000000 0.940551 0.000000
0.000000 0.940642 0.000000
0.000000 0.940764 0.000000
0.000000 0.941009 0.000000
0.000000 0.941436 0.000000
0.000000 0.941680 0.000000
0.000000 0.942016 0.000000
0.000000 0.942351 0.000000
0.000000 0.942718 0.000000
0.000000 0.943023 0.000000
0.000000 0.943359 0.000000
0.000000 0.943633 0.000000
0.000000 0.943786 0.000000
0.000000 0.943816 0.000000
0.153902 0.943725 0.000000
