其他预设/【234】港风调色预设/1.3D LUT预设（视频调色-PR-AE-PS-FCPX-达芬奇用）/31.港风色调-夸张效果 __.cube
# Created by Adobe Lightroom plugin Export LUT (1.17.0)
# www.johnrellis.com/lightroom/exportlut.htm
# Preset: 31.港风色调-夸张效果 [素锦印象]
# Color profile: /Library/Application Support/Adobe/Color/Profiles/Recommended/AdobeRGB1998.icc
LUT_3D_SIZE 8
DOMAIN_MIN 0.000000 0.000000 0.000000
DOMAIN_MAX 0.903226 0.903226 0.903226
0.053101 0.085359 0.094179
0.089448 0.080598 0.093843
0.170871 0.088411 0.090028
0.321721 0.093751 0.083223
0.599695 0.000000 0.059174
0.787594 0.000000 0.000000
0.935515 0.000000 0.000000
1.000000 0.000000 0.004883
0.029114 0.123720 0.093904
0.087190 0.127047 0.089509
0.165164 0.131228 0.086641
0.314214 0.144656 0.082918
0.592157 0.097627 0.050019
0.783352 0.110536 0.000000
0.932891 0.100679 0.000000
1.000000 0.060456 0.000000
0.000000 0.208286 0.096407
0.017731 0.209964 0.097414
0.162905 0.223239 0.095308
0.291081 0.230716 0.077760
0.553338 0.254734 0.000000
0.760739 0.288060 0.000000
0.917998 0.290257 0.000000
1.000000 0.265965 0.000000
0.000000 0.327398 0.108675
0.000000 0.329595 0.104677
0.080079 0.336187 0.111208
0.310246 0.371008 0.088228
0.538903 0.369970 0.000000
0.718105 0.421912 0.000000
0.891814 0.441993 0.000000
1.000000 0.417151 0.000000
0.000000 0.491432 0.097566
0.000000 0.493538 0.083040
0.000000 0.499733 0.089509
0.232395 0.523857 0.072572
0.565759 0.563561 0.000000
0.731106 0.547845 0.000000
0.872221 0.567254 0.000000
0.995361 0.553704 0.000000
0.000000 0.675746 0.003998
0.000000 0.676692 0.000000
0.000000 0.681758 0.000000
0.117617 0.689631 0.000000
0.487282 0.719295 0.000000
0.735897 0.751034 0.000000
0.882444 0.682612 0.000000
0.992432 0.661799 0.000000
0.000000 0.843687 0.000000
0.000000 0.844724 0.000000
0.000000 0.847654 0.000000
0.000000 0.851469 0.000000
0.339025 0.854093 0.000000
0.645258 0.871611 0.000000
0.876768 0.876738 0.000000
0.995514 0.766964 0.000000
0.000000 0.967468 0.000000
0.000000 0.968231 0.000000
0.000000 0.969085 0.000000
0.000000 0.969543 0.000000
0.301732 0.968719 0.000000
0.531487 0.967742 0.000000
0.750149 0.967468 0.000000
0.980591 0.952941 0.000000
0.000000 0.094972 0.144106
0.079316 0.079896 0.143832
0.163699 0.096437 0.148257
0.326543 0.078920 0.149844
0.607660 0.000000 0.139956
0.793606 0.000000 0.130068
0.939666 0.000000 0.129091
1.000000 0.000000 0.144076
0.000000 0.130526 0.143526
0.074128 0.127321 0.144869
0.162814 0.132662 0.143740
0.318608 0.134585 0.142153
0.599145 0.000000 0.132418
0.788449 0.000000 0.121157
0.936797 0.000000 0.120516
1.000000 0.000000 0.137514
0.000000 0.210086 0.144808
0.026642 0.211978 0.149325
0.156466 0.222873 0.148013
0.291173 0.227268 0.109621
0.563348 0.243198 0.097322
0.766842 0.272923 0.076112
0.923033 0.275273 0.074464
1.000000 0.255863 0.105196
0.000000 0.330175 0.162173
0.000000 0.332738 0.152132
0.081849 0.339208 0.153475
0.309056 0.371679 0.141207
0.541955 0.369604 0.083589
0.725948 0.418067 0.000000
0.897551 0.434424 0.000000
1.000000 0.410346 0.000000
0.000000 0.493568 0.169253
0.000000 0.496162 0.142428
0.000000 0.502647 0.137606
0.223362 0.523766 0.133394
0.565759 0.564385 0.085328
0.731838 0.548089 0.000000
0.873594 0.564874 0.000000
0.998047 0.548852 0.000000
0.000000 0.677638 0.149508
0.000000 0.679591 0.110384
0.000000 0.684749 0.089082
0.117708 0.692195 0.098909
0.481666 0.719356 0.000000
0.735195 0.751156 0.000000
0.882597 0.683131 0.000000
0.993042 0.660945 0.000000
0.000000 0.844999 0.116609
0.000000 0.846464 0.033143
0.000000 0.849516 0.000000
0.000000 0.852903 0.000000
0.341772 0.854978 0.017609
0.642725 0.872038 0.000000
0.876829 0.877195 0.000000
0.995636 0.768368 0.106508
0.000000 0.967681 0.103426
0.000000 0.968353 0.000000
0.000000 0.969604 0.000000
0.000000 0.969909 0.000000
0.304570 0.968322 0.038148
0.528038 0.967468 0.067262
0.748684 0.967559 0.000000
0.980285 0.953094 0.007355
0.000000 0.092195 0.256413
0.000000 0.085420 0.252232
0.137850 0.099245 0.244724
0.269444 0.094667 0.260502
0.580499 0.000000 0.293858
0.803769 0.000000 0.297398
0.946380 0.000000 0.300816
1.000000 0.000000 0.310552
0.000000 0.157504 0.257206
0.000000 0.133272 0.253941
0.136934 0.134859 0.245945
0.280797 0.131655 0.263279
0.595514 0.000000 0.287510
0.800534 0.000000 0.288518
0.943755 0.000000 0.293126
1.000000 0.069703 0.304448
0.000000 0.230533 0.248447
0.000000 0.228489 0.248447
0.130312 0.220188 0.248295
0.305241 0.221073 0.245518
0.588006 0.197604 0.246860
0.780697 0.216037 0.251102
0.932067 0.233921 0.262058
1.000000 0.249180 0.279759
0.000000 0.331945 0.237980
0.000000 0.334813 0.241184
0.087648 0.343969 0.247684
0.295079 0.366735 0.246281
0.537072 0.353429 0.175296
0.742153 0.392889 0.165469
0.908507 0.406287 0.193057
1.000000 0.393683 0.226780
0.000000 0.496803 0.252567
0.000000 0.499397 0.252995
0.000000 0.508049 0.240909
0.189151 0.517357 0.242527
0.556420 0.559167 0.228855
0.728695 0.542809 0.180209
0.874235 0.552026 0.000000
1.000000 0.532097 0.104219
0.000000 0.679683 0.259373
0.000000 0.681697 0.257420
0.000000 0.688746 0.225193
0.120241 0.696162 0.221866
0.458198 0.715877 0.216007
0.730770 0.749874 0.205905
0.881346 0.684352 0.198703
0.993469 0.656703 0.065553
0.000000 0.845335 0.259892
0.000000 0.846433 0.257694
0.000000 0.850828 0.207279
0.000000 0.854459 0.199557
0.353521 0.855924 0.210269
0.632624 0.871305 0.194980
0.873991 0.876799 0.209964
0.993347 0.772549 0.249516
0.000000 0.966857 0.267399
0.000000 0.967163 0.266087
0.000000 0.969696 0.207675
0.000000 0.970001 0.198489
0.322057 0.967926 0.215122
0.517815 0.966583 0.232181
0.743801 0.967376 0.214786
0.978271 0.952941 0.244877
0.000000 0.100557 0.402075
0.000000 0.097749 0.396399
0.113924 0.098665 0.378149
0.259068 0.091402 0.365515
0.442115 0.000000 0.375525
0.726284 0.000000 0.432624
0.919585 0.000000 0.453864
1.000000 0.299413 0.500603
0.000000 0.179873 0.401526
0.000000 0.144198 0.397742
0.103883 0.137575 0.380591
0.260227 0.128542 0.366522
0.446601 0.004669 0.375067
0.734340 0.000000 0.432776
0.923430 0.000000 0.457618
1.000000 0.364508 0.516564
0.000000 0.310613 0.409369
0.000000 0.304906 0.408576
0.000000 0.235050 0.390356
0.264042 0.219577 0.369848
0.504417 0.186831 0.389807
0.759854 0.204135 0.435065
0.932280 0.350591 0.483742
1.000000 0.425727 0.510124
0.000000 0.389197 0.378637
0.000000 0.387243 0.378119
0.000000 0.379217 0.376379
0.265782 0.357092 0.371954
0.563745 0.358709 0.378576
0.764462 0.391577 0.394873
0.920714 0.426001 0.419501
1.000000 0.454871 0.446571
0.000000 0.497200 0.344579
0.000000 0.500359 0.346532
0.000000 0.510552 0.353613
0.234043 0.523522 0.365179
0.538354 0.549218 0.368078
0.723445 0.524987 0.289494
0.890074 0.529595 0.282231
1.000000 0.527153 0.341558
0.000000 0.680781 0.358618
0.000000 0.682521 0.358343
0.000000 0.690425 0.359838
0.172122 0.699733 0.354253
0.416327 0.705287 0.357519
0.720333 0.745571 0.365362
0.877684 0.686397 0.333867
0.994385 0.646998 0.234073
0.000000 0.846921 0.362615
0.000000 0.847776 0.361913
0.000000 0.850431 0.362280
0.038514 0.854673 0.344762
0.388769 0.855253 0.347265
0.615961 0.867308 0.355200
0.868559 0.875944 0.380072
0.988922 0.782895 0.389227
0.000000 0.967254 0.362829
0.000000 0.967346 0.363531
0.000000 0.967254 0.368811
0.000000 0.968200 0.347448
0.367987 0.966003 0.351232
0.524773 0.964477 0.369787
0.738064 0.966430 0.372686
0.974212 0.952605 0.409003
0.000000 0.122560 0.584771
0.000000 0.112184 0.578851
0.000000 0.099336 0.558495
0.308476 0.000000 0.520684
0.481636 0.000000 0.506432
0.646326 0.000000 0.517052
0.840696 0.000000 0.554070
1.000000 0.038422 0.573022
0.000000 0.204868 0.585840
0.000000 0.160616 0.580804
0.000000 0.144015 0.561059
0.305425 0.097871 0.523980
0.483619 0.000000 0.507530
0.647517 0.000000 0.516167
0.846281 0.000000 0.555535
1.000000 0.194614 0.578637
0.000000 0.380255 0.596643
0.000000 0.360479 0.589288
0.000000 0.254948 0.572961
0.290349 0.220310 0.535515
0.490578 0.173526 0.511131
0.651728 0.098756 0.513146
0.864744 0.190249 0.564599
1.000000 0.407263 0.608698
0.000000 0.524193 0.590631
0.000000 0.519860 0.590234
0.000000 0.502556 0.588281
0.251194 0.391119 0.554620
0.498970 0.341833 0.514885
0.684901 0.347967 0.531975
0.889128 0.484321 0.605005
0.997711 0.628748 0.684413
0.000000 0.603906 0.537316
0.000000 0.602014 0.536645
0.000000 0.593866 0.533959
0.271092 0.573266 0.528313
0.506065 0.531334 0.517266
0.731502 0.575799 0.551232
0.898009 0.622187 0.595453
0.998383 0.656764 0.633875
0.000000 0.682033 0.462318
0.000000 0.684260 0.463844
0.000000 0.691493 0.470192
0.224033 0.700710 0.484657
0.482826 0.706752 0.508049
0.702449 0.738308 0.529015
0.872984 0.681270 0.447883
0.997528 0.650813 0.436805
0.000000 0.847044 0.471778
0.000000 0.848142 0.472328
0.000000 0.851225 0.475227
0.206394 0.853422 0.485603
0.458503 0.853178 0.500237
0.596246 0.857816 0.512261
0.858946 0.874510 0.553094
0.981506 0.799771 0.531701
0.000000 0.967956 0.468299
0.000000 0.968139 0.469093
0.000000 0.968048 0.473426
0.240787 0.964538 0.488869
0.449226 0.961364 0.503960
0.567468 0.961059 0.517296
0.735775 0.963226 0.536950
0.967102 0.952209 0.581140
0.000000 0.145937 0.768276
0.000000 0.130800 0.764797
0.000000 0.111391 0.751858
0.323064 0.000000 0.725490
0.538170 0.000000 0.684810
0.664027 0.000000 0.675380
0.797177 0.000000 0.672541
0.946746 0.000000 0.661799
0.000000 0.225895 0.770596
0.000000 0.181460 0.767941
0.000000 0.158267 0.755093
0.312657 0.074830 0.728817
0.537316 0.000000 0.686305
0.664851 0.000000 0.676570
0.797971 0.000000 0.671901
0.949401 0.000000 0.662867
0.000000 0.412696 0.775113
0.000000 0.387121 0.772854
0.000000 0.279271 0.763699
0.268589 0.237125 0.737850
0.531456 0.146548 0.693629
0.666346 0.090394 0.679042
0.799588 0.000000 0.668910
0.957336 0.130251 0.668727
0.000000 0.609857 0.793515
0.000000 0.599329 0.789944
0.000000 0.558190 0.775479
0.208804 0.428260 0.752987
0.520043 0.360235 0.708705
0.666743 0.327825 0.681636
0.800412 0.304417 0.662867
0.966125 0.444495 0.694392
0.000000 0.719631 0.766751
0.000000 0.717159 0.766720
0.000000 0.707485 0.766445
0.401892 0.690211 0.765438
0.521324 0.589166 0.732998
0.666316 0.527825 0.685420
0.822324 0.550408 0.686793
0.970581 0.701350 0.768917
0.000000 0.803281 0.713680
0.000000 0.801541 0.713222
0.000000 0.794827 0.712093
0.311345 0.778866 0.709468
0.520378 0.755001 0.704280
0.665156 0.717464 0.689540
0.865873 0.771176 0.747982
0.973816 0.804654 0.789242
0.000000 0.854276 0.603845
0.000000 0.853758 0.603113
0.000000 0.851530 0.600641
0.216892 0.850584 0.608484
0.480079 0.850187 0.635615
0.643549 0.852750 0.680293
0.841550 0.870115 0.717159
0.971008 0.816007 0.663111
0.000000 0.967224 0.583276
0.000000 0.967254 0.584405
0.000000 0.966674 0.589166
0.255955 0.963470 0.602014
0.484993 0.958526 0.635218
0.631220 0.954559 0.680049
0.738979 0.954925 0.697047
0.956695 0.951537 0.741726
0.000000 0.171206 0.903624
0.000000 0.155581 0.902251
0.000000 0.142184 0.896452
0.237644 0.000000 0.884672
0.520134 0.000000 0.864927
0.669215 0.000000 0.842374
0.805264 0.000000 0.835203
0.937926 0.000000 0.805875
0.000000 0.242527 0.904204
0.000000 0.205203 0.903319
0.000000 0.184085 0.897734
0.220371 0.124666 0.886046
0.516197 0.000000 0.866300
0.668238 0.000000 0.842802
0.805478 0.000000 0.835447
0.938018 0.000000 0.805234
0.000000 0.419959 0.905608
0.000000 0.398169 0.904814
0.000000 0.308232 0.901793
0.164523 0.272770 0.890410
0.504082 0.206027 0.870695
0.664759 0.101381 0.843992
0.806027 0.000000 0.836149
0.937987 0.000000 0.803067
0.000000 0.619043 0.908843
0.000000 0.613184 0.907286
0.148623 0.581201 0.902251
0.207797 0.469429 0.896361
0.495796 0.419532 0.877501
0.659052 0.345922 0.846036
0.806088 0.327825 0.836576
0.936797 0.306828 0.799557
0.000000 0.755978 0.909422
0.000000 0.755459 0.909483
0.341650 0.756802 0.909789
0.488502 0.736904 0.901122
0.531456 0.643336 0.886564
0.656764 0.571130 0.856016
0.804898 0.530480 0.835935
0.932219 0.512902 0.797757
0.000000 0.850828 0.890227
0.000000 0.849180 0.890288
0.274571 0.844388 0.890532
0.471077 0.840360 0.891386
0.623438 0.840116 0.893278
0.692653 0.778653 0.873045
0.804044 0.713283 0.835050
0.933593 0.730007 0.825895
0.000000 0.936095 0.851560
0.000000 0.934417 0.851713
0.096468 0.928161 0.851987
0.385931 0.918151 0.852689
0.548211 0.905028 0.853269
0.688685 0.886351 0.851438
0.808774 0.854948 0.838590
0.956786 0.895903 0.891844
0.000000 0.972717 0.732265
0.000000 0.971984 0.732387
0.000000 0.968963 0.732998
0.300206 0.963134 0.734951
0.482795 0.956725 0.747860
0.645167 0.951781 0.787655
0.794064 0.946105 0.831540
0.945800 0.950622 0.862943
0.000000 0.197635 0.990478
0.000000 0.182895 0.990082
0.000000 0.176669 0.987823
0.000000 0.133822 0.983337
0.447059 0.000000 0.976043
0.623468 0.000000 0.965576
0.772335 0.000000 0.957153
0.928649 0.000000 0.953094
0.000000 0.258183 0.990387
0.000000 0.229831 0.990295
0.000000 0.213535 0.988251
0.000000 0.182345 0.983734
0.444038 0.092805 0.976410
0.621576 0.000000 0.965911
0.771847 0.000000 0.957153
0.928649 0.000000 0.953033
0.000000 0.421424 0.989319
0.000000 0.404547 0.989288
0.000000 0.335637 0.989075
0.000000 0.311315 0.984680
0.439429 0.273533 0.977386
0.616297 0.221134 0.966949
0.770169 0.141604 0.957000
0.928283 0.038514 0.952605
0.105318 0.630793 0.985077
0.124453 0.620996 0.985016
0.171664 0.583307 0.984771
0.226352 0.501762 0.984253
0.460243 0.471962 0.977661
0.615015 0.429053 0.967773
0.768734 0.366796 0.956054
0.927184 0.348425 0.951354
0.318212 0.766842 0.985443
0.353460 0.766629 0.984833
0.441901 0.765591 0.982544
0.536797 0.759365 0.978332
0.537316 0.678614 0.976837
0.638666 0.635309 0.967926
0.772488 0.558404 0.953674
0.924834 0.545678 0.948608
0.326604 0.853727 0.979828
0.364141 0.854917 0.979767
0.462898 0.859922 0.979614
0.582666 0.869780 0.979675
0.687465 0.867277 0.976806
0.711818 0.811765 0.970153
0.793027 0.752407 0.955077
0.922362 0.716365 0.945220
0.265629 0.933288 0.969818
0.307500 0.932738 0.969848
0.412268 0.931273 0.969940
0.536797 0.930114 0.970245
0.670039 0.929351 0.971038
0.795407 0.929473 0.973266
0.844175 0.895140 0.965087
0.921813 0.847013 0.943389
0.111788 1.000000 0.944488
0.189975 1.000000 0.944762
0.326665 1.000000 0.945617
0.464637 1.000000 0.947326
0.599786 0.990539 0.949615
0.730922 0.977569 0.951995
0.841489 0.963317 0.953399
0.926085 0.942718 0.946349
