其他预设/【234】港风调色预设/1.3D LUT预设（视频调色-PR-AE-PS-FCPX-达芬奇用）/31.港风色调-夸张效果 __.cube
# Created by Adobe Lightroom plugin Export LUT (1.17.0)
# www.johnrellis.com/lightroom/exportlut.htm
# Preset: 31.港风色调-夸张效果 [素锦印象]
# Color profile: /Library/Application Support/Adobe/Color/Profiles/Recommended/AdobeRGB1998.icc
LUT_3D_SIZE 5
DOMAIN_MIN 0.000000 0.000000 0.000000
DOMAIN_MAX 0.903226 0.903226 0.903226
0.053101 0.085359 0.094179
0.147005 0.084627 0.091554
0.454292 0.026673 0.076753
0.827604 0.000000 0.000000
1.000000 0.000000 0.004883
0.000000 0.184726 0.091981
0.140261 0.195407 0.091554
0.414923 0.220554 0.064485
0.809140 0.253056 0.000000
1.000000 0.224643 0.000000
0.000000 0.405158 0.106874
0.000000 0.412085 0.102998
0.437629 0.464302 0.036896
0.759976 0.493538 0.000000
1.000000 0.487007 0.000000
0.000000 0.720577 0.000000
0.000000 0.725093 0.000000
0.239200 0.736934 0.000000
0.773312 0.788968 0.000000
0.993408 0.687922 0.000000
0.000000 0.967468 0.000000
0.000000 0.968841 0.000000
0.131685 0.969787 0.000000
0.590539 0.968475 0.000000
0.980591 0.952941 0.000000
0.000000 0.094789 0.225986
0.119600 0.094697 0.217655
0.437354 0.000000 0.252628
0.841917 0.000000 0.250584
1.000000 0.000000 0.264347
0.000000 0.201572 0.219913
0.111727 0.193759 0.220523
0.445502 0.184421 0.217533
0.824430 0.182010 0.219089
1.000000 0.200931 0.242130
0.000000 0.410071 0.224796
0.000000 0.419104 0.218723
0.430152 0.461921 0.209903
0.761379 0.479438 0.000000
1.000000 0.468025 0.126284
0.000000 0.722866 0.235111
0.000000 0.728847 0.188998
0.247135 0.740017 0.186984
0.769863 0.788296 0.156741
0.993622 0.686336 0.063447
0.000000 0.966583 0.238956
0.000000 0.969024 0.171420
0.152987 0.969238 0.169619
0.581720 0.967681 0.185916
0.978698 0.952819 0.202640
0.000000 0.111360 0.488716
0.000000 0.101900 0.469276
0.359472 0.000000 0.433295
0.728023 0.000000 0.483162
1.000000 0.222171 0.533623
0.000000 0.310643 0.496468
0.000000 0.217624 0.479011
0.366705 0.175845 0.436622
0.753079 0.059236 0.489998
1.000000 0.428138 0.573999
0.000000 0.493843 0.453986
0.000000 0.486549 0.451850
0.384222 0.441352 0.441199
0.795193 0.497688 0.480446
1.000000 0.561852 0.541802
0.000000 0.725978 0.412543
0.000000 0.732692 0.414801
0.336522 0.744808 0.424170
0.753475 0.783169 0.449256
0.993774 0.678645 0.330175
0.000000 0.968048 0.413916
0.000000 0.967956 0.417639
0.311986 0.965148 0.421668
0.572778 0.963134 0.446693
0.971252 0.952544 0.494820
0.000000 0.152499 0.808988
0.000000 0.126284 0.798550
0.449836 0.000000 0.755795
0.699886 0.000000 0.718715
0.935637 0.000000 0.689998
0.000000 0.362646 0.813138
0.000000 0.255894 0.806149
0.430701 0.156374 0.764096
0.701472 0.000000 0.721248
0.937346 0.000000 0.686488
0.000000 0.681758 0.825071
0.000000 0.674067 0.825620
0.411231 0.523888 0.789334
0.702083 0.428962 0.725795
0.958038 0.518120 0.726680
0.000000 0.843351 0.753140
0.000000 0.837736 0.752804
0.438178 0.811551 0.749691
0.700771 0.757992 0.731075
0.968902 0.832578 0.820035
0.000000 0.966979 0.613275
0.000000 0.966552 0.617517
0.388220 0.960388 0.644282
0.672450 0.952483 0.721401
0.954009 0.951385 0.776303
0.000000 0.197635 0.990478
0.000000 0.179629 0.988586
0.311650 0.065827 0.980011
0.662776 0.000000 0.962249
0.928649 0.000000 0.953094
0.000000 0.373510 0.989807
0.000000 0.302068 0.989593
0.301854 0.252079 0.981140
0.657282 0.135012 0.963348
0.928435 0.000000 0.952789
0.254215 0.701686 0.984985
0.379278 0.700282 0.982544
0.426825 0.594232 0.980529
0.656428 0.517998 0.964782
0.926146 0.450019 0.950164
0.315679 0.872801 0.977569
0.424933 0.875517 0.977478
0.638422 0.888212 0.977874
0.749722 0.836637 0.968780
0.921935 0.753109 0.944518
0.111788 1.000000 0.944488
0.291630 1.000000 0.945342
0.532097 0.995941 0.948425
0.760800 0.974121 0.952514
0.926085 0.942718 0.946349
