其他预设/【234】港风调色预设/1.3D LUT预设（视频调色-PR-AE-PS-FCPX-达芬奇用）/34.港风色调-夸张效果 __.cube
# Created by Adobe Lightroom plugin Export LUT (1.17.0)
# www.johnrellis.com/lightroom/exportlut.htm
# Preset: 34.港风色调-夸张效果 [素锦印象]
# Color profile: /Library/Application Support/Adobe/Color/Profiles/Recommended/AdobeRGB1998.icc
LUT_3D_SIZE 8
DOMAIN_MIN 0.000000 0.000000 0.000000
DOMAIN_MAX 0.903226 0.903226 0.903226
0.147463 0.155062 0.151980
0.162844 0.155612 0.152560
0.231968 0.154665 0.152956
0.372564 0.145937 0.149966
0.542870 0.130190 0.144015
0.721157 0.116640 0.139986
0.853880 0.140078 0.156924
0.920562 0.192630 0.198001
0.151156 0.158877 0.154208
0.160769 0.161227 0.153872
0.213169 0.165011 0.156710
0.349004 0.164126 0.154574
0.520500 0.156924 0.150576
0.702083 0.150332 0.148074
0.840085 0.166537 0.162905
0.915526 0.210666 0.203128
0.161288 0.166751 0.160616
0.168521 0.176944 0.155123
0.234562 0.191775 0.153841
0.311528 0.210483 0.182254
0.494636 0.221744 0.180179
0.698756 0.236759 0.184695
0.846311 0.263920 0.209720
0.915282 0.301427 0.253941
0.185092 0.187961 0.173709
0.191409 0.202548 0.165530
0.284062 0.261997 0.136294
0.410773 0.273655 0.145083
0.471901 0.323095 0.266667
0.690578 0.354070 0.269169
0.831449 0.378576 0.288334
0.903014 0.408118 0.327581
0.229435 0.225010 0.197879
0.234470 0.241337 0.188540
0.299107 0.302953 0.151431
0.526635 0.423713 0.000000
0.630365 0.393622 0.135317
0.635798 0.442145 0.358404
0.791196 0.490150 0.391424
0.880858 0.526421 0.429999
0.307134 0.282383 0.245335
0.316838 0.305180 0.238682
0.360876 0.369909 0.197330
0.522911 0.481666 0.050111
0.755367 0.582605 0.000000
0.789181 0.500908 0.174502
0.782559 0.576104 0.473396
0.852506 0.638849 0.549187
0.425727 0.377295 0.320836
0.425147 0.374914 0.321080
0.446540 0.438941 0.280705
0.549523 0.545769 0.180667
0.735592 0.650507 0.000000
0.869566 0.653559 0.000000
0.871611 0.583520 0.290684
0.845151 0.679805 0.587793
0.591760 0.550134 0.427619
0.587518 0.530999 0.432044
0.583307 0.526390 0.424140
0.631800 0.627314 0.352087
0.722621 0.702083 0.165469
0.869444 0.754757 0.000000
0.918883 0.672816 0.000000
0.894957 0.673732 0.488533
0.145785 0.164736 0.169924
0.164340 0.163821 0.164309
0.246830 0.154665 0.159304
0.376196 0.153841 0.159579
0.536980 0.144442 0.156649
0.706477 0.141054 0.155734
0.835660 0.169223 0.168673
0.911559 0.216068 0.203616
0.149355 0.173556 0.163577
0.168673 0.170291 0.162570
0.229740 0.174777 0.165530
0.359930 0.175204 0.164920
0.522545 0.171725 0.163241
0.693690 0.172793 0.163363
0.823758 0.194064 0.175051
0.905760 0.229679 0.207675
0.170016 0.177066 0.164767
0.178958 0.186679 0.162264
0.257115 0.207675 0.154360
0.310491 0.224369 0.195163
0.486152 0.237949 0.193881
0.676478 0.254124 0.197696
0.819791 0.277928 0.214420
0.904997 0.306340 0.252049
0.190066 0.196567 0.172671
0.201846 0.213840 0.165316
0.293797 0.271458 0.135256
0.423743 0.288518 0.132113
0.444892 0.312505 0.256870
0.641016 0.349157 0.269200
0.802731 0.373846 0.282811
0.893126 0.403388 0.319951
0.236881 0.237491 0.196628
0.243839 0.253147 0.187106
0.310704 0.312993 0.149691
0.518669 0.421729 0.000000
0.622950 0.395331 0.112825
0.634424 0.423316 0.328313
0.773587 0.487221 0.389960
0.874205 0.523095 0.425513
0.308751 0.290043 0.241855
0.314305 0.307347 0.232609
0.358373 0.367559 0.193393
0.514183 0.474586 0.062867
0.747738 0.582513 0.000000
0.791104 0.505211 0.150515
0.785946 0.566796 0.455238
0.847410 0.636194 0.546502
0.414527 0.364172 0.315496
0.412024 0.368322 0.309392
0.435706 0.430030 0.272465
0.540490 0.536919 0.179110
0.727535 0.645045 0.000000
0.866514 0.656153 0.000000
0.869139 0.578332 0.265812
0.843870 0.668574 0.571038
0.583154 0.541894 0.420844
0.580804 0.524743 0.426734
0.577752 0.521202 0.419989
0.627192 0.622614 0.350256
0.729061 0.709957 0.182254
0.868315 0.756802 0.000000
0.918791 0.675959 0.000000
0.896025 0.669429 0.475319
0.099123 0.222446 0.269383
0.127779 0.198825 0.260746
0.250492 0.199832 0.222660
0.382025 0.188388 0.224979
0.598810 0.100374 0.192477
0.748135 0.148959 0.205020
0.855070 0.194491 0.220676
0.916960 0.251957 0.249424
0.113771 0.235264 0.257145
0.143282 0.215702 0.247471
0.251804 0.211337 0.217227
0.402075 0.179904 0.211612
0.584741 0.165957 0.201297
0.736141 0.187778 0.211185
0.846983 0.220127 0.225742
0.913390 0.270970 0.255619
0.128267 0.291020 0.232486
0.165621 0.284184 0.223331
0.281376 0.245548 0.211948
0.392920 0.262425 0.230716
0.566735 0.274052 0.238010
0.723598 0.285313 0.245212
0.838010 0.306706 0.260929
0.906371 0.344305 0.292454
0.242100 0.317723 0.200534
0.265812 0.286687 0.212894
0.304875 0.294896 0.200107
0.471412 0.331701 0.190738
0.511742 0.374151 0.315740
0.691157 0.396429 0.317235
0.819303 0.419135 0.332464
0.892576 0.450385 0.364630
0.300450 0.296056 0.233402
0.300572 0.276402 0.242130
0.343511 0.341588 0.208865
0.539910 0.454810 0.075959
0.670954 0.443336 0.145022
0.677943 0.460182 0.354192
0.774014 0.528069 0.434852
0.867979 0.560266 0.462928
0.341283 0.308721 0.266423
0.348455 0.329870 0.258061
0.391485 0.394812 0.219425
0.530999 0.496468 0.098421
0.751461 0.601343 0.000000
0.810239 0.533806 0.005676
0.808957 0.560235 0.416449
0.841886 0.655482 0.569787
0.436164 0.378912 0.331792
0.438300 0.397223 0.321080
0.461707 0.456062 0.281865
0.555993 0.553338 0.189029
0.725673 0.652186 0.000000
0.869047 0.676631 0.000000
0.880980 0.591608 0.224186
0.855741 0.672755 0.565789
0.598260 0.555230 0.433539
0.593103 0.537743 0.435737
0.586145 0.524224 0.430671
0.633875 0.626215 0.367864
0.725765 0.711055 0.212589
0.859525 0.758846 0.000000
0.920409 0.689631 0.000000
0.900572 0.668849 0.456123
0.000000 0.325444 0.433692
0.000000 0.303746 0.424689
0.202243 0.232914 0.398444
0.409186 0.279515 0.333196
0.520897 0.321355 0.343328
0.733120 0.199680 0.315618
0.859983 0.172946 0.275456
0.917601 0.258824 0.298894
0.000000 0.342657 0.429541
0.000000 0.321874 0.419104
0.216922 0.255222 0.389563
0.414557 0.292363 0.331395
0.539788 0.314519 0.342016
0.739620 0.192172 0.300206
0.855619 0.215366 0.282841
0.915496 0.280461 0.304784
0.000000 0.400885 0.416815
0.000000 0.384802 0.406561
0.237339 0.321386 0.369390
0.421454 0.330327 0.320012
0.605127 0.293706 0.316655
0.760891 0.297826 0.307073
0.857939 0.341741 0.330663
0.911803 0.372229 0.348119
0.000000 0.525444 0.395636
0.133639 0.515831 0.384222
0.314672 0.479774 0.340612
0.482216 0.388464 0.318730
0.596704 0.420752 0.362310
0.734249 0.436194 0.372808
0.836790 0.454536 0.388769
0.897551 0.479591 0.412970
0.312779 0.604944 0.298314
0.358984 0.569451 0.297826
0.450172 0.445899 0.327184
0.517205 0.467872 0.292302
0.687709 0.495705 0.305211
0.691890 0.552911 0.481910
0.807492 0.574640 0.488930
0.874784 0.591699 0.504662
0.483650 0.539757 0.332708
0.496407 0.520806 0.344915
0.483772 0.429023 0.359655
0.542016 0.514977 0.301488
0.751492 0.630610 0.105745
0.818936 0.575097 0.273320
0.812924 0.617700 0.507225
0.843473 0.678401 0.597986
0.542687 0.525811 0.382177
0.540337 0.505760 0.387488
0.525933 0.463478 0.389685
0.580072 0.569146 0.314214
0.720577 0.669215 0.121401
0.873625 0.706813 0.000000
0.891600 0.615137 0.198001
0.868284 0.670832 0.545342
0.630854 0.578576 0.464759
0.628870 0.565820 0.468727
0.620233 0.546136 0.466804
0.644587 0.626337 0.408240
0.719539 0.711788 0.271489
0.842191 0.761501 0.000000
0.921233 0.713649 0.000000
0.907561 0.666255 0.415229
0.000000 0.429938 0.604730
0.000000 0.416358 0.600427
0.000000 0.360357 0.576959
0.412055 0.324376 0.554589
0.580529 0.388617 0.471046
0.652979 0.470924 0.471229
0.808896 0.436439 0.485054
0.898283 0.410834 0.456428
0.000000 0.445777 0.603784
0.000000 0.434394 0.601617
0.014405 0.377142 0.575525
0.415717 0.337835 0.548791
0.581079 0.396338 0.466865
0.654963 0.480659 0.473487
0.814359 0.434150 0.480171
0.900603 0.405432 0.447639
0.000000 0.498421 0.601190
0.000000 0.486976 0.594751
0.162173 0.436866 0.566430
0.417914 0.375738 0.526116
0.582391 0.421485 0.452766
0.685451 0.464973 0.470130
0.829374 0.418463 0.453071
0.906065 0.398169 0.419715
0.000000 0.593469 0.597375
0.000000 0.583093 0.589288
0.250767 0.545373 0.561486
0.433692 0.460121 0.501396
0.597925 0.482094 0.448249
0.747372 0.447578 0.439002
0.847715 0.459022 0.435950
0.900908 0.483070 0.450111
0.164950 0.718685 0.557885
0.235599 0.713527 0.551690
0.388617 0.691035 0.526421
0.562615 0.619287 0.474495
0.659846 0.538170 0.448920
0.736660 0.573327 0.504448
0.826780 0.587945 0.516442
0.881865 0.599603 0.528832
0.454688 0.766751 0.457343
0.482918 0.757290 0.456855
0.560479 0.707271 0.454200
0.618341 0.579644 0.459907
0.670497 0.602350 0.399878
0.801236 0.620600 0.445045
0.800504 0.678431 0.608301
0.856962 0.693843 0.618585
0.647883 0.740658 0.493507
0.656001 0.729030 0.495857
0.668971 0.685603 0.496559
0.652613 0.583856 0.493538
0.684840 0.645289 0.417151
0.852293 0.728603 0.212009
0.878508 0.660883 0.407538
0.859342 0.705776 0.610834
0.722072 0.735592 0.542412
0.722225 0.727016 0.542107
0.718532 0.691737 0.540795
0.696590 0.609644 0.543786
0.711421 0.690425 0.437964
0.809232 0.759457 0.178500
0.917418 0.745205 0.000000
0.915923 0.661158 0.336370
0.000000 0.498787 0.711482
0.000000 0.491676 0.709163
0.000000 0.461158 0.696254
0.361822 0.434058 0.681178
0.596307 0.456886 0.652155
0.711940 0.520348 0.591516
0.771542 0.600061 0.597284
0.847562 0.643610 0.636866
0.000000 0.505821 0.703944
0.000000 0.498360 0.701076
0.000000 0.469551 0.689784
0.356725 0.437568 0.673640
0.593805 0.458930 0.645899
0.709682 0.521355 0.586481
0.770199 0.602411 0.595636
0.849149 0.639673 0.633570
0.000000 0.547509 0.704646
0.000000 0.540612 0.701320
0.172122 0.515648 0.689967
0.373541 0.472816 0.668025
0.607324 0.489693 0.640711
0.715541 0.541619 0.582300
0.773190 0.620294 0.599573
0.857084 0.633509 0.626459
0.000000 0.614649 0.703578
0.111910 0.609216 0.700008
0.283391 0.591241 0.689143
0.436591 0.555138 0.668513
0.632074 0.544305 0.635981
0.730129 0.581476 0.582025
0.796017 0.632013 0.608545
0.871275 0.623560 0.609308
0.225467 0.710536 0.698726
0.271458 0.707271 0.696376
0.387488 0.694331 0.686732
0.519768 0.665888 0.665217
0.624262 0.597894 0.614923
0.731624 0.619013 0.573053
0.829587 0.604578 0.573938
0.887144 0.602564 0.563073
0.432319 0.802640 0.658228
0.467811 0.799924 0.657588
0.554376 0.788540 0.651545
0.654597 0.769131 0.640009
0.727230 0.719570 0.605890
0.777951 0.665614 0.581872
0.825437 0.695155 0.629725
0.868498 0.701961 0.636439
0.677729 0.813230 0.620417
0.691218 0.810575 0.624140
0.721157 0.801541 0.628992
0.752956 0.782010 0.627649
0.765652 0.714015 0.609369
0.787442 0.716457 0.552056
0.859129 0.719661 0.589014
0.848539 0.752346 0.691463
0.764553 0.805020 0.636011
0.769345 0.802792 0.638300
0.783017 0.794553 0.644434
0.796689 0.775692 0.647425
0.783413 0.719875 0.626917
0.784909 0.737087 0.553460
0.897215 0.779843 0.300999
0.896574 0.718410 0.527520
0.000000 0.536217 0.750881
0.000000 0.534081 0.750301
0.207340 0.525139 0.746914
0.391608 0.517052 0.740108
0.601404 0.555047 0.729458
0.728695 0.594629 0.709834
0.795041 0.638605 0.676905
0.835630 0.700740 0.686671
0.000000 0.543877 0.749447
0.000000 0.541619 0.748867
0.222721 0.532647 0.745480
0.387213 0.519829 0.738003
0.600946 0.557610 0.727138
0.726925 0.594049 0.707454
0.793179 0.636835 0.673701
0.834409 0.699733 0.684627
0.105684 0.573632 0.748745
0.166506 0.571466 0.747921
0.286748 0.563806 0.744442
0.416602 0.549096 0.736599
0.610346 0.576440 0.724483
0.733639 0.609125 0.705745
0.797208 0.648402 0.673365
0.836179 0.709499 0.687068
0.244846 0.622187 0.747646
0.273930 0.620264 0.746609
0.361395 0.614588 0.743252
0.478157 0.605188 0.735958
0.611139 0.601190 0.722011
0.744350 0.634363 0.704463
0.803433 0.666590 0.672908
0.838041 0.722347 0.689937
0.356268 0.687465 0.744259
0.379187 0.686244 0.743343
0.450355 0.682277 0.740200
0.541772 0.673762 0.734340
0.628870 0.653986 0.721462
0.747280 0.658289 0.700710
0.806790 0.683680 0.667597
0.842741 0.730983 0.692195
0.498848 0.767453 0.740047
0.517937 0.766506 0.739376
0.574578 0.762997 0.736965
0.645411 0.756161 0.732509
0.707576 0.742245 0.723873
0.752071 0.703700 0.698634
0.814145 0.716243 0.669490
0.862364 0.719722 0.678950
0.661128 0.818448 0.715663
0.674372 0.816739 0.715877
0.711177 0.811398 0.716152
0.757931 0.803769 0.716640
0.799985 0.795132 0.715938
0.824613 0.779812 0.704768
0.839475 0.748501 0.681025
0.859892 0.761166 0.703975
0.796170 0.812863 0.705715
0.799985 0.812039 0.707027
0.812558 0.809445 0.711757
0.825559 0.805844 0.715419
0.834836 0.800809 0.714504
0.838499 0.780209 0.704250
0.840757 0.772396 0.663386
0.873381 0.770840 0.683406
0.330663 0.586206 0.768734
0.357824 0.587945 0.768276
0.434516 0.593652 0.766262
0.539666 0.606378 0.762417
0.678920 0.650507 0.755612
0.766690 0.688380 0.749508
0.818845 0.716182 0.740871
0.845762 0.737881 0.729427
0.339940 0.591394 0.768246
0.365972 0.593103 0.767758
0.441260 0.598779 0.765805
0.543450 0.610773 0.761990
0.677180 0.651026 0.755398
0.767269 0.689937 0.749142
0.818906 0.716793 0.740597
0.845731 0.738094 0.729091
0.370123 0.609827 0.767117
0.393561 0.611353 0.766598
0.463447 0.616632 0.764645
0.564050 0.629419 0.760952
0.675776 0.656580 0.754971
0.771786 0.697963 0.748287
0.820645 0.721218 0.740261
0.846586 0.741024 0.728817
0.399817 0.638300 0.765835
0.423590 0.640009 0.765316
0.493507 0.645777 0.763333
0.588647 0.657130 0.759731
0.672847 0.667842 0.754635
0.780514 0.712886 0.747127
0.823728 0.729274 0.740078
0.848386 0.746548 0.728756
0.482887 0.685725 0.762539
0.498482 0.686458 0.762203
0.542351 0.687648 0.760952
0.601495 0.688441 0.759030
0.692836 0.700008 0.754055
0.771603 0.717311 0.747311
0.826413 0.738705 0.740108
0.850553 0.753628 0.728450
0.590509 0.742092 0.758053
0.600977 0.742275 0.757748
0.634241 0.742824 0.756680
0.680537 0.743221 0.755032
0.728450 0.742489 0.752743
0.777707 0.741695 0.747982
0.830076 0.752346 0.740475
0.853483 0.763394 0.728542
0.699794 0.792782 0.753628
0.706813 0.792477 0.753414
0.728725 0.791440 0.752773
0.760525 0.789792 0.751675
0.793210 0.787655 0.750118
0.818967 0.783902 0.747707
0.833005 0.771267 0.740566
0.855741 0.774685 0.728145
0.790219 0.813962 0.743465
0.793973 0.813352 0.743618
0.806363 0.811276 0.744106
0.824216 0.808316 0.744991
0.841550 0.805386 0.746059
0.855039 0.802945 0.746883
0.863859 0.800595 0.746578
0.864225 0.789090 0.735195
