其他预设/【234】港风调色预设/1.3D LUT预设（视频调色-PR-AE-PS-FCPX-达芬奇用）/34.港风色调-夸张效果 __.cube
# Created by Adobe Lightroom plugin Export LUT (1.17.0)
# www.johnrellis.com/lightroom/exportlut.htm
# Preset: 34.港风色调-夸张效果 [素锦印象]
# Color profile: /Library/Application Support/Adobe/Color/Profiles/Recommended/AdobeRGB1998.icc
LUT_3D_SIZE 32
0.147463 0.155062 0.151980
0.148928 0.155154 0.152071
0.150881 0.155306 0.152163
0.155612 0.155459 0.152316
0.162844 0.155612 0.152560
0.173312 0.155734 0.152834
0.187747 0.155673 0.152956
0.207065 0.155459 0.153017
0.231968 0.154665 0.152956
0.261540 0.153475 0.152560
0.295445 0.151644 0.151888
0.332647 0.149264 0.150942
0.372564 0.145937 0.149966
0.414282 0.142580 0.148531
0.456733 0.138918 0.147189
0.499733 0.134829 0.145632
0.542870 0.130190 0.144015
0.585718 0.125795 0.142458
0.627863 0.121859 0.141085
0.669398 0.118532 0.140017
0.721157 0.116640 0.139986
0.764828 0.118685 0.141787
0.800351 0.123842 0.145357
0.829557 0.131624 0.150484
0.853880 0.140078 0.156924
0.874662 0.150423 0.164462
0.892576 0.162203 0.173800
0.907866 0.176303 0.184787
0.920562 0.192630 0.198001
0.930755 0.211765 0.213474
0.938689 0.233982 0.231479
0.944518 0.259190 0.252140
0.147707 0.155489 0.152224
0.148592 0.155825 0.152193
0.149935 0.156222 0.152560
0.154665 0.156527 0.152865
0.161593 0.156741 0.153079
0.171847 0.156924 0.153201
0.185855 0.156802 0.153353
0.204623 0.156619 0.153445
0.228977 0.156069 0.153262
0.258274 0.154940 0.152895
0.291691 0.153323 0.152285
0.328405 0.151217 0.151522
0.367834 0.148440 0.150423
0.409033 0.145449 0.149233
0.451209 0.141726 0.147829
0.493904 0.138033 0.146365
0.536767 0.133730 0.144839
0.579583 0.129641 0.143374
0.621790 0.125765 0.141909
0.663813 0.122499 0.140841
0.715053 0.120607 0.140505
0.758450 0.121767 0.142184
0.794278 0.126223 0.145480
0.824125 0.132937 0.150149
0.849149 0.140597 0.156100
0.870603 0.150301 0.163516
0.889342 0.161379 0.172457
0.905333 0.175326 0.183322
0.918700 0.191073 0.196262
0.929412 0.209903 0.211582
0.937743 0.231724 0.229374
0.943877 0.256718 0.249821
0.148318 0.156008 0.152468
0.149416 0.156771 0.151949
0.150607 0.156558 0.152499
0.153323 0.157473 0.153536
0.160281 0.158022 0.153750
0.169833 0.158175 0.153902
0.183474 0.158175 0.153902
0.201846 0.158145 0.153994
0.225864 0.157778 0.153689
0.254795 0.156893 0.153323
0.287938 0.155398 0.152773
0.324620 0.153567 0.152010
0.363958 0.151095 0.151095
0.405035 0.148470 0.149935
0.447059 0.145418 0.148714
0.489906 0.141695 0.147127
0.532708 0.138064 0.145785
0.575463 0.134157 0.144228
0.617914 0.130526 0.142947
0.660853 0.127291 0.141970
0.711666 0.125734 0.141756
0.754910 0.126802 0.143160
0.790951 0.131075 0.146426
0.821103 0.136721 0.150942
0.846464 0.144167 0.156680
0.868315 0.152895 0.163760
0.887449 0.163912 0.172610
0.903838 0.177066 0.183474
0.917571 0.192538 0.196231
0.928557 0.211276 0.211582
0.937133 0.232456 0.229221
0.943389 0.257237 0.249607
0.149630 0.157321 0.153201
0.149783 0.157748 0.152865
0.152132 0.159091 0.151827
0.154818 0.158480 0.153109
0.157504 0.159945 0.155245
0.166720 0.160494 0.155215
0.179721 0.160830 0.155245
0.197452 0.161013 0.155062
0.220981 0.160891 0.154910
0.249668 0.160433 0.154421
0.282628 0.159609 0.153994
0.319127 0.158297 0.153140
0.358038 0.156619 0.152407
0.399084 0.154482 0.151431
0.441260 0.152041 0.150240
0.484108 0.149081 0.148836
0.526879 0.145968 0.147555
0.569726 0.142672 0.146212
0.612055 0.139712 0.145174
0.656428 0.137301 0.144167
0.705745 0.135592 0.144137
0.748501 0.137118 0.145480
0.785153 0.140536 0.148562
0.816434 0.146090 0.153079
0.843198 0.152865 0.158755
0.866270 0.161563 0.166171
0.886229 0.172091 0.175204
0.903105 0.185183 0.186313
0.916991 0.200412 0.199344
0.928008 0.218143 0.214450
0.936522 0.238621 0.231907
0.942809 0.262089 0.251774
0.151156 0.158877 0.154208
0.151308 0.158846 0.154330
0.152224 0.160250 0.153170
0.158236 0.162478 0.151064
0.160769 0.161227 0.153872
0.161837 0.162997 0.157412
0.173831 0.163882 0.157290
0.190555 0.164553 0.156985
0.213169 0.165011 0.156710
0.241093 0.165499 0.156405
0.273716 0.165286 0.156008
0.310002 0.164981 0.155306
0.349004 0.164126 0.154574
0.390204 0.163027 0.153780
0.432898 0.161288 0.152743
0.476509 0.159213 0.151766
0.520500 0.156924 0.150576
0.564141 0.154543 0.149325
0.607233 0.152407 0.148379
0.653925 0.150607 0.147646
0.702083 0.150332 0.148074
0.744411 0.151949 0.149630
0.781094 0.155367 0.152590
0.812802 0.160037 0.157076
0.840085 0.166537 0.162905
0.863737 0.174594 0.170260
0.884092 0.184482 0.179324
0.901335 0.196414 0.190249
0.915526 0.210666 0.203128
0.926757 0.227512 0.218265
0.935485 0.247105 0.235660
0.941924 0.269902 0.255436
0.153017 0.160494 0.155306
0.153384 0.159976 0.155642
0.153506 0.161318 0.154788
0.156802 0.163973 0.152743
0.167361 0.167239 0.150362
0.169680 0.165011 0.154452
0.169039 0.166781 0.159976
0.182864 0.168765 0.160220
0.204379 0.170047 0.159823
0.232090 0.171298 0.159487
0.264622 0.172457 0.159060
0.300999 0.173098 0.158633
0.340215 0.173342 0.158053
0.382025 0.173190 0.157504
0.425360 0.172427 0.156588
0.469673 0.171450 0.155734
0.514305 0.170230 0.154910
0.558770 0.168856 0.153902
0.602594 0.167849 0.153170
0.652369 0.167239 0.153017
0.700465 0.168460 0.153872
0.743191 0.170565 0.155825
0.814939 0.188937 0.167971
0.842527 0.196719 0.175082
0.865324 0.205051 0.183139
0.884306 0.214176 0.192264
0.900084 0.224582 0.202670
0.913085 0.236637 0.214572
0.923674 0.250462 0.228183
0.932067 0.266728 0.243809
0.938506 0.285435 0.261326
0.943175 0.306554 0.280797
0.155367 0.162600 0.156771
0.155581 0.161807 0.157259
0.155886 0.163119 0.156435
0.157992 0.166171 0.154543
0.166751 0.171084 0.151369
0.183566 0.175296 0.149386
0.185824 0.171450 0.154818
0.185733 0.172915 0.161837
0.197757 0.176883 0.165560
0.226688 0.179568 0.165225
0.261021 0.181979 0.164767
0.299413 0.183932 0.164279
0.340246 0.185458 0.163790
0.383307 0.186313 0.163210
0.427253 0.186770 0.162600
0.471504 0.186801 0.161776
0.516320 0.186587 0.161166
0.561120 0.186313 0.160616
0.605982 0.186160 0.160189
0.661555 0.188388 0.160983
0.712306 0.191928 0.163088
0.757961 0.197055 0.166751
0.797421 0.203861 0.172457
0.830411 0.211704 0.179843
0.857328 0.220645 0.188724
0.878813 0.230259 0.198367
0.896025 0.240421 0.209262
0.909911 0.251713 0.221195
0.921111 0.264683 0.234623
0.929870 0.279881 0.249973
0.936645 0.297398 0.267185
0.941558 0.317632 0.286564
0.157992 0.164614 0.158511
0.158206 0.163973 0.158846
0.158328 0.165164 0.158022
0.159915 0.168246 0.156161
0.166354 0.173434 0.153353
0.182895 0.181216 0.148959
0.202731 0.184634 0.148501
0.206394 0.180056 0.154452
0.207980 0.180392 0.163027
0.212192 0.187015 0.172854
0.246311 0.190982 0.172366
0.284916 0.194369 0.171878
0.326329 0.197177 0.171481
0.369970 0.199496 0.170993
0.414588 0.201358 0.170474
0.459785 0.202487 0.169894
0.505364 0.203464 0.169375
0.550927 0.204257 0.169039
0.600977 0.206027 0.169253
0.654932 0.209476 0.170382
0.705013 0.213657 0.172641
0.750484 0.218784 0.176486
0.790188 0.225315 0.182040
0.823758 0.232822 0.189212
0.851377 0.240787 0.197757
0.873655 0.249699 0.207309
0.891722 0.258762 0.217685
0.906371 0.269200 0.229435
0.918181 0.281498 0.242893
0.927428 0.295750 0.258061
0.934539 0.312596 0.275425
0.939696 0.332128 0.294682
0.161288 0.166751 0.160616
0.161288 0.166903 0.160586
0.161563 0.168307 0.159762
0.163058 0.171481 0.157900
0.168521 0.176944 0.155123
0.181674 0.185061 0.151125
0.208255 0.196719 0.145846
0.229313 0.198001 0.146822
0.234562 0.191775 0.153841
0.238071 0.191470 0.164187
0.237736 0.198978 0.179507
0.269169 0.205905 0.182742
0.311528 0.210483 0.182254
0.356176 0.214237 0.181735
0.401709 0.217288 0.181277
0.447944 0.219791 0.180667
0.494636 0.221744 0.180179
0.541619 0.223697 0.179934
0.595697 0.227817 0.180728
0.648920 0.231876 0.182162
0.698756 0.236759 0.184695
0.744320 0.242374 0.188540
0.784298 0.248844 0.194156
0.818173 0.256077 0.201297
0.846311 0.263920 0.209720
0.869200 0.271855 0.218875
0.887846 0.280461 0.229252
0.903014 0.290135 0.240696
0.915282 0.301427 0.253941
0.924865 0.314916 0.268894
0.932219 0.330846 0.285985
0.937560 0.349401 0.305180
0.165225 0.169711 0.163394
0.165225 0.170718 0.162631
0.165469 0.172213 0.161807
0.166903 0.175570 0.159823
0.171878 0.181216 0.156893
0.183383 0.189822 0.152926
0.206027 0.201907 0.147646
0.241672 0.216434 0.141878
0.261784 0.214237 0.144442
0.268315 0.206699 0.152468
0.273320 0.205234 0.165499
0.273564 0.212467 0.184054
0.293431 0.223880 0.195956
0.339361 0.229252 0.195377
0.386969 0.233890 0.194675
0.435248 0.237888 0.194125
0.483894 0.241337 0.193698
0.537682 0.246098 0.194308
0.591577 0.251347 0.195468
0.644434 0.256352 0.196902
0.693660 0.261601 0.199466
0.738064 0.267338 0.203159
0.777249 0.273259 0.208133
0.810758 0.279789 0.214633
0.839109 0.286595 0.222416
0.862791 0.293980 0.231235
0.882536 0.302098 0.241337
0.898741 0.311620 0.252964
0.911833 0.322972 0.266514
0.922026 0.336339 0.281956
0.929717 0.352300 0.299565
0.935241 0.370825 0.319341
0.169986 0.174075 0.165835
0.170077 0.175296 0.165042
0.170321 0.176913 0.164096
0.171786 0.180545 0.162234
0.176272 0.186557 0.159060
0.186679 0.195499 0.154971
0.206973 0.207950 0.149599
0.239841 0.224094 0.142336
0.282597 0.239811 0.136110
0.299931 0.233433 0.140780
0.307683 0.224491 0.150698
0.313725 0.222019 0.166964
0.314397 0.228733 0.189212
0.320562 0.244724 0.212039
0.369696 0.250858 0.211093
0.419440 0.256260 0.210361
0.473365 0.262455 0.210636
0.528344 0.268833 0.211460
0.582025 0.274540 0.212314
0.635126 0.280369 0.213535
0.684840 0.286412 0.216007
0.730098 0.292424 0.219638
0.770169 0.299016 0.224735
0.804471 0.305699 0.231052
0.833524 0.312413 0.238682
0.857755 0.319310 0.247166
0.877928 0.326909 0.256931
0.894652 0.335729 0.268254
0.908171 0.346349 0.281346
0.918730 0.359075 0.296635
0.926726 0.374334 0.314122
0.932433 0.392370 0.333959
0.175906 0.179690 0.168856
0.176150 0.180850 0.168215
0.176486 0.182742 0.167117
0.178012 0.186618 0.165133
0.182406 0.193118 0.161654
0.191928 0.202457 0.157321
0.210208 0.215305 0.151553
0.239689 0.231449 0.144472
0.282933 0.251347 0.134524
0.330205 0.266300 0.127993
0.343572 0.255436 0.135714
0.352087 0.245243 0.148531
0.377844 0.250675 0.170932
0.378302 0.257267 0.200229
0.377325 0.276036 0.232792
0.427924 0.289158 0.239536
0.489784 0.299321 0.241001
0.548669 0.307683 0.241978
0.604639 0.315068 0.242832
0.657588 0.322026 0.244480
0.705165 0.328649 0.247044
0.747158 0.335058 0.251041
0.783352 0.340917 0.255894
0.814389 0.346929 0.261936
0.840696 0.353094 0.269169
0.862730 0.359594 0.277562
0.881041 0.366552 0.286931
0.896056 0.374517 0.297673
0.908141 0.384039 0.310246
0.917601 0.395758 0.324865
0.924743 0.409827 0.341680
0.929870 0.426703 0.360906
0.185092 0.187961 0.173709
0.185306 0.189303 0.172976
0.185611 0.191348 0.171756
0.187228 0.195590 0.169253
0.191409 0.202548 0.165530
0.200443 0.212284 0.160403
0.217227 0.225467 0.154086
0.244236 0.241825 0.146304
0.284062 0.261997 0.136294
0.337682 0.285893 0.123232
0.388403 0.299260 0.115175
0.399634 0.284489 0.127474
0.410773 0.273655 0.145083
0.420325 0.270848 0.172915
0.429786 0.281071 0.208103
0.436316 0.303655 0.247715
0.471901 0.323095 0.266667
0.531029 0.331853 0.266484
0.587579 0.339727 0.266545
0.641596 0.346990 0.267247
0.690578 0.354070 0.269169
0.734035 0.360632 0.272251
0.771603 0.366766 0.276432
0.803922 0.372625 0.281865
0.831449 0.378576 0.288334
0.854673 0.384588 0.295964
0.874052 0.391363 0.304936
0.890074 0.398962 0.315343
0.903014 0.408118 0.327581
0.913146 0.419593 0.342229
0.920745 0.433387 0.359045
0.926177 0.450080 0.378515
0.193820 0.195682 0.178347
0.194125 0.197299 0.177432
0.194430 0.199252 0.176272
0.196017 0.203738 0.173678
0.199863 0.210849 0.169650
0.208133 0.220920 0.164309
0.223362 0.233951 0.157443
0.247593 0.250156 0.149142
0.283360 0.270146 0.138857
0.332158 0.293767 0.125307
0.391791 0.319280 0.109041
0.437354 0.326452 0.102968
0.449012 0.310491 0.118685
0.467659 0.302586 0.141665
0.483864 0.302617 0.177676
0.489754 0.310857 0.218692
0.492073 0.331090 0.261845
0.508812 0.354894 0.293400
0.566796 0.363348 0.292393
0.622797 0.371496 0.292241
0.674159 0.379278 0.293492
0.719783 0.386633 0.296025
0.759304 0.393194 0.299565
0.793362 0.399420 0.304509
0.822324 0.405524 0.310521
0.846769 0.411658 0.317693
0.867247 0.418219 0.326116
0.884154 0.425696 0.336217
0.897795 0.434791 0.348333
0.908476 0.446052 0.362860
0.916442 0.459693 0.379797
0.922087 0.476143 0.399390
0.204318 0.204685 0.183871
0.204685 0.206302 0.183139
0.204959 0.208377 0.181857
0.206455 0.212955 0.179080
0.209934 0.220249 0.174777
0.217411 0.230289 0.169070
0.231022 0.243351 0.161868
0.252934 0.259525 0.152804
0.285283 0.279118 0.141787
0.329839 0.302495 0.127901
0.386938 0.329656 0.108675
0.451972 0.357183 0.086183
0.496498 0.360601 0.081300
0.514275 0.346410 0.103792
0.529564 0.335637 0.138369
0.541009 0.333013 0.182773
0.543877 0.339422 0.228672
0.543389 0.357641 0.275029
0.543572 0.386633 0.320958
0.601770 0.395666 0.319921
0.655695 0.404211 0.320104
0.703670 0.412177 0.321752
0.745388 0.419287 0.324590
0.781399 0.425971 0.328832
0.812131 0.432532 0.334356
0.838254 0.439216 0.341436
0.860166 0.446571 0.350195
0.878294 0.455085 0.360906
0.892821 0.465095 0.373877
0.903990 0.477241 0.389349
0.912139 0.491798 0.407385
0.917693 0.508873 0.427893
0.216373 0.214511 0.190616
0.216709 0.216373 0.189639
0.217197 0.218418 0.188418
0.218509 0.223270 0.185702
0.221805 0.230838 0.181277
0.228885 0.241276 0.175204
0.241276 0.254520 0.167575
0.261357 0.271000 0.157778
0.291264 0.290745 0.145724
0.332036 0.313695 0.130861
0.388006 0.343023 0.110262
0.458076 0.377356 0.075074
0.524712 0.403265 0.006165
0.558526 0.397375 0.022278
0.571740 0.379034 0.086946
0.582330 0.365301 0.136324
0.590204 0.360906 0.187778
0.591821 0.366278 0.238163
0.591516 0.384161 0.288273
0.590936 0.414527 0.339910
0.636896 0.430182 0.350317
0.688380 0.439704 0.351720
0.732937 0.448066 0.354223
0.771115 0.455695 0.358099
0.803555 0.463020 0.363439
0.830961 0.470466 0.370428
0.853880 0.478187 0.379034
0.872618 0.486915 0.389715
0.887510 0.497047 0.402533
0.898833 0.508751 0.417487
0.907073 0.522271 0.434546
0.912749 0.537682 0.453529
0.229435 0.225010 0.197879
0.229679 0.226596 0.196963
0.230106 0.228916 0.195651
0.231296 0.233799 0.192935
0.234470 0.241337 0.188540
0.240757 0.251774 0.182376
0.251743 0.265080 0.174289
0.270329 0.281865 0.164187
0.299107 0.302953 0.151431
0.338598 0.327733 0.134981
0.390295 0.356390 0.112734
0.453651 0.388830 0.079286
0.526635 0.423713 0.000000
0.589319 0.444221 0.000000
0.612909 0.430030 0.000000
0.622797 0.409064 0.067323
0.630365 0.393622 0.135317
0.635798 0.388006 0.193790
0.636957 0.393317 0.248814
0.636622 0.411383 0.303014
0.635798 0.442145 0.358404
0.667445 0.463691 0.381292
0.715297 0.473213 0.383062
0.756405 0.481971 0.386419
0.791196 0.490150 0.391424
0.820554 0.498299 0.398108
0.845029 0.506828 0.406653
0.865049 0.516106 0.417334
0.880858 0.526421 0.429999
0.892821 0.538048 0.444648
0.901518 0.551049 0.461158
0.907530 0.565698 0.479500
0.244419 0.236790 0.206516
0.244968 0.238682 0.205722
0.251774 0.246189 0.207889
0.253513 0.251804 0.205142
0.257359 0.260685 0.200595
0.263981 0.272526 0.194339
0.275792 0.287572 0.185733
0.294163 0.306004 0.174350
0.321630 0.328130 0.159457
0.359808 0.353857 0.140047
0.409247 0.383154 0.113802
0.469581 0.415778 0.072541
0.539605 0.451087 0.000000
0.612177 0.484565 0.000000
0.666102 0.495674 0.000000
0.678157 0.471473 0.000000
0.684596 0.447333 0.011658
0.688930 0.430274 0.138521
0.691218 0.423774 0.206668
0.690883 0.429572 0.268223
0.688991 0.448524 0.327733
0.686397 0.480079 0.387579
0.704585 0.506889 0.422400
0.746883 0.515740 0.424384
0.782223 0.523308 0.427466
0.811856 0.530510 0.432105
0.836637 0.537743 0.438453
0.857145 0.545739 0.446998
0.873686 0.554955 0.458045
0.886351 0.565728 0.471473
0.895628 0.577905 0.486946
0.902007 0.591302 0.503990
0.266331 0.253635 0.219333
0.267887 0.256291 0.219089
0.269535 0.259831 0.218509
0.272282 0.266209 0.216220
0.276249 0.275456 0.212161
0.282628 0.287663 0.205661
0.293004 0.302617 0.196902
0.309331 0.320623 0.185367
0.333684 0.342229 0.170199
0.367559 0.366949 0.150576
0.412085 0.395270 0.123995
0.467018 0.426581 0.084108
0.531182 0.460365 0.000000
0.602716 0.496010 0.000000
0.666896 0.522667 0.000000
0.708125 0.521965 0.000000
0.714260 0.493385 0.000000
0.718990 0.468818 0.000000
0.722225 0.452247 0.145235
0.723903 0.446784 0.217563
0.723659 0.454017 0.282902
0.722377 0.474830 0.346532
0.719631 0.507805 0.409888
0.728603 0.539818 0.455360
0.767269 0.548791 0.457923
0.799557 0.556847 0.462013
0.826322 0.564630 0.467781
0.848356 0.572839 0.475654
0.866026 0.581994 0.485878
0.879545 0.592218 0.498299
0.889433 0.603510 0.512566
0.896330 0.615869 0.528466
0.286381 0.268009 0.231662
0.287968 0.271000 0.231479
0.289952 0.274540 0.231052
0.292393 0.281010 0.228885
0.296147 0.290410 0.224735
0.301762 0.302464 0.218357
0.310826 0.317266 0.209445
0.325139 0.335058 0.197971
0.346624 0.356085 0.183017
0.376959 0.380377 0.163485
0.417151 0.407904 0.137331
0.467262 0.438392 0.099184
0.526177 0.471015 0.000000
0.592462 0.505364 0.000000
0.662837 0.539696 0.000000
0.714717 0.555993 0.000000
0.742550 0.542992 0.000000
0.747524 0.513878 0.000000
0.751308 0.489754 0.000000
0.753933 0.474403 0.155917
0.754940 0.470344 0.232273
0.754635 0.479652 0.301488
0.753017 0.502647 0.369116
0.749538 0.537011 0.435401
0.751095 0.572107 0.488411
0.786099 0.580957 0.491554
0.814939 0.589136 0.496254
0.838621 0.597436 0.503075
0.857664 0.606317 0.512139
0.872251 0.615961 0.523369
0.882963 0.626429 0.536431
0.890501 0.637781 0.551049
0.307134 0.282383 0.245335
0.308965 0.285466 0.245304
0.311009 0.289189 0.244938
0.313420 0.295720 0.242863
0.316838 0.305180 0.238682
0.321752 0.317205 0.232334
0.329595 0.331762 0.223484
0.341985 0.349218 0.212100
0.360876 0.369909 0.197330
0.387732 0.393713 0.178500
0.423560 0.420417 0.153323
0.468910 0.450019 0.117830
0.522911 0.481666 0.050111
0.584344 0.514855 0.000000
0.649409 0.547478 0.000000
0.711879 0.575128 0.000000
0.755367 0.582605 0.000000
0.775875 0.563806 0.000000
0.781582 0.535668 0.000000
0.786160 0.513603 0.033539
0.789181 0.500908 0.174502
0.790249 0.500206 0.256535
0.789273 0.513024 0.331273
0.786831 0.540002 0.404608
0.782559 0.576104 0.473396
0.779110 0.613001 0.531060
0.809171 0.621912 0.535332
0.833371 0.630426 0.541314
0.852506 0.638849 0.549187
0.866972 0.647578 0.558862
0.877531 0.656764 0.570123
0.884916 0.666651 0.582818
0.336339 0.302403 0.264866
0.337438 0.304906 0.264439
0.338384 0.307988 0.263554
0.339971 0.314000 0.260990
0.342260 0.323095 0.256443
0.346197 0.334844 0.249790
0.353033 0.349493 0.240940
0.364111 0.367193 0.229618
0.381109 0.388312 0.215183
0.405676 0.412482 0.196506
0.438697 0.439673 0.172213
0.480598 0.469520 0.138582
0.530785 0.501122 0.084443
0.587396 0.533318 0.000000
0.647639 0.564355 0.000000
0.709407 0.593591 0.000000
0.761379 0.612116 0.000000
0.795438 0.609613 0.000000
0.808652 0.584771 0.000000
0.813077 0.556390 0.000000
0.815885 0.535088 0.078737
0.816831 0.523796 0.197726
0.815610 0.524926 0.281743
0.812406 0.539422 0.358221
0.808225 0.568261 0.433814
0.803098 0.603540 0.501366
0.798215 0.639551 0.558648
0.822873 0.649928 0.566247
0.843748 0.658473 0.573114
0.859525 0.666865 0.581567
0.871000 0.675502 0.591608
0.879057 0.684718 0.603174
0.360754 0.317845 0.282414
0.361791 0.320256 0.282200
0.362860 0.323461 0.281437
0.364294 0.329564 0.278874
0.366339 0.338506 0.274449
0.369451 0.350256 0.267826
0.375036 0.364721 0.259037
0.384222 0.382147 0.247929
0.398932 0.402899 0.233616
0.420356 0.426673 0.215793
0.449592 0.453437 0.192813
0.487160 0.482673 0.161959
0.532677 0.513603 0.117189
0.584710 0.545006 0.000000
0.640528 0.575097 0.000000
0.698543 0.603510 0.000000
0.756771 0.629633 0.000000
0.798367 0.638972 0.000000
0.825559 0.628595 0.000000
0.833890 0.600061 0.000000
0.837797 0.572778 0.000000
0.839872 0.553521 0.113252
0.839902 0.545312 0.225437
0.837522 0.550072 0.312261
0.829343 0.562493 0.384710
0.824247 0.592950 0.461250
0.818814 0.627741 0.527306
0.813962 0.661982 0.582238
0.833646 0.673671 0.593133
0.851255 0.682155 0.600671
0.864103 0.690791 0.609949
0.873106 0.699794 0.620813
0.396155 0.349126 0.303563
0.396796 0.348058 0.304845
0.396674 0.345983 0.305943
0.397345 0.350835 0.303593
0.398505 0.359686 0.298863
0.400671 0.371160 0.291997
0.404822 0.385473 0.282872
0.411963 0.402655 0.271336
0.423865 0.422766 0.256809
0.441749 0.445777 0.238956
0.466590 0.471443 0.216495
0.499306 0.499580 0.187686
0.539605 0.529137 0.148440
0.585565 0.558434 0.084871
0.635584 0.586389 0.000000
0.688350 0.612665 0.000000
0.742245 0.636866 0.000000
0.794797 0.657893 0.000000
0.826658 0.658534 0.000000
0.848386 0.641566 0.000000
0.853117 0.610834 0.000000
0.856321 0.585046 0.000000
0.857267 0.567987 0.146029
0.855711 0.562524 0.253269
0.851591 0.569787 0.339910
0.845090 0.589044 0.418250
0.839017 0.620294 0.493629
0.833005 0.653437 0.556451
0.828061 0.684932 0.607446
0.843137 0.696834 0.620142
0.857237 0.705165 0.628260
0.867185 0.713741 0.637995
0.425727 0.377295 0.320836
0.426490 0.376410 0.322148
0.426490 0.374273 0.323308
0.424872 0.368627 0.324804
0.425147 0.374914 0.321080
0.426764 0.386633 0.314366
0.430213 0.401099 0.305577
0.436225 0.418463 0.294560
0.446540 0.438941 0.280705
0.462165 0.462318 0.263706
0.484108 0.488167 0.242588
0.513634 0.516625 0.215579
0.549523 0.545769 0.180667
0.590875 0.574426 0.131533
0.636530 0.601770 0.000000
0.685237 0.627222 0.000000
0.735592 0.650507 0.000000
0.786160 0.671443 0.000000
0.829343 0.683711 0.000000
0.854734 0.677394 0.000000
0.869566 0.653559 0.000000
0.873381 0.623072 0.000000
0.875273 0.598901 0.000000
0.874784 0.584924 0.185946
0.871611 0.583520 0.290684
0.865843 0.595148 0.378882
0.858061 0.616968 0.456458
0.851255 0.648371 0.528923
0.845151 0.679805 0.587793
0.840421 0.708278 0.634180
0.851225 0.720027 0.648005
0.861936 0.728023 0.656397
0.461219 0.412055 0.342077
0.461616 0.410834 0.343236
0.461250 0.408392 0.344121
0.459327 0.402289 0.345403
0.455756 0.392523 0.346899
0.456306 0.403357 0.340398
0.458503 0.417639 0.331670
0.463050 0.434974 0.320714
0.471412 0.455451 0.307256
0.484535 0.478706 0.291142
0.503624 0.504753 0.271000
0.529076 0.532769 0.246128
0.560479 0.561212 0.214725
0.597101 0.589197 0.173220
0.637842 0.615534 0.111116
0.681941 0.639948 0.000000
0.728206 0.662165 0.000000
0.775448 0.682002 0.000000
0.822507 0.699489 0.000000
0.855741 0.702296 0.000000
0.875181 0.688533 0.000000
0.885374 0.661036 0.000000
0.888334 0.631495 0.000000
0.889036 0.609857 0.058808
0.887083 0.599634 0.226505
0.882322 0.602838 0.329747
0.875029 0.618860 0.418799
0.866484 0.641657 0.492409
0.859220 0.671839 0.560021
0.853178 0.701076 0.614221
0.848814 0.726436 0.655634
0.856352 0.737850 0.669978
0.496651 0.448890 0.363531
0.496864 0.447425 0.364446
0.496498 0.444953 0.365393
0.494881 0.439033 0.366766
0.491981 0.429511 0.368688
0.488899 0.421057 0.369970
0.491859 0.437018 0.362646
0.497322 0.456397 0.353491
0.506279 0.479225 0.341985
0.519646 0.505119 0.327703
0.537743 0.533165 0.309880
0.560754 0.562097 0.287572
0.588434 0.590906 0.259403
0.620386 0.618463 0.223209
0.656001 0.643977 0.174441
0.694392 0.666835 0.095125
0.735195 0.687129 0.000000
0.777615 0.704799 0.000000
0.820615 0.719875 0.000000
0.862547 0.732204 0.000000
0.883787 0.723049 0.000000
0.897002 0.701320 0.000000
0.903258 0.670802 0.000000
0.904875 0.642878 0.000000
0.903746 0.625208 0.151247
0.899504 0.621210 0.286168
0.892271 0.631708 0.390661
0.883146 0.652094 0.476722
0.874144 0.674678 0.542535
0.866545 0.701717 0.601312
0.860716 0.726650 0.647303
0.856931 0.746883 0.680629
0.550317 0.504387 0.398962
0.550347 0.502739 0.399847
0.549706 0.499977 0.400488
0.547814 0.493507 0.401556
0.544701 0.483375 0.403265
0.540337 0.469978 0.405554
0.537377 0.464912 0.404608
0.540581 0.483650 0.394934
0.546532 0.505516 0.383032
0.555871 0.529870 0.368536
0.568902 0.555566 0.350835
0.586145 0.582147 0.329290
0.607691 0.608576 0.302861
0.633326 0.634150 0.270146
0.662867 0.657984 0.228611
