其他预设/【234】港风调色预设/1.3D LUT预设（视频调色-PR-AE-PS-FCPX-达芬奇用）/34.港风色调-夸张效果 __.cube
# Created by Adobe Lightroom plugin Export LUT (1.17.0)
# www.johnrellis.com/lightroom/exportlut.htm
# Preset: 34.港风色调-夸张效果 [素锦印象]
# Color profile: /Library/Application Support/Adobe/Color/Profiles/Recommended/AdobeRGB1998.icc
LUT_3D_SIZE 5
DOMAIN_MIN 0.000000 0.000000 0.000000
DOMAIN_MAX 0.903226 0.903226 0.903226
0.147463 0.155062 0.151980
0.207065 0.155459 0.153017
0.456733 0.138918 0.147189
0.764828 0.118685 0.141787
0.920562 0.192630 0.198001
0.157992 0.164614 0.158511
0.206394 0.180056 0.154452
0.414588 0.201358 0.170474
0.750484 0.218784 0.176486
0.918181 0.281498 0.242893
0.204318 0.204685 0.183871
0.252934 0.259525 0.152804
0.529564 0.335637 0.138369
0.703670 0.412177 0.321752
0.892821 0.465095 0.373877
0.336339 0.302403 0.264866
0.364111 0.367193 0.229618
0.647639 0.564355 0.000000
0.816831 0.523796 0.197726
0.843748 0.658473 0.573114
0.591760 0.550134 0.427619
0.578790 0.504631 0.435035
0.660853 0.659815 0.271916
0.896880 0.752499 0.000000
0.894957 0.673732 0.488533
0.122408 0.200656 0.233646
0.219547 0.186160 0.202213
0.496132 0.122011 0.179141
0.763363 0.152590 0.190249
0.913176 0.238529 0.231754
0.139651 0.249546 0.207462
0.243076 0.219760 0.194583
0.462684 0.236301 0.209598
0.749355 0.254215 0.220706
0.907439 0.316167 0.268742
0.252934 0.253910 0.207980
0.284794 0.287968 0.189761
0.559533 0.371649 0.144045
0.681941 0.438209 0.353094
0.882811 0.500420 0.404669
0.358465 0.332799 0.269108
0.395087 0.399451 0.231052
0.655543 0.579858 0.000000
0.832853 0.545464 0.125887
0.836484 0.670192 0.588403
0.603479 0.560235 0.437781
0.590204 0.512505 0.446235
0.675319 0.674128 0.302708
0.897063 0.763790 0.000000
0.899413 0.672877 0.470375
0.000000 0.381659 0.525200
0.000000 0.316228 0.498543
0.497871 0.331792 0.401801
0.737636 0.338231 0.408728
0.917113 0.277531 0.340551
0.000000 0.440314 0.522454
0.123201 0.382025 0.489693
0.503990 0.363806 0.389868
0.764004 0.323766 0.378698
0.913359 0.354223 0.364508
0.000000 0.636072 0.483925
0.287816 0.607965 0.450111
0.576349 0.463264 0.380468
0.762325 0.513664 0.444495
0.889830 0.544732 0.474739
0.542443 0.667781 0.396857
0.569970 0.595148 0.406470
0.616236 0.576165 0.353979
0.836698 0.612879 0.356603
0.840360 0.697810 0.623011
0.674830 0.655634 0.491859
0.665888 0.607874 0.498665
0.671931 0.664210 0.384833
0.861509 0.766751 0.000000
0.911437 0.661677 0.376654
0.000000 0.504784 0.719417
0.000000 0.483711 0.712947
0.477180 0.457008 0.690578
0.734127 0.548699 0.613611
0.834409 0.674586 0.655268
0.000000 0.539513 0.716060
0.063844 0.520256 0.708827
0.491279 0.485359 0.681147
0.734676 0.559747 0.605951
0.840543 0.665156 0.649348
0.148135 0.651942 0.712490
0.294316 0.639979 0.705074
0.518975 0.581964 0.667842
0.741726 0.602960 0.590234
0.865812 0.642847 0.623041
0.508110 0.811521 0.678157
0.576043 0.801755 0.673335
0.718105 0.774136 0.660182
0.797299 0.689815 0.609430
0.865171 0.717250 0.653437
0.765713 0.811063 0.650721
0.783932 0.805051 0.659968
0.811704 0.779324 0.668299
0.802731 0.748653 0.585565
0.889738 0.734096 0.576257
0.330663 0.586206 0.768734
0.411231 0.591638 0.766903
0.606348 0.622889 0.759426
0.779416 0.692744 0.748470
0.845762 0.737881 0.729427
0.363500 0.604517 0.767483
0.437690 0.609857 0.765652
0.605188 0.630060 0.758755
0.782925 0.699702 0.747555
0.846433 0.740383 0.729000
0.435798 0.660029 0.764401
0.485725 0.661250 0.763180
0.642084 0.677974 0.756893
0.792477 0.721035 0.745602
0.849332 0.749691 0.728542
0.621454 0.756405 0.756893
0.652430 0.756741 0.755947
0.725582 0.756588 0.753109
0.794614 0.750637 0.746365
0.854002 0.765652 0.728267
0.790219 0.813962 0.743465
0.802518 0.811917 0.743923
0.833249 0.806821 0.745571
0.857664 0.802396 0.747005
0.864225 0.789090 0.735195
