其他预设/【234】港风调色预设/1.3D LUT预设（视频调色-PR-AE-PS-FCPX-达芬奇用）/35.港风色调-夸张效果 __.cube
# Created by Adobe Lightroom plugin Export LUT (1.17.0)
# www.johnrellis.com/lightroom/exportlut.htm
# Preset: 35.港风色调-夸张效果 [素锦印象]
# Color profile: /Library/Application Support/Adobe/Color/Profiles/Recommended/AdobeRGB1998.icc
LUT_3D_SIZE 8
DOMAIN_MIN 0.000000 0.000000 0.000000
DOMAIN_MAX 0.903226 0.903226 0.903226
0.024262 0.035737 0.036469
0.131044 0.037507 0.045777
0.316350 0.000000 0.036408
0.507805 0.000000 0.000000
0.689418 0.000000 0.000000
0.826505 0.246525 0.000000
0.920165 0.365820 0.000000
0.972992 0.450477 0.000000
0.058015 0.097444 0.063081
0.113527 0.096345 0.064973
0.338476 0.000000 0.000000
0.521355 0.000000 0.000000
0.696803 0.069398 0.000000
0.830014 0.258091 0.000000
0.921660 0.371618 0.000000
0.973693 0.453132 0.000000
0.069093 0.200687 0.083284
0.091188 0.184115 0.074708
0.274601 0.217441 0.091432
0.542321 0.203586 0.000000
0.719844 0.180667 0.000000
0.841276 0.302464 0.000000
0.926696 0.391760 0.000000
0.976074 0.463081 0.000000
0.104219 0.295598 0.111574
0.114534 0.280583 0.101595
0.187625 0.259312 0.104555
0.459083 0.380407 0.132967
0.723293 0.469581 0.000000
0.855558 0.421851 0.000000
0.933867 0.433143 0.000000
0.980041 0.480140 0.000000
0.136446 0.385443 0.133394
0.142336 0.370153 0.125063
0.164370 0.317449 0.109560
0.318944 0.374609 0.130800
0.638422 0.565972 0.158572
0.850523 0.650355 0.000000
0.934234 0.595239 0.000000
0.983520 0.511589 0.000000
0.153780 0.475776 0.147494
0.157992 0.461158 0.139712
0.167269 0.410681 0.117647
0.201572 0.326390 0.116609
0.477485 0.529931 0.144594
0.782864 0.720760 0.231571
0.918425 0.753811 0.246616
0.970977 0.695644 0.000000
0.162478 0.590784 0.161837
0.166445 0.578698 0.153689
0.176913 0.534203 0.128206
0.206363 0.451942 0.112978
0.336736 0.486336 0.129488
0.663447 0.711635 0.191623
0.873320 0.811276 0.374426
0.938659 0.821256 0.478584
0.217411 0.765316 0.213443
0.219425 0.759243 0.203250
0.226902 0.736294 0.166842
0.238163 0.689265 0.103731
0.320073 0.606867 0.119722
0.600214 0.756832 0.197086
0.815427 0.835416 0.391730
0.913603 0.859373 0.574090
0.019959 0.029145 0.121370
0.126345 0.052583 0.105562
0.306126 0.094759 0.113130
0.504387 0.063233 0.094392
0.688045 0.139834 0.000000
0.826261 0.269627 0.000000
0.920836 0.368658 0.000000
0.973266 0.451331 0.000000
0.003632 0.105745 0.121645
0.146426 0.118318 0.115053
0.326299 0.106813 0.103914
0.516930 0.079652 0.075410
0.694728 0.158785 0.000000
0.829465 0.281315 0.000000
0.922301 0.374212 0.000000
0.973968 0.454047 0.000000
0.086702 0.230930 0.125521
0.158328 0.222110 0.130037
0.298131 0.233707 0.141970
0.546929 0.211643 0.000000
0.716823 0.227451 0.000000
0.840208 0.323003 0.000000
0.927092 0.394293 0.000000
0.976318 0.463844 0.000000
0.156527 0.328862 0.151553
0.171969 0.314275 0.143130
0.207950 0.268040 0.129824
0.473640 0.393439 0.163973
0.725399 0.471626 0.000000
0.855253 0.417517 0.000000
0.933806 0.437873 0.000000
0.980255 0.480690 0.000000
0.177646 0.418036 0.162478
0.181460 0.401740 0.152743
0.189792 0.345800 0.128237
0.327276 0.379461 0.146304
0.646387 0.574121 0.187778
0.851560 0.651514 0.080690
0.934142 0.595270 0.000000
0.983673 0.512047 0.000000
0.182864 0.502403 0.168856
0.185641 0.487617 0.160159
0.191135 0.435340 0.134951
0.216861 0.344213 0.126864
0.480079 0.531762 0.158419
0.786038 0.724239 0.259190
0.918029 0.755581 0.275120
0.971160 0.695552 0.000000
0.184939 0.610803 0.180301
0.187381 0.598413 0.171206
0.194553 0.553765 0.143038
0.214359 0.470253 0.119356
0.331792 0.480690 0.134859
0.663294 0.711482 0.204837
0.873930 0.812314 0.395300
0.938872 0.821134 0.478004
0.234775 0.773922 0.231235
0.236301 0.768063 0.220829
0.241032 0.745693 0.183841
0.248569 0.699641 0.119905
0.322972 0.617060 0.122774
0.594537 0.753780 0.199954
0.815610 0.835416 0.395605
0.913756 0.859434 0.574640
0.000000 0.017395 0.226139
0.113191 0.000000 0.231174
0.307774 0.065492 0.210636
0.492012 0.103761 0.204929
0.671595 0.284672 0.212345
0.816800 0.358679 0.185550
0.914733 0.426642 0.151492
0.970550 0.478523 0.124727
0.000000 0.069581 0.222507
0.131258 0.087190 0.228397
0.318822 0.142092 0.214115
0.500420 0.164675 0.205814
0.678737 0.294347 0.207095
0.820157 0.365576 0.176669
0.916228 0.430854 0.139956
0.971313 0.480262 0.108980
0.000000 0.225925 0.228855
0.122957 0.239139 0.227909
0.344915 0.268284 0.220279
0.530144 0.283452 0.205081
0.701686 0.325994 0.177920
0.831510 0.391638 0.138705
0.921111 0.447639 0.088167
0.973754 0.488197 0.000000
0.115785 0.413245 0.226810
0.194614 0.405798 0.224247
0.320409 0.369726 0.212375
0.508904 0.426246 0.237552
0.728664 0.458900 0.151125
0.848844 0.446632 0.000000
0.928710 0.481453 0.000000
0.977600 0.505699 0.000000
0.185641 0.500145 0.224430
0.229801 0.493355 0.223239
0.298253 0.452674 0.205661
0.343786 0.390661 0.186252
0.667720 0.596704 0.269871
0.853086 0.651759 0.205539
0.933440 0.584985 0.000000
0.982452 0.531945 0.000000
0.224399 0.580804 0.231601
0.254276 0.573419 0.229557
0.278782 0.527520 0.201236
0.274876 0.426581 0.162325
0.484749 0.534539 0.197482
0.795102 0.734646 0.340795
0.916350 0.760403 0.352422
0.970886 0.693507 0.000000
0.252689 0.676997 0.249821
0.264439 0.667292 0.241886
0.261875 0.623590 0.202762
0.251865 0.538079 0.149996
0.309545 0.456580 0.149447
0.660639 0.709346 0.243137
0.875303 0.815640 0.458106
0.936431 0.824765 0.516228
0.301610 0.802579 0.298680
0.298833 0.797299 0.286656
0.295537 0.777249 0.246555
0.290196 0.734829 0.176425
0.332403 0.654902 0.136294
0.570336 0.740749 0.205844
0.814603 0.834440 0.421180
0.913634 0.859953 0.589532
0.000000 0.000000 0.323705
0.114168 0.000000 0.331640
0.330785 0.000000 0.343542
0.501091 0.112734 0.322942
0.666346 0.187350 0.329534
0.812863 0.298131 0.301610
0.896178 0.545556 0.367071
0.953521 0.585321 0.364416
0.000000 0.061738 0.322240
0.128450 0.049317 0.329595
0.338415 0.012634 0.347692
0.507622 0.169039 0.326177
0.671077 0.233799 0.330114
0.813169 0.348363 0.307713
0.898039 0.545953 0.361120
0.954955 0.582666 0.354833
0.000000 0.128756 0.312963
0.000000 0.127749 0.315129
0.308019 0.193576 0.341100
0.526024 0.298863 0.334752
0.685115 0.356420 0.329473
0.809659 0.509636 0.352148
0.904814 0.547234 0.336706
0.959503 0.576867 0.322362
0.000000 0.377539 0.340795
0.000000 0.387152 0.341711
0.280705 0.414160 0.344610
0.548852 0.465675 0.343755
0.708248 0.491127 0.327550
0.831113 0.525719 0.307012
0.915679 0.554162 0.284947
0.966339 0.574395 0.262364
0.029816 0.634943 0.378271
0.176455 0.628260 0.371710
0.351843 0.601038 0.348302
0.489235 0.537102 0.310216
0.692988 0.625605 0.384527
0.849363 0.638239 0.315068
0.928099 0.579309 0.191897
0.974273 0.581994 0.146151
0.195407 0.689967 0.349859
0.242710 0.683833 0.344945
0.355749 0.659510 0.328008
0.431128 0.593194 0.281224
0.479072 0.528374 0.247807
0.806302 0.748348 0.450111
0.912902 0.764431 0.440162
0.969726 0.684382 0.204471
0.251499 0.757259 0.352728
0.280034 0.751827 0.347753
0.355810 0.729793 0.328801
0.379614 0.665217 0.262760
0.346715 0.525444 0.185946
0.645899 0.698512 0.289006
0.877012 0.820523 0.539727
0.932341 0.830289 0.574426
0.338445 0.840726 0.392035
0.354314 0.837369 0.387396
0.399481 0.824002 0.368658
0.385107 0.791684 0.292790
0.350988 0.725216 0.178561
0.504631 0.703883 0.201358
0.809628 0.831724 0.452949
0.912078 0.861448 0.633356
0.033021 0.000000 0.433783
0.142123 0.000000 0.442329
0.324956 0.000000 0.471809
0.542260 0.000000 0.480476
0.674525 0.196841 0.467720
0.799161 0.321630 0.474250
0.896025 0.466377 0.464332
0.938842 0.632868 0.508568
0.061585 0.000000 0.431342
0.146914 0.000000 0.439551
0.327825 0.000000 0.468330
0.542992 0.085115 0.482856
0.677363 0.241764 0.470039
0.800351 0.354711 0.476265
0.895750 0.487892 0.466133
0.936919 0.649622 0.517662
0.000000 0.085786 0.407935
0.000000 0.098604 0.419471
0.300755 0.134920 0.454261
0.537102 0.213596 0.489815
0.686305 0.360937 0.477424
0.804166 0.450477 0.482856
0.894621 0.554131 0.474189
0.930755 0.699580 0.547570
0.000000 0.245304 0.421424
0.000000 0.247196 0.423255
0.117525 0.243290 0.429694
0.477638 0.341650 0.476753
0.698604 0.509575 0.487678
0.811673 0.570794 0.486824
0.887297 0.669276 0.517327
0.936034 0.704829 0.526513
0.000000 0.534356 0.469215
0.000000 0.539818 0.470832
0.207553 0.557275 0.476539
0.460456 0.590082 0.486244
0.712215 0.650050 0.499489
0.825223 0.664271 0.486305
0.902495 0.675013 0.470588
0.950652 0.681025 0.450568
0.000000 0.784482 0.539391
0.129488 0.784909 0.538231
0.372747 0.784115 0.533684
0.535210 0.750393 0.498329
0.627802 0.678309 0.429267
0.815732 0.761288 0.553429
0.908141 0.755734 0.503960
0.965759 0.670497 0.329442
0.248417 0.835416 0.508659
0.289281 0.831846 0.504662
0.391150 0.818540 0.490211
0.500328 0.789731 0.458808
0.534173 0.716670 0.365545
0.591913 0.658900 0.314488
0.878630 0.826230 0.616602
0.929625 0.832731 0.619196
0.356603 0.877409 0.503746
0.377234 0.875029 0.500969
0.435981 0.866148 0.489418
0.504173 0.847684 0.461372
0.497383 0.808103 0.363104
0.453132 0.706111 0.221317
0.791531 0.824308 0.471565
0.910735 0.863432 0.677119
0.138827 0.000000 0.555535
0.196597 0.000000 0.562158
0.343450 0.000000 0.584649
0.534203 0.000000 0.616358
0.698482 0.233158 0.618433
0.801236 0.342321 0.610010
0.883879 0.484260 0.599023
0.929503 0.637263 0.608942
0.132509 0.000000 0.552087
0.191409 0.000000 0.558618
0.340917 0.000000 0.581292
0.531243 0.000000 0.616449
0.698482 0.261265 0.619348
0.801968 0.372168 0.610956
0.883421 0.504906 0.600488
0.928771 0.647791 0.611078
0.000000 0.053773 0.533471
0.107729 0.057130 0.542443
0.311315 0.000000 0.568109
0.512108 0.000000 0.607996
0.696437 0.336675 0.622065
0.804257 0.460060 0.614160
0.881926 0.568444 0.606043
0.926513 0.680537 0.618250
0.000000 0.135561 0.495125
0.000000 0.129915 0.495399
0.000000 0.152010 0.529717
0.442359 0.243717 0.584344
0.683742 0.426246 0.623804
0.807797 0.575494 0.618921
0.879728 0.651850 0.617456
0.923705 0.724697 0.629175
0.000000 0.396674 0.544976
0.000000 0.397131 0.545647
0.000000 0.393469 0.548272
0.222141 0.366949 0.554192
0.614435 0.501335 0.604181
0.813107 0.684230 0.625971
0.880491 0.727016 0.627192
0.918608 0.780117 0.653956
0.000000 0.666712 0.596490
0.000000 0.669062 0.597314
0.000000 0.677119 0.600519
0.368505 0.691707 0.606470
0.610803 0.719783 0.616297
0.821195 0.770626 0.636469
0.886961 0.776150 0.627192
0.929778 0.779660 0.615564
0.000000 0.869596 0.665370
0.000000 0.868742 0.663813
0.332311 0.864836 0.658259
0.559075 0.856260 0.651514
0.688808 0.832456 0.625116
0.730556 0.773617 0.541436
0.880491 0.832486 0.681025
0.928069 0.827726 0.649287
0.366918 0.906310 0.633204
0.395087 0.904234 0.631617
0.474403 0.897032 0.625299
0.568872 0.884428 0.611841
0.649012 0.864530 0.584009
0.644648 0.823117 0.475624
0.725154 0.797848 0.441993
0.909911 0.866117 0.719234
0.224308 0.000000 0.685573
0.262791 0.000000 0.688441
0.372503 0.000000 0.699458
0.517571 0.000000 0.717586
0.673182 0.000000 0.727596
0.799435 0.475868 0.719478
0.876463 0.517540 0.713588
0.919860 0.651148 0.699336
0.213870 0.000000 0.683711
0.254276 0.000000 0.686793
0.368017 0.000000 0.697963
0.515862 0.000000 0.716396
0.671260 0.000000 0.728176
0.800290 0.490913 0.720333
0.876646 0.537530 0.714321
0.919371 0.663203 0.701259
0.130678 0.000000 0.672389
0.197940 0.000000 0.676265
0.336706 0.000000 0.688838
0.497993 0.000000 0.709010
0.660121 0.115053 0.727382
0.800320 0.529870 0.720546
0.875639 0.591058 0.713924
0.917205 0.692500 0.704219
0.000000 0.079438 0.643183
0.000000 0.082582 0.648371
0.133272 0.101472 0.666194
0.430640 0.143343 0.692744
0.629999 0.258854 0.721096
0.797055 0.577752 0.720302
0.874540 0.661646 0.713924
0.914519 0.733394 0.709560
0.000000 0.264683 0.641596
0.000000 0.258152 0.640986
0.000000 0.230289 0.637964
0.000000 0.193210 0.653742
0.543236 0.359350 0.698482
0.782559 0.616815 0.719997
0.875181 0.732326 0.716518
0.912352 0.776730 0.717708
0.000000 0.547417 0.676875
0.000000 0.545983 0.676600
0.000000 0.538964 0.675593
0.000000 0.518120 0.673640
0.270207 0.466041 0.670741
0.714809 0.635737 0.701320
0.876799 0.790585 0.720455
0.911894 0.814817 0.724056
0.000000 0.758511 0.706508
0.000000 0.759060 0.706416
0.000000 0.761379 0.706508
0.227756 0.765621 0.706691
0.499001 0.775509 0.707301
0.734279 0.801022 0.710079
0.880797 0.836393 0.727932
0.915496 0.839078 0.722133
0.000000 0.919188 0.754025
0.000000 0.919707 0.754574
0.225620 0.916503 0.750149
0.486336 0.906249 0.740322
0.704341 0.889311 0.733425
0.804013 0.873167 0.720943
0.810391 0.838254 0.642542
0.910033 0.869596 0.755795
0.290837 0.000000 0.794278
0.317845 0.000000 0.794858
0.399207 0.000000 0.797330
0.512078 0.000000 0.801266
0.636011 0.000000 0.805905
0.770901 0.352758 0.796231
0.869047 0.671473 0.777737
0.911406 0.691279 0.774655
0.281865 0.000000 0.793851
0.310094 0.000000 0.794461
0.394446 0.000000 0.796933
0.510460 0.000000 0.800900
0.633539 0.000000 0.805844
0.770108 0.365332 0.796231
0.869841 0.681117 0.777646
0.911223 0.699489 0.774685
0.232181 0.000000 0.791409
0.268376 0.000000 0.792081
0.369329 0.000000 0.794766
0.496010 0.000000 0.798642
0.625269 0.000000 0.803830
0.765438 0.398230 0.796078
0.871946 0.708705 0.776944
0.910399 0.722438 0.774319
0.000000 0.000000 0.786252
0.000000 0.000000 0.786984
0.251682 0.000000 0.789670
0.440497 0.000000 0.794217
0.598413 0.116640 0.799649
0.751217 0.430701 0.796078
0.873259 0.735622 0.776852
0.909331 0.753231 0.773983
0.000000 0.128237 0.775784
0.000000 0.120821 0.776852
0.000000 0.105470 0.781033
0.104952 0.128664 0.787228
0.517815 0.255741 0.793179
0.715511 0.450202 0.796201
0.870756 0.750027 0.778347
0.908598 0.787350 0.774228
0.000000 0.425391 0.782834
0.000000 0.419989 0.782742
0.000000 0.398138 0.782193
0.000000 0.341131 0.780728
0.000000 0.231601 0.782559
0.633509 0.490517 0.786954
0.859556 0.756771 0.779599
0.908232 0.820035 0.775082
0.000000 0.661921 0.786252
0.000000 0.660914 0.786191
0.000000 0.656092 0.785824
0.000000 0.643732 0.784909
0.000000 0.617365 0.783047
0.335882 0.559075 0.778927
0.804288 0.744839 0.773434
0.908873 0.849760 0.777554
0.000000 0.821836 0.788418
0.000000 0.822171 0.788357
0.000000 0.822995 0.787839
0.000000 0.824125 0.786526
0.385657 0.826719 0.783993
0.640162 0.835966 0.779324
0.824521 0.852750 0.774624
0.910430 0.872496 0.781369
