其他预设/【234】港风调色预设/1.3D LUT预设（视频调色-PR-AE-PS-FCPX-达芬奇用）/35.港风色调-夸张效果 __.cube
# Created by Adobe Lightroom plugin Export LUT (1.17.0)
# www.johnrellis.com/lightroom/exportlut.htm
# Preset: 35.港风色调-夸张效果 [素锦印象]
# Color profile: /Library/Application Support/Adobe/Color/Profiles/Recommended/AdobeRGB1998.icc
LUT_3D_SIZE 32
0.024262 0.035737 0.036469
0.048188 0.038697 0.037751
0.069306 0.039979 0.038727
0.094606 0.042817 0.041596
0.131044 0.037507 0.045777
0.177737 0.014801 0.047883
0.226169 0.000000 0.046876
0.271580 0.000000 0.043488
0.316350 0.000000 0.036408
0.361578 0.000000 0.027222
0.409308 0.000000 0.014374
0.458381 0.000000 0.000000
0.507805 0.000000 0.000000
0.556085 0.000000 0.000000
0.602655 0.000000 0.000000
0.647425 0.000000 0.000000
0.689418 0.000000 0.000000
0.728267 0.105257 0.000000
0.763821 0.160830 0.000000
0.796506 0.206394 0.000000
0.826505 0.246525 0.000000
0.854337 0.281651 0.000000
0.879423 0.312963 0.000000
0.901244 0.340795 0.000000
0.920165 0.365820 0.000000
0.936553 0.388830 0.000000
0.950683 0.410224 0.000000
0.962737 0.430610 0.000000
0.972992 0.450477 0.000000
0.981567 0.470314 0.000000
0.988556 0.490822 0.079042
0.993866 0.512902 0.133730
0.026673 0.049592 0.039551
0.043549 0.049195 0.041291
0.071717 0.048829 0.035615
0.098878 0.043519 0.035645
0.135683 0.036439 0.038605
0.182193 0.011933 0.040894
0.229740 0.000000 0.040528
0.274357 0.000000 0.037263
0.318334 0.000000 0.032319
0.363897 0.000000 0.022766
0.411017 0.000000 0.009918
0.460090 0.000000 0.000000
0.509117 0.000000 0.000000
0.557275 0.000000 0.000000
0.603845 0.000000 0.000000
0.648280 0.000000 0.000000
0.690181 0.000000 0.000000
0.728939 0.108095 0.000000
0.764248 0.162173 0.000000
0.796872 0.207889 0.000000
0.826902 0.247593 0.000000
0.854582 0.282628 0.000000
0.879637 0.313787 0.000000
0.901427 0.341497 0.000000
0.920317 0.366461 0.000000
0.936675 0.389258 0.000000
0.950774 0.410620 0.000000
0.962829 0.430976 0.000000
0.973053 0.450721 0.000000
0.981659 0.470527 0.000000
0.988617 0.490944 0.076326
0.993957 0.512871 0.131991
0.029603 0.063386 0.046174
0.044709 0.061921 0.046052
0.064179 0.061219 0.047395
0.098451 0.059113 0.036194
0.142580 0.036316 0.028779
0.188540 0.008362 0.031006
0.234226 0.000000 0.031769
0.277867 0.000000 0.030579
0.321569 0.000000 0.025483
0.366339 0.000000 0.017121
0.413519 0.000000 0.002869
0.462287 0.000000 0.000000
0.510979 0.000000 0.000000
0.558892 0.000000 0.000000
0.605127 0.000000 0.000000
0.649500 0.000000 0.000000
0.691157 0.000000 0.000000
0.729763 0.111788 0.000000
0.765011 0.164767 0.000000
0.797513 0.209812 0.000000
0.827359 0.249149 0.000000
0.855009 0.283909 0.000000
0.879973 0.314885 0.000000
0.901701 0.342473 0.000000
0.920562 0.367193 0.000000
0.936828 0.389929 0.000000
0.950896 0.411200 0.000000
0.962951 0.431403 0.000000
0.973144 0.451087 0.000000
0.981720 0.470771 0.000000
0.988708 0.491035 0.072358
0.994018 0.512902 0.129671
0.044160 0.077974 0.056428
0.051667 0.076844 0.054047
0.065461 0.075471 0.056245
0.086915 0.075532 0.059236
0.133730 0.074952 0.047120
0.199069 0.016449 0.014649
0.244175 0.000000 0.012543
0.285954 0.000000 0.012573
0.328191 0.000000 0.010681
0.372473 0.000000 0.002869
0.418860 0.000000 0.000000
0.466957 0.000000 0.000000
0.515099 0.000000 0.000000
0.562432 0.000000 0.000000
0.608301 0.000000 0.000000
0.652186 0.000000 0.000000
0.693355 0.026520 0.000000
0.731594 0.119356 0.000000
0.766567 0.170352 0.000000
0.798672 0.214054 0.000000
0.828428 0.252659 0.000000
0.855924 0.286778 0.000000
0.880705 0.317357 0.000000
0.902281 0.344427 0.000000
0.920958 0.368902 0.000000
0.937224 0.391424 0.000000
0.951202 0.412451 0.000000
0.963195 0.432410 0.000000
0.973388 0.451850 0.000000
0.981933 0.471290 0.000000
0.988861 0.491310 0.063050
0.994202 0.512902 0.124697
0.058015 0.097444 0.063081
0.061097 0.096132 0.061463
0.066835 0.093294 0.061707
0.083803 0.093111 0.062898
0.113527 0.096345 0.064973
0.175174 0.100008 0.054688
0.243778 0.067292 0.015045
0.297093 0.000000 0.000000
0.338476 0.000000 0.000000
0.381567 0.000000 0.000000
0.426917 0.000000 0.000000
0.474037 0.000000 0.000000
0.521355 0.000000 0.000000
0.567803 0.000000 0.000000
0.612879 0.000000 0.000000
0.656031 0.000000 0.000000
0.696803 0.069398 0.000000
0.734371 0.131563 0.000000
0.768917 0.179110 0.000000
0.800687 0.220768 0.000000
0.830014 0.258091 0.000000
0.857267 0.291264 0.000000
0.881773 0.320897 0.000000
0.903166 0.347539 0.000000
0.921660 0.371618 0.000000
0.937774 0.393774 0.000000
0.951659 0.414405 0.000000
0.963561 0.434028 0.000000
0.973693 0.453132 0.000000
0.982208 0.472114 0.000000
0.989166 0.491737 0.031891
0.994476 0.512871 0.116060
0.062593 0.121798 0.067781
0.064698 0.119783 0.066133
0.067659 0.117403 0.064424
0.079316 0.111299 0.065858
0.105837 0.116670 0.066346
0.149477 0.122866 0.067964
0.217960 0.128389 0.059754
0.284184 0.107240 0.015778
0.342931 0.007721 0.000000
0.393133 0.000000 0.000000
0.437720 0.000000 0.000000
0.483680 0.000000 0.000000
0.529503 0.000000 0.000000
0.574884 0.000000 0.000000
0.618982 0.000000 0.000000
0.661219 0.000000 0.000000
0.701167 0.096681 0.000000
0.738125 0.147860 0.000000
0.771969 0.191104 0.000000
0.803250 0.230381 0.000000
0.832120 0.265446 0.000000
0.859068 0.297368 0.000000
0.883238 0.326055 0.000000
0.904295 0.351781 0.000000
0.922606 0.375219 0.000000
0.938506 0.396796 0.000000
0.952270 0.417029 0.000000
0.964080 0.436286 0.000000
0.974121 0.454841 0.000000
0.982605 0.473365 0.000000
0.989532 0.492378 0.000000
0.994873 0.512902 0.103243
0.063966 0.148287 0.071962
0.066133 0.146365 0.070130
0.069093 0.143496 0.067903
0.077485 0.138155 0.067170
0.097230 0.136019 0.069581
0.135286 0.144686 0.070649
0.190127 0.153079 0.071290
0.258946 0.159335 0.065888
0.325444 0.145571 0.010407
0.386572 0.110018 0.000000
0.445380 0.000000 0.000000
0.495033 0.000000 0.000000
0.539513 0.000000 0.000000
0.583551 0.000000 0.000000
0.626368 0.000000 0.000000
0.667567 0.074830 0.000000
0.706477 0.125216 0.000000
0.742672 0.167391 0.000000
0.775814 0.206394 0.000000
0.806332 0.242405 0.000000
0.834806 0.275242 0.000000
0.861265 0.305272 0.000000
0.884977 0.332403 0.000000
0.905730 0.357092 0.000000
0.923766 0.379736 0.000000
0.939452 0.400732 0.000000
0.953033 0.420386 0.000000
0.964721 0.439063 0.000000
0.974670 0.457038 0.000000
0.983093 0.474891 0.000000
0.989990 0.493294 0.000000
0.995361 0.513024 0.084291
0.065095 0.174960 0.076814
0.067323 0.173098 0.075166
0.069917 0.170657 0.072847
0.074952 0.165591 0.069093
0.091524 0.156741 0.071992
0.123201 0.163058 0.073976
0.171023 0.173953 0.076387
0.231968 0.184695 0.079194
0.301579 0.193942 0.079530
0.369696 0.187259 0.009308
0.433570 0.165957 0.000000
0.493324 0.128786 0.000000
0.548302 0.009827 0.000000
0.593652 0.000000 0.000000
0.635096 0.062684 0.000000
0.674891 0.113863 0.000000
0.712703 0.154208 0.000000
0.747829 0.190402 0.000000
0.780117 0.225162 0.000000
0.809964 0.257298 0.000000
0.837858 0.287510 0.000000
0.863767 0.315221 0.000000
0.887053 0.340551 0.000000
0.907408 0.363684 0.000000
0.925139 0.385199 0.000000
0.940581 0.405463 0.000000
0.953948 0.424353 0.000000
0.965484 0.442420 0.000000
0.975341 0.459785 0.000000
0.983673 0.476905 0.000000
0.990539 0.494514 0.000000
0.995880 0.513390 0.045136
0.069093 0.200687 0.083284
0.070863 0.199130 0.081483
0.073793 0.196780 0.079438
0.078981 0.191806 0.075593
0.091188 0.184115 0.074708
0.112734 0.178286 0.078248
0.154971 0.190555 0.081422
0.209232 0.203738 0.085389
0.274601 0.217441 0.091432
0.347204 0.233219 0.099550
0.417884 0.234897 0.028717
0.483467 0.222873 0.000000
0.542321 0.203586 0.000000
0.595880 0.174197 0.000000
0.641230 0.127993 0.000000
0.683375 0.144808 0.000000
0.719844 0.180667 0.000000
0.753841 0.215183 0.000000
0.784970 0.246494 0.000000
0.814054 0.275547 0.000000
0.841276 0.302464 0.000000
0.866636 0.327367 0.000000
0.889372 0.350500 0.000000
0.909239 0.371740 0.000000
0.926696 0.391760 0.000000
0.941833 0.410864 0.000000
0.955016 0.429023 0.000000
0.966339 0.446418 0.000000
0.976074 0.463081 0.000000
0.984344 0.479469 0.000000
0.991150 0.496132 0.000000
0.996521 0.513909 0.000000
0.076020 0.225284 0.089937
0.077333 0.223545 0.088411
0.079622 0.221530 0.086549
0.084535 0.217014 0.082826
0.090944 0.209903 0.078187
0.110384 0.199466 0.081453
0.141299 0.203342 0.085298
0.190188 0.218021 0.090730
0.249699 0.234287 0.097047
0.317967 0.252628 0.104372
0.396277 0.276677 0.118532
0.468544 0.287266 0.061494
0.533379 0.284581 0.000000
0.590845 0.273594 0.000000
0.641840 0.258274 0.000000
0.687465 0.235721 0.000000
0.724147 0.212406 0.000000
0.760403 0.238041 0.000000
0.790433 0.268162 0.000000
0.818418 0.295811 0.000000
0.845029 0.319982 0.000000
0.869749 0.342107 0.000000
0.891905 0.362341 0.000000
0.911315 0.381353 0.000000
0.928405 0.399481 0.000000
0.943267 0.417212 0.000000
0.956176 0.434363 0.000000
0.967346 0.450904 0.000000
0.976928 0.466804 0.000000
0.985077 0.482368 0.000000
0.991852 0.498116 0.000000
0.997223 0.514733 0.000000
0.084779 0.249119 0.097505
0.085847 0.247776 0.096040
0.088136 0.245548 0.094240
0.092378 0.241184 0.090700
0.097841 0.234043 0.085695
0.111421 0.224582 0.085420
0.129610 0.212863 0.088472
0.173159 0.228611 0.094057
0.227543 0.246616 0.101198
0.291539 0.267247 0.108949
0.363622 0.291417 0.116335
0.447974 0.325048 0.133425
0.519371 0.343389 0.079683
0.582544 0.347784 0.000000
0.637690 0.343145 0.000000
0.685939 0.333227 0.000000
0.728115 0.319677 0.000000
0.764950 0.299413 0.000000
0.793942 0.292699 0.000000
0.823453 0.314275 0.000000
0.849119 0.337987 0.000000
0.873045 0.358709 0.000000
0.894530 0.376562 0.000000
0.913481 0.393011 0.000000
0.930205 0.409033 0.000000
0.944793 0.424628 0.000000
0.957488 0.440223 0.000000
0.968444 0.455848 0.000000
0.977874 0.470985 0.000000
0.985901 0.485786 0.000000
0.992615 0.500481 0.000000
0.997955 0.515953 0.000000
0.094301 0.272496 0.104555
0.095705 0.271000 0.103273
0.097902 0.269078 0.102052
0.101656 0.264591 0.098787
0.106020 0.257755 0.093904
0.113558 0.248356 0.089509
0.131106 0.236271 0.092317
0.157839 0.235660 0.096529
0.207156 0.254826 0.103639
0.266148 0.277165 0.111604
0.334508 0.303410 0.119356
0.410864 0.334325 0.125917
0.499031 0.375830 0.140414
0.570306 0.400458 0.093172
0.630213 0.409430 0.000000
0.682094 0.408972 0.000000
0.726772 0.401984 0.000000
0.765133 0.390936 0.000000
0.797818 0.376593 0.000000
0.827268 0.354864 0.000000
0.852354 0.357122 0.000000
0.876616 0.374243 0.000000
0.897246 0.391943 0.000000
0.915679 0.406653 0.000000
0.932006 0.420172 0.000000
0.946380 0.433509 0.000000
0.958862 0.447211 0.000000
0.969665 0.461219 0.000000
0.978912 0.475441 0.000000
0.986847 0.489418 0.000000
0.993439 0.503288 0.000000
0.998749 0.517571 0.000000
0.104219 0.295598 0.111574
0.105745 0.294163 0.110628
0.107118 0.292088 0.109194
0.110567 0.287541 0.105867
0.114534 0.280583 0.101595
0.118898 0.271397 0.096162
0.132662 0.259373 0.095918
0.147829 0.245151 0.098177
0.187625 0.259312 0.104555
0.241917 0.282780 0.112581
0.305852 0.310430 0.120607
0.378790 0.342931 0.127474
0.459083 0.380407 0.132967
0.548821 0.427832 0.146456
0.619562 0.456489 0.105470
0.675685 0.467506 0.000000
0.723293 0.469581 0.000000
0.763577 0.464576 0.000000
0.797848 0.453651 0.000000
0.828244 0.439521 0.000000
0.855558 0.421851 0.000000
0.877806 0.398627 0.000000
0.900114 0.406317 0.000000
0.918029 0.420142 0.000000
0.933867 0.433143 0.000000
0.947906 0.444343 0.000000
0.960204 0.455634 0.000000
0.970886 0.467475 0.000000
0.980041 0.480140 0.000000
0.987823 0.493324 0.000000
0.994354 0.506371 0.000000
0.999603 0.519585 0.000000
0.114107 0.318730 0.118166
0.115023 0.316930 0.117037
0.116121 0.314885 0.115511
0.119081 0.310460 0.112703
0.122316 0.303197 0.108370
0.126589 0.293828 0.102937
0.134157 0.282048 0.099306
0.149569 0.267857 0.101625
0.169772 0.260410 0.104494
0.218906 0.284611 0.112490
0.277806 0.313237 0.120638
0.346563 0.346715 0.127962
0.424018 0.385260 0.133700
0.506584 0.427863 0.138399
0.595880 0.478523 0.152407
0.666163 0.510826 0.119905
0.717525 0.521965 0.000000
0.760311 0.524407 0.000000
0.796262 0.519188 0.000000
0.827817 0.508568 0.000000
0.855955 0.493843 0.000000
0.880430 0.476081 0.000000
0.901946 0.451789 0.000000
0.918883 0.437232 0.000000
0.935973 0.444373 0.000000
0.949462 0.456031 0.000000
0.961517 0.465827 0.000000
0.972045 0.475349 0.000000
0.981170 0.485756 0.000000
0.988922 0.497261 0.000000
0.995331 0.509453 0.000000
1.000000 0.521843 0.000000
0.122560 0.341131 0.123873
0.123476 0.339696 0.122896
0.124758 0.337621 0.121736
0.126711 0.332982 0.118868
0.129702 0.325872 0.114748
0.132998 0.316167 0.109377
0.137057 0.304448 0.103670
0.150637 0.290166 0.104250
0.163638 0.273716 0.105776
0.197024 0.283116 0.111299
0.251102 0.312139 0.119600
0.314885 0.346197 0.127230
0.388373 0.385351 0.133608
0.468849 0.428779 0.138613
0.552758 0.475441 0.143832
0.640558 0.527611 0.160342
0.709163 0.562066 0.138705
0.755245 0.571862 0.006043
0.793301 0.572351 0.000000
0.826230 0.566705 0.000000
0.855070 0.555962 0.000000
0.880095 0.540551 0.000000
0.901610 0.521508 0.000000
0.920378 0.499367 0.000000
0.936645 0.472633 0.000000
0.950500 0.468574 0.000000
0.962890 0.475624 0.000000
0.973144 0.484840 0.000000
0.982208 0.492805 0.000000
0.989960 0.501854 0.000000
0.996368 0.512413 0.000000
1.000000 0.524010 0.000000
0.129885 0.363745 0.128908
0.130800 0.362188 0.128237
0.131624 0.359899 0.126894
0.133486 0.355169 0.123934
0.136294 0.347814 0.119844
0.139590 0.338293 0.115114
0.142611 0.326452 0.109255
0.150637 0.312139 0.106386
0.164248 0.295659 0.108034
0.175753 0.278569 0.109133
0.225406 0.307652 0.117769
0.284520 0.342199 0.125948
0.352850 0.381598 0.132509
0.430549 0.425635 0.138125
0.512993 0.472724 0.143313
0.596948 0.521782 0.150027
0.681422 0.573510 0.170260
0.747555 0.609033 0.163180
0.788724 0.615656 0.078614
0.823575 0.614191 0.000000
0.853422 0.607141 0.000000
0.878660 0.595727 0.000000
0.900420 0.580377 0.000000
0.919432 0.560906 0.000000
0.936065 0.538598 0.000000
0.950896 0.513512 0.000000
0.962799 0.491157 0.000000
0.974334 0.492805 0.000000
0.983124 0.501152 0.000000
0.990875 0.508110 0.000000
0.997375 0.515953 0.000000
1.000000 0.525780 0.000000
0.136446 0.385443 0.133394
0.137148 0.384070 0.132570
0.138186 0.382025 0.131563
0.139681 0.377356 0.128817
0.142336 0.370153 0.125063
0.145022 0.360418 0.120089
0.148257 0.348547 0.114595
0.150790 0.334295 0.108278
0.164370 0.317449 0.109560
0.175753 0.299077 0.110750
0.201328 0.300725 0.115175
0.255344 0.334997 0.123507
0.318944 0.374609 0.130800
0.392279 0.418830 0.136690
0.472724 0.466529 0.142306
0.555688 0.516014 0.148531
0.638422 0.565972 0.158572
0.718624 0.616236 0.183841
0.781338 0.650233 0.194614
0.819059 0.653956 0.122347
0.850523 0.650355 0.000000
0.876524 0.641505 0.000000
0.898497 0.629358 0.000000
0.917510 0.614069 0.000000
0.934234 0.595239 0.000000
0.949096 0.573205 0.000000
0.962310 0.548882 0.000000
0.974182 0.520500 0.000000
0.983520 0.511589 0.000000
0.991760 0.514336 0.000000
0.998169 0.521294 0.000000
1.000000 0.528008 0.000000
0.142000 0.407416 0.137545
0.142916 0.406012 0.136782
0.143252 0.403693 0.135439
0.145113 0.399145 0.133028
0.147402 0.391821 0.129213
0.150149 0.382330 0.124605
0.152926 0.370489 0.119234
0.155215 0.356054 0.113008
0.163851 0.339361 0.110964
0.176120 0.320745 0.112398
0.184970 0.300359 0.112978
0.228031 0.325292 0.120455
0.286503 0.364599 0.128511
0.355383 0.409430 0.134951
0.432410 0.457527 0.140444
0.514611 0.508110 0.146548
0.597650 0.559289 0.155581
0.678401 0.609033 0.169955
0.753017 0.655543 0.200961
0.811887 0.686152 0.231205
0.845762 0.687190 0.165560
0.873136 0.681239 0.072328
0.895842 0.671229 0.000000
0.915099 0.658381 0.000000
0.931792 0.642939 0.000000
0.946471 0.625055 0.000000
0.959716 0.603967 0.000000
0.971740 0.579797 0.000000
0.982544 0.552972 0.000000
0.991424 0.528313 0.000000
0.998871 0.526238 0.000000
1.000000 0.532097 0.000000
0.146731 0.429358 0.141024
0.147189 0.427771 0.140200
0.148257 0.425788 0.139162
0.149386 0.421088 0.136812
0.151522 0.414313 0.133272
0.154025 0.404761 0.128511
0.156649 0.392889 0.123049
0.159182 0.378759 0.117098
0.162081 0.362310 0.111513
0.175296 0.343236 0.113100
0.185550 0.322698 0.114137
0.202243 0.314183 0.116701
0.256504 0.353277 0.125307
0.320104 0.397925 0.132357
0.393805 0.446937 0.138247
0.474098 0.498299 0.143984
0.556970 0.550805 0.151949
0.639185 0.602228 0.164736
0.716670 0.650355 0.185397
0.784634 0.690761 0.223575
0.838224 0.717342 0.272587
0.867765 0.715755 0.210941
0.891752 0.708431 0.139742
0.911742 0.697383 0.000000
0.928740 0.684077 0.000000
0.943511 0.668482 0.000000
0.956542 0.651087 0.000000
0.968383 0.631159 0.000000
0.979309 0.607813 0.000000
0.989258 0.580926 0.000000
0.998138 0.550164 0.000000
1.000000 0.539513 0.000000
0.150729 0.452125 0.144503
0.151339 0.450690 0.143679
0.151736 0.448524 0.142336
0.153079 0.444221 0.140139
0.154940 0.437079 0.136477
0.157534 0.428046 0.132265
0.159762 0.416052 0.126375
0.162600 0.402136 0.120668
0.164523 0.385748 0.114504
0.174044 0.366918 0.113497
0.185275 0.345769 0.114565
0.193393 0.323552 0.115572
0.227970 0.340368 0.121157
0.287327 0.385077 0.129091
0.356756 0.434668 0.135531
0.434546 0.487129 0.141176
0.516930 0.541070 0.148135
0.599847 0.594110 0.159579
0.679988 0.644221 0.178042
0.751400 0.687709 0.205722
0.813077 0.721614 0.249454
0.859678 0.743801 0.317388
0.885405 0.740719 0.258549
0.906676 0.732418 0.194522
0.924498 0.720974 0.112215
0.939696 0.707301 0.000000
0.952911 0.691646 0.000000
0.964691 0.674342 0.000000
0.975341 0.655146 0.000000
0.985199 0.633021 0.000000
0.994415 0.606256 0.000000
1.000000 0.575341 0.000000
0.153780 0.475776 0.147494
0.153964 0.474281 0.146456
0.154604 0.472297 0.145571
0.156222 0.468086 0.143343
0.157992 0.461158 0.139712
0.160098 0.452094 0.135134
0.162814 0.440650 0.129854
0.165255 0.426825 0.123903
0.167269 0.410681 0.117647
0.171359 0.392004 0.112825
0.184421 0.370855 0.114595
0.193790 0.347967 0.115724
0.201572 0.326390 0.116609
0.256474 0.370733 0.125399
0.321416 0.420905 0.132265
0.396033 0.474556 0.138033
0.477485 0.529931 0.144594
0.560601 0.584894 0.154269
0.642512 0.637018 0.170840
0.717678 0.683101 0.196475
0.782864 0.720760 0.231571
0.838285 0.748531 0.279545
0.876280 0.765469 0.355688
0.899413 0.762417 0.307317
0.918425 0.753811 0.246616
0.934417 0.742397 0.185336
0.948119 0.728695 0.114107
0.960204 0.713039 0.000000
0.970977 0.695644 0.000000
0.980743 0.676570 0.000000
0.989654 0.655238 0.000000
0.997955 0.629938 0.000000
0.156191 0.500938 0.150484
0.156680 0.499306 0.149569
0.157290 0.497505 0.148501
0.158480 0.493385 0.146242
0.160342 0.486915 0.142855
0.162722 0.477943 0.138247
0.165011 0.466804 0.132937
0.167391 0.453132 0.126741
0.169680 0.436957 0.120333
0.171481 0.418616 0.113680
0.182620 0.397955 0.113924
0.194034 0.374395 0.115450
0.201663 0.349859 0.116609
0.227817 0.355840 0.120729
0.288457 0.406226 0.128664
0.359319 0.461006 0.134768
0.438880 0.517906 0.140658
0.522179 0.574884 0.149264
0.605310 0.629206 0.163729
0.683711 0.677882 0.187015
0.751827 0.717983 0.220645
0.811246 0.749569 0.261967
0.859281 0.771298 0.312840
0.889586 0.783719 0.390112
0.910094 0.781552 0.357122
0.927214 0.773098 0.301183
0.941680 0.762081 0.250736
0.954284 0.748653 0.196017
0.965515 0.733089 0.128725
0.975525 0.715816 0.000000
0.984497 0.696742 0.000000
0.992645 0.675471 0.000000
0.158328 0.528099 0.153811
0.158785 0.526787 0.153109
0.159396 0.524926 0.151858
0.160494 0.520653 0.149508
0.162264 0.514244 0.145876
0.164401 0.505638 0.141299
0.166873 0.494728 0.135836
0.169436 0.481666 0.129580
0.172000 0.465888 0.122896
0.173983 0.448035 0.115755
0.180362 0.427314 0.112123
0.193484 0.404303 0.114595
0.202976 0.379400 0.116365
0.209201 0.352972 0.117281
0.257939 0.391608 0.124392
0.324926 0.447456 0.130953
0.401923 0.505882 0.136843
0.484810 0.564752 0.144259
0.568688 0.621302 0.156954
0.649775 0.672602 0.178286
0.721248 0.714931 0.210056
0.782620 0.748623 0.250370
0.835538 0.773678 0.296178
0.876585 0.790707 0.348547
0.900175 0.799619 0.424628
0.917937 0.798337 0.406500
0.933257 0.790707 0.360906
0.946502 0.780209 0.314977
0.958251 0.767269 0.266850
0.968750 0.752224 0.215000
0.978119 0.735195 0.153872
0.986511 0.716304 0.036530
0.160189 0.557855 0.157473
0.160403 0.556542 0.156680
0.160952 0.554620 0.155398
0.162417 0.550866 0.153017
0.164187 0.544640 0.149264
0.166171 0.536370 0.144594
0.168856 0.525933 0.138918
0.171511 0.513115 0.132448
0.174258 0.497932 0.125429
0.176547 0.480415 0.117952
0.178683 0.460548 0.110567
0.192569 0.437873 0.112703
0.204685 0.412940 0.115297
0.212894 0.386297 0.117342
0.230411 0.378210 0.120058
0.293645 0.434791 0.127260
0.367620 0.494850 0.132967
0.449500 0.555566 0.139712
0.533715 0.614252 0.150729
0.616724 0.667964 0.170016
0.691615 0.712428 0.200076
0.755215 0.747982 0.239445
0.810147 0.774594 0.285191
0.856168 0.794003 0.334112
0.890745 0.807401 0.385595
0.908598 0.813413 0.458595
0.923186 0.813565 0.460670
0.936919 0.806790 0.420600
0.949096 0.797055 0.379339
0.959991 0.784970 0.336950
0.969757 0.770718 0.292424
0.978515 0.754635 0.245548
0.162478 0.590784 0.161837
0.163058 0.589715 0.161166
0.163485 0.588067 0.159854
0.164889 0.584436 0.157473
0.166445 0.578698 0.153689
0.168734 0.570886 0.148775
0.171603 0.560937 0.142611
0.174197 0.548760 0.135805
0.176913 0.534203 0.128206
0.180056 0.517479 0.120241
0.182254 0.498268 0.112093
0.191196 0.476539 0.109682
0.206363 0.451942 0.112978
0.217502 0.425360 0.115999
0.224582 0.397375 0.118257
0.265812 0.424659 0.123690
0.336736 0.486336 0.129488
0.416938 0.548669 0.135439
0.501366 0.609430 0.145113
0.585565 0.665156 0.162875
0.663447 0.711635 0.191623
0.729732 0.748501 0.230381
0.786069 0.776333 0.275639
0.834257 0.796323 0.324620
0.873320 0.811276 0.374426
0.902098 0.821805 0.423438
0.915068 0.825864 0.496315
0.926482 0.826993 0.512261
0.938659 0.821256 0.478584
0.949645 0.812711 0.443305
0.959564 0.801846 0.406989
0.968444 0.789059 0.370367
0.166659 0.628412 0.168215
0.166903 0.627283 0.167208
0.167391 0.625666 0.165988
0.168765 0.622492 0.163638
0.170443 0.617090 0.159518
0.172854 0.609949 0.154208
0.175082 0.600702 0.147616
0.178103 0.589197 0.140078
0.181277 0.575708 0.131807
0.184207 0.560113 0.123140
0.186923 0.541894 0.113985
0.189242 0.521477 0.105104
0.208103 0.497841 0.109468
0.222995 0.472084 0.113619
0.233219 0.444465 0.117220
0.242374 0.419440 0.120150
0.310369 0.482490 0.125887
0.388952 0.546685 0.131685
0.473548 0.609094 0.140688
0.558282 0.666133 0.157259
0.637934 0.713741 0.185397
0.706691 0.751339 0.223728
0.764248 0.779629 0.268925
0.813718 0.799924 0.318090
0.854978 0.814725 0.368078
0.887572 0.826047 0.416815
0.910918 0.834684 0.469490
0.919829 0.837095 0.536614
0.928344 0.838437 0.559686
0.938964 0.833890 0.532097
0.948486 0.826932 0.504112
0.957061 0.818021 0.476478
0.174105 0.670680 0.177371
0.174594 0.669703 0.176394
0.174899 0.668238 0.175143
0.175784 0.665400 0.172396
0.177615 0.660517 0.167819
0.179843 0.654200 0.162173
0.182315 0.645960 0.155276
0.185153 0.635798 0.146975
0.188235 0.623560 0.137545
0.191226 0.609247 0.127443
0.194766 0.592798 0.116640
0.197421 0.574121 0.105806
0.211154 0.552697 0.104158
0.229953 0.528283 0.109316
0.244633 0.501854 0.114382
0.254917 0.473610 0.118685
0.290013 0.486793 0.123201
0.366979 0.552270 0.128328
0.451423 0.615656 0.137179
0.536858 0.673335 0.153994
0.617426 0.720729 0.182467
0.687495 0.757839 0.221256
0.745876 0.785550 0.266911
0.795804 0.805356 0.316228
0.838376 0.819699 0.366369
0.872679 0.830472 0.418158
0.898772 0.839017 0.470161
0.917357 0.845853 0.517296
0.923186 0.846769 0.575372
0.929198 0.848051 0.602075
0.938170 0.844663 0.581140
0.946166 0.839384 0.560662
0.188693 0.717342 0.191562
0.188968 0.716640 0.190738
0.189517 0.715419 0.189181
0.190372 0.713039 0.186221
0.191775 0.709163 0.181704
0.193668 0.703822 0.175418
0.195895 0.696956 0.167575
0.198459 0.688319 0.158206
0.201419 0.678035 0.147677
0.204379 0.665736 0.135958
0.207431 0.651637 0.123049
0.210910 0.635279 0.109529
0.216464 0.616754 0.097810
0.240635 0.595117 0.104097
0.259953 0.571283 0.109957
