其他预设/【234】港风调色预设/1.3D LUT预设（视频调色-PR-AE-PS-FCPX-达芬奇用）/35.港风色调-夸张效果 __.cube
# Created by Adobe Lightroom plugin Export LUT (1.17.0)
# www.johnrellis.com/lightroom/exportlut.htm
# Preset: 35.港风色调-夸张效果 [素锦印象]
# Color profile: /Library/Application Support/Adobe/Color/Profiles/Recommended/AdobeRGB1998.icc
LUT_3D_SIZE 5
DOMAIN_MIN 0.000000 0.000000 0.000000
DOMAIN_MAX 0.903226 0.903226 0.903226
0.024262 0.035737 0.036469
0.271580 0.000000 0.043488
0.602655 0.000000 0.000000
0.854337 0.281651 0.000000
0.972992 0.450477 0.000000
0.065095 0.174960 0.076814
0.231968 0.184695 0.079194
0.635096 0.062684 0.000000
0.863767 0.315221 0.000000
0.975341 0.459785 0.000000
0.122560 0.341131 0.123873
0.150637 0.290166 0.104250
0.552758 0.475441 0.143832
0.880095 0.540551 0.000000
0.982208 0.492805 0.000000
0.156191 0.500938 0.150484
0.167391 0.453132 0.126741
0.288457 0.406226 0.128664
0.811246 0.749569 0.261967
0.965515 0.733089 0.128725
0.217411 0.765316 0.213443
0.224674 0.743984 0.178622
0.283116 0.652155 0.107362
0.668391 0.787076 0.240116
0.913603 0.859373 0.574090
0.000000 0.021027 0.203189
0.262669 0.044221 0.186801
0.586297 0.225345 0.189425
0.848875 0.354345 0.127291
0.972503 0.462593 0.000000
0.000000 0.194278 0.204532
0.295598 0.228031 0.195804
0.616968 0.258976 0.162631
0.857908 0.380835 0.070832
0.974731 0.471717 0.000000
0.168521 0.431861 0.201236
0.269444 0.396033 0.190402
0.583490 0.505821 0.227481
0.879118 0.530022 0.000000
0.981415 0.506004 0.000000
0.233036 0.582544 0.218509
0.246708 0.536584 0.188144
0.284825 0.397162 0.150729
0.818235 0.757656 0.343053
0.965209 0.733272 0.177310
0.278141 0.793698 0.275853
0.277287 0.774350 0.238163
0.286259 0.689021 0.125124
0.655390 0.780545 0.251408
0.913970 0.859678 0.579553
0.000000 0.000000 0.377630
0.266850 0.000000 0.406531
0.593042 0.145693 0.393317
0.835508 0.344823 0.388922
0.936431 0.666224 0.491524
0.000000 0.082521 0.360357
0.259281 0.125246 0.394354
0.607172 0.288792 0.402289
0.838834 0.438941 0.391180
0.942199 0.654231 0.464515
0.000000 0.458930 0.404639
0.188663 0.481666 0.409766
0.638209 0.564508 0.421546
0.852750 0.602533 0.393713
0.959503 0.626917 0.357946
0.185000 0.761318 0.438148
0.333196 0.743374 0.420417
0.506859 0.645686 0.334325
0.831998 0.775967 0.522271
0.960937 0.726528 0.349981
0.347570 0.859739 0.445624
0.401862 0.849760 0.431891
0.437781 0.799832 0.324102
0.561700 0.733577 0.243503
0.911376 0.862333 0.655268
0.161318 0.000000 0.587945
0.310979 0.000000 0.607294
0.618585 0.000000 0.649561
0.825132 0.384344 0.640833
0.926116 0.642786 0.636500
0.095338 0.000000 0.574640
0.286046 0.000000 0.595361
0.607507 0.000000 0.649928
0.826291 0.466499 0.642817
0.924041 0.675105 0.641840
0.000000 0.222599 0.541009
0.000000 0.205966 0.541344
0.508934 0.332952 0.619562
0.830533 0.648890 0.649775
0.919951 0.749752 0.656825
0.000000 0.693629 0.626520
0.000000 0.699245 0.628626
0.461555 0.721035 0.636683
0.839994 0.790799 0.663478
0.925322 0.797757 0.647669
0.366064 0.912047 0.667262
0.457801 0.905089 0.661952
0.632105 0.882628 0.641016
0.686488 0.826413 0.513176
0.909819 0.866911 0.729000
0.290837 0.000000 0.794278
0.374945 0.000000 0.796567
0.573663 0.000000 0.803677
0.801480 0.462562 0.791470
0.911406 0.691279 0.774655
0.251102 0.000000 0.792142
0.351385 0.000000 0.794553
0.565789 0.000000 0.801846
0.799680 0.492164 0.791287
0.910582 0.715206 0.774319
0.000000 0.053437 0.782101
0.000000 0.027008 0.785428
0.476997 0.150210 0.794125
0.780575 0.538079 0.791867
0.908934 0.770260 0.774075
0.000000 0.492897 0.783627
0.000000 0.479103 0.783169
0.000000 0.392401 0.780911
0.671351 0.557275 0.783993
0.908354 0.828000 0.775601
0.000000 0.821836 0.788418
0.000000 0.822782 0.788022
0.222934 0.825010 0.785458
0.694453 0.839963 0.777920
0.910430 0.872496 0.781369
