其他预设/【234】港风调色预设/1.3D LUT预设（视频调色-PR-AE-PS-FCPX-达芬奇用）/36.港风色调-夸张效果 __.cube
# Created by Adobe Lightroom plugin Export LUT (1.17.0)
# www.johnrellis.com/lightroom/exportlut.htm
# Preset: 36.港风色调-夸张效果 [素锦印象]
# Color profile: /Library/Application Support/Adobe/Color/Profiles/Recommended/AdobeRGB1998.icc
LUT_3D_SIZE 5
DOMAIN_MIN 0.000000 0.000000 0.000000
DOMAIN_MAX 0.903226 0.903226 0.903226
0.017517 0.041444 0.039429
0.177035 0.065309 0.043091
0.511406 0.187320 0.000000
0.760922 0.416114 0.000000
0.892363 0.549737 0.000000
0.032990 0.125765 0.068269
0.158022 0.141695 0.068208
0.519158 0.334447 0.000000
0.759365 0.483742 0.000000
0.898436 0.581994 0.000000
0.000000 0.310033 0.093263
0.032807 0.242039 0.070771
0.525261 0.523278 0.194278
0.778408 0.619501 0.000000
0.896483 0.671229 0.000000
0.000000 0.516960 0.152377
0.000000 0.463233 0.095491
0.170352 0.419715 0.093690
0.721889 0.729397 0.469398
0.887602 0.742275 0.336889
0.000000 0.781491 0.376715
0.000000 0.767391 0.333410
0.094881 0.694057 0.198215
0.582330 0.787533 0.459205
0.835966 0.839628 0.698573
0.013794 0.068116 0.149416
0.153414 0.057771 0.162234
0.474983 0.199619 0.197574
0.731594 0.408362 0.170932
0.878111 0.547875 0.171756
0.000000 0.158175 0.180056
0.176791 0.192752 0.188907
0.500008 0.304906 0.152529
0.736568 0.463294 0.095521
0.881468 0.573724 0.080995
0.000000 0.422004 0.218418
0.098970 0.381689 0.188693
0.502098 0.521080 0.315557
0.754849 0.618128 0.000000
0.890867 0.662867 0.000000
0.000000 0.597192 0.286290
0.000000 0.550134 0.222293
0.143435 0.391424 0.122255
0.714595 0.735134 0.539208
0.880552 0.751064 0.413947
0.000000 0.795743 0.446509
0.000000 0.781918 0.402808
0.128176 0.733730 0.262943
0.573053 0.787930 0.477913
0.835355 0.843503 0.721828
0.000000 0.118502 0.462257
0.098116 0.124758 0.480323
0.441627 0.119905 0.509850
0.696803 0.392065 0.532311
0.825223 0.654475 0.645228
0.000000 0.220218 0.467872
0.130098 0.241428 0.494209
0.465064 0.288396 0.537743
0.694087 0.474403 0.544213
0.832395 0.657893 0.626520
0.000000 0.492134 0.542321
0.000000 0.514702 0.550958
0.492714 0.579950 0.575616
0.702724 0.636378 0.558251
0.853910 0.683680 0.535943
0.000000 0.743587 0.579065
0.000000 0.725551 0.558984
0.329625 0.640894 0.459663
0.703395 0.754208 0.673854
0.864042 0.771237 0.542290
0.000000 0.837522 0.604364
0.176364 0.830045 0.595209
0.276036 0.790616 0.495857
0.453223 0.745296 0.422797
0.828031 0.847257 0.763638
0.000000 0.256321 0.708553
0.165560 0.268315 0.713680
0.443000 0.321355 0.737392
0.662959 0.400641 0.747677
0.808988 0.622095 0.757565
0.000000 0.338537 0.707637
0.200046 0.354498 0.714900
0.449195 0.403906 0.736141
0.660334 0.468086 0.745998
0.806699 0.642725 0.756344
0.000000 0.500175 0.706935
0.209476 0.515862 0.708095
0.470466 0.580316 0.733272
0.671473 0.637263 0.758175
0.811093 0.714199 0.765469
0.000000 0.712367 0.750210
0.144717 0.715480 0.749477
0.459632 0.732631 0.753811
0.683040 0.765835 0.768185
0.825711 0.788052 0.754940
0.000000 0.895506 0.790738
0.177798 0.889616 0.786313
0.440772 0.869810 0.768063
0.520317 0.808652 0.661006
0.823606 0.857328 0.821988
0.483192 0.607843 0.876951
0.511498 0.614069 0.877592
0.589868 0.628290 0.878233
0.704494 0.653956 0.880491
0.818235 0.682948 0.879881
0.508965 0.648035 0.878141
0.532738 0.651942 0.878630
0.603265 0.661921 0.879393
0.713619 0.684962 0.882536
0.821317 0.708034 0.882078
0.517296 0.705379 0.877226
0.542779 0.710231 0.878508
0.627375 0.731136 0.881010
0.728786 0.748440 0.885039
0.825559 0.761501 0.884794
0.506920 0.774105 0.881529
0.538293 0.779080 0.882231
0.616724 0.788693 0.881254
0.729488 0.806271 0.883543
0.829587 0.821927 0.886961
0.484901 0.866606 0.892912
0.518914 0.868315 0.893492
0.600824 0.869444 0.891630
0.721248 0.873503 0.890471
0.841520 0.885466 0.894408
