其他预设/【234】港风调色预设/1.3D LUT预设（视频调色-PR-AE-PS-FCPX-达芬奇用）/36.港风色调-夸张效果 __.cube
# Created by Adobe Lightroom plugin Export LUT (1.17.0)
# www.johnrellis.com/lightroom/exportlut.htm
# Preset: 36.港风色调-夸张效果 [素锦印象]
# Color profile: /Library/Application Support/Adobe/Color/Profiles/Recommended/AdobeRGB1998.icc
LUT_3D_SIZE 32
0.017517 0.041444 0.039429
0.029023 0.043030 0.040070
0.044251 0.046357 0.040497
0.065980 0.051545 0.042237
0.084596 0.058289 0.044282
0.108400 0.061097 0.046509
0.139437 0.063386 0.045686
0.177035 0.065309 0.043091
0.219486 0.068177 0.035554
0.265446 0.074891 0.022797
0.315038 0.086793 0.004120
0.366461 0.104494 0.000000
0.417456 0.127962 0.000000
0.466133 0.156191 0.000000
0.511406 0.187320 0.000000
0.553307 0.219455 0.000000
0.591913 0.251408 0.000000
0.626276 0.282109 0.000000
0.666621 0.320623 0.000000
0.702937 0.357305 0.000000
0.733700 0.388800 0.000000
0.760922 0.416114 0.000000
0.784909 0.439521 0.000000
0.806332 0.460182 0.000000
0.825711 0.478767 0.000000
0.843595 0.496284 0.000000
0.860655 0.513725 0.000000
0.876890 0.531365 0.000000
0.892363 0.549737 0.000000
0.906767 0.569268 0.068360
0.919768 0.590173 0.167788
0.930846 0.612940 0.247410
0.018433 0.048768 0.041993
0.026581 0.047761 0.041901
0.045991 0.051575 0.039887
0.067659 0.058137 0.038148
0.086275 0.061372 0.040284
0.109712 0.064027 0.041413
0.140566 0.066499 0.041566
0.177249 0.069032 0.038972
0.218509 0.073213 0.032471
0.264012 0.080629 0.019623
0.312535 0.092317 0.001373
0.363226 0.109773 0.000000
0.413672 0.132235 0.000000
0.461891 0.159487 0.000000
0.506828 0.189334 0.000000
0.548699 0.220401 0.000000
0.587335 0.251865 0.000000
0.622004 0.281956 0.000000
0.662531 0.319890 0.000000
0.698146 0.355383 0.000000
0.728634 0.386023 0.000000
0.755703 0.412940 0.000000
0.779812 0.436225 0.000000
0.801541 0.456916 0.000000
0.821317 0.475654 0.000000
0.839658 0.493355 0.000000
0.857206 0.510826 0.000000
0.873930 0.528618 0.000000
0.889860 0.547112 0.000000
0.904692 0.566644 0.013367
0.918090 0.587579 0.154452
0.929625 0.610132 0.235660
0.019806 0.058198 0.045258
0.025238 0.057527 0.045197
0.040009 0.056580 0.044923
0.066743 0.060853 0.039857
0.088502 0.066377 0.034668
0.112184 0.068513 0.035737
0.142184 0.071321 0.035828
0.178103 0.074952 0.032990
0.218784 0.080049 0.027344
0.263310 0.088533 0.014282
0.311467 0.100526 0.000000
0.361730 0.117586 0.000000
0.411749 0.139498 0.000000
0.459785 0.165866 0.000000
0.504662 0.194827 0.000000
0.546319 0.224918 0.000000
0.584924 0.255528 0.000000
0.619684 0.285069 0.000000
0.660700 0.322698 0.000000
0.695766 0.356786 0.000000
0.726040 0.386725 0.000000
0.753140 0.413153 0.000000
0.777310 0.436378 0.000000
0.799161 0.456703 0.000000
0.819059 0.475288 0.000000
0.837583 0.492805 0.000000
0.855375 0.510277 0.000000
0.872343 0.528038 0.000000
0.888548 0.546410 0.000000
0.903655 0.565820 0.000000
0.917296 0.586572 0.144259
0.929015 0.608942 0.227451
0.023896 0.067567 0.051453
0.027008 0.066987 0.050690
0.039002 0.066255 0.051392
0.061891 0.065614 0.052491
0.084779 0.069154 0.046296
0.116213 0.080293 0.027863
0.147860 0.084443 0.023713
0.182986 0.088441 0.021515
0.222477 0.095277 0.013947
0.266026 0.105196 0.002014
0.313054 0.118166 0.000000
0.362310 0.134859 0.000000
0.411383 0.156252 0.000000
0.458656 0.181094 0.000000
0.502983 0.207889 0.000000
0.544335 0.236606 0.000000
0.582666 0.265507 0.000000
0.617578 0.293767 0.000000
0.658808 0.330510 0.000000
0.692470 0.362005 0.000000
0.721889 0.389868 0.000000
0.748592 0.415198 0.000000
0.773098 0.437751 0.000000
0.795712 0.458259 0.000000
0.816678 0.477089 0.000000
0.836210 0.495064 0.000000
0.854704 0.512627 0.000000
0.872099 0.530388 0.000000
0.888487 0.548486 0.000000
0.903593 0.567376 0.000000
0.917113 0.587457 0.131289
0.928832 0.609033 0.216892
0.030640 0.077577 0.058412
0.032746 0.076783 0.056916
0.038697 0.075380 0.057069
0.059510 0.075502 0.058167
0.077516 0.075776 0.059113
0.104707 0.079347 0.052613
0.144717 0.093233 0.029084
0.188266 0.112703 0.001587
0.226596 0.119234 0.000000
0.268711 0.129183 0.000000
0.314397 0.142733 0.000000
0.362371 0.159762 0.000000
0.410498 0.179812 0.000000
0.457099 0.203098 0.000000
0.501305 0.228367 0.000000
0.542809 0.255161 0.000000
0.581598 0.282444 0.000000
0.620386 0.312505 0.000000
0.659541 0.345678 0.000000
0.691981 0.374182 0.000000
0.720485 0.399725 0.000000
0.746731 0.423163 0.000000
0.770962 0.444434 0.000000
0.793668 0.463905 0.000000
0.814878 0.482033 0.000000
0.834714 0.499306 0.000000
0.853422 0.516381 0.000000
0.871031 0.533318 0.000000
0.887510 0.550805 0.000000
0.902800 0.569024 0.000000
0.916564 0.588464 0.106142
0.928527 0.609461 0.200412
0.034363 0.089448 0.061860
0.036500 0.088777 0.061036
0.039307 0.087098 0.059907
0.051209 0.083986 0.060609
0.072663 0.087831 0.060914
0.095521 0.089754 0.062409
0.132662 0.092988 0.059113
0.179843 0.112245 0.029786
0.227939 0.137392 0.000000
0.275700 0.164340 0.000000
0.320287 0.176883 0.000000
0.366949 0.192691 0.000000
0.413764 0.212039 0.000000
0.459449 0.233280 0.000000
0.502831 0.256474 0.000000
0.543999 0.281132 0.000000
0.582361 0.306218 0.000000
0.624872 0.337652 0.000000
0.661952 0.366857 0.000000
0.693355 0.392432 0.000000
0.721523 0.415808 0.000000
0.747738 0.437324 0.000000
0.802304 0.486122 0.000000
0.822690 0.502129 0.000000
0.841062 0.516747 0.000000
0.857908 0.530755 0.000000
0.873564 0.544732 0.000000
0.888273 0.558953 0.000000
0.902068 0.574029 0.000000
0.914855 0.590265 0.000000
0.926207 0.607691 0.147616
0.935760 0.626703 0.231876
0.035035 0.107576 0.065278
0.036835 0.105837 0.064271
0.040009 0.104005 0.063233
0.050050 0.100008 0.062409
0.066529 0.099336 0.063478
0.090578 0.108553 0.064240
0.125765 0.113832 0.065431
0.176181 0.117891 0.062226
0.231174 0.144625 0.020264
0.285618 0.178073 0.000000
0.338659 0.214450 0.000000
0.387884 0.243412 0.000000
0.433265 0.260105 0.000000
0.476814 0.279240 0.000000
0.517906 0.299229 0.000000
0.556420 0.320043 0.000000
0.596735 0.345342 0.000000
0.639124 0.375280 0.000000
0.674006 0.400824 0.000000
0.704860 0.424109 0.000000
0.734188 0.446418 0.000000
0.762417 0.467781 0.000000
0.789029 0.487526 0.000000
0.813352 0.505394 0.000000
0.834958 0.521477 0.000000
0.853849 0.535882 0.000000
0.870634 0.549523 0.000000
0.885985 0.563043 0.000000
0.900298 0.577264 0.000000
0.913390 0.592340 0.000000
0.925170 0.608698 0.100221
0.935241 0.626673 0.200198
0.032990 0.125765 0.068269
0.034974 0.124117 0.067353
0.039063 0.121981 0.065736
0.046754 0.117311 0.063569
0.060609 0.110323 0.064973
0.078889 0.117830 0.066041
0.113100 0.132631 0.066407
0.158022 0.141695 0.068208
0.217288 0.146456 0.067781
0.277012 0.178073 0.009400
0.334386 0.215305 0.000000
0.387884 0.254582 0.000000
0.436103 0.293523 0.000000
0.479011 0.317571 0.000000
0.519158 0.334447 0.000000
0.557214 0.352544 0.000000
0.603357 0.380804 0.000000
0.641505 0.404303 0.000000
0.673976 0.425025 0.000000
0.703426 0.444739 0.000000
0.731838 0.464454 0.000000
0.759365 0.483742 0.000000
0.785611 0.501091 0.000000
0.809781 0.516991 0.000000
0.831540 0.531304 0.000000
0.850706 0.544274 0.000000
0.867887 0.556512 0.000000
0.883665 0.568872 0.000000
0.898436 0.581994 0.000000
0.912016 0.595911 0.000000
0.924285 0.611261 0.000000
0.934905 0.628107 0.160433
0.025727 0.147463 0.071138
0.029755 0.145571 0.070008
0.032929 0.143130 0.068910
0.041016 0.137881 0.066377
0.056123 0.130190 0.066072
0.069154 0.125765 0.067720
0.096559 0.142153 0.068421
0.141939 0.163943 0.068330
0.195926 0.177584 0.070802
0.264836 0.183780 0.077241
0.328618 0.219089 0.000000
0.386877 0.258152 0.000000
0.438361 0.298161 0.000000
0.483375 0.336858 0.000000
0.522911 0.372717 0.000000
0.569604 0.399176 0.000000
0.610407 0.419806 0.000000
0.645197 0.437537 0.000000
0.675563 0.453620 0.000000
0.703822 0.469673 0.000000
0.731350 0.486275 0.000000
0.758236 0.502922 0.000000
0.783963 0.518730 0.000000
0.807889 0.532341 0.000000
0.829557 0.544762 0.000000
0.848783 0.555871 0.000000
0.866178 0.566613 0.000000
0.882200 0.577508 0.000000
0.897215 0.589105 0.000000
0.911070 0.601678 0.000000
0.923705 0.615503 0.000000
0.934752 0.630945 0.102235
0.013794 0.171328 0.074403
0.017029 0.169467 0.073030
0.022583 0.166690 0.071839
0.032776 0.160830 0.068971
0.045106 0.152621 0.066438
0.063233 0.141970 0.068360
0.082277 0.148836 0.069917
0.119265 0.171786 0.070466
0.175631 0.201205 0.069856
0.237369 0.219394 0.074617
0.315770 0.227573 0.092775
0.380774 0.263920 0.000000
0.437201 0.302983 0.000000
0.488197 0.344121 0.000000
0.539147 0.389593 0.000000
0.582330 0.429694 0.000000
0.618311 0.462043 0.000000
0.650996 0.474891 0.000000
0.679744 0.486915 0.000000
0.706600 0.499092 0.000000
0.732662 0.511925 0.000000
0.757931 0.524895 0.000000
0.782193 0.537346 0.000000
0.804959 0.549004 0.000000
0.826108 0.558923 0.000000
0.845396 0.568292 0.000000
0.863279 0.577508 0.000000
0.880003 0.587182 0.000000
0.895750 0.597650 0.000000
0.910307 0.609094 0.000000
0.923552 0.621820 0.000000
0.935210 0.636042 0.000000
0.000000 0.195529 0.077333
0.000031 0.193606 0.076112
0.005127 0.190768 0.074739
0.016663 0.184909 0.071870
0.032013 0.176211 0.068330
0.055299 0.165164 0.068513
0.070008 0.152926 0.070924
0.099458 0.176364 0.072023
0.147066 0.206760 0.072419
0.213626 0.244419 0.072023
0.282689 0.266850 0.080690
0.368902 0.278264 0.113008
0.441260 0.320409 0.016480
0.500999 0.363958 0.000000
0.551049 0.405035 0.000000
0.592889 0.441535 0.000000
0.627070 0.472969 0.000000
0.655451 0.499977 0.000000
0.680903 0.518975 0.000000
0.706874 0.527825 0.000000
0.732296 0.537713 0.000000
0.757198 0.548058 0.000000
0.781216 0.558404 0.000000
0.803830 0.568109 0.000000
0.824826 0.576959 0.000000
0.844022 0.584314 0.000000
0.861845 0.591669 0.000000
0.878599 0.599451 0.000000
0.894469 0.608087 0.000000
0.909270 0.617823 0.000000
0.922911 0.628870 0.000000
0.935058 0.641505 0.000000
0.000000 0.221195 0.080507
0.000000 0.219211 0.079408
0.000000 0.216342 0.077882
0.000000 0.210361 0.074769
0.012421 0.201389 0.070771
0.035645 0.189822 0.067750
0.063386 0.175937 0.071077
0.082887 0.177859 0.072938
0.122103 0.208743 0.074281
0.179568 0.247105 0.074708
0.258488 0.295354 0.075959
0.342473 0.329870 0.094148
0.477729 0.391608 0.163363
0.548425 0.428473 0.100923
0.598779 0.462196 0.000000
0.636835 0.490730 0.000000
0.666438 0.515038 0.000000
0.690578 0.536065 0.000000
0.711910 0.555444 0.000000
0.732357 0.574182 0.000000
0.753933 0.584955 0.000000
0.776211 0.590143 0.000000
0.797391 0.595514 0.000000
0.817472 0.600977 0.000000
0.836332 0.606409 0.000000
0.853880 0.611322 0.000000
0.870237 0.615869 0.000000
0.885649 0.620996 0.000000
0.900298 0.627008 0.000000
0.914153 0.634333 0.000000
0.926940 0.643030 0.000000
0.938537 0.653437 0.000000
0.000000 0.253696 0.084504
0.000000 0.251560 0.083314
0.000000 0.248112 0.081544
0.000000 0.241428 0.078126
0.000000 0.231113 0.073793
0.009247 0.218235 0.068971
0.048920 0.203037 0.070344
0.070466 0.185916 0.073091
0.101045 0.209934 0.075196
0.153292 0.254185 0.077089
0.228214 0.310124 0.081056
0.329351 0.375280 0.090639
0.424720 0.417426 0.126680
0.525078 0.447669 0.196170
0.593866 0.478920 0.156893
0.636561 0.504417 0.000000
0.668330 0.525689 0.000000
0.693355 0.544091 0.000000
0.715114 0.561395 0.000000
0.735378 0.578332 0.000000
0.754971 0.594995 0.000000
0.774014 0.610925 0.000000
0.794308 0.616907 0.000000
0.814237 0.620508 0.000000
0.833005 0.624292 0.000000
0.850614 0.628199 0.000000
0.867216 0.631342 0.000000
0.882933 0.634943 0.000000
0.897978 0.639399 0.000000
0.912322 0.645106 0.000000
0.925689 0.652186 0.000000
0.937987 0.660945 0.000000
0.000000 0.278477 0.088228
0.000000 0.276097 0.086671
0.000000 0.272953 0.085054
0.000000 0.266392 0.081331
0.000000 0.256199 0.076600
0.000000 0.244144 0.071199
0.015747 0.230167 0.068696
0.060883 0.213443 0.072511
0.081575 0.207431 0.075166
0.125124 0.250309 0.077882
0.189487 0.304356 0.081849
0.277226 0.367864 0.091524
0.386542 0.435767 0.112093
0.478492 0.474525 0.158938
0.569085 0.499947 0.233951
0.630365 0.522210 0.214298
0.665705 0.539513 0.120882
0.693111 0.554925 0.000000
0.716396 0.569757 0.000000
0.737484 0.584680 0.000000
0.757473 0.599603 0.000000
0.776516 0.614252 0.000000
0.794553 0.628290 0.000000
0.812039 0.641627 0.000000
0.830838 0.643885 0.000000
0.848539 0.646418 0.000000
0.865263 0.648890 0.000000
0.881193 0.651026 0.000000
0.896483 0.654047 0.000000
0.911131 0.658167 0.000000
0.924956 0.663569 0.000000
0.937774 0.670588 0.000000
0.000000 0.310033 0.093263
0.000000 0.308232 0.091981
0.000000 0.305211 0.089998
0.000000 0.298772 0.085939
0.000000 0.288853 0.080354
0.000000 0.275822 0.073823
0.000000 0.260380 0.067994
0.032807 0.242039 0.070771
0.069490 0.221714 0.074434
0.099519 0.240848 0.077089
0.153658 0.292973 0.081086
0.229129 0.354986 0.089876
0.327245 0.422461 0.107973
0.439063 0.489113 0.139376
0.525261 0.523278 0.194278
0.603632 0.542229 0.271244
0.658289 0.558526 0.270512
0.689570 0.570123 0.187716
0.715450 0.581964 0.063752
0.738186 0.594354 0.000000
0.758999 0.606928 0.000000
0.778408 0.619501 0.000000
0.796506 0.631891 0.000000
0.813779 0.644160 0.000000
0.830289 0.656214 0.000000
0.846830 0.665461 0.000000
0.864042 0.667445 0.000000
0.880583 0.669154 0.000000
0.896483 0.671229 0.000000
0.911711 0.674220 0.000000
0.926085 0.678370 0.000000
0.939422 0.683833 0.000000
0.000000 0.342138 0.099336
0.000000 0.340368 0.097688
0.000000 0.337377 0.095705
0.000000 0.330968 0.091402
0.000000 0.320867 0.085023
0.000000 0.307500 0.077455
0.000000 0.291478 0.070192
0.000000 0.272618 0.068147
0.053864 0.250950 0.072419
0.077577 0.229313 0.076051
0.122591 0.279911 0.079622
0.187320 0.339940 0.087160
0.272679 0.405890 0.102602
0.376379 0.472206 0.129610
0.484718 0.533898 0.169223
0.562585 0.562066 0.227787
0.629145 0.575311 0.305089
0.679896 0.588678 0.323033
0.710262 0.597864 0.247166
0.736477 0.607965 0.158968
0.759701 0.618524 0.000000
0.780697 0.629206 0.000000
0.799741 0.639734 0.000000
0.817441 0.650294 0.000000
0.834073 0.660945 0.000000
0.850004 0.671778 0.000000
0.865476 0.682673 0.000000
0.881285 0.688685 0.000000
0.897063 0.689754 0.000000
0.912139 0.691279 0.000000
0.926360 0.693599 0.000000
0.939635 0.697047 0.000000
0.000000 0.370153 0.105257
0.000000 0.368078 0.103456
0.000000 0.365026 0.101472
0.000000 0.358526 0.096742
0.000000 0.348577 0.089967
0.000000 0.335424 0.081941
0.000000 0.319219 0.073548
0.000000 0.300175 0.065217
0.012604 0.278141 0.070161
0.065675 0.254002 0.074281
0.094514 0.261357 0.077638
0.148745 0.319280 0.083558
0.222782 0.384588 0.096010
0.316442 0.452003 0.119142
0.421729 0.515679 0.154818
0.525536 0.573083 0.200626
0.594354 0.595331 0.262638
0.650965 0.604425 0.339117
0.699458 0.616754 0.374243
0.729183 0.623621 0.303807
0.755184 0.631434 0.226383
0.778195 0.639704 0.126833
0.798734 0.648219 0.000000
0.817533 0.657008 0.000000
0.834867 0.665980 0.000000
0.851102 0.675288 0.000000
0.866728 0.685115 0.000000
0.881834 0.695491 0.000000
0.896574 0.706325 0.000000
0.911681 0.708400 0.000000
0.926146 0.709651 0.000000
0.939727 0.711635 0.000000
0.000000 0.397864 0.112001
0.000000 0.396216 0.110445
0.000000 0.412085 0.113252
0.000000 0.405310 0.107820
0.000000 0.394659 0.099916
0.000000 0.380468 0.090089
0.000000 0.362982 0.079164
0.000000 0.342138 0.068452
0.000000 0.318364 0.066804
0.035279 0.291905 0.072023
0.074311 0.263493 0.075837
0.118654 0.308537 0.081056
0.185763 0.375616 0.092714
0.272831 0.445563 0.114961
0.375067 0.511620 0.149813
0.479286 0.571313 0.195529
0.576226 0.622065 0.249943
0.633173 0.636866 0.315740
0.680049 0.641810 0.390326
0.725124 0.652338 0.439979
0.753262 0.655482 0.373571
0.778225 0.659907 0.301884
0.800320 0.665156 0.220127
0.819974 0.670954 0.104524
0.837491 0.676967 0.000000
0.853605 0.683528 0.000000
0.868681 0.690761 0.000000
0.883238 0.698939 0.000000
0.897490 0.708431 0.000000
0.911559 0.719142 0.000000
0.925658 0.726070 0.000000
0.939239 0.726955 0.000000
0.000000 0.429603 0.121126
0.000000 0.430243 0.120119
0.000000 0.429938 0.118410
0.000000 0.426184 0.113924
0.000000 0.418219 0.106172
0.000000 0.405737 0.096590
0.000000 0.389166 0.084810
0.000000 0.369360 0.072969
0.000000 0.346624 0.062867
0.000000 0.320684 0.068788
0.059113 0.292332 0.073365
0.088350 0.283421 0.077302
0.144778 0.348089 0.085512
0.220249 0.417823 0.102785
0.313756 0.486122 0.132082
0.416052 0.548608 0.173495
0.515862 0.603723 0.223850
0.604303 0.648005 0.281132
0.653712 0.658900 0.347662
0.696162 0.662867 0.419623
0.739681 0.673426 0.482826
0.767483 0.675776 0.422705
0.792111 0.678981 0.357305
0.814054 0.682856 0.284276
0.833555 0.687190 0.195926
0.851286 0.692164 0.000000
0.867643 0.697810 0.000000
0.883055 0.704341 0.000000
0.897856 0.711910 0.000000
0.911925 0.721462 0.000000
0.925628 0.731624 0.000000
0.938933 0.741848 0.000000
0.000000 0.454139 0.128298
0.000000 0.454749 0.127535
0.000000 0.454627 0.125917
0.000000 0.451240 0.121492
0.000000 0.443671 0.114015
0.000000 0.432044 0.103670
0.000000 0.416510 0.091463
0.000000 0.397620 0.078004
0.000000 0.375769 0.064912
0.000000 0.350683 0.064698
0.011841 0.322972 0.070008
0.069490 0.292851 0.074342
0.109712 0.322210 0.079774
0.175143 0.391363 0.092378
0.259037 0.461494 0.117006
0.357061 0.526757 0.153719
0.457527 0.585321 0.200687
0.550896 0.634333 0.255802
0.631067 0.672999 0.315770
0.674525 0.680964 0.382177
0.713100 0.683864 0.451240
0.754269 0.694514 0.526146
0.781155 0.695735 0.471321
0.804990 0.697627 0.411444
0.826352 0.700069 0.344244
0.845731 0.703182 0.266453
0.863615 0.707057 0.165743
0.880278 0.711910 0.000000
0.896056 0.717830 0.000000
0.910796 0.725460 0.000000
0.924773 0.734310 0.000000
0.938140 0.743618 0.000000
0.000000 0.479622 0.137179
0.000000 0.480354 0.136233
0.000000 0.480354 0.134859
0.000000 0.477333 0.130587
0.000000 0.470375 0.122744
0.000000 0.459602 0.112306
0.000000 0.445014 0.099275
0.000000 0.427222 0.085237
0.000000 0.406226 0.069917
0.000000 0.382330 0.059632
0.000000 0.355261 0.065614
0.041230 0.325475 0.071046
0.078767 0.297459 0.075257
0.135744 0.365209 0.084047
0.210391 0.436469 0.103487
0.301915 0.505211 0.135866
0.402625 0.568139 0.180758
0.500481 0.622766 0.234928
0.587366 0.666346 0.296330
0.660548 0.700862 0.360571
0.699855 0.707362 0.428016
0.735042 0.709743 0.495491
0.772030 0.719753 0.570733
0.797787 0.720638 0.530266
0.820676 0.721309 0.476600
0.841489 0.722530 0.416632
0.860777 0.724514 0.348394
0.878874 0.727474 0.267979
0.895964 0.731441 0.158572
0.911803 0.736812 0.000000
0.926268 0.743984 0.000000
0.939910 0.751431 0.000000
0.000000 0.516960 0.152377
0.000000 0.516655 0.151125
0.000000 0.515373 0.148867
0.000000 0.511192 0.143862
0.000000 0.503929 0.135592
0.000000 0.493355 0.124300
0.000000 0.479744 0.110933
0.000000 0.463233 0.095491
0.000000 0.443793 0.078370
0.000000 0.421485 0.059754
0.000000 0.395941 0.060975
0.000000 0.366888 0.066804
0.061067 0.335119 0.072023
0.101900 0.347295 0.077790
0.170352 0.419715 0.093690
0.256199 0.491218 0.123232
0.354833 0.556756 0.165743
0.454353 0.614557 0.218509
0.544762 0.660761 0.278904
0.622065 0.696864 0.342809
0.688075 0.726314 0.405798
0.721889 0.729397 0.469398
0.752132 0.729580 0.530480
0.784360 0.737179 0.597314
0.808286 0.737972 0.571527
0.829953 0.737758 0.522911
0.850248 0.738247 0.468177
0.869383 0.739773 0.407111
0.887602 0.742275 0.336889
0.904997 0.745663 0.250156
0.920348 0.751766 0.161959
0.934844 0.758175 0.000000
0.000000 0.546166 0.165499
0.000000 0.545983 0.164492
0.000000 0.545220 0.162417
0.000000 0.541527 0.157595
0.000000 0.534905 0.149142
0.000000 0.525048 0.137667
0.000000 0.512291 0.123812
0.000000 0.496956 0.107362
0.000000 0.478798 0.089052
0.000000 0.457893 0.069062
0.000000 0.433967 0.054871
0.000000 0.406744 0.062318
0.004730 0.376196 0.068025
0.072663 0.342992 0.072663
0.131258 0.399054 0.084321
0.210666 0.472633 0.108949
0.305089 0.541131 0.148318
0.405585 0.602380 0.198856
0.499977 0.652613 0.258305
0.582300 0.691524 0.322576
0.652033 0.722866 0.387274
0.712306 0.748013 0.449042
0.742245 0.749355 0.509728
0.768612 0.748562 0.565454
0.794339 0.750973 0.617243
0.816831 0.752193 0.603784
0.837369 0.752041 0.561761
0.857145 0.752346 0.513024
0.876036 0.753597 0.458350
0.894255 0.755764 0.396002
0.910674 0.760464 0.339544
0.925933 0.766262 0.280308
0.000000 0.588006 0.188357
0.000000 0.588342 0.187655
0.000000 0.587488 0.185611
0.000000 0.583764 0.180270
0.000000 0.577173 0.171450
0.000000 0.567681 0.159304
0.000000 0.555444 0.144289
0.000000 0.540459 0.126741
0.000000 0.522881 0.106783
0.000000 0.502708 0.084291
0.000000 0.479713 0.058595
0.000000 0.453498 0.059754
0.000000 0.423926 0.065461
0.040986 0.391180 0.069917
0.093721 0.382452 0.076173
0.168429 0.455421 0.096773
0.257206 0.524590 0.131594
0.355535 0.587396 0.178347
0.452064 0.641138 0.234867
0.539239 0.683436 0.298192
0.613794 0.716823 0.363653
0.677394 0.744289 0.426703
0.731838 0.764828 0.485420
0.757992 0.764523 0.540856
0.780484 0.761959 0.588586
0.805417 0.765805 0.639429
0.826200 0.767208 0.635523
0.845274 0.767025 0.599512
0.863920 0.767300 0.557824
0.882292 0.768215 0.509483
0.899290 0.771206 0.463661
0.914763 0.776364 0.424475
0.000000 0.620935 0.208499
0.000000 0.621485 0.207919
0.000000 0.620905 0.206149
0.000000 0.617762 0.201053
0.000000 0.611933 0.192111
0.000000 0.603571 0.180392
0.000000 0.592859 0.165591
0.000000 0.579736 0.147860
0.000000 0.564355 0.127718
0.000000 0.546838 0.105074
0.000000 0.526787 0.078920
0.000000 0.503838 0.062898
0.000000 0.477699 0.066407
0.000000 0.447974 0.070039
0.067628 0.414923 0.074037
0.132113 0.450507 0.088930
0.219791 0.521324 0.122713
0.317632 0.585718 0.168826
0.415900 0.640925 0.224857
0.505455 0.684291 0.288182
0.583215 0.718135 0.353826
0.649042 0.745998 0.417548
0.706172 0.768307 0.476600
0.753933 0.783932 0.530297
0.776181 0.782162 0.578790
0.795193 0.778347 0.618311
0.816739 0.780606 0.661707
0.835691 0.782162 0.665187
0.853513 0.782498 0.635584
0.871031 0.783200 0.601740
0.887877 0.785061 0.566247
0.903014 0.789609 0.539300
0.000000 0.659510 0.236973
0.000000 0.659724 0.236210
0.000000 0.658930 0.234226
0.000000 0.655879 0.228763
0.000000 0.650568 0.220005
0.000000 0.643214 0.208011
0.000000 0.633722 0.192935
0.000000 0.622248 0.175326
0.000000 0.608789 0.155123
0.000000 0.593530 0.132357
0.000000 0.576104 0.106569
0.000000 0.556756 0.076326
0.000000 0.534142 0.076967
0.000000 0.508171 0.078340
0.026886 0.478920 0.079713
0.092134 0.451545 0.082704
0.184176 0.522301 0.115724
0.281804 0.586816 0.161379
0.381323 0.642359 0.216861
0.472724 0.686061 0.279515
0.553033 0.720119 0.344884
0.621546 0.747951 0.408576
0.679713 0.770504 0.467903
0.731289 0.788266 0.521782
0.772671 0.799832 0.569024
0.791653 0.796841 0.609583
0.807980 0.792294 0.642634
0.826383 0.792996 0.679713
0.843381 0.794400 0.688685
0.860258 0.794919 0.662928
0.876616 0.796201 0.635462
0.891203 0.800534 0.617060
0.000000 0.695186 0.268437
0.000000 0.695186 0.267582
0.000000 0.694514 0.265873
0.000000 0.692317 0.260868
0.000000 0.688563 0.253117
0.000000 0.683742 0.242741
0.000000 0.678187 0.230411
0.000000 0.671687 0.215763
0.000000 0.664179 0.198703
0.000000 0.655604 0.179202
0.000000 0.645533 0.157198
0.000000 0.633600 0.131228
0.000000 0.618799 0.118776
0.000000 0.600397 0.118166
0.036347 0.578424 0.116976
0.103609 0.552575 0.114931
0.171237 0.566979 0.134188
0.277226 0.626856 0.185702
0.377905 0.675166 0.245548
0.468177 0.712490 0.310094
0.547051 0.742428 0.375006
0.613825 0.766934 0.436927
0.670222 0.786618 0.493874
0.720180 0.802090 0.544854
0.764004 0.814267 0.587793
0.797513 0.821347 0.623041
0.812345 0.816983 0.653162
0.825071 0.811429 0.678126
0.839292 0.810300 0.707729
0.853330 0.810727 0.719326
0.868894 0.811368 0.697505
0.882780 0.814817 0.683192
0.000000 0.745876 0.327184
0.000000 0.745754 0.326299
0.000000 0.745022 0.324468
0.000000 0.743008 0.319371
0.000000 0.739895 0.311711
0.000000 0.735836 0.301579
0.000000 0.731044 0.289220
0.000000 0.725582 0.274815
0.000000 0.719387 0.258152
0.000000 0.712306 0.239292
0.000000 0.704036 0.217655
0.000000 0.694575 0.193454
0.000000 0.683284 0.169162
0.000000 0.669184 0.166659
0.078096 0.652430 0.163607
