其他预设/【234】港风调色预设/1.3D LUT预设（视频调色-PR-AE-PS-FCPX-达芬奇用）/36.港风色调-夸张效果 __.cube
# Created by Adobe Lightroom plugin Export LUT (1.17.0)
# www.johnrellis.com/lightroom/exportlut.htm
# Preset: 36.港风色调-夸张效果 [素锦印象]
# Color profile: /Library/Application Support/Adobe/Color/Profiles/Recommended/AdobeRGB1998.icc
LUT_3D_SIZE 8
DOMAIN_MIN 0.000000 0.000000 0.000000
DOMAIN_MAX 0.903226 0.903226 0.903226
0.017517 0.041444 0.039429
0.084596 0.058289 0.044282
0.219486 0.068177 0.035554
0.417456 0.127962 0.000000
0.591913 0.251408 0.000000
0.733700 0.388800 0.000000
0.825711 0.478767 0.000000
0.892363 0.549737 0.000000
0.030640 0.077577 0.058412
0.077516 0.075776 0.059113
0.226596 0.119234 0.000000
0.410498 0.179812 0.000000
0.581598 0.282444 0.000000
0.720485 0.399725 0.000000
0.814878 0.482033 0.000000
0.887510 0.550805 0.000000
0.025727 0.147463 0.071138
0.056123 0.130190 0.066072
0.195926 0.177584 0.070802
0.438361 0.298161 0.000000
0.610407 0.419806 0.000000
0.731350 0.486275 0.000000
0.829557 0.544762 0.000000
0.897215 0.589105 0.000000
0.000000 0.253696 0.084504
0.000000 0.231113 0.073793
0.101045 0.209934 0.075196
0.424720 0.417426 0.126680
0.668330 0.525689 0.000000
0.754971 0.594995 0.000000
0.833005 0.624292 0.000000
0.897978 0.639399 0.000000
0.000000 0.370153 0.105257
0.000000 0.348577 0.089967
0.012604 0.278141 0.070161
0.222782 0.384588 0.096010
0.594354 0.595331 0.262638
0.755184 0.631434 0.226383
0.834867 0.665980 0.000000
0.896574 0.706325 0.000000
0.000000 0.479622 0.137179
0.000000 0.470375 0.122744
0.000000 0.406226 0.069917
0.078767 0.297459 0.075257
0.402625 0.568139 0.180758
0.699855 0.707362 0.428016
0.820676 0.721309 0.476600
0.895964 0.731441 0.158572
0.000000 0.620935 0.208499
0.000000 0.611933 0.192111
0.000000 0.564355 0.127718
0.000000 0.477699 0.066407
0.219791 0.521324 0.122713
0.583215 0.718135 0.353826
0.776181 0.782162 0.578790
0.853513 0.782498 0.635584
0.000000 0.781491 0.376715
0.000000 0.777035 0.363470
0.000000 0.763363 0.320134
0.000000 0.742336 0.248753
0.182010 0.666529 0.196323
0.514092 0.766171 0.399420
0.732845 0.828580 0.601312
0.835966 0.839628 0.698573
0.033112 0.057984 0.080354
0.076753 0.056764 0.081331
0.195712 0.077180 0.087068
0.392859 0.127291 0.062165
0.571801 0.239475 0.000000
0.711269 0.370733 0.000000
0.807553 0.466011 0.000000
0.882292 0.538750 0.000000
0.026429 0.080476 0.085328
0.083314 0.088014 0.087404
0.211124 0.113283 0.079377
0.398260 0.170993 0.016419
0.570733 0.271183 0.000000
0.706691 0.387091 0.000000
0.799924 0.471504 0.000000
0.876829 0.539879 0.000000
0.004822 0.175998 0.100954
0.074159 0.170565 0.098787
0.203677 0.194034 0.109865
0.426001 0.302770 0.000000
0.594476 0.396124 0.000000
0.713893 0.464424 0.000000
0.807980 0.525200 0.000000
0.884642 0.576898 0.000000
0.000000 0.289952 0.124208
0.000000 0.271275 0.109407
0.101442 0.217136 0.092592
0.401678 0.400183 0.167910
0.631250 0.498726 0.000000
0.724697 0.572045 0.000000
0.810758 0.602197 0.000000
0.885344 0.628687 0.000000
0.000000 0.407538 0.149355
0.000000 0.384405 0.129366
0.006806 0.310430 0.085451
0.213413 0.372351 0.116335
0.573175 0.578637 0.280461
0.739010 0.622797 0.244388
0.823239 0.660426 0.000000
0.888853 0.700099 0.000000
0.000000 0.498299 0.172549
0.000000 0.481788 0.154269
0.000000 0.419898 0.098909
0.081178 0.309972 0.083864
0.388159 0.554925 0.192508
0.693782 0.705470 0.446632
0.815213 0.721675 0.489937
0.890867 0.729976 0.184787
0.000000 0.617975 0.227848
0.000000 0.603174 0.207645
0.000000 0.558373 0.146365
0.000000 0.476539 0.077180
0.201205 0.499123 0.121492
0.570306 0.708431 0.350713
0.768368 0.776944 0.577478
0.848783 0.778958 0.632105
0.000000 0.774838 0.379858
0.000000 0.771939 0.369177
0.000000 0.758541 0.325841
0.000000 0.737057 0.252934
0.203861 0.691279 0.227268
0.512627 0.767910 0.408331
0.728664 0.826566 0.601373
0.833310 0.838071 0.699153
0.000000 0.072175 0.189670
0.060609 0.071931 0.196078
0.191318 0.051484 0.206973
0.381872 0.071931 0.214908
0.562493 0.273686 0.258000
0.707240 0.403693 0.264469
0.804227 0.493172 0.259342
0.878386 0.561364 0.267338
0.000000 0.099947 0.194430
0.071931 0.104555 0.205966
0.198550 0.103090 0.214817
0.382818 0.141512 0.216068
0.566430 0.298436 0.248692
0.703731 0.411719 0.243259
0.800290 0.495857 0.233799
0.876738 0.563134 0.242374
0.000000 0.197177 0.226596
0.000000 0.209415 0.231632
0.216739 0.244144 0.238743
0.408362 0.303136 0.223392
0.595972 0.397742 0.210819
0.713375 0.471992 0.191379
0.804959 0.533776 0.175265
0.879637 0.586236 0.176822
0.000000 0.397772 0.261906
0.000000 0.392493 0.254673
0.170474 0.361273 0.230716
0.420996 0.448890 0.316472
0.628504 0.534020 0.209018
0.726314 0.574426 0.000000
0.813626 0.602747 0.000000
0.885649 0.631525 0.000000
0.000000 0.503960 0.273198
0.000000 0.497627 0.269810
0.113405 0.451301 0.228916
0.206455 0.382208 0.183474
0.583429 0.609583 0.412177
0.734249 0.646815 0.367102
0.819883 0.673548 0.000000
0.889891 0.694301 0.000000
0.000000 0.580865 0.294987
0.000000 0.573816 0.291051
0.000000 0.523430 0.231113
0.103670 0.407416 0.139254
0.369299 0.545739 0.247562
0.685786 0.711635 0.520470
0.806546 0.733639 0.549889
0.886503 0.740749 0.302983
0.000000 0.678187 0.350713
0.000000 0.668452 0.336675
0.000000 0.626032 0.264591
0.000000 0.541680 0.151003
0.159396 0.460883 0.131991
0.556695 0.703914 0.387549
0.768002 0.785275 0.628473
0.848386 0.792477 0.671778
0.000000 0.793393 0.458961
0.000000 0.787930 0.443183
0.000000 0.772732 0.396063
0.089357 0.754452 0.325780
0.199649 0.708156 0.255558
0.484321 0.759030 0.404822
0.723842 0.826627 0.619776
0.832853 0.842100 0.722591
0.000000 0.096498 0.367559
0.000000 0.098787 0.377874
0.173739 0.096620 0.399512
0.358892 0.068574 0.412482
0.542290 0.196872 0.432227
0.685237 0.349248 0.434852
0.763516 0.552178 0.530938
0.845579 0.608179 0.534081
0.000000 0.134432 0.384863
0.000000 0.138064 0.391119
0.182834 0.142214 0.408362
0.366125 0.138094 0.420874
0.548150 0.248539 0.439277
0.682948 0.378271 0.437659
0.763424 0.552514 0.519493
0.846647 0.607416 0.520806
0.000000 0.218021 0.382788
0.000000 0.228183 0.386725
0.192660 0.260685 0.417762
0.383551 0.288518 0.442664
0.563928 0.386908 0.460731
0.677424 0.530816 0.516106
0.779538 0.587945 0.515862
0.856565 0.627649 0.504143
0.000000 0.390021 0.439796
0.000000 0.401862 0.445991
0.155917 0.438514 0.463203
0.413001 0.490089 0.482979
0.580163 0.537926 0.473518
0.692592 0.579095 0.460395
0.787472 0.616999 0.446967
0.865324 0.650629 0.437110
0.000000 0.647364 0.526970
0.000000 0.639796 0.516808
0.000000 0.614649 0.486366
0.334478 0.553948 0.432441
0.581415 0.640375 0.556359
0.715419 0.672816 0.493874
0.804929 0.686763 0.347814
0.878202 0.696925 0.316991
0.000000 0.688502 0.483345
0.000000 0.688655 0.483711
0.067872 0.664210 0.460060
0.250889 0.598962 0.385534
0.335454 0.535760 0.322789
0.684382 0.731044 0.624384
0.798825 0.753109 0.621546
0.878660 0.755428 0.416999
0.000000 0.741238 0.486976
0.000000 0.737484 0.482765
0.052979 0.719966 0.463172
0.169680 0.667445 0.371679
0.172519 0.536095 0.213596
0.532006 0.698054 0.439429
0.766842 0.795346 0.685969
0.845823 0.805478 0.709285
0.029358 0.827146 0.563439
0.119905 0.824765 0.560449
0.216281 0.813107 0.543267
0.219913 0.789487 0.467048
0.207614 0.747097 0.333013
0.409613 0.735836 0.377295
0.711147 0.824552 0.639826
0.831357 0.847105 0.753079
0.000000 0.147585 0.545922
0.000000 0.151522 0.551659
0.149020 0.159487 0.564477
0.351171 0.168124 0.588403
0.529839 0.202579 0.609522
0.655329 0.358679 0.609064
0.753872 0.497169 0.616693
0.827604 0.618555 0.655177
0.000000 0.185489 0.552239
0.000000 0.190097 0.558862
0.162936 0.198611 0.570550
0.354559 0.210422 0.590417
0.532586 0.249210 0.612848
0.655451 0.390234 0.612543
0.753475 0.516197 0.620447
0.825803 0.632807 0.662013
0.000000 0.271763 0.546563
0.000000 0.280522 0.555077
0.180087 0.300084 0.573236
0.370153 0.334417 0.604364
0.537346 0.370306 0.619471
0.651026 0.471809 0.617700
0.749599 0.566369 0.627436
0.818631 0.672541 0.679713
0.000000 0.394079 0.570886
0.000000 0.402075 0.573571
0.184573 0.431708 0.582910
0.389014 0.487831 0.615564
0.548913 0.523003 0.634821
0.656184 0.585168 0.635309
0.746029 0.657465 0.662165
0.826627 0.695308 0.668055
0.000000 0.573693 0.621790
0.000000 0.578943 0.623896
0.104707 0.594079 0.628870
0.379370 0.619562 0.637903
0.558038 0.649226 0.647059
0.666285 0.671962 0.637324
0.762051 0.693874 0.626123
0.842679 0.713680 0.612177
0.000000 0.750759 0.666712
0.000000 0.752132 0.666468
0.000000 0.753323 0.662715
0.330755 0.723232 0.631189
0.452155 0.658717 0.562188
0.671168 0.737453 0.688411
0.782895 0.761563 0.660395
0.864042 0.763363 0.519585
0.000000 0.804227 0.645533
0.000000 0.800320 0.641352
0.000000 0.787137 0.627314
0.293553 0.761074 0.598322
0.350866 0.697627 0.498054
0.442786 0.652552 0.438300
0.760555 0.801450 0.732387
0.841794 0.813169 0.731746
0.000000 0.853788 0.656336
0.000000 0.851194 0.653315
0.196048 0.842069 0.642206
0.326421 0.829587 0.626062
0.337499 0.794186 0.533379
0.318608 0.724849 0.372259
0.675502 0.813016 0.640803
0.826993 0.850126 0.780270
0.000000 0.236484 0.689174
0.000000 0.240421 0.690913
0.191501 0.249393 0.694240
0.359594 0.273167 0.706722
0.523186 0.323827 0.728695
0.643793 0.369024 0.728847
0.736263 0.504784 0.724331
0.814908 0.624964 0.740780
0.000000 0.262516 0.684108
0.000000 0.265202 0.685389
0.195590 0.274754 0.690394
0.361578 0.301549 0.705592
0.520134 0.347265 0.725093
0.641016 0.390143 0.726345
0.734127 0.518425 0.723629
0.813779 0.630640 0.740108
0.000000 0.342596 0.684016
0.000000 0.347509 0.687739
0.230991 0.370886 0.698695
0.380774 0.399481 0.712398
0.526604 0.438178 0.727504
0.643122 0.472663 0.729519
0.734005 0.573388 0.729519
0.813962 0.657465 0.743618
0.000000 0.448859 0.685145
0.075624 0.453407 0.684504
0.247990 0.476539 0.696284
0.408270 0.522148 0.717861
0.543328 0.559777 0.734432
0.652491 0.587823 0.740078
0.739132 0.648127 0.743038
0.816861 0.699916 0.751858
0.000000 0.557855 0.703426
0.000000 0.561547 0.703944
0.223514 0.574578 0.705379
0.391699 0.599359 0.707820
0.541039 0.643061 0.725154
0.651240 0.668360 0.739651
0.739590 0.703365 0.743221
0.814084 0.747433 0.760525
0.000000 0.685603 0.725368
0.000000 0.689387 0.727474
0.182101 0.696407 0.729397
0.381018 0.707912 0.732479
0.532006 0.723293 0.736751
0.660700 0.747219 0.748318
0.753048 0.763333 0.743709
0.830411 0.777493 0.735439
0.000000 0.831144 0.771145
0.000000 0.832029 0.771786
0.156374 0.831815 0.770596
0.380438 0.831754 0.769284
0.509545 0.810147 0.745113
0.557671 0.746609 0.670192
0.759365 0.812711 0.784421
0.839048 0.824399 0.758907
0.000000 0.887938 0.764523
0.000000 0.885832 0.762631
0.217929 0.878813 0.756252
0.365637 0.867430 0.745327
0.465126 0.847257 0.719844
0.478035 0.802884 0.629603
0.590478 0.783597 0.609583
0.824521 0.856046 0.814023
0.180636 0.359594 0.781918
0.206271 0.358679 0.780453
0.295537 0.373083 0.784726
0.408240 0.399176 0.792325
0.522789 0.430488 0.799283
0.635096 0.475746 0.808286
0.726162 0.511254 0.805783
0.803677 0.624353 0.806607
0.214084 0.394903 0.787686
0.237705 0.395605 0.787381
0.317845 0.409522 0.791562
0.422095 0.431830 0.797513
0.534142 0.464454 0.805081
0.644739 0.511528 0.814878
0.734676 0.545800 0.813230
0.810330 0.648615 0.815152
0.236790 0.453590 0.785122
0.265171 0.459266 0.786313
0.337102 0.471962 0.790585
0.433173 0.490883 0.796017
0.541039 0.522148 0.804440
0.646754 0.562493 0.813870
0.732204 0.584039 0.811246
0.806119 0.663935 0.812253
0.230228 0.515587 0.776944
0.258122 0.520348 0.778775
0.341772 0.539422 0.785580
0.445014 0.565057 0.791562
0.545617 0.590784 0.799924
0.644770 0.620447 0.809323
0.728939 0.634730 0.808560
0.804166 0.695796 0.812589
0.236088 0.599817 0.784604
0.267948 0.604822 0.785794
0.349615 0.617517 0.786709
0.448859 0.635950 0.789670
0.558099 0.666987 0.801999
0.654536 0.691524 0.813870
0.740536 0.706569 0.817960
0.808927 0.745602 0.821286
0.216220 0.688899 0.800626
0.248081 0.690394 0.800534
0.334539 0.695857 0.800229
0.437659 0.703670 0.798428
0.539483 0.715480 0.796597
0.647517 0.741726 0.806607
0.741970 0.761685 0.818540
0.813291 0.789395 0.825040
0.152834 0.777340 0.812650
0.193942 0.777188 0.811887
0.302007 0.779690 0.812039
0.419898 0.783841 0.812039
0.536675 0.792752 0.814786
0.648646 0.804990 0.819181
0.754543 0.821042 0.827695
0.824765 0.831205 0.823117
0.123018 0.890410 0.848417
0.185306 0.890135 0.848234
0.282872 0.886412 0.843809
0.411505 0.884367 0.841428
0.535424 0.883970 0.840330
0.628748 0.871702 0.825589
0.644495 0.826108 0.753994
0.826230 0.865995 0.852171
0.483192 0.607843 0.876951
0.489479 0.607568 0.876585
0.520623 0.616205 0.877836
0.563409 0.623407 0.878050
0.619898 0.634943 0.878782
0.687007 0.650263 0.880247
0.757015 0.666499 0.881193
0.818235 0.682948 0.879881
0.497475 0.626062 0.878599
0.503075 0.625574 0.878202
0.530571 0.631708 0.879026
0.572625 0.639368 0.879637
0.626917 0.649378 0.880339
0.692287 0.663264 0.881743
0.761624 0.679957 0.883146
0.821164 0.695674 0.882048
0.517357 0.660212 0.878935
0.523400 0.660609 0.878904
0.550103 0.667201 0.880308
0.581964 0.666835 0.879088
0.634882 0.676326 0.880430
0.699550 0.690364 0.882658
0.766537 0.705165 0.884428
0.822934 0.717067 0.883238
0.513115 0.685420 0.877714
0.520806 0.686732 0.877470
0.554711 0.697627 0.878721
0.594446 0.704677 0.878904
0.643061 0.710933 0.879881
0.704036 0.721492 0.881956
0.769162 0.734524 0.884276
0.823575 0.743313 0.883482
0.523064 0.727199 0.876616
0.527733 0.726772 0.876280
0.552575 0.730831 0.877623
0.590143 0.735439 0.879179
0.654017 0.751522 0.881254
0.713069 0.760830 0.883604
0.775082 0.771969 0.886015
0.826688 0.778531 0.885435
0.518822 0.767330 0.882200
0.529076 0.769406 0.882597
0.559136 0.774716 0.883146
0.601068 0.780514 0.882597
0.650935 0.785946 0.881712
0.713771 0.795163 0.882933
0.773312 0.802457 0.884306
0.827176 0.810636 0.885344
0.502403 0.812436 0.887053
0.512810 0.813687 0.887358
0.544579 0.817075 0.887968
0.589471 0.820584 0.887633
0.646784 0.825162 0.886900
0.709316 0.830106 0.885130
0.779080 0.841062 0.886809
0.835233 0.851987 0.890623
0.484901 0.866606 0.892912
0.496681 0.867369 0.893278
0.528161 0.868528 0.893400
0.572656 0.869017 0.892271
0.633082 0.870329 0.891234
0.703273 0.872770 0.890623
0.775021 0.876677 0.890623
0.841520 0.885466 0.894408
