其他预设/【234】港风调色预设/1.3D LUT预设（视频调色-PR-AE-PS-FCPX-达芬奇用）/37.港风色调-夸张效果 __.cube
# Created by Adobe Lightroom plugin Export LUT (1.17.0)
# www.johnrellis.com/lightroom/exportlut.htm
# Preset: 37.港风色调-夸张效果 [素锦印象]
# Color profile: /Library/Application Support/Adobe/Color/Profiles/Recommended/AdobeRGB1998.icc
LUT_3D_SIZE 5
DOMAIN_MIN 0.000000 0.000000 0.000000
DOMAIN_MAX 0.903226 0.903226 0.903226
0.022156 0.036927 0.046174
0.162631 0.074800 0.025605
0.541253 0.116030 0.000000
0.860685 0.250248 0.000000
1.000000 0.319402 0.000000
0.000000 0.174289 0.042206
0.147585 0.181186 0.000000
0.484749 0.214420 0.000000
0.843137 0.315831 0.000000
1.000000 0.366430 0.000000
0.000000 0.412512 0.000000
0.000000 0.418891 0.000000
0.465583 0.452247 0.000000
0.793301 0.461524 0.000000
1.000000 0.486397 0.000000
0.000000 0.704494 0.000000
0.000000 0.708583 0.000000
0.233433 0.708309 0.000000
0.775113 0.748196 0.000000
0.993530 0.670069 0.000000
0.000000 0.945220 0.000000
0.000000 0.947784 0.000000
0.000000 0.951812 0.000000
0.594751 0.945892 0.000000
0.956909 0.941680 0.000000
0.000000 0.068360 0.230930
0.139651 0.004395 0.215274
0.539818 0.000000 0.135103
0.877501 0.204593 0.110536
1.000000 0.292576 0.000000
0.000000 0.196689 0.215518
0.126253 0.177890 0.206546
0.531792 0.186313 0.155428
0.860685 0.285863 0.007630
1.000000 0.343023 0.000000
0.000000 0.418402 0.194858
0.000000 0.431525 0.138338
0.472969 0.457160 0.086122
0.799100 0.439704 0.000000
1.000000 0.471870 0.000000
0.000000 0.708522 0.163577
0.000000 0.715389 0.000000
0.211124 0.719265 0.000000
0.776425 0.750973 0.000000
0.997009 0.662165 0.000000
0.000000 0.946380 0.000000
0.000000 0.949401 0.000000
0.000000 0.954040 0.000000
0.578546 0.946899 0.000000
0.960235 0.941680 0.000000
0.000000 0.077668 0.510765
0.000000 0.000000 0.488533
0.447059 0.000000 0.442969
0.785672 0.000000 0.436591
1.000000 0.000000 0.308690
0.000000 0.311925 0.517388
0.000000 0.175967 0.498390
0.451179 0.000000 0.443793
0.808652 0.000000 0.421118
1.000000 0.255467 0.376867
0.000000 0.510185 0.456031
0.000000 0.502220 0.452369
0.425574 0.420203 0.420539
0.831785 0.478553 0.405432
1.000000 0.499580 0.366094
0.000000 0.710658 0.378820
0.000000 0.718563 0.367987
0.147646 0.734493 0.316869
0.771298 0.749783 0.308110
1.000000 0.625757 0.107729
0.000000 0.948089 0.335302
0.000000 0.951049 0.313176
0.000000 0.959991 0.169162
0.506035 0.950134 0.152651
0.960388 0.943664 0.000000
0.000000 0.111696 0.791135
0.000000 0.000000 0.780545
0.501762 0.000000 0.736843
0.754757 0.000000 0.695125
0.958465 0.000000 0.640101
0.000000 0.328252 0.795621
0.000000 0.199771 0.788022
0.470222 0.000000 0.744259
0.755795 0.000000 0.696620
0.960967 0.000000 0.632105
0.000000 0.651240 0.801328
0.000000 0.638972 0.802335
0.349706 0.439185 0.764797
0.750607 0.278202 0.691829
0.988952 0.302861 0.620386
0.000000 0.827695 0.719814
0.000000 0.824796 0.718959
0.235416 0.800473 0.711452
0.727504 0.708888 0.669245
0.992096 0.783261 0.715785
0.000000 0.950011 0.550256
0.000000 0.952880 0.543420
0.000000 0.960082 0.518395
0.575647 0.948913 0.532982
0.957916 0.942809 0.568841
0.000000 0.136751 0.979583
0.000000 0.089052 0.976928
0.329442 0.000000 0.966125
0.696986 0.000000 0.942473
0.941222 0.000000 0.929534
0.000000 0.310277 0.979339
0.000000 0.214786 0.978332
0.269810 0.000000 0.967620
0.686397 0.000000 0.942962
0.940520 0.000000 0.928740
0.000000 0.627710 0.979065
0.000000 0.609491 0.976837
0.155489 0.436713 0.973083
0.652155 0.283909 0.948638
0.940246 0.000000 0.929534
0.000000 0.828641 0.969329
0.000000 0.823301 0.969696
0.503899 0.820035 0.971649
0.683101 0.733059 0.960632
0.936248 0.609308 0.928923
0.000000 1.000000 0.933715
0.000000 1.000000 0.933806
0.000000 1.000000 0.935149
0.625025 0.976715 0.936126
0.920836 0.920226 0.914458
