其他预设/【234】港风调色预设/1.3D LUT预设（视频调色-PR-AE-PS-FCPX-达芬奇用）/37.港风色调-夸张效果 __.cube
# Created by Adobe Lightroom plugin Export LUT (1.17.0)
# www.johnrellis.com/lightroom/exportlut.htm
# Preset: 37.港风色调-夸张效果 [素锦印象]
# Color profile: /Library/Application Support/Adobe/Color/Profiles/Recommended/AdobeRGB1998.icc
LUT_3D_SIZE 32
0.022156 0.036927 0.046174
0.022156 0.036927 0.046174
0.023499 0.036683 0.046143
0.065156 0.039338 0.044495
0.088197 0.045838 0.041993
0.111238 0.052888 0.038605
0.135744 0.064210 0.033173
0.162631 0.074800 0.025605
0.193851 0.085206 0.015473
0.229984 0.096071 0.001587
0.273472 0.106264 0.000000
0.325261 0.115297 0.000000
0.387732 0.120577 0.000000
0.461372 0.120607 0.000000
0.541253 0.116030 0.000000
0.614252 0.119356 0.000000
0.672419 0.138277 0.000000
0.719234 0.164065 0.000000
0.759182 0.189059 0.000000
0.794858 0.212314 0.000000
0.828275 0.232883 0.000000
0.860685 0.250248 0.000000
0.891752 0.265171 0.000000
0.920928 0.278202 0.000000
0.948241 0.289067 0.000000
0.973541 0.298680 0.000000
0.996887 0.307012 0.000000
1.000000 0.314366 0.000000
1.000000 0.319402 0.000000
1.000000 0.323217 0.000000
1.000000 0.326055 0.000000
1.000000 0.327886 0.000000
0.022156 0.036927 0.046174
0.022156 0.036927 0.046174
0.026062 0.037446 0.046021
0.066072 0.040101 0.044373
0.088441 0.048646 0.041718
0.110658 0.060487 0.037659
0.134829 0.068849 0.032288
0.162234 0.078950 0.024598
0.193240 0.088930 0.014496
0.229374 0.099611 0.000549
0.272587 0.110079 0.000000
0.324620 0.118746 0.000000
0.386938 0.124819 0.000000
0.460609 0.124910 0.000000
0.540520 0.120882 0.000000
0.613794 0.124666 0.000000
0.672023 0.143282 0.000000
0.718990 0.168460 0.000000
0.759060 0.192660 0.000000
0.794827 0.215427 0.000000
0.828244 0.235691 0.000000
0.860594 0.252934 0.000000
0.891691 0.267735 0.000000
0.920989 0.280308 0.000000
0.948241 0.291203 0.000000
0.973571 0.300511 0.000000
0.996948 0.308690 0.000000
1.000000 0.315953 0.000000
1.000000 0.321080 0.000000
1.000000 0.324773 0.000000
1.000000 0.327459 0.000000
1.000000 0.329229 0.000000
0.020935 0.044129 0.046693
0.020600 0.046540 0.046509
0.025605 0.049561 0.044984
0.065827 0.052461 0.043214
0.087465 0.060151 0.040406
0.109651 0.067140 0.036378
0.133822 0.074708 0.031006
0.160922 0.084169 0.023377
0.192142 0.094057 0.013092
0.228031 0.104067 0.000000
0.271183 0.114626 0.000000
0.322972 0.123629 0.000000
0.385107 0.129732 0.000000
0.458808 0.130831 0.000000
0.538506 0.127687 0.000000
0.612268 0.131594 0.000000
0.670985 0.149203 0.000000
0.718196 0.172976 0.000000
0.758450 0.196994 0.000000
0.794156 0.219272 0.000000
0.827817 0.239200 0.000000
0.860136 0.256291 0.000000
0.891325 0.270726 0.000000
0.920623 0.283085 0.000000
0.947997 0.293797 0.000000
0.973327 0.302983 0.000000
0.996704 0.311162 0.000000
1.000000 0.318212 0.000000
1.000000 0.323033 0.000000
1.000000 0.326665 0.000000
1.000000 0.329198 0.000000
1.000000 0.331029 0.000000
0.010803 0.076234 0.045777
0.010468 0.076967 0.045594
0.014954 0.078248 0.039734
0.063569 0.077729 0.038300
0.086000 0.074495 0.037293
0.107607 0.078523 0.033814
0.131533 0.085420 0.028412
0.158541 0.094057 0.020752
0.189242 0.103182 0.010559
0.225284 0.113313 0.000000
0.267918 0.123354 0.000000
0.319310 0.132876 0.000000
0.380743 0.139986 0.000000
0.453895 0.142275 0.000000
0.534142 0.140566 0.000000
0.608484 0.144808 0.000000
0.668055 0.161196 0.000000
0.716152 0.183108 0.000000
0.756649 0.205753 0.000000
0.792569 0.227329 0.000000
0.826566 0.246281 0.000000
0.859068 0.263005 0.000000
0.890349 0.277226 0.000000
0.919677 0.289097 0.000000
0.947173 0.299199 0.000000
0.972564 0.308354 0.000000
0.996033 0.315953 0.000000
1.000000 0.322759 0.000000
1.000000 0.327520 0.000000
1.000000 0.330846 0.000000
1.000000 0.333196 0.000000
1.000000 0.334783 0.000000
0.000000 0.100404 0.045075
0.000000 0.101198 0.044800
0.000000 0.101747 0.033722
0.035187 0.101137 0.035126
0.082765 0.101747 0.029084
0.105623 0.096620 0.028473
0.128298 0.099306 0.024323
0.154726 0.106722 0.016876
0.185397 0.115541 0.006500
0.220615 0.125399 0.000000
0.262791 0.135622 0.000000
0.313481 0.145571 0.000000
0.374029 0.153597 0.000000
0.446479 0.157717 0.000000
0.526635 0.157992 0.000000
0.602197 0.162325 0.000000
0.663478 0.176364 0.000000
0.712276 0.196506 0.000000
0.753262 0.218082 0.000000
0.789853 0.238376 0.000000
0.824033 0.256840 0.000000
0.856901 0.272862 0.000000
0.888334 0.286534 0.000000
0.918029 0.298009 0.000000
0.945678 0.307713 0.000000
0.971344 0.316197 0.000000
0.994965 0.323552 0.000000
1.000000 0.329717 0.000000
1.000000 0.334356 0.000000
1.000000 0.337316 0.000000
1.000000 0.339361 0.000000
1.000000 0.340703 0.000000
0.000000 0.124361 0.044190
0.000000 0.124788 0.044007
0.000000 0.125399 0.029572
0.013184 0.125521 0.022156
0.066682 0.125154 0.023774
0.102571 0.126497 0.016449
0.126741 0.120607 0.015900
0.151797 0.124086 0.009949
0.179660 0.128511 0.001892
0.214237 0.138308 0.000000
0.255497 0.148989 0.000000
0.305028 0.159487 0.000000
0.364416 0.168734 0.000000
0.435676 0.174807 0.000000
0.515557 0.177218 0.000000
0.593408 0.181460 0.000000
0.656764 0.194186 0.000000
0.706691 0.212863 0.000000
0.748501 0.232639 0.000000
0.785733 0.252384 0.000000
0.820249 0.270115 0.000000
0.853574 0.285283 0.000000
0.882658 0.297093 0.000000
0.913024 0.308171 0.000000
0.941344 0.317662 0.000000
0.967559 0.325597 0.000000
0.991791 0.332586 0.000000
1.000000 0.338476 0.000000
1.000000 0.342809 0.000000
1.000000 0.345464 0.000000
1.000000 0.347204 0.000000
1.000000 0.348211 0.000000
0.000000 0.148409 0.044038
0.000000 0.148745 0.042756
0.000000 0.149233 0.021790
0.000000 0.149905 0.009796
0.044038 0.149111 0.014221
0.087678 0.151400 0.004639
0.123445 0.152529 0.000000
0.149966 0.145327 0.000000
0.177615 0.149783 0.000000
0.208896 0.154879 0.000000
0.245487 0.161746 0.000000
0.293126 0.172946 0.000000
0.350469 0.183505 0.000000
0.419593 0.191714 0.000000
0.499977 0.195865 0.000000
0.580102 0.200443 0.000000
0.646143 0.212711 0.000000
0.698360 0.229953 0.000000
0.741390 0.248783 0.000000
0.779416 0.267521 0.000000
0.814542 0.284581 0.000000
0.847990 0.299413 0.000000
0.880217 0.311681 0.000000
0.910674 0.321965 0.000000
0.939055 0.330755 0.000000
0.965545 0.338018 0.000000
0.990021 0.344335 0.000000
1.000000 0.349798 0.000000
1.000000 0.353704 0.000000
1.000000 0.355901 0.000000
1.000000 0.357153 0.000000
1.000000 0.357733 0.000000
0.000000 0.174289 0.042206
0.000000 0.174563 0.025696
0.000000 0.175143 0.003571
0.000000 0.175509 0.000000
0.015656 0.175967 0.000000
0.068391 0.174563 0.003082
0.110536 0.178897 0.000000
0.147585 0.181186 0.000000
0.176913 0.172702 0.000000
0.208530 0.178317 0.000000
0.244266 0.184115 0.000000
0.285618 0.189975 0.000000
0.337774 0.197971 0.000000
0.405402 0.207767 0.000000
0.484749 0.214420 0.000000
0.566155 0.220432 0.000000
0.635554 0.232090 0.000000
0.689448 0.248508 0.000000
0.733944 0.266789 0.000000
0.773190 0.284886 0.000000
0.809110 0.301518 0.000000
0.843137 0.315831 0.000000
0.875914 0.327642 0.000000
0.906981 0.337407 0.000000
0.935943 0.345556 0.000000
0.962890 0.352239 0.000000
0.987732 0.358068 0.000000
1.000000 0.362860 0.000000
1.000000 0.366430 0.000000
1.000000 0.368078 0.000000
1.000000 0.368902 0.000000
1.000000 0.369024 0.000000
0.000000 0.201816 0.011994
0.000000 0.202029 0.000000
0.000000 0.202609 0.000000
0.000000 0.202823 0.000000
0.000000 0.203464 0.000000
0.049439 0.202640 0.000000
0.093904 0.204715 0.000000
0.135622 0.209293 0.000000
0.175113 0.212131 0.000000
0.207156 0.203403 0.000000
0.244694 0.208713 0.000000
0.286748 0.215061 0.000000
0.335241 0.220706 0.000000
0.391363 0.224613 0.000000
0.466377 0.231968 0.000000
0.548791 0.239597 0.000000
0.621485 0.251133 0.000000
0.678523 0.267185 0.000000
0.724910 0.285008 0.000000
0.765438 0.302861 0.000000
0.802304 0.319158 0.000000
0.837186 0.333318 0.000000
0.870665 0.344854 0.000000
0.902312 0.354284 0.000000
0.931945 0.361883 0.000000
0.959503 0.368048 0.000000
0.984894 0.373266 0.000000
1.000000 0.377478 0.000000
1.000000 0.380591 0.000000
1.000000 0.381750 0.000000
1.000000 0.382116 0.000000
1.000000 0.381750 0.000000
0.000000 0.230991 0.000000
0.000000 0.231388 0.000000
0.000000 0.231846 0.000000
0.000000 0.232212 0.000000
0.000000 0.232822 0.000000
0.010010 0.233799 0.000000
0.070924 0.231266 0.000000
0.119020 0.237644 0.000000
0.162600 0.242283 0.000000
0.206668 0.246159 0.000000
0.242527 0.237430 0.000000
0.287999 0.241581 0.000000
0.337377 0.248295 0.000000
0.394079 0.253269 0.000000
0.458320 0.255711 0.000000
0.527886 0.257328 0.000000
0.604364 0.269078 0.000000
0.665126 0.285008 0.000000
0.713680 0.302678 0.000000
0.755947 0.320714 0.000000
0.794308 0.337224 0.000000
0.830014 0.351476 0.000000
0.864408 0.362982 0.000000
0.897032 0.372045 0.000000
0.927428 0.379461 0.000000
0.955627 0.385138 0.000000
0.981659 0.389746 0.000000
1.000000 0.393469 0.000000
1.000000 0.396124 0.000000
1.000000 0.396796 0.000000
1.000000 0.396643 0.000000
1.000000 0.395758 0.000000
0.000000 0.262974 0.000000
0.000000 0.263310 0.000000
0.000000 0.263737 0.000000
0.000000 0.264317 0.000000
0.000000 0.264836 0.000000
0.000000 0.265904 0.000000
0.045869 0.265324 0.000000
0.095003 0.265568 0.000000
0.146090 0.273655 0.000000
0.194034 0.278782 0.000000
0.243900 0.283482 0.000000
0.284520 0.273960 0.000000
0.339483 0.277226 0.000000
0.396857 0.283268 0.000000
0.461555 0.287144 0.000000
0.528801 0.289189 0.000000
0.591424 0.291478 0.000000
0.649104 0.301823 0.000000
0.700862 0.319707 0.000000
0.745418 0.338231 0.000000
0.785061 0.355077 0.000000
0.821866 0.369635 0.000000
0.857115 0.381292 0.000000
0.890562 0.390570 0.000000
0.921874 0.397650 0.000000
0.950988 0.402899 0.000000
0.977722 0.407141 0.000000
1.000000 0.410407 0.000000
1.000000 0.412848 0.000000
1.000000 0.412970 0.000000
1.000000 0.412421 0.000000
1.000000 0.411109 0.000000
0.000000 0.297429 0.000000
0.000000 0.297734 0.000000
0.000000 0.298161 0.000000
0.000000 0.298589 0.000000
0.000000 0.299382 0.000000
0.000000 0.300420 0.000000
0.000000 0.301793 0.000000
0.070344 0.299321 0.000000
0.122377 0.303685 0.000000
0.177340 0.312718 0.000000
0.230533 0.318517 0.000000
0.287663 0.323583 0.000000
0.330083 0.310918 0.000000
0.395911 0.312291 0.000000
0.460761 0.317510 0.000000
0.527764 0.321111 0.000000
0.590234 0.325170 0.000000
0.642084 0.330205 0.000000
0.684962 0.335729 0.000000
0.730678 0.352972 0.000000
0.772457 0.371008 0.000000
0.810758 0.386358 0.000000
0.847196 0.398840 0.000000
0.881895 0.408484 0.000000
0.914519 0.415656 0.000000
0.944610 0.421149 0.000000
0.972381 0.425116 0.000000
0.997833 0.428046 0.000000
1.000000 0.430152 0.000000
1.000000 0.429999 0.000000
1.000000 0.429084 0.000000
1.000000 0.427314 0.000000
0.000000 0.333043 0.000000
0.000000 0.333440 0.000000
0.000000 0.333867 0.000000
0.000000 0.334569 0.000000
0.000000 0.335515 0.000000
0.000000 0.336553 0.000000
0.000000 0.338109 0.000000
0.014130 0.338048 0.000000
0.089540 0.335149 0.000000
0.153231 0.344305 0.000000
0.212375 0.353491 0.000000
0.272313 0.359289 0.000000
0.337377 0.364477 0.000000
0.388312 0.352544 0.000000
0.465156 0.350805 0.000000
0.532280 0.355657 0.000000
0.593683 0.360876 0.000000
0.644343 0.366796 0.000000
0.686610 0.372656 0.000000
0.724514 0.378912 0.000000
0.760616 0.387366 0.000000
0.800443 0.403784 0.000000
0.837858 0.417090 0.000000
0.873808 0.427253 0.000000
0.907530 0.434699 0.000000
0.938689 0.440101 0.000000
0.967346 0.444038 0.000000
0.993652 0.446723 0.000000
1.000000 0.448432 0.000000
1.000000 0.448005 0.000000
1.000000 0.446693 0.000000
1.000000 0.444526 0.000000
0.000000 0.372107 0.000000
0.000000 0.372320 0.000000
0.000000 0.372778 0.000000
0.000000 0.373632 0.000000
0.000000 0.374426 0.000000
0.000000 0.375525 0.000000
0.000000 0.376989 0.000000
0.000000 0.378576 0.000000
0.061524 0.376471 0.000000
0.121248 0.377050 0.000000
0.189334 0.387976 0.000000
0.254429 0.397009 0.000000
0.322240 0.403204 0.000000
0.397559 0.408179 0.000000
0.458137 0.396948 0.000000
0.536950 0.390936 0.000000
0.597192 0.397284 0.000000
0.646784 0.403632 0.000000
0.688441 0.409613 0.000000
0.725826 0.415839 0.000000
0.760128 0.421332 0.000000
0.792386 0.425757 0.000000
0.827451 0.434607 0.000000
0.864530 0.445594 0.000000
0.899535 0.453620 0.000000
0.931853 0.459236 0.000000
0.961608 0.463142 0.000000
0.988861 0.465736 0.000000
1.000000 0.467201 0.000000
1.000000 0.466651 0.000000
1.000000 0.465003 0.000000
1.000000 0.462593 0.000000
0.000000 0.412512 0.000000
0.000000 0.412696 0.000000
0.000000 0.413001 0.000000
0.000000 0.413886 0.000000
0.000000 0.414679 0.000000
0.000000 0.415869 0.000000
0.000000 0.417365 0.000000
0.000000 0.418891 0.000000
0.000000 0.419257 0.000000
0.089052 0.416144 0.000000
0.158022 0.421637 0.000000
0.230777 0.433509 0.000000
0.303136 0.441962 0.000000
0.380591 0.448035 0.000000
0.465583 0.452247 0.000000
0.530724 0.442817 0.000000
0.600610 0.433906 0.000000
0.649012 0.440528 0.000000
0.690120 0.446571 0.000000
0.727169 0.452705 0.000000
0.761166 0.457740 0.000000
0.793301 0.461524 0.000000
0.824399 0.463783 0.000000
0.855009 0.464515 0.000000
0.890501 0.472145 0.000000
0.924163 0.478309 0.000000
0.955108 0.482399 0.000000
0.983429 0.484993 0.000000
1.000000 0.486397 0.000000
1.000000 0.485664 0.000000
1.000000 0.483833 0.000000
1.000000 0.481117 0.000000
0.000000 0.453925 0.000000
0.000000 0.454170 0.000000
0.000000 0.454414 0.000000
0.000000 0.455207 0.000000
0.000000 0.456031 0.000000
0.000000 0.457069 0.000000
0.000000 0.458381 0.000000
0.000000 0.459876 0.000000
0.000000 0.461524 0.000000
0.032837 0.459693 0.000000
0.116976 0.456367 0.000000
0.199924 0.467659 0.000000
0.278874 0.480079 0.000000
0.359655 0.487373 0.000000
0.446754 0.492744 0.000000
0.533867 0.497230 0.000000
0.595056 0.490608 0.000000
0.649989 0.478676 0.000000
0.691859 0.483680 0.000000
0.728450 0.489418 0.000000
0.762142 0.493996 0.000000
0.794156 0.497047 0.000000
0.825193 0.498726 0.000000
0.855619 0.498756 0.000000
0.885435 0.497444 0.000000
0.915312 0.496925 0.000000
0.947692 0.501457 0.000000
0.977234 0.504326 0.000000
1.000000 0.505760 0.000000
1.000000 0.505058 0.000000
1.000000 0.503197 0.000000
1.000000 0.500267 0.000000
0.000000 0.496193 0.000000
0.000000 0.496407 0.000000
0.000000 0.496834 0.000000
0.000000 0.497627 0.000000
0.000000 0.498421 0.000000
0.000000 0.499367 0.000000
0.000000 0.500603 0.000000
0.000000 0.502007 0.000000
0.000000 0.503532 0.000000
0.000000 0.504234 0.000000
0.087709 0.501305 0.000000
0.159884 0.502037 0.000000
0.247471 0.514488 0.000000
0.334661 0.526207 0.000000
0.423896 0.532006 0.000000
0.513298 0.536553 0.000000
0.591730 0.541619 0.000000
0.646021 0.538018 0.000000
0.690242 0.523674 0.000000
0.729824 0.526299 0.000000
0.763302 0.530327 0.000000
0.795132 0.532830 0.000000
0.826047 0.533745 0.000000
0.856565 0.533043 0.000000
0.886168 0.531090 0.000000
0.914641 0.527977 0.000000
0.941924 0.523980 0.000000
0.970581 0.523644 0.000000
0.998749 0.525353 0.000000
1.000000 0.524712 0.000000
1.000000 0.522820 0.000000
1.000000 0.519890 0.000000
0.000000 0.538720 0.000000
0.000000 0.538720 0.000000
0.000000 0.537102 0.000000
0.000000 0.537743 0.000000
0.000000 0.538659 0.000000
0.000000 0.539757 0.000000
0.000000 0.541009 0.000000
0.000000 0.542382 0.000000
0.000000 0.544030 0.000000
0.000000 0.545739 0.000000
0.000000 0.544427 0.000000
0.125185 0.541405 0.000000
0.209018 0.547417 0.000000
0.301152 0.559564 0.000000
0.395026 0.568902 0.000000
0.487739 0.573571 0.000000
0.570214 0.578485 0.000000
0.638056 0.584985 0.000000
0.687770 0.584131 0.000000
0.725307 0.566979 0.000000
0.763729 0.566064 0.000000
0.795499 0.568048 0.000000
0.826474 0.568353 0.000000
0.856931 0.567132 0.000000
0.886534 0.564599 0.000000
0.915038 0.560815 0.000000
0.942260 0.556237 0.000000
0.968292 0.551049 0.000000
0.993103 0.545464 0.000000
1.000000 0.544549 0.000000
1.000000 0.542779 0.000000
1.000000 0.539879 0.000000
0.000000 0.580621 0.000000
0.000000 0.580591 0.000000
0.000000 0.580652 0.000000
0.000000 0.581048 0.000000
0.000000 0.581720 0.000000
0.000000 0.582544 0.000000
0.000000 0.583703 0.000000
0.000000 0.585016 0.000000
0.000000 0.586603 0.000000
0.000000 0.588190 0.000000
0.000000 0.589258 0.000000
0.092653 0.586664 0.000000
0.163699 0.583764 0.000000
0.264195 0.594141 0.000000
0.362402 0.604669 0.000000
0.460670 0.611566 0.000000
0.547967 0.616114 0.000000
0.619135 0.622034 0.000000
0.678645 0.629511 0.000000
0.726070 0.630457 0.000000
0.758419 0.609125 0.000000
0.796567 0.603967 0.000000
0.827481 0.603540 0.000000
0.857847 0.601587 0.000000
0.887327 0.598260 0.000000
0.915648 0.593896 0.000000
0.942748 0.588708 0.000000
0.968627 0.582940 0.000000
0.993317 0.576593 0.000000
1.000000 0.568536 0.000000
1.000000 0.562890 0.000000
1.000000 0.560143 0.000000
0.000000 0.622950 0.000000
0.000000 0.622889 0.000000
0.000000 0.622950 0.000000
0.000000 0.623316 0.000000
0.000000 0.624048 0.000000
0.000000 0.624872 0.000000
0.000000 0.625879 0.000000
0.000000 0.627131 0.000000
0.000000 0.628504 0.000000
0.000000 0.629908 0.000000
0.000000 0.631525 0.000000
0.000000 0.630854 0.000000
0.141543 0.628290 0.000000
0.219394 0.628840 0.000000
0.324987 0.639155 0.000000
0.428382 0.647913 0.000000
0.522118 0.653315 0.000000
0.597833 0.658381 0.000000
0.659663 0.664820 0.000000
0.713893 0.672084 0.000000
0.760861 0.673915 0.000000
0.789578 0.648676 0.000000
0.828397 0.638849 0.000000
0.858701 0.636225 0.000000
0.888090 0.632197 0.000000
0.916228 0.627070 0.000000
0.943206 0.621180 0.000000
0.968994 0.614771 0.000000
0.993591 0.607782 0.000000
1.000000 0.599329 0.000000
1.000000 0.590356 0.000000
1.000000 0.580774 0.000000
0.000000 0.664607 0.000000
0.000000 0.664576 0.000000
0.000000 0.664576 0.000000
0.000000 0.664881 0.000000
0.000000 0.665614 0.000000
0.000000 0.666438 0.000000
0.000000 0.667353 0.000000
0.000000 0.668544 0.000000
0.000000 0.669734 0.000000
0.000000 0.671199 0.000000
0.000000 0.672694 0.000000
0.000000 0.674098 0.000000
0.106874 0.671870 0.000000
0.187228 0.669306 0.000000
0.281743 0.673640 0.000000
0.390448 0.682002 0.000000
0.491676 0.689052 0.000000
0.573602 0.693507 0.000000
0.638605 0.698726 0.000000
0.693935 0.704891 0.000000
0.745388 0.711391 0.000000
0.793515 0.713771 0.000000
0.819455 0.684871 0.000000
0.859007 0.670283 0.000000
0.888243 0.665583 0.000000
0.916258 0.659876 0.000000
0.943084 0.653346 0.000000
0.968750 0.646326 0.000000
0.993286 0.638666 0.000000
1.000000 0.629938 0.000000
1.000000 0.620569 0.000000
1.000000 0.610742 0.000000
0.000000 0.704494 0.000000
0.000000 0.704616 0.000000
0.000000 0.704738 0.000000
0.000000 0.705165 0.000000
0.000000 0.705928 0.000000
0.000000 0.706752 0.000000
0.000000 0.707607 0.000000
0.000000 0.708583 0.000000
0.000000 0.709712 0.000000
0.000000 0.710872 0.000000
0.000000 0.712245 0.000000
0.000000 0.713527 0.000000
0.000763 0.713283 0.000000
0.163455 0.710964 0.000000
0.233433 0.708309 0.000000
0.346807 0.715236 0.000000
0.454353 0.721584 0.000000
0.545312 0.727565 0.000000
0.615045 0.731838 0.000000
0.672786 0.736995 0.000000
0.724636 0.742733 0.000000
0.775113 0.748196 0.000000
0.826078 0.751156 0.000000
0.849363 0.718868 0.000000
0.889006 0.699733 0.000000
0.916930 0.693233 0.000000
0.943603 0.686030 0.000000
0.969146 0.678370 0.000000
0.993530 0.670069 0.000000
1.000000 0.660883 0.000000
1.000000 0.651118 0.000000
1.000000 0.640864 0.000000
0.000000 0.743709 0.000000
0.000000 0.743740 0.000000
0.000000 0.743862 0.000000
0.000000 0.744228 0.000000
0.000000 0.744900 0.000000
0.000000 0.745724 0.000000
0.000000 0.746548 0.000000
0.000000 0.747463 0.000000
0.000000 0.748531 0.000000
0.000000 0.749569 0.000000
0.000000 0.750759 0.000000
0.000000 0.751919 0.000000
0.000000 0.753017 0.000000
0.128542 0.751217 0.000000
0.214511 0.748806 0.000000
0.296391 0.748379 0.000000
0.412421 0.754177 0.000000
0.511498 0.759274 0.000000
0.588830 0.764492 0.000000
0.649897 0.768612 0.000000
0.703059 0.773342 0.000000
0.753201 0.778073 0.000000
0.804044 0.782345 0.000000
0.857908 0.785428 0.000000
0.878508 0.750729 0.000000
0.917113 0.727932 0.000000
0.944244 0.718959 0.000000
0.969604 0.710628 0.000000
0.993927 0.701686 0.000000
1.000000 0.691981 0.000000
1.000000 0.681849 0.000000
1.000000 0.671015 0.000000
0.000000 0.780636 0.000000
0.000000 0.780697 0.000000
0.000000 0.780758 0.000000
0.000000 0.781155 0.000000
0.000000 0.781827 0.000000
0.000000 0.782712 0.000000
0.000000 0.783474 0.000000
0.000000 0.784329 0.000000
0.000000 0.785275 0.000000
0.000000 0.786343 0.000000
0.000000 0.787381 0.000000
0.000000 0.788479 0.000000
0.000000 0.789456 0.000000
0.062959 0.789364 0.000000
0.188540 0.787350 0.000000
0.264073 0.784909 0.000000
0.364294 0.786587 0.000000
0.473060 0.790860 0.000000
0.558587 0.795499 0.000000
0.625055 0.799863 0.000000
0.680323 0.803586 0.000000
0.730800 0.807492 0.000000
0.780606 0.811154 0.000000
0.832700 0.813931 0.000000
0.887266 0.815732 0.000000
0.906401 0.779995 0.000000
0.942931 0.755550 0.000000
0.969970 0.742916 0.000000
0.994171 0.733394 0.000000
1.000000 0.723293 0.000000
1.000000 0.712612 0.000000
1.000000 0.701259 0.000000
0.000000 0.816678 0.000000
0.000000 0.816678 0.000000
0.000000 0.816831 0.000000
0.000000 0.817227 0.000000
0.000000 0.817777 0.000000
0.000000 0.818631 0.000000
0.000000 0.819272 0.000000
0.000000 0.820005 0.000000
0.000000 0.820829 0.000000
0.000000 0.821744 0.000000
0.000000 0.822690 0.000000
0.000000 0.823575 0.000000
0.000000 0.824430 0.000000
0.000000 0.825223 0.000000
0.152712 0.823819 0.000000
0.242588 0.821561 0.000000
0.313542 0.818936 0.000000
0.428168 0.821805 0.000000
0.523735 0.825162 0.000000
0.596765 0.829374 0.000000
0.655695 0.832822 0.000000
0.707424 0.835904 0.000000
0.756832 0.838895 0.000000
0.807156 0.841306 0.000000
0.860136 0.842832 0.000000
0.914794 0.843473 0.000000
0.933379 0.807828 0.000000
0.967529 0.781491 0.000000
0.994293 0.765133 0.000000
1.000000 0.754604 0.000000
1.000000 0.743282 0.000000
1.000000 0.731441 0.000000
0.000000 0.850980 0.000000
0.000000 0.851072 0.000000
0.000000 0.851194 0.000000
0.000000 0.851530 0.000000
0.000000 0.852079 0.000000
0.000000 0.852873 0.000000
0.000000 0.853605 0.000000
0.000000 0.854246 0.000000
0.000000 0.855009 0.000000
0.000000 0.855772 0.000000
0.000000 0.856565 0.000000
0.000000 0.857359 0.000000
0.000000 0.858030 0.000000
0.000000 0.858701 0.000000
0.094453 0.858579 0.000000
0.214359 0.856657 0.000000
0.294041 0.854215 0.000000
0.375982 0.852689 0.000000
0.483955 0.854948 0.000000
0.565087 0.857847 0.000000
0.629145 0.861570 0.000000
0.683070 0.864073 0.000000
0.732815 0.866392 0.000000
0.782101 0.868345 0.000000
0.833555 0.869566 0.000000
0.886839 0.869963 0.000000
0.941161 0.869596 0.000000
0.960693 0.835264 0.000000
0.991211 0.806302 0.000000
1.000000 0.786069 0.000000
1.000000 0.774228 0.000000
1.000000 0.761929 0.000000
0.000000 0.883940 0.000000
0.000000 0.884001 0.000000
0.000000 0.884154 0.000000
0.000000 0.884459 0.000000
0.000000 0.884916 0.000000
0.000000 0.885618 0.000000
0.000000 0.886168 0.000000
0.000000 0.886687 0.000000
0.000000 0.887205 0.000000
0.000000 0.887816 0.000000
0.000000 0.888365 0.000000
0.000000 0.889006 0.000000
0.000000 0.889494 0.000000
0.000000 0.889982 0.000000
0.000000 0.890318 0.000000
0.176333 0.889067 0.000000
0.268559 0.886961 0.000000
0.342016 0.884398 0.000000
0.436622 0.883940 0.000000
0.529168 0.885649 0.000000
0.599115 0.888182 0.000000
0.656886 0.891234 0.000000
0.707851 0.892882 0.000000
0.756832 0.894408 0.000000
0.806851 0.895384 0.000000
0.858579 0.895598 0.000000
0.911711 0.895109 0.000000
0.965484 0.893919 0.000000
0.985992 0.861021 0.000000
1.000000 0.828916 0.000000
1.000000 0.805020 0.000000
1.000000 0.792264 0.000000
0.000000 0.914763 0.000000
0.000000 0.914885 0.000000
0.000000 0.915007 0.000000
0.000000 0.915312 0.000000
0.000000 0.915770 0.000000
0.000000 0.916411 0.000000
0.000000 0.917082 0.000000
0.000000 0.917571 0.000000
0.000000 0.918120 0.000000
0.000000 0.918700 0.000000
0.000000 0.919280 0.000000
0.000000 0.919860 0.000000
0.000000 0.920409 0.000000
0.000000 0.920867 0.000000
0.000000 0.921202 0.000000
