其他预设/【234】港风调色预设/1.3D LUT预设（视频调色-PR-AE-PS-FCPX-达芬奇用）/37.港风色调-夸张效果 __.cube
# Created by Adobe Lightroom plugin Export LUT (1.17.0)
# www.johnrellis.com/lightroom/exportlut.htm
# Preset: 37.港风色调-夸张效果 [素锦印象]
# Color profile: /Library/Application Support/Adobe/Color/Profiles/Recommended/AdobeRGB1998.icc
LUT_3D_SIZE 8
DOMAIN_MIN 0.000000 0.000000 0.000000
DOMAIN_MAX 0.903226 0.903226 0.903226
0.022156 0.036927 0.046174
0.088197 0.045838 0.041993
0.193851 0.085206 0.015473
0.387732 0.120577 0.000000
0.672419 0.138277 0.000000
0.828275 0.232883 0.000000
0.948241 0.289067 0.000000
1.000000 0.319402 0.000000
0.000000 0.100404 0.045075
0.082765 0.101747 0.029084
0.185397 0.115541 0.006500
0.374029 0.153597 0.000000
0.663478 0.176364 0.000000
0.824033 0.256840 0.000000
0.945678 0.307713 0.000000
1.000000 0.334356 0.000000
0.000000 0.201816 0.011994
0.000000 0.203464 0.000000
0.175113 0.212131 0.000000
0.335241 0.220706 0.000000
0.621485 0.251133 0.000000
0.802304 0.319158 0.000000
0.931945 0.361883 0.000000
1.000000 0.380591 0.000000
0.000000 0.333043 0.000000
0.000000 0.335515 0.000000
0.089540 0.335149 0.000000
0.337377 0.364477 0.000000
0.593683 0.360876 0.000000
0.760616 0.387366 0.000000
0.907530 0.434699 0.000000
1.000000 0.448432 0.000000
0.000000 0.496193 0.000000
0.000000 0.498421 0.000000
0.000000 0.503532 0.000000
0.247471 0.514488 0.000000
0.591730 0.541619 0.000000
0.763302 0.530327 0.000000
0.886168 0.531090 0.000000
0.998749 0.525353 0.000000
0.000000 0.664607 0.000000
0.000000 0.665614 0.000000
0.000000 0.669734 0.000000
0.106874 0.671870 0.000000
0.491676 0.689052 0.000000
0.745388 0.711391 0.000000
0.888243 0.665583 0.000000
0.993286 0.638666 0.000000
0.000000 0.816678 0.000000
0.000000 0.817777 0.000000
0.000000 0.820829 0.000000
0.000000 0.824430 0.000000
0.313542 0.818936 0.000000
0.655695 0.832822 0.000000
0.860136 0.842832 0.000000
0.994293 0.765133 0.000000
0.000000 0.945220 0.000000
0.000000 0.946105 0.000000
0.000000 0.948272 0.000000
0.000000 0.950286 0.000000
0.198184 0.950744 0.000000
0.526299 0.944823 0.000000
0.751064 0.948211 0.000000
0.956909 0.941680 0.000000
0.000000 0.064454 0.123629
0.081575 0.010071 0.120577
0.194827 0.000000 0.083803
0.400122 0.109743 0.072786
0.683589 0.111940 0.000000
0.835660 0.217380 0.000000
0.953368 0.277287 0.000000
1.000000 0.311284 0.000000
0.000000 0.109163 0.119722
0.075196 0.101472 0.116915
0.188449 0.118624 0.099763
0.386542 0.145174 0.061189
0.674311 0.157992 0.000000
0.830533 0.243839 0.000000
0.950622 0.296971 0.000000
1.000000 0.326604 0.000000
0.000000 0.204288 0.112276
0.000000 0.208103 0.098268
0.175296 0.215274 0.087282
0.341772 0.213718 0.000000
0.634974 0.245304 0.000000
0.809506 0.312139 0.000000
0.937682 0.354589 0.000000
1.000000 0.373999 0.000000
0.000000 0.338079 0.111238
0.000000 0.342046 0.064912
0.080903 0.344457 0.023774
0.343114 0.369024 0.000000
0.601587 0.359411 0.000000
0.769314 0.387427 0.000000
0.913603 0.431098 0.000000
1.000000 0.443671 0.000000
0.000000 0.500755 0.085725
0.000000 0.503166 0.000000
0.000000 0.509056 0.000000
0.236179 0.517510 0.000000
0.595605 0.545190 0.000000
0.766262 0.529778 0.000000
0.888640 0.526940 0.000000
1.000000 0.522454 0.000000
0.000000 0.667689 0.000000
0.000000 0.669520 0.000000
0.000000 0.674189 0.000000
0.083925 0.677272 0.000000
0.484840 0.691005 0.000000
0.746365 0.712947 0.000000
0.889952 0.664973 0.000000
0.994781 0.636316 0.000000
0.000000 0.818753 0.000000
0.000000 0.820188 0.000000
0.000000 0.823575 0.000000
0.000000 0.826871 0.000000
0.308110 0.821561 0.000000
0.652613 0.834134 0.000000
0.861173 0.844022 0.000000
0.995758 0.765011 0.000000
0.000000 0.946075 0.000000
0.000000 0.946899 0.000000
0.000000 0.949432 0.000000
0.000000 0.951446 0.000000
0.177310 0.951537 0.000000
0.522454 0.945037 0.000000
0.752163 0.948394 0.000000
0.958495 0.941863 0.000000
0.000000 0.064881 0.267399
0.000000 0.012543 0.260716
0.165286 0.000000 0.247471
0.333043 0.000000 0.245304
0.671565 0.000000 0.155062
0.848234 0.163027 0.193973
0.963317 0.249729 0.146700
1.000000 0.288914 0.000000
0.000000 0.144778 0.267613
0.000000 0.100160 0.262486
0.164675 0.084108 0.247501
0.348730 0.000000 0.235599
0.679561 0.000000 0.185000
0.844388 0.208225 0.186954
0.960693 0.270695 0.134096
1.000000 0.304540 0.000000
0.000000 0.231266 0.249027
0.000000 0.228244 0.247562
0.150027 0.206668 0.237308
0.366094 0.212314 0.209628
0.661585 0.221042 0.178408
0.824826 0.287297 0.138552
0.949157 0.332006 0.072602
1.000000 0.353613 0.000000
0.000000 0.339818 0.222049
0.000000 0.344091 0.217624
0.000000 0.354314 0.194186
0.338170 0.366979 0.183108
0.602533 0.331518 0.080476
0.786831 0.375921 0.000000
0.926238 0.414618 0.000000
1.000000 0.426215 0.000000
0.000000 0.502434 0.221286
0.000000 0.506554 0.211917
0.000000 0.517906 0.151614
0.185275 0.517693 0.146609
0.595148 0.545434 0.075105
0.768917 0.519280 0.000000
0.892454 0.506126 0.000000
1.000000 0.510185 0.000000
0.000000 0.669703 0.207340
0.000000 0.672663 0.192966
0.000000 0.680873 0.071168
0.000000 0.687129 0.000000
0.452949 0.692805 0.000000
0.746944 0.715236 0.000000
0.893309 0.660761 0.000000
0.998169 0.624567 0.000000
0.000000 0.820096 0.172030
0.000000 0.821897 0.151431
0.000000 0.826871 0.000000
0.000000 0.831296 0.000000
0.286229 0.828305 0.000000
0.639246 0.836149 0.000000
0.861662 0.845304 0.000000
0.997803 0.762081 0.000000
0.000000 0.946960 0.088319
0.000000 0.947997 0.000000
0.000000 0.951171 0.000000
0.000000 0.954162 0.000000
0.054810 0.955138 0.000000
0.490333 0.946715 0.000000
0.743832 0.949767 0.000000
0.960571 0.942107 0.000000
0.000000 0.066896 0.424170
0.000000 0.030488 0.417456
0.159548 0.000000 0.395514
0.325689 0.000000 0.377111
0.529595 0.000000 0.373754
0.788632 0.000000 0.359930
0.954925 0.000000 0.261692
1.000000 0.233127 0.310552
0.000000 0.165225 0.424567
0.000000 0.105440 0.419837
0.141451 0.064576 0.398016
0.327062 0.000000 0.377874
0.533288 0.000000 0.370733
0.796048 0.000000 0.349889
0.956298 0.000000 0.284245
1.000000 0.317632 0.333196
0.000000 0.321172 0.427466
0.000000 0.311040 0.426490
0.000000 0.200046 0.405219
0.327153 0.153750 0.376623
0.587396 0.000000 0.364660
0.818875 0.000000 0.312871
0.956970 0.357763 0.361089
1.000000 0.396735 0.332952
0.000000 0.406073 0.384955
0.000000 0.404273 0.384283
0.000000 0.391943 0.378424
0.303807 0.343175 0.359136
0.625666 0.346899 0.339879
0.807553 0.394263 0.324712
0.941741 0.426612 0.305333
1.000000 0.433143 0.268315
0.000000 0.503685 0.331212
0.000000 0.507530 0.329564
0.000000 0.518456 0.322057
0.176181 0.528435 0.304845
0.583551 0.535454 0.297795
0.765743 0.486549 0.211246
0.909087 0.490944 0.165255
1.000000 0.498116 0.144411
0.000000 0.670130 0.326146
0.000000 0.672419 0.321324
0.000000 0.681361 0.303960
0.000000 0.692836 0.252354
0.382147 0.687556 0.252781
0.743008 0.713741 0.223484
0.895720 0.649561 0.137911
1.000000 0.599695 0.000000
0.000000 0.820584 0.307500
0.000000 0.822202 0.300786
0.000000 0.827390 0.274479
0.000000 0.835325 0.183291
0.241672 0.836973 0.137148
0.611872 0.835691 0.128328
0.861173 0.846555 0.031708
1.000000 0.757443 0.000000
0.000000 0.947265 0.271672
0.000000 0.948180 0.262333
0.000000 0.951415 0.225406
0.000000 0.956817 0.000000
0.000000 0.959106 0.000000
0.450477 0.950530 0.000000
0.726284 0.951873 0.000000
0.960388 0.943023 0.000000
0.000000 0.087098 0.598108
0.000000 0.053162 0.592035
0.076814 0.000000 0.571466
0.384527 0.000000 0.531762
0.569543 0.000000 0.511772
0.711360 0.000000 0.501213
0.879789 0.000000 0.487984
1.000000 0.000000 0.419287
0.000000 0.184512 0.599512
0.000000 0.119417 0.594415
0.000000 0.056367 0.573968
0.377417 0.000000 0.534661
0.570825 0.000000 0.512352
0.712123 0.000000 0.499245
0.885100 0.000000 0.484077
1.000000 0.000000 0.415381
0.000000 0.375738 0.607050
0.000000 0.349950 0.600488
0.000000 0.208438 0.584100
0.342046 0.127840 0.543633
0.573175 0.000000 0.512932
0.714076 0.000000 0.491096
0.902647 0.000000 0.472023
1.000000 0.000000 0.410529
0.000000 0.527306 0.591669
0.000000 0.521416 0.591547
0.000000 0.496468 0.588983
0.231754 0.344274 0.554040
0.569604 0.255009 0.507561
0.741573 0.240513 0.485939
0.928069 0.327337 0.468330
1.000000 0.517723 0.512627
0.000000 0.612634 0.531151
0.000000 0.610864 0.530144
0.000000 0.602686 0.525841
0.157473 0.577142 0.514000
0.547143 0.500481 0.485206
0.772305 0.544640 0.487648
0.922911 0.580346 0.489235
1.000000 0.580926 0.465522
0.000000 0.672206 0.436744
0.000000 0.674800 0.435828
0.000000 0.682918 0.432044
0.000000 0.693294 0.423926
0.417243 0.692866 0.417426
0.732937 0.705165 0.424750
0.893523 0.625330 0.335241
1.000000 0.585595 0.279179
0.000000 0.821561 0.423072
0.000000 0.823209 0.420203
0.000000 0.828336 0.409186
0.000000 0.835386 0.387884
0.239597 0.839658 0.349248
0.571130 0.829282 0.357183
0.859892 0.846372 0.353521
1.000000 0.750484 0.275242
0.000000 0.948638 0.395514
0.000000 0.949584 0.391028
0.000000 0.952697 0.374304
0.000000 0.956970 0.341405
0.000000 0.961822 0.266423
0.426764 0.957488 0.235416
0.701808 0.952972 0.234440
0.960204 0.943938 0.200931
0.000000 0.106020 0.754726
0.000000 0.074311 0.751278
0.000000 0.000000 0.738552
0.377966 0.000000 0.712337
0.599023 0.000000 0.671565
0.724697 0.000000 0.657893
0.838956 0.000000 0.634058
0.969726 0.000000 0.600977
0.000000 0.194003 0.757107
0.000000 0.136141 0.754543
0.000000 0.076997 0.741756
0.361761 0.000000 0.715236
0.596857 0.000000 0.672602
0.725307 0.000000 0.658534
0.839658 0.000000 0.632624
0.972808 0.000000 0.598352
0.000000 0.382605 0.761196
0.000000 0.353552 0.758846
0.000000 0.221988 0.749386
0.291112 0.139803 0.722957
0.584955 0.000000 0.678187
0.726009 0.000000 0.659449
0.840848 0.000000 0.626612
0.982757 0.000000 0.589380
0.000000 0.584192 0.773922
0.000000 0.571435 0.770626
0.000000 0.520470 0.757259
0.072480 0.356725 0.735103
0.555993 0.245975 0.689143
0.724239 0.143923 0.658137
0.840482 0.000000 0.613947
0.997253 0.144076 0.580957
0.000000 0.695735 0.740383
0.000000 0.692744 0.740536
0.000000 0.680690 0.740627
0.320989 0.653864 0.739132
0.521233 0.518120 0.704799
0.717800 0.430640 0.652308
0.857816 0.443214 0.614374
1.000000 0.557824 0.622827
0.000000 0.790341 0.683619
0.000000 0.789334 0.683223
0.000000 0.784939 0.681300
0.000000 0.771847 0.676173
0.463325 0.736721 0.663844
0.697963 0.669703 0.631403
0.887694 0.727657 0.664027
0.998962 0.747646 0.669490
0.000000 0.830411 0.556023
0.000000 0.830411 0.553460
0.000000 0.830442 0.544060
0.000000 0.834928 0.533867
0.213870 0.837339 0.527977
0.613947 0.826383 0.556542
0.851469 0.840177 0.586633
0.995483 0.750820 0.490822
0.000000 0.949645 0.517937
0.000000 0.950591 0.515648
0.000000 0.953613 0.506828
0.000000 0.958038 0.489906
0.000000 0.960174 0.471565
0.503655 0.952361 0.473548
0.690394 0.946258 0.493782
0.959075 0.943267 0.500206
0.000000 0.123842 0.884062
0.000000 0.095460 0.883116
0.000000 0.000000 0.876127
0.277409 0.000000 0.862242
0.564508 0.000000 0.839384
0.713191 0.000000 0.813169
0.840299 0.000000 0.802152
0.958801 0.000000 0.762905
0.000000 0.199130 0.882536
0.000000 0.151064 0.881987
0.000000 0.104494 0.875303
0.249149 0.000000 0.861387
0.556939 0.000000 0.837827
0.709651 0.000000 0.809812
0.837125 0.000000 0.798215
0.955688 0.000000 0.758328
0.000000 0.372107 0.887053
0.000000 0.346685 0.885863
0.000000 0.235447 0.881132
0.119539 0.169802 0.867216
0.534630 0.000000 0.842985
0.704158 0.000000 0.811429
0.839048 0.000000 0.800595
0.959197 0.000000 0.756069
0.000000 0.571618 0.892973
0.000000 0.562310 0.891112
0.000000 0.516899 0.884947
0.000000 0.371130 0.877043
0.497383 0.281010 0.853147
0.693935 0.117556 0.815946
0.840909 0.000000 0.803494
0.961639 0.000000 0.748745
0.000000 0.715511 0.889799
0.000000 0.713130 0.889769
0.000000 0.705715 0.890562
0.411566 0.665858 0.880888
0.484962 0.530510 0.862730
0.672053 0.429877 0.824002
0.835355 0.357214 0.798032
0.958190 0.304265 0.735775
0.000000 0.818662 0.861875
0.000000 0.816953 0.862272
0.000000 0.810117 0.863493
0.298802 0.795895 0.865537
0.576989 0.787228 0.868132
0.681727 0.700618 0.842618
0.829374 0.613977 0.793149
0.959197 0.619501 0.748623
0.000000 0.922759 0.819211
0.000000 0.922667 0.819821
0.000000 0.920195 0.819699
0.000000 0.912779 0.819394
0.391455 0.892424 0.815915
0.636042 0.863890 0.807828
0.815305 0.811002 0.778622
0.971283 0.866575 0.830442
0.000000 0.958984 0.673884
0.000000 0.959258 0.672297
0.000000 0.961395 0.666896
0.000000 0.962158 0.653498
0.000000 0.961028 0.637629
0.486915 0.950103 0.651820
0.743038 0.938476 0.712459
0.950835 0.940063 0.748989
0.000000 0.136751 0.979583
0.000000 0.109682 0.979248
0.000000 0.072114 0.975891
0.000000 0.000000 0.970336
0.477760 0.000000 0.960784
0.659022 0.000000 0.946777
0.798764 0.000000 0.935637
0.941222 0.000000 0.929534
0.000000 0.200473 0.978912
0.000000 0.160678 0.978851
0.000000 0.122072 0.975921
0.000000 0.000000 0.970031
0.469184 0.000000 0.960418
0.655177 0.000000 0.946227
0.796597 0.000000 0.934234
0.940032 0.000000 0.928038
0.000000 0.353735 0.978943
0.000000 0.332067 0.978790
0.000000 0.238071 0.977264
0.000000 0.187137 0.972656
0.440131 0.000000 0.962676
0.642695 0.000000 0.947814
0.791867 0.000000 0.934173
0.939940 0.000000 0.928099
0.000000 0.552911 0.978515
0.000000 0.539910 0.978515
0.000000 0.486671 0.977478
0.000000 0.364233 0.976165
0.397864 0.291783 0.966827
0.621942 0.175692 0.952392
0.784237 0.000000 0.935790
0.940764 0.000000 0.929686
0.000000 0.699489 0.980011
0.000000 0.695430 0.979675
0.161135 0.679438 0.977417
0.418769 0.651545 0.973114
0.414466 0.518425 0.970184
0.603510 0.444129 0.956420
0.772702 0.320684 0.935485
0.939727 0.250187 0.929717
0.000000 0.803464 0.971801
0.000000 0.801907 0.971832
0.000000 0.796933 0.972137
0.418952 0.795621 0.973114
0.590021 0.786160 0.970306
0.639185 0.693233 0.962615
0.769863 0.608576 0.942382
0.937804 0.550561 0.930053
0.000000 0.907439 0.957458
0.000000 0.906035 0.957580
0.000000 0.900603 0.958129
0.160372 0.890013 0.959442
0.515770 0.883879 0.961425
0.715755 0.888701 0.965209
0.809018 0.837613 0.955657
0.929870 0.761257 0.923033
0.000000 1.000000 0.933715
0.000000 1.000000 0.933654
0.000000 1.000000 0.933959
0.000000 1.000000 0.934813
0.261570 0.999329 0.935454
0.570825 0.981659 0.936126
0.773342 0.958892 0.934722
0.920836 0.920226 0.914458
