其他预设/【234】港风调色预设/1.3D LUT预设（视频调色-PR-AE-PS-FCPX-达芬奇用）/38.港风色调-夸张效果 __.cube
# Created by Adobe Lightroom plugin Export LUT (1.17.0)
# www.johnrellis.com/lightroom/exportlut.htm
# Preset: 38.港风色调-夸张效果 [素锦印象]
# Color profile: /Library/Application Support/Adobe/Color/Profiles/Recommended/AdobeRGB1998.icc
LUT_3D_SIZE 32
0.108431 0.110048 0.106386
0.108431 0.110048 0.106386
0.108431 0.110048 0.106386
0.108431 0.110048 0.106386
0.108431 0.110048 0.106386
0.121920 0.109987 0.108034
0.142794 0.109346 0.110475
0.160769 0.109346 0.113191
0.181949 0.108186 0.116304
0.207095 0.104891 0.119326
0.237003 0.097353 0.121309
0.270024 0.083528 0.123079
0.305180 0.070405 0.124392
0.341039 0.060700 0.126070
0.377874 0.048188 0.127565
0.416541 0.027466 0.129335
0.457954 0.011566 0.131289
0.501823 0.002319 0.134188
0.548302 0.000000 0.137026
0.597864 0.010498 0.140444
0.651484 0.050355 0.144442
0.706081 0.082826 0.152377
0.759640 0.116732 0.164279
0.810330 0.153811 0.179477
0.857755 0.191012 0.198215
0.900786 0.228855 0.219638
0.938048 0.264622 0.244144
0.969909 0.299962 0.270939
0.996429 0.335119 0.300786
1.000000 0.371527 0.334661
1.000000 0.410193 0.373968
1.000000 0.453223 0.419562
0.108431 0.110048 0.106386
0.108431 0.110048 0.106386
0.108431 0.110048 0.106386
0.108431 0.110048 0.106386
0.108431 0.110048 0.106386
0.123568 0.109926 0.107973
0.144106 0.109529 0.110628
0.162356 0.109377 0.113741
0.183810 0.108095 0.116426
0.209842 0.104372 0.119417
0.240482 0.096193 0.121370
0.274235 0.082948 0.123018
0.309850 0.074159 0.124788
0.346197 0.066560 0.126162
0.383764 0.059449 0.127871
0.423072 0.046448 0.129641
0.465126 0.033661 0.131746
0.509850 0.025544 0.134768
0.556847 0.028077 0.137819
0.607233 0.049836 0.141146
0.661097 0.073610 0.145571
0.715175 0.099001 0.154421
0.767819 0.130953 0.166903
0.817655 0.166171 0.182681
0.864012 0.202029 0.201999
0.905882 0.238529 0.223972
0.942229 0.273472 0.248234
0.973144 0.308080 0.275334
0.998871 0.342809 0.305516
1.000000 0.378546 0.339666
1.000000 0.417090 0.379339
1.000000 0.460243 0.425849
0.108431 0.110048 0.106386
0.108431 0.110048 0.106386
0.108431 0.110048 0.106386
0.108431 0.110048 0.106386
0.108431 0.110048 0.106386
0.125582 0.109743 0.108370
0.145388 0.109438 0.110994
0.163821 0.109468 0.113893
0.185763 0.107942 0.116945
0.212528 0.103853 0.119326
0.243381 0.095247 0.121645
0.277745 0.086946 0.123507
0.313512 0.080629 0.124941
0.349981 0.075105 0.126406
0.387518 0.070161 0.128023
0.427253 0.063935 0.129854
0.469795 0.061280 0.132296
0.515068 0.060121 0.135073
0.562737 0.063081 0.138064
0.613123 0.073182 0.141421
0.666682 0.090883 0.147036
0.720333 0.114199 0.155795
0.772366 0.144350 0.168704
0.821500 0.177218 0.185122
0.867491 0.212650 0.204349
0.908751 0.247440 0.226566
0.944518 0.281590 0.250767
0.974853 0.315312 0.278386
1.000000 0.349279 0.308629
1.000000 0.384527 0.343267
1.000000 0.422736 0.382879
1.000000 0.465858 0.429694
0.108431 0.110048 0.106386
0.108431 0.110048 0.106386
0.108431 0.110048 0.106386
0.108431 0.110048 0.106386
0.108431 0.110048 0.106386
0.128054 0.109743 0.108309
0.147097 0.109285 0.111177
0.165805 0.109163 0.114046
0.188144 0.107668 0.117067
0.215152 0.105043 0.119875
0.247013 0.102541 0.122103
0.282048 0.099214 0.124025
0.318059 0.095521 0.125643
0.354833 0.092409 0.126955
0.392950 0.089326 0.128389
0.433173 0.087343 0.130526
0.476295 0.086183 0.133089
0.522332 0.088655 0.136202
0.570855 0.093507 0.139101
0.622339 0.104555 0.143008
0.676448 0.119722 0.149386
0.729366 0.141176 0.159243
0.780087 0.169039 0.172427
0.827481 0.198611 0.189090
0.871489 0.230503 0.208286
0.911131 0.262516 0.229709
0.945769 0.294011 0.253849
0.975463 0.326299 0.280949
1.000000 0.358801 0.311345
1.000000 0.393286 0.345892
1.000000 0.431098 0.386542
1.000000 0.474220 0.434699
0.108766 0.110903 0.106783
0.108705 0.111147 0.106966
0.108858 0.111818 0.106905
0.109102 0.113375 0.107210
0.110689 0.115541 0.108095
0.131838 0.117556 0.109255
0.149874 0.117433 0.112520
0.169436 0.118746 0.115785
0.192813 0.119936 0.118868
0.221256 0.120333 0.121523
0.254124 0.119600 0.123476
0.289647 0.118288 0.124788
0.325750 0.116915 0.126375
0.362585 0.115633 0.127657
0.400336 0.114473 0.129335
0.440162 0.115175 0.131411
0.483070 0.116762 0.133913
0.528832 0.120607 0.136812
0.577295 0.126986 0.140200
0.628992 0.138186 0.144625
0.682856 0.152682 0.152651
0.735622 0.173526 0.162936
0.785580 0.198184 0.176638
0.832212 0.225589 0.193698
0.875303 0.254582 0.212680
0.914061 0.283879 0.234379
0.947936 0.313725 0.258427
0.977142 0.343420 0.285679
1.000000 0.374640 0.316564
1.000000 0.407782 0.351934
1.000000 0.444556 0.393317
1.000000 0.486763 0.441749
0.114290 0.131106 0.111757
0.114504 0.131258 0.111727
0.114778 0.131960 0.112276
0.115267 0.133211 0.112581
0.116732 0.135012 0.113619
0.131563 0.135256 0.117250
0.149386 0.138521 0.118776
0.172213 0.139345 0.119203
0.196902 0.140291 0.121340
0.226444 0.141024 0.123232
0.259861 0.141695 0.124788
0.295628 0.141970 0.126009
0.331609 0.142123 0.127443
0.368353 0.142367 0.128725
0.406256 0.143252 0.130312
0.446296 0.145266 0.132326
0.489113 0.148898 0.135378
0.534722 0.153994 0.138094
0.582727 0.161868 0.141482
0.633631 0.172519 0.147707
0.686854 0.187411 0.155795
0.738247 0.206241 0.167086
0.742519 0.200015 0.166262
0.793790 0.224552 0.180728
0.841978 0.252415 0.198154
0.886107 0.281254 0.218967
0.925475 0.310674 0.242100
0.959380 0.339971 0.268864
0.987976 0.370184 0.299168
1.000000 0.402167 0.333440
1.000000 0.437171 0.373693
1.000000 0.477729 0.421881
0.121157 0.143343 0.117556
0.121309 0.143648 0.117708
0.121645 0.144106 0.118044
0.122103 0.145052 0.118349
0.122896 0.146456 0.118959
0.134188 0.146426 0.121950
0.145998 0.148165 0.124269
0.163455 0.153201 0.125948
0.191135 0.157534 0.124392
0.222080 0.159915 0.124147
0.254215 0.161959 0.125643
0.288731 0.163607 0.126680
0.324254 0.165133 0.127871
0.360967 0.166995 0.129030
0.399023 0.169314 0.130861
0.439734 0.172702 0.133028
0.482948 0.177676 0.135531
0.528435 0.184054 0.138613
0.575402 0.191714 0.142702
0.624018 0.201724 0.149294
0.673762 0.214633 0.157046
0.721767 0.230167 0.165866
0.767483 0.247776 0.177523
0.811185 0.267887 0.191501
0.853513 0.290440 0.208072
0.893980 0.315099 0.227512
0.930907 0.340978 0.250828
0.963287 0.367895 0.277684
0.990723 0.395666 0.308415
1.000000 0.426001 0.344060
1.000000 0.459632 0.385748
1.000000 0.499306 0.435309
0.128237 0.159701 0.123568
0.128176 0.160159 0.123507
0.128481 0.160555 0.123659
0.128634 0.161563 0.124086
0.130404 0.162966 0.124849
0.140963 0.162966 0.126741
0.153445 0.163729 0.129335
0.166903 0.167300 0.131350
0.187472 0.174350 0.133974
0.220768 0.183078 0.131472
0.259129 0.189181 0.129152
0.297612 0.193027 0.127901
0.333196 0.195804 0.129122
0.369940 0.198581 0.130556
0.408515 0.202274 0.132326
0.449531 0.207095 0.134859
0.493446 0.213474 0.137301
0.539361 0.221256 0.141695
0.586511 0.230381 0.147738
0.635584 0.241764 0.155428
0.685176 0.255650 0.163455
0.732448 0.271092 0.173617
0.777279 0.288548 0.185824
0.820249 0.307652 0.199710
0.861448 0.328374 0.216709
0.900511 0.350835 0.237125
0.936004 0.373999 0.260807
0.967132 0.398505 0.287816
0.993347 0.424262 0.319371
1.000000 0.452338 0.355962
1.000000 0.484657 0.398962
1.000000 0.522759 0.449897
0.133608 0.179355 0.127962
0.133516 0.179629 0.128115
0.133394 0.180301 0.128023
0.133730 0.181277 0.128450
0.137881 0.182345 0.129274
0.149050 0.182437 0.131228
0.161929 0.182284 0.133791
0.175814 0.185855 0.136294
0.192386 0.190799 0.138735
0.215549 0.199557 0.142061
0.253452 0.212131 0.139437
0.294499 0.220951 0.136416
0.336461 0.227176 0.133608
0.377691 0.232090 0.132082
0.416480 0.236790 0.134127
0.458137 0.243015 0.136782
0.502281 0.250370 0.141787
0.548333 0.259281 0.148104
0.595636 0.269505 0.155032
0.645075 0.282414 0.162692
0.694148 0.297307 0.171420
0.740810 0.312749 0.181735
0.785061 0.329503 0.194064
0.827207 0.347387 0.208743
0.867552 0.366491 0.225834
0.905486 0.386511 0.246830
0.939910 0.407996 0.270542
0.969940 0.430121 0.298863
0.995239 0.453864 0.331304
1.000000 0.480476 0.369085
1.000000 0.511223 0.413397
1.000000 0.548211 0.465888
0.137881 0.203037 0.132052
0.137728 0.203494 0.132174
0.138186 0.204013 0.132265
0.139315 0.204990 0.132448
0.147280 0.205447 0.133700
0.158602 0.205753 0.135866
0.172122 0.205875 0.138399
0.186831 0.207614 0.141238
0.203616 0.213352 0.143832
0.223209 0.219394 0.146883
0.250248 0.230137 0.150851
0.289403 0.244663 0.149416
0.331426 0.255741 0.146242
0.374701 0.264073 0.143435
0.420447 0.272038 0.141146
0.465827 0.279698 0.142794
0.509270 0.287755 0.148562
0.554925 0.297520 0.155001
0.601801 0.308690 0.162753
0.651606 0.322911 0.170596
0.701045 0.338567 0.180179
0.748409 0.355230 0.191135
0.793271 0.372229 0.204562
0.835721 0.389715 0.219608
0.875578 0.407660 0.237552
0.912200 0.425849 0.259129
0.944976 0.444770 0.283635
0.973327 0.464424 0.312230
0.997131 0.485969 0.345281
1.000000 0.510216 0.383948
1.000000 0.538811 0.428748
1.000000 0.573846 0.481788
0.142550 0.231571 0.136294
0.143038 0.231815 0.136416
0.144228 0.232181 0.136660
0.149477 0.232456 0.137331
0.158206 0.232578 0.138674
0.169863 0.232639 0.140597
0.183566 0.232395 0.143343
0.198642 0.231968 0.146456
0.215091 0.237064 0.149203
0.234501 0.243534 0.152499
0.256565 0.250889 0.156497
0.284276 0.261509 0.161685
0.324804 0.278569 0.163790
0.368261 0.291722 0.161868
0.413947 0.303288 0.161105
0.463081 0.315068 0.160616
0.516320 0.327520 0.160159
0.565087 0.339391 0.165103
0.612573 0.352087 0.172671
0.662348 0.367407 0.180758
0.710903 0.383276 0.190402
0.757137 0.399207 0.201694
0.800839 0.415198 0.215396
0.842161 0.431250 0.230564
0.880949 0.447395 0.249363
0.916594 0.463996 0.271031
0.948333 0.481117 0.296727
0.975708 0.499184 0.326390
0.998505 0.518944 0.361181
1.000000 0.541802 0.401190
1.000000 0.569024 0.447761
1.000000 0.602747 0.502007
0.151247 0.260441 0.140902
0.153109 0.260624 0.141299
0.156069 0.260502 0.141543
0.161501 0.260594 0.142672
0.170352 0.260472 0.143984
0.181827 0.260258 0.145968
0.195499 0.260014 0.148592
0.210544 0.259342 0.151858
0.226627 0.261326 0.155581
0.245090 0.267521 0.159487
0.266117 0.274571 0.164279
0.289647 0.282444 0.170626
0.298589 0.275761 0.168856
0.338506 0.294408 0.173922
0.381476 0.309117 0.173159
0.427344 0.323125 0.173281
0.477516 0.337560 0.173861
0.531395 0.353246 0.173892
0.588159 0.370092 0.174838
0.638605 0.386389 0.182498
0.689570 0.404150 0.191897
0.738674 0.422095 0.203006
0.785641 0.440009 0.215976
0.829801 0.457160 0.232059
0.871000 0.474128 0.250523
0.908415 0.490669 0.272862
0.941619 0.507317 0.298924
0.970306 0.524681 0.329625
0.994171 0.543481 0.365148
1.000000 0.564996 0.406683
1.000000 0.591058 0.454810
1.000000 0.623041 0.510124
0.160525 0.280980 0.145571
0.162448 0.281041 0.145968
0.165255 0.281407 0.146273
0.170748 0.282109 0.147372
0.179751 0.282841 0.149386
0.191073 0.283482 0.152010
0.204532 0.283940 0.155093
0.219577 0.283696 0.158816
0.235203 0.283024 0.163241
0.252018 0.286870 0.167391
0.270665 0.292515 0.171908
0.291020 0.298528 0.177279
0.313237 0.305241 0.183688
0.337957 0.313420 0.191165
0.378271 0.333471 0.199283
0.423285 0.350927 0.199466
0.473060 0.368872 0.200168
0.526970 0.387579 0.200412
0.584924 0.408026 0.200656
0.647028 0.431342 0.201175
0.703944 0.452308 0.205417
0.751919 0.469551 0.216648
0.797360 0.486427 0.230533
0.840085 0.502098 0.247074
0.879637 0.517479 0.266728
0.915343 0.532311 0.290105
0.946899 0.547295 0.317357
0.973816 0.562921 0.350042
0.996063 0.580072 0.387304
1.000000 0.600153 0.430396
1.000000 0.624567 0.479652
1.000000 0.655238 0.536065
0.174716 0.311437 0.155917
0.176638 0.311406 0.156283
0.179202 0.311864 0.156985
0.184909 0.312413 0.158236
0.193606 0.313024 0.160494
0.205112 0.313664 0.163119
0.218418 0.313848 0.166629
0.233219 0.313664 0.170535
0.249027 0.312749 0.174990
0.265141 0.312169 0.179934
0.283146 0.317967 0.184878
0.302831 0.324193 0.190585
0.324437 0.331151 0.197421
0.348333 0.339452 0.205081
0.374945 0.349432 0.214878
0.417945 0.373114 0.226963
0.467567 0.395331 0.227390
0.521569 0.418097 0.228244
0.579980 0.441962 0.228367
0.642542 0.468330 0.228855
0.704005 0.493324 0.230442
0.761410 0.515251 0.234379
0.807980 0.531884 0.246220
0.849058 0.546136 0.263645
0.886809 0.559869 0.283909
0.920806 0.572992 0.308476
0.950652 0.586084 0.337438
0.976013 0.600153 0.371252
0.996826 0.615900 0.410529
1.000000 0.634546 0.454810
1.000000 0.657588 0.505241
1.000000 0.686305 0.561578
0.190249 0.341100 0.168612
0.191928 0.341070 0.169100
0.194583 0.341344 0.169741
0.200198 0.341924 0.171237
0.208835 0.342565 0.173495
0.220035 0.343328 0.176608
0.233036 0.343542 0.179995
0.247532 0.343206 0.184268
0.262882 0.342321 0.188571
0.278721 0.340734 0.193454
0.295384 0.342596 0.198764
0.314488 0.348974 0.204715
0.335607 0.356329 0.211429
0.358984 0.365057 0.219394
0.385168 0.375433 0.228855
0.414405 0.388220 0.239658
0.460121 0.415686 0.254856
0.514275 0.442786 0.255314
0.573022 0.470802 0.256016
0.636347 0.500725 0.256565
0.698634 0.528710 0.258579
0.756771 0.552880 0.262974
0.810147 0.573571 0.270390
0.857939 0.590356 0.282109
0.893706 0.602136 0.303716
0.925658 0.613367 0.329168
0.953460 0.624384 0.358801
0.976959 0.636347 0.393561
0.996185 0.649958 0.432807
1.000000 0.666346 0.476844
1.000000 0.687068 0.526757
1.000000 0.712459 0.580713
0.207248 0.370703 0.183352
0.208927 0.370611 0.183780
0.211063 0.370611 0.184176
0.216312 0.370886 0.185702
0.224338 0.371099 0.187594
0.234592 0.371283 0.190280
0.246799 0.371038 0.193606
0.260380 0.370428 0.197360
0.275334 0.369451 0.201541
0.290898 0.368048 0.206332
0.306706 0.366308 0.211307
0.325475 0.372290 0.217777
0.346685 0.380835 0.225101
0.370428 0.390845 0.233555
0.396582 0.402533 0.242954
0.426001 0.416297 0.253574
0.458228 0.431769 0.265354
0.507195 0.462898 0.281743
0.565332 0.494911 0.283543
0.628107 0.527916 0.284215
0.690364 0.558587 0.286381
0.748775 0.584863 0.291142
0.802304 0.607080 0.299199
0.850828 0.625422 0.310857
0.893523 0.639979 0.326726
0.928038 0.651026 0.349248
0.954406 0.660456 0.380102
0.976684 0.670863 0.415595
0.994873 0.683101 0.456123
1.000000 0.698299 0.501671
1.000000 0.717739 0.552392
1.000000 0.740871 0.605188
0.225315 0.402319 0.199771
0.226963 0.402228 0.200076
0.229343 0.402411 0.200595
0.234409 0.402502 0.201785
0.242008 0.402655 0.203799
0.251743 0.402655 0.206271
0.263279 0.402441 0.209262
0.276646 0.401892 0.213046
0.290898 0.400885 0.217075
0.306157 0.399420 0.221286
0.321843 0.397833 0.226322
0.338293 0.397498 0.231724
0.358953 0.406409 0.238804
0.382147 0.416876 0.246769
0.408057 0.429206 0.256199
0.437263 0.443732 0.266392
0.469642 0.460456 0.277989
0.505272 0.479164 0.290654
0.558465 0.514458 0.307683
0.620600 0.552300 0.313298
0.683619 0.587030 0.316381
0.742428 0.616175 0.322118
0.796506 0.640467 0.331334
0.845212 0.660212 0.344060
0.887999 0.675746 0.361578
0.924559 0.687953 0.383337
0.955138 0.697902 0.409369
0.977081 0.706905 0.444373
0.993805 0.717556 0.485512
1.000000 0.731289 0.531365
1.000000 0.748165 0.579980
1.000000 0.768215 0.630060
0.242802 0.433753 0.215488
0.244297 0.433234 0.215427
0.237919 0.418341 0.208469
0.242527 0.418555 0.209598
0.249607 0.418891 0.211398
0.258824 0.419348 0.214054
0.270085 0.419715 0.217014
0.282780 0.419776 0.220645
0.296880 0.419562 0.224735
0.311803 0.418921 0.229129
0.327428 0.417914 0.233829
0.343481 0.416968 0.239078
0.362097 0.421393 0.245609
0.385046 0.432837 0.253880
0.410681 0.446052 0.262943
0.439399 0.461250 0.273045
0.471534 0.478798 0.284550
0.506859 0.498451 0.296941
0.545342 0.520226 0.310948
0.602045 0.559472 0.329137
0.664820 0.600275 0.340978
0.725826 0.634485 0.347692
0.781827 0.662654 0.357977
0.832547 0.685786 0.372534
0.877409 0.704280 0.392035
0.915679 0.718868 0.416663
0.947387 0.730709 0.445991
0.972839 0.740963 0.479408
0.992248 0.751156 0.517082
1.000000 0.763272 0.562707
1.000000 0.777768 0.609033
1.000000 0.795132 0.656428
0.258793 0.464057 0.229221
0.258976 0.461952 0.228611
0.260044 0.459724 0.228092
0.263340 0.457954 0.228336
0.269139 0.456764 0.229191
0.277745 0.456428 0.231388
0.288518 0.456489 0.233768
0.301183 0.456580 0.237308
0.315068 0.456367 0.240970
0.329900 0.455909 0.245029
0.345708 0.455116 0.249729
0.361944 0.454139 0.254643
0.378882 0.453407 0.260258
0.401251 0.463813 0.268070
0.427070 0.478157 0.277104
0.456367 0.494697 0.287297
0.488869 0.513390 0.298863
0.524559 0.534142 0.311650
0.563256 0.556970 0.325505
0.604089 0.581231 0.340948
0.659968 0.620111 0.362310
0.718898 0.659113 0.381811
0.774960 0.689876 0.393500
0.825559 0.714778 0.409400
0.870359 0.734554 0.430426
0.908446 0.750027 0.456367
0.940032 0.762509 0.486915
0.965270 0.773312 0.521508
0.984771 0.783536 0.558892
0.999420 0.793820 0.597009
1.000000 0.805539 0.637812
1.000000 0.820188 0.681971
0.278019 0.504967 0.246250
0.278477 0.502770 0.245609
0.279393 0.500572 0.245151
0.282780 0.498787 0.245243
0.288701 0.497566 0.246189
0.297063 0.497230 0.248112
0.307744 0.497292 0.250767
0.320287 0.497322 0.253696
0.334112 0.497230 0.257176
0.349187 0.496864 0.261204
0.365270 0.496162 0.265507
0.381964 0.495277 0.270329
0.399481 0.494820 0.275669
0.418433 0.496895 0.282231
0.444831 0.512230 0.291356
0.474464 0.529808 0.301671
0.507347 0.549554 0.313115
0.543359 0.571405 0.326268
0.581598 0.594507 0.340612
0.620844 0.617975 0.356939
0.660731 0.641260 0.375402
0.711391 0.675349 0.400549
0.766476 0.712459 0.429877
0.817411 0.739895 0.447395
0.862364 0.761532 0.469947
0.900694 0.778317 0.497169
0.932280 0.791775 0.529107
0.957610 0.803067 0.564019
0.977264 0.813107 0.599878
0.992065 0.822751 0.635798
1.000000 0.832944 0.672236
1.000000 0.844419 0.709194
0.297948 0.550378 0.263249
0.298222 0.548241 0.262821
0.299168 0.545861 0.262181
0.302586 0.543938 0.262303
0.308598 0.542657 0.263127
0.317235 0.542382 0.264958
0.327947 0.542473 0.267369
0.340673 0.542779 0.270451
0.354803 0.542809 0.273808
0.370428 0.542626 0.277745
0.386969 0.542351 0.282078
0.404334 0.541833 0.286839
0.422644 0.541527 0.292058
0.441413 0.541436 0.298070
0.464698 0.549554 0.305821
0.494270 0.567590 0.316258
0.526482 0.587060 0.327581
0.560571 0.607416 0.340673
0.596002 0.628138 0.355108
0.632044 0.648707 0.371221
0.668605 0.669154 0.389410
0.705196 0.689174 0.409674
0.749874 0.717556 0.437201
0.801083 0.752865 0.475532
0.846860 0.777005 0.497353
0.886381 0.795804 0.524590
0.919402 0.810575 0.555474
0.946105 0.822568 0.588861
0.967193 0.832761 0.622858
0.983276 0.842222 0.657557
0.994995 0.851743 0.692378
1.000000 0.862211 0.727871
0.314153 0.590692 0.276890
0.315190 0.589624 0.276951
0.316808 0.588586 0.276829
0.320806 0.588037 0.277440
0.327337 0.587884 0.278843
0.336370 0.588067 0.280583
0.347356 0.588434 0.283085
0.360113 0.588525 0.285954
0.374456 0.588434 0.289128
0.390082 0.587823 0.292576
0.406867 0.587243 0.296666
0.424659 0.586542 0.301335
0.443458 0.586450 0.306676
0.462959 0.586542 0.312505
0.483009 0.586908 0.318883
0.511070 0.601984 0.329015
0.542535 0.621180 0.341192
0.575708 0.640925 0.355016
0.610040 0.660945 0.370611
0.645106 0.680873 0.388220
0.680598 0.700740 0.408057
0.716030 0.719997 0.430365
0.751247 0.739132 0.455512
0.791379 0.763485 0.487648
0.838346 0.796780 0.538323
0.878202 0.817411 0.565515
0.911467 0.833158 0.595178
0.938537 0.845518 0.626490
0.959930 0.855741 0.658503
0.976349 0.864805 0.690913
0.988373 0.873655 0.723720
0.996612 0.882933 0.756527
0.336370 0.643793 0.295567
0.337377 0.642542 0.295384
0.339086 0.641566 0.295232
0.343084 0.640894 0.295964
0.349767 0.640620 0.297185
0.359014 0.641016 0.299168
0.370611 0.641505 0.301701
0.383886 0.641901 0.304631
0.398871 0.641993 0.308019
0.415137 0.641810 0.311803
0.432776 0.641321 0.316045
0.451148 0.640833 0.320684
0.470558 0.640558 0.325994
0.490761 0.640406 0.332067
0.511376 0.640589 0.338689
0.533501 0.643488 0.346654
0.563775 0.661280 0.359686
0.595422 0.679438 0.374578
0.628016 0.697627 0.391211
0.661067 0.715633 0.410132
0.694392 0.733272 0.431098
0.727535 0.750484 0.454292
0.760281 0.767239 0.479713
0.792142 0.783383 0.507713
0.830472 0.806943 0.549462
0.871733 0.836454 0.605463
0.904936 0.853452 0.634943
0.932158 0.866331 0.664363
0.953674 0.876646 0.694392
0.970245 0.885344 0.724453
0.982483 0.893370 0.754330
0.990967 0.901427 0.783993
0.357183 0.688197 0.313054
0.357855 0.686976 0.312657
0.359380 0.686183 0.312779
0.363897 0.686000 0.313481
0.370916 0.686427 0.315160
0.380468 0.687068 0.317327
0.392370 0.688106 0.320256
0.406348 0.689235 0.323613
0.422034 0.690211 0.327703
0.439216 0.690913 0.332006
0.457710 0.691554 0.337072
0.477028 0.691859 0.342351
0.497292 0.692317 0.348333
0.518273 0.692958 0.355230
0.540032 0.694026 0.362737
0.562097 0.695277 0.371191
0.588190 0.704402 0.383490
0.619135 0.721584 0.400671
0.650385 0.738186 0.419287
0.681697 0.754116 0.439857
0.712886 0.769497 0.462135
0.743862 0.784482 0.486763
0.774563 0.799100 0.513970
0.804379 0.813352 0.543969
0.833127 0.827176 0.575036
0.861509 0.841642 0.608301
0.898039 0.867491 0.662837
0.925170 0.882231 0.696010
0.947295 0.893126 0.724636
0.964294 0.901915 0.752834
0.976928 0.909483 0.780423
0.985870 0.916686 0.807492
0.386267 0.741207 0.339696
0.386938 0.739986 0.339208
0.388556 0.739315 0.339178
0.392920 0.739040 0.339879
0.400092 0.739284 0.341558
0.409644 0.739864 0.343969
0.421454 0.740536 0.346868
0.435218 0.741238 0.350347
0.450782 0.741756 0.354528
0.467628 0.742031 0.359014
0.485817 0.742245 0.364080
0.504814 0.742123 0.369543
0.524651 0.742153 0.375860
0.545281 0.742336 0.382818
0.566705 0.742885 0.390845
0.588495 0.743709 0.399634
0.610376 0.744533 0.409216
0.638453 0.757107 0.426062
0.668147 0.771847 0.446113
0.697871 0.785977 0.468055
0.727382 0.799405 0.491524
0.756466 0.812375 0.517357
0.785092 0.824949 0.545190
0.812772 0.837034 0.574060
0.839292 0.848783 0.603845
0.864225 0.859983 0.633753
0.887266 0.870512 0.663050
0.918639 0.892546 0.713893
0.940307 0.904967 0.748013
0.958068 0.914031 0.774350
0.971435 0.921508 0.799985
0.981018 0.928191 0.824949
0.418555 0.788785 0.370520
0.419409 0.788022 0.370184
0.421118 0.787778 0.370520
0.425788 0.787869 0.371588
0.432807 0.788418 0.373663
0.442481 0.789181 0.376410
0.454231 0.790005 0.380011
0.467781 0.790738 0.384131
0.483070 0.791196 0.388556
0.499580 0.791348 0.393408
0.517266 0.791409 0.398932
0.535790 0.791135 0.404761
0.555047 0.790951 0.411261
0.575372 0.790951 0.418860
0.596429 0.791348 0.427527
0.617914 0.792020 0.437079
0.639673 0.792752 0.447486
0.662257 0.795163 0.459876
0.690486 0.807858 0.481666
0.718471 0.819730 0.505058
0.746242 0.830961 0.530297
0.773251 0.841672 0.556603
0.799527 0.851987 0.583520
0.824826 0.861967 0.610925
0.848936 0.871580 0.638727
0.871580 0.880735 0.666499
0.892393 0.889342 0.693599
0.911284 0.897459 0.719905
0.936522 0.914855 0.764340
0.953185 0.925078 0.797330
0.967010 0.932555 0.820981
0.977020 0.938903 0.844022
0.458808 0.835569 0.412024
0.459754 0.835080 0.411841
0.461494 0.834836 0.412146
0.465614 0.834806 0.413092
0.472145 0.834867 0.415045
0.480507 0.834867 0.417456
0.490639 0.834379 0.419959
0.502220 0.833555 0.422858
0.515099 0.832395 0.425879
0.529229 0.830991 0.429419
0.544457 0.829404 0.433265
0.560815 0.827817 0.437720
0.578210 0.826444 0.443305
0.596918 0.825467 0.450050
0.616510 0.825040 0.458076
0.637263 0.825193 0.467750
0.658259 0.825620 0.478370
0.679225 0.826017 0.489845
0.702846 0.831174 0.506828
0.729488 0.841459 0.530755
0.755581 0.851133 0.555474
0.781064 0.860441 0.580957
0.805844 0.869383 0.606989
0.829618 0.877958 0.633295
0.852262 0.886259 0.659663
0.873472 0.894102 0.685664
0.893004 0.901488 0.711238
0.910735 0.908385 0.735988
0.926513 0.914824 0.759365
0.947692 0.929198 0.797971
0.961028 0.938201 0.830411
0.972351 0.944884 0.852934
0.494972 0.868711 0.450965
0.495827 0.868528 0.451057
0.497719 0.868528 0.451667
0.501884 0.868742 0.453254
0.508354 0.869017 0.455665
0.516747 0.869322 0.458839
0.526787 0.869413 0.462409
0.538354 0.869352 0.466407
0.551202 0.869047 0.470863
0.565393 0.868620 0.475929
0.580835 0.868040 0.481361
0.597192 0.867399 0.487587
0.614679 0.866911 0.494911
0.633082 0.866514 0.503075
0.652338 0.866331 0.512505
