其他预设/【234】港风调色预设/1.3D LUT预设（视频调色-PR-AE-PS-FCPX-达芬奇用）/38.港风色调-夸张效果 __.cube
# Created by Adobe Lightroom plugin Export LUT (1.17.0)
# www.johnrellis.com/lightroom/exportlut.htm
# Preset: 38.港风色调-夸张效果 [素锦印象]
# Color profile: /Library/Application Support/Adobe/Color/Profiles/Recommended/AdobeRGB1998.icc
LUT_3D_SIZE 5
DOMAIN_MIN 0.000000 0.000000 0.000000
DOMAIN_MAX 0.903226 0.903226 0.903226
0.108431 0.110048 0.106386
0.160769 0.109346 0.113191
0.377874 0.048188 0.127565
0.706081 0.082826 0.152377
0.996429 0.335119 0.300786
0.128237 0.159701 0.123568
0.166903 0.167300 0.131350
0.408515 0.202274 0.132326
0.732448 0.271092 0.173617
0.993347 0.424262 0.319371
0.190249 0.341100 0.168612
0.247532 0.343206 0.184268
0.385168 0.375433 0.228855
0.756771 0.552880 0.262974
0.996185 0.649958 0.432807
0.314153 0.590692 0.276890
0.360113 0.588525 0.285954
0.483009 0.586908 0.318883
0.716030 0.719997 0.430365
0.959930 0.855741 0.658503
0.550591 0.905425 0.513268
0.589227 0.905028 0.529107
0.705348 0.909026 0.595026
0.830533 0.916442 0.687739
0.938689 0.944518 0.822965
0.113069 0.122591 0.157504
0.170779 0.119387 0.158755
0.397833 0.105379 0.196078
0.737209 0.118685 0.263706
1.000000 0.356390 0.395880
0.117769 0.173312 0.166903
0.192203 0.186801 0.180484
0.419593 0.218784 0.219089
0.753323 0.284825 0.281193
1.000000 0.450233 0.420294
0.192813 0.363653 0.221805
0.272862 0.370306 0.250828
0.417273 0.405432 0.298466
0.789548 0.575097 0.348089
0.993103 0.666621 0.518761
0.300145 0.614038 0.309758
0.367254 0.614130 0.332525
0.499489 0.611292 0.363378
0.727138 0.732082 0.486183
0.960510 0.862638 0.700374
0.558343 0.910399 0.552605
0.596826 0.909819 0.567041
0.699550 0.906279 0.610376
0.828397 0.913909 0.699214
0.938598 0.944274 0.832273
0.113649 0.136934 0.327703
0.203647 0.131746 0.330755
0.383520 0.154177 0.355840
0.701747 0.201083 0.456855
0.984710 0.396948 0.582208
0.138521 0.195895 0.339727
0.224277 0.209689 0.348089
0.400580 0.242313 0.375586
0.724208 0.287755 0.476539
0.983764 0.476783 0.601678
0.188479 0.385016 0.384527
0.266361 0.398840 0.398047
0.470192 0.455787 0.455573
0.776883 0.540826 0.533715
0.977935 0.692348 0.678676
0.278172 0.665217 0.471504
0.346929 0.676722 0.480964
0.539361 0.692256 0.518914
0.752102 0.758602 0.631312
0.963989 0.878202 0.792905
0.554925 0.928527 0.645045
0.595209 0.926452 0.655177
0.713130 0.920562 0.698909
0.834562 0.917571 0.753750
0.944152 0.948913 0.870939
0.174197 0.162783 0.567102
0.259220 0.168276 0.571801
0.450690 0.190402 0.593561
0.687098 0.230594 0.658900
0.953216 0.514885 0.760678
0.195010 0.239628 0.584863
0.275364 0.245182 0.591699
0.465339 0.263584 0.614282
0.702876 0.311192 0.676936
0.954192 0.585107 0.775723
0.187869 0.426520 0.625147
0.262364 0.430091 0.634089
0.482704 0.454719 0.671839
0.740963 0.538231 0.724483
0.955993 0.723232 0.811490
0.250309 0.698482 0.692927
0.328099 0.708644 0.702876
0.535363 0.736934 0.731136
0.799741 0.806790 0.799619
0.960693 0.876707 0.870451
0.555383 0.946807 0.790921
0.598749 0.945525 0.795346
0.711086 0.941161 0.808835
0.848325 0.935912 0.844816
0.950591 0.954223 0.915190
0.383276 0.286687 0.914855
0.445075 0.293462 0.916014
0.603204 0.325414 0.919036
0.790066 0.418585 0.923796
0.954437 0.576501 0.931914
0.374517 0.348852 0.918090
0.438605 0.355779 0.919127
0.601892 0.388586 0.921752
0.792691 0.482521 0.926177
0.953918 0.626184 0.933593
0.322515 0.515587 0.924163
0.390417 0.515343 0.925200
0.597528 0.561028 0.926879
0.798276 0.640253 0.930358
0.951385 0.743648 0.937255
0.445594 0.765103 0.932555
0.492653 0.767025 0.933013
0.614282 0.769680 0.932860
0.804501 0.804898 0.934752
0.950256 0.869413 0.944305
0.651209 0.950927 0.945861
0.678523 0.951202 0.946410
0.755093 0.950927 0.946838
0.862730 0.952697 0.949615
0.962615 0.964691 0.962921
