其他预设/【234】港风调色预设/1.3D LUT预设（视频调色-PR-AE-PS-FCPX-达芬奇用）/38.港风色调-夸张效果 __.cube
# Created by Adobe Lightroom plugin Export LUT (1.17.0)
# www.johnrellis.com/lightroom/exportlut.htm
# Preset: 38.港风色调-夸张效果 [素锦印象]
# Color profile: /Library/Application Support/Adobe/Color/Profiles/Recommended/AdobeRGB1998.icc
LUT_3D_SIZE 8
DOMAIN_MIN 0.000000 0.000000 0.000000
DOMAIN_MAX 0.903226 0.903226 0.903226
0.108431 0.110048 0.106386
0.108431 0.110048 0.106386
0.181949 0.108186 0.116304
0.305180 0.070405 0.124392
0.457954 0.011566 0.131289
0.651484 0.050355 0.144442
0.857755 0.191012 0.198215
0.996429 0.335119 0.300786
0.108766 0.110903 0.106783
0.110689 0.115541 0.108095
0.192813 0.119936 0.118868
0.325750 0.116915 0.126375
0.483070 0.116762 0.133913
0.682856 0.152682 0.152651
0.875303 0.254582 0.212680
1.000000 0.374640 0.316564
0.133608 0.179355 0.127962
0.137881 0.182345 0.129274
0.192386 0.190799 0.138735
0.336461 0.227176 0.133608
0.502281 0.250370 0.141787
0.694148 0.297307 0.171420
0.867552 0.366491 0.225834
0.995239 0.453864 0.331304
0.160525 0.280980 0.145571
0.179751 0.282841 0.149386
0.235203 0.283024 0.163241
0.313237 0.305241 0.183688
0.473060 0.368872 0.200168
0.703944 0.452308 0.205417
0.879637 0.517479 0.266728
0.996063 0.580072 0.387304
0.225315 0.402319 0.199771
0.242008 0.402655 0.203799
0.290898 0.400885 0.217075
0.358953 0.406409 0.238804
0.469642 0.460456 0.277989
0.683619 0.587030 0.316381
0.887999 0.675746 0.361578
0.993805 0.717556 0.485512
0.297948 0.550378 0.263249
0.308598 0.542657 0.263127
0.354803 0.542809 0.273808
0.422644 0.541527 0.292058
0.526482 0.587060 0.327581
0.668605 0.669154 0.389410
0.846860 0.777005 0.497353
0.967193 0.832761 0.622858
0.386267 0.741207 0.339696
0.400092 0.739284 0.341558
0.450782 0.741756 0.354528
0.524651 0.742153 0.375860
0.610376 0.744533 0.409216
0.727382 0.799405 0.491524
0.839292 0.848783 0.603845
0.940307 0.904967 0.748013
0.550591 0.905425 0.513268
0.562768 0.905486 0.518364
0.600641 0.904540 0.533593
0.656580 0.901396 0.556420
0.739773 0.908080 0.614496
0.811337 0.912047 0.667750
0.883482 0.929046 0.747707
0.938689 0.944518 0.822965
0.108736 0.110994 0.110933
0.112825 0.110994 0.111452
0.197269 0.108034 0.122103
0.329290 0.094759 0.135927
0.485481 0.081270 0.154025
0.687221 0.103548 0.187686
0.879057 0.216983 0.244511
1.000000 0.355077 0.342748
0.108675 0.115206 0.114382
0.120180 0.121279 0.116457
0.203281 0.133486 0.128908
0.338384 0.134890 0.140383
0.497993 0.139498 0.161074
0.702449 0.175875 0.196445
0.890867 0.272709 0.256779
1.000000 0.394720 0.359716
0.130648 0.188479 0.132570
0.150454 0.190402 0.140200
0.203189 0.198856 0.151553
0.352544 0.238743 0.156161
0.519738 0.266239 0.181796
0.717342 0.316930 0.216831
0.891539 0.388556 0.273869
1.000000 0.474678 0.378393
0.164340 0.298772 0.162631
0.192813 0.299077 0.173770
0.249516 0.296941 0.187533
0.334203 0.324468 0.215640
0.511009 0.400793 0.239017
0.741817 0.484047 0.252934
0.902983 0.540124 0.316960
1.000000 0.600153 0.438087
0.235325 0.413001 0.222110
0.252476 0.414099 0.226322
0.303075 0.414008 0.239536
0.374334 0.421515 0.262516
0.491981 0.482704 0.304845
0.707942 0.609796 0.346868
0.900175 0.688930 0.399969
0.995209 0.730770 0.528344
0.305028 0.567620 0.282689
0.319982 0.567285 0.285557
0.368383 0.566461 0.295476
0.437690 0.562310 0.312230
0.539452 0.601526 0.347112
0.677882 0.678981 0.410742
0.853483 0.785031 0.524102
0.969085 0.840024 0.649195
0.396185 0.759976 0.363226
0.413336 0.761929 0.368048
0.464027 0.761837 0.380041
0.536461 0.758022 0.398779
0.620081 0.756344 0.429633
0.736385 0.807980 0.515251
0.847807 0.857267 0.630335
0.944274 0.911040 0.768643
0.564080 0.911925 0.537530
0.574243 0.911101 0.540429
0.610498 0.909636 0.554131
0.664607 0.905943 0.575097
0.733547 0.904356 0.611627
0.809506 0.910430 0.669612
0.885588 0.930236 0.755856
0.940581 0.946227 0.831296
0.113436 0.126040 0.173251
0.122774 0.125612 0.173129
0.192325 0.118685 0.177218
0.315343 0.119875 0.199527
0.470100 0.115663 0.231205
0.671107 0.092927 0.272435
0.866789 0.179202 0.321233
0.996826 0.346319 0.410468
0.112673 0.129549 0.175937
0.136904 0.134768 0.178042
0.201144 0.141573 0.185824
0.328801 0.149233 0.210849
0.485939 0.156497 0.243626
0.686366 0.160739 0.281071
0.876341 0.240208 0.331548
0.999054 0.384558 0.423316
0.123049 0.197604 0.191806
0.146639 0.201480 0.195590
0.225986 0.217411 0.212039
0.350195 0.236179 0.233158
0.502892 0.261601 0.262608
0.701656 0.299413 0.297276
0.883543 0.370916 0.350958
0.998474 0.478828 0.452003
0.157290 0.309209 0.218875
0.184634 0.310430 0.222995
0.266423 0.317784 0.247074
0.346166 0.333867 0.273320
0.520836 0.401923 0.297429
0.726375 0.465278 0.327611
0.892180 0.526879 0.388556
0.994720 0.604639 0.504692
0.226047 0.427558 0.262058
0.248234 0.429603 0.268284
0.316258 0.434241 0.291997
0.384924 0.428687 0.307866
0.497658 0.487312 0.351904
0.715572 0.613458 0.401770
0.902251 0.689784 0.466712
0.988190 0.739315 0.591577
0.288579 0.584558 0.316899
0.306554 0.586694 0.320531
0.375158 0.591058 0.343359
0.452796 0.588739 0.359747
0.552117 0.614862 0.394263
0.691646 0.693874 0.468360
0.860929 0.795132 0.582666
0.967864 0.844694 0.687800
0.368383 0.769558 0.388128
0.395575 0.771176 0.400488
0.463020 0.773129 0.424414
0.542260 0.771725 0.445136
0.629511 0.770138 0.475715
0.740841 0.810605 0.555962
0.848020 0.857481 0.660609
0.942992 0.910338 0.782803
0.562707 0.916228 0.567010
0.582635 0.916136 0.579736
0.620386 0.915312 0.593805
0.670283 0.909911 0.608179
0.739071 0.908354 0.641871
0.810483 0.910094 0.687648
0.886381 0.930022 0.769863
0.940490 0.946014 0.840360
0.103731 0.134737 0.275792
0.136965 0.132113 0.273960
0.217075 0.127016 0.277440
0.318242 0.133700 0.293095
0.455268 0.172702 0.321721
0.659510 0.169009 0.385504
0.863554 0.198947 0.446601
0.992218 0.368200 0.525322
0.125154 0.143435 0.274174
0.150149 0.144839 0.275578
0.222507 0.150973 0.282414
0.322393 0.162081 0.297734
0.461707 0.201907 0.330205
0.669703 0.200870 0.393164
0.869963 0.239231 0.452583
0.993011 0.400153 0.534813
0.131472 0.210178 0.291752
0.158785 0.214206 0.295445
0.243687 0.229770 0.307317
0.343633 0.248142 0.321843
0.484779 0.275853 0.355779
0.683528 0.282109 0.401740
0.868345 0.323186 0.449805
0.988373 0.480262 0.549279
0.155642 0.316533 0.314641
0.184421 0.320867 0.318608
0.265599 0.335393 0.333165
0.379675 0.364569 0.363195
0.530236 0.392279 0.390936
0.721981 0.439246 0.432990
0.885496 0.513268 0.498512
0.984985 0.618830 0.602075
0.212406 0.447456 0.348302
0.237430 0.451209 0.352697
0.308232 0.461006 0.365209
0.410590 0.473121 0.390509
0.517998 0.506920 0.430671
0.733822 0.619593 0.489174
0.893156 0.685512 0.565942
0.978759 0.749020 0.669306
0.273991 0.601434 0.397040
0.291325 0.597955 0.395636
0.354376 0.611048 0.407385
0.459815 0.622797 0.434668
0.555352 0.618067 0.456764
0.700069 0.702937 0.545861
0.867826 0.803311 0.652094
0.967681 0.851713 0.741756
0.360021 0.784298 0.470771
0.377783 0.784451 0.472236
0.437293 0.786770 0.480720
0.540612 0.786252 0.513207
0.633997 0.782071 0.540063
0.739986 0.807919 0.604913
0.851621 0.860716 0.708736
0.945251 0.914153 0.813931
0.543969 0.920684 0.602258
0.556634 0.920104 0.605921
0.601068 0.919463 0.621942
0.674556 0.915923 0.655879
0.743740 0.913848 0.684138
0.812680 0.912383 0.719081
0.887938 0.930175 0.791897
0.941466 0.946593 0.856748
0.127657 0.140139 0.381628
0.157656 0.137423 0.381079
0.234897 0.142519 0.387213
0.335515 0.157687 0.396735
0.453101 0.179507 0.424262
0.634272 0.217716 0.488258
0.840879 0.270115 0.567315
0.976013 0.428656 0.637201
0.142885 0.158907 0.384466
0.167605 0.160067 0.383215
0.240421 0.167269 0.389532
0.341253 0.184482 0.402258
0.458534 0.207034 0.430365
0.639673 0.243320 0.494057
0.843717 0.297063 0.571160
0.976104 0.453285 0.642939
0.156802 0.225437 0.398657
0.185336 0.230381 0.402014
0.262943 0.244450 0.410956
0.361700 0.261357 0.424262
0.479438 0.284184 0.453864
0.665278 0.325475 0.519097
0.856962 0.388037 0.589837
0.977081 0.535882 0.667292
0.180728 0.325872 0.421210
0.206332 0.330541 0.425299
0.277531 0.343633 0.438025
0.386694 0.366888 0.463386
0.511986 0.394415 0.491554
0.696986 0.443519 0.552300
0.870024 0.517296 0.618647
0.975921 0.632563 0.695918
0.213626 0.458473 0.458930
0.236271 0.462043 0.462409
0.304356 0.476692 0.476722
0.410925 0.505303 0.505089
0.568994 0.559533 0.558495
0.743740 0.612329 0.606867
0.886351 0.681880 0.671504
0.972076 0.758022 0.746639
0.244663 0.650690 0.533165
0.269078 0.653498 0.535332
0.346288 0.665217 0.544579
0.463600 0.680720 0.559380
0.608087 0.695888 0.595453
0.729335 0.734035 0.654810
0.885100 0.818326 0.734127
0.966552 0.858640 0.800473
0.349157 0.810025 0.584802
0.370916 0.811795 0.587274
0.439216 0.815396 0.594720
0.541131 0.818021 0.610437
0.657679 0.817960 0.643854
0.746914 0.813718 0.670649
0.863218 0.871611 0.771847
0.951781 0.922240 0.854582
0.557153 0.933776 0.684047
0.571374 0.933684 0.687648
0.615656 0.932952 0.699184
0.670527 0.928099 0.709224
0.751675 0.924743 0.741268
0.821195 0.921996 0.768765
0.891814 0.932555 0.821988
0.945373 0.949889 0.881956
0.157443 0.153994 0.507591
0.185153 0.155489 0.508995
0.263981 0.162631 0.519799
0.369787 0.176242 0.533043
0.491157 0.198032 0.555169
0.632258 0.217441 0.603418
0.818112 0.299840 0.673793
0.955688 0.494636 0.734676
0.171847 0.180697 0.522942
0.198489 0.182620 0.525170
0.274968 0.189944 0.532799
0.380102 0.203037 0.545495
0.500389 0.222843 0.565454
0.640620 0.243168 0.612451
0.822873 0.328374 0.679286
0.956542 0.517479 0.740261
0.188540 0.250858 0.534691
0.213443 0.253239 0.538140
0.287114 0.260472 0.547082
0.390600 0.271855 0.560632
0.512718 0.290105 0.582330
0.654108 0.317235 0.628321
0.829587 0.410468 0.690059
0.956573 0.576989 0.753231
0.183627 0.344884 0.552575
0.208499 0.348028 0.558282
0.280827 0.355138 0.574548
0.396033 0.367742 0.588159
0.525689 0.387274 0.606897
0.669673 0.427253 0.648554
0.835782 0.530358 0.706905
0.956329 0.655512 0.771359
0.204929 0.485878 0.597436
0.227604 0.488167 0.600275
0.296849 0.495552 0.610651
0.401068 0.507652 0.629572
0.555810 0.539147 0.663142
0.710048 0.593439 0.697780
0.858824 0.677028 0.750607
0.960235 0.758022 0.807004
0.238163 0.653071 0.649256
0.261051 0.653925 0.650141
0.334508 0.663905 0.659846
0.448951 0.682887 0.678553
0.598932 0.714473 0.709285
0.759304 0.764889 0.757992
0.884154 0.807401 0.799161
0.961212 0.853696 0.846372
0.325444 0.827695 0.706905
0.346441 0.828275 0.707515
0.420356 0.834257 0.714595
0.531518 0.839048 0.723995
0.654078 0.843717 0.738979
0.774777 0.848875 0.770901
0.873381 0.880705 0.830381
0.957580 0.926909 0.889311
0.554711 0.943725 0.767514
0.569451 0.943664 0.769802
0.614588 0.942901 0.776547
0.676722 0.940490 0.785214
0.752285 0.937926 0.800809
0.831327 0.934386 0.826871
0.891661 0.932738 0.850156
0.949187 0.953002 0.907866
0.239628 0.190463 0.724331
0.266026 0.191623 0.724331
0.345769 0.195712 0.728939
0.453681 0.203006 0.735988
0.573632 0.219760 0.748623
0.698482 0.252049 0.769986
0.827085 0.313634 0.800412
0.947784 0.527184 0.830533
0.244602 0.216922 0.730648
0.270817 0.217594 0.730922
0.349279 0.221164 0.735195
0.457801 0.228305 0.743282
0.578119 0.244663 0.755550
0.703639 0.278447 0.776333
0.832364 0.343389 0.806424
0.949676 0.554864 0.835782
0.232822 0.283726 0.736568
0.260868 0.284703 0.737881
0.342962 0.288365 0.742977
0.454994 0.295964 0.751186
0.579248 0.313481 0.763882
0.706355 0.350225 0.781979
0.834379 0.417456 0.810697
0.947478 0.605158 0.839780
0.174105 0.377447 0.746365
0.204318 0.376379 0.749691
0.311223 0.383581 0.756710
0.440650 0.393652 0.764126
0.576684 0.415564 0.775875
0.709071 0.456764 0.789639
0.837430 0.530083 0.818082
0.945953 0.681971 0.849241
0.190280 0.526024 0.765408
0.217472 0.526024 0.767178
0.294621 0.524224 0.771542
0.414588 0.523919 0.782925
0.576104 0.551141 0.796170
0.721798 0.596948 0.809689
0.848661 0.665156 0.835935
0.946777 0.774258 0.867460
0.256352 0.684352 0.795041
0.280003 0.684749 0.795865
0.352300 0.686488 0.799039
0.457160 0.689662 0.804044
0.585473 0.700221 0.812222
0.738460 0.738338 0.831388
0.861418 0.789639 0.856107
0.950134 0.855406 0.890684
0.360204 0.832303 0.823209
0.379278 0.832639 0.823575
0.444556 0.835111 0.826505
0.539818 0.839719 0.831815
0.655146 0.849485 0.842313
0.778500 0.866606 0.860227
0.892912 0.898528 0.893584
0.959289 0.924773 0.920928
0.563531 0.952056 0.860258
0.576410 0.951965 0.861112
0.612696 0.950622 0.862089
0.676204 0.950225 0.866941
0.755520 0.949493 0.875120
0.834165 0.947234 0.885039
0.903593 0.945647 0.902403
0.954437 0.957458 0.935668
0.383276 0.286687 0.914855
0.402136 0.288029 0.914794
0.463752 0.296056 0.916503
0.552667 0.311986 0.918029
0.655848 0.344091 0.920378
0.763485 0.400366 0.923247
0.866789 0.478614 0.928893
0.954437 0.576501 0.931914
0.382818 0.307744 0.916747
0.401678 0.309056 0.916686
0.463111 0.316625 0.917998
0.553124 0.333043 0.919768
0.656916 0.365423 0.921996
0.764889 0.421820 0.924590
0.868315 0.500908 0.930144
0.954925 0.595361 0.933196
0.370886 0.368109 0.919371
0.391089 0.369848 0.919493
0.456672 0.378759 0.921080
0.548425 0.393896 0.921416
0.656031 0.427314 0.923674
0.766690 0.484413 0.926360
0.869535 0.558740 0.930968
0.953948 0.642054 0.934386
0.338567 0.458381 0.921996
0.362402 0.460182 0.921965
0.437354 0.469734 0.923064
0.540276 0.488045 0.924041
0.654749 0.521843 0.925475
0.768154 0.573846 0.927428
0.869963 0.635981 0.931121
0.951965 0.705776 0.935729
0.336889 0.588037 0.925750
0.355962 0.587213 0.925689
0.421912 0.588190 0.926574
0.530083 0.601434 0.926940
0.654841 0.632288 0.928496
0.771481 0.674281 0.930449
0.872526 0.723903 0.932769
0.950622 0.780972 0.938781
0.421759 0.732998 0.931914
0.437934 0.733822 0.932158
0.487129 0.735439 0.932525
0.557763 0.736263 0.932403
0.655634 0.743557 0.932494
0.775051 0.772793 0.933104
0.874907 0.807492 0.935149
0.949523 0.851316 0.942351
0.536400 0.857450 0.938445
0.548150 0.858030 0.938659
0.585565 0.859556 0.939117
0.642115 0.861326 0.939300
0.714321 0.864622 0.939452
0.793423 0.869841 0.939513
0.885557 0.888853 0.942596
0.953277 0.917266 0.950591
0.651209 0.950927 0.945861
0.659907 0.951110 0.946105
0.686793 0.951202 0.946471
0.728878 0.950958 0.946624
0.784237 0.951110 0.947295
0.846830 0.952209 0.948974
0.909545 0.955261 0.952667
0.962615 0.964691 0.962921
