其他预设/【234】港风调色预设/1.3D LUT预设（视频调色-PR-AE-PS-FCPX-达芬奇用）/4.港风色调 __.cube
# Created by Adobe Lightroom plugin Export LUT (1.17.0)
# www.johnrellis.com/lightroom/exportlut.htm
# Preset: 4.港风色调 [素锦印象]
# Color profile: /Library/Application Support/Adobe/Color/Profiles/Recommended/AdobeRGB1998.icc
LUT_3D_SIZE 32
0.106264 0.115694 0.123690
0.108034 0.116060 0.123995
0.110109 0.116396 0.124117
0.114931 0.117586 0.124666
0.121798 0.119020 0.125490
0.130831 0.120790 0.126223
0.142855 0.122621 0.127016
0.158145 0.124727 0.127443
0.178073 0.127291 0.127626
0.203799 0.129610 0.127596
0.237644 0.131563 0.127199
0.280461 0.132540 0.126101
0.332647 0.130861 0.123934
0.392218 0.126101 0.120699
0.455634 0.118685 0.116060
0.519554 0.109987 0.109865
0.580041 0.104707 0.102296
0.638087 0.107637 0.092653
0.692073 0.120485 0.081025
0.739742 0.140383 0.067628
0.782345 0.164645 0.044892
0.820493 0.191073 0.007568
0.854276 0.218448 0.000000
0.884245 0.246220 0.000000
0.911040 0.273869 0.000000
0.935058 0.302007 0.000000
0.956847 0.330632 0.000000
0.976745 0.359899 0.000000
0.994873 0.390387 0.066316
1.000000 0.422492 0.105592
1.000000 0.456672 0.146853
1.000000 0.493385 0.194156
0.106111 0.117220 0.124331
0.107546 0.117220 0.124086
0.110140 0.117708 0.124178
0.114809 0.118471 0.124605
0.121645 0.120089 0.125399
0.130709 0.121645 0.126162
0.142336 0.123751 0.126955
0.157656 0.126040 0.127382
0.177218 0.128267 0.127565
0.202792 0.130861 0.127535
0.236149 0.133211 0.127138
0.278538 0.134432 0.125887
0.329961 0.133303 0.123934
0.389197 0.129397 0.120729
0.452308 0.122408 0.115999
0.515923 0.114870 0.109834
0.576593 0.110262 0.102327
0.634577 0.112825 0.092805
0.688014 0.124575 0.081544
0.735439 0.143435 0.067811
0.778195 0.166598 0.046021
0.816464 0.191867 0.009583
0.850614 0.218631 0.000000
0.881102 0.245762 0.000000
0.908263 0.273289 0.000000
0.932647 0.301183 0.000000
0.954894 0.329686 0.000000
0.975036 0.359136 0.000000
0.993469 0.389471 0.062135
1.000000 0.421454 0.102113
1.000000 0.455512 0.143771
1.000000 0.492103 0.190860
0.105867 0.119173 0.125093
0.107332 0.118959 0.124910
0.109499 0.119509 0.124453
0.114778 0.120180 0.124636
0.121492 0.121401 0.125307
0.130312 0.123171 0.126040
0.142031 0.125063 0.126680
0.157015 0.127382 0.127291
0.176608 0.129976 0.127443
0.201877 0.132631 0.127443
0.234836 0.135286 0.127016
0.276921 0.136904 0.125765
0.328252 0.136355 0.123812
0.387182 0.133272 0.120394
0.449958 0.127474 0.115846
0.513695 0.120699 0.109682
0.574334 0.116915 0.101930
0.632532 0.119783 0.092592
0.685664 0.131014 0.081117
0.732967 0.148775 0.067475
0.775814 0.170901 0.044190
0.814389 0.195438 0.007507
0.848692 0.221469 0.000000
0.879332 0.248173 0.000000
0.906737 0.275151 0.000000
0.931334 0.302708 0.000000
0.953735 0.330999 0.000000
0.974121 0.360143 0.000000
0.992676 0.390295 0.059052
1.000000 0.422187 0.099916
1.000000 0.455940 0.141573
1.000000 0.492348 0.188998
0.105806 0.123293 0.126802
0.107485 0.123262 0.126772
0.109133 0.123018 0.126772
0.113436 0.124086 0.125490
0.121523 0.125277 0.125551
0.130007 0.126253 0.126375
0.141634 0.128115 0.126436
0.156466 0.130800 0.127016
0.175814 0.133577 0.127169
0.200900 0.136599 0.127138
0.233646 0.139834 0.126680
0.275364 0.142092 0.125399
0.326146 0.142824 0.123171
0.384436 0.140993 0.119966
0.447120 0.136873 0.115114
0.510735 0.132265 0.108827
0.571466 0.130159 0.100923
0.630243 0.133944 0.091188
0.682216 0.144442 0.079561
0.729061 0.160281 0.065919
0.771817 0.180545 0.039399
0.810513 0.203647 0.001923
0.845335 0.228428 0.000000
0.876707 0.254246 0.000000
0.904875 0.281041 0.000000
0.930205 0.308415 0.000000
0.953033 0.336400 0.000000
0.973632 0.365393 0.000000
0.992309 0.395178 0.052247
1.000000 0.426276 0.097627
1.000000 0.459358 0.139864
1.000000 0.494942 0.187045
0.105592 0.128817 0.129091
0.107454 0.128756 0.129427
0.108522 0.128450 0.128511
0.112001 0.128359 0.128450
0.119081 0.130129 0.126680
0.130098 0.132601 0.126558
0.141176 0.133516 0.127077
0.155459 0.135470 0.127382
0.174441 0.138613 0.127321
0.199161 0.142336 0.127047
0.231388 0.146334 0.126162
0.272251 0.150057 0.124819
0.322515 0.152163 0.122530
0.380621 0.152010 0.119020
0.443366 0.150240 0.114199
0.507103 0.147951 0.107485
0.568658 0.147982 0.099336
0.628412 0.153170 0.088685
0.680201 0.163729 0.076692
0.726925 0.178470 0.061707
0.769406 0.196567 0.029145
0.808042 0.218204 0.000000
0.843076 0.241428 0.000000
0.874754 0.265873 0.000000
0.903197 0.291386 0.000000
0.928740 0.317723 0.000000
0.951781 0.344762 0.000000
0.972564 0.372503 0.000000
0.991333 0.401404 0.036286
1.000000 0.431891 0.092927
1.000000 0.464271 0.136416
1.000000 0.499123 0.184207
0.105104 0.135744 0.132052
0.106783 0.135744 0.132021
0.108461 0.135714 0.131807
0.110780 0.135103 0.130404
0.116121 0.135683 0.130068
0.126009 0.138308 0.127993
0.141756 0.142733 0.127138
0.156008 0.144015 0.127657
0.173922 0.145937 0.128115
0.198184 0.149569 0.127840
0.230259 0.154360 0.127077
0.270970 0.159060 0.125643
0.320867 0.162417 0.123262
0.378637 0.164187 0.119600
0.441169 0.164340 0.114443
0.505058 0.164340 0.107729
0.568383 0.166567 0.098970
0.627588 0.173495 0.087953
0.679042 0.184390 0.074922
0.725826 0.198978 0.057496
0.768368 0.217685 0.013214
0.807431 0.237766 0.000000
0.863035 0.277592 0.000000
0.892210 0.300938 0.000000
0.918181 0.324559 0.000000
0.941344 0.348791 0.000000
0.962158 0.373480 0.000000
0.981018 0.399084 0.000000
0.998169 0.426123 0.058320
1.000000 0.454719 0.104707
1.000000 0.485359 0.149081
1.000000 0.518364 0.197543
0.103944 0.145754 0.135653
0.105379 0.145571 0.135653
0.107362 0.145541 0.135439
0.109682 0.145174 0.133059
0.114595 0.143893 0.133059
0.122652 0.146426 0.131594
0.136385 0.150179 0.129122
0.158511 0.157595 0.127687
0.177615 0.159335 0.128054
0.201846 0.162203 0.128359
0.233555 0.166079 0.127993
0.275608 0.171756 0.126284
0.326421 0.176516 0.123751
0.384894 0.179934 0.119692
0.447303 0.181949 0.114168
0.510430 0.184421 0.107240
0.575830 0.189944 0.097444
0.634302 0.198520 0.085573
0.685542 0.210117 0.071565
0.732601 0.225223 0.049683
0.776120 0.244236 0.001282
0.816312 0.265873 0.000000
0.852598 0.289555 0.000000
0.885008 0.313573 0.000000
0.913390 0.337438 0.000000
0.938018 0.361395 0.000000
0.959625 0.385443 0.000000
0.978912 0.410101 0.000000
0.996368 0.435950 0.029694
1.000000 0.463355 0.096468
1.000000 0.492805 0.142672
1.000000 0.524743 0.192020
0.101778 0.157656 0.140078
0.103334 0.157504 0.139895
0.105440 0.157473 0.139376
0.108888 0.157137 0.138033
0.112306 0.156100 0.134890
0.120058 0.155032 0.135500
0.131197 0.159365 0.133242
0.148836 0.164523 0.130312
0.178714 0.175906 0.127962
0.203525 0.178836 0.127993
0.235294 0.182986 0.127718
0.274968 0.187076 0.126802
0.324041 0.191714 0.124788
0.381994 0.196811 0.120577
0.444129 0.201266 0.114961
0.509667 0.206180 0.107301
0.573968 0.213199 0.097322
0.631098 0.222507 0.085420
0.681849 0.234226 0.071504
0.728756 0.248661 0.048341
0.772183 0.266056 0.001709
0.812436 0.286076 0.000000
0.848814 0.308263 0.000000
0.881376 0.331609 0.000000
0.910033 0.354833 0.000000
0.935058 0.377447 0.000000
0.957061 0.400061 0.000000
0.976684 0.423316 0.000000
0.994385 0.448035 0.000000
1.000000 0.474128 0.085786
1.000000 0.502495 0.135531
1.000000 0.533196 0.186282
0.098817 0.172915 0.145632
0.100465 0.172915 0.145113
0.102358 0.172763 0.144808
0.106935 0.172519 0.143801
0.110079 0.171664 0.139010
0.117556 0.169802 0.138399
0.127657 0.170657 0.138094
0.142947 0.176455 0.135042
0.165408 0.183383 0.131289
0.205844 0.200565 0.127230
0.238529 0.204929 0.126741
0.278660 0.209934 0.125551
0.326757 0.214298 0.123842
0.381292 0.217319 0.120943
0.443824 0.223301 0.115358
0.510185 0.230808 0.107179
0.572992 0.239506 0.096895
0.629328 0.249180 0.085023
0.679469 0.260624 0.070527
0.726192 0.274540 0.045991
0.769558 0.290990 0.000000
0.809659 0.309880 0.000000
0.846098 0.330297 0.000000
0.878660 0.352178 0.000000
0.907439 0.374334 0.000000
0.932586 0.396216 0.000000
0.954864 0.417578 0.000000
0.974762 0.439460 0.000000
0.992676 0.462593 0.000000
1.000000 0.487465 0.073396
1.000000 0.514305 0.127932
1.000000 0.543633 0.180514
0.093965 0.192172 0.152285
0.095369 0.192203 0.151827
0.097505 0.192081 0.151217
0.102663 0.191836 0.150118
0.108003 0.191012 0.146151
0.113313 0.189334 0.141054
0.124514 0.186648 0.142550
0.138064 0.190768 0.140627
0.158541 0.198734 0.136629
0.187350 0.207980 0.131777
0.241306 0.232212 0.124849
0.282475 0.237736 0.123507
0.331029 0.243137 0.121370
0.387121 0.248234 0.117830
0.448615 0.252903 0.113252
0.510918 0.257969 0.106691
0.573327 0.267918 0.096010
0.629297 0.278569 0.083650
0.679286 0.289982 0.068605
0.725338 0.303410 0.040986
0.768124 0.318608 0.000000
0.807340 0.335668 0.000000
0.843076 0.354192 0.000000
0.875212 0.373632 0.000000
0.903868 0.394141 0.000000
0.929259 0.414710 0.000000
0.951934 0.435920 0.000000
0.972290 0.456794 0.000000
0.990692 0.478950 0.000000
1.000000 0.502617 0.053773
1.000000 0.528313 0.119875
1.000000 0.556634 0.175540
0.085145 0.216037 0.160250
0.087098 0.216037 0.159823
0.089906 0.215915 0.158968
0.095369 0.215824 0.157504
0.103822 0.215213 0.155306
0.108156 0.213718 0.147280
0.119661 0.211063 0.145388
0.133486 0.208255 0.146975
0.152407 0.217166 0.142824
0.179263 0.227695 0.137728
0.216220 0.239475 0.131258
0.287205 0.271977 0.119631
0.338415 0.279057 0.116701
0.395911 0.285679 0.112337
0.456092 0.291264 0.107027
0.515953 0.296025 0.100801
0.573175 0.300481 0.093385
0.626886 0.308537 0.082643
0.676570 0.319768 0.066957
0.722621 0.332586 0.035401
0.765286 0.346929 0.000000
0.804593 0.362799 0.000000
0.840421 0.380224 0.000000
0.872648 0.398260 0.000000
0.901457 0.417090 0.000000
0.926940 0.436439 0.000000
0.949645 0.456062 0.000000
0.970184 0.476387 0.000000
0.988678 0.496986 0.000000
1.000000 0.519127 0.003998
1.000000 0.543389 0.109316
1.000000 0.570245 0.168460
0.069551 0.246311 0.170047
0.072145 0.246220 0.169528
0.075746 0.246098 0.168582
0.082948 0.245914 0.166842
0.093721 0.245640 0.164492
0.101961 0.244175 0.156985
0.109804 0.241764 0.148257
0.128145 0.238132 0.150240
0.146334 0.239170 0.150088
0.172000 0.250889 0.144533
0.207034 0.264530 0.137575
0.255283 0.280827 0.128511
0.367407 0.338842 0.104005
0.428443 0.345708 0.098085
0.490089 0.351476 0.090547
0.549065 0.356298 0.082094
0.603143 0.360357 0.072541
0.651453 0.363165 0.063966
0.695247 0.366217 0.052216
0.738491 0.377050 0.010773
0.778744 0.389776 0.000000
0.815549 0.403723 0.000000
0.849058 0.418463 0.000000
0.879362 0.434211 0.000000
0.906523 0.450660 0.000000
0.930785 0.467842 0.000000
0.952544 0.485451 0.000000
0.972198 0.503746 0.000000
0.990112 0.522789 0.000000
1.000000 0.543053 0.000000
1.000000 0.565332 0.106844
1.000000 0.590204 0.169070
0.004639 0.287388 0.182773
0.012543 0.287388 0.182040
0.024689 0.287053 0.180850
0.050752 0.286442 0.178927
0.072755 0.285527 0.175723
0.089143 0.283848 0.169741
0.097993 0.280888 0.157015
0.116762 0.277104 0.153292
0.139925 0.272404 0.155734
0.164981 0.280613 0.152743
0.200687 0.298344 0.145296
0.248997 0.318151 0.135378
0.313359 0.338964 0.121096
0.430976 0.393286 0.082948
0.493416 0.399237 0.073274
0.552209 0.404028 0.061799
0.605127 0.406897 0.042390
0.652369 0.408576 0.020661
0.695430 0.410468 0.002197
0.735683 0.413275 0.000000
0.774044 0.419623 0.000000
0.811093 0.432105 0.000000
0.844694 0.445533 0.000000
0.875242 0.459815 0.000000
0.902647 0.474952 0.000000
0.927153 0.490639 0.000000
0.949157 0.507073 0.000000
0.969116 0.524163 0.000000
0.987304 0.542199 0.000000
1.000000 0.561242 0.000000
1.000000 0.582208 0.091188
1.000000 0.605646 0.160189
0.000000 0.330053 0.195804
0.000000 0.329900 0.194919
0.000000 0.329564 0.193637
0.000000 0.328954 0.191196
0.000000 0.327794 0.187839
0.064118 0.326482 0.183688
0.080079 0.323522 0.170047
0.094667 0.320928 0.155581
0.127138 0.316991 0.158328
0.155581 0.312902 0.161746
0.189822 0.330175 0.154360
0.235904 0.350561 0.143954
0.296086 0.371893 0.130251
0.370336 0.393256 0.110231
0.493385 0.448432 0.033661
0.555444 0.454810 0.000000
0.607172 0.455604 0.000000
0.653346 0.455573 0.000000
0.695644 0.455634 0.000000
0.735409 0.457130 0.000000
0.772824 0.459998 0.000000
0.807706 0.464393 0.000000
0.840818 0.474159 0.000000
0.871611 0.487312 0.000000
0.899260 0.501091 0.000000
0.924010 0.515557 0.000000
0.946288 0.530571 0.000000
0.966430 0.546532 0.000000
0.984833 0.563378 0.000000
1.000000 0.581384 0.000000
1.000000 0.600824 0.071717
1.000000 0.622919 0.151705
0.000000 0.378241 0.210544
0.000000 0.378241 0.209720
0.000000 0.377996 0.208408
0.000000 0.377935 0.205905
0.000000 0.377264 0.202152
0.000000 0.376410 0.197543
0.019623 0.374517 0.186099
0.064271 0.371344 0.167788
0.102296 0.367468 0.160678
0.142428 0.362646 0.164370
0.177371 0.364385 0.164981
0.221927 0.384588 0.154726
0.279332 0.406165 0.140993
0.349340 0.427527 0.122164
0.429328 0.448096 0.094697
0.549310 0.500145 0.000000
0.610163 0.507286 0.000000
0.655207 0.504662 0.000000
0.696742 0.502708 0.000000
0.735805 0.502159 0.000000
0.772549 0.503441 0.000000
0.806912 0.506035 0.000000
0.838651 0.510063 0.000000
0.867918 0.515526 0.000000
0.895811 0.527947 0.000000
0.920958 0.541314 0.000000
0.943603 0.555657 0.000000
0.964202 0.570855 0.000000
0.982940 0.587030 0.000000
1.000000 0.604303 0.000000
1.000000 0.622522 0.067536
1.000000 0.643366 0.146975
0.000000 0.434302 0.228702
0.000000 0.434272 0.227848
0.000000 0.434211 0.226291
0.000000 0.433783 0.223514
0.000000 0.432990 0.219211
0.000000 0.432166 0.214054
0.000000 0.430915 0.206516
0.000000 0.427710 0.185885
0.024689 0.424262 0.163149
0.117159 0.418952 0.167117
0.163821 0.412879 0.171603
0.207584 0.421607 0.167575
0.262486 0.441688 0.154025
0.328862 0.461982 0.136507
0.404242 0.481361 0.112093
0.485237 0.499489 0.073487
0.596429 0.545769 0.000000
0.656855 0.555077 0.000000
0.698146 0.551080 0.000000
0.737118 0.548974 0.000000
0.773678 0.548577 0.000000
0.807797 0.549767 0.000000
0.839261 0.552148 0.000000
0.868193 0.556054 0.000000
0.894652 0.561242 0.000000
0.919066 0.569726 0.000000
0.941863 0.582849 0.000000
0.962463 0.596918 0.000000
0.981231 0.611933 0.002502
0.998322 0.627802 0.066011
1.000000 0.644678 0.099794
1.000000 0.662867 0.138766
0.000000 0.488838 0.247745
0.000000 0.488777 0.246677
0.000000 0.488441 0.245396
0.000000 0.487861 0.242313
0.000000 0.486946 0.237766
0.000000 0.485847 0.231998
0.000000 0.484535 0.225803
0.000000 0.481422 0.207156
0.000000 0.477790 0.181857
0.065644 0.473060 0.170077
0.141329 0.466835 0.174990
0.191775 0.460060 0.180392
0.245182 0.476478 0.169711
0.308965 0.496071 0.153292
0.381079 0.514702 0.131655
0.458350 0.531701 0.101259
0.536828 0.547326 0.035554
0.638911 0.588220 0.000000
0.699550 0.600244 0.000000
0.737728 0.595727 0.000000
0.773739 0.593194 0.000000
0.807340 0.592432 0.000000
0.838376 0.593103 0.000000
0.867094 0.595331 0.000000
0.893400 0.598993 0.000000
0.917357 0.604089 0.000000
0.939300 0.610773 0.000000
0.959869 0.622187 0.026886
0.978820 0.636133 0.070344
0.996094 0.651057 0.097932
1.000000 0.666926 0.126131
1.000000 0.683986 0.156374
0.000000 0.542657 0.268956
0.000000 0.542992 0.267765
0.000000 0.558831 0.273320
0.000000 0.558129 0.269993
0.000000 0.557000 0.265049
0.000000 0.555383 0.258946
0.000000 0.553338 0.252018
0.000000 0.550408 0.239048
0.000000 0.546258 0.211093
0.000000 0.541802 0.179690
0.104921 0.535210 0.182986
0.178470 0.527733 0.188846
0.234989 0.523796 0.191135
0.298619 0.541558 0.175540
0.368750 0.558190 0.155581
0.443244 0.573419 0.129885
0.519158 0.587518 0.092775
0.593256 0.600793 0.000000
0.685786 0.635798 0.000000
0.745388 0.649561 0.000000
0.779690 0.644068 0.000000
0.812009 0.640558 0.000000
0.841947 0.638819 0.000000
0.869505 0.638666 0.000000
0.894621 0.639796 0.000000
0.917632 0.642451 0.000000
0.938750 0.646723 0.000000
0.958251 0.652766 0.058564
0.976349 0.660792 0.101747
0.993652 0.674464 0.124849
1.000000 0.689235 0.151186
1.000000 0.705104 0.180636
0.000000 0.597559 0.293034
0.000000 0.599481 0.293004
0.000000 0.601282 0.292424
0.000000 0.602533 0.290288
0.000000 0.602991 0.286442
0.000000 0.602319 0.280949
0.000000 0.600732 0.274540
0.000000 0.598444 0.268162
0.000000 0.594690 0.241184
0.000000 0.590814 0.209781
0.000000 0.585565 0.191531
0.152071 0.578576 0.197269
0.220371 0.570336 0.203616
0.280461 0.573510 0.199191
0.347906 0.588891 0.181765
0.419379 0.603052 0.159884
0.492409 0.616327 0.131106
0.564721 0.628901 0.089387
0.635096 0.641047 0.000000
0.720211 0.671992 0.000000
0.779599 0.688319 0.000000
0.811612 0.683070 0.000000
0.841398 0.679713 0.000000
0.868742 0.677882 0.000000
0.893736 0.677516 0.000000
0.916594 0.678645 0.000000
0.937560 0.681392 0.000000
0.956939 0.685878 0.059602
0.974945 0.692164 0.105715
0.991577 0.700404 0.143404
1.000000 0.711757 0.176242
1.000000 0.726589 0.205539
0.000000 0.643519 0.315648
0.000000 0.645167 0.315740
0.000000 0.646937 0.315435
0.000000 0.647913 0.313573
0.000000 0.648249 0.309575
0.000000 0.647578 0.304631
0.000000 0.646143 0.298863
0.000000 0.643977 0.293126
0.000000 0.641047 0.275303
0.000000 0.637415 0.243961
0.000000 0.633661 0.208713
0.114443 0.627314 0.209567
0.203555 0.619776 0.215854
0.267308 0.611109 0.222385
0.331151 0.620447 0.211002
0.399664 0.633661 0.191775
0.470222 0.646052 0.168124
0.540337 0.657832 0.137881
0.609003 0.669123 0.094453
0.675410 0.680323 0.000000
0.753658 0.707393 0.000000
0.811948 0.725521 0.000000
0.841398 0.720394 0.000000
0.868437 0.716884 0.000000
0.893095 0.714870 0.000000
0.915648 0.714321 0.000000
0.936400 0.715358 0.000000
0.955566 0.718288 0.063752
0.973388 0.722866 0.111635
0.989899 0.729427 0.149660
1.000000 0.737789 0.187320
1.000000 0.748135 0.228031
0.000000 0.687190 0.339361
0.000000 0.688746 0.339513
0.000000 0.690150 0.338994
0.000000 0.691188 0.337499
0.000000 0.691463 0.334386
0.000000 0.690700 0.329656
0.000000 0.689326 0.324773
0.000000 0.687404 0.320073
0.000000 0.684779 0.312230
0.000000 0.681483 0.282231
0.000000 0.677882 0.248142
0.025238 0.673243 0.226230
0.183017 0.666224 0.231998
0.257572 0.658259 0.238376
0.318181 0.651698 0.242954
0.384558 0.664302 0.226627
0.452857 0.676417 0.206516
0.521172 0.688167 0.182956
0.588708 0.699519 0.152834
0.654353 0.710506 0.112367
0.717586 0.721248 0.000000
0.789303 0.745083 0.000000
0.845609 0.764126 0.000000
0.872190 0.759213 0.000000
0.896361 0.755764 0.000000
0.918395 0.753841 0.000000
0.938598 0.753353 0.003815
0.957244 0.754543 0.092714
0.974548 0.757504 0.134310
0.990600 0.762295 0.170932
1.000000 0.768856 0.208255
1.000000 0.777005 0.248020
0.000000 0.734737 0.368078
0.000000 0.735439 0.367895
0.000000 0.735683 0.367132
0.000000 0.735805 0.365362
0.000000 0.735348 0.362188
0.000000 0.734340 0.358404
0.000000 0.732998 0.354345
0.000000 0.731136 0.350561
0.000000 0.729000 0.348272
0.000000 0.726345 0.325963
0.000000 0.723476 0.294133
0.000000 0.720211 0.257816
0.165530 0.714290 0.256168
0.251896 0.706935 0.262425
0.317937 0.698756 0.269017
0.378058 0.698116 0.266941
0.442603 0.709041 0.249516
0.507958 0.719570 0.229374
0.572442 0.729732 0.205814
0.635767 0.739406 0.176455
0.696864 0.748653 0.138643
0.754971 0.757595 0.077668
0.819425 0.777157 0.000000
0.872435 0.795529 0.000000
0.895995 0.790433 0.000000
0.917693 0.786954 0.000000
0.937621 0.785122 0.045258
0.956115 0.784909 0.105898
0.973266 0.786343 0.145480
0.989166 0.789517 0.182437
1.000000 0.794430 0.219791
1.000000 0.800626 0.258366
0.000000 0.773159 0.393744
0.000000 0.773678 0.393683
0.000000 0.774197 0.393347
0.000000 0.774228 0.391852
0.000000 0.773800 0.389410
0.000000 0.772793 0.386328
0.000000 0.771328 0.382910
0.000000 0.769558 0.380163
0.000000 0.767178 0.378790
0.000000 0.764523 0.368505
0.000000 0.762020 0.339513
0.017548 0.759152 0.306157
0.144045 0.755032 0.281590
0.243931 0.748409 0.287633
0.315740 0.740932 0.294102
0.375463 0.732998 0.300999
0.434791 0.737789 0.292363
0.496498 0.747585 0.275120
0.558129 0.756985 0.255650
0.618921 0.765988 0.232425
0.678492 0.774533 0.205081
0.735561 0.782681 0.170718
0.789456 0.790555 0.124086
0.847440 0.806760 0.000000
0.895109 0.822110 0.000000
0.916411 0.817350 0.000000
0.936217 0.814206 0.071595
0.954528 0.812680 0.119356
0.971557 0.812802 0.156802
0.987396 0.814572 0.193484
1.000000 0.817990 0.229984
1.000000 0.822751 0.268986
0.000000 0.813352 0.423835
0.000000 0.813931 0.423896
0.000000 0.814206 0.423621
0.000000 0.813962 0.422461
0.000000 0.813230 0.420356
0.000000 0.811978 0.417731
0.000000 0.810300 0.415290
0.000000 0.808103 0.413428
0.000000 0.805356 0.412818
0.000000 0.801999 0.414313
0.035737 0.799161 0.387335
0.115023 0.796323 0.357061
0.154726 0.793088 0.322271
0.240574 0.787289 0.317571
0.315953 0.779995 0.323064
0.377630 0.772091 0.329107
0.430823 0.764187 0.335241
0.487953 0.772702 0.319860
0.545983 0.781216 0.302983
0.603937 0.789548 0.283787
0.661128 0.797482 0.261784
0.716548 0.804868 0.235996
0.769253 0.811673 0.203922
0.818540 0.817960 0.163760
0.870207 0.830686 0.108736
0.916838 0.847135 0.015900
0.936034 0.842679 0.099580
0.953887 0.839811 0.138766
0.970581 0.838560 0.173800
0.986206 0.838987 0.208408
1.000000 0.840757 0.244205
1.000000 0.844144 0.282078
0.000000 0.845304 0.449653
0.000000 0.845762 0.449836
0.000000 0.845975 0.449683
0.000000 0.845762 0.448859
0.000000 0.845090 0.447578
0.000000 0.844022 0.445960
0.000000 0.842435 0.444465
0.000000 0.840482 0.443854
0.000000 0.837949 0.444587
0.000000 0.834775 0.447364
0.141787 0.832029 0.434577
0.174716 0.829709 0.407446
0.204013 0.827207 0.377478
0.245640 0.823636 0.352850
0.323125 0.817227 0.358343
0.386358 0.810239 0.364172
0.440681 0.802914 0.370733
0.490578 0.800443 0.370916
0.543877 0.808011 0.356542
0.597864 0.815366 0.340246
0.651667 0.822293 0.321782
0.704372 0.828672 0.300572
0.755093 0.834531 0.275975
0.803098 0.839841 0.246494
0.847684 0.844785 0.210025
0.893553 0.854795 0.169070
0.936889 0.869902 0.132784
0.954376 0.866148 0.165835
0.970703 0.863828 0.198093
0.985870 0.863005 0.230869
0.999847 0.863523 0.264714
1.000000 0.865629 0.302495
0.000000 0.875853 0.477241
0.000000 0.876127 0.477394
0.000000 0.876097 0.477302
0.000000 0.875700 0.476814
0.000000 0.874876 0.475776
0.000000 0.873686 0.474861
0.000000 0.872099 0.474311
0.000000 0.870024 0.474586
0.000000 0.867460 0.476295
0.043946 0.864347 0.480171
0.209262 0.860960 0.480354
0.232212 0.859159 0.456886
0.255131 0.857145 0.430549
0.276768 0.854795 0.401038
0.335180 0.849912 0.395544
0.397925 0.843626 0.401343
0.451972 0.837034 0.407385
0.499428 0.830442 0.413947
0.546410 0.832090 0.408759
0.595880 0.838499 0.394812
0.645777 0.844541 0.379370
0.695247 0.850065 0.361761
0.743282 0.855039 0.341711
0.789364 0.859617 0.318029
0.832761 0.863767 0.290013
0.872953 0.867674 0.256992
0.913817 0.875608 0.221317
0.953185 0.888609 0.190860
0.970184 0.886351 0.219669
0.984894 0.884337 0.249577
0.998627 0.883757 0.282689
1.000000 0.884733 0.319341
0.000000 0.902312 0.503868
0.000000 0.902434 0.504082
0.000000 0.902373 0.504112
0.000000 0.902037 0.503899
0.000000 0.901366 0.503777
0.000000 0.900481 0.503960
0.000000 0.899382 0.505089
0.000000 0.897978 0.507500
0.000000 0.896025 0.511681
0.142519 0.893523 0.518059
0.271946 0.890166 0.526970
0.305425 0.888731 0.513054
0.324407 0.887602 0.491798
0.343450 0.886168 0.468238
0.369512 0.883787 0.447059
0.428443 0.878325 0.452705
0.480018 0.872618 0.458686
0.525902 0.866819 0.465461
0.567529 0.861082 0.472938
0.610712 0.865568 0.462593
0.654963 0.870451 0.449836
0.699489 0.874907 0.435462
0.743221 0.878935 0.418708
0.785794 0.882536 0.399115
0.826383 0.885832 0.376837
0.864408 0.888975 0.350774
0.899870 0.891997 0.320195
0.935546 0.897917 0.288334
0.970611 0.908568 0.260319
0.986297 0.907012 0.285924
0.999359 0.905425 0.317113
1.000000 0.905272 0.352514
0.000000 0.930083 0.536675
0.000000 0.930053 0.536919
0.000000 0.929870 0.537041
0.000000 0.929381 0.537102
0.000000 0.928496 0.537377
0.000000 0.927337 0.538293
0.000000 0.925811 0.540002
0.000000 0.923857 0.543114
0.000000 0.921355 0.547814
0.205692 0.918242 0.554650
0.312291 0.914336 0.563684
0.367590 0.911406 0.562310
0.382330 0.910216 0.543908
0.397406 0.908782 0.523095
0.412604 0.907225 0.500481
0.452338 0.903410 0.495033
