其他预设/【234】港风调色预设/1.3D LUT预设（视频调色-PR-AE-PS-FCPX-达芬奇用）/4.港风色调 __.cube
# Created by Adobe Lightroom plugin Export LUT (1.17.0)
# www.johnrellis.com/lightroom/exportlut.htm
# Preset: 4.港风色调 [素锦印象]
# Color profile: /Library/Application Support/Adobe/Color/Profiles/Recommended/AdobeRGB1998.icc
LUT_3D_SIZE 5
DOMAIN_MIN 0.000000 0.000000 0.000000
DOMAIN_MAX 0.903226 0.903226 0.903226
0.106264 0.115694 0.123690
0.158145 0.124727 0.127443
0.455634 0.118685 0.116060
0.820493 0.191073 0.007568
0.994873 0.390387 0.066316
0.101778 0.157656 0.140078
0.148836 0.164523 0.130312
0.444129 0.201266 0.114961
0.812436 0.286076 0.000000
0.994385 0.448035 0.000000
0.000000 0.378241 0.210544
0.064271 0.371344 0.167788
0.429328 0.448096 0.094697
0.806912 0.506035 0.000000
0.982940 0.587030 0.000000
0.000000 0.734737 0.368078
0.000000 0.731136 0.350561
0.317937 0.698756 0.269017
0.754971 0.757595 0.077668
0.973266 0.786343 0.145480
0.000000 0.951049 0.564050
0.000000 0.944579 0.574731
0.450721 0.923919 0.546258
0.706844 0.908782 0.547631
0.936400 0.925170 0.420050
0.102113 0.124300 0.166842
0.152804 0.126619 0.170443
0.439033 0.100984 0.173098
0.799557 0.169863 0.158816
0.988556 0.390631 0.148806
0.095033 0.162173 0.182437
0.150668 0.167239 0.183749
0.437659 0.192020 0.183352
0.796262 0.267430 0.162997
0.986175 0.442695 0.161471
0.000000 0.398199 0.283391
0.066529 0.393744 0.261936
0.417456 0.430610 0.196384
0.789609 0.484688 0.186862
0.977813 0.589837 0.216770
0.000000 0.742031 0.436988
0.000000 0.738521 0.423316
0.349767 0.707698 0.354833
0.753719 0.754391 0.258396
0.967559 0.785367 0.301732
0.000000 0.953552 0.597223
0.000000 0.947478 0.603845
0.518730 0.924529 0.621393
0.718318 0.907958 0.602106
0.934173 0.925780 0.503349
0.000000 0.150881 0.376562
0.100862 0.145327 0.407019
0.478645 0.068910 0.433448
0.810330 0.098268 0.411719
0.971374 0.453986 0.476265
0.000000 0.213230 0.360021
0.065827 0.203861 0.401434
0.470771 0.204562 0.444160
0.795163 0.240055 0.416968
0.970092 0.493477 0.479255
0.000000 0.391272 0.457801
0.000000 0.398535 0.458228
0.425177 0.422675 0.462684
0.770626 0.502037 0.478096
0.961975 0.617975 0.502190
0.000000 0.769467 0.624292
0.000000 0.762936 0.608179
0.439063 0.732082 0.583398
0.748470 0.747738 0.539147
0.947967 0.784756 0.563714
0.000000 0.960540 0.706081
0.000000 0.957397 0.702602
0.491554 0.933288 0.711666
0.733791 0.904906 0.702663
0.925017 0.923888 0.656733
0.000000 0.217624 0.689631
0.000000 0.202487 0.705531
0.535302 0.199191 0.753902
0.810208 0.332250 0.733516
0.955566 0.582544 0.746609
0.000000 0.306249 0.674525
0.000000 0.281010 0.694026
0.513298 0.302861 0.744594
0.800931 0.417639 0.735439
0.951141 0.608179 0.747585
0.000000 0.453498 0.664149
0.000000 0.454170 0.660731
0.419135 0.479469 0.704585
0.772763 0.577813 0.737850
0.941314 0.673152 0.745083
0.000000 0.700954 0.742031
0.000000 0.702785 0.740291
0.354040 0.709682 0.738430
0.731533 0.725277 0.740017
0.930022 0.790738 0.754116
0.000000 0.963378 0.840635
0.000000 0.964813 0.840024
0.291905 0.956664 0.835721
0.755520 0.920500 0.822293
0.917784 0.923430 0.803952
0.000000 0.385870 0.891325
0.000000 0.362158 0.894865
0.561456 0.411749 0.903197
0.851865 0.556695 0.916136
0.939849 0.662684 0.888548
0.000000 0.470649 0.882933
0.149508 0.440681 0.887449
0.548363 0.462867 0.898100
0.842100 0.590784 0.912200
0.936736 0.686580 0.889006
0.000000 0.581048 0.858640
0.000000 0.576867 0.863523
0.485542 0.581659 0.881437
0.808194 0.670283 0.902678
0.931060 0.759335 0.894804
0.000000 0.742214 0.876951
0.000000 0.738247 0.874235
0.300053 0.727504 0.866575
0.713924 0.747738 0.882994
0.927123 0.850217 0.908141
0.000000 0.918242 0.907713
0.000000 0.918212 0.907591
0.251438 0.916289 0.908141
0.678279 0.907805 0.905974
0.905974 0.912078 0.907683
