其他预设/【234】港风调色预设/1.3D LUT预设（视频调色-PR-AE-PS-FCPX-达芬奇用）/4.港风色调 __.cube
# Created by Adobe Lightroom plugin Export LUT (1.17.0)
# www.johnrellis.com/lightroom/exportlut.htm
# Preset: 4.港风色调 [素锦印象]
# Color profile: /Library/Application Support/Adobe/Color/Profiles/Recommended/AdobeRGB1998.icc
LUT_3D_SIZE 8
DOMAIN_MIN 0.000000 0.000000 0.000000
DOMAIN_MAX 0.903226 0.903226 0.903226
0.106264 0.115694 0.123690
0.121798 0.119020 0.125490
0.178073 0.127291 0.127626
0.332647 0.130861 0.123934
0.580041 0.104707 0.102296
0.782345 0.164645 0.044892
0.911040 0.273869 0.000000
0.994873 0.390387 0.066316
0.105592 0.128817 0.129091
0.119081 0.130129 0.126680
0.174441 0.138613 0.127321
0.322515 0.152163 0.122530
0.568658 0.147982 0.099336
0.769406 0.196567 0.029145
0.903197 0.291386 0.000000
0.991333 0.401404 0.036286
0.098817 0.172915 0.145632
0.110079 0.171664 0.139010
0.165408 0.183383 0.131289
0.326757 0.214298 0.123842
0.572992 0.239506 0.096895
0.769558 0.290990 0.000000
0.907439 0.374334 0.000000
0.992676 0.462593 0.000000
0.004639 0.287388 0.182773
0.072755 0.285527 0.175723
0.139925 0.272404 0.155734
0.313359 0.338964 0.121096
0.605127 0.406897 0.042390
0.774044 0.419623 0.000000
0.902647 0.474952 0.000000
0.987304 0.542199 0.000000
0.000000 0.488838 0.247745
0.000000 0.486946 0.237766
0.000000 0.477790 0.181857
0.245182 0.476478 0.169711
0.536828 0.547326 0.035554
0.773739 0.593194 0.000000
0.893400 0.598993 0.000000
0.978820 0.636133 0.070344
0.000000 0.687190 0.339361
0.000000 0.691463 0.334386
0.000000 0.684779 0.312230
0.183017 0.666224 0.231998
0.452857 0.676417 0.206516
0.717586 0.721248 0.000000
0.896361 0.755764 0.000000
0.974548 0.757504 0.134310
0.000000 0.845304 0.449653
0.000000 0.845090 0.447578
0.000000 0.837949 0.444587
0.204013 0.827207 0.377478
0.440681 0.802914 0.370733
0.651667 0.822293 0.321782
0.847684 0.844785 0.210025
0.970703 0.863828 0.198093
0.000000 0.951049 0.564050
0.000000 0.949401 0.566094
0.117708 0.941955 0.580774
0.440497 0.929870 0.594202
0.516350 0.917967 0.534478
0.670527 0.905180 0.556146
0.813199 0.917235 0.510613
0.936400 0.925170 0.420050
0.106172 0.119265 0.137881
0.119478 0.119966 0.137545
0.173526 0.127901 0.139925
0.318120 0.134310 0.139925
0.563043 0.108339 0.124392
0.762844 0.157382 0.092683
0.899413 0.269261 0.010285
0.989563 0.386084 0.044556
0.104219 0.129885 0.141726
0.119478 0.131228 0.141970
0.172061 0.140169 0.143343
0.315862 0.151095 0.141115
0.559960 0.143008 0.125185
0.756954 0.187747 0.093080
0.893614 0.285801 0.010040
0.985870 0.396674 0.002258
0.095430 0.175875 0.160006
0.114076 0.175998 0.158724
0.166018 0.183627 0.148318
0.317174 0.208072 0.145052
0.558434 0.231724 0.126436
0.755306 0.279057 0.092592
0.894133 0.358892 0.013519
0.986175 0.454078 0.000000
0.000000 0.288304 0.200748
0.067964 0.287724 0.195407
0.142611 0.278843 0.172427
0.302281 0.326329 0.146090
0.574426 0.380804 0.111452
0.752163 0.400702 0.092927
0.888853 0.459266 0.047822
0.980682 0.532555 0.055848
0.000000 0.490852 0.271366
0.000000 0.487922 0.261295
0.000000 0.478248 0.220493
0.243015 0.464942 0.195651
0.522942 0.532616 0.111421
0.761318 0.579309 0.000000
0.885832 0.589319 0.074159
0.974456 0.631342 0.134066
0.000000 0.683131 0.358343
0.000000 0.682155 0.350744
0.000000 0.676387 0.332677
0.185580 0.660639 0.254093
0.449744 0.669032 0.237858
0.714412 0.717281 0.125246
0.892393 0.751369 0.078431
0.971099 0.753780 0.185611
0.000000 0.839292 0.460273
0.000000 0.837125 0.455879
0.000000 0.831388 0.451972
0.230716 0.821744 0.404883
0.443000 0.800198 0.387610
0.648402 0.817563 0.345708
0.842710 0.840299 0.243900
0.966461 0.859770 0.232944
0.000000 0.949187 0.569940
0.000000 0.947997 0.572107
0.000000 0.941070 0.585229
0.454078 0.927672 0.609888
0.530816 0.920317 0.555749
0.676112 0.905241 0.574121
0.812680 0.916228 0.527062
0.934295 0.923949 0.439887
0.098054 0.126558 0.183047
0.113741 0.125673 0.186618
0.173037 0.129183 0.189548
0.334874 0.101564 0.190066
0.569726 0.019684 0.191379
0.764828 0.139345 0.192416
0.901030 0.271305 0.189181
0.989899 0.398199 0.194949
0.102846 0.142092 0.183291
0.113741 0.140291 0.189700
0.171633 0.143282 0.193271
0.326543 0.125551 0.189761
0.563409 0.113771 0.195499
0.759030 0.175875 0.192844
0.896757 0.289616 0.188663
0.987610 0.410559 0.195468
0.084749 0.179538 0.204562
0.102815 0.181125 0.205081
0.168582 0.187076 0.206485
0.320623 0.206149 0.208896
0.566003 0.225132 0.206577
0.757900 0.276646 0.200107
0.893950 0.362371 0.197421
0.984436 0.461830 0.207584
0.000000 0.313390 0.274235
0.000000 0.313420 0.268132
0.150362 0.309392 0.250523
0.313756 0.331548 0.223148
0.572412 0.368200 0.218387
0.755428 0.405737 0.215946
0.890105 0.468208 0.218204
0.979522 0.543847 0.235233
0.000000 0.511040 0.350439
0.000000 0.509972 0.343023
0.000000 0.504143 0.322026
0.266850 0.481056 0.283482
0.535088 0.538048 0.233677
0.758358 0.573083 0.222965
0.882170 0.588281 0.250065
0.971496 0.640345 0.278782
0.000000 0.695277 0.430121
0.000000 0.694453 0.424750
0.000000 0.688197 0.409461
0.238956 0.672480 0.356085
0.461311 0.663874 0.340673
0.712734 0.713069 0.274083
0.885557 0.745998 0.272343
0.966278 0.755764 0.328923
0.000000 0.847318 0.517418
0.000000 0.845640 0.514244
0.000000 0.838743 0.507897
0.340734 0.823209 0.510887
0.469673 0.804746 0.457862
0.655543 0.815061 0.437659
0.843320 0.841611 0.369757
0.962951 0.861875 0.373388
0.000000 0.952422 0.605219
0.000000 0.950805 0.604273
0.000000 0.943969 0.612024
0.461738 0.929198 0.646571
0.552789 0.920806 0.602014
0.687282 0.903777 0.619043
0.815183 0.915465 0.585199
0.932128 0.924620 0.519677
0.000000 0.140078 0.290654
0.051026 0.136934 0.300145
0.181827 0.135561 0.328161
0.343114 0.115877 0.329351
0.603265 0.000000 0.337011
0.764462 0.000000 0.311681
0.889525 0.279118 0.348211
0.980011 0.418952 0.370703
0.032593 0.163943 0.292912
0.058381 0.156558 0.303136
0.175631 0.154269 0.329870
0.342351 0.142519 0.333745
0.597284 0.003510 0.338659
0.756283 0.128176 0.324102
0.886870 0.301396 0.350317
0.978943 0.430274 0.369970
0.000000 0.206058 0.297795
0.058991 0.207218 0.298528
0.148348 0.207614 0.324468
0.334264 0.218082 0.345006
0.577661 0.202274 0.341222
0.751705 0.284184 0.355718
0.889342 0.387884 0.374334
0.978241 0.486244 0.386419
0.000000 0.301610 0.356817
0.000000 0.304051 0.357488
0.098085 0.313390 0.360235
0.316930 0.328405 0.364477
0.555810 0.363745 0.371191
0.743771 0.414191 0.378607
0.880797 0.483223 0.389746
0.971832 0.563043 0.407721
0.000000 0.523430 0.471687
0.000000 0.528771 0.471382
0.000000 0.540887 0.464302
0.314946 0.521355 0.436744
0.541497 0.536828 0.402686
0.744869 0.564294 0.410254
0.874510 0.601862 0.425818
0.963714 0.657588 0.444038
0.000000 0.721004 0.547723
0.000000 0.723690 0.545281
0.000000 0.715846 0.528283
0.310491 0.697353 0.514061
0.497230 0.666773 0.484443
0.715511 0.713741 0.449378
0.874601 0.743069 0.457710
0.955993 0.759823 0.491798
0.000000 0.858579 0.604425
0.000000 0.858091 0.601953
0.000000 0.853635 0.594842
0.327428 0.838926 0.594690
0.516533 0.819242 0.563073
0.670832 0.813565 0.558251
0.841428 0.841978 0.516808
0.953491 0.861784 0.524163
0.000000 0.959258 0.670527
0.000000 0.958404 0.669612
0.000000 0.953063 0.667689
0.388495 0.938262 0.680232
0.619226 0.919402 0.695674
0.703334 0.907378 0.673396
0.817502 0.913939 0.659388
0.928344 0.925109 0.615839
0.000000 0.164736 0.470527
0.000000 0.155520 0.480079
0.098299 0.154818 0.509209
0.417395 0.101106 0.560357
0.604913 0.056306 0.537835
0.787686 0.204471 0.540185
0.893889 0.299504 0.518578
0.962310 0.490242 0.568505
0.000000 0.194644 0.469520
0.000000 0.182498 0.479805
0.081147 0.175174 0.508934
0.407965 0.147951 0.558312
0.601312 0.136782 0.539452
0.783749 0.242863 0.542626
0.891203 0.323796 0.521447
0.959869 0.507683 0.574273
0.000000 0.249699 0.442847
0.000000 0.250919 0.455573
0.000000 0.239536 0.495338
0.371344 0.248539 0.548455
0.587488 0.265019 0.543664
0.766415 0.332830 0.544945
0.880278 0.386206 0.525078
0.957610 0.536339 0.572107
0.000000 0.334600 0.484535
0.000000 0.335302 0.484291
0.000000 0.340673 0.484901
0.304692 0.358740 0.523400
0.566918 0.402564 0.553399
0.742672 0.437171 0.548333
0.862699 0.510521 0.558251
0.957549 0.587121 0.568109
0.000000 0.486519 0.553338
0.000000 0.488685 0.553643
0.000000 0.495735 0.553521
0.266758 0.507378 0.554437
0.529747 0.518517 0.555261
0.719326 0.558892 0.562310
0.858457 0.610040 0.571557
0.951934 0.668635 0.582391
0.000000 0.691188 0.634974
0.000000 0.694759 0.635554
0.000000 0.704768 0.635798
0.189364 0.717128 0.635248
0.529900 0.685023 0.609461
0.706081 0.701991 0.590600
0.856565 0.732479 0.603967
0.944427 0.763699 0.619379
0.000000 0.871702 0.710567
0.000000 0.870451 0.707118
0.000000 0.865721 0.697200
0.208957 0.853147 0.684352
0.547295 0.829648 0.676509
0.678096 0.803769 0.656275
0.835111 0.838254 0.636194
0.941405 0.857267 0.644099
0.000000 0.964141 0.747402
0.000000 0.963256 0.745541
0.000000 0.958953 0.740108
0.247074 0.949035 0.738552
0.578790 0.928893 0.743587
0.712886 0.912963 0.729732
0.816159 0.910094 0.728756
0.922881 0.924041 0.701869
0.000000 0.205386 0.654597
0.000000 0.191196 0.660304
0.000000 0.191135 0.676875
0.389410 0.177981 0.708034
0.660212 0.184421 0.736538
0.780179 0.277287 0.701961
0.894102 0.469856 0.715877
0.958984 0.556420 0.712795
0.000000 0.236698 0.647608
0.000000 0.223484 0.653162
0.000000 0.211154 0.671473
0.379156 0.208865 0.702754
0.655390 0.229221 0.734035
0.775662 0.308141 0.701137
0.891203 0.484016 0.716213
0.957458 0.564294 0.712886
0.000000 0.309850 0.629664
0.000000 0.308843 0.637263
0.000000 0.288640 0.661982
0.353460 0.296422 0.695308
0.651453 0.352453 0.736049
0.767880 0.404608 0.706294
0.884459 0.534142 0.721492
0.953552 0.594965 0.715846
0.000000 0.390692 0.620233
0.000000 0.390356 0.618555
0.000000 0.395727 0.624567
0.311070 0.409216 0.676539
0.614160 0.473121 0.724697
0.758175 0.522210 0.716670
0.875151 0.600244 0.727932
0.948608 0.637263 0.716884
0.000000 0.509270 0.661189
0.000000 0.510094 0.660822
0.000000 0.513237 0.659327
0.248142 0.519341 0.656214
0.526970 0.547204 0.686000
0.733425 0.610468 0.715145
0.856626 0.645624 0.714961
0.936126 0.698360 0.719997
0.000000 0.658778 0.707210
0.000000 0.661311 0.708186
0.000000 0.665644 0.707790
0.196567 0.671046 0.706935
0.493568 0.676020 0.705562
0.697719 0.688838 0.708431
0.840360 0.728725 0.717891
0.934905 0.770748 0.726467
0.000000 0.839811 0.774258
0.000000 0.842222 0.775113
0.000000 0.846860 0.775814
0.000000 0.851774 0.776974
0.492744 0.855467 0.779385
0.707210 0.826474 0.757595
0.831205 0.835721 0.743252
0.930510 0.854429 0.752956
0.000000 0.968566 0.828183
0.000000 0.968933 0.827634
0.000000 0.969696 0.826261
0.000000 0.960845 0.818662
0.499367 0.942809 0.809598
0.723323 0.921263 0.806241
0.817288 0.904540 0.796506
0.918822 0.923766 0.785428
0.000000 0.272831 0.793851
0.000000 0.260929 0.798276
0.000000 0.257359 0.806577
0.392737 0.269505 0.821103
0.654170 0.320348 0.839780
0.815030 0.401526 0.846372
0.882353 0.495552 0.816129
0.947814 0.660090 0.829526
0.000000 0.301488 0.785672
0.000000 0.290166 0.789914
0.000000 0.273533 0.799649
0.379370 0.288121 0.814359
0.642969 0.337316 0.833524
0.807645 0.413855 0.841276
0.876463 0.498512 0.811185
0.944762 0.657710 0.825498
0.000000 0.385168 0.777066
0.000000 0.385199 0.780789
0.000000 0.357519 0.791745
0.361608 0.360815 0.808286
0.629358 0.415900 0.827970
0.803677 0.493172 0.841459
0.873716 0.558404 0.816587
0.943481 0.693080 0.832670
0.000000 0.464027 0.753964
0.000000 0.463478 0.756710
0.000000 0.466224 0.769345
0.339605 0.465858 0.794614
0.600763 0.509514 0.818936
0.799771 0.596490 0.844388
0.869657 0.637079 0.824643
0.940490 0.732479 0.838376
0.000000 0.554772 0.764065
0.000000 0.553094 0.762020
0.000000 0.550286 0.757015
0.213626 0.548425 0.750393
0.525841 0.577111 0.792630
0.761044 0.655634 0.830472
0.856992 0.698848 0.824826
0.934661 0.766110 0.838102
0.000000 0.673243 0.791684
0.000000 0.673396 0.791257
0.000000 0.673640 0.789395
0.162570 0.673854 0.786465
0.454719 0.672572 0.779843
0.687373 0.703548 0.803891
0.847257 0.771450 0.831479
0.928008 0.800076 0.833616
0.000000 0.805173 0.823819
0.000000 0.806607 0.824338
0.000000 0.808225 0.823972
0.013825 0.809812 0.823514
0.455818 0.808804 0.821134
0.663142 0.810056 0.819547
0.818357 0.820279 0.822477
0.919432 0.850278 0.831632
0.000000 0.938231 0.867338
0.000000 0.939910 0.868315
0.000000 0.945464 0.872313
0.000000 0.945403 0.873014
0.435584 0.940856 0.873259
0.678584 0.936797 0.875486
0.831754 0.917235 0.863066
0.915892 0.922759 0.856077
0.000000 0.385870 0.891325
0.000000 0.375982 0.893095
0.164614 0.365362 0.895537
0.451179 0.389899 0.900237
0.660151 0.441993 0.906310
0.820371 0.529351 0.913848
0.903441 0.590082 0.912871
0.939849 0.662684 0.888548
0.000000 0.410651 0.887510
0.000000 0.401831 0.889372
0.150484 0.379767 0.892943
0.443519 0.403326 0.897459
0.654414 0.454170 0.903929
0.816129 0.538293 0.911864
0.900786 0.596765 0.911223
0.938109 0.665980 0.887449
0.000000 0.486488 0.879698
0.090974 0.485878 0.881193
0.208560 0.453986 0.885130
0.429847 0.456825 0.893431
0.643244 0.503502 0.900053
0.806394 0.577081 0.908385
0.896422 0.634363 0.910063
0.935546 0.692805 0.888762
0.000000 0.543572 0.868132
0.000000 0.545159 0.869993
0.218021 0.550164 0.874235
0.415656 0.541588 0.884215
0.614710 0.565423 0.893980
0.789670 0.632410 0.904387
0.891478 0.693080 0.910491
0.932921 0.736385 0.892821
0.000000 0.621118 0.857542
0.000000 0.621302 0.857389
0.000000 0.616815 0.854551
0.295628 0.614496 0.865721
0.554345 0.626856 0.881132
0.750851 0.675929 0.895903
0.883543 0.751919 0.910460
0.929747 0.785550 0.898039
0.000000 0.713252 0.871000
0.000000 0.711574 0.869871
0.000000 0.706935 0.866758
0.121065 0.700069 0.862181
0.414771 0.691859 0.854887
0.682643 0.722377 0.881956
0.865782 0.803708 0.908873
0.928527 0.840085 0.907164
0.000000 0.817685 0.888029
0.000000 0.816953 0.887419
0.000000 0.814542 0.885740
0.000000 0.811673 0.883665
0.404242 0.807279 0.880156
0.609888 0.802182 0.874846
0.807218 0.827268 0.891356
0.922515 0.880308 0.911345
0.000000 0.918242 0.907713
0.000000 0.918090 0.907530
0.000000 0.918334 0.907713
0.000000 0.918120 0.908507
0.413428 0.913909 0.907561
0.633570 0.908812 0.906249
0.792691 0.906432 0.905364
0.905974 0.912078 0.907683
