其他预设/【234】港风调色预设/1.3D LUT预设（视频调色-PR-AE-PS-FCPX-达芬奇用）/6.港风色调 __.cube
# Created by Adobe Lightroom plugin Export LUT (1.17.0)
# www.johnrellis.com/lightroom/exportlut.htm
# Preset: 6.港风色调 [素锦印象]
# Color profile: /Library/Application Support/Adobe/Color/Profiles/Recommended/AdobeRGB1998.icc
LUT_3D_SIZE 5
DOMAIN_MIN 0.000000 0.000000 0.000000
DOMAIN_MAX 0.903226 0.903226 0.903226
0.039857 0.074037 0.083894
0.121340 0.085481 0.092805
0.428962 0.070710 0.089815
0.729000 0.197177 0.089906
0.933501 0.442481 0.236118
0.049836 0.144106 0.094881
0.160220 0.167300 0.088167
0.445075 0.165469 0.070741
0.733822 0.262821 0.061524
0.935424 0.473091 0.228275
0.005676 0.488167 0.093019
0.335241 0.518639 0.241245
0.619440 0.583520 0.000000
0.767575 0.459785 0.000000
0.937560 0.561852 0.188937
0.313664 0.785245 0.244541
0.484962 0.792905 0.371069
0.739620 0.824765 0.578180
0.876188 0.841428 0.277775
0.967315 0.766110 0.163577
0.584436 0.937926 0.501793
0.667201 0.933928 0.584283
0.834318 0.928069 0.781613
0.906279 0.939025 0.837644
0.973083 0.943847 0.573938
0.026246 0.084932 0.154208
0.132570 0.091646 0.143893
0.444556 0.112276 0.116426
0.730617 0.231724 0.077272
0.933349 0.448859 0.233097
0.000000 0.177310 0.185794
0.153780 0.166506 0.186770
0.462348 0.191745 0.133211
0.735805 0.286046 0.029206
0.934478 0.476417 0.224277
0.000000 0.464118 0.142153
0.248692 0.497902 0.243717
0.599786 0.565362 0.248173
0.765438 0.463416 0.000000
0.938750 0.565454 0.190341
0.227054 0.774411 0.247959
0.432532 0.782681 0.369787
0.730709 0.815946 0.611383
0.867033 0.838346 0.422004
0.968231 0.766110 0.169558
0.541802 0.938445 0.484627
0.634455 0.934234 0.567468
0.821775 0.927977 0.772641
0.907469 0.939055 0.850980
0.967712 0.943999 0.642451
0.000000 0.116487 0.420294
0.262272 0.122499 0.425269
0.533898 0.197269 0.412696
0.763424 0.273686 0.330388
0.941283 0.470497 0.259281
0.000000 0.225437 0.427375
0.205966 0.223484 0.447242
0.538720 0.317174 0.444862
0.746548 0.377173 0.365454
0.942138 0.493965 0.260105
0.000000 0.519493 0.473945
0.000000 0.519463 0.479561
0.531334 0.508965 0.505364
0.752407 0.519158 0.418585
0.942870 0.579217 0.283421
0.000000 0.722408 0.361273
0.230167 0.732357 0.387793
0.627710 0.776547 0.589654
0.838865 0.826078 0.642634
0.950988 0.750423 0.401892
0.397742 0.933684 0.476783
0.490913 0.933318 0.520287
0.740017 0.927367 0.706325
0.902617 0.936461 0.868070
0.955413 0.943664 0.771054
0.176486 0.223972 0.692653
0.374914 0.248783 0.699245
0.681880 0.406012 0.716274
0.807553 0.516258 0.696223
0.943694 0.580255 0.653559
0.079133 0.308568 0.691402
0.332616 0.327642 0.699245
0.668238 0.461982 0.720699
0.804074 0.569116 0.708888
0.940215 0.600702 0.654963
0.000000 0.522728 0.673091
0.041749 0.512932 0.673823
0.567010 0.550103 0.717403
0.794675 0.678920 0.739101
0.922942 0.680171 0.669581
0.000000 0.783383 0.716854
0.000000 0.779294 0.717617
0.466621 0.768734 0.725521
0.771542 0.770352 0.761318
0.920256 0.761074 0.668391
0.245426 0.916167 0.653956
0.344976 0.915892 0.656550
0.554528 0.915435 0.665919
0.840513 0.924315 0.831632
0.945495 0.943359 0.870390
0.513481 0.481270 0.895903
0.589593 0.505333 0.895445
0.761959 0.598566 0.894316
0.888060 0.726772 0.892699
0.929686 0.771450 0.868681
0.479713 0.515740 0.894316
0.563592 0.537285 0.894133
0.749508 0.622034 0.893950
0.886809 0.752193 0.894316
0.928527 0.787655 0.873045
0.293706 0.621881 0.883360
0.409766 0.620508 0.885893
0.672694 0.661463 0.892149
0.873960 0.790829 0.898192
0.926604 0.830869 0.886625
0.178286 0.819638 0.887114
0.274998 0.811490 0.885985
0.465980 0.778561 0.882322
0.791379 0.795041 0.895293
0.926757 0.883330 0.906859
0.306249 0.965118 0.903899
0.366186 0.962127 0.903593
0.522881 0.951659 0.902892
0.719020 0.932067 0.902098
0.917906 0.922759 0.918578
