其他预设/【234】港风调色预设/1.3D LUT预设（视频调色-PR-AE-PS-FCPX-达芬奇用）/6.港风色调 __.cube
# Created by Adobe Lightroom plugin Export LUT (1.17.0)
# www.johnrellis.com/lightroom/exportlut.htm
# Preset: 6.港风色调 [素锦印象]
# Color profile: /Library/Application Support/Adobe/Color/Profiles/Recommended/AdobeRGB1998.icc
LUT_3D_SIZE 32
0.039857 0.074037 0.083894
0.044526 0.074556 0.084443
0.050538 0.075288 0.084932
0.060487 0.076967 0.086152
0.069978 0.079194 0.088106
0.081941 0.081392 0.089937
0.098756 0.083528 0.091524
0.121340 0.085481 0.092805
0.150240 0.086946 0.093874
0.185946 0.087312 0.094606
0.227665 0.086213 0.094759
0.274510 0.083497 0.094362
0.324743 0.079011 0.093355
0.376684 0.074159 0.091737
0.428962 0.070710 0.089815
0.479438 0.071504 0.087129
0.527031 0.079683 0.084657
0.571099 0.094972 0.082551
0.611810 0.115145 0.081605
0.651118 0.138949 0.081849
0.691493 0.167208 0.084199
0.729000 0.197177 0.089906
0.764126 0.228458 0.099275
0.797177 0.261112 0.111818
0.828367 0.294774 0.128084
0.857633 0.329778 0.148257
0.884947 0.366033 0.172702
0.910277 0.403632 0.201663
0.933501 0.442481 0.236118
0.954437 0.482673 0.276188
0.972808 0.524254 0.322667
0.988403 0.567285 0.375616
0.039979 0.075929 0.084382
0.045228 0.076020 0.084321
0.051179 0.076326 0.084871
0.061433 0.077577 0.086091
0.070344 0.079866 0.088075
0.082643 0.082277 0.089570
0.099275 0.084443 0.091432
0.121462 0.086702 0.092714
0.150546 0.088106 0.093538
0.186313 0.088746 0.094209
0.227817 0.088014 0.094606
0.274601 0.085695 0.094209
0.324437 0.081697 0.093202
0.376562 0.077607 0.091524
0.428504 0.074830 0.089357
0.478737 0.076387 0.086641
0.526482 0.084565 0.084108
0.570459 0.098634 0.082063
0.611048 0.118044 0.081178
0.650629 0.141238 0.081361
0.690517 0.168795 0.083894
0.727871 0.198093 0.089265
0.762875 0.229160 0.098238
0.795987 0.261387 0.111025
0.827268 0.294987 0.127047
0.856626 0.329747 0.146975
0.884092 0.365850 0.171511
0.909514 0.403265 0.200381
0.932830 0.442115 0.234897
0.953887 0.482307 0.274723
0.972381 0.523735 0.320989
0.988067 0.566583 0.373907
0.040894 0.078340 0.085084
0.046418 0.078370 0.086488
0.051179 0.078828 0.084962
0.061646 0.079316 0.085969
0.071077 0.081117 0.087678
0.083223 0.083528 0.089479
0.099794 0.085603 0.091066
0.122286 0.088045 0.092592
0.151339 0.089693 0.093355
0.187045 0.090547 0.094026
0.228275 0.090211 0.094148
0.274968 0.088594 0.093690
0.324865 0.085603 0.092592
0.376745 0.082246 0.091188
0.428504 0.080568 0.088685
0.478798 0.081575 0.086244
0.526390 0.090272 0.083314
0.570306 0.103792 0.081239
0.610925 0.122255 0.079713
0.650538 0.145113 0.080476
0.690242 0.171847 0.082490
0.727474 0.200473 0.088319
0.762417 0.230930 0.097475
0.795499 0.262791 0.109560
0.826749 0.296300 0.125765
0.856138 0.330663 0.146273
0.883635 0.366766 0.170535
0.909148 0.403967 0.199557
0.932525 0.442542 0.233799
0.953613 0.482643 0.273960
0.972137 0.523949 0.320134
0.987884 0.566796 0.372992
0.044312 0.084199 0.086915
0.050507 0.084108 0.089448
0.054261 0.083833 0.089967
0.062379 0.085237 0.086366
0.073060 0.085481 0.087007
0.084657 0.086488 0.089204
0.101534 0.088716 0.090486
0.123873 0.091279 0.091981
0.153292 0.093233 0.092744
0.188785 0.094820 0.093324
0.230167 0.095094 0.093355
0.276707 0.094270 0.093080
0.326390 0.092927 0.091829
0.377905 0.091218 0.089784
0.429450 0.090333 0.087434
0.479561 0.093660 0.084504
0.526909 0.101320 0.081788
0.570428 0.114168 0.079347
0.610895 0.131228 0.078065
0.650538 0.152987 0.078096
0.689906 0.178470 0.080659
0.726833 0.205844 0.085603
0.761746 0.235721 0.095308
0.794858 0.266911 0.107210
0.826352 0.299687 0.123964
0.855924 0.334051 0.144472
0.883574 0.369665 0.168887
0.909148 0.406714 0.198306
0.932555 0.445045 0.233005
0.953582 0.484749 0.273136
0.972076 0.525628 0.319158
0.987762 0.567956 0.372137
0.047974 0.092226 0.089357
0.053590 0.092439 0.091493
0.059297 0.092561 0.094087
0.063722 0.091829 0.094057
0.073945 0.094850 0.088197
0.089693 0.096071 0.087709
0.104128 0.094118 0.089693
0.126802 0.096620 0.091157
0.156039 0.099092 0.091829
0.191562 0.101656 0.092287
0.232822 0.103243 0.092439
0.279240 0.103822 0.091432
0.328557 0.104067 0.090028
0.379797 0.104067 0.088045
0.431098 0.105043 0.085176
0.481025 0.109041 0.082277
0.528130 0.116701 0.079042
0.571527 0.128725 0.076356
0.611749 0.144930 0.074525
0.651637 0.165042 0.074678
0.690425 0.189029 0.076753
0.727108 0.215396 0.082216
0.761746 0.243687 0.091707
0.794858 0.273869 0.104768
0.826200 0.305852 0.121157
0.855772 0.339239 0.141909
0.883391 0.374487 0.166995
0.908965 0.410651 0.196384
0.932341 0.448402 0.231113
0.953368 0.487495 0.271244
0.971893 0.527977 0.317510
0.987640 0.569879 0.370459
0.050172 0.103426 0.091341
0.055634 0.103853 0.093416
0.060853 0.104189 0.095918
0.068482 0.104402 0.098543
0.076173 0.105104 0.097108
0.091615 0.109743 0.089418
0.115877 0.112856 0.087160
0.135470 0.109255 0.089052
0.160311 0.108064 0.090455
0.195895 0.111452 0.090761
0.237400 0.114046 0.090425
0.283268 0.116182 0.089479
0.332311 0.118105 0.087770
0.383215 0.119844 0.085176
0.434180 0.122469 0.082216
0.483619 0.127474 0.078676
0.530236 0.135378 0.075074
0.573297 0.146761 0.072023
0.613458 0.161685 0.069856
0.653468 0.180850 0.069612
0.691859 0.203159 0.071443
0.728298 0.228031 0.076997
0.770687 0.262547 0.089693
0.803220 0.292027 0.104280
0.833799 0.323125 0.122072
0.862455 0.355474 0.143984
0.889128 0.389227 0.169711
0.913725 0.424292 0.200473
0.936248 0.460700 0.235447
0.956573 0.498665 0.276280
0.974304 0.537865 0.323125
0.989410 0.578607 0.376196
0.050935 0.120363 0.093355
0.057313 0.120912 0.095308
0.062715 0.121736 0.097444
0.073945 0.123140 0.103670
0.083955 0.123384 0.104372
0.097566 0.126802 0.099672
0.120424 0.133608 0.089570
0.156313 0.141085 0.083650
0.180697 0.134279 0.086152
0.207309 0.127962 0.087770
0.245243 0.128908 0.087678
0.291295 0.132326 0.086336
0.340154 0.135622 0.084138
0.390570 0.139010 0.080995
0.440803 0.143282 0.077424
0.489204 0.149142 0.072999
0.534936 0.157198 0.068788
0.577417 0.167788 0.065644
0.618036 0.182467 0.062745
0.657893 0.200443 0.061982
0.696376 0.221927 0.064302
0.733120 0.246128 0.071504
0.768124 0.272831 0.082673
0.801328 0.301274 0.097536
0.832700 0.331792 0.116640
0.861723 0.363378 0.138979
0.888548 0.396429 0.165713
0.913237 0.430701 0.196567
0.935851 0.466194 0.232120
0.956115 0.503227 0.273259
0.973938 0.541558 0.319890
0.989105 0.581506 0.373205
0.049836 0.144106 0.094881
0.057008 0.144869 0.096773
0.062837 0.146029 0.099031
0.076204 0.148318 0.104952
0.093324 0.150332 0.110384
0.109377 0.151705 0.111543
0.129763 0.158511 0.101747
0.160220 0.167300 0.088167
0.208804 0.180575 0.074952
0.237186 0.169711 0.078004
0.266758 0.160098 0.080385
0.297520 0.151095 0.082124
0.345922 0.155550 0.079438
0.395727 0.160128 0.075685
0.445075 0.165469 0.070741
0.492927 0.171695 0.065827
0.538048 0.179751 0.060731
0.580438 0.190463 0.054078
0.620691 0.203891 0.048127
0.659754 0.220554 0.046632
0.697627 0.240421 0.050263
0.733822 0.262821 0.061524
0.768399 0.287633 0.073701
0.801328 0.314824 0.090059
0.832395 0.343633 0.110018
0.861387 0.373968 0.133700
0.888121 0.405432 0.160922
0.912871 0.438575 0.191989
0.935424 0.473091 0.228275
0.955779 0.509026 0.269505
0.973632 0.546532 0.316716
0.988830 0.585626 0.370092
0.045533 0.176242 0.096223
0.054566 0.177310 0.097963
0.062654 0.178836 0.100587
0.078096 0.181552 0.106416
0.103578 0.185855 0.117983
0.123842 0.188479 0.119692
0.147158 0.191592 0.121248
0.174105 0.201694 0.102876
0.211917 0.211856 0.083192
0.272923 0.231418 0.056214
0.304723 0.217075 0.059724
0.334966 0.202792 0.064302
0.364446 0.189395 0.068208
0.402258 0.184054 0.067964
0.450904 0.189883 0.061860
0.497658 0.196719 0.052857
0.542382 0.204807 0.040742
0.584649 0.215091 0.029358
0.623987 0.227481 0.019196
0.662257 0.242954 0.016144
0.699550 0.261021 0.021088
0.735256 0.281773 0.036378
0.769345 0.304967 0.062226
0.801938 0.330358 0.080629
0.832731 0.357824 0.102571
0.861509 0.386511 0.127138
0.888121 0.416632 0.155245
0.912749 0.448249 0.187320
0.935271 0.481575 0.224033
0.955596 0.516381 0.265965
0.973419 0.552819 0.313481
0.988678 0.590753 0.366918
0.033478 0.216648 0.096681
0.048005 0.217746 0.098573
0.060975 0.219272 0.101320
0.080018 0.222568 0.107729
0.108309 0.227512 0.119753
0.139834 0.232792 0.129976
0.167758 0.237369 0.132906
0.196872 0.244358 0.128267
0.230655 0.255741 0.102113
0.274479 0.266423 0.071382
0.345464 0.291875 0.000000
0.378851 0.273747 0.000000
0.407691 0.254765 0.002167
0.435065 0.237339 0.019196
0.460822 0.220371 0.035065
0.504112 0.223941 0.022248
0.548516 0.232212 0.006592
0.589685 0.241947 0.000000
0.628077 0.253178 0.000000
0.665705 0.267308 0.000000
0.702144 0.283940 0.000000
0.737026 0.302953 0.000000
0.770474 0.324254 0.030396
0.802426 0.347753 0.067353
0.832792 0.373144 0.092164
0.861295 0.400183 0.119081
0.887938 0.429023 0.148745
0.912566 0.459297 0.181888
0.935149 0.491371 0.219181
0.955474 0.524956 0.261753
0.973358 0.560327 0.309880
0.988647 0.597284 0.364233
0.015534 0.263523 0.095735
0.034455 0.264836 0.098024
0.055482 0.266575 0.101106
0.081178 0.270115 0.108553
0.114595 0.275700 0.121767
0.157168 0.282597 0.142550
0.189609 0.289220 0.146670
0.224949 0.296574 0.151034
0.257969 0.306371 0.135958
0.296818 0.317937 0.099519
0.345006 0.328771 0.035920
0.421027 0.357702 0.000000
0.454292 0.336889 0.000000
0.480629 0.313848 0.000000
0.505272 0.292699 0.000000
0.527977 0.273259 0.000000
0.554376 0.261295 0.000000
0.594232 0.269963 0.000000
0.631952 0.280247 0.000000
0.668849 0.292973 0.000000
0.704585 0.308263 0.000000
0.738918 0.325597 0.000000
0.771908 0.345281 0.000000
0.803555 0.367163 0.036835
0.833616 0.390875 0.078981
0.861875 0.416205 0.109560
0.888212 0.443244 0.141054
0.912657 0.471962 0.175326
0.935119 0.502525 0.213931
0.955352 0.534661 0.257176
0.973236 0.568627 0.305699
0.988556 0.604242 0.360540
0.000000 0.316258 0.093935
0.015320 0.317754 0.096651
0.050050 0.319432 0.100313
0.083406 0.323033 0.109071
0.121584 0.328923 0.123781
0.167849 0.336431 0.146120
0.212589 0.344579 0.163485
0.251499 0.353277 0.168978
0.292912 0.362707 0.175753
0.327123 0.373846 0.145418
0.368872 0.384710 0.095491
0.418524 0.394659 0.000000
0.499580 0.428046 0.000000
0.534844 0.409461 0.000000
0.558282 0.383764 0.000000
0.577935 0.357916 0.000000
0.596185 0.334813 0.000000
0.612726 0.313268 0.000000
0.642817 0.313603 0.000000
0.678645 0.325200 0.000000
0.713130 0.338872 0.000000
0.746304 0.354589 0.000000
0.778225 0.372381 0.000000
0.808835 0.392218 0.000000
0.838041 0.413886 0.064912
0.865537 0.437354 0.100252
0.891173 0.462501 0.134920
0.915038 0.489357 0.171298
0.936919 0.517906 0.210941
0.956756 0.548333 0.255283
0.974212 0.580499 0.304356
0.989258 0.614435 0.359747
0.000000 0.374945 0.091554
0.001038 0.376196 0.094575
0.045655 0.377874 0.099153
0.089113 0.381415 0.109865
0.131655 0.386999 0.126833
0.180728 0.394018 0.150790
0.238224 0.402289 0.183078
0.279088 0.411353 0.190188
0.323003 0.421942 0.198032
0.368292 0.433417 0.205234
0.402472 0.445319 0.158450
0.446265 0.456062 0.095216
0.496132 0.465705 0.000000
0.563500 0.488930 0.000000
0.599176 0.474037 0.000000
0.619104 0.446143 0.000000
0.635157 0.417884 0.000000
0.649866 0.392126 0.000000
0.663966 0.369207 0.000000
0.681727 0.353460 0.000000
0.715450 0.365698 0.000000
0.748074 0.379583 0.000000
0.779507 0.395819 0.000000
0.809781 0.413825 0.000000
0.838590 0.433753 0.016052
0.865782 0.455390 0.085084
0.891264 0.478798 0.123812
0.914977 0.504021 0.162814
0.936767 0.531090 0.204135
0.956573 0.559930 0.249332
0.974060 0.590509 0.299413
0.989105 0.623072 0.355444
0.000000 0.431556 0.090425
0.010712 0.432685 0.094392
0.059541 0.434119 0.100160
0.099336 0.437568 0.112154
0.143832 0.442329 0.130739
0.194888 0.449226 0.156527
0.253056 0.457435 0.189853
0.307042 0.467018 0.214389
0.351659 0.477699 0.224247
0.398535 0.489509 0.235569
0.440253 0.501213 0.230442
0.474220 0.511070 0.176944
0.515618 0.519738 0.102541
0.561273 0.527214 0.000000
0.620294 0.545586 0.000000
0.656489 0.534813 0.000000
0.673396 0.505608 0.000000
0.686030 0.475715 0.000000
0.698421 0.448707 0.000000
0.711360 0.425299 0.000000
0.725063 0.405005 0.000000
0.750301 0.406012 0.000000
0.781247 0.420508 0.000000
0.811124 0.436835 0.000000
0.839567 0.455146 0.000000
0.866484 0.475044 0.063233
0.891752 0.496742 0.110964
0.915251 0.520226 0.153109
0.936950 0.545647 0.196414
0.956664 0.572839 0.242924
0.974090 0.601862 0.294224
0.989136 0.632868 0.351080
0.005676 0.488167 0.093019
0.050813 0.489204 0.098024
0.078828 0.490486 0.104158
0.117037 0.493599 0.117861
0.161471 0.498024 0.138399
0.212589 0.503868 0.165347
0.270603 0.510887 0.199466
0.335241 0.518639 0.241245
0.379797 0.528740 0.252689
0.425757 0.539971 0.265232
0.472450 0.552026 0.279484
0.507134 0.562585 0.258549
0.539361 0.570733 0.199710
0.577752 0.577783 0.120363
0.619440 0.583520 0.000000
0.671107 0.597620 0.000000
0.706508 0.590082 0.000000
0.720577 0.560113 0.000000
0.731289 0.529625 0.000000
0.742733 0.503105 0.000000
0.754757 0.479774 0.000000
0.767575 0.459785 0.000000
0.783139 0.446296 0.000000
0.812589 0.460945 0.000000
0.840726 0.477424 0.000000
0.867430 0.495857 0.000000
0.892515 0.516014 0.095094
0.915923 0.537987 0.142763
0.937560 0.561852 0.188937
0.957214 0.587518 0.237095
0.974609 0.615045 0.289891
0.989624 0.644465 0.348089
0.070466 0.541070 0.101564
0.088594 0.541985 0.107149
0.107393 0.543267 0.114015
0.140566 0.545861 0.128054
0.183597 0.549645 0.149416
0.233524 0.554772 0.177432
0.289952 0.560876 0.211765
0.352819 0.567864 0.253452
0.408576 0.576501 0.283970
0.452796 0.587121 0.297032
0.497230 0.598505 0.312078
0.540887 0.610346 0.328618
0.567742 0.618311 0.289494
0.597284 0.624414 0.226963
0.631922 0.629297 0.144686
0.669429 0.633112 0.000000
0.714778 0.643305 0.000000
0.749722 0.639612 0.000000
0.762539 0.610254 0.000000
0.772854 0.581109 0.000000
0.783627 0.555352 0.000000
0.795163 0.532799 0.000000
0.807218 0.513146 0.000000
0.820157 0.496834 0.000000
0.842771 0.501671 0.000000
0.869078 0.518364 0.000000
0.893858 0.536858 0.073518
0.917021 0.557183 0.131228
0.938384 0.579217 0.180606
0.957794 0.603052 0.230747
0.975006 0.628656 0.284764
0.989899 0.656336 0.344152
0.110964 0.589044 0.116182
0.123934 0.589960 0.121065
0.138247 0.590753 0.127749
0.168276 0.593011 0.142367
0.207889 0.596307 0.163760
0.255924 0.600702 0.191836
0.310338 0.606012 0.225834
0.370672 0.612055 0.266850
0.434699 0.618830 0.314031
0.477119 0.628534 0.328588
0.518730 0.638819 0.343969
0.560113 0.649775 0.360693
0.598535 0.660639 0.374487
0.619898 0.666163 0.321538
0.647303 0.670832 0.256992
0.678737 0.674220 0.174533
0.713008 0.676905 0.000000
0.753353 0.684535 0.000000
0.788724 0.685084 0.000000
0.800656 0.657099 0.000000
0.810513 0.629236 0.000000
0.820554 0.604547 0.000000
0.831266 0.582666 0.000000
0.842649 0.563928 0.000000
0.854795 0.548089 0.000000
0.870329 0.541070 0.000000
0.894865 0.557977 0.019745
0.917784 0.576623 0.115633
0.939025 0.596979 0.170596
0.958282 0.619013 0.223667
0.975341 0.642939 0.279393
0.990234 0.668849 0.339849
0.149142 0.633783 0.134463
0.159731 0.634577 0.139742
0.177707 0.640986 0.149355
0.204715 0.642756 0.163729
0.241337 0.645411 0.185092
0.286076 0.648737 0.212436
0.338262 0.653010 0.246525
0.394995 0.657557 0.286412
0.455177 0.663020 0.332403
0.505669 0.670344 0.365698
0.544457 0.679683 0.380865
0.582727 0.689448 0.397620
0.619898 0.699519 0.415167
0.649714 0.708125 0.412451
0.669856 0.712276 0.358862
0.694942 0.715511 0.293584
0.723964 0.717983 0.211856
0.755245 0.719753 0.076204
0.790524 0.724331 0.000000
0.826017 0.728634 0.000000
0.837003 0.702113 0.000000
0.845914 0.675746 0.000000
0.855100 0.651820 0.000000
0.864866 0.630762 0.000000
0.875273 0.612726 0.000000
0.886473 0.597650 0.000000
0.898680 0.586114 0.000000
0.918853 0.596979 0.096925
0.939727 0.615412 0.158999
0.958770 0.635676 0.215396
0.975738 0.657679 0.272953
0.990509 0.681788 0.334966
0.190646 0.676570 0.158236
0.199344 0.677699 0.163363
0.212314 0.679164 0.170443
0.236515 0.681300 0.184634
0.270146 0.683803 0.205112
0.312230 0.686824 0.232090
0.360998 0.690303 0.265049
0.414527 0.694270 0.303746
0.470710 0.698787 0.347784
0.527825 0.704158 0.396857
0.564385 0.712673 0.412787
0.600183 0.721675 0.429023
0.635431 0.731044 0.446235
0.669001 0.740414 0.464271
0.691676 0.746487 0.445563
0.710811 0.749630 0.392187
0.734432 0.752132 0.327367
0.761257 0.754055 0.247959
0.790249 0.755276 0.133028
0.821164 0.757321 0.000000
0.856870 0.764828 0.000000
0.867277 0.740414 0.000000
0.875456 0.715663 0.000000
0.884001 0.693172 0.000000
0.893156 0.673548 0.000000
0.902922 0.656550 0.000000
0.913573 0.642878 0.000000
0.925200 0.632624 0.079866
0.940490 0.634638 0.146334
0.959380 0.653010 0.206394
0.976196 0.673152 0.266361
0.990875 0.695369 0.330175
0.229648 0.714473 0.183749
0.238132 0.715511 0.188907
0.248875 0.716640 0.195315
0.270848 0.718349 0.208652
0.302434 0.720546 0.228824
0.341497 0.723049 0.254795
0.386908 0.725826 0.286687
0.436194 0.728969 0.323491
0.488411 0.732815 0.365728
0.541375 0.737331 0.412085
0.585046 0.743801 0.445228
0.618463 0.752010 0.461036
0.651362 0.760311 0.477974
0.683070 0.768643 0.495674
0.713191 0.776852 0.513878
0.729976 0.780758 0.479622
0.748104 0.783230 0.426917
0.770016 0.785031 0.364294
0.795010 0.786343 0.286076
0.822019 0.787289 0.182223
0.849668 0.787808 0.000000
0.884550 0.797086 0.000000
0.894224 0.774350 0.000000
0.901610 0.751431 0.000000
0.909514 0.730617 0.000000
0.917967 0.712184 0.000000
0.927214 0.696712 0.000000
0.937255 0.684321 0.072267
0.948211 0.675563 0.144289
0.959960 0.670863 0.196872
0.976623 0.689021 0.259342
0.991241 0.709346 0.324834
0.269413 0.750149 0.211612
0.277409 0.750973 0.216617
0.286809 0.751949 0.222751
0.307225 0.753353 0.235752
0.335851 0.755093 0.254887
0.371801 0.756985 0.279820
0.413855 0.759182 0.310338
0.459541 0.761746 0.345708
0.507652 0.764767 0.385962
0.556573 0.768399 0.429786
0.605371 0.772763 0.476722
0.637049 0.779721 0.493416
0.667597 0.786984 0.509819
0.697322 0.794308 0.527214
0.725643 0.801480 0.545190
0.751186 0.808255 0.558801
0.764401 0.810849 0.514488
0.781735 0.812924 0.463478
0.802457 0.814542 0.402258
0.825895 0.815702 0.328191
0.851225 0.816495 0.230991
0.877226 0.816953 0.000000
0.908904 0.824369 0.000000
0.918791 0.804776 0.000000
0.925628 0.783841 0.000000
0.932952 0.764920 0.000000
0.940826 0.748196 0.000000
0.949432 0.734310 0.079286
0.958831 0.723598 0.153567
0.968872 0.716487 0.208865
0.979583 0.713497 0.260349
0.992462 0.725582 0.323064
0.313664 0.785245 0.244541
0.320165 0.785733 0.248936
0.328191 0.786191 0.254368
0.345892 0.786984 0.266239
0.371984 0.788083 0.284398
0.404761 0.789364 0.308080
0.443091 0.790982 0.337224
0.484962 0.792905 0.371069
0.529137 0.795193 0.409125
0.574487 0.798001 0.450782
0.620325 0.801419 0.495857
0.657832 0.806210 0.528313
0.686000 0.812406 0.544518
0.713405 0.818601 0.561089
0.739620 0.824765 0.578180
0.764340 0.830838 0.595514
0.783200 0.835508 0.594171
0.795682 0.837522 0.551965
0.811704 0.839139 0.501488
0.830869 0.840299 0.442115
0.852598 0.841032 0.370367
0.876188 0.841428 0.277775
0.900511 0.841459 0.136233
0.928466 0.846159 0.000000
0.938933 0.829953 0.000000
0.945190 0.810636 0.000000
0.951934 0.793301 0.000000
0.959289 0.778378 0.086732
0.967315 0.766110 0.163577
0.975952 0.756985 0.219516
0.985168 0.751553 0.272313
0.994873 0.750759 0.327062
0.354559 0.815274 0.277073
0.360754 0.815671 0.281346
0.367987 0.816068 0.286412
0.384039 0.816556 0.297948
0.407324 0.817288 0.315007
0.437140 0.818112 0.337469
0.471321 0.819150 0.364935
0.509636 0.820401 0.396918
0.550011 0.821958 0.432624
0.592218 0.823911 0.472328
0.634699 0.826200 0.515038
0.676722 0.829007 0.560540
0.702998 0.834104 0.576837
0.728298 0.839414 0.592828
0.752316 0.844694 0.608911
0.775265 0.849912 0.625269
0.796628 0.855009 0.641840
0.810391 0.858183 0.627649
0.822171 0.859831 0.587243
0.837125 0.861173 0.539178
0.855039 0.862089 0.481056
0.875303 0.862669 0.411810
0.897490 0.862882 0.324376
0.920623 0.862760 0.201297
0.945190 0.864775 0.000000
0.955901 0.851316 0.000000
0.961669 0.833646 0.000000
0.967956 0.817899 0.100587
0.974792 0.804501 0.175692
0.982177 0.793881 0.232395
0.990173 0.786557 0.285191
0.998657 0.783383 0.339940
0.397589 0.843534 0.313451
0.402502 0.843809 0.317266
0.409857 0.844022 0.322576
0.423682 0.844297 0.332982
0.444495 0.844572 0.349096
0.470741 0.844907 0.370062
0.501579 0.845396 0.395666
0.536187 0.846006 0.425635
0.573266 0.846799 0.459571
0.611963 0.847807 0.496986
0.651301 0.849119 0.537560
0.689723 0.850858 0.579675
0.720699 0.853971 0.609583
0.743435 0.858274 0.624140
0.765347 0.862547 0.639185
0.786099 0.866758 0.654444
0.805692 0.871000 0.669795
0.823880 0.875120 0.684993
0.833585 0.877134 0.659297
0.844572 0.878508 0.620783
0.858457 0.879606 0.575158
0.875120 0.880400 0.519371
0.894224 0.880797 0.451545
0.915129 0.880766 0.367742
0.937102 0.880430 0.253941
0.960082 0.881468 0.000000
0.970672 0.870237 0.000000
0.975982 0.854002 0.122347
0.981750 0.839811 0.192111
0.988067 0.828000 0.247654
0.994903 0.819150 0.300725
1.000000 0.813870 0.354650
0.436713 0.867216 0.348791
0.441169 0.867369 0.352331
0.447425 0.867521 0.357244
0.459724 0.867613 0.366979
0.478492 0.867674 0.382147
0.502068 0.867765 0.401801
0.530144 0.867826 0.426062
0.561456 0.868009 0.454139
0.595605 0.868254 0.486366
0.631373 0.868681 0.522118
0.667628 0.869322 0.560327
0.703639 0.870359 0.600336
0.737942 0.871824 0.640833
0.759091 0.875273 0.655879
0.778958 0.878843 0.669978
0.797818 0.882322 0.684260
0.815671 0.885832 0.698482
0.832425 0.889311 0.712673
0.847044 0.892485 0.722255
0.854459 0.893919 0.692073
0.864500 0.895109 0.655451
0.877348 0.896056 0.611719
0.892821 0.896635 0.558434
0.910735 0.896880 0.492622
0.930632 0.896757 0.411017
0.951843 0.896361 0.304173
0.973266 0.896330 0.149569
0.983429 0.887053 0.148684
0.988251 0.872313 0.214786
0.993622 0.859648 0.267979
0.999420 0.849638 0.319799
1.000000 0.842741 0.373083
0.475105 0.888487 0.385657
0.479408 0.888548 0.389014
0.484596 0.888548 0.393347
0.495491 0.888487 0.402441
0.511833 0.888273 0.416358
0.533074 0.888060 0.434699
0.558312 0.887785 0.457313
0.586999 0.887510 0.484016
0.618189 0.887266 0.514519
0.651118 0.887175 0.548302
0.684627 0.887236 0.584283
0.717678 0.887663 0.621729
0.749722 0.888426 0.659998
0.774777 0.890318 0.686763
0.792508 0.893156 0.699672
0.809506 0.896025 0.712734
0.825620 0.898863 0.725643
0.840787 0.901701 0.738460
0.855009 0.904540 0.750851
0.865507 0.906798 0.750057
0.872221 0.908080 0.722103
0.881437 0.909117 0.687984
0.893248 0.909941 0.646357
0.907622 0.910430 0.595636
0.924498 0.910643 0.532464
0.943572 0.910521 0.452827
0.964202 0.910155 0.349859
0.983856 0.909483 0.239963
0.993896 0.901762 0.236759
0.998352 0.888426 0.289311
1.000000 0.877379 0.339452
1.000000 0.869139 0.391424
0.511650 0.906950 0.422461
0.515068 0.906950 0.425513
0.519890 0.906859 0.429511
0.529717 0.906706 0.438087
0.544701 0.906401 0.451392
0.564019 0.906004 0.468849
0.587152 0.905577 0.490547
0.613672 0.905089 0.516289
0.642817 0.904601 0.545922
0.673030 0.904234 0.577783
0.703822 0.903990 0.611841
0.734463 0.903960 0.647272
0.763943 0.904173 0.683131
0.791836 0.904784 0.718654
0.808225 0.907042 0.731624
0.823301 0.909300 0.743252
0.837644 0.911620 0.754788
0.851255 0.913909 0.765988
0.863981 0.916228 0.776913
0.875914 0.918547 0.787350
0.882994 0.920165 0.778408
0.888975 0.921294 0.753231
0.897185 0.922210 0.722072
0.907927 0.922942 0.683040
0.921233 0.923400 0.634852
0.937102 0.923613 0.574884
0.955413 0.923552 0.497871
0.975586 0.923186 0.398383
0.993133 0.922240 0.325689
1.000000 0.915740 0.318486
1.000000 0.903929 0.366552
1.000000 0.894530 0.416632
0.549889 0.924071 0.463233
0.553033 0.923980 0.466102
0.557092 0.923857 0.469825
0.565911 0.923522 0.477668
0.579309 0.923003 0.490181
0.596612 0.922362 0.506584
0.617609 0.921599 0.527092
0.641535 0.920745 0.551141
0.667170 0.919860 0.577996
0.694423 0.919005 0.607446
0.722164 0.918242 0.638727
0.749966 0.917693 0.671473
0.776944 0.917357 0.704555
0.802609 0.917388 0.737148
0.822202 0.918395 0.758968
0.835569 0.920256 0.769253
