其他预设/【234】港风调色预设/1.3D LUT预设（视频调色-PR-AE-PS-FCPX-达芬奇用）/6.港风色调 __.cube
# Created by Adobe Lightroom plugin Export LUT (1.17.0)
# www.johnrellis.com/lightroom/exportlut.htm
# Preset: 6.港风色调 [素锦印象]
# Color profile: /Library/Application Support/Adobe/Color/Profiles/Recommended/AdobeRGB1998.icc
LUT_3D_SIZE 8
DOMAIN_MIN 0.000000 0.000000 0.000000
DOMAIN_MAX 0.903226 0.903226 0.903226
0.039857 0.074037 0.083894
0.069978 0.079194 0.088106
0.150240 0.086946 0.093874
0.324743 0.079011 0.093355
0.527031 0.079683 0.084657
0.691493 0.167208 0.084199
0.828367 0.294774 0.128084
0.933501 0.442481 0.236118
0.047974 0.092226 0.089357
0.073945 0.094850 0.088197
0.156039 0.099092 0.091829
0.328557 0.104067 0.090028
0.528130 0.116701 0.079042
0.690425 0.189029 0.076753
0.826200 0.305852 0.121157
0.932341 0.448402 0.231113
0.045533 0.176242 0.096223
0.103578 0.185855 0.117983
0.211917 0.211856 0.083192
0.364446 0.189395 0.068208
0.542382 0.204807 0.040742
0.699550 0.261021 0.021088
0.832731 0.357824 0.102571
0.935271 0.481575 0.224033
0.000000 0.374945 0.091554
0.131655 0.386999 0.126833
0.323003 0.421942 0.198032
0.496132 0.465705 0.000000
0.635157 0.417884 0.000000
0.715450 0.365698 0.000000
0.838590 0.433753 0.016052
0.936767 0.531090 0.204135
0.110964 0.589044 0.116182
0.207889 0.596307 0.163760
0.434699 0.618830 0.314031
0.598535 0.660639 0.374487
0.713008 0.676905 0.000000
0.810513 0.629236 0.000000
0.854795 0.548089 0.000000
0.939025 0.596979 0.170596
0.269413 0.750149 0.211612
0.335851 0.755093 0.254887
0.507652 0.764767 0.385962
0.667597 0.786984 0.509819
0.764401 0.810849 0.514488
0.851225 0.816495 0.230991
0.925628 0.783841 0.000000
0.958831 0.723598 0.153567
0.436713 0.867216 0.348791
0.478492 0.867674 0.382147
0.595605 0.868254 0.486366
0.737942 0.871824 0.640833
0.815671 0.885832 0.698482
0.864500 0.895109 0.655451
0.930632 0.896757 0.411017
0.988251 0.872313 0.214786
0.584436 0.937926 0.501793
0.611261 0.936645 0.527520
0.690578 0.932860 0.609339
0.790646 0.929229 0.726802
0.858183 0.931121 0.800443
0.898405 0.937530 0.833005
0.921324 0.942046 0.775357
0.973083 0.943847 0.573938
0.043580 0.078706 0.105379
0.068208 0.081300 0.100771
0.155795 0.092531 0.099062
0.328893 0.100252 0.090608
0.527977 0.112093 0.080018
0.689265 0.183536 0.078431
0.825101 0.299321 0.122835
0.931548 0.441840 0.231846
0.027863 0.100649 0.113466
0.072450 0.097169 0.112490
0.163394 0.106783 0.104707
0.334356 0.119722 0.087312
0.530724 0.138796 0.074006
0.689876 0.203464 0.071077
0.823819 0.310735 0.116609
0.930358 0.447608 0.226474
0.014160 0.175296 0.106142
0.085756 0.185641 0.125643
0.210330 0.210483 0.120821
0.366766 0.193088 0.084108
0.543725 0.214664 0.029755
0.697444 0.268162 0.006653
0.828458 0.358282 0.095705
0.932799 0.479286 0.219059
0.000000 0.366796 0.103059
0.104921 0.379156 0.139071
0.319493 0.415198 0.231144
0.486336 0.456001 0.102785
0.626398 0.410620 0.000000
0.709926 0.364569 0.000000
0.833951 0.431434 0.000000
0.934478 0.528252 0.199069
0.061311 0.581994 0.131807
0.182620 0.588952 0.174105
0.413092 0.610742 0.313603
0.592676 0.652522 0.400061
0.704860 0.669459 0.147646
0.806149 0.624872 0.000000
0.854063 0.549218 0.000000
0.937896 0.595605 0.167575
0.246952 0.744289 0.217533
0.313146 0.747646 0.256413
0.489357 0.757839 0.382025
0.661494 0.780728 0.519524
0.762387 0.807858 0.540124
0.847623 0.814511 0.288853
0.925414 0.783474 0.000000
0.958343 0.722744 0.152224
0.418372 0.863767 0.345800
0.460182 0.863706 0.377142
0.581170 0.864897 0.480049
0.728664 0.869230 0.634333
0.813626 0.883970 0.703883
0.863218 0.893980 0.671168
0.927550 0.895537 0.443000
0.987671 0.871122 0.210300
0.571069 0.937407 0.495125
0.598993 0.936187 0.521080
0.681178 0.932433 0.603357
0.784634 0.928740 0.721828
0.858671 0.931121 0.804807
0.898711 0.937530 0.836728
0.921111 0.941894 0.784421
0.971160 0.943572 0.594385
0.005798 0.087434 0.181857
0.087678 0.088624 0.176669
0.173953 0.095308 0.169497
0.363348 0.064881 0.150973
0.542687 0.138399 0.125307
0.699428 0.218021 0.067445
0.831540 0.321965 0.119692
0.935302 0.453529 0.236179
0.000000 0.114900 0.194797
0.072816 0.110353 0.195377
0.182376 0.122957 0.184207
0.361181 0.132815 0.167727
0.545220 0.165896 0.132937
0.699702 0.234592 0.064668
0.830838 0.332494 0.113680
0.934813 0.459998 0.232090
0.000000 0.218173 0.221378
0.000000 0.217258 0.222202
0.199985 0.205600 0.224979
0.380560 0.216953 0.193637
0.559899 0.241215 0.150149
0.706508 0.291844 0.077455
0.833951 0.374731 0.092927
0.935698 0.487587 0.222538
0.000000 0.346563 0.173709
0.000000 0.357855 0.179263
0.256107 0.398169 0.259648
0.473396 0.444556 0.266972
0.603449 0.385657 0.178317
0.717922 0.383825 0.103731
0.839994 0.444251 0.000000
0.937896 0.535729 0.204501
0.000000 0.559380 0.168856
0.000000 0.568750 0.189395
0.334234 0.593591 0.307561
0.576623 0.636316 0.456489
0.694179 0.662135 0.329381
0.791531 0.609766 0.171084
0.857023 0.555993 0.000000
0.940703 0.600244 0.173892
0.091768 0.731563 0.212528
0.215885 0.735348 0.254124
0.431037 0.746090 0.376257
0.644984 0.765835 0.551110
0.760952 0.802853 0.615259
0.837156 0.809873 0.426062
0.915770 0.777035 0.208469
0.960052 0.723690 0.160189
0.349126 0.859556 0.337346
0.400855 0.859739 0.369512
0.538262 0.860838 0.469337
0.699763 0.864836 0.619043
0.808499 0.879606 0.722652
0.862333 0.892943 0.722499
0.920684 0.895171 0.543694
0.986542 0.870939 0.275212
0.523980 0.938048 0.477058
0.553338 0.936858 0.500237
0.646540 0.932677 0.583581
0.763424 0.928466 0.706203
0.855711 0.929290 0.812253
0.898375 0.936980 0.846128
0.921172 0.941894 0.812772
0.965972 0.943725 0.659174
0.000000 0.102449 0.332830
0.092226 0.103182 0.333928
0.280827 0.115175 0.330877
0.412818 0.134340 0.322271
0.601587 0.062409 0.279881
0.703853 0.267918 0.252873
0.834257 0.347662 0.200687
0.938903 0.460670 0.241947
0.000000 0.133486 0.346075
0.058228 0.134554 0.346838
0.281834 0.152438 0.345098
0.417609 0.179629 0.334813
0.599390 0.135988 0.285924
0.704616 0.287205 0.260044
0.833951 0.360388 0.205875
0.938903 0.466926 0.239658
0.000000 0.243473 0.354253
0.000000 0.238987 0.356390
0.231144 0.236545 0.374640
0.426825 0.288151 0.370062
0.584680 0.294804 0.326909
0.711330 0.350164 0.285985
0.838468 0.407446 0.224826
0.941222 0.495186 0.233402
0.000000 0.422400 0.391760
0.000000 0.422889 0.393469
0.160067 0.422370 0.400427
0.431495 0.411139 0.414740
0.587549 0.416327 0.369482
0.719234 0.434577 0.316960
0.840421 0.473121 0.247959
0.942748 0.540917 0.215610
0.000000 0.531792 0.318029
0.000000 0.536828 0.320897
0.216342 0.553857 0.335149
0.493629 0.596490 0.460334
0.666590 0.641657 0.486458
0.755825 0.582055 0.378058
0.845914 0.562585 0.287541
0.945647 0.604303 0.187686
0.000000 0.699519 0.291691
0.065980 0.706233 0.309026
0.312718 0.722591 0.371374
0.558465 0.745998 0.513970
0.744350 0.787442 0.663081
0.820737 0.802670 0.566888
0.895964 0.765011 0.421271
0.954345 0.716548 0.276951
0.234592 0.845548 0.356329
0.288273 0.847440 0.374456
0.427497 0.853239 0.436042
0.632227 0.858091 0.583276
0.793484 0.870512 0.739651
0.862608 0.891691 0.783658
0.910307 0.893797 0.654719
0.973419 0.867643 0.468086
0.435126 0.938109 0.460426
0.463600 0.937835 0.475532
0.569909 0.934417 0.547478
0.710048 0.929229 0.667048
0.834440 0.927092 0.798795
0.895659 0.935424 0.856443
0.921874 0.942016 0.848264
0.958953 0.943877 0.737423
0.000000 0.136965 0.503105
0.121950 0.139681 0.505760
0.341314 0.154788 0.512200
0.526177 0.224826 0.513298
0.633234 0.286320 0.501884
0.768368 0.327947 0.480476
0.851804 0.385168 0.411719
0.933288 0.514702 0.396765
0.000000 0.169986 0.507927
0.096407 0.174441 0.511070
0.334386 0.194034 0.517906
0.531426 0.269200 0.521935
0.633173 0.320836 0.509911
0.765896 0.351507 0.484962
0.848051 0.408606 0.420203
0.933379 0.520714 0.397620
0.000000 0.272068 0.501762
0.000000 0.273106 0.509758
0.276097 0.279301 0.528069
0.526635 0.359716 0.541466
0.631220 0.411170 0.532982
0.755428 0.412940 0.494575
0.833616 0.474281 0.443030
0.933776 0.539208 0.396551
0.000000 0.425757 0.516320
0.000000 0.423835 0.517693
0.160433 0.416358 0.523064
0.457191 0.437110 0.553338
0.626490 0.512627 0.563317
0.733425 0.502190 0.512718
0.830381 0.535180 0.461219
0.937316 0.568963 0.385016
0.000000 0.603357 0.548150
0.000000 0.603296 0.549462
0.110872 0.601648 0.554070
0.401953 0.597498 0.565667
0.612818 0.594507 0.586938
0.726833 0.591180 0.537682
0.836942 0.601007 0.477516
0.938048 0.628260 0.401587
0.000000 0.676112 0.471015
0.000000 0.678981 0.474189
0.235203 0.687160 0.486000
0.437140 0.701045 0.509087
0.658442 0.741665 0.628992
0.793698 0.783963 0.666560
0.862943 0.734768 0.554681
0.937774 0.707088 0.446479
0.046479 0.817563 0.439124
0.157656 0.818387 0.441596
0.323674 0.823972 0.467842
0.511345 0.838041 0.544335
0.712520 0.854826 0.682887
0.852201 0.883146 0.811490
0.897917 0.889952 0.742794
0.956085 0.858976 0.605310
0.348791 0.928374 0.497139
0.380529 0.928374 0.507439
0.475349 0.928374 0.544274
0.606897 0.929076 0.613733
0.769436 0.925963 0.744472
0.884855 0.930938 0.860136
0.923217 0.942077 0.881254
0.952300 0.943725 0.803586
0.129793 0.202213 0.657984
0.220066 0.208042 0.660212
0.402228 0.234318 0.666438
0.593042 0.318181 0.677211
0.705348 0.394171 0.675410
0.779934 0.472786 0.661555
0.876066 0.544488 0.666926
0.945800 0.540429 0.592218
0.102663 0.232181 0.657435
0.204715 0.237919 0.659510
0.393652 0.264622 0.667018
0.587396 0.342565 0.677974
0.705104 0.421241 0.678401
0.778378 0.491737 0.665492
0.874235 0.555413 0.669154
0.943633 0.552758 0.596460
0.000000 0.327398 0.654139
0.147433 0.328771 0.659236
0.346410 0.339025 0.668879
0.565942 0.408698 0.682856
0.707942 0.501396 0.692103
0.775631 0.550896 0.680934
0.869322 0.589624 0.676387
0.936858 0.592706 0.610285
0.000000 0.438727 0.635615
0.000000 0.435004 0.635737
0.225406 0.439612 0.651179
0.495583 0.476631 0.682979
0.702937 0.584955 0.708400
0.772091 0.625269 0.703243
0.861448 0.631098 0.681086
0.925628 0.646326 0.623651
0.000000 0.602014 0.658198
0.000000 0.600427 0.658656
0.140536 0.594354 0.660700
0.384405 0.582818 0.665583
0.624109 0.610010 0.700374
0.762570 0.688075 0.720363
0.842802 0.667964 0.671138
0.919219 0.686885 0.617365
0.000000 0.749233 0.683894
0.000000 0.748745 0.684688
0.122164 0.745418 0.686946
0.380072 0.739803 0.692256
0.566613 0.734646 0.703609
0.744015 0.739742 0.730282
0.833646 0.731533 0.680568
0.924681 0.735622 0.620264
0.000000 0.805234 0.622858
0.061219 0.806424 0.625025
0.274754 0.809445 0.631281
0.437476 0.814939 0.642145
0.593835 0.823484 0.659724
0.785702 0.853513 0.772946
0.882567 0.881743 0.808927
0.933715 0.840818 0.705013
0.258305 0.918151 0.612726
0.290654 0.917906 0.613581
0.381079 0.917418 0.616175
0.498909 0.917082 0.621485
0.661646 0.920195 0.693965
0.826566 0.924193 0.815152
0.920958 0.940124 0.901122
0.946807 0.943572 0.858915
0.318822 0.311772 0.793790
0.366186 0.320195 0.795102
0.492897 0.352605 0.798306
0.642664 0.422797 0.803769
0.772824 0.535668 0.809995
0.824063 0.568017 0.796475
0.874052 0.639368 0.786496
0.933196 0.716304 0.802213
0.305577 0.333471 0.792081
0.354711 0.341375 0.793393
0.484047 0.371801 0.796994
0.636408 0.437781 0.802701
0.769070 0.545953 0.809659
0.823697 0.581659 0.798306
0.872465 0.648127 0.787839
0.932097 0.719814 0.802396
0.248631 0.397925 0.789364
0.293095 0.397284 0.791073
0.445686 0.424750 0.795254
0.614130 0.483223 0.802518
0.757961 0.580255 0.811551
0.826566 0.630121 0.809079
0.870787 0.683375 0.797238
0.930510 0.738582 0.807950
0.000000 0.492195 0.771817
0.160922 0.493172 0.774441
0.356939 0.502159 0.784970
0.550256 0.531945 0.799069
0.730007 0.618494 0.812375
0.827115 0.695308 0.820920
0.868528 0.730587 0.811002
0.928099 0.761746 0.813169
0.000000 0.620111 0.769589
0.000000 0.616632 0.769009
0.175296 0.604120 0.767697
0.397467 0.590936 0.773983
0.648463 0.638025 0.804440
0.819333 0.747311 0.828641
0.864591 0.775387 0.824308
0.924285 0.781979 0.812772
0.000000 0.760616 0.787106
0.000000 0.758694 0.786893
0.168338 0.751583 0.786313
0.364141 0.738064 0.785916
0.528130 0.717189 0.786465
0.747372 0.746670 0.816831
0.859922 0.818631 0.838254
0.915953 0.799161 0.801389
0.000000 0.872801 0.805875
0.000000 0.871733 0.805936
0.201999 0.867735 0.806088
0.376928 0.861021 0.806760
0.536400 0.851408 0.808865
0.694026 0.842405 0.816434
0.843168 0.847501 0.840391
0.910246 0.836667 0.798611
0.207645 0.916991 0.767483
0.243717 0.916136 0.767178
0.338323 0.913481 0.766781
0.458137 0.909941 0.766751
0.590570 0.909697 0.772946
0.723995 0.910277 0.786069
0.877562 0.924529 0.874174
0.941161 0.941924 0.900023
0.513481 0.481270 0.895903
0.537926 0.488441 0.895872
0.611749 0.513848 0.895293
0.711849 0.564172 0.894621
0.808011 0.638453 0.893950
0.881102 0.728695 0.893645
0.900755 0.722225 0.877592
0.929686 0.771450 0.868681
0.504631 0.492622 0.895171
0.529808 0.499489 0.895171
0.605371 0.523888 0.894743
0.707271 0.572320 0.894224
0.805142 0.644617 0.893797
0.879820 0.733761 0.893828
0.900542 0.729366 0.878721
0.929137 0.775937 0.869718
0.464271 0.524407 0.893736
0.492470 0.530327 0.893736
0.577050 0.552392 0.893462
0.689540 0.597650 0.893797
0.795041 0.664607 0.893980
0.874815 0.747890 0.894957
0.900816 0.754025 0.883726
0.928130 0.792477 0.874327
0.385748 0.587243 0.888182
0.420356 0.590051 0.888823
0.513695 0.597314 0.891020
0.641077 0.625116 0.892638
0.770199 0.687343 0.894041
0.864286 0.765347 0.896727
0.902190 0.788937 0.892210
0.927123 0.817075 0.882048
0.143008 0.666804 0.878233
0.191348 0.663020 0.878141
0.346777 0.657862 0.880888
0.522911 0.658534 0.886717
0.705165 0.698573 0.892454
0.839994 0.776150 0.897185
0.902678 0.826078 0.900938
0.926329 0.845670 0.891875
0.163058 0.791531 0.884642
0.200259 0.788724 0.884245
0.292119 0.778561 0.882963
0.401923 0.758022 0.880858
0.541680 0.729000 0.879881
0.773556 0.775631 0.894316
0.899504 0.860807 0.907774
0.926696 0.876158 0.903929
0.223117 0.891905 0.894194
0.250065 0.890379 0.893919
0.325078 0.884886 0.893095
0.426398 0.874662 0.891814
0.540917 0.858122 0.889738
0.663416 0.833463 0.886717
0.846067 0.852232 0.900725
0.926452 0.903502 0.915129
0.306249 0.965118 0.903899
0.325261 0.964202 0.903777
0.384466 0.961089 0.903471
0.472450 0.955505 0.903105
0.576349 0.946990 0.902586
0.689937 0.935332 0.902068
0.806424 0.922362 0.903258
0.917906 0.922759 0.918578
