其他预设/【234】港风调色预设/1.3D LUT预设（视频调色-PR-AE-PS-FCPX-达芬奇用）/7.港风色调 __.cube
# Created by Adobe Lightroom plugin Export LUT (1.17.0)
# www.johnrellis.com/lightroom/exportlut.htm
# Preset: 7.港风色调 [素锦印象]
# Color profile: /Library/Application Support/Adobe/Color/Profiles/Recommended/AdobeRGB1998.icc
LUT_3D_SIZE 8
DOMAIN_MIN 0.000000 0.000000 0.000000
DOMAIN_MAX 0.903226 0.903226 0.903226
0.074434 0.077058 0.069398
0.081025 0.078096 0.069856
0.127138 0.079011 0.070466
0.262333 0.030457 0.065949
0.477516 0.000000 0.031250
0.670008 0.000000 0.000000
0.820768 0.095613 0.000000
0.919707 0.318029 0.146059
0.075563 0.083986 0.073091
0.082551 0.083589 0.071504
0.132631 0.084810 0.071077
0.267216 0.059480 0.066224
0.478523 0.000000 0.033204
0.669123 0.000000 0.000000
0.816190 0.125612 0.000000
0.916899 0.326757 0.147951
0.060945 0.144045 0.109285
0.093233 0.133761 0.094942
0.153109 0.134737 0.082063
0.311681 0.108003 0.066499
0.512596 0.000000 0.031647
0.693751 0.080018 0.000000
0.831052 0.245212 0.065736
0.923766 0.390143 0.185580
0.000000 0.329808 0.229221
0.017884 0.314153 0.198795
0.232975 0.243046 0.225681
0.377874 0.299474 0.133944
0.594476 0.278447 0.018738
0.732631 0.279881 0.057099
0.842435 0.365393 0.123507
0.926024 0.466926 0.235355
0.000000 0.583795 0.410285
0.000000 0.571832 0.383703
0.316747 0.525231 0.340826
0.430945 0.413123 0.431403
0.620294 0.518425 0.252903
0.764401 0.508721 0.129274
0.850523 0.480781 0.193606
0.927886 0.554894 0.306920
0.000000 0.761227 0.578088
0.219486 0.757961 0.568505
0.425574 0.729641 0.527947
0.616266 0.665614 0.562860
0.647578 0.623285 0.575586
0.771969 0.689662 0.427192
0.870329 0.681697 0.330510
0.931426 0.658228 0.410407
0.427497 0.866300 0.709895
0.467689 0.862211 0.704494
0.569543 0.845212 0.685725
0.683925 0.816251 0.681392
0.753719 0.766934 0.720821
0.781643 0.770535 0.706447
0.861601 0.805722 0.607813
0.931914 0.801144 0.555535
0.634791 0.928466 0.810575
0.651850 0.925872 0.808316
0.702327 0.917632 0.801999
0.767727 0.904753 0.798947
0.829252 0.880003 0.815610
0.843626 0.853330 0.834409
0.877592 0.873045 0.816678
0.926848 0.890227 0.761563
0.073640 0.078737 0.076387
0.083711 0.077180 0.072389
0.130861 0.081971 0.072145
0.267491 0.059205 0.066194
0.478157 0.000000 0.032349
0.666255 0.000000 0.000000
0.812894 0.107546 0.000000
0.914183 0.313237 0.139864
0.072999 0.087129 0.084230
0.084291 0.087465 0.081178
0.138643 0.089754 0.076875
0.276280 0.070588 0.066438
0.483864 0.000000 0.032593
0.668147 0.000000 0.000000
0.810086 0.136507 0.000000
0.911254 0.321569 0.141665
0.000000 0.160342 0.157839
0.083070 0.151736 0.126864
0.158999 0.144228 0.105928
0.315160 0.117891 0.078218
0.513756 0.061860 0.033448
0.687404 0.100618 0.000000
0.820676 0.238834 0.057649
0.917082 0.380865 0.175174
0.000000 0.345739 0.280095
0.000000 0.332464 0.247349
0.244022 0.269993 0.239445
0.371710 0.301122 0.167941
0.575708 0.271733 0.081910
0.716670 0.268650 0.048249
0.831571 0.353307 0.112490
0.919921 0.457160 0.223789
0.000000 0.594537 0.450782
0.000000 0.582055 0.422858
0.299290 0.536553 0.359289
0.442512 0.423438 0.433570
0.608667 0.512230 0.277440
0.755184 0.502373 0.163607
0.845823 0.475807 0.187961
0.924712 0.549767 0.299290
0.000000 0.762387 0.597772
0.185977 0.755489 0.583185
0.407538 0.728359 0.539361
0.608209 0.668849 0.561822
0.643122 0.621057 0.583062
0.768399 0.689754 0.446357
0.867247 0.680842 0.345006
0.929747 0.655543 0.404913
0.408698 0.864958 0.716457
0.446601 0.859739 0.708797
0.554192 0.843503 0.688838
0.672633 0.816403 0.678492
0.752895 0.768582 0.719966
0.778256 0.768154 0.708675
0.857389 0.803006 0.612146
0.929870 0.797330 0.546746
0.624628 0.928588 0.813626
0.643275 0.926207 0.811521
0.695918 0.918059 0.804746
0.763363 0.905241 0.800259
0.831235 0.884367 0.820127
0.846525 0.856626 0.836545
0.876707 0.872801 0.818662
0.925383 0.889586 0.763546
0.040986 0.090242 0.143526
0.074434 0.078431 0.140414
0.171756 0.059602 0.099031
0.314977 0.010163 0.092439
0.504448 0.000000 0.076204
0.687922 0.000000 0.000000
0.823850 0.183047 0.018647
0.919982 0.340826 0.157229
0.010498 0.120607 0.163577
0.061555 0.102510 0.159121
0.174136 0.081849 0.115480
0.308019 0.090394 0.116518
0.509300 0.000000 0.089662
0.688685 0.000000 0.000000
0.822354 0.201724 0.030823
0.918761 0.351202 0.161166
0.000000 0.174960 0.230014
0.000000 0.173861 0.220096
0.171298 0.174563 0.191897
0.339666 0.167361 0.168582
0.541192 0.145296 0.133303
0.705196 0.171237 0.061494
0.828824 0.275853 0.076539
0.920592 0.398077 0.187320
0.000000 0.347204 0.396155
0.000000 0.354955 0.396033
0.199161 0.366735 0.319158
0.396002 0.343053 0.275486
0.586389 0.301823 0.215000
0.728908 0.319432 0.158206
0.839994 0.379370 0.129152
0.924376 0.472328 0.237675
0.000000 0.642512 0.585382
0.000000 0.632746 0.560845
0.260533 0.593683 0.476844
0.506126 0.500999 0.471595
0.619257 0.541894 0.382116
0.754543 0.520684 0.294865
0.849363 0.494667 0.227237
0.927520 0.558526 0.309819
0.000000 0.785153 0.676356
0.077058 0.778470 0.662806
0.387915 0.753292 0.615900
0.582849 0.705043 0.575311
0.645655 0.631922 0.622919
0.763241 0.698177 0.511986
0.859922 0.687312 0.431250
0.931853 0.661646 0.413764
0.389197 0.877073 0.761624
0.432258 0.872282 0.754269
0.543542 0.856168 0.730495
0.664546 0.829648 0.704829
0.757778 0.785977 0.729397
0.778073 0.773007 0.729885
0.855436 0.810086 0.652949
0.928374 0.804868 0.590692
0.608606 0.934691 0.834897
0.625544 0.932036 0.831418
0.681941 0.923552 0.821988
0.755612 0.911376 0.813565
0.824491 0.892119 0.821988
0.852598 0.864836 0.840360
0.876432 0.875059 0.828946
0.924651 0.892821 0.780148
0.000000 0.121126 0.334295
0.000000 0.088685 0.333013
0.191653 0.000000 0.318700
0.431464 0.000000 0.187167
0.608637 0.000000 0.142000
0.696132 0.133242 0.184695
0.826535 0.232425 0.125246
0.921904 0.354192 0.164767
0.000000 0.173037 0.359899
0.000000 0.140658 0.354559
0.173800 0.064820 0.337560
0.434089 0.000000 0.209964
0.603845 0.000000 0.174899
0.698238 0.173068 0.200137
0.826261 0.254124 0.140505
0.921691 0.364660 0.170413
0.000000 0.279728 0.414435
0.000000 0.278202 0.406928
0.088563 0.218540 0.382574
0.432868 0.159030 0.288396
0.580957 0.236423 0.278508
0.714687 0.282841 0.257694
0.836362 0.337285 0.198703
0.926787 0.414405 0.201663
0.000000 0.415351 0.506371
0.000000 0.413367 0.497993
0.119203 0.408057 0.469856
0.413367 0.396948 0.418036
0.589105 0.393774 0.381476
0.727840 0.404913 0.336431
0.838499 0.431006 0.275486
0.928923 0.482704 0.249332
0.000000 0.599237 0.628016
0.000000 0.600702 0.625452
0.161715 0.607874 0.619989
0.481270 0.605371 0.549737
0.625513 0.578454 0.507652
0.747585 0.545983 0.445411
0.844358 0.547570 0.391791
0.932128 0.567498 0.322911
0.000000 0.771481 0.758267
0.000000 0.781949 0.758450
0.324743 0.795804 0.741909
0.558312 0.755245 0.666377
0.688533 0.687068 0.663294
0.761044 0.717983 0.603326
0.851072 0.700893 0.540368
0.928466 0.672145 0.480293
0.325994 0.895933 0.832090
0.382208 0.891936 0.825101
0.514794 0.878050 0.800900
0.648280 0.854734 0.762844
0.754726 0.819486 0.747677
0.780148 0.782589 0.763210
0.852415 0.819394 0.702998
0.922332 0.812497 0.653620
0.587884 0.945373 0.875181
0.607385 0.943206 0.871702
0.661738 0.935698 0.859220
0.736294 0.923033 0.840848
0.808682 0.905303 0.828794
0.859495 0.878813 0.846738
0.875364 0.877836 0.844083
0.923217 0.897185 0.802731
0.000000 0.188754 0.564691
0.000000 0.147677 0.563317
0.000000 0.059052 0.552728
0.503532 0.000000 0.532708
0.699489 0.000000 0.342107
0.806912 0.000000 0.258854
0.853971 0.310765 0.299626
0.920806 0.419928 0.304204
0.000000 0.256779 0.576104
0.000000 0.216770 0.575006
0.000000 0.108919 0.564935
0.499153 0.000000 0.542962
0.696864 0.000000 0.362188
0.802487 0.142580 0.288518
0.849302 0.341588 0.323339
0.920836 0.430762 0.312474
0.000000 0.440314 0.605798
0.000000 0.427741 0.602594
0.000000 0.307652 0.590234
0.458076 0.130251 0.570184
0.684077 0.178988 0.426520
0.782345 0.324559 0.375525
0.830472 0.422614 0.392279
0.920165 0.462043 0.334844
0.000000 0.542321 0.654536
0.000000 0.540673 0.649561
0.000000 0.534997 0.632837
0.387823 0.460487 0.604211
0.660700 0.434394 0.521508
0.745144 0.489143 0.493660
0.826200 0.507469 0.458564
0.923369 0.512200 0.367437
0.000000 0.649500 0.707393
0.000000 0.648432 0.703944
0.203799 0.641932 0.689204
0.455024 0.628992 0.660975
0.622004 0.608576 0.611902
0.734524 0.599512 0.574975
0.830930 0.595727 0.526909
0.922026 0.598322 0.456855
0.000000 0.745785 0.762478
0.149660 0.746304 0.761624
0.348516 0.747097 0.757931
0.515190 0.750942 0.753201
0.663966 0.747738 0.703304
0.753017 0.732082 0.677211
0.838071 0.708431 0.629541
0.918486 0.700832 0.580926
0.369757 0.856931 0.851255
0.402380 0.856657 0.850675
0.494087 0.856718 0.849454
0.603662 0.878172 0.843870
0.720272 0.851743 0.788724
0.795071 0.804044 0.784817
0.847318 0.826810 0.747219
0.914977 0.815305 0.705013
0.566369 0.936400 0.910613
0.581018 0.938598 0.910063
0.625086 0.946288 0.908385
0.704616 0.937804 0.887541
0.783169 0.921721 0.858122
0.856260 0.897948 0.853971
0.871519 0.878721 0.860685
0.920348 0.900725 0.825101
0.000000 0.308843 0.742855
0.000000 0.264164 0.743130
0.000000 0.137240 0.739315
0.483192 0.000000 0.727169
0.739895 0.000000 0.704250
0.846403 0.000000 0.507591
0.918181 0.332799 0.420020
0.954986 0.469245 0.444404
0.000000 0.378882 0.742641
0.000000 0.336736 0.742336
0.000000 0.177188 0.740169
0.464820 0.000000 0.727749
0.738582 0.000000 0.710536
0.841459 0.114199 0.519890
0.913268 0.366827 0.440101
0.951080 0.486122 0.460182
0.000000 0.552300 0.754818
0.000000 0.529839 0.752865
0.000000 0.427832 0.748013
0.409186 0.252476 0.740841
0.722652 0.146761 0.722896
0.829892 0.339269 0.565606
0.899168 0.466987 0.507347
0.938750 0.542077 0.512505
0.000000 0.660578 0.772885
0.000000 0.658991 0.769894
0.000000 0.655055 0.761166
0.411444 0.553368 0.752560
0.680385 0.438697 0.740078
0.811978 0.524559 0.634943
0.877073 0.584100 0.595483
0.918608 0.614252 0.580560
0.000000 0.723323 0.795590
0.000000 0.722560 0.793637
0.271977 0.719234 0.786252
0.471473 0.712917 0.772030
0.619837 0.662501 0.749355
0.782986 0.653742 0.694118
0.839811 0.670863 0.663111
0.904631 0.666194 0.620996
0.228855 0.783108 0.821347
0.287114 0.783047 0.820371
0.413581 0.780331 0.814389
0.546960 0.775906 0.802976
0.658412 0.768551 0.783536
0.750515 0.752926 0.747677
0.827787 0.743191 0.718318
0.907836 0.733761 0.675227
0.448737 0.844602 0.857420
0.474159 0.845365 0.857542
0.543053 0.846708 0.856504
0.627008 0.850095 0.855253
0.705135 0.855344 0.853452
0.786587 0.853208 0.818662
0.844816 0.838865 0.796658
0.908965 0.818906 0.758267
0.601892 0.916075 0.915618
0.613214 0.916197 0.915496
0.648524 0.917144 0.915373
0.699428 0.920012 0.916075
0.755917 0.935790 0.914336
0.829679 0.922087 0.877836
0.879850 0.890379 0.876402
0.918303 0.906523 0.852628
0.000000 0.452918 0.850767
0.000000 0.419013 0.852201
0.000000 0.265354 0.853544
0.440131 0.160555 0.847349
0.724025 0.000000 0.836454
0.853422 0.117952 0.790494
0.927398 0.379828 0.641749
0.980407 0.526085 0.578668
0.000000 0.504570 0.847379
0.000000 0.474617 0.848631
0.000000 0.337774 0.850553
0.419989 0.218357 0.845090
0.713161 0.000000 0.833982
0.848905 0.181155 0.791470
0.922087 0.398566 0.644099
0.976104 0.532433 0.582238
0.000000 0.630488 0.850797
0.000000 0.615686 0.850156
0.057801 0.544884 0.848783
0.373053 0.379644 0.848783
0.688685 0.317113 0.837369
0.846159 0.349676 0.809018
0.913573 0.500267 0.677241
0.967376 0.597711 0.630915
0.000000 0.751431 0.856962
0.000000 0.750057 0.855192
0.259861 0.715969 0.851774
0.463325 0.635492 0.847990
0.645716 0.524743 0.843137
0.836362 0.514244 0.831632
0.900511 0.618585 0.724880
0.953826 0.670771 0.687221
0.138033 0.789059 0.866758
0.211704 0.787869 0.865202
0.357549 0.785153 0.860533
0.500755 0.781704 0.853025
0.633906 0.717067 0.843595
0.791653 0.645838 0.834043
0.882475 0.705623 0.764096
0.935851 0.732692 0.735164
0.362829 0.829099 0.880064
0.392462 0.828824 0.879179
0.475868 0.828000 0.876097
0.577234 0.827207 0.870695
0.668910 0.824521 0.861082
0.753414 0.792447 0.845304
0.866270 0.788724 0.809140
0.911040 0.789029 0.779294
0.512139 0.867247 0.895872
0.530510 0.867491 0.895567
0.581659 0.867430 0.893431
0.648127 0.867735 0.889830
0.715572 0.866941 0.882994
0.781521 0.863767 0.870787
0.839475 0.849210 0.841917
0.900542 0.837034 0.814664
0.631373 0.908415 0.920897
0.640833 0.908568 0.920653
0.673335 0.910033 0.920562
0.717464 0.912108 0.919829
0.768215 0.916899 0.920531
0.820218 0.923033 0.921324
0.874113 0.923827 0.898772
0.916350 0.913787 0.883146
0.000000 0.594842 0.920073
0.000000 0.574731 0.920928
0.061555 0.484932 0.922850
0.448249 0.391455 0.921996
0.696315 0.359350 0.916136
0.859831 0.332128 0.908659
0.926848 0.461860 0.851499
0.975250 0.585931 0.748562
0.000000 0.626947 0.917937
0.059693 0.609003 0.918761
0.188418 0.530358 0.920745
0.438849 0.423011 0.920897
0.689448 0.391730 0.915068
0.854826 0.361456 0.907652
0.924559 0.477516 0.853117
0.972900 0.595758 0.751522
0.195804 0.703609 0.916075
0.267308 0.695705 0.915862
0.362707 0.651698 0.915618
0.421881 0.524865 0.920287
0.672114 0.496101 0.914519
0.838590 0.465492 0.906950
0.919890 0.542138 0.863066
0.966888 0.640131 0.768551
0.204654 0.791470 0.916747
0.274571 0.785702 0.916594
0.420203 0.763516 0.915007
0.550591 0.716518 0.913848
0.646540 0.624842 0.914488
0.812558 0.597436 0.907713
0.914702 0.628138 0.881102
0.959014 0.701717 0.795254
0.338598 0.840879 0.920562
0.368811 0.841001 0.920226
0.446265 0.839902 0.918029
0.547051 0.824949 0.915160
0.671473 0.774655 0.911711
0.775051 0.709224 0.909117
0.908049 0.704372 0.902342
0.949645 0.765866 0.826413
0.469612 0.869200 0.927703
0.485573 0.868894 0.927031
0.535454 0.868254 0.925048
0.604120 0.867674 0.921935
0.678523 0.866941 0.917296
0.767727 0.830503 0.912535
0.877104 0.789883 0.908324
0.941527 0.831174 0.863005
0.585748 0.898283 0.937499
0.595636 0.898283 0.937102
0.627253 0.898466 0.935882
0.675532 0.899290 0.934081
0.733120 0.900633 0.931182
0.793088 0.901762 0.926360
0.850736 0.882689 0.916472
0.930449 0.879973 0.891691
0.671229 0.923278 0.947417
0.677485 0.923339 0.947173
0.699336 0.923919 0.946471
0.735836 0.925383 0.945556
0.780423 0.927489 0.943938
0.827481 0.929839 0.941222
0.873411 0.930999 0.935760
0.911925 0.920317 0.914855
