其他预设/【234】港风调色预设/1.3D LUT预设（视频调色-PR-AE-PS-FCPX-达芬奇用）/7.港风色调 __.cube
# Created by Adobe Lightroom plugin Export LUT (1.17.0)
# www.johnrellis.com/lightroom/exportlut.htm
# Preset: 7.港风色调 [素锦印象]
# Color profile: /Library/Application Support/Adobe/Color/Profiles/Recommended/AdobeRGB1998.icc
LUT_3D_SIZE 32
0.074434 0.077058 0.069398
0.074861 0.076997 0.069398
0.075257 0.077272 0.069337
0.077577 0.077607 0.069642
0.081025 0.078096 0.069856
0.086732 0.078462 0.070405
0.095979 0.078767 0.070436
0.109133 0.079286 0.070588
0.127138 0.079011 0.070466
0.150851 0.077211 0.070344
0.181064 0.072847 0.069581
0.218143 0.063630 0.068360
0.262333 0.030457 0.065949
0.312657 0.000000 0.062623
0.366644 0.000000 0.057984
0.422431 0.000000 0.047028
0.477516 0.000000 0.031250
0.530083 0.000000 0.013703
0.578485 0.000000 0.000000
0.624353 0.000000 0.000000
0.670008 0.000000 0.000000
0.715755 0.000000 0.000000
0.755947 0.000000 0.000000
0.790494 0.000000 0.000000
0.820768 0.095613 0.000000
0.847807 0.166323 0.031739
0.872923 0.220554 0.078004
0.896910 0.270420 0.110964
0.919707 0.318029 0.146059
0.941222 0.364599 0.185916
0.961242 0.411200 0.231876
0.979614 0.458442 0.284794
0.074372 0.077424 0.069368
0.074800 0.077363 0.069337
0.075685 0.077211 0.069337
0.077577 0.077607 0.069642
0.081361 0.078035 0.070253
0.087037 0.078767 0.070375
0.096162 0.079408 0.070710
0.109316 0.079591 0.070893
0.127321 0.079316 0.070802
0.151003 0.077882 0.070253
0.180850 0.074128 0.069490
0.217746 0.065309 0.068269
0.261601 0.034424 0.066316
0.311681 0.000000 0.063050
0.365209 0.000000 0.058106
0.420386 0.000000 0.048188
0.475471 0.000000 0.031891
0.527886 0.000000 0.014496
0.576318 0.000000 0.000000
0.622339 0.000000 0.000000
0.668055 0.000000 0.000000
0.713252 0.000000 0.000000
0.753201 0.000000 0.000000
0.787869 0.000000 0.000000
0.818326 0.091646 0.000000
0.845579 0.163485 0.026184
0.870939 0.218204 0.075685
0.895109 0.268162 0.108797
0.918120 0.315831 0.144259
0.939849 0.362615 0.183749
0.960052 0.409247 0.229526
0.978576 0.456550 0.282139
0.074617 0.078096 0.069673
0.075074 0.077638 0.070100
0.075532 0.077943 0.069673
0.077821 0.078279 0.069947
0.081636 0.078676 0.070161
0.087617 0.079347 0.070680
0.096712 0.080018 0.070649
0.109773 0.080537 0.070802
0.127901 0.080201 0.070680
0.151461 0.078767 0.070527
0.181369 0.075013 0.069764
0.218143 0.066712 0.068513
0.261845 0.039796 0.066133
0.311650 0.000000 0.062837
0.365148 0.000000 0.058442
0.420356 0.000000 0.047700
0.474922 0.000000 0.032502
0.527245 0.000000 0.014984
0.575738 0.000000 0.000000
0.621576 0.000000 0.000000
0.667689 0.000000 0.000000
0.712398 0.000000 0.000000
0.752071 0.000000 0.000000
0.786770 0.000000 0.000000
0.817227 0.095796 0.000000
0.844541 0.164981 0.026734
0.869963 0.218967 0.075929
0.894224 0.268620 0.108339
0.917327 0.316167 0.143587
0.939117 0.362921 0.183474
0.959380 0.409216 0.228977
0.977996 0.456458 0.281437
0.074922 0.080140 0.070985
0.075349 0.080049 0.070954
0.076600 0.079500 0.071351
0.078279 0.079957 0.070527
0.082429 0.080293 0.070741
0.088808 0.080873 0.070832
0.098360 0.081361 0.070802
0.111696 0.082063 0.070924
0.129915 0.081941 0.070771
0.153658 0.080781 0.070558
0.183566 0.077241 0.069734
0.220249 0.069490 0.068452
0.263859 0.048524 0.066346
0.313512 0.000000 0.063020
0.366674 0.000000 0.058656
0.421546 0.000000 0.047669
0.475898 0.000000 0.033295
0.527703 0.000000 0.015961
0.575738 0.000000 0.000000
0.621271 0.000000 0.000000
0.667292 0.000000 0.000000
0.711116 0.000000 0.000000
0.750668 0.000000 0.000000
0.785458 0.000000 0.000000
0.816403 0.106783 0.000000
0.844114 0.172488 0.033112
0.869810 0.225010 0.078187
0.894255 0.274144 0.110689
0.917357 0.320928 0.145693
0.939055 0.366674 0.185245
0.959167 0.412177 0.230350
0.977600 0.458534 0.282231
0.075563 0.083986 0.073091
0.076081 0.083558 0.072755
0.077363 0.083040 0.072755
0.078553 0.081483 0.074281
0.082551 0.083589 0.071504
0.090639 0.084169 0.071168
0.100679 0.083833 0.071199
0.114443 0.084718 0.071260
0.132631 0.084810 0.071077
0.156741 0.083986 0.070771
0.186740 0.081025 0.069886
0.223362 0.074159 0.068482
0.267216 0.059480 0.066224
0.316350 0.001343 0.063203
0.369757 0.000000 0.058564
0.424445 0.000000 0.048005
0.478523 0.000000 0.033204
0.530327 0.000000 0.016144
0.578119 0.000000 0.000000
0.623316 0.000000 0.000000
0.669123 0.000000 0.000000
0.712032 0.000000 0.000000
0.750942 0.000000 0.000000
0.785428 0.000000 0.000000
0.816190 0.125612 0.000000
0.843839 0.184054 0.039124
0.869505 0.234287 0.081086
0.893828 0.281315 0.113344
0.916899 0.326757 0.147951
0.938537 0.371649 0.187533
0.958618 0.416266 0.232242
0.977050 0.462013 0.284306
0.074769 0.090761 0.076905
0.075410 0.090425 0.076265
0.077424 0.089570 0.074952
0.081788 0.087678 0.076356
0.083436 0.085847 0.077150
0.090608 0.089418 0.072786
0.104005 0.091188 0.071748
0.118379 0.089082 0.071687
0.137392 0.089082 0.071443
0.161807 0.088533 0.071046
0.192477 0.086336 0.069978
0.229648 0.080476 0.068727
0.273564 0.067567 0.066285
0.323003 0.026246 0.062898
0.375799 0.000000 0.058289
0.430304 0.000000 0.048005
0.483864 0.000000 0.032349
0.534966 0.000000 0.015534
0.582177 0.000000 0.000000
0.627863 0.000000 0.000000
0.673243 0.000000 0.000000
0.715480 0.000000 0.000000
0.772488 0.025025 0.000000
0.804837 0.129488 0.000000
0.833097 0.183780 0.026154
0.858549 0.229953 0.073671
0.882383 0.273289 0.103151
0.904936 0.315526 0.135195
0.926329 0.356878 0.169497
0.946319 0.398352 0.209476
0.964904 0.440070 0.254490
0.981842 0.483223 0.306523
0.072724 0.103120 0.083925
0.074128 0.102235 0.082460
0.076387 0.101534 0.080629
0.081910 0.099306 0.078798
0.089479 0.093965 0.083497
0.092714 0.094362 0.081849
0.104982 0.099886 0.074617
0.126497 0.103273 0.071809
0.146731 0.099550 0.071504
0.172763 0.095857 0.071260
0.204776 0.093935 0.070253
0.243870 0.088197 0.068574
0.288792 0.077638 0.066316
0.338598 0.053407 0.062348
0.390997 0.000000 0.056977
0.444129 0.000000 0.046387
0.496315 0.000000 0.030243
0.545739 0.000000 0.013581
0.591852 0.000000 0.000000
0.639521 0.000000 0.000000
0.685206 0.000000 0.000000
0.728084 0.000000 0.000000
0.766873 0.083070 0.000000
0.800931 0.148745 0.000000
0.830808 0.199008 0.035859
0.857053 0.243565 0.077516
0.881224 0.285222 0.107485
0.903838 0.325689 0.139010
0.925231 0.365698 0.173678
0.945190 0.405585 0.212650
0.963714 0.446174 0.257389
0.980652 0.488350 0.309087
0.068696 0.120089 0.094209
0.070832 0.119326 0.092409
0.074067 0.118257 0.089448
0.080903 0.115480 0.085634
0.094484 0.110079 0.089296
0.098726 0.102144 0.095308
0.107240 0.106722 0.088411
0.124941 0.114412 0.077363
0.155459 0.119844 0.071443
0.182315 0.114260 0.071046
0.214237 0.104952 0.070588
0.253635 0.099763 0.069062
0.298589 0.091402 0.066468
0.348028 0.076020 0.062501
0.399969 0.039216 0.057160
0.452094 0.000000 0.046693
0.503258 0.000000 0.031739
0.551629 0.000000 0.015076
0.598505 0.000000 0.000092
0.644709 0.000000 0.000000
0.688563 0.000000 0.000000
0.730159 0.063172 0.000000
0.767758 0.127657 0.000000
0.801022 0.176638 0.003082
0.830411 0.220432 0.051637
0.856352 0.260929 0.083925
0.880339 0.299992 0.113191
0.902922 0.338262 0.144076
0.924254 0.376379 0.178164
0.944152 0.414893 0.217288
0.962646 0.454414 0.262181
0.979614 0.495369 0.313390
0.060945 0.144045 0.109285
0.064485 0.143038 0.106691
0.069429 0.141756 0.103334
0.078431 0.138735 0.097719
0.093233 0.133761 0.094942
0.111482 0.123812 0.104799
0.110079 0.113893 0.113832
0.129091 0.124453 0.098207
0.153109 0.134737 0.082063
0.194827 0.143282 0.071717
0.228977 0.135042 0.069154
0.267582 0.122194 0.068544
0.311681 0.108003 0.066499
0.360723 0.097719 0.062776
0.411780 0.081727 0.057435
0.462745 0.058228 0.046845
0.512596 0.000000 0.031647
0.561181 0.000000 0.015320
0.607385 0.000000 0.001190
0.651545 0.004089 0.000000
0.693751 0.080018 0.000000
0.733791 0.124208 0.000000
0.770077 0.166567 0.000000
0.802365 0.206943 0.021454
0.831052 0.245212 0.065736
0.856626 0.282139 0.092683
0.880339 0.318151 0.120729
0.902678 0.353948 0.151095
0.923766 0.390143 0.185580
0.943511 0.426886 0.224033
0.961822 0.464790 0.268650
0.978668 0.504265 0.319371
0.033997 0.175753 0.130068
0.045960 0.174533 0.126925
0.058747 0.173068 0.123110
0.072633 0.169619 0.115908
0.090913 0.164340 0.108888
0.118807 0.155032 0.117739
0.132540 0.140871 0.128115
0.133516 0.135195 0.131960
0.159213 0.148714 0.111330
0.190677 0.161685 0.089296
0.244846 0.173404 0.072297
0.285924 0.162295 0.065339
0.329473 0.146670 0.064454
0.375097 0.123445 0.062715
0.425147 0.111940 0.057618
0.475593 0.100984 0.047852
0.526116 0.091279 0.032593
0.574060 0.088746 0.017395
0.618219 0.095979 0.003754
0.660243 0.113130 0.000000
0.700343 0.138643 0.000000
0.738277 0.169650 0.000000
0.772671 0.202304 0.008057
0.803494 0.236240 0.046296
0.831144 0.269902 0.075715
0.856199 0.303166 0.101961
0.879759 0.336980 0.129213
0.902098 0.370733 0.159609
0.923217 0.405249 0.193973
0.942962 0.440742 0.232944
0.961303 0.477363 0.277226
0.978088 0.515831 0.328496
0.000000 0.215427 0.156252
0.000000 0.214633 0.153567
0.012451 0.212741 0.149142
0.057832 0.209049 0.141024
0.085512 0.202884 0.131106
0.114107 0.194888 0.128084
0.149752 0.179263 0.145876
0.157351 0.162051 0.159457
0.165743 0.163485 0.154574
0.199435 0.180392 0.128359
0.239017 0.196048 0.099428
0.305791 0.212375 0.072663
0.351202 0.198520 0.061982
0.397101 0.180972 0.055726
0.442969 0.157473 0.054353
0.491798 0.139040 0.048310
0.540642 0.137270 0.034974
0.585718 0.139803 0.021210
0.627588 0.147829 0.010040
0.667750 0.162448 0.002594
0.706508 0.183383 0.000885
0.742794 0.208988 0.009247
0.776028 0.237888 0.032929
0.805844 0.267643 0.065492
0.832761 0.297856 0.088045
0.857237 0.327947 0.112581
0.880278 0.358648 0.139742
0.902190 0.389990 0.169741
0.922972 0.422126 0.203281
0.942412 0.455726 0.242191
0.960540 0.490669 0.286687
0.977111 0.527703 0.337774
0.000000 0.265476 0.188876
0.000000 0.263981 0.184878
0.000000 0.262211 0.180636
0.000000 0.258305 0.172244
0.071992 0.251957 0.160891
0.110109 0.243137 0.151797
0.159640 0.229618 0.167361
0.187228 0.207828 0.181704
0.185306 0.187198 0.198184
0.208682 0.199374 0.181033
0.250553 0.219944 0.149508
0.298131 0.238712 0.112551
0.390143 0.271519 0.074495
0.441047 0.256748 0.056092
0.489326 0.239628 0.028107
0.534020 0.218326 0.030610
0.575067 0.193271 0.036622
0.616449 0.197726 0.028870
0.655055 0.207889 0.022278
0.692287 0.222812 0.021149
0.727718 0.241947 0.029084
0.760372 0.263981 0.049378
0.790097 0.287541 0.069245
0.817166 0.312840 0.088014
0.841764 0.338293 0.110231
0.864775 0.364813 0.134188
0.886534 0.391791 0.160586
0.907164 0.419715 0.190402
0.926787 0.448920 0.223514
0.945251 0.479683 0.262333
0.962371 0.512352 0.306584
0.978210 0.547021 0.356878
0.000000 0.329808 0.229221
0.000000 0.328557 0.225864
0.000000 0.326177 0.221164
0.000000 0.321477 0.211673
0.017884 0.314153 0.198795
0.103151 0.304051 0.186191
0.153872 0.290990 0.183719
0.211704 0.268620 0.208652
0.232975 0.243046 0.225681
0.220981 0.220462 0.243870
0.266850 0.247318 0.213443
0.319707 0.274205 0.178256
0.377874 0.299474 0.133944
0.465248 0.332006 0.081819
0.513115 0.315618 0.058869
0.556237 0.298619 0.006165
0.594476 0.278447 0.018738
0.629145 0.256901 0.034821
0.663630 0.249821 0.044007
0.698909 0.263066 0.046601
0.732631 0.279881 0.057099
0.763821 0.299260 0.068360
0.792355 0.320317 0.083772
0.818448 0.342321 0.101778
0.842435 0.365393 0.123507
0.864927 0.388830 0.146365
0.886320 0.413581 0.172610
0.906676 0.439521 0.201846
0.926024 0.466926 0.235355
0.944305 0.496040 0.273655
0.961334 0.527031 0.317540
0.977020 0.560510 0.368170
0.000000 0.392462 0.270054
0.000000 0.391089 0.266850
0.000000 0.388922 0.262089
0.000000 0.384100 0.252201
0.000000 0.376593 0.239078
0.087922 0.366583 0.224613
0.150149 0.353979 0.214145
0.224338 0.336156 0.235203
0.270054 0.308721 0.254246
0.282475 0.281437 0.274327
0.281712 0.272343 0.282139
0.334844 0.303471 0.249058
0.391943 0.332525 0.208804
0.450385 0.358465 0.158816
0.533806 0.394110 0.097932
0.575311 0.376532 0.072602
0.612116 0.358495 0.024872
0.644862 0.339666 0.027497
0.675563 0.320348 0.050538
0.705776 0.302831 0.065156
0.737911 0.317845 0.073182
0.767880 0.334905 0.084260
0.795254 0.353429 0.099825
0.820584 0.373083 0.117159
0.843839 0.393286 0.138247
0.865873 0.414740 0.160983
0.886839 0.437507 0.187472
0.906859 0.461250 0.216342
0.925872 0.486885 0.249607
0.943847 0.514275 0.287968
0.960601 0.543755 0.331823
0.976104 0.575799 0.382025
0.000000 0.459174 0.314458
0.000000 0.458106 0.311498
0.000000 0.455940 0.306920
0.000000 0.451881 0.298100
0.000000 0.444800 0.284764
0.066041 0.435828 0.269993
0.152621 0.423743 0.256413
0.219730 0.408423 0.255161
0.299382 0.383276 0.286473
0.333898 0.353094 0.305821
0.334630 0.324529 0.327276
0.349493 0.330022 0.321538
0.405127 0.362432 0.285130
0.461433 0.391577 0.241215
0.516564 0.416724 0.186984
0.592004 0.453071 0.122286
0.628107 0.435248 0.097993
0.659937 0.417090 0.067781
0.689418 0.399786 0.060365
0.717708 0.383062 0.074189
0.744686 0.367285 0.088350
0.772091 0.370245 0.101259
0.798367 0.386419 0.115969
0.822721 0.403449 0.133883
0.845457 0.421668 0.154330
0.867033 0.441321 0.177798
0.887816 0.462318 0.203891
0.907683 0.484810 0.233249
0.926543 0.509331 0.267674
0.944335 0.535546 0.306554
0.960876 0.563867 0.350958
0.976165 0.594690 0.401251
0.000000 0.525994 0.363836
0.000000 0.524987 0.360723
0.000000 0.523247 0.356603
0.000000 0.519280 0.347906
0.000000 0.513176 0.335546
0.043458 0.504570 0.319768
0.159854 0.493721 0.304967
0.229953 0.480171 0.295384
0.318456 0.459693 0.319310
0.374975 0.430518 0.340948
0.396857 0.399390 0.360601
0.385168 0.369421 0.382025
0.418555 0.389807 0.360967
0.471626 0.420691 0.321874
0.523186 0.447456 0.274998
0.572045 0.469795 0.218296
0.640742 0.505486 0.152682
0.672816 0.488502 0.128817
0.702205 0.472023 0.102358
0.729854 0.457069 0.091829
0.755306 0.442451 0.105531
0.779660 0.428565 0.120272
0.803006 0.420996 0.136080
0.826505 0.436011 0.153658
0.848508 0.452216 0.174258
0.869627 0.470039 0.197452
0.889891 0.489143 0.223575
0.909239 0.510063 0.253483
0.927550 0.532586 0.287205
0.944732 0.557061 0.326207
0.960784 0.583368 0.369665
0.975494 0.612451 0.419440
0.000000 0.583795 0.410285
0.000000 0.582635 0.407294
0.000000 0.581079 0.403815
0.000000 0.577417 0.395544
0.000000 0.571832 0.383703
0.061280 0.563897 0.368780
0.172946 0.553948 0.353491
0.245701 0.541588 0.341192
0.316747 0.525231 0.340826
0.402075 0.500084 0.374365
0.440406 0.470680 0.392554
0.450538 0.440803 0.412085
0.430945 0.413123 0.431403
0.481331 0.446021 0.397498
0.529931 0.474617 0.357580
0.576257 0.498451 0.309880
0.620294 0.518425 0.252903
0.683589 0.553765 0.187167
0.712886 0.538018 0.163882
0.739376 0.522545 0.140963
0.764401 0.508721 0.129274
0.787076 0.495216 0.142733
0.808652 0.482460 0.157900
0.829313 0.470802 0.173678
0.850523 0.480781 0.193606
0.871153 0.496956 0.216953
0.890990 0.514611 0.243320
0.909941 0.533898 0.272892
0.927886 0.554894 0.306920
0.944671 0.577935 0.345861
0.960388 0.602899 0.389288
0.974853 0.630579 0.438300
0.000000 0.636347 0.456031
0.000000 0.635584 0.453834
0.000000 0.649165 0.464576
0.000000 0.645808 0.457069
0.000000 0.640284 0.446021
0.124636 0.632868 0.432105
0.212131 0.623285 0.417151
0.282506 0.611048 0.402441
0.347021 0.596246 0.392767
0.431556 0.575463 0.416632
0.485695 0.548882 0.437720
0.509453 0.520592 0.454566
0.508232 0.491218 0.472206
0.502373 0.479744 0.477089
0.547204 0.508812 0.443000
0.590326 0.533776 0.402655
0.631830 0.555047 0.354925
0.671321 0.572686 0.298131
0.727626 0.605310 0.233188
0.752987 0.589532 0.210452
0.776272 0.574334 0.188052
0.798276 0.560723 0.176547
0.818021 0.547539 0.189670
0.837034 0.535729 0.204562
0.855467 0.524865 0.220829
0.874205 0.526238 0.240635
0.892943 0.541466 0.266026
0.910948 0.558465 0.294957
0.928222 0.577569 0.328191
0.944579 0.598749 0.366278
0.959808 0.622400 0.409613
0.973968 0.648432 0.457465
0.000000 0.687098 0.502831
0.000000 0.688167 0.502953
0.000000 0.688685 0.501884
0.000000 0.687404 0.497200
0.016205 0.683864 0.488808
0.167208 0.677852 0.477333
0.242832 0.669459 0.463264
0.308080 0.658869 0.449439
0.369482 0.646052 0.438300
0.431556 0.630091 0.438636
0.507530 0.606806 0.470741
0.541680 0.580987 0.485420
0.554894 0.554253 0.501061
0.545647 0.526604 0.517205
0.554528 0.529473 0.509422
0.595026 0.555718 0.476600
0.634363 0.578363 0.437812
0.672297 0.597589 0.391272
0.707912 0.613275 0.336187
0.758633 0.643458 0.273960
0.781491 0.628626 0.252567
0.803098 0.614740 0.232395
0.823484 0.602197 0.221347
0.841703 0.590723 0.235782
0.859434 0.580468 0.251255
0.876951 0.571466 0.268406
0.894255 0.566888 0.288396
0.911803 0.582483 0.317449
0.928557 0.600183 0.350652
0.944457 0.619898 0.388098
0.959289 0.642023 0.430579
0.973114 0.666712 0.477821
0.000000 0.726802 0.541924
0.000000 0.727382 0.541802
0.000000 0.727810 0.541009
0.000000 0.726528 0.537072
0.146426 0.723384 0.529808
0.217624 0.718135 0.519768
0.280369 0.710994 0.508202
0.339269 0.701808 0.495369
0.395972 0.690761 0.483803
0.449104 0.677699 0.476692
0.518761 0.659693 0.498085
0.566949 0.637201 0.517998
0.589899 0.613001 0.531548
0.594995 0.587701 0.545922
0.579797 0.561975 0.560540
0.602747 0.577295 0.542290
0.639490 0.600946 0.510643
0.675074 0.621271 0.473610
0.708736 0.637964 0.430091
0.740658 0.651392 0.378302
0.785641 0.677699 0.319585
0.807065 0.665003 0.298131
0.827420 0.652522 0.279332
0.846494 0.641260 0.270665
0.863371 0.631189 0.285863
0.880034 0.622248 0.302220
0.896361 0.614984 0.320867
0.912535 0.609888 0.342168
0.928649 0.622248 0.373510
0.944060 0.640497 0.410254
0.958526 0.661219 0.451942
0.972076 0.684474 0.497688
0.000000 0.761227 0.578088
0.077272 0.761654 0.578058
0.117464 0.761929 0.577508
0.166812 0.760739 0.574212
0.219486 0.757961 0.568505
0.271824 0.753323 0.559899
0.323613 0.747097 0.549889
0.375036 0.739162 0.538567
0.425574 0.729641 0.527947
0.473793 0.718654 0.520043
0.524254 0.705196 0.522210
0.586725 0.686397 0.551171
0.616266 0.665614 0.562860
0.631128 0.643427 0.575341
0.630243 0.620356 0.588403
0.612909 0.598322 0.600824
0.647578 0.623285 0.575586
0.680934 0.644831 0.546715
0.712825 0.662959 0.513024
0.743130 0.677821 0.473945
0.771969 0.689662 0.427192
0.811948 0.712032 0.374517
0.832944 0.702510 0.352697
0.852415 0.691524 0.335180
0.870329 0.681697 0.330510
0.885985 0.673335 0.346746
0.901335 0.666285 0.365118
0.916503 0.661158 0.385992
0.931426 0.658228 0.410407
0.946014 0.666529 0.442542
0.959777 0.685725 0.482918
0.972686 0.707607 0.527520
0.205783 0.795132 0.617060
0.216739 0.795010 0.616571
0.230198 0.794491 0.615381
0.256779 0.792813 0.612024
0.291844 0.789853 0.606622
0.331487 0.785489 0.599359
0.373724 0.780117 0.590997
0.417670 0.773373 0.581689
0.462226 0.765438 0.572534
0.505730 0.756283 0.565606
0.547295 0.745815 0.562341
0.602289 0.731167 0.581903
0.641535 0.713985 0.599573
0.661982 0.695521 0.610315
0.670100 0.675990 0.621424
0.664607 0.655390 0.632929
0.659693 0.647089 0.635340
0.689601 0.668330 0.612329
0.718379 0.686458 0.585718
0.746120 0.701411 0.554376
0.772549 0.713466 0.517937
0.798093 0.722866 0.474098
0.833951 0.741573 0.425574
0.853910 0.733608 0.401923
0.872099 0.723507 0.385687
0.888548 0.714839 0.384924
0.903105 0.707729 0.402564
0.917449 0.702480 0.422766
0.931609 0.699336 0.446174
0.945464 0.698787 0.472938
0.959045 0.704616 0.505333
0.971618 0.725216 0.548913
0.289097 0.820829 0.648554
0.296117 0.820768 0.648310
0.306737 0.820371 0.647578
0.325994 0.818875 0.644892
0.353124 0.816098 0.640284
0.384466 0.812314 0.634363
0.419593 0.807401 0.627283
0.457313 0.801389 0.619318
0.495705 0.794522 0.611872
0.534539 0.786526 0.605585
0.572198 0.777493 0.602014
0.611505 0.766751 0.606958
0.659968 0.752224 0.632136
0.683467 0.736599 0.641077
0.697139 0.720272 0.650568
0.700435 0.703090 0.660395
0.691951 0.685206 0.670649
0.697871 0.687892 0.665705
0.723934 0.706172 0.645533
0.749233 0.721706 0.621881
0.773861 0.734554 0.593591
0.798032 0.745083 0.560235
0.821775 0.753384 0.520409
0.854398 0.769345 0.476600
0.871855 0.760708 0.447913
0.889006 0.751675 0.433631
0.904112 0.744381 0.438849
0.917693 0.739010 0.458137
0.931121 0.735561 0.480446
0.944366 0.734554 0.505852
0.957427 0.736629 0.535454
0.970275 0.742519 0.569787
0.367285 0.846616 0.682643
0.373907 0.846464 0.682277
0.381384 0.846006 0.681544
0.396307 0.844450 0.679133
0.416449 0.841947 0.675441
0.441718 0.838376 0.670405
0.470161 0.833982 0.664485
0.501610 0.828550 0.657893
0.534722 0.822110 0.651270
0.568078 0.814878 0.645563
0.600916 0.806729 0.641962
0.631891 0.797787 0.641260
0.672236 0.785946 0.657130
0.702327 0.772488 0.671473
0.718410 0.758236 0.678767
0.726467 0.743252 0.686488
0.725887 0.727749 0.694606
0.714992 0.711727 0.703304
0.729702 0.722438 0.692744
0.752682 0.738216 0.675044
0.775479 0.751888 0.654261
0.797910 0.763394 0.629541
0.820035 0.772580 0.599481
0.841764 0.779416 0.562310
0.871031 0.792386 0.521721
0.888853 0.786923 0.496712
0.905058 0.779019 0.484352
0.918547 0.773068 0.495827
0.931151 0.769284 0.516411
0.943633 0.767788 0.540490
0.956023 0.769192 0.568750
0.968261 0.774228 0.601617
0.427497 0.866300 0.709895
0.432715 0.866178 0.709804
0.439094 0.865751 0.709285
0.450874 0.864439 0.707424
0.467689 0.862211 0.704494
0.488838 0.859159 0.700618
0.513573 0.855253 0.695735
0.540459 0.850675 0.690852
0.569543 0.845212 0.685725
0.599176 0.839078 0.681331
0.627649 0.832395 0.678126
0.655360 0.824887 0.676692
0.683925 0.816251 0.681392
0.719692 0.804959 0.700710
0.737881 0.792844 0.707393
0.749233 0.780148 0.713893
0.753719 0.766934 0.720821
0.750668 0.753475 0.728176
0.740291 0.741085 0.735164
0.761074 0.756710 0.721798
0.781643 0.770535 0.706447
0.802090 0.782437 0.688411
0.822263 0.792264 0.666804
0.842039 0.800076 0.640711
0.861601 0.805722 0.607813
0.887846 0.816220 0.571038
0.904601 0.811765 0.546410
0.919860 0.805112 0.537163
0.931914 0.801144 0.555535
0.943664 0.799466 0.578576
0.955352 0.800381 0.605158
0.967041 0.804288 0.635187
0.485634 0.884459 0.737087
0.489693 0.884306 0.737087
0.494484 0.883818 0.736507
0.504204 0.882536 0.734859
0.517845 0.880491 0.732387
0.535363 0.877745 0.729244
0.555810 0.874388 0.725582
0.578973 0.870298 0.721523
0.603662 0.865599 0.717311
0.628717 0.860502 0.713741
0.653712 0.854795 0.710750
0.677760 0.848753 0.709285
0.700740 0.841947 0.709529
0.730800 0.832944 0.721920
0.754543 0.822873 0.733608
0.767941 0.811948 0.739040
0.775784 0.800626 0.744839
0.777707 0.789029 0.751125
0.772824 0.777218 0.757900
0.770291 0.773220 0.759731
0.789120 0.786923 0.747921
0.807767 0.798917 0.734463
0.825986 0.809110 0.718776
0.843931 0.817533 0.700160
0.861570 0.824094 0.677302
0.879057 0.828763 0.648798
0.902403 0.837400 0.617090
0.918334 0.834012 0.593561
0.931762 0.828733 0.592432
0.943084 0.826596 0.612665
0.954314 0.826810 0.636622
0.965576 0.829526 0.663539
0.537346 0.899962 0.761959
0.540581 0.899718 0.761715
0.544610 0.899229 0.761257
0.552392 0.898192 0.760098
0.564416 0.896513 0.758389
0.579522 0.894347 0.756161
0.597711 0.891722 0.753780
0.617945 0.888640 0.751247
0.639521 0.885252 0.748836
0.661921 0.881376 0.746639
0.683986 0.877195 0.744961
0.705501 0.872587 0.744076
0.725795 0.867521 0.744381
0.747433 0.861326 0.748806
0.774777 0.853117 0.763729
0.789944 0.844297 0.769589
0.799863 0.835080 0.774533
0.805081 0.825498 0.779782
0.805173 0.815763 0.785519
0.799161 0.805844 0.791623
0.803311 0.808225 0.789487
0.819913 0.819730 0.779232
0.836149 0.829648 0.767453
0.852049 0.837980 0.753750
0.867582 0.844755 0.737697
0.882872 0.850065 0.718532
0.898161 0.853849 0.694942
0.918486 0.860655 0.668391
0.933196 0.858335 0.648157
0.944640 0.854490 0.654170
0.955291 0.853910 0.674281
0.966033 0.855741 0.697871
0.593378 0.915984 0.789242
0.595850 0.915679 0.788937
0.598810 0.915312 0.788632
0.604730 0.914366 0.787655
0.614008 0.912871 0.786221
0.625818 0.910948 0.784329
0.640009 0.908659 0.782254
0.656184 0.905913 0.779965
0.673487 0.902861 0.777707
0.691737 0.899474 0.775570
0.710048 0.895750 0.773739
0.728450 0.891661 0.772610
0.746365 0.887175 0.772335
0.763577 0.882200 0.773465
0.786587 0.875547 0.783413
0.805844 0.868223 0.793179
