其他预设/【234】港风调色预设/1.3D LUT预设（视频调色-PR-AE-PS-FCPX-达芬奇用）/7.港风色调 __.cube
# Created by Adobe Lightroom plugin Export LUT (1.17.0)
# www.johnrellis.com/lightroom/exportlut.htm
# Preset: 7.港风色调 [素锦印象]
# Color profile: /Library/Application Support/Adobe/Color/Profiles/Recommended/AdobeRGB1998.icc
LUT_3D_SIZE 5
DOMAIN_MIN 0.000000 0.000000 0.000000
DOMAIN_MAX 0.903226 0.903226 0.903226
0.074434 0.077058 0.069398
0.109133 0.079286 0.070588
0.366644 0.000000 0.057984
0.715755 0.000000 0.000000
0.919707 0.318029 0.146059
0.068696 0.120089 0.094209
0.124941 0.114412 0.077363
0.399969 0.039216 0.057160
0.730159 0.063172 0.000000
0.924254 0.376379 0.178164
0.000000 0.459174 0.314458
0.219730 0.408423 0.255161
0.516564 0.416724 0.186984
0.772091 0.370245 0.101259
0.926543 0.509331 0.267674
0.205783 0.795132 0.617060
0.417670 0.773373 0.581689
0.670100 0.675990 0.621424
0.798093 0.722866 0.474098
0.931609 0.699336 0.446174
0.634791 0.928466 0.810575
0.687343 0.920165 0.803677
0.794400 0.892607 0.798123
0.837919 0.847379 0.839292
0.926848 0.890227 0.761563
0.064118 0.085756 0.113954
0.135531 0.070405 0.088045
0.388891 0.000000 0.075441
0.718318 0.000000 0.000000
0.916350 0.329137 0.148775
0.000000 0.140749 0.174960
0.136629 0.140871 0.149508
0.422034 0.108980 0.109346
0.731136 0.141970 0.000000
0.918914 0.378637 0.175540
0.000000 0.522057 0.482551
0.153384 0.477211 0.375677
0.511681 0.432715 0.291234
0.766598 0.386908 0.158999
0.926177 0.513909 0.270695
0.142458 0.811063 0.683162
0.401495 0.790616 0.645930
0.680507 0.705745 0.639094
0.792905 0.730037 0.534783
0.932280 0.702144 0.449958
0.618921 0.933928 0.830106
0.675319 0.925597 0.821256
0.791867 0.901549 0.809384
0.846891 0.856168 0.844816
0.926024 0.893400 0.778225
0.000000 0.149783 0.454627
0.000000 0.070344 0.443488
0.580194 0.000000 0.258549
0.770565 0.172610 0.227085
0.925170 0.369360 0.175204
0.000000 0.334447 0.502647
0.000000 0.228702 0.484993
0.578363 0.000000 0.332952
0.750057 0.311681 0.312322
0.927489 0.407050 0.198001
0.000000 0.546777 0.620783
0.000000 0.539361 0.599603
0.530358 0.511711 0.522850
0.759335 0.509758 0.453254
0.928893 0.534081 0.329381
0.000000 0.790127 0.787259
0.317327 0.789242 0.783780
0.635767 0.780911 0.711055
0.783200 0.753048 0.664332
0.921050 0.710628 0.563378
0.562890 0.950652 0.898924
0.627314 0.943603 0.886503
0.759548 0.922057 0.848966
0.863615 0.879362 0.852873
0.921233 0.898100 0.812253
0.000000 0.340520 0.771878
0.000000 0.182101 0.771817
0.629877 0.000000 0.752926
0.869932 0.127413 0.542138
0.964874 0.471229 0.467994
0.000000 0.524956 0.776974
0.000000 0.428809 0.774441
0.595697 0.146120 0.760311
0.857237 0.334478 0.581109
0.952300 0.528893 0.518151
0.000000 0.708705 0.802090
0.068818 0.705257 0.795071
0.524590 0.618708 0.772915
0.819577 0.597803 0.676600
0.915221 0.654749 0.630426
0.328099 0.809415 0.844388
0.431434 0.806546 0.839139
0.624018 0.801083 0.822232
0.774685 0.779995 0.773739
0.904082 0.760525 0.713680
0.610437 0.913664 0.916258
0.645472 0.914916 0.916411
0.732326 0.920562 0.917784
0.841978 0.922972 0.883757
0.917571 0.907958 0.859648
0.000000 0.594842 0.920073
0.000000 0.517174 0.922118
0.588891 0.375250 0.919310
0.889677 0.358190 0.907134
0.975250 0.585931 0.748562
0.191531 0.684291 0.916655
0.313848 0.640528 0.917052
0.569665 0.481758 0.917967
0.876249 0.445747 0.905516
0.968933 0.628992 0.764309
0.263157 0.827512 0.917693
0.373999 0.816922 0.916014
0.614984 0.745418 0.911986
0.829801 0.644129 0.905211
0.954284 0.732753 0.809781
0.505943 0.877470 0.930602
0.550561 0.877012 0.928832
0.659480 0.876677 0.923583
0.790036 0.844205 0.913237
0.938811 0.843931 0.870298
0.671229 0.923278 0.947417
0.692317 0.923705 0.946685
0.757595 0.926390 0.944884
0.839231 0.930358 0.940276
0.911925 0.920317 0.914855
