其他预设/【234】港风调色预设/1.3D LUT预设（视频调色-PR-AE-PS-FCPX-达芬奇用）/8.港风色调-暗调场景 __.cube
# Created by Adobe Lightroom plugin Export LUT (1.17.0)
# www.johnrellis.com/lightroom/exportlut.htm
# Preset: 8.港风色调-暗调场景 [素锦印象]
# Color profile: /Library/Application Support/Adobe/Color/Profiles/Recommended/AdobeRGB1998.icc
LUT_3D_SIZE 32
0.000000 0.000000 0.000000
0.019867 0.003632 0.003510
0.053925 0.009155 0.008606
0.080751 0.034638 0.020905
0.109407 0.053346 0.031220
0.138094 0.059358 0.038087
0.165713 0.060914 0.043275
0.193606 0.062104 0.048005
0.223667 0.061830 0.049836
0.257511 0.060517 0.051331
0.296513 0.054292 0.051789
0.344518 0.034882 0.051606
0.401038 0.001465 0.050843
0.463691 0.000000 0.049775
0.528710 0.000000 0.048859
0.590753 0.000000 0.050294
0.647089 0.054566 0.057801
0.697963 0.106355 0.065888
0.752682 0.159426 0.080293
0.798734 0.207462 0.097566
0.837491 0.252110 0.117708
0.870146 0.293645 0.140047
0.897154 0.331518 0.163272
0.919768 0.366644 0.187686
0.938750 0.398932 0.213046
0.955138 0.429908 0.239780
0.969512 0.460212 0.268284
0.982238 0.490028 0.298741
0.993347 0.519524 0.330968
1.000000 0.548638 0.364782
1.000000 0.576989 0.399542
1.000000 0.603967 0.434058
0.000000 0.016388 0.001923
0.011017 0.011963 0.008484
0.056733 0.027283 0.009186
0.085634 0.053986 0.023011
0.119387 0.063142 0.033753
0.151186 0.065888 0.040833
0.180453 0.066835 0.045197
0.209628 0.067323 0.048798
0.239841 0.066438 0.050111
0.274113 0.064454 0.051728
0.313817 0.058991 0.051301
0.360784 0.040558 0.051301
0.415961 0.010193 0.049775
0.477028 0.000000 0.048798
0.538567 0.000000 0.048402
0.598688 0.001068 0.050385
0.652857 0.073793 0.057496
0.701991 0.116976 0.066072
0.753719 0.165286 0.079713
0.797818 0.210513 0.096742
0.835447 0.252781 0.116335
0.867552 0.292729 0.137911
0.894469 0.329839 0.160616
0.917235 0.364294 0.184634
0.936461 0.396582 0.209659
0.953124 0.427375 0.236332
0.967864 0.457588 0.264683
0.980865 0.487739 0.295293
0.992187 0.517357 0.327611
1.000000 0.546624 0.361547
1.000000 0.575158 0.396429
1.000000 0.602350 0.431189
0.000488 0.052766 0.008484
0.015259 0.051820 0.008209
0.036713 0.039765 0.030426
0.090974 0.068818 0.027375
0.134218 0.075685 0.036103
0.170596 0.077455 0.042695
0.202274 0.077089 0.046906
0.232547 0.075929 0.049348
0.264164 0.074037 0.050446
0.298833 0.070527 0.050385
0.338903 0.064668 0.050294
0.385657 0.052247 0.049683
0.439307 0.024842 0.048585
0.498054 0.003021 0.047272
0.557092 0.007721 0.047272
0.612543 0.057130 0.050050
0.663752 0.094697 0.058350
0.710994 0.133303 0.067140
0.759243 0.176883 0.080934
0.801205 0.219150 0.097841
0.837430 0.259434 0.117006
0.868559 0.297765 0.138277
0.894987 0.333928 0.160800
0.917205 0.366979 0.184482
0.936248 0.398657 0.209537
0.952758 0.428779 0.235813
0.967468 0.458869 0.264164
0.980438 0.488594 0.294469
0.991852 0.517937 0.326787
1.000000 0.547051 0.360632
1.000000 0.575372 0.395453
1.000000 0.602411 0.430213
0.000000 0.087098 0.034394
0.014435 0.086458 0.020081
0.054902 0.082490 0.026612
0.069398 0.072358 0.064912
0.137179 0.107149 0.061494
0.220096 0.114900 0.040620
0.257786 0.108858 0.043641
0.291691 0.102602 0.044739
0.324285 0.096040 0.045472
0.359594 0.089509 0.045930
0.398657 0.082216 0.045136
0.442969 0.075013 0.044221
0.493355 0.069947 0.042756
0.545922 0.071321 0.041596
0.596551 0.083314 0.043793
0.644862 0.106691 0.049622
0.689052 0.134646 0.060304
0.731685 0.166964 0.070161
0.773556 0.203525 0.084291
0.810422 0.239963 0.101015
0.843107 0.275639 0.119692
0.871977 0.310399 0.140230
0.897124 0.343999 0.162478
0.918853 0.376074 0.186313
0.937682 0.406867 0.211521
0.954162 0.436774 0.238499
0.968688 0.466133 0.267155
0.981476 0.495308 0.297642
0.992554 0.523888 0.329778
1.000000 0.551995 0.363043
1.000000 0.579187 0.397101
1.000000 0.605219 0.431037
0.000000 0.137301 0.061372
0.001373 0.136324 0.054536
0.033295 0.132296 0.035615
0.081361 0.122164 0.057313
0.097780 0.103914 0.092287
0.185397 0.157870 0.093233
0.328069 0.179294 0.044526
0.394965 0.164584 0.018433
0.426825 0.149264 0.024048
0.459785 0.138308 0.025727
0.493599 0.129976 0.027161
0.531426 0.126192 0.028077
0.572747 0.128176 0.028748
0.613794 0.136202 0.031922
0.653407 0.149660 0.040650
0.691279 0.167880 0.053040
0.726864 0.189639 0.064851
0.763333 0.216556 0.077333
0.797726 0.246067 0.092042
0.828611 0.275822 0.108827
0.856535 0.305821 0.127382
0.881773 0.335882 0.147433
0.904112 0.365270 0.169100
0.923888 0.394079 0.192386
0.941344 0.422278 0.217258
0.956786 0.449928 0.243626
0.970520 0.477424 0.271794
0.982605 0.504540 0.301549
0.993225 0.531701 0.332952
1.000000 0.558526 0.365637
1.000000 0.584649 0.399115
1.000000 0.609766 0.432685
0.000000 0.201450 0.074159
0.000000 0.200595 0.069001
0.000000 0.196994 0.050507
0.062654 0.186984 0.047211
0.117037 0.172183 0.080385
0.138064 0.150546 0.134951
0.240940 0.216709 0.144564
0.409644 0.257176 0.095064
0.567987 0.265660 0.000000
0.591424 0.243809 0.000000
0.615412 0.230228 0.000000
0.640070 0.222477 0.000000
0.666926 0.221744 0.010407
0.693843 0.225101 0.025788
0.720424 0.232578 0.046754
0.747097 0.244083 0.062593
0.772885 0.258396 0.074830
0.801694 0.279026 0.089479
0.828061 0.300847 0.104982
0.852598 0.323888 0.122072
0.875578 0.347967 0.140597
0.896635 0.372442 0.160372
0.936584 0.433326 0.210147
0.950988 0.456611 0.233829
0.963531 0.478981 0.258091
0.974670 0.500938 0.283024
0.984680 0.522759 0.309209
0.993591 0.544732 0.336522
1.000000 0.566796 0.365087
1.000000 0.588952 0.394751
1.000000 0.610559 0.424598
1.000000 0.631250 0.454017
0.000000 0.286625 0.092348
0.000000 0.284977 0.087617
0.000000 0.282048 0.079835
0.000000 0.271733 0.041688
0.098360 0.254765 0.064698
0.172671 0.239506 0.122377
0.199191 0.216617 0.196963
0.324895 0.296117 0.222599
0.510857 0.356634 0.163760
0.661738 0.387671 0.088319
0.744778 0.389197 0.000000
0.756771 0.367651 0.000000
0.770138 0.354253 0.022614
0.783383 0.345525 0.056672
0.796933 0.340917 0.071626
0.811521 0.341222 0.084230
0.829099 0.347845 0.098482
0.848753 0.359594 0.114076
0.867338 0.373358 0.130098
0.885832 0.389868 0.147433
0.904295 0.409155 0.167269
0.921996 0.430518 0.189364
0.938445 0.453101 0.213352
0.953124 0.475654 0.238499
0.965881 0.497566 0.264195
0.976745 0.518303 0.289860
0.986236 0.538445 0.315679
0.994629 0.558373 0.342168
1.000000 0.578454 0.369909
1.000000 0.598596 0.398413
1.000000 0.618616 0.427314
1.000000 0.637995 0.456031
0.000000 0.370947 0.115114
0.000000 0.369146 0.111513
0.000000 0.366430 0.108370
0.000000 0.356817 0.068238
0.043153 0.339818 0.069398
0.156222 0.322271 0.102998
0.238621 0.307347 0.174166
0.270756 0.285740 0.262455
0.406500 0.373053 0.307866
0.588617 0.447211 0.248661
0.718563 0.482155 0.189700
0.809995 0.496345 0.121798
0.843656 0.484688 0.083345
0.849119 0.463783 0.095796
0.855039 0.448157 0.106386
0.862058 0.437598 0.116060
0.873594 0.435950 0.129488
0.884794 0.436957 0.142397
0.896269 0.440894 0.155703
0.908598 0.448432 0.170993
0.921752 0.459724 0.188632
0.935058 0.473854 0.208530
0.947967 0.490059 0.230198
0.959930 0.507134 0.253361
0.970642 0.524346 0.277073
0.980102 0.541375 0.300969
0.988495 0.558190 0.325261
0.996063 0.575219 0.350347
1.000000 0.593042 0.376806
1.000000 0.611017 0.404028
1.000000 0.629297 0.432044
1.000000 0.647120 0.459846
0.000000 0.461280 0.147280
0.000000 0.459266 0.144472
0.000000 0.456794 0.142275
0.000000 0.448676 0.120638
0.000000 0.433387 0.082490
0.122713 0.411353 0.101350
0.232486 0.397986 0.154849
0.322484 0.384161 0.236393
0.359289 0.364355 0.337255
0.489540 0.453834 0.402228
0.652918 0.531334 0.345861
0.764340 0.565209 0.291936
0.841886 0.578241 0.239445
0.896605 0.578729 0.182101
0.901579 0.555901 0.168185
0.907652 0.540764 0.166751
0.912291 0.527794 0.173892
0.917571 0.519036 0.181827
0.923705 0.513939 0.191379
0.931304 0.513634 0.203311
0.939940 0.516991 0.217807
0.949187 0.523339 0.234348
0.958740 0.533013 0.253361
0.968017 0.544488 0.273808
0.976654 0.556786 0.295109
0.984405 0.569299 0.316594
0.991608 0.582391 0.338933
0.998230 0.596307 0.362188
1.000000 0.611078 0.386877
1.000000 0.626581 0.412543
1.000000 0.642542 0.438911
1.000000 0.658412 0.465431
0.000000 0.551141 0.187594
0.000000 0.549248 0.185306
0.000000 0.546563 0.182650
0.000000 0.540154 0.174929
0.000000 0.526696 0.114290
0.064729 0.506767 0.120119
0.196597 0.481636 0.136995
0.325109 0.475105 0.214969
0.415412 0.462562 0.307317
0.451942 0.446052 0.414221
0.562799 0.529870 0.492714
0.702358 0.602533 0.440192
0.797360 0.633936 0.390875
0.863218 0.644251 0.341466
0.911803 0.646326 0.294926
0.937255 0.635584 0.256840
0.940887 0.616236 0.242863
0.944884 0.601465 0.234470
0.947997 0.589776 0.237980
0.951995 0.581842 0.245060
0.957092 0.577966 0.254826
0.962890 0.577386 0.267094
0.969146 0.579217 0.281163
0.975616 0.583764 0.297185
0.982147 0.590539 0.314885
0.988434 0.598749 0.333806
0.994476 0.608240 0.353948
1.000000 0.619104 0.375586
1.000000 0.631373 0.398749
1.000000 0.644495 0.423102
1.000000 0.658442 0.448402
1.000000 0.672419 0.473762
0.000000 0.629358 0.232151
0.000000 0.627955 0.230320
0.000000 0.625757 0.227939
0.000000 0.620752 0.224613
0.000000 0.610651 0.181643
0.000000 0.595514 0.147646
0.180331 0.574182 0.161929
0.298741 0.556146 0.196567
0.423987 0.550103 0.284276
0.506340 0.539757 0.383642
0.538964 0.526757 0.490242
0.623590 0.596979 0.574090
0.742397 0.664820 0.529046
0.824155 0.694575 0.485603
0.880552 0.703761 0.440375
0.921233 0.702052 0.394202
0.951995 0.693812 0.345342
0.961059 0.675959 0.317693
0.963958 0.658900 0.302495
0.967834 0.646509 0.292729
0.970977 0.637110 0.296391
0.974640 0.631098 0.304356
0.978912 0.628138 0.314702
0.983490 0.627314 0.326970
0.988281 0.628595 0.340764
0.993103 0.632288 0.356481
0.997925 0.637842 0.373693
1.000000 0.645045 0.392523
1.000000 0.653803 0.413153
1.000000 0.664057 0.435279
1.000000 0.675319 0.458564
1.000000 0.687098 0.482368
0.000000 0.698726 0.280217
0.000000 0.697566 0.278843
0.000000 0.695583 0.277073
0.000000 0.691493 0.274540
0.000000 0.683833 0.251041
0.000000 0.672663 0.187289
0.155245 0.655207 0.195682
0.278447 0.633295 0.207645
0.404852 0.622644 0.267185
0.515099 0.616785 0.360418
0.584192 0.608576 0.460639
0.615137 0.601953 0.563989
0.704067 0.686549 0.671351
0.795621 0.742092 0.632898
0.857115 0.763272 0.593072
0.900816 0.767849 0.551293
0.933745 0.763119 0.506889
0.959655 0.752926 0.459724
0.979400 0.739162 0.413001
0.982086 0.721218 0.391455
0.985412 0.707149 0.375250
0.989075 0.696620 0.365362
0.991333 0.688106 0.369421
0.994018 0.682155 0.376104
0.996979 0.678126 0.384680
1.000000 0.676143 0.395239
1.000000 0.677241 0.408301
1.000000 0.680201 0.423316
1.000000 0.684962 0.440070
1.000000 0.691371 0.458595
1.000000 0.699092 0.478462
1.000000 0.707546 0.498848
0.000000 0.767636 0.336492
0.000000 0.766506 0.335485
0.000000 0.764370 0.333776
0.000000 0.760037 0.331609
0.000000 0.752712 0.324834
0.000000 0.742794 0.269749
0.133547 0.728908 0.241245
0.278843 0.710048 0.250034
0.374487 0.688441 0.260044
0.505974 0.685878 0.348241
0.603723 0.685817 0.449683
0.666041 0.684688 0.551812
0.692805 0.682795 0.642969
0.738369 0.727047 0.718502
0.814420 0.774960 0.683894
0.866392 0.793332 0.648341
0.904387 0.797116 0.610407
0.933745 0.792905 0.570123
0.957641 0.784146 0.528252
0.977905 0.772488 0.483772
0.989166 0.757656 0.447456
0.992554 0.743038 0.427161
0.996246 0.731472 0.411597
0.998688 0.722347 0.410224
1.000000 0.715145 0.414893
1.000000 0.709773 0.421576
1.000000 0.706508 0.430518
1.000000 0.706447 0.442542
1.000000 0.708431 0.456733
1.000000 0.712276 0.472969
1.000000 0.717525 0.490730
1.000000 0.723812 0.509178
0.000000 0.813443 0.380407
0.000000 0.812314 0.379706
0.000000 0.810697 0.379034
0.000000 0.806973 0.377813
0.000000 0.800534 0.377050
0.000000 0.792477 0.339971
0.109224 0.782864 0.285161
0.274571 0.768002 0.292454
0.378393 0.751949 0.303044
0.478553 0.739345 0.337865
0.590936 0.738064 0.431678
0.669947 0.736049 0.527092
0.717739 0.733730 0.614221
0.736843 0.730159 0.689631
0.766476 0.760342 0.756710
0.829160 0.800534 0.724544
0.873381 0.815915 0.691554
0.906706 0.819333 0.657282
0.933410 0.816190 0.621485
0.955749 0.809110 0.584100
0.975006 0.799405 0.544640
0.991943 0.787472 0.501579
0.997650 0.773404 0.474617
1.000000 0.761288 0.455207
1.000000 0.751553 0.448493
1.000000 0.743862 0.451789
1.000000 0.737697 0.457130
1.000000 0.733883 0.465187
1.000000 0.733242 0.476570
1.000000 0.734493 0.490211
1.000000 0.737331 0.505394
1.000000 0.741421 0.521660
0.000000 0.850767 0.421485
0.000000 0.850095 0.421759
0.000000 0.848814 0.421515
0.000000 0.845945 0.421851
0.000000 0.841032 0.423743
0.136538 0.834745 0.407141
0.182895 0.828061 0.360113
0.280247 0.817258 0.341131
0.383124 0.802976 0.348791
0.464363 0.787137 0.357671
0.564874 0.779629 0.416663
0.657191 0.776852 0.506249
0.719539 0.773922 0.589502
0.756069 0.770535 0.662928
0.769802 0.766079 0.725795
0.788357 0.785946 0.785580
0.840848 0.820218 0.756558
0.879057 0.833707 0.726650
0.908904 0.837308 0.696040
0.933440 0.835325 0.664332
0.954284 0.829770 0.631067
0.972473 0.821530 0.595270
0.988708 0.810941 0.555749
1.000000 0.798306 0.515770
1.000000 0.786038 0.493446
1.000000 0.776181 0.483772
1.000000 0.768521 0.486397
1.000000 0.762417 0.491402
1.000000 0.758938 0.499611
1.000000 0.758175 0.510826
1.000000 0.758968 0.523796
1.000000 0.760983 0.537926
0.000000 0.884215 0.464424
0.000000 0.883543 0.465126
0.000000 0.882475 0.465614
0.000000 0.879728 0.466865
0.016999 0.875090 0.469795
0.234226 0.868833 0.469764
0.259831 0.863737 0.432074
0.298344 0.856931 0.392798
0.394995 0.844602 0.398169
0.472358 0.831022 0.404761
0.536919 0.816098 0.412207
0.636591 0.811307 0.491768
0.709041 0.806760 0.569482
0.756954 0.802365 0.639521
0.784298 0.797757 0.700649
0.793790 0.792386 0.752834
0.804746 0.805173 0.807401
0.850065 0.835355 0.781735
0.884092 0.848234 0.755550
0.911376 0.852567 0.729030
0.934051 0.851774 0.701350
0.953491 0.847532 0.671931
0.970581 0.840604 0.639673
0.986053 0.831388 0.603571
1.000000 0.819944 0.562219
1.000000 0.807706 0.528618
1.000000 0.797910 0.517723
1.000000 0.790463 0.519890
1.000000 0.784146 0.524102
1.000000 0.780911 0.531853
1.000000 0.779446 0.541802
1.000000 0.779324 0.553185
0.000000 0.907561 0.500175
0.000000 0.906798 0.500572
0.000000 0.905608 0.501335
0.000000 0.902983 0.503319
0.157534 0.898619 0.507134
0.288579 0.892454 0.514122
0.322087 0.887663 0.489937
0.340642 0.882597 0.451240
0.404639 0.873533 0.440345
0.477211 0.861875 0.445167
0.539574 0.849210 0.450996
0.607263 0.838132 0.477852
0.689723 0.833097 0.552026
0.747463 0.828305 0.619409
0.785153 0.823667 0.679072
0.806210 0.818906 0.730831
0.813260 0.813748 0.775265
0.820523 0.822416 0.823087
0.858427 0.848356 0.802914
0.888914 0.860563 0.779965
0.913725 0.865202 0.756466
0.934630 0.865080 0.731685
0.952728 0.861692 0.704952
0.968841 0.855833 0.675624
0.983642 0.847684 0.642145
0.997436 0.837461 0.603754
1.000000 0.824796 0.557214
1.000000 0.815427 0.546685
1.000000 0.808164 0.548455
1.000000 0.802090 0.552422
1.000000 0.799039 0.559930
1.000000 0.797208 0.568963
0.000000 0.925658 0.532586
0.000000 0.925048 0.533745
0.000000 0.931395 0.551385
0.170779 0.928740 0.554345
0.272892 0.924437 0.559716
0.363226 0.918486 0.567926
0.411170 0.913054 0.560266
0.422156 0.908965 0.529564
0.447181 0.903258 0.502556
0.508782 0.893370 0.505364
0.563256 0.882658 0.508415
0.611292 0.871122 0.512047
0.678676 0.862577 0.554711
0.741909 0.856779 0.616754
0.785763 0.851591 0.672358
0.814115 0.846738 0.721340
0.829862 0.842008 0.764004
0.834653 0.837003 0.800381
0.839475 0.842496 0.839475
0.869322 0.863188 0.825132
0.895750 0.874113 0.804837
0.917784 0.878416 0.783871
0.936584 0.878508 0.761532
0.953094 0.875608 0.737148
0.968017 0.870176 0.709590
0.981872 0.862638 0.678004
0.995117 0.852934 0.640681
1.000000 0.840909 0.595300
1.000000 0.830259 0.572747
1.000000 0.823026 0.573999
1.000000 0.817624 0.578027
1.000000 0.814328 0.584649
0.000000 0.941405 0.565850
0.071321 0.941497 0.568994
0.150088 0.941192 0.572442
0.231388 0.939513 0.577813
0.312963 0.936126 0.585077
0.391882 0.930938 0.594446
0.455055 0.925048 0.599542
0.463508 0.921782 0.574243
0.473671 0.917998 0.544335
0.517937 0.910491 0.538323
0.568109 0.901305 0.540368
0.613367 0.891417 0.543145
0.653315 0.880735 0.545830
0.721370 0.874296 0.601801
0.772213 0.868711 0.655634
0.807553 0.863767 0.703700
0.830442 0.859129 0.746120
0.843076 0.854704 0.782956
0.846983 0.850248 0.814847
0.850858 0.854459 0.849058
0.875578 0.872099 0.839322
0.899779 0.882719 0.821500
0.920043 0.887266 0.802853
0.937438 0.887877 0.782803
0.952911 0.885527 0.760525
0.967010 0.880888 0.735073
0.980285 0.874174 0.705440
0.993103 0.865385 0.670192
1.000000 0.854307 0.627344
1.000000 0.842649 0.595727
1.000000 0.835416 0.596612
1.000000 0.830808 0.600916
0.160555 0.951843 0.590387
0.195193 0.951720 0.593530
0.231083 0.951354 0.597070
0.287175 0.949615 0.602441
0.353552 0.946349 0.609857
0.420752 0.941650 0.618799
0.486976 0.935607 0.629541
0.501884 0.932403 0.613123
0.509941 0.929351 0.588586
0.530724 0.924681 0.569482
0.576257 0.916838 0.571191
0.618158 0.908354 0.572992
0.655787 0.899229 0.574884
0.699641 0.890562 0.591638
0.756527 0.884611 0.643244
0.797665 0.879362 0.689876
0.826230 0.874723 0.731563
0.844907 0.870512 0.768460
0.855406 0.866514 0.800595
0.858518 0.862516 0.828519
0.861540 0.865629 0.858366
0.881895 0.880522 0.852415
0.903960 0.890715 0.836454
0.922515 0.895262 0.819699
0.938628 0.896117 0.801328
0.953063 0.894255 0.780789
0.966369 0.890196 0.757076
0.979095 0.884123 0.729183
0.991547 0.875975 0.695155
1.000000 0.865934 0.657679
1.000000 0.854490 0.625025
1.000000 0.846281 0.616724
0.241123 0.960662 0.613519
0.264256 0.960449 0.616510
0.290959 0.959930 0.619989
0.335424 0.958221 0.625483
0.390600 0.955108 0.632837
0.449165 0.950744 0.641505
0.507805 0.945312 0.651759
0.537835 0.941253 0.647608
0.543725 0.938750 0.626581
0.550866 0.935912 0.602716
0.586328 0.929625 0.599695
0.624537 0.922301 0.600824
0.659602 0.914458 0.602045
0.691585 0.906157 0.603418
0.739010 0.899138 0.633783
0.785519 0.893767 0.679316
0.819425 0.889250 0.720760
0.843259 0.885374 0.757717
0.859068 0.881987 0.790280
0.868162 0.878874 0.818784
0.871092 0.875761 0.843412
0.873594 0.878141 0.869352
0.889982 0.890379 0.866423
0.909728 0.899840 0.852384
0.926452 0.904265 0.837430
0.941100 0.905303 0.821042
0.954376 0.903807 0.802426
0.966735 0.900237 0.780728
0.978729 0.894621 0.754299
0.990723 0.886748 0.720577
1.000000 0.877470 0.687739
1.000000 0.865812 0.654536
0.321294 0.969635 0.642115
0.335821 0.969177 0.644221
0.353826 0.968383 0.646632
0.387274 0.966461 0.651057
0.431983 0.963378 0.657435
0.482033 0.959258 0.665675
0.534203 0.954253 0.675563
0.576715 0.949371 0.681697
0.581628 0.947448 0.664698
0.587427 0.945220 0.644953
0.605463 0.941436 0.632502
0.639551 0.935241 0.633509
0.671199 0.928618 0.634333
0.700435 0.921599 0.635096
0.727230 0.914183 0.636011
0.775357 0.908415 0.676478
0.812589 0.903593 0.715694
0.839872 0.899474 0.751125
0.859251 0.895964 0.782681
0.872129 0.892760 0.810422
0.879393 0.889677 0.834653
0.881498 0.886564 0.855772
0.882933 0.887816 0.877958
0.895750 0.897459 0.876799
0.913573 0.906126 0.863737
0.928862 0.910369 0.849882
0.942504 0.911589 0.834684
0.954955 0.910430 0.817319
0.966705 0.907256 0.796780
0.978180 0.901915 0.770932
0.989960 0.894102 0.736629
1.000000 0.885527 0.709071
0.368658 0.975738 0.662074
0.381048 0.975219 0.664088
0.396033 0.974517 0.666499
0.424903 0.972686 0.670954
0.463844 0.969787 0.677272
0.508141 0.965942 0.685054
0.555200 0.961303 0.694575
0.602502 0.956023 0.705684
0.611688 0.953887 0.694392
0.616205 0.952056 0.677790
0.621515 0.950011 0.658930
0.650233 0.944854 0.658412
0.678889 0.939147 0.658991
0.706142 0.933074 0.659663
0.731350 0.926757 0.660395
0.761593 0.920470 0.671778
0.802457 0.915465 0.709712
0.833158 0.911254 0.744320
0.855833 0.907622 0.775326
0.872068 0.904509 0.802792
0.882902 0.901671 0.826993
0.889036 0.898924 0.848173
0.890715 0.896117 0.866789
0.891630 0.896666 0.886076
0.900359 0.903014 0.885130
0.916716 0.911254 0.873014
0.930999 0.915465 0.860166
0.943816 0.916808 0.845945
0.955566 0.915923 0.829465
0.966796 0.912932 0.809445
0.977935 0.907713 0.783474
0.989288 0.900542 0.753475
0.422583 0.981781 0.685878
0.433143 0.981292 0.687984
0.445777 0.980560 0.690303
0.469825 0.978759 0.694362
0.502678 0.976013 0.700160
0.541131 0.972412 0.707546
0.582818 0.968017 0.716487
0.625391 0.963012 0.726864
0.645258 0.959899 0.724697
0.647791 0.958343 0.710262
0.650996 0.956542 0.693751
0.665187 0.953277 0.684321
0.690120 0.948302 0.684077
0.713985 0.942992 0.683680
0.736568 0.937377 0.683375
0.757748 0.931518 0.683253
0.790494 0.925933 0.704280
0.823880 0.921324 0.737209
0.849393 0.917479 0.767391
0.868559 0.914275 0.794644
0.882414 0.911498 0.818906
0.891630 0.908873 0.840208
0.896696 0.906249 0.858854
0.897826 0.903380 0.875151
0.898009 0.903136 0.891966
0.905455 0.908904 0.893431
0.920378 0.916564 0.882231
0.933501 0.920531 0.870054
0.945403 0.921874 0.856504
0.956481 0.921050 0.840482
0.967132 0.917998 0.820340
0.977935 0.912352 0.792477
0.455879 0.986114 0.701900
0.465095 0.985626 0.703914
0.476783 0.984894 0.706142
0.498054 0.983215 0.710170
0.527825 0.980621 0.715877
0.563043 0.977234 0.723293
0.601831 0.973144 0.732204
0.641566 0.968536 0.742550
0.672297 0.964477 0.748745
0.674586 0.963256 0.736904
0.677302 0.961883 0.723323
0.681300 0.960235 0.708522
0.703456 0.956023 0.708461
0.724880 0.951537 0.708217
0.745449 0.946807 0.708003
0.764981 0.941863 0.707881
0.783413 0.936767 0.708064
0.817258 0.932036 0.737087
0.844724 0.928069 0.765835
0.865904 0.924743 0.791989
0.881804 0.921843 0.815366
0.893309 0.919219 0.836027
0.900908 0.916716 0.854215
0.904967 0.914092 0.870268
0.905669 0.911254 0.884398
0.905303 0.910491 0.898924
0.910643 0.914702 0.901366
0.924224 0.921782 0.890959
0.936309 0.925597 0.879667
0.947326 0.926879 0.866697
0.957580 0.925811 0.850584
0.967651 0.922393 0.829221
0.490120 0.990112 0.718563
0.498360 0.989593 0.720424
0.507897 0.988861 0.722377
0.526848 0.987243 0.726131
0.553277 0.984771 0.731533
0.585412 0.981567 0.738643
0.620752 0.977722 0.747219
0.657801 0.973358 0.757290
0.694789 0.968688 0.768612
0.699428 0.967407 0.760464
0.701686 0.966278 0.749142
0.704585 0.965057 0.736538
0.716976 0.962402 0.730587
0.736110 0.958587 0.730465
0.754452 0.954559 0.730068
0.772091 0.950317 0.729793
0.788998 0.945953 0.729732
0.809720 0.941497 0.737423
0.838834 0.937346 0.764645
0.861662 0.933837 0.789609
0.879362 0.930846 0.812161
0.892699 0.928191 0.832242
0.902342 0.925689 0.850065
0.908629 0.923217 0.865812
0.911894 0.920623 0.879728
0.912230 0.917845 0.892149
0.911467 0.916655 0.904875
0.914946 0.919493 0.907988
0.927398 0.926085 0.898192
0.938506 0.929564 0.887205
0.948669 0.930510 0.874052
0.958282 0.929107 0.857176
0.517723 0.993530 0.732540
0.524834 0.993042 0.734157
0.533745 0.992309 0.736110
0.551049 0.990784 0.739864
0.576318 0.988434 0.745602
0.607080 0.985382 0.753170
0.641627 0.981781 0.762570
0.677821 0.977783 0.773526
0.714076 0.973510 0.785763
0.730251 0.971313 0.786862
0.733455 0.970550 0.778836
0.736995 0.969696 0.769833
0.742031 0.968536 0.760800
0.758572 0.965515 0.761349
0.774441 0.962310 0.761593
0.789487 0.958923 0.761410
0.803983 0.955413 0.761318
0.817960 0.951843 0.761379
0.839841 0.947997 0.775906
0.862760 0.944518 0.798215
0.880888 0.941466 0.818540
0.895018 0.938781 0.836820
0.905669 0.936309 0.853056
0.913329 0.933898 0.867552
0.918334 0.931518 0.880491
0.920775 0.929015 0.892058
0.920775 0.926329 0.902464
0.919524 0.924651 0.912963
0.921111 0.925994 0.916258
0.931792 0.931487 0.906706
0.941527 0.934264 0.895781
0.950530 0.934600 0.882109
0.558862 0.996796 0.752499
0.564904 0.996277 0.753994
0.572534 0.995605 0.755764
0.587945 0.994110 0.759335
0.610529 0.991821 0.764889
0.638025 0.988922 0.772122
0.669001 0.985473 0.781003
0.701472 0.981659 0.791135
0.734035 0.977630 0.802457
0.757595 0.974456 0.809567
0.759182 0.973846 0.802396
0.761105 0.973144 0.794369
0.763210 0.972320 0.785306
0.772763 0.970336 0.781827
0.786038 0.967590 0.781521
