其他预设/【234】港风调色预设/1.3D LUT预设（视频调色-PR-AE-PS-FCPX-达芬奇用）/8.港风色调-暗调场景 __.cube
# Created by Adobe Lightroom plugin Export LUT (1.17.0)
# www.johnrellis.com/lightroom/exportlut.htm
# Preset: 8.港风色调-暗调场景 [素锦印象]
# Color profile: /Library/Application Support/Adobe/Color/Profiles/Recommended/AdobeRGB1998.icc
LUT_3D_SIZE 5
DOMAIN_MIN 0.000000 0.000000 0.000000
DOMAIN_MAX 0.903226 0.903226 0.903226
0.000000 0.000000 0.000000
0.193606 0.062104 0.048005
0.528710 0.000000 0.048859
0.870146 0.293645 0.140047
0.993347 0.519524 0.330968
0.000000 0.370947 0.115114
0.270756 0.285740 0.262455
0.855039 0.448157 0.106386
0.935058 0.473854 0.208530
1.000000 0.593042 0.376806
0.000000 0.850767 0.421485
0.280247 0.817258 0.341131
0.769802 0.766079 0.725795
0.972473 0.821530 0.595270
1.000000 0.758938 0.499611
0.321294 0.969635 0.642115
0.576715 0.949371 0.681697
0.727230 0.914183 0.636011
0.881498 0.886564 0.855772
0.966705 0.907256 0.796780
0.581811 0.999420 0.764553
0.717983 0.984802 0.803830
0.790066 0.971435 0.792020
0.889982 0.952636 0.835416
0.929992 0.935363 0.913115
0.000000 0.100465 0.379370
0.465003 0.000000 0.425605
0.238346 0.065248 0.083864
0.798001 0.236301 0.172854
0.991882 0.532128 0.329320
0.000000 0.380743 0.456580
0.405280 0.405249 0.445045
0.662501 0.313359 0.265965
0.882628 0.431037 0.277531
0.998383 0.595453 0.375616
0.000000 0.874601 0.613642
0.462531 0.834501 0.615808
0.793088 0.792203 0.772244
0.961669 0.837308 0.702724
1.000000 0.774929 0.568597
0.349432 0.971160 0.711543
0.604395 0.950317 0.743160
0.765316 0.915465 0.726406
0.893919 0.899565 0.877043
0.965515 0.916320 0.835019
0.560693 1.000000 0.781765
0.707210 0.986969 0.815854
0.824918 0.970245 0.836362
0.898589 0.954894 0.859098
0.937011 0.942168 0.924376
0.000000 0.302861 0.806699
0.454322 0.319646 0.833951
0.885496 0.525780 0.830900
0.811002 0.000000 0.381811
0.879881 0.195438 0.246250
0.000000 0.499977 0.761898
0.460609 0.530999 0.803037
0.867552 0.670619 0.833433
0.685176 0.000000 0.277653
0.919799 0.368627 0.334142
0.000000 0.811765 0.829740
0.445533 0.809964 0.825040
0.811307 0.812650 0.815702
0.861173 0.700069 0.670344
0.963287 0.738643 0.650965
0.274449 0.984802 0.856718
0.580743 0.963348 0.856870
0.833890 0.925200 0.861692
0.915740 0.921691 0.910948
0.967315 0.932555 0.893706
0.513207 1.000000 0.845762
0.668116 0.994476 0.859831
0.857786 0.970520 0.893034
0.907073 0.958587 0.891844
0.949645 0.954253 0.943694
0.411383 0.544152 0.922240
0.552667 0.556725 0.925444
0.838499 0.666590 0.934691
0.946319 0.786007 0.916075
0.967498 0.752743 0.837186
0.486336 0.651240 0.907836
0.603235 0.666072 0.912932
0.834073 0.739986 0.926665
0.940642 0.823880 0.917021
0.961578 0.745785 0.824765
0.452277 0.775051 0.896666
0.577447 0.782986 0.891478
0.807340 0.828367 0.901610
0.928435 0.881376 0.917632
0.937865 0.651972 0.726650
0.487221 0.923247 0.919097
0.618189 0.919066 0.917296
0.811032 0.915740 0.915312
0.913420 0.919463 0.915007
0.942809 0.879850 0.857206
0.494545 1.000000 0.930816
0.643427 1.000000 0.932219
0.841611 0.980346 0.935790
0.929168 0.966522 0.939239
0.961242 0.965057 0.959564
0.644678 0.713558 0.960449
0.682734 0.713252 0.960906
0.814054 0.757015 0.960693
0.929808 0.831846 0.963165
0.968780 0.881346 0.949493
0.672267 0.759976 0.954620
0.711879 0.764096 0.955169
0.818814 0.791196 0.956909
0.927123 0.850309 0.960998
0.967407 0.891478 0.950225
0.602258 0.806424 0.944244
0.665034 0.812619 0.944610
0.822629 0.852384 0.947570
0.919188 0.887694 0.956237
0.965301 0.919646 0.954162
0.569604 0.884123 0.949157
0.636225 0.885496 0.947356
0.778408 0.892882 0.943175
0.904021 0.918669 0.949371
0.965576 0.949981 0.961303
0.549096 0.968414 0.959838
0.640406 0.965148 0.959472
0.811429 0.960418 0.959442
0.913756 0.962463 0.961273
0.963867 0.967498 0.964508
