其他预设/【234】港风调色预设/1.3D LUT预设（视频调色-PR-AE-PS-FCPX-达芬奇用）/8.港风色调-暗调场景 __.cube
# Created by Adobe Lightroom plugin Export LUT (1.17.0)
# www.johnrellis.com/lightroom/exportlut.htm
# Preset: 8.港风色调-暗调场景 [素锦印象]
# Color profile: /Library/Application Support/Adobe/Color/Profiles/Recommended/AdobeRGB1998.icc
LUT_3D_SIZE 8
DOMAIN_MIN 0.000000 0.000000 0.000000
DOMAIN_MAX 0.903226 0.903226 0.903226
0.000000 0.000000 0.000000
0.109407 0.053346 0.031220
0.223667 0.061830 0.049836
0.401038 0.001465 0.050843
0.647089 0.054566 0.057801
0.837491 0.252110 0.117708
0.938750 0.398932 0.213046
0.993347 0.519524 0.330968
0.000000 0.137301 0.061372
0.097780 0.103914 0.092287
0.426825 0.149264 0.024048
0.572747 0.128176 0.028748
0.726864 0.189639 0.064851
0.856535 0.305821 0.127382
0.941344 0.422278 0.217258
0.993225 0.531701 0.332952
0.000000 0.461280 0.147280
0.000000 0.433387 0.082490
0.359289 0.364355 0.337255
0.841886 0.578241 0.239445
0.912291 0.527794 0.173892
0.939940 0.516991 0.217807
0.976654 0.556786 0.295109
1.000000 0.611078 0.386877
0.000000 0.767636 0.336492
0.000000 0.752712 0.324834
0.374487 0.688441 0.260044
0.692805 0.682795 0.642969
0.904387 0.797116 0.610407
0.989166 0.757656 0.447456
1.000000 0.715145 0.414893
1.000000 0.708431 0.456733
0.000000 0.907561 0.500175
0.157534 0.898619 0.507134
0.404639 0.873533 0.440345
0.689723 0.833097 0.552026
0.813260 0.813748 0.775265
0.913725 0.865202 0.756466
0.983642 0.847684 0.642145
1.000000 0.808164 0.548455
0.241123 0.960662 0.613519
0.390600 0.955108 0.632837
0.543725 0.938750 0.626581
0.659602 0.914458 0.602045
0.819425 0.889250 0.720760
0.871092 0.875761 0.843412
0.926452 0.904265 0.837430
0.978729 0.894621 0.754299
0.455879 0.986114 0.701900
0.527825 0.980621 0.715877
0.672297 0.964477 0.748745
0.703456 0.956023 0.708461
0.783413 0.936767 0.708064
0.881804 0.921843 0.815366
0.905669 0.911254 0.884398
0.936309 0.925597 0.879667
0.581811 0.999420 0.764553
0.630945 0.994598 0.777157
0.749020 0.980957 0.815183
0.785550 0.975341 0.809049
0.814755 0.966430 0.792355
0.873564 0.955322 0.818296
0.920745 0.945617 0.876341
0.929992 0.935363 0.913115
0.000000 0.059449 0.150423
0.155856 0.013886 0.153231
0.174441 0.071199 0.076265
0.378210 0.079225 0.085847
0.650690 0.118502 0.087434
0.839719 0.281010 0.121736
0.932708 0.399451 0.204349
0.988891 0.510918 0.317876
0.000000 0.148287 0.179995
0.146761 0.162936 0.178775
0.324895 0.157107 0.139956
0.521691 0.150484 0.115877
0.718990 0.213474 0.110231
0.859586 0.331395 0.140261
0.938262 0.427527 0.212680
0.988830 0.522881 0.319707
0.000000 0.486915 0.289403
0.062501 0.469703 0.282811
0.419654 0.417487 0.417792
0.839567 0.585840 0.361547
0.881712 0.513512 0.264408
0.926390 0.513054 0.248356
0.971466 0.554253 0.282719
1.000000 0.600275 0.370336
0.000000 0.769070 0.426520
0.000000 0.756802 0.424231
0.412299 0.699550 0.365148
0.696681 0.687098 0.660578
0.895720 0.790494 0.630152
0.972381 0.751644 0.501518
0.992157 0.709590 0.431159
1.000000 0.700862 0.442756
0.000000 0.908232 0.552483
0.189242 0.898711 0.555108
0.441810 0.871916 0.506340
0.685939 0.827512 0.573938
0.813382 0.814115 0.781033
0.912261 0.865599 0.766354
0.979522 0.850278 0.669337
1.000000 0.809445 0.552941
0.251377 0.958648 0.636774
0.380224 0.951873 0.647456
0.575341 0.932464 0.663600
0.667201 0.910979 0.628046
0.819425 0.888090 0.731441
0.874357 0.879240 0.850004
0.927459 0.906554 0.844450
0.976867 0.896941 0.769436
0.441749 0.984894 0.708064
0.508934 0.979248 0.718044
0.667536 0.962493 0.753567
0.709468 0.953674 0.722164
0.787320 0.935332 0.722896
0.881956 0.921447 0.820127
0.906188 0.911864 0.886442
0.936614 0.926207 0.881895
0.565728 1.000000 0.765255
0.618341 0.995178 0.778012
0.741299 0.981384 0.815061
0.794919 0.973785 0.820218
0.827054 0.966613 0.810513
0.877317 0.955962 0.827970
0.922026 0.946288 0.880491
0.931182 0.936492 0.915343
0.000000 0.122011 0.470222
0.000000 0.111574 0.511192
0.581140 0.000000 0.525414
0.451240 0.000000 0.191165
0.282994 0.049287 0.087953
0.687556 0.121065 0.154330
0.900908 0.362127 0.244480
0.988373 0.528649 0.347539
0.000000 0.225650 0.435340
0.008301 0.233982 0.487984
0.560235 0.245731 0.527825
0.350469 0.070863 0.162905
0.389166 0.080232 0.120058
0.729610 0.197574 0.180850
0.908171 0.394598 0.261814
0.988952 0.543664 0.356420
0.000000 0.470649 0.544762
0.000000 0.481117 0.542412
0.502007 0.492287 0.530541
0.617426 0.390143 0.380011
0.745113 0.386175 0.322484
0.857359 0.443519 0.323705
0.941466 0.528161 0.359350
0.994598 0.610620 0.410681
0.000000 0.821012 0.658961
0.000000 0.810056 0.647059
0.530205 0.756008 0.621424
0.746304 0.741146 0.734554
0.903044 0.813077 0.723323
0.938201 0.752926 0.620935
0.967651 0.719814 0.552667
0.998688 0.719478 0.521996
0.000000 0.923552 0.676509
0.154818 0.914305 0.679347
0.575860 0.881102 0.693721
0.705013 0.839109 0.663233
0.841398 0.844694 0.824765
0.919493 0.881987 0.814054
0.972778 0.868254 0.755489
0.995605 0.830686 0.670924
0.246128 0.963958 0.710842
0.396307 0.956390 0.720272
0.623713 0.934142 0.744167
0.719295 0.912902 0.725124
0.828916 0.892210 0.773220
0.887053 0.892576 0.871489
0.933135 0.915984 0.867765
0.973846 0.908080 0.818265
0.452155 0.987121 0.753933
0.523125 0.981323 0.762478
0.675685 0.964874 0.787350
0.767117 0.950072 0.794522
0.812436 0.935912 0.780453
0.889891 0.925811 0.845274
0.916533 0.922271 0.902800
0.943267 0.935058 0.899565
0.544549 1.000000 0.784573
0.593927 0.998322 0.792721
0.727291 0.983856 0.824460
0.831479 0.970581 0.859434
0.846830 0.965850 0.843015
0.884520 0.957153 0.849454
0.927825 0.949798 0.895842
0.938018 0.943175 0.926238
0.000000 0.232395 0.729915
0.000000 0.230228 0.748135
0.590509 0.244236 0.794919
0.835111 0.384100 0.770901
0.847684 0.297002 0.570886
0.510979 0.000000 0.146548
0.672999 0.000000 0.147158
0.940856 0.388220 0.315587
0.000000 0.347478 0.716732
0.000000 0.338933 0.737331
0.578149 0.369116 0.785428
0.827237 0.473884 0.773465
0.820035 0.305058 0.545129
0.434668 0.000000 0.129671
0.710201 0.000000 0.171023
0.945800 0.417914 0.333654
0.000000 0.500023 0.707546
0.000000 0.505852 0.703243
0.509300 0.545098 0.738186
0.799954 0.635126 0.773434
0.671321 0.257755 0.402655
0.491493 0.100343 0.172030
0.839170 0.336004 0.304082
0.964965 0.536919 0.426001
0.000000 0.739101 0.774044
0.000000 0.741176 0.772702
0.497597 0.743404 0.767666
0.753201 0.748989 0.760464
0.780209 0.644373 0.637018
0.846342 0.613153 0.569818
0.919768 0.643000 0.558129
0.974701 0.693660 0.573785
0.000000 0.936126 0.824552
0.000000 0.931304 0.823972
0.561608 0.907500 0.817563
0.772030 0.866270 0.803189
0.860807 0.865537 0.856107
0.926970 0.894255 0.854978
0.952148 0.866819 0.804349
0.976043 0.837644 0.743984
0.212528 0.975250 0.812680
0.394812 0.968475 0.817136
0.633539 0.946105 0.822568
0.789334 0.920531 0.831815
0.837675 0.899077 0.817319
0.903777 0.909728 0.896635
0.941588 0.927886 0.894835
0.972259 0.920714 0.866148
0.436164 0.992157 0.814450
0.515099 0.986572 0.819638
0.678859 0.970520 0.834684
0.806760 0.952667 0.854612
0.848325 0.940887 0.846769
0.900114 0.932494 0.874174
0.928649 0.934264 0.920897
0.951141 0.944732 0.918273
0.537682 1.000000 0.825498
0.590967 1.000000 0.831510
0.712947 0.988678 0.848783
0.827909 0.973754 0.875914
0.872709 0.966033 0.881926
0.895628 0.959258 0.878111
0.934630 0.954314 0.912718
0.946563 0.951354 0.939117
0.000000 0.373480 0.855558
0.175357 0.367559 0.861143
0.546990 0.409003 0.874846
0.826352 0.519585 0.896788
0.913359 0.631250 0.867674
0.938537 0.668421 0.807614
0.891234 0.216800 0.475837
0.850370 0.000000 0.239536
0.185122 0.462654 0.846586
0.286320 0.455238 0.854063
0.557855 0.481636 0.869413
0.819699 0.576684 0.892363
0.908843 0.666712 0.868040
0.932158 0.674739 0.802945
0.877134 0.197147 0.452064
0.829831 0.000000 0.220127
0.183780 0.570825 0.814206
0.320989 0.581598 0.821225
0.559777 0.612543 0.845579
0.794491 0.687098 0.876555
0.895232 0.747890 0.867796
0.904814 0.667597 0.771969
0.802243 0.103761 0.353094
0.835874 0.112612 0.241428
0.145480 0.705318 0.836851
0.296483 0.707820 0.834348
0.531762 0.718074 0.826352
0.747372 0.762692 0.843778
0.877775 0.820157 0.866361
0.823545 0.577478 0.658076
0.660639 0.175357 0.258915
0.924285 0.489357 0.450446
0.135775 0.858549 0.865263
0.314000 0.857725 0.864439
0.562036 0.854551 0.861265
0.747890 0.853300 0.857542
0.850462 0.854765 0.853483
0.856046 0.787350 0.775631
0.902007 0.763363 0.727474
0.953521 0.779934 0.716640
0.245151 0.965057 0.886503
0.378637 0.960662 0.886320
0.605158 0.947692 0.885924
0.775204 0.932799 0.885405
0.856870 0.909941 0.872404
0.908873 0.914916 0.906615
0.947906 0.932708 0.909819
0.965850 0.918364 0.882322
0.407385 0.998596 0.881773
0.489540 0.993011 0.882292
0.661677 0.977142 0.884764
0.795377 0.959899 0.888945
0.869780 0.945953 0.892180
0.898192 0.934630 0.886503
0.936675 0.942046 0.932738
0.957702 0.951415 0.931151
0.496529 1.000000 0.870390
0.554345 1.000000 0.872953
0.688930 0.993286 0.881254
0.809720 0.979248 0.895048
0.882597 0.968322 0.908202
0.908843 0.962188 0.907012
0.938720 0.957946 0.924437
0.953429 0.957824 0.949035
0.367834 0.517784 0.914580
0.408270 0.510765 0.916442
0.584283 0.541558 0.919127
0.773892 0.609186 0.926055
0.906920 0.705501 0.934234
0.941924 0.765621 0.909514
0.963043 0.833097 0.898619
0.966339 0.656184 0.768978
0.435279 0.577142 0.907073
0.457649 0.565942 0.909331
0.593622 0.579858 0.914183
0.772030 0.639033 0.921904
0.904234 0.728115 0.932067
0.939361 0.779324 0.909209
0.960815 0.835477 0.897398
0.964080 0.651026 0.762264
0.452949 0.655573 0.893065
0.503868 0.662684 0.894774
0.629145 0.682185 0.902159
0.773251 0.722316 0.912871
0.896178 0.791348 0.926757
0.933623 0.823392 0.911162
0.953674 0.843229 0.893400
0.956542 0.631891 0.736416
0.429633 0.732235 0.885374
0.476814 0.735073 0.883024
0.603326 0.748592 0.878019
0.769223 0.794827 0.897368
0.882048 0.844572 0.917998
0.928099 0.868711 0.914855
0.939513 0.839353 0.877562
0.940978 0.556207 0.655360
0.426123 0.823423 0.896208
0.480079 0.824796 0.895109
0.612634 0.829374 0.891386
0.741573 0.837278 0.885832
0.847227 0.860929 0.896178
0.918395 0.893095 0.912474
0.896910 0.761318 0.798581
0.862821 0.381048 0.432685
0.440009 0.912688 0.909667
0.500008 0.911925 0.909667
0.636255 0.908690 0.908324
0.763546 0.906340 0.906737
0.846616 0.906554 0.905333
0.903532 0.909636 0.905303
0.908873 0.871946 0.858824
0.943969 0.864469 0.836637
0.485328 0.985229 0.928161
0.542657 0.981872 0.928069
0.674006 0.972076 0.927337
0.792447 0.962524 0.927642
0.870115 0.956970 0.928679
0.912718 0.944915 0.921324
0.942901 0.947967 0.941741
0.964355 0.956725 0.942626
0.474434 1.000000 0.921569
0.532403 1.000000 0.922240
0.674830 0.998810 0.923674
0.798459 0.984588 0.926146
0.874144 0.974060 0.928893
0.920775 0.966308 0.933288
0.939696 0.961242 0.933104
0.959960 0.963897 0.957885
0.538903 0.631373 0.943877
0.556268 0.627649 0.945159
0.646723 0.645747 0.945525
0.765560 0.684627 0.946777
0.870268 0.742885 0.949493
0.937713 0.801480 0.951202
0.957946 0.838926 0.933654
0.971954 0.882261 0.928069
0.563775 0.661402 0.938659
0.578454 0.657465 0.940032
0.649226 0.663203 0.941711
0.763272 0.697658 0.943420
0.866697 0.751095 0.946807
0.935149 0.805386 0.949279
0.955871 0.838895 0.931945
0.970916 0.880400 0.926390
0.585260 0.718685 0.931975
0.616480 0.725734 0.932189
0.685481 0.736263 0.934081
0.773770 0.756252 0.937591
0.865965 0.797116 0.942351
0.933043 0.841672 0.947906
0.953826 0.864988 0.934600
0.969726 0.897490 0.931792
0.562768 0.770565 0.921233
0.590936 0.773251 0.921324
0.679225 0.787625 0.922881
0.785458 0.816770 0.928801
0.863920 0.843687 0.936675
0.931426 0.881285 0.947295
0.951934 0.894469 0.938598
0.967346 0.910765 0.934569
0.542748 0.822568 0.923033
0.569177 0.823453 0.921660
0.647852 0.828305 0.917845
0.740902 0.837522 0.912657
0.845853 0.866209 0.925200
0.917906 0.897734 0.940398
0.947936 0.912749 0.939300
0.959991 0.903960 0.923186
0.537835 0.884947 0.929564
0.569879 0.885283 0.929015
0.658228 0.886809 0.927245
0.755917 0.890379 0.925017
0.830320 0.894438 0.921996
0.899321 0.911070 0.930236
0.946166 0.933013 0.942626
0.942504 0.871000 0.885191
0.556695 0.945129 0.939178
0.592584 0.944305 0.939208
0.683162 0.941527 0.938659
0.778408 0.939544 0.938415
0.850248 0.939208 0.938079
0.902159 0.940948 0.938537
0.938964 0.944244 0.940063
0.947570 0.926329 0.915618
0.527001 1.000000 0.953216
0.567102 0.999756 0.953307
0.683986 0.991485 0.953155
0.790585 0.982177 0.952422
0.867826 0.975677 0.952697
0.919615 0.972625 0.954650
0.947478 0.966888 0.952422
0.964477 0.968078 0.963928
0.644678 0.713558 0.960449
0.653254 0.710933 0.960998
0.698512 0.716884 0.960784
0.774533 0.740566 0.960632
0.851408 0.775814 0.960967
0.916045 0.819760 0.962493
0.955871 0.855772 0.962524
0.968780 0.881346 0.949493
0.658900 0.732113 0.957885
0.666835 0.729732 0.958465
0.702754 0.729397 0.958984
0.775296 0.750332 0.958953
0.850736 0.783352 0.959655
0.914855 0.824796 0.961547
0.954864 0.858335 0.961883
0.968109 0.882444 0.949157
0.664729 0.763333 0.953338
0.686946 0.770596 0.953124
0.725277 0.774319 0.953460
0.785458 0.788357 0.955261
0.853483 0.814145 0.956664
0.913115 0.846250 0.959380
0.953246 0.874632 0.961120
0.966888 0.893858 0.950286
0.622675 0.786984 0.948516
0.648005 0.792294 0.948516
0.719295 0.809171 0.948028
0.797604 0.832303 0.949554
0.855039 0.848325 0.952789
0.911101 0.873594 0.956970
0.951934 0.897917 0.960937
0.965881 0.911284 0.952880
0.589837 0.825925 0.944152
0.611231 0.828489 0.943694
0.667842 0.833951 0.941253
0.754421 0.845426 0.942657
0.848020 0.873045 0.947021
0.903502 0.892302 0.953216
0.950378 0.918029 0.960876
0.965118 0.928954 0.956054
0.566613 0.870207 0.947326
0.586908 0.870603 0.946654
0.649317 0.872587 0.944640
0.731777 0.877317 0.941833
0.807797 0.884672 0.938659
0.893248 0.909880 0.948241
0.945586 0.934752 0.959838
0.965789 0.947082 0.960754
0.550286 0.920165 0.952605
0.574853 0.919890 0.952209
0.646967 0.919493 0.951019
0.741268 0.920775 0.949767
0.822416 0.924315 0.948760
0.882841 0.930114 0.948394
0.936217 0.945068 0.956054
0.965148 0.958282 0.963073
0.549096 0.968414 0.959838
0.578515 0.967315 0.959655
0.666407 0.964294 0.959442
0.768215 0.961151 0.959319
0.847776 0.960327 0.959716
0.902983 0.961822 0.960876
0.940246 0.964691 0.962676
0.963867 0.967498 0.964508
