其他预设/【234】港风调色预设/1.3D LUT预设（视频调色-PR-AE-PS-FCPX-达芬奇用）/9.港风色调 __.cube
# Created by Adobe Lightroom plugin Export LUT (1.17.0)
# www.johnrellis.com/lightroom/exportlut.htm
# Preset: 9.港风色调 [素锦印象]
# Color profile: /Library/Application Support/Adobe/Color/Profiles/Recommended/AdobeRGB1998.icc
LUT_3D_SIZE 5
DOMAIN_MIN 0.000000 0.000000 0.000000
DOMAIN_MAX 0.903226 0.903226 0.903226
0.000000 0.055940 0.058595
0.256413 0.000000 0.064881
0.723934 0.000000 0.000000
0.937774 0.117037 0.000000
1.000000 0.259525 0.104952
0.000000 0.255528 0.152132
0.236393 0.290379 0.088869
0.717403 0.304143 0.000000
0.928954 0.343389 0.000000
1.000000 0.370703 0.070832
0.000000 0.713710 0.406531
0.278325 0.709712 0.375677
0.721828 0.729580 0.230838
0.910216 0.639979 0.096345
1.000000 0.587030 0.115724
0.356329 0.897734 0.618616
0.518395 0.890410 0.642084
0.696132 0.874022 0.644007
0.874876 0.878660 0.510796
0.989807 0.804654 0.409125
0.586175 0.963165 0.746822
0.666590 0.956817 0.770016
0.788113 0.945800 0.809201
0.853880 0.940093 0.805051
0.945739 0.946685 0.734890
0.000000 0.094606 0.224674
0.286320 0.098116 0.236637
0.720790 0.000000 0.194308
0.923339 0.207553 0.180728
1.000000 0.292638 0.149660
0.000000 0.284001 0.288640
0.280949 0.319371 0.273686
0.716121 0.323522 0.225406
0.916930 0.364446 0.199771
1.000000 0.389227 0.178653
0.000000 0.716182 0.496742
0.379614 0.711330 0.496590
0.712581 0.720790 0.390143
0.897459 0.641291 0.291875
1.000000 0.600549 0.288182
0.424140 0.894865 0.660883
0.559533 0.887968 0.681209
0.715755 0.873777 0.688167
0.871702 0.878355 0.591516
0.981720 0.811276 0.501976
0.594263 0.962554 0.760555
0.671260 0.956451 0.781155
0.806546 0.946136 0.830472
0.860990 0.940490 0.822873
0.945129 0.947265 0.763943
0.000000 0.191257 0.570764
0.414008 0.271580 0.595605
0.763668 0.329900 0.577478
0.909331 0.335393 0.503593
1.000000 0.442878 0.502373
0.000000 0.330571 0.563226
0.400549 0.412787 0.598047
0.742824 0.460334 0.586877
0.898131 0.447120 0.521324
1.000000 0.496498 0.511467
0.184848 0.729610 0.673243
0.465034 0.732570 0.677119
0.724697 0.735164 0.644587
0.878386 0.679469 0.585351
0.987274 0.650843 0.558251
0.515038 0.892454 0.751736
0.609247 0.885740 0.758114
0.753902 0.875883 0.772519
0.868467 0.879850 0.732174
0.963409 0.825864 0.663294
0.635187 0.959075 0.807095
0.689204 0.955322 0.817563
0.800198 0.947601 0.845792
0.870909 0.941711 0.855955
0.942687 0.947234 0.819242
0.403296 0.383490 0.800504
0.557733 0.462684 0.807553
0.781094 0.597436 0.811734
0.896391 0.649378 0.764065
0.969757 0.673365 0.748531
0.399115 0.488045 0.791287
0.554559 0.549371 0.799374
0.777768 0.675105 0.812650
0.888060 0.688685 0.771786
0.964843 0.697841 0.756344
0.349645 0.685817 0.790524
0.479561 0.692592 0.787442
0.749569 0.766903 0.805295
0.865080 0.760983 0.782864
0.954376 0.757321 0.775051
0.572839 0.890745 0.840787
0.646265 0.887266 0.840879
0.780240 0.883696 0.846128
0.867613 0.881407 0.831632
0.949462 0.841703 0.793912
0.696529 0.956237 0.870176
0.731899 0.953765 0.873625
0.811429 0.949279 0.884001
0.884947 0.946593 0.897459
0.942443 0.948974 0.878447
0.639246 0.637995 0.906767
0.695613 0.673396 0.906554
0.822141 0.771939 0.908415
0.906767 0.784360 0.898436
0.952972 0.812253 0.869871
0.637629 0.672450 0.902617
0.693355 0.702174 0.903075
0.819883 0.787839 0.906859
0.903655 0.804593 0.900298
0.951080 0.825834 0.875090
0.478462 0.681971 0.894224
0.573938 0.705440 0.893858
0.791867 0.810086 0.900511
0.898344 0.857359 0.909148
0.946502 0.858701 0.888365
0.597589 0.858549 0.905638
0.639002 0.859495 0.904540
0.737636 0.861387 0.901671
0.877897 0.893889 0.911986
0.941558 0.897032 0.904845
0.700954 0.958831 0.924651
0.730465 0.957702 0.925383
0.810605 0.953124 0.926818
0.891630 0.950988 0.932433
0.942504 0.951293 0.932677
