其他预设/【234】港风调色预设/1.3D LUT预设（视频调色-PR-AE-PS-FCPX-达芬奇用）/9.港风色调 __.cube
# Created by Adobe Lightroom plugin Export LUT (1.17.0)
# www.johnrellis.com/lightroom/exportlut.htm
# Preset: 9.港风色调 [素锦印象]
# Color profile: /Library/Application Support/Adobe/Color/Profiles/Recommended/AdobeRGB1998.icc
LUT_3D_SIZE 8
DOMAIN_MIN 0.000000 0.000000 0.000000
DOMAIN_MAX 0.903226 0.903226 0.903226
0.000000 0.055940 0.058595
0.090822 0.068666 0.064515
0.326207 0.000000 0.060456
0.616236 0.000000 0.000000
0.808957 0.000000 0.000000
0.918547 0.065278 0.000000
0.984222 0.193912 0.000000
1.000000 0.259525 0.104952
0.000000 0.119875 0.092164
0.073091 0.134707 0.076265
0.314733 0.127413 0.045563
0.603388 0.023407 0.000000
0.799710 0.107576 0.000000
0.908995 0.192416 0.000000
0.978454 0.247684 0.000000
1.000000 0.292607 0.088746
0.000000 0.315587 0.179110
0.000000 0.324773 0.164218
0.310002 0.355352 0.093355
0.607721 0.362829 0.000000
0.795743 0.371923 0.000000
0.904601 0.381476 0.000000
0.978241 0.393378 0.000000
1.000000 0.398138 0.036225
0.000000 0.597742 0.323461
0.000000 0.603113 0.316075
0.332982 0.597925 0.289342
0.631556 0.643030 0.158968
0.810086 0.613245 0.000000
0.898833 0.566796 0.000000
0.968750 0.542046 0.000000
1.000000 0.522423 0.000000
0.000000 0.790524 0.476997
0.131594 0.789120 0.476204
0.395483 0.783291 0.463325
0.595087 0.769375 0.447883
0.780941 0.786984 0.306950
0.892729 0.738979 0.213138
0.953033 0.684596 0.186099
1.000000 0.651575 0.193484
0.293370 0.881315 0.590784
0.373205 0.881193 0.600580
0.530755 0.873136 0.623316
0.633631 0.863432 0.614374
0.734371 0.857939 0.581323
0.860685 0.864683 0.471077
0.946136 0.824399 0.390112
0.993866 0.775967 0.362036
0.479072 0.931029 0.681819
0.518425 0.929076 0.689479
0.616419 0.921935 0.711696
0.700832 0.915282 0.727749
0.759060 0.907317 0.721096
0.820371 0.908415 0.689631
0.908843 0.912291 0.614923
0.976226 0.882658 0.550927
0.586175 0.963165 0.746822
0.613123 0.961059 0.753933
0.687892 0.955108 0.777249
0.773098 0.948699 0.811063
0.805051 0.943969 0.808255
0.844144 0.940154 0.806973
0.884215 0.944335 0.783688
0.945739 0.946685 0.734890
0.000000 0.074525 0.119905
0.088533 0.082094 0.121401
0.322332 0.000000 0.112825
0.604486 0.000000 0.094118
0.797940 0.000000 0.009979
0.906035 0.141848 0.000000
0.977020 0.225223 0.000000
1.000000 0.268254 0.091096
0.000000 0.129305 0.141176
0.081025 0.148104 0.140139
0.319707 0.147463 0.128786
0.600855 0.105928 0.098604
0.792905 0.149203 0.016175
0.901030 0.218143 0.000000
0.972412 0.268284 0.000000
1.000000 0.299046 0.071901
0.000000 0.321935 0.226108
0.044892 0.334783 0.228794
0.321843 0.361547 0.175357
0.601526 0.364874 0.114900
0.785458 0.372290 0.058106
0.895323 0.382574 0.000000
0.969116 0.393103 0.000000
1.000000 0.398993 0.000000
0.000000 0.594781 0.359625
0.000000 0.600061 0.357366
0.349767 0.595789 0.334081
0.616510 0.627314 0.228244
0.789914 0.596765 0.142733
0.885313 0.557702 0.113924
0.959380 0.537560 0.117525
1.000000 0.521965 0.115145
0.000000 0.787900 0.502220
0.198642 0.785550 0.500725
0.415076 0.778836 0.489815
0.594507 0.761501 0.472084
0.772030 0.778805 0.344976
0.884672 0.734035 0.262058
0.947265 0.682551 0.232334
1.000000 0.651759 0.235660
0.320714 0.877317 0.603265
0.383673 0.875212 0.608362
0.531212 0.867887 0.628229
0.635584 0.859312 0.623499
0.734493 0.854856 0.596216
0.858274 0.863249 0.499306
0.942199 0.823941 0.422583
0.990356 0.776150 0.389105
0.482094 0.927886 0.685817
0.516564 0.925383 0.691157
0.613245 0.918883 0.712337
0.701656 0.912963 0.731167
0.760067 0.905791 0.726314
0.819852 0.906615 0.696712
0.906218 0.910307 0.624506
0.972930 0.881102 0.562036
0.584100 0.962066 0.748379
0.611566 0.960143 0.755642
0.686244 0.954376 0.778408
0.771572 0.948089 0.811490
0.810910 0.944854 0.815763
0.846830 0.940612 0.812680
0.884672 0.943969 0.788571
0.944793 0.946105 0.740383
0.000000 0.104280 0.270085
0.087343 0.123354 0.272282
0.372869 0.101717 0.285283
0.628260 0.000000 0.247257
0.805417 0.000000 0.233371
0.905455 0.207309 0.234501
0.974945 0.277134 0.226322
1.000000 0.307927 0.205081
0.000000 0.158297 0.282170
0.101839 0.185946 0.289952
0.363317 0.184329 0.292454
0.620050 0.081758 0.254673
0.797879 0.173587 0.242191
0.900603 0.263432 0.237339
0.971344 0.311894 0.228519
1.000000 0.335607 0.209476
0.000000 0.350988 0.347601
0.080201 0.365881 0.353491
0.363958 0.389319 0.326726
0.621912 0.383612 0.293462
0.792721 0.394873 0.271824
0.894743 0.409125 0.259525
0.965698 0.420722 0.251865
1.000000 0.424018 0.236057
0.000000 0.621363 0.471260
0.120912 0.625422 0.470649
0.408301 0.622553 0.457160
0.634119 0.642237 0.393347
0.788296 0.604974 0.329961
0.884367 0.574670 0.307164
0.956237 0.557946 0.300725
1.000000 0.542748 0.289342
0.153689 0.791836 0.568933
0.285374 0.790158 0.571588
0.494820 0.782773 0.583520
0.627527 0.769528 0.569390
0.777279 0.786191 0.483101
0.878233 0.740536 0.411902
0.941344 0.693477 0.374365
0.997955 0.666102 0.368811
0.381079 0.876921 0.647517
0.441382 0.874449 0.653834
0.569116 0.867185 0.670863
0.663783 0.859281 0.672419
0.746365 0.853788 0.653498
0.855039 0.862852 0.583124
0.933074 0.827390 0.522637
0.983032 0.785245 0.488319
0.519097 0.927062 0.715480
0.551659 0.924773 0.720851
0.635248 0.918456 0.737453
0.728969 0.911406 0.763760
0.772457 0.905791 0.753262
0.826627 0.906371 0.732174
0.905547 0.911589 0.678828
0.967590 0.886046 0.630945
0.593469 0.961669 0.763149
0.615503 0.959838 0.767849
0.687587 0.954101 0.787747
0.772915 0.948302 0.818875
0.819181 0.944762 0.829404
0.852567 0.941070 0.826902
0.888273 0.944060 0.808042
0.944305 0.946715 0.768734
0.000000 0.155123 0.470283
0.152438 0.175906 0.480934
0.411170 0.210575 0.487373
0.674861 0.213718 0.491768
0.810788 0.166659 0.440833
0.896330 0.229007 0.406226
0.962371 0.335790 0.407935
1.000000 0.373602 0.396124
0.000000 0.221347 0.480446
0.169406 0.241733 0.489387
0.422858 0.288212 0.499794
0.670253 0.284337 0.497902
0.804227 0.236484 0.442481
0.892576 0.292515 0.413611
0.959503 0.367987 0.412757
1.000000 0.393042 0.397681
0.000000 0.371038 0.495247
0.070314 0.379400 0.496681
0.419440 0.437446 0.518120
0.643000 0.419623 0.499062
0.789822 0.414008 0.459785
0.886198 0.449989 0.449317
0.956023 0.475654 0.446113
1.000000 0.472572 0.422370
0.000000 0.636316 0.590600
0.192447 0.640650 0.592218
0.457710 0.644251 0.590051
0.648096 0.654780 0.557946
0.776364 0.615564 0.509239
0.872587 0.600488 0.489845
0.943999 0.590082 0.477150
1.000000 0.577356 0.460578
0.291295 0.801663 0.663935
0.369665 0.798398 0.662989
0.534295 0.790188 0.664424
0.662715 0.780911 0.662989
0.780209 0.792172 0.619989
0.865232 0.750576 0.565393
0.930755 0.715328 0.535393
0.987091 0.691646 0.520684
0.454292 0.879179 0.710933
0.503990 0.878386 0.716762
0.608423 0.871122 0.726314
0.708156 0.863676 0.739406
0.768612 0.856962 0.726986
0.855222 0.866087 0.681209
0.922179 0.834562 0.634394
0.972290 0.798184 0.598840
0.558373 0.925963 0.755001
0.586755 0.924315 0.759396
0.660883 0.919432 0.772580
0.742733 0.913848 0.791348
0.793301 0.908934 0.793301
0.838163 0.907744 0.779965
0.904875 0.913085 0.741451
0.959930 0.890654 0.703548
0.623804 0.960632 0.792691
0.643214 0.959258 0.796628
0.696620 0.955108 0.808255
0.769436 0.949554 0.829099
0.832334 0.945281 0.850706
0.860502 0.942199 0.847196
0.893095 0.944213 0.834257
0.943664 0.947509 0.804440
0.166293 0.234134 0.653742
0.284367 0.255558 0.660548
0.514916 0.350134 0.678309
0.680140 0.369970 0.663111
0.820462 0.442023 0.645075
0.890501 0.433143 0.602625
0.945129 0.468055 0.588708
0.991760 0.523278 0.598993
0.182895 0.294469 0.653895
0.294743 0.315557 0.661433
0.520775 0.403937 0.681117
0.679377 0.425727 0.667109
0.814969 0.475624 0.648585
0.886473 0.461524 0.607385
0.942290 0.488960 0.593927
0.990723 0.535546 0.600946
0.000000 0.394141 0.639704
0.189731 0.409888 0.646693
0.496223 0.499001 0.673457
0.670619 0.553033 0.675563
0.796719 0.556298 0.655268
0.871672 0.529564 0.615167
0.934112 0.548577 0.605768
0.987366 0.570123 0.603540
0.129091 0.609796 0.675196
0.247044 0.613489 0.674739
0.455085 0.627070 0.674311
0.659144 0.673365 0.687831
0.770565 0.640467 0.654994
0.858213 0.637812 0.636927
0.926696 0.637873 0.627039
0.984405 0.624384 0.607874
0.343999 0.795865 0.736568
0.413581 0.795682 0.737392
0.567468 0.795346 0.740932
0.685206 0.788357 0.734615
0.779843 0.792935 0.712581
0.848936 0.752224 0.669642
0.917510 0.731655 0.652705
0.974701 0.713252 0.636835
0.514488 0.877073 0.772091
0.546960 0.875212 0.772732
0.629603 0.869230 0.774350
0.717281 0.862669 0.778317
0.777493 0.856046 0.774777
0.852232 0.865202 0.751186
0.910643 0.836728 0.714717
0.962341 0.809171 0.689998
0.601312 0.924163 0.799771
0.622156 0.922606 0.801602
0.681147 0.918395 0.808133
0.750149 0.913970 0.818357
0.807797 0.910460 0.827665
0.845975 0.906981 0.819852
0.903349 0.913329 0.792874
0.952300 0.892454 0.760800
0.651484 0.958038 0.824369
0.666835 0.956847 0.826658
0.711635 0.953399 0.834134
0.770443 0.950164 0.846891
0.828244 0.946441 0.862058
0.866972 0.943633 0.867735
0.896971 0.943908 0.859800
0.942565 0.947723 0.836790
0.368261 0.354070 0.780575
0.431556 0.378241 0.783902
0.584070 0.465492 0.791562
0.728054 0.572595 0.797787
0.819730 0.575708 0.771511
0.885740 0.618067 0.745418
0.933043 0.620233 0.724727
0.973663 0.650355 0.726345
0.371984 0.397314 0.775692
0.431525 0.417517 0.778347
0.582025 0.495827 0.786954
0.726345 0.600610 0.795743
0.815518 0.598413 0.771542
0.882109 0.631769 0.747097
0.930449 0.631464 0.727169
0.971984 0.658503 0.728786
0.314611 0.474769 0.767086
0.407599 0.506096 0.770352
0.573510 0.572625 0.780850
0.731106 0.680476 0.799069
0.809232 0.670680 0.779355
0.873564 0.678218 0.756741
0.923491 0.670741 0.738216
0.967193 0.688197 0.739528
0.281224 0.609857 0.766812
0.337713 0.611322 0.765103
0.478462 0.619287 0.761013
0.703609 0.717433 0.788632
0.801877 0.749142 0.791592
0.861906 0.733852 0.769009
0.914031 0.720729 0.752712
0.961120 0.727901 0.753506
0.400275 0.764218 0.787686
0.444129 0.766049 0.787533
0.555840 0.771939 0.786923
0.673793 0.780545 0.786130
0.779171 0.797848 0.791897
0.843381 0.774655 0.768063
0.904784 0.768063 0.759701
0.958618 0.762417 0.753841
0.536217 0.875731 0.823026
0.568200 0.875212 0.823850
0.649928 0.872831 0.825345
0.740749 0.871641 0.830320
0.796201 0.864591 0.824674
0.853635 0.867826 0.812863
0.900816 0.838499 0.782345
0.953979 0.822354 0.770565
0.651545 0.924376 0.847745
0.668269 0.923552 0.848753
0.713649 0.920500 0.850919
0.768826 0.917113 0.854551
0.819364 0.914122 0.858762
0.855985 0.910643 0.856962
0.904265 0.915404 0.841306
0.946593 0.895567 0.814878
0.687922 0.956603 0.861204
0.699641 0.955657 0.862364
0.735164 0.953002 0.866239
0.782742 0.950134 0.872862
0.831022 0.947631 0.881163
0.875273 0.945922 0.891203
0.902525 0.944182 0.887297
0.942504 0.948791 0.870573
0.515435 0.496040 0.856321
0.551507 0.517113 0.857664
0.646937 0.580224 0.859831
0.758328 0.676631 0.864530
0.834195 0.698939 0.861601
0.887327 0.710750 0.835904
0.924407 0.731960 0.815396
0.960113 0.740291 0.808743
0.514977 0.518975 0.851957
0.550134 0.537621 0.853361
0.644404 0.595026 0.856229
0.754971 0.684199 0.861479
0.830808 0.709529 0.859464
0.883757 0.717006 0.834714
0.921508 0.734218 0.814267
0.958251 0.741115 0.807553
0.512810 0.585016 0.846983
0.546685 0.598505 0.848081
0.641077 0.644343 0.851682
0.752712 0.718563 0.859098
0.829740 0.756008 0.861234
0.879789 0.754604 0.841123
0.917906 0.762325 0.823362
0.955566 0.766018 0.818112
0.380316 0.610681 0.836362
0.417700 0.613672 0.835111
0.577417 0.667292 0.840543
0.732601 0.747829 0.852323
0.830808 0.810788 0.866270
0.875273 0.801816 0.851652
0.912902 0.798123 0.835813
0.951568 0.795651 0.830259
0.459663 0.749050 0.845090
0.485115 0.749660 0.843839
0.559686 0.752499 0.840604
0.649897 0.754879 0.835782
0.799649 0.818387 0.854765
0.864866 0.837003 0.857633
0.904143 0.824765 0.841855
0.946593 0.822232 0.839200
0.549065 0.850858 0.858213
0.570367 0.851377 0.858091
0.632136 0.853147 0.857755
0.708583 0.855833 0.857511
0.778408 0.857481 0.856382
0.852140 0.870024 0.863706
0.895232 0.852934 0.846494
0.942870 0.850797 0.846006
0.644221 0.924254 0.881651
0.660853 0.923583 0.881956
0.707942 0.921263 0.882536
0.768185 0.919097 0.884703
0.826810 0.918303 0.889067
0.866178 0.915190 0.887968
0.904662 0.916350 0.880308
0.941222 0.894957 0.858457
0.714992 0.955138 0.894316
0.725551 0.954528 0.895109
0.759426 0.953094 0.898589
0.799435 0.951019 0.901671
0.841886 0.949187 0.905943
0.880278 0.948241 0.911040
0.908629 0.947265 0.912383
0.942962 0.950286 0.903014
0.639246 0.637995 0.906767
0.658045 0.649775 0.906920
0.711879 0.684443 0.906493
0.785733 0.740658 0.907347
0.853727 0.798642 0.909636
0.899779 0.784512 0.905699
0.929717 0.797787 0.883299
0.952972 0.812253 0.869871
0.638605 0.648554 0.904875
0.657191 0.659571 0.905119
0.711055 0.692775 0.905089
0.784298 0.745754 0.906157
0.853544 0.805020 0.909209
0.898100 0.790677 0.905272
0.928466 0.801755 0.883696
0.952148 0.815457 0.870848
0.633356 0.679347 0.901122
0.651575 0.688319 0.901366
0.705440 0.716091 0.901640
0.781949 0.765499 0.904631
0.851926 0.818540 0.908843
0.894865 0.813840 0.906065
0.926177 0.819638 0.887968
0.950378 0.829374 0.876341
0.544701 0.673335 0.897185
0.580407 0.688716 0.897337
0.681758 0.740902 0.897185
0.766476 0.783566 0.901030
0.844572 0.832486 0.907591
0.891966 0.846860 0.909270
0.923796 0.846281 0.895903
0.947967 0.848569 0.884215
0.508415 0.740414 0.896178
0.526940 0.741787 0.895811
0.576837 0.742336 0.893309
0.682856 0.767239 0.893339
0.817197 0.835691 0.902068
0.889097 0.878355 0.913603
0.920867 0.873411 0.904997
0.945129 0.869627 0.893034
0.575708 0.837217 0.902556
0.589197 0.837461 0.902037
0.631647 0.838376 0.900572
0.690486 0.839231 0.898375
0.751064 0.837186 0.894926
0.866239 0.883024 0.909361
0.916777 0.899565 0.914092
0.942565 0.892180 0.903014
0.649226 0.908843 0.912963
0.660395 0.908843 0.912810
0.695186 0.908873 0.912474
0.745632 0.909300 0.912291
0.798703 0.909758 0.912047
0.846464 0.909026 0.911040
0.907591 0.921477 0.919341
0.938018 0.911589 0.909697
0.700954 0.958831 0.924651
0.709987 0.958465 0.924834
0.739803 0.957336 0.925658
0.785641 0.954467 0.926177
0.835172 0.951995 0.927794
0.881071 0.950927 0.931182
0.916136 0.950683 0.934661
0.942504 0.951293 0.932677
