其他预设/【234】港风调色预设/1.3D LUT预设（视频调色-PR-AE-PS-FCPX-达芬奇用）/9.港风色调 __.cube
# Created by Adobe Lightroom plugin Export LUT (1.17.0)
# www.johnrellis.com/lightroom/exportlut.htm
# Preset: 9.港风色调 [素锦印象]
# Color profile: /Library/Application Support/Adobe/Color/Profiles/Recommended/AdobeRGB1998.icc
LUT_3D_SIZE 32
0.000000 0.055940 0.058595
0.000000 0.057649 0.059327
0.012146 0.060487 0.060304
0.054536 0.064973 0.062074
0.090822 0.068666 0.064515
0.137606 0.066316 0.065949
0.193271 0.049714 0.066102
0.256413 0.000000 0.064881
0.326207 0.000000 0.060456
0.400153 0.000000 0.049500
0.475868 0.000000 0.025849
0.549096 0.000000 0.000000
0.616236 0.000000 0.000000
0.674342 0.000000 0.000000
0.723934 0.000000 0.000000
0.766598 0.000000 0.000000
0.808957 0.000000 0.000000
0.843870 0.000000 0.000000
0.872221 0.000000 0.000000
0.896818 0.000000 0.000000
0.918547 0.065278 0.000000
0.937774 0.117037 0.000000
0.954864 0.149050 0.000000
0.970214 0.173770 0.000000
0.984222 0.193912 0.000000
0.997192 0.211826 0.000000
1.000000 0.228428 0.000000
1.000000 0.244266 0.071199
1.000000 0.259525 0.104952
1.000000 0.274998 0.134340
1.000000 0.290684 0.162570
1.000000 0.306859 0.190951
0.000000 0.064820 0.062348
0.000000 0.067018 0.061219
0.008392 0.069581 0.060426
0.052033 0.073335 0.061311
0.089601 0.077058 0.063722
0.136202 0.075654 0.065217
0.191745 0.066041 0.065339
0.254307 0.023255 0.063996
0.323644 0.000000 0.059571
0.397375 0.000000 0.047669
0.472633 0.000000 0.023407
0.545708 0.000000 0.000000
0.612940 0.000000 0.000000
0.671168 0.000000 0.000000
0.720974 0.000000 0.000000
0.763851 0.000000 0.000000
0.805966 0.000000 0.000000
0.840543 0.000000 0.000000
0.868925 0.000000 0.000000
0.893736 0.000000 0.000000
0.915648 0.083314 0.000000
0.935210 0.125582 0.000000
0.952544 0.155093 0.000000
0.968139 0.178164 0.000000
0.982391 0.197787 0.000000
0.995575 0.215061 0.000000
1.000000 0.230991 0.000000
1.000000 0.246586 0.066163
1.000000 0.261479 0.101381
1.000000 0.276616 0.131350
1.000000 0.291905 0.159945
1.000000 0.307836 0.188693
0.000000 0.074617 0.067659
0.000000 0.075807 0.067506
0.002564 0.077760 0.064424
0.047822 0.082795 0.062959
0.088014 0.087068 0.062654
0.134707 0.087221 0.064027
0.189853 0.080812 0.064118
0.251957 0.062928 0.062257
0.321294 0.000000 0.057710
0.394812 0.000000 0.043000
0.470069 0.000000 0.017762
0.543145 0.000000 0.000000
0.610529 0.000000 0.000000
0.669093 0.000000 0.000000
0.718929 0.000000 0.000000
0.762051 0.000000 0.000000
0.804166 0.000000 0.000000
0.838499 0.000000 0.000000
0.866911 0.000000 0.000000
0.891814 0.044678 0.000000
0.913970 0.107851 0.000000
0.933715 0.140902 0.000000
0.951202 0.166690 0.000000
0.966949 0.187228 0.000000
0.981292 0.205386 0.000000
0.994598 0.221347 0.000000
1.000000 0.236606 0.000000
1.000000 0.251316 0.061341
1.000000 0.265690 0.098634
1.000000 0.280247 0.129366
1.000000 0.295048 0.158297
1.000000 0.310491 0.187137
0.000000 0.092409 0.078126
0.000000 0.094606 0.078828
0.000000 0.094972 0.077699
0.032837 0.100771 0.070863
0.085084 0.108248 0.066896
0.132082 0.109346 0.064942
0.187594 0.106508 0.061738
0.250034 0.097505 0.058656
0.318944 0.078096 0.050233
0.392584 0.008789 0.031830
0.467506 0.000000 0.005341
0.540581 0.000000 0.000000
0.607782 0.000000 0.000000
0.666316 0.000000 0.000000
0.716457 0.000000 0.000000
0.760830 0.000000 0.000000
0.801968 0.000000 0.000000
0.835813 0.000000 0.000000
0.863951 0.076753 0.000000
0.888823 0.117189 0.000000
0.911040 0.145968 0.000000
0.930938 0.169619 0.000000
0.948821 0.189700 0.000000
0.965057 0.207034 0.000000
0.979889 0.222446 0.000000
0.993652 0.236851 0.000000
1.000000 0.250309 0.000000
1.000000 0.263737 0.052247
1.000000 0.276799 0.095186
1.000000 0.290013 0.126894
1.000000 0.303624 0.156313
1.000000 0.317723 0.185306
0.000000 0.119875 0.092164
0.000000 0.121767 0.091890
0.000000 0.123690 0.089662
0.014527 0.123873 0.088869
0.073091 0.134707 0.076265
0.129885 0.142611 0.068666
0.183413 0.140139 0.064942
0.245731 0.135988 0.059449
0.314733 0.127413 0.045563
0.387884 0.114382 0.019593
0.462806 0.094484 0.000000
0.535851 0.068269 0.000000
0.603388 0.023407 0.000000
0.662348 0.006653 0.000000
0.713039 0.032990 0.000000
0.759182 0.077119 0.000000
0.799710 0.107576 0.000000
0.833524 0.133303 0.000000
0.861906 0.155489 0.000000
0.886778 0.175174 0.000000
0.908995 0.192416 0.000000
0.928985 0.208286 0.000000
0.946990 0.222568 0.000000
0.963409 0.235813 0.000000
0.978454 0.247684 0.000000
0.992370 0.259220 0.000000
1.000000 0.270542 0.000000
1.000000 0.281407 0.028077
1.000000 0.292607 0.088746
1.000000 0.304173 0.122408
1.000000 0.316045 0.152895
1.000000 0.328893 0.182376
0.000000 0.155550 0.108461
0.000000 0.157534 0.107729
0.000000 0.159945 0.106874
0.000000 0.161166 0.102815
0.056184 0.164401 0.098024
0.114412 0.177707 0.080262
0.186465 0.186862 0.067262
0.246342 0.181735 0.061158
0.311864 0.176364 0.047547
0.385534 0.170291 0.019104
0.460426 0.162936 0.000000
0.533440 0.155581 0.000000
0.600824 0.152468 0.000000
0.659876 0.154482 0.000000
0.710750 0.161349 0.000000
0.758267 0.175326 0.000000
0.798123 0.190249 0.000000
0.831693 0.205203 0.000000
0.860166 0.218387 0.000000
0.885283 0.230045 0.000000
0.907713 0.241489 0.000000
0.927947 0.251682 0.000000
0.958556 0.277562 0.000000
0.973602 0.285740 0.000000
0.987304 0.293309 0.000000
0.999969 0.300603 0.000000
1.000000 0.307988 0.000000
1.000000 0.315557 0.054658
1.000000 0.323674 0.098665
1.000000 0.332341 0.130922
1.000000 0.341680 0.160800
1.000000 0.351843 0.189609
0.000000 0.203769 0.129366
0.000000 0.205386 0.128359
0.000000 0.207706 0.127413
0.000000 0.211368 0.121065
0.023896 0.210361 0.120150
0.101747 0.217838 0.109041
0.172549 0.232761 0.084108
0.260349 0.245304 0.060456
0.326909 0.238254 0.043030
0.394476 0.232151 0.012573
0.468605 0.228855 0.000000
0.541588 0.227024 0.000000
0.608026 0.228183 0.000000
0.665614 0.231296 0.000000
0.719020 0.239048 0.000000
0.764614 0.248600 0.000000
0.802945 0.258061 0.000000
0.835508 0.267247 0.000000
0.863462 0.276127 0.000000
0.888640 0.285344 0.000000
0.911589 0.294743 0.000000
0.932555 0.303288 0.000000
0.951476 0.310521 0.000000
0.968444 0.317174 0.000000
0.983673 0.323369 0.000000
0.997223 0.328771 0.000000
1.000000 0.334264 0.000000
1.000000 0.339757 0.010315
1.000000 0.345708 0.087098
1.000000 0.352453 0.122713
1.000000 0.359838 0.154482
1.000000 0.368200 0.184298
0.000000 0.255528 0.152132
0.000000 0.256931 0.151278
0.000000 0.258915 0.150179
0.000000 0.262913 0.147982
0.000000 0.263371 0.140261
0.093965 0.261051 0.138979
0.156619 0.274174 0.119844
0.236393 0.290379 0.088869
0.335485 0.307561 0.043488
0.404547 0.299931 0.006744
0.471687 0.294285 0.000000
0.537407 0.291112 0.000000
0.603967 0.293156 0.000000
0.664790 0.298192 0.000000
0.717403 0.304143 0.000000
0.761349 0.309575 0.000000
0.798978 0.315099 0.000000
0.831327 0.320348 0.000000
0.859373 0.325628 0.000000
0.884703 0.331151 0.000000
0.907805 0.337255 0.000000
0.928954 0.343389 0.000000
0.948119 0.349340 0.000000
0.965362 0.353887 0.000000
0.980804 0.357244 0.000000
0.994598 0.360418 0.000000
1.000000 0.363378 0.000000
1.000000 0.366674 0.000000
1.000000 0.370703 0.070832
1.000000 0.375341 0.113130
1.000000 0.381018 0.147127
1.000000 0.387549 0.178744
0.000000 0.315587 0.179110
0.000000 0.316777 0.178286
0.000000 0.318608 0.177401
0.000000 0.321965 0.175021
0.000000 0.324773 0.164218
0.080201 0.322271 0.163027
0.154299 0.321660 0.158480
0.223087 0.338598 0.131960
0.310002 0.355352 0.093355
0.417121 0.377722 0.007446
0.484657 0.369696 0.000000
0.547265 0.363470 0.000000
0.607721 0.362829 0.000000
0.665248 0.365057 0.000000
0.715663 0.367926 0.000000
0.758602 0.369970 0.000000
0.795743 0.371923 0.000000
0.827970 0.373938 0.000000
0.855955 0.375891 0.000000
0.881376 0.378424 0.000000
0.904601 0.381476 0.000000
0.925811 0.384619 0.000000
0.945098 0.387884 0.000000
0.962493 0.390875 0.000000
0.978241 0.393378 0.000000
0.992279 0.394079 0.000000
1.000000 0.395056 0.000000
1.000000 0.396277 0.000000
1.000000 0.398138 0.036225
1.000000 0.400855 0.101350
1.000000 0.404517 0.138888
1.000000 0.409277 0.172213
0.000000 0.382025 0.209720
0.000000 0.383032 0.208988
0.000000 0.384375 0.207767
0.000000 0.387121 0.205142
0.000000 0.391150 0.201266
0.046235 0.389441 0.189212
0.154330 0.385687 0.187594
0.222568 0.390204 0.175662
0.298070 0.407446 0.144869
0.388251 0.424048 0.099275
0.500114 0.452216 0.000000
0.564721 0.445533 0.000000
0.621210 0.439673 0.000000
0.669764 0.434058 0.000000
0.713039 0.429603 0.000000
0.756069 0.429297 0.000000
0.793362 0.428779 0.000000
0.825742 0.428016 0.000000
0.853758 0.427100 0.000000
0.878996 0.426581 0.000000
0.901915 0.426520 0.000000
0.922728 0.426795 0.000000
0.941711 0.427161 0.000000
0.958923 0.427588 0.000000
0.974640 0.427924 0.000000
0.989075 0.427863 0.000000
1.000000 0.427314 0.000000
1.000000 0.426795 0.000000
1.000000 0.427008 0.000000
1.000000 0.428077 0.086336
1.000000 0.430152 0.129671
1.000000 0.433204 0.165743
0.000000 0.450477 0.242924
0.000000 0.451331 0.241947
0.000000 0.452491 0.240726
0.000000 0.454932 0.238010
0.000000 0.458289 0.233921
0.000000 0.459480 0.218265
0.150851 0.456062 0.216587
0.229862 0.451637 0.214511
0.298466 0.461738 0.194247
0.381598 0.481453 0.160006
0.474403 0.499672 0.108644
0.581353 0.529137 0.000000
0.633997 0.517388 0.000000
0.679652 0.506462 0.000000
0.719509 0.496742 0.000000
0.754726 0.488197 0.000000
0.789395 0.482979 0.000000
0.821683 0.479652 0.000000
0.849821 0.475990 0.000000
0.875181 0.473030 0.000000
0.898192 0.470680 0.000000
0.919219 0.468757 0.000000
0.938354 0.467201 0.000000
0.955749 0.465736 0.000000
0.971649 0.464210 0.000000
0.986175 0.462531 0.000000
0.999634 0.460700 0.000000
1.000000 0.458747 0.000000
1.000000 0.457191 0.000000
1.000000 0.456397 0.064454
1.000000 0.456733 0.117769
1.000000 0.458167 0.157504
0.000000 0.520653 0.278965
0.000000 0.521416 0.278202
0.000000 0.522301 0.277012
0.000000 0.524041 0.274357
0.000000 0.526879 0.270329
0.000000 0.529534 0.261204
0.146090 0.527276 0.249485
0.237827 0.525200 0.248539
0.314122 0.521843 0.247105
0.385718 0.538903 0.217838
0.467964 0.555413 0.179660
0.553582 0.570550 0.125216
0.672999 0.618982 0.000000
0.713832 0.601282 0.000000
0.749172 0.584802 0.000000
0.780270 0.569909 0.000000
0.808072 0.556817 0.000000
0.832944 0.545098 0.000000
0.858946 0.537438 0.000000
0.882567 0.530724 0.000000
0.904021 0.524712 0.000000
0.923613 0.519493 0.000000
0.941466 0.514672 0.000000
0.957885 0.510430 0.000000
0.973022 0.506401 0.000000
0.987030 0.502556 0.000000
1.000000 0.498817 0.000000
1.000000 0.495094 0.000000
1.000000 0.491463 0.000000
1.000000 0.488777 0.037140
1.000000 0.487098 0.111330
1.000000 0.486580 0.153536
0.000000 0.597742 0.323461
0.000000 0.598596 0.322942
0.000000 0.599268 0.321752
0.000000 0.600885 0.319524
0.000000 0.603113 0.316075
0.000000 0.605432 0.311711
0.154086 0.605463 0.292546
0.252598 0.601892 0.290959
0.332982 0.597925 0.289342
0.404089 0.598993 0.280980
0.476112 0.614466 0.250248
0.553521 0.629236 0.211276
0.631556 0.643030 0.158968
0.717067 0.665888 0.079286
0.752651 0.647272 0.039307
0.783200 0.629633 0.000000
0.810086 0.613245 0.000000
0.833768 0.598138 0.000000
0.855222 0.584680 0.000000
0.877134 0.574548 0.000000
0.898833 0.566796 0.000000
0.918669 0.559716 0.000000
0.936767 0.553429 0.000000
0.953368 0.547539 0.000000
0.968750 0.542046 0.000000
0.982971 0.536950 0.000000
0.996216 0.532036 0.000000
1.000000 0.527306 0.000000
1.000000 0.522423 0.000000
1.000000 0.517845 0.000000
1.000000 0.514855 0.093263
1.000000 0.512902 0.142550
0.000000 0.661891 0.366644
0.000000 0.662318 0.365911
0.000000 0.662409 0.364904
0.000000 0.662837 0.362615
0.000000 0.663233 0.359289
0.067811 0.663600 0.355566
0.180423 0.663905 0.341680
0.262608 0.660365 0.332433
0.342412 0.655787 0.330419
0.414099 0.651301 0.328710
0.477760 0.656062 0.313542
0.543389 0.668696 0.282017
0.612146 0.680171 0.243412
0.681117 0.690303 0.193088
0.756588 0.708461 0.129549
0.786679 0.688136 0.108156
0.812253 0.668513 0.088350
0.834989 0.650538 0.068177
0.855650 0.634272 0.038849
0.875181 0.620264 0.002747
0.893736 0.608209 0.000000
0.913817 0.599725 0.000000
0.932158 0.591913 0.012329
0.949035 0.584741 0.032349
0.964630 0.578027 0.050172
0.979034 0.571710 0.060883
0.992523 0.565667 0.065095
1.000000 0.559960 0.066102
1.000000 0.554406 0.063539
1.000000 0.548791 0.049470
1.000000 0.543450 0.069551
1.000000 0.540215 0.130526
0.000000 0.713710 0.406531
0.000000 0.713954 0.406256
0.000000 0.713741 0.405219
0.000000 0.713527 0.403357
0.000000 0.713069 0.400824
0.118807 0.712398 0.397925
0.225742 0.711727 0.395911
0.278325 0.709712 0.375677
0.353979 0.705196 0.373602
0.422766 0.700618 0.371862
0.485298 0.696193 0.370428
0.540642 0.703975 0.348669
0.599359 0.713802 0.317205
0.660487 0.722469 0.278874
0.721828 0.729580 0.230838
0.787900 0.742458 0.176272
0.815213 0.722805 0.155367
0.836820 0.702113 0.138674
0.856596 0.683375 0.124605
0.875334 0.666896 0.112886
0.893187 0.652522 0.103670
0.910216 0.639979 0.096345
0.927367 0.629786 0.095338
0.944457 0.621332 0.100740
0.960296 0.613519 0.105409
0.975036 0.606287 0.109712
0.988861 0.599481 0.113069
1.000000 0.593164 0.115724
1.000000 0.587030 0.115724
1.000000 0.581018 0.112856
1.000000 0.574640 0.104189
1.000000 0.568811 0.120394
0.000000 0.756313 0.443702
0.000000 0.756558 0.443671
0.000000 0.756466 0.443214
0.000000 0.756283 0.442298
0.000000 0.755795 0.441077
0.173098 0.755093 0.440192
0.260166 0.754208 0.440192
0.313146 0.753475 0.427222
0.374640 0.749660 0.420935
0.436988 0.745174 0.419074
0.494514 0.740291 0.416968
0.546929 0.736385 0.413123
0.594110 0.743984 0.385901
0.645655 0.750637 0.353491
0.699397 0.756222 0.314855
0.753994 0.760739 0.268315
0.813107 0.770169 0.219272
0.838437 0.751797 0.197848
0.857694 0.731136 0.182864
0.875914 0.712886 0.170779
0.893339 0.696742 0.160830
0.909941 0.682429 0.153567
0.925719 0.669734 0.147616
0.940795 0.658412 0.143313
0.956664 0.649531 0.146731
0.971618 0.641413 0.150546
0.985595 0.633753 0.153567
0.998810 0.626673 0.155947
1.000000 0.619867 0.157229
1.000000 0.613092 0.155581
1.000000 0.606104 0.150423
1.000000 0.598291 0.138277
0.000000 0.790524 0.476997
0.000000 0.790463 0.476905
0.000000 0.790249 0.476692
0.000000 0.789822 0.476326
0.131594 0.789120 0.476204
0.219577 0.788113 0.476478
0.293400 0.786801 0.477913
0.362463 0.785122 0.481025
0.395483 0.783291 0.463325
0.450538 0.779080 0.461341
0.502617 0.774716 0.459571
0.551324 0.770199 0.457557
0.595087 0.769375 0.447883
0.637354 0.775296 0.420935
0.683436 0.780209 0.388983
0.731502 0.784054 0.351293
0.780941 0.786984 0.306950
0.834653 0.793942 0.261387
0.858488 0.776883 0.239445
0.876005 0.756893 0.224949
0.892729 0.738979 0.213138
0.908751 0.723018 0.203372
0.924102 0.708705 0.195987
0.938842 0.696010 0.190372
0.953033 0.684596 0.186099
0.967285 0.674891 0.185794
0.981506 0.666621 0.188968
0.994934 0.658930 0.191623
1.000000 0.651575 0.193484
1.000000 0.644465 0.193668
1.000000 0.637171 0.190707
1.000000 0.629145 0.182376
0.000000 0.819699 0.508507
0.000000 0.819852 0.508934
0.128542 0.829770 0.521599
0.179538 0.829068 0.521965
0.236790 0.827878 0.522850
0.294804 0.826200 0.524346
0.354162 0.824033 0.527123
0.412512 0.821469 0.531792
0.445441 0.819883 0.521752
0.486610 0.816098 0.517479
0.529442 0.811887 0.515068
0.570855 0.807401 0.512444
0.610437 0.802548 0.509392
0.645228 0.803403 0.493324
0.681483 0.807279 0.466163
0.721492 0.810300 0.434455
0.764340 0.812589 0.397681
0.808896 0.814115 0.354925
0.857389 0.818692 0.311681
0.879423 0.802396 0.288823
0.894957 0.782803 0.273533
0.910063 0.765133 0.261143
0.924651 0.749233 0.250858
0.938659 0.734951 0.242802
0.952087 0.721889 0.235966
0.965118 0.710140 0.230594
0.977783 0.699519 0.226169
0.991028 0.690822 0.227726
1.000000 0.682795 0.229465
1.000000 0.675227 0.230411
1.000000 0.667659 0.229038
1.000000 0.659419 0.223148
0.154971 0.846098 0.540764
0.175387 0.847044 0.542565
0.199252 0.847868 0.544427
0.237217 0.848173 0.546746
0.283574 0.847745 0.549340
0.333867 0.846433 0.552422
0.385657 0.844480 0.556359
0.438209 0.841978 0.562097
0.488899 0.839353 0.569238
0.506859 0.837705 0.554070
0.543481 0.834043 0.551781
0.579736 0.830106 0.549523
0.615015 0.825834 0.546838
0.649104 0.821317 0.543603
0.678218 0.823880 0.523369
0.710719 0.826841 0.496895
0.746883 0.829129 0.466346
0.785885 0.830777 0.431342
0.827176 0.831907 0.391119
0.872557 0.835782 0.350286
0.893736 0.820920 0.327794
0.908415 0.802487 0.313176
0.922667 0.785672 0.300908
0.936400 0.770413 0.290929
0.949676 0.756527 0.282567
0.962554 0.743862 0.275761
0.975067 0.732418 0.270268
0.987335 0.722194 0.266361
0.999664 0.713313 0.265599
1.000000 0.705348 0.267338
1.000000 0.697505 0.267124
1.000000 0.689265 0.263279
0.232517 0.865019 0.566369
0.246647 0.865660 0.568200
0.263462 0.866239 0.570062
0.292149 0.866270 0.572534
0.329870 0.865660 0.575555
0.372534 0.864256 0.579278
0.418189 0.862242 0.584100
0.464240 0.859922 0.590112
0.509789 0.857389 0.597589
0.531701 0.856168 0.589380
0.561212 0.853178 0.586511
0.592370 0.849821 0.584466
0.623102 0.846098 0.581994
0.653437 0.842161 0.579278
0.682155 0.838956 0.573785
0.707698 0.841825 0.552544
0.737026 0.844175 0.527703
0.769802 0.845975 0.498970
0.805661 0.847288 0.465858
0.843961 0.848203 0.428260
0.886534 0.851621 0.389868
0.906859 0.838102 0.367834
0.920745 0.820676 0.353643
0.934112 0.804654 0.341650
0.947112 0.790005 0.331426
0.959716 0.776577 0.322789
0.972045 0.764370 0.315801
0.984131 0.753414 0.310735
0.995972 0.743526 0.307164
1.000000 0.734554 0.304448
1.000000 0.726406 0.304875
1.000000 0.718135 0.302861
0.293370 0.881315 0.590784
0.304234 0.881773 0.592493
0.317723 0.882139 0.594415
0.341436 0.881987 0.597070
0.373205 0.881193 0.600580
0.409827 0.879789 0.604761
0.449165 0.877867 0.609796
0.489754 0.875608 0.615930
0.530755 0.873136 0.623316
0.568017 0.870787 0.629938
0.580774 0.869566 0.618433
0.607141 0.866606 0.616541
0.633631 0.863432 0.614374
0.660273 0.860014 0.611933
0.686702 0.856382 0.609339
0.710750 0.855314 0.600610
0.734371 0.857939 0.581323
0.761440 0.860197 0.559289
0.791806 0.862089 0.533989
0.825071 0.863615 0.504906
0.860685 0.864683 0.471077
0.900969 0.868101 0.436042
0.920317 0.855711 0.414801
0.933410 0.839414 0.401556
0.946136 0.824399 0.390112
0.958434 0.810575 0.380499
0.970489 0.797879 0.372595
0.982269 0.786404 0.366491
0.993866 0.775967 0.362036
1.000000 0.766415 0.358434
1.000000 0.757351 0.354711
1.000000 0.749020 0.351995
0.356329 0.897734 0.618616
0.363928 0.897765 0.619776
0.373388 0.897612 0.621027
0.391669 0.897032 0.623255
0.417487 0.895964 0.626490
0.448280 0.894408 0.630579
0.482368 0.892546 0.635767
0.518395 0.890410 0.642084
0.555230 0.888182 0.649653
0.591669 0.885863 0.658381
0.607630 0.884977 0.652766
0.628321 0.882719 0.650263
0.650690 0.880064 0.648463
0.673335 0.877134 0.646387
0.696132 0.874022 0.644007
0.719020 0.870787 0.641474
0.738979 0.871244 0.630121
0.760220 0.873472 0.612299
0.784634 0.875364 0.592065
0.812100 0.876890 0.568780
0.842252 0.877989 0.542077
0.874876 0.878660 0.510796
0.912505 0.881651 0.477058
0.930663 0.869963 0.455055
0.942931 0.854551 0.441749
0.954986 0.840330 0.430549
0.966766 0.827298 0.421424
0.978424 0.815457 0.414405
0.989807 0.804654 0.409125
1.000000 0.794675 0.404700
1.000000 0.785550 0.401038
1.000000 0.777249 0.397589
0.400763 0.909728 0.640314
0.407263 0.909697 0.641444
0.415229 0.909575 0.642786
0.431128 0.908965 0.645075
0.453223 0.907897 0.648341
0.479896 0.906432 0.652461
0.509880 0.904601 0.657588
0.541833 0.902556 0.663752
0.575250 0.900359 0.671229
0.608484 0.898100 0.679683
0.637812 0.896086 0.686671
0.646601 0.895262 0.677760
0.665461 0.893004 0.676143
0.684993 0.890562 0.674434
0.704860 0.887968 0.672541
0.725032 0.885222 0.670497
0.745418 0.882414 0.668330
0.762539 0.884215 0.655238
0.782071 0.886290 0.639216
0.804471 0.888060 0.620996
0.829679 0.889494 0.600153
0.857450 0.890562 0.576226
0.887541 0.891203 0.548455
0.921996 0.893431 0.517998
0.939239 0.882322 0.491585
0.950958 0.867887 0.478889
0.962554 0.854673 0.468757
0.973968 0.842588 0.460670
0.985107 0.831510 0.454383
0.995972 0.821408 0.449683
1.000000 0.812406 0.446479
1.000000 0.804593 0.444465
0.446876 0.921813 0.663935
0.452613 0.921752 0.665156
0.459358 0.921569 0.666407
0.472419 0.920897 0.668574
0.491066 0.919799 0.671595
0.513939 0.918303 0.675593
0.540093 0.916442 0.680537
0.568353 0.914366 0.686427
0.597986 0.912108 0.693416
0.627710 0.909819 0.701289
0.656794 0.907500 0.709865
0.668574 0.906615 0.705684
0.682643 0.904784 0.702815
0.698787 0.902586 0.700984
0.715419 0.900175 0.698817
0.732509 0.897642 0.696529
0.750118 0.895048 0.694209
0.767483 0.893156 0.690486
0.782803 0.895201 0.677424
0.800900 0.897154 0.662837
0.821622 0.898863 0.646540
0.844816 0.900206 0.627771
0.870329 0.901152 0.605951
0.898070 0.901610 0.580133
0.929534 0.903044 0.551446
0.947539 0.894377 0.529778
0.958679 0.881071 0.518486
0.969696 0.868803 0.509270
0.980468 0.857603 0.501915
0.991058 0.847471 0.496681
1.000000 0.838621 0.493721
1.000000 0.831144 0.492744
0.479072 0.931029 0.681819
0.484016 0.930999 0.683009
0.490089 0.930785 0.684230
0.501701 0.930114 0.686397
0.518425 0.929076 0.689479
0.539147 0.927642 0.693568
0.563073 0.925933 0.698634
0.589044 0.924010 0.704707
0.616419 0.921935 0.711696
0.644160 0.919799 0.719631
0.671321 0.917693 0.728145
0.695277 0.915862 0.735256
0.700832 0.915282 0.727749
0.714565 0.913512 0.726314
0.728908 0.911559 0.724697
0.743709 0.909483 0.722927
0.759060 0.907317 0.721096
0.774899 0.905150 0.719356
0.789670 0.904631 0.714168
0.803861 0.906615 0.702632
0.820371 0.908415 0.689631
0.839170 0.909941 0.674922
0.860197 0.911131 0.657893
0.883421 0.911925 0.638117
0.908843 0.912291 0.614923
0.937591 0.913268 0.588769
0.955291 0.905882 0.568109
0.965789 0.893706 0.558343
0.976226 0.882658 0.550927
0.986419 0.872770 0.545861
0.996216 0.864164 0.543328
1.000000 0.857023 0.543297
0.510002 0.939879 0.699641
0.514366 0.939757 0.700679
0.519432 0.939513 0.701747
0.529595 0.938842 0.703792
0.544335 0.937743 0.706722
0.563043 0.936339 0.710719
0.584649 0.934691 0.715663
0.608576 0.932830 0.721645
0.633845 0.930846 0.728603
0.659541 0.928832 0.736324
0.685115 0.926848 0.744717
0.709957 0.924926 0.753658
0.720424 0.924254 0.751797
0.730404 0.923033 0.749203
0.742611 0.921416 0.747860
0.755337 0.919677 0.746365
0.768582 0.917845 0.744808
0.782406 0.915984 0.743343
0.796719 0.914122 0.742061
0.809323 0.914733 0.735622
0.822385 0.916594 0.725307
0.837522 0.918242 0.713680
0.854643 0.919615 0.700343
0.873808 0.920714 0.685023
0.895018 0.921386 0.667109
0.918334 0.921630 0.645899
0.944671 0.922210 0.621942
0.962005 0.915984 0.602106
0.971801 0.904936 0.593957
0.981628 0.895201 0.588830
0.991058 0.886748 0.586328
0.999878 0.879973 0.586938
0.535607 0.947753 0.715175
0.539361 0.947570 0.716091
0.544060 0.947326 0.717189
0.553307 0.946685 0.719203
0.567346 0.945708 0.722408
0.585077 0.944457 0.726741
0.605982 0.943023 0.732265
0.629114 0.941436 0.738857
0.653742 0.939757 0.746487
0.678767 0.938048 0.754910
0.703456 0.936370 0.763912
0.727382 0.934783 0.773220
0.748623 0.933379 0.781552
0.752438 0.933288 0.775753
0.762966 0.932097 0.775051
0.773678 0.930724 0.774044
0.784878 0.929290 0.772915
0.796536 0.927794 0.771817
0.808774 0.926299 0.770871
0.821439 0.924834 0.770047
0.831907 0.926238 0.762966
0.843626 0.927886 0.754025
0.856931 0.929290 0.743679
0.872038 0.930480 0.731838
0.889006 0.931334 0.718166
0.908019 0.931914 0.702266
0.929137 0.932128 0.683680
0.952850 0.932464 0.662593
0.968963 0.927092 0.644862
0.977935 0.917388 0.638331
0.986755 0.909209 0.635950
0.994965 0.902647 0.636652
0.566430 0.956298 0.733669
0.569635 0.956115 0.734493
0.573693 0.955840 0.735500
0.582116 0.955169 0.737484
0.594720 0.954162 0.740597
0.610773 0.952880 0.744808
0.629633 0.951415 0.750057
0.650538 0.949767 0.756283
0.672816 0.948058 0.763424
0.695735 0.946258 0.771359
0.718379 0.944488 0.779660
0.740414 0.942809 0.788388
0.761379 0.941253 0.797116
0.771176 0.940673 0.797421
0.777798 0.939940 0.794888
0.786954 0.938842 0.794095
