其他预设/【233】日式怀旧街道调色预设208款/2.LR预设文件/4.富士胶片风日式城市街拍预设 (自动曝光预设)/JA_–_Gritty_Contrast_3_(Classic_Chrome)_(Auto).lrtemplate
s = {
	id = "9D42C6F3-0B92-4830-A50A-5063AC093B33",
	internalName = "JA – Gritty Contrast 3 (Classic Chrome) (Auto)",
	title = "JA – Gritty Contrast 3 (Classic Chrome) (Auto)",
	type = "Develop",
	value = {
		settings = {
			AutoBrightness = false,
			AutoContrast = false,
			AutoExposure = false,
			AutoShadows = false,
			AutoTone = true,
			BlueHue = -34,
			BlueSaturation = 28,
			CameraProfile = "Camera CLASSIC CHROME",
			Clarity2012 = 21,
			ConvertToGrayscale = false,
			EnableCalibration = true,
			EnableCircularGradientBasedCorrections = true,
			EnableColorAdjustments = true,
			EnableEffects = true,
			EnableGradientBasedCorrections = true,
			EnableSplitToning = true,
			GrainAmount = 31,
			GrainFrequency = 58,
			GrainSize = 38,
			GreenHue = -2,
			GreenSaturation = -8,
			HueAdjustmentAqua = 6,
			HueAdjustmentBlue = 7,
			HueAdjustmentGreen = -4,
			HueAdjustmentMagenta = -8,
			HueAdjustmentOrange = 6,
			HueAdjustmentPurple = -4,
			HueAdjustmentRed = 3,
			HueAdjustmentYellow = -8,
			LuminanceAdjustmentAqua = -14,
			LuminanceAdjustmentBlue = -8,
			LuminanceAdjustmentGreen = 14,
			LuminanceAdjustmentMagenta = -19,
			LuminanceAdjustmentOrange = 37,
			LuminanceAdjustmentPurple = 0,
			LuminanceAdjustmentRed = -46,
			LuminanceAdjustmentYellow = 27,
			ParametricDarks = 0,
			ParametricHighlightSplit = 75,
			ParametricHighlights = 0,
			ParametricLights = 0,
			ParametricMidtoneSplit = 50,
			ParametricShadowSplit = 25,
			ParametricShadows = 0,
			ProcessVersion = "6.7",
			RedHue = 10,
			RedSaturation = 18,
			Saturation = -3,
			SaturationAdjustmentAqua = -44,
			SaturationAdjustmentBlue = -44,
			SaturationAdjustmentGreen = -8,
			SaturationAdjustmentMagenta = -41,
			SaturationAdjustmentOrange = 4,
			SaturationAdjustmentPurple = -42,
			SaturationAdjustmentRed = -33,
			SaturationAdjustmentYellow = 14,
			ShadowTint = -3,
			SplitToningBalance = 0,
			SplitToningHighlightHue = 42,
			SplitToningHighlightSaturation = 26,
			SplitToningShadowHue = 225,
			SplitToningShadowSaturation = 10,
			ToneCurveName2012 = "Custom",
			ToneCurvePV2012 = {
				0,
				22,
				22,
				27,
				43,
				39,
				64,
				76,
				91,
				117,
				143,
				160,
				209,
				232,
				255,
				247,
			},
			ToneCurvePV2012Blue = {
				0,
				0,
				255,
				255,
			},
			ToneCurvePV2012Green = {
				0,
				0,
				255,
				255,
			},
			ToneCurvePV2012Red = {
				0,
				0,
				255,
				255,
			},
			Vibrance = 8,
			orientation = "AB",
		},
		uuid = "E031F835-B264-4467-B0EF-CFCE04795CA1",
	},
	version = 0,
}
