其他预设/【233】日式怀旧街道调色预设208款/2.LR预设文件/4.富士胶片风日式城市街拍预设 (自动曝光预设)/JA_–_Chrome_2_(Classic_Chrome)_(Auto).lrtemplate
s = {
	id = "2C79B646-E663-4DA5-B08C-88E12CE9384F",
	internalName = "JA Urban Chrome 2 (Classic Chrome) (Auto)",
	title = "JA – Chrome 2 (Classic Chrome) (Auto)",
	type = "Develop",
	value = {
		settings = {
			AutoBrightness = false,
			AutoContrast = false,
			AutoExposure = false,
			AutoShadows = false,
			AutoTone = true,
			BlueHue = -15,
			BlueSaturation = 11,
			CameraProfile = "Camera CLASSIC CHROME",
			Clarity2012 = 21,
			ConvertToGrayscale = false,
			EnableCalibration = true,
			EnableCircularGradientBasedCorrections = true,
			EnableColorAdjustments = true,
			EnableEffects = true,
			EnableGradientBasedCorrections = true,
			EnableSplitToning = true,
			GradientBasedCorrections = {
				{
					CorrectionActive = true,
					CorrectionAmount = 1,
					CorrectionID = "2FA1AD51-186D-4E0E-B291-55AD9B37E603",
					CorrectionMasks = {
						{
							FullX = -0.0461,
							FullY = 0.536885,
							MaskID = "B01A68A8-015B-4036-8770-FD35F2D7B8B9",
							MaskValue = 1,
							What = "Mask/Gradient",
							ZeroX = 0.392318,
							ZeroY = 0.537078,
						},
					},
					CorrectionReferenceX = 0.173109,
					CorrectionReferenceY = 0.536982,
					LocalBlacks2012 = 0.137449,
					LocalBrightness = 0,
					LocalClarity = 0,
					LocalClarity2012 = 0,
					LocalContrast = 0,
					LocalContrast2012 = 0.031758,
					LocalDefringe = 0,
					LocalDehaze = 0,
					LocalExposure = 0,
					LocalExposure2012 = -0.078637,
					LocalHighlights2012 = -0.401994,
					LocalLuminanceNoise = 0,
					LocalMoire = 0,
					LocalSaturation = 0,
					LocalShadows2012 = -0.236916,
					LocalSharpness = 0.002096,
					LocalTemperature = -0.019817,
					LocalTint = 0,
					LocalToningHue = 0,
					LocalToningSaturation = 0,
					LocalWhites2012 = 0.185658,
					What = "Correction",
				},
			},
			GrainAmount = 10,
			GrainFrequency = 50,
			GrainSize = 25,
			GreenHue = 13,
			GreenSaturation = -16,
			HueAdjustmentAqua = -2,
			HueAdjustmentBlue = 23,
			HueAdjustmentGreen = 13,
			HueAdjustmentMagenta = 0,
			HueAdjustmentOrange = 17,
			HueAdjustmentPurple = 0,
			HueAdjustmentRed = 5,
			HueAdjustmentYellow = 41,
			LuminanceAdjustmentAqua = -3,
			LuminanceAdjustmentBlue = 19,
			LuminanceAdjustmentGreen = -18,
			LuminanceAdjustmentMagenta = 0,
			LuminanceAdjustmentOrange = 2,
			LuminanceAdjustmentPurple = -5,
			LuminanceAdjustmentRed = 0,
			LuminanceAdjustmentYellow = 2,
			ParametricDarks = 0,
			ParametricHighlightSplit = 75,
			ParametricHighlights = 0,
			ParametricLights = 0,
			ParametricMidtoneSplit = 50,
			ParametricShadowSplit = 25,
			ParametricShadows = 0,
			ProcessVersion = "6.7",
			RedHue = 25,
			RedSaturation = 9,
			Saturation = 4,
			SaturationAdjustmentAqua = 15,
			SaturationAdjustmentBlue = 27,
			SaturationAdjustmentGreen = 23,
			SaturationAdjustmentMagenta = -24,
			SaturationAdjustmentOrange = 12,
			SaturationAdjustmentPurple = -22,
			SaturationAdjustmentRed = 3,
			SaturationAdjustmentYellow = -10,
			ShadowTint = -17,
			SplitToningBalance = 0,
			SplitToningHighlightHue = 26,
			SplitToningHighlightSaturation = 5,
			SplitToningShadowHue = 214,
			SplitToningShadowSaturation = 3,
			ToneCurveName2012 = "Custom",
			ToneCurvePV2012 = {
				0,
				23,
				37,
				31,
				72,
				67,
				106,
				115,
				140,
				158,
				179,
				197,
				255,
				239,
			},
			ToneCurvePV2012Blue = {
				0,
				0,
				255,
				255,
			},
			ToneCurvePV2012Green = {
				0,
				0,
				255,
				255,
			},
			ToneCurvePV2012Red = {
				0,
				0,
				255,
				255,
			},
			Vibrance = 15,
			orientation = "DA",
		},
		uuid = "B8C6A2A2-225F-4021-996B-5B2D16048EEB",
	},
	version = 0,
}
