其他预设/【233】日式怀旧街道调色预设208款/2.LR预设文件/4.富士胶片风日式城市街拍预设 (自动曝光预设)/JA_–_Cool_Bright_2_(Classic_Chrome)_(Auto).lrtemplate
s = {
	id = "BA2A9C00-B5C4-4B56-96C8-6B6DABF838CB",
	internalName = "JA – Cool Bright 2 (Classic Chrome) (Auto)",
	title = "JA – Cool Bright 2 (Classic Chrome) (Auto)",
	type = "Develop",
	value = {
		settings = {
			AutoBrightness = false,
			AutoContrast = false,
			AutoExposure = false,
			AutoShadows = false,
			AutoTone = true,
			BlueHue = -6,
			BlueSaturation = 27,
			CameraProfile = "Camera CLASSIC CHROME",
			Clarity2012 = 7,
			ConvertToGrayscale = false,
			EnableCalibration = true,
			EnableCircularGradientBasedCorrections = true,
			EnableColorAdjustments = true,
			EnableEffects = true,
			EnableGradientBasedCorrections = true,
			EnableSplitToning = true,
			GrainAmount = 9,
			GrainFrequency = 50,
			GrainSize = 25,
			GreenHue = 0,
			GreenSaturation = -5,
			HueAdjustmentAqua = 9,
			HueAdjustmentBlue = -8,
			HueAdjustmentGreen = 0,
			HueAdjustmentMagenta = 0,
			HueAdjustmentOrange = -4,
			HueAdjustmentPurple = 0,
			HueAdjustmentRed = -12,
			HueAdjustmentYellow = 0,
			LuminanceAdjustmentAqua = 11,
			LuminanceAdjustmentBlue = 30,
			LuminanceAdjustmentGreen = -20,
			LuminanceAdjustmentMagenta = -28,
			LuminanceAdjustmentOrange = -15,
			LuminanceAdjustmentPurple = -23,
			LuminanceAdjustmentRed = -16,
			LuminanceAdjustmentYellow = -17,
			ParametricDarks = 0,
			ParametricHighlightSplit = 75,
			ParametricHighlights = 0,
			ParametricLights = 0,
			ParametricMidtoneSplit = 50,
			ParametricShadowSplit = 25,
			ParametricShadows = 0,
			ProcessVersion = "6.7",
			RedHue = 4,
			RedSaturation = -13,
			Saturation = -17,
			SaturationAdjustmentAqua = -23,
			SaturationAdjustmentBlue = 22,
			SaturationAdjustmentGreen = -12,
			SaturationAdjustmentMagenta = 0,
			SaturationAdjustmentOrange = -6,
			SaturationAdjustmentPurple = 0,
			SaturationAdjustmentRed = -7,
			SaturationAdjustmentYellow = 8,
			ShadowTint = 5,
			SplitToningBalance = 10,
			SplitToningHighlightHue = 43,
			SplitToningHighlightSaturation = 10,
			SplitToningShadowHue = 215,
			SplitToningShadowSaturation = 5,
			ToneCurveName2012 = "Custom",
			ToneCurvePV2012 = {
				0,
				13,
				33,
				34,
				71,
				70,
				103,
				121,
				164,
				188,
				210,
				225,
				255,
				239,
			},
			ToneCurvePV2012Blue = {
				0,
				0,
				255,
				255,
			},
			ToneCurvePV2012Green = {
				0,
				0,
				255,
				255,
			},
			ToneCurvePV2012Red = {
				0,
				0,
				255,
				255,
			},
			Vibrance = 28,
			orientation = "DA",
		},
		uuid = "598207CB-B163-477A-9F6B-5B7643A55A0E",
	},
	version = 0,
}
