其他预设/【231】淡彩糖果色预设10款/2.LR预设文件/淡彩糖果色-3.lrtemplate
s = {
	id = "EEE39731-6610-4FF8-A8BB-08C77F180432",
	internalName = "淡彩糖果色[素锦印象]-3",
	title = "淡彩糖果色[素锦印象]-3",
	type = "Develop",
	value = {
		settings = {
			AutoLateralCA = 0,
			Blacks2012 = 52,
			BlueHue = 0,
			BlueSaturation = 0,
			CameraProfile = "Embedded",
			ChromaticAberrationB = 0,
			ChromaticAberrationR = 0,
			Clarity2012 = 40,
			ColorNoiseReduction = 0,
			ColorNoiseReductionDetail = 50,
			ColorNoiseReductionSmoothness = 50,
			Contrast2012 = -7,
			ConvertToGrayscale = false,
			Defringe = 0,
			DefringeGreenAmount = 0,
			DefringeGreenHueHi = 60,
			DefringeGreenHueLo = 40,
			DefringePurpleAmount = 0,
			DefringePurpleHueHi = 70,
			DefringePurpleHueLo = 30,
			Dehaze = -11,
			EnableCalibration = true,
			EnableColorAdjustments = true,
			EnableDetail = true,
			EnableEffects = true,
			EnableLensCorrections = true,
			EnableSplitToning = true,
			Exposure2012 = 0,
			GrainAmount = 0,
			GrainFrequency = 50,
			GrainSize = 25,
			GreenHue = 0,
			GreenSaturation = 0,
			Highlights2012 = -8,
			HueAdjustmentAqua = 37,
			HueAdjustmentBlue = -35,
			HueAdjustmentGreen = 12,
			HueAdjustmentMagenta = 14,
			HueAdjustmentOrange = -4,
			HueAdjustmentPurple = 11,
			HueAdjustmentRed = 27,
			HueAdjustmentYellow = 0,
			IncrementalTemperature = -7,
			IncrementalTint = 4,
			LensProfileEnable = 0,
			LensProfileSetup = "LensDefaults",
			LuminanceAdjustmentAqua = 2,
			LuminanceAdjustmentBlue = 35,
			LuminanceAdjustmentGreen = 17,
			LuminanceAdjustmentMagenta = 0,
			LuminanceAdjustmentOrange = 35,
			LuminanceAdjustmentPurple = 0,
			LuminanceAdjustmentRed = 0,
			LuminanceAdjustmentYellow = 17,
			LuminanceNoiseReductionContrast = 0,
			LuminanceNoiseReductionDetail = 50,
			LuminanceSmoothing = 0,
			ParametricDarks = 0,
			ParametricHighlightSplit = 75,
			ParametricHighlights = 0,
			ParametricLights = 0,
			ParametricMidtoneSplit = 50,
			ParametricShadowSplit = 25,
			ParametricShadows = 0,
			PostCropVignetteAmount = 0,
			PostCropVignetteFeather = 50,
			PostCropVignetteHighlightContrast = 0,
			PostCropVignetteMidpoint = 50,
			PostCropVignetteRoundness = 0,
			PostCropVignetteStyle = 1,
			ProcessVersion = "6.7",
			RedHue = 0,
			RedSaturation = 0,
			Saturation = 2,
			SaturationAdjustmentAqua = -11,
			SaturationAdjustmentBlue = 9,
			SaturationAdjustmentGreen = 26,
			SaturationAdjustmentMagenta = 0,
			SaturationAdjustmentOrange = 20,
			SaturationAdjustmentPurple = 0,
			SaturationAdjustmentRed = 11,
			SaturationAdjustmentYellow = 7,
			ShadowTint = 0,
			Shadows2012 = 51,
			SharpenDetail = 25,
			SharpenEdgeMasking = 0,
			SharpenRadius = 1,
			Sharpness = 0,
			SplitToningBalance = 0,
			SplitToningHighlightHue = 0,
			SplitToningHighlightSaturation = 0,
			SplitToningShadowHue = 0,
			SplitToningShadowSaturation = 0,
			ToneCurveName2012 = "Custom",
			ToneCurvePV2012 = {
				0,
				8,
				255,
				255,
			},
			ToneCurvePV2012Blue = {
				0,
				0,
				255,
				255,
			},
			ToneCurvePV2012Green = {
				0,
				0,
				255,
				255,
			},
			ToneCurvePV2012Red = {
				0,
				0,
				255,
				255,
			},
			Vibrance = 9,
			VignetteAmount = 0,
			VignetteMidpoint = 50,
			WhiteBalance = "Custom",
			Whites2012 = 20,
		},
		uuid = "4748211C-C2F6-4FFD-A750-6D06F4C0313B",
	},
	version = 0,
}
