其他预设/【231】淡彩糖果色预设10款/2.LR预设文件/淡彩糖果色-6.lrtemplate
s = {
	id = "D60DE2FD-F4C0-4EDC-892F-B13850B7C839",
	internalName = "淡彩糖果色[素锦印象]-6",
	title = "淡彩糖果色[素锦印象]-6",
	type = "Develop",
	value = {
		settings = {
			AutoLateralCA = 0,
			Blacks2012 = 56,
			BlueHue = -48,
			BlueSaturation = -40,
			CameraProfile = "Embedded",
			ChromaticAberrationB = 0,
			ChromaticAberrationR = 0,
			Clarity2012 = 0,
			ColorNoiseReduction = 30,
			ColorNoiseReductionDetail = 50,
			ColorNoiseReductionSmoothness = 50,
			Contrast2012 = 3,
			ConvertToGrayscale = false,
			Defringe = 0,
			DefringeGreenAmount = 0,
			DefringeGreenHueHi = 60,
			DefringeGreenHueLo = 40,
			DefringePurpleAmount = 0,
			DefringePurpleHueHi = 70,
			DefringePurpleHueLo = 30,
			Dehaze = 0,
			EnableCalibration = true,
			EnableColorAdjustments = true,
			EnableDetail = true,
			EnableEffects = true,
			EnableLensCorrections = true,
			EnableSplitToning = true,
			Exposure2012 = 0.5,
			GrainAmount = 0,
			GrainFrequency = 50,
			GrainSize = 25,
			GreenHue = 0,
			GreenSaturation = 0,
			Highlights2012 = -31,
			HueAdjustmentAqua = 0,
			HueAdjustmentBlue = -15,
			HueAdjustmentGreen = 0,
			HueAdjustmentMagenta = 0,
			HueAdjustmentOrange = 29,
			HueAdjustmentPurple = 0,
			HueAdjustmentRed = 0,
			HueAdjustmentYellow = 0,
			IncrementalTemperature = 16,
			IncrementalTint = 8,
			LensProfileEnable = 0,
			LensProfileSetup = "LensDefaults",
			LuminanceAdjustmentAqua = 18,
			LuminanceAdjustmentBlue = -33,
			LuminanceAdjustmentGreen = 24,
			LuminanceAdjustmentMagenta = 13,
			LuminanceAdjustmentOrange = 0,
			LuminanceAdjustmentPurple = 13,
			LuminanceAdjustmentRed = 0,
			LuminanceAdjustmentYellow = 18,
			LuminanceNoiseReductionContrast = 0,
			LuminanceNoiseReductionDetail = 50,
			LuminanceSmoothing = 24,
			ParametricDarks = 0,
			ParametricHighlightSplit = 75,
			ParametricHighlights = 0,
			ParametricLights = 0,
			ParametricMidtoneSplit = 50,
			ParametricShadowSplit = 25,
			ParametricShadows = 0,
			PostCropVignetteAmount = 0,
			PostCropVignetteFeather = 50,
			PostCropVignetteHighlightContrast = 0,
			PostCropVignetteMidpoint = 50,
			PostCropVignetteRoundness = 0,
			PostCropVignetteStyle = 1,
			ProcessVersion = "6.7",
			RedHue = 0,
			RedSaturation = -10,
			Saturation = 41,
			SaturationAdjustmentAqua = 0,
			SaturationAdjustmentBlue = 18,
			SaturationAdjustmentGreen = -62,
			SaturationAdjustmentMagenta = 36,
			SaturationAdjustmentOrange = -38,
			SaturationAdjustmentPurple = 31,
			SaturationAdjustmentRed = -18,
			SaturationAdjustmentYellow = 16,
			ShadowTint = 0,
			Shadows2012 = 100,
			SharpenDetail = 25,
			SharpenEdgeMasking = 0,
			SharpenRadius = 1,
			Sharpness = 31,
			SplitToningBalance = 0,
			SplitToningHighlightHue = 0,
			SplitToningHighlightSaturation = 0,
			SplitToningShadowHue = 0,
			SplitToningShadowSaturation = 0,
			ToneCurveName2012 = "Custom",
			ToneCurvePV2012 = {
				0,
				15,
				63,
				62,
				127,
				127,
				190,
				192,
				255,
				255,
			},
			ToneCurvePV2012Blue = {
				0,
				0,
				255,
				255,
			},
			ToneCurvePV2012Green = {
				0,
				0,
				255,
				255,
			},
			ToneCurvePV2012Red = {
				0,
				0,
				255,
				255,
			},
			Vibrance = 37,
			VignetteAmount = 0,
			VignetteMidpoint = 50,
			WhiteBalance = "Custom",
			Whites2012 = 51,
		},
		uuid = "135ABF8B-A457-4F2E-ACE0-9F3D900CD228",
	},
	version = 0,
}
