其他预设/【237】莫兰迪灰色调LR预设合集/Neoteric/Lightroom Desktop/Neoteric no.1.lrtemplate
s = {
	id = "7AAC4635-7882-484F-AF96-B81B4AFCAFBD",
	internalName = "Neoteric no.1",
	title = "Neoteric no.1",
	type = "Develop",
	value = {
		settings = {
			AutoLateralCA = 0,
			Blacks2012 = -32,
			BlueHue = 0,
			BlueSaturation = 10,
			CameraProfile = "Adobe Standard",
			ChromaticAberrationB = 0,
			ChromaticAberrationR = 0,
			Clarity2012 = 38,
			ColorNoiseReduction = 25,
			ColorNoiseReductionDetail = 50,
			ColorNoiseReductionSmoothness = 50,
			Contrast2012 = 2,
			ConvertToGrayscale = false,
			CropConstrainToWarp = 0,
			Defringe = 0,
			DefringeGreenAmount = 0,
			DefringeGreenHueHi = 60,
			DefringeGreenHueLo = 40,
			DefringePurpleAmount = 0,
			DefringePurpleHueHi = 70,
			DefringePurpleHueLo = 30,
			Dehaze = 0,
			EnableCalibration = true,
			EnableColorAdjustments = true,
			EnableDetail = true,
			EnableEffects = true,
			EnableLensCorrections = true,
			EnableSplitToning = true,
			Exposure2012 = 0.1,
			GrainAmount = 0,
			GrainFrequency = 50,
			GrainSize = 25,
			GreenHue = 0,
			GreenSaturation = -9,
			Highlights2012 = -63,
			HueAdjustmentAqua = 10,
			HueAdjustmentBlue = -16,
			HueAdjustmentGreen = 51,
			HueAdjustmentMagenta = 20,
			HueAdjustmentOrange = -10,
			HueAdjustmentPurple = -100,
			HueAdjustmentRed = 0,
			HueAdjustmentYellow = -100,
			LensManualDistortionAmount = 0,
			LuminanceAdjustmentAqua = -12,
			LuminanceAdjustmentBlue = -41,
			LuminanceAdjustmentGreen = -29,
			LuminanceAdjustmentMagenta = -10,
			LuminanceAdjustmentOrange = -6,
			LuminanceAdjustmentPurple = 20,
			LuminanceAdjustmentRed = -21,
			LuminanceAdjustmentYellow = -31,
			LuminanceNoiseReductionContrast = 0,
			LuminanceNoiseReductionDetail = 72,
			LuminanceSmoothing = 16,
			ParametricDarks = 0,
			ParametricHighlightSplit = 75,
			ParametricHighlights = -60,
			ParametricLights = 0,
			ParametricMidtoneSplit = 50,
			ParametricShadowSplit = 25,
			ParametricShadows = 0,
			PostCropVignetteAmount = 0,
			PostCropVignetteFeather = 50,
			PostCropVignetteHighlightContrast = 0,
			PostCropVignetteMidpoint = 50,
			PostCropVignetteRoundness = 0,
			PostCropVignetteStyle = 1,
			ProcessVersion = "10.0",
			RedHue = 0,
			RedSaturation = -16,
			Saturation = -13,
			SaturationAdjustmentAqua = -20,
			SaturationAdjustmentBlue = -7,
			SaturationAdjustmentGreen = -82,
			SaturationAdjustmentMagenta = -51,
			SaturationAdjustmentOrange = 0,
			SaturationAdjustmentPurple = -100,
			SaturationAdjustmentRed = 0,
			SaturationAdjustmentYellow = 8,
			ShadowTint = 0,
			Shadows2012 = 73,
			SharpenDetail = 25,
			SharpenEdgeMasking = 0,
			SharpenRadius = 1,
			Sharpness = 10,
			SplitToningBalance = 0,
			SplitToningHighlightHue = 0,
			SplitToningHighlightSaturation = 0,
			SplitToningShadowHue = 0,
			SplitToningShadowSaturation = 0,
			Temperature = 6130,
			Tint = 6,
			ToneCurveName2012 = "Custom",
			ToneCurvePV2012 = {
				0,
				0,
				32,
				22,
				64,
				56,
				134,
				140,
				255,
				255,
			},
			ToneCurvePV2012Blue = {
				0,
				0,
				255,
				255,
			},
			ToneCurvePV2012Green = {
				0,
				0,
				255,
				255,
			},
			ToneCurvePV2012Red = {
				0,
				0,
				255,
				255,
			},
			Vibrance = 0,
			VignetteAmount = 0,
			VignetteMidpoint = 50,
			WhiteBalance = "Custom",
			Whites2012 = 25,
		},
		uuid = "37F3ED4D-115A-4354-9B0B-2E076AA87A48",
	},
	version = 0,
}
