其他预设/【229】Emily旅拍预设合集12款/2.LR预设文件/Emily Joshua Tree胶片系列.lrtemplate
s = {
	id = "AF517347-C657-4D47-BCBA-A73E0180A9B8",
	internalName = "Emily Joshua Tree胶片系列",
	title = "Emily Joshua Tree胶片系列",
	type = "Develop",
	value = {
		settings = {
			AutoLateralCA = 1,
			Blacks2012 = 10,
			BlueHue = -11,
			BlueSaturation = 0,
			CameraProfile = "400H⁺¹ - SO",
			ChromaticAberrationB = 0,
			ChromaticAberrationR = 0,
			Clarity2012 = 5,
			ColorNoiseReduction = 20,
			ColorNoiseReductionDetail = 50,
			ColorNoiseReductionSmoothness = 50,
			Contrast2012 = -20,
			ConvertToGrayscale = false,
			CropConstrainToWarp = 0,
			Defringe = 0,
			DefringeGreenAmount = 0,
			DefringeGreenHueHi = 60,
			DefringeGreenHueLo = 40,
			DefringePurpleAmount = 0,
			DefringePurpleHueHi = 70,
			DefringePurpleHueLo = 30,
			Dehaze = 0,
			EnableCalibration = true,
			EnableCircularGradientBasedCorrections = true,
			EnableColorAdjustments = true,
			EnableDetail = true,
			EnableEffects = true,
			EnableGradientBasedCorrections = true,
			EnableLensCorrections = true,
			EnableSplitToning = true,
			EnableTransform = true,
			Exposure2012 = 0.5,
			GrainAmount = 0,
			GrainFrequency = 0,
			GrainSize = 0,
			GreenHue = 44,
			GreenSaturation = 0,
			Highlights2012 = -100,
			HueAdjustmentAqua = 14,
			HueAdjustmentBlue = -25,
			HueAdjustmentGreen = 17,
			HueAdjustmentMagenta = 20,
			HueAdjustmentOrange = -10,
			HueAdjustmentPurple = -44,
			HueAdjustmentRed = 37,
			HueAdjustmentYellow = -26,
			LensManualDistortionAmount = 0,
			LensProfileChromaticAberrationScale = 100,
			LensProfileDigest = "4A858144042D70B68B8CF2224A223D2E",
			LensProfileDistortionScale = 100,
			LensProfileEnable = 1,
			LensProfileFilename = "SONY (SIGMA 16mm F1.4 DC DN C017) - RAW.lcp",
			LensProfileName = "Adobe (SIGMA 16mm F1.4 DC DN C017)",
			LensProfileSetup = "Custom",
			LensProfileVignettingScale = 100,
			LuminanceAdjustmentAqua = 39,
			LuminanceAdjustmentBlue = -40,
			LuminanceAdjustmentGreen = 100,
			LuminanceAdjustmentMagenta = 0,
			LuminanceAdjustmentOrange = -20,
			LuminanceAdjustmentPurple = 0,
			LuminanceAdjustmentRed = -6,
			LuminanceAdjustmentYellow = 43,
			LuminanceNoiseReductionContrast = 0,
			LuminanceNoiseReductionDetail = 0,
			LuminanceSmoothing = 0,
			ParametricDarks = 0,
			ParametricHighlightSplit = 75,
			ParametricHighlights = 0,
			ParametricLights = 0,
			ParametricMidtoneSplit = 50,
			ParametricShadowSplit = 25,
			ParametricShadows = 0,
			PerspectiveAspect = 0,
			PerspectiveHorizontal = 0,
			PerspectiveRotate = 0,
			PerspectiveScale = 100,
			PerspectiveUpright = 0,
			PerspectiveVertical = 0,
			PerspectiveX = 0,
			PerspectiveY = 0,
			PostCropVignetteAmount = 0,
			PostCropVignetteFeather = 50,
			PostCropVignetteHighlightContrast = 0,
			PostCropVignetteMidpoint = 50,
			PostCropVignetteRoundness = 0,
			PostCropVignetteStyle = 1,
			ProcessVersion = "10.0",
			RedHue = 26,
			RedSaturation = 50,
			Saturation = -10,
			SaturationAdjustmentAqua = -31,
			SaturationAdjustmentBlue = -10,
			SaturationAdjustmentGreen = -53,
			SaturationAdjustmentMagenta = -60,
			SaturationAdjustmentOrange = -31,
			SaturationAdjustmentPurple = -87,
			SaturationAdjustmentRed = -8,
			SaturationAdjustmentYellow = -90,
			ShadowTint = -2,
			Shadows2012 = 100,
			SharpenDetail = 25,
			SharpenEdgeMasking = 0,
			SharpenRadius = 1,
			Sharpness = 38,
			SplitToningBalance = 0,
			SplitToningHighlightHue = 0,
			SplitToningHighlightSaturation = 0,
			SplitToningShadowHue = 0,
			SplitToningShadowSaturation = 0,
			Temperature = 8000,
			Tint = 5,
			ToneCurveName2012 = "Custom",
			ToneCurvePV2012 = {
				0,
				48,
				46,
				62,
				177,
				168,
				255,
				214,
			},
			ToneCurvePV2012Blue = {
				0,
				0,
				39,
				13,
				87,
				65,
				123,
				124,
				183,
				199,
				255,
				255,
			},
			ToneCurvePV2012Green = {
				0,
				0,
				40,
				14,
				83,
				59,
				123,
				126,
				172,
				185,
				255,
				255,
			},
			ToneCurvePV2012Red = {
				0,
				0,
				40,
				12,
				84,
				58,
				123,
				125,
				186,
				196,
				255,
				255,
			},
			UprightCenterMode = 0,
			UprightCenterNormX = 0.5,
			UprightCenterNormY = 0.5,
			UprightFocalLength35mm = 35,
			UprightFocalMode = 0,
			UprightFourSegmentsCount = 0,
			UprightPreview = false,
			UprightTransformCount = 6,
			UprightVersion = 151388160,
			Vibrance = 0,
			VignetteAmount = 40,
			VignetteMidpoint = 50,
			WhiteBalance = "Custom",
			Whites2012 = -100,
			orientation = "DA",
		},
		uuid = "6039977A-1CC5-49F6-9EB0-8054318AAAE8",
	},
	version = 0,
}
