其他预设/【235】城市莫兰迪灰/1.LUT预设（视频调色-PR-AE-PS-FCPX-达芬奇用）/城市莫兰迪灰__-5 加亮.cube
# Created by Adobe Lightroom plugin Export LUT (1.17.0)
# www.johnrellis.com/lightroom/exportlut.htm
# Preset: 城市莫兰迪灰[素锦印象]-5 加亮
# Color profile: /Library/Application Support/Adobe/Color/Profiles/Recommended/AdobeRGB1998.icc
LUT_3D_SIZE 32
0.152193 0.143008 0.152102
0.152682 0.143069 0.152377
0.154788 0.143526 0.153017
0.159823 0.144747 0.154665
0.166781 0.146548 0.156619
0.176516 0.148043 0.158480
0.189639 0.149599 0.160342
0.207309 0.150942 0.162387
0.230320 0.152468 0.165042
0.259770 0.153902 0.168338
0.296941 0.155062 0.172274
0.342229 0.155917 0.177127
0.393744 0.156771 0.182895
0.449775 0.158389 0.189853
0.507683 0.162325 0.198093
0.565270 0.170108 0.207828
0.646052 0.191043 0.225132
0.714778 0.221134 0.245457
0.770535 0.256352 0.268742
0.819242 0.295354 0.296025
0.861570 0.336004 0.327001
0.897520 0.376776 0.360601
0.926940 0.415351 0.395483
0.951110 0.452338 0.431128
0.970733 0.487800 0.466896
0.986664 0.523125 0.503471
0.999664 0.559777 0.541772
1.000000 0.597925 0.581903
1.000000 0.636957 0.623163
1.000000 0.675715 0.664027
1.000000 0.713466 0.703761
1.000000 0.749325 0.741360
0.152499 0.143282 0.152193
0.152590 0.143435 0.152499
0.155276 0.143954 0.152804
0.160342 0.145357 0.154177
0.167269 0.147127 0.156130
0.176822 0.148653 0.158022
0.189792 0.150240 0.159854
0.206912 0.151858 0.161929
0.229343 0.153384 0.164492
0.258061 0.154940 0.167666
0.294102 0.156435 0.171542
0.337957 0.157595 0.176272
0.388281 0.158724 0.181827
0.443214 0.160678 0.188571
0.499977 0.164675 0.196506
0.556970 0.172152 0.205875
0.635431 0.191012 0.221927
0.701869 0.217807 0.240360
0.757198 0.250095 0.261936
0.806394 0.286839 0.287358
0.849760 0.326146 0.316564
0.887114 0.365728 0.349065
0.918090 0.404059 0.383062
0.943786 0.440986 0.418311
0.964904 0.476631 0.454047
0.982269 0.512291 0.491035
0.996521 0.549371 0.529900
1.000000 0.588098 0.570825
1.000000 0.628077 0.613153
1.000000 0.667872 0.655268
1.000000 0.706538 0.696071
1.000000 0.743252 0.734676
0.153506 0.145113 0.152926
0.154543 0.145266 0.153017
0.154269 0.144778 0.153811
0.160739 0.146456 0.153933
0.168063 0.148013 0.155612
0.177371 0.149691 0.157504
0.190036 0.151339 0.159365
0.206882 0.152834 0.161440
0.228946 0.154757 0.164004
0.257023 0.156497 0.167086
0.292576 0.158206 0.170871
0.335851 0.159701 0.175357
0.385504 0.161257 0.181003
0.439887 0.163729 0.187472
0.496071 0.167971 0.195285
0.555505 0.175631 0.204837
0.630396 0.193851 0.219852
0.694911 0.218845 0.237278
0.749874 0.249271 0.257816
0.799344 0.284520 0.282170
0.843473 0.322942 0.310826
0.881651 0.361852 0.342718
0.913451 0.399878 0.376257
0.939910 0.436286 0.411261
0.961791 0.471748 0.446998
0.979858 0.507225 0.483986
0.994751 0.544396 0.523186
1.000000 0.583215 0.564446
1.000000 0.623560 0.607446
1.000000 0.663783 0.650233
1.000000 0.702815 0.691646
1.000000 0.739925 0.730739
0.156283 0.149538 0.154391
0.157809 0.149447 0.154635
0.159152 0.148867 0.155093
0.157839 0.148196 0.157046
0.166262 0.150088 0.156954
0.179416 0.152529 0.156344
0.192050 0.154086 0.158389
0.208774 0.156039 0.160555
0.230503 0.157931 0.163149
0.258244 0.160128 0.166232
0.293095 0.162417 0.169863
0.335546 0.164706 0.174258
0.384253 0.167300 0.179568
0.437476 0.170626 0.185794
0.493080 0.175204 0.193271
0.556359 0.184390 0.203342
0.626215 0.201480 0.217105
0.687556 0.224491 0.232914
0.740719 0.251926 0.251804
0.789090 0.284031 0.274388
0.833005 0.319280 0.301122
0.871977 0.356481 0.331640
0.905547 0.393866 0.364965
0.934264 0.431128 0.400793
0.958343 0.467994 0.438483
0.978119 0.505272 0.477882
0.994079 0.543572 0.519036
1.000000 0.583093 0.561608
1.000000 0.623407 0.605066
1.000000 0.663111 0.647730
1.000000 0.701381 0.688716
1.000000 0.737667 0.727291
0.160464 0.154482 0.156466
0.161746 0.154421 0.156710
0.163424 0.154269 0.156832
0.164004 0.152865 0.158206
0.162234 0.151827 0.160555
0.171756 0.154330 0.160922
0.191257 0.158114 0.158633
0.210666 0.161227 0.159396
0.231968 0.163424 0.161837
0.258946 0.165988 0.164797
0.292912 0.169009 0.168185
0.334386 0.172274 0.172335
0.382055 0.176028 0.177310
0.434546 0.180331 0.183383
0.489815 0.186282 0.190555
0.558068 0.197421 0.200839
0.624720 0.214664 0.213779
0.684810 0.236637 0.228977
0.737575 0.262547 0.247288
0.785336 0.292515 0.269078
0.828611 0.325231 0.294713
0.867430 0.360082 0.324254
0.901335 0.395697 0.356817
0.930785 0.431556 0.392584
0.955657 0.467659 0.430488
0.976257 0.504387 0.470405
0.992798 0.541985 0.511894
1.000000 0.580713 0.554620
1.000000 0.620508 0.598444
1.000000 0.659876 0.641535
1.000000 0.698054 0.683009
1.000000 0.734493 0.722255
0.165408 0.161776 0.158694
0.166842 0.161685 0.158816
0.168612 0.161379 0.159060
0.172030 0.160891 0.159548
0.170321 0.157809 0.161929
0.167666 0.156619 0.165042
0.178927 0.160128 0.166201
0.203525 0.164736 0.163180
0.236515 0.172274 0.160189
0.263554 0.175326 0.162966
0.297398 0.179202 0.166293
0.338384 0.183597 0.170260
0.385443 0.188602 0.174899
0.437263 0.194339 0.180697
0.496315 0.202579 0.187869
0.564385 0.215915 0.198032
0.627863 0.233249 0.210391
0.686275 0.254704 0.225132
0.738521 0.279393 0.243076
0.786221 0.307958 0.264836
0.829740 0.339513 0.290929
0.868986 0.372992 0.321050
0.953246 0.476661 0.423316
0.972961 0.509209 0.461433
0.988373 0.540917 0.498848
1.000000 0.572747 0.536065
1.000000 0.604974 0.573449
1.000000 0.637720 0.611048
1.000000 0.670253 0.647791
1.000000 0.702541 0.683833
1.000000 0.733608 0.718196
1.000000 0.762905 0.750210
0.173678 0.174014 0.161837
0.175357 0.173892 0.161929
0.177310 0.173556 0.162173
0.181704 0.173037 0.162631
0.184115 0.170504 0.164126
0.181003 0.166262 0.167880
0.177127 0.164797 0.172488
0.191012 0.170077 0.175296
0.225162 0.176425 0.170901
0.270237 0.187533 0.166232
0.319036 0.198856 0.164279
0.362982 0.204654 0.168246
0.411627 0.211246 0.173007
0.464973 0.219242 0.178866
0.535760 0.233921 0.187503
0.600397 0.250401 0.198032
0.660182 0.269749 0.210941
0.714534 0.291386 0.226993
0.764248 0.316503 0.246983
0.811582 0.345953 0.272221
0.856352 0.379919 0.303624
0.897246 0.416876 0.341741
0.932311 0.455421 0.384649
0.960510 0.493599 0.430091
0.981750 0.530632 0.475257
0.996887 0.565179 0.517662
1.000000 0.598444 0.558007
1.000000 0.631342 0.597314
1.000000 0.664118 0.635706
1.000000 0.696101 0.672541
1.000000 0.727230 0.707820
1.000000 0.756802 0.740963
0.182986 0.187808 0.164858
0.184573 0.187564 0.164981
0.186709 0.187198 0.165225
0.191318 0.186557 0.165682
0.197879 0.185641 0.166354
0.196384 0.180056 0.169772
0.192325 0.175204 0.174624
0.187289 0.173861 0.180606
0.202396 0.181094 0.185855
0.243626 0.189120 0.180514
0.297398 0.202609 0.174624
0.363134 0.222171 0.166842
0.417548 0.233646 0.168368
0.481880 0.247440 0.174319
0.544488 0.261723 0.182040
0.602960 0.276707 0.191531
0.658595 0.294011 0.203464
0.710567 0.313481 0.218296
0.758938 0.335821 0.237095
0.805509 0.362066 0.261204
0.849973 0.392401 0.291447
0.890929 0.425605 0.327855
0.926421 0.460426 0.369268
0.955444 0.495399 0.413794
0.977783 0.529625 0.458686
0.994018 0.562280 0.501335
1.000000 0.594018 0.542321
1.000000 0.626032 0.582666
1.000000 0.658473 0.622400
1.000000 0.690364 0.660639
1.000000 0.721645 0.697261
1.000000 0.751553 0.731685
0.195132 0.206149 0.168856
0.196872 0.205875 0.168978
0.199222 0.205600 0.169192
0.204135 0.204776 0.169619
0.211337 0.203769 0.170382
0.216526 0.200290 0.172335
0.212375 0.192813 0.177523
0.207187 0.187472 0.183780
0.200809 0.186130 0.191501
0.216709 0.196109 0.200381
0.266667 0.206088 0.194095
0.334203 0.224460 0.187289
0.416541 0.251499 0.177829
0.498848 0.281804 0.167758
0.555749 0.294865 0.174960
0.609857 0.308721 0.183932
0.662348 0.324285 0.195254
0.712001 0.341772 0.209598
0.758816 0.361547 0.227939
0.804288 0.384771 0.251438
0.847868 0.411505 0.280827
0.888273 0.440894 0.316442
0.923552 0.471809 0.357000
0.952667 0.503258 0.400549
0.975433 0.534478 0.445045
0.992218 0.564416 0.487953
1.000000 0.594202 0.529259
1.000000 0.624445 0.570001
1.000000 0.655695 0.610468
1.000000 0.686763 0.649531
1.000000 0.717372 0.686946
1.000000 0.746975 0.722194
0.210788 0.229435 0.173617
0.212619 0.229160 0.173709
0.214939 0.228611 0.173922
0.220035 0.227787 0.174350
0.227665 0.226535 0.175235
0.237125 0.225101 0.176150
0.236973 0.217258 0.180636
0.231571 0.208591 0.187503
0.225315 0.202853 0.195712
0.218753 0.202457 0.206149
0.237400 0.218357 0.221836
0.302373 0.233005 0.214847
0.380957 0.254887 0.205844
0.466682 0.284031 0.193729
0.552972 0.319890 0.177554
0.619318 0.345525 0.174105
0.671595 0.360967 0.185611
0.720424 0.377203 0.200565
0.765835 0.394781 0.219455
0.809140 0.414435 0.243137
0.849943 0.436408 0.271672
0.887419 0.460334 0.305364
0.920531 0.485451 0.343145
0.948516 0.511650 0.384070
0.971283 0.538293 0.426612
0.988922 0.565270 0.469184
1.000000 0.593103 0.511498
1.000000 0.622309 0.553857
1.000000 0.653162 0.596704
1.000000 0.684291 0.638056
1.000000 0.715206 0.677577
1.000000 0.745052 0.714595
0.228702 0.256748 0.178836
0.230655 0.256535 0.179019
0.233310 0.256168 0.179232
0.238651 0.255436 0.179721
0.246921 0.254307 0.180514
0.257420 0.252964 0.181704
0.267155 0.249577 0.183841
0.262364 0.238865 0.191623
0.259068 0.231724 0.201968
0.253727 0.227390 0.214176
0.245975 0.227665 0.228092
0.262791 0.247379 0.249882
0.338415 0.263767 0.240299
0.423316 0.287327 0.228672
0.510979 0.317723 0.214267
0.595727 0.354406 0.196689
0.674678 0.395605 0.174746
0.722866 0.410864 0.187991
0.766751 0.425360 0.206882
0.808835 0.441871 0.230320
0.848905 0.460548 0.258793
0.885954 0.481025 0.292180
0.918975 0.502922 0.329992
0.947021 0.525750 0.370794
0.969879 0.549279 0.413123
0.987732 0.572930 0.455482
1.000000 0.597650 0.497597
1.000000 0.624079 0.539910
1.000000 0.652583 0.582818
1.000000 0.682216 0.624994
1.000000 0.712123 0.665614
1.000000 0.741482 0.703822
0.251621 0.291600 0.185092
0.253574 0.291447 0.185275
0.256413 0.291051 0.185550
0.262058 0.290318 0.186007
0.271702 0.290379 0.187106
0.285283 0.291508 0.188785
0.301671 0.292607 0.190951
0.307439 0.285710 0.197635
0.303105 0.274327 0.209049
0.297246 0.264652 0.222324
0.289281 0.258640 0.237430
0.278538 0.258427 0.254643
0.330541 0.323980 0.322393
0.433814 0.346105 0.306889
0.534417 0.374884 0.288487
0.626368 0.409522 0.267796
0.707027 0.446174 0.244846
0.774594 0.480079 0.221103
0.825162 0.503166 0.214298
0.859129 0.512749 0.244022
0.890959 0.524285 0.277043
0.919829 0.537835 0.313207
0.944945 0.552605 0.351507
0.966491 0.569055 0.391882
0.984039 0.586816 0.432807
0.997925 0.605921 0.473793
1.000000 0.626337 0.513970
1.000000 0.648524 0.553887
1.000000 0.672724 0.593957
1.000000 0.698299 0.633356
1.000000 0.724392 0.671168
1.000000 0.750668 0.707301
0.297887 0.361944 0.197116
0.300481 0.362005 0.197421
0.303380 0.361089 0.197665
0.310002 0.360021 0.198306
0.320226 0.358343 0.199405
0.333410 0.356237 0.200717
0.350042 0.354833 0.202823
0.368811 0.353246 0.205722
0.365026 0.338415 0.219242
0.360571 0.325750 0.235599
0.355566 0.316625 0.255375
0.348760 0.313054 0.278599
0.338415 0.316899 0.304845
0.350164 0.353704 0.352728
0.459266 0.379034 0.339513
0.561334 0.408911 0.322332
0.652186 0.442298 0.301854
0.729122 0.475257 0.279850
0.794064 0.505974 0.258152
0.849851 0.534112 0.236790
0.886198 0.547448 0.256077
0.915068 0.557549 0.292088
0.940429 0.568963 0.330144
0.962402 0.581964 0.370153
0.980560 0.596246 0.410925
0.995178 0.612116 0.451881
1.000000 0.629633 0.492592
1.000000 0.649287 0.533349
1.000000 0.671412 0.574640
1.000000 0.695735 0.615839
1.000000 0.720974 0.655512
1.000000 0.746914 0.693751
0.336553 0.418799 0.208225
0.339178 0.418585 0.208438
0.341833 0.417151 0.208591
0.347967 0.415015 0.209201
0.357275 0.411719 0.209842
0.369726 0.408118 0.211063
0.385718 0.405341 0.212985
0.404883 0.403388 0.215610
0.415564 0.395026 0.224002
0.411078 0.380011 0.241398
0.406531 0.367315 0.262028
0.400671 0.358373 0.285740
0.391913 0.354437 0.312047
0.378454 0.357061 0.339818
0.383551 0.393561 0.390997
0.489143 0.417609 0.377935
0.588251 0.444526 0.358862
0.675349 0.474464 0.338354
0.749569 0.504265 0.317815
0.812894 0.532708 0.298192
0.867430 0.558984 0.280095
0.911528 0.580255 0.270878
0.937163 0.588678 0.309300
0.959564 0.598688 0.349523
0.978241 0.609979 0.390753
0.993408 0.622766 0.432288
1.000000 0.637415 0.473640
1.000000 0.654322 0.515160
1.000000 0.674098 0.557397
1.000000 0.696559 0.600031
1.000000 0.720546 0.641505
1.000000 0.745632 0.681392
0.376684 0.474647 0.221256
0.379370 0.474647 0.221683
0.381781 0.472999 0.221622
0.387488 0.470161 0.221927
0.396094 0.465888 0.222507
0.407630 0.461250 0.223545
0.422858 0.457527 0.225284
0.441505 0.454810 0.227939
0.463813 0.453834 0.231907
0.464240 0.439246 0.247929
0.460212 0.424842 0.269535
0.455360 0.412604 0.293980
0.447974 0.403296 0.320653
0.436439 0.398138 0.348577
0.419562 0.398962 0.376684
0.421057 0.432319 0.426215
0.518090 0.456489 0.417639
0.614557 0.480781 0.397803
0.699123 0.507958 0.378027
0.770901 0.535271 0.359319
0.832303 0.561273 0.342107
0.884337 0.584894 0.326207
0.927642 0.605127 0.311040
0.956664 0.617121 0.327642
0.975952 0.625635 0.369574
0.991852 0.635950 0.412207
1.000000 0.648432 0.455787
1.000000 0.663691 0.499947
1.000000 0.681941 0.544793
1.000000 0.703273 0.590143
1.000000 0.726528 0.634241
1.000000 0.750759 0.675990
0.418341 0.528862 0.237583
0.421302 0.529259 0.238102
0.424231 0.528405 0.238499
0.430457 0.526604 0.238956
0.439857 0.523827 0.239811
0.452644 0.520775 0.241367
0.468788 0.518273 0.243626
0.488197 0.516472 0.246860
0.510582 0.515312 0.251194
0.527550 0.509575 0.259831
0.521782 0.492500 0.281865
0.514946 0.475929 0.305913
0.505699 0.460456 0.331304
0.493202 0.447425 0.357580
0.476844 0.438849 0.383948
0.456153 0.436469 0.410010
0.454994 0.466896 0.457679
0.543145 0.492500 0.455573
0.640101 0.516655 0.437812
0.723629 0.543206 0.421332
0.794186 0.569421 0.406165
0.853758 0.593561 0.392126
0.903044 0.614557 0.378882
0.943633 0.632380 0.366400
0.976471 0.646845 0.354742
0.992737 0.654566 0.397803
1.000000 0.664393 0.442481
1.000000 0.676875 0.487709
1.000000 0.692378 0.533288
1.000000 0.710719 0.578790
1.000000 0.731289 0.623163
1.000000 0.752956 0.664820
0.457893 0.576806 0.256077
0.460060 0.576410 0.256199
0.462531 0.575372 0.256535
0.468513 0.573602 0.256992
0.477516 0.571191 0.257939
0.489723 0.568505 0.259403
0.505089 0.566033 0.261723
0.523400 0.563958 0.264988
0.544427 0.562493 0.269261
0.567803 0.561608 0.274723
0.572473 0.549279 0.291173
0.566430 0.532891 0.315404
0.558618 0.516564 0.341161
0.547875 0.501030 0.367437
0.533501 0.487495 0.393591
0.515068 0.477729 0.419074
0.492866 0.474311 0.444251
0.490059 0.502007 0.490120
0.569390 0.529259 0.494881
0.664942 0.552453 0.479042
0.745632 0.577020 0.464729
0.813382 0.600763 0.451484
0.869749 0.622126 0.439246
0.916442 0.640925 0.428107
0.954467 0.656489 0.417762
0.984833 0.669123 0.408453
1.000000 0.678676 0.422187
1.000000 0.688533 0.468971
1.000000 0.701411 0.515953
1.000000 0.717403 0.563226
1.000000 0.736110 0.609522
1.000000 0.756130 0.652888
0.500511 0.625757 0.279545
0.503807 0.626581 0.280461
0.548058 0.671138 0.308965
0.553674 0.669245 0.309300
0.561822 0.666316 0.309789
0.572473 0.662470 0.310552
0.585779 0.658167 0.311955
0.601587 0.653895 0.314000
0.620203 0.650233 0.317754
0.641108 0.647211 0.322515
0.660731 0.641962 0.329168
0.653285 0.623743 0.353033
0.643244 0.604547 0.377813
0.631037 0.585473 0.403296
0.616022 0.567346 0.428595
0.597772 0.551629 0.453254
0.576410 0.540185 0.477363
0.551965 0.534997 0.500786
0.546227 0.558923 0.543694
0.616083 0.586175 0.553796
0.705867 0.605615 0.538476
0.780667 0.625940 0.525017
0.842649 0.645014 0.512505
0.893370 0.661769 0.500877
0.934325 0.675441 0.489174
0.967132 0.686580 0.478279
0.993378 0.695552 0.468360
1.000000 0.702998 0.459968
1.000000 0.712154 0.497871
1.000000 0.725124 0.545830
1.000000 0.741207 0.593256
1.000000 0.759091 0.638025
0.551598 0.681636 0.314183
0.558587 0.686824 0.318456
0.566369 0.691707 0.322881
0.576287 0.695216 0.327276
0.587610 0.696651 0.330968
0.599573 0.695308 0.333410
0.612757 0.692409 0.335302
0.627863 0.688808 0.337591
0.645411 0.685664 0.341039
0.664729 0.682643 0.345464
0.685786 0.679927 0.351049
0.693416 0.668757 0.364477
0.684688 0.650660 0.388342
0.674037 0.632013 0.412543
0.660883 0.613336 0.436591
0.645136 0.595666 0.460395
0.626612 0.580652 0.483742
0.605676 0.569940 0.506767
0.582391 0.565698 0.529931
0.576898 0.588617 0.571618
0.637720 0.617700 0.588708
0.725490 0.637324 0.576898
0.797787 0.656672 0.565972
0.856901 0.674159 0.555871
0.904753 0.688869 0.545892
0.943267 0.701167 0.536461
0.973907 0.711147 0.528038
0.998322 0.719509 0.521386
1.000000 0.726741 0.516594
1.000000 0.734585 0.527825
1.000000 0.747829 0.576257
1.000000 0.763607 0.622736
0.584466 0.716945 0.340887
0.590753 0.721248 0.345312
0.597681 0.725429 0.349828
0.606470 0.728359 0.354040
0.616846 0.729549 0.357702
0.627832 0.728450 0.360082
0.640192 0.725856 0.362066
0.654200 0.722774 0.364294
0.670558 0.719936 0.367559
0.688685 0.717067 0.371801
0.708553 0.714473 0.377203
0.729244 0.711727 0.383185
0.724544 0.694942 0.402594
0.715389 0.677394 0.425818
0.704005 0.659236 0.448981
0.690425 0.641444 0.471839
0.674678 0.624903 0.494270
0.656916 0.611414 0.516686
0.637354 0.602411 0.539361
0.616083 0.599573 0.562646
0.610559 0.621271 0.602869
0.662013 0.651759 0.626215
0.746487 0.670680 0.616938
0.815152 0.688319 0.608057
0.870665 0.703639 0.599237
0.915373 0.716609 0.590814
0.951080 0.727291 0.583307
0.979339 0.736385 0.577447
1.000000 0.744381 0.573693
1.000000 0.751278 0.571527
1.000000 0.756985 0.570123
1.000000 0.768307 0.604425
0.616449 0.750393 0.370672
0.622095 0.754086 0.375128
0.628321 0.757717 0.379614
0.636347 0.760220 0.383948
0.645716 0.761196 0.387640
0.655787 0.760189 0.389868
0.666987 0.757931 0.391638
0.679896 0.755001 0.393622
0.694820 0.752071 0.396399
0.711452 0.749142 0.400092
0.729641 0.746365 0.404639
0.748836 0.743343 0.409888
0.760525 0.734920 0.418311
0.752590 0.718685 0.440620
0.743282 0.702052 0.463172
0.732631 0.685695 0.486000
0.720729 0.670802 0.509545
0.707759 0.658106 0.533471
0.693538 0.649104 0.558038
0.678126 0.644770 0.583398
0.661219 0.645930 0.608820
0.657740 0.667750 0.648310
0.700374 0.698512 0.676417
0.779751 0.716579 0.670161
0.843076 0.732479 0.663874
0.893309 0.745815 0.657649
0.932952 0.756832 0.652094
0.963806 0.766018 0.647791
0.987945 0.773892 0.645014
1.000000 0.780362 0.643091
1.000000 0.785977 0.642329
1.000000 0.791043 0.642878
0.662440 0.796139 0.420905
0.665553 0.797482 0.423224
0.668849 0.798459 0.425177
0.674006 0.798611 0.427070
0.680964 0.797879 0.428687
0.689357 0.796139 0.429877
0.699489 0.793942 0.431250
0.711604 0.791592 0.433448
0.725826 0.789334 0.436530
0.741878 0.787228 0.440711
0.759365 0.785122 0.445747
0.777615 0.782589 0.451148
0.796017 0.779385 0.456275
0.797147 0.766629 0.470497
0.788937 0.751186 0.491493
0.779599 0.735683 0.512993
0.769070 0.720851 0.534905
0.757595 0.707454 0.557244
0.744900 0.696529 0.580163
0.731075 0.688533 0.603265
0.715846 0.684443 0.626032
0.699031 0.684688 0.648310
0.693568 0.702174 0.682399
0.724971 0.730098 0.711086
0.798642 0.745663 0.704982
0.857481 0.759640 0.699519
0.904204 0.771878 0.694972
0.940703 0.782315 0.691737
0.968780 0.790982 0.689540
0.990448 0.798245 0.688441
1.000000 0.804685 0.688838
1.000000 0.810819 0.691188
0.690608 0.823545 0.455390
0.693477 0.824735 0.457710
0.696620 0.825803 0.459876
0.701442 0.825956 0.461891
0.707668 0.825254 0.463325
0.715053 0.823606 0.464210
0.723964 0.821347 0.465064
0.734646 0.818845 0.466407
0.747433 0.816434 0.468849
0.761898 0.814145 0.472236
0.777890 0.811856 0.476539
0.794736 0.809415 0.481270
0.811917 0.806424 0.486000
0.827207 0.801236 0.491310
0.821164 0.787045 0.510460
0.813474 0.772946 0.531243
0.804929 0.759335 0.552575
0.795499 0.746700 0.574578
0.785275 0.735775 0.596979
0.774105 0.727077 0.619348
0.761990 0.721340 0.641688
0.748684 0.718868 0.663752
0.734005 0.720150 0.685023
0.728786 0.735805 0.716182
0.743557 0.754299 0.738155
0.813107 0.768917 0.733181
0.868894 0.782406 0.729427
0.912566 0.794064 0.726619
0.946166 0.803891 0.725002
0.971862 0.812467 0.724941
0.991394 0.820340 0.726986
1.000000 0.828000 0.731350
0.727871 0.857694 0.506462
0.730709 0.858885 0.509087
0.733211 0.859403 0.510796
0.736843 0.859037 0.511742
0.741634 0.857786 0.512016
0.747707 0.855802 0.511894
0.755062 0.853208 0.511528
0.763821 0.850187 0.511315
0.774228 0.846952 0.511650
0.786282 0.843748 0.512902
0.799466 0.840360 0.514672
0.813931 0.837095 0.517418
0.829129 0.833555 0.520378
0.844541 0.829526 0.523278
0.849912 0.819272 0.530602
0.842039 0.805081 0.548241
0.833433 0.791012 0.566613
0.824552 0.777920 0.586145
0.815518 0.766659 0.606989
0.806363 0.757626 0.628687
0.796750 0.750973 0.650660
0.785977 0.746670 0.672114
0.773495 0.744747 0.692439
0.759091 0.745266 0.711360
0.752071 0.757565 0.738094
0.766598 0.781949 0.768460
0.831266 0.795315 0.764492
0.882139 0.807126 0.761288
0.921660 0.817624 0.759640
0.951751 0.827024 0.759976
0.974487 0.835874 0.762631
0.991424 0.844694 0.768154
0.750179 0.877653 0.539483
0.752682 0.878660 0.542016
0.755032 0.879149 0.543694
0.758297 0.878813 0.544610
0.762661 0.877714 0.544854
0.768215 0.876066 0.544884
0.775113 0.873960 0.544823
0.783322 0.871580 0.545006
0.793179 0.869017 0.545861
0.804562 0.866484 0.547601
0.817014 0.863859 0.549859
0.830808 0.861234 0.552972
0.845274 0.858396 0.556298
0.860044 0.855100 0.559625
0.874876 0.851438 0.562676
0.872343 0.839017 0.575280
0.865385 0.826505 0.592889
0.858091 0.814633 0.611139
0.850675 0.803952 0.630426
0.842954 0.794919 0.650599
0.834806 0.787533 0.670893
0.825772 0.781979 0.690944
0.815549 0.778225 0.710079
0.803922 0.776516 0.728115
0.790524 0.776944 0.745052
0.783078 0.786954 0.768246
0.790951 0.809659 0.798764
0.850309 0.822232 0.796231
0.896574 0.833677 0.795224
0.931579 0.844022 0.796170
0.957733 0.853696 0.799466
0.976959 0.863462 0.805875
0.774594 0.898070 0.578454
0.776486 0.898589 0.580194
0.778073 0.898619 0.581018
0.780514 0.898039 0.581109
0.783963 0.896818 0.580652
0.788571 0.895109 0.579919
0.794461 0.893034 0.579309
0.801724 0.890776 0.579126
0.810513 0.888487 0.579614
0.820798 0.886229 0.581079
0.832303 0.883940 0.583185
0.845060 0.881712 0.586267
0.858457 0.879301 0.589624
0.872313 0.876493 0.592798
0.886168 0.873228 0.595575
0.896513 0.866728 0.598932
0.890623 0.855283 0.614893
0.884398 0.844297 0.631617
0.878019 0.834165 0.649409
0.871519 0.825223 0.668025
0.864652 0.817624 0.686976
0.857145 0.811429 0.705745
0.848600 0.806638 0.723751
0.838956 0.803311 0.740810
0.827878 0.801633 0.756802
0.815457 0.801877 0.771878
0.808072 0.810452 0.792508
0.812741 0.831296 0.821714
0.864927 0.843839 0.822019
0.906950 0.855253 0.823209
0.938079 0.865934 0.826719
0.960845 0.876555 0.833402
0.794217 0.913848 0.611383
0.795529 0.914092 0.612482
0.796933 0.914061 0.613153
0.799283 0.913634 0.613428
0.802823 0.912871 0.613764
0.807706 0.911986 0.614588
0.814328 0.911254 0.616480
0.822507 0.910491 0.619257
0.832059 0.909850 0.623072
0.842954 0.909239 0.627680
0.854765 0.908537 0.632929
0.867338 0.907683 0.638300
0.880339 0.906493 0.643458
0.893400 0.904845 0.648127
0.906523 0.902617 0.651942
0.919493 0.899840 0.654932
0.922789 0.891783 0.662470
0.917998 0.882414 0.677272
0.912963 0.873594 0.693019
0.907652 0.865507 0.709102
0.901976 0.858335 0.725490
0.895811 0.852140 0.741726
0.888853 0.846921 0.757351
0.881132 0.842924 0.772396
0.872465 0.840208 0.786679
0.862821 0.838956 0.800320
0.852323 0.839475 0.813352
0.845670 0.846494 0.830625
0.849638 0.863890 0.855344
0.889464 0.875975 0.859495
0.923980 0.886809 0.863066
0.948943 0.897459 0.869535
0.823331 0.934234 0.663478
0.824277 0.934264 0.664149
0.825162 0.934081 0.664179
0.826810 0.933562 0.663935
0.829557 0.932708 0.663539
0.833249 0.931640 0.663325
0.838254 0.930541 0.663630
0.844480 0.929320 0.664515
0.851926 0.928099 0.666102
0.860502 0.926818 0.668299
0.869932 0.925383 0.670802
0.880186 0.923888 0.673732
0.891020 0.922148 0.676722
0.902281 0.920195 0.679591
0.913817 0.917937 0.682246
0.925628 0.915404 0.684688
