其他预设/【235】城市莫兰迪灰/1.LUT预设（视频调色-PR-AE-PS-FCPX-达芬奇用）/城市莫兰迪灰__-4 加亮.cube
# Created by Adobe Lightroom plugin Export LUT (1.17.0)
# www.johnrellis.com/lightroom/exportlut.htm
# Preset: 城市莫兰迪灰[素锦印象]-4 加亮
# Color profile: /Library/Application Support/Adobe/Color/Profiles/Recommended/AdobeRGB1998.icc
LUT_3D_SIZE 5
DOMAIN_MIN 0.000000 0.000000 0.000000
DOMAIN_MAX 0.903226 0.903226 0.903226
0.152193 0.143008 0.152102
0.204196 0.153323 0.165530
0.528801 0.195773 0.224002
0.917296 0.499397 0.483528
1.000000 0.744778 0.736477
0.183963 0.189212 0.162966
0.185336 0.173251 0.180941
0.618250 0.313237 0.217197
0.924712 0.536431 0.466041
1.000000 0.766873 0.747158
0.419928 0.524285 0.220584
0.488533 0.495552 0.248722
0.449531 0.441352 0.423743
0.955108 0.692348 0.502708
1.000000 0.788479 0.720119
0.718257 0.841550 0.458930
0.769680 0.835721 0.491432
0.827176 0.791012 0.588220
0.733272 0.732418 0.707576
0.982055 0.859007 0.795712
0.866239 0.959167 0.722164
0.886076 0.954833 0.731868
0.935210 0.937774 0.750820
0.938598 0.907866 0.820554
0.901335 0.898466 0.885313
0.152956 0.153994 0.184634
0.212375 0.185183 0.208438
0.483101 0.250431 0.295232
0.850278 0.494179 0.506737
0.987366 0.742733 0.742733
0.162783 0.200015 0.194827
0.226017 0.208835 0.213626
0.566522 0.329259 0.308476
0.871977 0.537224 0.508019
0.991608 0.755612 0.744045
0.368841 0.521202 0.272648
0.467933 0.501701 0.308263
0.439704 0.445319 0.435096
0.937377 0.693355 0.523308
1.000000 0.800290 0.748684
0.699519 0.843320 0.510521
0.755825 0.837858 0.543908
0.826749 0.800290 0.624201
0.741451 0.746548 0.725765
0.982422 0.866545 0.807279
0.859129 0.960082 0.741146
0.879057 0.955810 0.749722
0.935180 0.945068 0.785397
0.942351 0.916320 0.838407
0.907744 0.906371 0.894804
0.000000 0.229374 0.437781
0.028656 0.219699 0.423987
0.721798 0.661707 0.713375
0.893248 0.784726 0.809262
0.961975 0.814572 0.831022
0.219120 0.324712 0.472999
0.225589 0.308629 0.451240
0.740444 0.759854 0.750820
0.857572 0.710262 0.733394
0.964416 0.808621 0.820127
0.151095 0.548760 0.461494
0.316686 0.559289 0.457282
0.606043 0.590814 0.563867
0.886381 0.731563 0.692622
0.979889 0.837552 0.824186
0.530388 0.851804 0.524804
0.653712 0.839261 0.602258
0.821622 0.826902 0.696651
0.777737 0.795254 0.782956
0.987427 0.887999 0.837949
0.816495 0.962127 0.765286
0.853941 0.958831 0.798062
0.910796 0.950469 0.817350
0.943633 0.926726 0.857359
0.910521 0.912444 0.903258
0.000000 0.448951 0.811856
0.000000 0.433722 0.802792
0.000000 0.330602 0.782742
0.941436 0.918975 0.937774
0.975921 0.962921 0.966857
0.314305 0.561975 0.819669
0.280156 0.536126 0.808072
0.199130 0.425879 0.765469
0.941405 0.931395 0.939544
0.974029 0.957763 0.962219
0.495552 0.705867 0.813077
0.586236 0.718563 0.813046
0.584924 0.665126 0.765225
0.928649 0.929656 0.928618
0.965240 0.928740 0.934600
0.366064 0.855100 0.751766
0.452308 0.847684 0.745907
0.690486 0.841947 0.750393
0.857939 0.850095 0.833066
0.971588 0.905425 0.892576
0.668879 0.974487 0.753292
0.714015 0.970977 0.767971
0.848600 0.959716 0.840635
0.943236 0.948791 0.890318
0.924620 0.930358 0.924895
0.400122 0.671717 0.966674
0.375799 0.658350 0.964782
0.264988 0.604120 0.957305
0.691707 0.667445 0.959075
0.980621 0.967224 0.978882
0.547417 0.734340 0.962158
0.522820 0.719509 0.960418
0.421057 0.659663 0.953307
0.698512 0.690517 0.953582
0.981170 0.970581 0.979675
0.753475 0.844877 0.959014
0.763516 0.848539 0.956909
0.708919 0.809812 0.948486
0.683467 0.734554 0.939422
0.984192 0.980224 0.983459
0.717067 0.894285 0.948699
0.751003 0.896941 0.948455
0.846281 0.911040 0.951110
0.849668 0.888914 0.940032
0.987793 0.989075 0.988434
0.577508 0.980743 0.903929
0.613123 0.977569 0.903746
0.722988 0.968688 0.906676
0.858427 0.955138 0.912230
0.957031 0.956115 0.951263
