其他预设/【235】城市莫兰迪灰/1.LUT预设（视频调色-PR-AE-PS-FCPX-达芬奇用）/城市莫兰迪灰__-5 加亮.cube
# Created by Adobe Lightroom plugin Export LUT (1.17.0)
# www.johnrellis.com/lightroom/exportlut.htm
# Preset: 城市莫兰迪灰[素锦印象]-5 加亮
# Color profile: /Library/Application Support/Adobe/Color/Profiles/Recommended/AdobeRGB1998.icc
LUT_3D_SIZE 8
DOMAIN_MIN 0.000000 0.000000 0.000000
DOMAIN_MAX 0.903226 0.903226 0.903226
0.152193 0.143008 0.152102
0.166781 0.146548 0.156619
0.230320 0.152468 0.165042
0.393744 0.156771 0.182895
0.646052 0.191043 0.225132
0.861570 0.336004 0.327001
0.970733 0.487800 0.466896
1.000000 0.636957 0.623163
0.160464 0.154482 0.156466
0.162234 0.151827 0.160555
0.231968 0.163424 0.161837
0.382055 0.176028 0.177310
0.624720 0.214664 0.213779
0.828611 0.325231 0.294713
0.955657 0.467659 0.430488
1.000000 0.620508 0.598444
0.195132 0.206149 0.168856
0.211337 0.203769 0.170382
0.200809 0.186130 0.191501
0.416541 0.251499 0.177829
0.662348 0.324285 0.195254
0.847868 0.411505 0.280827
0.975433 0.534478 0.445045
1.000000 0.655695 0.610468
0.297887 0.361944 0.197116
0.320226 0.358343 0.199405
0.365026 0.338415 0.219242
0.338415 0.316899 0.304845
0.652186 0.442298 0.301854
0.886198 0.547448 0.256077
0.980560 0.596246 0.410925
1.000000 0.671412 0.574640
0.457893 0.576806 0.256077
0.477516 0.571191 0.257939
0.544427 0.562493 0.269261
0.558618 0.516564 0.341161
0.492866 0.474311 0.444251
0.745632 0.577020 0.464729
0.954467 0.656489 0.417762
1.000000 0.701411 0.515953
0.616449 0.750393 0.370672
0.645716 0.761196 0.387640
0.694820 0.752071 0.396399
0.760525 0.734920 0.418311
0.720729 0.670802 0.509545
0.661219 0.645930 0.608820
0.843076 0.732479 0.663874
0.987945 0.773892 0.645014
0.750179 0.877653 0.539483
0.762661 0.877714 0.544854
0.793179 0.869017 0.545861
0.845274 0.858396 0.556298
0.865385 0.826505 0.592889
0.834806 0.787533 0.670893
0.790524 0.776944 0.745052
0.896574 0.833677 0.795224
0.839597 0.945220 0.693965
0.845121 0.943938 0.694148
0.865568 0.940398 0.697871
0.900969 0.935760 0.709407
0.936156 0.920470 0.697902
0.934020 0.895750 0.748440
0.916106 0.879332 0.808194
0.888792 0.877653 0.856626
0.155825 0.147066 0.161074
0.168490 0.145571 0.164370
0.223239 0.160708 0.178073
0.373663 0.174624 0.202792
0.609216 0.209293 0.247959
0.808957 0.316960 0.326726
0.942718 0.464210 0.453162
1.000000 0.617700 0.607904
0.157137 0.155764 0.162844
0.169039 0.158877 0.167758
0.231785 0.170626 0.176791
0.377508 0.188754 0.198062
0.603662 0.228611 0.239048
0.796262 0.323003 0.310338
0.930694 0.452552 0.426673
1.000000 0.599847 0.581872
0.190616 0.209293 0.177737
0.212131 0.209476 0.182834
0.208774 0.196628 0.203281
0.415381 0.258946 0.189120
0.623468 0.310887 0.218448
0.809628 0.393713 0.292149
0.943603 0.502739 0.422400
1.000000 0.630579 0.587030
0.281956 0.347936 0.209140
0.307347 0.348241 0.213535
0.356725 0.334630 0.230076
0.316991 0.300328 0.293889
0.591211 0.398840 0.281682
0.829679 0.505394 0.253910
0.948943 0.564752 0.385962
1.000000 0.649775 0.552087
0.447150 0.570977 0.275059
0.464302 0.562799 0.275181
0.525170 0.549004 0.282628
0.532372 0.495155 0.337346
0.466499 0.451087 0.426001
0.722957 0.556481 0.445563
0.941009 0.644617 0.403998
1.000000 0.693172 0.511681
0.597436 0.736202 0.375463
0.613733 0.734493 0.378576
0.664057 0.727047 0.387732
0.738491 0.717037 0.410529
0.706416 0.659663 0.504112
0.655634 0.642908 0.607660
0.839475 0.727810 0.658350
0.985016 0.767666 0.635096
0.729122 0.863493 0.525566
0.736629 0.859342 0.522850
0.770718 0.852811 0.527947
0.828733 0.846647 0.545892
0.856565 0.819852 0.586999
0.825345 0.779416 0.662959
0.777615 0.765072 0.733120
0.888823 0.822171 0.781125
0.830228 0.941375 0.687037
0.837095 0.940795 0.689509
0.858671 0.937621 0.694545
0.895415 0.933440 0.707271
0.938354 0.925689 0.717922
0.935851 0.899443 0.757229
0.914885 0.878691 0.807889
0.884794 0.873930 0.852659
0.166934 0.157961 0.204654
0.178958 0.155734 0.207706
0.265446 0.150423 0.234195
0.431891 0.179751 0.272374
0.635920 0.285466 0.352880
0.820676 0.408698 0.445136
0.942657 0.547601 0.562219
1.000000 0.680049 0.685359
0.180819 0.179965 0.209659
0.189792 0.178042 0.212467
0.269993 0.175784 0.233494
0.406653 0.218540 0.267674
0.624079 0.292668 0.337530
0.809720 0.404578 0.425208
0.936126 0.535790 0.540856
0.999145 0.671107 0.671443
0.176852 0.221500 0.213474
0.197726 0.230503 0.217868
0.251347 0.238590 0.242832
0.447425 0.293034 0.264805
0.656489 0.363897 0.325261
0.822995 0.453193 0.408667
0.940826 0.558526 0.524010
1.000000 0.675380 0.655756
0.240452 0.385229 0.236179
0.295567 0.398657 0.264988
0.397345 0.397070 0.290715
0.367224 0.366033 0.360998
0.661036 0.469673 0.339574
0.843351 0.541344 0.375921
0.950744 0.607904 0.497353
1.000000 0.692531 0.632502
0.420539 0.593561 0.331609
0.455238 0.593652 0.344793
0.535698 0.586419 0.361425
0.574731 0.550835 0.407599
0.515373 0.514031 0.492744
0.763241 0.602869 0.496071
0.951537 0.671168 0.455909
1.000000 0.718502 0.587823
0.585412 0.751156 0.438270
0.605402 0.749813 0.444129
0.659236 0.741360 0.454841
0.733272 0.730007 0.468940
0.713191 0.676875 0.541100
0.665156 0.661036 0.631708
0.851102 0.740658 0.672419
0.987945 0.781369 0.658198
0.727199 0.873655 0.581445
0.736324 0.870634 0.581140
0.767300 0.861906 0.581170
0.820096 0.852018 0.589441
0.857877 0.828885 0.615778
0.830961 0.791836 0.686885
0.792447 0.784573 0.757046
0.904936 0.840116 0.801358
0.825467 0.943572 0.714382
0.829618 0.941955 0.712093
0.849668 0.938109 0.713924
0.888487 0.935454 0.729854
0.930449 0.927550 0.737789
0.936919 0.905180 0.771542
0.917998 0.885679 0.820249
0.891447 0.882902 0.864042
0.194278 0.191562 0.349706
0.217838 0.189029 0.355932
0.291569 0.168399 0.352911
0.517601 0.131685 0.433082
0.730373 0.269810 0.494545
0.834501 0.450996 0.552148
0.916564 0.612238 0.653254
0.981994 0.726284 0.748074
0.224918 0.240177 0.372137
0.241367 0.232670 0.371160
0.301823 0.201205 0.359838
0.532860 0.193912 0.441657
0.714412 0.320958 0.487556
0.818143 0.470283 0.546868
0.913787 0.607843 0.643061
0.982177 0.721828 0.740841
0.247105 0.313054 0.363684
0.276585 0.323064 0.370031
0.323064 0.307713 0.367712
0.509392 0.341833 0.418952
0.661402 0.439796 0.477241
0.817472 0.538628 0.557916
0.932982 0.650172 0.659388
0.988098 0.739528 0.744991
0.211276 0.410376 0.358495
0.238193 0.415412 0.360815
0.352605 0.447395 0.374334
0.455848 0.452674 0.439155
0.687221 0.520897 0.446204
0.828611 0.580926 0.521141
0.934722 0.657496 0.617548
0.991913 0.741146 0.719570
0.311833 0.620935 0.375036
0.345739 0.623194 0.376867
0.514275 0.632227 0.466926
0.620630 0.619440 0.500877
0.577844 0.595453 0.580438
0.813565 0.661830 0.561852
0.948058 0.708492 0.582391
0.997955 0.757504 0.686305
0.528679 0.778012 0.486091
0.574975 0.787167 0.520745
0.657893 0.780270 0.564538
0.737819 0.768399 0.577905
0.750362 0.730251 0.623224
0.703182 0.710842 0.689540
0.879759 0.771725 0.706722
0.993561 0.798947 0.685725
0.700252 0.882933 0.628016
0.720821 0.883146 0.644770
0.762966 0.879759 0.661036
0.816526 0.872496 0.668635
0.875151 0.859007 0.678309
0.849180 0.820432 0.732906
0.810056 0.808438 0.786709
0.920348 0.854246 0.816220
0.823514 0.949187 0.762570
0.831540 0.948608 0.767636
0.847288 0.945617 0.765621
0.877195 0.940520 0.765957
0.918303 0.932647 0.771084
0.939391 0.915251 0.792386
0.922301 0.895445 0.836820
0.899077 0.893645 0.877897
0.285710 0.291264 0.613611
0.316350 0.286168 0.614679
0.397559 0.251347 0.600397
0.538750 0.201755 0.598657
0.789853 0.277226 0.681025
0.905180 0.478889 0.694545
0.953429 0.640467 0.736782
0.984253 0.764981 0.807553
0.330175 0.359167 0.624109
0.354192 0.353307 0.626947
0.417456 0.309300 0.610132
0.545708 0.256352 0.602045
0.786984 0.333715 0.677333
0.897002 0.510765 0.693202
0.948577 0.655268 0.738827
0.981567 0.770962 0.808804
0.425788 0.511192 0.637934
0.442695 0.510063 0.639429
0.465278 0.462470 0.621393
0.547875 0.388708 0.593957
0.774289 0.465614 0.662867
0.859129 0.575769 0.675990
0.927337 0.685634 0.734981
0.971130 0.782162 0.806455
0.379858 0.561975 0.599481
0.409186 0.565026 0.600153
0.496162 0.579339 0.606226
0.544121 0.532830 0.575982
0.704189 0.590631 0.618128
0.805936 0.652033 0.663905
0.911528 0.719112 0.728725
0.973297 0.787808 0.795804
0.292210 0.625116 0.542260
0.321721 0.627863 0.544060
0.423072 0.639277 0.548638
0.598871 0.663691 0.594018
0.647150 0.651392 0.631067
0.829343 0.693141 0.625360
0.924559 0.736202 0.692805
0.981048 0.790433 0.766964
0.417151 0.767300 0.540337
0.445136 0.769131 0.543847
0.527367 0.771633 0.556268
0.685054 0.770840 0.639246
0.750759 0.749477 0.657191
0.725490 0.744289 0.729976
0.906065 0.793454 0.727199
0.990356 0.816403 0.735927
0.604334 0.887572 0.620813
0.627405 0.885588 0.633143
0.699641 0.881712 0.675776
0.785702 0.878386 0.724300
0.848142 0.869474 0.727321
0.856931 0.839139 0.762051
0.819242 0.824552 0.808133
0.934661 0.861448 0.820951
0.765194 0.950164 0.744533
0.776150 0.948974 0.751644
0.811795 0.945617 0.775814
0.861692 0.944610 0.808103
0.896818 0.938048 0.802853
0.941314 0.927214 0.809110
0.924834 0.903563 0.849119
0.901610 0.899474 0.886290
0.495644 0.503441 0.835142
0.511162 0.496742 0.833616
0.555352 0.459785 0.822385
0.643275 0.396735 0.811978
0.778103 0.372198 0.806882
0.924681 0.515404 0.822232
0.981750 0.678096 0.830991
0.996368 0.787259 0.858793
0.519310 0.546807 0.826200
0.528740 0.537011 0.823728
0.567559 0.504234 0.817288
0.637842 0.430823 0.800565
0.768246 0.401312 0.795499
0.918608 0.536889 0.817197
0.977234 0.688014 0.829282
0.994171 0.791257 0.858457
0.634485 0.695064 0.841337
0.632654 0.683955 0.837491
0.637171 0.646967 0.826566
0.667018 0.571405 0.805509
0.769619 0.521080 0.791867
0.912932 0.628046 0.818509
0.965759 0.733669 0.833005
0.987579 0.813230 0.863615
0.679408 0.770504 0.838193
0.694270 0.773678 0.837278
0.720455 0.772457 0.832395
0.718379 0.724178 0.813626
0.776211 0.661738 0.792203
0.907195 0.737148 0.826413
0.948699 0.789883 0.839048
0.977478 0.843320 0.871092
0.555444 0.759182 0.774655
0.575860 0.761135 0.775753
0.634272 0.766079 0.777920
0.706447 0.771450 0.779355
0.731594 0.725063 0.747738
0.836454 0.763058 0.773953
0.907103 0.804166 0.811734
0.962676 0.850492 0.857816
0.435920 0.789670 0.702937
0.460395 0.792447 0.706325
0.519829 0.790433 0.705867
0.630152 0.796933 0.713466
0.757595 0.803494 0.749691
0.792416 0.796475 0.779904
0.924010 0.823209 0.780301
0.973877 0.852232 0.829953
0.573480 0.892149 0.714748
0.593622 0.893492 0.719387
0.646357 0.893278 0.728145
0.720424 0.894377 0.745907
0.828305 0.890562 0.802335
0.876738 0.873747 0.807248
0.846708 0.858457 0.848356
0.957214 0.881071 0.840757
0.708186 0.955261 0.758450
0.716457 0.954528 0.760616
0.745205 0.952636 0.769894
0.811398 0.948638 0.808042
0.879271 0.944152 0.850431
0.919280 0.937194 0.845579
0.931456 0.918120 0.869322
0.909880 0.911650 0.901976
0.675990 0.693172 0.931456
0.685328 0.693263 0.932433
0.701625 0.673671 0.929931
0.735500 0.631312 0.925048
0.794919 0.552453 0.913787
0.906310 0.556207 0.911833
0.976471 0.677821 0.895415
1.000000 0.788937 0.900816
0.686580 0.711513 0.925475
0.693690 0.710079 0.926299
0.706447 0.689906 0.923949
0.732998 0.643458 0.917601
0.786587 0.559747 0.904540
0.896513 0.556847 0.902007
0.971374 0.672938 0.888914
1.000000 0.783139 0.895872
0.762875 0.800809 0.929229
0.762264 0.795529 0.928374
0.760555 0.774044 0.924498
0.768093 0.731472 0.917449
0.795529 0.645533 0.901366
0.894438 0.634058 0.899199
0.968231 0.732509 0.894560
0.996612 0.819944 0.905089
0.828458 0.871855 0.932769
0.827909 0.868925 0.931151
0.827634 0.859281 0.926909
0.819181 0.828275 0.919921
0.820005 0.760891 0.903502
0.893584 0.731014 0.898466
0.963989 0.803799 0.903471
0.989136 0.856779 0.912840
0.791806 0.872953 0.915129
0.799008 0.873991 0.914641
0.826627 0.880949 0.915801
0.860197 0.889921 0.918486
0.838132 0.843046 0.899504
0.872984 0.788113 0.881743
0.953307 0.846067 0.900908
0.978485 0.882170 0.913451
0.689662 0.871977 0.877836
0.701076 0.872648 0.878416
0.736355 0.874784 0.880308
0.787442 0.879057 0.884611
0.839689 0.883116 0.888609
0.850858 0.846983 0.865843
0.921660 0.872831 0.882170
0.960571 0.898466 0.905852
0.592309 0.901030 0.828061
0.605585 0.901335 0.829343
0.640558 0.899260 0.829892
0.689540 0.895537 0.829862
0.765042 0.893980 0.833219
0.859312 0.897063 0.859037
0.885771 0.887877 0.877470
0.964416 0.899504 0.877226
0.669795 0.952026 0.816800
0.679744 0.951659 0.818143
0.717708 0.952026 0.826444
0.768063 0.950988 0.836973
0.825834 0.949432 0.852293
0.898863 0.946441 0.889860
0.940520 0.938720 0.894041
0.923033 0.928527 0.922667
0.800320 0.816068 0.969543
0.802976 0.814817 0.969757
0.804593 0.801541 0.968841
0.814939 0.779263 0.968078
0.834806 0.734340 0.965911
0.886290 0.689937 0.962890
0.967437 0.693416 0.962432
0.997253 0.780606 0.937835
0.808621 0.827024 0.967803
0.810819 0.825650 0.968048
0.812009 0.813230 0.967315
0.818723 0.789334 0.966186
0.835966 0.744625 0.963897
0.884581 0.697414 0.960693
0.964874 0.697566 0.960143
0.996002 0.783780 0.937041
0.843687 0.867338 0.966033
0.843778 0.865110 0.965972
0.839780 0.852079 0.964660
0.845457 0.835782 0.964691
0.851743 0.793759 0.961791
0.885710 0.738125 0.957336
0.960784 0.735409 0.957427
0.992950 0.811337 0.939483
0.883818 0.910307 0.965972
0.886961 0.911437 0.966217
0.884062 0.904143 0.965057
0.880125 0.888823 0.963684
0.877501 0.857298 0.960632
0.890990 0.799313 0.954986
0.956329 0.794278 0.955779
0.989136 0.853727 0.945251
0.898405 0.930907 0.963775
0.903868 0.933501 0.964599
0.910887 0.935149 0.965087
0.912566 0.930724 0.964782
0.904143 0.910216 0.960601
0.900114 0.864347 0.953216
0.949401 0.847868 0.953094
0.984619 0.890562 0.949798
0.861021 0.927703 0.954650
0.865293 0.928405 0.954711
0.880858 0.931853 0.955718
0.906218 0.939208 0.958862
0.934569 0.949920 0.964172
0.926085 0.929595 0.958465
0.944671 0.900908 0.952697
0.980468 0.923644 0.954559
0.803616 0.939849 0.942351
0.809506 0.940032 0.942626
0.829679 0.940948 0.943969
0.860136 0.942748 0.946410
0.894530 0.945434 0.949676
0.928099 0.950103 0.954376
0.929168 0.929351 0.942565
0.966613 0.937255 0.946563
0.711421 0.961364 0.906554
0.716335 0.960693 0.906401
0.735653 0.958984 0.906889
0.769467 0.956573 0.908751
0.809171 0.952850 0.910307
0.852750 0.947936 0.910948
0.914427 0.948638 0.922850
0.944671 0.946746 0.941924
