其他预设/【235】城市莫兰迪灰/1.LUT预设（视频调色-PR-AE-PS-FCPX-达芬奇用）/城市莫兰迪灰__-7 加亮.cube
# Created by Adobe Lightroom plugin Export LUT (1.17.0)
# www.johnrellis.com/lightroom/exportlut.htm
# Preset: 城市莫兰迪灰[素锦印象]-7 加亮
# Color profile: /Library/Application Support/Adobe/Color/Profiles/Recommended/AdobeRGB1998.icc
LUT_3D_SIZE 32
0.152193 0.143008 0.152102
0.152529 0.142947 0.152224
0.154421 0.143099 0.152468
0.159152 0.143069 0.153079
0.165743 0.143648 0.153719
0.174380 0.144106 0.154299
0.186374 0.144564 0.154910
0.202182 0.144717 0.155489
0.223239 0.144411 0.156130
0.250309 0.143069 0.156649
0.284977 0.140322 0.157107
0.328130 0.135378 0.157198
0.378882 0.127291 0.157046
0.435401 0.114992 0.156558
0.495155 0.098573 0.155734
0.555871 0.076967 0.154665
0.615869 0.042390 0.153445
0.674189 0.000977 0.152224
0.741665 0.001038 0.151644
0.806058 0.065492 0.152895
0.860655 0.107729 0.156985
0.906737 0.144869 0.164126
0.944549 0.178958 0.174594
0.975952 0.210697 0.187991
1.000000 0.240482 0.204257
1.000000 0.269688 0.224002
1.000000 0.299657 0.247684
1.000000 0.331182 0.275639
1.000000 0.364691 0.308659
1.000000 0.401068 0.347051
1.000000 0.440711 0.391028
1.000000 0.483619 0.440131
0.152346 0.143130 0.152224
0.152651 0.143252 0.152346
0.154940 0.143526 0.152285
0.159792 0.143984 0.152529
0.166537 0.144533 0.153201
0.175113 0.144991 0.153780
0.186893 0.145480 0.154360
0.202640 0.145785 0.155123
0.223178 0.145632 0.155764
0.249882 0.144747 0.156405
0.283940 0.142306 0.156741
0.326207 0.138094 0.156985
0.375921 0.130831 0.156771
0.431342 0.120180 0.156191
0.490089 0.105653 0.155367
0.550134 0.087617 0.154360
0.609644 0.067353 0.152956
0.667781 0.042420 0.151705
0.734707 0.043397 0.150912
0.797574 0.077638 0.151614
0.851743 0.112184 0.154818
0.898100 0.145907 0.161196
0.936767 0.178012 0.170565
0.969085 0.208194 0.183047
0.996216 0.237095 0.198459
1.000000 0.265782 0.217441
1.000000 0.295171 0.240391
1.000000 0.326452 0.268132
1.000000 0.359747 0.300664
1.000000 0.395636 0.338720
1.000000 0.434791 0.382238
1.000000 0.477333 0.431098
0.152895 0.144564 0.152834
0.153414 0.144289 0.153140
0.154330 0.144289 0.152956
0.160525 0.145571 0.152102
0.167453 0.145907 0.152468
0.176425 0.146426 0.153048
0.188083 0.146914 0.153780
0.203555 0.147433 0.154665
0.224063 0.147402 0.155459
0.250462 0.146761 0.156069
0.284215 0.144961 0.156374
0.326299 0.141268 0.156466
0.375586 0.134981 0.156222
0.430610 0.125704 0.155612
0.488960 0.113436 0.154757
0.548669 0.098329 0.153628
0.607721 0.083223 0.152224
0.665431 0.072663 0.150851
0.732479 0.073762 0.149874
0.794095 0.095094 0.150210
0.847929 0.123751 0.153170
0.894377 0.153994 0.158877
0.933318 0.183993 0.167727
0.966003 0.212039 0.179934
0.993500 0.239750 0.194888
1.000000 0.267155 0.213413
1.000000 0.295903 0.236210
1.000000 0.326268 0.263584
1.000000 0.358953 0.296025
1.000000 0.394324 0.333928
1.000000 0.432776 0.377356
1.000000 0.474708 0.425940
0.154391 0.148074 0.154421
0.155764 0.147311 0.155154
0.156191 0.146883 0.155886
0.158694 0.146822 0.154543
0.167269 0.148104 0.152895
0.179416 0.150637 0.151583
0.191379 0.150942 0.152621
0.207126 0.151461 0.153780
0.227665 0.151797 0.154543
0.254368 0.151614 0.155093
0.288212 0.150637 0.155459
0.330144 0.148074 0.155306
0.378943 0.143618 0.155062
0.433295 0.136812 0.154360
0.490974 0.127535 0.153262
0.550011 0.117311 0.152010
0.608362 0.108431 0.150362
0.665339 0.103670 0.148775
0.731838 0.109194 0.147158
0.790280 0.124147 0.147341
0.842405 0.146090 0.149599
0.888243 0.170962 0.154757
0.927947 0.197238 0.162905
0.962005 0.223117 0.174807
0.991150 0.249516 0.190066
1.000000 0.276097 0.209415
1.000000 0.304051 0.232914
1.000000 0.333623 0.261021
1.000000 0.364935 0.293858
1.000000 0.398688 0.331365
1.000000 0.435279 0.373938
1.000000 0.475044 0.421302
0.157504 0.151827 0.157046
0.158724 0.151125 0.157504
0.159304 0.150484 0.158358
0.160128 0.150515 0.158480
0.163699 0.150088 0.156741
0.174899 0.151400 0.154879
0.192966 0.156435 0.152255
0.211917 0.159243 0.151919
0.232792 0.159823 0.152926
0.259556 0.160342 0.153536
0.293614 0.160281 0.153628
0.335393 0.159304 0.153597
0.383948 0.157015 0.153048
0.437934 0.153109 0.152102
0.495521 0.147860 0.150698
0.554772 0.142641 0.148928
0.613336 0.138552 0.147066
0.674647 0.139773 0.144747
0.737697 0.148074 0.143008
0.793606 0.161746 0.142733
0.843626 0.179721 0.144717
0.888151 0.200656 0.149477
0.927092 0.222293 0.157504
0.961059 0.244602 0.169162
0.990265 0.267460 0.184390
1.000000 0.291356 0.203738
1.000000 0.316533 0.227512
1.000000 0.343145 0.255497
1.000000 0.372137 0.287999
1.000000 0.403540 0.325261
1.000000 0.438148 0.367407
1.000000 0.476234 0.414679
0.160739 0.157259 0.159884
0.162081 0.156558 0.160311
0.163058 0.155581 0.161074
0.163272 0.154086 0.162814
0.165866 0.154910 0.161440
0.170535 0.154147 0.159182
0.185245 0.155734 0.157198
0.209293 0.162753 0.154208
0.242222 0.173648 0.150332
0.269902 0.174624 0.151125
0.304997 0.175692 0.151095
0.347417 0.176425 0.150759
0.396124 0.176516 0.149966
0.450141 0.175509 0.148440
0.507408 0.174228 0.146548
0.566003 0.173159 0.144289
0.623957 0.174014 0.141848
0.688808 0.180728 0.138582
0.748501 0.191043 0.136324
0.802304 0.204440 0.135714
0.850919 0.220645 0.137667
0.894499 0.237980 0.143069
0.979767 0.296666 0.172061
1.000000 0.315557 0.191073
1.000000 0.334081 0.212833
1.000000 0.353491 0.237247
1.000000 0.374151 0.264164
1.000000 0.396796 0.294469
1.000000 0.421912 0.328191
1.000000 0.450141 0.365972
1.000000 0.481239 0.407477
1.000000 0.515343 0.452216
0.165682 0.166781 0.164157
0.167361 0.165774 0.164736
0.168948 0.164584 0.165591
0.170657 0.162325 0.167453
0.170535 0.160983 0.168978
0.175540 0.162417 0.165835
0.182345 0.160952 0.162814
0.203189 0.162722 0.160220
0.237644 0.173068 0.156130
0.284977 0.190524 0.150454
0.336095 0.204959 0.145815
0.382269 0.207431 0.144747
0.433173 0.209537 0.143130
0.487770 0.211246 0.140902
0.543450 0.212863 0.138094
0.598718 0.215702 0.135195
0.659663 0.222385 0.131197
0.723781 0.233768 0.126802
0.780240 0.246464 0.124514
0.832456 0.260990 0.124788
0.881163 0.277684 0.128756
0.925536 0.295720 0.137850
0.963928 0.314763 0.152560
0.995697 0.333288 0.172763
1.000000 0.351812 0.197055
1.000000 0.369665 0.223697
1.000000 0.388251 0.251865
1.000000 0.408057 0.282597
1.000000 0.430335 0.316442
1.000000 0.455360 0.353674
1.000000 0.483528 0.394446
1.000000 0.515038 0.438819
0.171725 0.178653 0.169192
0.173465 0.177554 0.169863
0.175509 0.175998 0.170718
0.178134 0.173037 0.172671
0.178592 0.169528 0.175937
0.180758 0.170169 0.174960
0.187655 0.171298 0.170779
0.196506 0.168917 0.166812
0.222385 0.170626 0.163912
0.266056 0.184054 0.158602
0.324987 0.206546 0.150790
0.397711 0.239628 0.138674
0.452583 0.248203 0.134524
0.506126 0.251865 0.131350
0.560449 0.255589 0.127901
0.616388 0.261265 0.123598
0.680598 0.272740 0.117067
0.737728 0.283543 0.112154
0.789456 0.294652 0.109377
0.838224 0.306706 0.109377
0.884245 0.320226 0.113588
0.926604 0.334630 0.123110
0.963653 0.349401 0.138338
0.994537 0.363653 0.159152
1.000000 0.377691 0.183627
1.000000 0.391852 0.210513
1.000000 0.406531 0.238956
1.000000 0.422889 0.269657
1.000000 0.441901 0.303563
1.000000 0.463752 0.340612
1.000000 0.489052 0.381445
1.000000 0.517693 0.425696
0.180453 0.195834 0.176364
0.182406 0.194430 0.177188
0.184787 0.192721 0.178134
0.188571 0.189120 0.180392
0.190982 0.184360 0.183932
0.188418 0.179629 0.188510
0.195743 0.183047 0.183078
0.204898 0.183749 0.177462
0.216037 0.180056 0.172335
0.247898 0.181613 0.168795
0.303136 0.199161 0.161776
0.373693 0.227451 0.151186
0.454749 0.266819 0.134890
0.531670 0.303807 0.115419
0.586542 0.309728 0.109926
0.648005 0.320745 0.101411
0.704860 0.330663 0.093568
0.756313 0.339422 0.087648
0.803433 0.347631 0.084901
0.848783 0.356970 0.085328
0.891905 0.367407 0.090547
0.931762 0.377996 0.102724
0.966857 0.388495 0.120882
0.996277 0.398749 0.143679
1.000000 0.408942 0.169894
1.000000 0.418799 0.197696
1.000000 0.429938 0.226902
1.000000 0.442573 0.257725
1.000000 0.457832 0.291447
1.000000 0.476112 0.328344
1.000000 0.497841 0.368658
1.000000 0.523095 0.412238
0.192386 0.219577 0.186282
0.194675 0.217990 0.187045
0.197208 0.215824 0.188235
0.201999 0.211521 0.190646
0.206149 0.205478 0.194522
0.206424 0.198672 0.199802
0.206363 0.197024 0.200687
0.216068 0.200412 0.193332
0.227848 0.200412 0.186069
0.241764 0.195254 0.179324
0.279637 0.195743 0.175021
0.346563 0.218051 0.165743
0.426184 0.251987 0.151888
0.518151 0.300359 0.129702
0.613458 0.361425 0.089113
0.681025 0.388922 0.052949
0.733242 0.396368 0.023072
0.780453 0.402045 0.006256
0.823880 0.407050 0.002258
0.864927 0.412329 0.011322
0.903624 0.418067 0.040070
0.939025 0.423774 0.070863
0.970489 0.429297 0.095888
0.997314 0.434791 0.122316
1.000000 0.440436 0.150698
1.000000 0.446662 0.179782
1.000000 0.454108 0.210117
1.000000 0.463722 0.242496
1.000000 0.475990 0.277623
1.000000 0.491341 0.315404
1.000000 0.510216 0.356695
1.000000 0.532891 0.401282
0.207340 0.250217 0.198764
0.209842 0.248447 0.199741
0.213169 0.246006 0.201053
0.218845 0.241123 0.203799
0.224826 0.234012 0.208194
0.227909 0.225742 0.214206
0.224247 0.217258 0.221897
0.230930 0.220523 0.216312
0.243778 0.223911 0.206638
0.258824 0.222965 0.197208
0.275792 0.215976 0.188479
0.322057 0.215427 0.183261
0.404730 0.245487 0.171359
0.497841 0.289067 0.152590
0.592401 0.344640 0.122530
0.681453 0.407263 0.065614
0.757504 0.462623 0.000000
0.799985 0.463844 0.000000
0.839475 0.464515 0.000000
0.877287 0.465858 0.000000
0.913115 0.467811 0.000000
0.946258 0.469947 0.000000
0.975830 0.472236 0.047364
1.000000 0.474189 0.094820
1.000000 0.476295 0.129732
1.000000 0.478798 0.162325
1.000000 0.482643 0.194522
1.000000 0.488563 0.227604
1.000000 0.496956 0.262821
1.000000 0.508476 0.300664
1.000000 0.523644 0.341741
1.000000 0.542626 0.386023
0.227451 0.292302 0.215671
0.230503 0.290440 0.216678
0.234226 0.287724 0.218235
0.241154 0.281987 0.221408
0.249210 0.273655 0.226505
0.255039 0.263523 0.233341
0.255283 0.252476 0.241978
0.250401 0.245212 0.248295
0.264836 0.252415 0.236149
0.281376 0.255680 0.223850
0.303868 0.256596 0.213107
0.328466 0.249332 0.202396
0.428565 0.269718 0.204196
0.533471 0.315557 0.183963
0.634546 0.373999 0.153628
0.724727 0.436713 0.105898
0.799466 0.492500 0.000000
0.860685 0.539300 0.000000
0.902098 0.556268 0.000000
0.930694 0.549004 0.000000
0.957427 0.542809 0.000000
0.981750 0.537499 0.000000
1.000000 0.532433 0.000000
1.000000 0.528527 0.082856
1.000000 0.525536 0.128084
1.000000 0.523949 0.165225
1.000000 0.523949 0.199496
1.000000 0.525963 0.233463
1.000000 0.530602 0.268559
1.000000 0.538384 0.305791
1.000000 0.549584 0.345586
1.000000 0.564813 0.388739
0.261631 0.361975 0.244511
0.265110 0.359594 0.245731
0.269261 0.355535 0.247196
0.277409 0.347631 0.250553
0.287175 0.336126 0.255924
0.294987 0.322148 0.263096
0.298222 0.307012 0.272557
0.293400 0.293004 0.285252
0.300023 0.296635 0.285527
0.324041 0.309300 0.272221
0.352209 0.317784 0.257969
0.384009 0.319219 0.243168
0.418067 0.310277 0.228061
0.485420 0.306584 0.218845
0.590997 0.354040 0.197299
0.688594 0.413916 0.164828
0.770047 0.470741 0.118715
0.836271 0.519432 0.000000
0.891173 0.560662 0.000000
0.937072 0.595544 0.000000
0.963317 0.590600 0.000000
0.985779 0.581781 0.000000
1.000000 0.573693 0.000000
1.000000 0.566491 0.000000
1.000000 0.560388 0.085695
1.000000 0.555627 0.134463
1.000000 0.552453 0.173739
1.000000 0.551385 0.210391
1.000000 0.552697 0.246830
1.000000 0.557153 0.285069
1.000000 0.564874 0.325139
1.000000 0.576654 0.368872
0.295048 0.424567 0.273930
0.299351 0.422583 0.275761
0.304417 0.419379 0.277623
0.314336 0.412940 0.282200
0.327092 0.402655 0.288975
0.339330 0.389624 0.298161
0.348028 0.374884 0.310369
0.349218 0.359136 0.325231
0.338231 0.343969 0.343267
0.360327 0.358404 0.328405
0.388586 0.370886 0.310857
0.420233 0.377844 0.292241
0.453681 0.375799 0.272496
0.486854 0.361578 0.251835
0.549432 0.353094 0.238712
0.647395 0.396033 0.215579
0.735317 0.450660 0.182376
0.807523 0.499977 0.140261
0.867765 0.543328 0.075868
0.918303 0.580438 0.000000
0.960235 0.611749 0.000000
0.990784 0.626917 0.000000
1.000000 0.615839 0.000000
1.000000 0.605890 0.000000
1.000000 0.596948 0.000000
1.000000 0.589380 0.094392
1.000000 0.583368 0.144869
1.000000 0.579370 0.186099
1.000000 0.577722 0.225254
1.000000 0.578973 0.264714
1.000000 0.583490 0.306065
1.000000 0.591821 0.350134
0.347784 0.510918 0.321721
0.352209 0.509148 0.323644
0.357122 0.505089 0.325231
0.367102 0.496956 0.329107
0.379797 0.484596 0.335180
0.392554 0.468910 0.343572
0.402869 0.451759 0.354925
0.407385 0.433265 0.369207
0.402472 0.415106 0.386969
0.399573 0.409766 0.394690
0.427588 0.425940 0.375250
0.458717 0.437476 0.354284
0.491432 0.441474 0.331456
0.523613 0.435096 0.306401
0.553674 0.415595 0.280156
0.608698 0.401587 0.262364
0.697627 0.437018 0.239078
0.776394 0.484779 0.206485
0.842222 0.528405 0.168429
0.897581 0.566888 0.119844
0.943633 0.599817 0.000000
0.980957 0.626978 0.000000
1.000000 0.648402 0.000000
1.000000 0.645380 0.000000
1.000000 0.633997 0.000000
1.000000 0.623987 0.000000
1.000000 0.615747 0.107027
1.000000 0.609491 0.160586
1.000000 0.605676 0.205356
1.000000 0.604578 0.248905
1.000000 0.606683 0.293034
1.000000 0.612512 0.339483
0.404852 0.590204 0.375463
0.409735 0.588678 0.377661
0.414710 0.585534 0.379492
0.425177 0.578393 0.383642
0.438697 0.567315 0.389899
0.453285 0.553216 0.398840
0.466377 0.537255 0.410590
0.474922 0.519646 0.425360
0.475502 0.500877 0.442939
0.463478 0.481880 0.463050
0.475227 0.488014 0.453498
0.503044 0.500328 0.429389
0.531304 0.505791 0.402564
0.559350 0.502831 0.373114
0.586114 0.489815 0.341741
0.611109 0.465064 0.309667
0.659449 0.446998 0.287968
0.739528 0.473701 0.266361
0.813169 0.517174 0.236423
0.875242 0.557000 0.203372
0.926757 0.591608 0.165164
0.968505 0.620417 0.117403
1.000000 0.643305 0.000000
1.000000 0.661311 0.000000
1.000000 0.672999 0.000000
1.000000 0.660609 0.000000
1.000000 0.649958 0.036469
1.000000 0.641260 0.130983
1.000000 0.634730 0.183597
1.000000 0.630671 0.229557
1.000000 0.629541 0.274693
1.000000 0.631739 0.320623
0.461219 0.657679 0.430213
0.465003 0.655604 0.431464
0.469459 0.652430 0.432990
0.479133 0.645808 0.436622
0.492134 0.635859 0.442359
0.506432 0.622980 0.450385
0.520165 0.607965 0.461189
0.530510 0.591089 0.474434
0.534874 0.572900 0.490333
0.529839 0.554009 0.508598
0.515190 0.538293 0.525139
0.541131 0.552819 0.502159
0.567895 0.562005 0.476265
0.594385 0.563775 0.446967
0.619776 0.557061 0.414221
0.643244 0.540307 0.379004
0.665095 0.513085 0.342931
0.706722 0.491402 0.318090
0.778714 0.509850 0.298711
0.847013 0.548669 0.271427
0.904051 0.583734 0.242496
0.950530 0.613672 0.210758
0.987274 0.637995 0.175174
1.000000 0.657252 0.131960
1.000000 0.672358 0.061280
1.000000 0.684199 0.000000
1.000000 0.683009 0.000000
1.000000 0.672084 0.075593
1.000000 0.663142 0.149874
1.000000 0.656580 0.203128
1.000000 0.652735 0.251225
1.000000 0.652094 0.299535
0.519310 0.718318 0.489326
0.523919 0.717617 0.491798
0.572076 0.755245 0.539391
0.580285 0.749722 0.542199
0.591485 0.741024 0.546441
0.603937 0.729458 0.552026
0.616083 0.715419 0.559564
0.626154 0.699336 0.569207
0.632044 0.681880 0.581567
0.631006 0.663447 0.596124
0.618952 0.644099 0.612360
0.616358 0.639002 0.610193
0.637659 0.646937 0.583276
0.659113 0.648920 0.552850
0.679927 0.644068 0.519036
0.699794 0.631342 0.481727
0.718807 0.610163 0.441596
0.736995 0.579828 0.400122
0.770687 0.552941 0.369665
0.831968 0.561364 0.351751
0.891386 0.592432 0.326055
0.940185 0.620142 0.299962
0.978943 0.643183 0.272435
1.000000 0.661402 0.242924
1.000000 0.675441 0.209079
1.000000 0.686366 0.168734
1.000000 0.694911 0.113802
1.000000 0.701747 0.000000
1.000000 0.692134 0.101076
1.000000 0.683070 0.168826
1.000000 0.676509 0.222507
1.000000 0.672877 0.272862
0.586633 0.778378 0.559899
0.595148 0.781643 0.567010
0.604700 0.784207 0.574517
0.617090 0.783871 0.582696
0.631006 0.779965 0.590692
0.644373 0.771969 0.597864
0.656794 0.760922 0.605066
0.667414 0.747494 0.613519
0.675227 0.732876 0.624018
0.677729 0.716854 0.636133
0.672572 0.699886 0.649805
0.655970 0.681941 0.664393
0.667475 0.686427 0.646998
0.685969 0.690944 0.620386
0.704280 0.689601 0.589807
0.722316 0.681880 0.555169
0.739925 0.667414 0.517479
0.757259 0.645686 0.477607
0.774716 0.616083 0.436255
0.804959 0.589044 0.405066
0.860166 0.591791 0.390082
0.915587 0.619745 0.368353
0.959899 0.643702 0.345830
0.994232 0.663050 0.322087
1.000000 0.677882 0.296147
1.000000 0.689326 0.267216
1.000000 0.698177 0.234226
1.000000 0.705074 0.195773
1.000000 0.710384 0.147066
1.000000 0.710140 0.122927
1.000000 0.701167 0.187991
1.000000 0.694881 0.242863
0.634485 0.816251 0.610834
0.641871 0.818723 0.617121
0.650050 0.820829 0.623590
0.660578 0.820432 0.630518
0.672694 0.817136 0.637446
0.684504 0.810605 0.643397
0.695857 0.801419 0.649561
0.706264 0.790372 0.656641
0.714839 0.778103 0.665461
0.719814 0.764553 0.675654
0.719326 0.750179 0.687343
0.710506 0.734615 0.699672
0.698726 0.723171 0.704738
0.714748 0.729427 0.682521
0.730617 0.731014 0.656611
0.746426 0.727474 0.626917
0.762387 0.718318 0.593347
0.778531 0.703151 0.556481
0.795041 0.681788 0.517479
0.812131 0.653620 0.477546
0.839048 0.626337 0.445716
0.888060 0.624170 0.434058
0.938262 0.648310 0.415564
0.977386 0.668147 0.396063
1.000000 0.683528 0.374670
1.000000 0.695277 0.351080
1.000000 0.704219 0.324956
1.000000 0.711116 0.296300
1.000000 0.716365 0.264256
1.000000 0.720180 0.226444
1.000000 0.722652 0.178408
1.000000 0.717372 0.204105
0.679408 0.849332 0.658778
0.685817 0.851316 0.664210
0.692866 0.852964 0.669856
0.701930 0.852598 0.675898
0.712337 0.849851 0.681697
0.722499 0.844480 0.686763
0.732601 0.836942 0.691737
0.742214 0.827726 0.697475
0.750698 0.817288 0.704585
0.756771 0.805753 0.712856
0.758846 0.793393 0.722286
0.754971 0.779873 0.732540
0.742489 0.765042 0.742855
0.742397 0.762570 0.735988
0.756497 0.766629 0.714931
0.771115 0.767025 0.691127
0.786465 0.763638 0.664759
0.802579 0.755917 0.635859
0.819486 0.743282 0.604486
0.837217 0.725002 0.570550
0.855314 0.700313 0.534722
0.880247 0.674647 0.505028
0.921996 0.668116 0.496895
0.965026 0.687617 0.483009
0.997284 0.702663 0.467536
1.000000 0.713924 0.449836
1.000000 0.722225 0.429999
1.000000 0.728328 0.407935
1.000000 0.732723 0.383276
1.000000 0.735531 0.355444
1.000000 0.737087 0.322972
1.000000 0.737423 0.285069
0.737240 0.887358 0.720424
0.740566 0.887694 0.722866
0.744106 0.887541 0.725185
0.749538 0.885893 0.727871
0.756497 0.882719 0.731044
0.764340 0.877867 0.734249
0.772885 0.871763 0.738155
0.781735 0.864591 0.743099
0.790311 0.856596 0.749386
0.797391 0.847776 0.756771
0.801877 0.838224 0.765164
0.801816 0.827543 0.773892
0.795468 0.815549 0.782528
0.780972 0.802457 0.791165
0.791226 0.806455 0.775113
0.803189 0.808499 0.755703
0.815732 0.807584 0.733974
0.829038 0.803189 0.709895
0.843107 0.795041 0.683528
0.857816 0.782254 0.654414
0.873075 0.764126 0.622522
0.888792 0.739681 0.587457
0.909117 0.712642 0.555596
0.942901 0.700679 0.546654
0.979370 0.715450 0.533593
1.000000 0.726955 0.519524
1.000000 0.735683 0.504295
1.000000 0.742153 0.487434
1.000000 0.746792 0.468849
1.000000 0.749813 0.447730
1.000000 0.751492 0.424292
1.000000 0.751827 0.397223
0.773495 0.909026 0.759152
0.776394 0.909300 0.761349
0.779538 0.909270 0.763516
0.784176 0.907988 0.765957
0.789944 0.905425 0.768429
0.796323 0.901518 0.770901
0.803403 0.896483 0.773831
0.810849 0.890562 0.777493
0.818479 0.883818 0.782345
0.825284 0.876493 0.788205
0.830320 0.868467 0.794949
0.832364 0.859678 0.802152
0.829923 0.849821 0.809445
0.821622 0.839048 0.816953
0.815305 0.832975 0.817441
0.825742 0.836545 0.802121
0.836759 0.837949 0.785000
0.848447 0.836790 0.765988
0.860807 0.832731 0.745052
0.873899 0.825193 0.722042
0.887572 0.813626 0.696742
0.901762 0.797299 0.668849
0.916350 0.775326 0.637964
0.933928 0.749905 0.608362
0.957549 0.728145 0.588891
0.989075 0.739590 0.577935
1.000000 0.749111 0.566430
1.000000 0.756283 0.553857
1.000000 0.761593 0.540124
1.000000 0.765469 0.525475
1.000000 0.767910 0.509483
1.000000 0.769284 0.492439
0.816373 0.931212 0.805081
0.818936 0.931456 0.807156
0.821164 0.931304 0.808591
0.824247 0.930053 0.809934
0.828122 0.927825 0.811215
0.832670 0.924620 0.812558
0.837797 0.920500 0.814115
0.843259 0.915526 0.816129
0.848936 0.909789 0.818814
0.854246 0.903410 0.822354
0.858335 0.896330 0.826474
0.860746 0.888701 0.831388
0.860075 0.880278 0.836637
0.855222 0.870909 0.841947
0.844663 0.860472 0.847196
0.845396 0.859068 0.839445
0.853574 0.860624 0.824521
0.862821 0.860624 0.808286
0.873259 0.858885 0.791073
0.884733 0.854978 0.772702
0.896910 0.848173 0.752834
0.909453 0.837583 0.730556
0.922087 0.822263 0.705165
0.934813 0.801205 0.675929
0.949187 0.775753 0.645808
0.972076 0.760769 0.636286
0.997925 0.767483 0.627955
1.000000 0.774716 0.618280
1.000000 0.780423 0.608453
1.000000 0.784909 0.598566
1.000000 0.788083 0.588128
1.000000 0.790799 0.578851
0.842344 0.943450 0.832944
0.844450 0.943664 0.834684
0.846403 0.943511 0.835966
0.848905 0.942565 0.837095
0.852079 0.940826 0.838163
0.855894 0.938354 0.839353
0.860349 0.935210 0.840879
0.865232 0.931456 0.842771
0.870481 0.927123 0.845304
0.875639 0.922362 0.848569
0.880095 0.917082 0.852354
0.883421 0.911376 0.856779
0.884733 0.905119 0.861448
0.883116 0.898131 0.866148
0.877592 0.890349 0.870787
0.868284 0.882475 0.874723
0.875151 0.885008 0.863584
0.882780 0.886351 0.851377
0.891295 0.886442 0.838224
0.900603 0.884886 0.824002
0.910491 0.881102 0.808438
0.920745 0.874571 0.791073
0.931273 0.864561 0.771237
0.942046 0.850431 0.748440
0.953124 0.831266 0.722225
0.965301 0.807614 0.694057
0.983917 0.793637 0.685237
1.000000 0.797238 0.680201
1.000000 0.803708 0.674495
1.000000 0.808774 0.668605
1.000000 0.813077 0.663416
1.000000 0.817258 0.660426
0.868009 0.954467 0.860441
0.869444 0.954498 0.861540
0.870603 0.954253 0.862181
0.872282 0.953368 0.862760
0.874449 0.951904 0.863249
0.877256 0.949859 0.863890
0.880644 0.947295 0.864805
0.884611 0.944274 0.866209
0.888975 0.940856 0.868223
0.893492 0.937163 0.870878
0.897704 0.933043 0.874052
0.901305 0.928710 0.877836
0.903502 0.923919 0.881804
0.903655 0.918578 0.885801
0.901030 0.912596 0.889677
0.895079 0.905974 0.893584
0.891997 0.902922 0.892302
0.898070 0.904875 0.883024
0.904875 0.905974 0.872953
0.912383 0.905943 0.862089
0.920470 0.904326 0.850126
0.928923 0.900694 0.836759
0.937621 0.894530 0.821500
0.946654 0.885374 0.804013
0.955993 0.872557 0.783749
0.965759 0.855436 0.760403
0.976318 0.833921 0.734676
0.991760 0.821286 0.726680
1.000000 0.822660 0.723903
1.000000 0.828428 0.720760
1.000000 0.833707 0.718929
1.000000 0.839231 0.719783
0.887541 0.962493 0.881346
0.888487 0.962432 0.881987
0.889403 0.962188 0.882506
0.890806 0.961547 0.883024
0.892943 0.960510 0.883818
0.895781 0.959167 0.885008
0.899565 0.957610 0.886931
0.903899 0.955840 0.889372
0.908751 0.953887 0.892454
0.913695 0.951781 0.895995
0.918364 0.949462 0.899809
0.922454 0.946899 0.903777
0.925505 0.943999 0.907713
0.927092 0.940703 0.911467
0.926818 0.936889 0.914916
0.924163 0.932494 0.918090
0.918883 0.927672 0.921294
0.920775 0.928161 0.917205
0.925780 0.929717 0.910521
0.931212 0.930480 0.903258
0.937011 0.930297 0.895201
0.943145 0.928771 0.886137
0.949523 0.925566 0.875639
0.956207 0.920317 0.863493
0.963256 0.912627 0.849332
0.970764 0.902037 0.832853
0.978851 0.887968 0.813809
0.987488 0.869871 0.792020
0.999023 0.859159 0.784756
1.000000 0.858701 0.783810
1.000000 0.864103 0.784115
1.000000 0.869963 0.787015
0.911528 0.971588 0.906859
0.912108 0.971496 0.907195
0.912566 0.971283 0.907378
0.913451 0.970733 0.907591
0.914824 0.969879 0.907927
0.916716 0.968750 0.908507
0.919127 0.967407 0.909453
0.921996 0.965881 0.910765
0.925261 0.964172 0.912505
0.928710 0.962249 0.914580
0.932006 0.960113 0.916869
0.935027 0.957794 0.919371
0.937469 0.955261 0.921996
0.938994 0.952422 0.924620
0.939330 0.949279 0.927245
0.938231 0.945892 0.929870
