其他预设/【235】城市莫兰迪灰/1.LUT预设（视频调色-PR-AE-PS-FCPX-达芬奇用）/城市莫兰迪灰__-3 暗调.cube
# Created by Adobe Lightroom plugin Export LUT (1.17.0)
# www.johnrellis.com/lightroom/exportlut.htm
# Preset: 城市莫兰迪灰[素锦印象]-3 暗调
# Color profile: /Library/Application Support/Adobe/Color/Profiles/Recommended/AdobeRGB1998.icc
LUT_3D_SIZE 5
DOMAIN_MIN 0.000000 0.000000 0.000000
DOMAIN_MAX 0.903226 0.903226 0.903226
0.152193 0.143008 0.152102
0.166751 0.144442 0.154788
0.236515 0.146670 0.160189
0.520226 0.110018 0.172274
0.860990 0.156344 0.209079
0.159030 0.152895 0.155337
0.160433 0.150118 0.158938
0.221164 0.160220 0.160189
0.470375 0.169741 0.170047
0.860136 0.249760 0.208164
0.186618 0.194034 0.165347
0.199222 0.191470 0.165621
0.197238 0.181979 0.187289
0.379156 0.234257 0.175479
0.762692 0.363104 0.178225
0.267887 0.329320 0.181460
0.292088 0.330877 0.182406
0.339391 0.312505 0.193668
0.287053 0.261845 0.254002
0.612757 0.401282 0.266880
0.469673 0.626978 0.219120
0.496101 0.622217 0.219272
0.555077 0.586999 0.213687
0.590448 0.537682 0.291356
0.513207 0.479316 0.436988
0.156252 0.147402 0.159518
0.164157 0.146822 0.162509
0.234134 0.149142 0.173434
0.466133 0.121889 0.194125
0.829465 0.122133 0.241917
0.157565 0.153384 0.161654
0.166110 0.155703 0.164645
0.228244 0.164096 0.172824
0.437873 0.166873 0.189914
0.813504 0.211765 0.234684
0.178500 0.194278 0.170932
0.195163 0.193912 0.174502
0.195377 0.182986 0.190127
0.362524 0.231022 0.179843
0.755642 0.352880 0.209689
0.258000 0.332189 0.195499
0.283909 0.334173 0.197665
0.342840 0.321111 0.204715
0.291173 0.269902 0.263920
0.621241 0.409033 0.271763
0.451484 0.628595 0.242252
0.479347 0.623590 0.242008
0.573205 0.619013 0.246983
0.610254 0.561334 0.312444
0.527886 0.497932 0.457008
0.170993 0.161776 0.191470
0.177432 0.162173 0.192416
0.229679 0.156191 0.217136
0.490120 0.102327 0.293889
0.864286 0.139773 0.405280
0.180514 0.176181 0.200137
0.185641 0.175570 0.199954
0.237156 0.170901 0.221683
0.481514 0.158511 0.283970
0.869017 0.244022 0.403204
0.172183 0.198856 0.201785
0.183413 0.203494 0.205509
0.229221 0.214389 0.219547
0.430396 0.259739 0.251987
0.808591 0.366003 0.340185
0.192050 0.327306 0.210941
0.221866 0.329168 0.218967
0.327367 0.341253 0.247318
0.314427 0.306126 0.304326
0.666651 0.441505 0.281926
0.342931 0.613886 0.268864
0.396307 0.623835 0.294499
0.519402 0.628412 0.311376
0.617334 0.586053 0.338811
0.528008 0.509178 0.475959
0.221592 0.217502 0.326360
0.234226 0.216983 0.326116
0.273930 0.211704 0.324010
0.445075 0.158846 0.407691
0.846159 0.111910 0.594202
0.239506 0.247410 0.342931
0.249149 0.244114 0.339879
0.279393 0.230686 0.327398
0.439673 0.188754 0.400549
0.835172 0.197269 0.580591
0.248417 0.296086 0.349737
0.272343 0.306340 0.356023
0.299321 0.293675 0.343633
0.434424 0.266026 0.387610
0.838224 0.381811 0.568139
0.192508 0.339330 0.323003
0.209140 0.340734 0.323552
0.265354 0.355779 0.333623
0.390600 0.376135 0.365728
0.786923 0.517418 0.474983
0.189242 0.600916 0.376226
0.222660 0.608515 0.373754
0.329992 0.640650 0.364233
0.594965 0.648157 0.431647
0.557061 0.558465 0.536065
0.390906 0.404273 0.640162
0.405127 0.399145 0.636194
0.452918 0.382025 0.626062
0.528862 0.332341 0.614099
0.764889 0.237125 0.711116
0.406226 0.437476 0.644800
0.417762 0.430854 0.640345
0.458778 0.409339 0.628138
0.521019 0.352789 0.604852
0.761715 0.273228 0.707698
0.452430 0.534600 0.669032
0.464424 0.532219 0.669032
0.487556 0.501854 0.650996
0.522332 0.431189 0.606470
0.777127 0.395300 0.721614
0.391119 0.582818 0.652857
0.417609 0.586786 0.656001
0.518700 0.619196 0.682826
0.593133 0.608515 0.683436
0.799130 0.571130 0.742275
0.187015 0.635004 0.588739
0.216281 0.636591 0.590082
0.311345 0.652277 0.604578
0.452796 0.666072 0.617243
0.673152 0.671931 0.649317
