其他预设/【235】城市莫兰迪灰/1.LUT预设（视频调色-PR-AE-PS-FCPX-达芬奇用）/城市莫兰迪灰__-7 加亮.cube
# Created by Adobe Lightroom plugin Export LUT (1.17.0)
# www.johnrellis.com/lightroom/exportlut.htm
# Preset: 城市莫兰迪灰[素锦印象]-7 加亮
# Color profile: /Library/Application Support/Adobe/Color/Profiles/Recommended/AdobeRGB1998.icc
LUT_3D_SIZE 5
DOMAIN_MIN 0.000000 0.000000 0.000000
DOMAIN_MAX 0.903226 0.903226 0.903226
0.152193 0.143008 0.152102
0.202182 0.144717 0.155489
0.495155 0.098573 0.155734
0.906737 0.144869 0.164126
1.000000 0.364691 0.308659
0.171725 0.178653 0.169192
0.196506 0.168917 0.166812
0.560449 0.255589 0.127901
0.926604 0.334630 0.123110
1.000000 0.441901 0.303563
0.347784 0.510918 0.321721
0.407385 0.433265 0.369207
0.553674 0.415595 0.280156
0.980957 0.626978 0.000000
1.000000 0.605676 0.205356
0.737240 0.887358 0.720424
0.781735 0.864591 0.743099
0.791226 0.806455 0.775113
0.888792 0.739681 0.587457
1.000000 0.746792 0.468849
0.924315 0.976562 0.920378
0.933318 0.972229 0.924102
0.944579 0.955322 0.931945
0.953338 0.950530 0.927459
0.989502 0.918883 0.864530
0.153170 0.158083 0.189731
0.211704 0.145785 0.210788
0.478828 0.091493 0.211734
0.829801 0.105379 0.281010
1.000000 0.394903 0.417884
0.163607 0.174105 0.205447
0.211368 0.195163 0.201633
0.488228 0.210117 0.222568
0.863859 0.287510 0.267735
1.000000 0.455940 0.410193
0.265843 0.568261 0.406256
0.413214 0.495064 0.393591
0.510826 0.411200 0.328557
0.955200 0.632074 0.188357
1.000000 0.619318 0.375921
0.721187 0.904997 0.745388
0.777646 0.883391 0.763729
0.796445 0.815946 0.801419
0.879393 0.755520 0.636255
1.000000 0.772854 0.546014
0.924468 0.980102 0.927214
0.933623 0.976013 0.930083
0.951934 0.963653 0.941344
0.956359 0.955688 0.938140
0.987671 0.928313 0.883299
0.000000 0.283696 0.499733
0.000000 0.300023 0.544579
0.660822 0.000000 0.660395
0.985565 0.318822 0.472328
1.000000 0.571099 0.644892
0.177615 0.330358 0.473274
0.222232 0.357916 0.512566
0.650660 0.285069 0.628534
0.937346 0.427893 0.523247
1.000000 0.598413 0.661860
0.191531 0.443305 0.606165
0.319219 0.466438 0.576379
0.528954 0.508934 0.486854
0.851194 0.586297 0.559655
1.000000 0.689723 0.669123
0.622492 0.948333 0.894804
0.696040 0.927184 0.856138
0.822110 0.861662 0.814481
0.859648 0.792355 0.733639
1.000000 0.837491 0.695674
0.912169 0.988190 0.944976
0.927031 0.985504 0.946624
0.952941 0.976349 0.950317
0.957733 0.961364 0.954589
0.981842 0.940551 0.909667
0.000000 0.579187 0.871672
0.192325 0.596429 0.885191
0.453254 0.659724 0.923064
0.951629 0.558007 0.946319
1.000000 0.772213 0.806271
0.341772 0.633295 0.855833
0.392706 0.648585 0.869261
0.553155 0.706996 0.908659
0.946563 0.634699 0.935210
1.000000 0.800809 0.828794
0.417792 0.657252 0.814878
0.481025 0.668879 0.798428
0.668360 0.760189 0.851194
0.916014 0.758022 0.889342
1.000000 0.851499 0.868589
0.611231 0.790280 0.918456
0.656855 0.803250 0.909911
0.752712 0.830503 0.882719
0.830137 0.819242 0.800748
0.985046 0.864286 0.854826
0.887541 0.977020 0.987793
0.904387 0.983398 0.986511
0.941100 0.990753 0.979339
0.968963 0.977874 0.967437
0.977111 0.956878 0.941680
0.600610 0.791897 0.980529
0.626459 0.800229 0.981567
0.709926 0.831296 0.985290
0.816434 0.878721 0.989746
0.993072 0.829038 0.994110
0.660121 0.818051 0.975341
0.680323 0.825040 0.976745
0.748623 0.851774 0.981445
0.836851 0.891661 0.987030
0.992493 0.850675 0.992218
0.724514 0.850370 0.962402
0.762387 0.866209 0.963928
0.814847 0.888426 0.971099
0.881651 0.920195 0.980835
0.991974 0.907103 0.989044
0.754604 0.872740 0.968536
0.770504 0.878080 0.965728
0.815579 0.893431 0.956756
0.914946 0.941894 0.970977
0.989380 0.957610 0.985046
0.868559 0.932982 0.988586
0.881407 0.938445 0.987762
0.918883 0.955077 0.986114
0.952758 0.969909 0.983124
0.966217 0.964019 0.959777
