其他预设/【235】城市莫兰迪灰/1.LUT预设（视频调色-PR-AE-PS-FCPX-达芬奇用）/城市莫兰迪灰__-3 暗调.cube
# Created by Adobe Lightroom plugin Export LUT (1.17.0)
# www.johnrellis.com/lightroom/exportlut.htm
# Preset: 城市莫兰迪灰[素锦印象]-3 暗调
# Color profile: /Library/Application Support/Adobe/Color/Profiles/Recommended/AdobeRGB1998.icc
LUT_3D_SIZE 8
DOMAIN_MIN 0.000000 0.000000 0.000000
DOMAIN_MAX 0.903226 0.903226 0.903226
0.152193 0.143008 0.152102
0.157107 0.143099 0.152987
0.171450 0.144991 0.155459
0.205753 0.146578 0.158206
0.278111 0.145083 0.162539
0.465827 0.121004 0.170016
0.671565 0.088197 0.180880
0.860990 0.156344 0.209079
0.154025 0.146365 0.153109
0.154971 0.145296 0.154330
0.168582 0.147433 0.154940
0.197238 0.150088 0.157961
0.264225 0.151308 0.162051
0.411780 0.142580 0.168093
0.615778 0.121126 0.176394
0.829282 0.167422 0.199863
0.161135 0.155459 0.156497
0.164096 0.155245 0.156741
0.162478 0.152071 0.160647
0.190341 0.158572 0.159731
0.259525 0.168734 0.162509
0.399268 0.178042 0.167727
0.638148 0.200351 0.176791
0.845090 0.263279 0.203037
0.173983 0.174258 0.161654
0.177493 0.173922 0.161715
0.186954 0.172763 0.163973
0.182986 0.169711 0.176547
0.247745 0.188296 0.177646
0.384894 0.223758 0.166873
0.589075 0.268345 0.171420
0.800290 0.336339 0.188205
0.201266 0.217716 0.169100
0.205509 0.216556 0.169100
0.221744 0.215763 0.169802
0.228519 0.205661 0.179324
0.212009 0.194919 0.198367
0.289921 0.220188 0.202945
0.482124 0.283787 0.180850
0.726680 0.388678 0.169589
0.245304 0.291295 0.177768
0.258305 0.302068 0.179263
0.278996 0.299504 0.179751
0.314397 0.296513 0.181247
0.293584 0.258915 0.205783
0.266758 0.243565 0.239017
0.386450 0.297459 0.263279
0.646998 0.404944 0.236820
0.332433 0.435554 0.189761
0.342748 0.439002 0.190463
0.364202 0.430457 0.190402
0.405646 0.424903 0.191440
0.424964 0.395270 0.206638
0.397742 0.347784 0.252232
0.359014 0.328679 0.308537
0.494148 0.407660 0.361669
0.469673 0.626978 0.219120
0.476997 0.624811 0.218875
0.506004 0.622248 0.219974
0.561242 0.625574 0.225162
0.588373 0.586358 0.216098
0.594720 0.548882 0.271183
0.569574 0.505058 0.354620
0.513207 0.479316 0.436988
0.153384 0.144259 0.154299
0.155947 0.143587 0.155154
0.169253 0.146365 0.157992
0.199771 0.148714 0.161990
0.267552 0.147738 0.166995
0.405493 0.133394 0.174502
0.605707 0.092348 0.185245
0.816892 0.122805 0.209842
0.152865 0.145998 0.154757
0.156771 0.147250 0.156283
0.168490 0.149294 0.158358
0.196353 0.151766 0.161593
0.260258 0.152895 0.166415
0.381659 0.146212 0.172824
0.565270 0.121950 0.181399
0.782071 0.137697 0.200961
0.159792 0.155642 0.158083
0.163699 0.155673 0.159365
0.163668 0.153689 0.162692
0.191226 0.160128 0.161379
0.247868 0.167117 0.165591
0.363378 0.173770 0.171603
0.560876 0.180331 0.180148
0.789609 0.227298 0.200992
0.171847 0.172915 0.163455
0.175692 0.173220 0.164004
0.185580 0.172396 0.165652
0.179171 0.167086 0.174868
0.227329 0.179660 0.174228
0.331121 0.203494 0.169436
0.511925 0.235630 0.175113
0.744289 0.299321 0.188266
0.198337 0.215579 0.171756
0.201785 0.213687 0.171572
0.215732 0.211215 0.171908
0.220066 0.199588 0.178836
0.204776 0.189395 0.194339
0.275212 0.212100 0.198428
0.451698 0.269261 0.180514
0.693263 0.364508 0.174838
0.236179 0.279881 0.180087
0.241794 0.279881 0.180240
0.260380 0.278691 0.180880
0.295628 0.280247 0.182589
0.283574 0.251438 0.204715
0.263157 0.241428 0.238193
0.379675 0.292332 0.259586
0.626764 0.390478 0.231785
0.309514 0.405371 0.191196
0.313329 0.400092 0.190707
0.335729 0.397009 0.191135
0.380743 0.400305 0.192996
0.409644 0.381872 0.206516
0.382849 0.335607 0.248112
0.342504 0.313939 0.297276
0.470069 0.384924 0.342290
0.445899 0.605066 0.218357
0.456214 0.606592 0.219272
0.486854 0.606287 0.220951
0.543969 0.612024 0.226535
0.607416 0.608240 0.230625
0.604334 0.559564 0.279210
0.564813 0.501640 0.353826
0.502403 0.469429 0.429023
0.157809 0.148836 0.161990
0.159030 0.148440 0.162112
0.168582 0.148135 0.166171
0.205142 0.149203 0.174289
0.295171 0.145571 0.186496
0.451148 0.124697 0.202884
0.658717 0.075685 0.226596
0.855619 0.144717 0.267979
0.159762 0.151369 0.163119
0.161135 0.151736 0.163577
0.169680 0.151156 0.166720
0.202976 0.153292 0.173342
0.284428 0.153384 0.183810
0.423926 0.142489 0.197971
0.626551 0.112825 0.218540
0.836240 0.160647 0.257908
0.159213 0.156588 0.164614
0.161807 0.157778 0.165774
0.170474 0.159792 0.168551
0.202426 0.165896 0.173281
0.274418 0.173922 0.182559
0.403418 0.178714 0.194247
0.599969 0.183505 0.212070
0.813840 0.233066 0.246708
0.165286 0.177859 0.167086
0.171359 0.179843 0.169986
0.189578 0.181460 0.175174
0.187320 0.176913 0.185428
0.250980 0.193362 0.182620
0.366796 0.216678 0.187961
0.559625 0.251011 0.202518
0.780941 0.315160 0.230961
0.189242 0.219425 0.177707
0.197391 0.221256 0.181521
0.216678 0.221195 0.183993
0.232456 0.213931 0.190372
0.216648 0.203281 0.208682
0.301549 0.228641 0.208957
0.481392 0.289006 0.188449
0.718837 0.376410 0.206485
0.229740 0.288151 0.192020
0.236698 0.288640 0.192935
0.257298 0.286839 0.194217
0.291173 0.284916 0.195407
0.287663 0.258946 0.214176
0.266911 0.248631 0.247135
0.394446 0.302068 0.265537
0.650446 0.410163 0.241550
0.304601 0.422156 0.209476
0.310887 0.418830 0.209354
0.332738 0.410712 0.208682
0.374182 0.406256 0.209476
0.413672 0.391485 0.217136
0.391211 0.347631 0.260868
0.358648 0.333989 0.317418
0.511009 0.417517 0.366369
0.431128 0.611994 0.242741
0.436652 0.607446 0.240696
0.465583 0.603143 0.240665
0.531701 0.616114 0.249729
0.596216 0.610254 0.252476
0.612024 0.572259 0.293248
0.575921 0.516381 0.370092
0.517357 0.488380 0.449165
0.164614 0.155489 0.176730
0.166598 0.156008 0.177737
0.172366 0.156313 0.178561
0.198917 0.153292 0.191196
0.289220 0.145785 0.219303
0.442023 0.118837 0.249424
0.655787 0.000000 0.289158
0.863462 0.134401 0.348669
0.168673 0.160525 0.180758
0.170047 0.160433 0.180972
0.174807 0.159731 0.180789
0.201205 0.156741 0.192813
0.289433 0.152773 0.218570
0.434089 0.134340 0.244724
0.644099 0.082734 0.281315
0.852964 0.152865 0.339117
0.170932 0.167086 0.182620
0.174258 0.168734 0.183810
0.179873 0.169650 0.185000
0.207950 0.169345 0.196597
0.293675 0.177005 0.217746
0.455299 0.179660 0.246494
0.671687 0.195132 0.291508
0.858396 0.254093 0.341924
0.167300 0.180575 0.185763
0.170443 0.181979 0.186954
0.181613 0.186801 0.190829
0.205417 0.191684 0.198581
0.273350 0.207004 0.207675
0.397589 0.226963 0.226749
0.597131 0.258824 0.257633
0.816587 0.326696 0.309575
0.175326 0.225376 0.192233
0.179690 0.226139 0.192050
0.202029 0.231754 0.198550
0.246372 0.236515 0.210239
0.234409 0.226444 0.233158
0.345556 0.256382 0.225437
0.533654 0.314031 0.232853
0.761135 0.395483 0.272526
0.200870 0.301884 0.198215
0.214237 0.312566 0.205234
0.251560 0.315099 0.221347
0.297063 0.313756 0.226017
0.316045 0.292943 0.240940
0.288426 0.276493 0.276158
0.440253 0.333318 0.284733
0.688624 0.440497 0.254002
0.266545 0.429847 0.221927
0.280491 0.434119 0.228244
0.324041 0.441901 0.245365
0.376776 0.441566 0.246860
0.441627 0.436255 0.248478
0.421363 0.384070 0.291417
0.379004 0.361730 0.346838
0.551720 0.445747 0.383948
0.400275 0.633356 0.277714
0.415717 0.636072 0.285924
0.454017 0.634882 0.293889
0.509728 0.630762 0.290898
0.580987 0.622889 0.292058
0.626703 0.596735 0.315373
0.591089 0.538018 0.393652
0.534447 0.511955 0.475837
0.179660 0.170871 0.213352
0.182254 0.171328 0.214450
0.189731 0.170932 0.213993
0.204685 0.168826 0.217075
0.274846 0.159060 0.255833
0.438331 0.117159 0.316777
0.648280 0.000000 0.382666
0.860624 0.135439 0.461402
0.184482 0.177401 0.218143
0.187137 0.177920 0.219669
0.193637 0.176669 0.218479
0.207797 0.173709 0.220218
0.275944 0.164309 0.256199
0.438422 0.131624 0.315526
0.648920 0.078035 0.381292
0.859983 0.169741 0.459205
0.193851 0.193301 0.226230
0.196841 0.194430 0.227390
0.203067 0.193118 0.227054
0.213565 0.188388 0.224735
0.277256 0.181613 0.255100
0.423102 0.172885 0.301579
0.636133 0.170169 0.366308
0.849424 0.240330 0.442603
0.190951 0.206088 0.228580
0.195285 0.207584 0.229648
0.211521 0.214694 0.235050
0.224674 0.214084 0.234348
0.287724 0.214359 0.257939
0.428565 0.235019 0.297429
0.642725 0.270848 0.357397
0.849607 0.338354 0.427008
0.178439 0.224949 0.224369
0.182284 0.227085 0.226047
0.195773 0.232273 0.230045
0.223392 0.242100 0.235752
0.261631 0.245609 0.247959
0.379431 0.276463 0.263706
0.572808 0.325719 0.305974
0.796719 0.400000 0.368231
0.182223 0.285710 0.230411
0.187137 0.287755 0.230716
0.204471 0.292393 0.230014
0.250278 0.304082 0.242771
0.313298 0.304051 0.254246
0.299779 0.297734 0.300389
0.485847 0.360296 0.295903
0.728939 0.460822 0.310918
0.199222 0.420966 0.236912
0.205661 0.421363 0.235416
0.244175 0.426703 0.245518
0.325841 0.440711 0.281437
0.404761 0.441566 0.286870
0.432685 0.407691 0.314336
0.387457 0.380224 0.369696
0.586786 0.461860 0.385748
0.282536 0.609796 0.267887
0.298192 0.609796 0.273533
0.351232 0.612177 0.294469
0.455146 0.638544 0.346532
0.534936 0.630884 0.337469
0.627863 0.620935 0.338903
0.597742 0.554284 0.411322
0.536767 0.522637 0.491829
0.214359 0.209140 0.306310
0.218082 0.209049 0.306188
0.227787 0.206088 0.300267
0.250217 0.205203 0.302708
0.288457 0.192813 0.313756
0.411749 0.159823 0.377142
0.647791 0.000000 0.488869
0.858427 0.138796 0.577142
0.216464 0.213748 0.301732
0.219211 0.213046 0.300694
0.229282 0.211154 0.298711
0.247959 0.208072 0.297124
0.282902 0.196262 0.306462
0.404242 0.168154 0.369757
0.640955 0.068940 0.481483
0.853574 0.163638 0.571649
0.238285 0.248844 0.329198
0.240177 0.246799 0.326635
0.248081 0.241764 0.321447
0.262882 0.233799 0.313939
0.291051 0.218357 0.313970
0.412543 0.197726 0.374762
0.644160 0.169680 0.479957
0.854948 0.251865 0.569268
0.253849 0.286809 0.344366
0.259983 0.288243 0.343816
0.271824 0.287846 0.342657
0.289616 0.283879 0.342168
0.311467 0.264714 0.334600
0.441047 0.255863 0.395392
0.662959 0.282353 0.488777
0.865537 0.369024 0.572747
0.220554 0.286076 0.316381
0.226871 0.288487 0.318547
0.248936 0.296452 0.325048
0.288060 0.311223 0.336065
0.304997 0.297917 0.323888
0.422980 0.304601 0.370062
0.636286 0.365667 0.452125
0.853117 0.459510 0.545495
0.189670 0.303075 0.291722
0.194980 0.308080 0.295811
0.211734 0.314702 0.300786
0.241032 0.323613 0.306859
0.288945 0.335149 0.311101
0.360876 0.345373 0.337835
0.567834 0.417426 0.381048
0.801999 0.505852 0.464485
0.180453 0.425055 0.324010
0.188418 0.430549 0.326177
0.214725 0.438148 0.326055
0.260990 0.453132 0.325841
0.349218 0.471962 0.343023
0.468269 0.469978 0.361486
0.424567 0.434150 0.426947
0.670497 0.515496 0.411566
0.201602 0.605585 0.347753
0.210819 0.605798 0.345464
0.242283 0.610040 0.338903
0.302586 0.627436 0.334295
0.449928 0.640681 0.394079
0.574792 0.637903 0.404120
0.620691 0.592981 0.445624
0.554162 0.551965 0.527520
0.275059 0.279057 0.454231
0.282536 0.281407 0.458564
0.298070 0.278477 0.455238
0.324559 0.272526 0.450446
0.353521 0.257877 0.435218
0.421424 0.223270 0.457862
0.581933 0.166873 0.536339
0.820676 0.136324 0.657038
0.274632 0.282139 0.444221
0.280888 0.283726 0.447578
0.295109 0.280491 0.444648
0.317144 0.272129 0.436408
0.343267 0.256992 0.420752
0.404913 0.224033 0.439307
0.559716 0.172091 0.514916
0.801266 0.127138 0.638209
0.303746 0.329259 0.474861
0.306798 0.327245 0.472999
0.316258 0.319066 0.464698
0.334356 0.306676 0.453376
0.354742 0.285069 0.432258
0.411841 0.252781 0.446021
0.575586 0.217655 0.528435
0.820768 0.223484 0.652491
0.339086 0.394202 0.505303
0.340978 0.390845 0.501366
0.350256 0.383459 0.494362
0.364538 0.368261 0.483009
0.380041 0.340276 0.459663
0.429206 0.307256 0.464332
0.599573 0.290623 0.548608
0.836881 0.326238 0.660914
0.315435 0.408118 0.483436
0.322301 0.408637 0.482429
0.350622 0.418219 0.487098
0.383551 0.425299 0.491859
0.392615 0.395819 0.470893
0.416663 0.354040 0.451392
0.589349 0.352087 0.534447
0.834073 0.432197 0.651637
0.256077 0.413275 0.446906
0.263890 0.415442 0.448829
0.290745 0.422980 0.455665
0.338476 0.438544 0.470008
0.405554 0.460029 0.487739
0.433906 0.437385 0.469642
0.606012 0.452827 0.540185
0.837186 0.558404 0.648005
0.192569 0.443458 0.414191
0.199619 0.447425 0.417548
0.222751 0.453864 0.422583
0.261692 0.464576 0.431037
0.313695 0.471656 0.435462
0.391302 0.483192 0.438880
0.502129 0.492805 0.473304
0.764492 0.587274 0.540948
0.136538 0.582177 0.453315
0.148836 0.584314 0.453681
0.189334 0.598962 0.460182
0.250858 0.615015 0.462684
0.334142 0.634302 0.461128
0.458320 0.658595 0.469520
0.638666 0.655360 0.504387
0.586694 0.601678 0.585199
0.390906 0.404273 0.640162
0.397620 0.405310 0.641901
0.409400 0.396979 0.634485
0.436561 0.388830 0.630060
0.469398 0.371801 0.619165
0.507378 0.343023 0.604181
0.606714 0.286046 0.644556
0.764889 0.237125 0.711116
0.390539 0.409003 0.635096
0.396918 0.409918 0.636805
0.409308 0.402686 0.631189
0.433112 0.391852 0.624048
0.464820 0.374212 0.613031
0.500511 0.345190 0.596338
0.596735 0.287999 0.634516
0.756985 0.240574 0.703426
0.408606 0.445289 0.643977
0.412665 0.444282 0.643702
0.419562 0.432288 0.634028
0.448798 0.428626 0.636011
0.474281 0.405585 0.620966
0.501518 0.370123 0.596460
0.594049 0.317113 0.632349
0.758877 0.281865 0.704829
0.444068 0.510094 0.667292
0.449744 0.511254 0.668849
0.454994 0.499763 0.660883
0.472236 0.486488 0.654017
0.494575 0.462348 0.640223
0.519615 0.424018 0.616449
0.601984 0.374487 0.642237
0.771939 0.354559 0.716854
0.464729 0.562860 0.672175
0.471748 0.565942 0.675563
0.483314 0.563806 0.675685
0.503593 0.559655 0.678218
0.514458 0.529290 0.659419
0.532586 0.486610 0.633265
0.600885 0.441382 0.645106
0.787869 0.447028 0.731899
0.401282 0.568719 0.649317
0.408179 0.569055 0.649195
0.435676 0.574640 0.653071
0.489723 0.593317 0.667567
0.552514 0.615412 0.685847
0.574640 0.590082 0.677119
0.620600 0.548089 0.669551
0.801114 0.550408 0.744594
0.321660 0.602075 0.631189
0.329473 0.602716 0.631952
0.358129 0.606775 0.636683
0.413184 0.620020 0.651118
0.494911 0.642847 0.674922
0.600977 0.677241 0.706294
0.631678 0.645411 0.682734
0.792416 0.637598 0.732113
0.187015 0.635004 0.588739
0.195651 0.634882 0.588586
0.226078 0.637964 0.591333
0.278416 0.646998 0.599664
0.347509 0.657038 0.609064
0.430304 0.664820 0.616327
0.522271 0.663264 0.612329
0.673152 0.671931 0.649317
