其他预设/【235】城市莫兰迪灰/1.LUT预设（视频调色-PR-AE-PS-FCPX-达芬奇用）/城市莫兰迪灰__-5 加亮.cube
# Created by Adobe Lightroom plugin Export LUT (1.17.0)
# www.johnrellis.com/lightroom/exportlut.htm
# Preset: 城市莫兰迪灰[素锦印象]-5 加亮
# Color profile: /Library/Application Support/Adobe/Color/Profiles/Recommended/AdobeRGB1998.icc
LUT_3D_SIZE 5
DOMAIN_MIN 0.000000 0.000000 0.000000
DOMAIN_MAX 0.903226 0.903226 0.903226
0.152193 0.143008 0.152102
0.207309 0.150942 0.162387
0.507683 0.162325 0.198093
0.897520 0.376776 0.360601
1.000000 0.636957 0.623163
0.182986 0.187808 0.164858
0.187289 0.173861 0.180606
0.544488 0.261723 0.182040
0.890929 0.425605 0.327855
1.000000 0.658473 0.622400
0.376684 0.474647 0.221256
0.441505 0.454810 0.227939
0.419562 0.398962 0.376684
0.884337 0.584894 0.326207
1.000000 0.681941 0.544793
0.662440 0.796139 0.420905
0.711604 0.791592 0.433448
0.788937 0.751186 0.491493
0.699031 0.684688 0.648310
0.968780 0.790982 0.689540
0.839597 0.945220 0.693965
0.858824 0.941405 0.696132
0.912902 0.924437 0.690944
0.930205 0.890501 0.764096
0.888792 0.877653 0.856626
0.162783 0.153567 0.185489
0.226169 0.149996 0.205692
0.495338 0.218814 0.276646
0.844572 0.401617 0.424475
1.000000 0.651179 0.652522
0.170565 0.196994 0.194919
0.221256 0.208652 0.215122
0.532372 0.285100 0.265629
0.850309 0.441535 0.403235
1.000000 0.660060 0.641108
0.343023 0.482887 0.272984
0.431434 0.471534 0.290379
0.416022 0.409400 0.395636
0.868772 0.586999 0.351781
1.000000 0.699214 0.598474
0.649073 0.801511 0.479011
0.701137 0.797208 0.493507
0.791257 0.763394 0.534020
0.707179 0.700343 0.669490
0.970397 0.797696 0.699916
0.833616 0.946288 0.717220
0.852323 0.942535 0.718654
0.912688 0.932403 0.731106
0.934112 0.899565 0.784237
0.895140 0.886290 0.867613
0.225528 0.230076 0.479622
0.311376 0.206821 0.473152
0.674495 0.170260 0.573083
0.889525 0.508537 0.634943
0.977050 0.756039 0.784695
0.324987 0.390295 0.506767
0.358190 0.349920 0.489754
0.677485 0.358709 0.566979
0.854826 0.571405 0.630640
0.976501 0.764034 0.782101
0.239933 0.517327 0.446693
0.344335 0.533867 0.452857
0.554681 0.556329 0.537499
0.856687 0.652033 0.593256
0.986450 0.767544 0.744991
0.515221 0.813016 0.522942
0.618708 0.807248 0.581659
0.781338 0.797208 0.640314
0.743191 0.753323 0.735012
0.981170 0.815793 0.723384
0.794491 0.948089 0.749477
0.830350 0.946258 0.778164
0.886229 0.938811 0.782895
0.935424 0.912596 0.808194
0.897520 0.893553 0.878630
0.530266 0.540551 0.858946
0.572595 0.518212 0.855100
0.708492 0.408606 0.834501
0.940551 0.556146 0.842130
0.998322 0.784787 0.867033
0.629603 0.679866 0.860472
0.639338 0.650965 0.854093
0.709102 0.520104 0.823117
0.930694 0.627680 0.837949
0.991516 0.801266 0.867735
0.667475 0.783444 0.838468
0.717372 0.795438 0.841245
0.735470 0.739254 0.808469
0.895262 0.749783 0.818082
0.972076 0.847349 0.872618
0.486580 0.828428 0.744686
0.534722 0.822446 0.740414
0.694667 0.826993 0.749996
0.819028 0.822477 0.807309
0.970611 0.860685 0.837827
0.700740 0.954711 0.772152
0.731960 0.953460 0.781399
0.833555 0.948974 0.830442
0.926818 0.938781 0.860227
0.911528 0.914336 0.905486
0.800320 0.816068 0.969543
0.803616 0.805631 0.969055
0.823331 0.760830 0.967315
0.906096 0.691341 0.962799
0.997253 0.780606 0.937835
0.835721 0.857908 0.966918
0.835050 0.847868 0.966369
0.841581 0.805570 0.964263
0.904112 0.726864 0.958495
0.993988 0.805081 0.939300
0.894652 0.923217 0.965270
0.897307 0.921599 0.965057
0.890867 0.898314 0.961334
0.902251 0.817685 0.951354
0.986938 0.872953 0.947692
0.853239 0.930785 0.953277
0.869108 0.933379 0.954162
0.915312 0.944945 0.959930
0.931121 0.933989 0.957885
0.979126 0.929503 0.954803
0.711421 0.961364 0.906554
0.729274 0.959472 0.906645
0.789181 0.954955 0.909728
0.869474 0.947753 0.913054
0.944671 0.946746 0.941924
