其他预设/【235】城市莫兰迪灰/1.LUT预设（视频调色-PR-AE-PS-FCPX-达芬奇用）/城市莫兰迪灰__-3 暗调.cube
# Created by Adobe Lightroom plugin Export LUT (1.17.0)
# www.johnrellis.com/lightroom/exportlut.htm
# Preset: 城市莫兰迪灰[素锦印象]-3 暗调
# Color profile: /Library/Application Support/Adobe/Color/Profiles/Recommended/AdobeRGB1998.icc
LUT_3D_SIZE 32
0.152193 0.143008 0.152102
0.152193 0.143008 0.152102
0.152193 0.143008 0.152102
0.154086 0.142977 0.152468
0.157107 0.143099 0.152987
0.160067 0.143221 0.153475
0.163210 0.143801 0.154055
0.166751 0.144442 0.154788
0.171450 0.144991 0.155459
0.177371 0.145449 0.156100
0.184787 0.145846 0.156863
0.194125 0.146395 0.157504
0.205753 0.146578 0.158206
0.219883 0.146731 0.159213
0.236515 0.146670 0.160189
0.255741 0.146212 0.161318
0.278111 0.145083 0.162539
0.317174 0.142184 0.164279
0.362982 0.137240 0.166018
0.412757 0.130373 0.168002
0.465827 0.121004 0.170016
0.520226 0.110018 0.172274
0.572778 0.099306 0.174716
0.623133 0.091402 0.177584
0.671565 0.088197 0.180880
0.718837 0.092317 0.184970
0.766171 0.105898 0.190585
0.813657 0.127535 0.198306
0.860990 0.156344 0.209079
0.907073 0.190768 0.224094
0.950408 0.229801 0.244572
0.989166 0.271733 0.271183
0.152193 0.143008 0.152102
0.152193 0.143008 0.152102
0.152193 0.143008 0.152102
0.154086 0.142977 0.152468
0.157107 0.143099 0.152987
0.159854 0.143618 0.153445
0.162875 0.144045 0.154055
0.166445 0.144503 0.154635
0.170840 0.145144 0.155337
0.176455 0.145815 0.155978
0.183597 0.146273 0.156710
0.192630 0.146578 0.157382
0.203586 0.147127 0.158083
0.217166 0.147280 0.159121
0.232944 0.147219 0.160159
0.251438 0.146914 0.161196
0.272770 0.145968 0.162325
0.309422 0.143771 0.163943
0.351293 0.139712 0.165713
0.397711 0.133883 0.167483
0.448066 0.125917 0.169314
0.500725 0.116060 0.171450
0.552575 0.105867 0.173587
0.603143 0.096956 0.176272
0.652064 0.091829 0.179202
0.700649 0.093477 0.182864
0.749783 0.103212 0.187961
0.799069 0.122896 0.195071
0.848234 0.150179 0.205173
0.896239 0.183993 0.219455
0.941436 0.222507 0.238895
0.982025 0.264347 0.264561
0.152193 0.143008 0.152102
0.152193 0.143008 0.152102
0.152346 0.143130 0.152224
0.154025 0.143343 0.152468
0.156863 0.143679 0.152956
0.159609 0.144167 0.153414
0.162661 0.144411 0.154025
0.166079 0.144930 0.154635
0.170321 0.145571 0.155306
0.175662 0.146151 0.155978
0.182742 0.146639 0.156558
0.191226 0.147219 0.157259
0.202029 0.147494 0.158114
0.215244 0.147768 0.159030
0.230625 0.147860 0.160067
0.248508 0.147677 0.161135
0.269322 0.147005 0.162142
0.304936 0.145083 0.163821
0.344549 0.141787 0.165469
0.389105 0.136629 0.167147
0.438209 0.129641 0.169009
0.490120 0.120699 0.170932
0.541588 0.111360 0.173098
0.592126 0.102785 0.175418
0.641199 0.097475 0.178256
0.690333 0.097505 0.181827
0.740261 0.105898 0.186648
0.790555 0.123812 0.193393
0.840909 0.149874 0.203128
0.889952 0.182620 0.216800
0.936156 0.220432 0.235813
0.977722 0.261814 0.260868
0.152987 0.144381 0.152560
0.152987 0.144381 0.152560
0.153323 0.144503 0.152529
0.153445 0.144106 0.153140
0.156527 0.144747 0.153017
0.159518 0.145022 0.153353
0.162203 0.145357 0.153964
0.165652 0.145846 0.154421
0.169772 0.146365 0.155123
0.174838 0.146975 0.155795
0.181460 0.147555 0.156527
0.189792 0.148043 0.157076
0.200137 0.148623 0.157961
0.212619 0.149111 0.159030
0.227573 0.149233 0.159976
0.244816 0.149142 0.160922
0.266453 0.148806 0.162142
0.299351 0.147463 0.163699
0.335393 0.145022 0.165133
0.376165 0.141360 0.166690
0.421820 0.135866 0.168399
0.471321 0.128908 0.170108
0.522850 0.120729 0.172122
0.575402 0.112947 0.174563
0.628107 0.107576 0.177340
0.681147 0.107759 0.180911
0.734340 0.115908 0.185733
0.786679 0.133181 0.192569
0.837888 0.158114 0.202152
0.886992 0.188998 0.215610
0.932769 0.224826 0.234012
0.973999 0.263890 0.257939
0.154025 0.146365 0.153109
0.154025 0.146365 0.153109
0.154726 0.146426 0.153079
0.155764 0.146059 0.153384
0.154971 0.145296 0.154330
0.157778 0.146151 0.154482
0.161746 0.146609 0.153750
0.164706 0.147036 0.154360
0.168582 0.147433 0.154940
0.173526 0.148074 0.155612
0.179629 0.148623 0.156222
0.187442 0.149386 0.157076
0.197238 0.150088 0.157961
0.209201 0.150607 0.158877
0.223484 0.151125 0.159854
0.240543 0.151369 0.160800
0.264225 0.151308 0.162051
0.295048 0.150881 0.163546
0.329473 0.149142 0.164950
0.368261 0.146639 0.166476
0.411780 0.142580 0.168093
0.459419 0.137179 0.169741
0.509819 0.131044 0.171542
0.562371 0.124910 0.173739
0.615778 0.121126 0.176394
0.669856 0.121675 0.179782
0.724086 0.129335 0.184268
0.777340 0.144656 0.190799
0.829282 0.167422 0.199863
0.879179 0.196292 0.212589
0.926085 0.230137 0.230259
0.968505 0.267582 0.253758
0.155215 0.148287 0.153658
0.155520 0.148409 0.153780
0.156069 0.148318 0.153780
0.157290 0.148074 0.153902
0.157595 0.147341 0.154513
0.156588 0.146822 0.155734
0.158999 0.147524 0.156039
0.163241 0.148104 0.155337
0.167758 0.148898 0.154849
0.172427 0.149447 0.155520
0.178286 0.150210 0.156161
0.185855 0.151034 0.156985
0.195193 0.151858 0.157870
0.206668 0.152682 0.158816
0.220554 0.153323 0.159792
0.237064 0.153933 0.160739
0.262455 0.154726 0.162142
0.291661 0.154788 0.163546
0.324956 0.154055 0.164981
0.363256 0.152621 0.166384
0.406744 0.149966 0.167971
0.455055 0.146181 0.169528
0.617212 0.147372 0.177279
0.669001 0.151553 0.180880
0.717678 0.159579 0.185245
0.763790 0.171481 0.190951
0.807767 0.187564 0.198062
0.850462 0.207370 0.207645
0.891752 0.231235 0.220340
0.931273 0.258610 0.236942
0.967468 0.288823 0.257786
0.999237 0.320562 0.283207
0.157076 0.150851 0.154696
0.157595 0.150759 0.154696
0.158114 0.150668 0.154696
0.159152 0.150484 0.154818
0.160494 0.150088 0.155093
0.159640 0.148898 0.156069
0.158602 0.148531 0.157259
0.160891 0.149416 0.157992
0.166018 0.150271 0.157229
0.172427 0.151492 0.156649
0.179507 0.152834 0.156619
0.187533 0.153841 0.157412
0.197269 0.155001 0.158419
0.209323 0.155947 0.159182
0.223453 0.156954 0.160067
0.244450 0.158358 0.161318
0.271061 0.159670 0.162722
0.301701 0.160403 0.164065
0.337469 0.160616 0.165591
0.380407 0.160311 0.166995
0.432044 0.159243 0.168826
0.492012 0.157870 0.170932
0.556756 0.158053 0.173587
0.621698 0.161776 0.176974
0.683314 0.170474 0.181308
0.738003 0.182834 0.186709
0.787259 0.198398 0.193576
0.832975 0.217166 0.202426
0.876768 0.239536 0.214206
0.917876 0.264897 0.229618
0.956054 0.293187 0.249363
0.989929 0.323430 0.273777
0.159030 0.152895 0.155337
0.159365 0.152834 0.155489
0.159884 0.152743 0.155489
0.160891 0.152712 0.155612
0.162387 0.152438 0.155734
0.162417 0.151461 0.156374
0.161501 0.150454 0.157595
0.160433 0.150118 0.158938
0.162417 0.151339 0.159884
0.168429 0.152346 0.159091
0.175784 0.153658 0.158511
0.184909 0.155612 0.157656
0.194247 0.157046 0.158358
0.205356 0.158389 0.159243
0.221164 0.160220 0.160189
0.241337 0.162203 0.161410
0.264775 0.164096 0.162661
0.292393 0.165621 0.163851
0.325109 0.166842 0.165164
0.365087 0.167819 0.166659
0.413489 0.168795 0.168215
0.470375 0.169741 0.170047
0.532891 0.171603 0.172244
0.596765 0.176333 0.175143
0.658473 0.184817 0.178744
0.714687 0.196567 0.183322
0.765957 0.211124 0.189395
0.813993 0.228611 0.197269
0.860136 0.249760 0.208164
0.903593 0.273655 0.222507
0.944121 0.300725 0.241398
0.980316 0.329442 0.265080
0.161135 0.155459 0.156497
0.161318 0.155428 0.156497
0.161807 0.155337 0.156649
0.162814 0.155337 0.156619
0.164096 0.155245 0.156741
0.165621 0.154665 0.157015
0.164797 0.153353 0.157992
0.163729 0.152407 0.159213
0.162478 0.152071 0.160647
0.164462 0.153567 0.162142
0.171298 0.154696 0.161440
0.179843 0.156374 0.160525
0.190341 0.158572 0.159731
0.204196 0.161807 0.159304
0.219821 0.164096 0.160342
0.238010 0.166384 0.161471
0.259525 0.168734 0.162509
0.284916 0.170962 0.163668
0.315587 0.173007 0.164920
0.353307 0.175448 0.166262
0.399268 0.178042 0.167727
0.453742 0.181094 0.169345
0.514183 0.185122 0.171298
0.576837 0.191165 0.173709
0.638148 0.200351 0.176791
0.695186 0.212100 0.180789
0.747890 0.226505 0.186069
0.797452 0.243198 0.193118
0.845090 0.263279 0.203037
0.890166 0.285863 0.216342
0.932311 0.311284 0.234165
0.970367 0.338384 0.256748
0.163455 0.158694 0.157595
0.163607 0.158694 0.157595
0.164096 0.158602 0.157717
0.164950 0.158450 0.157717
0.166384 0.158328 0.157839
0.168185 0.158022 0.157931
0.168521 0.156863 0.158602
0.167575 0.155459 0.159701
0.166323 0.154543 0.161044
0.165072 0.154238 0.162753
0.166690 0.156039 0.164736
0.174899 0.157504 0.163973
0.185946 0.159945 0.163333
0.199619 0.163119 0.162356
0.216190 0.167178 0.161318
0.234379 0.170687 0.161532
0.255253 0.173617 0.162539
0.280156 0.176699 0.163668
0.309850 0.179965 0.164767
0.345892 0.183536 0.166018
0.388861 0.187503 0.167361
0.438605 0.191836 0.168734
0.493843 0.197116 0.170352
0.552056 0.203891 0.172274
0.610803 0.212894 0.174624
0.667994 0.224491 0.177707
0.723171 0.238926 0.182040
0.776211 0.256168 0.188296
0.827573 0.276493 0.197574
0.876249 0.299565 0.210422
0.921630 0.325017 0.227939
0.962524 0.351934 0.250767
0.165835 0.162142 0.158663
0.166140 0.162081 0.158785
0.166476 0.162051 0.158785
0.167453 0.162020 0.158755
0.168887 0.161776 0.158877
0.170779 0.161746 0.158968
0.172946 0.161501 0.159060
0.172061 0.159670 0.160342
0.170932 0.158145 0.161593
0.169650 0.157107 0.163363
0.168582 0.157382 0.165499
0.170413 0.159945 0.168795
0.180484 0.161715 0.167880
0.193210 0.164401 0.166751
0.208682 0.167849 0.165438
0.226932 0.172213 0.164004
0.248295 0.177676 0.162356
0.271305 0.181399 0.163394
0.299138 0.185275 0.164462
0.332891 0.189944 0.165682
0.373602 0.195315 0.166903
0.421363 0.201236 0.168154
0.475227 0.208347 0.169497
0.532708 0.216678 0.171054
0.591028 0.226902 0.173007
0.648005 0.239170 0.175631
0.703609 0.253758 0.179110
0.757473 0.270787 0.184451
0.809873 0.290562 0.192477
0.860227 0.312932 0.204105
0.907713 0.337530 0.220432
0.950896 0.363592 0.242161
0.168948 0.166537 0.159854
0.169253 0.166629 0.159854
0.169558 0.166567 0.159976
0.170535 0.166384 0.159976
0.171908 0.166293 0.160067
0.173770 0.166110 0.160189
0.176211 0.165988 0.160250
0.177584 0.164981 0.160861
0.177035 0.163577 0.162478
0.176272 0.162325 0.164492
0.175051 0.161593 0.166720
0.173465 0.161624 0.169375
0.180728 0.170565 0.179355
0.196841 0.173434 0.177707
0.216464 0.177340 0.175540
0.239292 0.182467 0.173159
0.265446 0.188846 0.170352
0.295415 0.196902 0.167117
0.328557 0.204807 0.165652
0.366217 0.211551 0.166629
0.409705 0.219150 0.167666
0.458503 0.227573 0.168856
0.510735 0.237003 0.170138
0.565484 0.247990 0.171664
0.620508 0.260716 0.173678
0.674586 0.275090 0.176608
0.726619 0.290715 0.180728
0.776547 0.307836 0.186648
0.824857 0.326635 0.195254
0.871641 0.347387 0.207706
0.915648 0.369421 0.224552
0.956268 0.392676 0.246677
0.173983 0.174258 0.161654
0.174289 0.174197 0.161654
0.174777 0.173983 0.161654
0.175723 0.173831 0.161654
0.177493 0.173922 0.161715
0.179782 0.174075 0.161929
0.182925 0.174197 0.162234
0.186801 0.174441 0.162478
0.186954 0.172763 0.163973
0.186374 0.170840 0.166293
0.185672 0.169497 0.169039
0.184695 0.168978 0.172457
0.182986 0.169711 0.176547
0.183932 0.174868 0.184054
0.201938 0.178439 0.182559
0.223239 0.182925 0.180331
0.247745 0.188296 0.177646
0.275395 0.195041 0.174533
0.307347 0.203647 0.170993
0.344182 0.214633 0.166659
0.384894 0.223758 0.166873
0.431037 0.233310 0.167849
0.481147 0.243626 0.168765
0.534569 0.255222 0.169924
0.589075 0.268345 0.171420
0.643427 0.283024 0.173373
0.697078 0.299290 0.176364
0.749233 0.316930 0.181094
0.800290 0.336339 0.188205
0.850126 0.357641 0.199191
0.897429 0.380072 0.214603
0.941527 0.403693 0.235843
0.179843 0.183474 0.163485
0.180270 0.183536 0.163485
0.180880 0.183444 0.163485
0.181949 0.183139 0.163455
0.183566 0.182864 0.163577
0.185855 0.182589 0.163668
0.188937 0.182315 0.163729
0.192721 0.182437 0.164004
0.196048 0.181827 0.164614
0.195377 0.179263 0.166873
0.194522 0.177096 0.169833
0.193606 0.175692 0.173159
0.192203 0.174990 0.177096
0.189761 0.175540 0.181704
0.190066 0.180850 0.189731
0.208133 0.184634 0.188388
0.230442 0.188998 0.185702
0.256016 0.194461 0.182559
0.285740 0.201694 0.179202
0.320378 0.211307 0.175296
0.360662 0.223697 0.170718
0.405737 0.237675 0.166934
0.454078 0.249180 0.167727
0.506554 0.261997 0.168460
0.560967 0.276097 0.169467
0.615961 0.291508 0.170809
0.670863 0.308843 0.173007
0.725093 0.327459 0.176486
0.778408 0.347784 0.182528
0.830808 0.369940 0.192050
0.881010 0.393103 0.206455
0.928099 0.417060 0.226749
0.186618 0.194034 0.165347
0.187015 0.194095 0.165347
0.187472 0.193759 0.165347
0.188510 0.193362 0.165377
0.190127 0.192752 0.165377
0.192294 0.192020 0.165377
0.195285 0.191653 0.165469
0.199222 0.191470 0.165621
0.204013 0.191562 0.165988
0.205692 0.189517 0.167575
0.204990 0.186831 0.170443
0.204135 0.184512 0.173831
0.202792 0.182834 0.177859
0.200473 0.181827 0.182437
0.197238 0.181979 0.187289
0.196597 0.187106 0.195743
0.214542 0.191348 0.194888
0.238224 0.195682 0.191714
0.265721 0.201694 0.188388
0.298100 0.209751 0.184756
0.335912 0.220554 0.180575
0.379156 0.234257 0.175479
0.426825 0.250980 0.169223
0.478126 0.266575 0.167239
0.532403 0.281804 0.167788
0.588617 0.298772 0.168551
0.646296 0.318090 0.170077
0.704768 0.339727 0.172946
0.762692 0.363104 0.178225
0.819394 0.387915 0.187472
0.873503 0.413336 0.202304
0.923705 0.438636 0.223758
0.193851 0.205722 0.167239
0.194491 0.205844 0.167361
0.195041 0.205753 0.167330
0.196292 0.205447 0.167330
0.198062 0.204929 0.167330
0.200717 0.204501 0.167422
0.204166 0.204288 0.167605
0.208621 0.204196 0.167849
0.213993 0.204379 0.168154
0.220005 0.204440 0.168582
0.218875 0.200473 0.171481
0.217350 0.196719 0.174899
0.215335 0.193301 0.178744
0.212375 0.190585 0.183017
0.208804 0.188663 0.187686
0.204288 0.188083 0.192599
0.203067 0.193088 0.201205
0.220493 0.198154 0.201663
0.246525 0.203281 0.198520
0.277562 0.210483 0.195254
0.314275 0.220188 0.191653
0.356970 0.232944 0.187228
0.404425 0.248722 0.181674
0.456672 0.267918 0.174563
0.512230 0.290318 0.166415
0.569726 0.309239 0.166873
0.628779 0.330480 0.167788
0.688991 0.353979 0.169772
0.748501 0.378851 0.174258
0.806210 0.404364 0.182559
0.861112 0.429694 0.196109
0.912200 0.454566 0.216220
0.201266 0.217716 0.169100
0.201785 0.217655 0.169100
0.202182 0.217472 0.169100
0.203525 0.217075 0.169100
0.205509 0.216556 0.169100
0.208164 0.216129 0.169192
0.211826 0.215854 0.169345
0.216220 0.215671 0.169619
0.221744 0.215763 0.169802
0.228244 0.216098 0.170291
0.231937 0.214145 0.171756
0.230503 0.209903 0.175265
0.228519 0.205661 0.179324
0.225711 0.201694 0.183719
0.222049 0.198215 0.188418
0.217411 0.195743 0.193240
0.212009 0.194919 0.198367
0.210300 0.199924 0.207492
0.227512 0.205966 0.209445
0.255894 0.211948 0.206241
0.289921 0.220188 0.202945
0.330022 0.231083 0.199100
0.375647 0.245029 0.194400
0.426673 0.262516 0.188479
0.482124 0.283787 0.180850
0.541070 0.309667 0.170962
0.601953 0.336095 0.165347
0.664240 0.361547 0.166354
0.726680 0.388678 0.169589
0.787472 0.416327 0.176577
0.845670 0.443610 0.189029
0.899992 0.469978 0.208438
0.210300 0.232456 0.171115
0.211063 0.232822 0.171176
0.224033 0.252445 0.174014
0.225589 0.251987 0.173892
0.227878 0.251041 0.173922
0.230930 0.249790 0.173953
0.234897 0.248478 0.173983
0.239780 0.247440 0.174166
0.246006 0.246708 0.174289
0.253330 0.246433 0.174655
0.261875 0.246281 0.175051
0.261021 0.239994 0.178531
0.257420 0.232853 0.183322
0.253117 0.226108 0.188235
0.248081 0.219760 0.193515
0.242100 0.214511 0.198978
0.235294 0.210819 0.204654
0.228031 0.209018 0.210483
0.225040 0.214237 0.220706
0.242893 0.222049 0.224613
0.276524 0.228855 0.220493
0.316167 0.238651 0.216403
0.361364 0.251438 0.211673
0.411444 0.267155 0.205936
0.464851 0.286107 0.198795
0.521233 0.308934 0.189883
0.579980 0.336065 0.178775
0.641138 0.368566 0.164523
0.703792 0.396948 0.165347
0.766506 0.426154 0.170535
0.827359 0.455085 0.181247
0.884276 0.482582 0.199100
0.223636 0.254673 0.173983
0.225986 0.257481 0.174411
0.228641 0.260319 0.174807
0.231876 0.262760 0.175113
0.235660 0.264103 0.175418
0.239536 0.264103 0.175631
0.243961 0.263371 0.175692
0.248936 0.262364 0.175875
0.255253 0.261753 0.176089
0.262699 0.261295 0.176333
0.271153 0.261173 0.176699
0.277745 0.258732 0.177981
0.274052 0.250797 0.182712
0.269688 0.242741 0.187869
0.264347 0.234989 0.193179
0.258213 0.228000 0.198764
0.251377 0.222171 0.204379
0.244053 0.218235 0.210330
0.236484 0.216434 0.216709
0.233433 0.222019 0.227726
0.250492 0.231662 0.234134
0.287724 0.239933 0.230625
0.331029 0.251286 0.226810
0.379828 0.265690 0.222080
0.433051 0.283024 0.216159
0.490089 0.304204 0.208865
0.550408 0.329839 0.199649
0.613336 0.360967 0.188418
0.679011 0.397681 0.174075
0.744808 0.434577 0.164767
0.808255 0.465522 0.173617
0.868132 0.494850 0.189975
0.233738 0.271550 0.175845
0.236118 0.274540 0.176333
0.238865 0.277592 0.176669
0.242191 0.280034 0.177035
0.246067 0.281559 0.177310
0.250095 0.281682 0.177493
0.254612 0.280949 0.177554
0.259831 0.280003 0.177707
0.266331 0.279393 0.177890
0.273899 0.278935 0.178225
0.282658 0.278874 0.178561
0.292424 0.278752 0.178988
0.293645 0.272374 0.182071
0.289250 0.263340 0.187503
0.283757 0.254215 0.193088
0.277440 0.245579 0.198856
0.270390 0.237919 0.204807
0.262943 0.231754 0.211032
0.255161 0.227695 0.217594
0.247379 0.226139 0.224704
0.244022 0.232151 0.236820
0.260716 0.244022 0.246525
0.301976 0.254063 0.243351
0.349157 0.266850 0.239506
0.401282 0.282567 0.234653
0.457832 0.301762 0.228519
0.518212 0.325231 0.221012
0.582025 0.354101 0.212039
0.648981 0.389136 0.200992
0.717372 0.428962 0.187686
0.784817 0.470436 0.171817
0.848203 0.503868 0.179782
0.245304 0.291295 0.177768
0.247959 0.294560 0.178256
0.250767 0.297734 0.178653
0.254337 0.300389 0.178958
0.258305 0.302068 0.179263
0.262486 0.302190 0.179446
0.267063 0.301427 0.179477
0.272435 0.300420 0.179660
0.278996 0.299504 0.179751
0.286473 0.298924 0.180087
0.295323 0.298497 0.180331
0.304967 0.298070 0.180789
0.314397 0.296513 0.181247
0.310582 0.286778 0.186587
0.305425 0.276890 0.192630
0.299657 0.267430 0.199039
0.293584 0.258915 0.205783
0.287266 0.251774 0.212985
0.280827 0.246525 0.220829
0.274022 0.243687 0.229496
0.266758 0.243565 0.239017
0.264164 0.251652 0.254246
0.281559 0.267948 0.269383
0.331121 0.281163 0.266850
0.386450 0.297459 0.263279
0.446448 0.316991 0.258518
0.510430 0.340795 0.252476
0.577508 0.369970 0.245335
0.646998 0.404944 0.236820
0.716915 0.444190 0.227085
0.785153 0.484688 0.216617
0.850034 0.524437 0.206424
0.267887 0.329320 0.181460
0.269718 0.331029 0.181582
0.271397 0.332372 0.181857
0.273991 0.333135 0.181979
0.277317 0.333288 0.182071
0.281315 0.332616 0.182101
0.286046 0.331701 0.182284
0.292088 0.330877 0.182406
0.299413 0.330419 0.182589
0.308141 0.330449 0.182895
0.318120 0.330663 0.183291
0.328954 0.330663 0.183688
0.340093 0.330053 0.184115
0.345037 0.324041 0.186679
0.339391 0.312505 0.193668
0.333165 0.300999 0.200870
0.326421 0.290166 0.208316
0.319310 0.280461 0.216251
0.312016 0.272465 0.224674
0.304326 0.266392 0.233738
0.295964 0.262669 0.243473
0.287053 0.261845 0.254002
0.282658 0.269596 0.270054
0.296849 0.287602 0.288701
0.350164 0.301518 0.285710
0.409094 0.319188 0.282109
0.473304 0.341100 0.277745
0.541680 0.368170 0.272770
0.612757 0.401282 0.266880
0.685206 0.439368 0.260258
0.756008 0.479744 0.253696
0.823484 0.520226 0.248508
0.284245 0.356695 0.183566
0.286107 0.358648 0.183810
0.288151 0.360357 0.183993
0.290837 0.361395 0.184176
0.294408 0.361486 0.184329
0.298283 0.360571 0.184329
0.303044 0.359258 0.184329
0.308873 0.357946 0.184421
0.316136 0.357000 0.184695
0.324743 0.356603 0.184909
0.334752 0.356512 0.185214
0.345769 0.356390 0.185672
0.357275 0.355840 0.186069
0.369421 0.354864 0.186435
0.368017 0.344396 0.192172
0.362188 0.332280 0.200015
0.355962 0.320592 0.208347
0.349401 0.309728 0.217044
0.342535 0.300084 0.226474
0.335424 0.292180 0.236362
0.327764 0.286503 0.247166
0.319463 0.283238 0.258793
0.310246 0.283116 0.271336
0.305425 0.291752 0.289555
0.309300 0.304875 0.305974
0.365972 0.320226 0.303471
0.428962 0.339971 0.300725
0.497230 0.364477 0.297581
0.569390 0.394842 0.294102
0.643763 0.431250 0.290501
0.718257 0.471962 0.287755
0.789609 0.513756 0.287297
0.312718 0.403601 0.187442
0.315099 0.406104 0.187839
0.317113 0.407477 0.188022
0.319646 0.407691 0.188083
0.322637 0.406683 0.188144
0.326329 0.404791 0.187991
0.330632 0.402167 0.187961
0.335821 0.399298 0.187839
0.342321 0.396490 0.187808
0.350072 0.394232 0.187961
0.358862 0.391882 0.188052
0.368963 0.390143 0.188266
0.379797 0.388190 0.188449
0.390936 0.385657 0.188724
0.399176 0.379797 0.189761
0.391455 0.364965 0.198062
0.383581 0.350591 0.206577
0.375921 0.337469 0.215549
0.368994 0.326207 0.225132
0.362554 0.317082 0.235660
0.355993 0.309819 0.247135
0.348547 0.304540 0.259464
0.339635 0.301244 0.272221
0.328893 0.300328 0.285313
0.321782 0.307591 0.303166
0.327855 0.329686 0.330602
0.389685 0.346868 0.328527
0.456916 0.368536 0.326207
0.528862 0.395758 0.324315
0.603937 0.429389 0.323095
0.680446 0.468788 0.323339
0.754910 0.510887 0.326879
0.332433 0.435554 0.189761
0.334905 0.438209 0.190158
0.337072 0.439704 0.190402
0.339605 0.439979 0.190433
0.342748 0.439002 0.190463
0.346593 0.437232 0.190433
0.351354 0.435004 0.190463
0.357092 0.432624 0.190311
0.364202 0.430457 0.190402
0.372747 0.428779 0.190616
0.382483 0.427192 0.190707
0.393652 0.426154 0.191012
0.405646 0.424903 0.191440
0.418006 0.423072 0.191684
0.430396 0.420600 0.192020
0.432532 0.410224 0.196628
0.424964 0.395270 0.206638
0.417670 0.381140 0.216861
0.410834 0.368292 0.227787
0.404395 0.357244 0.239567
0.397742 0.347784 0.252232
0.390387 0.340002 0.265660
0.381659 0.333959 0.279637
0.371283 0.330022 0.294011
0.359014 0.328679 0.308537
0.350256 0.335729 0.327794
0.353735 0.360845 0.360540
0.420386 0.381842 0.361364
0.494148 0.407660 0.361669
0.571344 0.439734 0.363073
0.650141 0.477821 0.366735
0.727291 0.519677 0.374456
0.359106 0.477119 0.193454
0.361303 0.478981 0.193759
0.362860 0.479652 0.193820
0.364904 0.478981 0.193881
0.367468 0.477119 0.193729
0.370855 0.474647 0.193606
0.375250 0.471809 0.193362
0.380865 0.468971 0.193271
0.388067 0.466560 0.193301
0.396826 0.464942 0.193362
0.406958 0.463508 0.193606
0.418799 0.462806 0.194003
0.431464 0.461982 0.194430
0.444495 0.460548 0.194858
0.457435 0.458106 0.195132
0.470497 0.455207 0.195468
0.465156 0.439673 0.204715
0.457679 0.424598 0.216098
0.450782 0.410590 0.228214
0.444373 0.398077 0.240940
0.437934 0.386969 0.254673
0.430884 0.377111 0.269139
0.422614 0.368719 0.284123
0.412848 0.362066 0.299565
0.401190 0.357610 0.315190
0.387762 0.355901 0.330938
0.377691 0.362737 0.351293
0.381537 0.389532 0.386450
0.446906 0.414649 0.393347
0.525292 0.444282 0.396826
0.605432 0.480079 0.402930
0.685084 0.521019 0.413489
0.384619 0.515160 0.197208
0.386389 0.516381 0.197421
0.387945 0.516899 0.197635
0.390234 0.516594 0.197574
0.393622 0.515801 0.197574
0.398566 0.515251 0.197726
0.405585 0.515801 0.198032
0.414618 0.517021 0.198642
0.425757 0.519127 0.199405
0.438819 0.521935 0.200473
0.453620 0.525017 0.201633
0.469612 0.527947 0.202976
0.486213 0.530358 0.204288
0.502739 0.531426 0.205417
0.518822 0.530968 0.206332
0.533837 0.528893 0.206882
0.542992 0.521508 0.210086
0.535576 0.505760 0.224521
0.528588 0.490700 0.239628
0.521752 0.476356 0.255406
0.514794 0.462989 0.271977
0.507225 0.450599 0.289158
0.498177 0.439002 0.306706
0.487770 0.428840 0.324559
0.475624 0.420600 0.342535
0.461616 0.414893 0.360632
0.446052 0.412787 0.378943
0.433448 0.419471 0.401648
0.438270 0.449317 0.441505
0.503044 0.479896 0.456306
0.586572 0.513878 0.464729
0.668757 0.553429 0.478523
0.436042 0.584161 0.209537
0.437507 0.584863 0.209751
0.438575 0.584588 0.209751
0.440345 0.583459 0.209567
0.443183 0.581720 0.209262
0.447303 0.579797 0.209140
0.453132 0.578302 0.209079
0.460670 0.577234 0.209262
0.470069 0.576623 0.209598
0.481239 0.576562 0.210239
0.493629 0.576440 0.210971
0.507347 0.576562 0.211795
0.521752 0.576287 0.212680
0.536522 0.575402 0.213535
0.551476 0.573785 0.214115
0.566461 0.571618 0.214847
