其他预设/【235】城市莫兰迪灰/1.LUT预设（视频调色-PR-AE-PS-FCPX-达芬奇用）/城市莫兰迪灰__-4 加亮.cube
# Created by Adobe Lightroom plugin Export LUT (1.17.0)
# www.johnrellis.com/lightroom/exportlut.htm
# Preset: 城市莫兰迪灰[素锦印象]-4 加亮
# Color profile: /Library/Application Support/Adobe/Color/Profiles/Recommended/AdobeRGB1998.icc
LUT_3D_SIZE 8
DOMAIN_MIN 0.000000 0.000000 0.000000
DOMAIN_MAX 0.903226 0.903226 0.903226
0.152193 0.143008 0.152102
0.164645 0.147097 0.157351
0.228000 0.155886 0.169223
0.405402 0.173007 0.197238
0.681880 0.259373 0.276158
0.887266 0.454231 0.439277
0.971740 0.614557 0.600916
1.000000 0.744778 0.736477
0.158938 0.154299 0.155673
0.161074 0.151247 0.160067
0.235019 0.165591 0.164645
0.400122 0.189487 0.190402
0.665187 0.271611 0.260410
0.858457 0.427924 0.395300
0.961151 0.586511 0.562219
1.000000 0.729519 0.716579
0.197757 0.209415 0.166476
0.213962 0.204562 0.170596
0.199191 0.186252 0.193088
0.495766 0.298039 0.192477
0.743343 0.401129 0.260105
0.896147 0.512566 0.409552
0.983429 0.656489 0.605005
1.000000 0.764706 0.740261
0.322698 0.393988 0.193454
0.348699 0.387976 0.200839
0.387610 0.358984 0.238437
0.358740 0.346044 0.337163
0.765072 0.552117 0.399207
0.954284 0.651209 0.449195
0.996063 0.709651 0.608423
1.000000 0.780117 0.730678
0.513451 0.632715 0.263096
0.535058 0.625238 0.271519
0.604639 0.613062 0.308965
0.602991 0.561303 0.401251
0.526268 0.521874 0.498939
0.831205 0.674678 0.574334
0.990265 0.757778 0.609644
1.000000 0.803525 0.713893
0.673304 0.799039 0.400397
0.705592 0.810269 0.428595
0.755917 0.799527 0.458473
0.803738 0.775967 0.515618
0.760006 0.716396 0.590661
0.697169 0.696254 0.670527
0.900420 0.804898 0.749386
0.995300 0.850706 0.775174
0.794888 0.908751 0.580835
0.807858 0.908446 0.591028
0.838651 0.899168 0.604852
0.886107 0.887907 0.637903
0.889952 0.855100 0.681910
0.859373 0.821897 0.738277
0.815549 0.813199 0.792294
0.930632 0.876341 0.845121
0.866239 0.959167 0.722164
0.872099 0.957733 0.724483
0.892760 0.953704 0.736263
0.925628 0.948486 0.761379
0.952972 0.934020 0.767330
0.942046 0.911833 0.809323
0.925902 0.899718 0.851987
0.901335 0.898466 0.885313
0.153506 0.146670 0.160616
0.162692 0.149905 0.162051
0.216220 0.163363 0.179080
0.371832 0.189975 0.215000
0.627649 0.265080 0.290837
0.826932 0.413672 0.412451
0.944854 0.577173 0.568475
0.994354 0.721187 0.714778
0.154208 0.155489 0.161990
0.168307 0.157412 0.166049
0.230198 0.172702 0.179477
0.385626 0.203128 0.212039
0.630426 0.280797 0.283055
0.818692 0.413184 0.395117
0.935851 0.559716 0.541253
0.991791 0.704067 0.692836
0.191073 0.211154 0.174929
0.213443 0.208591 0.182162
0.207980 0.197940 0.205753
0.483406 0.301396 0.206973
0.688075 0.375433 0.276310
0.852628 0.484535 0.399756
0.956359 0.611963 0.561181
0.999176 0.736629 0.711910
0.297429 0.369238 0.204868
0.327276 0.368200 0.214176
0.371160 0.347478 0.246860
0.328222 0.319219 0.315892
0.689845 0.489235 0.349828
0.901823 0.600855 0.404791
0.973449 0.668940 0.560906
1.000000 0.756069 0.703853
0.496010 0.621241 0.281315
0.514824 0.610590 0.286778
0.577508 0.592187 0.316503
0.565972 0.529412 0.386389
0.491310 0.489357 0.470466
0.806882 0.648676 0.545434
0.982208 0.744961 0.589990
1.000000 0.794217 0.704036
0.649897 0.781796 0.398596
0.667781 0.779660 0.407752
0.720394 0.770626 0.437201
0.778317 0.754452 0.497871
0.742611 0.701686 0.578882
0.689784 0.691157 0.666651
0.896941 0.800320 0.743771
0.993774 0.845640 0.767514
0.772427 0.894835 0.559319
0.780484 0.890440 0.559716
0.815579 0.883055 0.578790
0.870115 0.876066 0.621424
0.880919 0.847684 0.673152
0.849241 0.812589 0.728115
0.800870 0.799832 0.778592
0.924590 0.866026 0.832151
0.856657 0.955810 0.712428
0.863951 0.954986 0.717372
0.885985 0.951232 0.730617
0.920592 0.946380 0.757382
0.954864 0.938903 0.785245
0.943786 0.915343 0.817319
0.924712 0.898924 0.851316
0.897185 0.894621 0.881163
0.150271 0.158541 0.202884
0.150301 0.157687 0.204593
0.253117 0.216129 0.247288
0.438880 0.292424 0.338659
0.628199 0.338293 0.387182
0.824186 0.494392 0.516960
0.938567 0.646632 0.654231
0.986816 0.765591 0.767971
0.168246 0.172641 0.207187
0.171176 0.173739 0.208560
0.259159 0.254948 0.261601
0.401221 0.260777 0.295140
0.625238 0.343084 0.375891
0.817533 0.488045 0.499855
0.934173 0.634882 0.636530
0.986297 0.758480 0.757931
0.165408 0.226841 0.214237
0.190829 0.233433 0.215152
0.260624 0.241184 0.242618
0.480537 0.326604 0.298955
0.698360 0.432990 0.395300
0.850797 0.545098 0.511131
0.946380 0.662593 0.640314
0.990021 0.767453 0.755550
0.240604 0.413733 0.228092
0.310857 0.424201 0.265965
0.419074 0.413397 0.311833
0.386908 0.396399 0.393133
0.756954 0.568688 0.435737
0.899077 0.643458 0.528923
0.966186 0.716030 0.652369
0.996704 0.789914 0.757229
0.458839 0.639765 0.339361
0.495949 0.636774 0.353307
0.585534 0.626795 0.395026
0.608576 0.585748 0.462287
0.550103 0.562097 0.546105
0.840757 0.697261 0.605859
0.982971 0.774960 0.650507
1.000000 0.816983 0.752224
0.630518 0.792935 0.456123
0.653254 0.791043 0.468360
0.711574 0.781033 0.497993
0.780301 0.767788 0.544244
0.745480 0.714931 0.610010
0.700008 0.708400 0.688167
0.904753 0.812100 0.758328
0.994232 0.859953 0.790463
0.767391 0.903166 0.610590
0.777615 0.899901 0.613642
0.810483 0.890501 0.625391
0.861234 0.880003 0.654780
0.881285 0.855039 0.696498
0.854063 0.823423 0.748074
0.816831 0.819089 0.801144
0.936095 0.882841 0.852567
0.850401 0.957702 0.735470
0.855070 0.955962 0.735012
0.876463 0.951629 0.744442
0.914183 0.948119 0.774258
0.948669 0.940520 0.798642
0.944854 0.920409 0.829465
0.927794 0.905241 0.861875
0.903899 0.902831 0.891081
0.114260 0.193210 0.327184
0.115267 0.193454 0.331029
0.135714 0.175387 0.329198
0.547814 0.478706 0.538567
0.762753 0.668208 0.698085
0.838468 0.649104 0.684962
0.900969 0.668574 0.695644
0.968322 0.781796 0.795438
0.154421 0.224277 0.349432
0.153841 0.220676 0.346838
0.161624 0.198001 0.336858
0.574762 0.548913 0.571923
0.746670 0.637354 0.668360
0.817990 0.612421 0.646845
0.899962 0.664485 0.687739
0.968902 0.779843 0.791562
0.198215 0.282567 0.352667
0.231998 0.288945 0.356847
0.259525 0.285161 0.350683
0.545647 0.524498 0.532158
0.664820 0.502037 0.525200
0.818021 0.598962 0.611261
0.929961 0.722164 0.727138
0.977203 0.805295 0.807980
0.156222 0.437629 0.371160
0.197513 0.442237 0.371099
0.355596 0.461524 0.372747
0.500511 0.482399 0.460212
0.738949 0.591821 0.532433
0.861051 0.666194 0.624689
0.943420 0.745602 0.720729
0.983581 0.818296 0.805417
0.286717 0.669825 0.360632
0.345006 0.667109 0.370489
0.547662 0.662135 0.481361
0.647181 0.645563 0.549767
0.618616 0.641199 0.627588
0.880766 0.755673 0.678584
0.967102 0.806760 0.740017
0.992004 0.844022 0.807553
0.561242 0.819638 0.498665
0.615473 0.827359 0.543755
0.702724 0.814725 0.595270
0.785122 0.802914 0.636652
0.780484 0.764553 0.685054
0.741207 0.757992 0.743435
0.924743 0.841398 0.794247
0.995789 0.879088 0.819944
0.737270 0.910948 0.654505
0.759304 0.910094 0.674556
0.801144 0.905211 0.692470
0.856504 0.897642 0.718959
0.896971 0.882139 0.752377
0.871183 0.849607 0.788571
0.836149 0.842679 0.828885
0.946563 0.896483 0.868650
0.847105 0.962341 0.781857
0.853483 0.961608 0.784421
0.871641 0.958190 0.788510
0.902800 0.952605 0.800198
0.939055 0.944915 0.820920
0.947265 0.928985 0.847044
0.932006 0.913817 0.875608
0.911955 0.912810 0.903136
0.000000 0.278569 0.557183
0.000000 0.276677 0.556146
0.000000 0.259739 0.533959
0.343114 0.261692 0.585870
0.829801 0.782834 0.822385
0.910613 0.884642 0.893156
0.940673 0.872465 0.887510
0.965728 0.881010 0.894163
0.000000 0.315465 0.569879
0.000000 0.313512 0.571252
0.000000 0.288823 0.547082
0.372778 0.300755 0.592035
0.831235 0.801511 0.826169
0.907256 0.876127 0.885801
0.938293 0.864652 0.879850
0.964569 0.874174 0.887358
0.269413 0.417823 0.595087
0.299351 0.431586 0.596338
0.276738 0.398322 0.573419
0.440528 0.406226 0.588159
0.832639 0.845823 0.839628
0.879606 0.822690 0.836332
0.922240 0.818265 0.834501
0.957824 0.836667 0.850034
0.261936 0.523796 0.585748
0.306859 0.525414 0.585077
0.434272 0.538170 0.588922
0.519219 0.531975 0.575341
0.736568 0.702052 0.705715
0.799680 0.677333 0.685176
0.906676 0.760128 0.766049
0.964172 0.831144 0.835813
0.181064 0.658625 0.558160
0.236332 0.661402 0.558923
0.392798 0.666987 0.554864
0.621454 0.673762 0.605493
0.698634 0.687129 0.660761
0.868711 0.763699 0.718502
0.937957 0.807767 0.781308
0.976318 0.853727 0.839902
0.374670 0.806607 0.529229
0.414801 0.806485 0.532219
0.536004 0.800809 0.556664
0.715572 0.790555 0.657649
0.769619 0.768917 0.699702
0.762814 0.780026 0.766995
0.941680 0.862852 0.819150
0.987976 0.891081 0.853422
0.612085 0.917082 0.619532
0.640894 0.913756 0.636103
0.726741 0.905852 0.691981
0.817624 0.898650 0.749020
0.880705 0.891173 0.775601
0.875975 0.862852 0.809323
0.845212 0.856474 0.846098
0.955962 0.904997 0.877531
0.779721 0.965301 0.751034
0.792721 0.963561 0.760586
0.833555 0.958495 0.792172
0.883696 0.955840 0.827909
0.919890 0.949187 0.837034
0.949035 0.938262 0.860288
0.934203 0.920012 0.884672
0.914824 0.917845 0.909728
0.000000 0.426612 0.787076
0.000000 0.422126 0.783627
0.000000 0.397375 0.764157
0.000000 0.360906 0.743099
0.662409 0.520958 0.818326
0.931701 0.906920 0.927550
0.963958 0.959838 0.961273
0.974701 0.954650 0.960021
0.000000 0.452094 0.776425
0.000000 0.444953 0.771847
0.000000 0.423011 0.759854
0.000000 0.375463 0.730648
0.663630 0.536278 0.806394
0.929473 0.909453 0.925933
0.962524 0.957214 0.959014
0.973907 0.952514 0.958068
0.392493 0.587396 0.803250
0.378882 0.576349 0.797391
0.337194 0.541711 0.780087
0.264591 0.476509 0.746731
0.707454 0.628901 0.806699
0.933989 0.929168 0.933349
0.960235 0.950744 0.953643
0.972412 0.946624 0.952483
0.512444 0.676967 0.813046
0.540978 0.680079 0.810452
0.588617 0.688624 0.797879
0.546319 0.645472 0.773159
0.766384 0.736416 0.814603
0.939391 0.943633 0.941497
0.953216 0.933379 0.937804
0.968566 0.930541 0.936828
0.406531 0.730800 0.762844
0.441413 0.732174 0.763363
0.540703 0.736110 0.764034
0.659998 0.742489 0.764645
0.752255 0.759182 0.769650
0.859037 0.831846 0.833066
0.903716 0.827085 0.831724
0.955505 0.871458 0.876158
0.313939 0.817014 0.711330
0.355871 0.820005 0.714656
0.455756 0.817441 0.713252
0.616388 0.816068 0.714778
0.776669 0.811490 0.760830
0.835111 0.826688 0.807614
0.942107 0.878111 0.853971
0.973449 0.900053 0.887510
0.521813 0.923369 0.704952
0.551476 0.923522 0.710353
0.627283 0.919432 0.721706
0.728756 0.914458 0.749508
0.852415 0.904417 0.820279
0.891539 0.889342 0.843809
0.871336 0.883116 0.875395
0.970977 0.925231 0.901427
0.686915 0.974182 0.741604
0.698848 0.972808 0.745480
0.741848 0.968444 0.763638
0.825467 0.960632 0.816526
0.897124 0.953521 0.865110
0.937499 0.947417 0.877073
0.940124 0.931395 0.899931
0.923125 0.928313 0.922362
0.029480 0.558038 0.907164
0.064515 0.557763 0.907897
0.000000 0.540551 0.901244
0.000000 0.504387 0.888060
0.000000 0.417853 0.875639
0.838437 0.738857 0.919677
0.965270 0.948943 0.962768
0.981048 0.981445 0.981201
0.213413 0.576501 0.899596
0.212375 0.574884 0.899962
0.172885 0.556176 0.893523
0.000000 0.514916 0.878080
0.048676 0.430610 0.861906
0.832486 0.734768 0.911620
0.962768 0.947234 0.960296
0.979919 0.980011 0.979889
0.480598 0.678584 0.906798
0.470832 0.672114 0.904967
0.432563 0.646754 0.897063
0.362188 0.599298 0.881743
0.253971 0.514427 0.852140
0.850492 0.778347 0.911162
0.965881 0.957244 0.964355
0.981048 0.979950 0.980316
0.655818 0.774716 0.914733
0.658930 0.774472 0.911528
0.661891 0.770199 0.902861
0.604456 0.727932 0.889464
0.493904 0.642664 0.859434
0.873991 0.832059 0.912993
0.970459 0.968963 0.970336
0.981048 0.977813 0.978851
0.635981 0.805539 0.899504
0.651606 0.806638 0.898253
0.706081 0.814939 0.897307
0.761166 0.825132 0.894011
0.694697 0.769436 0.864836
0.869291 0.849058 0.897612
0.969421 0.972045 0.970733
0.977203 0.969085 0.971069
0.539422 0.853269 0.869474
0.560418 0.853452 0.869657
0.623713 0.854093 0.870176
0.710323 0.856291 0.872557
0.796811 0.858427 0.874418
0.849210 0.855985 0.870512
0.937316 0.926970 0.927489
0.959686 0.929046 0.931792
0.465064 0.923125 0.829282
0.488502 0.922911 0.830320
0.551629 0.919463 0.830472
0.636347 0.913909 0.830716
0.750240 0.906798 0.832578
0.873136 0.902098 0.867796
0.912291 0.907408 0.896452
0.970397 0.933104 0.921141
0.594507 0.974914 0.800534
0.610742 0.973877 0.802243
0.668269 0.971557 0.812131
0.743526 0.966674 0.826780
0.824674 0.960601 0.850584
0.913909 0.953429 0.902251
0.947906 0.946746 0.917723
0.933959 0.941070 0.937255
0.400122 0.671717 0.966674
0.397742 0.669886 0.966674
0.365972 0.653315 0.964019
0.312200 0.625757 0.960418
0.187686 0.574762 0.952422
0.533349 0.583215 0.956695
0.921843 0.861021 0.963073
0.980621 0.967224 0.978882
0.443458 0.687892 0.963897
0.440436 0.685786 0.963958
0.410529 0.669368 0.961700
0.353491 0.638819 0.957580
0.241550 0.586358 0.949462
0.531548 0.587854 0.953460
0.920958 0.861357 0.961547
0.980377 0.967651 0.978698
0.580560 0.750210 0.960540
0.574975 0.746700 0.960235
0.542840 0.727413 0.957366
0.503136 0.702480 0.955596
0.404608 0.644526 0.947417
0.540673 0.619104 0.947784
0.925231 0.875486 0.960479
0.981262 0.971435 0.979797
0.723079 0.826719 0.959228
0.732052 0.831052 0.958801
0.709926 0.816617 0.956512
0.668879 0.789761 0.953307
0.591241 0.738460 0.946258
0.548272 0.668299 0.939971
0.932280 0.896849 0.960601
0.983276 0.977447 0.982300
0.774899 0.861662 0.958129
0.787839 0.866423 0.958618
0.801083 0.870909 0.957153
0.809476 0.872831 0.953887
0.753414 0.834104 0.946075
0.643091 0.756100 0.931090
0.934691 0.912108 0.959136
0.985199 0.983001 0.984771
0.723873 0.882292 0.949401
0.733516 0.883085 0.949096
0.767391 0.887236 0.948913
0.821134 0.897063 0.950256
0.873594 0.910521 0.952239
0.831357 0.878172 0.940948
0.933532 0.924804 0.956512
0.987762 0.988647 0.988220
0.663935 0.930632 0.940093
0.675471 0.930419 0.940124
0.713893 0.930083 0.940642
0.771695 0.929961 0.941680
0.836210 0.930419 0.942992
0.896330 0.933379 0.945342
0.878386 0.900755 0.925078
0.977966 0.976684 0.976684
0.577508 0.980743 0.903929
0.587854 0.979706 0.903685
0.625299 0.976623 0.903929
0.687404 0.971801 0.905577
0.759152 0.965057 0.907652
0.834134 0.956878 0.910063
0.918242 0.952361 0.924773
0.957031 0.956115 0.951263
