其他预设/【235】城市莫兰迪灰/1.LUT预设（视频调色-PR-AE-PS-FCPX-达芬奇用）/城市莫兰迪灰__-7 加亮.cube
# Created by Adobe Lightroom plugin Export LUT (1.17.0)
# www.johnrellis.com/lightroom/exportlut.htm
# Preset: 城市莫兰迪灰[素锦印象]-7 加亮
# Color profile: /Library/Application Support/Adobe/Color/Profiles/Recommended/AdobeRGB1998.icc
LUT_3D_SIZE 8
DOMAIN_MIN 0.000000 0.000000 0.000000
DOMAIN_MAX 0.903226 0.903226 0.903226
0.152193 0.143008 0.152102
0.165743 0.143648 0.153719
0.223239 0.144411 0.156130
0.378882 0.127291 0.157046
0.615869 0.042390 0.153445
0.860655 0.107729 0.156985
1.000000 0.240482 0.204257
1.000000 0.364691 0.308659
0.157504 0.151827 0.157046
0.163699 0.150088 0.156741
0.232792 0.159823 0.152926
0.383948 0.157015 0.153048
0.613336 0.138552 0.147066
0.843626 0.179721 0.144717
0.990265 0.267460 0.184390
1.000000 0.372137 0.287999
0.180453 0.195834 0.176364
0.190982 0.184360 0.183932
0.216037 0.180056 0.172335
0.454749 0.266819 0.134890
0.704860 0.330663 0.093568
0.891905 0.367407 0.090547
1.000000 0.408942 0.169894
1.000000 0.457832 0.291447
0.261631 0.361975 0.244511
0.287175 0.336126 0.255924
0.300023 0.296635 0.285527
0.418067 0.310277 0.228061
0.770047 0.470741 0.118715
0.963317 0.590600 0.000000
1.000000 0.560388 0.085695
1.000000 0.552697 0.246830
0.461219 0.657679 0.430213
0.492134 0.635859 0.442359
0.534874 0.572900 0.490333
0.567895 0.562005 0.476265
0.665095 0.513085 0.342931
0.904051 0.583734 0.242496
1.000000 0.672358 0.061280
1.000000 0.663142 0.149874
0.679408 0.849332 0.658778
0.712337 0.849851 0.681697
0.750698 0.817288 0.704585
0.742489 0.765042 0.742855
0.786465 0.763638 0.664759
0.855314 0.700313 0.534722
0.997284 0.702663 0.467536
1.000000 0.732723 0.383276
0.842344 0.943450 0.832944
0.852079 0.940826 0.838163
0.870481 0.927123 0.845304
0.884733 0.905119 0.861448
0.875151 0.885008 0.863584
0.910491 0.881102 0.808438
0.953124 0.831266 0.722225
1.000000 0.803708 0.674495
0.924315 0.976562 0.920378
0.927031 0.975219 0.921324
0.936126 0.970886 0.925658
0.947448 0.964294 0.934203
0.943389 0.949859 0.937499
0.948852 0.949798 0.932128
0.967437 0.946838 0.908873
0.989502 0.918883 0.864530
0.153567 0.147768 0.162173
0.165133 0.144350 0.165072
0.216068 0.147127 0.166232
0.341802 0.136904 0.177768
0.568902 0.066865 0.182620
0.806729 0.057984 0.193484
0.970214 0.215244 0.233951
1.000000 0.354803 0.326818
0.155337 0.150301 0.164492
0.167178 0.156405 0.165225
0.219364 0.159579 0.169375
0.358129 0.155428 0.174228
0.581323 0.129488 0.176791
0.806149 0.153445 0.184421
0.962615 0.246525 0.218479
1.000000 0.360143 0.305943
0.171725 0.206271 0.188388
0.194919 0.197330 0.190402
0.218601 0.187625 0.184237
0.439490 0.267704 0.152804
0.657343 0.293034 0.146670
0.850095 0.332982 0.152590
0.988342 0.381872 0.201236
1.000000 0.444221 0.305394
0.235630 0.367041 0.247532
0.276982 0.345983 0.261082
0.299870 0.299962 0.299016
0.383215 0.294530 0.235508
0.704189 0.433783 0.153140
0.911925 0.547448 0.000000
1.000000 0.536919 0.140230
1.000000 0.542107 0.265751
0.438697 0.663569 0.437232
0.473548 0.639368 0.445136
0.526055 0.571801 0.482704
0.538750 0.538140 0.467292
0.624537 0.486275 0.340795
0.879026 0.573083 0.254612
1.000000 0.671015 0.116457
1.000000 0.659297 0.202152
0.656947 0.844144 0.650324
0.678279 0.835019 0.658015
0.724849 0.802121 0.681636
0.729335 0.752621 0.724056
0.771756 0.753414 0.660548
0.845609 0.698085 0.543114
0.991455 0.705653 0.480262
1.000000 0.735103 0.395789
0.825071 0.939269 0.820584
0.831083 0.934295 0.820798
0.854765 0.920592 0.830655
0.876341 0.899870 0.851652
0.868620 0.879789 0.860502
0.903532 0.876005 0.804257
0.945190 0.823453 0.713619
1.000000 0.797543 0.664363
0.919799 0.976165 0.917723
0.923491 0.975036 0.919432
0.933501 0.970764 0.924132
0.945983 0.964233 0.933043
0.948272 0.954406 0.942199
0.950530 0.951904 0.936004
0.966644 0.947082 0.910307
0.988067 0.917723 0.863523
0.150790 0.165347 0.210391
0.152468 0.166476 0.217350
0.245212 0.143679 0.244053
0.466377 0.047578 0.197147
0.614832 0.000000 0.244358
0.779294 0.104860 0.311223
0.954894 0.271061 0.375128
1.000000 0.431098 0.469581
0.165164 0.175204 0.209506
0.170413 0.178378 0.215396
0.244022 0.163272 0.236057
0.422126 0.137514 0.212619
0.573205 0.124147 0.255497
0.779751 0.158145 0.302220
0.951904 0.288914 0.361273
1.000000 0.435187 0.456764
0.166659 0.189334 0.232425
0.183383 0.196933 0.230289
0.237095 0.218784 0.223117
0.388190 0.233555 0.238102
0.623896 0.260197 0.262608
0.827543 0.315801 0.295415
0.971374 0.396033 0.353399
1.000000 0.487984 0.446448
0.122103 0.452522 0.407813
0.211215 0.437537 0.371252
0.347173 0.372656 0.336492
0.404181 0.337865 0.299687
0.734646 0.498695 0.244297
0.895537 0.527001 0.270970
1.000000 0.544091 0.339513
1.000000 0.575189 0.431983
0.366949 0.717952 0.534539
0.421210 0.702327 0.518181
0.543816 0.642390 0.523156
0.566400 0.583551 0.546319
0.644038 0.534569 0.427100
0.889494 0.621271 0.364630
1.000000 0.696773 0.295811
1.000000 0.675563 0.395819
0.635615 0.871641 0.693538
0.661433 0.863920 0.694942
0.723903 0.831937 0.707698
0.754147 0.781308 0.736324
0.769406 0.765255 0.697871
0.834134 0.713039 0.593439
0.984070 0.735042 0.551934
1.000000 0.764706 0.496132
0.828641 0.951354 0.845426
0.834745 0.947631 0.844846
0.858213 0.934203 0.849546
0.882872 0.912932 0.862211
0.872526 0.885893 0.876524
0.903929 0.885832 0.829252
0.944030 0.843473 0.756802
1.000000 0.829831 0.725185
0.920684 0.980194 0.925872
0.922728 0.978820 0.925780
0.932464 0.974456 0.928832
0.947601 0.968811 0.937865
0.952544 0.959380 0.945251
0.952361 0.955169 0.943511
0.966918 0.951965 0.921538
0.986358 0.927306 0.882475
0.094453 0.223392 0.367132
0.093111 0.229252 0.384924
0.104891 0.240269 0.432258
0.498421 0.026001 0.499550
0.847562 0.000000 0.292515
0.910948 0.181186 0.389441
0.968963 0.353887 0.486458
1.000000 0.501518 0.592065
0.141299 0.245792 0.371588
0.144228 0.249943 0.384222
0.158968 0.261112 0.426520
0.498360 0.134279 0.491218
0.822751 0.000000 0.322301
0.888273 0.235996 0.402960
0.953460 0.365911 0.489052
1.000000 0.502586 0.591119
0.178470 0.260899 0.351110
0.201328 0.268070 0.345647
0.252781 0.303502 0.385138
0.481117 0.274418 0.445258
0.729366 0.306767 0.394049
0.828000 0.365820 0.455879
0.929442 0.452369 0.532250
1.000000 0.566979 0.609339
0.166354 0.329625 0.461769
0.204959 0.338231 0.453956
0.299931 0.364599 0.425422
0.423926 0.400763 0.386755
0.636072 0.441352 0.420935
0.821622 0.492988 0.464363
0.957977 0.556481 0.525322
1.000000 0.629572 0.603998
0.202976 0.736568 0.756802
0.279789 0.747158 0.740414
0.457069 0.732021 0.659480
0.601160 0.636530 0.597467
0.649866 0.582544 0.525628
0.894865 0.689601 0.504021
0.994995 0.706661 0.538933
1.000000 0.715999 0.600549
0.593408 0.916472 0.814359
0.638605 0.914305 0.811337
0.708064 0.885618 0.777340
0.781888 0.837522 0.771511
0.787167 0.799863 0.766567
0.832975 0.750240 0.674861
0.978424 0.786984 0.656001
1.000000 0.809384 0.615961
0.813413 0.965087 0.879149
0.826322 0.962646 0.879637
0.858762 0.953857 0.880583
0.892668 0.937621 0.886351
0.901793 0.912993 0.897185
0.910338 0.904814 0.869505
0.940459 0.866270 0.805173
1.000000 0.862608 0.783139
0.921721 0.985931 0.940490
0.925933 0.985138 0.941497
0.936919 0.982330 0.943847
0.948394 0.976440 0.945556
0.958007 0.967651 0.950774
0.955291 0.959655 0.954040
0.967285 0.958312 0.935851
0.984009 0.938476 0.904356
0.000000 0.362219 0.632837
0.000000 0.369909 0.646418
0.000000 0.387732 0.681300
0.130007 0.403143 0.740291
0.795712 0.169162 0.791562
1.000000 0.354925 0.579065
1.000000 0.522271 0.609857
1.000000 0.638178 0.697322
0.000000 0.386847 0.628443
0.000000 0.396429 0.643946
0.064485 0.414740 0.678126
0.221561 0.444984 0.734157
0.792996 0.250278 0.784176
1.000000 0.411505 0.578698
1.000000 0.547295 0.626001
1.000000 0.647944 0.704097
0.204166 0.422553 0.593500
0.244877 0.440772 0.605127
0.285954 0.464881 0.640620
0.371252 0.509606 0.704158
0.768063 0.407202 0.743679
0.968902 0.519585 0.593744
0.996887 0.593652 0.654597
1.000000 0.662348 0.712703
0.223667 0.459724 0.618433
0.260899 0.465431 0.609918
0.354253 0.483650 0.581933
0.476478 0.555627 0.635187
0.733852 0.552209 0.680568
0.887633 0.605127 0.641657
0.946746 0.631006 0.673426
0.995483 0.673426 0.716640
0.284947 0.562951 0.731106
0.326726 0.571191 0.725795
0.428046 0.590814 0.701350
0.528008 0.606592 0.650813
0.631159 0.613703 0.588190
0.804868 0.648371 0.624384
0.935729 0.691859 0.670100
1.000000 0.740108 0.723110
0.505821 0.810697 0.908690
0.537804 0.826261 0.903197
0.613458 0.863523 0.881041
0.702449 0.869139 0.822660
0.769436 0.795407 0.769375
0.809751 0.759030 0.715969
0.970733 0.828428 0.727382
1.000000 0.835935 0.747402
0.770932 0.980316 0.944732
0.783993 0.977386 0.939178
0.823270 0.968231 0.923156
0.869078 0.953918 0.904417
0.904631 0.931426 0.899840
0.906310 0.911772 0.893492
0.930419 0.877928 0.835569
1.000000 0.887388 0.823850
0.904601 0.991485 0.955993
0.909117 0.990509 0.955291
0.922942 0.987488 0.953521
0.944091 0.983948 0.955077
0.957794 0.976654 0.955474
0.961608 0.965972 0.960082
0.966430 0.963165 0.947997
0.980652 0.945861 0.919951
0.000000 0.549767 0.846250
0.000000 0.555291 0.851194
0.153536 0.568902 0.863828
0.334173 0.605249 0.892058
0.537865 0.582666 0.917540
0.937346 0.500999 0.931212
1.000000 0.655970 0.799039
1.000000 0.756954 0.793454
0.103090 0.562280 0.833158
0.144442 0.566400 0.837613
0.241184 0.581933 0.853300
0.372900 0.616266 0.881926
0.546563 0.600641 0.909422
0.934325 0.525322 0.925780
1.000000 0.673365 0.800076
1.000000 0.765133 0.799771
0.354406 0.618921 0.820523
0.367315 0.622889 0.824796
0.416541 0.640253 0.841581
0.504173 0.674891 0.870024
0.607507 0.682795 0.899870
0.927459 0.623346 0.912139
1.000000 0.741238 0.814786
1.000000 0.797940 0.825650
0.377325 0.620539 0.781521
0.409033 0.631006 0.784756
0.516564 0.675990 0.802914
0.613581 0.728603 0.843473
0.706416 0.779934 0.885832
0.918547 0.734615 0.894224
1.000000 0.819883 0.840177
1.000000 0.832547 0.853025
0.438087 0.674708 0.830381
0.462440 0.680568 0.826688
0.529808 0.696223 0.811856
0.601923 0.708827 0.779873
0.710506 0.768582 0.818479
0.885832 0.778317 0.846098
0.967864 0.818479 0.833310
0.995239 0.825010 0.843412
0.539544 0.747677 0.889921
0.566094 0.756863 0.889403
0.625360 0.774411 0.880247
0.691035 0.791806 0.860746
0.735073 0.792264 0.819944
0.798520 0.786770 0.766171
0.923949 0.817472 0.802609
0.989960 0.848203 0.837949
0.766232 0.883116 0.975769
0.782681 0.889891 0.975586
0.818631 0.916716 0.970153
0.858427 0.946471 0.961395
0.889586 0.958465 0.940826
0.913420 0.925353 0.912718
0.924407 0.894682 0.871611
0.996796 0.921263 0.875944
0.889891 0.988556 0.985473
0.894530 0.989837 0.985016
0.909056 0.993652 0.983642
0.931853 0.990967 0.975799
0.952026 0.985748 0.967498
0.966247 0.977173 0.964538
0.967285 0.969085 0.962036
0.978027 0.955230 0.938140
0.368109 0.687373 0.943114
0.394049 0.694697 0.945892
0.451026 0.709071 0.950408
0.539910 0.736538 0.958160
0.639521 0.773587 0.966552
0.765866 0.754238 0.972992
0.979706 0.714321 0.977478
1.000000 0.803311 0.900328
0.398413 0.693660 0.935393
0.419867 0.700252 0.938293
0.470314 0.714015 0.943755
0.547723 0.738247 0.951934
0.640192 0.772671 0.961364
0.759823 0.752010 0.968475
0.976928 0.707576 0.973541
1.000000 0.796414 0.894377
0.532708 0.744442 0.930480
0.542290 0.747494 0.932036
0.573785 0.757443 0.936767
0.631495 0.778714 0.945647
0.701808 0.807156 0.955688
0.791653 0.799954 0.964416
0.977813 0.768276 0.971496
1.000000 0.844114 0.909667
0.600977 0.774563 0.916960
0.618830 0.780972 0.917449
0.662013 0.798093 0.922606
0.711421 0.820066 0.934752
0.770443 0.847349 0.947906
0.835080 0.859281 0.960571
0.974365 0.837552 0.965301
1.000000 0.889738 0.924224
0.575799 0.766720 0.903685
0.584710 0.767819 0.899931
0.617762 0.774502 0.889128
0.714473 0.817350 0.902617
0.789334 0.855924 0.925566
0.854948 0.892393 0.948028
0.964904 0.871214 0.951904
1.000000 0.920653 0.931243
0.651087 0.813321 0.934447
0.663020 0.817227 0.933104
0.698390 0.828885 0.928130
0.744137 0.843687 0.918944
0.779110 0.849393 0.898405
0.863737 0.895323 0.923308
0.957214 0.909056 0.939971
0.992950 0.929564 0.935363
0.749233 0.868223 0.962036
0.761563 0.873289 0.961730
0.791592 0.885008 0.959380
0.830808 0.900572 0.955505
0.863310 0.911681 0.947173
0.883391 0.912871 0.928496
0.907744 0.900206 0.888914
0.975189 0.918456 0.911772
0.874449 0.937499 0.991638
0.880552 0.940185 0.991485
0.903105 0.950500 0.991577
0.927306 0.962493 0.991302
0.946532 0.979004 0.988220
0.961120 0.988220 0.982635
0.971954 0.976654 0.971313
0.975158 0.963012 0.953674
0.600610 0.791897 0.980529
0.611383 0.795804 0.981109
0.634424 0.802823 0.981872
0.681605 0.820127 0.984070
0.739101 0.843320 0.986511
0.800595 0.871122 0.989044
0.875273 0.853117 0.991913
0.993072 0.829038 0.994110
0.615259 0.797848 0.978180
0.625422 0.801602 0.978851
0.648249 0.808957 0.979980
0.690333 0.824277 0.982177
0.745418 0.846616 0.984985
0.804623 0.873472 0.987884
0.875334 0.855222 0.990814
0.992584 0.830655 0.993225
0.671687 0.823239 0.973480
0.678370 0.825711 0.974029
0.693538 0.830350 0.975036
0.737636 0.848692 0.978759
0.781765 0.867002 0.981933
0.829648 0.888792 0.985260
0.887816 0.876555 0.988647
0.992218 0.855314 0.991577
0.733394 0.853178 0.966949
0.740078 0.856016 0.967834
0.754360 0.861204 0.969512
0.785428 0.874296 0.973236
0.824277 0.891539 0.977691
0.865080 0.911009 0.982361
0.907713 0.907866 0.986511
0.992126 0.891447 0.989960
0.704433 0.842985 0.956512
0.719142 0.849149 0.957641
0.757107 0.864714 0.959594
0.812741 0.889555 0.964324
0.847776 0.905486 0.970581
0.886229 0.924468 0.977508
0.922179 0.932738 0.983978
0.991180 0.924041 0.987732
0.730770 0.860166 0.963561
0.734981 0.861326 0.962432
0.751186 0.866331 0.958953
0.777523 0.874784 0.953246
0.840421 0.902342 0.956451
0.902708 0.934997 0.970520
0.944366 0.959350 0.982727
0.990082 0.953796 0.986053
0.799466 0.896818 0.977813
0.804196 0.898619 0.977264
0.820493 0.904936 0.975555
0.847684 0.915953 0.973083
0.876677 0.927489 0.969238
0.899809 0.935119 0.962005
0.947692 0.961059 0.973785
0.986816 0.967529 0.981323
0.868559 0.932982 0.988586
0.872221 0.934508 0.988281
0.885771 0.940368 0.987549
0.907378 0.949950 0.986664
0.929778 0.959960 0.985473
0.948791 0.968292 0.983764
0.961212 0.972320 0.979156
0.966217 0.964019 0.959777
