其他预设/【235】城市莫兰迪灰/1.LUT预设（视频调色-PR-AE-PS-FCPX-达芬奇用）/城市莫兰迪灰__-1 暗调.cube
# Created by Adobe Lightroom plugin Export LUT (1.17.0)
# www.johnrellis.com/lightroom/exportlut.htm
# Preset: 城市莫兰迪灰[素锦印象]-1 暗调
# Color profile: /Library/Application Support/Adobe/Color/Profiles/Recommended/AdobeRGB1998.icc
LUT_3D_SIZE 8
DOMAIN_MIN 0.000000 0.000000 0.000000
DOMAIN_MAX 0.903226 0.903226 0.903226
0.152193 0.143008 0.152102
0.161135 0.143862 0.153689
0.187472 0.146578 0.157137
0.253178 0.146700 0.161532
0.376135 0.136904 0.167514
0.602075 0.101808 0.178653
0.798978 0.137972 0.201633
0.949523 0.258000 0.263096
0.156466 0.149355 0.154391
0.157595 0.147921 0.156771
0.184695 0.151888 0.157229
0.244022 0.154940 0.161471
0.363958 0.152255 0.167300
0.558862 0.137819 0.175845
0.763638 0.161044 0.194125
0.932738 0.264714 0.250889
0.169802 0.167605 0.161135
0.175509 0.166751 0.161868
0.172488 0.161196 0.169162
0.242130 0.178256 0.165927
0.380194 0.198306 0.168246
0.571466 0.217014 0.175875
0.796750 0.277501 0.200320
0.949462 0.360967 0.267765
0.200595 0.213870 0.172366
0.208072 0.212863 0.173129
0.227390 0.209171 0.179263
0.219913 0.203677 0.207126
0.372808 0.252445 0.206760
0.604639 0.334508 0.174716
0.792416 0.392462 0.197421
0.937987 0.451026 0.263737
0.266575 0.318730 0.192050
0.275761 0.316075 0.192752
0.309209 0.313024 0.196475
0.322301 0.291661 0.220890
0.291112 0.270359 0.264439
0.465095 0.334905 0.273472
0.738979 0.458747 0.226505
0.920043 0.542718 0.255772
0.366094 0.470680 0.221469
0.389441 0.485145 0.227176
0.427039 0.479103 0.231540
0.484779 0.470649 0.241184
0.454353 0.411780 0.296452
0.411017 0.388556 0.365820
0.611902 0.490028 0.414069
0.871855 0.603357 0.393225
0.521172 0.665126 0.294835
0.535210 0.667262 0.298650
0.565667 0.656825 0.300572
0.619379 0.647272 0.309850
0.643915 0.613214 0.341344
0.612177 0.562005 0.419409
0.564996 0.544060 0.505638
0.730434 0.642359 0.581994
0.672847 0.825803 0.434577
0.680507 0.823880 0.435035
0.709285 0.820005 0.440681
0.760525 0.817716 0.457252
0.798367 0.789914 0.445167
0.802945 0.757321 0.511925
0.779812 0.727474 0.601556
0.735164 0.716640 0.677852
0.154299 0.145480 0.157595
0.160342 0.144503 0.159060
0.185306 0.148653 0.162722
0.245212 0.150484 0.168948
0.362615 0.142428 0.176303
0.544671 0.114412 0.187289
0.749050 0.116030 0.207431
0.920684 0.227970 0.260441
0.154940 0.149783 0.158236
0.161440 0.151492 0.160586
0.185428 0.154665 0.163638
0.243198 0.157656 0.168765
0.358190 0.155184 0.175967
0.527306 0.140963 0.185458
0.723110 0.145937 0.201816
0.901854 0.234897 0.248478
0.167300 0.168765 0.164218
0.175570 0.169253 0.166995
0.175784 0.165133 0.173739
0.246128 0.182773 0.169924
0.359686 0.194369 0.176181
0.530388 0.206363 0.185092
0.737118 0.243839 0.203189
0.915099 0.327550 0.258488
0.196780 0.212497 0.176974
0.205631 0.213107 0.178622
0.226352 0.210208 0.183597
0.213443 0.199466 0.204685
0.335943 0.234989 0.201175
0.534386 0.294224 0.183108
0.730434 0.349157 0.198917
0.904509 0.420600 0.253330
0.261418 0.316777 0.199161
0.269535 0.312535 0.199344
0.299382 0.306279 0.201968
0.308324 0.280980 0.220554
0.278050 0.259800 0.256809
0.443427 0.320378 0.264988
0.713191 0.441077 0.223178
0.899992 0.525322 0.255009
0.350805 0.455573 0.226780
0.362219 0.454994 0.228092
0.398657 0.450965 0.232303
0.459907 0.449775 0.242191
0.440894 0.401312 0.294621
0.406622 0.386419 0.365606
0.606348 0.484474 0.408911
0.861234 0.593683 0.382849
0.491890 0.638819 0.289433
0.498543 0.632898 0.288151
0.532525 0.627100 0.292332
0.593561 0.625910 0.305577
0.629480 0.601495 0.338231
0.597223 0.549401 0.412055
0.546532 0.526970 0.490883
0.713436 0.622339 0.560204
0.655085 0.814359 0.426764
0.665126 0.814481 0.429877
0.695613 0.811856 0.436957
0.748928 0.810971 0.454902
0.808652 0.803311 0.471260
0.808835 0.764828 0.524407
0.777096 0.725917 0.601129
0.727779 0.709926 0.671504
0.160464 0.151186 0.175753
0.164858 0.150668 0.177310
0.191196 0.150362 0.184512
0.267460 0.149752 0.199008
0.398688 0.134279 0.211551
0.578180 0.104860 0.231235
0.777218 0.126497 0.266056
0.935637 0.255833 0.330632
0.165591 0.159121 0.177432
0.168948 0.158907 0.179049
0.192752 0.157992 0.185153
0.260594 0.159731 0.195438
0.383917 0.152255 0.206821
0.560266 0.138003 0.226841
0.759213 0.155856 0.258183
0.926329 0.267308 0.321813
0.165133 0.172641 0.178866
0.171420 0.175601 0.181460
0.193484 0.180697 0.188418
0.264256 0.192416 0.196323
0.393317 0.203677 0.210269
0.563531 0.214176 0.227268
0.756558 0.251987 0.256870
0.921111 0.337346 0.319066
0.180026 0.225895 0.185153
0.195621 0.231083 0.192599
0.238865 0.234409 0.207340
0.234379 0.225223 0.231388
0.389532 0.270726 0.222202
0.567956 0.312749 0.227115
0.757473 0.367102 0.256779
0.917266 0.435462 0.319738
0.241123 0.329717 0.213809
0.261631 0.334325 0.224430
0.305425 0.333165 0.232944
0.337560 0.316838 0.250523
0.307012 0.295415 0.292699
0.492012 0.359380 0.292088
0.743343 0.472938 0.250401
0.906432 0.533043 0.315465
0.340154 0.474800 0.258946
0.355077 0.474952 0.261967
0.396674 0.469947 0.268162
0.457069 0.463416 0.276219
0.451911 0.420142 0.319921
0.417456 0.405005 0.387304
0.628412 0.503105 0.423529
0.876555 0.612329 0.406958
0.487434 0.659785 0.334539
0.497292 0.655848 0.334661
0.530419 0.645411 0.335637
0.587396 0.636561 0.343328
0.636652 0.616236 0.364721
0.609400 0.567956 0.438361
0.569177 0.555871 0.522698
0.748074 0.654536 0.591394
0.642725 0.821225 0.462593
0.648829 0.817929 0.459846
0.678401 0.812985 0.463020
0.738216 0.816007 0.485786
0.798703 0.807065 0.498756
0.814023 0.775692 0.545251
0.785153 0.738643 0.620752
0.740200 0.726040 0.690669
0.171878 0.163424 0.227146
0.178897 0.163302 0.230808
0.204532 0.158724 0.235447
0.279637 0.152193 0.258366
0.453742 0.123751 0.308659
0.612360 0.087160 0.327337
0.776730 0.107973 0.353765
0.924804 0.245945 0.408087
0.181125 0.177951 0.235416
0.186557 0.176547 0.236759
0.208713 0.169406 0.238865
0.283787 0.163912 0.260716
0.447822 0.148409 0.303044
0.598352 0.128420 0.317388
0.763088 0.139925 0.341802
0.920714 0.260777 0.402411
0.190555 0.203220 0.234318
0.200168 0.207156 0.237400
0.216831 0.203983 0.241276
0.294255 0.205295 0.265080
0.431128 0.210727 0.286717
0.591516 0.216312 0.305577
0.785550 0.268040 0.356237
0.931365 0.355596 0.417884
0.181582 0.237430 0.234867
0.190036 0.240909 0.237613
0.220584 0.252811 0.246250
0.282139 0.265995 0.266331
0.416541 0.292119 0.276829
0.578851 0.320195 0.301488
0.764065 0.369543 0.341863
0.921813 0.443214 0.410346
0.201541 0.347021 0.249577
0.214084 0.349340 0.249607
0.274754 0.362951 0.268772
0.371954 0.371008 0.302129
0.350317 0.353185 0.351812
0.563409 0.419501 0.334234
0.763851 0.490944 0.344121
0.914214 0.543633 0.408179
0.274815 0.501244 0.272099
0.307439 0.516350 0.291051
0.389502 0.520287 0.334661
0.470558 0.514244 0.350683
0.499733 0.482216 0.383062
0.458442 0.459846 0.444984
0.682673 0.549371 0.461555
0.900542 0.638575 0.437873
0.430915 0.673823 0.358831
0.454658 0.677058 0.373816
0.521904 0.681758 0.412696
0.590753 0.676204 0.421302
0.666407 0.665461 0.432776
0.644556 0.613642 0.493721
0.597620 0.593866 0.565698
0.782437 0.681575 0.615076
0.616083 0.837552 0.510094
0.631983 0.838254 0.522210
0.668757 0.835294 0.536095
0.719203 0.828855 0.537835
0.783536 0.818692 0.547448
0.823575 0.795315 0.577020
0.796323 0.756954 0.647822
0.754757 0.745785 0.714961
0.195377 0.193576 0.357427
0.206668 0.192660 0.360998
0.243259 0.184360 0.362341
0.310918 0.165499 0.367102
0.471412 0.134310 0.427649
0.689570 0.120058 0.504387
0.828153 0.199802 0.524651
0.946105 0.332128 0.561181
0.207523 0.214267 0.365179
0.217868 0.213291 0.370184
0.250736 0.202243 0.369635
0.315862 0.181155 0.371771
0.471351 0.160220 0.426123
0.684199 0.165469 0.498543
0.824186 0.229679 0.520348
0.943023 0.346471 0.557336
0.237064 0.271763 0.373693
0.245518 0.271489 0.375952
0.268589 0.259159 0.376928
0.320806 0.231205 0.373144
0.466987 0.231144 0.417487
0.649104 0.250675 0.464668
0.799863 0.293034 0.494270
0.927245 0.376196 0.533928
0.234409 0.316655 0.364782
0.247959 0.320012 0.366918
0.295537 0.335546 0.377386
0.332555 0.319585 0.375189
0.470283 0.332738 0.412421
0.613123 0.344488 0.427039
0.770077 0.372351 0.454810
0.916747 0.438209 0.508690
0.202060 0.358465 0.338720
0.213993 0.363043 0.342229
0.254246 0.373968 0.350134
0.328618 0.393408 0.361273
0.415686 0.402594 0.389837
0.585840 0.438972 0.399451
0.758541 0.480079 0.438239
0.910185 0.534508 0.498054
0.219730 0.483986 0.348425
0.235569 0.487739 0.349462
0.286534 0.496162 0.350958
0.396246 0.514183 0.386816
0.505364 0.509911 0.416968
0.485908 0.503136 0.493080
0.733516 0.586664 0.487037
0.908049 0.645808 0.504875
0.308751 0.674220 0.380194
0.323919 0.674617 0.379797
0.401160 0.678096 0.406348
0.533165 0.686763 0.478126
0.630610 0.680659 0.494026
0.661280 0.645014 0.533684
0.613825 0.621424 0.599847
0.813962 0.697566 0.622827
0.499550 0.832609 0.487129
0.517784 0.831785 0.496315
0.577569 0.830320 0.529259
0.680873 0.839750 0.600763
0.747463 0.829831 0.597192
0.824979 0.817075 0.607630
0.803128 0.772457 0.668788
0.759915 0.757107 0.730953
0.262516 0.271214 0.587457
0.278294 0.268406 0.587854
0.324285 0.252140 0.580713
0.408667 0.222599 0.586084
0.519097 0.179202 0.586389
0.690944 0.172122 0.633173
0.877958 0.317815 0.699245
0.967773 0.445777 0.711879
0.272465 0.293126 0.575952
0.284642 0.288884 0.574945
0.327459 0.273930 0.573632
0.401617 0.242435 0.573083
0.507622 0.202152 0.573022
0.681849 0.202182 0.623804
0.873075 0.337774 0.694575
0.964050 0.453468 0.707790
0.330816 0.391516 0.600610
0.337316 0.384802 0.597803
0.365270 0.364508 0.592645
0.421851 0.326818 0.585077
0.513176 0.282078 0.575525
0.683955 0.300267 0.623499
0.863737 0.410407 0.686915
0.957275 0.497200 0.703700
0.386358 0.493904 0.605188
0.401343 0.496345 0.604334
0.422797 0.486397 0.601129
0.459937 0.459022 0.601953
0.530419 0.404242 0.589502
0.699153 0.437140 0.635218
0.851560 0.505333 0.677241
0.948028 0.559716 0.696895
0.314641 0.502953 0.548913
0.331762 0.506767 0.551690
0.386358 0.518242 0.559625
0.467842 0.537499 0.572320
0.500908 0.495644 0.554345
0.662135 0.518761 0.594446
0.798245 0.539727 0.613123
0.919127 0.581201 0.645747
0.237339 0.528191 0.488411
0.254459 0.535180 0.494453
0.303593 0.543267 0.501061
0.375433 0.552453 0.508141
0.472023 0.564538 0.513603
0.583948 0.577478 0.554406
0.770169 0.619257 0.573663
0.911009 0.656886 0.622156
0.269291 0.683345 0.525505
0.290257 0.688258 0.528710
0.349767 0.694575 0.530327
0.440192 0.706203 0.535241
0.572625 0.717983 0.570520
0.699458 0.708919 0.602441
0.660517 0.681788 0.667170
0.870817 0.738003 0.655238
0.415259 0.836240 0.564477
0.427466 0.836027 0.564050
0.470192 0.837156 0.565209
0.547997 0.843778 0.579187
0.687709 0.843626 0.651850
0.785183 0.834806 0.668940
0.820218 0.802365 0.704250
0.776425 0.781369 0.761471
0.402380 0.407324 0.778592
0.418677 0.408515 0.782528
0.456947 0.393378 0.780941
0.521599 0.362737 0.779202
0.602502 0.300298 0.769986
0.714168 0.267033 0.768093
0.849088 0.321508 0.785306
0.966430 0.501579 0.815518
0.403418 0.422248 0.765743
0.417670 0.422339 0.769100
0.452888 0.406867 0.768246
0.510826 0.372747 0.763943
0.587976 0.310216 0.753536
0.695735 0.272282 0.749508
0.832425 0.317357 0.768978
0.958770 0.487251 0.804990
0.465431 0.523247 0.780484
0.470924 0.518029 0.779568
0.490089 0.497017 0.774807
0.532158 0.460426 0.768856
0.594293 0.394629 0.754757
0.697261 0.354314 0.750088
0.838315 0.406165 0.775051
0.961395 0.562554 0.815702
0.543755 0.636744 0.790280
0.545708 0.631861 0.787472
0.555474 0.616938 0.782528
0.574975 0.584131 0.777646
0.614038 0.521904 0.763760
0.705226 0.473243 0.757687
0.845518 0.523674 0.784176
0.959777 0.643122 0.823972
0.523613 0.668574 0.761990
0.534112 0.669276 0.760800
0.576287 0.679133 0.763516
0.615717 0.680903 0.766659
0.622858 0.630396 0.753536
0.679713 0.558862 0.735805
0.828183 0.604334 0.769100
0.945556 0.688624 0.810910
0.430549 0.681880 0.716670
0.444648 0.683772 0.718257
0.491005 0.690059 0.723568
0.564599 0.703395 0.734920
0.649165 0.720485 0.748226
0.678340 0.680842 0.733669
0.823087 0.707424 0.767880
0.923766 0.727138 0.782650
0.320867 0.716884 0.665675
0.337560 0.720058 0.668879
0.383825 0.723720 0.672816
0.452949 0.729305 0.679164
0.531334 0.729366 0.680262
0.630091 0.731655 0.681331
0.740108 0.737453 0.715541
0.894499 0.760189 0.727047
0.342260 0.826078 0.678462
0.357519 0.826963 0.678676
0.414313 0.834714 0.684840
0.493965 0.841276 0.689082
0.591699 0.847715 0.695521
0.708766 0.855131 0.719966
0.833616 0.845670 0.754696
0.803647 0.817411 0.804776
0.562188 0.577081 0.897337
0.570031 0.576562 0.898497
0.585595 0.560204 0.896208
0.622675 0.537285 0.896269
0.675715 0.493538 0.894163
0.748348 0.424506 0.889403
0.853635 0.418647 0.892241
0.946502 0.486427 0.885161
0.566766 0.589929 0.893126
0.574121 0.589227 0.894285
0.589288 0.574182 0.892882
0.621851 0.548058 0.891752
0.672663 0.504051 0.889647
0.743252 0.432776 0.884489
0.847440 0.422705 0.886503
0.942687 0.488685 0.881376
0.602960 0.649287 0.891417
0.606806 0.646662 0.891661
0.612573 0.628138 0.888487
0.644831 0.612299 0.891875
0.682429 0.565667 0.888243
0.740932 0.488045 0.880491
0.843015 0.473091 0.882780
0.940215 0.535485 0.880797
0.663661 0.732082 0.893645
0.668391 0.732143 0.894560
0.668757 0.717586 0.892393
0.681025 0.696315 0.891783
0.704829 0.657008 0.889067
0.749264 0.588678 0.882475
0.842527 0.560082 0.883604
0.939910 0.613947 0.884733
0.702449 0.788998 0.888151
0.708186 0.790799 0.889860
0.716030 0.787747 0.890440
0.729122 0.780240 0.892729
0.731533 0.744778 0.887816
0.755337 0.686336 0.880369
0.835477 0.645228 0.880278
0.938994 0.701839 0.890318
0.650263 0.797635 0.870878
0.657038 0.798184 0.870726
0.683497 0.802976 0.872465
0.732326 0.816617 0.879545
0.780240 0.829191 0.888853
0.789548 0.799283 0.888640
0.839475 0.752316 0.886839
0.935790 0.784604 0.895232
0.581903 0.826749 0.853147
0.589990 0.827085 0.853513
0.619165 0.829435 0.855955
0.672602 0.837247 0.863554
0.743252 0.850645 0.875700
0.819944 0.869596 0.890806
0.836210 0.840635 0.881224
0.923613 0.843900 0.889220
0.454322 0.864530 0.815671
0.462348 0.863951 0.815335
0.493599 0.863920 0.816342
0.548730 0.865721 0.820340
0.616907 0.866728 0.824399
0.690120 0.865354 0.826596
0.760678 0.857328 0.821042
0.860258 0.859739 0.845945
