其他预设/【235】城市莫兰迪灰/1.LUT预设（视频调色-PR-AE-PS-FCPX-达芬奇用）/城市莫兰迪灰__-4 加亮.cube
# Created by Adobe Lightroom plugin Export LUT (1.17.0)
# www.johnrellis.com/lightroom/exportlut.htm
# Preset: 城市莫兰迪灰[素锦印象]-4 加亮
# Color profile: /Library/Application Support/Adobe/Color/Profiles/Recommended/AdobeRGB1998.icc
LUT_3D_SIZE 32
0.152193 0.143008 0.152102
0.152193 0.143008 0.152102
0.153475 0.143435 0.152621
0.158419 0.145022 0.154696
0.164645 0.147097 0.157351
0.173739 0.149020 0.159762
0.186496 0.151003 0.162387
0.204196 0.153323 0.165530
0.228000 0.155886 0.169223
0.259159 0.158968 0.173739
0.299443 0.162387 0.179416
0.348852 0.167025 0.187320
0.405402 0.173007 0.197238
0.466499 0.182193 0.209445
0.528801 0.195773 0.224002
0.590570 0.215549 0.241733
0.681880 0.259373 0.276158
0.751339 0.308446 0.313481
0.805051 0.357305 0.352483
0.850004 0.406561 0.394965
0.887266 0.454231 0.439277
0.917296 0.499397 0.483528
0.940429 0.540612 0.524987
0.958221 0.579004 0.564141
0.971740 0.614557 0.600916
0.982361 0.648157 0.635798
0.990906 0.680995 0.669947
0.997620 0.713191 0.703578
1.000000 0.744778 0.736477
1.000000 0.775235 0.768215
1.000000 0.804044 0.798154
1.000000 0.830289 0.825376
0.152193 0.143008 0.152102
0.152193 0.143008 0.152102
0.153628 0.143404 0.152743
0.158602 0.145144 0.154513
0.165316 0.147311 0.157046
0.174350 0.149416 0.159426
0.186954 0.151400 0.161929
0.204105 0.153841 0.164981
0.227298 0.156405 0.168429
0.257603 0.159609 0.172885
0.296574 0.163394 0.178378
0.344305 0.168002 0.186007
0.399268 0.174075 0.195499
0.459022 0.183108 0.207279
0.520165 0.195712 0.221195
0.584222 0.215274 0.239078
0.669764 0.254765 0.270024
0.737209 0.299351 0.303990
0.790921 0.345373 0.340307
0.836881 0.392767 0.380468
0.875700 0.439551 0.423407
0.907530 0.484413 0.466987
0.932494 0.525750 0.508568
0.952026 0.564446 0.548272
0.967102 0.600855 0.585901
0.978943 0.635737 0.622187
0.988525 0.669917 0.657923
0.996002 0.703517 0.693050
1.000000 0.736385 0.727413
1.000000 0.768093 0.760494
1.000000 0.797940 0.791623
1.000000 0.825223 0.819974
0.152865 0.144228 0.152407
0.152987 0.144381 0.152560
0.153445 0.144106 0.153140
0.159609 0.145815 0.154025
0.166110 0.148013 0.156527
0.175265 0.150057 0.158938
0.187625 0.152224 0.161440
0.204654 0.154665 0.164218
0.227390 0.157504 0.167697
0.257206 0.160800 0.172030
0.295598 0.164797 0.177462
0.342748 0.169802 0.184939
0.397009 0.176211 0.194278
0.456245 0.185031 0.205783
0.516655 0.197757 0.219516
0.583337 0.217960 0.237766
0.664851 0.255039 0.266880
0.730373 0.297032 0.298680
0.783719 0.341009 0.333745
0.830076 0.387152 0.372747
0.869902 0.433478 0.415106
0.902739 0.477974 0.458503
0.928588 0.519341 0.500206
0.948943 0.557946 0.539940
0.964721 0.594415 0.577935
0.977173 0.629603 0.614862
0.987274 0.664424 0.651362
0.995209 0.698604 0.687251
1.000000 0.732113 0.722438
1.000000 0.764431 0.756252
1.000000 0.794766 0.788022
1.000000 0.822477 0.816892
0.155428 0.148898 0.153872
0.156283 0.148928 0.153994
0.158114 0.148409 0.154726
0.157198 0.147494 0.156527
0.166262 0.150088 0.156954
0.177951 0.152621 0.157961
0.190799 0.154757 0.160433
0.208103 0.157321 0.163210
0.230900 0.160281 0.166567
0.260685 0.164126 0.170748
0.298558 0.168704 0.176425
0.345129 0.174166 0.183780
0.398505 0.181399 0.192813
0.456458 0.190829 0.204013
0.515953 0.203586 0.217136
0.587304 0.225864 0.236606
0.662409 0.260166 0.263340
0.724361 0.298558 0.292851
0.775570 0.338720 0.325109
0.820798 0.381323 0.361547
0.860533 0.425086 0.401678
0.894285 0.468086 0.443885
0.922057 0.509636 0.486305
0.944610 0.549859 0.528252
0.962432 0.588769 0.569268
0.976257 0.626642 0.609400
0.987091 0.663294 0.648280
0.995300 0.698512 0.685664
1.000000 0.732143 0.721248
1.000000 0.764034 0.754910
1.000000 0.793698 0.786130
1.000000 0.820706 0.814481
0.158938 0.154299 0.155673
0.160433 0.154025 0.156069
0.162264 0.153536 0.156497
0.162875 0.151949 0.157870
0.161074 0.151247 0.160067
0.172427 0.154360 0.160616
0.193576 0.159274 0.159304
0.212192 0.162295 0.161440
0.235019 0.165591 0.164645
0.264469 0.169802 0.169100
0.301976 0.175113 0.174624
0.347753 0.181460 0.181613
0.400122 0.189487 0.190402
0.457465 0.199893 0.201266
0.516930 0.213474 0.214237
0.594141 0.238682 0.234867
0.665187 0.271611 0.260410
0.725307 0.308202 0.289189
0.775601 0.346777 0.321019
0.819730 0.387030 0.356451
0.858457 0.427924 0.395300
0.891814 0.468696 0.436530
0.919646 0.508721 0.478584
0.942748 0.548028 0.520653
0.961151 0.586511 0.562219
0.975494 0.624414 0.603326
0.986603 0.661067 0.642908
0.995056 0.696010 0.680629
1.000000 0.729519 0.716579
1.000000 0.761349 0.750546
1.000000 0.791043 0.782193
1.000000 0.818357 0.811063
0.164401 0.161257 0.157504
0.165835 0.160983 0.157778
0.167636 0.160372 0.158175
0.170443 0.159396 0.159182
0.168704 0.156435 0.161379
0.166049 0.155550 0.164248
0.180056 0.160098 0.165774
0.207675 0.166537 0.163973
0.244297 0.175570 0.162997
0.274540 0.180270 0.167330
0.312810 0.186435 0.172854
0.358831 0.193973 0.179660
0.411017 0.203220 0.188418
0.467781 0.214755 0.198917
0.534417 0.232120 0.213443
0.608728 0.259129 0.234165
0.675257 0.291051 0.258915
0.732479 0.326024 0.287327
0.781399 0.362676 0.319341
0.824796 0.401129 0.355261
0.863096 0.440650 0.394842
0.896208 0.480323 0.437324
0.967285 0.608423 0.575708
0.979065 0.641688 0.613642
0.987915 0.671778 0.647822
0.994690 0.699825 0.679347
0.999847 0.726375 0.708858
1.000000 0.751980 0.737148
1.000000 0.776699 0.764157
1.000000 0.800504 0.789975
1.000000 0.822690 0.813901
1.000000 0.842771 0.835416
0.173648 0.174350 0.160006
0.175326 0.173800 0.160433
0.177401 0.173281 0.160952
0.181521 0.172122 0.162051
0.182498 0.168704 0.164187
0.179324 0.164858 0.167788
0.175174 0.164004 0.172213
0.195438 0.171572 0.175692
0.236179 0.181735 0.173465
0.295415 0.198795 0.170047
0.351781 0.212985 0.171939
0.402167 0.222721 0.179507
0.456397 0.234012 0.188998
0.517235 0.249546 0.201358
0.596216 0.277562 0.220859
0.663996 0.307805 0.244083
0.721981 0.339757 0.271489
0.771633 0.372808 0.302495
0.815793 0.407904 0.337835
0.856779 0.446326 0.379034
0.894255 0.488136 0.426368
0.926757 0.532341 0.478218
0.952667 0.576867 0.530846
0.971496 0.619623 0.581292
0.984436 0.658259 0.626398
0.993133 0.691035 0.664454
0.999176 0.719875 0.697566
1.000000 0.746304 0.727596
1.000000 0.771572 0.755886
1.000000 0.795407 0.782315
1.000000 0.817838 0.806912
1.000000 0.838376 0.829313
0.183963 0.189212 0.162966
0.185702 0.188663 0.163241
0.187961 0.188022 0.163760
0.192386 0.186648 0.164828
0.198062 0.184695 0.166690
0.194888 0.178470 0.170474
0.190463 0.174166 0.175235
0.185336 0.173251 0.180941
0.209812 0.183993 0.187015
0.260227 0.197421 0.184817
0.331640 0.219425 0.181155
0.419745 0.250858 0.174594
0.477272 0.264714 0.184268
0.551354 0.288579 0.198764
0.618250 0.313237 0.217197
0.677089 0.338689 0.239017
0.729030 0.365759 0.265080
0.774868 0.394079 0.294774
0.816739 0.424475 0.329107
0.856229 0.458564 0.369268
0.892729 0.496132 0.415442
0.924712 0.536431 0.466041
0.950591 0.577417 0.517815
0.969787 0.617365 0.567803
0.983185 0.654353 0.613428
0.992309 0.686458 0.652461
0.998749 0.714961 0.686610
1.000000 0.741421 0.717739
1.000000 0.766873 0.747158
1.000000 0.790921 0.774563
1.000000 0.813687 0.800168
1.000000 0.834623 0.823453
0.197757 0.209415 0.166476
0.199588 0.208896 0.166873
0.202060 0.208286 0.167361
0.207034 0.206668 0.168551
0.213962 0.204562 0.170596
0.215976 0.199222 0.173983
0.211398 0.191745 0.179232
0.205722 0.186831 0.185519
0.199191 0.186252 0.193088
0.228305 0.201236 0.202853
0.290929 0.219211 0.201114
0.383154 0.251194 0.198703
0.495766 0.298039 0.192477
0.587701 0.338262 0.193332
0.645502 0.358740 0.211917
0.696956 0.379339 0.234012
0.743343 0.401129 0.260105
0.785397 0.424353 0.290043
0.824308 0.450111 0.324193
0.861570 0.479438 0.364019
0.896147 0.512566 0.409552
0.926696 0.548363 0.459388
0.951537 0.585412 0.510338
0.970214 0.621973 0.559472
0.983429 0.656489 0.605005
0.992523 0.686824 0.644251
0.998993 0.714351 0.678889
1.000000 0.739956 0.710475
1.000000 0.764706 0.740261
1.000000 0.788327 0.768093
1.000000 0.810819 0.794064
1.000000 0.831601 0.817807
0.215671 0.235569 0.170809
0.217563 0.234989 0.171328
0.220066 0.234134 0.171847
0.225498 0.232486 0.173129
0.233005 0.230045 0.175265
0.241672 0.227115 0.178073
0.237461 0.217197 0.183810
0.231510 0.208621 0.190799
0.224704 0.203281 0.198917
0.218173 0.204318 0.209751
0.257267 0.228611 0.227787
0.342107 0.256504 0.228397
0.447211 0.295933 0.225986
0.559503 0.346471 0.219120
0.665736 0.404608 0.207950
0.720851 0.427344 0.227878
0.764920 0.445594 0.256535
0.804410 0.464759 0.288914
0.840330 0.485817 0.324834
0.873686 0.509667 0.364691
0.904173 0.536370 0.408576
0.930816 0.565270 0.455116
0.952880 0.595453 0.502068
0.970062 0.626093 0.548028
0.982788 0.656428 0.591730
0.992035 0.684871 0.631312
0.998871 0.711696 0.667262
1.000000 0.737484 0.700771
1.000000 0.762631 0.732326
1.000000 0.786770 0.761898
1.000000 0.809689 0.789273
1.000000 0.830838 0.814145
0.236088 0.266331 0.175601
0.238346 0.265843 0.175967
0.241184 0.265080 0.176699
0.247135 0.263584 0.178134
0.255650 0.261265 0.180514
0.265965 0.258640 0.183749
0.270573 0.251530 0.189120
0.265171 0.240787 0.197147
0.262181 0.234836 0.208469
0.256809 0.231815 0.221714
0.248508 0.233951 0.236637
0.293584 0.265019 0.260990
0.391119 0.298070 0.261631
0.501366 0.341436 0.259098
0.610803 0.393622 0.253361
0.709804 0.448981 0.245182
0.781338 0.488808 0.248386
0.817380 0.502342 0.282139
0.850278 0.517967 0.318669
0.881254 0.536675 0.358862
0.909697 0.558801 0.402838
0.934905 0.583368 0.449134
0.955871 0.609888 0.496407
0.972259 0.637110 0.542199
0.984375 0.664302 0.585595
0.993194 0.690028 0.624781
0.999756 0.714565 0.660395
1.000000 0.738521 0.693690
1.000000 0.762264 0.725216
1.000000 0.785428 0.754971
1.000000 0.807706 0.782773
1.000000 0.828672 0.808255
0.263035 0.306188 0.181186
0.265263 0.305791 0.181765
0.268406 0.304997 0.182467
0.274662 0.303502 0.184085
0.285405 0.302831 0.186831
0.300206 0.303593 0.191287
0.317479 0.304326 0.197086
0.317571 0.294072 0.207523
0.313207 0.282963 0.220157
0.306676 0.273899 0.234775
0.297734 0.269017 0.251377
0.285618 0.271000 0.269932
0.397314 0.371557 0.357488
0.526665 0.419287 0.360021
0.646540 0.471839 0.358526
0.746395 0.520928 0.354986
0.824857 0.562066 0.351690
0.886076 0.595544 0.349371
0.915404 0.608331 0.377630
0.934600 0.618036 0.419226
0.951873 0.631189 0.461646
0.966735 0.647303 0.504021
0.978668 0.665187 0.544915
0.988190 0.684840 0.584558
0.995514 0.704799 0.621332
1.000000 0.724483 0.654871
1.000000 0.743618 0.685420
1.000000 0.762570 0.713924
1.000000 0.781613 0.741024
1.000000 0.800717 0.767056
1.000000 0.819425 0.791531
1.000000 0.837430 0.814389
0.322698 0.393988 0.193454
0.325780 0.393957 0.194308
0.329259 0.392584 0.195163
0.337133 0.390692 0.197391
0.348699 0.387976 0.200839
0.363195 0.384466 0.205509
0.380896 0.381689 0.212192
0.392859 0.374395 0.222385
0.387610 0.358984 0.238437
0.382910 0.346624 0.257542
0.377600 0.339117 0.280613
0.370275 0.338293 0.307439
0.358740 0.346044 0.337163
0.420539 0.402960 0.388952
0.553033 0.455116 0.396887
0.670771 0.507103 0.399634
0.765072 0.552117 0.399207
0.838315 0.589014 0.397955
0.896056 0.619654 0.398444
0.938170 0.642634 0.406683
0.954284 0.651209 0.449195
0.968322 0.662867 0.491432
0.979736 0.676722 0.532067
0.988922 0.692653 0.571527
0.996063 0.709651 0.608423
1.000000 0.726894 0.642176
1.000000 0.744320 0.673365
1.000000 0.761990 0.702663
1.000000 0.780117 0.730678
1.000000 0.798734 0.757717
1.000000 0.817136 0.783200
1.000000 0.835172 0.807248
0.370977 0.461219 0.205356
0.374243 0.460792 0.206180
0.377203 0.458839 0.207065
0.384161 0.455573 0.209293
0.394598 0.450660 0.212497
0.407965 0.445167 0.217502
0.424933 0.440589 0.224369
0.444465 0.437263 0.233524
0.445533 0.422766 0.249271
0.440467 0.407538 0.269383
0.435492 0.395789 0.293187
0.429297 0.388678 0.320439
0.419471 0.387396 0.349828
0.403876 0.393439 0.379950
0.457465 0.449195 0.434302
0.584985 0.496864 0.440314
0.694453 0.542229 0.441932
0.781155 0.581567 0.442298
0.850431 0.615381 0.443336
0.905486 0.644160 0.446693
0.948699 0.668391 0.452644
0.971008 0.681971 0.480476
0.981842 0.692164 0.521599
0.990661 0.704738 0.561395
0.997528 0.718837 0.598749
1.000000 0.733700 0.633021
1.000000 0.749050 0.664637
1.000000 0.765133 0.694392
1.000000 0.781979 0.722988
1.000000 0.799557 0.750576
1.000000 0.817319 0.776852
1.000000 0.834867 0.801602
0.419928 0.524285 0.220584
0.423133 0.524254 0.221744
0.425757 0.521935 0.222477
0.431983 0.517967 0.224399
0.441291 0.512047 0.227726
0.453498 0.505364 0.232486
0.469459 0.499855 0.239445
0.488533 0.495552 0.248722
0.505211 0.489570 0.262333
0.500267 0.473243 0.283482
0.495766 0.459327 0.307866
0.490486 0.448493 0.335607
0.482216 0.441077 0.365118
0.469062 0.438209 0.395087
0.449531 0.441352 0.423743
0.492592 0.493172 0.478035
0.615198 0.536614 0.482948
0.716640 0.576501 0.484504
0.798123 0.612299 0.486458
0.863493 0.643580 0.489906
0.915282 0.670344 0.495491
0.955108 0.692348 0.502708
0.984253 0.709529 0.510796
0.992554 0.718532 0.550835
0.999145 0.729854 0.589014
1.000000 0.742611 0.624475
1.000000 0.756710 0.657954
1.000000 0.772091 0.689784
1.000000 0.788479 0.720119
1.000000 0.805661 0.749264
1.000000 0.823056 0.776699
1.000000 0.840146 0.802182
0.469093 0.582818 0.240604
0.472724 0.583215 0.241917
0.475898 0.582208 0.243046
0.483009 0.579675 0.245640
0.493446 0.575769 0.249607
0.507256 0.571435 0.255314
0.524468 0.567895 0.263340
0.544549 0.565026 0.274022
0.566979 0.563165 0.287633
0.572015 0.550927 0.307378
0.565209 0.533837 0.331273
0.556970 0.517632 0.357183
0.546075 0.502861 0.383764
0.531334 0.490791 0.410681
0.512230 0.483223 0.436744
0.488075 0.481971 0.461341
0.521355 0.530022 0.515343
0.640101 0.571191 0.521202
0.737392 0.609613 0.525780
0.815915 0.644587 0.531884
0.878294 0.674861 0.539361
0.926604 0.700160 0.547967
0.962463 0.720180 0.556573
0.988739 0.735958 0.565362
1.000000 0.747219 0.587488
1.000000 0.757565 0.623621
1.000000 0.769406 0.657191
1.000000 0.782650 0.688991
1.000000 0.797024 0.719142
1.000000 0.812039 0.747463
1.000000 0.827451 0.774075
1.000000 0.842771 0.798734
0.513451 0.632715 0.263096
0.515953 0.632227 0.263981
0.518730 0.630854 0.264958
0.525170 0.628565 0.267521
0.535058 0.625238 0.271519
0.548180 0.621576 0.277287
0.564477 0.618250 0.285466
0.583429 0.615229 0.295842
0.604639 0.613062 0.308965
0.624964 0.609735 0.325597
0.619471 0.593225 0.349248
0.612268 0.577020 0.374731
0.602991 0.561303 0.401251
0.590265 0.546532 0.427619
0.573327 0.533715 0.453010
0.551843 0.524651 0.476570
0.526268 0.521874 0.498939
0.550774 0.566705 0.552911
0.665095 0.606012 0.559899
0.757229 0.642115 0.566461
0.831205 0.674678 0.574334
0.889342 0.702510 0.583001
0.933562 0.725185 0.591913
0.966278 0.743404 0.601007
0.990265 0.757778 0.609644
1.000000 0.769406 0.618036
1.000000 0.779324 0.650385
1.000000 0.790768 0.683070
1.000000 0.803525 0.713893
1.000000 0.817288 0.742947
1.000000 0.831571 0.770108
1.000000 0.846036 0.795438
0.558984 0.682124 0.292271
0.562768 0.683101 0.294255
0.615717 0.733425 0.337682
0.621729 0.731228 0.340093
0.630640 0.727687 0.343786
0.641901 0.723049 0.348821
0.655695 0.717891 0.355779
0.671687 0.712703 0.364965
0.689967 0.708217 0.377295
0.709834 0.704463 0.392523
0.715846 0.692744 0.412390
0.706905 0.674891 0.435401
0.695369 0.656214 0.458625
0.681544 0.637873 0.481727
0.664607 0.620569 0.503868
0.644099 0.605585 0.524987
0.619898 0.594659 0.544884
0.592248 0.589563 0.563836
0.606378 0.629419 0.616114
0.711055 0.663416 0.622522
0.793271 0.693599 0.628260
0.858518 0.720485 0.635187
0.908690 0.742855 0.642359
0.945861 0.760555 0.649134
0.972869 0.773983 0.654719
0.992920 0.784543 0.659846
1.000000 0.793149 0.664729
1.000000 0.801114 0.679072
1.000000 0.811124 0.708766
1.000000 0.822904 0.737758
1.000000 0.835721 0.765103
1.000000 0.848844 0.790524
0.612482 0.737575 0.336522
0.620630 0.743282 0.343359
0.629572 0.748684 0.350774
0.640742 0.752346 0.358770
0.653193 0.753719 0.366857
0.666041 0.752010 0.373999
0.679835 0.748470 0.381445
0.695155 0.744228 0.390326
0.712520 0.740352 0.401862
0.731014 0.736690 0.415717
0.750271 0.733425 0.432105
0.744289 0.716640 0.453437
0.734310 0.699062 0.474861
0.722286 0.681117 0.496071
0.707607 0.663294 0.516655
0.689967 0.646571 0.536431
0.669551 0.632380 0.555352
0.646448 0.622492 0.573846
0.620874 0.618769 0.592493
0.630030 0.656672 0.644312
0.728573 0.689509 0.652644
0.807645 0.719142 0.660822
0.869261 0.744594 0.668971
0.915801 0.765225 0.676661
0.949828 0.781186 0.683314
0.974731 0.793637 0.689326
0.993256 0.803708 0.695094
1.000000 0.812284 0.701106
1.000000 0.820005 0.707668
1.000000 0.829618 0.732815
1.000000 0.840818 0.760403
1.000000 0.852689 0.786099
0.643610 0.769314 0.367254
0.650690 0.774044 0.373968
0.658564 0.778531 0.381109
0.668330 0.781582 0.388769
0.679713 0.782620 0.396490
0.691493 0.781216 0.403235
0.704250 0.778225 0.410346
0.718593 0.774594 0.418616
0.734829 0.771145 0.429328
0.752346 0.767758 0.442206
0.770687 0.764767 0.457465
0.779904 0.756130 0.475319
0.771359 0.739895 0.494972
0.761044 0.723140 0.514794
0.748440 0.705959 0.533959
0.733394 0.689052 0.552575
0.716030 0.673671 0.570397
0.696468 0.661189 0.588281
0.675196 0.653040 0.606195
0.652369 0.650965 0.624537
0.661250 0.686152 0.673030
0.749050 0.717800 0.684901
0.823545 0.745693 0.693935
0.880522 0.768856 0.702174
0.922850 0.787045 0.709255
0.953704 0.801236 0.715602
0.976410 0.812528 0.721492
0.993439 0.822080 0.727687
1.000000 0.830533 0.734340
1.000000 0.838071 0.741268
1.000000 0.845762 0.754025
1.000000 0.856291 0.780117
0.673304 0.799039 0.400397
0.679622 0.803037 0.406989
0.686549 0.806851 0.413886
0.695399 0.809445 0.421363
0.705592 0.810269 0.428595
0.716243 0.808988 0.435065
0.727932 0.806271 0.441382
0.741024 0.802945 0.448951
0.755917 0.799527 0.458473
0.772000 0.796078 0.469795
0.788907 0.792935 0.483162
0.805844 0.789609 0.498146
0.803738 0.775967 0.515618
0.794980 0.760586 0.534112
0.784695 0.745083 0.552728
0.772976 0.729946 0.571374
0.760006 0.716396 0.590661
0.745907 0.705318 0.610163
0.730739 0.697688 0.630060
0.714534 0.694575 0.650324
0.697169 0.696254 0.670527
0.707668 0.730037 0.716823
0.783444 0.759670 0.731380
0.850645 0.784878 0.741054
0.900420 0.804898 0.749386
0.936217 0.820340 0.756466
0.962066 0.832425 0.762844
0.981079 0.842283 0.768948
0.995300 0.850706 0.775174
1.000000 0.857969 0.781277
1.000000 0.864317 0.787198
1.000000 0.869932 0.793027
0.718257 0.841550 0.458930
0.721675 0.842863 0.462440
0.725246 0.843778 0.465583
0.730709 0.843870 0.469459
0.738155 0.842924 0.473823
0.746914 0.840970 0.478462
0.757412 0.838437 0.484108
0.769680 0.835721 0.491432
0.783871 0.833097 0.500786
0.799466 0.830625 0.512291
0.815793 0.828214 0.525505
0.832090 0.825437 0.539696
0.843412 0.818997 0.554864
0.835996 0.805234 0.571618
0.827176 0.791012 0.588220
0.817136 0.776883 0.604883
0.805936 0.763485 0.621668
0.793759 0.751675 0.638697
0.780514 0.742092 0.656031
0.766171 0.735286 0.673426
0.750423 0.731930 0.690669
0.733272 0.732418 0.707576
0.740536 0.760403 0.747372
0.803189 0.785275 0.760494
0.863828 0.806851 0.768399
0.908690 0.824308 0.775692
0.941131 0.838224 0.782498
0.964691 0.849546 0.789151
0.982055 0.859007 0.795712
0.994995 0.867033 0.802090
1.000000 0.874022 0.808377
1.000000 0.880308 0.814786
0.742885 0.864408 0.494484
0.746029 0.865599 0.497902
0.749386 0.866514 0.501274
0.754513 0.866575 0.505028
0.761074 0.865782 0.509056
0.768826 0.863828 0.512871
0.778073 0.861326 0.517510
0.788815 0.858549 0.523491
0.801511 0.855802 0.531518
0.815518 0.853208 0.541405
0.830442 0.850645 0.553124
0.845518 0.847959 0.565881
0.860105 0.844846 0.579095
0.862211 0.834928 0.594110
0.855100 0.822324 0.609613
0.846983 0.809659 0.625330
0.838071 0.797543 0.641382
0.828275 0.786404 0.657740
0.817746 0.777005 0.674434
0.806332 0.769650 0.691249
0.794003 0.764920 0.708186
0.780575 0.763180 0.724849
0.765805 0.764553 0.741054
0.772396 0.789700 0.777066
0.816648 0.803525 0.781613
0.872892 0.823270 0.789059
0.914580 0.839536 0.796414
0.944579 0.852659 0.803464
0.966400 0.863523 0.810483
0.982391 0.872801 0.817502
0.994141 0.880949 0.824765
1.000000 0.888365 0.832364
0.776944 0.893584 0.549584
0.779843 0.894652 0.553338
0.782498 0.895109 0.555932
0.786374 0.894652 0.558373
0.791409 0.893278 0.560601
0.797696 0.891142 0.562982
0.805203 0.888396 0.565759
0.814023 0.885161 0.569390
0.824247 0.881712 0.574334
0.835752 0.878294 0.580987
0.847990 0.874693 0.588830
0.860899 0.871275 0.598230
0.873838 0.867582 0.608392
0.885435 0.862913 0.619013
0.879240 0.849821 0.630823
0.871214 0.836942 0.642939
0.862364 0.824308 0.655604
0.853239 0.812619 0.669429
0.844053 0.802792 0.684565
0.834775 0.795163 0.700832
0.825010 0.789792 0.717556
0.814176 0.786435 0.733822
0.801694 0.784970 0.749020
0.787198 0.785489 0.762966
0.791257 0.806516 0.794125
0.834104 0.825284 0.806302
0.885069 0.842802 0.813107
0.922087 0.856992 0.819669
0.948913 0.868772 0.826383
0.968475 0.878874 0.833402
0.982696 0.887877 0.840940
0.992950 0.896147 0.849149
0.794888 0.908751 0.580835
0.797482 0.909667 0.584253
0.799893 0.910063 0.586755
0.803281 0.909636 0.588983
0.807858 0.908446 0.591028
0.813657 0.906676 0.593225
0.820706 0.904448 0.596124
0.828977 0.901884 0.599786
0.838651 0.899168 0.604852
0.849577 0.896452 0.611444
0.861234 0.893645 0.619013
0.873655 0.890837 0.628138
0.886107 0.887907 0.637903
0.898161 0.884642 0.647883
0.903105 0.877073 0.658564
0.896849 0.866087 0.669978
0.889952 0.855100 0.681910
0.882689 0.844724 0.694606
0.875181 0.835599 0.708461
0.867521 0.827939 0.723232
0.859373 0.821897 0.738277
0.850431 0.817441 0.753079
0.840299 0.814420 0.767147
0.828763 0.812985 0.780209
0.815549 0.813199 0.792294
0.818296 0.831144 0.819486
0.852628 0.847593 0.831540
0.898039 0.863310 0.838224
0.930632 0.876341 0.845121
0.954101 0.887327 0.852262
0.971038 0.897002 0.859953
0.983124 0.905913 0.868406
0.814664 0.924315 0.617426
0.816526 0.924743 0.619837
0.818204 0.924743 0.621118
0.820829 0.924071 0.622248
0.824430 0.922789 0.623255
0.829252 0.921019 0.624506
0.835264 0.918883 0.626398
0.842618 0.916503 0.629236
0.851347 0.914061 0.633478
0.861234 0.911681 0.639277
0.872007 0.909209 0.646174
0.883574 0.906828 0.654566
0.895323 0.904326 0.663600
0.906798 0.901488 0.672816
0.917693 0.898283 0.681788
0.916106 0.888823 0.691981
0.910399 0.878935 0.702602
0.904356 0.869444 0.713985
0.898100 0.860838 0.726406
0.891691 0.853330 0.739742
0.884916 0.847105 0.753536
0.877562 0.842069 0.767239
0.869291 0.838224 0.780301
0.859953 0.835599 0.792752
0.849302 0.834287 0.804257
0.837247 0.834409 0.814969
0.839322 0.850065 0.839109
0.866423 0.864652 0.851072
0.907073 0.878904 0.857603
0.936339 0.891173 0.864897
0.957214 0.901793 0.872648
0.972045 0.911406 0.881224
0.829648 0.935729 0.646509
0.831022 0.935912 0.648096
0.832486 0.935851 0.649226
0.834897 0.935393 0.650416
0.838621 0.934539 0.652125
0.843687 0.933532 0.654841
0.850431 0.932586 0.659297
0.858549 0.931640 0.665187
0.868009 0.930724 0.672572
0.878416 0.929839 0.681239
0.889464 0.928862 0.690822
0.900847 0.927764 0.700954
0.912108 0.926390 0.711116
0.922972 0.924651 0.720790
0.933257 0.922484 0.729946
0.940581 0.918181 0.738521
0.936645 0.910124 0.747890
0.932158 0.902403 0.757656
0.927459 0.895171 0.768215
0.922515 0.888670 0.779355
0.917296 0.883055 0.790799
0.911650 0.878264 0.802243
0.905241 0.874235 0.813230
0.898161 0.871183 0.823728
0.890227 0.869047 0.833677
0.881285 0.868101 0.843076
0.871580 0.868528 0.852110
0.872709 0.880797 0.871458
0.891386 0.892515 0.882292
0.923857 0.904051 0.887999
0.947295 0.914549 0.895048
0.963806 0.923949 0.902800
0.854185 0.951415 0.696651
0.855161 0.951415 0.697627
0.856046 0.951202 0.698054
0.857877 0.950652 0.698421
0.860685 0.949767 0.699153
0.864591 0.948638 0.700496
0.869627 0.947417 0.702785
0.875914 0.946105 0.706111
0.883207 0.944701 0.710628
0.891447 0.943236 0.716091
0.900267 0.941650 0.722225
0.909575 0.939971 0.729122
0.919036 0.938170 0.736294
0.928466 0.936156 0.743587
0.937652 0.933898 0.750851
0.946502 0.931548 0.758206
