其他预设/【235】城市莫兰迪灰/1.LUT预设（视频调色-PR-AE-PS-FCPX-达芬奇用）/城市莫兰迪灰__-1 暗调.cube
# Created by Adobe Lightroom plugin Export LUT (1.17.0)
# www.johnrellis.com/lightroom/exportlut.htm
# Preset: 城市莫兰迪灰[素锦印象]-1 暗调
# Color profile: /Library/Application Support/Adobe/Color/Profiles/Recommended/AdobeRGB1998.icc
LUT_3D_SIZE 32
0.152193 0.143008 0.152102
0.152377 0.142977 0.152071
0.153567 0.143099 0.152346
0.157107 0.143099 0.152987
0.161135 0.143862 0.153689
0.165835 0.144472 0.154513
0.171267 0.145388 0.155459
0.178347 0.145907 0.156191
0.187472 0.146578 0.157137
0.198978 0.147066 0.158114
0.213596 0.147219 0.159274
0.231632 0.147250 0.160372
0.253178 0.146700 0.161532
0.278447 0.145602 0.163027
0.307591 0.143801 0.164431
0.340307 0.140993 0.165896
0.376135 0.136904 0.167514
0.429908 0.129671 0.169833
0.487098 0.119905 0.172244
0.544762 0.109804 0.175235
0.602075 0.101808 0.178653
0.657740 0.099367 0.182742
0.709346 0.104921 0.187686
0.756161 0.118837 0.193942
0.798978 0.137972 0.201633
0.839078 0.161624 0.211429
0.877714 0.189761 0.224216
0.914641 0.221775 0.241123
0.949523 0.258000 0.263096
0.981384 0.297978 0.291600
1.000000 0.341955 0.327214
1.000000 0.389685 0.370977
0.152163 0.143008 0.152224
0.152346 0.143130 0.152224
0.153689 0.143404 0.152468
0.157015 0.143801 0.152926
0.161044 0.144564 0.153628
0.165591 0.145174 0.154482
0.170901 0.145785 0.155428
0.177829 0.146517 0.156161
0.186709 0.147066 0.157137
0.197879 0.147646 0.158114
0.212100 0.147921 0.159121
0.229526 0.147860 0.160250
0.250340 0.147585 0.161593
0.274937 0.146853 0.162966
0.303075 0.145296 0.164309
0.334874 0.143008 0.165835
0.369940 0.139223 0.167269
0.421607 0.132815 0.169497
0.475471 0.124697 0.171786
0.530877 0.115633 0.174472
0.586816 0.107851 0.177646
0.641810 0.104158 0.181399
0.693812 0.106935 0.185916
0.741665 0.117830 0.191592
0.785672 0.135164 0.198611
0.827115 0.157504 0.207706
0.867277 0.184085 0.219760
0.905730 0.215885 0.236027
0.942107 0.251560 0.257267
0.975494 0.291264 0.284886
1.000000 0.334997 0.319707
1.000000 0.382330 0.362707
0.152865 0.144076 0.152438
0.153048 0.144045 0.152590
0.153170 0.143832 0.152895
0.156893 0.144869 0.152865
0.160952 0.145266 0.153597
0.165347 0.145907 0.154421
0.170626 0.146670 0.155367
0.177310 0.147311 0.156130
0.186069 0.147890 0.157076
0.196994 0.148531 0.158083
0.210941 0.148898 0.159091
0.228092 0.149081 0.160220
0.248600 0.148806 0.161471
0.272740 0.148287 0.162844
0.300450 0.147005 0.164187
0.331792 0.144778 0.165652
0.366278 0.141848 0.167208
0.417243 0.135836 0.169284
0.469184 0.128725 0.171572
0.523308 0.120790 0.174075
0.578729 0.113710 0.177035
0.633478 0.110079 0.180697
0.685695 0.112520 0.184970
0.734005 0.121675 0.190433
0.778561 0.137514 0.197177
0.820584 0.158236 0.205905
0.861448 0.184482 0.217563
0.900755 0.215244 0.233433
0.938048 0.250309 0.254307
0.972198 0.289616 0.281437
1.000000 0.332799 0.315801
1.000000 0.379614 0.358160
0.154330 0.146487 0.153231
0.155001 0.146517 0.153353
0.156008 0.146334 0.153628
0.155367 0.145724 0.154696
0.159701 0.146792 0.154665
0.165255 0.147768 0.154421
0.170474 0.148196 0.155245
0.177096 0.148989 0.156130
0.185580 0.149630 0.157107
0.196384 0.150271 0.158114
0.210025 0.150729 0.159121
0.226780 0.151186 0.160250
0.246769 0.151278 0.161501
0.270359 0.151034 0.162875
0.297520 0.150271 0.164126
0.328222 0.148653 0.165713
0.364172 0.146120 0.167208
0.412512 0.141604 0.169131
0.461067 0.136294 0.171206
0.512169 0.130098 0.173526
0.565332 0.124422 0.176303
0.619013 0.121401 0.179568
0.671901 0.123384 0.183597
0.722713 0.131777 0.188693
0.770474 0.146273 0.195529
0.815549 0.166903 0.204440
0.858549 0.192538 0.216526
0.899168 0.222873 0.232609
0.936858 0.257145 0.253574
0.970977 0.294987 0.280491
1.000000 0.336217 0.314092
1.000000 0.380835 0.355169
0.156466 0.149355 0.154391
0.157168 0.149233 0.154543
0.158206 0.149050 0.154665
0.158663 0.148287 0.155428
0.157595 0.147921 0.156771
0.161807 0.148959 0.157015
0.169284 0.150210 0.155978
0.176486 0.151217 0.156283
0.184695 0.151888 0.157229
0.195163 0.152804 0.158236
0.208347 0.153506 0.159243
0.224582 0.154330 0.160250
0.244022 0.154940 0.161471
0.267063 0.155123 0.162875
0.293919 0.154757 0.164096
0.324590 0.153994 0.165652
0.363958 0.152255 0.167300
0.410193 0.149477 0.169162
0.457527 0.145693 0.171145
0.507286 0.141543 0.173281
0.558862 0.137819 0.175845
0.611383 0.136599 0.178988
0.663783 0.139345 0.182650
0.715053 0.147250 0.187655
0.763638 0.161044 0.194125
0.809689 0.180056 0.202914
0.853422 0.204013 0.214755
0.894560 0.232273 0.230411
0.932738 0.264714 0.250889
0.967346 0.300786 0.277256
0.997589 0.340307 0.310307
1.000000 0.383398 0.351019
0.158877 0.152255 0.155825
0.159518 0.152316 0.155947
0.160372 0.152163 0.156100
0.161868 0.151888 0.156344
0.161318 0.150637 0.157443
0.160281 0.150149 0.158938
0.164431 0.151461 0.159548
0.173281 0.153017 0.158480
0.184543 0.155245 0.157412
0.194858 0.156283 0.158389
0.207797 0.157534 0.159365
0.223789 0.158511 0.160494
0.242985 0.159487 0.161685
0.265721 0.160250 0.162936
0.292302 0.160800 0.164248
0.323095 0.160708 0.165621
0.365393 0.160403 0.167514
0.410101 0.159060 0.169253
0.456764 0.157229 0.171176
0.506340 0.155032 0.173342
0.558251 0.153902 0.175845
0.611597 0.154849 0.178775
0.753567 0.191196 0.193820
0.798001 0.207614 0.202365
0.838224 0.226383 0.212711
0.875242 0.247440 0.225620
0.909453 0.271153 0.241459
0.941222 0.297429 0.261265
0.970428 0.326513 0.285557
0.996551 0.358892 0.315312
1.000000 0.394049 0.350683
1.000000 0.432532 0.391821
0.162234 0.156771 0.157656
0.162875 0.156832 0.157778
0.163699 0.156680 0.157900
0.165499 0.156497 0.157992
0.166629 0.155520 0.158755
0.165408 0.153933 0.160311
0.163973 0.153506 0.162142
0.168826 0.155398 0.163241
0.180514 0.157412 0.161807
0.195773 0.160586 0.160372
0.212711 0.163699 0.160067
0.230014 0.165377 0.161196
0.250340 0.166995 0.162387
0.274266 0.168276 0.163607
0.301579 0.169375 0.164950
0.339208 0.170962 0.166476
0.382879 0.172213 0.168215
0.428626 0.172580 0.169955
0.477241 0.172885 0.171969
0.530571 0.173953 0.174289
0.588739 0.177401 0.177432
0.650233 0.185214 0.181521
0.711635 0.198428 0.187381
0.768185 0.216129 0.195529
0.818326 0.237186 0.206424
0.861295 0.259342 0.219730
0.898924 0.282567 0.235782
0.932616 0.307530 0.255161
0.963317 0.334844 0.279026
0.990478 0.364752 0.307713
1.000000 0.397559 0.342199
1.000000 0.433783 0.382544
0.165652 0.161563 0.159274
0.166110 0.161501 0.159396
0.166934 0.161349 0.159518
0.168704 0.161044 0.159640
0.171176 0.160739 0.160006
0.170901 0.158938 0.161257
0.169528 0.157290 0.163058
0.167758 0.156924 0.165164
0.172671 0.159304 0.167239
0.186587 0.161807 0.165560
0.204837 0.165591 0.163882
0.227665 0.171145 0.161898
0.248661 0.173953 0.162539
0.271946 0.176089 0.163729
0.302922 0.178988 0.165225
0.340185 0.181949 0.166659
0.380468 0.184390 0.168246
0.423407 0.186282 0.169833
0.469703 0.188357 0.171695
0.521141 0.191287 0.173739
0.577600 0.196567 0.176486
0.637659 0.205417 0.180240
0.698299 0.218875 0.185489
0.754879 0.235843 0.192844
0.805631 0.255344 0.202792
0.849638 0.275792 0.215274
0.888548 0.297093 0.230594
0.923644 0.320195 0.249393
0.955718 0.345800 0.272648
0.984253 0.373510 0.300694
1.000000 0.404456 0.334661
1.000000 0.438483 0.374456
0.169802 0.167605 0.161135
0.170443 0.167514 0.161257
0.171206 0.167361 0.161379
0.172946 0.167086 0.161501
0.175509 0.166751 0.161868
0.177798 0.165774 0.162417
0.176455 0.163333 0.164279
0.174655 0.161501 0.166476
0.172488 0.161196 0.169162
0.177493 0.164462 0.172366
0.194369 0.167361 0.170382
0.215946 0.171908 0.168276
0.242130 0.178256 0.165927
0.275273 0.186404 0.164218
0.307103 0.190829 0.165621
0.342016 0.194644 0.166903
0.380194 0.198306 0.168246
0.421454 0.201511 0.169680
0.466255 0.205081 0.171389
0.516350 0.209903 0.173404
0.571466 0.217014 0.175875
0.630243 0.227420 0.179263
0.689906 0.241672 0.183993
0.746059 0.258671 0.190829
0.796750 0.277501 0.200320
0.841215 0.296422 0.212161
0.880797 0.316533 0.226932
0.916625 0.337682 0.245243
0.949462 0.360967 0.267765
0.978790 0.386481 0.295293
1.000000 0.414649 0.328496
1.000000 0.446052 0.367529
0.175051 0.175113 0.163333
0.175692 0.174990 0.163302
0.176425 0.174868 0.163424
0.178256 0.174563 0.163546
0.180880 0.174228 0.163912
0.184360 0.173617 0.164248
0.184878 0.171267 0.165652
0.183017 0.168612 0.167910
0.181033 0.166751 0.170687
0.178408 0.166384 0.173953
0.183200 0.170565 0.178561
0.203738 0.174563 0.176547
0.230991 0.180789 0.174502
0.264744 0.189609 0.171725
0.305425 0.200992 0.167880
0.344152 0.209079 0.167147
0.382635 0.214267 0.168368
0.424109 0.219394 0.169650
0.468727 0.224704 0.171237
0.517540 0.231205 0.173098
0.570001 0.239689 0.175357
0.624994 0.250675 0.178378
0.680812 0.264500 0.182406
0.734127 0.280186 0.188388
0.783566 0.297520 0.196597
0.828458 0.315435 0.207584
0.869566 0.334295 0.221836
0.907469 0.354772 0.239719
0.942260 0.377203 0.262577
0.973419 0.401740 0.290471
1.000000 0.428687 0.324254
1.000000 0.458717 0.364080
0.181003 0.183993 0.165560
0.181582 0.183871 0.165682
0.182467 0.183749 0.165805
0.184360 0.183413 0.165896
0.187167 0.183078 0.166262
0.190890 0.182681 0.166567
0.195102 0.181918 0.167178
0.193454 0.178225 0.169619
0.191348 0.175174 0.172519
0.189059 0.173312 0.176089
0.187015 0.173770 0.180728
0.191989 0.180056 0.188174
0.217411 0.185061 0.185519
0.248966 0.192142 0.182437
0.287022 0.201846 0.178775
0.331701 0.214633 0.173953
0.381262 0.230076 0.168215
0.421515 0.236484 0.169528
0.465003 0.243137 0.170779
0.512657 0.251102 0.172396
0.564172 0.260960 0.174533
0.618402 0.273350 0.177188
0.673823 0.288365 0.181033
0.727138 0.304723 0.186587
0.776455 0.321843 0.194553
0.821256 0.338781 0.205051
0.862303 0.356573 0.218540
0.900328 0.375311 0.235966
0.935576 0.395636 0.258030
0.967437 0.417945 0.285283
0.995270 0.442725 0.318395
1.000000 0.470344 0.357671
0.188418 0.195193 0.168338
0.189120 0.195071 0.168338
0.190066 0.195041 0.168460
0.191989 0.194736 0.168673
0.195071 0.194461 0.169009
0.199039 0.193881 0.169436
0.204013 0.193362 0.169986
0.206424 0.191196 0.171633
0.205539 0.188083 0.175235
0.203952 0.185489 0.179416
0.201785 0.183963 0.184360
0.198611 0.184329 0.190036
0.214633 0.204532 0.212100
0.253330 0.212100 0.207645
0.299504 0.222660 0.202121
0.352056 0.236790 0.195377
0.408667 0.254246 0.187289
0.467689 0.275242 0.177584
0.520928 0.292332 0.171969
0.568048 0.302342 0.173983
0.617029 0.314092 0.176516
0.667292 0.327764 0.180056
0.715969 0.341955 0.185061
0.762387 0.357000 0.192142
0.805722 0.371771 0.201816
0.845701 0.386694 0.214267
0.882353 0.401678 0.229557
0.916197 0.417212 0.248203
0.947387 0.434119 0.271000
0.975830 0.452888 0.298741
1.000000 0.474067 0.331670
1.000000 0.498268 0.370642
0.200595 0.213870 0.172366
0.201236 0.213748 0.172488
0.202213 0.213291 0.172519
0.204257 0.212863 0.172732
0.208072 0.212863 0.173129
0.213077 0.212894 0.173709
0.219394 0.212985 0.174472
0.226902 0.213230 0.175570
0.227390 0.209171 0.179263
0.226230 0.205386 0.184390
0.224918 0.202853 0.190616
0.222995 0.201938 0.198215
0.219913 0.203677 0.207126
0.223270 0.216312 0.224216
0.266514 0.225467 0.220066
0.317144 0.237552 0.214237
0.372808 0.252445 0.206760
0.431098 0.270573 0.197910
0.491798 0.292729 0.187442
0.554284 0.319646 0.174868
0.604639 0.334508 0.174716
0.654017 0.348486 0.177829
0.702388 0.363134 0.182254
0.748836 0.377905 0.188663
0.792416 0.392462 0.197421
0.832914 0.406561 0.208988
0.870451 0.420661 0.223575
0.905425 0.435370 0.241550
0.937987 0.451026 0.263737
0.967895 0.468605 0.291081
0.994232 0.488167 0.323552
1.000000 0.510704 0.362585
0.214664 0.235966 0.176944
0.215579 0.235996 0.177035
0.216587 0.235569 0.177157
0.218967 0.235111 0.177401
0.222629 0.234257 0.177615
0.227420 0.233402 0.178042
0.233707 0.232822 0.178836
0.241367 0.232547 0.179812
0.247745 0.230808 0.181796
0.246433 0.225620 0.187045
0.245060 0.221347 0.193576
0.243351 0.218479 0.201236
0.240604 0.217350 0.210239
0.235966 0.218570 0.220157
0.238132 0.231662 0.238712
0.282414 0.241794 0.235142
0.335515 0.253849 0.227939
0.392737 0.268925 0.219577
0.453376 0.288182 0.210086
0.516716 0.312078 0.199222
0.581811 0.341283 0.186313
0.642542 0.369818 0.175784
0.691157 0.385016 0.179690
0.737942 0.400214 0.185550
0.782040 0.414740 0.193973
0.823117 0.428748 0.205112
0.861357 0.442329 0.219272
0.897154 0.456123 0.236973
0.930663 0.470985 0.258793
0.961608 0.487343 0.285893
0.989075 0.505516 0.318517
1.000000 0.526452 0.357458
0.230625 0.261295 0.181796
0.231662 0.261387 0.181979
0.232639 0.260746 0.181918
0.234928 0.259831 0.182071
0.238437 0.258305 0.182376
0.243107 0.256718 0.182620
0.249424 0.255528 0.183230
0.257328 0.254643 0.184207
0.266972 0.254704 0.185458
0.269871 0.250248 0.189639
0.268559 0.244633 0.196506
0.267063 0.240024 0.204532
0.264500 0.236606 0.213687
0.260441 0.234775 0.223758
0.254093 0.235386 0.234623
0.254734 0.248386 0.254124
0.298924 0.259739 0.252049
0.354803 0.271763 0.243626
0.414740 0.288060 0.234623
0.478431 0.308690 0.224765
0.544366 0.334600 0.213504
0.610620 0.365423 0.200412
0.675135 0.399695 0.184421
0.726894 0.421698 0.182467
0.771603 0.436622 0.190585
0.813931 0.450996 0.201389
0.854032 0.465248 0.216037
0.891875 0.479774 0.234653
0.927306 0.495003 0.257847
0.959716 0.511467 0.286595
0.988251 0.529473 0.321324
1.000000 0.549615 0.362371
0.248386 0.289586 0.186984
0.249607 0.289860 0.187137
0.250828 0.289616 0.187137
0.253483 0.288853 0.187350
0.257572 0.287755 0.187686
0.263279 0.286534 0.188205
0.270420 0.285740 0.188937
0.279362 0.285344 0.190005
0.290105 0.285344 0.191440
0.301366 0.284703 0.193240
0.299351 0.276646 0.200381
0.296544 0.269139 0.208591
0.292699 0.262181 0.217624
0.287510 0.256474 0.227420
0.280552 0.252750 0.237797
0.271702 0.251835 0.248692
0.271092 0.264897 0.269108
0.314549 0.278233 0.269871
0.374823 0.291966 0.261448
0.439826 0.310521 0.252811
0.508202 0.334203 0.243168
0.577691 0.362951 0.232120
0.645747 0.395941 0.219028
0.710445 0.431037 0.203677
0.768429 0.463478 0.188876
0.811337 0.478065 0.200443
0.851896 0.492073 0.215457
0.889952 0.506188 0.234623
0.925322 0.520470 0.258396
0.957488 0.535393 0.287083
0.985626 0.551263 0.321324
1.000000 0.569024 0.361395
0.266575 0.318730 0.192050
0.267613 0.318547 0.192020
0.268772 0.318120 0.192172
0.271519 0.317205 0.192416
0.275761 0.316075 0.192752
0.281621 0.314916 0.193240
0.289097 0.314000 0.194034
0.298222 0.313329 0.195071
0.309209 0.313024 0.196475
0.321843 0.313298 0.198123
0.328344 0.308812 0.202640
0.325872 0.300053 0.211215
0.322301 0.291661 0.220890
0.317327 0.283696 0.231083
0.310399 0.276829 0.241917
0.301610 0.272007 0.252903
0.291112 0.270359 0.264439
0.289525 0.283421 0.285863
0.331945 0.299382 0.290318
0.396338 0.314672 0.282078
0.465095 0.334905 0.273472
0.536065 0.360204 0.263920
0.606470 0.390417 0.252934
0.675288 0.424384 0.240482
0.738979 0.458747 0.226505
0.796994 0.491554 0.211765
0.844511 0.514397 0.212253
0.883635 0.528588 0.231632
0.920043 0.542718 0.255772
0.953063 0.557092 0.285191
0.982116 0.572290 0.319921
1.000000 0.588922 0.360876
0.288060 0.352697 0.197971
0.289708 0.353460 0.198215
0.314305 0.388190 0.205112
0.317571 0.386999 0.205295
0.322301 0.385168 0.205722
0.328557 0.382635 0.206180
0.336370 0.380041 0.206851
0.346044 0.377539 0.207645
0.357702 0.375708 0.209079
0.371160 0.374426 0.210910
0.386114 0.373571 0.213016
0.384466 0.361761 0.221927
0.378637 0.348852 0.232822
0.371588 0.336278 0.244388
0.362768 0.324620 0.256382
0.352300 0.314885 0.268559
0.340215 0.307805 0.281010
0.326543 0.304784 0.293767
0.322850 0.317937 0.317205
0.365301 0.337194 0.325933
0.435828 0.353796 0.316350
0.509056 0.375708 0.306737
0.581872 0.402625 0.296513
0.652308 0.433295 0.285039
0.717281 0.464637 0.272251
0.776150 0.495003 0.258946
0.829526 0.523735 0.245579
0.878294 0.551080 0.232792
0.914885 0.564965 0.253544
0.948211 0.578424 0.282628
0.977905 0.592584 0.317479
1.000000 0.607630 0.358038
0.317754 0.398566 0.206516
0.322118 0.403326 0.207584
0.327031 0.407996 0.208743
0.333318 0.411688 0.209995
0.340703 0.413550 0.211093
0.348333 0.413184 0.212100
0.356817 0.411444 0.212894
0.366613 0.409247 0.213870
0.378363 0.407507 0.215335
0.391730 0.406043 0.217014
0.406653 0.404913 0.219181
0.417273 0.399817 0.223484
0.411658 0.386023 0.234836
0.404669 0.372076 0.246799
0.396063 0.358251 0.259037
0.385870 0.345647 0.271550
0.374182 0.335119 0.284306
0.361151 0.327825 0.297337
0.347204 0.325078 0.311101
0.343359 0.338842 0.335821
0.383337 0.361364 0.350011
0.458503 0.380529 0.341955
0.534813 0.404517 0.333501
0.609247 0.432929 0.324193
0.679957 0.463661 0.313634
0.744350 0.494331 0.302678
0.802670 0.523949 0.291875
0.855711 0.552270 0.282078
0.903716 0.579034 0.274113
0.943664 0.599939 0.280644
0.973877 0.613153 0.315709
0.999207 0.626886 0.355962
0.340673 0.433295 0.213321
0.345098 0.437842 0.214603
0.350011 0.442512 0.215793
0.356268 0.446021 0.217136
0.363622 0.447913 0.218326
0.371374 0.447639 0.219242
0.380011 0.446082 0.220157
0.389868 0.443946 0.221286
0.401709 0.442298 0.222751
0.415106 0.440833 0.224521
0.430121 0.439734 0.226810
0.446143 0.438666 0.229435
0.448066 0.427619 0.237736
0.441444 0.412848 0.250156
0.433112 0.397681 0.263005
0.423224 0.382971 0.276066
0.411902 0.369604 0.289342
0.399420 0.358984 0.302861
0.386175 0.351995 0.317082
0.372290 0.349859 0.332341
0.368109 0.364019 0.358373
0.405341 0.390692 0.378973
0.484810 0.411872 0.372107
0.563256 0.437293 0.364569
0.638514 0.466041 0.355749
0.708370 0.495949 0.346471
0.771511 0.525414 0.337530
0.828885 0.554131 0.329686
0.880949 0.581811 0.324041
0.927184 0.607599 0.320867
0.966979 0.630610 0.320745
0.994690 0.645045 0.351873
0.366094 0.470680 0.221469
0.370672 0.475227 0.222843
0.375769 0.479652 0.224277
0.382055 0.483192 0.225742
0.389441 0.485145 0.227176
0.397223 0.484810 0.228122
0.405646 0.483253 0.229099
0.415503 0.481086 0.230167
0.427039 0.479103 0.231540
0.440070 0.477333 0.233371
0.454688 0.475807 0.235569
0.470436 0.474281 0.238132
0.484779 0.470649 0.241184
0.479347 0.455634 0.253788
0.471931 0.440314 0.267430
0.463478 0.425330 0.281559
0.454353 0.411780 0.296452
0.444556 0.400336 0.312139
0.434211 0.392065 0.328801
0.423102 0.387976 0.346715
0.411017 0.388556 0.365820
0.408148 0.405615 0.395972
0.443824 0.437812 0.424811
0.529717 0.462287 0.419928
0.611902 0.490028 0.414069
0.688136 0.519158 0.407477
0.756283 0.548058 0.401160
0.817288 0.576226 0.396155
0.871855 0.603357 0.393225
0.919585 0.628534 0.392950
0.959960 0.650935 0.395178
0.992676 0.670314 0.400793
0.409308 0.529595 0.237888
0.412268 0.531609 0.238834
0.415290 0.533165 0.239567
0.419745 0.533928 0.240360
0.425605 0.533715 0.241215
0.432471 0.532372 0.241978
0.440925 0.530510 0.242924
0.451057 0.528771 0.244144
0.463233 0.527428 0.245914
0.477302 0.526421 0.248142
0.492744 0.525628 0.250950
0.509117 0.524529 0.253819
0.525444 0.522576 0.256901
0.532128 0.513542 0.263981
0.524773 0.497719 0.278599
0.516442 0.481697 0.293797
0.507256 0.466316 0.309483
0.497261 0.452338 0.325902
0.486763 0.440681 0.343053
0.475257 0.431983 0.361028
0.462745 0.427131 0.379736
0.448920 0.426825 0.399207
0.443580 0.442084 0.428840
0.471931 0.474922 0.461982
0.558862 0.498787 0.457008
0.641291 0.525963 0.451881
0.716365 0.554437 0.447364
0.783474 0.582910 0.444190
0.843259 0.610742 0.443030
0.895476 0.636835 0.444221
0.939513 0.660365 0.448096
0.975494 0.681605 0.456336
0.440955 0.570092 0.251316
0.443915 0.572198 0.252476
0.447150 0.573968 0.253361
0.451789 0.574762 0.254368
0.457435 0.574548 0.255253
0.463996 0.572992 0.255955
0.471870 0.570916 0.256748
0.481361 0.568658 0.257725
0.492897 0.566735 0.259342
0.506157 0.565332 0.261509
0.521019 0.564202 0.264073
0.536828 0.562890 0.267155
0.552911 0.560967 0.270268
0.569329 0.558648 0.273655
0.567315 0.544823 0.285771
0.559991 0.529473 0.301732
0.552026 0.514427 0.318334
0.543511 0.500237 0.335698
0.534356 0.487526 0.353918
0.524559 0.477241 0.373053
0.513909 0.469917 0.393072
0.502068 0.466468 0.413855
0.488869 0.467292 0.435248
0.483284 0.482673 0.465919
0.495033 0.506493 0.494392
0.583124 0.530694 0.490578
0.666133 0.558343 0.487648
0.740383 0.586755 0.485847
0.806455 0.615198 0.486183
0.864103 0.642390 0.488655
0.913451 0.667994 0.494911
0.953948 0.691829 0.505913
0.488838 0.627466 0.275944
0.492164 0.629816 0.277470
0.495094 0.631098 0.278477
0.498817 0.631037 0.278996
0.503441 0.629603 0.279423
0.509056 0.627222 0.279545
0.515740 0.624048 0.279667
0.523705 0.620386 0.279942
0.533410 0.616724 0.280583
0.544640 0.613336 0.281865
0.557092 0.609888 0.283452
0.570947 0.606989 0.285649
0.585473 0.603754 0.288151
0.600061 0.599939 0.290745
0.610193 0.591882 0.294347
0.601373 0.574975 0.309361
0.592035 0.558099 0.325139
0.582818 0.542351 0.341833
0.574090 0.528679 0.360021
0.565698 0.517388 0.379675
0.556939 0.508751 0.400549
0.547051 0.502831 0.421973
0.535149 0.499550 0.443458
0.520684 0.499519 0.464302
0.512322 0.511925 0.492714
0.525780 0.545922 0.534569
0.615290 0.570520 0.532128
0.696315 0.597131 0.530694
0.767971 0.624506 0.531395
0.830838 0.651728 0.534691
0.884977 0.678431 0.542229
0.930022 0.704219 0.555261
0.521172 0.665126 0.294835
0.524346 0.667323 0.296513
0.527153 0.668574 0.297673
0.530694 0.668513 0.298344
0.535210 0.667262 0.298650
0.540795 0.665187 0.298863
0.547601 0.662593 0.299168
0.555779 0.659632 0.299687
0.565667 0.656825 0.300572
0.577234 0.654292 0.302251
0.590082 0.651850 0.304143
0.604334 0.649683 0.306859
0.619379 0.647272 0.309850
0.634516 0.644312 0.312902
0.649500 0.640650 0.315740
0.652003 0.628931 0.324773
0.643915 0.613214 0.341344
0.635859 0.598016 0.358892
0.627955 0.584283 0.377813
0.620264 0.572229 0.398138
0.612177 0.562005 0.419409
0.603204 0.553857 0.441291
0.592493 0.547784 0.463203
0.579889 0.544366 0.484779
0.564996 0.544060 0.505638
0.555413 0.555169 0.533196
0.564660 0.589776 0.578210
0.651789 0.615717 0.580102
0.730434 0.642359 0.581994
0.799069 0.669612 0.586908
0.858091 0.696834 0.595850
0.907164 0.723812 0.610468
0.558526 0.707027 0.321202
0.561028 0.708400 0.322637
0.562921 0.708797 0.323217
0.565667 0.708064 0.323430
0.569299 0.706264 0.323186
0.574060 0.703761 0.322942
0.580133 0.700862 0.322667
0.587671 0.697902 0.322759
0.597101 0.695125 0.323674
0.608270 0.692775 0.325139
0.620844 0.690517 0.327306
0.635035 0.688746 0.330236
0.649866 0.686793 0.333501
0.665064 0.684260 0.336736
0.679988 0.680934 0.339696
0.694789 0.676997 0.342779
0.689296 0.661646 0.356939
0.681941 0.647028 0.374548
0.674800 0.633417 0.393500
0.667872 0.621118 0.413916
0.660792 0.610376 0.435309
0.652888 0.601068 0.457435
0.643702 0.593347 0.479561
0.632898 0.587610 0.501366
0.620111 0.584344 0.522698
0.605249 0.584039 0.543389
0.594659 0.593744 0.569757
0.603540 0.627008 0.613886
0.680354 0.654261 0.622400
0.756619 0.681147 0.627832
0.822019 0.708644 0.637110
0.876646 0.736477 0.652003
0.590845 0.742489 0.347631
0.592767 0.743252 0.348577
0.594537 0.743496 0.349279
0.597314 0.743069 0.349645
0.601587 0.742184 0.350042
0.607416 0.741268 0.351019
0.615625 0.740993 0.352911
0.625727 0.741085 0.355810
0.637995 0.741665 0.359686
0.651942 0.742611 0.364385
0.667292 0.743648 0.369787
0.683650 0.744533 0.375525
0.700404 0.744808 0.381384
0.717128 0.744167 0.386633
0.733364 0.742458 0.391272
0.748898 0.739528 0.395056
0.758053 0.731777 0.401160
0.751705 0.718502 0.419287
0.745480 0.705745 0.438697
0.739193 0.693812 0.459236
0.732662 0.682918 0.480659
0.725460 0.673152 0.502556
0.717128 0.664363 0.524346
0.707362 0.656977 0.545739
0.695857 0.651423 0.566522
0.682673 0.648219 0.586877
0.667933 0.648035 0.606928
0.656825 0.656306 0.631189
0.665400 0.686793 0.672450
0.729519 0.714015 0.687160
0.799649 0.740078 0.696345
0.857786 0.767147 0.711086
0.641657 0.794553 0.398932
0.643091 0.794858 0.399664
0.644190 0.794614 0.399817
0.646357 0.793698 0.399573
0.649744 0.792294 0.399268
0.654414 0.790677 0.399268
0.660883 0.789120 0.399756
0.668940 0.787716 0.401038
0.678737 0.786526 0.403082
0.690120 0.785519 0.405890
0.702663 0.784390 0.409064
0.716335 0.783322 0.412848
0.730617 0.781949 0.416754
0.745327 0.780056 0.420630
0.760128 0.777707 0.424231
0.775143 0.774899 0.427863
