其他预设/【235】城市莫兰迪灰/1.LUT预设（视频调色-PR-AE-PS-FCPX-达芬奇用）/城市莫兰迪灰__-1 暗调.cube
# Created by Adobe Lightroom plugin Export LUT (1.17.0)
# www.johnrellis.com/lightroom/exportlut.htm
# Preset: 城市莫兰迪灰[素锦印象]-1 暗调
# Color profile: /Library/Application Support/Adobe/Color/Profiles/Recommended/AdobeRGB1998.icc
LUT_3D_SIZE 5
DOMAIN_MIN 0.000000 0.000000 0.000000
DOMAIN_MAX 0.903226 0.903226 0.903226
0.152193 0.143008 0.152102
0.178347 0.145907 0.156191
0.307591 0.143801 0.164431
0.657740 0.099367 0.182742
0.949523 0.258000 0.263096
0.165652 0.161563 0.159274
0.167758 0.156924 0.165164
0.302922 0.178988 0.165225
0.637659 0.205417 0.180240
0.955718 0.345800 0.272648
0.230625 0.261295 0.181796
0.257328 0.254643 0.184207
0.254093 0.235386 0.234623
0.610620 0.365423 0.200412
0.927306 0.495003 0.257847
0.409308 0.529595 0.237888
0.451057 0.528771 0.244144
0.524773 0.497719 0.278599
0.448920 0.426825 0.399207
0.843259 0.610742 0.443030
0.672847 0.825803 0.434577
0.699702 0.820798 0.438056
0.766903 0.793210 0.435279
0.798611 0.748836 0.534630
0.735164 0.716640 0.677852
0.158419 0.149264 0.168582
0.179232 0.148775 0.174716
0.307286 0.146822 0.190524
0.603479 0.102571 0.218997
0.922728 0.234653 0.300603
0.162203 0.164492 0.171756
0.181949 0.170230 0.178500
0.311040 0.183932 0.191836
0.598932 0.193698 0.217472
0.920989 0.313848 0.301061
0.213718 0.266911 0.195926
0.253696 0.266209 0.206943
0.254948 0.242374 0.244999
0.596338 0.365515 0.214237
0.916197 0.487831 0.304784
0.395819 0.539666 0.274144
0.442237 0.539483 0.283024
0.533654 0.515312 0.308141
0.459541 0.445197 0.421149
0.850645 0.620386 0.455085
0.658412 0.829374 0.465858
0.686275 0.824186 0.468391
0.775051 0.814115 0.488411
0.811063 0.766567 0.564569
0.747158 0.732143 0.696468
0.181979 0.175540 0.280827
0.210849 0.171054 0.285832
0.364935 0.145998 0.332311
0.690364 0.099886 0.415595
0.934203 0.284092 0.482277
0.208621 0.224277 0.293797
0.227115 0.215976 0.295201
0.375036 0.200656 0.336156
0.661921 0.208927 0.389227
0.925750 0.337621 0.467842
0.190829 0.288670 0.278874
0.223270 0.300114 0.287236
0.342931 0.327276 0.321538
0.625910 0.387945 0.355962
0.916899 0.490822 0.455482
0.257908 0.546410 0.305516
0.332341 0.549157 0.330175
0.523217 0.558404 0.403479
0.505303 0.513146 0.497353
0.884672 0.651575 0.484016
0.560906 0.830503 0.492622
0.618402 0.833402 0.532189
0.731411 0.828092 0.564874
0.817929 0.790494 0.602045
0.751980 0.745846 0.716915
0.282506 0.290806 0.626703
0.332433 0.279698 0.628138
0.476509 0.216861 0.628077
0.730770 0.197360 0.671015
0.968078 0.459632 0.739376
0.332952 0.382330 0.634516
0.364813 0.365667 0.632258
0.476509 0.296727 0.620691
0.720729 0.288884 0.659754
0.957916 0.489570 0.729488
0.382391 0.521569 0.616114
0.436744 0.536187 0.622950
0.488533 0.487922 0.606531
0.695888 0.464668 0.631281
0.934997 0.579309 0.704524
0.257664 0.585595 0.541009
0.304112 0.586236 0.541131
0.430457 0.598657 0.550958
0.624231 0.618830 0.595056
0.903899 0.676539 0.641657
0.401007 0.834623 0.593835
0.447120 0.837644 0.596429
0.583612 0.849821 0.615015
0.800351 0.840452 0.694240
0.779873 0.786984 0.768734
0.562188 0.577081 0.897337
0.579889 0.564935 0.896635
0.647425 0.519097 0.895811
0.774319 0.423804 0.890196
0.946502 0.486427 0.885161
0.595697 0.635523 0.893553
0.606958 0.622644 0.892821
0.657557 0.575067 0.891447
0.766903 0.468025 0.882658
0.942229 0.526177 0.882475
0.680842 0.759976 0.890837
0.690059 0.756344 0.891264
0.701869 0.716274 0.887114
0.758694 0.604822 0.873930
0.938659 0.654261 0.886168
0.643580 0.808103 0.870939
0.669245 0.811551 0.872343
0.757717 0.834012 0.885283
0.804990 0.813596 0.889525
0.933043 0.799557 0.893980
0.454322 0.864530 0.815671
0.483314 0.863737 0.815793
0.581933 0.866545 0.822599
0.708431 0.864408 0.826505
0.860258 0.859739 0.845945
