其他预设/【236】赛博朋克风调色预设/【后期菌】视频调色预设/3DL/Abandoned 08_S.3dl
# LUT by SparkleStock. Enhanced with VOXCOLOR algorithms.
0 128 256 384 512 640 768 896 1023
80 80 80
112 96 96
160 144 192
208 208 304
352 352 544
512 544 897
737 801 1297
961 1025 1601
1201 1281 1873
144 160 144
128 176 176
192 240 288
304 352 512
400 512 721
576 737 1089
769 977 1409
977 1265 1729
1233 1505 2001
192 336 240
192 400 352
208 448 432
320 544 624
496 817 977
672 1025 1297
865 1281 1617
1073 1521 1857
1297 1745 2162
304 769 528
288 913 705
304 961 817
352 1105 1057
544 1201 1297
753 1313 1537
929 1553 1777
1105 1729 2001
1329 1969 2274
432 1297 945
336 1489 1137
288 1553 1265
368 1585 1441
576 1553 1569
817 1729 1809
993 1841 2017
1233 2017 2210
1457 2178 2386
464 1857 1377
368 2082 1601
336 2114 1745
432 2066 1841
592 2017 1953
817 2066 2098
1057 2178 2290
1297 2258 2402
1585 2402 2562
624 2402 1793
576 2546 2017
512 2546 2098
608 2482 2226
769 2418 2274
977 2402 2370
1281 2434 2466
1505 2498 2578
1777 2610 2722
1137 2738 2162
1057 2818 2290
1089 2834 2402
1153 2786 2482
1233 2738 2530
1361 2674 2578
1537 2722 2642
1713 2722 2722
1953 2738 2786
1681 2866 2434
1713 2946 2562
1713 2994 2642
1697 2978 2674
1777 2978 2770
1809 2930 2802
1921 2914 2834
2082 2914 2882
2226 2882 2930
304 176 144
320 192 192
384 208 240
512 272 368
656 368 576
769 656 993
1009 945 1425
1249 1217 1777
1489 1457 2033
737 400 336
801 432 432
640 400 448
640 512 656
672 721 961
849 961 1297
1057 1217 1633
1297 1473 1921
1537 1713 2194
929 624 512
592 544 464
560 672 672
624 817 913
753 1025 1217
881 1217 1473
1121 1457 1761
1393 1729 2066
1617 1969 2370
865 913 560
528 1025 817
544 1153 1025
576 1233 1201
801 1441 1489
945 1521 1681
1201 1729 1953
1473 1953 2210
1665 2178 2466
1041 1425 865
576 1617 1297
544 1729 1441
640 1745 1601
849 1761 1777
1057 1841 1953
1329 2033 2194
1489 2178 2338
1777 2338 2530
1713 1841 817
592 2178 1713
560 2194 1825
801 2210 2017
897 2162 2082
1169 2194 2226
1409 2306 2402
1665 2386 2530
1921 2530 2674
2114 2226 1089
1345 2434 2017
977 2594 2210
1137 2562 2338
1217 2498 2386
1457 2498 2450
1601 2530 2546
1857 2594 2658
2066 2658 2770
2370 2546 1377
1953 2610 2210
1617 2834 2450
1633 2834 2610
1601 2818 2594
1745 2802 2674
1841 2770 2722
2066 2786 2818
2258 2802 2866
2642 2786 1761
2370 2770 2338
2306 2882 2626
2098 2994 2738
2114 3026 2818
2146 2994 2834
2210 2978 2882
2354 2962 2946
2434 2946 2978
849 368 352
817 352 384
881 384 496
913 384 560
1137 528 817
1297 689 1089
1617 961 1505
1729 1297 1857
1857 1617 2210
1393 737 672
1361 721 769
1361 705 897
1377 753 1057
1409 833 1233
1569 1089 1473
1473 1457 1841
1617 1697 2146
1809 1905 2386
1745 1169 913
1697 1153 1105
1601 1105 1201
1361 1089 1313
1201 1281 1553
1217 1457 1745
1473 1713 2017
1713 1921 2274
1905 2146 2530
1745 1313 785
1505 1361 1009
1233 1345 1201
1297 1473 1505
1137 1601 1729
1265 1697 1873
1521 1905 2146
1745 2146 2370
1921 2290 2594
1825 1665 640
1473 1713 1041
913 1873 1489
977 1889 1713
1185 1953 1921
1409 2017 2114
1617 2178 2306
1857 2354 2530
2050 2482 2674
2354 2033 865
2001 2146 1265
1057 2306 1921
1137 2354 2082
1313 2306 2258
1521 2306 2354
1777 2434 2546
2001 2546 2658
2194 2626 2770
2674 2354 1073
2418 2418 1441
1713 2578 2258
1601 2626 2402
1649 2626 2498
1777 2594 2562
2001 2626 2642
2178 2674 2770
2354 2770 2866
2850 2658 1313
2658 2738 1713
2306 2722 2354
2050 2850 2626
2001 2882 2690
2033 2850 2738
2146 2850 2802
2338 2882 2914
2482 2866 2946
2978 2834 1649
2946 2930 1985
2802 2930 2338
2578 2914 2738
2450 3026 2866
2418 3042 2914
2450 3010 2946
2562 3026 2994
2642 3010 3026
1473 689 672
1505 672 801
1505 640 897
1537 656 1009
1601 689 1105
1729 817 1265
1985 977 1553
2146 1137 1777
2338 1569 2290
1857 1073 993
1777 977 1025
1777 945 1233
1809 961 1409
1905 1025 1601
1985 1137 1633
2114 1409 1905
2354 1729 2290
2354 2017 2498
2033 1409 1073
1905 1313 1169
1857 1297 1361
1889 1297 1617
1841 1297 1777
2017 1489 1969
2290 1857 2274
2033 2162 2466
2114 2258 2642
2146 1601 929
2001 1665 1185
1953 1649 1473
1921 1617 1713
1729 1729 1969
1729 1905 2210
1793 2114 2306
2050 2338 2562
2178 2434 2722
2114 1777 624
1953 1841 897
1777 1873 1361
1585 1953 1729
1697 2050 2066
1713 2162 2306
1873 2338 2466
2146 2482 2642
2274 2594 2770
2498 2146 945
2370 2194 1041
2114 2338 1521
1553 2434 2066
1649 2418 2290
1889 2466 2498
2066 2546 2610
2226 2610 2738
2402 2722 2850
2786 2402 1201
2770 2546 1489
2642 2642 1857
2033 2722 2450
1985 2690 2578
2098 2674 2658
2226 2738 2754
2418 2802 2850
2546 2818 2930
2930 2738 1553
2914 2770 1697
2818 2850 2066
2626 2850 2642
2482 2866 2690
2354 2914 2802
2418 2930 2850
2530 2946 2946
2658 2946 2978
3074 2962 1969
3074 2994 2146
3058 3026 2354
3026 3058 2578
2770 3010 2866
2626 3058 2962
2690 3074 3010
2738 3074 3042
2770 3074 3058
1969 1041 1073
1969 945 1121
1969 865 1217
2001 865 1361
2066 945 1489
2178 1057 1585
2194 1073 1665
2354 1249 1873
2498 1409 2114
2258 1313 1217
2178 1137 1217
2178 1089 1393
2194 1105 1617
2274 1201 1841
2386 1313 1969
2498 1521 2033
2546 1553 2146
2674 1777 2386
2338 1569 1153
2258 1441 1249
2226 1393 1457
2242 1409 1729
2338 1489 2050
2450 1617 2226
2530 1809 2274
2658 2146 2562
2722 2370 2818
2386 1777 1057
2258 1777 1249
2274 1745 1537
2258 1729 1777
2338 1777 2098
2402 1905 2338
2578 2226 2562
2690 2546 2802
2450 2610 2850
2354 1889 705
2274 1921 897
2290 2098 1505
2338 2146 1905
2338 2162 2226
2258 2306 2482
2258 2498 2642
2370 2626 2770
2498 2738 2882
2594 2226 993
2482 2338 1153
2434 2386 1409
2418 2466 1905
2194 2530 2386
2354 2610 2626
2338 2626 2722
2482 2754 2834
2594 2802 2930
2866 2530 1473
2802 2626 1585
2802 2690 1793
2722 2786 2114
2418 2802 2642
2386 2818 2770
2466 2818 2818
2610 2866 2914
2690 2882 2962
3026 2818 1809
3026 2882 2017
3058 2946 2226
3058 2978 2418
2802 2994 2786
2626 2978 2866
2658 3010 2962
2738 3026 3026
2802 3026 3042
3170 3042 2226
3170 3058 2354
3170 3106 2482
3186 3138 2626
3106 3138 2770
2946 3106 2994
2866 3154 3074
2866 3138 3106
2946 3138 3138
2370 1393 1425
2370 1233 1425
2402 1185 1537
2434 1185 1681
2482 1281 1825
2498 1361 1905
2546 1393 1985
2594 1457 2098
2674 1553 2242
2578 1521 1441
2562 1329 1409
2562 1249 1553
2546 1233 1777
2578 1409 2066
2642 1601 2226
2690 1729 2226
2754 1809 2354
2818 1905 2498
2610 1729 1361
2594 1521 1345
2578 1489 1553
2594 1489 1825
2610 1601 2162
2722 1825 2418
2802 2050 2482
2818 2114 2546
2850 2194 2674
2658 1905 1201
2610 1825 1313
2594 1809 1585
2594 1809 1857
2658 1905 2226
2754 2146 2530
2834 2338 2626
2834 2450 2722
2882 2594 2930
2626 2050 897
2578 2066 1073
2626 2178 1553
2626 2194 1905
2658 2242 2274
2786 2418 2610
2770 2530 2754
2882 2754 2930
2914 2866 3042
2786 2418 1297
2722 2466 1377
2722 2498 1569
2738 2578 1969
2770 2642 2354
2722 2674 2722
2610 2738 2850
2658 2818 2882
2786 2914 3010
3010 2690 1809
2978 2754 1857
2962 2818 2050
2930 2866 2178
2850 2914 2434
2642 2866 2770
2690 2914 2914
2770 2946 2978
2850 2994 3042
3106 2930 2066
3122 2978 2242
3138 3042 2402
3122 3058 2482
3042 3138 2642
2914 3122 2882
2850 3042 2994
2882 3106 3106
2962 3074 3122
3218 3106 2418
3234 3138 2546
3234 3154 2626
3250 3186 2754
3250 3218 2850
3218 3218 2962
3106 3186 3122
3058 3218 3202
3058 3202 3218
2642 1729 1777
2674 1617 1777
2722 1521 1841
2754 1537 1985
2770 1681 2146
2786 1729 2210
2786 1713 2258
2802 1729 2306
2850 1777 2434
2850 1841 1793
2850 1617 1681
2882 1505 1777
2882 1569 2033
2866 1665 2242
2850 1889 2386
2866 2017 2450
2882 2082 2546
2914 2066 2594
2882 1985 1665
2914 1761 1617
2882 1633 1681
2914 1681 1969
2930 1809 2306
2930 2114 2546
2946 2354 2642
2962 2338 2674
2978 2338 2770
2946 2162 1521
2930 2001 1505
2946 1921 1713
2946 1905 1953
2946 2001 2290
2962 2258 2626
2978 2434 2754
2994 2546 2786
3026 2562 2850
2850 2242 1217
2882 2242 1313
2946 2274 1665
2946 2242 1953
2946 2258 2290
2978 2434 2658
2978 2546 2850
2994 2658 2930
3026 2818 3026
2962 2562 1617
3010 2626 1681
2978 2610 1745
2994 2610 1921
2994 2626 2258
2962 2658 2658
2962 2722 2914
2994 2866 3058
3042 3010 3122
3122 2834 2114
3122 2882 2226
3058 2914 2050
3042 2914 2098
3026 2930 2354
3026 2962 2658
2962 2994 2946
2914 2994 3074
3026 3074 3154
3202 3026 2338
3202 3058 2450
3186 3138 2434
3154 3170 2434
3138 3186 2546
3106 3202 2786
3042 3170 3026
3074 3154 3138
3074 3170 3202
3298 3170 2610
3314 3202 2722
3314 3234 2818
3298 3298 2834
3314 3330 2882
3298 3330 3026
3298 3314 3170
3186 3250 3234
3170 3282 3282
2850 2033 2114
2914 2001 2178
2930 1985 2242
2930 1969 2306
2946 1985 2386
2946 2001 2434
2994 2066 2546
3010 2066 2594
3010 2082 2642
3026 2274 2274
3058 2066 2146
3058 1889 2114
3058 1969 2290
3058 2114 2498
3026 2290 2594
3042 2306 2642
3042 2306 2690
3058 2354 2754
3058 2338 2033
3138 2162 2050
3154 2033 2082
3154 2017 2258
3138 2210 2546
3074 2354 2690
3074 2450 2786
3074 2562 2834
3106 2498 2882
3106 2466 1969
3154 2370 1969
3202 2210 2001
3202 2146 2178
3202 2162 2402
3170 2306 2690
3138 2434 2850
3122 2658 2946
3106 2674 2962
3042 2498 1681
3122 2482 1729
3202 2418 1841
3282 2354 2066
3250 2354 2386
3234 2434 2690
3186 2530 2914
3154 2674 3042
3154 2882 3042
3122 2754 2082
3154 2770 2017
3202 2658 1809
3298 2642 1985
3298 2658 2290
3298 2674 2722
3250 2754 2994
3234 2866 3154
3186 3026 3170
3186 2946 2354
3218 2962 2274
3250 2978 2082
3298 2978 2082
3314 2978 2306
3314 3010 2674
3298 3042 3010
3234 3074 3186
3202 3170 3218
3298 3122 2578
3298 3170 2642
3314 3218 2434
3330 3250 2386
3362 3298 2546
3346 3298 2786
3314 3282 3058
3250 3282 3234
3202 3250 3282
3346 3234 2786
3346 3250 2850
3362 3314 2930
3362 3346 2834
3362 3394 2914
3362 3394 3058
3346 3346 3202
3362 3362 3298
3314 3346 3330
3026 2290 2386
3042 2274 2434
3058 2274 2498
3058 2258 2546
3074 2274 2610
3106 2274 2642
3122 2306 2690
3074 2274 2690
3106 2274 2754
3122 2530 2546
3106 2498 2562
3122 2434 2578
3154 2466 2658
3138 2466 2690
3138 2466 2738
3154 2434 2786
3138 2498 2834
3138 2530 2882
3106 2610 2354
3218 2642 2658
3218 2530 2594
3234 2498 2642
3250 2434 2674
3250 2450 2786
3202 2594 2882
3170 2658 2930
3154 2658 2946
3058 2466 1745
3186 2722 2418
3298 2578 2466
3394 2402 2434
3410 2290 2530
3378 2370 2754
3314 2482 2946
3234 2754 3026
3186 2786 3026
3138 2642 1905
3202 2642 1985
3362 2546 1985
3507 2498 2210
3539 2418 2450
3507 2466 2738
3427 2578 2978
3330 2754 3122
3218 2962 3106
3186 2850 2274
3314 2834 2146
3443 2754 1953
3555 2690 2050
3571 2722 2354
3587 2754 2754
3523 2770 3010
3378 2882 3170
3282 3058 3186
3282 3010 2530
3378 3042 2338
3475 3010 2114
3571 3010 2114
3603 3010 2370
3603 3042 2690
3571 3106 3042
3443 3154 3250
3362 3218 3314
3346 3170 2674
3362 3202 2722
3443 3282 2466
3555 3314 2386
3603 3330 2562
3587 3346 2818
3523 3330 3106
3443 3346 3282
3362 3330 3346
3378 3282 2930
3394 3314 3026
3394 3346 2994
3443 3410 2882
3475 3427 2962
3443 3427 3122
3410 3410 3250
3378 3378 3346
3378 3378 3378
