其他预设/【236】赛博朋克风调色预设/【后期菌】视频调色预设/3DL/Abandoned 10_S.3dl
# LUT by SparkleStock. Enhanced with VOXCOLOR algorithms.
0 128 256 384 512 640 768 896 1023
64 32 32
80 64 96
80 80 160
96 96 320
96 176 640
128 256 1137
192 480 1761
304 801 2418
432 1153 2786
96 80 96
80 80 128
96 112 256
96 176 496
96 256 897
144 432 1409
208 721 2050
320 1153 2658
528 1601 3010
96 128 144
96 176 256
96 208 384
80 304 672
128 496 1249
176 833 1905
256 1265 2562
416 1777 3026
705 2306 3298
80 336 320
80 400 480
80 496 737
96 721 1217
112 1057 1841
208 1425 2530
368 2001 3026
560 2434 3250
993 2818 3459
32 785 624
64 977 977
64 1089 1265
80 1393 1889
160 1697 2450
320 2306 3026
560 2706 3314
961 2978 3443
1345 3154 3491
16 1601 1313
48 1889 1697
96 2114 2146
192 2338 2642
320 2578 2994
592 2898 3298
929 3090 3427
1329 3218 3491
1793 3362 3555
128 2546 2050
224 2690 2498
320 2786 2754
464 2914 3026
640 3042 3250
945 3154 3378
1345 3298 3475
1713 3378 3523
2338 3491 3587
512 3026 2578
689 3106 2866
865 3186 3042
1025 3234 3234
1185 3266 3298
1409 3330 3410
1697 3427 3459
2130 3475 3523
2546 3523 3571
1153 3250 2898
1441 3346 3106
1617 3378 3218
1777 3410 3298
2017 3443 3410
2194 3475 3443
2434 3523 3523
2706 3555 3555
2898 3587 3587
96 80 112
96 96 160
112 96 224
128 112 368
144 176 705
160 320 1281
288 608 2033
416 945 2594
656 1361 2930
176 144 240
192 160 320
144 160 400
160 256 721
144 368 1169
224 640 1809
320 993 2434
512 1441 2882
833 1953 3154
208 224 336
128 240 384
128 320 640
160 448 1057
176 721 1569
240 1041 2242
384 1489 2770
689 2162 3154
1153 2642 3378
160 400 368
96 528 656
112 721 1009
112 929 1489
208 1345 2226
320 1713 2770
544 2258 3122
945 2722 3346
1409 3010 3475
112 913 560
96 1217 1281
112 1441 1697
176 1681 2274
320 2146 2818
512 2546 3154
897 2882 3362
1265 3090 3443
1793 3250 3523
176 1713 785
112 2130 2001
192 2338 2418
400 2642 2914
544 2770 3122
865 2978 3314
1265 3154 3427
1761 3314 3491
2338 3443 3571
464 2530 1025
480 2786 2450
576 2914 2834
785 3026 3138
993 3106 3266
1313 3234 3378
1649 3330 3459
2226 3443 3523
2594 3491 3571
1025 2962 1169
1089 3090 2450
1281 3218 2978
1505 3314 3250
1601 3346 3314
1905 3410 3410
2194 3443 3459
2594 3523 3539
2898 3555 3571
1921 3234 1297
1841 3250 2194
2242 3410 3074
2386 3459 3314
2594 3523 3410
2690 3539 3459
2834 3555 3523
3042 3587 3555
3154 3603 3587
192 128 224
192 128 288
240 160 416
256 160 560
336 240 993
384 352 1441
624 560 2033
737 945 2562
1137 1521 2962
592 272 416
656 304 560
672 320 801
640 352 1105
576 432 1441
624 656 2001
560 1265 2690
833 1713 3010
1265 2306 3234
1233 608 560
1537 640 849
1345 640 1089
624 689 1425
400 961 1985
400 1345 2562
656 1905 3010
1105 2466 3250
1569 2802 3410
977 881 544
753 945 897
480 993 1265
544 1249 1809
432 1569 2434
528 2066 2930
865 2562 3218
1393 2914 3378
1905 3122 3475
352 1345 560
384 1409 929
304 1697 1793
400 2017 2338
576 2370 2866
865 2754 3234
1281 3042 3410
1825 3234 3475
2386 3378 3555
913 2354 801
672 2322 1185
448 2562 2594
689 2770 2898
929 2914 3202
1265 3090 3346
1777 3250 3427
2338 3410 3539
2706 3475 3571
1777 2930 785
1281 2818 1185
1073 3042 2834
1185 3090 3106
1489 3218 3298
1793 3298 3362
2258 3410 3459
2690 3475 3539
2994 3555 3587
2546 3250 833
2338 3234 1313
1921 3234 2546
2114 3346 3202
2258 3427 3314
2418 3443 3378
2674 3475 3459
2962 3571 3555
3186 3587 3587
3010 3410 1009
3106 3427 1441
3074 3443 2098
2962 3523 3154
3042 3587 3427
3106 3587 3475
3154 3587 3523
3266 3635 3571
3378 3667 3635
801 256 336
849 256 528
865 256 721
865 272 993
897 320 1201
1121 416 1505
1585 608 1985
2066 801 2338
1937 1409 2834
1937 544 560
1793 496 769
1793 528 1057
1825 528 1345
2001 592 1649
1873 672 1985
1905 1057 2482
2194 1617 2898
2418 2354 3202
2386 945 721
2258 913 1009
2146 929 1281
2194 945 1569
1793 913 1921
1905 1185 2434
2242 1889 2914
1681 2690 3298
2114 2962 3427
2338 1409 576
2306 1457 993
2242 1409 1425
2194 1361 1713
1297 1649 2370
1153 2274 2978
1345 2802 3298
2001 3122 3427
2434 3234 3523
1457 2017 480
1393 1921 769
1345 1825 1361
1025 2033 2114
1265 2386 2658
1345 2786 3154
1809 3186 3427
2418 3330 3523
2802 3443 3555
2146 2770 624
2033 2722 737
1569 2642 1425
1121 2802 2690
1345 2978 3042
1809 3218 3346
2242 3314 3410
2706 3427 3523
3010 3523 3587
2802 3186 737
2898 3218 993
2642 3186 1521
1873 3218 3026
2033 3266 3234
2354 3362 3346
2674 3427 3443
3042 3539 3555
3234 3571 3603
3186 3410 977
3218 3378 1185
3090 3362 1761
2930 3443 2978
2914 3459 3186
2898 3491 3378
3042 3539 3459
3234 3587 3571
3362 3635 3603
3410 3491 1265
3475 3491 1537
3491 3523 1937
3523 3555 2546
3346 3587 3330
3362 3635 3475
3443 3667 3555
3459 3667 3587
3491 3667 3603
2354 496 560
2274 448 753
2162 400 1009
2194 432 1265
2306 480 1505
2530 640 1825
2562 689 2050
2914 945 2434
3122 1201 2690
2834 785 849
2642 721 1009
2562 689 1249
2594 721 1569
2722 785 1937
2994 929 2258
3234 1153 2466
3266 1313 2674
3362 1761 2978
2802 1217 913
2642 1169 1185
2562 1153 1409
2562 1153 1697
2722 1265 2194
3042 1361 2530
3154 1649 2802
3250 2450 3154
3250 2914 3427
2786 1681 721
2562 1649 1137
2578 1633 1553
2578 1601 1841
2706 1681 2322
2898 1921 2770
3138 2594 3154
3314 3186 3443
2978 3346 3555
2370 2354 384
2370 2226 592
2594 2258 1425
2690 2274 2050
2706 2354 2530
2482 2818 3090
2546 3266 3427
2898 3427 3539
3138 3523 3603
2818 2930 592
2754 2866 801
2706 2834 1089
2706 2866 2017
2418 3010 2930
2818 3250 3298
2786 3346 3410
3090 3491 3555
3250 3555 3603
3266 3314 881
3218 3266 1073
3250 3266 1393
3106 3298 2050
2818 3378 3202
2962 3443 3378
3106 3491 3459
3298 3571 3571
3410 3603 3603
3459 3475 1185
3475 3459 1409
3539 3491 1793
3555 3491 2226
3362 3555 3202
3266 3571 3427
3362 3603 3523
3459 3635 3571
3539 3651 3603
3587 3539 1521
3603 3555 1809
3635 3571 2194
3651 3603 2610
3635 3603 2978
3587 3667 3459
3587 3683 3571
3603 3683 3587
3651 3699 3635
3122 721 929
3026 640 1105
3042 640 1345
3074 672 1585
3154 769 1905
3218 913 2210
3266 993 2370
3330 1153 2578
3378 1377 2786
3202 1057 1233
3074 993 1313
2978 945 1489
2978 945 1777
3106 1089 2210
3314 1249 2498
3443 1457 2690
3491 1649 2882
3539 2001 3074
3122 1521 1217
2962 1345 1329
2914 1345 1569
2914 1377 1889
2994 1473 2306
3298 1761 2770
3523 2098 2994
3539 2274 3090
3587 2530 3250
3074 2001 977
2914 1841 1265
2914 1809 1633
2930 1825 2001
3042 2001 2450
3314 2338 2914
3555 2658 3154
3555 2930 3314
3555 3218 3491
2978 2562 480
2882 2434 769
2914 2354 1473
2962 2354 2050
3042 2466 2546
3346 2802 3026
3427 3074 3298
3555 3410 3491
3571 3539 3587
3250 3122 785
3154 3010 977
3074 2914 1249
3122 2930 1921
3234 3026 2546
3250 3202 3154
3154 3330 3410
3330 3539 3571
3475 3603 3635
3555 3427 1185
3459 3362 1345
3459 3378 1633
3427 3362 1985
3330 3362 2674
3202 3410 3218
3330 3491 3443
3475 3587 3555
3571 3635 3603
3603 3523 1409
3603 3523 1697
3651 3539 2114
3603 3587 2466
3523 3587 2866
3475 3603 3266
3539 3635 3491
3603 3667 3587
3651 3683 3603
3667 3571 1841
3683 3587 2194
3699 3603 2530
3731 3651 2786
3747 3667 3042
3763 3699 3314
3731 3731 3555
3731 3747 3635
3731 3747 3651
3410 1057 1425
3378 1025 1585
3378 993 1777
3410 1041 2033
3475 1233 2370
3491 1329 2530
3523 1425 2690
3523 1537 2802
3571 1729 2962
3475 1521 1697
3362 1345 1649
3330 1329 1809
3362 1393 2194
3443 1505 2530
3523 1729 2786
3587 1953 2914
3603 2146 3042
3603 2258 3122
3443 1953 1585
3330 1681 1633
3250 1569 1713
3314 1649 2114
3378 1841 2562
3539 2274 2978
3667 2642 3186
3667 2674 3250
3651 2722 3330
3427 2370 1345
3314 2146 1505
3298 2050 1793
3266 2033 2098
3346 2162 2546
3491 2562 3010
3587 2818 3250
3683 3026 3346
3683 3090 3459
3362 2818 737
3330 2690 945
3266 2482 1649
3250 2434 2098
3298 2498 2482
3443 2786 2994
3539 2994 3266
3635 3202 3443
3699 3459 3555
3523 3234 1025
3475 3186 1281
3378 3042 1489
3298 2882 1873
3330 2930 2370
3378 3026 2994
3459 3154 3298
3587 3410 3523
3683 3603 3587
3667 3491 1473
3651 3475 1697
3491 3362 1793
3427 3314 2001
3410 3314 2434
3443 3362 2898
3475 3443 3330
3555 3555 3539
3683 3683 3635
3683 3555 1761
3699 3571 2146
3603 3571 2338
3555 3587 2498
3523 3587 2690
3523 3587 3074
3587 3667 3427
3699 3699 3587
3731 3699 3651
3747 3587 2226
3747 3635 2546
3763 3667 2882
3731 3699 3010
3731 3731 3154
3763 3763 3378
3795 3747 3539
3779 3747 3651
3763 3747 3667
3571 1553 2033
3587 1569 2210
3587 1601 2386
3603 1649 2594
3635 1713 2754
3651 1809 2866
3667 2050 3010
3683 2194 3106
3683 2274 3154
3667 2210 2434
3651 2033 2354
3603 1841 2354
3635 1937 2610
3667 2226 2914
3683 2434 3090
3683 2546 3154
3683 2610 3234
3699 2722 3314
3667 2498 1985
3635 2322 2274
3635 2194 2322
3635 2194 2530
3667 2450 2914
3699 2690 3154
3731 2866 3298
3747 3042 3378
3747 3026 3443
3667 2834 1825
3667 2674 2098
3635 2450 2162
3603 2370 2386
3603 2386 2658
3635 2642 3026
3651 2818 3250
3747 3202 3443
3763 3266 3523
3651 3202 1121
3635 3026 1329
3587 2754 1793
3587 2562 2210
3587 2594 2578
3635 2754 2994
3651 2914 3266
3699 3202 3491
3779 3491 3571
3683 3427 1441
3667 3314 1569
3587 3042 1569
3587 2914 2001
3587 2914 2386
3635 2994 2962
3667 3106 3298
3731 3362 3555
3779 3603 3635
3747 3523 1729
3683 3459 1905
3651 3362 1921
3587 3298 2066
3603 3266 2418
3651 3314 2866
3683 3378 3314
3731 3523 3571
3763 3683 3651
3763 3603 2258
3763 3635 2562
3731 3635 2498
3667 3603 2530
3667 3603 2706
3683 3603 3010
3731 3667 3362
3747 3683 3571
3795 3747 3667
3795 3667 2610
3779 3667 2882
3811 3699 3122
3763 3747 3074
3763 3779 3202
3763 3779 3362
3795 3779 3571
3859 3795 3667
3843 3779 3683
3667 2066 2466
3683 2162 2690
3699 2242 2866
3683 2242 2914
3699 2338 3026
3699 2386 3090
3731 2546 3202
3699 2562 3234
3731 2658 3298
3731 2658 2818
3731 2674 2914
3731 2642 2962
3763 2706 3106
3747 2786 3186
3747 2802 3234
3747 2866 3314
3747 2962 3362
3763 3026 3427
3731 2930 2306
3795 3010 2994
3763 2882 2930
3779 2866 3026
3779 2770 3090
3779 2834 3218
3779 3074 3362
3763 3218 3459
3763 3234 3475
3683 3074 1201
3779 3186 2594
3795 2962 2722
3843 2722 2722
3843 2610 2802
3843 2722 3106
3795 2930 3330
3795 3298 3491
3795 3378 3555
3699 3298 1377
3731 3186 1569
3779 2898 1921
3859 2786 2354
3875 2690 2658
3875 2770 2994
3859 2930 3298
3843 3250 3555
3795 3555 3587
3747 3459 1665
3779 3314 1777
3811 3106 1761
3859 2978 2033
3891 2978 2466
3907 3010 2978
3875 3090 3266
3843 3330 3555
3811 3635 3635
3763 3555 2017
3795 3491 2098
3811 3378 2033
3875 3314 2146
3891 3298 2466
3907 3330 2898
3907 3378 3314
3875 3539 3587
3843 3683 3683
3795 3635 2482
3795 3651 2706
3843 3651 2578
3875 3603 2530
3891 3603 2690
3891 3635 3010
3875 3667 3346
3875 3699 3587
3859 3779 3699
3795 3699 3042
3811 3731 3250
3843 3763 3314
3859 3779 3202
3843 3795 3250
3859 3795 3427
3875 3811 3603
3859 3795 3683
3859 3795 3699
