其他预设/【236】赛博朋克风调色预设/【后期菌】视频调色预设/3DL/Abandoned 07.3dl
# LUT by SparkleStock. Enhanced with VOXCOLOR algorithms.
0 64 128 192 256 320 384 448 512 576 640 704 768 832 896 960 1023
16 16 48
80 64 160
96 80 192
96 96 272
96 144 320
128 192 416
160 256 512
176 336 640
208 400 769
256 480 961
320 528 1137
416 672 1409
464 753 1617
528 849 1873
640 993 2194
721 1137 2418
817 1297 2674
80 96 176
80 128 208
96 160 256
112 176 320
128 224 416
144 272 496
176 336 576
208 416 721
256 496 897
320 576 1105
400 672 1345
416 753 1505
496 865 1761
576 977 2066
656 1137 2322
753 1297 2562
865 1457 2754
96 176 224
80 176 240
80 208 304
144 272 416
160 320 496
176 352 560
192 416 689
240 496 849
272 576 1009
336 656 1233
400 737 1409
464 897 1649
528 1009 1905
608 1153 2226
721 1329 2514
833 1505 2722
897 1649 2866
112 256 320
96 256 336
128 320 416
144 368 496
176 416 576
208 464 689
240 512 801
272 592 961
336 721 1185
416 849 1425
432 913 1569
512 1057 1841
576 1169 2098
656 1329 2402
737 1505 2626
881 1729 2850
945 1873 2962
112 336 400
144 416 464
160 416 512
176 448 576
192 496 656
256 592 817
256 640 897
336 769 1137
400 881 1345
432 1009 1569
496 1121 1777
560 1233 2066
640 1393 2354
705 1537 2562
817 1745 2770
865 1905 2882
1009 2162 3026
144 496 512
160 512 560
192 576 656
224 608 737
256 689 833
288 753 945
352 865 1169
400 961 1345
448 1105 1553
496 1201 1761
528 1281 1953
608 1441 2274
672 1585 2498
737 1761 2658
833 2001 2850
945 2226 2994
1041 2386 3074
192 656 656
240 705 737
256 785 817
288 817 897
336 897 1025
352 945 1137
416 1089 1361
448 1201 1537
496 1313 1745
528 1377 1953
576 1505 2226
656 1697 2498
737 1873 2658
769 2001 2770
881 2210 2914
1009 2450 3058
1137 2626 3138
256 897 865
304 977 977
320 993 1025
368 1073 1137
400 1137 1249
416 1201 1377
448 1297 1537
496 1393 1697
528 1489 1937
560 1601 2194
640 1761 2418
689 1969 2610
737 2114 2738
833 2338 2882
977 2530 3010
1121 2658 3138
1233 2754 3202
320 1169 1105
336 1249 1217
368 1345 1313
416 1377 1377
416 1377 1425
480 1489 1617
496 1537 1745
544 1681 2050
560 1729 2194
640 1969 2434
721 2130 2610
753 2290 2754
881 2466 2898
961 2610 2994
1089 2738 3090
1217 2850 3202
1329 2898 3250
384 1505 1377
384 1553 1441
416 1617 1537
432 1633 1617
464 1729 1745
496 1713 1857
528 1841 2050
576 1953 2242
640 2114 2434
689 2242 2562
737 2338 2674
849 2530 2834
929 2642 2946
1041 2738 3058
1217 2882 3186
1313 2962 3234
1473 3026 3314
400 1841 1617
416 1969 1761
448 2066 1873
464 2050 1953
512 2066 2066
544 2114 2130
592 2194 2290
656 2274 2418
705 2402 2546
801 2546 2722
865 2674 2850
977 2770 2962
1089 2866 3074
1137 2914 3106
1297 2994 3218
1425 3074 3314
1553 3122 3362
448 2338 1953
480 2354 2050
512 2418 2178
544 2386 2210
576 2418 2306
656 2450 2418
705 2530 2498
753 2610 2610
817 2674 2690
849 2690 2770
977 2850 2914
1073 2914 3010
1137 2962 3090
1297 3074 3202
1409 3106 3282
1521 3138 3330
1649 3202 3410
544 2658 2274
576 2658 2338
624 2754 2450
640 2690 2466
672 2722 2530
737 2770 2610
753 2754 2626
817 2754 2722
897 2834 2802
945 2866 2866
1089 2978 2994
1217 3026 3090
1297 3106 3170
1377 3138 3234
1505 3186 3298
1649 3234 3362
1857 3314 3443
656 2914 2466
721 2994 2610
721 2978 2626
753 2994 2674
785 2978 2738
849 2978 2786
881 2978 2802
929 2978 2850
1057 3058 2962
1105 3058 2994
1201 3106 3058
1297 3170 3138
1361 3170 3186
1489 3202 3234
1665 3282 3346
1793 3314 3410
1937 3330 3443
817 3138 2674
833 3138 2722
865 3170 2786
897 3138 2850
977 3186 2898
977 3186 2946
1073 3170 2978
1137 3170 2994
1185 3186 3058
1265 3218 3106
1313 3202 3106
1377 3234 3170
1505 3250 3234
1617 3298 3298
1729 3314 3346
1889 3346 3394
2001 3362 3410
993 3298 2850
1009 3298 2866
1057 3298 2946
1121 3314 2994
1185 3346 3058
1249 3346 3106
1233 3330 3090
1329 3330 3138
1409 3346 3170
1425 3330 3170
1457 3298 3170
1537 3298 3202
1649 3346 3282
1777 3362 3330
1937 3394 3346
2017 3394 3362
2114 3410 3410
1153 3394 2914
1217 3410 2994
1265 3427 3058
1377 3459 3106
1393 3443 3122
1409 3443 3138
1457 3427 3170
1537 3443 3218
1569 3459 3234
1601 3427 3234
1681 3443 3282
1745 3427 3298
1857 3427 3330
1889 3410 3314
2082 3427 3346
2114 3427 3362
2242 3459 3427
112 96 176
128 96 208
144 112 272
144 128 320
160 144 352
176 224 496
192 256 576
208 320 672
256 384 817
336 528 1057
416 624 1297
448 689 1473
496 801 1681
576 897 1985
689 1057 2290
785 1217 2530
929 1377 2754
192 160 288
192 176 336
192 176 352
192 176 384
192 256 496
208 288 576
224 400 689
256 464 833
288 528 977
368 608 1201
416 737 1409
496 849 1649
560 961 1905
656 1073 2210
753 1265 2498
881 1409 2690
977 1537 2834
224 240 352
192 224 368
208 256 432
224 320 512
240 368 608
256 416 705
272 496 817
288 576 945
368 672 1185
432 785 1409
480 897 1601
512 993 1793
640 1121 2130
721 1297 2418
801 1409 2610
945 1617 2834
1009 1777 2946
208 304 400
208 320 448
224 368 528
240 416 624
240 464 656
272 512 785
336 640 993
368 737 1137
416 785 1297
480 961 1569
528 1073 1777
576 1137 1985
656 1297 2306
737 1457 2546
881 1617 2738
945 1793 2882
1073 2050 3010
240 400 496
192 448 544
208 464 592
224 512 656
256 592 769
320 689 945
384 785 1121
400 849 1265
448 993 1489
496 1057 1665
576 1217 1969
624 1345 2194
689 1457 2418
801 1633 2658
913 1873 2850
993 2066 2946
1105 2242 3074
256 528 592
240 576 656
240 608 705
272 672 801
320 753 929
368 849 1073
416 977 1297
448 1057 1457
496 1153 1649
560 1281 1905
592 1393 2162
656 1537 2402
769 1697 2626
833 1937 2786
961 2178 2946
1089 2386 3074
1185 2498 3122
320 737 737
272 769 817
320 833 897
352 897 1025
400 1009 1153
432 1105 1329
448 1185 1457
512 1265 1617
560 1393 1873
608 1521 2162
672 1681 2418
705 1745 2530
817 2001 2754
913 2210 2898
977 2338 2978
1137 2546 3106
1281 2722 3202
368 945 897
336 1057 1041
384 1121 1137
400 1137 1217
416 1217 1329
448 1281 1457
544 1425 1681
544 1457 1841
576 1601 2082
640 1745 2338
737 1985 2562
753 2098 2674
865 2290 2834
977 2498 2978
1057 2578 3058
1297 2770 3202
1377 2850 3234
448 1217 1121
416 1393 1361
448 1441 1425
432 1457 1457
496 1521 1569
528 1553 1713
560 1649 1905
576 1745 2130
656 1905 2322
737 2130 2546
753 2210 2642
833 2386 2770
977 2546 2914
1089 2690 3058
1217 2834 3170
1345 2898 3218
1505 2978 3314
576 1473 1281
432 1681 1553
480 1745 1665
464 1745 1713
496 1793 1857
576 1905 2066
608 1969 2194
656 2098 2338
721 2226 2498
801 2386 2658
849 2498 2770
961 2642 2882
1057 2738 2994
1169 2850 3106
1297 2914 3186
1425 2978 3250
1617 3090 3346
608 1857 1537
448 2082 1873
496 2114 1969
560 2194 2098
544 2130 2114
608 2210 2226
672 2306 2402
737 2402 2514
817 2562 2674
849 2626 2738
929 2722 2850
1089 2850 2994
1201 2914 3074
1329 3010 3202
1425 3058 3250
1537 3106 3330
1745 3186 3410
672 2226 1729
576 2466 2178
592 2498 2226
624 2514 2338
656 2498 2386
737 2562 2514
753 2578 2530
817 2658 2642
881 2722 2738
977 2802 2850
1073 2866 2946
1201 2978 3058
1313 3058 3170
1409 3090 3202
1537 3138 3314
1681 3186 3362
1841 3250 3427
817 2642 2017
672 2786 2338
721 2786 2418
737 2786 2514
769 2834 2610
785 2770 2626
849 2786 2674
913 2834 2754
977 2882 2834
1057 2914 2898
1217 3010 3026
1281 3074 3074
1393 3106 3138
1505 3138 3234
1617 3186 3314
1793 3250 3362
1937 3298 3427
929 2882 2226
769 2994 2514
817 3010 2626
897 3090 2754
929 3074 2834
913 3010 2802
1025 3074 2898
1089 3090 2946
1137 3074 2978
1201 3090 3010
1313 3122 3090
1409 3186 3138
1505 3202 3202
1649 3234 3282
1777 3282 3346
1953 3330 3410
2066 3346 3427
1089 3058 2386
977 3138 2562
1025 3186 2674
1073 3234 2850
1121 3234 2994
1185 3250 3026
1201 3218 3026
1265 3234 3074
1329 3218 3106
1377 3250 3122
1441 3234 3138
1521 3234 3186
1601 3250 3218
1745 3298 3282
1873 3314 3330
2082 3394 3410
2178 3410 3427
1297 3202 2466
1281 3282 2674
1297 3298 2770
1297 3330 2898
1297 3346 3058
1377 3362 3106
1377 3346 3122
1425 3362 3138
1521 3362 3186
1585 3362 3202
1633 3346 3218
1681 3346 3234
1793 3362 3282
1889 3362 3314
2082 3410 3362
2162 3394 3362
2242 3427 3427
1585 3314 2626
1537 3346 2802
1601 3394 2882
1505 3427 2994
1553 3475 3170
1537 3443 3170
1649 3475 3218
1665 3475 3234
1713 3475 3250
1793 3475 3298
1841 3459 3298
1857 3427 3298
1969 3443 3314
2082 3427 3330
2178 3427 3346
2338 3475 3427
2338 3459 3443
208 144 288
208 160 320
224 160 352
192 128 352
240 176 464
224 208 512
240 256 608
256 288 721
304 336 849
384 496 1089
416 608 1297
528 769 1601
592 881 1889
656 993 2130
801 1185 2450
929 1329 2658
1041 1457 2850
288 224 400
272 240 432
288 240 464
256 224 496
256 288 576
272 336 672
288 416 785
320 464 897
416 608 1137
464 672 1329
496 817 1553
576 897 1777
640 1009 2066
721 1169 2322
865 1361 2578
993 1521 2802
1105 1713 2962
416 368 544
432 368 608
464 400 672
416 368 705
352 400 737
320 416 785
384 576 977
400 656 1105
448 769 1297
464 817 1457
544 977 1761
624 1105 2017
689 1217 2290
849 1425 2578
929 1553 2738
1041 1729 2898
1137 1937 2994
464 448 656
448 496 689
464 512 769
416 496 801
400 560 865
416 624 945
432 705 1089
464 817 1297
464 897 1457
560 1057 1697
576 1121 1905
656 1281 2194
737 1377 2418
881 1569 2658
1009 1825 2866
1073 1953 2962
1233 2210 3090
544 576 737
352 576 705
336 560 737
336 592 817
368 656 929
416 769 1073
464 865 1265
496 977 1441
528 1089 1617
576 1185 1841
624 1297 2082
705 1457 2354
801 1601 2562
881 1761 2738
1041 2050 2914
1121 2226 3026
1297 2450 3170
544 721 833
384 672 785
336 689 817
384 785 945
432 897 1105
464 993 1265
496 1089 1425
512 1169 1585
576 1281 1825
608 1361 2001
689 1537 2322
753 1665 2530
849 1841 2690
977 2130 2898
1041 2274 2962
1217 2498 3106
1377 2642 3218
480 817 849
416 833 913
416 977 1057
480 1057 1169
496 1121 1297
496 1217 1425
512 1265 1553
576 1393 1825
624 1537 2082
656 1585 2210
737 1745 2466
817 1953 2658
897 2098 2802
1025 2386 2962
1137 2514 3058
1233 2642 3138
1457 2802 3250
512 1057 961
464 1121 1105
448 1217 1249
480 1281 1361
496 1297 1425
576 1457 1649
576 1489 1777
608 1585 2001
689 1777 2306
737 1937 2498
785 2066 2626
881 2226 2770
977 2434 2898
1121 2610 3026
1281 2738 3138
1409 2866 3234
1505 2914 3298
592 1313 1153
528 1457 1345
496 1537 1521
496 1553 1569
560 1617 1713
608 1729 1905
640 1761 2098
672 1937 2290
737 2082 2450
785 2194 2610
849 2338 2738
961 2514 2866
1089 2674 2994
1201 2770 3090
1313 2866 3186
1473 2962 3250
1617 2994 3314
705 1601 1313
560 1825 1601
528 1857 1777
576 1985 1953
592 1969 2050
656 2066 2178
656 2098 2274
737 2274 2450
785 2338 2578
849 2450 2690
977 2626 2834
1057 2722 2962
1201 2834 3074
1297 2898 3170
1457 3010 3234
1585 3058 3298
1761 3122 3394
817 2017 1425
672 2098 1713
560 2274 2098
608 2274 2194
640 2306 2274
705 2338 2386
785 2466 2530
817 2514 2610
865 2578 2674
1009 2754 2850
1057 2786 2914
1185 2866 3010
1313 2978 3138
1457 3058 3218
1553 3090 3298
1697 3138 3330
1889 3218 3427
977 2514 1649
785 2450 1937
689 2642 2386
737 2610 2450
737 2642 2498
817 2690 2578
865 2690 2642
897 2738 2690
977 2786 2802
1137 2898 2946
1217 2978 3026
1313 3026 3106
1441 3090 3170
1537 3122 3250
1649 3170 3314
1793 3218 3362
2001 3298 3443
1137 2770 1745
945 2754 2130
817 2898 2498
817 2866 2562
849 2882 2658
897 2850 2690
977 2914 2786
1057 2946 2850
1105 2962 2898
1217 3010 2978
1297 3058 3058
1457 3122 3138
1505 3138 3186
1649 3202 3250
1825 3250 3330
1985 3298 3410
2098 3330 3443
1297 2994 1857
1105 2946 2274
977 3074 2642
977 3090 2722
1057 3106 2866
1057 3090 2898
1153 3106 2962
1185 3106 2978
1297 3138 3058
1393 3186 3106
1489 3202 3138
1521 3202 3170
1665 3234 3234
1825 3282 3298
1905 3298 3330
2130 3346 3410
2210 3362 3427
1521 3106 1905
1457 3138 2306
1265 3218 2658
1249 3250 2834
1249 3298 2994
1281 3282 3058
1377 3298 3106
1377 3314 3122
1425 3282 3122
1537 3314 3170
1617 3282 3186
1665 3282 3202
1777 3314 3250
1937 3314 3298
2098 3362 3346
2178 3362 3394
2290 3410 3427
1761 3186 1905
1745 3218 2242
1633 3250 2578
1649 3298 2754
1521 3394 3010
1537 3427 3138
1617 3427 3186
1601 3394 3186
1681 3427 3218
1713 3394 3218
1841 3410 3250
1873 3394 3282
1953 3362 3282
2082 3394 3314
2210 3410 3362
2290 3410 3394
2386 3443 3427
2098 3282 1969
2066 3282 2274
2001 3330 2642
2066 3362 2834
1889 3443 3074
1697 3475 3186
1793 3507 3234
1841 3507 3250
1953 3507 3298
1953 3507 3298
2066 3475 3314
2066 3459 3314
2178 3459 3330
2290 3475 3362
2354 3475 3410
2450 3507 3443
2466 3475 3443
320 224 400
320 224 448
320 208 496
320 224 528
320 256 592
320 256 656
352 288 753
368 304 817
416 384 977
448 464 1153
512 608 1393
576 737 1633
656 817 1857
769 1009 2226
881 1201 2514
977 1329 2690
1137 1537 2882
464 352 544
448 336 576
464 336 624
480 336 672
416 368 737
432 368 817
400 384 849
448 496 1041
512 560 1185
592 656 1425
608 785 1617
672 993 1985
785 1153 2290
833 1265 2450
977 1473 2722
1073 1601 2866
