其他预设/【236】赛博朋克风调色预设/【后期菌】视频调色预设/3DL/Abandoned 10_S.3dl
# LUT by SparkleStock. Enhanced with VOXCOLOR algorithms.
0 256 512 768 1023
64 32 32
80 80 160
96 176 640
192 480 1761
432 1153 2786
96 128 144
96 208 384
128 496 1249
256 1265 2562
705 2306 3298
32 785 624
64 1089 1265
160 1697 2450
560 2706 3314
1345 3154 3491
128 2546 2050
320 2786 2754
640 3042 3250
1345 3298 3475
2338 3491 3587
1153 3250 2898
1617 3378 3218
2017 3443 3410
2434 3523 3523
2898 3587 3587
192 128 224
240 160 416
336 240 993
624 560 2033
1137 1521 2962
1233 608 560
1345 640 1089
400 961 1985
656 1905 3010
1569 2802 3410
352 1345 560
304 1697 1793
576 2370 2866
1281 3042 3410
2386 3378 3555
1777 2930 785
1073 3042 2834
1489 3218 3298
2258 3410 3459
2994 3555 3587
3010 3410 1009
3074 3443 2098
3042 3587 3427
3154 3587 3523
3378 3667 3635
2354 496 560
2162 400 1009
2306 480 1505
2562 689 2050
3122 1201 2690
2802 1217 913
2562 1153 1409
2722 1265 2194
3154 1649 2802
3250 2914 3427
2370 2354 384
2594 2258 1425
2706 2354 2530
2546 3266 3427
3138 3523 3603
3266 3314 881
3250 3266 1393
2818 3378 3202
3106 3491 3459
3410 3603 3603
3587 3539 1521
3635 3571 2194
3635 3603 2978
3587 3683 3571
3651 3699 3635
3410 1057 1425
3378 993 1777
3475 1233 2370
3523 1425 2690
3571 1729 2962
3443 1953 1585
3250 1569 1713
3378 1841 2562
3667 2642 3186
3651 2722 3330
3362 2818 737
3266 2482 1649
3298 2498 2482
3539 2994 3266
3699 3459 3555
3667 3491 1473
3491 3362 1793
3410 3314 2434
3475 3443 3330
3683 3683 3635
3747 3587 2226
3763 3667 2882
3731 3731 3154
3795 3747 3539
3763 3747 3667
3667 2066 2466
3699 2242 2866
3699 2338 3026
3731 2546 3202
3731 2658 3298
3731 2930 2306
3763 2882 2930
3779 2770 3090
3779 3074 3362
3763 3234 3475
3699 3298 1377
3779 2898 1921
3875 2690 2658
3859 2930 3298
3795 3555 3587
3763 3555 2017
3811 3378 2033
3891 3298 2466
3907 3378 3314
3843 3683 3683
3795 3699 3042
3843 3763 3314
3843 3795 3250
3875 3811 3603
3859 3795 3699
