其他预设/【236】赛博朋克风调色预设/【后期菌】视频调色预设/3DL/Abandoned 01_S.3dl
# LUT by SparkleStock. Enhanced with VOXCOLOR algorithms.
0 256 512 768 1023
400 160 320
400 208 400
480 320 656
672 705 1457
929 1361 2482
432 288 448
480 400 608
592 769 1169
865 1457 2194
1201 2098 2946
512 1009 913
592 1281 1281
817 1729 2033
1265 2450 2866
1665 2866 3266
881 2450 1825
1073 2594 2306
1377 2818 2802
1777 3074 3202
2322 3298 3443
1713 3138 2658
2017 3250 2962
2178 3298 3138
2418 3346 3330
2658 3427 3459
496 288 496
528 304 592
592 400 881
865 801 1761
1233 1649 2786
1217 833 849
1169 817 1153
833 1169 1713
1105 1889 2594
1553 2546 3170
753 1521 977
833 1761 1601
1105 2210 2434
1569 2754 3090
2114 3138 3394
1889 2754 1185
1425 2834 2482
1697 2994 2978
2082 3138 3234
2562 3346 3443
3042 3298 1457
3090 3346 2322
2818 3394 3250
2930 3394 3362
3186 3491 3491
1761 624 785
1649 560 1073
1633 689 1441
1649 897 1857
2178 1329 2530
2546 1313 993
2370 1185 1377
2450 1265 2033
2482 1649 2594
2754 2690 3234
2114 2162 753
2466 2146 1441
2450 2210 2370
2114 2978 3218
2626 3250 3459
3106 3058 1265
3090 3074 1617
2562 3186 2994
2818 3266 3266
3138 3394 3459
3523 3378 1889
3587 3427 2402
3587 3459 2930
3491 3507 3443
3523 3523 3507
3122 1185 1441
3090 1041 1617
3106 1249 2098
3074 1377 2418
3090 1569 2658
3266 1793 1553
3170 1489 1649
3202 1681 2354
3362 2226 2866
3346 2322 3058
3138 2546 1009
3186 2354 1617
3186 2338 2370
3362 2722 3058
3491 3170 3346
3555 3250 1745
3427 3186 1937
3330 3138 2370
3394 3266 3218
3555 3491 3491
3683 3443 2402
3715 3475 2818
3651 3555 3010
3715 3587 3378
3699 3571 3523
3475 1889 2210
3475 1905 2482
3475 1937 2674
3475 2082 2866
3459 2146 2962
3523 2610 2146
3603 2562 2690
3619 2466 2834
3571 2722 3122
3555 2818 3218
3571 2978 1585
3683 2722 1921
3779 2546 2546
3747 2754 3138
3635 3250 3378
3683 3330 2194
3763 3218 2033
3827 3170 2370
3827 3234 3186
3747 3491 3523
3747 3507 2946
3779 3571 3138
3811 3651 3170
3779 3619 3475
3779 3603 3587
