其他预设/【236】赛博朋克风调色预设/【后期菌】视频调色预设/3DL/Abandoned 02_S.3dl
# LUT by SparkleStock. Enhanced with VOXCOLOR algorithms.
0 256 512 768 1023
32 144 240
96 384 624
160 656 1089
208 1041 1777
352 1457 2530
64 512 608
128 672 881
176 1025 1393
256 1457 2146
352 1873 2770
16 1105 1025
32 1297 1377
112 1617 1953
208 2098 2610
336 2498 3074
0 2114 1713
0 2242 2098
32 2370 2530
64 2610 2962
272 2866 3314
112 2786 2418
208 2914 2722
224 2930 2930
352 2994 3138
753 3074 3378
432 512 769
448 512 945
464 705 1345
576 1121 2050
640 1633 2770
1169 1025 1153
1169 961 1409
416 1297 1809
400 1761 2450
640 2226 2994
480 1345 977
208 1665 1617
224 1921 2258
320 2386 2834
640 2770 3282
1537 2338 1553
192 2482 2338
176 2594 2754
416 2738 3042
1121 2994 3378
2402 2946 2162
2450 3042 2626
1777 3122 3138
1809 3138 3282
2226 3234 3507
1777 977 1345
1681 769 1489
1617 817 1857
1665 865 2242
2114 1105 2802
2434 1489 1313
2338 1297 1633
2418 1313 2338
2290 1489 2770
2290 2274 3330
1825 2050 1073
2338 2162 1617
2226 2082 2450
1249 2626 3042
1825 2978 3443
2546 2802 2017
2642 2914 2194
1681 2850 2882
1921 2962 3234
2418 3138 3507
3138 3298 2578
3186 3346 2834
3170 3378 3122
2914 3346 3491
2978 3378 3635
3106 1569 2050
3058 1297 2226
3122 1393 2658
3122 1425 2930
3154 1457 3154
3218 1969 1793
3170 1601 1873
3186 1713 2610
3298 2066 3154
3298 2033 3362
2914 2578 1553
3106 2386 1777
3138 2306 2498
3234 2610 3234
3202 2914 3523
3250 3218 2466
3186 3186 2354
3186 3154 2546
3138 3170 3298
3138 3346 3699
3394 3507 2882
3475 3539 3154
3443 3603 3218
3475 3635 3619
3378 3587 3811
3619 2114 2690
3619 2033 2962
3603 1905 3138
3603 1873 3330
3587 1841 3475
3491 2770 2530
3619 2546 2914
3619 2418 3058
3571 2546 3378
3523 2562 3555
3410 3074 2274
3603 2754 2178
3731 2546 2658
3635 2674 3330
3491 3106 3667
3507 3427 2674
3635 3298 2274
3747 3218 2530
3715 3298 3346
3555 3491 3859
3555 3619 3218
3587 3667 3394
3635 3747 3410
3603 3747 3795
3555 3763 3923
