其他预设/【236】赛博朋克风调色预设/【后期菌】视频调色预设/3DL/Abandoned 04_S.3dl
# LUT by SparkleStock. Enhanced with VOXCOLOR algorithms.
0 256 512 768 1023
144 208 256
144 256 336
160 368 592
176 608 1281
544 1009 1905
144 368 368
128 448 496
144 689 961
416 1121 1665
929 1617 2354
48 961 721
48 1105 1009
320 1409 1601
881 1921 2306
1281 2354 2834
737 2290 1665
785 2418 2017
1025 2482 2418
1361 2706 2834
1649 2946 3234
1585 3090 2562
1665 3154 2802
1681 3122 2962
1793 3170 3154
1985 3218 3346
448 320 400
448 304 528
512 336 801
656 576 1473
1121 1233 2258
1345 849 801
1377 769 1153
689 1057 1521
945 1537 2050
1393 2017 2738
881 1409 785
592 1633 1441
929 1873 2050
1297 2290 2626
1681 2706 3122
1889 2530 1441
1361 2674 2290
1457 2722 2642
1681 2834 2946
2033 3042 3282
2594 3154 2146
2738 3250 2658
2322 3282 3154
2354 3250 3250
2562 3330 3410
1841 656 913
1857 448 1153
1969 416 1569
2033 544 1921
2530 945 2562
2466 1473 1169
2370 1233 1457
2498 1281 2146
2594 1489 2562
2562 2226 3074
2001 2033 833
2354 2162 1553
2370 2130 2322
1873 2594 2898
2258 2898 3282
2722 2914 1793
2754 2978 2001
2194 2962 2834
2354 3010 3122
2578 3154 3378
3218 3459 2626
3282 3491 2818
3266 3507 3106
3010 3475 3459
3058 3491 3539
3090 1457 1713
3122 1201 1873
3218 1281 2338
3234 1329 2610
3266 1441 2898
3234 2033 1697
3154 1585 1713
3218 1729 2466
3378 2178 2962
3378 2178 3170
2978 2530 1297
3106 2402 1745
3154 2322 2418
3250 2610 3090
3266 2946 3362
3314 3266 2306
3250 3218 2258
3234 3202 2498
3154 3218 3218
3154 3378 3539
3603 3651 2946
3635 3683 3170
3619 3731 3250
3651 3763 3555
3491 3683 3715
3667 2274 2450
3731 2194 2706
3715 2162 2898
3715 2162 3106
3699 2146 3234
3619 2882 2594
3715 2626 2754
3763 2466 2930
3699 2642 3218
3635 2706 3362
3491 3074 2066
3651 2802 2162
3811 2530 2594
3779 2706 3234
3651 3170 3507
3667 3491 2706
3779 3346 2290
3843 3266 2530
3875 3362 3346
3779 3555 3763
3843 3811 3330
3875 3843 3410
3859 3875 3346
3923 3923 3763
3875 3907 3907
