其他预设/【236】赛博朋克风调色预设/【后期菌】视频调色预设/3DL/Abandoned 06_S.3dl
# LUT by SparkleStock. Enhanced with VOXCOLOR algorithms.
0 64 128 192 256 320 384 448 512 576 640 704 768 832 896 960 1023
208 432 16
224 448 48
224 432 64
240 448 80
240 432 80
256 448 128
256 448 160
256 464 208
272 480 288
288 496 384
288 496 512
288 528 705
304 560 913
320 576 1169
320 608 1393
352 640 1553
400 689 1713
240 448 64
240 448 64
240 448 80
240 448 96
240 448 128
240 448 144
256 464 192
272 480 256
288 496 336
288 512 464
288 544 624
288 544 801
304 576 1041
320 592 1297
336 640 1489
352 689 1649
400 785 1777
256 464 80
240 448 64
240 448 80
256 480 128
256 480 160
256 464 176
272 496 272
288 512 320
288 528 384
272 528 560
288 544 689
304 592 961
320 608 1153
320 656 1393
352 721 1601
416 833 1761
448 929 1889
256 480 96
240 480 96
256 496 128
256 496 160
256 512 192
272 512 240
272 512 304
288 528 368
288 544 496
304 576 705
304 592 865
304 640 1121
320 672 1345
352 753 1537
400 849 1697
480 1025 1905
528 1121 2017
256 496 112
272 512 144
256 528 160
256 528 192
256 528 224
288 560 320
288 544 352
304 576 480
320 592 624
320 624 865
320 672 1089
336 721 1313
368 817 1521
416 897 1665
480 1073 1873
496 1169 2001
576 1345 2162
272 544 176
272 544 192
304 560 240
288 576 272
304 592 320
304 592 368
320 592 512
320 608 624
320 672 833
336 721 1057
336 753 1233
384 865 1489
432 977 1665
480 1121 1841
528 1281 1969
592 1425 2146
624 1521 2258
304 592 256
320 592 288
320 592 320
320 608 352
320 624 416
320 624 512
336 689 689
336 737 865
352 785 1073
384 865 1281
400 945 1489
448 1089 1681
496 1233 1841
528 1297 1953
592 1441 2098
640 1585 2258
721 1681 2402
320 624 320
336 672 368
336 656 416
352 705 496
368 721 576
352 737 672
352 785 865
384 865 1073
384 961 1281
416 1073 1505
448 1185 1665
496 1329 1857
544 1409 1969
592 1537 2130
689 1649 2258
769 1745 2370
801 1809 2466
384 753 432
400 785 512
416 833 592
400 865 689
368 865 753
400 977 1009
432 1009 1169
480 1121 1393
464 1185 1521
512 1329 1697
560 1441 1873
592 1521 1985
640 1617 2130
705 1697 2258
769 1777 2354
849 1873 2450
897 1921 2498
448 945 640
464 961 705
480 1057 865
464 1121 977
480 1169 1169
496 1185 1281
496 1281 1457
544 1345 1601
576 1425 1745
592 1505 1857
592 1569 1969
640 1665 2130
705 1745 2258
769 1809 2370
865 1905 2450
897 1953 2530
1009 2050 2610
544 1201 913
544 1265 1073
560 1345 1217
560 1377 1329
560 1409 1425
592 1441 1585
592 1489 1681
592 1553 1777
624 1601 1905
672 1681 2033
705 1745 2162
753 1841 2306
833 1921 2434
865 1937 2434
945 2033 2546
1025 2098 2626
1137 2178 2722
592 1489 1217
608 1505 1393
624 1553 1505
624 1553 1569
624 1617 1649
656 1649 1809
689 1713 1905
689 1745 2001
753 1793 2114
737 1809 2162
817 1905 2322
865 1969 2386
865 2001 2466
993 2098 2562
1057 2178 2658
1169 2210 2706
1233 2322 2802
705 1665 1585
705 1681 1633
753 1745 1761
737 1761 1825
737 1793 1905
801 1841 2050
785 1841 2066
785 1857 2130
833 1921 2242
833 1921 2274
913 2017 2402
961 2082 2466
1041 2130 2562
1121 2194 2626
1233 2290 2706
1345 2354 2786
1489 2466 2898
817 1841 1793
865 1937 1953
865 1921 1969
865 1937 2050
881 1953 2114
897 1985 2194
881 2017 2194
897 2017 2290
993 2098 2386
977 2114 2418
1057 2146 2482
1105 2242 2578
1137 2242 2626
1249 2306 2690
1377 2402 2786
1537 2482 2882
1569 2546 2930
993 2098 1985
993 2098 2050
1009 2130 2114
1009 2130 2162
1057 2178 2258
1089 2146 2322
1121 2178 2370
1105 2210 2402
1121 2242 2450
1169 2290 2562
1169 2306 2578
1281 2338 2642
1329 2418 2706
1441 2450 2770
1521 2530 2866
1665 2610 2946
1793 2626 2978
1185 2258 2210
1153 2274 2178
1249 2274 2322
1297 2322 2386
1345 2354 2434
1393 2386 2482
1377 2370 2498
1393 2434 2546
1441 2482 2626
1457 2450 2658
1441 2434 2690
1473 2450 2706
1601 2546 2802
1729 2610 2882
1825 2658 2930
1857 2690 2994
1937 2738 3042
1425 2418 2370
1489 2466 2450
1585 2530 2530
1649 2578 2594
1649 2562 2594
1649 2562 2626
1665 2562 2642
1745 2610 2722
1729 2610 2754
1729 2610 2754
1809 2642 2850
1841 2658 2882
1905 2706 2930
1921 2690 2930
2066 2770 3010
2066 2770 3026
2178 2834 3090
240 448 64
240 432 64
256 464 96
256 448 96
256 432 112
288 448 160
288 464 192
272 464 240
304 480 320
320 512 464
304 528 624
304 544 753
320 560 977
336 592 1233
352 624 1457
368 656 1601
448 737 1777
272 464 96
272 464 96
288 464 112
272 448 128
272 464 144
272 464 192
288 480 256
304 496 320
304 512 384
304 528 528
288 544 672
320 592 929
320 592 1153
336 624 1393
384 672 1569
432 769 1745
464 849 1841
304 480 128
288 464 112
288 464 128
304 480 176
288 496 208
304 496 256
304 512 320
304 512 352
304 544 512
304 576 689
320 592 865
320 608 1089
352 656 1345
384 721 1537
416 785 1649
480 913 1857
544 1041 1985
304 480 128
304 496 160
304 496 192
304 512 224
288 512 240
304 512 304
320 560 384
320 560 480
304 560 592
320 608 849
320 640 1041
320 656 1249
368 721 1457
416 849 1649
480 961 1809
528 1089 1953
592 1265 2098
304 512 160
288 528 192
272 528 208
288 544 256
304 560 304
320 592 400
320 592 480
304 592 576
320 624 769
320 640 929
352 737 1217
368 769 1393
400 833 1553
464 1009 1761
544 1169 1953
592 1281 2098
624 1425 2242
320 544 224
304 560 256
304 560 272
304 576 320
320 592 352
320 592 448
336 624 592
320 656 737
336 689 929
368 769 1169
384 849 1377
432 945 1601
480 1073 1761
528 1217 1921
592 1393 2066
672 1537 2258
737 1617 2306
352 624 304
320 592 304
320 608 336
336 640 416
352 656 528
368 689 624
352 737 753
352 769 929
384 849 1153
432 977 1409
480 1089 1649
480 1121 1713
544 1329 1921
592 1441 2066
624 1505 2162
737 1649 2306
817 1777 2450
368 672 336
352 689 400
368 705 480
368 721 544
384 769 624
368 769 769
400 865 1041
400 913 1201
432 1057 1425
480 1169 1617
544 1329 1825
576 1393 1921
592 1489 2066
672 1633 2210
737 1681 2290
865 1841 2434
897 1873 2530
432 801 448
448 865 624
448 913 721
416 929 785
432 977 929
464 1057 1121
480 1105 1313
496 1185 1473
528 1297 1633
576 1425 1809
592 1473 1905
624 1569 2050
689 1649 2178
785 1761 2322
865 1873 2418
913 1921 2482
1073 2050 2626
544 977 592
496 1089 865
512 1137 1009
496 1185 1105
512 1233 1249
560 1329 1457
576 1393 1569
576 1409 1681
592 1505 1809
640 1585 1953
672 1649 2066
705 1713 2178
769 1793 2306
865 1873 2402
929 1953 2466
993 2001 2562
1169 2162 2706
624 1265 865
560 1345 1153
576 1377 1297
592 1441 1457
592 1457 1505
592 1489 1633
640 1569 1761
640 1633 1873
705 1697 2017
705 1713 2082
753 1777 2178
817 1889 2338
881 1969 2434
977 2033 2498
1041 2082 2578
1153 2178 2690
1361 2322 2802
689 1457 1057
689 1585 1489
672 1601 1553
689 1633 1665
672 1665 1745
705 1729 1873
705 1745 1937
737 1793 2050
769 1809 2130
817 1873 2242
865 1937 2322
945 2001 2418
993 2098 2530
1089 2146 2578
1185 2258 2706
1361 2338 2786
1425 2402 2882
865 1681 1393
801 1761 1681
817 1793 1761
801 1793 1857
817 1857 1969
817 1825 2033
849 1873 2098
865 1905 2178
881 1953 2258
929 1985 2322
1025 2082 2434
1041 2130 2482
1121 2162 2562
1233 2258 2658
1345 2338 2738
1553 2450 2866
1649 2530 2914
1057 1905 1665
913 1921 1889
961 1985 1985
1025 2050 2114
1009 2050 2194
961 2017 2210
1009 2098 2290
1073 2114 2354
1041 2114 2402
1073 2146 2450
1121 2194 2530
1217 2306 2610
1297 2322 2658
1409 2402 2754
1569 2482 2850
1729 2594 2930
1825 2658 2994
1281 2162 1889
1153 2146 1985
1217 2194 2082
1233 2258 2194
1217 2290 2338
1265 2274 2402
1249 2258 2418
1281 2322 2466
1313 2338 2530
1345 2370 2594
1377 2386 2626
1393 2402 2674
1441 2450 2738
1633 2530 2834
1713 2610 2914
1905 2706 3010
2001 2722 3026
1633 2370 2130
1553 2434 2194
1649 2434 2322
1585 2434 2386
1489 2418 2482
1569 2466 2578
1537 2450 2578
1537 2498 2594
1649 2562 2674
1681 2562 2722
1665 2562 2754
1713 2578 2786
1809 2626 2866
1873 2658 2914
2017 2738 2978
2017 2754 3010
2114 2802 3074
1985 2610 2370
1921 2626 2450
2001 2674 2530
1921 2658 2578
1889 2674 2690
1873 2642 2690
1953 2706 2770
1953 2706 2786
1969 2706 2834
2001 2738 2882
2017 2738 2914
2001 2722 2898
2082 2770 2962
2114 2770 2978
2178 2802 3010
2322 2898 3122
2322 2882 3122
288 464 96
288 464 96
288 464 112
272 448 112
304 464 160
304 448 176
304 464 208
304 464 272
320 464 352
336 512 496
320 528 624
336 576 881
352 592 1153
352 608 1361
400 656 1553
464 721 1697
528 801 1857
320 480 144
320 480 144
320 480 160
320 464 160
320 480 208
320 480 240
320 496 304
320 496 336
352 528 512
336 544 624
336 576 849
336 592 1057
352 608 1281
368 656 1473
448 737 1649
496 849 1825
576 961 1953
384 512 208
384 512 224
400 512 256
368 496 272
336 496 272
320 496 288
336 528 368
320 544 464
320 560 592
320 576 721
336 624 1025
336 640 1249
368 672 1441
448 801 1649
480 865 1761
560 1025 1937
624 1153 2050
400 528 240
384 528 272
400 528 304
384 528 320
368 528 336
352 544 400
336 544 448
320 576 592
320 592 705
336 640 961
336 656 1153
368 721 1393
416 785 1537
480 897 1713
576 1089 1921
592 1185 2033
721 1409 2194
432 560 304
352 544 272
336 560 288
336 576 320
336 576 368
336 592 448
320 592 592
336 624 721
336 656 881
336 689 1073
368 753 1297
416 849 1521
464 945 1665
512 1089 1825
608 1297 2050
656 1393 2194
833 1585 2354
432 592 320
352 576 304
320 592 320
336 608 384
368 656 512
368 689 608
352 689 721
336 689 865
368 737 1073
384 817 1265
432 913 1505
464 1009 1665
528 1169 1857
608 1361 2050
640 1441 2130
785 1633 2306
865 1713 2418
400 624 320
368 608 352
368 656 432
384 689 528
384 737 608
384 785 737
368 769 865
400 865 1121
448 945 1345
448 1009 1473
496 1137 1665
544 1265 1841
592 1393 1985
672 1521 2146
753 1633 2274
817 1729 2370
961 1873 2562
448 721 384
416 753 432
400 737 544
400 801 624
400 833 737
432 929 993
432 961 1153
464 1057 1361
528 1217 1569
560 1297 1745
576 1377 1857
608 1473 2001
689 1585 2162
785 1713 2322
865 1809 2386
977 1921 2498
1041 1985 2626
512 865 512
496 897 592
464 977 833
464 1025 913
480 1089 1121
512 1169 1313
512 1201 1441
560 1313 1601
576 1393 1729
608 1489 1873
640 1569 2001
705 1649 2130
801 1745 2290
849 1825 2354
913 1905 2434
1057 2017 2578
1169 2114 2658
624 1105 689
576 1169 865
544 1233 1121
560 1329 1265
576 1361 1425
592 1393 1537
592 1441 1633
624 1521 1793
640 1569 1889
672 1617 1985
737 1713 2146
801 1793 2290
865 1889 2386
913 1937 2450
1089 2066 2562
1153 2130 2658
1361 2290 2786
801 1393 961
672 1361 1025
608 1441 1409
624 1489 1521
640 1553 1617
656 1569 1745
689 1649 1889
705 1681 1953
721 1713 2050
817 1825 2194
833 1841 2274
865 1921 2354
993 2050 2482
1089 2098 2562
1185 2162 2658
1361 2306 2770
1537 2418 2882
993 1665 1217
817 1569 1281
753 1681 1697
769 1713 1825
769 1745 1857
785 1777 1969
801 1809 2033
817 1841 2098
865 1889 2210
945 1969 2322
993 2033 2402
1057 2082 2482
1105 2162 2578
1201 2194 2642
1345 2322 2754
1489 2402 2834
1649 2546 2962
1217 1857 1457
1041 1809 1569
913 1857 1841
913 1873 1921
865 1921 2033
913 1921 2114
961 1985 2194
977 2017 2274
993 2017 2322
1057 2082 2402
1121 2146 2466
1185 2242 2562
1281 2274 2626
1425 2370 2722
1569 2450 2834
1713 2546 2914
1841 2626 2962
1569 2130 1745
1281 2033 1809
1121 2050 2017
1121 2066 2098
1137 2146 2258
1105 2114 2306
1137 2178 2354
1121 2146 2386
1249 2258 2482
1313 2322 2578
1377 2354 2626
1377 2370 2658
1537 2450 2754
1649 2530 2834
1761 2578 2882
1937 2674 2978
2001 2738 3042
1809 2386 1921
1777 2402 2066
1505 2354 2194
1473 2354 2290
1393 2354 2370
1409 2354 2466
1489 2402 2546
1473 2434 2578
1457 2418 2578
1585 2498 2674
1617 2530 2738
1633 2498 2754
1713 2594 2834
1841 2626 2882
1969 2722 2978
2017 2738 3010
2146 2770 3058
2082 2546 2114
2098 2626 2242
2017 2594 2354
2033 2626 2434
1905 2626 2578
1841 2610 2658
1889 2642 2722
1777 2626 2690
1889 2674 2770
1889 2642 2802
1985 2690 2866
1969 2690 2882
1985 2690 2898
2066 2738 2962
2178 2802 3026
2194 2850 3074
2258 2866 3122
2338 2722 2322
2354 2754 2434
2338 2754 2546
2370 2802 2610
2242 2802 2722
2082 2738 2754
2130 2770 2802
2146 2770 2850
2194 2802 2898
2178 2802 2914
2194 2802 2930
2194 2802 2946
2258 2850 2994
2370 2898 3058
2402 2914 3090
2434 2930 3138
2434 2930 3154
320 464 128
336 480 160
336 480 176
336 480 192
336 480 224
320 464 240
336 480 288
336 464 320
368 480 416
368 496 544
384 544 737
384 560 945
400 576 1153
448 608 1409
448 656 1601
512 721 1713
592 849 1889
400 512 224
384 496 224
384 480 224
384 480 272
384 480 320
400 480 320
352 480 336
384 512 432
400 528 560
432 560 753
400 576 897
400 624 1185
432 656 1425
432 689 1537
512 817 1761
560 897 1873
