其他预设/【236】赛博朋克风调色预设/【后期菌】视频调色预设/3DL/Abandoned 09_S.3dl
# LUT by SparkleStock. Enhanced with VOXCOLOR algorithms.
0 256 512 768 1023
64 16 16
80 80 128
112 176 512
208 544 1601
496 1265 2770
80 128 144
96 240 320
112 512 1009
256 1233 2418
640 2146 3234
16 705 480
32 977 977
80 1505 2066
416 2514 3234
1089 3106 3523
0 2322 1505
64 2594 2306
256 2898 3138
785 3234 3539
1617 3427 3619
448 3138 2626
865 3298 3154
1153 3394 3427
1537 3459 3539
2178 3555 3619
192 160 224
240 160 368
304 240 801
608 624 1905
1105 1633 2994
1185 608 464
1249 656 977
400 929 1713
592 1777 2898
1377 2674 3394
336 1185 464
240 1537 1489
352 2162 2674
945 2898 3394
1889 3330 3571
1633 2786 656
448 2866 2578
769 3106 3282
1473 3298 3475
2466 3523 3603
2850 3378 817
2850 3410 1777
2450 3523 3410
2674 3555 3523
3058 3619 3619
2226 560 528
2066 464 929
2130 544 1441
2338 721 2033
3042 1249 2722
2850 1201 833
2610 1185 1441
2770 1249 2210
3058 1521 2738
3138 2786 3394
2194 2162 320
2594 2194 1345
2626 2178 2466
2033 3154 3427
2786 3459 3587
3170 3282 721
3154 3266 1217
2178 3282 3154
2706 3443 3459
3170 3571 3603
3539 3555 1329
3587 3571 1937
3587 3619 2866
3475 3683 3587
3555 3715 3667
3443 1169 1473
3394 1089 1857
3507 1297 2434
3539 1521 2770
3587 1793 3026
3459 1905 1617
3282 1585 1777
3410 1793 2610
3667 2434 3154
3667 2562 3314
3346 2850 640
3282 2498 1633
3314 2482 2546
3539 2930 3298
3667 3394 3555
3651 3507 1297
3507 3394 1649
3394 3298 2370
3459 3443 3346
3651 3683 3667
3715 3619 1985
3731 3667 2722
3731 3747 3138
3795 3779 3539
3747 3779 3699
3683 2130 2594
3715 2178 2914
3715 2274 3090
3715 2434 3202
3715 2514 3298
3731 2898 2290
3779 2834 2994
3795 2722 3122
3795 2978 3394
3779 3106 3507
3699 3298 1249
3795 2930 1889
3875 2722 2706
3859 2930 3314
3795 3539 3603
3747 3571 1745
3827 3394 1985
3891 3314 2466
3923 3410 3330
3843 3699 3715
3811 3715 2898
3827 3779 3282
3843 3827 3282
3875 3811 3619
3843 3811 3731
