其他预设/【236】赛博朋克风调色预设/【后期菌】视频调色预设/3DL/Abandoned 04.3dl
# LUT by SparkleStock. Enhanced with VOXCOLOR algorithms.
0 128 256 384 512 640 768 896 1023
144 208 256
160 224 288
144 256 336
160 288 416
160 368 592
128 464 897
176 608 1281
336 817 1617
544 1009 1905
160 272 304
144 272 336
160 336 432
144 384 544
160 480 737
144 608 1073
256 817 1409
464 1057 1761
737 1297 2082
144 368 368
144 400 432
128 448 496
144 512 656
144 689 961
224 897 1329
416 1121 1665
705 1377 1985
945 1633 2322
96 576 496
112 640 592
96 689 721
128 833 961
176 1025 1297
368 1201 1585
656 1505 1921
865 1713 2258
1137 2050 2626
48 961 721
48 1089 897
48 1089 1009
112 1265 1345
320 1409 1601
689 1697 1985
881 1921 2306
1105 2162 2610
1281 2354 2834
144 1553 1137
208 1713 1393
240 1761 1553
432 1809 1777
689 1953 2050
945 2194 2354
1153 2370 2642
1297 2514 2866
1457 2706 3074
737 2290 1665
769 2370 1889
801 2402 2050
929 2450 2258
1025 2482 2418
1201 2562 2626
1361 2706 2834
1489 2802 3026
1649 2946 3234
1265 2802 2210
1265 2818 2338
1281 2834 2498
1329 2834 2626
1361 2818 2738
1441 2834 2834
1553 2930 3010
1633 2978 3122
1761 3058 3250
1585 3090 2562
1681 3154 2706
1665 3154 2802
1633 3122 2866
1681 3122 2962
1729 3154 3042
1793 3170 3154
1889 3186 3250
1985 3218 3346
224 256 320
240 256 352
240 256 384
240 288 496
256 320 640
256 496 993
368 721 1441
544 945 1745
817 1153 2066
384 352 416
416 352 496
336 352 512
288 448 705
256 576 961
320 785 1313
496 977 1617
753 1233 1921
993 1473 2258
496 480 512
288 480 528
256 528 656
256 656 897
288 849 1185
416 1025 1505
624 1249 1777
961 1585 2194
1201 1873 2562
384 656 560
192 753 721
224 849 897
208 961 1137
448 1217 1505
608 1409 1745
849 1665 2114
1121 1905 2466
1329 2226 2770
448 1153 737
160 1281 1089
256 1393 1329
416 1473 1553
624 1681 1841
849 1841 2146
1105 2114 2482
1249 2306 2706
1441 2498 2962
865 1697 977
416 1873 1553
528 1921 1729
801 2082 2050
913 2146 2210
1121 2306 2466
1313 2482 2738
1441 2642 2946
1649 2802 3170
1377 2306 1361
1089 2498 1969
1041 2514 2194
1169 2594 2370
1217 2594 2514
1345 2658 2706
1457 2754 2866
1633 2866 3058
1761 2962 3218
1777 2754 1729
1617 2898 2274
1505 2914 2578
1537 2946 2738
1537 2930 2802
1617 2962 2930
1681 2962 3010
1841 3058 3186
1969 3106 3282
2210 3058 2114
2178 3106 2482
2033 3218 2802
1889 3218 2962
1953 3218 3042
1969 3202 3106
2017 3202 3186
2162 3250 3266
2226 3266 3346
448 320 400
432 288 432
432 304 512
432 304 592
512 336 801
528 432 1089
656 576 1473
817 865 1825
1121 1233 2258
881 464 608
913 464 721
929 448 833
849 464 961
769 544 1153
769 737 1457
849 1169 1841
1041 1409 2146
1281 1681 2466
1377 849 849
1665 801 1153
1537 737 1233
849 801 1249
656 1089 1473
705 1217 1681
945 1537 2050
1201 1793 2402
1409 2050 2706
1233 1073 833
1137 1041 1073
737 1025 1201
849 1249 1489
737 1409 1697
849 1601 1969
1089 1857 2338
1313 2130 2626
1521 2402 2914
881 1393 817
849 1489 1089
528 1585 1553
737 1681 1777
929 1873 2082
1089 2050 2338
1297 2290 2626
1473 2482 2882
1681 2706 3122
1393 2001 1105
1409 2130 1425
849 2146 1953
1025 2274 2210
1169 2354 2402
1313 2434 2594
1505 2610 2834
1681 2770 3058
1825 2882 3218
1889 2530 1441
1777 2578 1681
1377 2674 2322
1361 2642 2450
1457 2722 2642
1537 2738 2770
1681 2834 2946
1841 2930 3122
2033 3042 3282
2338 2898 1777
2306 2930 2066
2033 2962 2466
1761 3010 2786
1777 3010 2898
1793 2978 2930
1921 3042 3074
2114 3122 3234
2274 3186 3346
2594 3154 2146
2706 3218 2370
2738 3250 2658
2434 3282 2946
2322 3282 3154
2322 3282 3202
2354 3250 3250
2450 3314 3346
2562 3330 3410
977 416 592
1041 416 689
1041 384 817
1025 384 929
1057 352 1105
1201 384 1361
1473 512 1729
1681 656 2033
1553 1089 2354
1729 753 961
1761 689 1121
1873 705 1313
1825 608 1409
1873 640 1617
1665 672 1745
1617 961 2050
1713 1329 2402
1841 1729 2674
2194 1297 1265
2418 1201 1553
2370 1153 1665
2370 1121 1825
1825 1009 1809
1745 1201 2033
1809 1617 2370
1521 2017 2578
1665 2226 2818
2194 1585 1153
2466 1761 1617
2674 1665 1985
2466 1521 2033
1489 1697 2017
1281 1873 2274
1329 2066 2482
1569 2354 2818
1761 2514 3026
1537 1777 961
1585 1825 1201
1633 1857 1649
1201 1873 1969
1393 2050 2226
1329 2226 2514
1505 2450 2770
1745 2642 3026
1921 2786 3202
1905 2306 1281
1953 2322 1377
1889 2418 1793
1313 2434 2354
1393 2482 2530
1553 2594 2754
1713 2706 2914
1889 2818 3106
2082 2946 3266
2322 2706 1601
2466 2818 1793
2402 2834 2114
1713 2802 2626
1713 2786 2722
1793 2818 2866
1921 2914 3042
2194 3042 3218
2322 3090 3330
2674 3074 2017
2738 3074 2146
2706 3090 2434
2498 3170 2818
2338 3122 2914
2194 3090 3058
2290 3106 3154
2450 3202 3282
2530 3234 3378
2962 3314 2402
3010 3346 2514
3058 3362 2674
3090 3394 2898
2786 3378 3122
2626 3346 3250
2722 3394 3362
2754 3378 3394
2786 3378 3459
1841 689 945
1921 624 1089
1873 544 1201
1921 496 1393
1985 464 1553
2066 528 1777
2033 544 1921
2338 753 2290
2530 945 2562
2530 1217 1409
2578 1121 1553
2626 1089 1729
2610 993 1857
2642 961 2033
2658 961 2162
2722 1057 2354
2722 1105 2530
2834 1409 2818
2754 1713 1665
2914 1601 1889
2898 1553 2050
2914 1537 2194
2930 1505 2338
2914 1441 2434
2610 1505 2562
2610 1905 2866
2578 2274 3058
2738 2001 1537
2834 2146 1969
3026 2066 2322
2898 1953 2370
2898 1921 2466
2642 1905 2594
2562 2130 2770
2594 2530 3058
2162 2658 3122
2050 2114 1089
2226 2178 1281
2818 2466 2146
2946 2370 2514
2642 2290 2578
2017 2418 2658
1873 2594 2898
2033 2770 3122
2258 2898 3282
2402 2514 1425
2466 2594 1553
2562 2642 1745
2562 2674 2322
1985 2626 2658
2178 2738 2866
2033 2786 2978
2258 2946 3186
2402 3026 3330
2722 2914 1793
2770 2946 1953
2834 2978 2130
2754 2978 2466
2210 2962 2882
2210 2978 3010
2354 3010 3122
2482 3106 3266
2578 3154 3378
2978 3218 2226
3026 3234 2354
3106 3282 2530
3106 3282 2674
2914 3314 3058
2626 3234 3186
2658 3234 3266
2754 3282 3362
2818 3314 3427
3218 3459 2626
3234 3459 2706
3282 3491 2818
3330 3523 3010
3266 3507 3106
3074 3475 3346
3010 3475 3459
3010 3459 3475
3058 3491 3539
2594 1057 1361
2626 977 1505
2674 961 1649
2722 881 1809
2770 881 2001
2770 881 2146
2786 897 2290
2818 961 2498
2962 1121 2722
2978 1585 1777
3058 1553 1953
3074 1505 2066
3058 1409 2194
3058 1393 2338
3074 1329 2450
3058 1329 2578
3090 1441 2754
3170 1601 2946
3058 2114 2001
3122 1969 2194
3154 1953 2322
3154 1873 2450
3154 1857 2514
3186 1857 2674
3170 1809 2786
3170 1873 2898
3202 2017 3058
3058 2354 1889
3090 2434 2226
3186 2306 2482
3170 2258 2562
3202 2306 2738
3202 2290 2802
3186 2290 2930
3026 2402 3058
2962 2626 3234
2594 2418 1313
2706 2466 1521
3042 2658 2338
3186 2610 2706
3090 2498 2754
3122 2594 2914
2930 2642 2978
2946 2866 3218
2930 3026 3378
2866 2786 1665
2866 2818 1809
2898 2834 1985
3106 2930 2466
3106 2978 2738
2866 2914 3042
2530 2930 3074
2562 3010 3218
2706 3122 3394
3074 3106 2066
3058 3106 2178
3106 3170 2402
3154 3186 2562
3058 3186 2834
2754 3090 3074
2754 3122 3202
2786 3170 3330
2898 3250 3427
3234 3362 2418
3250 3362 2514
3330 3394 2722
3362 3459 2882
3314 3459 3074
3154 3394 3266
2962 3330 3330
3026 3378 3459
3058 3394 3507
3410 3555 2786
3459 3603 2898
3459 3571 2978
3507 3619 3106
3523 3635 3218
3507 3667 3362
3346 3603 3507
3282 3603 3603
3266 3571 3619
3090 1489 1745
3122 1425 1873
3154 1377 2033
3202 1313 2194
3234 1329 2354
3234 1313 2498
3234 1329 2610
3234 1329 2738
3266 1441 2898
3314 2001 2162
3282 1889 2194
3314 1889 2354
3330 1841 2498
3346 1761 2594
3330 1745 2706
3330 1745 2802
3346 1793 2946
3330 1793 3042
3330 2434 2306
3362 2322 2482
3314 2194 2482
3330 2194 2642
3346 2194 2754
3362 2194 2834
3378 2178 2962
3346 2178 3042
3378 2210 3154
3266 2642 2226
3314 2658 2498
3362 2594 2722
3378 2562 2802
3330 2498 2866
3362 2530 2946
3346 2530 3058
3346 2562 3154
3378 2594 3250
2978 2674 1553
3042 2770 1793
3234 2882 2610
3346 2818 2898
3314 2770 2930
3362 2818 3058
3330 2802 3122
3314 2802 3218
3266 2946 3362
3154 2978 1873
3186 3058 2114
3186 3058 2274
3282 3106 2626
3314 3122 2818
3250 2962 3106
3266 3026 3218
3218 3106 3346
3218 3234 3491
3314 3266 2306
3346 3314 2466
3330 3266 2578
3346 3314 2706
3378 3330 2882
3346 3346 3090
3202 3282 3282
3058 3266 3362
3154 3378 3539
3475 3491 2658
3491 3507 2786
3507 3507 2914
3507 3507 3026
3507 3507 3090
3459 3523 3266
3362 3523 3427
3314 3507 3523
3314 3507 3619
3603 3651 2946
3603 3667 3042
3635 3683 3170
3651 3683 3266
3667 3715 3362
3683 3763 3491
3667 3763 3571
3507 3683 3667
3491 3683 3715
3410 1905 2146
3459 1841 2258
3491 1793 2402
3491 1761 2530
3507 1713 2626
3507 1697 2754
3539 1809 2914
3523 1793 3026
3539 1793 3106
3571 2370 2482
3555 2322 2594
3507 2178 2594
3539 2194 2738
3555 2194 2866
3539 2162 2930
3539 2162 3026
3523 2162 3122
3523 2194 3218
3491 2722 2498
3555 2594 2706
3539 2562 2770
3523 2498 2834
3539 2514 2962
3555 2482 3026
3539 2498 3106
3555 2530 3218
3555 2514 3266
3507 2882 2498
3523 2914 2754
3523 2818 2802
3507 2754 2946
3523 2738 3026
3507 2754 3090
3475 2738 3154
3539 2786 3266
3523 2786 3330
3282 2946 1873
3282 2978 2114
3394 3042 2626
3475 2962 3010
3491 2946 3074
3507 2962 3170
3475 2946 3234
3507 3010 3346
3539 3058 3475
3394 3170 2178
3394 3202 2354
3362 3170 2466
3427 3234 2802
3475 3266 2962
3507 3186 3282
3539 3186 3362
3539 3218 3459
3507 3282 3555
3523 3394 2514
3523 3394 2642
3523 3394 2770
3523 3427 2882
3523 3410 2962
3571 3491 3202
3603 3475 3410
3571 3410 3507
3523 3491 3651
3651 3603 2898
3667 3635 3010
3667 3635 3106
3635 3619 3186
3651 3635 3266
3683 3667 3362
3667 3667 3491
3603 3651 3619
3539 3651 3731
3731 3763 3154
3731 3731 3218
3795 3795 3362
3763 3779 3394
3779 3795 3523
3795 3811 3603
3795 3827 3667
3811 3843 3763
3715 3827 3843
3667 2274 2450
3699 2226 2562
3731 2194 2706
3731 2162 2802
3715 2162 2898
3715 2114 2978
3715 2162 3106
3699 2082 3154
3699 2146 3234
3715 2594 2674
3715 2530 2722
3731 2498 2818
3763 2498 2946
3715 2466 3010
3715 2418 3074
3699 2450 3186
3683 2450 3250
3667 2466 3330
3619 2882 2594
3731 2818 2914
3699 2770 2914
3715 2754 3010
3699 2722 3090
3683 2706 3154
3683 2722 3234
3683 2722 3330
3635 2706 3362
3394 2882 1921
3635 3090 2818
3667 3026 3010
3667 2962 3074
3635 2882 3090
3651 2914 3202
3635 2898 3266
3635 2946 3362
3635 2930 3410
3475 3090 2130
3475 3106 2338
3507 3154 2706
3635 3250 3090
3619 3090 3202
3603 3074 3250
3635 3106 3362
3619 3106 3410
3651 3170 3507
3603 3314 2450
3603 3330 2594
3555 3330 2706
3555 3346 2898
3619 3378 3074
3667 3394 3410
3667 3330 3427
3667 3330 3507
3699 3362 3619
3667 3491 2706
3683 3523 2834
3651 3507 2914
3667 3539 3042
3667 3539 3122
3731 3603 3346
3779 3603 3555
3779 3603 3651
3763 3571 3731
3763 3667 3010
3795 3683 3106
3779 3715 3234
3795 3699 3314
3779 3683 3362
3795 3731 3491
3811 3763 3571
3827 3795 3683
3811 3731 3827
3843 3811 3330
3843 3827 3410
3859 3827 3507
3843 3827 3555
3843 3843 3635
3843 3843 3699
3875 3875 3795
3875 3907 3843
3875 3907 3907
