其他预设/【236】赛博朋克风调色预设/【后期菌】视频调色预设/3DL/Abandoned 05_S.3dl
# LUT by SparkleStock. Enhanced with VOXCOLOR algorithms.
0 128 256 384 512 640 768 896 1023
256 288 48
288 320 64
288 336 112
288 368 208
304 400 352
288 464 640
320 576 1073
352 705 1537
400 929 1873
288 352 80
272 352 112
304 400 208
304 432 320
288 480 496
272 560 881
320 689 1313
352 961 1777
400 1217 2130
288 400 144
304 448 224
288 464 288
288 528 432
288 640 817
320 817 1249
352 1057 1681
368 1297 2066
400 1505 2354
304 592 304
320 640 400
304 689 544
304 801 881
336 961 1233
336 1153 1633
352 1425 2017
384 1585 2258
448 1825 2530
320 929 640
352 1025 865
336 1073 1009
336 1217 1345
352 1345 1665
368 1585 2017
384 1761 2274
464 1905 2466
528 2017 2594
368 1425 1201
384 1553 1457
368 1601 1601
384 1649 1793
400 1761 2001
432 1905 2242
464 2050 2466
528 2130 2562
640 2242 2706
432 1889 1713
448 1937 1857
400 1985 1953
432 2017 2098
448 2066 2226
496 2146 2370
592 2226 2530
640 2306 2642
849 2450 2802
544 2258 1969
560 2290 2098
576 2290 2210
592 2290 2306
592 2306 2370
640 2338 2498
737 2418 2626
833 2482 2738
1025 2546 2818
817 2466 2226
945 2562 2370
977 2578 2466
961 2562 2514
1041 2594 2594
1057 2610 2658
1153 2642 2754
1297 2706 2834
1409 2770 2898
304 336 64
320 352 112
320 352 144
352 352 240
368 400 416
336 496 785
368 640 1265
432 833 1649
528 1105 2017
384 416 176
416 416 224
368 416 240
352 480 416
336 560 705
352 689 1153
384 865 1537
448 1153 1937
544 1409 2258
432 512 272
352 512 272
352 560 400
352 640 705
352 785 1073
368 945 1425
400 1185 1825
512 1505 2210
608 1745 2514
400 640 352
352 737 528
352 849 785
352 929 1073
384 1169 1489
384 1329 1793
448 1553 2130
544 1793 2386
640 1969 2626
480 1057 672
384 1169 1073
384 1265 1281
384 1345 1537
416 1521 1841
432 1697 2114
544 1889 2370
592 2017 2514
721 2162 2690
672 1537 1105
416 1649 1601
432 1713 1745
480 1793 1969
464 1873 2114
528 1985 2306
640 2130 2514
737 2242 2642
929 2370 2802
1009 2050 1569
640 2033 1905
560 2098 2033
576 2130 2194
592 2146 2306
672 2226 2450
801 2306 2578
929 2434 2738
1153 2546 2834
1377 2450 1857
1057 2450 2114
897 2434 2258
897 2450 2450
865 2450 2498
977 2498 2610
1057 2530 2674
1281 2658 2818
1457 2706 2898
1793 2738 2114
1793 2802 2418
1649 2802 2562
1457 2770 2626
1585 2818 2738
1601 2818 2770
1633 2834 2834
1777 2882 2914
1825 2930 2962
416 400 160
416 384 192
480 384 288
496 384 352
528 432 592
544 512 961
705 624 1473
689 849 1905
833 1233 2242
705 544 336
817 544 464
849 560 624
817 576 833
705 608 1041
689 721 1393
576 1057 1761
640 1345 2130
769 1633 2434
1169 865 576
1441 897 817
1313 865 993
785 833 1137
576 977 1425
480 1137 1729
560 1441 2050
672 1697 2370
817 1889 2626
1089 1089 640
833 1121 817
672 1089 993
689 1217 1425
576 1329 1713
512 1505 1985
592 1729 2290
705 1937 2514
913 2114 2754
705 1345 801
721 1425 1009
576 1521 1441
624 1617 1713
608 1745 2017
592 1857 2274
705 2033 2482
865 2210 2658
1057 2354 2818
1057 1873 1265
1057 1921 1601
592 1857 1841
640 1969 2033
640 2017 2242
705 2130 2418
929 2274 2610
1137 2434 2786
1249 2546 2866
1489 2322 1537
1409 2322 1841
929 2274 2146
881 2242 2274
897 2306 2434
977 2354 2546
1201 2482 2690
1377 2594 2818
1601 2754 2946
1777 2626 1745
1841 2690 2033
1697 2706 2386
1441 2658 2530
1441 2690 2626
1457 2690 2690
1553 2754 2786
1777 2866 2930
1921 2914 2994
1969 2786 1889
2194 2898 2146
2338 2978 2466
2178 2978 2754
2050 2994 2834
2050 2994 2866
2098 2994 2914
2210 3026 2994
2290 3090 3074
849 512 320
929 528 432
1009 496 608
993 496 769
1009 528 913
1169 576 1201
1585 672 1617
1889 833 1969
1617 1265 2530
1569 801 608
1617 737 737
1665 737 993
1713 721 1265
1793 769 1521
1713 801 1681
1697 1089 2066
1681 1521 2530
1585 1857 2706
1969 1217 865
1985 1121 1009
1937 1105 1249
1953 1121 1569
1713 1073 1809
1665 1297 2130
1681 1729 2466
1025 1889 2530
1153 2098 2770
2017 1537 865
2033 1633 1121
2130 1585 1457
2001 1537 1777
1249 1601 1969
929 1745 2274
801 1905 2418
1057 2162 2674
1265 2322 2818
1473 1809 929
1425 1809 1121
1329 1809 1489
1105 1809 1793
1121 1921 2146
913 2017 2386
929 2194 2594
1217 2386 2802
1425 2546 2898
1745 2242 1377
1729 2306 1409
1585 2338 1793
977 2194 2066
993 2210 2306
1057 2290 2546
1265 2434 2690
1441 2562 2834
1681 2706 2962
1953 2546 1697
2114 2626 1809
1985 2658 2130
1457 2562 2434
1377 2530 2530
1473 2578 2658
1649 2690 2786
1841 2818 2946
2017 2898 3026
2242 2818 1873
2290 2850 1969
2258 2898 2274
2290 2978 2738
2114 2930 2754
1969 2898 2818
2050 2930 2882
2194 2994 2994
2290 3010 3058
2514 2962 2098
2594 3010 2210
2610 3058 2306
2690 3138 2514
2594 3138 2914
2482 3122 2962
2546 3154 3026
2578 3170 3074
2626 3170 3122
1729 753 624
1841 672 705
1841 624 929
1857 608 1153
1937 656 1345
2050 737 1569
2162 753 1761
2386 865 2066
2610 1041 2386
2322 1041 913
2306 929 993
2306 881 1249
2306 865 1553
2418 929 1841
2530 977 1969
2706 1169 2130
2770 1217 2338
2882 1537 2706
2450 1425 993
2482 1313 1137
2450 1297 1441
2466 1297 1745
2562 1377 2098
2690 1457 2290
2626 1665 2546
2530 2066 2914
2370 2418 3106
2482 1761 961
2434 1777 1169
2482 1729 1505
2450 1729 1809
2530 1793 2210
2482 1873 2578
2418 2258 2834
2354 2626 2978
1825 2594 2978
2033 2066 1009
2130 2098 1089
2434 2178 1473
2482 2210 1969
2306 2226 2386
1857 2354 2610
1553 2482 2770
1729 2626 2914
1889 2770 3026
2226 2466 1409
2226 2514 1441
2226 2546 1601
2242 2610 2162
1841 2562 2498
1985 2690 2754
1793 2674 2802
1985 2818 2962
2130 2882 3058
2450 2738 1857
2466 2802 1841
2562 2850 1985
2450 2898 2290
2033 2834 2690
1985 2834 2818
2146 2882 2898
2290 2962 2994
2386 3010 3090
2658 2946 2001
2690 2978 2114
2802 3058 2242
2802 3074 2370
2690 3138 2898
2434 3074 2898
2498 3106 2994
2594 3138 3090
2658 3154 3122
2850 3106 2210
2898 3138 2274
2978 3170 2338
3058 3234 2482
2994 3234 2642
2946 3282 3058
2882 3282 3122
2882 3266 3138
2930 3298 3186
2530 1025 993
2530 897 1057
2594 849 1265
2610 849 1521
2674 881 1729
2706 961 1889
2786 977 2001
2866 1041 2258
2994 1201 2498
2834 1281 1185
2818 1153 1233
2802 1073 1457
2802 1057 1745
2850 1169 2001
2946 1281 2210
3010 1393 2338
3106 1537 2546
3218 1665 2770
2866 1681 1185
2834 1473 1217
2834 1473 1505
2834 1457 1793
2882 1505 2146
3026 1745 2450
3170 1857 2594
3202 1937 2706
3234 2098 2930
2834 1953 1089
2786 1873 1217
2834 1825 1521
2834 1825 1825
2914 1937 2242
3074 2146 2578
3170 2306 2786
3010 2514 2994
2866 2706 3170
2514 2274 1153
2562 2242 1169
2770 2274 1505
2818 2274 1921
2850 2338 2338
3010 2530 2738
2754 2706 2946
2754 2930 3074
2754 3058 3154
2674 2658 1569
2642 2658 1537
2674 2642 1649
2834 2690 1905
2866 2786 2306
2594 2850 2850
2386 2850 2946
2354 2946 3010
2514 3058 3138
2866 2898 2001
2866 2930 1985
2882 2962 2066
2882 2994 2178
2786 3058 2546
2546 3010 2866
2594 3058 2994
2610 3090 3074
2738 3154 3154
3010 3074 2114
3026 3106 2210
3090 3154 2290
3122 3202 2354
3026 3250 2578
2962 3298 2978
2834 3202 3090
2898 3234 3154
2946 3266 3186
3154 3202 2290
3218 3234 2354
3266 3266 2450
3314 3314 2546
3346 3346 2642
3378 3410 2834
3234 3410 3138
3202 3410 3218
3218 3410 3234
2978 1377 1393
2994 1233 1457
3026 1153 1601
3074 1169 1809
3122 1265 2017
3138 1329 2194
3154 1361 2338
3170 1345 2482
3266 1473 2658
3202 1649 1505
3186 1457 1489
3186 1393 1665
3202 1425 1921
3218 1505 2210
3234 1649 2386
3266 1745 2530
3314 1809 2706
3314 1841 2802
3186 1937 1473
3202 1713 1457
3170 1617 1585
3186 1649 1889
3234 1793 2258
3298 2017 2546
3394 2210 2706
3378 2226 2834
3394 2226 2962
3154 2194 1361
3154 2066 1409
3202 1985 1617
3186 1953 1889
3218 2050 2258
3298 2290 2610
3346 2450 2834
3410 2578 2946
3410 2626 3090
2882 2466 1361
2946 2418 1345
3106 2370 1585
3138 2354 1937
3170 2370 2306
3250 2562 2706
3282 2674 2946
3266 2802 3090
3138 3010 3218
2962 2770 1729
3010 2802 1729
3026 2770 1745
3106 2738 1857
3122 2754 2162
3074 2834 2786
3106 2914 3058
2994 3058 3186
3026 3218 3218
3154 3010 2114
3170 3058 2162
3138 3026 1969
3122 3026 2017
3170 3074 2242
3154 3122 2610
3010 3170 3074
2914 3170 3154
3026 3282 3218
3266 3170 2210
3282 3186 2290
3298 3250 2242
3282 3298 2290
3266 3314 2434
3250 3346 2754
3170 3378 3106
3186 3378 3186
3202 3394 3250
3410 3282 2386
3427 3314 2466
3475 3346 2562
3491 3427 2594
3523 3507 2738
3539 3523 2882
3587 3571 3058
3427 3507 3202
3427 3507 3250
3266 1697 1697
3314 1665 1793
3330 1665 1937
3314 1617 2050
3346 1665 2210
3378 1665 2370
3427 1729 2562
3443 1761 2706
3459 1761 2818
3459 2050 1857
3459 1905 1825
3443 1761 1889
3443 1809 2114
3475 1953 2370
3459 2066 2546
3475 2114 2690
3491 2130 2818
3507 2162 2946
3346 2306 1745
3507 2066 1793
3507 1985 1857
3507 1985 2098
3507 2162 2370
3491 2306 2610
3507 2434 2802
3539 2514 2946
3539 2482 3058
3330 2530 1729
3443 2434 1793
3459 2274 1841
3491 2210 2050
3507 2226 2354
3507 2386 2642
3507 2498 2866
3539 2754 3010
3523 2786 3106
3122 2706 1681
3202 2642 1649
3378 2530 1697
3459 2450 2001
3491 2466 2354
3491 2578 2706
3475 2658 2946
3475 2850 3138
3491 3090 3218
3218 2930 1969
3266 2914 1873
3314 2802 1729
3443 2770 1857
3443 2786 2178
3475 2850 2706
3459 2946 3058
3475 3090 3234
3346 3282 3282
3314 3090 2146
3346 3106 2017
3410 3090 1889
3427 3090 1953
3459 3106 2210
3507 3154 2562
3443 3218 2962
3378 3282 3186
3346 3410 3250
3475 3250 2290
3491 3298 2370
3507 3330 2210
3507 3394 2226
3523 3410 2418
3555 3459 2674
3571 3475 2946
3475 3491 3186
3443 3491 3266
3587 3394 2610
3619 3427 2658
3667 3523 2770
3619 3555 2690
3651 3603 2834
3667 3619 2978
3715 3619 3138
3747 3635 3218
3651 3603 3250
3475 2001 1873
3507 1985 1985
3507 1953 2130
3523 1953 2258
3539 1969 2434
3555 1937 2562
3571 2001 2706
3555 1969 2818
3571 2001 2914
3555 2354 2066
3555 2306 2146
3571 2290 2178
3603 2306 2370
3571 2306 2498
3571 2290 2626
3619 2338 2786
3587 2338 2898
3603 2370 2994
3410 2610 1953
3635 2578 2258
3619 2482 2242
3635 2466 2370
3651 2386 2498
3635 2466 2690
3635 2594 2882
3619 2690 2978
3603 2690 3074
3218 2642 1681
3491 2786 2114
3619 2626 2194
3731 2482 2258
3731 2386 2434
3731 2466 2690
3699 2610 2930
3635 2866 3074
3619 2914 3170
3282 2834 1825
3378 2786 1793
3539 2642 1793
3699 2610 2033
3763 2546 2386
3747 2610 2706
3731 2738 2978
3651 2930 3154
3587 3186 3218
3378 2994 2001
3459 2962 1857
3587 2866 1761
3699 2818 1889
3747 2818 2194
3779 2914 2706
3731 2946 2994
3651 3122 3202
3587 3314 3250
3475 3154 2178
3571 3170 2017
3651 3122 1889
3747 3122 1953
3763 3138 2194
3795 3170 2546
3779 3250 2946
3699 3346 3186
3603 3475 3266
3587 3282 2338
3619 3330 2386
3699 3394 2210
3779 3443 2226
3795 3459 2434
3811 3491 2706
3795 3523 2978
3779 3587 3170
3715 3603 3250
3763 3523 2882
3763 3555 2946
3779 3603 2930
3795 3651 2882
3827 3715 2978
3811 3731 3138
3795 3715 3266
3795 3667 3314
3795 3667 3330
