其他预设/【236】赛博朋克风调色预设/【后期菌】视频调色预设/3DL/Abandoned 01_S.3dl
# LUT by SparkleStock. Enhanced with VOXCOLOR algorithms.
0 64 128 192 256 320 384 448 512 576 640 704 768 832 896 960 1023
400 160 320
400 192 352
400 192 368
400 208 384
400 208 400
416 224 448
416 224 496
448 272 576
480 320 656
496 400 817
528 464 977
608 592 1249
672 705 1457
705 849 1681
785 1041 2017
865 1201 2274
929 1361 2482
400 192 368
400 208 384
400 208 384
400 208 400
400 208 432
416 240 480
448 272 544
480 320 640
496 384 769
528 464 913
592 592 1153
624 689 1361
689 817 1569
753 1009 1857
817 1169 2114
897 1345 2418
977 1505 2594
400 208 384
400 208 384
400 208 400
416 240 448
432 272 496
432 288 528
464 336 640
496 400 737
512 464 849
560 576 1041
608 672 1233
689 833 1505
721 961 1665
785 1169 1985
881 1361 2290
977 1553 2546
1057 1665 2690
416 240 400
400 240 400
432 272 464
432 304 496
448 320 560
480 368 640
496 400 705
512 496 833
560 592 977
624 737 1233
656 849 1393
721 1025 1649
785 1185 1905
849 1361 2194
945 1537 2434
1057 1745 2674
1137 1905 2818
432 288 448
448 304 496
448 336 528
464 368 560
480 400 608
496 480 721
512 496 785
560 592 945
592 769 1169
656 897 1393
721 1073 1617
785 1265 1889
865 1457 2194
929 1585 2418
1041 1777 2626
1073 1905 2786
1201 2098 2946
464 384 528
464 400 560
496 464 624
496 496 672
512 528 737
528 592 833
576 705 1009
592 817 1169
656 1009 1393
705 1169 1585
753 1265 1777
833 1457 2082
913 1633 2338
1009 1825 2562
1105 1985 2738
1233 2210 2930
1329 2354 3042
480 544 608
496 560 689
528 624 753
512 672 801
544 737 897
560 801 1009
592 977 1233
656 1105 1409
705 1281 1633
769 1409 1825
833 1537 2066
913 1729 2354
1025 1921 2562
1073 2033 2674
1185 2210 2850
1345 2450 3010
1441 2562 3138
496 721 753
528 817 833
544 849 897
576 913 1009
592 977 1105
608 1073 1233
656 1201 1409
689 1361 1585
737 1505 1793
801 1617 2050
881 1777 2274
993 1985 2482
1073 2098 2658
1185 2290 2850
1361 2530 2994
1473 2674 3138
1553 2738 3234
512 1009 913
544 1073 1009
576 1185 1137
592 1265 1233
592 1281 1281
672 1425 1489
705 1553 1665
785 1681 1889
817 1729 2033
929 1953 2290
1073 2178 2530
1137 2290 2674
1265 2450 2866
1361 2578 2994
1473 2706 3106
1601 2834 3218
1665 2866 3266
560 1345 1137
576 1393 1217
624 1489 1361
640 1585 1457
721 1697 1633
737 1729 1713
785 1841 1905
881 1937 2098
977 2146 2338
1057 2226 2466
1137 2354 2610
1217 2498 2834
1329 2594 2946
1441 2706 3058
1617 2866 3202
1681 2930 3250
1841 3042 3346
608 1649 1361
672 1777 1489
721 1905 1633
769 1937 1745
785 2017 1841
881 2098 2033
929 2178 2178
1009 2306 2338
1073 2370 2482
1185 2530 2674
1297 2610 2818
1377 2722 2946
1505 2834 3090
1617 2914 3138
1729 2978 3250
1889 3074 3330
2033 3138 3378
705 2098 1569
785 2162 1713
849 2242 1857
881 2274 1985
929 2338 2066
1025 2450 2306
1073 2498 2418
1137 2562 2546
1249 2658 2690
1297 2674 2786
1441 2802 2930
1537 2882 3042
1569 2930 3106
1745 3010 3218
1825 3090 3314
2050 3170 3362
2098 3202 3427
881 2450 1825
945 2466 1969
1025 2562 2162
1057 2578 2242
1073 2594 2306
1201 2706 2530
1233 2706 2578
1281 2722 2690
1377 2818 2802
1441 2850 2866
1569 2946 3010
1649 2994 3090
1777 3074 3202
1905 3106 3298
2033 3170 3330
2146 3218 3362
2322 3298 3443
1057 2690 2098
1169 2786 2306
1185 2786 2354
1265 2818 2466
1313 2834 2578
1393 2882 2690
1377 2882 2706
1489 2930 2834
1601 2994 2962
1617 3010 2994
1729 3058 3106
1809 3122 3186
1905 3122 3234
2033 3170 3298
2178 3234 3362
2322 3298 3394
2322 3314 3443
1265 2930 2322
1329 2946 2418
1377 2962 2498
1425 2978 2578
1505 3010 2706
1569 3010 2802
1633 3058 2882
1649 3074 2914
1697 3090 2994
1809 3170 3090
1825 3138 3122
1985 3202 3202
2033 3218 3266
2194 3250 3330
2226 3298 3346
2322 3314 3394
2450 3330 3427
1521 3058 2530
1521 3074 2530
1601 3074 2674
1665 3106 2786
1745 3138 2850
1841 3186 2946
1825 3138 2962
1889 3218 3010
1969 3250 3090
2050 3234 3138
2050 3218 3186
2114 3250 3234
2226 3298 3298
2322 3330 3330
2418 3346 3378
2418 3346 3394
2482 3378 3443
1713 3138 2658
1809 3186 2738
1905 3234 2834
1985 3250 2930
2017 3250 2962
2033 3250 2994
2066 3250 3042
2162 3298 3122
2178 3298 3138
2194 3298 3186
2290 3330 3250
2338 3330 3298
2418 3346 3330
2418 3346 3330
2530 3378 3378
2546 3378 3394
2658 3427 3459
400 192 368
400 192 352
400 208 384
400 208 400
400 208 400
432 224 480
432 240 512
464 288 592
496 336 705
528 432 897
592 544 1137
640 640 1329
672 737 1489
753 913 1777
833 1121 2146
881 1233 2354
977 1409 2562
400 208 384
400 208 384
416 208 400
416 208 416
416 224 464
432 240 496
480 304 608
496 368 721
512 416 833
560 512 993
608 640 1217
689 785 1473
721 913 1681
785 1105 1985
881 1265 2242
977 1441 2530
1025 1569 2626
416 224 416
416 208 400
416 224 432
448 256 496
464 304 544
480 320 608
496 384 721
512 432 785
560 544 977
624 689 1233
672 801 1409
705 929 1617
785 1105 1841
849 1297 2162
913 1425 2370
1041 1649 2626
1105 1777 2786
432 256 432
448 272 480
464 288 496
480 320 576
480 352 608
496 400 689
528 496 817
560 592 945
592 640 1089
672 865 1361
705 993 1553
753 1137 1761
817 1265 2017
913 1473 2338
1009 1649 2546
1089 1809 2722
1201 2033 2882
464 304 496
464 352 528
480 368 576
496 416 624
496 464 689
528 528 801
576 624 945
592 689 1073
640 881 1329
689 977 1473
769 1217 1745
801 1329 1969
881 1473 2210
993 1681 2498
1089 1889 2706
1169 2017 2850
1265 2194 2994
496 400 560
496 448 608
496 464 640
512 512 689
528 592 785
560 689 929
592 801 1121
624 913 1281
689 1057 1473
753 1265 1713
785 1409 1937
881 1569 2194
977 1729 2466
1073 1937 2658
1185 2114 2834
1329 2354 3010
1409 2466 3090
512 592 640
512 608 721
528 672 801
544 753 881
576 849 1025
592 961 1169
608 1025 1281
672 1185 1473
737 1361 1713
817 1537 1969
897 1697 2242
961 1777 2402
1073 2033 2658
1169 2178 2786
1265 2322 2930
1425 2546 3074
1521 2626 3202
512 753 737
544 881 881
560 929 977
576 993 1073
592 1073 1169
624 1169 1329
689 1361 1553
737 1457 1697
785 1585 1905
865 1745 2162
977 1953 2418
1057 2066 2562
1169 2226 2722
1281 2434 2946
1393 2562 3058
1569 2738 3186
1617 2802 3266
512 1041 881
576 1217 1121
608 1297 1217
608 1345 1281
656 1425 1409
705 1553 1617
753 1633 1761
801 1729 1953
881 1857 2178
1025 2114 2434
1089 2178 2562
1185 2354 2722
1313 2498 2914
1441 2658 3042
1569 2802 3170
1649 2850 3234
1809 2962 3330
544 1313 977
608 1537 1329
689 1617 1473
689 1649 1553
737 1761 1681
817 1857 1905
865 1969 2050
945 2066 2210
1041 2210 2402
1137 2354 2578
1233 2450 2738
1297 2562 2866
1393 2674 2978
1505 2786 3106
1649 2882 3202
1745 2946 3266
1953 3090 3362
592 1713 1217
705 1857 1553
753 1953 1681
833 2082 1841
833 2082 1937
913 2178 2114
1009 2322 2290
1073 2402 2434
1185 2530 2626
1249 2578 2722
1329 2626 2834
1457 2786 2994
1553 2850 3074
1713 2978 3218
1809 3042 3266
1969 3106 3346
2114 3186 3394
608 2017 1281
849 2274 1777
881 2306 1889
961 2354 2066
993 2434 2178
1089 2498 2370
1137 2546 2466
1217 2626 2610
1297 2674 2722
1377 2738 2850
1457 2818 2930
1601 2930 3074
1681 2994 3186
1809 3058 3234
1921 3106 3314
2114 3186 3378
2194 3234 3443
769 2370 1505
977 2530 1937
1025 2562 2066
1089 2594 2226
1169 2674 2402
1217 2690 2530
1265 2722 2610
1345 2754 2706
1425 2850 2818
1505 2882 2914
1649 2978 3058
1665 3010 3090
1793 3058 3186
1937 3106 3250
2066 3186 3330
2194 3218 3362
2322 3266 3427
945 2626 1649
1121 2722 2162
1233 2802 2322
1361 2882 2530
1425 2914 2658
1425 2882 2690
1505 2962 2786
1585 2994 2882
1633 3010 2962
1649 3042 2994
1761 3074 3090
1841 3122 3138
1969 3138 3234
2098 3202 3298
2210 3250 3346
2338 3298 3394
2370 3314 3443
1137 2850 1745
1265 2882 2098
1361 2930 2274
1473 2994 2498
1601 3058 2738
1649 3074 2850
1713 3090 2914
1745 3106 2962
1793 3122 3010
1889 3170 3090
1921 3186 3122
2033 3202 3202
2066 3218 3250
2226 3250 3314
2242 3266 3346
2402 3330 3394
2530 3362 3443
1361 2962 1953
1505 3058 2242
1601 3058 2418
1713 3106 2594
1793 3138 2850
1905 3186 2946
1905 3186 2978
1953 3218 2994
2017 3250 3090
2114 3250 3138
2162 3250 3202
2210 3266 3234
2274 3298 3266
2354 3314 3330
2466 3346 3378
2450 3346 3394
2546 3394 3459
1649 3106 2146
1793 3186 2498
1905 3218 2594
1937 3218 2722
2114 3298 2994
2082 3250 2978
2210 3298 3090
2242 3314 3122
2274 3314 3170
2322 3330 3218
2370 3330 3250
2370 3330 3266
2450 3346 3314
2498 3362 3346
2546 3362 3378
2690 3427 3443
2706 3427 3443
400 208 384
400 208 384
416 208 400
400 208 400
432 224 448
448 224 480
464 256 528
480 304 608
496 336 705
544 448 945
592 544 1153
672 705 1425
737 865 1665
785 1009 1937
881 1201 2242
945 1345 2450
1041 1505 2626
432 240 416
432 224 416
448 240 448
448 240 464
464 272 512
496 304 592
496 336 656
496 368 737
560 496 961
592 576 1121
672 721 1377
689 849 1569
769 1009 1809
833 1169 2098
913 1361 2370
1009 1537 2562
1105 1697 2754
496 304 496
496 304 528
528 320 592
496 304 592
496 304 592
496 336 656
528 432 785
560 512 897
592 608 1073
640 705 1265
689 881 1537
753 1057 1761
817 1201 1985
913 1409 2306
977 1553 2482
1089 1745 2722
1185 1921 2850
512 336 560
512 352 592
528 368 640
528 368 656
528 416 689
544 464 785
560 528 881
592 656 1073
624 769 1233
689 945 1473
737 1073 1665
801 1249 1921
881 1377 2162
977 1553 2418
1073 1777 2658
1169 1937 2802
1297 2162 2962
576 432 624
512 400 608
512 416 624
512 464 689
528 512 769
560 592 881
592 689 1057
624 817 1217
672 977 1425
705 1105 1601
785 1281 1857
881 1457 2114
945 1585 2338
1041 1761 2562
1169 2033 2802
1249 2146 2946
1409 2370 3106
576 496 689
528 480 656
512 528 689
544 592 801
576 737 961
592 833 1073
624 929 1249
640 1025 1393
721 1217 1601
769 1329 1793
865 1505 2082
929 1649 2306
1025 1841 2546
1169 2082 2754
1249 2210 2866
1409 2466 3058
1521 2594 3170
560 608 689
544 624 769
576 785 897
592 865 993
592 929 1089
624 1073 1249
656 1121 1377
737 1345 1633
801 1505 1889
833 1569 2050
929 1745 2290
1041 1953 2530
1137 2098 2690
1265 2338 2866
1377 2450 3010
1473 2578 3106
1617 2738 3250
560 849 769
560 913 865
576 1009 1057
592 1089 1153
624 1169 1249
689 1361 1473
689 1457 1601
769 1553 1809
881 1745 2098
945 1905 2322
1025 2017 2466
1121 2178 2658
1265 2370 2834
1377 2530 2994
1521 2690 3106
1649 2818 3218
1697 2850 3314
544 1105 881
576 1249 1041
640 1377 1313
672 1425 1377
705 1553 1569
769 1665 1729
801 1713 1905
881 1889 2098
977 2050 2290
1073 2178 2498
1169 2306 2658
1265 2450 2834
1393 2594 2978
1489 2706 3074
1585 2802 3170
1745 2930 3298
1857 2994 3330
576 1425 1009
640 1601 1265
705 1697 1553
769 1809 1649
801 1905 1825
881 1985 1985
897 2050 2114
1025 2226 2338
1089 2306 2482
1169 2402 2626
1297 2562 2834
1377 2626 2946
1489 2754 3058
1569 2834 3138
1761 2962 3250
1889 3042 3314
2050 3122 3378
640 1809 1169
656 1825 1313
801 2066 1777
881 2146 1937
897 2194 2033
993 2306 2242
1105 2434 2450
1137 2466 2530
1217 2546 2674
1361 2674 2834
1393 2706 2882
1473 2802 2994
1649 2930 3138
1793 3010 3234
1905 3074 3298
2050 3122 3346
2210 3202 3427
753 2194 1281
753 2146 1457
993 2434 2050
1073 2498 2226
1073 2530 2274
1169 2578 2450
1217 2626 2562
1265 2674 2674
1361 2738 2802
1489 2850 2914
1569 2914 3010
1681 2978 3106
1761 3042 3202
1905 3090 3266
2017 3122 3330
2162 3202 3362
2290 3250 3459
881 2482 1361
881 2450 1569
1121 2626 2162
1169 2674 2306
1249 2722 2466
1313 2754 2594
1393 2834 2690
1457 2866 2802
1505 2882 2850
1601 2962 2962
1665 2994 3058
1777 3058 3122
1889 3090 3202
2050 3170 3266
2162 3202 3330
2290 3250 3378
2370 3298 3427
1089 2722 1441
1057 2674 1681
1265 2818 2274
1361 2850 2434
1473 2930 2626
1505 2946 2738
1585 2994 2818
1633 3010 2882
1729 3058 3010
1793 3090 3058
1905 3122 3138
1905 3122 3170
2066 3186 3234
2178 3218 3314
2274 3250 3346
2402 3314 3394
2434 3330 3459
1329 2914 1457
1345 2930 1713
1457 2978 2242
1553 3042 2450
1649 3058 2706
1745 3106 2866
1841 3138 2962
1841 3138 2994
1857 3138 3042
1985 3202 3122
2033 3218 3170
2098 3202 3202
2162 3234 3250
2274 3250 3298
2354 3314 3362
2434 3330 3378
2578 3362 3443
1649 3058 1537
1633 3058 1761
1681 3058 2162
1809 3122 2434
1937 3186 2786
2017 3218 2962
2098 3234 3042
2050 3234 3010
2146 3298 3122
2178 3250 3138
2274 3298 3218
2290 3298 3234
2322 3298 3266
2434 3330 3330
2546 3362 3378
2530 3362 3394
2610 3394 3459
2178 3202 1649
2050 3186 1921
2033 3186 2290
2210 3234 2530
2210 3266 2866
2226 3298 3010
2306 3314 3090
2354 3330 3138
2418 3330 3202
2418 3330 3218
2450 3346 3250
2466 3346 3266
2530 3362 3330
2626 3394 3378
2706 3427 3394
2786 3443 3443
2802 3443 3459
432 224 400
448 240 432
464 240 464
464 240 480
496 272 528
496 272 560
496 304 608
496 304 656
528 368 785
576 432 961
640 576 1265
689 721 1473
753 849 1697
849 1041 2033
913 1217 2306
977 1361 2466
1073 1553 2690
496 304 512
496 304 512
496 288 528
512 304 576
512 320 608
512 320 656
512 336 689
560 416 833
592 480 977
672 608 1249
689 721 1409
769 961 1697
849 1137 1985
881 1249 2194
993 1457 2482
1057 1601 2626
