其他预设/【236】赛博朋克风调色预设/【后期菌】视频调色预设/3DL/Abandoned 03_S.3dl
# LUT by SparkleStock. Enhanced with VOXCOLOR algorithms.
0 128 256 384 512 640 768 896 1023
48 48 48
48 48 48
64 64 64
80 64 96
96 80 176
144 80 416
176 96 1025
192 176 1825
288 480 2466
64 64 64
64 48 64
80 80 96
96 80 176
128 96 288
144 128 689
160 176 1441
192 496 2386
368 1089 2930
80 64 80
80 80 80
96 80 128
128 112 224
176 176 560
176 288 1313
176 624 2290
304 1265 2962
608 1937 3362
112 160 96
144 176 144
160 208 256
208 304 576
208 512 1233
176 849 2114
288 1489 2914
544 2210 3314
1073 2834 3603
224 480 176
288 624 352
288 705 592
288 1009 1217
256 1313 1985
352 2017 2898
640 2642 3330
1105 3074 3603
1569 3298 3731
480 1569 512
480 1921 1009
416 2082 1505
400 2242 2242
448 2562 2898
721 2978 3314
1169 3266 3587
1601 3410 3731
2210 3539 3811
689 3090 1505
721 3170 2194
705 3138 2626
801 3218 3042
961 3314 3330
1313 3443 3571
1681 3507 3715
2210 3587 3795
2722 3683 3843
1201 3619 2642
1297 3603 2994
1409 3603 3218
1569 3603 3443
1681 3587 3539
1921 3619 3667
2290 3667 3731
2594 3683 3795
2930 3715 3827
2066 3779 3170
2338 3779 3394
2466 3779 3491
2498 3731 3539
2642 3731 3635
2786 3731 3715
2914 3763 3779
3106 3779 3811
3218 3795 3843
64 64 80
80 80 80
80 80 96
80 80 128
144 80 224
176 80 560
224 112 1377
288 304 2194
512 737 2690
144 96 112
160 96 144
128 80 144
144 96 256
176 128 512
208 176 1201
224 352 2017
368 881 2722
721 1537 3186
208 128 144
128 112 144
160 144 256
208 192 496
208 256 993
208 464 1729
272 961 2610
608 1697 3202
1185 2594 3539
192 208 144
192 272 256
224 368 432
240 480 897
272 833 1681
288 1265 2514
496 1937 3122
977 2674 3491
1585 3122 3699
352 656 144
352 929 576
352 1153 1041
352 1313 1697
368 1825 2530
560 2386 3106
1041 2962 3507
1457 3202 3667
2114 3427 3763
897 2033 144
544 2290 1393
528 2466 1937
608 2706 2770
737 2914 3122
1089 3138 3443
1569 3362 3635
2098 3491 3763
2690 3603 3811
1553 3170 560
1025 3282 2226
1009 3282 2834
1185 3362 3218
1345 3378 3427
1681 3475 3603
2114 3539 3699
2610 3603 3795
2930 3667 3811
2498 3619 1121
1937 3667 2610
1969 3619 3234
2226 3667 3507
2210 3635 3571
2482 3667 3667
2626 3667 3715
2930 3715 3795
3186 3731 3811
3378 3827 1729
3090 3827 2626
3010 3795 3378
2994 3779 3587
3074 3779 3667
3106 3763 3699
3186 3763 3763
3314 3779 3795
3378 3779 3811
144 80 112
144 80 128
192 80 176
208 80 224
288 80 304
368 80 672
560 80 1361
640 304 2210
1009 1009 2898
496 112 208
560 144 272
592 160 368
560 160 560
560 144 769
576 160 1377
480 608 2434
721 1265 3026
1233 2098 3394
1201 288 320
1457 320 496
1233 336 640
624 368 929
416 496 1553
352 817 2322
576 1489 3010
1057 2290 3394
1649 2818 3603
1041 560 288
833 624 544
560 672 833
592 849 1473
464 1185 2162
528 1697 2882
913 2466 3362
1505 2994 3603
2098 3234 3715
865 1297 144
737 1313 416
544 1569 1377
560 1793 2001
672 2306 2770
993 2818 3362
1505 3138 3603
2098 3378 3731
2690 3523 3795
2001 2722 352
1473 2818 689
753 2786 2418
929 2978 2930
1185 3122 3298
1553 3298 3571
2114 3427 3699
2642 3571 3779
2962 3619 3795
3170 3378 737
2594 3410 1089
1601 3427 2930
1665 3410 3282
2001 3491 3539
2274 3507 3619
2642 3587 3715
2962 3635 3779
3202 3699 3811
3603 3699 1201
3427 3731 1633
2818 3683 2818
2722 3683 3475
2802 3683 3571
2818 3667 3635
2978 3683 3699
3202 3715 3779
3378 3731 3811
3875 3843 1633
3843 3875 2162
3715 3843 2738
3394 3795 3475
3394 3795 3699
3410 3779 3731
3410 3763 3763
3507 3795 3795
3571 3811 3827
640 96 192
656 96 240
753 80 352
737 80 448
769 64 496
977 64 753
1409 64 1313
1697 144 1809
1633 865 2786
1809 192 288
1649 208 416
1633 224 672
1665 192 865
1729 208 1169
1569 144 1441
1585 464 2242
1889 1233 2962
2210 2130 3362
2402 592 416
2226 624 753
2033 624 1025
2017 624 1329
1617 528 1601
1697 721 2306
1985 1553 3042
1697 2674 3507
2178 2978 3635
2466 1121 336
2402 1297 817
2226 1281 1345
2098 1153 1633
1313 1441 2386
1153 2098 3074
1441 2834 3491
2130 3218 3683
2562 3314 3715
2001 1921 160
1793 1889 464
1505 1729 1137
1105 1937 2033
1361 2370 2738
1505 2930 3378
2082 3314 3667
2642 3475 3763
2978 3571 3779
2994 2978 480
2834 2914 608
2274 2978 1313
1393 2978 2786
1617 3138 3218
2178 3394 3603
2594 3491 3683
2930 3587 3763
3186 3635 3795
3667 3507 961
3667 3587 1233
3475 3603 1825
2466 3523 3282
2530 3539 3491
2738 3571 3619
3010 3603 3699
3266 3683 3779
3378 3699 3795
3843 3795 1505
3843 3795 1697
3715 3795 2386
3410 3763 3298
3282 3715 3443
3218 3699 3635
3298 3699 3683
3427 3731 3779
3523 3763 3795
4003 3923 2114
4003 3923 2434
3971 3907 2722
3907 3907 3106
3635 3811 3603
3571 3795 3715
3619 3827 3795
3635 3827 3811
3635 3811 3827
2194 128 256
2098 80 352
1985 80 544
1969 64 705
1985 64 865
2178 80 1169
2130 80 1425
2434 288 2033
2674 672 2530
2834 432 512
2578 416 689
2466 416 977
2418 384 1281
2498 400 1601
2674 448 1937
2866 672 2322
2866 881 2610
3042 1473 3026
2914 1041 721
2626 1009 1073
2530 1025 1361
2498 1025 1665
2626 1105 2178
2834 1153 2530
2882 1377 2882
3074 2322 3330
3202 2914 3571
2978 1617 560
2674 1633 1073
2562 1585 1553
2514 1553 1873
2626 1601 2338
2770 1793 2866
3042 2514 3314
3298 3218 3619
3074 3427 3731
2818 2338 256
2690 2274 496
2722 2338 1441
2706 2306 2114
2706 2338 2610
2578 2882 3266
2722 3394 3667
3026 3539 3763
3266 3603 3795
3410 3170 656
3218 3106 881
3106 3074 1217
2962 3026 2162
2594 3138 3122
2962 3394 3491
3010 3523 3667
3266 3619 3763
3394 3667 3779
3923 3635 1297
3795 3635 1489
3731 3619 1777
3507 3587 2434
3122 3603 3443
3186 3619 3619
3330 3635 3699
3475 3699 3763
3523 3715 3795
3987 3875 1873
3971 3875 2162
3971 3891 2530
3939 3875 2834
3667 3779 3443
3491 3731 3635
3539 3779 3731
3587 3779 3795
3635 3795 3827
4035 3971 2482
4035 3939 2706
4019 3923 2930
4019 3939 3202
3971 3907 3394
3779 3843 3699
3763 3843 3811
3763 3827 3811
3795 3843 3843
3170 288 528
3010 240 689
2930 240 945
2882 240 1201
2898 288 1489
2882 368 1793
2898 480 2114
2930 672 2434
3042 1041 2770
3234 897 1041
3074 833 1201
2930 801 1393
2898 769 1665
2962 865 2162
3090 1025 2514
3170 1201 2722
3234 1473 2978
3362 1921 3186
3266 1505 1137
2978 1313 1313
2914 1329 1553
2882 1361 1921
2962 1409 2386
3186 1729 2882
3394 2066 3122
3410 2226 3218
3475 2530 3410
3314 2130 929
3026 1937 1297
2930 1825 1649
2930 1841 2033
3026 2017 2530
3298 2386 3026
3507 2722 3330
3507 2978 3491
3539 3282 3635
3362 2690 480
3186 2594 785
3074 2498 1537
2994 2418 2114
3090 2530 2626
3394 2898 3186
3427 3122 3475
3603 3475 3683
3667 3603 3763
3731 3362 1025
3539 3266 1233
3410 3186 1473
3330 3138 2194
3410 3218 2770
3330 3282 3314
3298 3443 3587
3475 3635 3731
3587 3699 3795
4035 3779 1761
3907 3763 1921
3875 3731 2226
3731 3667 2498
3587 3587 2978
3362 3539 3410
3475 3603 3619
3603 3715 3779
3683 3763 3811
4019 3907 2226
4003 3907 2514
3987 3907 2818
3939 3891 3010
3795 3827 3186
3635 3779 3491
3699 3779 3715
3731 3827 3811
3795 3827 3827
4067 3971 2770
4035 3971 2978
4019 3971 3122
4035 3971 3282
4035 3939 3410
4003 3923 3603
3875 3891 3763
3875 3891 3827
3875 3891 3843
3491 865 1217
3410 769 1377
3330 753 1601
3282 785 1921
3298 961 2370
3282 1089 2578
3282 1249 2802
3282 1377 2914
3330 1665 3106
3571 1521 1681
3427 1361 1665
3330 1313 1873
3330 1377 2274
3362 1489 2626
3410 1713 2930
3443 1985 3122
3475 2178 3234
3475 2274 3298
3571 2114 1633
3394 1809 1713
3298 1617 1809
3314 1697 2226
3378 1905 2706
3523 2386 3138
3619 2722 3362
3619 2770 3410
3603 2802 3475
3699 2610 1425
3427 2274 1569
3330 2130 1873
3314 2098 2178
3378 2242 2642
3539 2674 3138
3619 2962 3394
3699 3186 3523
3683 3170 3587
3763 3074 897
3619 2898 1137
3394 2626 1761
3314 2514 2194
3362 2562 2594
3491 2866 3106
3587 3074 3410
3683 3298 3603
3731 3539 3715
3971 3571 1441
3827 3491 1633
3683 3314 1825
3491 3074 2130
3491 3090 2578
3475 3106 3106
3571 3234 3427
3667 3475 3683
3795 3715 3795
4067 3843 2226
4019 3843 2498
3811 3683 2370
3683 3571 2418
3587 3491 2690
3619 3523 3106
3603 3571 3507
3683 3667 3731
3811 3811 3827
4067 3939 2610
4019 3939 2882
3923 3891 2882
3795 3827 2834
3731 3811 2930
3699 3795 3282
3731 3795 3603
3843 3843 3795
3843 3843 3827
4035 4003 3010
4035 3987 3186
4035 3971 3330
4003 3971 3362
3987 3971 3427
3971 3971 3603
3987 3939 3763
3923 3891 3827
3923 3907 3843
3683 1553 2033
3635 1569 2274
3603 1633 2562
3571 1665 2738
3539 1809 2914
3523 1873 3026
3587 2130 3218
3603 2274 3298
3619 2402 3362
3811 2466 2610
3715 2226 2530
3667 2017 2498
3635 2098 2802
3683 2338 3106
3683 2594 3314
3683 2706 3378
3683 2770 3427
3683 2834 3475
3891 2770 2130
3763 2482 2418
3715 2338 2482
3683 2322 2674
3715 2594 3074
3731 2818 3330
3763 3010 3475
3779 3170 3571
3763 3106 3603
3971 3170 2130
3843 2882 2274
3731 2578 2322
3683 2466 2514
3699 2482 2786
3731 2722 3186
3715 2914 3410
3811 3314 3619
3811 3362 3635
4019 3507 1473
3939 3330 1649
3795 2962 2066
3683 2642 2322
3683 2674 2674
3715 2818 3074
3731 2994 3394
3795 3282 3635
3843 3603 3715
4035 3779 2082
3971 3635 2162
3843 3314 1985
3763 3074 2194
3763 3090 2578
3699 3074 3026
3731 3186 3410
3811 3443 3683
3891 3699 3779
4095 3907 2578
3987 3811 2562
3891 3635 2370
3811 3491 2370
3795 3443 2594
3795 3443 3010
3795 3507 3443
3843 3635 3715
3891 3811 3811
4019 3971 2962
4019 3939 3106
3971 3891 2866
3875 3795 2738
3843 3779 2898
3843 3779 3186
3875 3811 3523
3907 3875 3779
3923 3891 3843
4095 4019 3218
4095 3987 3362
4067 3987 3427
3987 3987 3330
3971 3987 3427
3971 3987 3587
3987 3939 3779
4003 3971 3875
3971 3939 3875
3811 2370 2706
3779 2434 2962
3779 2498 3090
3731 2482 3170
3731 2594 3282
3715 2610 3330
3731 2722 3394
3699 2706 3410
3715 2818 3475
3907 2962 3026
3875 2962 3138
3843 2898 3186
3843 2962 3314
3795 3010 3394
3779 2994 3427
3779 3010 3475
3763 3074 3523
3779 3106 3571
4019 3298 2594
3923 3234 3202
3891 3074 3138
3891 3026 3218
3875 2914 3234
3843 2962 3394
3843 3218 3539
3827 3314 3603
3811 3330 3619
4019 3427 1457
4035 3427 2866
3939 3138 2930
3939 2834 2882
3939 2706 2962
3939 2802 3218
3891 3010 3475
3907 3394 3667
3843 3443 3683
4019 3667 1873
4003 3523 2082
4003 3138 2274
4003 2914 2514
3971 2770 2738
3971 2834 3090
3923 3010 3410
3907 3314 3667
3891 3667 3731
4035 3827 2466
4035 3635 2338
4067 3362 2162
4035 3170 2290
4019 3090 2610
4003 3090 3042
3971 3170 3394
3939 3410 3683
3923 3715 3779
4035 3923 2802
4035 3811 2642
4035 3619 2418
4067 3491 2386
4067 3443 2626
4035 3443 3026
4019 3507 3427
3987 3635 3731
3987 3811 3827
4067 3987 3106
4067 3971 3186
4095 3891 2882
4095 3811 2722
4067 3779 2882
4019 3779 3186
4035 3811 3523
4003 3875 3779
4003 3923 3843
4067 4003 3410
4067 3987 3571
4035 3987 3571
4035 3987 3427
4019 3987 3443
4019 3987 3619
4003 3939 3779
3987 3971 3875
3987 3971 3891
