其他预设/【236】赛博朋克风调色预设/【后期菌】视频调色预设/3DL/Abandoned 02_S.3dl
# LUT by SparkleStock. Enhanced with VOXCOLOR algorithms.
0 64 128 192 256 320 384 448 512 576 640 704 768 832 896 960 1023
32 144 240
48 240 384
64 304 464
96 352 560
96 384 624
112 464 753
128 512 849
144 576 945
160 656 1089
176 753 1249
176 817 1393
192 961 1601
208 1041 1777
224 1137 1953
272 1249 2178
304 1345 2338
352 1457 2530
64 288 416
80 336 464
96 368 528
96 400 592
112 464 689
112 512 801
128 560 881
144 656 1009
160 737 1153
176 833 1313
192 929 1457
176 993 1617
208 1137 1825
240 1233 2017
272 1329 2210
320 1441 2402
352 1537 2562
96 352 480
80 352 496
80 400 544
112 496 672
128 544 785
112 560 817
144 656 977
144 753 1105
160 817 1233
160 897 1361
176 977 1505
192 1121 1713
208 1201 1841
240 1297 2050
288 1441 2290
336 1553 2466
336 1633 2610
96 432 544
80 448 576
96 512 672
96 560 753
112 624 817
144 672 929
144 737 1025
144 817 1153
160 897 1297
192 1025 1473
192 1105 1617
208 1217 1777
224 1313 1969
256 1441 2178
304 1537 2370
352 1681 2578
352 1761 2674
64 512 608
80 576 672
96 624 737
96 656 801
128 672 881
144 785 1009
128 817 1121
144 913 1233
176 1025 1393
192 1137 1585
224 1249 1761
240 1345 1905
256 1457 2146
288 1569 2274
320 1697 2466
336 1777 2610
352 1873 2770
48 640 672
64 656 721
96 721 817
112 785 913
112 833 1025
112 881 1121
128 977 1233
160 1073 1377
192 1169 1537
192 1281 1697
208 1345 1809
240 1473 2050
256 1601 2242
288 1713 2386
320 1809 2546
352 1953 2690
368 2033 2802
32 769 785
32 817 865
48 865 961
64 913 1041
96 977 1137
96 1009 1217
112 1137 1377
144 1217 1521
192 1313 1681
192 1425 1809
224 1521 2033
240 1665 2210
256 1777 2370
272 1825 2450
320 1969 2626
352 2114 2786
368 2226 2930
0 897 881
32 993 977
32 1009 1073
48 1073 1153
48 1137 1265
64 1185 1361
96 1265 1489
128 1361 1633
160 1457 1777
176 1569 1985
192 1681 2162
208 1809 2290
224 1905 2450
256 2017 2610
320 2178 2770
352 2290 2882
352 2354 3010
16 1105 1025
16 1153 1137
32 1233 1249
32 1297 1297
32 1297 1377
48 1441 1553
64 1457 1665
96 1585 1825
112 1617 1953
144 1761 2146
144 1873 2306
176 1969 2434
208 2098 2610
240 2226 2738
272 2338 2850
304 2434 2994
336 2498 3074
16 1329 1153
16 1377 1281
16 1457 1393
16 1521 1489
32 1569 1633
32 1585 1713
48 1665 1825
64 1729 2001
96 1825 2178
80 1905 2274
96 2001 2402
144 2114 2562
160 2226 2658
192 2338 2802
240 2450 2946
256 2546 3042
304 2626 3154
0 1553 1329
0 1633 1457
0 1729 1585
16 1745 1681
16 1793 1777
32 1809 1889
32 1857 2050
32 1969 2162
32 2001 2274
48 2114 2418
80 2226 2546
96 2306 2658
128 2418 2818
128 2466 2882
192 2562 3010
208 2642 3122
272 2738 3218
0 1841 1489
0 1873 1633
0 1953 1777
0 1953 1841
0 2001 1953
16 2082 2098
16 2146 2194
32 2178 2306
32 2242 2418
32 2242 2498
32 2370 2642
64 2434 2770
80 2466 2850
96 2578 2978
144 2658 3106
192 2738 3170
256 2786 3250
0 2114 1713
0 2114 1809
0 2194 1985
0 2194 2033
0 2242 2098
0 2290 2274
0 2290 2338
16 2290 2418
32 2370 2530
32 2386 2594
48 2482 2754
48 2546 2834
64 2610 2962
96 2658 3026
144 2738 3122
208 2786 3186
272 2866 3314
0 2290 1905
0 2418 2082
0 2402 2162
0 2418 2242
0 2434 2354
16 2466 2466
16 2482 2466
16 2482 2578
32 2562 2674
32 2578 2722
32 2594 2834
32 2674 2946
48 2674 2994
96 2738 3058
176 2802 3170
208 2850 3234
288 2914 3330
16 2546 2082
16 2562 2194
16 2578 2290
16 2594 2370
32 2610 2466
32 2610 2562
32 2626 2610
32 2658 2658
32 2674 2722
32 2722 2834
32 2722 2850
64 2754 2962
96 2802 3026
144 2834 3106
176 2866 3170
256 2930 3250
352 2946 3330
48 2674 2290
48 2690 2290
64 2722 2434
64 2738 2530
80 2770 2610
96 2802 2674
64 2770 2690
80 2818 2770
96 2834 2850
96 2818 2882
96 2802 2946
112 2834 2978
176 2866 3058
256 2930 3154
352 2962 3234
368 2978 3282
496 3026 3362
112 2786 2418
144 2834 2530
192 2866 2610
224 2914 2690
208 2914 2722
192 2882 2770
192 2882 2802
256 2946 2882
224 2930 2930
224 2930 2962
256 2962 3042
288 2962 3074
352 2994 3138
368 2978 3170
512 3026 3250
560 3026 3298
753 3074 3378
96 304 448
96 320 496
128 368 560
128 384 624
128 400 656
176 496 785
176 528 897
192 576 977
192 672 1137
192 801 1313
192 897 1489
208 977 1649
208 1073 1793
272 1201 2033
304 1297 2226
320 1393 2370
368 1489 2562
160 384 560
160 384 576
176 400 624
160 432 672
160 480 737
176 528 865
176 624 977
176 721 1105
176 785 1233
176 849 1361
192 961 1537
208 1105 1729
240 1169 1889
272 1297 2098
320 1393 2306
352 1505 2482
368 1585 2610
192 432 592
176 416 608
176 464 672
192 512 769
192 592 849
192 640 945
176 721 1041
160 785 1153
176 881 1297
192 993 1489
208 1089 1617
224 1169 1777
256 1281 1985
288 1393 2194
336 1489 2354
352 1617 2578
352 1697 2674
192 464 640
192 512 689
192 560 769
176 624 833
160 672 881
160 721 993
176 817 1153
176 897 1233
176 977 1377
208 1121 1585
224 1201 1713
224 1281 1857
256 1393 2066
304 1489 2274
352 1617 2434
352 1713 2610
368 1841 2754
192 560 705
128 624 737
128 656 801
144 689 865
144 769 961
160 865 1121
160 929 1217
160 977 1297
192 1137 1505
208 1169 1617
240 1313 1825
240 1393 1969
272 1489 2162
320 1617 2370
352 1761 2546
352 1825 2674
384 1953 2818
144 656 753
112 705 817
112 737 865
96 817 961
112 865 1057
128 961 1153
160 1057 1313
160 1137 1457
192 1217 1601
224 1329 1761
224 1425 1905
256 1553 2146
288 1649 2306
320 1777 2450
352 1889 2626
384 2050 2786
400 2146 2850
96 817 817
32 833 897
64 913 1009
96 977 1073
96 1041 1217
112 1137 1329
112 1169 1441
144 1265 1569
192 1377 1745
208 1505 1953
240 1633 2162
240 1697 2242
288 1825 2434
320 1953 2594
336 2017 2674
384 2194 2834
400 2290 2962
32 945 865
32 1041 1025
32 1073 1137
32 1105 1201
48 1169 1313
64 1233 1441
128 1361 1617
128 1441 1729
160 1521 1873
192 1633 2066
208 1793 2258
208 1873 2370
256 1985 2546
320 2114 2738
336 2210 2786
368 2370 2962
384 2434 3058
32 1121 977
32 1265 1233
32 1297 1297
32 1345 1361
48 1441 1489
64 1489 1633
64 1553 1777
96 1601 1873
128 1697 2050
144 1841 2242
160 1905 2354
192 2017 2482
240 2162 2658
256 2290 2786
304 2402 2930
304 2482 3010
384 2594 3154
64 1281 993
16 1457 1345
32 1537 1489
16 1585 1553
32 1617 1697
32 1681 1825
64 1745 1921
64 1793 2098
80 1873 2226
96 2001 2370
128 2082 2482
160 2210 2610
176 2290 2722
208 2386 2834
240 2482 2962
304 2578 3074
352 2674 3186
32 1457 1121
0 1713 1505
0 1761 1633
0 1825 1777
0 1825 1825
16 1857 1969
32 1953 2114
32 2017 2226
48 2146 2386
64 2178 2466
80 2242 2562
112 2370 2722
144 2434 2818
192 2546 2962
208 2594 3042
256 2674 3154
368 2786 3282
32 1633 1185
0 1969 1665
0 2001 1761
0 2033 1921
0 2082 2017
16 2162 2178
16 2178 2242
32 2226 2338
32 2258 2450
48 2306 2562
48 2386 2658
80 2466 2802
128 2546 2930
128 2594 2994
192 2690 3122
304 2754 3202
352 2834 3330
48 1889 1393
0 2178 1793
0 2226 1889
0 2242 2033
0 2306 2178
0 2274 2258
16 2306 2370
32 2354 2450
32 2402 2546
32 2434 2626
64 2498 2770
64 2546 2834
96 2610 2930
128 2658 3010
192 2754 3122
288 2818 3218
352 2850 3298
48 2146 1601
0 2354 1969
0 2418 2098
32 2482 2338
32 2498 2434
16 2482 2466
32 2562 2562
32 2562 2626
32 2562 2690
32 2594 2738
32 2610 2834
80 2690 2946
112 2722 2994
144 2770 3058
208 2818 3170
352 2882 3250
448 2946 3346
176 2306 1713
64 2482 2001
96 2546 2098
96 2626 2290
64 2674 2498
64 2690 2610
48 2674 2642
64 2722 2722
64 2722 2770
64 2754 2818
80 2754 2850
96 2770 2962
144 2786 3010
208 2818 3106
288 2882 3170
448 2978 3314
544 2994 3346
352 2466 1873
288 2626 2098
320 2658 2258
256 2738 2418
128 2786 2626
160 2818 2738
144 2802 2754
144 2834 2786
192 2850 2850
208 2850 2930
208 2850 2978
240 2866 3026
288 2914 3074
352 2930 3154
512 2978 3234
560 2994 3314
737 3058 3378
737 2642 2098
512 2754 2290
656 2802 2386
496 2850 2530
400 2962 2786
352 2914 2786
416 2978 2914
416 2978 2946
416 2962 2978
448 2994 3026
448 2994 3058
432 2978 3074
512 2994 3154
592 3010 3202
689 3026 3250
977 3074 3362
1041 3106 3394
176 368 560
176 384 576
192 400 624
176 400 640
192 448 721
192 480 817
224 512 929
240 592 1025
240 672 1169
240 801 1361
208 897 1505
256 1041 1745
288 1169 1953
304 1233 2098
352 1377 2354
368 1457 2466
416 1569 2642
240 432 640
240 448 672
256 464 705
224 480 753
240 528 849
256 576 945
224 672 1041
208 721 1137
240 849 1345
224 913 1473
224 1057 1665
240 1137 1809
272 1233 2001
288 1313 2178
352 1457 2370
384 1569 2562
400 1665 2738
352 560 785
368 560 817
400 592 881
368 576 913
320 608 945
272 672 993
240 785 1137
192 849 1281
192 945 1393
192 1009 1537
240 1153 1729
256 1265 1905
272 1329 2066
336 1457 2290
352 1553 2450
384 1665 2626
416 1777 2754
368 608 817
352 640 849
368 672 929
336 672 961
288 721 993
256 769 1089
224 833 1185
192 977 1361
192 1057 1489
240 1169 1649
240 1249 1777
256 1345 1953
288 1441 2162
352 1553 2354
368 1697 2546
384 1777 2674
448 1921 2818
400 705 897
256 672 849
224 689 865
208 737 929
192 817 1057
192 897 1169
192 977 1297
192 1089 1441
208 1153 1569
224 1265 1729
256 1361 1857
288 1473 2098
304 1553 2258
336 1665 2418
368 1825 2610
400 1921 2770
480 2066 2914
352 785 945
208 769 913
128 801 929
160 897 1057
192 993 1169
192 1041 1281
176 1137 1409
192 1185 1505
208 1297 1681
224 1377 1809
272 1505 2050
288 1601 2210
320 1729 2370
352 1873 2578
352 1953 2658
432 2146 2834
480 2242 2930
240 865 913
160 881 993
112 993 1089
144 1057 1169
144 1121 1265
128 1185 1377
128 1233 1473
192 1361 1665
208 1489 1873
224 1537 2001
240 1665 2178
272 1777 2354
304 1889 2482
352 2033 2642
384 2146 2770
400 2242 2866
464 2370 3026
192 977 897
96 1057 1009
32 1137 1169
64 1185 1265
80 1249 1377
112 1393 1553
128 1425 1649
128 1521 1809
192 1649 2033
208 1761 2194
224 1825 2306
256 1921 2466
288 2066 2626
336 2210 2802
352 2306 2866
416 2434 3010
448 2498 3122
144 1153 977
64 1249 1121
32 1393 1377
48 1457 1441
48 1489 1585
80 1585 1729
96 1617 1841
128 1697 2001
144 1793 2178
160 1889 2290
176 1985 2434
224 2114 2594
256 2242 2738
272 2338 2818
288 2418 2946
368 2562 3074
432 2626 3154
144 1297 993
32 1489 1297
16 1617 1569
32 1681 1649
32 1713 1793
32 1761 1905
64 1777 2001
64 1889 2194
80 1953 2274
96 2050 2402
144 2178 2562
160 2258 2658
192 2386 2802
224 2434 2882
320 2578 3042
352 2626 3138
448 2738 3234
240 1489 1041
48 1617 1281
0 1825 1713
0 1857 1809
16 1905 1905
16 1953 2066
32 2050 2226
48 2082 2290
48 2162 2418
80 2274 2562
96 2290 2626
128 2386 2754
176 2498 2914
192 2578 3010
256 2626 3074
352 2722 3186
480 2818 3314
304 1745 1169
80 1777 1393
0 2114 1905
16 2146 2033
16 2178 2066
32 2226 2226
32 2242 2306
32 2258 2386
32 2306 2530
64 2402 2642
80 2466 2770
128 2530 2850
160 2578 2962
192 2642 3042
240 2722 3138
336 2770 3202
448 2882 3346
464 1921 1313
144 1985 1505
32 2274 1969
16 2290 2066
32 2354 2242
16 2354 2354
32 2402 2466
32 2434 2546
48 2434 2610
64 2482 2690
96 2546 2802
128 2610 2914
128 2642 2946
208 2722 3058
304 2786 3154
384 2850 3234
528 2914 3330
721 2194 1505
240 2178 1665
64 2418 2098
48 2450 2242
48 2546 2450
32 2546 2546
64 2594 2610
48 2578 2642
64 2626 2754
112 2674 2818
128 2674 2882
128 2722 2930
192 2754 3010
304 2802 3122
352 2834 3170
512 2930 3282
672 2962 3362
1105 2434 1665
817 2434 1809
352 2562 2114
272 2642 2290
160 2690 2482
96 2722 2642
128 2754 2738
112 2770 2754
112 2754 2802
176 2802 2882
192 2802 2930
192 2786 2978
288 2834 3058
384 2850 3138
512 2962 3234
656 2978 3314
801 3010 3362
1457 2610 1873
1297 2642 2017
897 2594 2114
929 2690 2306
512 2834 2610
352 2866 2770
384 2914 2850
320 2882 2850
384 2930 2930
384 2882 2978
448 2946 3042
432 2930 3058
448 2914 3122
560 2962 3170
705 3010 3250
849 3026 3330
1041 3074 3394
1777 2802 2114
1617 2802 2242
1409 2770 2306
1457 2818 2434
1105 2946 2690
672 2962 2834
672 2994 2930
689 2994 2978
769 3010 3026
721 2994 3042
721 3010 3106
705 3010 3122
849 3026 3186
1089 3058 3250
1201 3074 3314
1393 3138 3378
1457 3154 3427
256 416 640
272 448 672
288 464 721
288 480 769
320 512 865
320 512 929
320 576 1025
304 624 1137
352 672 1249
336 785 1409
320 929 1585
320 1057 1777
336 1137 1953
368 1281 2162
368 1377 2338
400 1457 2482
448 1601 2674
400 544 801
400 528 801
384 528 833
416 544 897
384 576 961
384 592 1009
336 624 1073
352 753 1249
352 833 1393
368 945 1569
336 1041 1697
320 1217 1889
352 1329 2114
352 1393 2258
384 1537 2466
416 1617 2610
