其他预设/【236】赛博朋克风调色预设/【后期菌】视频调色预设/3DL/Abandoned 10.3dl
# LUT by SparkleStock. Enhanced with VOXCOLOR algorithms.
0 64 128 192 256 320 384 448 512 576 640 704 768 832 896 960 1023
64 32 32
80 64 80
80 64 96
96 80 128
80 80 160
96 96 240
96 96 320
96 128 464
96 176 640
112 224 865
128 256 1137
176 368 1441
192 480 1761
240 608 2114
304 801 2418
352 961 2642
432 1153 2786
96 64 80
96 64 96
96 80 112
96 80 144
96 96 192
96 96 272
96 112 368
96 176 560
96 208 769
128 272 1041
144 368 1281
176 448 1617
208 608 1985
256 753 2242
304 945 2530
384 1137 2706
480 1345 2882
96 80 96
80 80 96
80 80 128
96 112 192
96 112 256
96 128 320
96 176 480
96 224 672
96 256 897
128 336 1169
144 432 1409
176 592 1761
208 721 2050
256 913 2386
320 1153 2658
432 1393 2866
528 1601 3010
96 96 112
96 96 144
96 112 176
96 128 240
96 176 320
96 192 448
96 240 608
96 272 785
112 336 1041
144 480 1377
160 576 1601
176 769 1953
208 945 2274
288 1185 2578
352 1409 2802
496 1713 3042
608 1937 3154
96 128 144
96 160 208
96 176 256
96 176 304
96 208 384
96 272 576
80 304 672
96 384 977
128 496 1249
144 640 1537
176 833 1905
192 1009 2242
256 1265 2562
320 1473 2786
416 1777 3026
512 2001 3138
721 2338 3266
96 208 224
96 224 256
96 256 336
96 272 432
96 336 560
80 384 689
96 480 961
112 560 1185
128 769 1521
144 929 1841
160 1041 2130
240 1345 2546
288 1569 2786
368 1825 2994
480 2130 3154
640 2386 3266
817 2594 3346
80 320 320
80 368 400
80 400 480
80 432 576
80 496 737
80 560 913
96 705 1217
96 865 1489
112 1057 1841
144 1233 2162
208 1425 2530
272 1697 2802
368 2001 3026
400 2162 3122
560 2434 3250
785 2674 3362
1009 2866 3443
48 480 432
64 560 560
64 608 640
64 705 817
64 785 1009
64 865 1201
96 993 1457
96 1169 1777
128 1345 2114
176 1537 2482
256 1809 2786
320 2130 3010
400 2322 3138
560 2562 3298
785 2770 3362
993 2930 3459
1169 3010 3475
32 785 624
48 849 785
64 977 977
64 1057 1153
64 1073 1281
96 1297 1585
80 1393 1889
128 1585 2258
160 1697 2450
256 2033 2786
320 2306 3026
400 2466 3186
560 2706 3314
769 2834 3378
961 2978 3443
1185 3106 3491
1345 3154 3491
32 1137 929
32 1249 1089
48 1377 1297
48 1473 1489
64 1617 1729
80 1633 1937
112 1825 2258
176 2033 2562
256 2258 2818
320 2418 2994
384 2562 3122
560 2754 3266
705 2882 3346
897 2994 3427
1153 3122 3475
1345 3202 3491
1569 3266 3539
16 1601 1313
32 1697 1489
48 1889 1697
64 1953 1905
96 2114 2194
128 2194 2370
192 2338 2642
240 2450 2818
320 2578 2994
448 2786 3154
592 2898 3298
737 2994 3346
945 3106 3443
1057 3122 3443
1329 3218 3491
1537 3298 3523
1793 3362 3555
32 2114 1617
64 2226 1809
112 2338 2146
128 2386 2306
160 2466 2466
256 2610 2770
320 2722 2898
400 2802 3042
496 2898 3154
560 2914 3234
753 3042 3346
945 3138 3378
1057 3154 3427
1329 3250 3491
1537 3330 3539
1729 3362 3539
2001 3427 3555
128 2546 2050
160 2578 2242
224 2690 2498
256 2706 2610
320 2786 2786
448 2914 2978
464 2914 3026
528 2962 3122
640 3042 3250
721 3074 3298
945 3154 3378
1121 3218 3427
1345 3298 3475
1489 3330 3523
1713 3378 3523
2001 3427 3539
2338 3491 3587
256 2786 2386
384 2898 2658
400 2914 2722
480 2962 2866
560 3026 3010
656 3090 3138
689 3090 3154
753 3106 3250
945 3202 3330
1041 3218 3362
1201 3266 3410
1393 3330 3475
1489 3330 3475
1681 3378 3491
2017 3443 3539
2242 3475 3555
2418 3491 3571
528 3010 2658
624 3042 2770
705 3106 2914
769 3122 3010
865 3186 3106
929 3202 3154
1025 3234 3234
1105 3250 3298
1201 3266 3330
1377 3330 3410
1441 3330 3427
1585 3378 3459
1761 3427 3475
1985 3443 3491
2194 3475 3523
2386 3491 3555
2546 3523 3571
865 3154 2818
913 3154 2882
1025 3218 2994
1121 3250 3090
1249 3298 3154
1377 3330 3234
1377 3314 3234
1489 3346 3330
1649 3378 3378
1665 3410 3410
1713 3410 3427
1873 3427 3459
2066 3459 3491
2274 3491 3539
2450 3523 3555
2578 3539 3571
2706 3555 3571
1153 3250 2898
1281 3298 3010
1441 3346 3106
1601 3378 3186
1617 3378 3218
1665 3410 3266
1777 3410 3298
1937 3443 3362
2017 3443 3410
2066 3459 3427
2194 3475 3443
2306 3491 3475
2434 3523 3523
2498 3523 3523
2706 3555 3555
2754 3555 3555
2898 3587 3587
96 64 96
80 64 96
96 80 128
96 80 160
96 80 176
96 96 256
96 112 336
96 128 480
112 176 672
128 256 977
160 320 1265
176 400 1537
224 512 1809
272 656 2162
320 865 2466
400 1025 2658
528 1217 2818
96 80 112
96 80 128
96 96 160
96 80 176
96 96 240
96 112 320
96 160 480
112 208 672
112 240 865
128 304 1121
160 400 1441
208 544 1729
240 656 2033
304 833 2370
368 1057 2642
480 1281 2818
576 1457 2962
96 96 144
96 96 144
96 96 176
96 112 256
96 144 320
96 160 448
96 208 624
96 256 769
128 320 1041
160 432 1377
176 544 1601
208 672 1921
272 865 2274
336 1089 2578
400 1281 2754
560 1537 2978
656 1761 3106
96 112 160
96 112 176
96 144 256
96 160 320
96 176 384
96 224 544
112 304 801
112 352 961
128 400 1169
176 592 1521
192 737 1841
208 881 2146
288 1089 2466
352 1345 2706
480 1585 2962
576 1809 3090
737 2130 3218
112 144 208
96 176 256
96 192 304
96 224 384
96 256 496
96 320 689
112 400 897
112 432 1089
144 608 1409
176 721 1665
192 977 2114
256 1105 2354
304 1345 2642
400 1601 2898
544 1905 3090
640 2162 3186
833 2434 3314
96 224 256
96 256 320
96 256 368
96 320 512
80 384 624
96 448 817
112 560 1105
112 672 1345
144 817 1649
176 1025 2033
208 1233 2322
272 1489 2674
352 1681 2898
480 2017 3090
624 2306 3218
865 2594 3330
993 2706 3362
96 368 320
80 400 448
80 432 560
80 480 672
96 608 897
96 721 1121
96 817 1345
112 945 1569
160 1185 2017
192 1409 2370
272 1649 2706
320 1777 2834
448 2162 3106
576 2354 3202
721 2562 3298
977 2786 3378
1201 2962 3443
80 544 400
64 624 640
64 721 769
64 753 913
64 865 1105
80 961 1361
112 1185 1697
128 1281 1985
176 1473 2338
240 1713 2642
336 2098 2962
400 2242 3074
528 2482 3218
737 2706 3330
913 2834 3378
1217 3026 3459
1345 3106 3475
64 801 560
64 1025 961
80 1105 1121
64 1153 1249
96 1265 1489
112 1409 1809
112 1537 2050
160 1697 2354
224 1905 2610
320 2258 2962
384 2370 3074
528 2578 3202
721 2754 3314
929 2914 3410
1153 3074 3459
1345 3138 3475
1633 3250 3523
80 1121 656
48 1393 1249
80 1537 1489
64 1569 1633
96 1665 1873
128 1873 2226
176 2033 2450
240 2194 2674
304 2354 2898
416 2546 3106
544 2690 3218
689 2834 3314
865 2962 3362
1057 3042 3427
1265 3154 3459
1489 3218 3475
1809 3330 3539
80 1569 945
48 1873 1569
64 1985 1809
128 2162 2162
128 2162 2306
176 2306 2482
256 2466 2770
336 2594 2930
480 2770 3106
544 2802 3202
672 2914 3266
897 3026 3378
1105 3122 3427
1313 3218 3475
1505 3266 3491
1761 3330 3523
2130 3427 3555
96 1953 1137
144 2338 2001
176 2434 2194
208 2498 2450
256 2594 2594
320 2690 2834
384 2754 2914
480 2866 3074
576 2898 3186
705 2994 3266
865 3042 3330
1105 3186 3410
1313 3234 3459
1457 3266 3475
1713 3362 3523
2050 3410 3539
2274 3459 3571
192 2418 1409
256 2610 2146
320 2706 2386
320 2754 2578
432 2834 2834
480 2882 2930
576 2962 3090
656 2994 3154
753 3074 3234
881 3106 3298
1153 3202 3378
1281 3234 3410
1425 3266 3443
1649 3330 3475
1889 3378 3523
2242 3459 3555
2434 3475 3571
384 2706 1649
416 2834 2434
544 2930 2642
705 3042 2930
753 3106 3042
753 3090 3106
913 3154 3202
1009 3202 3250
1089 3218 3314
1217 3234 3346
1345 3266 3410
1569 3346 3443
1697 3362 3459
1985 3427 3491
2162 3459 3539
2450 3491 3571
2594 3523 3571
624 2882 1793
672 2978 2354
801 3026 2546
929 3122 2834
1089 3218 3106
1201 3250 3186
1249 3250 3234
1345 3298 3298
1425 3314 3330
1569 3346 3410
1633 3362 3410
1761 3378 3443
1937 3410 3459
2162 3443 3491
2370 3475 3539
2642 3539 3571
2754 3555 3587
913 3010 1953
1089 3122 2450
1201 3154 2578
1297 3218 2834
1425 3314 3154
1569 3346 3218
1585 3346 3250
1681 3362 3314
1873 3410 3362
1953 3427 3410
2050 3443 3443
2130 3459 3443
2274 3475 3491
2450 3491 3523
2658 3539 3555
2722 3539 3555
2898 3571 3587
1345 3186 2130
1489 3250 2658
1681 3314 2754
1697 3346 2978
1953 3427 3234
1953 3410 3250
2146 3459 3330
2162 3459 3362
2306 3459 3378
2418 3491 3443
2466 3523 3459
2466 3491 3459
2610 3539 3523
2722 3555 3523
2818 3555 3539
2978 3587 3571
3026 3587 3587
96 80 112
96 80 128
96 96 160
96 80 160
112 96 224
112 96 288
128 112 368
128 144 544
144 176 705
176 256 1025
160 320 1281
240 464 1649
288 608 2033
320 769 2322
416 945 2594
512 1153 2754
656 1361 2930
112 96 160
112 96 176
112 96 208
112 96 240
112 128 304
128 144 400
128 176 544
128 208 705
176 288 1025
176 336 1233
208 480 1585
256 592 1905
288 753 2210
352 945 2498
464 1169 2706
592 1409 2914
721 1649 3074
176 144 240
176 144 256
192 160 320
176 160 352
144 160 400
128 176 480
160 256 721
144 304 961
144 368 1169
176 464 1425
224 640 1809
256 801 2162
320 993 2434
448 1249 2706
512 1441 2882
640 1681 3042
833 1953 3154
176 176 272
176 176 320
176 192 368
160 192 416
160 240 544
144 256 640
144 320 865
160 400 1121
160 512 1377
192 689 1665
240 817 2017
256 1025 2322
336 1201 2578
448 1457 2802
624 1777 3042
737 2017 3138
961 2322 3266
208 224 336
144 224 336
128 224 384
112 256 480
112 304 640
128 368 833
144 432 1041
160 560 1313
176 721 1569
176 849 1873
240 1041 2242
304 1297 2562
384 1489 2770
480 1713 2962
689 2162 3154
833 2370 3250
1169 2674 3362
192 272 400
144 272 400
96 320 480
96 400 624
96 464 801
128 560 1009
128 689 1249
128 785 1489
176 961 1825
192 1137 2194
272 1377 2530
336 1585 2786
448 1841 2978
640 2258 3154
737 2434 3234
1041 2690 3346
1297 2866 3427
160 384 384
112 400 544
96 512 656
112 592 865
96 705 1025
96 833 1265
112 913 1489
160 1137 1873
208 1345 2226
240 1489 2482
320 1713 2770
400 2017 2994
544 2258 3122
737 2546 3250
945 2722 3346
1137 2866 3378
1441 3042 3459
128 592 400
96 640 608
64 801 865
64 849 1025
96 945 1249
128 1185 1569
128 1281 1873
176 1441 2146
256 1697 2562
320 1953 2818
384 2162 2994
528 2434 3154
721 2642 3250
929 2818 3362
1121 2962 3427
1425 3106 3459
1601 3154 3475
112 913 560
96 1025 817
96 1217 1281
96 1313 1441
112 1441 1713
144 1569 1985
176 1681 2274
240 1921 2562
320 2146 2818
400 2354 3010
512 2546 3154
689 2706 3266
897 2882 3362
1073 2994 3410
1265 3090 3443
1569 3202 3491
1793 3250 3523
128 1265 640
96 1489 1121
96 1617 1601
112 1793 1873
144 1953 2210
192 2066 2386
208 2146 2562
320 2370 2834
400 2482 3010
496 2642 3122
689 2802 3266
849 2914 3346
1089 3042 3410
1249 3122 3443
1569 3234 3475
1761 3298 3491
2130 3362 3555
176 1713 785
112 1777 1185
112 2130 2001
160 2242 2274
192 2338 2450
256 2450 2674
400 2642 2914
448 2690 3010
544 2770 3122
753 2930 3266
865 2978 3314
1041 3074 3362
1281 3186 3443
1505 3250 3475
1761 3314 3491
2033 3362 3523
2338 3443 3571
288 2226 961
192 2210 1377
272 2578 2386
320 2658 2594
352 2690 2754
480 2802 2914
544 2866 3026
592 2898 3106
721 2978 3234
945 3090 3298
1105 3138 3362
1297 3218 3427
1489 3266 3459
1681 3330 3491
1937 3378 3523
2242 3427 3539
2482 3475 3587
464 2530 1025
368 2530 1505
480 2786 2450
496 2818 2674
576 2914 2898
640 2962 3010
785 3026 3138
913 3090 3218
993 3106 3266
1169 3154 3314
1313 3234 3378
1505 3298 3427
1649 3330 3459
1937 3378 3491
2226 3443 3523
2434 3475 3555
2594 3491 3571
721 2786 1105
592 2770 1665
721 2962 2594
785 3010 2770
929 3106 3010
961 3138 3122
1137 3202 3202
1169 3202 3234
1329 3250 3330
1505 3314 3378
1649 3346 3427
1681 3346 3427
2001 3427 3475
2226 3443 3523
2370 3459 3523
2658 3523 3555
2770 3539 3571
1041 2930 1185
1025 2978 1601
1105 3090 2498
1185 3154 2786
1297 3218 3026
1377 3266 3186
1505 3314 3250
1569 3330 3314
1633 3346 3346
1841 3410 3378
1937 3410 3427
2001 3410 3427
2226 3443 3475
2434 3475 3523
2658 3523 3539
2754 3539 3555
2898 3555 3571
1441 3074 1217
1457 3106 1601
1425 3138 2130
1633 3218 2530
1793 3330 3042
1825 3378 3218
2033 3427 3298
2017 3410 3314
2194 3443 3362
2226 3443 3378
2386 3475 3443
2434 3475 3459
2498 3475 3475
2674 3523 3523
2834 3555 3555
2930 3555 3555
3010 3571 3571
1921 3234 1297
1905 3234 1681
1841 3250 2194
2146 3346 2594
2242 3410 3074
2258 3443 3234
2386 3459 3314
2450 3475 3346
2594 3523 3410
2594 3491 3410
2690 3539 3459
2690 3539 3459
2834 3555 3523
2962 3587 3539
3042 3587 3555
3138 3603 3587
3154 3603 3587
128 96 160
144 96 176
144 96 224
160 112 256
160 128 320
160 128 384
176 160 512
176 160 608
224 192 833
224 256 1089
256 336 1377
304 480 1697
336 576 2001
432 801 2370
480 993 2610
592 1169 2770
769 1425 2930
192 144 240
176 144 256
176 144 304
192 144 336
176 160 400
192 160 480
176 176 576
208 224 817
240 272 1057
304 384 1409
288 480 1617
320 721 2098
416 913 2418
432 1041 2578
592 1329 2834
689 1505 2978
