其他预设/【236】赛博朋克风调色预设/【后期菌】视频调色预设/3DL/Abandoned 04.3dl
# LUT by SparkleStock. Enhanced with VOXCOLOR algorithms.
0 256 512 768 1023
144 208 256
144 256 336
160 368 592
176 608 1281
544 1009 1905
144 368 368
128 448 496
144 689 961
416 1121 1665
945 1633 2322
48 961 721
48 1089 1009
320 1409 1601
881 1921 2306
1281 2354 2834
737 2290 1665
801 2402 2050
1025 2482 2418
1361 2706 2834
1649 2946 3234
1585 3090 2562
1665 3154 2802
1681 3122 2962
1793 3170 3154
1985 3218 3346
448 320 400
432 304 512
512 336 801
656 576 1473
1121 1233 2258
1377 849 849
1537 737 1233
656 1089 1473
945 1537 2050
1409 2050 2706
881 1393 817
528 1585 1553
929 1873 2082
1297 2290 2626
1681 2706 3122
1889 2530 1441
1377 2674 2322
1457 2722 2642
1681 2834 2946
2033 3042 3282
2594 3154 2146
2738 3250 2658
2322 3282 3154
2354 3250 3250
2562 3330 3410
1841 689 945
1873 544 1201
1985 464 1553
2033 544 1921
2530 945 2562
2754 1713 1665
2898 1553 2050
2930 1505 2338
2610 1505 2562
2578 2274 3058
2050 2114 1089
2818 2466 2146
2642 2290 2578
1873 2594 2898
2258 2898 3282
2722 2914 1793
2834 2978 2130
2210 2962 2882
2354 3010 3122
2578 3154 3378
3218 3459 2626
3282 3491 2818
3266 3507 3106
3010 3475 3459
3058 3491 3539
3090 1489 1745
3154 1377 2033
3234 1329 2354
3234 1329 2610
3266 1441 2898
3330 2434 2306
3314 2194 2482
3346 2194 2754
3378 2178 2962
3378 2210 3154
2978 2674 1553
3234 2882 2610
3314 2770 2930
3330 2802 3122
3266 2946 3362
3314 3266 2306
3330 3266 2578
3378 3330 2882
3202 3282 3282
3154 3378 3539
3603 3651 2946
3635 3683 3170
3667 3715 3362
3667 3763 3571
3491 3683 3715
3667 2274 2450
3731 2194 2706
3715 2162 2898
3715 2162 3106
3699 2146 3234
3619 2882 2594
3699 2770 2914
3699 2722 3090
3683 2722 3234
3635 2706 3362
3475 3090 2130
3507 3154 2706
3619 3090 3202
3635 3106 3362
3651 3170 3507
3667 3491 2706
3651 3507 2914
3667 3539 3122
3779 3603 3555
3763 3571 3731
3843 3811 3330
3859 3827 3507
3843 3843 3635
3875 3875 3795
3875 3907 3907
