其他预设/【236】赛博朋克风调色预设/【后期菌】视频调色预设/3DL/Abandoned 09.3dl
# LUT by SparkleStock. Enhanced with VOXCOLOR algorithms.
0 64 128 192 256 320 384 448 512 576 640 704 768 832 896 960 1023
64 16 16
80 48 64
64 48 80
96 80 128
80 80 128
96 112 208
96 112 272
96 128 352
112 176 512
128 240 737
128 304 977
160 416 1313
208 544 1601
240 672 1889
320 865 2322
400 1073 2578
496 1265 2770
80 64 64
80 64 80
80 80 112
80 96 144
96 112 192
96 112 240
96 128 320
96 176 432
112 240 624
128 288 833
144 384 1089
160 480 1393
208 624 1713
256 801 2082
320 993 2418
400 1233 2690
512 1441 2882
96 80 96
80 80 96
80 96 128
96 128 192
112 128 240
96 128 272
96 192 384
96 240 544
96 288 672
112 352 945
128 448 1185
176 608 1521
208 769 1825
256 977 2274
352 1217 2610
448 1473 2834
544 1633 3010
96 112 128
80 112 128
96 128 176
96 160 224
96 192 288
96 224 368
96 256 480
96 304 608
96 368 817
128 496 1137
128 592 1345
160 785 1697
208 977 2082
288 1185 2450
336 1409 2722
496 1697 2994
592 1889 3122
80 128 144
96 176 192
96 192 240
80 208 256
96 240 320
96 288 448
80 336 544
80 416 769
112 512 1009
128 640 1297
144 833 1633
192 993 2001
256 1233 2418
320 1441 2674
416 1697 2898
496 1889 3090
656 2178 3202
80 224 192
80 240 224
96 272 304
96 304 352
80 352 448
64 400 544
80 464 753
96 544 977
112 721 1249
128 881 1569
144 993 1825
208 1249 2274
272 1489 2594
336 1713 2866
448 1953 3042
576 2274 3234
737 2450 3314
64 336 272
64 368 336
64 400 384
48 432 464
64 464 576
64 544 705
80 656 977
80 801 1201
96 977 1505
128 1121 1857
176 1313 2210
240 1569 2578
320 1809 2866
368 1953 2994
496 2290 3186
672 2562 3314
865 2770 3427
48 448 352
48 528 448
48 560 512
48 656 624
48 689 753
48 769 929
48 881 1169
80 1041 1425
96 1217 1729
128 1393 2146
192 1617 2498
256 1905 2818
336 2098 3010
448 2418 3202
640 2642 3330
833 2834 3427
977 2930 3475
16 705 480
16 769 592
32 865 753
32 961 881
32 961 977
48 1153 1297
32 1249 1473
80 1409 1793
80 1505 2066
128 1777 2482
224 2066 2818
288 2274 3042
416 2514 3234
544 2722 3346
737 2850 3427
913 3010 3507
1089 3106 3523
16 1057 672
16 1089 769
16 1233 977
16 1313 1169
16 1425 1393
16 1457 1553
32 1617 1777
64 1729 2146
112 1937 2466
144 2162 2738
224 2322 2930
336 2562 3186
448 2738 3314
608 2882 3410
849 3042 3507
1009 3122 3539
1233 3234 3571
0 1409 929
0 1569 1121
16 1681 1313
16 1729 1489
16 1809 1665
16 1889 1873
48 2033 2194
80 2178 2466
128 2338 2690
192 2562 2978
272 2690 3154
416 2866 3330
576 3010 3443
672 3058 3459
913 3154 3539
1137 3250 3571
1377 3298 3587
0 1921 1185
0 2001 1345
0 2098 1601
0 2146 1713
16 2274 1985
48 2370 2338
80 2482 2498
128 2562 2770
192 2706 2994
240 2722 3122
368 2914 3314
496 3026 3410
624 3090 3475
849 3202 3539
1073 3266 3555
1249 3314 3587
1441 3346 3603
0 2322 1505
0 2354 1649
32 2514 1937
32 2514 2082
64 2594 2338
112 2722 2642
128 2738 2818
176 2786 2962
256 2898 3138
320 2930 3234
480 3090 3410
624 3154 3475
785 3234 3539
945 3282 3555
1153 3330 3571
1361 3378 3587
1617 3427 3619
16 2594 1745
64 2738 2098
64 2738 2242
112 2818 2482
144 2866 2722
224 2930 2930
256 2978 3026
320 3010 3170
448 3122 3314
512 3138 3394
640 3186 3459
769 3266 3523
865 3282 3539
1057 3314 3555
1297 3394 3571
1505 3427 3603
1681 3443 3619
112 2866 2162
144 2898 2354
208 2962 2594
240 2978 2722
320 3042 2930
336 3090 3042
432 3138 3186
496 3154 3282
592 3202 3378
721 3282 3443
769 3282 3459
929 3330 3539
1057 3378 3555
1233 3394 3571
1393 3427 3571
1601 3443 3603
1745 3475 3619
240 3010 2434
272 3026 2562
352 3090 2770
448 3138 2978
544 3202 3090
656 3250 3202
656 3250 3266
769 3298 3346
897 3330 3410
929 3330 3443
977 3346 3475
1073 3378 3523
1265 3410 3539
1425 3443 3571
1601 3459 3587
1713 3475 3603
1905 3507 3619
448 3138 2626
576 3186 2834
705 3266 2962
833 3298 3106
865 3298 3154
913 3298 3234
977 3314 3282
1089 3378 3378
1153 3394 3427
1217 3394 3443
1313 3427 3475
1393 3443 3523
1537 3459 3539
1601 3459 3555
1825 3523 3571
1937 3523 3587
2178 3555 3619
96 64 80
80 48 96
96 80 128
96 80 144
96 80 160
112 112 240
112 128 320
112 144 400
128 208 576
128 288 849
160 352 1137
192 448 1393
240 576 1649
288 737 2017
368 945 2418
448 1121 2642
576 1361 2866
96 80 128
96 80 128
112 96 160
96 96 176
112 112 224
96 128 288
112 176 400
112 240 544
112 256 689
128 336 929
160 416 1201
208 592 1553
240 721 1857
320 913 2274
400 1137 2562
512 1377 2818
608 1521 2930
112 112 128
96 96 144
112 112 176
112 128 240
112 160 304
112 176 368
112 240 512
112 272 592
128 352 849
144 448 1121
176 560 1393
208 705 1681
272 897 2098
336 1137 2450
416 1313 2690
560 1585 2930
656 1745 3058
112 128 160
112 128 192
112 160 240
112 192 304
112 208 336
112 240 448
112 320 624
112 368 753
128 432 977
160 592 1297
192 753 1585
208 881 1905
272 1089 2274
336 1345 2610
464 1553 2850
576 1777 3026
705 2066 3186
112 176 192
96 208 240
96 208 272
112 240 336
96 304 432
96 352 560
96 432 721
112 448 865
128 608 1185
128 705 1393
192 961 1857
224 1089 2146
272 1297 2450
368 1585 2786
528 1825 3010
624 2033 3138
769 2322 3266
96 240 240
96 272 288
96 288 320
80 336 416
64 384 512
80 448 656
96 544 897
96 640 1089
112 785 1361
160 977 1697
192 1137 2033
240 1393 2418
336 1617 2770
448 1857 2978
560 2146 3138
769 2450 3282
865 2594 3330
96 368 288
64 400 352
64 448 448
64 480 544
64 576 689
80 656 881
64 753 1041
80 865 1297
128 1057 1633
160 1281 2033
240 1505 2450
272 1617 2626
384 1937 2930
512 2210 3138
624 2402 3234
833 2674 3346
1025 2866 3443
64 496 336
32 576 480
48 656 592
32 689 689
48 769 833
48 849 1041
80 1057 1377
80 1153 1601
112 1329 1937
160 1537 2306
256 1825 2674
304 2033 2898
400 2290 3090
576 2562 3282
721 2722 3346
977 2914 3459
1121 3026 3523
48 721 432
32 929 737
32 993 865
32 1025 977
32 1121 1169
48 1265 1425
64 1361 1649
80 1489 1953
112 1649 2274
192 1985 2642
256 2146 2866
336 2370 3090
480 2594 3266
672 2818 3378
865 2962 3459
1057 3042 3507
1297 3186 3555
48 961 512
16 1249 929
16 1361 1121
16 1409 1297
16 1505 1473
32 1649 1729
64 1729 2017
80 1873 2274
128 2066 2562
224 2322 2866
304 2466 3106
416 2674 3250
544 2818 3346
737 2962 3427
929 3058 3507
1105 3138 3523
1409 3282 3571
16 1361 689
0 1649 1185
0 1729 1377
16 1921 1601
16 1889 1745
16 2033 2033
64 2194 2338
112 2338 2594
192 2514 2898
240 2594 3042
336 2738 3202
512 2914 3378
656 3026 3443
865 3138 3507
1073 3202 3539
1297 3282 3571
1553 3346 3603
16 1697 865
0 2098 1473
0 2178 1601
16 2306 1873
32 2354 2146
80 2498 2434
112 2546 2626
144 2674 2834
240 2738 3026
304 2834 3170
432 2930 3298
592 3058 3443
785 3154 3507
945 3202 3523
1185 3282 3555
1473 3346 3587
1633 3410 3603
16 2194 1089
16 2418 1569
48 2498 1793
64 2546 2050
96 2674 2434
128 2706 2626
160 2770 2834
240 2850 2978
320 2930 3154
416 2994 3266
560 3106 3394
656 3138 3443
817 3202 3507
1057 3282 3523
1297 3330 3555
1553 3394 3587
1697 3427 3603
64 2498 1281
64 2674 1889
96 2754 2146
208 2866 2562
256 2930 2850
256 2930 2930
368 3026 3106
448 3090 3234
512 3122 3314
592 3154 3378
705 3202 3443
865 3266 3507
1009 3298 3523
1233 3346 3539
1425 3394 3571
1649 3427 3603
1873 3459 3619
192 2722 1441
160 2818 1857
240 2882 2098
336 2978 2546
448 3122 2994
512 3154 3138
560 3170 3234
656 3234 3298
737 3250 3346
849 3298 3427
913 3298 3459
1009 3330 3507
1169 3346 3523
1393 3394 3539
1537 3427 3571
1793 3475 3603
2001 3507 3619
384 2866 1537
432 2962 2033
512 3010 2178
592 3090 2562
705 3202 3058
833 3266 3186
849 3266 3250
929 3298 3298
1041 3330 3378
1153 3346 3427
1185 3378 3459
1297 3394 3475
1425 3410 3523
1569 3443 3539
1793 3475 3587
1937 3507 3571
2178 3539 3603
769 3042 1713
753 3122 2274
897 3170 2450
929 3202 2738
1121 3330 3154
1137 3330 3186
1297 3394 3282
1345 3394 3330
1393 3410 3378
1505 3427 3427
1569 3443 3459
1585 3443 3459
1713 3475 3523
1873 3507 3523
2033 3523 3555
2322 3555 3587
2418 3555 3603
96 80 128
112 80 128
112 96 144
96 80 160
112 112 208
112 112 256
128 128 336
128 160 448
160 208 624
176 288 865
176 336 1089
240 512 1505
288 672 1825
336 817 2178
464 1089 2562
560 1265 2754
689 1473 2962
128 112 160
128 112 176
128 128 192
112 128 224
128 144 288
128 160 352
128 208 480
128 240 592
176 320 865
192 384 1057
224 528 1393
240 656 1713
320 801 2050
368 1009 2370
496 1249 2690
640 1489 2898
769 1713 3058
160 160 240
176 160 256
192 176 320
176 176 336
144 176 368
128 208 448
144 272 592
128 336 769
144 400 961
160 480 1185
224 656 1569
256 833 1921
320 1009 2274
448 1281 2610
512 1473 2818
656 1713 3010
817 1921 3122
176 208 256
176 208 304
192 240 352
160 240 384
160 256 464
144 288 544
144 336 689
144 448 929
144 512 1137
192 672 1441
224 817 1729
256 1009 2098
320 1185 2418
448 1457 2722
592 1713 2978
689 1921 3106
865 2210 3234
208 240 320
128 240 336
128 256 352
128 288 448
112 336 528
112 400 656
128 464 833
144 560 1057
144 689 1313
176 833 1601
224 1009 1953
288 1265 2370
336 1457 2610
464 1665 2850
624 1985 3090
753 2210 3202
1009 2514 3330
192 320 352
128 320 352
96 336 384
96 416 512
96 464 656
96 528 785
112 656 993
112 753 1233
144 897 1521
176 1057 1825
240 1297 2274
320 1505 2578
432 1713 2834
560 2066 3090
656 2274 3170
881 2578 3314
1105 2738 3410
128 400 336
112 432 448
80 512 544
80 576 656
96 656 785
80 753 977
80 833 1185
128 1025 1505
160 1217 1809
192 1345 2130
240 1569 2450
352 1793 2786
448 2082 3010
640 2354 3186
785 2594 3298
929 2754 3394
1201 2962 3475
112 560 336
80 624 480
48 737 656
48 769 801
48 865 961
80 1073 1265
80 1121 1473
112 1297 1745
160 1505 2162
240 1713 2546
288 1937 2770
400 2194 3010
544 2466 3202
737 2706 3330
881 2834 3410
1153 3010 3475
1297 3106 3523
96 785 432
48 897 608
32 1089 961
32 1169 1121
48 1281 1345
80 1393 1617
80 1489 1793
112 1649 2130
144 1825 2418
240 2066 2754
320 2274 2994
464 2546 3202
640 2738 3330
769 2866 3394
961 2978 3459
1233 3122 3523
1441 3202 3539
96 1105 512
32 1281 817
16 1457 1249
32 1601 1473
32 1681 1681
48 1777 1937
64 1825 2130
128 2082 2482
176 2226 2690
240 2370 2914
384 2594 3170
528 2754 3314
705 2930 3410
865 3010 3459
1137 3138 3523
1329 3234 3539
1617 3314 3587
128 1505 624
32 1505 865
16 1873 1505
16 1953 1681
16 2066 1937
48 2194 2210
128 2370 2578
144 2450 2722
224 2562 2930
352 2754 3170
432 2818 3266
592 2930 3378
817 3090 3459
1025 3170 3507
1249 3250 3539
1489 3314 3555
1713 3394 3587
224 1953 801
16 1921 1041
48 2354 1793
64 2434 2146
80 2482 2290
128 2610 2594
160 2674 2770
208 2722 2914
304 2818 3106
448 2930 3266
560 3042 3394
753 3122 3443
897 3170 3475
1121 3266 3523
1361 3314 3555
1569 3346 3571
1825 3443 3603
336 2338 897
112 2322 1169
96 2578 1889
112 2626 2178
160 2738 2610
192 2770 2786
288 2882 2930
336 2930 3090
432 2978 3202
544 3058 3330
656 3122 3394
849 3186 3459
977 3234 3475
1265 3314 3539
1489 3346 3555
1713 3410 3587
1921 3459 3603
560 2626 977
224 2578 1329
176 2770 2050
224 2834 2338
336 2962 2786
368 3010 3026
464 3058 3154
496 3090 3202
656 3170 3330
801 3234 3410
929 3266 3443
977 3282 3475
1233 3330 3523
1441 3378 3555
1617 3410 3555
1889 3459 3587
2066 3475 3587
881 2850 1009
656 2834 1361
448 2914 2050
512 2994 2418
608 3106 2882
656 3170 3138
785 3234 3250
833 3250 3298
865 3266 3330
1057 3314 3427
1153 3330 3459
1217 3330 3475
1393 3378 3507
1569 3410 3539
1793 3459 3571
2033 3475 3571
2210 3523 3587
1217 2994 1025
1121 3026 1361
881 3010 1713
977 3090 2178
993 3202 2866
1057 3298 3154
1185 3330 3250
1185 3330 3282
1313 3378 3346
1345 3378 3378
1505 3410 3443
1521 3410 3459
1617 3410 3507
1825 3459 3523
2082 3523 3571
2274 3523 3571
2402 3539 3587
1665 3154 1121
1521 3154 1425
1393 3154 1809
1457 3202 2226
1489 3314 2898
1409 3378 3186
1521 3410 3282
1617 3427 3330
1777 3459 3410
1745 3459 3427
1889 3475 3443
1905 3475 3459
2098 3523 3523
2242 3539 3539
2402 3555 3571
2546 3571 3603
2626 3587 3603
128 112 160
128 128 192
128 128 208
128 128 240
144 144 304
144 144 336
176 176 448
192 192 544
224 224 705
240 272 881
256 400 1249
320 544 1585
368 656 1857
464 881 2290
528 1105 2594
656 1297 2786
817 1505 2962
192 160 240
192 160 240
192 160 288
192 160 320
192 176 352
192 192 432
192 192 512
240 256 705
240 320 897
304 416 1185
288 528 1457
336 753 1873
416 945 2274
448 1105 2482
624 1393 2818
737 1553 2962
