其他预设/【236】赛博朋克风调色预设/【后期菌】视频调色预设/3DL/Abandoned 04.3dl
# LUT by SparkleStock. Enhanced with VOXCOLOR algorithms.
0 64 128 192 256 320 384 448 512 576 640 704 768 832 896 960 1023
144 208 256
160 240 288
160 224 288
176 256 320
144 256 336
176 272 384
160 288 416
160 320 496
160 368 592
160 416 737
128 464 897
144 544 1105
176 608 1281
224 689 1441
336 817 1617
416 897 1745
544 1009 1905
160 256 288
144 256 304
160 256 320
144 256 336
160 288 384
160 304 400
160 320 464
160 368 560
160 416 689
160 480 849
144 560 1025
128 608 1185
192 705 1345
256 833 1537
384 913 1681
496 1025 1825
624 1153 2001
160 272 304
144 256 304
144 272 336
160 320 384
160 336 432
144 336 448
144 384 544
160 432 624
160 480 737
144 528 913
144 608 1073
208 737 1249
256 817 1409
352 929 1585
464 1057 1761
624 1201 1953
737 1297 2082
160 304 336
144 288 352
144 336 384
144 368 416
144 384 464
144 416 528
144 448 608
144 480 705
144 544 833
144 656 1041
160 737 1169
224 849 1345
304 961 1521
432 1073 1681
576 1201 1841
737 1361 2050
833 1457 2178
144 368 368
144 384 400
144 400 432
128 432 464
128 448 496
144 496 592
144 512 656
144 592 785
144 689 961
176 785 1153
224 897 1329
288 977 1473
416 1121 1665
544 1233 1793
705 1377 1985
785 1473 2130
945 1633 2322
128 448 416
112 464 448
128 496 496
128 512 544
128 576 608
112 592 689
128 656 817
144 737 961
160 849 1105
224 961 1313
224 1009 1441
384 1137 1601
512 1281 1745
640 1393 1905
769 1537 2082
913 1681 2322
993 1793 2434
96 576 496
112 608 544
112 640 592
96 640 640
96 689 721
96 737 801
128 833 961
144 913 1105
176 1025 1297
256 1105 1441
368 1201 1585
512 1361 1761
656 1505 1921
721 1553 2033
865 1713 2258
1009 1873 2450
1137 2050 2626
80 737 576
80 769 656
80 801 705
80 849 785
80 897 865
80 913 961
96 1009 1105
144 1089 1281
240 1201 1441
320 1297 1601
480 1441 1745
640 1585 1921
737 1649 2066
865 1809 2274
1009 1969 2466
1137 2130 2626
1201 2210 2754
48 961 721
48 993 801
48 1089 897
64 1089 961
48 1089 1009
96 1217 1233
112 1265 1345
288 1393 1521
320 1409 1601
512 1569 1793
689 1697 1985
769 1809 2130
881 1921 2306
1009 2066 2482
1105 2162 2610
1217 2306 2770
1281 2354 2834
48 1233 913
48 1281 977
48 1345 1089
80 1441 1217
128 1489 1345
144 1505 1441
256 1537 1553
368 1601 1681
560 1713 1857
689 1793 2001
753 1873 2130
881 2017 2290
1009 2130 2450
1105 2210 2610
1217 2354 2738
1281 2434 2834
1377 2530 2962
144 1553 1137
112 1617 1249
208 1713 1393
192 1713 1489
240 1761 1553
336 1777 1681
432 1809 1777
576 1889 1905
689 1953 2050
849 2114 2210
945 2194 2354
1073 2290 2498
1153 2370 2642
1201 2418 2722
1297 2514 2866
1377 2626 2962
1457 2706 3074
352 1905 1409
416 1985 1505
416 2017 1617
416 2033 1681
480 2050 1777
624 2146 1969
737 2210 2066
817 2226 2162
913 2322 2274
961 2306 2338
1089 2402 2498
1169 2450 2610
1201 2466 2706
1329 2626 2866
1409 2706 2962
1457 2754 3058
1537 2818 3154
737 2290 1665
705 2290 1729
769 2370 1889
737 2354 1953
801 2402 2050
913 2466 2194
929 2450 2258
961 2450 2306
1025 2482 2418
1073 2482 2466
1201 2562 2626
1281 2610 2754
1361 2706 2834
1425 2754 2930
1489 2802 3026
1553 2866 3106
1649 2946 3234
993 2562 1921
1073 2642 2082
1025 2626 2130
1041 2642 2226
1057 2642 2306
1105 2658 2402
1105 2642 2434
1137 2642 2498
1233 2674 2626
1265 2674 2674
1329 2722 2770
1409 2802 2882
1441 2786 2914
1489 2834 2978
1569 2914 3106
1649 2962 3170
1681 2978 3234
1265 2802 2210
1265 2802 2274
1265 2818 2338
1265 2818 2418
1281 2834 2498
1297 2834 2562
1329 2834 2626
1345 2818 2674
1361 2818 2738
1441 2866 2818
1441 2834 2834
1505 2914 2930
1553 2930 3010
1601 2962 3058
1633 2978 3122
1697 3042 3202
1761 3058 3250
1441 2962 2402
1441 2962 2434
1441 2962 2498
1457 2978 2594
1473 3010 2658
1521 3026 2738
1489 2978 2754
1521 3010 2818
1569 3026 2898
1553 3026 2898
1553 2978 2930
1585 3010 2978
1665 3042 3058
1697 3074 3106
1761 3090 3202
1793 3090 3218
1857 3154 3282
1585 3090 2562
1617 3106 2626
1681 3154 2706
1681 3170 2770
1665 3154 2802
1649 3154 2834
1633 3122 2866
1681 3170 2946
1681 3122 2962
1681 3122 2978
1729 3154 3042
1745 3154 3090
1793 3170 3154
1793 3122 3154
1889 3186 3250
1889 3170 3266
1985 3218 3346
192 240 288
176 240 288
208 256 320
208 256 336
192 256 352
208 272 416
208 288 464
192 320 512
208 368 640
224 448 833
208 496 993
208 576 1153
224 640 1313
336 753 1505
400 849 1681
496 945 1793
640 1073 1985
224 256 320
208 256 336
224 272 368
208 256 368
208 288 384
208 304 448
192 368 528
192 416 624
176 464 753
160 496 913
160 576 1073
256 689 1265
288 769 1425
384 865 1585
528 993 1745
656 1121 1953
753 1201 2066
224 288 352
224 272 352
224 288 384
224 336 416
224 352 464
208 384 512
208 432 608
192 464 689
192 528 865
208 608 1057
240 737 1201
272 801 1329
400 929 1537
496 1025 1697
576 1105 1825
769 1281 2033
849 1377 2162
224 304 368
208 336 384
224 368 432
208 400 480
192 400 496
192 432 576
208 496 705
192 560 817
176 608 945
224 753 1169
272 849 1313
320 929 1457
432 1041 1617
576 1153 1793
737 1313 1953
833 1409 2114
945 1553 2290
240 384 384
192 416 432
176 432 464
176 464 496
160 496 576
176 560 672
160 608 801
160 656 897
224 769 1089
240 849 1217
336 977 1425
400 1073 1553
512 1153 1681
640 1297 1857
817 1457 2082
897 1569 2210
1025 1713 2402
224 464 448
160 496 496
144 512 512
144 560 592
144 592 640
144 640 737
176 737 897
192 833 1041
224 897 1201
288 1025 1409
384 1105 1537
496 1233 1681
624 1345 1841
769 1521 2033
897 1665 2210
1041 1809 2434
1121 1873 2530
192 640 512
128 624 560
128 672 624
128 705 705
128 785 817
144 849 929
144 881 1025
192 977 1185
272 1105 1377
384 1217 1553
544 1345 1713
608 1409 1793
753 1569 2033
881 1697 2210
961 1793 2338
1105 1969 2514
1201 2130 2674
176 817 592
80 833 689
80 881 769
80 897 849
96 961 929
128 993 1057
240 1121 1265
240 1201 1377
352 1297 1537
496 1425 1681
656 1585 1889
737 1649 2017
849 1777 2178
993 1953 2402
1089 2017 2514
1233 2210 2706
1297 2290 2802
192 1057 737
112 1137 913
112 1169 993
96 1185 1041
128 1233 1185
176 1329 1345
256 1393 1457
368 1425 1569
496 1537 1697
689 1697 1921
737 1745 2033
849 1857 2178
977 2017 2370
1121 2146 2562
1201 2290 2706
1281 2338 2786
1393 2482 2930
432 1329 849
112 1441 1105
176 1489 1233
144 1521 1329
192 1537 1441
336 1617 1569
400 1665 1665
528 1681 1777
656 1793 1921
785 1905 2082
865 2001 2226
977 2114 2370
1089 2194 2514
1185 2306 2642
1265 2402 2770
1329 2466 2882
1473 2626 3042
592 1633 1057
256 1713 1361
304 1761 1441
368 1825 1569
352 1793 1617
464 1873 1729
608 1921 1889
721 2017 2033
849 2130 2178
897 2146 2258
993 2210 2402
1153 2338 2562
1217 2434 2658
1313 2514 2802
1377 2578 2914
1457 2674 3026
1569 2786 3122
769 1889 1217
608 2082 1585
608 2146 1665
608 2162 1777
640 2178 1873
785 2226 2050
849 2274 2114
913 2322 2210
961 2322 2306
1073 2402 2434
1153 2434 2530
1249 2530 2674
1329 2594 2786
1393 2642 2882
1457 2738 2978
1553 2786 3090
1633 2866 3186
1089 2274 1505
945 2418 1777
961 2434 1857
913 2450 1969
961 2482 2130
961 2450 2178
1009 2466 2274
1073 2482 2338
1105 2530 2450
1185 2514 2530
1297 2626 2674
1329 2642 2754
1377 2674 2818
1441 2754 2930
1537 2818 3042
1633 2882 3122
1681 2930 3202
1313 2530 1729
1121 2610 2001
1153 2658 2146
1201 2722 2290
1201 2722 2370
1169 2674 2402
1249 2722 2514
1281 2722 2578
1297 2706 2642
1329 2706 2674
1377 2754 2770
1457 2818 2882
1505 2834 2930
1569 2898 3026
1633 2946 3106
1713 2978 3186
1777 3026 3250
1521 2738 1921
1425 2786 2130
1441 2818 2226
1441 2882 2402
1393 2898 2562
1425 2898 2610
1409 2882 2642
1441 2882 2722
1473 2898 2786
1521 2930 2866
1505 2914 2882
1553 2914 2930
1585 2930 2978
1649 2962 3042
1713 3010 3122
1809 3074 3234
1857 3090 3282
1681 2898 2114
1649 2962 2306
1665 2978 2370
1633 3026 2498
1553 3010 2658
1585 3042 2754
1553 3026 2786
1585 3026 2818
1633 3042 2898
1649 3058 2930
1665 3042 2962
1681 3042 3010
1713 3058 3058
1761 3058 3106
1857 3106 3202
1873 3106 3234
1969 3170 3314
1905 3058 2338
1809 3106 2498
1873 3122 2562
1809 3170 2658
1777 3202 2866
1729 3170 2834
1793 3202 2930
1793 3202 2962
1793 3186 3010
1825 3186 3042
1841 3186 3074
1825 3170 3090
1889 3186 3170
1905 3186 3202
1969 3186 3234
2082 3250 3314
2066 3218 3330
224 256 320
240 256 336
240 256 352
224 256 352
240 256 384
240 256 416
240 288 496
256 304 544
256 320 640
272 416 849
256 496 993
304 608 1249
368 721 1441
416 817 1569
544 945 1745
672 1041 1889
817 1153 2066
272 288 352
272 272 368
288 288 384
256 272 400
272 304 448
272 320 496
256 384 592
256 384 640
304 496 865
304 528 993
304 656 1201
336 737 1361
400 833 1521
480 929 1665
640 1073 1825
801 1201 2017
913 1329 2178
384 352 416
384 336 432
416 352 496
384 336 496
336 352 512
304 368 560
288 448 705
256 512 833
256 576 961
240 640 1105
320 785 1313
400 881 1473
496 977 1617
640 1121 1793
753 1233 1921
881 1361 2130
993 1473 2258
400 384 448
384 400 496
416 416 528
384 416 560
368 448 608
336 480 656
320 528 785
256 608 945
240 689 1057
352 833 1249
368 913 1409
464 1009 1553
544 1089 1681
721 1249 1857
865 1409 2082
945 1505 2194
1105 1665 2418
496 480 512
320 464 496
288 480 528
272 496 576
256 528 656
272 608 753
256 656 897
272 753 1025
288 849 1185
336 929 1329
416 1025 1505
544 1153 1649
624 1249 1777
753 1377 1921
961 1585 2194
1041 1681 2354
1201 1873 2562
496 560 576
320 544 560
208 576 576
208 608 656
208 689 785
240 753 881
240 849 1009
256 881 1121
320 993 1329
400 1089 1457
544 1217 1633
608 1329 1761
753 1441 1921
929 1649 2178
977 1697 2290
1169 1921 2498
1249 2033 2642
384 656 560
288 640 624
192 753 721
240 801 817
224 849 897
208 929 1025
208 961 1137
336 1105 1329
448 1217 1505
496 1297 1617
608 1409 1745
737 1537 1921
849 1665 2114
1009 1809 2322
1121 1905 2466
1201 2066 2594
1329 2226 2770
400 881 608
256 913 721
144 961 849
144 977 929
144 1009 1025
256 1201 1249
256 1217 1345
400 1313 1505
528 1441 1665
656 1553 1825
737 1617 1953
849 1761 2130
993 1889 2322
1121 2050 2498
1217 2178 2626
1329 2306 2786
1377 2354 2882
448 1153 737
352 1249 881
160 1281 1089
176 1329 1169
256 1393 1329
352 1441 1441
416 1473 1553
544 1569 1697
624 1681 1841
769 1761 2001
849 1841 2146
977 2001 2322
1105 2114 2482
1185 2210 2610
1249 2306 2706
1377 2450 2882
1441 2498 2962
640 1409 849
448 1553 1121
256 1569 1329
320 1649 1441
384 1681 1553
464 1697 1649
528 1697 1729
689 1841 1905
769 1889 2033
865 1985 2162
993 2114 2338
1089 2178 2466
1201 2322 2626
1265 2370 2706
1377 2514 2834
1441 2578 2946
1553 2674 3090
865 1697 977
737 1777 1217
416 1873 1553
480 1905 1649
528 1921 1729
640 1953 1857
801 2082 2050
849 2114 2130
913 2146 2210
1057 2290 2402
1121 2306 2466
1201 2402 2594
1313 2482 2738
1377 2578 2866
1441 2642 2946
1553 2738 3058
1649 2802 3170
1153 2050 1217
961 2050 1409
785 2274 1825
801 2306 1953
849 2306 2017
913 2338 2130
961 2370 2210
1009 2370 2290
1089 2418 2402
1201 2482 2514
1265 2530 2626
1329 2594 2738
1393 2642 2802
1441 2706 2930
1553 2786 3042
1617 2818 3106
1713 2930 3218
1377 2306 1361
1249 2370 1617
1089 2498 1969
1041 2498 2033
1041 2514 2194
1089 2530 2290
1169 2594 2370
1201 2610 2466
1217 2594 2514
1297 2626 2610
1345 2658 2706
1441 2722 2818
1457 2754 2866
1553 2802 2978
1633 2866 3058
1697 2914 3170
1761 2962 3218
1553 2562 1553
1457 2578 1777
1297 2706 2130
1297 2722 2258
1329 2770 2434
1297 2738 2498
1329 2754 2578
1329 2754 2594
1409 2786 2706
1457 2818 2770
1505 2818 2834
1521 2834 2882
1601 2898 2962
1665 2914 3058
1697 2946 3090
1825 3026 3218
1873 3042 3266
1777 2754 1729
1761 2770 1953
1617 2898 2274
1569 2930 2418
1505 2914 2578
1505 2930 2642
1537 2946 2738
1537 2946 2770
1537 2930 2802
1601 2978 2898
1617 2962 2930
1617 2930 2930
1681 2962 3010
1729 3010 3074
1841 3058 3186
1889 3074 3218
1969 3106 3282
1985 2898 1889
2001 2946 2130
1905 2962 2306
1921 3042 2450
1761 3090 2658
1697 3106 2802
1745 3122 2882
1697 3074 2882
1761 3106 2946
1745 3074 2946
1793 3090 3010
1777 3074 3026
1793 3058 3058
1889 3090 3154
1969 3154 3218
2017 3154 3250
2066 3186 3314
2210 3058 2114
2226 3090 2338
2178 3106 2482
2194 3170 2610
2033 3218 2802
1857 3202 2898
1889 3218 2962
1921 3218 3010
1953 3218 3042
1953 3202 3058
1969 3202 3106
1969 3186 3106
2017 3202 3186
2082 3234 3218
2162 3250 3266
2210 3266 3346
2226 3266 3346
288 272 336
320 272 384
320 272 384
320 272 416
336 288 464
336 288 496
352 304 544
352 304 608
368 336 705
368 368 849
384 496 1089
384 608 1297
416 672 1441
560 817 1649
640 945 1793
737 1041 1921
929 1201 2130
416 352 416
416 320 432
416 304 448
432 304 496
384 320 512
384 336 560
352 336 608
384 400 737
416 448 881
464 528 1089
416 608 1265
480 817 1457
560 913 1633
608 1009 1729
801 1185 1969
897 1265 2082
