其他预设/【236】赛博朋克风调色预设/【后期菌】视频调色预设/3DL/Abandoned 05_S.3dl
# LUT by SparkleStock. Enhanced with VOXCOLOR algorithms.
0 64 128 192 256 320 384 448 512 576 640 704 768 832 896 960 1023
256 288 48
288 320 64
288 320 64
288 336 96
288 336 112
288 352 160
288 368 208
288 384 272
304 400 352
304 448 480
288 464 640
304 512 897
320 576 1073
336 624 1297
352 705 1537
352 817 1697
400 929 1873
288 336 64
288 336 80
288 352 96
288 352 112
288 352 144
288 368 192
288 384 240
288 416 320
288 448 416
288 480 608
304 528 785
288 560 977
320 624 1217
336 705 1441
352 817 1633
368 929 1809
400 1057 1985
288 352 80
272 352 96
272 352 112
304 384 160
304 400 208
288 384 224
304 432 320
304 464 400
288 480 496
272 512 705
272 560 881
304 640 1121
320 689 1313
336 817 1537
352 961 1777
384 1121 1969
400 1217 2130
304 368 112
288 368 128
288 384 160
288 416 208
288 432 256
288 448 304
288 480 368
288 496 464
272 528 640
288 640 881
304 672 1041
304 769 1281
320 865 1473
336 961 1681
352 1105 1889
400 1281 2130
432 1361 2226
288 400 144
304 432 192
304 448 224
288 448 256
288 464 288
304 528 384
288 528 432
272 576 624
288 640 817
304 721 1041
320 817 1249
320 929 1473
352 1057 1681
352 1169 1873
368 1297 2066
368 1393 2226
400 1505 2354
304 480 224
304 480 240
304 512 288
304 528 336
304 576 400
288 592 464
288 640 640
288 689 817
320 801 1041
320 897 1233
320 945 1393
352 1089 1633
352 1217 1825
352 1345 1985
384 1457 2178
400 1585 2322
432 1665 2418
304 592 304
304 608 352
320 640 400
304 640 432
304 689 544
288 705 640
304 801 881
320 897 1073
336 961 1233
336 1057 1425
336 1153 1633
352 1281 1841
352 1425 2017
352 1473 2130
384 1585 2258
432 1745 2418
448 1825 2530
304 721 400
320 785 512
320 801 576
320 849 672
320 881 785
320 897 913
336 977 1073
336 1041 1249
352 1153 1441
352 1265 1649
352 1361 1841
368 1489 2001
368 1553 2130
368 1665 2274
432 1793 2386
464 1873 2498
480 1937 2578
320 929 640
320 961 721
352 1025 865
352 1089 961
336 1073 1009
352 1185 1217
336 1217 1345
352 1329 1537
352 1345 1665
352 1489 1841
368 1585 2017
368 1665 2146
384 1761 2274
416 1841 2370
464 1905 2466
496 1969 2546
528 2017 2594
352 1169 913
352 1201 993
352 1265 1153
352 1329 1217
368 1393 1393
352 1377 1457
352 1473 1601
352 1505 1745
384 1601 1873
384 1649 1985
384 1713 2098
384 1809 2242
416 1873 2354
432 1937 2450
496 2017 2530
512 2066 2578
608 2146 2658
368 1425 1201
368 1489 1345
384 1553 1457
368 1569 1537
368 1601 1601
368 1633 1729
384 1649 1793
368 1729 1889
400 1761 2001
400 1841 2146
432 1905 2242
432 1985 2338
464 2050 2466
480 2033 2482
528 2130 2562
592 2178 2642
640 2242 2706
368 1697 1473
384 1713 1585
384 1761 1681
384 1761 1745
384 1793 1793
400 1841 1889
416 1889 1953
416 1921 2050
448 1969 2162
432 1953 2210
464 2033 2322
464 2066 2386
464 2098 2482
544 2178 2546
576 2242 2642
640 2258 2674
656 2322 2786
432 1889 1713
432 1889 1761
448 1937 1857
416 1937 1889
400 1985 1953
448 2017 2050
432 2017 2098
432 2017 2162
448 2066 2226
448 2050 2274
496 2146 2370
528 2194 2450
592 2226 2530
624 2258 2594
640 2306 2642
737 2354 2706
849 2450 2802
464 2033 1857
480 2130 1985
464 2114 2001
464 2130 2050
480 2162 2114
480 2178 2194
464 2178 2194
464 2178 2258
528 2210 2338
512 2226 2354
560 2226 2450
608 2290 2514
608 2274 2562
656 2322 2610
753 2386 2690
833 2450 2754
897 2498 2818
544 2258 1969
560 2274 2033
560 2290 2098
560 2290 2130
576 2290 2210
576 2290 2274
592 2290 2306
576 2306 2338
592 2306 2370
640 2354 2482
640 2338 2498
689 2354 2562
737 2418 2626
801 2450 2658
833 2482 2738
945 2546 2802
1025 2546 2818
672 2354 2146
672 2386 2146
721 2370 2226
737 2386 2274
753 2434 2338
785 2450 2418
753 2434 2418
753 2482 2450
849 2530 2530
833 2466 2546
801 2450 2562
849 2466 2610
913 2514 2674
961 2546 2706
1041 2578 2770
1121 2610 2818
1185 2658 2866
817 2466 2226
881 2514 2290
945 2562 2370
993 2578 2434
977 2578 2466
945 2562 2482
961 2562 2514
1041 2610 2562
1041 2594 2594
1025 2594 2610
1057 2610 2658
1089 2626 2690
1153 2642 2754
1137 2626 2754
1297 2706 2834
1281 2690 2834
1409 2770 2898
288 336 64
288 320 64
304 336 80
304 336 96
288 336 112
304 352 176
320 368 224
320 368 272
320 416 368
320 480 544
336 496 785
336 544 929
336 592 1105
352 640 1345
384 769 1569
400 849 1729
448 993 1937
304 352 80
304 336 96
320 352 112
304 352 128
304 352 160
320 368 208
320 400 272
304 448 368
304 464 480
304 496 656
320 544 849
336 624 1089
352 672 1281
352 769 1505
400 913 1729
432 1041 1921
448 1137 2050
320 352 112
304 352 112
304 352 128
320 384 176
320 400 224
320 416 256
320 448 352
304 480 432
304 528 640
320 592 849
320 640 1025
336 705 1217
352 801 1473
368 929 1665
400 1041 1825
464 1201 2050
480 1313 2194
320 368 144
320 384 160
320 416 192
320 432 240
320 448 272
320 464 336
320 528 448
304 560 608
304 576 753
336 689 1025
336 769 1217
336 833 1377
352 929 1569
368 1089 1809
416 1217 1985
448 1329 2162
480 1489 2290
320 416 176
320 448 224
304 448 240
320 480 288
304 512 352
320 576 448
304 608 592
288 640 721
320 721 961
320 769 1121
352 913 1393
352 977 1521
352 1089 1729
384 1233 1953
432 1377 2130
448 1473 2274
480 1585 2418
336 480 240
320 528 288
304 512 304
304 544 352
304 592 432
304 640 560
320 705 753
304 753 929
320 849 1121
352 945 1329
352 1041 1505
352 1185 1745
368 1297 1905
400 1425 2098
432 1537 2226
496 1697 2386
512 1761 2466
352 640 336
320 640 368
320 656 432
320 705 512
320 769 672
336 833 833
336 897 977
336 945 1137
352 1025 1329
368 1185 1553
368 1297 1793
368 1329 1857
400 1489 2098
416 1585 2226
416 1665 2322
496 1793 2450
544 1873 2562
352 785 432
320 833 560
336 849 640
320 881 753
352 929 881
336 945 993
352 1073 1217
352 1121 1345
352 1217 1553
352 1361 1777
400 1489 1953
384 1537 2050
400 1633 2194
448 1761 2354
480 1825 2418
560 1953 2546
592 2001 2626
384 977 624
368 1089 913
368 1105 961
352 1137 1025
368 1169 1153
368 1233 1313
368 1297 1457
352 1345 1585
368 1441 1777
400 1585 1953
400 1617 2033
416 1713 2178
448 1793 2306
496 1905 2418
544 1985 2514
560 2017 2562
640 2130 2674
448 1201 817
368 1281 1121
384 1345 1233
368 1393 1329
368 1425 1441
384 1489 1585
384 1521 1697
384 1569 1793
416 1649 1921
432 1713 2066
432 1793 2194
464 1857 2306
480 1921 2386
528 2001 2482
560 2050 2546
608 2114 2610
721 2226 2706
512 1457 1121
384 1537 1409
384 1569 1505
400 1633 1617
384 1633 1649
400 1665 1777
432 1713 1873
432 1793 1969
448 1857 2114
448 1873 2162
464 1937 2274
512 2017 2370
528 2050 2466
592 2130 2546
608 2162 2594
672 2242 2674
785 2322 2770
544 1665 1281
464 1793 1665
464 1793 1713
448 1809 1793
432 1857 1825
464 1889 1937
448 1921 1985
464 1953 2098
464 1969 2178
496 2017 2258
512 2050 2338
560 2130 2434
592 2194 2530
624 2210 2562
689 2290 2658
769 2338 2738
849 2418 2818
640 1905 1585
528 1937 1777
544 1969 1825
496 1969 1889
480 2033 1985
480 2001 2033
496 2033 2114
512 2066 2178
512 2098 2242
544 2130 2322
592 2194 2386
608 2210 2450
656 2242 2514
721 2290 2594
769 2338 2674
913 2434 2754
945 2466 2802
753 2130 1793
592 2114 1905
592 2146 1985
608 2210 2114
592 2226 2194
528 2194 2194
592 2242 2258
592 2242 2322
592 2226 2354
608 2258 2386
640 2274 2466
672 2338 2546
737 2338 2578
833 2386 2658
897 2450 2738
1025 2530 2786
1105 2578 2850
929 2306 1889
769 2290 1953
817 2338 2017
785 2354 2146
721 2370 2258
721 2354 2338
721 2354 2354
705 2370 2418
721 2386 2450
769 2418 2514
785 2418 2546
817 2386 2594
833 2434 2626
961 2482 2690
1025 2546 2770
1185 2626 2850
1265 2658 2866
1121 2450 2066
1025 2498 2114
1105 2498 2210
1025 2498 2258
913 2482 2370
929 2498 2450
929 2498 2466
929 2546 2498
961 2562 2546
1009 2546 2594
1009 2530 2626
1057 2562 2658
1105 2578 2706
1153 2594 2754
1265 2642 2818
1313 2690 2850
1393 2754 2914
1409 2642 2258
1297 2626 2306
1361 2658 2370
1265 2642 2386
1233 2658 2530
1185 2626 2514
1281 2690 2594
1265 2690 2610
1281 2690 2642
1313 2706 2674
1313 2706 2706
1297 2690 2738
1361 2738 2770
1393 2738 2802
1457 2770 2834
1601 2850 2914
1601 2818 2930
304 336 64
320 336 80
320 352 112
304 336 96
320 352 144
320 352 176
352 352 240
352 384 304
368 400 416
352 448 608
336 496 785
368 592 1041
368 640 1265
384 721 1441
432 833 1649
496 945 1841
528 1105 2017
336 352 112
336 352 128
336 352 144
320 352 160
352 384 208
352 384 256
352 416 320
336 432 384
352 496 608
352 528 737
352 608 977
352 640 1185
368 737 1377
384 849 1601
448 961 1793
496 1121 1985
544 1249 2162
384 416 176
384 400 176
416 416 224
400 416 224
368 416 240
352 416 288
352 480 416
336 528 544
336 560 705
320 608 881
352 689 1153
352 769 1377
384 865 1537
448 1057 1793
448 1153 1937
512 1281 2130
544 1409 2258
400 448 208
400 448 224
400 464 272
384 464 288
368 496 352
352 512 432
352 544 512
352 608 705
320 640 881
352 753 1105
352 801 1281
368 913 1505
384 993 1681
432 1169 1889
496 1345 2114
512 1425 2210
592 1601 2370
432 512 272
352 496 272
352 512 272
352 528 336
352 560 400
352 592 528
352 640 705
352 689 881
352 785 1073
352 849 1217
368 945 1425
384 1073 1665
400 1185 1825
432 1297 2001
512 1505 2210
528 1569 2354
608 1745 2514
416 560 320
352 544 304
336 576 352
352 640 448
352 721 592
352 769 753
352 801 897
336 865 1073
352 929 1217
368 1025 1393
384 1153 1665
384 1233 1825
432 1345 1969
464 1521 2210
496 1617 2274
576 1777 2450
624 1873 2530
400 640 352
368 640 400
352 737 528
352 801 656
352 849 785
352 929 929
352 929 1073
368 1057 1281
384 1169 1489
384 1217 1617
384 1329 1793
416 1457 1985
448 1553 2130
496 1697 2290
544 1793 2386
560 1857 2482
640 1969 2626
432 833 480
384 881 576
352 929 753
352 961 865
368 1009 961
384 1121 1185
368 1137 1281
384 1233 1489
400 1361 1713
416 1457 1873
416 1505 2001
448 1617 2146
496 1761 2290
528 1841 2418
592 1921 2482
640 2017 2578
672 2050 2674
480 1057 672
416 1137 849
384 1169 1073
384 1217 1137
384 1265 1281
400 1345 1441
384 1345 1537
416 1457 1729
416 1521 1841
432 1617 2001
432 1697 2114
480 1793 2258
544 1889 2370
560 1953 2450
592 2017 2514
672 2130 2626
721 2162 2690
560 1281 897
464 1377 1137
416 1441 1345
416 1505 1457
416 1505 1585
432 1537 1665
416 1585 1761
448 1665 1889
448 1697 1985
464 1761 2114
480 1857 2242
512 1905 2338
560 2001 2450
608 2050 2514
689 2162 2594
689 2194 2658
833 2290 2754
672 1537 1105
560 1553 1281
416 1649 1601
432 1681 1681
432 1713 1745
448 1745 1841
480 1793 1969
480 1841 2033
464 1873 2114
528 1969 2258
528 1985 2306
576 2050 2386
640 2130 2514
672 2194 2562
737 2242 2642
833 2322 2738
929 2370 2802
833 1825 1393
624 1761 1489
528 1873 1793
512 1889 1873
496 1921 1905
496 1969 1985
496 1985 2050
496 1985 2114
528 2033 2242
592 2098 2322
592 2130 2386
640 2178 2466
672 2242 2546
737 2258 2626
817 2322 2706
897 2386 2754
993 2482 2850
1009 2050 1569
801 2001 1713
640 2033 1905
592 2033 1953
560 2098 2033
560 2066 2114
576 2130 2194
592 2146 2258
592 2146 2306
624 2178 2354
672 2226 2450
737 2290 2514
801 2306 2578
881 2370 2658
929 2434 2738
1089 2498 2786
1153 2546 2834
1217 2274 1761
961 2194 1857
753 2210 2017
737 2210 2066
705 2258 2210
640 2242 2242
672 2290 2306
672 2258 2338
721 2306 2434
801 2354 2498
849 2354 2562
833 2370 2562
929 2434 2642
1041 2498 2706
1105 2530 2754
1249 2610 2834
1297 2658 2898
1377 2450 1857
1409 2498 2050
1057 2450 2114
1025 2450 2162
897 2434 2258
865 2418 2370
897 2450 2450
881 2466 2466
865 2450 2498
961 2514 2578
977 2498 2610
993 2482 2626
1057 2530 2674
1169 2562 2738
1281 2658 2818
1345 2674 2866
1457 2706 2898
1585 2578 2001
1681 2674 2162
1505 2626 2258
1473 2642 2338
1313 2626 2434
1185 2594 2498
1217 2626 2562
1169 2626 2546
1233 2674 2610
1217 2626 2626
1281 2658 2690
1281 2642 2706
1265 2642 2706
1393 2690 2802
1505 2770 2866
1521 2802 2898
1617 2834 2946
1793 2738 2114
1905 2802 2322
1793 2802 2418
1809 2834 2482
1649 2802 2562
1441 2738 2578
1457 2770 2626
1505 2786 2658
1585 2818 2738
1521 2786 2738
1601 2818 2770
1521 2786 2770
1633 2834 2834
1713 2882 2882
1777 2882 2914
1809 2914 2962
1825 2930 2962
352 352 112
352 352 128
352 352 144
368 368 176
384 384 224
384 368 256
416 400 304
400 400 368
432 416 496
400 432 656
416 512 913
432 576 1105
416 640 1281
480 737 1553
480 881 1713
528 945 1889
608 1153 2098
416 416 176
400 400 192
400 400 192
432 400 240
432 400 288
448 416 320
416 416 352
416 464 512
448 480 672
464 560 881
432 592 1057
416 721 1313
448 833 1505
464 913 1665
512 1073 1905
560 1201 2050
