其他预设/【236】赛博朋克风调色预设/【后期菌】视频调色预设/3DL/Abandoned 03.3dl
# LUT by SparkleStock. Enhanced with VOXCOLOR algorithms.
0 256 512 768 1023
48 48 48
64 64 64
96 80 176
176 96 1025
288 480 2466
80 64 80
96 80 128
176 176 560
176 624 2290
624 1985 3330
224 480 176
288 689 592
256 1313 1985
640 2642 3330
1569 3298 3731
689 3090 1505
721 3138 2674
961 3314 3330
1681 3507 3715
2722 3683 3843
2066 3779 3170
2466 3779 3491
2642 3731 3635
2914 3763 3779
3218 3795 3843
144 80 112
176 80 160
288 80 304
560 80 1361
1009 1009 2898
1233 256 352
1377 176 592
352 432 1537
576 1489 3010
1665 2882 3603
865 1281 144
480 1537 1505
656 2386 2898
1505 3138 3603
2690 3523 3795
3170 3378 737
1617 3443 2994
2001 3491 3539
2642 3587 3715
3202 3699 3811
3875 3843 1633
3715 3843 2738
3394 3795 3699
3410 3763 3763
3571 3811 3827
2210 128 272
2033 80 480
2017 64 785
2130 80 1425
2674 672 2530
3443 1121 1041
3330 1201 1937
3218 1297 2482
2898 1393 2882
3234 2978 3539
3186 2578 336
3603 2898 2066
3218 2674 3090
2722 3394 3667
3266 3603 3795
3923 3635 1297
3923 3699 1905
3186 3619 3507
3330 3635 3699
3523 3715 3795
4035 3971 2482
4019 3923 2930
3971 3907 3394
3763 3843 3811
3795 3843 3843
3507 881 1233
3394 849 1729
3314 1009 2386
3282 1249 2802
3330 1665 3106
3779 2594 2306
3619 2498 2834
3603 2578 3170
3619 2722 3362
3619 2834 3443
3939 3362 1073
3827 3427 2834
3763 3330 3394
3763 3394 3539
3731 3539 3715
4067 3843 2226
4003 3843 2770
3971 3811 3234
3811 3763 3683
3811 3811 3827
4035 4003 3010
4035 3971 3330
4067 3971 3571
4003 3939 3779
3923 3907 3843
3811 2370 2706
3779 2498 3090
3731 2594 3282
3731 2722 3394
3715 2818 3475
4019 3298 2594
3875 3282 3362
3843 3266 3475
3843 3314 3571
3811 3330 3619
4019 3699 1921
3987 3667 2914
3891 3603 3587
3875 3619 3667
3891 3667 3731
4035 3923 2802
4019 3907 3186
4067 3907 3427
3987 3875 3763
3987 3843 3827
4067 4003 3410
4035 3971 3667
4035 3987 3811
4003 3971 3875
3987 3971 3891
