其他预设/【236】赛博朋克风调色预设/【后期菌】视频调色预设/3DL/Abandoned 06.3dl
# LUT by SparkleStock. Enhanced with VOXCOLOR algorithms.
0 256 512 768 1023
208 432 16
240 432 80
272 480 288
304 560 913
400 689 1713
256 496 112
256 528 224
320 592 624
368 817 1521
592 1361 2130
384 753 432
384 849 753
464 1185 1521
640 1617 2130
897 1921 2498
705 1665 1585
753 1777 1921
833 1921 2242
1041 2130 2562
1489 2466 2898
1425 2418 2370
1649 2562 2594
1729 2610 2754
1905 2706 2930
2178 2834 3090
400 496 192
400 496 288
448 496 496
592 576 1233
865 929 2001
1105 785 512
1281 753 801
480 785 1233
640 1217 1905
1121 1825 2482
769 1185 785
592 1297 1393
737 1601 1937
993 1921 2434
1617 2386 2882
1969 2306 1729
1281 2130 2210
1377 2274 2498
1745 2498 2786
2242 2786 3074
2642 2850 2306
2770 2978 2642
2578 2962 3010
2594 2962 3074
2770 3074 3234
1617 721 512
1649 705 721
1665 672 1057
1889 672 1553
2402 865 2210
2370 1393 1121
2594 1345 1553
2674 1361 1905
2530 1377 2274
2690 2306 2930
2082 2066 1393
2690 2322 1873
2722 2306 2466
1985 2466 2802
2370 2738 3122
2690 2722 2082
2802 2786 2274
2466 2786 2850
2578 2882 3026
2770 2994 3202
3170 3138 2562
3250 3218 2706
3314 3266 2946
3250 3282 3282
3282 3314 3362
2530 1121 1025
2626 1073 1393
2738 1089 1745
2802 1089 2050
2930 1233 2386
2978 2130 1745
3058 2017 1953
3154 2050 2274
3202 2098 2562
3234 2130 2770
2722 2546 1761
3090 2690 2194
3266 2642 2546
3362 2738 2850
3427 2898 3170
3202 3010 2354
3234 3058 2482
3314 3122 2674
3362 3218 3154
3362 3298 3378
3507 3346 2754
3571 3427 2946
3651 3507 3138
3747 3619 3394
3683 3603 3571
3154 1825 1665
3234 1841 1953
3282 1841 2194
3330 1889 2498
3362 1905 2706
3250 2466 1905
3443 2482 2274
3459 2498 2498
3491 2546 2754
3507 2578 2978
3154 2850 2033
3266 2882 2242
3507 2930 2754
3571 2978 2962
3635 3026 3186
3475 3186 2450
3491 3218 2594
3555 3282 2770
3683 3459 3170
3811 3475 3459
3731 3539 3042
3795 3619 3250
3827 3667 3459
3907 3779 3651
3939 3827 3779
