其他预设/【236】赛博朋克风调色预设/【后期菌】视频调色预设/3DL/Abandoned 03.3dl
# LUT by SparkleStock. Enhanced with VOXCOLOR algorithms.
0 128 256 384 512 640 768 896 1023
48 48 48
48 48 48
64 64 64
80 64 96
96 80 176
144 80 416
176 96 1025
192 176 1825
288 480 2466
64 64 64
64 48 64
80 80 96
96 80 144
128 96 288
144 128 689
160 176 1441
192 496 2386
368 1089 2930
80 64 80
80 80 80
96 80 128
128 112 224
176 176 560
176 288 1313
176 624 2290
304 1265 2962
624 1985 3330
112 144 96
144 176 144
160 208 256
208 288 560
208 512 1233
176 849 2114
288 1489 2914
544 2210 3314
1105 2882 3603
224 480 176
288 624 352
288 689 592
288 1009 1217
256 1313 1985
352 2017 2898
640 2642 3330
1105 3074 3603
1569 3298 3731
480 1569 512
480 1921 1009
432 2082 1521
400 2242 2242
448 2562 2898
721 2978 3314
1185 3282 3603
1601 3410 3731
2210 3539 3811
689 3090 1505
721 3170 2194
721 3138 2674
801 3218 3042
961 3314 3330
1313 3443 3571
1681 3507 3715
2210 3587 3795
2722 3683 3843
1233 3619 2722
1313 3603 3042
1441 3603 3282
1569 3603 3443
1729 3587 3587
1985 3619 3683
2338 3667 3763
2674 3683 3795
2930 3715 3827
2066 3779 3170
2338 3779 3394
2466 3779 3491
2498 3731 3539
2642 3731 3635
2786 3731 3715
2914 3763 3779
3106 3779 3811
3218 3795 3843
64 64 80
80 80 80
80 80 96
80 80 128
144 80 224
176 80 560
224 112 1377
288 304 2194
512 737 2690
144 96 112
160 96 144
128 80 144
144 96 256
176 128 512
208 176 1201
224 352 2017
368 881 2722
721 1537 3186
208 128 144
128 96 144
144 128 224
192 160 464
208 256 993
208 464 1729
272 961 2610
608 1697 3202
1201 2626 3523
192 176 144
192 240 256
224 320 416
240 464 881
272 833 1681
288 1265 2514
496 1937 3122
977 2674 3491
1601 3170 3699
352 656 144
352 929 576
352 1137 1041
352 1313 1697
368 1825 2530
560 2386 3106
1041 2962 3507
1457 3202 3667
2114 3427 3763
897 2033 144
544 2290 1393
528 2466 1985
608 2706 2770
737 2914 3122
1089 3138 3443
1585 3378 3667
2098 3491 3763
2690 3603 3811
1553 3170 560
1025 3282 2226
1025 3282 2898
1185 3362 3218
1345 3378 3427
1681 3475 3603
2114 3539 3699
2610 3603 3795
2930 3667 3811
2562 3619 1153
1985 3667 2674
2001 3619 3298
2226 3667 3507
2274 3635 3603
2530 3667 3683
2690 3667 3731
2994 3715 3795
3186 3731 3811
3378 3827 1729
3090 3827 2626
3010 3795 3378
2994 3779 3587
3074 3779 3667
3106 3763 3699
3186 3763 3763
3314 3779 3795
3378 3779 3811
144 80 112
144 80 128
176 80 160
192 80 192
288 80 304
368 80 672
560 80 1361
640 304 2210
1009 1009 2898
496 112 208
544 128 256
560 112 288
528 128 432
544 112 705
576 160 1377
480 608 2434
721 1265 3026
1233 2098 3394
1233 256 352
1617 208 512
1377 176 592
576 240 833
352 432 1537
336 817 2322
576 1489 3010
1057 2290 3394
1665 2882 3603
1057 496 320
833 480 560
480 480 833
528 753 1537
416 1169 2226
512 1713 2898
913 2466 3362
1505 2994 3603
2130 3282 3715
865 1281 144
721 1249 416
480 1537 1505
496 1809 2210
656 2386 2898
993 2818 3362
1505 3138 3603
2098 3378 3731
2690 3523 3795
2001 2722 352
1505 2834 705
753 2802 2530
945 3026 3074
1201 3138 3330
1553 3298 3571
2162 3443 3715
2642 3571 3779
2962 3619 3795
3170 3378 737
2594 3410 1089
1617 3443 2994
1665 3410 3282
2001 3491 3539
2274 3507 3619
2642 3587 3715
2962 3635 3779
3202 3699 3811
3667 3699 1233
3491 3731 1665
2882 3683 2882
2722 3683 3475
2834 3683 3603
2882 3667 3667
3026 3683 3715
3266 3715 3779
3378 3731 3811
3875 3843 1633
3843 3875 2162
3715 3843 2738
3394 3795 3475
3394 3795 3699
3410 3779 3731
3410 3763 3763
3507 3795 3795
3571 3811 3827
624 96 192
624 96 224
689 96 288
672 80 352
769 64 464
977 64 753
1409 64 1313
1697 144 1809
1633 865 2786
1905 160 320
1825 144 416
1889 144 592
1889 112 721
1905 144 1041
1585 144 1393
1585 464 2242
1889 1233 2962
2210 2130 3362
2770 528 528
2914 496 945
2738 480 1169
2642 496 1393
1825 400 1585
1793 705 2306
1985 1553 3042
1697 2674 3507
2194 3026 3635
2834 1105 416
3218 1329 1057
3202 1313 1825
2834 1089 2017
1329 1537 2706
1137 2274 3202
1441 2834 3491
2130 3218 3683
2594 3362 3715
2194 1985 208
2098 1985 480
1681 1777 1313
1041 2098 2578
1393 2594 3090
1537 3042 3475
2082 3314 3667
2642 3475 3763
2978 3571 3779
3106 3010 496
3186 3026 640
2594 3170 1441
1441 3138 3202
1665 3234 3410
2178 3394 3603
2626 3507 3699
2930 3587 3763
3186 3635 3795
3667 3507 961
3715 3603 1249
3523 3619 1841
2514 3539 3362
2530 3539 3491
2738 3571 3619
3010 3603 3699
3266 3683 3779
3378 3699 3795
3907 3795 1537
3907 3795 1729
3779 3795 2418
3410 3763 3298
3314 3715 3491
3266 3699 3667
3330 3699 3699
3475 3731 3779
3523 3763 3795
4003 3923 2114
4003 3923 2434
3971 3907 2722
3907 3907 3106
3635 3811 3603
3571 3795 3715
3619 3827 3795
3635 3827 3811
3635 3811 3827
2210 128 272
2162 96 352
2033 80 480
2017 80 608
2017 64 785
2178 80 1169
2130 80 1425
2434 288 2033
2674 672 2530
3122 432 624
3074 416 849
3026 416 1105
2898 368 1313
2818 400 1585
2802 448 1905
2866 672 2322
2866 881 2610
3042 1473 3026
3443 1121 1041
3410 1169 1617
3330 1201 1937
3282 1201 2226
3218 1297 2482
3122 1233 2594
2898 1393 2882
3074 2322 3330
3234 2978 3539
3523 1825 785
3571 2130 1649
3475 2082 2578
3314 1937 2642
3266 1937 2786
3042 1985 3010
3106 2578 3330
3298 3218 3619
3090 3475 3731
3186 2578 336
3378 2674 560
3603 2898 2066
3491 2786 2930
3218 2674 3090
2738 3106 3443
2722 3394 3667
3026 3539 3763
3266 3603 3795
3667 3282 753
3715 3378 1041
3715 3410 1377
3443 3314 2594
2786 3330 3427
3026 3443 3539
3026 3539 3683
3266 3619 3763
3394 3667 3779
3923 3635 1297
3939 3699 1569
3923 3699 1905
3731 3667 2610
3186 3619 3507
3186 3619 3619
3330 3635 3699
3475 3699 3763
3523 3715 3795
4019 3875 1921
4003 3875 2194
4003 3891 2578
3939 3875 2834
3699 3779 3491
3523 3731 3667
3587 3779 3763
3619 3779 3795
3635 3795 3827
4035 3971 2482
4035 3939 2706
4019 3923 2930
4019 3939 3202
3971 3907 3394
3779 3843 3699
3763 3843 3811
3763 3827 3811
3795 3843 3843
3202 304 544
3122 288 721
3074 288 961
2994 288 1185
2962 320 1473
2898 384 1777
2898 480 2114
2930 672 2434
3042 1041 2770
3507 1025 1313
3491 1041 1617
3410 1073 1873
3298 993 2066
3218 1041 2338
3202 1105 2562
3170 1201 2722
3234 1473 2978
3362 1921 3186
3667 1873 1617
3539 1777 2226
3507 1889 2514
3443 1937 2738
3410 1873 2866
3410 2033 3026
3410 2098 3122
3410 2226 3218
3491 2578 3394
3795 2610 1345
3699 2722 2274
3603 2626 2834
3571 2610 2978
3587 2722 3138
3571 2722 3218
3539 2786 3362
3507 2978 3491
3571 3314 3635
3699 3026 624
3795 3202 1041
3763 3218 2418
3667 3138 3122
3603 3090 3234
3619 3170 3378
3523 3234 3507
3603 3475 3683
3667 3603 3763
3939 3507 1169
3971 3587 1489
3923 3587 1809
3875 3571 2738
3811 3539 3138
3571 3491 3539
3410 3587 3667
3475 3635 3731
3587 3699 3795
4035 3779 1761
4019 3811 2082
4019 3811 2402
3971 3795 2722
3843 3731 3234
3571 3683 3619
3587 3683 3699
3603 3715 3779
3683 3763 3811
4067 3907 2290
4035 3907 2578
4019 3907 2882
4035 3907 3122
3971 3875 3362
3795 3811 3635
3715 3779 3731
3779 3827 3811
3795 3827 3827
4067 3971 2770
4035 3971 2978
4019 3971 3122
4035 3971 3282
4035 3939 3410
4003 3923 3603
3875 3891 3763
3875 3891 3827
3875 3891 3843
3507 881 1233
3443 833 1457
3394 849 1729
3314 881 2017
3314 1009 2386
3282 1089 2578
3282 1249 2802
3282 1377 2914
3330 1665 3106
3683 1729 2082
3619 1713 2290
3571 1809 2578
3523 1841 2770
3475 1825 2882
3443 1841 2994
3443 1985 3122
3475 2178 3234
3475 2274 3298
3779 2594 2306
3699 2594 2802
3619 2498 2834
3619 2594 3074
3603 2578 3170
3619 2642 3266
3619 2722 3362
3619 2770 3410
3619 2834 3443
3923 3074 1921
3795 3074 2642
3731 3074 3122
3715 3074 3218
3699 3026 3298
3715 3090 3378
3699 3122 3443
3699 3186 3523
3699 3202 3571
3939 3362 1073
3971 3443 1457
3827 3427 2834
3779 3378 3330
3763 3330 3394
3779 3394 3491
3763 3394 3539
3731 3410 3603
3731 3539 3715
4035 3667 1553
4019 3731 2001
4003 3763 2402
3939 3683 2978
3907 3667 3234
3779 3539 3539
3779 3571 3603
3763 3619 3699
3795 3715 3795
4067 3843 2226
4035 3875 2562
4003 3843 2770
4003 3843 2994
3971 3811 3234
3939 3811 3491
3811 3763 3683
3763 3731 3763
3811 3811 3827
4095 3939 2690
4035 3939 2930
4035 3923 3170
4019 3907 3266
4019 3907 3362
3939 3875 3571
3875 3827 3715
3875 3843 3795
3843 3843 3827
4035 4003 3010
4035 3987 3186
4035 3971 3330
4035 3971 3427
4067 3971 3571
4019 3971 3683
4003 3939 3779
3923 3891 3827
3923 3907 3843
3683 1553 2033
3635 1585 2322
3603 1681 2594
3571 1713 2786
3539 1809 2914
3523 1873 3026
3587 2130 3218
3603 2274 3298
3619 2402 3362
3827 2562 2738
3763 2562 2914
3699 2482 2930
3683 2514 3122
3699 2594 3234
3683 2594 3314
3683 2706 3378
3683 2770 3427
3683 2834 3475
3939 3042 2482
3827 3010 3106
3795 3010 3186
3763 2994 3234
3779 3042 3378
3763 3042 3427
3763 3106 3491
3779 3170 3571
3763 3170 3587
4003 3378 2402
3939 3394 2978
3843 3330 3234
3795 3282 3362
3811 3298 3427
3811 3314 3507
3779 3298 3523
3827 3394 3619
3811 3394 3635
4035 3603 1553
4019 3635 1985
3939 3587 2866
3843 3507 3427
3843 3491 3507
3875 3523 3571
3827 3507 3603
3827 3539 3667
3843 3603 3715
4035 3779 2082
4019 3795 2418
4019 3795 2674
3971 3715 3138
3971 3763 3330
3875 3667 3619
3875 3683 3683
3875 3699 3715
3891 3731 3779
4095 3907 2578
4035 3907 2818
4019 3907 3026
4019 3891 3218
4019 3891 3314
4003 3875 3539
3939 3811 3715
3923 3795 3763
3891 3811 3811
4035 3987 3026
4035 3971 3218
4067 3971 3362
4035 3923 3443
4035 3923 3539
4019 3923 3619
3987 3907 3715
3971 3907 3811
3923 3891 3843
4095 4019 3218
4095 3987 3362
4095 3987 3491
4035 3971 3603
4035 3971 3715
4035 3971 3779
4003 3939 3811
4003 3971 3875
3971 3939 3875
3811 2370 2706
3779 2434 2962
3779 2498 3090
3731 2482 3170
3731 2594 3282
3715 2610 3330
3731 2722 3394
3699 2706 3410
3715 2818 3475
3907 2962 3026
3875 2962 3138
3843 2962 3234
3843 3010 3362
3795 3010 3394
3779 2994 3427
3779 3074 3491
3763 3074 3523
3779 3106 3571
4019 3298 2594
3923 3330 3314
3875 3282 3362
3875 3282 3427
3843 3266 3475
3827 3266 3523
3843 3314 3571
3827 3314 3603
3811 3330 3619
4019 3475 1489
4035 3523 2978
3923 3523 3394
3907 3475 3507
3891 3443 3539
3891 3491 3587
3843 3475 3603
3891 3523 3683
3843 3507 3683
4019 3699 1921
4003 3699 2290
3987 3667 2914
3971 3683 3410
3891 3603 3587
3891 3619 3619
3875 3619 3667
3875 3619 3699
3891 3667 3731
4035 3827 2466
4035 3827 2690
4035 3843 2930
4019 3827 3218
3987 3779 3394
3939 3779 3699
3907 3715 3699
3907 3715 3715
3923 3763 3779
4035 3923 2802
4035 3939 3042
4019 3907 3186
4067 3923 3314
4067 3907 3427
4019 3891 3603
3987 3875 3763
3971 3827 3795
3987 3843 3827
4067 3987 3138
4067 3987 3314
4095 3971 3443
4095 3987 3571
4019 3923 3603
4019 3923 3699
4019 3939 3779
4003 3939 3827
4003 3923 3875
4067 4003 3410
4067 3987 3571
4035 3971 3667
4035 3987 3763
4035 3987 3811
4003 3971 3827
4003 3971 3875
3987 3971 3875
3987 3971 3891
