其他预设/【236】赛博朋克风调色预设/【后期菌】视频调色预设/3DL/Abandoned 08.3dl
# LUT by SparkleStock. Enhanced with VOXCOLOR algorithms.
0 256 512 768 1023
80 80 80
160 144 192
352 352 544
737 801 1297
1201 1281 1873
192 336 240
208 448 432
496 817 977
865 1281 1617
1329 1761 2114
432 1297 945
288 1553 1265
576 1553 1569
993 1841 2017
1457 2178 2386
624 2402 1793
528 2530 2146
769 2418 2274
1281 2434 2466
1777 2610 2722
1681 2866 2434
1713 2994 2642
1777 2978 2770
1921 2914 2834
2226 2882 2930
849 368 352
881 400 480
1137 528 817
1617 961 1505
1857 1617 2210
1793 1185 977
1809 1153 1297
1249 1329 1505
1473 1713 2017
1921 2178 2482
1857 1665 672
913 1873 1617
1217 1969 1953
1617 2178 2306
2050 2482 2674
2674 2354 1073
1729 2578 2290
1649 2626 2498
2001 2626 2642
2354 2770 2866
2978 2834 1649
2802 2930 2338
2450 3026 2866
2450 3010 2946
2642 3010 3026
1969 1089 1121
1985 1041 1281
2082 1025 1457
2194 1073 1665
2498 1409 2114
2530 1841 1649
2562 1825 1985
2610 1841 2162
2546 1825 2258
2738 2402 2802
2498 1905 945
2658 2290 2001
2578 2290 2402
2258 2498 2642
2498 2738 2882
2866 2530 1473
2882 2674 1889
2434 2802 2674
2466 2818 2818
2690 2882 2962
3170 3042 2226
3170 3106 2482
3106 3138 2770
2866 3154 3074
2946 3138 3138
2642 1761 1809
2674 1729 2001
2770 1745 2162
2786 1713 2258
2850 1777 2434
2866 2338 2210
2834 2242 2338
2914 2290 2498
2946 2354 2642
2978 2370 2738
2834 2338 1473
2930 2610 2370
2930 2626 2674
2978 2690 2818
3026 2818 3026
3122 2834 2114
3074 2882 2338
3058 2914 2610
2962 2994 2946
3026 3074 3154
3298 3170 2610
3314 3234 2818
3330 3282 2978
3298 3298 3170
3170 3282 3282
3026 2290 2386
3058 2274 2498
3074 2274 2610
3122 2306 2690
3106 2274 2754
3106 2610 2354
3154 2658 2738
3154 2658 2802
3170 2658 2882
3154 2658 2946
3122 2658 1969
3122 2786 2418
3122 2850 2882
3154 2882 2978
3218 2962 3106
3282 3010 2530
3218 3026 2642
3202 3042 2770
3282 3170 3106
3330 3218 3282
3378 3298 2946
3378 3330 3074
3346 3314 3170
3378 3362 3298
3378 3378 3378
