其他预设/【236】赛博朋克风调色预设/【后期菌】视频调色预设/3DL/Abandoned 08_S.3dl
# LUT by SparkleStock. Enhanced with VOXCOLOR algorithms.
0 64 128 192 256 320 384 448 512 576 640 704 768 832 896 960 1023
80 80 80
112 112 96
112 96 96
144 128 160
160 144 192
192 192 240
208 208 304
272 256 400
352 352 544
432 464 737
512 544 897
624 672 1121
737 801 1297
833 897 1441
961 1025 1601
1057 1153 1745
1201 1281 1873
112 112 112
112 128 128
144 144 160
160 160 192
176 192 224
192 208 288
224 240 352
320 352 512
384 432 656
480 528 817
560 672 1025
640 753 1185
753 865 1361
833 1009 1505
977 1137 1681
1073 1265 1793
1185 1377 1905
144 160 144
128 160 144
128 176 176
176 208 224
192 240 288
192 256 336
304 352 512
352 448 592
400 512 721
512 624 913
576 737 1089
672 865 1281
769 977 1409
865 1137 1601
977 1265 1729
1121 1409 1857
1233 1505 2001
160 208 176
144 208 192
176 240 224
192 288 288
192 352 352
256 400 464
304 448 544
368 512 672
464 624 833
560 785 1057
624 881 1185
705 1009 1345
785 1121 1473
913 1233 1649
1009 1361 1777
1185 1537 1953
1297 1617 2050
192 336 240
192 368 304
192 400 352
192 432 368
208 448 432
288 528 560
320 544 624
400 672 801
496 817 977
576 929 1153
672 1025 1297
753 1137 1457
865 1281 1617
961 1361 1729
1073 1521 1857
1137 1585 2001
1297 1745 2162
208 544 368
208 544 400
240 624 480
240 640 528
272 721 640
304 737 705
368 817 849
448 865 977
512 1025 1137
592 1105 1281
672 1153 1377
817 1297 1553
881 1393 1665
977 1505 1777
1089 1617 1905
1233 1761 2066
1313 1825 2162
304 769 528
288 817 624
288 913 705
272 945 753
304 961 817
320 993 913
352 1105 1057
432 1169 1185
544 1201 1297
624 1249 1393
753 1313 1537
833 1457 1665
929 1553 1777
993 1617 1857
1105 1729 2001
1265 1841 2114
1329 1969 2274
368 993 721
352 1121 817
336 1153 881
304 1265 993
304 1265 1041
304 1297 1137
384 1313 1217
464 1345 1313
544 1393 1441
656 1409 1553
737 1505 1665
817 1617 1777
897 1649 1857
1009 1777 2001
1185 1889 2114
1297 2001 2242
1393 2050 2354
432 1297 945
384 1393 1041
336 1489 1137
320 1537 1201
288 1553 1265
352 1585 1377
368 1585 1441
496 1617 1537
576 1553 1569
672 1681 1729
817 1729 1809
865 1777 1889
993 1841 2017
1121 1953 2114
1233 2017 2210
1345 2114 2306
1457 2178 2386
480 1569 1153
384 1633 1233
352 1745 1345
320 1793 1409
320 1873 1553
320 1841 1569
400 1825 1649
512 1793 1729
576 1825 1777
705 1857 1857
753 1841 1905
881 1905 2033
993 2001 2146
1121 2050 2226
1297 2162 2306
1361 2194 2370
1537 2290 2482
464 1857 1377
368 2001 1505
368 2082 1601
320 2082 1665
336 2114 1745
384 2098 1793
432 2066 1841
512 2066 1905
592 2017 1953
737 2050 2033
817 2066 2098
945 2114 2210
1057 2178 2290
1153 2194 2306
1297 2258 2402
1457 2338 2482
1585 2402 2562
512 2162 1569
480 2226 1665
400 2338 1793
352 2306 1841
368 2338 1905
432 2338 2001
528 2306 2050
592 2258 2082
705 2258 2162
737 2210 2162
881 2258 2258
1009 2274 2306
1057 2258 2354
1281 2354 2434
1377 2386 2530
1521 2450 2578
1617 2482 2658
624 2402 1793
560 2466 1889
576 2546 2017
512 2530 2066
512 2546 2098
608 2546 2226
608 2482 2226
689 2418 2226
769 2418 2274
785 2386 2274
977 2402 2370
1121 2434 2418
1281 2434 2466
1393 2466 2530
1505 2498 2578
1649 2562 2642
1777 2610 2722
769 2578 2001
817 2674 2162
721 2674 2194
753 2690 2242
737 2690 2290
817 2658 2354
785 2642 2338
817 2578 2370
1025 2578 2434
1009 2562 2434
1169 2530 2466
1265 2594 2546
1345 2546 2546
1473 2562 2594
1633 2610 2658
1777 2642 2722
1809 2674 2770
1137 2738 2162
1105 2770 2210
1057 2818 2290
1041 2818 2354
1089 2834 2402
1105 2818 2450
1153 2786 2482
1185 2770 2498
1233 2738 2530
1345 2738 2578
1361 2674 2578
1489 2674 2610
1537 2722 2642
1633 2722 2674
1713 2722 2722
1809 2738 2786
1953 2738 2786
1441 2802 2354
1377 2834 2338
1393 2866 2450
1441 2914 2498
1457 2930 2562
1489 2946 2610
1457 2882 2594
1457 2914 2610
1553 2914 2658
1585 2850 2658
1617 2786 2658
1649 2786 2674
1761 2802 2738
1825 2802 2770
1953 2802 2802
1921 2802 2834
2017 2818 2866
1681 2866 2434
1665 2930 2498
1713 2946 2562
1745 2994 2610
1713 2994 2642
1681 2994 2658
1697 2978 2674
1777 2994 2738
1777 2978 2770
1777 2946 2770
1809 2930 2802
1857 2930 2818
1921 2914 2834
1969 2866 2834
2082 2914 2882
2098 2866 2866
2226 2882 2930
160 112 112
176 112 128
208 160 176
224 160 176
224 160 192
320 208 272
352 256 352
400 304 432
480 368 560
560 512 801
689 656 993
737 721 1137
817 817 1297
945 977 1473
1089 1137 1681
1185 1217 1793
1329 1361 1953
272 176 160
288 176 160
304 192 192
288 192 192
304 208 256
352 256 336
368 352 464
400 432 592
448 512 721
544 608 897
656 721 1105
785 865 1297
849 977 1425
993 1121 1617
1121 1249 1761
1281 1393 1905
1361 1489 2033
304 208 176
288 192 176
288 208 192
352 272 272
368 336 352
416 368 448
384 448 576
400 496 656
528 624 865
640 769 1073
721 865 1217
785 977 1345
913 1121 1537
1025 1249 1697
1137 1361 1793
1297 1505 2001
1393 1601 2082
320 256 192
304 288 224
352 352 304
352 368 352
336 416 432
352 448 512
448 560 689
480 672 801
544 737 961
689 913 1185
769 1009 1297
817 1105 1457
929 1233 1601
1025 1345 1745
1217 1505 1889
1297 1601 2017
1425 1729 2146
368 368 272
304 448 352
288 448 368
288 512 448
320 544 528
368 640 672
432 737 817
480 785 897
592 929 1105
672 1009 1217
817 1169 1441
865 1217 1537
945 1329 1649
1057 1473 1793
1265 1617 1969
1313 1697 2114
1409 1809 2226
416 528 352
352 624 480
320 624 512
336 705 608
336 817 705
368 833 817
448 945 961
496 977 1041
624 1073 1217
737 1185 1377
801 1265 1473
897 1361 1617
1009 1473 1745
1137 1617 1873
1265 1745 2033
1425 1857 2194
1457 1921 2242
544 881 576
352 881 672
352 945 737
368 1009 817
384 1089 945
368 1169 1041
432 1185 1137
528 1217 1249
672 1297 1377
769 1377 1505
865 1473 1633
929 1505 1697
1073 1633 1841
1201 1745 2001
1249 1793 2066
1409 1969 2210
1489 2050 2370
640 1105 737
432 1185 865
368 1249 977
352 1281 1025
336 1361 1121
368 1345 1169
528 1409 1329
544 1425 1393
656 1457 1505
753 1553 1649
897 1633 1777
961 1681 1841
1041 1777 1969
1217 1873 2098
1297 1969 2178
1489 2098 2338
1537 2162 2434
705 1313 929
512 1489 1137
496 1537 1217
384 1601 1265
416 1617 1345
448 1649 1457
512 1665 1521
624 1617 1585
705 1665 1681
817 1761 1793
897 1761 1857
993 1841 1969
1137 1905 2066
1281 2033 2210
1393 2146 2306
1473 2178 2370
1649 2290 2482
961 1537 1025
512 1729 1313
512 1841 1457
432 1873 1473
432 1905 1585
512 1905 1681
560 1873 1745
608 1873 1777
705 1857 1841
865 1905 1953
945 1953 2017
1057 2033 2114
1169 2066 2210
1297 2114 2274
1425 2194 2354
1553 2258 2434
1713 2386 2562
1089 1745 1217
528 2017 1537
480 2098 1633
496 2194 1761
432 2146 1777
448 2162 1825
576 2114 1905
656 2098 1969
785 2146 2066
849 2114 2082
977 2146 2162
1121 2194 2258
1233 2226 2338
1409 2290 2402
1489 2338 2466
1633 2402 2562
1777 2482 2626
1233 1905 1329
769 2258 1761
672 2338 1825
560 2402 1921
544 2386 1969
608 2386 2066
656 2354 2082
753 2306 2146
849 2258 2178
977 2290 2242
1089 2290 2290
1233 2338 2370
1313 2370 2434
1457 2402 2466
1569 2450 2578
1729 2498 2626
1809 2562 2738
1489 2146 1585
1073 2386 1873
1041 2434 1969
881 2530 2066
753 2578 2162
785 2530 2210
833 2498 2242
929 2466 2274
977 2450 2306
1137 2418 2354
1281 2466 2418
1313 2466 2434
1441 2466 2482
1553 2498 2562
1697 2546 2626
1825 2578 2674
1921 2626 2738
1665 2306 1777
1185 2546 2050
1169 2626 2162
1169 2722 2290
1073 2738 2370
1025 2674 2354
1137 2690 2418
1201 2658 2450
1217 2610 2450
1281 2594 2466
1361 2594 2530
1457 2610 2578
1569 2610 2594
1713 2626 2642
1777 2626 2674
1953 2674 2754
1985 2722 2802
1809 2466 1889
1729 2530 2082
1713 2610 2194
1537 2754 2306
1361 2866 2450
1425 2834 2530
1377 2818 2546
1409 2802 2546
1441 2802 2578
1505 2786 2594
1521 2754 2610
1617 2690 2626
1649 2722 2642
1793 2722 2690
1857 2738 2754
2017 2786 2834
2146 2786 2834
2001 2578 2082
1953 2642 2226
2017 2658 2354
1873 2770 2418
1617 2914 2562
1665 2930 2610
1633 2914 2626
1633 2930 2642
1697 2914 2674
1777 2882 2738
1777 2834 2738
1809 2834 2754
1889 2818 2770
1985 2818 2786
2082 2834 2834
2082 2834 2850
2194 2850 2914
2210 2690 2258
2194 2754 2418
2226 2786 2466
2098 2834 2530
1953 2978 2658
1873 2962 2658
1905 3010 2754
1905 3010 2770
1921 2994 2786
1969 2994 2818
2017 2978 2834
2017 2946 2818
2066 2946 2866
2114 2930 2882
2178 2930 2882
2338 2930 2946
2354 2914 2946
304 176 144
304 192 160
320 192 192
304 176 192
384 208 240
416 224 304
512 272 368
544 336 480
656 368 576
737 528 817
769 656 993
929 817 1249
1009 945 1425
1073 1057 1585
1249 1217 1777
1393 1329 1889
1489 1457 2033
480 256 208
464 256 224
496 256 256
464 256 272
496 304 336
544 352 400
528 400 512
560 448 592
753 624 849
801 689 993
817 817 1201
929 929 1361
1025 1057 1521
1121 1201 1681
1297 1345 1841
1409 1473 2001
1505 1617 2146
737 400 336
769 400 352
801 432 432
737 400 416
640 400 448
592 416 496
640 512 656
624 624 801
672 721 961
705 817 1105
849 961 1297
929 1089 1489
1057 1217 1633
1217 1393 1793
1297 1473 1921
1441 1617 2066
1537 1713 2194
801 480 400
737 480 416
801 512 496
737 512 512
672 528 592
672 576 672
689 672 817
656 769 945
689 833 1073
817 1009 1281
865 1105 1409
945 1217 1537
1057 1313 1681
1201 1473 1841
1409 1633 2050
1457 1697 2114
1617 1841 2274
929 624 512
608 528 432
592 544 464
560 576 528
560 672 672
576 753 801
624 817 913
689 945 1073
753 1025 1217
801 1121 1329
881 1217 1473
993 1345 1633
1121 1457 1761
1233 1569 1873
1393 1729 2066
1473 1809 2226
1617 1969 2370
977 737 576
672 672 528
512 769 608
512 817 705
512 961 849
528 993 977
592 1057 1089
608 1121 1169
785 1217 1329
817 1265 1441
961 1377 1601
1057 1473 1713
1169 1585 1825
1329 1761 2033
1393 1793 2082
1553 1985 2258
1681 2082 2386
865 913 560
672 865 689
528 1025 817
592 1121 929
544 1153 1025
512 1265 1137
576 1233 1201
705 1345 1345
801 1441 1489
849 1425 1553
945 1521 1681
1105 1617 1793
1201 1729 1953
1361 1841 2082
1473 1953 2210
1553 2050 2290
1665 2178 2466
977 1201 672
801 1217 881
512 1329 1041
496 1345 1089
480 1425 1169
576 1521 1329
560 1521 1393
672 1553 1505
817 1617 1649
945 1617 1729
977 1665 1809
1121 1761 1953
1281 1873 2082
1409 2001 2210
1537 2082 2290
1617 2178 2402
1665 2226 2498
1041 1425 865
865 1473 1105
576 1617 1297
544 1665 1345
544 1729 1441
576 1809 1553
640 1745 1601
753 1761 1713
849 1761 1777
977 1777 1857
1057 1841 1953
1201 1921 2050
1329 2033 2194
1409 2082 2258
1489 2178 2338
1649 2258 2450
1777 2338 2530
1329 1617 849
1025 1713 1313
624 1905 1521
624 1985 1601
560 2001 1681
640 1985 1761
624 1921 1777
769 1985 1873
833 1953 1905
993 1985 1985
1121 2050 2098
1185 2066 2194
1329 2178 2306
1441 2210 2370
1617 2306 2450
1713 2354 2530
1857 2450 2610
1713 1841 817
1281 1825 1361
592 2178 1713
592 2210 1777
560 2194 1825
640 2178 1921
801 2210 2017
817 2162 2017
897 2162 2082
1089 2194 2194
1169 2194 2226
1297 2242 2290
1409 2306 2402
1553 2354 2450
1665 2386 2530
1809 2466 2610
1921 2530 2674
1889 2066 977
1441 2017 1521
929 2386 1921
817 2434 2033
769 2434 2050
817 2434 2114
849 2418 2178
913 2354 2178
1025 2370 2258
1217 2370 2338
1329 2386 2386
1409 2402 2418
1489 2418 2482
1617 2450 2546
1713 2498 2626
1841 2546 2658
1921 2610 2770
2114 2226 1089
1681 2226 1665
1345 2434 2017
1153 2546 2098
977 2594 2210
977 2562 2258
1137 2562 2338
1153 2546 2370
1217 2498 2386
1329 2482 2418
1457 2498 2450
1537 2546 2530
1601 2530 2546
1761 2578 2610
1857 2594 2658
2001 2642 2738
2066 2658 2770
2274 2402 1249
1809 2354 1777
1617 2530 2162
1457 2626 2242
1377 2722 2370
1249 2722 2418
1313 2754 2466
1329 2690 2466
1457 2690 2546
1537 2690 2578
1617 2658 2594
1617 2642 2594
1777 2658 2642
1857 2658 2674
1969 2674 2738
2098 2738 2802
2162 2754 2834
2370 2546 1377
2082 2562 1777
1953 2610 2210
1857 2658 2290
1617 2834 2450
1553 2850 2546
1633 2834 2610
1617 2834 2610
1601 2818 2594
1697 2834 2658
1745 2802 2674
1777 2754 2674
1841 2770 2722
1985 2754 2754
2066 2786 2818
2146 2802 2850
2258 2802 2866
2530 2658 1553
2290 2690 1857
2210 2658 2210
2242 2690 2370
2050 2818 2530
1857 2930 2642
1889 2946 2674
1809 2930 2658
1873 2946 2738
1921 2882 2754
2001 2914 2802
2001 2866 2786
2017 2850 2786
2098 2850 2834
2210 2866 2866
2242 2866 2914
2338 2882 2930
2642 2786 1761
2450 2786 2082
2370 2770 2338
2418 2802 2482
2306 2882 2626
2050 2962 2674
2098 2994 2738
2098 3010 2770
2114 3026 2818
2098 3010 2818
2146 2994 2834
2162 2978 2850
2210 2978 2882
2290 2978 2930
2354 2962 2946
2418 2962 2978
2434 2946 2978
512 272 224
528 272 256
544 272 272
560 288 320
624 320 368
640 320 416
721 352 496
753 368 528
913 464 672
945 528 817
1073 705 1073
1153 817 1297
1233 961 1457
1345 1137 1665
1393 1265 1793
1473 1361 1921
1617 1521 2098
817 400 352
801 368 352
801 368 384
817 384 416
737 384 464
801 400 544
753 416 544
881 512 705
1025 624 881
1169 753 1089
1153 849 1265
1153 1073 1489
1281 1217 1665
1313 1297 1777
1441 1457 1953
1521 1553 2066
