其他预设/【236】赛博朋克风调色预设/【后期菌】视频调色预设/3DL/Abandoned 10.3dl
# LUT by SparkleStock. Enhanced with VOXCOLOR algorithms.
0 128 256 384 512 640 768 896 1023
64 32 32
80 64 96
80 80 160
96 96 320
96 176 640
128 256 1137
192 480 1761
304 801 2418
432 1153 2786
96 80 96
80 80 128
96 112 256
96 176 480
96 256 897
144 432 1409
208 721 2050
320 1153 2658
528 1601 3010
96 128 144
96 176 256
96 208 384
80 304 672
128 496 1249
176 833 1905
256 1265 2562
416 1777 3026
721 2338 3266
80 320 320
80 400 480
80 496 737
96 705 1217
112 1057 1841
208 1425 2530
368 2001 3026
560 2434 3250
1009 2866 3443
32 785 624
64 977 977
64 1073 1281
80 1393 1889
160 1697 2450
320 2306 3026
560 2706 3314
961 2978 3443
1345 3154 3491
16 1601 1313
48 1889 1697
96 2114 2194
192 2338 2642
320 2578 2994
592 2898 3298
945 3106 3443
1329 3218 3491
1793 3362 3555
128 2546 2050
224 2690 2498
320 2786 2786
464 2914 3026
640 3042 3250
945 3154 3378
1345 3298 3475
1713 3378 3523
2338 3491 3587
528 3010 2658
705 3106 2914
865 3186 3106
1025 3234 3234
1201 3266 3330
1441 3330 3427
1761 3427 3475
2194 3475 3523
2546 3523 3571
1153 3250 2898
1441 3346 3106
1617 3378 3218
1777 3410 3298
2017 3443 3410
2194 3475 3443
2434 3523 3523
2706 3555 3555
2898 3587 3587
96 80 112
96 96 160
112 96 224
128 112 368
144 176 705
160 320 1281
288 608 2033
416 945 2594
656 1361 2930
176 144 240
192 160 320
144 160 400
160 256 721
144 368 1169
224 640 1809
320 993 2434
512 1441 2882
833 1953 3154
208 224 336
128 224 384
112 304 640
144 432 1041
176 721 1569
240 1041 2242
384 1489 2770
689 2162 3154
1169 2674 3362
160 384 384
96 512 656
96 705 1025
112 913 1489
208 1345 2226
320 1713 2770
544 2258 3122
945 2722 3346
1441 3042 3459
112 913 560
96 1217 1281
112 1441 1713
176 1681 2274
320 2146 2818
512 2546 3154
897 2882 3362
1265 3090 3443
1793 3250 3523
176 1713 785
112 2130 2001
192 2338 2450
400 2642 2914
544 2770 3122
865 2978 3314
1281 3186 3443
1761 3314 3491
2338 3443 3571
464 2530 1025
480 2786 2450
576 2914 2898
785 3026 3138
993 3106 3266
1313 3234 3378
1649 3330 3459
2226 3443 3523
2594 3491 3571
1041 2930 1185
1105 3090 2498
1297 3218 3026
1505 3314 3250
1633 3346 3346
1937 3410 3427
2226 3443 3475
2658 3523 3539
2898 3555 3571
1921 3234 1297
1841 3250 2194
2242 3410 3074
2386 3459 3314
2594 3523 3410
2690 3539 3459
2834 3555 3523
3042 3587 3555
3154 3603 3587
192 128 224
192 128 288
224 160 400
240 160 560
336 240 993
384 352 1441
624 560 2033
737 945 2562
1137 1521 2962
592 272 432
640 288 560
640 304 785
592 336 1073
560 432 1425
624 656 2001
560 1265 2690
833 1713 3010
1265 2306 3234
1265 592 608
1697 592 945
1489 560 1169
560 640 1473
336 977 2017
400 1361 2578
656 1905 3010
1105 2466 3250
1585 2834 3378
993 849 592
721 849 1025
368 881 1409
448 1233 2017
368 1617 2546
512 2114 2962
865 2562 3218
1393 2914 3378
1921 3154 3459
336 1345 592
304 1361 1009
192 1697 2050
320 2066 2594
560 2450 2994
865 2754 3234
1281 3042 3410
1825 3234 3475
2386 3378 3555
913 2354 801
672 2322 1217
416 2578 2706
672 2802 3026
929 2930 3234
1265 3090 3346
1793 3266 3443
2338 3410 3539
2706 3475 3571
1777 2930 785
1281 2818 1185
1073 3042 2898
1185 3090 3106
1489 3218 3298
1793 3298 3362
2258 3410 3459
2690 3475 3539
2994 3555 3587
2578 3250 849
2370 3234 1329
1953 3234 2578
2114 3346 3202
2306 3427 3346
2450 3443 3410
2706 3475 3475
3010 3571 3555
3186 3587 3587
3010 3410 1009
3106 3427 1441
3074 3443 2098
2962 3523 3154
3042 3587 3427
3106 3587 3475
3154 3587 3523
3266 3635 3571
3378 3667 3635
785 256 352
817 272 528
833 288 721
817 304 961
881 320 1185
1121 416 1505
1585 608 1985
2066 801 2338
1937 1409 2834
2050 560 640
2017 528 865
2114 576 1153
2114 560 1361
2210 640 1649
1905 689 1953
1905 1057 2482
2194 1617 2898
2418 2354 3202
2722 977 913
2930 945 1345
2882 993 1601
2898 993 1793
2098 945 2017
2017 1249 2450
2242 1889 2914
1681 2690 3298
2130 3010 3410
2658 1457 737
3026 1569 1345
3202 1521 2017
2978 1425 2162
1313 1873 2674
1121 2466 3090
1345 2802 3298
2001 3122 3427
2450 3266 3491
1489 2066 576
1441 2017 913
1377 1905 1649
897 2226 2642
1265 2610 2978
1345 2882 3234
1809 3186 3427
2418 3330 3523
2802 3443 3555
2210 2786 656
2210 2802 801
1649 2722 1569
1105 2930 3074
1345 3042 3202
1809 3218 3346
2258 3330 3427
2706 3427 3523
3010 3523 3587
2802 3186 737
2930 3218 1009
2674 3186 1537
1905 3234 3106
2033 3266 3234
2354 3362 3346
2674 3427 3443
3042 3539 3555
3234 3571 3603
3218 3410 993
3250 3378 1185
3122 3362 1777
2930 3443 2978
2962 3459 3218
2930 3491 3410
3090 3539 3475
3266 3587 3571
3362 3635 3603
3410 3491 1265
3475 3491 1537
3491 3523 1937
3523 3555 2546
3346 3587 3330
3362 3635 3475
3443 3667 3555
3459 3667 3587
3491 3667 3603
2370 512 576
2354 512 801
2258 496 1025
2274 512 1265
2354 528 1489
2530 640 1825
2562 689 2050
2914 945 2434
3122 1201 2690
3122 865 1041
3122 865 1313
3154 881 1521
3138 881 1761
3122 929 2033
3186 993 2258
3234 1153 2466
3266 1313 2674
3362 1761 2978
3266 1377 1297
3410 1409 1841
3362 1425 2066
3362 1425 2258
3362 1521 2482
3362 1489 2578
3202 1665 2802
3250 2450 3154
3298 2978 3410
3234 1921 1025
3330 2066 1793
3459 2130 2482
3378 2017 2546
3362 2066 2706
3218 2146 2882
3202 2658 3154
3314 3186 3443
2994 3378 3539
2594 2562 496
2802 2578 721
3346 2706 2001
3443 2706 2786
3202 2674 2930
2642 3026 3234
2546 3266 3427
2898 3427 3539
3138 3523 3603
2978 3026 672
3090 3042 913
3122 3074 1185
3106 3090 2370
2562 3154 3202
2882 3314 3346
2802 3362 3427
3090 3491 3555
3250 3555 3603
3266 3314 881
3330 3314 1121
3410 3314 1441
3266 3330 2162
2866 3410 3250
2962 3443 3378
3106 3491 3459
3298 3571 3571
3410 3603 3603
3491 3475 1201
3523 3459 1441
3571 3491 1809
3555 3491 2226
3410 3555 3234
3314 3571 3443
3410 3603 3539
3491 3635 3571
3539 3651 3603
3587 3539 1521
3603 3555 1809
3635 3571 2194
3651 3603 2610
3635 3603 2978
3587 3667 3459
3587 3683 3571
3603 3683 3587
3651 3699 3635
3154 737 961
3138 753 1217
3202 785 1457
3218 801 1649
3234 849 1921
3234 929 2210
3266 993 2370
3330 1153 2578
3378 1377 2786
3443 1233 1553
3459 1281 1825
3459 1313 2050
3427 1265 2210
3427 1345 2418
3443 1361 2546
3443 1457 2690
3491 1649 2882
3539 2001 3074
3459 1841 1729
3475 1777 2210
3491 1889 2466
3491 1937 2642
3459 1937 2690
3523 2050 2882
3539 2130 2994
3539 2274 3090
3603 2562 3234
3427 2418 1409
3443 2498 2130
3539 2530 2706
3539 2498 2818
3571 2642 2994
3571 2658 3090
3587 2706 3186
3555 2930 3314
3571 3250 3475
3186 2834 640
3266 2898 993
3459 2930 2162
3555 2978 2930
3523 2930 3042
3571 3026 3186
3523 3186 3330
3555 3410 3491
3571 3539 3587
3378 3234 881
3443 3234 1169
3427 3202 1409
3539 3250 2338
3555 3298 2834
3459 3378 3346
3266 3443 3459
3330 3539 3571
3475 3603 3635
3555 3427 1185
3555 3410 1409
3571 3427 1713
3587 3443 2130
3539 3459 2882
3362 3491 3378
3427 3555 3491
3475 3587 3555
3571 3635 3603
3635 3523 1425
3635 3523 1729
3667 3539 2146
3683 3587 2546
3667 3603 2994
3603 3635 3378
3555 3635 3523
3635 3667 3587
3651 3683 3603
3667 3571 1841
3683 3587 2194
3699 3603 2530
3731 3651 2786
3747 3667 3042
3763 3699 3314
3731 3731 3555
3731 3747 3635
3731 3747 3651
3427 1089 1457
3427 1105 1681
3459 1121 1937
3459 1169 2146
3491 1265 2386
3491 1329 2530
3523 1425 2690
3523 1537 2802
3571 1729 2962
3571 1697 2066
3539 1649 2226
3555 1793 2466
3571 1825 2642
3571 1841 2754
3571 1873 2818
3587 1953 2914
3603 2146 3042
3603 2258 3122
3587 2370 2210
3571 2354 2578
3539 2306 2658
3587 2418 2834
3603 2450 2962
3635 2530 3074
3667 2642 3186
3667 2674 3250
3667 2770 3314
3571 2722 1761
3587 2818 2450
3635 2882 2914
3635 2898 3026
3635 2882 3106
3667 2962 3202
3667 2994 3298
3683 3026 3346
3699 3122 3443
3459 3074 897
3523 3138 1185
3571 3138 2546
3635 3186 3090
3635 3202 3186
3683 3266 3314
3683 3298 3362
3683 3314 3443
3699 3459 3555
3571 3314 1105
3603 3362 1457
3587 3346 1777
3587 3330 2450
3651 3378 2866
3635 3410 3346
3651 3443 3427
3667 3539 3523
3683 3603 3587
3667 3491 1473
3667 3491 1729
3635 3459 2050
3635 3475 2370
3667 3523 2818
3683 3571 3154
3651 3587 3459
3603 3603 3539
3683 3683 3635
3699 3555 1809
3731 3571 2194
3699 3587 2562
3699 3603 2834
3699 3603 3010
3699 3635 3298
3699 3683 3523
3731 3699 3587
3731 3699 3651
3747 3587 2226
3747 3635 2546
3763 3667 2882
3763 3683 3090
3779 3699 3266
3795 3747 3443
3811 3747 3555
3779 3747 3651
3763 3747 3667
3571 1553 2033
3587 1585 2242
3587 1633 2434
3603 1681 2642
3635 1713 2754
3651 1809 2866
3667 2050 3010
3683 2194 3106
3683 2274 3154
3667 2274 2546
3667 2338 2690
3635 2258 2754
3651 2322 2898
3683 2450 3026
3683 2434 3090
3683 2546 3154
3683 2610 3234
3699 2722 3314
3683 2754 2306
3667 2786 2898
3667 2786 2962
3667 2770 3026
3699 2866 3154
3731 2898 3234
3731 2962 3314
3747 3042 3378
3747 3090 3427
3683 3010 2066
3699 3122 2722
3683 3122 2994
3667 3106 3138
3667 3138 3218
3683 3154 3266
3683 3186 3330
3747 3266 3443
3763 3314 3491
3651 3266 1185
3651 3266 1489
3651 3250 2434
3667 3314 3186
3667 3330 3298
3699 3378 3410
3699 3378 3427
3747 3443 3491
3779 3491 3571
3683 3427 1441
3683 3427 1697
3635 3378 1953
3667 3443 2722
3667 3443 2962
3731 3523 3459
3747 3539 3491
3779 3587 3571
3779 3635 3635
3747 3523 1729
3699 3523 2098
3699 3539 2434
3667 3539 2706
3699 3571 2930
3747 3603 3266
3779 3635 3523
3779 3651 3587
3763 3683 3651
3763 3603 2322
3779 3635 2658
3763 3651 2914
3747 3651 3106
3763 3667 3250
3779 3667 3346
3795 3699 3491
3779 3699 3587
3795 3747 3667
3795 3667 2610
3779 3667 2882
3811 3699 3186
3795 3699 3298
3795 3747 3443
3795 3747 3523
3811 3763 3603
3859 3795 3667
3843 3779 3683
3667 2066 2466
3683 2162 2690
3699 2242 2866
3683 2242 2914
3699 2338 3026
3699 2386 3090
3731 2546 3202
3699 2562 3234
3731 2658 3298
3731 2658 2818
3731 2674 2914
3731 2690 3010
3763 2770 3138
3747 2786 3186
3747 2802 3234
3747 2914 3314
3747 2962 3362
3763 3026 3427
3731 2930 2306
3779 3106 3106
3747 3074 3122
3763 3090 3218
3747 3090 3266
3747 3122 3330
3763 3154 3378
3763 3218 3459
3763 3234 3475
3683 3106 1233
3763 3250 2690
3747 3314 3138
3747 3314 3298
3731 3298 3314
3747 3362 3410
3747 3362 3427
3779 3410 3491
3795 3427 3539
3699 3330 1409
3683 3330 1681
3667 3330 2434
3731 3443 3122
3731 3443 3378
3731 3459 3443
3747 3475 3475
3779 3539 3555
3795 3555 3587
3747 3459 1665
3747 3459 2033
3699 3459 2322
3683 3475 2754
3731 3539 3106
3779 3587 3523
3763 3571 3523
3779 3603 3571
3811 3651 3635
3763 3555 2017
3763 3571 2386
3731 3571 2642
3747 3587 2882
3747 3603 3090
3779 3651 3346
3811 3667 3539
3811 3683 3603
3843 3731 3667
3779 3635 2546
3795 3667 2834
3779 3683 3090
3779 3667 3202
3795 3683 3330
3795 3699 3443
3795 3731 3523
3843 3747 3603
3859 3779 3699
3795 3699 3042
3811 3731 3250
3811 3747 3378
3795 3731 3475
3795 3747 3555
3811 3747 3587
3843 3779 3651
3859 3795 3683
3859 3795 3699
