其他预设/【236】赛博朋克风调色预设/【后期菌】视频调色预设/3DL/Abandoned 01.3dl
# LUT by SparkleStock. Enhanced with VOXCOLOR algorithms.
0 64 128 192 256 320 384 448 512 576 640 704 768 832 896 960 1023
400 160 320
400 192 352
400 192 368
400 208 384
400 208 400
416 224 448
416 224 496
448 272 576
480 320 656
496 400 817
528 464 977
608 592 1249
672 705 1457
705 849 1681
785 1041 2017
865 1201 2274
929 1361 2482
400 192 368
400 208 384
400 208 384
400 208 400
400 208 432
416 240 480
448 272 544
480 320 640
496 384 769
528 464 913
592 592 1153
624 689 1361
689 817 1569
753 1009 1857
817 1169 2114
897 1345 2418
977 1505 2594
400 208 384
400 208 384
400 208 400
416 240 448
432 272 496
432 288 528
480 336 624
496 400 737
512 464 849
560 576 1041
608 672 1233
689 833 1505
721 961 1665
785 1169 1985
881 1361 2290
977 1553 2546
1057 1665 2690
416 240 400
400 240 400
432 272 464
432 304 496
448 320 560
480 368 640
496 400 705
512 496 833
560 592 977
624 737 1233
656 849 1393
721 1025 1649
785 1185 1905
849 1361 2194
945 1537 2434
1057 1745 2674
1137 1905 2818
432 288 448
448 304 496
448 336 528
464 368 560
480 400 608
496 464 705
512 496 785
560 592 945
592 769 1169
656 897 1393
721 1073 1617
785 1265 1889
865 1457 2194
929 1585 2418
1041 1777 2626
1105 1921 2754
1233 2146 2930
464 384 528
464 400 560
496 464 624
496 496 672
512 528 737
528 592 833
576 705 1009
592 817 1169
656 1009 1393
705 1169 1585
753 1265 1777
833 1457 2082
913 1633 2338
1009 1825 2562
1105 1985 2738
1233 2210 2930
1329 2354 3042
496 528 624
496 560 689
528 624 753
528 656 801
544 737 897
560 801 1009
608 961 1233
672 1105 1409
705 1281 1633
769 1409 1825
833 1537 2066
913 1729 2354
1025 1921 2562
1073 2033 2674
1185 2210 2850
1345 2450 3010
1457 2594 3122
496 721 753
544 801 849
544 849 897
576 913 1009
592 977 1105
608 1073 1233
656 1201 1409
689 1361 1585
753 1505 1793
817 1617 2050
897 1777 2274
1009 2017 2482
1089 2114 2658
1217 2306 2850
1361 2530 2994
1473 2674 3138
1569 2754 3218
512 1009 913
544 1073 1009
576 1185 1137
608 1265 1249
608 1265 1297
689 1425 1505
705 1553 1665
785 1681 1889
817 1729 2033
929 1953 2290
1073 2178 2530
1137 2290 2674
1265 2450 2866
1361 2578 2994
1473 2706 3106
1601 2834 3218
1665 2866 3266
560 1345 1137
576 1393 1217
624 1489 1361
656 1569 1457
721 1697 1633
737 1729 1713
801 1841 1921
881 1937 2098
977 2146 2338
1057 2226 2466
1137 2354 2610
1249 2498 2834
1361 2610 2946
1457 2722 3058
1617 2866 3202
1681 2930 3250
1841 3042 3346
608 1649 1361
672 1777 1489
721 1905 1633
769 1937 1745
801 2017 1857
881 2098 2033
929 2178 2178
1025 2306 2354
1073 2370 2482
1185 2530 2674
1297 2610 2818
1409 2722 2946
1537 2850 3090
1617 2914 3138
1729 2978 3250
1889 3074 3330
2033 3138 3378
721 2082 1601
785 2162 1713
849 2242 1857
881 2274 1985
945 2338 2098
1041 2450 2338
1089 2498 2434
1169 2562 2562
1249 2658 2690
1297 2674 2786
1441 2802 2930
1537 2882 3042
1601 2930 3106
1745 3010 3218
1889 3090 3314
2050 3170 3362
2162 3218 3394
881 2450 1825
945 2466 1969
1025 2562 2162
1057 2578 2242
1089 2594 2338
1201 2706 2530
1233 2706 2578
1281 2722 2690
1377 2818 2802
1441 2850 2866
1569 2946 3010
1665 2994 3106
1777 3074 3202
1905 3106 3298
2033 3170 3330
2146 3218 3362
2322 3298 3443
1057 2690 2098
1169 2786 2306
1185 2786 2354
1265 2818 2466
1313 2834 2578
1393 2882 2690
1409 2882 2738
1489 2930 2834
1601 2994 2962
1649 3010 3010
1729 3058 3106
1857 3122 3202
1905 3122 3234
2033 3170 3298
2178 3234 3362
2322 3298 3394
2370 3314 3427
1297 2914 2370
1361 2930 2466
1409 2946 2562
1457 2962 2626
1537 2994 2738
1569 3010 2802
1633 3058 2882
1681 3074 2946
1729 3090 3010
1857 3170 3106
1889 3138 3138
1985 3202 3202
2082 3218 3266
2194 3250 3330
2290 3298 3346
2370 3314 3394
2450 3330 3427
1521 3058 2530
1553 3058 2578
1601 3074 2674
1665 3106 2786
1745 3138 2850
1841 3186 2946
1825 3138 2962
1937 3202 3058
2033 3234 3106
2050 3234 3138
2050 3218 3186
2114 3250 3234
2226 3298 3298
2322 3330 3330
2418 3346 3378
2466 3346 3394
2546 3378 3427
1713 3138 2658
1809 3186 2738
1905 3234 2834
1985 3250 2930
2017 3250 2962
2033 3250 2994
2066 3250 3042
2162 3298 3122
2178 3298 3138
2194 3298 3186
2290 3330 3250
2338 3330 3298
2418 3346 3330
2418 3346 3330
2530 3378 3378
2546 3378 3394
2658 3427 3459
400 192 368
400 192 352
400 208 384
400 208 400
400 208 400
432 224 480
432 240 512
464 288 592
496 336 705
528 432 897
592 544 1137
640 640 1329
672 737 1489
753 913 1777
833 1121 2146
881 1233 2354
977 1409 2562
400 208 384
400 208 384
416 208 400
416 208 416
416 224 464
432 240 496
480 304 608
496 368 721
512 416 833
560 512 993
608 640 1217
689 785 1473
721 913 1681
785 1105 1985
881 1265 2242
977 1441 2530
1025 1569 2626
416 224 416
416 208 400
416 224 432
448 256 496
464 304 544
480 320 608
496 384 705
512 432 785
560 544 977
624 689 1233
672 801 1409
705 929 1617
785 1105 1841
849 1297 2162
913 1425 2370
1041 1649 2626
1105 1777 2786
432 256 432
448 272 480
464 288 496
480 320 576
480 352 608
496 400 689
528 496 817
560 592 945
592 640 1089
672 865 1361
705 993 1553
753 1137 1761
817 1265 2017
913 1473 2338
1009 1649 2546
1089 1809 2722
1201 2033 2882
464 304 496
464 352 528
480 368 576
496 416 624
496 464 689
528 528 801
576 624 945
592 689 1073
640 881 1329
689 977 1473
769 1217 1745
801 1329 1969
881 1473 2210
993 1681 2498
1089 1889 2706
1169 2050 2834
1281 2226 2978
496 400 560
496 448 608
496 464 640
512 512 689
528 592 785
560 689 929
592 801 1121
624 913 1281
689 1057 1473
753 1265 1713
785 1409 1937
881 1569 2194
977 1729 2466
1073 1937 2658
1185 2114 2834
1329 2354 3010
1409 2466 3090
512 592 656
512 608 721
528 672 801
544 737 881
576 849 1025
592 961 1169
624 1025 1281
689 1185 1473
737 1361 1713
817 1537 1969
897 1697 2242
961 1777 2402
1073 2033 2658
1169 2178 2786
1265 2322 2930
1425 2546 3074
1553 2674 3186
512 753 737
544 881 881
560 929 977
576 993 1073
592 1073 1169
624 1169 1329
689 1361 1553
737 1457 1697
785 1585 1905
881 1745 2162
993 1969 2418
1073 2082 2562
1169 2242 2722
1313 2450 2946
1393 2562 3058
1569 2738 3186
1649 2818 3250
512 1041 881
576 1217 1121
608 1297 1217
624 1329 1297
672 1425 1425
721 1553 1633
753 1633 1761
801 1729 1953
881 1857 2178
1025 2114 2434
1089 2178 2562
1185 2354 2722
1313 2498 2914
1441 2658 3042
1569 2802 3170
1649 2850 3234
1809 2962 3330
544 1313 977
608 1537 1329
689 1617 1473
689 1649 1553
737 1761 1681
817 1857 1905
881 1969 2066
945 2066 2210
1041 2210 2402
1137 2354 2578
1233 2450 2738
1329 2578 2866
1425 2690 2978
1537 2802 3106
1649 2882 3202
1745 2946 3266
1953 3090 3362
592 1713 1217
705 1857 1553
753 1953 1681
833 2082 1841
849 2082 1953
913 2178 2114
1009 2322 2290
1089 2402 2450
1185 2530 2626
1249 2578 2722
1329 2626 2834
1473 2786 2994
1569 2866 3074
1713 2978 3218
1809 3042 3266
1969 3106 3346
2114 3186 3394
624 1985 1313
849 2274 1777
881 2306 1889
961 2354 2066
1009 2434 2210
1105 2498 2418
1153 2546 2482
1233 2626 2626
1297 2674 2722
1377 2738 2850
1457 2818 2930
1601 2930 3074
1713 2994 3186
1809 3058 3234
1953 3122 3314
2114 3186 3378
2242 3250 3427
769 2370 1505
977 2530 1937
1025 2562 2066
1089 2594 2226
1185 2674 2434
1217 2690 2530
1265 2722 2610
1345 2754 2706
1425 2850 2818
1505 2882 2914
1649 2978 3058
1697 3010 3106
1793 3058 3186
1937 3106 3250
2066 3186 3330
2194 3218 3362
2322 3266 3427
945 2626 1649
1121 2722 2162
1233 2802 2322
1361 2882 2530
1425 2914 2658
1425 2882 2690
1537 2962 2818
1585 2994 2882
1633 3010 2962
1681 3042 3010
1761 3074 3090
1889 3122 3170
1969 3138 3234
2098 3202 3298
2210 3250 3346
2338 3298 3394
2434 3314 3427
1153 2834 1793
1281 2866 2162
1393 2914 2306
1505 2978 2546
1633 3058 2786
1649 3074 2850
1713 3090 2914
1777 3106 2994
1825 3122 3042
1921 3170 3106
1953 3186 3138
2033 3202 3202
2114 3218 3250
2226 3250 3314
2306 3266 3346
2450 3330 3394
2530 3362 3443
1361 2962 1953
1537 3042 2306
1601 3058 2418
1713 3106 2594
1793 3138 2850
1905 3186 2946
1905 3186 2978
1985 3202 3042
2066 3234 3106
2114 3250 3138
2162 3250 3202
2210 3266 3234
2274 3298 3266
2354 3314 3330
2466 3346 3378
2498 3346 3394
2594 3394 3443
1649 3106 2146
1793 3186 2498
1905 3218 2594
1937 3218 2722
2114 3298 2994
2082 3250 2978
2210 3298 3090
2242 3314 3122
2274 3314 3170
2322 3330 3218
2370 3330 3250
2370 3330 3266
2450 3346 3314
2498 3362 3346
2546 3362 3378
2690 3427 3443
2706 3427 3443
400 208 384
400 208 384
416 208 400
400 208 400
432 224 448
448 224 480
464 256 528
480 304 608
496 336 705
544 448 945
592 544 1153
672 705 1425
737 865 1665
785 1009 1937
881 1201 2242
945 1345 2450
1041 1505 2626
432 240 416
432 224 416
448 240 448
448 240 464
464 272 512
496 304 592
496 336 656
496 368 737
560 496 961
592 576 1121
672 721 1377
689 849 1569
769 1009 1809
833 1169 2098
913 1361 2370
1009 1537 2562
1105 1697 2754
496 304 496
496 304 528
528 320 592
496 304 592
496 304 592
496 336 656
528 432 785
560 512 897
592 608 1073
640 705 1265
689 881 1537
753 1057 1761
817 1201 1985
913 1409 2306
977 1553 2482
1089 1745 2722
1185 1921 2850
512 336 560
512 352 592
528 368 640
528 368 656
528 400 689
544 448 769
560 528 881
592 656 1073
624 769 1233
689 945 1473
737 1073 1665
801 1249 1921
881 1377 2162
977 1553 2418
1073 1777 2658
1169 1937 2802
1297 2162 2962
576 432 624
512 400 608
512 400 624
512 448 689
528 496 769
560 592 881
592 689 1041
624 817 1217
672 977 1425
705 1105 1601
785 1281 1857
881 1457 2114
945 1585 2338
1041 1761 2562
1169 2033 2802
1265 2178 2930
1425 2418 3090
576 496 689
528 480 656
512 512 689
544 592 801
592 721 961
608 817 1073
624 929 1249
656 1025 1393
721 1217 1601
769 1329 1793
865 1505 2082
929 1649 2306
1025 1841 2546
1169 2082 2754
1249 2210 2866
1409 2466 3058
1521 2594 3170
560 592 689
544 624 769
576 769 913
592 849 1009
608 913 1105
640 1057 1265
656 1121 1377
737 1345 1633
801 1505 1889
833 1569 2050
929 1745 2290
1041 1953 2530
1137 2098 2690
1265 2338 2866
1377 2450 3010
1473 2578 3106
1649 2786 3234
560 849 769
560 897 881
576 1009 1057
592 1073 1169
624 1169 1265
689 1361 1489
705 1457 1617
769 1553 1809
881 1745 2098
961 1905 2322
1041 2033 2466
1137 2194 2658
1265 2402 2834
1393 2546 2994
1521 2690 3106
1649 2818 3218
1729 2882 3298
544 1105 881
576 1249 1041
640 1377 1313
672 1425 1393
705 1553 1585
769 1665 1745
801 1713 1905
881 1889 2098
977 2050 2290
1073 2178 2498
1169 2306 2658
1265 2450 2834
1393 2594 2978
1489 2706 3074
1585 2802 3170
1745 2930 3298
1857 2994 3330
576 1425 1009
640 1601 1265
705 1697 1553
769 1809 1665
801 1905 1825
881 1985 1985
913 2050 2146
1025 2226 2338
1089 2306 2482
1169 2402 2626
1297 2562 2834
1393 2658 2946
1521 2786 3058
1601 2850 3138
1761 2962 3250
1889 3042 3314
2050 3122 3378
640 1809 1169
656 1825 1313
801 2066 1777
881 2146 1937
913 2194 2066
993 2306 2242
1105 2434 2450
1153 2466 2546
1217 2546 2674
1361 2674 2834
1393 2706 2882
1505 2818 2994
1665 2946 3138
1793 3010 3234
1905 3074 3298
2050 3122 3346
2210 3202 3427
753 2194 1313
753 2146 1457
993 2434 2050
1073 2498 2226
1089 2530 2306
1169 2578 2482
1233 2626 2594
1281 2674 2690
1361 2738 2802
1489 2850 2914
1569 2914 3010
1681 2978 3106
1793 3042 3202
1905 3090 3266
2050 3138 3330
2162 3202 3362
2322 3266 3443
881 2482 1361
881 2450 1569
1121 2626 2162
1169 2674 2306
1265 2722 2498
1313 2754 2594
1393 2834 2690
1457 2866 2802
1505 2882 2850
1601 2962 2962
1665 2994 3058
1809 3058 3138
1889 3090 3202
2050 3170 3266
2162 3202 3330
2290 3250 3378
2370 3298 3427
1089 2722 1441
1057 2674 1681
1265 2818 2274
1361 2850 2434
1473 2930 2626
1505 2946 2738
1617 2994 2850
1633 3010 2882
1729 3058 3010
1825 3090 3074
1905 3122 3138
1937 3122 3186
2066 3186 3234
2178 3218 3314
2274 3250 3346
2402 3314 3394
2482 3330 3443
1345 2882 1473
1361 2914 1745
1489 2962 2290
1585 3010 2482
1665 3058 2738
1745 3106 2866
1841 3138 2962
1889 3138 3042
1905 3138 3058
2033 3202 3138
2066 3218 3186
2098 3202 3202
2194 3234 3250
2274 3250 3298
2418 3314 3362
2482 3330 3378
2578 3362 3443
1649 3058 1537
1649 3042 1793
1681 3058 2162
1809 3122 2434
1937 3186 2786
2017 3218 2962
2098 3234 3042
2082 3218 3058
2178 3266 3138
2178 3250 3138
2274 3298 3218
2290 3298 3234
2322 3298 3266
2434 3330 3330
2546 3362 3378
2578 3362 3394
2674 3394 3443
2178 3202 1649
2050 3186 1921
2033 3186 2290
2210 3234 2530
2210 3266 2866
2226 3298 3010
2306 3314 3090
2354 3330 3138
2418 3330 3202
2418 3330 3218
2450 3346 3250
2466 3346 3266
2530 3362 3330
2626 3394 3378
2706 3427 3394
2786 3443 3443
2802 3443 3459
432 224 400
448 240 432
464 240 464
464 240 480
496 272 528
496 272 560
496 304 608
496 304 656
528 368 785
576 432 961
640 576 1265
689 721 1473
753 849 1697
849 1041 2033
913 1217 2306
977 1361 2466
1073 1553 2690
496 304 512
496 304 512
496 288 528
512 304 576
512 320 592
512 320 640
512 336 689
560 416 833
592 480 977
672 608 1249
689 721 1409
769 961 1697
849 1137 1985
881 1249 2194
993 1457 2482
1057 1601 2626
