其他预设/【236】赛博朋克风调色预设/【后期菌】视频调色预设/3DL/Abandoned 01_S.3dl
# LUT by SparkleStock. Enhanced with VOXCOLOR algorithms.
0 128 256 384 512 640 768 896 1023
400 160 320
400 192 368
400 208 400
416 224 496
480 320 656
528 464 977
672 705 1457
785 1041 2017
929 1361 2482
400 208 384
400 208 400
432 272 496
464 336 640
512 464 849
608 672 1233
721 961 1665
881 1361 2290
1057 1665 2690
432 288 448
448 336 528
480 400 608
512 496 785
592 769 1169
721 1073 1617
865 1457 2194
1041 1777 2626
1201 2098 2946
480 544 608
528 624 753
544 737 897
592 977 1233
705 1281 1633
833 1537 2066
1025 1921 2562
1185 2210 2850
1441 2562 3138
512 1009 913
576 1185 1137
592 1281 1281
705 1553 1665
817 1729 2033
1073 2178 2530
1265 2450 2866
1473 2706 3106
1665 2866 3266
608 1649 1361
721 1905 1633
785 2017 1841
929 2178 2178
1073 2370 2482
1297 2610 2818
1505 2834 3090
1729 2978 3250
2033 3138 3378
881 2450 1825
1025 2562 2162
1073 2594 2306
1233 2706 2578
1377 2818 2802
1569 2946 3010
1777 3074 3202
2033 3170 3330
2322 3298 3443
1265 2930 2322
1377 2962 2498
1505 3010 2706
1633 3058 2882
1697 3090 2994
1825 3138 3122
2033 3218 3266
2226 3298 3346
2450 3330 3427
1713 3138 2658
1905 3234 2834
2017 3250 2962
2066 3250 3042
2178 3298 3138
2290 3330 3250
2418 3346 3330
2530 3378 3378
2658 3427 3459
400 208 384
416 208 400
432 224 448
464 256 528
496 336 705
592 544 1153
737 865 1665
881 1201 2242
1041 1505 2626
496 304 496
528 320 592
496 304 592
528 432 785
592 608 1073
689 881 1537
817 1201 1985
977 1553 2482
1185 1921 2850
576 432 624
512 416 624
528 512 769
592 689 1057
672 977 1425
785 1281 1857
945 1585 2338
1169 2033 2802
1409 2370 3106
560 608 689
576 785 897
592 929 1089
656 1121 1377
801 1505 1889
929 1745 2290
1137 2098 2690
1377 2450 3010
1617 2738 3250
544 1105 881
640 1377 1313
705 1553 1569
801 1713 1905
977 2050 2290
1169 2306 2658
1393 2594 2978
1585 2802 3170
1857 2994 3330
640 1809 1169
801 2066 1777
897 2194 2033
1105 2434 2450
1217 2546 2674
1393 2706 2882
1649 2930 3138
1905 3074 3298
2210 3202 3427
881 2482 1361
1121 2626 2162
1249 2722 2466
1393 2834 2690
1505 2882 2850
1665 2994 3058
1889 3090 3202
2162 3202 3330
2370 3298 3427
1329 2914 1457
1457 2978 2242
1649 3058 2706
1841 3138 2962
1857 3138 3042
2033 3218 3170
2162 3234 3250
2354 3314 3362
2578 3362 3443
2178 3202 1649
2033 3186 2290
2210 3266 2866
2306 3314 3090
2418 3330 3202
2450 3346 3250
2530 3362 3330
2706 3427 3394
2802 3443 3459
496 288 496
496 288 512
528 304 592
528 320 672
592 400 881
672 544 1233
865 801 1761
993 1217 2354
1233 1649 2786
753 480 689
801 496 753
817 496 865
785 544 1073
785 656 1297
881 913 1713
977 1409 2274
1169 1761 2706
1361 2146 2962
1217 833 849
1329 849 977
1169 817 1153
865 897 1361
833 1169 1713
913 1473 2162
1105 1889 2594
1361 2274 2946
1553 2546 3170
1073 1089 865
961 1137 1009
801 1153 1233
881 1361 1633
913 1617 2050
1073 1953 2482
1297 2338 2850
1553 2658 3122
1793 2850 3298
753 1521 977
753 1521 1073
833 1761 1601
929 1953 1969
1105 2210 2434
1313 2482 2802
1569 2754 3090
1841 2962 3266
2114 3138 3394
1185 2274 1201
977 2274 1361
1073 2418 2194
1201 2562 2466
1377 2690 2802
1553 2834 2994
1825 3010 3218
2114 3170 3330
2354 3250 3443
1889 2754 1185
1441 2754 1489
1425 2834 2482
1553 2914 2738
1697 2994 2978
1841 3042 3106
2082 3138 3234
2322 3250 3346
2562 3346 3443
2610 3122 1265
2370 3122 1617
1985 3106 2434
2066 3186 2962
2146 3218 3090
2178 3218 3170
2338 3266 3266
2594 3346 3362
2818 3394 3443
3042 3298 1457
3138 3314 1809
3090 3346 2322
2834 3346 2994
2818 3394 3250
2866 3427 3314
2930 3394 3362
3074 3459 3443
3186 3491 3491
865 416 640
881 432 721
897 416 849
881 432 977
881 496 1121
977 608 1377
1217 849 1809
1457 1073 2210
1489 1553 2738
1569 705 785
1521 672 881
1505 689 1105
1473 689 1361
1521 785 1617
1393 929 1889
1441 1297 2354
1649 1729 2754
1809 2226 3042
1969 1121 897
1937 1057 1073
1825 1057 1281
1809 1073 1553
1505 1105 1857
1537 1361 2290
1745 1953 2754
1553 2450 3010
1761 2674 3218
1969 1489 865
2050 1521 1073
2033 1473 1409
1889 1457 1681
1345 1681 2178
1329 2114 2674
1473 2546 2962
1793 2834 3202
2017 2946 3346
1457 1937 865
1393 1905 977
1361 1889 1377
1217 1953 1857
1361 2210 2370
1489 2578 2866
1761 2914 3170
2082 3074 3330
2306 3186 3394
1985 2546 1057
1937 2562 1073
1585 2562 1537
1409 2658 2402
1553 2754 2754
1793 2946 3090
2017 3058 3234
2274 3186 3346
2530 3298 3443
2658 2946 1185
2754 3010 1361
2546 3042 1777
1841 3042 2786
1921 3074 2994
2114 3122 3138
2338 3202 3250
2658 3298 3378
2850 3362 3459
3090 3202 1361
3122 3202 1521
3058 3234 2033
2850 3266 2834
2722 3266 2994
2610 3298 3218
2754 3314 3314
2978 3394 3427
3122 3443 3459
3378 3330 1665
3427 3346 1889
3443 3378 2226
3475 3394 2626
3250 3427 3186
3218 3443 3330
3314 3475 3394
3330 3491 3443
3362 3491 3491
1761 624 785
1761 592 881
1649 560 1073
1633 592 1265
1633 689 1441
1665 833 1649
1649 897 1857
1953 1121 2242
2178 1329 2530
2450 929 945
2290 833 1057
2226 801 1249
2210 833 1521
2290 897 1793
2354 1041 2050
2482 1249 2242
2498 1377 2466
2690 1681 2786
2546 1313 993
2434 1201 1153
2370 1185 1377
2354 1169 1649
2450 1265 2033
2626 1361 2306
2482 1649 2594
2626 2242 2978
2754 2690 3234
2530 1665 913
2434 1649 1137
2450 1601 1489
2402 1601 1761
2466 1649 2162
2482 1825 2562
2658 2402 2946
2882 2914 3218
2434 3058 3394
2114 2162 753
2194 2082 849
2466 2146 1441
2546 2146 1937
2450 2210 2370
2114 2594 2882
2114 2978 3218
2370 3170 3378
2626 3250 3459
2594 2674 945
2546 2658 1057
2562 2658 1281
2578 2738 1985
2162 2818 2706
2450 2994 3074
2370 3106 3234
2674 3250 3378
2914 3330 3459
3106 3058 1265
3074 3058 1377
3090 3074 1617
3010 3138 2146
2562 3186 2994
2658 3218 3186
2818 3266 3266
3058 3362 3394
3138 3394 3459
3346 3266 1537
3378 3266 1745
3443 3314 2082
3491 3330 2402
3266 3378 3058
3122 3362 3218
3202 3427 3362
3298 3443 3427
3378 3475 3491
3523 3378 1889
3555 3394 2178
3587 3427 2402
3603 3443 2690
3587 3459 2930
3491 3491 3314
3491 3507 3443
3491 3507 3459
3523 3523 3507
2674 881 1057
2594 785 1137
2562 769 1297
2578 785 1521
2578 897 1697
2562 1025 1905
2578 1153 2146
2578 1265 2354
2722 1409 2562
2930 1153 1201
2834 1057 1265
2754 977 1425
2738 977 1665
2818 1089 2017
2882 1265 2290
2930 1441 2434
2978 1553 2594
3042 1777 2802
2946 1505 1201
2818 1329 1265
2786 1329 1489
2754 1329 1777
2834 1409 2162
2994 1633 2546
3122 1841 2690
3138 1953 2786
3186 2178 2978
2882 1841 1057
2818 1777 1233
2802 1713 1553
2818 1729 1857
2882 1841 2306
3074 2082 2674
3202 2338 2866
3170 2626 3090
3202 2882 3266
2706 2306 785
2722 2242 945
2818 2242 1489
2850 2226 1937
2882 2290 2402
3122 2562 2818
3122 2802 3058
3298 3122 3298
3362 3298 3459
3074 2834 1105
2994 2786 1201
2962 2722 1377
3042 2754 1937
3122 2866 2450
3074 2994 2994
2946 3122 3234
3074 3314 3378
3218 3362 3475
3394 3186 1505
3330 3138 1617
3346 3186 1857
3314 3202 2098
3250 3218 2594
3074 3234 3058
3186 3298 3266
3314 3394 3427
3427 3443 3491
3491 3314 1713
3523 3330 2033
3571 3362 2322
3523 3378 2530
3459 3443 2786
3378 3443 3138
3427 3443 3346
3475 3491 3459
3507 3491 3491
3619 3394 2146
3635 3443 2402
3651 3459 2578
3683 3475 2802
3683 3491 2962
3683 3523 3186
3635 3523 3427
3635 3571 3507
3619 3571 3523
3122 1185 1441
3090 1105 1521
3090 1041 1617
3058 1089 1825
3106 1249 2098
3090 1329 2242
3074 1377 2418
3042 1457 2530
3090 1569 2658
3250 1505 1601
3202 1313 1553
3170 1265 1665
3170 1313 1969
3186 1409 2290
3218 1601 2482
3218 1729 2610
3234 1825 2738
3202 1905 2850
3266 1793 1553
3202 1617 1553
3170 1489 1649
3170 1553 1969
3202 1681 2354
3298 1985 2690
3362 2226 2866
3346 2290 2962
3346 2322 3058
3250 2162 1361
3202 2017 1457
3186 1921 1697
3138 1889 1969
3186 1985 2370
3298 2290 2786
3346 2482 2994
3394 2674 3090
3394 2690 3186
3138 2546 1009
3138 2466 1137
3186 2354 1617
3170 2306 1969
3186 2338 2370
3314 2562 2818
3362 2722 3058
3427 2882 3202
3491 3170 3346
3346 2962 1329
3330 2946 1473
3298 2882 1601
3234 2754 1889
3250 2802 2306
3298 2850 2850
3346 2962 3122
3459 3186 3346
3523 3394 3459
3555 3250 1745
3523 3250 1969
3427 3186 1937
3346 3170 2050
3330 3138 2370
3378 3202 2786
3394 3266 3218
3427 3362 3394
3555 3491 3491
3603 3362 2033
3619 3378 2306
3571 3394 2354
3507 3394 2450
3459 3427 2578
3475 3459 2962
3523 3475 3314
3619 3491 3459
3619 3523 3507
3683 3443 2402
3683 3459 2578
3715 3475 2818
3683 3507 2930
3651 3555 3010
3699 3571 3218
3715 3587 3378
3715 3571 3507
3699 3571 3523
3330 1521 1825
3330 1521 1953
3346 1521 2098
3330 1521 2274
3330 1569 2402
3314 1601 2498
3346 1729 2674
3330 1809 2786
3330 1857 2866
3459 1953 2162
3459 1809 2098
3443 1649 2114
3443 1729 2354
3427 1889 2610
3427 2033 2722
3427 2114 2834
3394 2178 2930
3427 2290 3042
3475 2242 1889
3491 2066 2050
3491 1969 2114
3475 1953 2322
3475 2178 2674
3475 2338 2882
3475 2466 3010
3491 2594 3090
3491 2594 3170
3475 2546 1793
3507 2434 1953
3491 2242 2017
3491 2194 2242
3491 2210 2498
3491 2402 2834
3475 2530 3042
3523 2834 3202
3523 2866 3250
3443 2834 1377
3459 2754 1505
3491 2562 1793
3507 2418 2098
3507 2450 2450
3523 2562 2802
3523 2690 3090
3555 2930 3250
3603 3186 3330
3523 3138 1697
3555 3074 1761
3507 2914 1681
3523 2802 1953
3523 2818 2322
3555 2850 2834
3571 2946 3138
3587 3122 3378
3635 3362 3475
3619 3298 2017
3603 3266 2050
3587 3218 1969
3571 3170 2050
3555 3138 2322
3587 3186 2754
3603 3234 3186
3635 3330 3427
3683 3491 3507
3699 3427 2370
3715 3443 2562
3635 3443 2418
3619 3443 2418
3603 3459 2594
3619 3475 2882
3651 3491 3218
3683 3523 3459
3715 3571 3555
3731 3475 2674
3731 3491 2850
3747 3523 2978
3699 3555 2930
3715 3619 3074
3715 3619 3250
3747 3619 3443
3779 3619 3555
3763 3619 3571
3475 1889 2210
3475 1905 2354
3475 1905 2482
3475 1905 2562
3475 1937 2674
3459 1953 2738
3475 2082 2866
3459 2082 2882
3459 2146 2962
3555 2338 2530
3555 2338 2610
3555 2290 2658
3571 2322 2786
3523 2354 2850
3507 2354 2914
3555 2402 2994
3523 2482 3074
3523 2546 3122
3523 2610 2146
3619 2690 2722
3603 2562 2690
3603 2546 2802
3619 2466 2834
3603 2530 2962
3571 2722 3122
3555 2802 3186
3555 2818 3218
3475 2690 1409
3603 2850 2402
3683 2690 2530
3715 2498 2546
3715 2370 2626
3731 2466 2882
3683 2674 3122
3619 2962 3250
3619 3010 3298
3571 2978 1585
3603 2930 1729
3683 2722 1921
3779 2610 2226
3779 2546 2546
3779 2610 2850
3747 2754 3138
3699 2978 3330
3635 3250 3378
3603 3202 1889
3635 3106 1921
3731 2946 1809
3811 2834 1985
3811 2834 2370
3843 2882 2866
3811 2946 3170
3747 3138 3394
3699 3378 3475
3683 3330 2194
3747 3314 2146
3763 3218 2033
3827 3186 2098
3827 3170 2370
3827 3186 2786
3827 3234 3186
3763 3362 3459
3747 3491 3523
3715 3443 2498
3747 3459 2690
3763 3459 2466
3827 3459 2418
3827 3475 2578
3843 3491 2930
3827 3523 3250
3779 3571 3459
3763 3587 3571
3747 3507 2946
3747 3523 3090
3779 3571 3138
3779 3619 3090
3811 3651 3170
3779 3635 3314
3779 3619 3475
3779 3603 3571
3779 3603 3587
