其他预设/【236】赛博朋克风调色预设/【后期菌】视频调色预设/3DL/Abandoned 09_S.3dl
# LUT by SparkleStock. Enhanced with VOXCOLOR algorithms.
0 128 256 384 512 640 768 896 1023
64 16 16
64 48 80
80 80 128
96 112 272
112 176 512
128 304 977
208 544 1601
320 865 2322
496 1265 2770
96 80 96
80 96 128
112 128 240
96 192 400
96 288 672
128 448 1185
208 769 1825
352 1217 2610
544 1633 3010
80 128 144
96 192 240
96 240 320
80 336 544
112 512 1009
144 833 1633
256 1233 2418
416 1697 2898
640 2146 3234
64 336 272
64 400 384
64 464 576
80 672 977
96 977 1505
176 1313 2210
320 1809 2866
496 2290 3186
865 2738 3443
16 705 480
32 865 753
32 977 977
32 1249 1473
80 1505 2066
224 2066 2818
416 2514 3234
737 2850 3427
1089 3106 3523
0 1409 929
16 1681 1313
16 1825 1649
48 2033 2194
128 2338 2690
272 2690 3154
560 2994 3427
913 3154 3539
1377 3298 3587
0 2322 1505
32 2514 1937
64 2594 2306
128 2738 2818
256 2898 3138
480 3090 3410
785 3234 3539
1153 3330 3571
1617 3427 3619
112 2882 2098
208 2978 2546
320 3058 2882
432 3138 3186
576 3202 3330
753 3282 3443
1041 3378 3539
1377 3427 3571
1745 3475 3619
448 3138 2626
705 3266 2962
865 3298 3154
977 3314 3282
1153 3394 3427
1313 3427 3475
1537 3459 3539
1825 3523 3571
2178 3555 3619
96 80 128
112 96 144
112 112 208
128 128 336
160 208 624
176 336 1089
288 672 1825
464 1089 2562
689 1473 2962
160 160 240
192 176 320
144 176 368
144 272 592
144 400 961
224 656 1569
320 1009 2274
512 1473 2818
817 1921 3122
208 240 320
128 272 352
128 336 544
128 480 849
144 689 1313
224 1009 1953
336 1457 2610
624 1985 3090
993 2482 3346
128 416 336
96 528 544
112 672 785
96 849 1185
160 1217 1809
240 1569 2450
448 2082 3010
785 2594 3298
1185 2914 3507
96 785 432
32 1089 961
64 1297 1329
80 1489 1793
144 1825 2418
320 2274 2994
640 2738 3330
961 2978 3459
1441 3202 3539
128 1505 624
16 1873 1505
32 2066 1921
128 2370 2578
224 2562 2930
432 2818 3266
801 3058 3443
1249 3250 3539
1713 3394 3587
336 2338 897
96 2578 1889
160 2738 2578
288 2882 2930
432 2978 3202
656 3122 3394
977 3234 3475
1489 3346 3555
1921 3459 3603
865 2866 993
448 2930 2017
608 3106 2850
785 3234 3250
865 3266 3298
1137 3330 3443
1377 3378 3475
1761 3459 3571
2210 3523 3587
1665 3154 1121
1393 3154 1809
1489 3314 2898
1521 3410 3282
1777 3459 3410
1889 3475 3443
2098 3523 3523
2402 3555 3571
2626 3587 3603
192 160 224
192 144 272
240 160 368
240 176 480
304 240 801
384 368 1233
608 624 1905
769 1073 2562
1105 1633 2994
576 304 352
656 336 512
656 336 656
608 368 945
544 448 1249
576 689 1761
560 1265 2578
801 1697 2978
1169 2210 3234
1185 608 464
1505 672 753
1249 656 977
608 672 1265
400 929 1713
384 1297 2370
592 1777 2898
945 2306 3186
1377 2674 3394
849 833 448
705 881 753
464 929 1073
496 1153 1569
384 1425 2130
448 1825 2738
721 2370 3154
1089 2786 3378
1537 3058 3523
336 1185 464
320 1249 705
240 1537 1489
272 1745 2017
352 2162 2674
544 2578 3170
945 2898 3394
1393 3154 3507
1889 3330 3571
833 2033 656
448 2066 961
144 2338 2194
288 2578 2690
448 2818 3122
721 2978 3346
1201 3170 3443
1713 3330 3555
2146 3443 3587
1633 2786 656
1089 2690 977
448 2866 2578
544 2978 2994
769 3106 3282
1057 3186 3378
1473 3298 3475
1985 3427 3539
2466 3523 3603
2354 3186 689
2001 3138 1105
1297 3090 2210
1297 3266 3138
1473 3330 3298
1553 3346 3394
1905 3427 3459
2354 3523 3571
2722 3555 3603
2850 3378 817
2898 3410 1217
2850 3410 1777
2370 3443 3058
2450 3523 3410
2578 3539 3475
2674 3555 3523
2882 3587 3571
3058 3619 3619
769 304 336
801 304 480
833 288 656
801 288 865
785 320 1041
993 416 1377
1409 624 1905
1873 865 2354
1825 1505 2882
1809 576 496
1729 544 672
1713 576 977
1729 560 1281
1825 624 1585
1617 705 1889
1681 1089 2450
1937 1649 2898
2162 2290 3186
2338 977 608
2290 961 961
2162 945 1249
2162 961 1553
1649 897 1857
1665 1137 2354
1921 1777 2882
1441 2546 3282
1713 2834 3427
2210 1377 448
2306 1409 881
2290 1409 1441
2162 1345 1713
1169 1569 2290
945 2050 2866
1025 2626 3234
1569 2994 3427
1985 3154 3507
1345 1745 384
1281 1729 640
1185 1665 1201
833 1873 1937
977 2194 2578
945 2674 3154
1329 3058 3427
1873 3266 3523
2290 3378 3571
1905 2546 528
1857 2514 592
1329 2466 1201
656 2690 2610
801 2850 3042
1185 3090 3378
1617 3234 3443
2130 3378 3539
2562 3475 3587
2578 3058 592
2690 3154 785
2402 3106 1329
1153 3106 2962
1265 3170 3234
1601 3266 3394
2033 3378 3459
2578 3507 3571
2866 3539 3587
3026 3378 801
3058 3378 993
2898 3330 1537
2418 3378 2818
2338 3378 3122
2306 3443 3394
2562 3475 3459
2866 3555 3555
3090 3587 3587
3314 3507 1057
3346 3507 1329
3394 3523 1697
3410 3555 2322
3106 3571 3282
3026 3587 3475
3186 3651 3571
3266 3651 3587
3330 3667 3619
2226 560 528
2226 528 689
2066 464 929
2066 480 1201
2130 544 1441
2338 656 1761
2338 721 2033
2786 993 2450
3042 1249 2722
2866 849 785
2642 769 977
2578 769 1265
2578 769 1569
2738 849 1953
2930 977 2290
3186 1185 2498
3202 1345 2706
3314 1713 2978
2850 1201 833
2674 1185 1185
2610 1185 1441
2610 1169 1761
2770 1249 2210
3026 1345 2546
3058 1521 2738
3106 2194 3122
3138 2786 3394
2770 1649 608
2610 1617 1073
2610 1617 1601
2610 1585 1873
2738 1633 2306
2850 1729 2706
3010 2354 3106
3138 3042 3427
2610 3266 3555
2194 2162 320
2290 2130 512
2594 2194 1345
2706 2194 2050
2626 2178 2466
2066 2690 3042
2033 3154 3427
2370 3346 3555
2786 3459 3587
2674 2818 464
2626 2786 640
2626 2770 945
2562 2754 1825
1857 2898 2882
2322 3154 3266
2242 3298 3410
2722 3459 3555
2962 3523 3603
3170 3282 721
3106 3266 897
3154 3266 1217
2962 3250 1793
2178 3282 3154
2338 3394 3378
2706 3443 3459
2994 3539 3555
3170 3571 3603
3394 3459 1009
3394 3459 1249
3459 3507 1617
3507 3475 1985
3202 3539 3122
2994 3523 3378
3122 3587 3523
3266 3619 3587
3394 3651 3651
3539 3555 1329
3571 3555 1617
3587 3571 1937
3619 3619 2434
3587 3619 2866
3475 3651 3443
3475 3683 3587
3475 3683 3603
3555 3715 3667
3154 849 945
3090 769 1121
3058 753 1361
3090 769 1649
3154 865 1953
3202 993 2242
3266 1105 2434
3314 1249 2642
3394 1473 2850
3234 1105 1233
3090 1025 1361
3010 977 1553
3010 961 1809
3138 1105 2274
3314 1297 2562
3443 1473 2722
3507 1665 2898
3555 1937 3090
3170 1505 1185
2994 1377 1377
2962 1361 1617
2962 1377 1937
3042 1457 2338
3314 1713 2770
3523 1985 2978
3539 2130 3058
3571 2338 3250
3106 1953 865
2962 1825 1249
2930 1777 1681
2978 1793 2033
3058 1937 2482
3298 2178 2898
3539 2434 3154
3507 2706 3266
3523 3090 3475
2898 2498 384
2866 2402 656
2914 2338 1457
2978 2354 2082
3090 2418 2562
3346 2690 3026
3346 2930 3282
3507 3298 3507
3507 3523 3603
3202 3090 640
3122 2994 849
3058 2914 1137
3138 2930 1809
3202 3026 2482
3170 3138 3170
2962 3282 3394
3090 3475 3555
3298 3587 3651
3507 3410 1009
3427 3378 1185
3427 3394 1521
3410 3378 1809
3266 3346 2594
3042 3378 3202
3186 3459 3443
3314 3587 3587
3459 3651 3651
3571 3523 1265
3587 3523 1505
3603 3555 1921
3587 3587 2322
3507 3587 2754
3410 3587 3266
3427 3603 3523
3539 3667 3603
3587 3667 3651
3667 3587 1601
3667 3587 1905
3683 3603 2242
3699 3651 2642
3715 3683 2962
3715 3715 3282
3683 3715 3555
3699 3731 3651
3699 3747 3667
3443 1169 1473
3427 1137 1633
3394 1089 1857
3427 1121 2146
3507 1297 2434
3523 1425 2626
3539 1521 2770
3539 1617 2882
3587 1793 3026
3507 1537 1745
3394 1377 1729
3346 1329 1889
3410 1393 2242
3459 1505 2578
3539 1713 2834
3587 1937 2978
3603 2082 3090
3619 2162 3154
3459 1905 1617
3346 1697 1713
3282 1585 1777
3314 1633 2178
3410 1793 2610
3539 2130 2962
3667 2434 3154
3667 2498 3234
3667 2562 3314
3427 2354 1281
3330 2130 1505
3298 2033 1825
3298 2033 2146
3346 2146 2578
3523 2466 3010
3603 2690 3234
3683 2866 3330
3683 2898 3427
3346 2850 640
3298 2690 865
3282 2498 1633
3282 2450 2146
3314 2482 2546
3443 2754 3026
3539 2930 3298
3619 3106 3427
3667 3394 3555
3507 3250 897
3459 3170 1153
3394 3058 1425
3298 2914 1825
3330 2962 2370
3378 3010 2994
3459 3138 3298
3587 3378 3539
3667 3603 3603
3651 3507 1297
3619 3475 1585
3507 3394 1649
3427 3314 1937
3394 3298 2370
3427 3346 2882
3459 3443 3346
3507 3539 3539
3651 3683 3667
3683 3571 1537
3683 3571 1889
3619 3587 2178
3539 3571 2402
3523 3603 2642
3539 3603 3058
3571 3667 3443
3683 3699 3603
3699 3715 3667
3715 3619 1985
3731 3619 2306
3731 3667 2722
3715 3699 2930
3731 3747 3138
3747 3779 3378
3795 3779 3539
3747 3747 3651
3747 3779 3699
3587 1617 2130
3603 1617 2306
3619 1665 2498
3651 1681 2674
3651 1745 2818
3651 1857 2930
3683 2033 3042
3683 2146 3138
3699 2194 3186
3683 2194 2514
3667 2017 2418
3651 1809 2434
3667 1889 2674
3667 2098 2914
3699 2322 3090
3699 2402 3154
3699 2482 3234
3715 2562 3298
3667 2482 1985
3651 2274 2322
3651 2146 2402
3619 2146 2578
3667 2370 2930
3699 2578 3154
3715 2722 3282
3731 2882 3378
3731 2882 3443
3667 2834 1729
3667 2626 2082
3619 2450 2226
3619 2370 2450
3619 2370 2706
3651 2578 3058
3667 2738 3282
3747 3090 3459
3747 3154 3523
3651 3202 1009
3603 3042 1217
3603 2770 1745
3587 2578 2274
3603 2610 2626
3619 2754 2994
3651 2898 3282
3715 3170 3507
3795 3443 3571
3667 3443 1297
3651 3314 1441
3619 3106 1521
3587 2930 1985
3603 2978 2418
3619 3010 2994
3667 3138 3314
3731 3346 3555
3779 3603 3651
3715 3539 1585
3683 3459 1713
3651 3378 1793
3603 3298 2017
3619 3298 2402
3651 3330 2882
3683 3394 3330
3731 3539 3587
3747 3699 3651
3747 3619 2017
3779 3619 2370
3699 3603 2402
3683 3619 2498
3683 3603 2706
3683 3651 3010
3731 3683 3394
3747 3699 3587
3779 3747 3699
3795 3667 2402
3795 3683 2722
3811 3731 3010
3747 3747 3026
3779 3795 3202
3779 3795 3394
3811 3795 3571
3843 3811 3683
3827 3811 3715
3683 2130 2594
3699 2194 2818
3715 2178 2914
3715 2210 2994
3715 2274 3090
3715 2306 3138
3715 2434 3202
3699 2434 3234
3715 2514 3298
3731 2610 2866
3731 2610 2978
3731 2562 3010
3779 2626 3138
3747 2674 3186
3731 2690 3250
3747 2706 3314
3747 2786 3346
3747 2866 3410
3731 2898 2290
3811 2962 3042
3779 2834 2994
3795 2818 3058
3795 2722 3122
3795 2770 3250
3795 2978 3394
3779 3106 3459
3779 3106 3507
3683 3090 1073
3795 3154 2546
3811 2930 2754
3843 2738 2754
3827 2610 2850
3827 2722 3122
3811 2898 3346
3811 3250 3523
3795 3298 3571
3699 3298 1249
3715 3202 1457
3795 2930 1889
3859 2818 2402
3875 2722 2706
3875 2786 3026
3859 2930 3314
3843 3234 3571
3795 3539 3603
3731 3475 1553
3779 3330 1649
3827 3138 1713
3875 3010 2050
3875 2994 2482
3923 3026 3010
3875 3122 3298
3843 3330 3555
3811 3619 3651
3747 3571 1745
3811 3523 1937
3827 3394 1985
3875 3330 2130
3891 3314 2466
3891 3346 2914
3923 3410 3330
3875 3555 3603
3843 3699 3715
3811 3651 2306
3827 3683 2626
3843 3651 2546
3875 3619 2514
3923 3619 2738
3891 3651 3042
3859 3683 3378
3859 3731 3603
3859 3795 3715
3811 3715 2898
3827 3731 3202
3827 3779 3282
3843 3795 3202
3843 3827 3282
3859 3811 3443
3875 3811 3619
3859 3811 3715
3843 3811 3731
