其他预设/【236】赛博朋克风调色预设/【后期菌】视频调色预设/3DL/Abandoned 09.3dl
# LUT by SparkleStock. Enhanced with VOXCOLOR algorithms.
0 256 512 768 1023
64 16 16
80 80 128
112 176 512
208 544 1601
496 1265 2770
80 128 144
96 240 320
112 512 1009
256 1233 2418
656 2178 3202
16 705 480
32 961 977
80 1505 2066
416 2514 3234
1089 3106 3523
0 2322 1505
64 2594 2338
256 2898 3138
785 3234 3539
1617 3427 3619
448 3138 2626
865 3298 3154
1153 3394 3427
1537 3459 3539
2178 3555 3619
192 160 224
224 160 352
304 240 801
608 624 1905
1105 1633 2994
1201 592 512
1377 576 993
320 929 1697
592 1777 2898
1393 2706 3378
336 1169 480
96 1505 1617
304 2210 2770
945 2898 3394
1889 3330 3571
1633 2786 656
448 2866 2610
769 3106 3282
1473 3298 3475
2466 3523 3603
2850 3378 817
2850 3410 1777
2450 3523 3410
2674 3555 3523
3058 3619 3619
2242 592 544
2130 560 945
2162 592 1409
2338 721 2033
3042 1249 2722
3282 1345 1185
3378 1441 2033
3394 1473 2466
3090 1537 2738
3154 2834 3378
2322 2290 432
3266 2546 1713
3042 2370 2818
2033 3154 3427
2786 3459 3587
3170 3282 721
3282 3298 1249
2194 3298 3202
2706 3443 3459
3170 3571 3603
3539 3555 1329
3587 3571 1937
3587 3619 2866
3475 3683 3587
3555 3715 3667
3459 1185 1505
3459 1233 2017
3523 1345 2450
3539 1521 2770
3587 1793 3026
3603 2274 2194
3555 2210 2674
3603 2322 2978
3667 2434 3154
3683 2594 3298
3443 3058 769
3571 3106 2402
3651 3106 3186
3683 3202 3394
3667 3394 3555
3651 3507 1297
3603 3475 1825
3619 3475 2706
3603 3587 3459
3651 3683 3667
3715 3619 1985
3731 3667 2722
3795 3731 3250
3811 3779 3555
3747 3779 3699
3683 2130 2594
3715 2178 2914
3715 2274 3090
3715 2434 3202
3715 2514 3298
3731 2898 2290
3747 2994 3170
3747 3010 3298
3779 3058 3410
3779 3106 3507
3699 3330 1281
3699 3346 2322
3731 3427 3410
3747 3459 3507
3795 3539 3603
3747 3571 1745
3731 3571 2498
3731 3619 3026
3827 3683 3555
3843 3731 3699
3811 3715 2898
3843 3747 3394
3827 3779 3555
3859 3811 3683
3843 3811 3731
