其他预设/【236】赛博朋克风调色预设/【后期菌】视频调色预设/3DL/Abandoned 01.3dl
# LUT by SparkleStock. Enhanced with VOXCOLOR algorithms.
0 256 512 768 1023
400 160 320
400 208 400
480 320 656
672 705 1457
929 1361 2482
432 288 448
480 400 608
592 769 1169
865 1457 2194
1233 2146 2930
512 1009 913
608 1265 1297
817 1729 2033
1265 2450 2866
1665 2866 3266
881 2450 1825
1089 2594 2338
1377 2818 2802
1777 3074 3202
2322 3298 3443
1713 3138 2658
2017 3250 2962
2178 3298 3138
2418 3346 3330
2658 3427 3459
496 288 496
512 304 592
592 400 881
865 801 1761
1233 1649 2786
1249 833 913
1265 801 1233
817 1217 1697
1105 1889 2594
1569 2578 3138
753 1505 1009
817 1761 1761
1137 2274 2498
1569 2754 3090
2114 3138 3394
1889 2754 1185
1441 2834 2530
1697 2994 2978
2082 3138 3234
2562 3346 3443
3042 3298 1457
3090 3346 2322
2818 3394 3250
2930 3394 3362
3186 3491 3491
1761 656 817
1649 689 1105
1617 753 1409
1649 897 1857
2178 1329 2530
2866 1489 1409
2946 1473 1889
2882 1489 2194
2498 1665 2594
2786 2722 3218
2242 2290 993
3058 2466 1953
2786 2434 2674
2114 2978 3218
2626 3250 3459
3106 3058 1265
3218 3090 1681
2594 3186 3042
2818 3266 3266
3138 3394 3459
3523 3378 1889
3587 3427 2402
3587 3459 2930
3491 3507 3443
3523 3523 3507
3122 1217 1457
3106 1185 1713
3106 1281 2114
3074 1377 2418
3090 1569 2658
3362 2146 2066
3330 2050 2370
3330 2146 2626
3362 2226 2866
3346 2354 3042
3202 2706 1217
3394 2850 2402
3427 2850 2914
3475 2946 3090
3491 3170 3346
3555 3250 1745
3523 3234 2210
3555 3250 2706
3523 3378 3298
3555 3491 3491
3683 3443 2402
3715 3475 2818
3715 3507 3106
3731 3571 3394
3699 3571 3523
3475 1889 2210
3475 1905 2482
3475 1937 2674
3475 2082 2866
3459 2146 2962
3523 2610 2146
3571 2706 2850
3571 2722 2978
3555 2802 3122
3555 2818 3218
3555 2994 1617
3523 3058 2370
3571 3138 3138
3603 3202 3234
3635 3250 3378
3683 3330 2194
3635 3330 2578
3619 3346 2882
3683 3427 3330
3731 3507 3507
3747 3507 2930
3763 3571 3250
3731 3571 3427
3763 3587 3523
3779 3603 3587
