其他预设/【236】赛博朋克风调色预设/【后期菌】视频调色预设/3DL/Abandoned 07.3dl
# LUT by SparkleStock. Enhanced with VOXCOLOR algorithms.
0 128 256 384 512 640 768 896 1023
16 16 48
96 80 192
96 144 320
160 256 512
208 400 769
320 528 1137
464 753 1617
640 993 2194
817 1297 2674
96 176 224
80 208 304
160 320 496
192 416 689
272 576 1009
400 737 1409
528 1009 1905
721 1329 2514
897 1649 2866
112 336 400
160 416 512
192 496 656
256 640 897
400 881 1345
496 1121 1777
640 1393 2354
817 1745 2770
1009 2162 3026
192 656 656
256 785 817
336 897 1025
416 1089 1361
496 1313 1745
576 1505 2226
737 1873 2658
881 2210 2914
1137 2626 3138
320 1169 1105
368 1345 1313
416 1377 1425
496 1537 1745
560 1729 2194
721 2130 2610
881 2466 2898
1089 2738 3090
1329 2898 3250
400 1841 1617
448 2066 1873
512 2066 2066
592 2194 2290
705 2402 2546
865 2674 2850
1089 2866 3074
1297 2994 3218
1553 3122 3362
544 2658 2274
624 2754 2450
672 2722 2530
753 2754 2626
897 2834 2802
1089 2978 2994
1297 3106 3170
1505 3186 3298
1857 3314 3443
817 3138 2674
865 3170 2786
977 3186 2898
1073 3170 2978
1185 3186 3058
1313 3202 3106
1505 3250 3234
1729 3314 3346
2001 3362 3410
1153 3394 2914
1265 3427 3058
1393 3443 3122
1457 3427 3170
1569 3459 3234
1681 3443 3282
1857 3427 3330
2082 3427 3346
2242 3459 3427
208 144 288
224 160 352
240 176 464
240 256 608
304 336 849
416 608 1297
592 881 1889
801 1185 2450
1041 1457 2850
416 368 544
464 400 672
352 400 737
384 576 977
448 769 1297
544 977 1761
689 1217 2290
929 1553 2738
1137 1937 2994
544 576 737
336 560 737
368 656 929
464 865 1265
528 1089 1617
624 1297 2082
801 1601 2562
1041 2050 2914
1297 2450 3170
480 817 849
416 977 1057
496 1121 1297
512 1265 1553
624 1537 2082
737 1745 2466
897 2098 2802
1137 2514 3058
1457 2802 3250
592 1313 1153
496 1537 1521
560 1617 1713
640 1761 2098
737 2082 2450
849 2338 2738
1089 2674 2994
1313 2866 3186
1617 2994 3314
817 2017 1425
560 2274 2098
640 2306 2274
785 2466 2530
865 2578 2674
1057 2786 2914
1313 2978 3138
1553 3090 3298
1889 3218 3427
1137 2770 1745
817 2898 2498
849 2882 2658
977 2914 2786
1105 2962 2898
1297 3058 3058
1505 3138 3186
1825 3250 3330
2098 3330 3443
1521 3106 1905
1265 3218 2658
1249 3298 2994
1377 3298 3106
1425 3282 3122
1617 3282 3186
1777 3314 3250
2098 3362 3346
2290 3410 3427
2098 3282 1969
2001 3330 2642
1889 3443 3074
1793 3507 3234
1953 3507 3298
2066 3475 3314
2178 3459 3330
2354 3475 3410
2466 3475 3443
496 336 544
448 288 592
496 336 737
480 320 849
576 400 1153
640 544 1473
849 737 2001
1025 1137 2530
1345 1569 2914
1121 656 897
1169 656 1057
1137 624 1201
993 656 1409
897 737 1601
929 929 2017
977 1457 2578
1201 1825 2898
1441 2210 3122
1777 1089 1041
2194 1073 1265
1937 993 1393
977 1073 1713
785 1329 2066
833 1537 2434
1041 1937 2786
1297 2322 3058
1585 2642 3234
1537 1345 977
1281 1361 1489
865 1361 1665
913 1537 2066
833 1729 2354
913 2066 2658
1137 2418 2962
1425 2738 3170
1697 2914 3314
897 1649 1185
849 1729 1601
672 1857 2001
785 2082 2338
897 2354 2610
1073 2610 2866
1361 2850 3122
1633 3010 3282
1969 3138 3410
1393 2418 1297
1217 2610 1905
817 2530 2450
961 2674 2658
1121 2786 2850
1313 2914 3010
1617 3090 3202
1905 3186 3330
2178 3282 3443
1937 2802 1297
1617 2946 1857
1169 3074 2786
1217 3058 2898
1425 3106 3026
1585 3122 3106
1857 3202 3218
2130 3314 3346
2386 3362 3459
2386 3090 1425
2290 3170 1889
1889 3234 2770
1681 3394 3122
1825 3362 3202
1905 3330 3202
2130 3362 3282
2386 3410 3394
2530 3443 3443
2642 3218 1585
2754 3282 1905
2722 3330 2338
2498 3459 3122
2386 3539 3314
2434 3523 3346
2498 3507 3362
2626 3523 3443
2738 3539 3507
1297 608 849
1297 592 1009
1297 576 1153
1233 544 1313
1249 512 1473
1361 576 1729
1777 721 2098
2194 833 2354
1777 1441 2962
2418 1009 1041
2322 961 1169
2402 993 1377
2402 929 1505
2418 945 1729
2082 897 2017
1873 1201 2530
1969 1649 2946
2098 2130 3170
2834 1441 1153
2978 1393 1473
2914 1377 1617
2882 1345 1777
2226 1217 2001
2001 1425 2418
2066 1905 2866
1697 2546 3170
1889 2754 3298
2754 1729 913
3058 1857 1377
3138 1713 1873
2898 1617 2082
1537 2017 2530
1329 2402 2866
1409 2642 3058
1761 2898 3234
2050 3010 3346
1777 2001 849
1793 2114 1217
1729 2082 1841
1169 2274 2418
1409 2562 2738
1393 2770 2978
1617 2978 3186
1985 3122 3330
2274 3202 3443
2210 2530 1009
2322 2546 1121
1873 2722 1969
1233 2850 2786
1377 2914 2914
1633 3058 3090
1905 3122 3202
2194 3218 3362
2418 3314 3459
2546 2866 1217
2690 2962 1393
2530 3026 1889
1617 3218 2994
1665 3218 3058
1905 3218 3138
2194 3282 3234
2466 3362 3394
2626 3410 3459
2802 3138 1473
2898 3170 1617
2802 3218 2098
2562 3362 2994
2402 3410 3122
2306 3410 3234
2450 3410 3298
2610 3443 3394
2738 3459 3459
2994 3330 1825
3058 3346 2001
3106 3362 2274
3170 3443 2626
2866 3539 3298
2754 3539 3362
2850 3571 3443
2882 3555 3475
2946 3555 3523
2546 897 993
2610 897 1137
2514 849 1249
2498 817 1441
2514 769 1601
2610 801 1857
2626 785 2066
2850 977 2514
2946 1169 2850
3170 1377 1313
3122 1329 1457
3138 1297 1617
3074 1249 1777
3074 1201 2001
3090 1169 2242
3122 1265 2546
3106 1345 2770
3122 1601 3074
3250 1729 1409
3314 1665 1793
3282 1665 1985
3298 1633 2178
3298 1617 2450
3218 1585 2562
2994 1681 2850
2850 2098 3138
2754 2530 3314
3218 2098 1137
3314 2178 1681
3346 2066 2290
3250 1985 2386
3218 1985 2530
2994 2001 2770
2866 2322 3058
2850 2786 3298
2498 3090 3459
2546 2338 785
2786 2418 945
3330 2578 1761
3298 2450 2546
2994 2386 2738
2290 2802 3026
2162 3074 3234
2354 3186 3410
2562 3298 3507
2802 2722 977
2914 2786 1169
3010 2850 1377
2994 2866 2098
2098 3010 2962
2354 3106 3106
2290 3186 3234
2546 3314 3394
2674 3362 3475
3010 3026 1297
3074 3074 1473
3170 3122 1681
3058 3138 2178
2306 3314 3122
2354 3314 3202
2530 3314 3282
2722 3394 3410
2866 3427 3507
3138 3282 1649
3186 3282 1841
3250 3330 2098
3250 3346 2306
3010 3459 3186
2754 3443 3298
2802 3475 3410
2914 3523 3459
2994 3523 3523
3234 3410 2066
3282 3427 2242
3314 3459 2434
3362 3507 2674
3362 3507 2898
3170 3587 3427
3106 3619 3507
3106 3587 3523
3186 3619 3555
3202 1249 1281
3186 1201 1409
3202 1217 1569
3170 1137 1729
3202 1105 1969
3186 1121 2242
3218 1121 2466
3218 1201 2738
3282 1345 2946
3394 1617 1649
3394 1585 1841
3394 1585 2001
3346 1521 2178
3362 1521 2418
3362 1489 2578
3330 1505 2754
3362 1601 2946
3394 1729 3106
3443 2017 1729
3427 1889 2114
3410 1937 2306
3427 1905 2498
3410 1889 2626
3427 1937 2834
3410 1905 2946
3394 1953 3058
3394 2114 3218
3459 2434 1457
3443 2434 1969
3459 2338 2466
3443 2274 2578
3459 2354 2786
3443 2338 2914
3427 2354 3058
3250 2514 3218
3138 2786 3410
3026 2642 897
3186 2754 1153
3427 2786 1953
3427 2690 2674
3362 2626 2834
3410 2674 2994
3218 2786 3170
3138 3026 3346
3138 3250 3539
3218 2994 1185
3282 3010 1393
3330 3058 1569
3475 3106 2130
3459 3106 2514
3122 3090 3186
2770 3218 3282
2786 3330 3427
2978 3410 3555
3330 3218 1537
3346 3218 1681
3394 3250 1937
3427 3314 2162
3314 3298 2626
2898 3314 3218
2914 3362 3362
2978 3427 3459
3074 3475 3523
3362 3346 1825
3410 3362 2066
3427 3427 2322
3443 3459 2530
3443 3475 2834
3282 3539 3346
3090 3507 3427
3186 3555 3523
3218 3571 3555
3427 3475 2306
3443 3523 2498
3475 3539 2674
3539 3571 2834
3539 3587 3010
3571 3635 3234
3427 3651 3539
3394 3667 3635
3410 3667 3635
3443 1537 1633
3427 1489 1793
3427 1457 1985
3427 1457 2210
3459 1457 2450
3459 1441 2658
3459 1473 2850
3443 1473 2962
3475 1569 3090
3539 1905 2098
3507 1841 2210
3523 1857 2434
3523 1841 2626
3507 1825 2754
3507 1793 2866
3475 1793 2978
3475 1873 3090
3459 1857 3186
3555 2338 2098
3555 2290 2450
3507 2194 2466
3523 2242 2722
3523 2226 2850
3539 2226 2978
3539 2274 3122
3523 2242 3202
3507 2274 3298
3587 2722 1761
3555 2690 2226
3539 2610 2690
3523 2562 2786
3507 2546 2898
3523 2578 3026
3523 2578 3122
3523 2610 3234
3523 2642 3330
3362 2914 1137
3427 2978 1377
3523 2978 2242
3523 2898 2866
3507 2802 2946
3523 2882 3106
3523 2866 3218
3459 2866 3298
3394 3010 3459
3427 3138 1425
3507 3186 1633
3475 3202 1905
3523 3218 2290
3571 3218 2610
3459 3090 3186
3459 3090 3314
3410 3218 3443
3394 3410 3571
3523 3330 1793
3539 3346 2001
3507 3346 2162
3507 3362 2322
3523 3394 2626
3555 3410 2914
3394 3427 3362
3218 3459 3443
3346 3555 3619
3523 3443 2178
3539 3475 2402
3555 3507 2578
3571 3523 2738
3587 3523 2866
3555 3555 3186
3475 3571 3459
3443 3587 3571
3443 3619 3651
3555 3555 2562
3587 3587 2754
3619 3619 2914
3635 3651 3090
3651 3667 3250
3731 3731 3443
3731 3747 3587
3571 3699 3651
3555 3731 3699
3571 1793 2114
3587 1793 2338
3619 1761 2530
3587 1745 2658
3587 1745 2786
3587 1761 2914
3619 1825 3058
3619 1841 3170
3587 1841 3250
3683 2274 2530
3651 2274 2626
3619 2162 2674
3635 2194 2834
3619 2210 2962
3619 2162 3026
3587 2194 3122
3587 2178 3234
3571 2210 3330
3667 2674 2226
3651 2562 2770
3619 2546 2850
3587 2514 2898
3619 2530 3026
3619 2530 3106
3587 2530 3202
3587 2530 3314
3571 2514 3362
3667 2914 2017
3683 2914 2546
3619 2866 2834
3587 2786 2978
3571 2770 3058
3571 2786 3122
3555 2754 3202
3587 2802 3346
3571 2786 3410
3571 3122 1457
3587 3122 1633
3619 3122 2274
3571 3010 2994
3555 2978 3122
3571 3010 3250
3539 2978 3314
3539 2994 3394
3587 3026 3507
3619 3282 1697
3619 3298 1937
3555 3282 2066
3587 3298 2514
3619 3298 2738
3587 3250 3314
3587 3234 3427
3619 3250 3507
3587 3346 3587
3619 3427 2082
3619 3443 2274
3619 3459 2450
3587 3443 2578
3587 3443 2738
3667 3523 3090
3667 3523 3443
3667 3475 3539
3635 3555 3667
3651 3555 2514
3667 3587 2722
3651 3571 2866
3667 3587 3026
3667 3619 3170
3699 3651 3314
3699 3667 3475
3667 3683 3635
3635 3683 3699
3683 3635 2802
3683 3651 2994
3731 3699 3218
3699 3683 3314
3763 3747 3475
3779 3763 3587
3795 3795 3699
3811 3859 3779
3763 3811 3811
3699 2162 2562
3699 2178 2738
3699 2114 2850
3683 2114 2946
3683 2114 3058
3667 2098 3122
3667 2130 3234
3651 2098 3282
3635 2082 3362
3747 2530 2786
3731 2498 2866
3699 2450 2946
3699 2498 3058
3667 2434 3106
3651 2418 3170
3651 2434 3250
3651 2402 3330
3635 2418 3410
3731 2850 2242
3747 2834 3010
3683 2770 3026
3683 2770 3106
3667 2738 3170
3651 2722 3218
3651 2722 3314
3635 2690 3394
3619 2674 3427
3667 3026 1441
3747 3090 2498
3683 3026 3026
3667 2978 3138
3619 2914 3186
3651 2962 3298
3635 2914 3362
3635 2946 3427
3619 2898 3475
3683 3202 1617
3667 3218 1825
3635 3218 2242
3667 3234 2914
3635 3122 3282
3635 3138 3346
3635 3122 3427
3635 3138 3459
3651 3170 3539
3683 3362 1953
3667 3394 2130
3651 3394 2306
3651 3394 2610
3667 3394 2882
3683 3410 3443
3667 3362 3475
3667 3346 3539
3699 3410 3635
3699 3507 2290
3699 3539 2514
3683 3539 2658
3683 3539 2802
3683 3539 2946
3747 3587 3234
3763 3619 3523
3779 3619 3651
3763 3587 3731
3699 3587 2690
3747 3651 2898
3731 3651 3074
3731 3667 3218
3747 3683 3314
3779 3699 3459
3795 3731 3587
3843 3795 3699
3811 3747 3795
3763 3699 3122
3795 3747 3314
3795 3763 3443
3811 3779 3571
3811 3811 3667
3859 3859 3763
3875 3875 3811
3859 3875 3859
3859 3875 3875
