其他预设/【236】赛博朋克风调色预设/【后期菌】视频调色预设/3DL/Abandoned 03_S.3dl
# LUT by SparkleStock. Enhanced with VOXCOLOR algorithms.
0 64 128 192 256 320 384 448 512 576 640 704 768 832 896 960 1023
48 48 48
64 64 64
48 48 48
64 64 64
64 64 64
80 80 80
80 64 96
80 80 128
96 80 176
128 80 288
144 80 416
160 96 672
176 96 1025
160 96 1409
192 176 1825
208 288 2178
288 480 2466
64 64 64
64 64 64
64 64 64
64 64 80
80 64 80
80 64 96
80 80 112
80 80 144
112 80 224
144 80 352
160 112 576
160 112 833
160 96 1249
160 160 1649
176 288 2082
224 448 2386
288 721 2674
64 64 64
48 48 48
64 48 64
80 80 80
80 80 96
80 80 96
96 80 176
112 80 208
128 96 288
144 96 496
144 128 689
160 144 1089
160 176 1441
160 288 1969
192 496 2386
288 769 2690
368 1089 2930
80 80 80
64 64 64
80 80 80
80 80 80
80 80 112
96 80 144
112 96 192
128 96 256
144 112 416
160 144 705
160 176 945
176 224 1377
144 336 1841
160 512 2290
208 785 2610
352 1233 2994
464 1473 3138
80 64 80
80 80 80
80 80 80
80 80 96
96 80 128
128 128 192
128 112 224
144 144 368
176 176 560
176 224 929
176 288 1313
160 400 1697
176 624 2290
208 897 2626
304 1265 2962
400 1521 3138
608 1937 3362
80 80 80
80 80 80
112 112 112
128 128 144
144 144 192
144 144 224
160 176 384
176 224 560
192 288 865
176 368 1233
160 448 1569
176 721 2178
192 1009 2594
256 1345 2898
416 1697 3138
624 2194 3378
817 2498 3491
112 160 96
128 144 128
144 176 144
144 208 208
160 208 256
160 240 352
208 304 576
224 384 849
208 512 1233
192 656 1585
176 849 2114
208 1201 2594
288 1489 2914
352 1761 3122
544 2210 3314
817 2594 3491
1073 2834 3603
144 224 128
176 288 176
176 288 224
208 352 288
224 400 416
224 432 560
240 544 833
224 672 1169
224 849 1505
208 1041 2001
224 1329 2466
288 1713 2866
368 1985 3106
560 2402 3330
849 2738 3491
1105 2978 3603
1313 3090 3683
224 480 176
240 544 256
288 624 352
288 689 480
288 705 592
304 913 961
288 1009 1217
288 1201 1633
256 1313 1985
288 1585 2466
352 2017 2898
448 2306 3138
640 2642 3330
833 2866 3491
1105 3074 3603
1393 3234 3699
1569 3298 3731
320 897 288
352 977 384
368 1153 560
368 1265 769
368 1361 1089
352 1393 1297
320 1537 1617
336 1713 2098
352 2001 2514
400 2226 2834
448 2482 3106
624 2738 3282
817 2930 3410
1057 3106 3587
1361 3282 3683
1553 3362 3731
1905 3443 3779
480 1569 512
480 1729 769
480 1921 1009
448 1937 1281
416 2082 1505
416 2162 1841
400 2242 2242
400 2402 2530
448 2562 2898
608 2818 3122
721 2978 3314
929 3122 3475
1169 3266 3587
1313 3314 3635
1601 3410 3731
1905 3491 3779
2210 3539 3811
560 2466 945
576 2578 1201
560 2626 1521
528 2642 1713
512 2690 2082
544 2834 2466
592 2930 2738
624 2994 2930
753 3090 3202
769 3106 3282
1009 3298 3491
1233 3362 3587
1329 3362 3619
1649 3491 3731
1921 3523 3779
2210 3571 3795
2386 3587 3827
689 3090 1505
689 3042 1729
721 3170 2194
689 3170 2386
705 3138 2626
801 3234 2914
801 3218 3042
833 3202 3186
961 3314 3330
1009 3314 3410
1313 3443 3571
1473 3443 3635
1681 3507 3715
1985 3571 3763
2210 3587 3795
2482 3635 3811
2722 3683 3843
833 3362 2130
945 3443 2578
929 3410 2642
977 3410 2866
1041 3427 3042
1105 3443 3202
1089 3427 3234
1185 3475 3394
1377 3523 3523
1425 3523 3523
1633 3539 3635
1777 3587 3683
2001 3587 3731
2226 3619 3763
2498 3667 3811
2722 3699 3811
2738 3683 3827
1201 3619 2642
1233 3603 2834
1297 3603 2994
1313 3587 3090
1409 3603 3218
1473 3587 3362
1569 3603 3443
1569 3603 3475
1681 3587 3539
1889 3635 3603
1921 3619 3667
2194 3635 3715
2290 3667 3731
2498 3683 3779
2594 3683 3795
2770 3715 3811
2930 3715 3827
1585 3731 3010
1601 3715 3026
1713 3699 3218
1825 3683 3314
1969 3699 3410
2098 3715 3491
2098 3699 3523
2162 3699 3539
2306 3715 3603
2386 3699 3667
2386 3683 3699
2434 3683 3715
2626 3715 3763
2786 3731 3795
2914 3731 3811
2898 3731 3811
2994 3731 3827
2066 3779 3170
2194 3779 3298
2338 3779 3394
2482 3795 3443
2466 3779 3491
2482 3763 3523
2498 3731 3539
2642 3763 3619
2642 3731 3635
2674 3715 3667
2786 3731 3715
2834 3731 3763
2914 3763 3779
2962 3763 3779
3106 3779 3811
3106 3763 3811
3218 3795 3843
64 64 64
48 48 48
80 80 80
80 80 80
64 64 80
80 80 112
80 80 112
80 64 128
112 80 192
144 80 336
176 96 544
176 96 769
192 96 1105
192 128 1537
224 208 1985
240 352 2274
352 592 2562
80 64 80
64 64 80
80 80 80
80 64 80
80 80 96
80 80 112
96 80 144
112 80 208
144 80 288
144 96 448
160 112 640
192 128 1041
192 144 1409
208 224 1889
224 368 2242
336 640 2578
416 865 2770
80 80 80
80 64 80
80 80 80
80 80 96
96 80 112
96 80 144
112 80 224
128 96 256
160 112 416
176 144 672
192 160 961
176 176 1313
208 256 1777
224 432 2210
256 624 2514
416 1009 2866
528 1313 3090
80 80 80
80 80 96
96 80 96
96 80 112
96 80 128
112 96 176
144 112 256
160 128 384
160 144 544
192 192 913
192 224 1233
176 272 1601
192 432 2066
240 721 2514
352 1041 2818
448 1345 3042
640 1761 3266
96 80 80
80 80 80
80 80 96
112 96 128
128 112 160
144 144 256
160 144 352
160 160 480
192 224 785
176 256 1089
208 384 1553
192 496 1937
192 705 2370
272 1105 2786
448 1505 3090
560 1793 3266
801 2194 3427
96 96 96
112 112 112
112 112 128
128 144 160
144 144 208
160 192 304
192 224 496
192 272 689
208 352 1073
208 480 1457
192 624 1889
208 897 2386
256 1233 2770
384 1537 3042
560 2001 3266
865 2466 3475
1041 2642 3523
144 192 128
144 160 144
144 192 192
160 240 256
192 288 352
224 320 496
224 400 689
224 480 1009
224 608 1377
224 881 1889
256 1169 2434
240 1281 2674
368 1697 3042
560 2114 3266
705 2418 3394
1041 2786 3539
1313 2978 3635
176 288 128
192 352 208
224 384 272
224 416 336
240 496 480
240 512 689
272 705 1105
256 817 1377
224 1009 1793
256 1249 2290
336 1633 2738
400 1889 2994
528 2274 3218
801 2642 3427
993 2882 3523
1393 3122 3667
1521 3186 3699
256 544 144
304 721 352
320 801 480
304 833 560
336 929 785
320 1089 1137
320 1169 1441
288 1313 1809
304 1521 2274
384 1985 2770
416 2114 2962
560 2482 3202
785 2770 3410
1057 3010 3539
1345 3170 3635
1553 3266 3715
1937 3394 3779
416 961 144
400 1233 512
416 1345 769
384 1409 961
400 1489 1201
400 1649 1585
384 1793 1921
368 1969 2338
416 2226 2706
512 2498 3010
640 2690 3218
801 2882 3330
993 3026 3491
1265 3186 3619
1521 3298 3699
1761 3394 3731
2194 3507 3795
624 1713 240
496 1921 913
496 2066 1185
496 2226 1473
464 2210 1665
448 2306 2017
480 2482 2482
528 2610 2786
656 2866 3106
705 2914 3202
849 3026 3362
1105 3186 3507
1313 3298 3587
1585 3394 3715
1809 3443 3763
2178 3523 3795
2498 3587 3827
769 2434 400
656 2738 1377
624 2786 1601
608 2802 2017
592 2882 2290
656 2994 2642
672 2994 2802
769 3042 3010
849 3106 3234
961 3202 3394
1169 3298 3491
1409 3378 3603
1585 3410 3667
1889 3507 3731
2114 3539 3779
2466 3587 3811
2610 3603 3827
993 3074 833
833 3202 1697
865 3218 2082
833 3186 2418
865 3266 2738
865 3202 2914
945 3234 3090
1041 3298 3234
1105 3330 3378
1249 3362 3443
1489 3475 3587
1585 3443 3619
1873 3507 3699
2114 3539 3763
2386 3587 3779
2642 3635 3811
2802 3667 3811
1249 3427 1313
1041 3427 2306
1137 3475 2610
1281 3523 2994
1281 3491 3170
1233 3443 3234
1345 3507 3330
1489 3539 3443
1505 3523 3507
1585 3523 3539
1825 3539 3635
2017 3603 3699
2226 3603 3731
2434 3635 3779
2626 3667 3795
2866 3699 3811
2898 3683 3827
1537 3635 1617
1441 3619 2322
1537 3635 2610
1601 3635 2978
1665 3619 3298
1793 3635 3427
1809 3603 3491
1905 3619 3507
2033 3635 3571
2130 3667 3603
2194 3635 3635
2322 3635 3715
2402 3635 3715
2626 3667 3763
2738 3683 3795
2930 3731 3827
3090 3731 3827
2066 3731 2066
2017 3731 2626
2194 3731 2866
2194 3699 3106
2226 3699 3410
2338 3715 3507
2322 3699 3523
2322 3699 3523
2466 3715 3571
2562 3699 3667
2594 3699 3699
2690 3699 3715
2786 3699 3763
2866 3715 3779
3026 3731 3811
3010 3715 3795
3090 3763 3827
2642 3827 2498
2594 3795 2994
2706 3795 3106
2642 3779 3282
2706 3779 3507
2690 3763 3507
2802 3779 3587
2802 3779 3619
2866 3763 3635
2914 3779 3699
2962 3763 3715
2962 3731 3715
3042 3763 3763
3090 3763 3779
3138 3763 3795
3282 3795 3827
3298 3779 3811
64 64 80
80 64 80
80 80 80
80 64 80
80 80 96
80 80 112
80 80 128
112 80 144
144 80 224
176 80 368
176 80 560
224 112 961
224 112 1377
224 160 1729
288 304 2194
368 512 2466
512 737 2690
80 80 96
80 80 96
80 80 96
80 80 96
96 80 128
96 80 144
112 80 160
128 80 224
192 96 400
208 112 528
208 128 897
208 128 1249
224 176 1617
240 288 2098
336 528 2434
432 801 2722
592 1169 2994
144 96 112
144 80 128
160 96 144
144 80 144
128 80 144
112 80 160
144 96 256
160 112 352
176 128 512
176 144 769
208 176 1201
208 224 1585
224 352 2017
288 624 2482
368 881 2722
560 1233 3010
721 1537 3186
160 96 128
160 96 144
176 112 160
160 112 176
160 112 224
160 128 256
176 128 320
192 144 496
192 160 721
224 224 1105
208 256 1441
208 416 1889
240 560 2306
320 897 2690
496 1313 3010
624 1537 3170
945 2098 3394
208 128 144
128 112 144
128 112 144
144 144 176
160 144 256
176 160 320
208 192 496
224 240 689
208 256 993
208 304 1329
208 464 1729
224 672 2242
272 961 2610
368 1249 2882
608 1697 3202
801 2114 3378
1185 2594 3539
208 144 160
144 128 144
144 144 160
176 192 240
192 240 336
224 288 448
224 320 640
224 352 897
224 432 1281
224 576 1633
224 801 2210
256 1073 2594
368 1377 2914
592 1905 3202
705 2194 3314
1105 2674 3507
1377 2882 3603
192 208 144
192 192 208
192 272 256
224 336 352
224 368 432
240 432 608
240 480 897
256 624 1265
272 833 1681
240 945 2066
288 1265 2514
352 1537 2882
496 1937 3122
769 2402 3362
977 2674 3491
1233 2898 3571
1585 3122 3699
240 336 144
240 416 208
240 448 336
256 544 464
272 576 592
304 817 993
288 849 1233
304 1057 1585
304 1297 2130
352 1553 2578
400 1809 2834
528 2162 3106
737 2514 3330
1041 2818 3507
1313 3074 3603
1601 3202 3699
1809 3282 3731
352 656 144
352 801 272
352 929 576
352 1041 753
352 1153 1041
368 1313 1377
352 1313 1697
368 1569 2114
368 1825 2530
464 2114 2866
560 2386 3106
785 2722 3314
1041 2962 3507
1249 3090 3571
1457 3202 3667
1809 3330 3731
2114 3427 3763
560 1217 112
528 1441 432
464 1553 961
480 1697 1233
448 1777 1505
432 1905 1825
416 1969 2114
480 2306 2594
512 2402 2882
624 2610 3074
833 2882 3314
1025 3010 3427
1297 3186 3539
1441 3234 3635
1841 3410 3731
2082 3443 3763
2434 3523 3811
897 2033 144
721 2033 464
544 2290 1393
528 2338 1681
528 2466 1937
528 2514 2386
608 2706 2770
640 2786 2898
737 2914 3122
961 3074 3362
1089 3138 3443
1281 3218 3523
1569 3362 3635
1841 3443 3731
2098 3491 3763
2434 3539 3795
2690 3603 3811
1201 2786 352
913 2738 737
753 2994 2001
737 2994 2386
737 3026 2530
801 3042 2802
849 3090 3010
897 3122 3122
1041 3218 3330
1249 3314 3443
1441 3378 3571
1633 3427 3667
1825 3443 3683
2130 3523 3763
2322 3539 3779
2594 3603 3795
2786 3635 3827
1553 3170 560
1217 3218 1089
1025 3282 2226
993 3282 2514
1009 3282 2834
1057 3282 3090
1185 3362 3218
1265 3378 3362
1345 3378 3427
1521 3427 3523
1681 3475 3603
1921 3507 3667
2114 3539 3699
2386 3587 3763
2610 3603 3795
2802 3635 3811
2930 3667 3811
2066 3443 865
1521 3475 1441
1377 3523 2530
1393 3507 2818
1489 3523 3170
1489 3507 3314
1585 3523 3410
1601 3523 3475
1873 3571 3587
2001 3587 3603
2210 3603 3683
2226 3603 3683
2498 3635 3731
2642 3635 3779
2802 3667 3779
2994 3699 3811
3026 3683 3811
2498 3619 1121
2242 3683 1585
1937 3667 2610
1985 3635 2914
1969 3619 3234
2033 3619 3443
2226 3667 3507
2210 3667 3539
2210 3635 3571
2386 3667 3619
2482 3667 3667
2530 3635 3699
2626 3667 3715
2818 3683 3763
2930 3715 3795
3010 3699 3795
3186 3731 3811
2994 3715 1377
2818 3763 1793
2642 3763 2402
2674 3763 2834
2594 3715 3314
2610 3731 3491
2690 3731 3539
2578 3699 3523
2706 3715 3587
2738 3699 3635
2882 3715 3699
2882 3699 3699
2914 3699 3715
3042 3715 3779
3170 3731 3795
3138 3731 3795
3202 3763 3811
3378 3827 1729
3202 3827 2194
3090 3827 2626
3106 3811 2978
3010 3795 3378
2898 3763 3507
2994 3779 3587
2994 3763 3619
3074 3779 3667
3074 3763 3683
3106 3763 3699
3106 3763 3731
3186 3763 3763
3282 3779 3795
3314 3779 3795
3362 3795 3811
3378 3779 3811
80 64 96
96 80 112
96 80 112
96 80 112
128 80 144
128 80 144
144 80 160
144 80 192
192 80 272
224 80 384
256 80 624
272 96 1009
288 96 1361
336 176 1841
352 352 2226
448 512 2482
640 865 2786
144 96 128
144 80 128
144 80 128
176 80 144
176 80 192
176 80 208
176 80 224
208 96 288
256 96 400
304 112 656
288 112 945
288 176 1473
288 288 1937
304 384 2210
416 689 2610
560 1009 2866
