其他预设/【236】赛博朋克风调色预设/【后期菌】视频调色预设/3DL/Abandoned 03_S.3dl
# LUT by SparkleStock. Enhanced with VOXCOLOR algorithms.
0 256 512 768 1023
48 48 48
64 64 64
96 80 176
176 96 1025
288 480 2466
80 64 80
96 80 128
176 176 560
176 624 2290
608 1937 3362
224 480 176
288 705 592
256 1313 1985
640 2642 3330
1569 3298 3731
689 3090 1505
705 3138 2626
961 3314 3330
1681 3507 3715
2722 3683 3843
2066 3779 3170
2466 3779 3491
2642 3731 3635
2914 3763 3779
3218 3795 3843
144 80 112
192 80 176
288 80 304
560 80 1361
1009 1009 2898
1201 288 320
1233 336 640
416 496 1553
576 1489 3010
1649 2818 3603
865 1297 144
544 1569 1377
672 2306 2770
1505 3138 3603
2690 3523 3795
3170 3378 737
1601 3427 2930
2001 3491 3539
2642 3587 3715
3202 3699 3811
3875 3843 1633
3715 3843 2738
3394 3795 3699
3410 3763 3763
3571 3811 3827
2194 128 256
1985 80 544
1985 64 865
2130 80 1425
2674 672 2530
2914 1041 721
2530 1025 1361
2626 1105 2178
2882 1377 2882
3202 2914 3571
2818 2338 256
2722 2338 1441
2706 2338 2610
2722 3394 3667
3266 3603 3795
3923 3635 1297
3731 3619 1777
3122 3603 3443
3330 3635 3699
3523 3715 3795
4035 3971 2482
4019 3923 2930
3971 3907 3394
3763 3843 3811
3795 3843 3843
3491 865 1217
3330 753 1601
3298 961 2370
3282 1249 2802
3330 1665 3106
3571 2114 1633
3298 1617 1809
3378 1905 2706
3619 2722 3362
3603 2802 3475
3763 3074 897
3394 2626 1761
3362 2562 2594
3587 3074 3410
3731 3539 3715
4067 3843 2226
3811 3683 2370
3587 3491 2690
3603 3571 3507
3811 3811 3827
4035 4003 3010
4035 3971 3330
3987 3971 3427
3987 3939 3763
3923 3907 3843
3811 2370 2706
3779 2498 3090
3731 2594 3282
3731 2722 3394
3715 2818 3475
4019 3298 2594
3891 3074 3138
3875 2914 3234
3843 3218 3539
3811 3330 3619
4019 3667 1873
4003 3138 2274
3971 2770 2738
3923 3010 3410
3891 3667 3731
4035 3923 2802
4035 3619 2418
4067 3443 2626
4019 3507 3427
3987 3811 3827
4067 4003 3410
4035 3987 3571
4019 3987 3443
4003 3939 3779
3987 3971 3891
