其他预设/【236】赛博朋克风调色预设/【后期菌】视频调色预设/3DL/Abandoned 06_S.3dl
# LUT by SparkleStock. Enhanced with VOXCOLOR algorithms.
0 128 256 384 512 640 768 896 1023
208 432 16
224 432 64
240 432 80
256 448 160
272 480 288
288 496 512
304 560 913
320 608 1393
400 689 1713
256 464 80
240 448 80
256 480 160
272 496 272
288 528 384
288 544 689
320 608 1153
352 721 1601
448 929 1889
256 496 112
256 528 160
256 528 224
288 544 352
320 592 624
320 672 1089
368 817 1521
480 1073 1873
576 1345 2162
304 592 256
320 592 320
320 624 416
336 689 689
352 785 1073
400 945 1489
496 1233 1841
592 1441 2098
721 1681 2402
384 753 432
416 833 592
368 865 753
432 1009 1169
464 1185 1521
560 1441 1873
640 1617 2130
769 1777 2354
897 1921 2498
544 1201 913
560 1345 1217
560 1409 1425
592 1489 1681
624 1601 1905
705 1745 2162
833 1921 2434
945 2033 2546
1137 2178 2722
705 1665 1585
753 1745 1761
737 1793 1905
785 1841 2066
833 1921 2242
913 2017 2402
1041 2130 2562
1233 2290 2706
1489 2466 2898
993 2098 1985
1009 2130 2114
1057 2178 2258
1121 2178 2370
1121 2242 2450
1169 2306 2578
1329 2418 2706
1521 2530 2866
1793 2626 2978
1425 2418 2370
1585 2530 2530
1649 2562 2594
1665 2562 2642
1729 2610 2754
1809 2642 2850
1905 2706 2930
2066 2770 3010
2178 2834 3090
288 464 96
288 464 112
304 464 160
304 464 208
320 464 352
320 528 624
352 592 1153
400 656 1553
528 801 1857
384 512 208
400 512 256
336 496 272
336 528 368
320 560 592
336 624 1025
368 672 1441
480 865 1761
624 1153 2050
432 560 304
336 560 288
336 576 368
320 592 592
336 656 881
368 753 1297
464 945 1665
608 1297 2050
833 1585 2354
400 624 320
368 656 432
384 737 608
368 769 865
448 945 1345
496 1137 1665
592 1393 1985
753 1633 2274
961 1873 2562
512 865 512
464 977 833
480 1089 1121
512 1201 1441
576 1393 1729
640 1569 2001
801 1745 2290
913 1905 2434
1169 2114 2658
801 1393 961
608 1441 1409
640 1553 1617
689 1649 1889
721 1713 2050
833 1841 2274
993 2050 2482
1185 2162 2658
1537 2418 2882
1217 1857 1457
913 1857 1841
865 1921 2033
961 1985 2194
993 2017 2322
1121 2146 2466
1281 2274 2626
1569 2450 2834
1841 2626 2962
1809 2386 1921
1505 2354 2194
1393 2354 2370
1489 2402 2546
1457 2418 2578
1617 2530 2738
1713 2594 2834
1969 2722 2978
2146 2770 3058
2338 2722 2322
2338 2754 2546
2242 2802 2722
2130 2770 2802
2194 2802 2898
2194 2802 2930
2258 2850 2994
2402 2914 3090
2434 2930 3154
400 496 192
384 480 224
416 480 304
400 464 320
448 496 496
464 528 785
592 576 1233
640 672 1633
865 929 2001
608 592 336
705 592 432
737 592 576
689 592 753
640 592 897
592 624 1185
560 817 1649
689 1073 1953
929 1473 2290
1089 801 480
1361 817 640
1201 801 849
721 769 1041
544 817 1329
512 913 1585
640 1217 1905
849 1537 2242
1121 1809 2530
977 929 544
865 977 721
672 977 897
672 1057 1313
624 1185 1633
640 1377 1889
753 1585 2162
993 1825 2418
1281 2066 2706
769 1217 753
769 1281 817
640 1393 1329
705 1505 1649
769 1633 1937
817 1729 2178
993 1921 2434
1281 2146 2658
1617 2386 2882
1345 1777 1297
1185 1793 1409
785 1697 1793
865 1841 2001
929 1905 2242
1073 2017 2402
1345 2242 2642
1649 2434 2850
1937 2610 2994
1969 2306 1729
1809 2242 1841
1281 2146 2178
1265 2146 2338
1377 2274 2498
1473 2338 2626
1745 2498 2786
1985 2658 2946
2242 2786 3074
2354 2658 2033
2354 2690 2242
2162 2690 2466
2001 2658 2674
2001 2690 2770
2001 2690 2834
2098 2754 2930
2322 2882 3074
2466 2914 3154
2642 2850 2306
2722 2930 2450
2770 2978 2642
2658 2978 2898
2578 2962 3010
2594 2962 3042
2594 2962 3074
2706 3042 3186
2770 3074 3234
721 560 320
785 560 384
865 528 528
849 512 672
817 528 769
929 560 945
1393 624 1409
1697 705 1793
1585 945 2162
1505 737 480
1521 689 592
1569 672 849
1585 672 1089
1617 705 1361
1537 705 1489
1617 849 1857
1761 1185 2258
1873 1745 2562
1793 1041 608
1857 993 817
1825 977 1105
1841 977 1393
1649 929 1649
1713 1025 1953
1857 1521 2290
1265 1809 2434
1473 2033 2674
1889 1425 753
1953 1537 961
2001 1457 1313
1953 1393 1633
1361 1505 1985
1057 1617 2194
1073 1809 2338
1425 2114 2626
1729 2322 2850
1521 1745 929
1505 1777 1057
1505 1777 1377
1169 1729 1745
1281 1857 2114
1153 1921 2370
1345 2130 2610
1713 2402 2834
2033 2594 2994
1953 2194 1489
1937 2258 1441
1825 2290 1729
1217 2082 2082
1249 2114 2338
1473 2274 2594
1793 2466 2770
2050 2626 2946
2274 2738 3074
2370 2546 1921
2466 2626 2050
2434 2642 2210
1841 2530 2530
1825 2498 2626
1969 2594 2770
2162 2706 2914
2386 2834 3058
2546 2898 3154
2658 2834 2178
2690 2866 2258
2706 2898 2450
2722 2946 2802
2578 2914 2850
2434 2882 2946
2498 2914 3026
2658 3010 3154
2754 3026 3202
2930 3010 2450
2994 3042 2546
3042 3090 2642
3138 3154 2802
2994 3138 3042
2898 3090 3122
2962 3138 3186
2978 3154 3234
2994 3170 3266
1633 689 496
1681 608 592
1681 592 769
1681 592 977
1681 608 1121
1809 672 1361
1889 672 1553
2162 769 1905
2402 865 2210
2050 865 640
2082 785 785
2098 753 1057
2114 737 1361
2162 769 1633
2290 833 1809
2434 913 1905
2498 961 2162
2674 1249 2466
2242 1265 785
2290 1169 945
2274 1153 1265
2290 1137 1601
2386 1201 1921
2482 1201 2098
2498 1361 2290
2674 1889 2706
2674 2274 2946
2306 1713 881
2322 1713 1089
2386 1665 1409
2370 1649 1745
2434 1649 2050
2482 1777 2386
2658 2130 2690
2738 2578 2978
2274 2578 3026
2050 2033 1057
2098 2066 1089
2354 2146 1457
2466 2146 1873
2466 2178 2290
2146 2338 2642
1985 2466 2802
2178 2642 2978
2370 2738 3122
2338 2402 1521
2322 2466 1505
2354 2530 1665
2434 2594 2098
2130 2530 2546
2354 2626 2802
2258 2658 2898
2450 2802 3058
2594 2882 3170
2690 2722 2082
2690 2770 2017
2738 2802 2146
2706 2866 2370
2450 2786 2802
2434 2802 2930
2578 2882 3026
2722 2962 3154
2770 2994 3202
2946 2978 2322
2978 2994 2386
3090 3074 2530
3138 3074 2642
3042 3138 2962
2882 3042 3042
2898 3074 3154
2994 3138 3218
3026 3154 3266
3170 3138 2562
3202 3170 2626
3250 3218 2706
3330 3282 2850
3314 3266 2946
3298 3282 3202
3250 3282 3282
3250 3282 3298
3282 3314 3362
2146 865 689
2194 721 817
2274 689 1025
2290 689 1265
2338 769 1489
2354 817 1649
2434 833 1793
2530 865 2001
2658 961 2258
2498 1089 881
2562 945 1009
2578 913 1265
2578 881 1553
2610 961 1841
2658 1057 2001
2706 1121 2066
2802 1249 2274
2946 1425 2498
2658 1569 1025
2674 1361 1121
2690 1361 1393
2706 1377 1729
2738 1393 2017
2866 1585 2290
2946 1681 2386
3010 1745 2498
3090 1921 2754
2658 1905 1057
2690 1841 1185
2738 1793 1473
2754 1777 1793
2834 1857 2146
2962 2001 2434
3090 2194 2626
3122 2370 2866
3138 2626 3090
2434 2210 1185
2498 2210 1217
2706 2242 1521
2802 2210 1857
2850 2258 2258
3026 2434 2594
3042 2594 2898
3154 2834 3090
3090 2946 3234
2674 2626 1681
2690 2626 1633
2706 2626 1729
2850 2690 2001
2930 2770 2386
2962 2802 2914
2722 2834 3026
2754 2930 3122
2882 3010 3218
2978 2898 2258
2978 2914 2162
3026 2962 2290
3026 3010 2370
2994 3042 2626
2898 2994 2946
2930 3026 3090
2994 3058 3186
3074 3138 3266
3170 3074 2386
3218 3138 2482
3266 3186 2626
3298 3234 2674
3250 3282 2786
3250 3298 3074
3170 3202 3202
3250 3266 3298
3298 3282 3346
3330 3234 2642
3394 3282 2722
3443 3314 2802
3491 3362 2914
3523 3394 3010
3555 3459 3154
3539 3459 3362
3507 3475 3443
3491 3475 3475
2546 1121 1009
2578 977 1105
2674 929 1345
2690 945 1569
2754 1041 1745
2770 1057 1873
2802 1089 2050
2850 1105 2162
2930 1233 2386
2898 1473 1281
2930 1281 1281
2978 1233 1505
2994 1265 1777
2978 1345 2017
2978 1473 2162
3010 1569 2274
3058 1601 2450
3074 1633 2578
2978 1857 1361
3058 1649 1393
3042 1553 1521
3074 1601 1841
3122 1697 2162
3154 1921 2402
3202 2098 2562
3202 2098 2674
3234 2114 2802
2978 2114 1345
3042 2001 1361
3122 1937 1601
3122 1921 1873
3154 2001 2242
3234 2194 2546
3266 2354 2722
3330 2466 2834
3362 2482 2946
2770 2434 1457
2882 2402 1441
3058 2354 1633
3138 2306 1921
3154 2306 2258
3250 2466 2626
3298 2594 2882
3346 2674 2994
3427 2898 3170
2946 2754 1889
3042 2786 1857
3026 2738 1857
3090 2722 1969
3122 2738 2258
3218 2754 2706
3282 2834 2978
3346 2978 3218
3394 3186 3330
3202 3010 2354
3250 3058 2418
3202 3042 2194
3202 3058 2194
3218 3074 2418
3250 3138 2738
3282 3170 3122
3266 3186 3266
3362 3298 3378
3378 3186 2482
3427 3234 2610
3394 3314 2546
3394 3330 2546
3378 3346 2642
3378 3378 2914
3475 3394 3282
3507 3427 3378
3507 3443 3459
3507 3346 2754
3539 3378 2850
3571 3427 2946
3587 3475 2962
3603 3539 3042
3667 3603 3234
3731 3635 3394
3683 3571 3523
3683 3603 3571
2866 1473 1393
2946 1425 1537
2994 1425 1713
3026 1409 1841
3026 1441 1985
3042 1425 2114
3138 1537 2306
3170 1553 2450
3202 1617 2594
3170 1937 1697
3218 1793 1697
3218 1649 1761
3250 1697 1985
3250 1841 2194
3218 1953 2354
3250 2001 2482
3282 2001 2626
3314 2050 2770
3186 2178 1649
3330 1985 1713
3346 1921 1825
3346 1905 2001
3362 2082 2322
3362 2194 2546
3362 2322 2706
3394 2402 2834
3394 2370 2930
3218 2434 1745
3330 2322 1713
3378 2178 1793
3427 2130 2033
3443 2130 2306
3443 2290 2594
3443 2386 2786
3507 2642 2962
3507 2658 3042
3026 2690 1825
3138 2642 1777
3298 2498 1777
3459 2386 2001
3475 2402 2338
3491 2482 2674
3491 2594 2914
3507 2738 3074
3571 2946 3138
3170 2930 2178
3234 2930 2066
3314 2802 1873
3427 2770 1985
3459 2786 2290
3539 2786 2722
3555 2882 3026
3587 2994 3218
3603 3202 3314
3346 3122 2402
3394 3138 2306
3443 3138 2098
3475 3090 2130
3507 3138 2386
3555 3170 2722
3571 3218 3090
3619 3282 3330
3651 3427 3475
3539 3314 2642
3571 3346 2706
3571 3378 2498
3571 3427 2466
3587 3459 2642
3603 3491 2898
3635 3523 3218
3683 3555 3475
3683 3571 3571
3651 3443 2866
3651 3475 2962
3699 3555 3042
3699 3603 2978
3731 3667 3122
3747 3683 3266
3795 3699 3491
3859 3747 3619
3827 3747 3683
3154 1825 1665
3202 1841 1841
3234 1841 1953
3250 1793 2050
3282 1841 2194
3282 1841 2322
3330 1889 2498
3330 1873 2578
3362 1905 2706
3314 2178 1921
3330 2178 2001
3346 2130 2098
3427 2194 2258
3378 2242 2402
3378 2210 2498
3443 2258 2658
3427 2258 2754
3459 2306 2866
3250 2466 1905
3475 2466 2130
3491 2370 2162
3507 2370 2306
3523 2306 2434
3523 2338 2594
3507 2466 2770
3507 2562 2898
3507 2578 2978
3042 2610 1777
3378 2674 2066
3555 2562 2146
3619 2386 2242
3635 2306 2370
3651 2370 2674
3619 2498 2898
3603 2754 3010
3587 2754 3074
3170 2834 1985
3266 2770 1953
3475 2642 1889
3683 2562 2066
3763 2498 2402
3747 2546 2690
3731 2658 2978
3667 2834 3154
3635 3026 3186
3314 3010 2242
3427 2962 2066
3555 2866 1889
3667 2802 2001
3763 2834 2306
3827 2866 2738
3795 2898 3026
3747 3042 3250
3683 3234 3298
3475 3186 2450
3571 3202 2274
3651 3170 2098
3763 3170 2146
3795 3170 2386
3827 3202 2722
3827 3298 3122
3827 3362 3362
3827 3459 3475
3635 3362 2690
3651 3394 2738
3731 3459 2498
3811 3491 2466
3843 3523 2642
3859 3555 2946
3859 3571 3234
3875 3635 3491
3875 3683 3619
3731 3539 3042
3763 3587 3154
3811 3651 3186
3843 3699 3122
3875 3763 3234
3891 3779 3427
3923 3795 3603
3923 3795 3699
3939 3827 3779
