其他预设/【236】赛博朋克风调色预设/【后期菌】视频调色预设/3DL/Abandoned 10.3dl
# LUT by SparkleStock. Enhanced with VOXCOLOR algorithms.
0 256 512 768 1023
64 32 32
80 80 160
96 176 640
192 480 1761
432 1153 2786
96 128 144
96 208 384
128 496 1249
256 1265 2562
721 2338 3266
32 785 624
64 1073 1281
160 1697 2450
560 2706 3314
1345 3154 3491
128 2546 2050
320 2786 2786
640 3042 3250
1345 3298 3475
2338 3491 3587
1153 3250 2898
1617 3378 3218
2017 3443 3410
2434 3523 3523
2898 3587 3587
192 128 224
224 160 400
336 240 993
624 560 2033
1137 1521 2962
1265 592 608
1489 560 1169
336 977 2017
656 1905 3010
1585 2834 3378
336 1345 592
192 1697 2050
560 2450 2994
1281 3042 3410
2386 3378 3555
1777 2930 785
1073 3042 2898
1489 3218 3298
2258 3410 3459
2994 3555 3587
3010 3410 1009
3074 3443 2098
3042 3587 3427
3154 3587 3523
3378 3667 3635
2370 512 576
2258 496 1025
2354 528 1489
2562 689 2050
3122 1201 2690
3266 1377 1297
3362 1425 2066
3362 1521 2482
3202 1665 2802
3298 2978 3410
2594 2562 496
3346 2706 2001
3202 2674 2930
2546 3266 3427
3138 3523 3603
3266 3314 881
3410 3314 1441
2866 3410 3250
3106 3491 3459
3410 3603 3603
3587 3539 1521
3635 3571 2194
3635 3603 2978
3587 3683 3571
3651 3699 3635
3427 1089 1457
3459 1121 1937
3491 1265 2386
3523 1425 2690
3571 1729 2962
3587 2370 2210
3539 2306 2658
3603 2450 2962
3667 2642 3186
3667 2770 3314
3459 3074 897
3571 3138 2546
3635 3202 3186
3683 3298 3362
3699 3459 3555
3667 3491 1473
3635 3459 2050
3667 3523 2818
3651 3587 3459
3683 3683 3635
3747 3587 2226
3763 3667 2882
3779 3699 3266
3811 3747 3555
3763 3747 3667
3667 2066 2466
3699 2242 2866
3699 2338 3026
3731 2546 3202
3731 2658 3298
3731 2930 2306
3747 3074 3122
3747 3090 3266
3763 3154 3378
3763 3234 3475
3699 3330 1409
3667 3330 2434
3731 3443 3378
3747 3475 3475
3795 3555 3587
3763 3555 2017
3731 3571 2642
3747 3603 3090
3811 3667 3539
3843 3731 3667
3795 3699 3042
3811 3747 3378
3795 3747 3555
3843 3779 3651
3859 3795 3699
