其他预设/【236】赛博朋克风调色预设/【后期菌】视频调色预设/3DL/Abandoned 06.3dl
# LUT by SparkleStock. Enhanced with VOXCOLOR algorithms.
0 128 256 384 512 640 768 896 1023
208 432 16
224 432 64
240 432 80
256 448 160
272 480 288
288 496 512
304 560 913
320 608 1393
400 689 1713
256 464 80
240 448 80
256 480 160
272 496 240
288 528 384
288 544 689
320 608 1153
352 721 1601
448 929 1889
256 496 112
256 528 160
256 528 224
288 544 352
320 592 624
320 672 1089
368 817 1521
480 1073 1873
592 1361 2130
304 592 256
320 592 320
320 624 416
336 672 672
352 785 1073
400 945 1489
496 1233 1841
592 1441 2098
737 1681 2370
384 753 432
416 833 592
384 849 753
432 1009 1169
464 1185 1521
560 1441 1873
640 1617 2130
769 1777 2354
897 1921 2498
544 1201 913
560 1345 1217
576 1393 1441
592 1489 1681
624 1601 1905
705 1745 2162
849 1905 2418
945 2033 2546
1137 2178 2722
705 1665 1585
753 1745 1761
753 1777 1921
785 1841 2066
833 1921 2242
913 2017 2402
1041 2130 2562
1233 2290 2706
1489 2466 2898
1009 2066 2033
1025 2098 2146
1073 2146 2290
1121 2178 2370
1137 2194 2466
1201 2290 2578
1361 2402 2706
1553 2498 2850
1793 2626 2978
1425 2418 2370
1585 2530 2530
1649 2562 2594
1665 2562 2642
1729 2610 2754
1809 2642 2850
1905 2706 2930
2066 2770 3010
2178 2834 3090
288 464 96
288 464 112
304 464 160
304 464 208
320 464 352
320 528 624
352 592 1153
400 656 1553
528 801 1857
384 512 208
400 512 256
336 496 272
336 528 368
320 560 592
336 624 1025
368 672 1441
480 865 1761
624 1153 2050
432 560 304
336 544 288
336 560 352
320 592 560
336 656 881
368 753 1297
464 945 1665
608 1297 2050
833 1601 2322
400 608 320
368 640 432
384 689 592
368 753 865
448 945 1345
496 1137 1665
592 1393 1985
753 1633 2274
977 1889 2530
512 865 512
464 977 833
480 1073 1121
512 1201 1441
576 1393 1729
640 1569 2001
801 1745 2290
913 1905 2434
1169 2114 2658
801 1393 961
608 1441 1409
640 1537 1633
689 1649 1889
721 1713 2050
833 1841 2274
1009 2033 2466
1185 2162 2658
1537 2418 2882
1217 1857 1457
913 1857 1841
881 1905 2050
961 1985 2194
993 2017 2322
1121 2146 2466
1281 2274 2626
1569 2450 2834
1841 2626 2962
1841 2370 1969
1521 2338 2242
1409 2338 2402
1489 2402 2546
1473 2402 2594
1649 2498 2738
1745 2578 2834
2001 2706 2962
2146 2770 3058
2338 2722 2322
2338 2754 2546
2242 2802 2722
2130 2770 2802
2194 2802 2898
2194 2802 2930
2258 2850 2994
2402 2914 3090
2434 2930 3154
400 496 192
384 480 224
400 496 288
384 480 320
448 496 496
464 528 785
592 576 1233
640 672 1633
865 929 2001
608 592 336
672 592 432
689 592 496
640 592 640
608 592 833
592 624 1185
560 817 1649
689 1073 1953
929 1473 2290
1105 785 512
1441 785 689
1281 753 801
640 705 913
480 785 1233
496 913 1553
640 1217 1905
849 1537 2242
1121 1825 2482
977 881 592
833 865 785
576 817 865
592 945 1281
592 1137 1585
624 1377 1873
753 1585 2162
993 1825 2418
1281 2082 2674
769 1185 785
737 1169 865
592 1297 1393
640 1409 1681
737 1601 1937
817 1729 2178
993 1921 2434
1281 2146 2658
1617 2386 2882
1345 1777 1297
1201 1761 1441
769 1665 1841
849 1793 2050
929 1889 2242
1073 2017 2402
1345 2242 2642
1649 2434 2850
1937 2610 2994
1969 2306 1729
1809 2242 1841
1281 2130 2210
1265 2146 2338
1377 2274 2498
1473 2338 2626
1745 2498 2786
1985 2658 2946
2242 2786 3074
2386 2642 2082
2386 2674 2274
2194 2674 2498
2001 2658 2674
2017 2674 2786
2017 2674 2834
2114 2738 2930
2354 2866 3058
2466 2914 3154
2642 2850 2306
2722 2930 2450
2770 2978 2642
2658 2978 2898
2578 2962 3010
2594 2962 3042
2594 2962 3074
2706 3042 3186
2770 3074 3234
705 576 320
753 592 384
801 592 480
769 576 592
785 544 721
929 560 945
1393 624 1409
1697 705 1793
1585 945 2162
1505 769 544
1553 753 640
1617 769 801
1633 753 945
1649 753 1217
1537 721 1441
1617 849 1857
1761 1185 2258
1873 1745 2562
1889 1057 785
2098 1009 993
2098 993 1185
2114 993 1377
1713 913 1553
1761 1041 1889
1857 1521 2290
1265 1809 2434
1473 2050 2642
2001 1425 945
2290 1585 1265
2482 1473 1585
2354 1377 1761
1313 1537 2001
993 1649 2146
1073 1809 2338
1425 2114 2626
1729 2338 2834
1537 1713 1121
1537 1713 1297
1537 1697 1617
1025 1633 1905
1217 1841 2178
1121 1921 2354
1345 2130 2610
1713 2402 2834
2033 2594 2994
1985 2178 1569
2033 2210 1633
1921 2242 1953
1153 2001 2258
1217 2082 2386
1473 2274 2594
1793 2466 2770
2050 2626 2946
2274 2738 3074
2370 2546 1921
2482 2626 2082
2450 2642 2258
1857 2498 2562
1825 2498 2626
1969 2594 2770
2162 2706 2914
2386 2834 3058
2546 2898 3154
2674 2802 2242
2722 2850 2290
2738 2882 2482
2722 2946 2802
2594 2898 2866
2450 2866 2962
2530 2898 3026
2690 2994 3154
2754 3026 3202
2930 3010 2450
2994 3042 2546
3042 3090 2642
3138 3154 2802
2994 3138 3042
2898 3090 3122
2962 3138 3186
2978 3154 3234
2994 3170 3266
1617 721 512
1649 705 592
1649 705 721
1649 689 881
1665 672 1057
1809 672 1361
1889 672 1553
2162 769 1905
2402 865 2210
2082 961 801
2162 929 929
2210 929 1121
2210 897 1297
2274 881 1505
2338 865 1713
2434 913 1905
2498 961 2162
2674 1249 2466
2370 1393 1121
2578 1345 1345
2594 1345 1553
2626 1329 1745
2674 1361 1905
2626 1265 2017
2530 1377 2274
2674 1889 2706
2690 2306 2930
2450 1825 1249
2674 1969 1617
2866 1905 1889
2786 1857 2033
2770 1809 2130
2642 1873 2370
2690 2162 2674
2738 2578 2978
2274 2594 3010
2082 2066 1393
2194 2146 1489
2690 2322 1873
2898 2322 2210
2722 2306 2466
2178 2418 2674
1985 2466 2802
2178 2642 2978
2370 2738 3122
2386 2402 1729
2450 2466 1841
2546 2546 1985
2642 2642 2370
2178 2546 2674
2370 2642 2834
2258 2658 2898
2450 2802 3058
2594 2882 3170
2690 2722 2082
2738 2754 2146
2802 2786 2274
2786 2850 2482
2466 2786 2850
2434 2802 2930
2578 2882 3026
2722 2962 3154
2770 2994 3202
2962 2962 2370
2994 2978 2418
3122 3058 2562
3138 3074 2642
3058 3122 2978
2898 3026 3058
2914 3058 3154
3010 3122 3218
3026 3154 3266
3170 3138 2562
3202 3170 2626
3250 3218 2706
3330 3282 2850
3314 3266 2946
3298 3282 3202
3250 3282 3282
3250 3282 3298
3282 3314 3362
2130 881 721
2162 849 865
2210 849 1041
2258 833 1233
2322 849 1441
2354 833 1633
2434 833 1793
2530 865 2001
2658 961 2258
2498 1249 1121
2610 1201 1297
2658 1233 1489
2642 1137 1633
2658 1137 1793
2690 1121 1937
2706 1121 2066
2802 1249 2274
2946 1425 2498
2738 1825 1457
2850 1665 1633
2898 1713 1793
2930 1745 2001
2914 1681 2082
2962 1729 2258
2962 1697 2370
3010 1745 2498
3122 1937 2722
2738 2130 1537
2898 2210 1809
3010 2162 2017
3010 2114 2130
3074 2178 2306
3074 2162 2434
3122 2242 2610
3122 2370 2866
3154 2642 3074
2434 2322 1569
2546 2402 1697
2914 2498 2017
3122 2482 2290
3074 2450 2450
3154 2546 2626
3090 2642 2882
3154 2834 3090
3090 2946 3234
2706 2642 1937
2754 2674 2017
2802 2690 2098
3026 2786 2306
3090 2882 2546
3058 2882 2994
2754 2882 3026
2754 2930 3122
2882 3010 3218
2978 2898 2258
3010 2914 2306
3074 2962 2418
3122 3010 2530
3122 3042 2754
2978 2994 3026
2978 3026 3122
2994 3058 3186
3074 3138 3266
3186 3058 2434
3234 3122 2546
3282 3186 2658
3346 3218 2738
3330 3250 2898
3330 3266 3154
3186 3202 3202
3266 3266 3298
3298 3282 3346
3330 3234 2642
3394 3282 2722
3443 3314 2802
3491 3362 2914
3523 3394 3010
3555 3459 3154
3539 3459 3362
3507 3475 3443
3491 3475 3475
2530 1121 1025
2546 1057 1137
2626 1073 1393
2658 1057 1585
2738 1089 1745
2770 1057 1873
2802 1089 2050
2850 1105 2162
2930 1233 2386
2882 1649 1489
2898 1553 1569
2962 1617 1761
2978 1601 1921
2978 1569 2033
2978 1553 2146
3010 1569 2274
3058 1601 2450
3074 1633 2578
2978 2130 1745
3090 2082 1905
3058 2017 1953
3138 2066 2146
3154 2050 2274
3170 2066 2386
3202 2098 2562
3202 2098 2674
3234 2130 2770
2978 2338 1729
3074 2386 1937
3202 2402 2162
3218 2386 2306
3234 2386 2418
3282 2418 2562
3282 2434 2690
3330 2466 2834
3362 2498 2930
2722 2546 1761
2834 2610 1889
3090 2690 2194
3266 2674 2450
3266 2642 2546
3346 2706 2690
3362 2738 2850
3378 2722 2962
3427 2898 3170
2946 2770 2050
3042 2866 2162
3042 2866 2258
3170 2914 2402
3202 2930 2482
3314 2914 2850
3362 2946 2978
3378 3042 3186
3394 3186 3330
3202 3010 2354
3250 3058 2450
3234 3058 2482
3266 3074 2546
3314 3122 2674
3362 3186 2866
3362 3218 3154
3282 3202 3234
3362 3298 3378
3378 3186 2546
3427 3234 2658
3459 3282 2738
3491 3282 2802
3507 3282 2882
3491 3330 3042
3539 3378 3314
3523 3427 3378
3507 3443 3459
3507 3346 2754
3539 3378 2850
3571 3427 2946
3603 3459 3010
3651 3507 3138
3699 3571 3266
3747 3619 3394
3683 3571 3523
3683 3603 3571
2866 1473 1393
2930 1457 1553
2978 1457 1729
3010 1441 1857
3026 1441 1985
3042 1425 2114
3138 1537 2306
3170 1553 2450
3202 1617 2594
3154 1985 1761
3170 1985 1873
3154 1889 1937
3202 1937 2098
3218 1969 2242
3218 1953 2354
3250 2001 2482
3282 2001 2626
3314 2050 2770
3138 2338 1841
3282 2290 2066
3282 2290 2146
3282 2274 2210
3330 2338 2402
3346 2338 2546
3362 2370 2690
3394 2402 2834
3394 2402 2914
3186 2546 1921
3266 2594 2098
3298 2578 2242
3330 2578 2402
3362 2578 2530
3378 2610 2642
3394 2594 2738
3507 2690 2946
3507 2690 3026
2994 2722 1937
3042 2770 2033
3186 2786 2210
3362 2786 2530
3394 2786 2674
3443 2850 2786
3459 2850 2882
3507 2882 2994
3571 2946 3138
3170 2930 2178
3202 2978 2274
3202 2962 2322
3314 3010 2450
3362 3058 2594
3523 3042 2914
3555 3074 3042
3587 3122 3154
3603 3218 3298
3346 3122 2402
3378 3154 2482
3378 3170 2546
3394 3170 2626
3459 3218 2722
3555 3282 2914
3587 3314 3138
3635 3330 3282
3651 3427 3475
3539 3314 2690
3571 3346 2786
3571 3346 2850
3571 3362 2930
3603 3394 3010
3635 3459 3122
3667 3523 3266
3699 3555 3459
3683 3571 3571
3651 3443 2866
3651 3475 2962
3699 3539 3090
3731 3555 3170
3763 3603 3298
3779 3635 3378
3811 3683 3507
3859 3747 3619
3827 3747 3683
3154 1825 1665
3202 1841 1841
3234 1841 1953
3250 1793 2050
3282 1841 2194
3282 1841 2322
3330 1889 2498
3330 1873 2578
3362 1905 2706
3314 2178 1921
3330 2178 2001
3330 2162 2114
3394 2242 2274
3378 2242 2402
3378 2210 2498
3427 2290 2658
3427 2258 2754
3459 2306 2866
3250 2466 1905
3459 2530 2194
3443 2482 2274
3459 2498 2386
3459 2498 2498
3459 2498 2610
3491 2546 2754
3507 2562 2898
3507 2578 2978
3026 2626 1809
3346 2722 2130
3459 2770 2386
3475 2738 2530
3459 2706 2578
3507 2754 2738
3523 2770 2866
3571 2834 2978
3571 2786 3058
3154 2850 2033
3202 2866 2098
3266 2882 2242
3459 2946 2482
3507 2930 2754
3523 2930 2834
3571 2978 2962
3587 2994 3058
3635 3026 3186
3314 3010 2242
3330 3026 2306
3314 3042 2354
3362 3058 2466
3491 3138 2610
3603 3186 2978
3603 3170 3042
3651 3202 3170
3683 3250 3282
3475 3186 2450
3507 3234 2546
3491 3218 2594
3539 3266 2690
3555 3282 2770
3619 3330 2930
3683 3459 3170
3763 3459 3314
3811 3475 3459
3603 3346 2706
3635 3394 2802
3635 3443 2914
3667 3459 2978
3699 3507 3090
3731 3539 3202
3779 3603 3330
3843 3667 3491
3875 3683 3619
3731 3539 3042
3763 3571 3154
3795 3619 3250
3811 3651 3362
3827 3667 3459
3843 3699 3539
3907 3779 3651
3923 3795 3699
3939 3827 3779
