其他预设/【236】赛博朋克风调色预设/【后期菌】视频调色预设/3DL/Abandoned 08_S.3dl
# LUT by SparkleStock. Enhanced with VOXCOLOR algorithms.
0 256 512 768 1023
80 80 80
160 144 192
352 352 544
737 801 1297
1201 1281 1873
192 336 240
208 448 432
496 817 977
865 1281 1617
1297 1745 2162
432 1297 945
288 1553 1265
576 1553 1569
993 1841 2017
1457 2178 2386
624 2402 1793
512 2546 2098
769 2418 2274
1281 2434 2466
1777 2610 2722
1681 2866 2434
1713 2994 2642
1777 2978 2770
1921 2914 2834
2226 2882 2930
849 368 352
881 384 496
1137 528 817
1617 961 1505
1857 1617 2210
1745 1169 913
1601 1105 1201
1201 1281 1553
1473 1713 2017
1905 2146 2530
1825 1665 640
913 1873 1489
1185 1953 1921
1617 2178 2306
2050 2482 2674
2674 2354 1073
1713 2578 2258
1649 2626 2498
2001 2626 2642
2354 2770 2866
2978 2834 1649
2802 2930 2338
2450 3026 2866
2450 3010 2946
2642 3010 3026
1969 1041 1073
1969 865 1217
2066 945 1489
2194 1073 1665
2498 1409 2114
2338 1569 1153
2226 1393 1457
2338 1489 2050
2530 1809 2274
2722 2370 2818
2354 1889 705
2290 2098 1505
2338 2162 2226
2258 2498 2642
2498 2738 2882
2866 2530 1473
2802 2690 1793
2418 2802 2642
2466 2818 2818
2690 2882 2962
3170 3042 2226
3170 3106 2482
3106 3138 2770
2866 3154 3074
2946 3138 3138
2642 1729 1777
2722 1521 1841
2770 1681 2146
2786 1713 2258
2850 1777 2434
2882 1985 1665
2882 1633 1681
2930 1809 2306
2946 2354 2642
2978 2338 2770
2850 2242 1217
2946 2274 1665
2946 2258 2290
2978 2546 2850
3026 2818 3026
3122 2834 2114
3058 2914 2050
3026 2930 2354
2962 2994 2946
3026 3074 3154
3298 3170 2610
3314 3234 2818
3314 3330 2882
3298 3314 3170
3170 3282 3282
3026 2290 2386
3058 2274 2498
3074 2274 2610
3122 2306 2690
3106 2274 2754
3106 2610 2354
3218 2530 2594
3250 2434 2674
3202 2594 2882
3154 2658 2946
3138 2642 1905
3362 2546 1985
3539 2418 2450
3427 2578 2978
3218 2962 3106
3282 3010 2530
3475 3010 2114
3603 3010 2370
3571 3106 3042
3362 3218 3314
3378 3282 2930
3394 3346 2994
3475 3427 2962
3410 3410 3250
3378 3378 3378
