其他预设/【236】赛博朋克风调色预设/【后期菌】视频调色预设/3DL/Abandoned 07.3dl
# LUT by SparkleStock. Enhanced with VOXCOLOR algorithms.
0 256 512 768 1023
16 16 48
96 144 320
208 400 769
464 753 1617
817 1297 2674
112 336 400
192 496 656
400 881 1345
640 1393 2354
1009 2162 3026
320 1169 1105
416 1377 1425
560 1729 2194
881 2466 2898
1329 2898 3250
544 2658 2274
672 2722 2530
897 2834 2802
1297 3106 3170
1857 3314 3443
1153 3394 2914
1393 3443 3122
1569 3459 3234
1857 3427 3330
2242 3459 3427
496 336 544
496 336 737
576 400 1153
849 737 2001
1345 1569 2914
1777 1089 1041
1937 993 1393
785 1329 2066
1041 1937 2786
1585 2642 3234
897 1649 1185
672 1857 2001
897 2354 2610
1361 2850 3122
1969 3138 3410
1937 2802 1297
1169 3074 2786
1425 3106 3026
1857 3202 3218
2386 3362 3459
2642 3218 1585
2722 3330 2338
2386 3539 3314
2498 3507 3362
2738 3539 3507
2546 897 993
2514 849 1249
2514 769 1601
2626 785 2066
2946 1169 2850
3250 1729 1409
3282 1665 1985
3298 1617 2450
2994 1681 2850
2754 2530 3314
2546 2338 785
3330 2578 1761
2994 2386 2738
2162 3074 3234
2562 3298 3507
3010 3026 1297
3170 3122 1681
2306 3314 3122
2530 3314 3282
2866 3427 3507
3234 3410 2066
3314 3459 2434
3362 3507 2898
3106 3619 3507
3186 3619 3555
3443 1537 1633
3427 1457 1985
3459 1457 2450
3459 1473 2850
3475 1569 3090
3555 2338 2098
3507 2194 2466
3523 2226 2850
3539 2274 3122
3507 2274 3298
3362 2914 1137
3523 2978 2242
3507 2802 2946
3523 2866 3218
3394 3010 3459
3523 3330 1793
3507 3346 2162
3523 3394 2626
3394 3427 3362
3346 3555 3619
3555 3555 2562
3619 3619 2914
3651 3667 3250
3731 3747 3587
3555 3731 3699
3699 2162 2562
3699 2114 2850
3683 2114 3058
3667 2130 3234
3635 2082 3362
3731 2850 2242
3683 2770 3026
3667 2738 3170
3651 2722 3314
3619 2674 3427
3683 3202 1617
3635 3218 2242
3635 3122 3282
3635 3122 3427
3651 3170 3539
3699 3507 2290
3683 3539 2658
3683 3539 2946
3763 3619 3523
3763 3587 3731
3763 3699 3122
3795 3763 3443
3811 3811 3667
3875 3875 3811
3859 3875 3875
