其他预设/【236】赛博朋克风调色预设/【后期菌】视频调色预设/3DL/Abandoned 08.3dl
# LUT by SparkleStock. Enhanced with VOXCOLOR algorithms.
0 64 128 192 256 320 384 448 512 576 640 704 768 832 896 960 1023
80 80 80
112 112 96
112 96 96
144 128 160
160 144 192
192 192 240
208 208 304
272 256 400
352 352 544
432 464 737
512 544 897
624 672 1121
737 801 1297
833 897 1441
961 1025 1601
1057 1153 1745
1201 1281 1873
112 112 112
112 128 128
144 144 160
160 160 192
176 192 224
192 208 288
224 240 352
320 352 512
384 432 656
480 528 817
560 672 1025
640 753 1185
753 865 1361
833 1009 1505
977 1137 1681
1073 1265 1793
1185 1377 1905
144 160 144
128 160 144
128 176 176
176 208 224
192 240 288
192 256 336
304 352 496
352 448 592
400 512 721
512 624 913
576 737 1089
672 865 1281
769 977 1409
865 1137 1601
977 1265 1729
1121 1409 1857
1233 1505 2001
160 208 176
144 208 192
176 240 224
192 288 288
192 352 352
256 400 464
304 448 544
368 512 672
464 624 833
560 785 1057
624 881 1185
705 1009 1345
785 1121 1473
913 1233 1649
1009 1361 1777
1185 1537 1953
1297 1617 2050
192 336 240
192 368 304
192 400 352
192 432 368
208 448 432
288 512 544
320 544 624
400 672 801
496 817 977
576 929 1153
672 1025 1297
753 1137 1457
865 1281 1617
961 1361 1729
1073 1521 1857
1153 1601 1969
1329 1761 2114
208 544 368
208 544 400
240 624 480
240 640 528
272 721 640
304 737 705
368 817 849
448 865 977
512 1025 1137
592 1105 1281
672 1153 1377
817 1297 1553
881 1393 1665
977 1505 1777
1089 1617 1905
1233 1761 2066
1313 1825 2162
304 753 544
288 817 624
288 913 705
272 929 753
304 961 817
320 993 913
368 1105 1057
448 1169 1169
544 1201 1297
624 1249 1393
753 1313 1537
833 1457 1665
929 1553 1777
993 1617 1857
1105 1729 2001
1265 1841 2114
1361 1985 2242
368 993 721
368 1105 817
336 1153 881
304 1265 993
304 1265 1041
304 1297 1137
384 1313 1217
464 1345 1313
560 1393 1425
672 1409 1537
753 1505 1649
833 1617 1761
913 1649 1841
1025 1777 1985
1185 1889 2114
1297 2001 2242
1425 2066 2306
432 1297 945
384 1393 1041
336 1489 1137
320 1537 1217
288 1553 1265
352 1585 1377
368 1585 1441
496 1617 1537
576 1553 1569
672 1681 1729
817 1729 1809
865 1777 1889
993 1841 2017
1121 1953 2114
1233 2017 2210
1345 2114 2306
1457 2178 2386
480 1569 1153
384 1633 1233
352 1745 1345
320 1793 1425
320 1873 1553
320 1841 1569
416 1825 1649
512 1793 1729
576 1825 1777
705 1857 1857
753 1841 1905
897 1905 2017
1009 2001 2114
1137 2050 2210
1297 2162 2306
1361 2194 2370
1537 2290 2482
464 1857 1377
368 2001 1505
368 2082 1601
320 2082 1665
336 2114 1761
384 2098 1793
432 2066 1841
512 2066 1905
592 2017 1953
737 2050 2033
817 2066 2098
961 2114 2194
1073 2178 2274
1153 2194 2306
1297 2258 2402
1457 2338 2482
1585 2402 2562
528 2146 1601
480 2226 1665
400 2338 1793
352 2306 1841
384 2338 1921
448 2338 2017
544 2306 2066
608 2258 2098
705 2258 2162
737 2210 2162
881 2258 2258
1009 2274 2306
1073 2258 2338
1281 2354 2434
1409 2386 2498
1521 2450 2578
1649 2482 2626
624 2402 1793
560 2466 1889
576 2546 2017
512 2530 2066
528 2530 2146
608 2546 2226
608 2482 2226
689 2418 2226
769 2418 2274
785 2386 2274
977 2402 2370
1137 2418 2418
1281 2434 2466
1393 2466 2530
1505 2498 2578
1649 2562 2642
1777 2610 2722
769 2578 2001
817 2674 2162
721 2674 2194
753 2690 2242
737 2690 2290
817 2658 2354
801 2626 2354
817 2578 2370
1025 2578 2434
1025 2546 2434
1169 2530 2466
1297 2578 2546
1345 2546 2546
1473 2562 2594
1633 2610 2658
1777 2642 2722
1857 2658 2754
1153 2722 2210
1137 2754 2258
1073 2802 2338
1057 2802 2386
1105 2818 2434
1105 2818 2450
1153 2786 2482
1217 2754 2530
1265 2722 2546
1377 2722 2578
1393 2658 2578
1489 2674 2610
1569 2690 2642
1633 2722 2674
1745 2690 2690
1857 2722 2770
1953 2738 2786
1441 2802 2354
1409 2818 2386
1393 2866 2450
1441 2914 2498
1457 2930 2562
1489 2946 2610
1457 2882 2594
1489 2882 2626
1585 2882 2674
1585 2850 2658
1617 2786 2658
1649 2786 2674
1761 2802 2738
1825 2802 2770
1953 2802 2802
1985 2786 2818
2066 2802 2850
1681 2866 2434
1665 2930 2498
1713 2946 2562
1745 2994 2610
1713 2994 2642
1681 2994 2658
1697 2978 2674
1777 2994 2738
1777 2978 2770
1777 2946 2770
1809 2930 2802
1857 2930 2818
1921 2914 2834
1969 2866 2834
2082 2914 2882
2098 2866 2866
2226 2882 2930
160 112 112
176 112 128
208 160 176
224 160 176
224 160 192
320 208 272
352 256 352
400 304 432
480 368 560
560 512 801
689 656 993
737 721 1137
817 817 1297
945 977 1473
1089 1137 1681
1185 1217 1793
1329 1361 1953
272 176 160
288 176 160
304 192 192
288 192 192
304 208 256
352 256 336
368 352 464
400 432 592
448 512 721
544 608 897
656 721 1105
785 865 1297
849 977 1425
993 1121 1617
1121 1249 1761
1281 1393 1905
1361 1489 2033
304 208 176
288 192 176
288 208 192
352 272 272
368 336 352
416 368 448
384 448 560
400 496 656
528 624 865
640 769 1073
721 865 1217
785 977 1345
913 1121 1537
1025 1249 1697
1137 1361 1793
1297 1505 2001
1393 1601 2082
320 256 192
304 288 224
352 352 304
352 368 352
336 416 432
352 448 512
448 560 689
480 672 801
544 737 961
689 913 1185
769 1009 1297
817 1105 1457
929 1233 1601
1025 1345 1745
1217 1505 1889
1297 1601 2017
1425 1729 2146
368 368 272
304 448 352
288 448 368
288 512 448
320 544 528
368 640 672
432 737 817
480 785 897
592 929 1105
672 1009 1217
817 1169 1441
865 1217 1537
945 1329 1649
1057 1473 1793
1265 1617 1969
1345 1713 2082
1441 1825 2194
416 528 352
352 624 480
320 624 512
336 705 608
336 817 705
368 833 817
448 945 961
496 977 1041
624 1073 1217
737 1185 1377
801 1265 1473
897 1361 1617
1009 1473 1745
1137 1617 1873
1265 1745 2033
1425 1857 2194
1457 1921 2242
544 865 592
352 881 672
352 945 737
368 993 817
384 1089 945
368 1169 1041
432 1185 1137
528 1217 1233
672 1297 1377
769 1377 1505
865 1473 1633
929 1505 1697
1073 1633 1841
1201 1745 2001
1249 1793 2066
1409 1969 2210
1521 2066 2338
640 1105 737
432 1169 881
368 1249 977
352 1281 1025
336 1361 1121
368 1345 1169
528 1409 1329
544 1425 1393
672 1457 1505
769 1553 1633
913 1633 1761
977 1681 1825
1057 1777 1953
1233 1873 2082
1297 1969 2178
1489 2098 2338
1569 2178 2402
705 1313 929
512 1489 1137
496 1537 1217
384 1601 1281
416 1617 1361
448 1649 1457
512 1665 1521
624 1617 1585
705 1665 1681
817 1761 1793
897 1761 1857
993 1841 1969
1137 1905 2066
1281 2033 2210
1393 2146 2306
1473 2178 2370
1649 2290 2482
961 1537 1025
512 1729 1313
512 1841 1457
432 1873 1489
432 1905 1585
512 1905 1681
560 1873 1745
608 1873 1777
705 1857 1841
865 1905 1953
945 1953 2017
1073 2033 2098
1185 2066 2194
1297 2114 2258
1425 2194 2354
1553 2258 2434
1713 2386 2562
1089 1745 1217
528 2017 1537
480 2098 1633
496 2194 1761
432 2146 1777
448 2162 1825
576 2114 1905
672 2098 1969
785 2146 2066
849 2114 2082
977 2146 2162
1137 2194 2242
1249 2226 2306
1409 2290 2402
1489 2338 2466
1633 2402 2562
1777 2482 2626
1249 1889 1361
769 2258 1761
672 2338 1825
560 2402 1921
544 2386 1985
624 2386 2082
672 2354 2098
769 2306 2162
849 2258 2178
977 2290 2242
1089 2290 2290
1233 2338 2370
1329 2370 2418
1457 2402 2466
1601 2450 2562
1729 2498 2626
1841 2562 2690
1489 2146 1585
1073 2386 1873
1041 2434 1969
881 2530 2066
769 2578 2194
785 2530 2210
833 2498 2242
929 2466 2274
977 2450 2306
1137 2418 2354
1281 2466 2418
1345 2450 2434
1441 2466 2482
1553 2498 2562
1697 2546 2626
1825 2578 2674
1921 2626 2738
1665 2306 1777
1185 2546 2050
1169 2626 2162
1169 2722 2290
1073 2738 2370
1025 2674 2354
1137 2674 2434
1201 2658 2450
1217 2610 2450
1297 2578 2466
1361 2594 2530
1489 2594 2578
1569 2610 2594
1713 2626 2642
1777 2626 2674
1953 2674 2754
2017 2690 2786
1841 2450 1953
1761 2498 2146
1745 2594 2226
1569 2738 2354
1393 2850 2482
1425 2834 2530
1377 2818 2546
1441 2786 2562
1457 2786 2594
1537 2770 2610
1553 2738 2610
1617 2690 2626
1681 2690 2642
1793 2722 2690
1889 2722 2738
2050 2770 2818
2146 2786 2834
2001 2578 2082
1985 2626 2274
2017 2658 2354
1873 2770 2418
1617 2914 2562
1665 2930 2610
1633 2914 2626
1665 2914 2658
1729 2882 2690
1777 2882 2738
1777 2834 2738
1809 2834 2754
1889 2818 2770
1985 2818 2786
2082 2834 2834
2146 2818 2834
2242 2834 2882
2210 2690 2258
2194 2754 2418
2226 2786 2466
2098 2834 2530
1953 2978 2658
1873 2962 2658
1905 3010 2754
1905 3010 2770
1921 2994 2786
1969 2994 2818
2017 2978 2834
2017 2946 2818
2066 2946 2866
2114 2930 2882
2178 2930 2882
2338 2930 2946
2354 2914 2946
304 176 144
304 192 160
320 192 192
304 176 192
384 208 240
416 224 304
512 272 368
544 336 480
656 368 576
737 528 817
769 656 993
929 817 1249
1009 945 1425
1073 1057 1585
1249 1217 1777
1393 1329 1889
1489 1457 2033
480 256 208
464 256 224
496 256 256
464 256 272
496 304 336
544 352 400
528 400 512
560 448 592
753 624 849
801 689 993
817 817 1201
929 929 1361
1025 1057 1521
1121 1201 1681
1297 1345 1841
1409 1473 2001
1505 1617 2146
737 400 336
769 400 352
801 432 432
737 400 416
640 400 448
592 416 496
640 512 656
624 624 801
672 721 961
705 817 1105
849 961 1297
929 1089 1489
1057 1217 1633
1217 1393 1793
1297 1473 1921
1441 1617 2066
1537 1713 2194
801 480 400
737 480 416
801 512 496
737 512 512
689 528 576
689 576 672
689 672 801
656 769 945
689 833 1073
817 1009 1281
865 1105 1409
945 1217 1537
1057 1313 1681
1201 1473 1841
1409 1633 2050
1457 1697 2114
1617 1841 2274
929 624 512
608 528 432
592 528 464
560 560 528
560 656 672
576 753 801
624 817 897
689 945 1057
753 1025 1217
801 1121 1329
881 1217 1473
993 1345 1633
1121 1457 1761
1233 1569 1873
1393 1729 2066
1489 1825 2194
1649 1985 2338
977 737 576
672 672 528
512 753 608
512 817 705
512 945 849
528 977 961
592 1057 1073
608 1121 1153
785 1217 1329
817 1265 1441
961 1377 1601
1057 1473 1713
1169 1585 1825
1329 1761 2033
1393 1793 2082
1553 1985 2258
1681 2082 2386
881 897 576
672 865 689
528 1025 833
592 1105 945
544 1137 1025
512 1265 1137
576 1233 1201
705 1345 1345
801 1441 1489
849 1425 1553
945 1521 1681
1105 1617 1793
1201 1729 1953
1361 1841 2082
1473 1953 2210
1553 2050 2290
1697 2194 2434
977 1201 672
801 1201 897
512 1329 1041
496 1329 1105
480 1425 1185
576 1521 1329
560 1521 1393
672 1553 1505
833 1617 1649
961 1617 1729
993 1665 1793
1137 1761 1921
1297 1873 2066
1425 2001 2194
1537 2082 2290
1617 2178 2402
1697 2242 2466
1041 1425 865
865 1473 1105
576 1617 1297
544 1665 1361
544 1729 1457
576 1809 1569
640 1745 1601
753 1761 1713
849 1761 1777
977 1777 1857
1057 1841 1953
1201 1921 2050
1329 2033 2194
1409 2082 2258
1489 2178 2338
1649 2258 2450
1777 2338 2530
1329 1617 849
1025 1713 1313
624 1905 1521
624 1985 1617
560 2001 1681
640 1985 1761
624 1921 1777
769 1985 1873
833 1953 1905
993 1985 1985
1121 2050 2098
1201 2066 2178
1345 2178 2290
1457 2210 2354
1617 2306 2450
1713 2354 2530
1857 2450 2610
1713 1841 817
1281 1825 1361
592 2178 1713
592 2210 1777
560 2194 1841
640 2178 1921
801 2210 2017
817 2162 2033
897 2162 2082
1089 2194 2194
1169 2194 2226
1297 2242 2290
1425 2306 2386
1553 2354 2450
1665 2386 2530
1809 2466 2610
1921 2530 2674
1921 2050 993
1441 2017 1521
929 2386 1921
817 2434 2033
769 2434 2066
817 2434 2146
865 2418 2194
929 2354 2194
1025 2370 2258
1217 2370 2338
1329 2386 2386
1409 2402 2418
1505 2418 2466
1617 2450 2546
1745 2498 2610
1841 2546 2658
1969 2610 2738
2114 2226 1089
1681 2226 1665
1345 2434 2017
1153 2546 2098
993 2594 2242
977 2562 2258
1137 2562 2338
1153 2546 2370
1217 2498 2386
1329 2482 2418
1457 2498 2450
1553 2546 2530
1601 2530 2546
1761 2578 2610
1857 2594 2658
2001 2642 2738
2066 2658 2770
2274 2402 1249
1809 2354 1777
1617 2530 2162
1457 2626 2242
1377 2722 2370
1249 2722 2418
1329 2738 2482
1329 2690 2466
1457 2690 2546
1553 2674 2578
1617 2658 2594
1633 2626 2594
1777 2658 2642
1857 2658 2674
1969 2674 2738
2098 2738 2802
2194 2738 2818
2418 2530 1409
2114 2546 1809
1985 2594 2242
1889 2642 2338
1633 2818 2482
1553 2850 2546
1633 2834 2610
1633 2818 2626
1617 2802 2610
1729 2818 2674
1777 2786 2674
1777 2754 2674
1873 2754 2722
1985 2754 2754
2098 2770 2802
2178 2786 2834
2258 2802 2866
2530 2658 1553
2338 2674 1889
2210 2658 2210
2242 2690 2370
2050 2818 2530
1857 2930 2642
1889 2946 2674
1841 2914 2674
1905 2930 2754
1921 2882 2754
2001 2914 2802
2001 2866 2786
2017 2850 2786
2098 2850 2834
2210 2866 2866
2274 2850 2882
2370 2866 2914
2642 2786 1761
2450 2786 2082
2370 2770 2338
2418 2802 2482
2306 2882 2626
2050 2962 2674
2098 2994 2738
2098 3010 2770
2114 3026 2818
2098 3010 2818
2146 2994 2834
2162 2978 2850
2210 2978 2882
2290 2978 2930
2354 2962 2946
2418 2962 2978
2434 2946 2978
512 272 224
528 272 256
544 272 272
560 288 320
624 320 368
640 320 416
721 352 496
753 368 528
913 464 672
945 528 817
1073 705 1073
1153 817 1297
1233 961 1457
1345 1137 1665
1393 1265 1793
1473 1361 1921
1617 1521 2098
817 400 352
801 368 352
801 368 384
817 384 416
737 384 448
801 400 512
753 416 528
881 512 705
1025 624 881
1169 753 1089
1153 849 1265
1153 1073 1489
1281 1217 1665
1313 1297 1777
1441 1457 1953
1521 1553 2066
