其他预设/【236】赛博朋克风调色预设/【后期菌】视频调色预设/3DL/Abandoned 01.3dl
# LUT by SparkleStock. Enhanced with VOXCOLOR algorithms.
0 128 256 384 512 640 768 896 1023
400 160 320
400 192 368
400 208 400
416 224 496
480 320 656
528 464 977
672 705 1457
785 1041 2017
929 1361 2482
400 208 384
400 208 400
432 272 496
480 336 624
512 464 849
608 672 1233
721 961 1665
881 1361 2290
1057 1665 2690
432 288 448
448 336 528
480 400 608
512 496 785
592 769 1169
721 1073 1617
865 1457 2194
1041 1777 2626
1233 2146 2930
496 528 624
528 624 753
544 737 897
608 961 1233
705 1281 1633
833 1537 2066
1025 1921 2562
1185 2210 2850
1457 2594 3122
512 1009 913
576 1185 1137
608 1265 1297
705 1553 1665
817 1729 2033
1073 2178 2530
1265 2450 2866
1473 2706 3106
1665 2866 3266
608 1649 1361
721 1905 1633
801 2017 1857
929 2178 2178
1073 2370 2482
1297 2610 2818
1537 2850 3090
1729 2978 3250
2033 3138 3378
881 2450 1825
1025 2562 2162
1089 2594 2338
1233 2706 2578
1377 2818 2802
1569 2946 3010
1777 3074 3202
2033 3170 3330
2322 3298 3443
1297 2914 2370
1409 2946 2562
1537 2994 2738
1633 3058 2882
1729 3090 3010
1889 3138 3138
2082 3218 3266
2290 3298 3346
2450 3330 3427
1713 3138 2658
1905 3234 2834
2017 3250 2962
2066 3250 3042
2178 3298 3138
2290 3330 3250
2418 3346 3330
2530 3378 3378
2658 3427 3459
400 208 384
416 208 400
432 224 448
464 256 528
496 336 705
592 544 1153
737 865 1665
881 1201 2242
1041 1505 2626
496 304 496
528 320 592
496 304 592
528 432 785
592 608 1073
689 881 1537
817 1201 1985
977 1553 2482
1185 1921 2850
576 432 624
512 400 624
528 496 769
592 689 1041
672 977 1425
785 1281 1857
945 1585 2338
1169 2033 2802
1425 2418 3090
560 592 689
576 769 913
608 913 1105
656 1121 1377
801 1505 1889
929 1745 2290
1137 2098 2690
1377 2450 3010
1649 2786 3234
544 1105 881
640 1377 1313
705 1553 1585
801 1713 1905
977 2050 2290
1169 2306 2658
1393 2594 2978
1585 2802 3170
1857 2994 3330
640 1809 1169
801 2066 1777
913 2194 2066
1105 2434 2450
1217 2546 2674
1393 2706 2882
1665 2946 3138
1905 3074 3298
2210 3202 3427
881 2482 1361
1121 2626 2162
1265 2722 2498
1393 2834 2690
1505 2882 2850
1665 2994 3058
1889 3090 3202
2162 3202 3330
2370 3298 3427
1345 2882 1473
1489 2962 2290
1665 3058 2738
1841 3138 2962
1905 3138 3058
2066 3218 3186
2194 3234 3250
2418 3314 3362
2578 3362 3443
2178 3202 1649
2033 3186 2290
2210 3266 2866
2306 3314 3090
2418 3330 3202
2450 3346 3250
2530 3362 3330
2706 3427 3394
2802 3443 3459
496 288 496
496 288 512
512 304 592
528 320 656
592 400 881
672 544 1233
865 801 1761
993 1217 2354
1233 1649 2786
753 480 689
785 496 785
801 512 865
785 560 1041
785 672 1265
881 913 1713
977 1409 2274
1169 1761 2706
1361 2146 2962
1249 833 913
1441 833 1105
1265 801 1233
865 913 1377
817 1217 1697
913 1505 2162
1105 1889 2594
1361 2274 2946
1569 2578 3138
1073 1073 945
977 1089 1169
785 1089 1361
881 1377 1729
929 1665 2082
1073 1985 2482
1297 2338 2850
1553 2658 3122
1809 2882 3266
753 1505 1009
721 1473 1169
817 1761 1761
945 1985 2146
1137 2274 2498
1313 2482 2802
1569 2754 3090
1841 2962 3266
2114 3138 3394
1185 2274 1201
977 2274 1393
1073 2418 2290
1233 2578 2562
1393 2690 2818
1553 2834 2994
1841 3042 3218
2114 3170 3330
2354 3250 3443
1889 2754 1185
1441 2754 1489
1441 2834 2530
1553 2914 2738
1697 2994 2978
1841 3042 3106
2082 3138 3234
2322 3250 3346
2562 3346 3443
2658 3122 1281
2418 3122 1649
2033 3106 2466
2066 3186 2962
2178 3218 3106
2210 3218 3186
2370 3266 3266
2626 3346 3362
2818 3394 3443
3042 3298 1457
3138 3314 1809
3090 3346 2322
2834 3346 2994
2818 3394 3250
2866 3427 3314
2930 3394 3362
3074 3459 3443
3186 3491 3491
849 432 656
865 464 737
865 480 849
833 496 945
865 512 1089
977 608 1377
1217 849 1809
1457 1073 2210
1489 1553 2738
1617 753 897
1585 737 1041
1601 785 1217
1553 801 1377
1569 881 1585
1393 961 1857
1441 1297 2354
1649 1729 2754
1809 2226 3042
2194 1185 1137
2370 1169 1425
2306 1169 1585
2226 1185 1729
1585 1201 1921
1553 1441 2290
1745 1953 2754
1553 2450 3010
1777 2706 3202
2194 1537 1089
2578 1649 1457
2738 1601 1889
2370 1553 2033
1361 1889 2370
1329 2274 2722
1473 2546 2962
1793 2834 3202
2033 2978 3330
1489 1969 1041
1441 1953 1201
1393 1953 1681
1169 2066 2226
1361 2354 2578
1505 2658 2930
1761 2914 3170
2082 3074 3330
2306 3186 3394
2033 2562 1105
2082 2594 1169
1649 2610 1697
1441 2722 2690
1569 2818 2882
1793 2946 3090
2033 3074 3234
2274 3186 3346
2530 3298 3443
2658 2946 1185
2802 3010 1361
2578 3042 1793
1857 3042 2834
1921 3074 2994
2114 3122 3138
2338 3202 3250
2658 3298 3378
2850 3362 3459
3122 3202 1393
3170 3202 1553
3090 3234 2066
2850 3266 2834
2754 3266 3010
2658 3298 3234
2802 3314 3314
3010 3394 3427
3122 3443 3459
3378 3330 1665
3427 3346 1889
3443 3378 2226
3475 3394 2626
3250 3427 3186
3218 3443 3330
3314 3475 3394
3330 3491 3443
3362 3491 3491
1761 656 817
1761 672 961
1649 689 1105
1601 689 1265
1617 753 1409
1665 833 1649
1649 897 1857
1953 1121 2242
2178 1329 2530
2610 1041 1169
2562 1041 1361
2562 1073 1521
2498 1073 1649
2482 1073 1809
2450 1121 2017
2482 1249 2242
2498 1377 2466
2690 1681 2786
2866 1489 1409
2978 1473 1745
2946 1473 1889
2930 1457 2050
2882 1489 2194
2834 1473 2306
2498 1665 2594
2626 2242 2978
2786 2722 3218
2850 1841 1297
3042 2017 1761
3138 1953 2242
2978 1905 2306
2946 1905 2418
2674 1985 2610
2690 2434 2946
2882 2914 3218
2450 3090 3378
2242 2290 993
2466 2290 1105
3058 2466 1953
3122 2434 2530
2786 2434 2674
2194 2738 2978
2114 2978 3218
2370 3170 3378
2626 3250 3459
2706 2706 1073
2802 2754 1249
2914 2786 1457
2882 2882 2306
2226 2914 2914
2482 3042 3106
2402 3122 3234
2674 3250 3378
2914 3330 3459
3106 3058 1265
3186 3058 1457
3218 3090 1681
3170 3170 2242
2594 3186 3042
2658 3218 3186
2818 3266 3266
3058 3362 3394
3138 3394 3459
3378 3266 1553
3427 3266 1777
3475 3314 2114
3491 3330 2402
3314 3378 3074
3170 3362 3234
3234 3427 3362
3330 3443 3427
3378 3475 3491
3523 3378 1889
3555 3394 2178
3587 3427 2402
3603 3443 2690
3587 3459 2930
3491 3491 3314
3491 3507 3443
3491 3507 3459
3523 3523 3507
2690 897 1089
2626 913 1249
2610 929 1393
2610 945 1553
2594 977 1697
2562 1057 1905
2578 1153 2146
2578 1265 2354
2722 1409 2562
3090 1345 1521
3090 1377 1713
3074 1361 1841
2994 1313 1953
2994 1361 2114
2962 1377 2290
2930 1441 2434
2978 1553 2594
3042 1777 2802
3202 1777 1697
3218 1713 2017
3186 1761 2178
3170 1761 2322
3138 1761 2418
3170 1825 2578
3138 1857 2690
3138 1953 2786
3202 2210 2962
3138 2162 1521
3234 2290 1985
3266 2226 2434
3250 2226 2498
3266 2338 2690
3250 2322 2754
3234 2370 2866
3170 2626 3090
3218 2930 3250
2834 2482 1041
2962 2562 1265
3234 2674 2114
3330 2674 2658
3234 2610 2786
3298 2722 2930
3186 2866 3074
3298 3122 3298
3362 3298 3459
3170 2914 1265
3218 2930 1457
3234 2914 1617
3362 2978 2306
3394 3058 2690
3218 3122 3122
3010 3218 3266
3074 3314 3378
3218 3362 3475
3394 3186 1505
3394 3170 1713
3443 3202 1985
3475 3234 2242
3443 3266 2786
3202 3298 3186
3250 3330 3314
3314 3394 3427
3427 3443 3491
3507 3314 1761
3555 3330 2066
3587 3362 2354
3603 3378 2594
3587 3427 2914
3507 3443 3234
3443 3443 3346
3491 3491 3459
3507 3491 3491
3619 3394 2146
3635 3443 2402
3651 3459 2578
3683 3475 2802
3683 3491 2962
3683 3523 3186
3635 3523 3427
3635 3571 3507
3619 3571 3523
3122 1217 1457
3106 1185 1601
3106 1185 1713
3074 1217 1905
3106 1281 2114
3090 1329 2242
3074 1377 2418
3042 1457 2530
3090 1569 2658
3314 1665 1905
3298 1633 2017
3266 1665 2178
3266 1665 2322
3250 1665 2434
3234 1681 2498
3218 1729 2610
3234 1825 2738
3202 1905 2850
3362 2146 2066
3362 2146 2338
3330 2050 2370
3330 2114 2546
3330 2146 2626
3346 2194 2738
3362 2226 2866
3346 2290 2962
3346 2354 3042
3346 2450 1761
3378 2562 2274
3394 2562 2626
3362 2546 2722
3362 2530 2802
3378 2578 2882
3378 2610 2994
3394 2674 3090
3427 2722 3170
3202 2706 1217
3250 2786 1457
3394 2850 2402
3427 2866 2802
3427 2850 2914
3475 2930 3010
3475 2946 3090
3459 2978 3186
3491 3170 3346
3378 3010 1425
3427 3074 1697
3443 3106 1953
3475 3090 2418
3491 3122 2706
3475 3122 3106
3475 3170 3186
3507 3266 3330
3523 3394 3459
3555 3250 1745
3555 3250 2017
3523 3234 2210
3523 3250 2418
3555 3250 2706
3587 3330 2978
3523 3378 3298
3475 3394 3378
3555 3491 3491
3619 3362 2082
3635 3378 2354
3635 3378 2578
3635 3378 2754
3619 3378 2850
3619 3443 3138
3619 3475 3362
3635 3491 3459
3619 3523 3507
3683 3443 2402
3683 3459 2578
3715 3475 2818
3715 3491 2978
3715 3507 3106
3731 3523 3266
3731 3571 3394
3715 3571 3507
3699 3571 3523
3330 1521 1825
3330 1553 1985
3346 1553 2146
3330 1553 2290
3330 1569 2402
3314 1601 2498
3346 1729 2674
3330 1809 2786
3330 1857 2866
3459 2033 2274
3459 2066 2402
3427 1969 2450
3427 2033 2578
3427 2066 2690
3427 2033 2722
3427 2114 2834
3394 2178 2930
3427 2290 3042
3475 2450 2178
3491 2450 2594
3475 2450 2674
3459 2434 2722
3475 2498 2850
3475 2498 2946
3475 2546 3010
3491 2594 3090
3491 2626 3138
3475 2674 2017
3507 2802 2530
3491 2786 2706
3491 2786 2866
3491 2818 2946
3491 2818 2994
3475 2802 3058
3523 2882 3186
3523 2914 3234
3443 2882 1457
3443 2946 1713
3475 2962 2370
3507 2994 2914
3507 3010 3010
3523 3058 3090
3523 3058 3138
3555 3106 3218
3603 3186 3330
3523 3138 1697
3555 3170 1953
3507 3170 2162
3523 3170 2610
3555 3202 2786
3571 3234 3202
3587 3250 3266
3603 3298 3346
3635 3378 3459
3619 3298 2017
3619 3314 2242
3603 3314 2450
3603 3314 2626
3587 3314 2754
3635 3362 3058
3651 3394 3314
3651 3427 3394
3683 3491 3507
3699 3427 2434
3715 3443 2658
3683 3427 2802
3683 3427 2946
3651 3427 3042
3683 3459 3170
3699 3491 3314
3699 3523 3459
3715 3571 3555
3731 3475 2674
3731 3491 2850
3747 3507 3042
3715 3491 3122
3747 3555 3298
3731 3571 3378
3763 3603 3475
3779 3619 3555
3763 3619 3571
3475 1889 2210
3475 1905 2354
3475 1905 2482
3475 1905 2562
3475 1937 2674
3459 1953 2738
3475 2082 2866
3459 2082 2882
3459 2146 2962
3555 2338 2530
3555 2338 2610
3523 2338 2690
3555 2370 2818
3523 2354 2850
3507 2354 2914
3523 2450 2994
3523 2482 3074
3523 2546 3122
3523 2610 2146
3603 2754 2818
3571 2706 2850
3571 2722 2946
3571 2722 2978
3555 2738 3042
3555 2802 3122
3555 2802 3186
3555 2818 3218
3459 2722 1441
3587 2914 2482
3603 2978 2882
3587 2978 3010
3555 2930 3042
3587 2978 3106
3587 3010 3170
3603 3058 3234
3603 3058 3266
3555 2994 1617
3555 3042 1889
3523 3058 2370
3603 3138 2882
3571 3138 3138
3587 3186 3202
3603 3202 3234
3619 3218 3298
3635 3250 3378
3603 3202 1889
3587 3218 2178
3587 3218 2354
3587 3218 2626
3587 3250 2882
3635 3330 3298
3619 3330 3314
3651 3346 3378
3699 3394 3459
3683 3330 2194
3699 3362 2434
3635 3330 2578
3635 3362 2754
3619 3346 2882
3635 3378 3106
3683 3427 3330
3699 3475 3443
3731 3507 3507
3715 3443 2546
3731 3475 2802
3699 3443 2930
3699 3459 3042
3699 3459 3122
3715 3491 3234
3731 3523 3362
3747 3571 3459
3763 3587 3571
3747 3507 2930
3763 3523 3106
3763 3571 3250
3747 3571 3346
3731 3571 3427
3763 3587 3475
3763 3587 3523
3779 3603 3571
3779 3603 3587
