其他预设/【236】赛博朋克风调色预设/【后期菌】视频调色预设/3DL/Abandoned 09.3dl
# LUT by SparkleStock. Enhanced with VOXCOLOR algorithms.
0 128 256 384 512 640 768 896 1023
64 16 16
64 48 80
80 80 128
96 112 272
112 176 512
128 304 977
208 544 1601
320 865 2322
496 1265 2770
96 80 96
80 96 128
112 128 240
96 192 384
96 288 672
128 448 1185
208 769 1825
352 1217 2610
544 1633 3010
80 128 144
96 192 240
96 240 320
80 336 544
112 512 1009
144 833 1633
256 1233 2418
416 1697 2898
656 2178 3202
64 336 272
64 400 384
64 464 576
80 656 977
96 977 1505
176 1313 2210
320 1809 2866
496 2290 3186
865 2770 3427
16 705 480
32 865 753
32 961 977
32 1249 1473
80 1505 2066
224 2066 2818
416 2514 3234
737 2850 3427
1089 3106 3523
0 1409 929
16 1681 1313
16 1809 1665
48 2033 2194
128 2338 2690
272 2690 3154
576 3010 3443
913 3154 3539
1377 3298 3587
0 2322 1505
32 2514 1937
64 2594 2338
128 2738 2818
256 2898 3138
480 3090 3410
785 3234 3539
1153 3330 3571
1617 3427 3619
112 2866 2162
208 2962 2594
320 3042 2930
432 3138 3186
592 3202 3378
769 3282 3459
1057 3378 3555
1393 3427 3571
1745 3475 3619
448 3138 2626
705 3266 2962
865 3298 3154
977 3314 3282
1153 3394 3427
1313 3427 3475
1537 3459 3539
1825 3523 3571
2178 3555 3619
96 80 128
112 96 144
112 112 208
128 128 336
160 208 624
176 336 1089
288 672 1825
464 1089 2562
689 1473 2962
160 160 240
192 176 320
144 176 368
144 272 592
144 400 961
224 656 1569
320 1009 2274
512 1473 2818
817 1921 3122
208 240 320
128 256 352
112 336 528
128 464 833
144 689 1313
224 1009 1953
336 1457 2610
624 1985 3090
1009 2514 3330
128 400 336
80 512 544
96 656 785
80 833 1185
160 1217 1809
240 1569 2450
448 2082 3010
785 2594 3298
1201 2962 3475
96 785 432
32 1089 961
48 1281 1345
80 1489 1793
144 1825 2418
320 2274 2994
640 2738 3330
961 2978 3459
1441 3202 3539
128 1505 624
16 1873 1505
16 2066 1937
128 2370 2578
224 2562 2930
432 2818 3266
817 3090 3459
1249 3250 3539
1713 3394 3587
336 2338 897
96 2578 1889
160 2738 2610
288 2882 2930
432 2978 3202
656 3122 3394
977 3234 3475
1489 3346 3555
1921 3459 3603
881 2850 1009
448 2914 2050
608 3106 2882
785 3234 3250
865 3266 3330
1153 3330 3459
1393 3378 3507
1793 3459 3571
2210 3523 3587
1665 3154 1121
1393 3154 1809
1489 3314 2898
1521 3410 3282
1777 3459 3410
1889 3475 3443
2098 3523 3523
2402 3555 3571
2626 3587 3603
192 160 224
192 144 272
224 160 352
240 176 464
304 240 801
384 368 1233
608 624 1905
769 1073 2562
1105 1633 2994
576 304 368
624 336 528
608 320 624
560 352 881
528 448 1201
576 689 1761
560 1265 2578
801 1697 2978
1169 2210 3234
1201 592 512
1665 640 817
1377 576 993
528 624 1233
320 929 1697
368 1313 2370
592 1777 2898
945 2306 3186
1393 2706 3378
849 785 496
656 769 833
320 785 1121
384 1089 1633
304 1441 2178
432 1857 2754
721 2370 3154
1089 2786 3378
1553 3106 3507
336 1169 480
240 1169 753
96 1505 1617
144 1745 2178
304 2210 2770
544 2578 3170
945 2898 3394
1393 3154 3507
1889 3330 3571
833 2033 656
448 2050 977
112 2338 2290
240 2594 2786
432 2818 3138
721 2978 3346
1201 3186 3459
1713 3330 3555
2146 3443 3587
1633 2786 656
1089 2690 977
448 2866 2610
544 2978 2994
769 3106 3282
1057 3186 3378
1473 3298 3475
1985 3427 3539
2466 3523 3603
2402 3186 705
2033 3138 1121
1297 3090 2242
1297 3266 3138
1489 3330 3330
1569 3346 3410
1921 3427 3475
2402 3523 3571
2722 3555 3603
2850 3378 817
2898 3410 1217
2850 3410 1777
2370 3443 3058
2450 3523 3410
2578 3539 3475
2674 3555 3523
2882 3587 3571
3058 3619 3619
769 304 336
769 320 480
769 320 624
753 320 801
769 336 1009
993 416 1377
1409 624 1905
1873 865 2354
1825 1505 2882
1905 592 560
1889 592 753
1937 640 1025
1921 624 1249
1985 656 1537
1633 721 1873
1681 1089 2450
1937 1649 2898
2162 2290 3186
2626 977 769
2914 993 1249
2834 977 1505
2770 1009 1713
1793 897 1873
1713 1185 2354
1921 1777 2882
1441 2546 3282
1729 2866 3410
2482 1393 576
2994 1473 1153
3170 1489 1937
2850 1361 2066
1089 1665 2498
881 2178 2962
1025 2626 3234
1569 2994 3427
2001 3186 3475
1345 1745 464
1265 1713 721
1089 1601 1393
560 1905 2338
865 2322 2834
897 2754 3234
1329 3058 3427
1873 3266 3523
2290 3378 3571
1937 2562 544
1985 2562 624
1329 2498 1297
512 2754 2962
753 2898 3186
1185 3090 3378
1617 3250 3459
2130 3378 3539
2562 3475 3587
2578 3058 592
2722 3154 785
2418 3106 1345
1153 3106 3026
1265 3170 3234
1601 3266 3394
2033 3378 3459
2578 3507 3571
2866 3539 3587
3058 3378 817
3106 3378 1009
2930 3330 1553
2418 3378 2818
2354 3378 3138
2322 3443 3410
2594 3475 3475
2898 3555 3555
3090 3587 3587
3314 3507 1057
3346 3507 1329
3394 3523 1697
3410 3555 2322
3106 3571 3282
3026 3587 3475
3186 3651 3571
3266 3651 3587
3330 3667 3619
2242 592 544
2290 592 721
2130 560 945
2130 560 1185
2162 592 1409
2338 656 1761
2338 721 2033
2786 993 2450
3042 1249 2722
3122 945 977
3106 961 1281
3138 977 1521
3058 977 1713
3106 993 2033
3106 1041 2274
3186 1185 2498
3202 1345 2706
3314 1713 2978
3282 1345 1185
3410 1409 1777
3378 1441 2033
3394 1425 2290
3394 1473 2466
3330 1457 2578
3090 1537 2738
3106 2194 3122
3154 2834 3378
3186 1793 865
3330 1921 1617
3459 1985 2466
3378 1825 2482
3378 1873 2642
3122 1873 2786
3042 2402 3106
3138 3042 3427
2626 3298 3539
2322 2290 432
2610 2338 544
3266 2546 1713
3394 2498 2706
3042 2370 2818
2130 2850 3170
2033 3154 3427
2370 3346 3555
2786 3459 3587
2786 2866 544
2898 2930 705
2994 2962 961
2866 2914 2082
1873 3010 3122
2354 3186 3314
2274 3314 3427
2722 3459 3555
2962 3523 3603
3170 3282 721
3202 3282 929
3282 3298 1249
3106 3282 1873
2194 3298 3202
2338 3394 3378
2706 3443 3459
2994 3539 3555
3170 3571 3603
3427 3459 1025
3427 3459 1265
3507 3507 1633
3507 3475 1985
3250 3539 3138
3010 3523 3394
3138 3587 3539
3298 3619 3587
3394 3651 3651
3539 3555 1329
3571 3555 1617
3587 3571 1937
3619 3619 2434
3587 3619 2866
3475 3651 3443
3475 3683 3587
3475 3683 3603
3555 3715 3667
3186 865 977
3186 881 1233
3202 897 1457
3202 913 1713
3234 961 1985
3234 1009 2242
3266 1105 2434
3314 1249 2642
3394 1473 2850
3459 1297 1553
3459 1329 1873
3459 1361 2098
3443 1297 2226
3443 1377 2450
3443 1393 2578
3443 1473 2722
3507 1665 2898
3555 1937 3090
3523 1761 1681
3507 1761 2242
3507 1809 2466
3507 1825 2626
3507 1857 2722
3539 1937 2866
3539 2001 2978
3539 2130 3058
3587 2370 3234
3443 2306 1249
3459 2370 2001
3539 2370 2690
3539 2338 2818
3571 2466 2978
3555 2434 3042
3571 2482 3154
3507 2706 3266
3539 3122 3459
3090 2738 512
3186 2818 785
3410 2834 2001
3555 2882 2898
3539 2818 3042
3555 2882 3170
3427 3026 3298
3507 3298 3507
3507 3523 3603
3314 3170 721
3346 3186 977
3378 3170 1249
3523 3234 2130
3523 3266 2722
3330 3298 3330
3026 3394 3443
3090 3475 3555
3298 3587 3651
3507 3410 1009
3507 3410 1249
3539 3427 1585
3571 3443 1905
3459 3443 2754
3170 3443 3378
3266 3523 3507
3314 3587 3587
3459 3651 3651
3587 3523 1297
3603 3523 1537
3619 3555 1937
3667 3587 2370
3619 3587 2866
3539 3603 3378
3443 3603 3539
3555 3667 3603
3587 3667 3651
3667 3587 1601
3667 3587 1905
3683 3603 2242
3699 3651 2642
3715 3683 2962
3715 3715 3282
3683 3715 3555
3699 3731 3651
3699 3747 3667
3459 1185 1505
3459 1217 1729
3459 1233 2017
3475 1265 2242
3523 1345 2450
3523 1425 2626
3539 1521 2770
3539 1617 2882
3587 1793 3026
3587 1713 2098
3555 1713 2306
3571 1761 2498
3603 1809 2690
3587 1793 2770
3587 1825 2866
3587 1937 2978
3603 2082 3090
3619 2162 3154
3603 2274 2194
3587 2290 2626
3555 2210 2674
3587 2306 2866
3603 2322 2978
3619 2338 3042
3667 2434 3154
3667 2498 3234
3683 2594 3298
3571 2690 1633
3587 2722 2322
3603 2770 2898
3619 2786 3026
3619 2754 3106
3667 2786 3186
3667 2834 3266
3683 2866 3330
3699 2930 3410
3443 3058 769
3459 3106 1041
3571 3106 2402
3651 3138 3090
3651 3106 3186
3683 3186 3314
3683 3202 3394
3683 3202 3427
3667 3394 3555
3539 3314 977
3571 3330 1297
3571 3346 1649
3571 3330 2306
3619 3378 2786
3603 3346 3330
3619 3394 3427
3667 3507 3539
3667 3603 3603
3651 3507 1297
3651 3507 1617
3603 3475 1825
3619 3475 2242
3619 3475 2706
3651 3555 3122
3603 3587 3459
3555 3587 3539
3651 3683 3667
3699 3571 1569
3699 3571 1921
3699 3587 2354
3683 3587 2690
3699 3619 2930
3699 3651 3266
3683 3683 3523
3699 3699 3603
3699 3715 3667
3715 3619 1985
3731 3619 2306
3731 3667 2722
3747 3683 2994
3795 3731 3250
3795 3747 3427
3811 3779 3555
3747 3747 3651
3747 3779 3699
3587 1617 2130
3603 1649 2354
3619 1697 2546
3651 1713 2706
3651 1745 2818
3651 1857 2930
3683 2033 3042
3683 2146 3138
3699 2194 3186
3683 2274 2626
3683 2290 2738
3667 2178 2818
3683 2226 2930
3683 2306 3026
3699 2322 3090
3699 2402 3154
3699 2482 3234
3715 2562 3298
3683 2706 2274
3683 2706 2914
3683 2690 3010
3667 2690 3058
3699 2738 3170
3715 2754 3234
3715 2786 3298
3731 2882 3378
3731 2914 3427
3683 2978 1937
3699 3042 2690
3683 3058 3010
3683 3042 3170
3683 3058 3250
3699 3058 3298
3699 3058 3346
3747 3154 3459
3747 3186 3507
3651 3282 1073
3619 3282 1377
3651 3266 2306
3667 3282 3186
3683 3298 3314
3699 3346 3394
3699 3330 3427
3747 3394 3507
3795 3443 3571
3667 3443 1297
3667 3427 1569
3667 3427 1825
3667 3427 2626
3699 3475 2930
3715 3523 3475
3731 3539 3523
3779 3571 3571
3779 3619 3651
3715 3539 1585
3699 3523 1857
3699 3539 2210
3667 3539 2562
3699 3587 2850
3731 3619 3266
3779 3619 3539
3779 3667 3603
3747 3699 3651
3747 3619 2066
3779 3619 2466
3731 3619 2770
3747 3667 3042
3747 3667 3186
3779 3699 3330
3795 3715 3523
3779 3715 3603
3779 3747 3699
3795 3667 2402
3795 3683 2722
3811 3731 3058
3795 3715 3250
3811 3747 3427
3811 3747 3539
3827 3779 3603
3843 3811 3683
3827 3811 3715
3683 2130 2594
3699 2194 2818
3715 2178 2914
3715 2210 2994
3715 2274 3090
3715 2306 3138
3715 2434 3202
3699 2434 3234
3715 2514 3298
3731 2610 2866
3731 2610 2978
3731 2610 3058
3779 2690 3170
3747 2674 3186
3731 2690 3250
3747 2754 3314
3747 2786 3346
3747 2866 3410
3731 2898 2290
3795 3042 3154
3747 2994 3170
3779 3010 3250
3747 3010 3298
3747 3026 3346
3779 3058 3410
3779 3106 3459
3779 3106 3507
3683 3122 1089
3779 3234 2626
3747 3266 3154
3747 3282 3298
3715 3250 3330
3731 3298 3410
3747 3298 3443
3795 3346 3523
3795 3330 3555
3699 3330 1281
3683 3346 1553
3699 3346 2322
3731 3443 3138
3731 3427 3410
3731 3443 3459
3747 3459 3507
3795 3507 3571
3795 3539 3603
3731 3475 1553
3731 3475 1825
3699 3475 2162
3715 3523 2706
3715 3523 3058
3779 3587 3539
3747 3571 3539
3779 3587 3571
3811 3651 3651
3747 3571 1745
3779 3587 2210
3731 3571 2498
3731 3603 2786
3731 3619 3026
3779 3667 3330
3827 3683 3555
3827 3699 3619
3843 3731 3699
3795 3651 2322
3811 3667 2722
3795 3683 2994
3795 3699 3170
3795 3699 3298
3795 3715 3427
3795 3731 3523
3827 3779 3619
3859 3795 3715
3811 3715 2898
3827 3731 3202
3843 3747 3394
3811 3747 3475
3827 3779 3555
3843 3795 3619
3859 3811 3683
3859 3811 3715
3843 3811 3731
