其他预设/【236】赛博朋克风调色预设/【后期菌】视频调色预设/3DL/Abandoned 02_S.3dl
# LUT by SparkleStock. Enhanced with VOXCOLOR algorithms.
0 128 256 384 512 640 768 896 1023
32 144 240
64 304 464
96 384 624
128 512 849
160 656 1089
176 817 1393
208 1041 1777
272 1249 2178
352 1457 2530
96 352 480
80 400 544
128 544 785
144 656 977
160 817 1233
176 977 1505
208 1201 1841
288 1441 2290
336 1633 2610
64 512 608
96 624 737
128 672 881
128 817 1121
176 1025 1393
224 1249 1761
256 1457 2146
320 1697 2466
352 1873 2770
32 769 785
48 865 961
96 977 1137
112 1137 1377
192 1313 1681
224 1521 2033
256 1777 2370
320 1969 2626
368 2226 2930
16 1105 1025
32 1233 1249
32 1297 1377
64 1457 1665
112 1617 1953
144 1873 2306
208 2098 2610
272 2338 2850
336 2498 3074
0 1553 1329
0 1729 1585
16 1793 1777
32 1857 2050
32 2001 2274
80 2226 2546
128 2418 2818
192 2562 3010
272 2738 3218
0 2114 1713
0 2194 1985
0 2242 2098
0 2290 2338
32 2370 2530
48 2482 2754
64 2610 2962
144 2738 3122
272 2866 3314
16 2546 2082
16 2578 2290
32 2610 2466
32 2626 2610
32 2674 2722
32 2722 2850
96 2802 3026
176 2866 3170
352 2946 3330
112 2786 2418
192 2866 2610
208 2914 2722
192 2882 2802
224 2930 2930
256 2962 3042
352 2994 3138
512 3026 3250
753 3074 3378
176 368 560
192 400 624
192 448 721
224 512 929
240 672 1169
208 897 1505
288 1169 1953
352 1377 2354
416 1569 2642
352 560 785
400 592 881
320 608 945
240 785 1137
192 945 1393
240 1153 1729
272 1329 2066
352 1553 2450
416 1777 2754
400 705 897
224 689 865
192 817 1057
192 977 1297
208 1153 1569
256 1361 1857
304 1553 2258
368 1825 2610
480 2066 2914
240 865 913
112 993 1089
144 1121 1265
128 1233 1473
208 1489 1873
240 1665 2178
304 1889 2482
384 2146 2770
464 2370 3026
144 1153 977
32 1393 1377
48 1489 1585
96 1617 1841
144 1793 2178
176 1985 2434
256 2242 2738
288 2418 2946
432 2626 3154
240 1489 1041
0 1825 1713
16 1905 1905
32 2050 2226
48 2162 2418
96 2290 2626
176 2498 2914
256 2626 3074
480 2818 3314
464 1921 1313
32 2274 1969
32 2354 2242
32 2402 2466
48 2434 2610
96 2546 2802
128 2642 2946
304 2786 3154
528 2914 3330
1105 2434 1665
352 2562 2114
160 2690 2482
128 2754 2738
112 2754 2802
192 2802 2930
288 2834 3058
512 2962 3234
801 3010 3362
1777 2802 2114
1409 2770 2306
1105 2946 2690
672 2994 2930
769 3010 3026
721 3010 3106
849 3026 3186
1201 3074 3314
1457 3154 3427
432 512 769
416 496 817
448 512 945
432 544 1073
464 705 1345
464 881 1617
576 1121 2050
544 1393 2418
640 1633 2770
785 737 1009
817 721 1089
817 689 1201
753 785 1409
656 929 1633
592 1185 1905
416 1505 2338
480 1697 2610
608 1921 2866
1169 1025 1153
1345 1025 1297
1169 961 1409
737 1089 1569
416 1297 1809
352 1489 2114
400 1761 2450
496 2001 2754
640 2226 2994
993 1185 1057
817 1233 1185
576 1265 1345
544 1425 1681
368 1601 2017
336 1793 2338
352 2066 2626
480 2290 2866
608 2530 3138
480 1345 977
416 1473 1137
208 1665 1617
256 1761 1905
224 1921 2258
224 2162 2562
320 2386 2834
448 2578 3074
640 2770 3282
977 1841 1265
608 1889 1457
64 2066 2033
112 2194 2274
128 2290 2530
192 2418 2754
320 2594 2994
496 2754 3186
753 2882 3346
1537 2338 1553
1217 2274 1729
192 2482 2338
112 2482 2546
176 2594 2754
224 2626 2850
416 2738 3042
721 2866 3218
1121 2994 3378
2001 2738 1825
1825 2738 2082
1281 2690 2354
640 2818 2786
592 2866 2930
576 2866 2978
785 2930 3138
1217 3026 3282
1681 3106 3410
2402 2946 2162
2482 3010 2418
2450 3042 2626
1905 2994 2850
1777 3122 3138
1761 3138 3218
1809 3138 3282
2033 3186 3394
2226 3234 3507
945 689 1009
977 672 1137
977 624 1233
913 624 1361
865 656 1505
945 753 1729
1153 913 2098
1313 993 2402
1201 1553 2914
1569 977 1217
1521 881 1249
1521 833 1425
1473 817 1633
1473 881 1905
1297 993 2098
1281 1313 2498
1377 1649 2850
1425 2017 3058
1873 1297 1265
1873 1201 1345
1777 1153 1537
1777 1137 1793
1457 1137 2050
1361 1345 2386
1457 1809 2754
833 2178 2866
977 2370 3106
1809 1617 1185
1889 1617 1297
1969 1537 1617
1809 1489 1905
1121 1681 2194
689 1921 2546
544 2210 2754
721 2482 3010
1009 2610 3218
1313 1777 1009
1281 1793 1153
1217 1793 1473
801 1857 1873
769 2050 2306
480 2242 2658
480 2498 2962
721 2690 3186
1057 2834 3346
1617 2226 1409
1617 2274 1441
1377 2258 1697
400 2338 2258
352 2402 2562
368 2546 2850
624 2658 3026
913 2818 3218
1409 2962 3378
2066 2594 1761
2178 2674 1921
2017 2658 2210
672 2674 2626
544 2658 2770
672 2738 2946
1025 2834 3122
1537 2978 3298
1873 3074 3443
2482 2930 2066
2562 2946 2226
2434 2946 2450
2050 2946 2770
1841 2978 2882
1601 2994 3106
1777 3042 3218
2066 3106 3378
2274 3170 3475
2818 3122 2418
2882 3170 2546
2930 3202 2674
2946 3234 2882
2498 3154 3074
2370 3186 3250
2530 3250 3394
2578 3282 3475
2642 3314 3555
1777 977 1345
1777 865 1361
1681 769 1489
1665 769 1665
1617 817 1857
1633 865 2066
1665 865 2242
1953 1009 2562
2114 1105 2802
2354 1233 1425
2210 1025 1393
2178 961 1569
2146 945 1825
2194 1009 2194
2274 1089 2466
2402 1217 2658
2418 1217 2802
2562 1393 3026
2434 1489 1313
2402 1329 1409
2338 1297 1633
2306 1265 1921
2418 1313 2338
2498 1377 2626
2290 1489 2770
2258 1809 3042
2290 2274 3330
2354 1809 1233
2354 1745 1329
2418 1681 1665
2338 1649 1985
2402 1665 2386
2258 1713 2690
2242 2066 2962
2370 2578 3282
1777 2754 3362
1825 2050 1073
1985 2066 1137
2338 2162 1617
2418 2114 2066
2226 2082 2450
1681 2386 2818
1249 2626 3042
1441 2818 3282
1825 2978 3443
2050 2450 1425
2162 2498 1473
2194 2530 1681
2114 2530 2146
1505 2546 2642
1729 2722 2994
1441 2770 3122
1793 2962 3330
2114 3042 3475
2546 2802 2017
2578 2850 2017
2642 2914 2194
2530 2882 2434
1681 2850 2882
1681 2882 3058
1921 2962 3234
2242 3058 3378
2418 3138 3507
2882 3106 2306
2882 3106 2418
3010 3186 2594
3026 3186 2754
2722 3154 3058
2354 3106 3170
2434 3154 3330
2626 3218 3475
2738 3282 3571
3138 3298 2578
3154 3314 2690
3186 3346 2834
3202 3378 2994
3170 3378 3122
2978 3330 3330
2914 3346 3491
2914 3330 3539
2978 3378 3635
2562 1281 1681
2466 1089 1665
2466 1041 1809
2450 1009 2017
2482 1089 2290
2498 1137 2482
2498 1153 2642
2562 1185 2802
2738 1249 2994
2866 1393 1617
2802 1217 1617
2738 1121 1745
2690 1089 2033
2754 1185 2418
2834 1297 2690
2850 1393 2850
2930 1457 2994
3010 1553 3170
2866 1681 1457
2818 1457 1489
2770 1425 1729
2770 1409 2033
2802 1441 2434
2978 1617 2818
3042 1729 3010
3042 1761 3122
3074 1841 3282
2786 2017 1361
2754 1857 1409
2786 1777 1745
2786 1777 2066
2850 1841 2482
2978 2001 2850
3058 2114 3122
2946 2274 3218
2882 2562 3410
2386 2290 1233
2482 2242 1281
2722 2258 1665
2786 2226 2066
2802 2242 2498
2962 2434 2946
2802 2546 3138
2866 2834 3394
2850 3026 3571
2642 2738 1665
2658 2722 1665
2674 2690 1777
2850 2754 2178
2914 2786 2546
2690 2786 3026
2306 2850 3202
2354 3026 3378
2578 3138 3539
2994 3042 2274
2978 3058 2242
3010 3074 2402
2994 3106 2466
2866 3074 2722
2530 2994 3026
2578 3058 3298
2642 3154 3443
2818 3250 3587
3154 3234 2450
3186 3250 2578
3218 3314 2754
3218 3362 2818
3122 3362 2962
3010 3314 3186
2850 3218 3394
2946 3314 3555
3010 3346 3635
3282 3378 2738
3314 3410 2850
3314 3443 2962
3362 3491 3106
3362 3507 3218
3362 3523 3362
3250 3475 3555
3202 3475 3683
3218 3491 3731
3106 1569 2050
3074 1441 2114
3058 1297 2226
3058 1297 2418
3122 1393 2658
3122 1425 2802
3122 1425 2930
3074 1425 3026
3154 1457 3154
3282 1713 2066
3202 1473 1905
3202 1393 2033
3202 1393 2370
3202 1457 2674
3218 1601 2930
3234 1665 3058
3234 1681 3170
3218 1665 3218
3218 1969 1793
3202 1729 1777
3170 1601 1873
3170 1617 2226
3186 1713 2610
3234 1905 2978
3298 2066 3154
3298 2033 3250
3298 2033 3362
3186 2290 1681
3154 2066 1617
3154 1953 1841
3154 1889 2146
3170 1985 2562
3234 2210 2978
3250 2306 3186
3314 2450 3314
3330 2434 3427
2914 2578 1553
2946 2482 1537
3106 2386 1777
3122 2306 2098
3138 2306 2498
3186 2482 2962
3234 2610 3234
3234 2690 3394
3202 2914 3523
3058 2946 1985
3106 2930 1985
3106 2850 1985
3122 2770 2082
3138 2786 2418
3138 2770 2946
3170 2818 3234
3170 3010 3491
3186 3202 3667
3250 3218 2466
3282 3234 2546
3186 3186 2354
3170 3138 2338
3186 3154 2546
3186 3170 2882
3138 3170 3298
3010 3202 3491
3138 3346 3699
3346 3362 2610
3362 3378 2738
3330 3410 2690
3298 3427 2690
3282 3443 2802
3250 3443 3122
3234 3427 3427
3234 3410 3603
3234 3443 3731
3394 3507 2882
3427 3539 3010
3475 3539 3154
3443 3571 3170
3443 3603 3218
3475 3603 3427
3475 3635 3619
3378 3571 3747
3378 3587 3811
3427 1841 2450
3443 1777 2562
3443 1729 2722
3427 1681 2802
3427 1665 2930
3410 1633 3042
3443 1665 3170
3443 1649 3250
3443 1633 3330
3555 2162 2594
3539 1985 2482
3507 1777 2498
3491 1793 2722
3491 1873 2962
3475 1985 3122
3443 1985 3202
3443 1969 3314
3427 1985 3394
3427 2402 2178
3523 2114 2290
3507 2001 2386
3491 1969 2578
3507 2114 2914
3443 2242 3122
3443 2306 3250
3475 2386 3378
3443 2306 3491
3410 2658 2194
3443 2466 2114
3475 2274 2178
3475 2194 2418
3475 2194 2674
3427 2306 3026
3410 2418 3234
3443 2642 3427
3427 2658 3523
3282 2930 2066
3314 2802 2017
3394 2594 1985
3443 2418 2210
3443 2418 2578
3427 2530 2962
3427 2610 3282
3410 2786 3491
3427 2962 3603
3330 3170 2386
3346 3106 2258
3362 2914 1985
3443 2818 2114
3443 2834 2434
3443 2818 2962
3443 2882 3298
3427 3026 3555
3410 3218 3683
3394 3330 2594
3410 3298 2466
3410 3234 2258
3443 3202 2258
3443 3186 2482
3491 3218 2866
3475 3250 3346
3443 3298 3619
3410 3410 3795
3475 3491 2786
3491 3523 2882
3507 3507 2674
3475 3523 2626
3491 3507 2770
3507 3523 3042
3507 3555 3410
3443 3555 3699
3410 3571 3827
3507 3587 3042
3523 3587 3154
3555 3619 3250
3523 3635 3154
3523 3699 3314
3523 3699 3507
3523 3699 3731
3539 3715 3875
3491 3699 3891
3619 2114 2690
3619 2082 2850
3619 2033 2962
3619 1953 3042
3603 1905 3138
3603 1873 3202
3603 1873 3330
3587 1809 3362
3587 1841 3475
3635 2466 2850
3635 2402 2946
3635 2354 2978
3635 2354 3106
3603 2306 3186
3587 2242 3250
3587 2226 3362
3555 2242 3427
3555 2242 3523
3491 2770 2530
3635 2658 2882
3619 2546 2914
3619 2498 3010
3619 2418 3058
3587 2418 3202
3571 2546 3378
3539 2610 3475
3523 2562 3555
3378 2850 2082
3523 2914 2626
3619 2658 2642
3683 2466 2674
3683 2370 2802
3683 2434 3074
3619 2562 3362
3555 2786 3539
3523 2818 3619
3410 3074 2274
3475 2994 2258
3603 2754 2178
3699 2626 2338
3731 2546 2658
3699 2578 3010
3635 2674 3330
3555 2866 3571
3491 3106 3667
3475 3282 2498
3539 3170 2306
3619 3010 2098
3731 2882 2194
3747 2882 2498
3747 2882 2978
3699 2930 3330
3603 3058 3619
3523 3282 3747
3507 3427 2674
3571 3378 2466
3635 3298 2274
3731 3234 2290
3747 3218 2530
3747 3234 2914
3715 3298 3346
3619 3378 3699
3555 3491 3859
3555 3555 2866
3571 3571 2962
3619 3555 2690
3715 3539 2594
3731 3555 2786
3731 3555 3074
3683 3603 3491
3619 3635 3747
3555 3683 3907
3555 3619 3218
3571 3635 3362
3587 3667 3394
3619 3715 3330
3635 3747 3410
3603 3731 3603
3603 3747 3795
3555 3747 3907
3555 3763 3923
