其他预设/【236】赛博朋克风调色预设/【后期菌】视频调色预设/3DL/Abandoned 06_S.3dl
# LUT by SparkleStock. Enhanced with VOXCOLOR algorithms.
0 256 512 768 1023
208 432 16
240 432 80
272 480 288
304 560 913
400 689 1713
256 496 112
256 528 224
320 592 624
368 817 1521
576 1345 2162
384 753 432
368 865 753
464 1185 1521
640 1617 2130
897 1921 2498
705 1665 1585
737 1793 1905
833 1921 2242
1041 2130 2562
1489 2466 2898
1425 2418 2370
1649 2562 2594
1729 2610 2754
1905 2706 2930
2178 2834 3090
400 496 192
416 480 304
448 496 496
592 576 1233
865 929 2001
1089 801 480
1201 801 849
544 817 1329
640 1217 1905
1121 1809 2530
769 1217 753
640 1393 1329
769 1633 1937
993 1921 2434
1617 2386 2882
1969 2306 1729
1281 2146 2178
1377 2274 2498
1745 2498 2786
2242 2786 3074
2642 2850 2306
2770 2978 2642
2578 2962 3010
2594 2962 3074
2770 3074 3234
1633 689 496
1681 592 769
1681 608 1121
1889 672 1553
2402 865 2210
2242 1265 785
2274 1153 1265
2386 1201 1921
2498 1361 2290
2674 2274 2946
2050 2033 1057
2354 2146 1457
2466 2178 2290
1985 2466 2802
2370 2738 3122
2690 2722 2082
2738 2802 2146
2450 2786 2802
2578 2882 3026
2770 2994 3202
3170 3138 2562
3250 3218 2706
3314 3266 2946
3250 3282 3282
3282 3314 3362
2546 1121 1009
2674 929 1345
2754 1041 1745
2802 1089 2050
2930 1233 2386
2978 1857 1361
3042 1553 1521
3122 1697 2162
3202 2098 2562
3234 2114 2802
2770 2434 1457
3058 2354 1633
3154 2306 2258
3298 2594 2882
3427 2898 3170
3202 3010 2354
3202 3042 2194
3218 3074 2418
3282 3170 3122
3362 3298 3378
3507 3346 2754
3571 3427 2946
3603 3539 3042
3731 3635 3394
3683 3603 3571
3154 1825 1665
3234 1841 1953
3282 1841 2194
3330 1889 2498
3362 1905 2706
3250 2466 1905
3491 2370 2162
3523 2306 2434
3507 2466 2770
3507 2578 2978
3170 2834 1985
3475 2642 1889
3763 2498 2402
3731 2658 2978
3635 3026 3186
3475 3186 2450
3651 3170 2098
3795 3170 2386
3827 3298 3122
3827 3459 3475
3731 3539 3042
3811 3651 3186
3875 3763 3234
3923 3795 3603
3939 3827 3779
