其他预设/【236】赛博朋克风调色预设/【后期菌】视频调色预设/3DL/Abandoned 08.3dl
# LUT by SparkleStock. Enhanced with VOXCOLOR algorithms.
0 128 256 384 512 640 768 896 1023
80 80 80
112 96 96
160 144 192
208 208 304
352 352 544
512 544 897
737 801 1297
961 1025 1601
1201 1281 1873
144 160 144
128 176 176
192 240 288
304 352 496
400 512 721
576 737 1089
769 977 1409
977 1265 1729
1233 1505 2001
192 336 240
192 400 352
208 448 432
320 544 624
496 817 977
672 1025 1297
865 1281 1617
1073 1521 1857
1329 1761 2114
304 753 544
288 913 705
304 961 817
368 1105 1057
544 1201 1297
753 1313 1537
929 1553 1777
1105 1729 2001
1361 1985 2242
432 1297 945
336 1489 1137
288 1553 1265
368 1585 1441
576 1553 1569
817 1729 1809
993 1841 2017
1233 2017 2210
1457 2178 2386
464 1857 1377
368 2082 1601
336 2114 1761
432 2066 1841
592 2017 1953
817 2066 2098
1073 2178 2274
1297 2258 2402
1585 2402 2562
624 2402 1793
576 2546 2017
528 2530 2146
608 2482 2226
769 2418 2274
977 2402 2370
1281 2434 2466
1505 2498 2578
1777 2610 2722
1153 2722 2210
1073 2802 2338
1105 2818 2434
1153 2786 2482
1265 2722 2546
1393 2658 2578
1569 2690 2642
1745 2690 2690
1953 2738 2786
1681 2866 2434
1713 2946 2562
1713 2994 2642
1697 2978 2674
1777 2978 2770
1809 2930 2802
1921 2914 2834
2082 2914 2882
2226 2882 2930
304 176 144
320 192 192
384 208 240
512 272 368
656 368 576
769 656 993
1009 945 1425
1249 1217 1777
1489 1457 2033
737 400 336
801 432 432
640 400 448
640 512 656
672 721 961
849 961 1297
1057 1217 1633
1297 1473 1921
1537 1713 2194
929 624 512
592 528 464
560 656 672
624 817 897
753 1025 1217
881 1217 1473
1121 1457 1761
1393 1729 2066
1649 1985 2338
881 897 576
528 1025 833
544 1137 1025
576 1233 1201
801 1441 1489
945 1521 1681
1201 1729 1953
1473 1953 2210
1697 2194 2434
1041 1425 865
576 1617 1297
544 1729 1457
640 1745 1601
849 1761 1777
1057 1841 1953
1329 2033 2194
1489 2178 2338
1777 2338 2530
1713 1841 817
592 2178 1713
560 2194 1841
801 2210 2017
897 2162 2082
1169 2194 2226
1425 2306 2386
1665 2386 2530
1921 2530 2674
2114 2226 1089
1345 2434 2017
993 2594 2242
1137 2562 2338
1217 2498 2386
1457 2498 2450
1601 2530 2546
1857 2594 2658
2066 2658 2770
2418 2530 1409
1985 2594 2242
1633 2818 2482
1633 2834 2610
1617 2802 2610
1777 2786 2674
1873 2754 2722
2098 2770 2802
2258 2802 2866
2642 2786 1761
2370 2770 2338
2306 2882 2626
2098 2994 2738
2114 3026 2818
2146 2994 2834
2210 2978 2882
2354 2962 2946
2434 2946 2978
849 368 352
817 352 384
881 400 480
913 400 544
1137 528 817
1297 689 1089
1617 961 1505
1729 1297 1857
1857 1617 2210
1409 737 689
1425 753 801
1441 753 897
1457 801 993
1457 865 1185
1569 1089 1473
1473 1457 1841
1617 1697 2146
1809 1905 2386
1793 1185 977
1889 1217 1265
1809 1153 1297
1489 1137 1297
1249 1329 1505
1233 1473 1729
1473 1713 2017
1713 1921 2274
1921 2178 2482
1809 1297 849
1649 1345 1153
1329 1329 1297
1409 1505 1537
1169 1617 1697
1281 1713 1857
1521 1905 2146
1745 2146 2370
1953 2306 2562
1857 1665 672
1569 1681 1137
913 1873 1617
993 1889 1777
1217 1969 1953
1409 2017 2114
1617 2178 2306
1857 2354 2530
2050 2482 2674
2354 2033 865
2050 2114 1297
1073 2306 2001
1153 2354 2146
1329 2306 2258
1521 2306 2354
1793 2434 2530
2001 2546 2658
2194 2626 2770
2674 2354 1073
2418 2418 1441
1729 2578 2290
1601 2626 2402
1649 2626 2498
1777 2594 2562
2001 2626 2642
2178 2674 2770
2354 2770 2866
2882 2642 1345
2690 2722 1745
2354 2690 2386
2050 2850 2626
2017 2866 2722
2050 2834 2738
2178 2834 2802
2370 2866 2882
2482 2866 2946
2978 2834 1649
2946 2930 1985
2802 2930 2338
2578 2914 2738
2450 3026 2866
2418 3042 2914
2450 3010 2946
2562 3026 2994
2642 3010 3026
1473 705 689
1505 705 817
1521 705 897
1553 721 977
1601 721 1073
1729 817 1265
1985 977 1553
2146 1137 1777
2338 1569 2290
1921 1153 1137
1905 1137 1217
1985 1153 1361
2001 1137 1425
2050 1153 1537
2017 1153 1617
2114 1409 1905
2354 1729 2290
2354 2017 2498
2226 1537 1345
2258 1537 1585
2258 1537 1665
2290 1553 1761
2066 1441 1729
2114 1569 1889
2290 1857 2274
2033 2162 2466
2146 2290 2610
2354 1649 1169
2418 1841 1617
2466 1857 1953
2370 1777 1953
1889 1873 2001
1777 2001 2178
1793 2114 2306
2050 2338 2562
2194 2450 2674
2290 1761 753
2210 1825 1073
2017 1889 1617
1681 2001 1905
1793 2114 2146
1745 2194 2290
1873 2338 2466
2146 2482 2642
2274 2594 2770
2578 2114 977
2562 2162 1137
2338 2306 1681
1601 2434 2258
1681 2418 2354
1889 2466 2498
2082 2546 2610
2226 2610 2738
2402 2722 2850
2786 2402 1201
2802 2546 1505
2674 2642 1873
2066 2690 2482
1985 2690 2578
2098 2674 2658
2226 2738 2754
2418 2802 2850
2546 2818 2930
2962 2722 1585
2946 2754 1729
2850 2834 2098
2626 2850 2642
2498 2850 2722
2370 2882 2802
2434 2914 2850
2546 2930 2930
2658 2946 2978
3074 2962 1969
3074 2994 2146
3058 3026 2354
3026 3058 2578
2770 3010 2866
2626 3058 2962
2690 3074 3010
2738 3074 3042
2770 3074 3058
1969 1089 1121
1985 1073 1201
1985 1041 1281
2033 1025 1361
2082 1025 1457
2178 1057 1585
2194 1073 1665
2354 1249 1873
2498 1409 2114
2354 1521 1505
2354 1505 1617
2386 1521 1713
2402 1489 1777
2434 1473 1841
2450 1441 1889
2498 1521 2033
2546 1553 2146
2674 1777 2386
2530 1841 1649
2578 1841 1905
2562 1825 1985
2594 1841 2082
2610 1841 2162
2594 1793 2178
2546 1825 2258
2658 2146 2562
2738 2402 2802
2610 1953 1489
2626 2146 1953
2690 2146 2226
2626 2082 2226
2642 2082 2274
2546 2066 2306
2610 2258 2546
2690 2546 2802
2466 2626 2834
2498 1905 945
2546 1985 1185
2658 2290 2001
2690 2354 2370
2578 2290 2402
2338 2402 2498
2258 2498 2642
2370 2626 2770
2498 2738 2882
2690 2210 1137
2690 2306 1393
2674 2370 1617
2626 2482 2162
2258 2546 2482
2386 2626 2642
2354 2626 2722
2482 2754 2834
2594 2802 2930
2866 2530 1473
2866 2594 1665
2882 2674 1889
2818 2770 2226
2434 2802 2674
2386 2818 2770
2466 2818 2818
2610 2866 2914
2690 2882 2962
3042 2802 1857
3042 2866 2050
3074 2930 2258
3058 2978 2418
2818 2978 2802
2642 2962 2882
2674 2994 2962
2754 3010 3010
2802 3026 3042
3170 3042 2226
3170 3058 2354
3170 3106 2482
3186 3138 2626
3106 3138 2770
2946 3106 2994
2866 3154 3074
2866 3138 3106
2946 3138 3138
2370 1457 1473
2370 1441 1585
2402 1441 1665
2434 1409 1745
2482 1393 1825
2498 1393 1889
2546 1393 1985
2594 1457 2098
2674 1553 2242
2610 1793 1809
2626 1793 1921
2642 1809 2017
2626 1745 2050
2642 1777 2146
2674 1761 2194
2690 1729 2226
2754 1809 2354
2818 1905 2498
2690 2098 1953
2738 2050 2114
2738 2066 2210
2754 2066 2290
2754 2066 2354
2786 2082 2418
2802 2082 2466
2818 2114 2546
2866 2226 2642
2786 2194 1745
2770 2290 2098
2786 2306 2338
2770 2274 2386
2834 2354 2482
2834 2370 2562
2850 2370 2610
2834 2450 2722
2914 2610 2914
2690 2114 1185
2674 2210 1457
2802 2450 2162
2834 2498 2482
2818 2466 2546
2850 2546 2642
2802 2578 2738
2882 2754 2930
2914 2866 3042
2834 2418 1489
2818 2482 1665
2834 2546 1857
2882 2642 2290
2882 2722 2530
2770 2738 2786
2626 2770 2834
2658 2818 2882
2786 2914 3010
3010 2690 1809
3010 2738 1985
3010 2802 2178
3010 2850 2306
2946 2882 2562
2690 2850 2834
2738 2914 2914
2770 2946 2978
2850 2994 3042
3122 2914 2114
3138 2962 2274
3154 3026 2434
3154 3042 2562
3122 3074 2738
2962 3058 2946
2850 3026 2994
2914 3074 3106
2962 3074 3122
3218 3106 2418
3234 3138 2546
3234 3154 2626
3250 3186 2754
3250 3218 2850
3218 3218 2962
3106 3186 3122
3058 3218 3202
3058 3202 3218
2642 1761 1809
2658 1729 1889
2674 1729 2001
2722 1713 2066
2770 1745 2162
2786 1729 2210
2786 1713 2258
2802 1729 2306
2850 1777 2434
2834 2098 2146
2802 2050 2162
2834 2066 2242
2850 2066 2338
2834 2017 2354
2850 2017 2386
2866 2017 2450
2882 2082 2546
2914 2066 2594
2866 2338 2210
2866 2290 2354
2834 2242 2338
2866 2290 2434
2914 2290 2498
2930 2306 2562
2946 2354 2642
2962 2338 2674
2978 2370 2738
2930 2402 1985
2882 2466 2274
2914 2482 2498
2914 2466 2546
2914 2450 2578
2962 2498 2674
2978 2546 2738
2994 2546 2786
3026 2578 2834
2834 2338 1473
2850 2418 1713
2930 2610 2370
2914 2642 2610
2930 2626 2674
2978 2690 2770
2978 2690 2818
2994 2722 2866
3026 2818 3026
2962 2578 1745
3010 2658 1969
2978 2690 2146
2994 2754 2402
2994 2786 2562
2946 2786 2802
2962 2818 2882
2994 2930 3010
3042 3010 3122
3122 2834 2114
3122 2882 2258
3074 2882 2338
3058 2882 2434
3058 2914 2610
3042 2962 2786
2962 2994 2946
2914 2994 3026
3026 3074 3154
3202 3010 2386
3202 3042 2498
3202 3074 2626
3186 3074 2690
3186 3074 2770
3138 3106 2882
3058 3122 3026
3074 3154 3138
3074 3170 3202
3298 3170 2610
3314 3202 2722
3314 3234 2818
3314 3250 2882
3330 3282 2978
3314 3298 3058
3298 3298 3170
3186 3250 3234
3170 3282 3282
2850 2033 2114
2882 2050 2210
2914 2033 2274
2914 2017 2338
2946 1985 2386
2946 2001 2434
2994 2066 2546
3010 2066 2594
3010 2082 2642
3010 2354 2386
2994 2338 2418
2962 2258 2418
2978 2290 2482
3010 2306 2562
3026 2290 2594
3042 2306 2642
3042 2306 2690
3058 2354 2754
3010 2530 2306
3026 2530 2546
3010 2482 2562
3010 2466 2594
3042 2498 2674
3042 2498 2722
3058 2530 2786
3074 2562 2834
3074 2546 2866
3058 2578 2194
3042 2658 2482
3026 2642 2626
3010 2626 2674
3010 2642 2722
3042 2658 2802
3042 2658 2834
3106 2722 2930
3106 2722 2946
3026 2546 1777
3026 2610 1985
3026 2690 2386
3026 2770 2738
3026 2754 2802
3058 2786 2866
3042 2770 2882
3106 2818 2962
3154 2882 3042
3122 2754 2082
3106 2802 2226
3042 2786 2274
3074 2834 2546
3074 2866 2658
3106 2882 2946
3122 2930 2994
3170 2978 3058
3186 3042 3154
3186 2946 2354
3186 2962 2466
3170 2978 2562
3138 2978 2610
3138 2978 2658
3154 3026 2850
3170 3074 3026
3186 3106 3122
3202 3170 3218
3298 3122 2626
3298 3154 2738
3250 3154 2786
3234 3138 2834
3250 3154 2914
3250 3170 2962
3234 3202 3074
3218 3234 3202
3202 3250 3282
3346 3234 2786
3346 3250 2850
3362 3298 2962
3346 3250 3010
3330 3298 3074
3346 3314 3154
3330 3314 3218
3362 3362 3298
3314 3346 3330
3026 2290 2386
3042 2274 2434
3058 2274 2498
3058 2258 2546
3074 2274 2610
3106 2274 2642
3122 2306 2690
3074 2274 2690
3106 2274 2754
3122 2530 2546
3106 2498 2562
3106 2482 2610
3138 2530 2690
3138 2466 2690
3138 2466 2738
3138 2482 2786
3138 2498 2834
3138 2530 2882
3106 2610 2354
3186 2722 2754
3154 2658 2738
3154 2674 2770
3154 2658 2802
3154 2658 2818
3170 2658 2882
3170 2658 2930
3154 2658 2946
3042 2482 1777
3154 2770 2498
3154 2802 2786
3154 2786 2834
3122 2754 2818
3122 2770 2882
3138 2770 2930
3186 2818 2994
3170 2818 3010
3122 2658 1969
3122 2722 2162
3122 2786 2418
3138 2882 2770
3122 2850 2882
3138 2866 2946
3154 2882 2978
3186 2930 3026
3218 2962 3106
3186 2850 2274
3202 2882 2402
3170 2882 2482
3170 2930 2610
3154 2962 2754
3186 3010 3010
3170 2978 3026
3202 3010 3074
3250 3074 3170
3282 3010 2530
3282 3042 2626
3218 3026 2642
3202 3042 2722
3202 3042 2770
3234 3106 2930
3282 3170 3106
3298 3186 3186
3330 3218 3282
3330 3170 2738
3330 3202 2818
3314 3186 2866
3298 3170 2914
3282 3170 2962
3298 3218 3042
3314 3250 3138
3346 3314 3234
3362 3330 3346
3378 3298 2946
3378 3298 3010
3378 3330 3074
3362 3330 3138
3346 3314 3170
3378 3362 3250
3378 3362 3298
3378 3378 3346
3378 3378 3378
