其他预设/【236】赛博朋克风调色预设/【后期菌】视频调色预设/3DL/Abandoned 04_S.3dl
# LUT by SparkleStock. Enhanced with VOXCOLOR algorithms.
0 128 256 384 512 640 768 896 1023
144 208 256
160 224 288
144 256 336
160 288 416
160 368 592
128 464 897
176 608 1281
336 817 1617
544 1009 1905
160 272 304
144 272 336
160 336 432
144 384 560
160 480 737
144 608 1073
256 817 1409
464 1057 1761
737 1297 2082
144 368 368
144 400 432
128 448 496
144 512 656
144 689 961
224 897 1329
416 1121 1665
705 1377 1985
929 1617 2354
96 592 480
112 640 592
96 689 721
128 849 961
176 1025 1297
368 1201 1585
656 1505 1921
865 1713 2258
1105 2033 2658
48 961 721
48 1089 897
48 1105 1009
112 1265 1345
320 1409 1601
689 1697 1985
881 1921 2306
1105 2162 2610
1281 2354 2834
144 1553 1137
208 1713 1393
240 1777 1553
432 1809 1777
689 1953 2050
945 2194 2354
1121 2370 2642
1297 2514 2866
1457 2706 3074
737 2290 1665
769 2370 1889
785 2418 2017
929 2450 2258
1025 2482 2418
1201 2562 2626
1361 2706 2834
1489 2802 3026
1649 2946 3234
1233 2818 2162
1233 2834 2306
1249 2866 2466
1329 2834 2626
1329 2834 2722
1409 2866 2818
1537 2946 3010
1601 3010 3122
1761 3058 3250
1585 3090 2562
1681 3154 2706
1665 3154 2802
1633 3122 2866
1681 3122 2962
1729 3154 3042
1793 3170 3154
1889 3186 3250
1985 3218 3346
224 256 320
240 256 352
240 256 384
240 288 496
256 320 640
256 496 993
368 721 1441
544 945 1745
817 1153 2066
384 352 416
416 352 496
336 352 512
288 448 705
256 576 961
320 785 1313
496 977 1617
753 1233 1921
993 1473 2258
496 480 512
288 496 528
256 544 672
256 672 913
288 849 1185
416 1025 1505
624 1249 1777
961 1585 2194
1201 1857 2594
384 672 544
192 769 721
240 865 897
208 977 1137
448 1217 1505
608 1409 1745
849 1665 2114
1121 1905 2466
1329 2210 2786
448 1153 737
160 1281 1089
256 1409 1329
416 1473 1553
624 1681 1841
849 1841 2146
1105 2114 2482
1249 2306 2706
1441 2498 2962
865 1697 977
416 1873 1553
528 1921 1713
801 2082 2050
913 2146 2210
1121 2306 2466
1297 2482 2738
1441 2642 2946
1649 2802 3170
1377 2306 1361
1089 2498 1969
1025 2514 2162
1169 2594 2370
1217 2594 2514
1345 2658 2706
1457 2754 2866
1633 2866 3058
1761 2962 3218
1745 2770 1697
1585 2914 2226
1489 2930 2530
1537 2946 2738
1505 2946 2786
1585 2978 2914
1649 2978 3010
1809 3074 3186
1969 3106 3282
2210 3058 2114
2178 3106 2482
2033 3218 2802
1889 3218 2962
1953 3218 3042
1969 3202 3106
2017 3202 3186
2162 3250 3266
2226 3266 3346
448 320 400
432 288 432
448 304 528
448 304 608
512 336 801
528 432 1089
656 576 1473
817 865 1825
1121 1233 2258
881 464 592
913 464 689
929 448 849
849 464 1009
785 544 1201
769 737 1457
849 1169 1841
1041 1409 2146
1281 1681 2466
1345 849 801
1521 817 1009
1377 769 1153
865 833 1281
689 1057 1521
705 1201 1697
945 1537 2050
1201 1793 2402
1393 2017 2738
1201 1089 753
1089 1105 945
785 1105 1121
849 1281 1457
753 1393 1713
849 1585 1985
1089 1857 2338
1313 2130 2626
1505 2370 2930
881 1409 785
849 1537 993
592 1633 1441
753 1697 1697
929 1873 2050
1089 2050 2338
1297 2290 2626
1473 2482 2882
1681 2706 3122
1393 2001 1105
1393 2130 1393
849 2162 1873
1009 2274 2146
1169 2354 2370
1313 2434 2594
1489 2610 2834
1681 2770 3058
1825 2882 3218
1889 2530 1441
1777 2578 1681
1361 2674 2290
1361 2642 2450
1457 2722 2642
1537 2738 2770
1681 2834 2946
1841 2930 3122
2033 3042 3282
2306 2914 1745
2274 2946 2033
2001 2978 2434
1761 3010 2786
1761 3026 2882
1777 3010 2914
1905 3058 3074
2066 3122 3234
2274 3186 3346
2594 3154 2146
2706 3218 2370
2738 3250 2658
2434 3282 2946
2322 3282 3154
2322 3282 3202
2354 3250 3250
2450 3314 3346
2562 3330 3410
993 400 576
1057 384 672
1073 352 833
1057 336 961
1073 336 1137
1201 384 1361
1473 512 1729
1681 656 2033
1553 1089 2354
1681 721 849
1665 624 961
1697 608 1185
1681 576 1393
1761 608 1649
1649 656 1777
1617 961 2050
1713 1329 2402
1841 1729 2674
2001 1201 993
1985 1089 1153
1889 1057 1345
1921 1041 1633
1681 977 1809
1697 1153 2066
1809 1617 2370
1521 2017 2578
1665 2194 2834
2001 1537 913
2001 1601 1169
2017 1521 1473
1953 1441 1713
1441 1585 1953
1297 1793 2290
1329 2066 2482
1569 2354 2818
1745 2498 3042
1505 1777 801
1521 1825 961
1537 1841 1377
1249 1857 1729
1377 2001 2130
1329 2194 2498
1505 2450 2770
1745 2642 3026
1921 2786 3202
1873 2306 1201
1841 2322 1233
1761 2418 1601
1329 2418 2146
1393 2466 2466
1553 2594 2754
1697 2706 2914
1889 2818 3106
2082 2946 3266
2322 2706 1601
2450 2818 1761
2370 2834 2066
1697 2802 2578
1713 2786 2722
1793 2818 2866
1921 2914 3042
2194 3042 3218
2322 3090 3330
2642 3074 1969
2706 3074 2114
2658 3090 2402
2498 3170 2818
2322 3122 2898
2178 3090 3042
2274 3106 3154
2434 3202 3282
2530 3234 3378
2962 3314 2402
3010 3346 2514
3058 3362 2674
3090 3394 2898
2786 3378 3122
2626 3346 3250
2722 3394 3362
2754 3378 3394
2786 3378 3459
1841 656 913
1905 560 1009
1857 448 1153
1905 416 1393
1969 416 1569
2066 528 1777
2033 544 1921
2338 753 2290
2530 945 2562
2402 1073 1137
2306 881 1185
2290 817 1377
2306 785 1665
2418 833 1969
2562 897 2178
2722 1057 2354
2722 1105 2530
2834 1409 2818
2466 1473 1169
2418 1281 1217
2370 1233 1457
2370 1217 1745
2498 1281 2146
2706 1345 2418
2594 1489 2562
2610 1905 2866
2562 2226 3074
2466 1777 1089
2354 1729 1233
2418 1681 1553
2370 1649 1825
2466 1681 2194
2466 1777 2562
2530 2082 2770
2594 2530 3058
2162 2626 3154
2001 2033 833
2050 2033 961
2354 2162 1553
2450 2130 1969
2370 2130 2322
1985 2322 2610
1873 2594 2898
2033 2770 3122
2258 2898 3282
2322 2498 1249
2306 2530 1297
2338 2578 1489
2338 2594 2017
1953 2594 2514
2162 2722 2834
2033 2786 2978
2258 2946 3186
2402 3026 3330
2722 2914 1793
2706 2946 1825
2754 2978 2001
2642 2978 2338
2194 2962 2834
2210 2978 3010
2354 3010 3122
2482 3106 3266
2578 3154 3378
2962 3218 2178
3010 3234 2322
3090 3282 2498
3106 3282 2674
2898 3314 3042
2610 3234 3170
2642 3234 3266
2738 3282 3362
2818 3314 3427
3218 3459 2626
3234 3459 2706
3282 3491 2818
3330 3523 3010
3266 3507 3106
3074 3475 3346
3010 3475 3459
3010 3459 3475
3058 3491 3539
2594 1009 1329
2594 849 1361
2626 785 1521
2658 737 1729
2738 817 1985
2770 865 2146
2786 897 2290
2818 961 2498
2962 1121 2722
2866 1345 1409
2818 1169 1409
2786 1073 1553
2786 1025 1825
2866 1121 2194
2978 1217 2450
3058 1329 2578
3090 1441 2754
3170 1601 2946
2866 1697 1377
2786 1457 1361
2770 1425 1569
2770 1393 1857
2834 1457 2226
3026 1665 2626
3154 1793 2786
3170 1873 2898
3186 2001 3074
2834 2001 1297
2754 1873 1345
2770 1777 1617
2786 1777 1905
2866 1857 2338
3026 2066 2722
3154 2258 2930
3026 2402 3058
2946 2594 3250
2530 2274 977
2578 2194 1089
2738 2274 1601
2786 2210 1985
2818 2226 2402
3010 2450 2818
2898 2594 2978
2946 2866 3218
2930 3026 3378
2802 2738 1457
2738 2722 1473
2738 2706 1617
2866 2754 2050
2914 2818 2498
2770 2818 2930
2514 2882 3058
2562 3010 3218
2706 3122 3394
3074 3106 2066
3010 3090 2033
3042 3154 2258
3042 3154 2370
2930 3154 2658
2706 3074 2962
2722 3106 3186
2786 3170 3330
2898 3250 3427
3218 3362 2354
3234 3362 2466
3314 3394 2674
3314 3459 2786
3202 3459 2930
3058 3410 3186
2946 3330 3330
3010 3378 3459
3058 3394 3507
3410 3555 2786
3459 3603 2898
3459 3571 2978
3507 3619 3106
3523 3635 3218
3507 3667 3362
3346 3603 3507
3282 3603 3603
3266 3571 3619
3090 1457 1713
3106 1329 1761
3122 1201 1873
3186 1169 2082
3218 1281 2338
3234 1313 2498
3234 1329 2610
3234 1329 2738
3266 1441 2898
3250 1745 1809
3202 1505 1681
3186 1409 1809
3218 1425 2130
3250 1489 2434
3314 1665 2674
3330 1745 2802
3346 1793 2946
3330 1793 3042
3234 2033 1697
3218 1729 1649
3154 1585 1713
3170 1601 2050
3218 1729 2466
3314 2017 2786
3378 2178 2962
3346 2178 3042
3378 2178 3170
3202 2322 1665
3170 2082 1601
3170 1969 1761
3170 1905 2050
3186 2001 2450
3266 2274 2818
3314 2434 3042
3346 2562 3154
3378 2578 3266
2978 2530 1297
3010 2466 1377
3106 2402 1745
3154 2306 2050
3154 2322 2418
3234 2498 2834
3250 2610 3090
3282 2738 3234
3266 2946 3362
3122 2946 1729
3154 2930 1777
3106 2866 1809
3154 2786 2017
3170 2818 2402
3154 2770 2866
3202 2866 3154
3186 3042 3362
3218 3234 3491
3314 3266 2306
3346 3314 2418
3250 3218 2258
3234 3202 2274
3234 3202 2498
3218 3218 2882
3154 3218 3218
3042 3234 3378
3154 3378 3539
3459 3491 2610
3475 3507 2738
3459 3507 2674
3394 3507 2674
3362 3507 2770
3346 3523 3074
3314 3523 3362
3314 3507 3523
3314 3507 3619
3603 3651 2946
3603 3667 3042
3635 3683 3170
3635 3699 3202
3619 3731 3250
3651 3779 3427
3651 3763 3555
3507 3683 3667
3491 3683 3715
3410 1905 2146
3459 1793 2210
3491 1761 2354
3491 1729 2514
3507 1713 2626
3507 1697 2754
3539 1809 2914
3523 1793 3026
3539 1793 3106
3571 2290 2370
3555 2050 2290
3507 1825 2258
3539 1857 2498
3555 2017 2770
3539 2162 2930
3539 2162 3026
3523 2162 3122
3523 2194 3218
3491 2498 2178
3555 2194 2162
3539 2066 2210
3523 2017 2434
3539 2194 2770
3555 2322 2962
3539 2434 3106
3555 2530 3218
3555 2482 3282
3507 2738 2258
3523 2530 2162
3523 2306 2082
3507 2194 2322
3523 2178 2578
3507 2354 2914
3491 2482 3106
3539 2738 3266
3523 2754 3346
3314 2898 1761
3330 2802 1793
3427 2626 1985
3491 2434 2178
3507 2434 2498
3507 2514 2866
3491 2626 3170
3507 2834 3362
3539 3058 3475
3394 3170 2178
3410 3106 2130
3410 2914 1905
3475 2834 2082
3491 2866 2450
3507 2834 2898
3539 2898 3218
3539 3074 3475
3507 3266 3571
3523 3394 2514
3523 3362 2434
3523 3282 2210
3523 3234 2226
3523 3218 2466
3555 3266 2866
3571 3282 3250
3555 3346 3507
3523 3491 3651
3651 3603 2818
3667 3635 2898
3651 3619 2674
3603 3603 2610
3619 3603 2770
3635 3619 3042
3635 3635 3362
3603 3635 3603
3539 3651 3731
3731 3763 3154
3731 3731 3218
3795 3795 3314
3731 3811 3170
3731 3827 3282
3763 3843 3459
3779 3843 3635
3811 3843 3763
3715 3827 3843
3667 2274 2450
3699 2226 2562
3731 2194 2706
3731 2162 2802
3715 2162 2898
3715 2114 2978
3715 2162 3106
3699 2082 3154
3699 2146 3234
3715 2594 2674
3715 2530 2722
3731 2450 2786
3763 2450 2914
3715 2466 3010
3715 2418 3074
3699 2402 3186
3683 2450 3250
3667 2466 3330
3619 2882 2594
3763 2754 2802
3715 2626 2754
3763 2578 2834
3763 2466 2930
3715 2482 3058
3699 2642 3218
3683 2722 3330
3635 2706 3362
3410 2834 1873
3651 3026 2738
3731 2738 2626
3779 2514 2594
3779 2354 2706
3779 2450 2962
3715 2578 3218
3651 2866 3362
3635 2898 3427
3491 3074 2066
3523 3010 2146
3651 2802 2162
3811 2706 2370
3811 2530 2594
3795 2578 2914
3779 2706 3234
3683 2914 3427
3651 3170 3507
3603 3314 2450
3651 3218 2290
3715 3042 2066
3795 2930 2178
3827 2930 2498
3843 2930 2946
3827 2962 3250
3763 3122 3507
3699 3346 3635
3667 3491 2706
3731 3459 2498
3779 3346 2290
3843 3282 2290
3843 3266 2530
3875 3314 2930
3875 3362 3346
3827 3475 3635
3779 3555 3763
3763 3667 2930
3811 3699 3026
3827 3667 2738
3875 3651 2626
3907 3651 2786
3907 3667 3074
3859 3699 3394
3859 3763 3651
3811 3731 3827
3843 3811 3330
3843 3827 3410
3875 3843 3410
3875 3859 3266
3859 3875 3346
3875 3907 3539
3923 3923 3763
3875 3907 3843
3875 3907 3907
