其他预设/【236】赛博朋克风调色预设/【后期菌】视频调色预设/3DL/Abandoned 05_S.3dl
# LUT by SparkleStock. Enhanced with VOXCOLOR algorithms.
0 256 512 768 1023
256 288 48
288 336 112
304 400 352
320 576 1073
400 929 1873
288 400 144
288 464 288
288 640 817
352 1057 1681
400 1505 2354
320 929 640
336 1073 1009
352 1345 1665
384 1761 2274
528 2017 2594
432 1889 1713
400 1985 1953
448 2066 2226
592 2226 2530
849 2450 2802
817 2466 2226
977 2578 2466
1041 2594 2594
1153 2642 2754
1409 2770 2898
416 400 160
480 384 288
528 432 592
705 624 1473
833 1233 2242
1169 865 576
1313 865 993
576 977 1425
560 1441 2050
817 1889 2626
705 1345 801
576 1521 1441
608 1745 2017
705 2033 2482
1057 2354 2818
1489 2322 1537
929 2274 2146
897 2306 2434
1201 2482 2690
1601 2754 2946
1969 2786 1889
2338 2978 2466
2050 2994 2834
2098 2994 2914
2290 3090 3074
1729 753 624
1841 624 929
1937 656 1345
2162 753 1761
2610 1041 2386
2450 1425 993
2450 1297 1441
2562 1377 2098
2626 1665 2546
2370 2418 3106
2033 2066 1009
2434 2178 1473
2306 2226 2386
1553 2482 2770
1889 2770 3026
2450 2738 1857
2562 2850 1985
2033 2834 2690
2146 2882 2898
2386 3010 3090
2850 3106 2210
2978 3170 2338
2994 3234 2642
2882 3282 3122
2930 3298 3186
2978 1377 1393
3026 1153 1601
3122 1265 2017
3154 1361 2338
3266 1473 2658
3186 1937 1473
3170 1617 1585
3234 1793 2258
3394 2210 2706
3394 2226 2962
2882 2466 1361
3106 2370 1585
3170 2370 2306
3282 2674 2946
3138 3010 3218
3154 3010 2114
3138 3026 1969
3170 3074 2242
3010 3170 3074
3026 3282 3218
3410 3282 2386
3475 3346 2562
3523 3507 2738
3587 3571 3058
3427 3507 3250
3475 2001 1873
3507 1953 2130
3539 1969 2434
3571 2001 2706
3571 2001 2914
3410 2610 1953
3619 2482 2242
3651 2386 2498
3635 2594 2882
3603 2690 3074
3282 2834 1825
3539 2642 1793
3763 2546 2386
3731 2738 2978
3587 3186 3218
3475 3154 2178
3651 3122 1889
3763 3138 2194
3779 3250 2946
3603 3475 3266
3763 3523 2882
3779 3603 2930
3827 3715 2978
3795 3715 3266
3795 3667 3330
