其他预设/【236】赛博朋克风调色预设/【后期菌】视频调色预设/3DL/Glitch 07.3dl
# LUT by SparkleStock. Enhanced with VOXCOLOR algorithms.
0 64 128 192 256 320 384 448 512 576 640 704 768 832 896 960 1023
96 224 256
144 240 288
160 240 288
224 256 336
272 256 368
400 272 400
721 288 448
961 288 480
1505 288 528
1985 272 624
2290 256 705
2594 272 897
2706 288 1009
2770 288 1105
2882 352 1329
3010 384 1329
3186 400 1089
144 256 304
160 256 304
224 256 336
288 256 384
400 272 384
672 288 432
1089 288 480
1505 288 528
1985 272 608
2322 272 737
2578 272 865
2706 272 1009
2834 320 1201
2898 368 1329
3010 400 1361
3202 416 993
3266 416 496
256 272 368
256 256 368
288 256 384
448 288 416
672 288 448
1089 288 480
1601 288 560
1985 272 624
2370 256 753
2610 256 897
2738 272 1041
2818 320 1201
2898 352 1329
2946 384 1473
3074 432 1409
3250 416 785
2946 496 240
544 288 432
592 272 432
672 288 448
721 288 448
1089 288 496
1601 288 560
2082 272 656
2322 272 737
2562 256 865
2738 288 1089
2834 320 1201
2898 368 1361
2962 416 1553
3074 464 1585
3202 448 1137
3218 496 256
2258 769 272
1281 288 496
1409 288 512
1505 288 528
1601 272 544
1697 272 560
2082 272 656
2370 256 737
2562 256 865
2738 288 1089
2834 336 1249
2914 384 1377
2962 432 1569
3042 496 1761
3122 496 1617
3314 496 608
2882 656 240
2274 897 272
2066 272 656
2130 256 640
2226 272 705
2306 272 737
2338 272 753
2370 256 753
2626 272 913
2738 288 1089
2834 336 1265
2930 384 1425
2962 416 1553
3026 496 1745
3074 560 1953
3106 592 1889
3266 528 1169
3250 640 256
2290 1089 256
2610 256 897
2658 272 961
2706 288 1009
2706 272 1009
2738 288 1089
2738 272 1041
2770 304 1089
2834 336 1265
2930 384 1425
2978 432 1569
3026 496 1745
3058 560 1921
3106 656 2146
3090 672 2178
3106 737 2290
3186 705 1873
3394 753 544
2802 304 1201
2834 336 1265
2866 336 1297
2898 368 1329
2898 368 1361
2914 384 1377
2914 384 1425
2930 384 1441
2978 432 1569
3042 496 1761
3074 592 1969
3106 656 2162
3106 689 2210
3106 737 2290
3106 833 2434
3186 817 2114
3394 833 961
2946 384 1489
2962 416 1553
2978 448 1617
3010 464 1665
2978 432 1601
3026 480 1681
3026 480 1681
3042 496 1761
3026 496 1745
3074 592 1985
3090 640 2130
3106 705 2226
3106 769 2354
3106 833 2434
3122 897 2498
3170 881 2258
3410 961 1041
3042 528 1841
3058 528 1857
3074 560 1905
3074 592 1985
3090 608 2033
3074 608 2050
3090 624 2082
3090 640 2130
3106 656 2162
3090 656 2178
3106 705 2226
3106 785 2370
3106 833 2450
3106 865 2466
3122 977 2610
3122 1025 2610
3218 1041 2322
3090 640 2130
3090 656 2178
3106 705 2226
3106 705 2226
3106 705 2226
3106 737 2290
3106 737 2306
3106 737 2306
3106 737 2290
3106 769 2354
3106 785 2370
3106 849 2466
3122 945 2562
3106 961 2578
3106 1073 2674
3122 1137 2738
3154 1201 2754
3106 737 2322
3106 769 2338
3106 801 2402
3106 801 2370
3106 801 2370
3106 833 2450
3106 849 2466
3106 865 2466
3122 897 2498
3106 865 2482
3106 929 2562
3106 945 2562
3106 961 2578
3122 1057 2658
3122 1153 2754
3154 1233 2786
3186 1329 2802
3106 897 2514
3106 897 2498
3122 929 2562
3106 929 2530
3106 945 2562
3122 977 2610
3106 977 2610
3106 977 2594
3122 1041 2642
3106 1009 2626
3122 1057 2658
3122 1073 2674
3122 1089 2706
3154 1169 2754
3170 1313 2834
3186 1425 2914
3202 1537 2978
3106 1009 2626
3122 1057 2658
3106 1057 2658
3106 1073 2658
3106 1073 2658
3122 1105 2706
3106 1089 2706
3122 1121 2722
3154 1185 2754
3122 1169 2738
3122 1201 2770
3154 1249 2802
3154 1233 2786
3154 1265 2818
3186 1425 2914
3202 1537 2978
3218 1649 3026
3154 1217 2786
3154 1233 2786
3154 1233 2786
3154 1265 2818
3154 1297 2834
3154 1313 2834
3170 1329 2866
3170 1361 2882
3170 1393 2898
3202 1441 2930
3186 1457 2930
3202 1489 2946
3202 1521 2978
3202 1537 2978
3202 1553 3010
3234 1697 3074
3250 1841 3106
3202 1441 2930
3186 1457 2930
3186 1489 2946
3202 1537 2978
3202 1553 3010
3218 1569 3026
3202 1569 2978
3218 1601 3026
3234 1665 3058
3234 1681 3058
3234 1697 3058
3234 1745 3090
3250 1793 3106
3250 1825 3106
3266 1873 3122
3250 1841 3106
3266 1969 3154
3218 1649 3026
3234 1681 3058
3250 1729 3074
3250 1745 3090
3250 1777 3090
3234 1777 3090
3250 1841 3090
3266 1905 3122
3266 1953 3154
3250 1921 3122
3266 1985 3154
3282 2033 3170
3314 2066 3170
3282 2082 3186
3330 2194 3202
3314 2162 3186
3346 2210 3202
144 240 288
144 224 272
176 256 320
272 272 384
336 272 384
480 272 416
801 288 464
1185 288 496
1713 272 560
2194 272 689
2418 272 769
2626 272 913
2738 288 1089
2818 320 1249
2962 368 1281
3186 384 897
3202 384 256
176 256 304
256 256 352
336 272 384
464 272 416
801 288 448
1185 288 496
1713 272 560
2226 272 705
2370 256 753
2642 272 945
2770 288 1105
2818 320 1249
2962 384 1329
3074 384 1265
3250 384 705
2514 544 256
1745 737 272
304 272 384
416 272 400
464 272 416
801 288 464
1329 288 512
1697 272 560
2130 272 689
2434 256 769
2626 272 913
2770 304 1105
2866 352 1297
2914 384 1393
3058 416 1361
3250 400 737
2898 480 240
1873 785 272
1441 1009 256
721 288 448
1089 288 496
1201 288 496
1329 288 496
1793 272 576
2146 272 656
2450 272 817
2658 288 961
2738 288 1089
2882 352 1313
2930 384 1441
2962 416 1553
3170 448 1329
3266 432 528
2754 608 256
1809 849 256
1537 1121 256
1505 288 528
1985 272 608
2050 272 640
2130 272 672
2226 272 672
2434 272 817
2658 288 977
2770 288 1105
2882 352 1313
2930 384 1441
3010 464 1665
3042 496 1777
3106 544 1809
3234 496 1217
3234 576 256
2033 1073 256
1697 1297 224
2290 256 705
2530 256 849
2562 256 865
2610 256 897
2642 256 945
2658 272 977
2786 320 1153
2882 352 1297
2914 384 1441
2978 448 1617
3042 512 1809
3074 576 1969
3090 640 2130
3106 721 2258
3218 592 1537
3378 721 384
2802 1169 256
2706 288 1009
2770 288 1105
2802 304 1169
2818 320 1201
2834 336 1249
2882 352 1313
2882 352 1297
2930 384 1473
2978 448 1617
3058 528 1841
3090 608 2033
3090 640 2130
3106 721 2258
3122 753 2306
3186 705 1841
3394 801 496
3058 1281 256
2882 352 1297
2946 384 1473
2946 416 1537
2962 416 1553
2978 432 1569
2978 432 1601
2978 448 1617
3010 448 1649
3042 496 1793
3074 608 2017
3106 689 2210
3106 705 2226
3106 737 2322
3122 849 2418
3170 785 2066
3459 961 496
3154 1425 256
2962 432 1569
3058 512 1793
3058 528 1825
3058 528 1857
3058 544 1873
3074 576 1953
3074 592 1969
3074 592 2001
3074 608 2017
3106 689 2210
3106 721 2258
3106 769 2338
3106 849 2466
3106 929 2562
3154 961 2530
3218 961 2146
3507 1201 576
3074 592 1969
3090 624 2082
3106 656 2162
3090 656 2146
3106 672 2178
3106 689 2210
3106 705 2226
3106 705 2226
3106 705 2226
3106 737 2306
3106 785 2370
3106 849 2466
3106 945 2562
3106 977 2594
3106 1057 2642
3122 1153 2738
3250 1217 2466
3106 689 2210
3106 737 2290
3106 737 2306
3106 785 2370
3106 769 2338
3106 785 2354
3106 833 2434
3106 833 2450
3106 849 2466
3106 849 2466
3106 865 2466
3106 961 2578
3106 1009 2626
3122 1089 2706
3122 1153 2738
3170 1297 2834
3266 1345 2578
3106 785 2354
3106 881 2498
3106 865 2466
3106 913 2514
3106 881 2482
3106 945 2578
3106 913 2514
3106 961 2578
3106 961 2594
3122 993 2626
3106 977 2594
3122 1025 2642
3122 1105 2722
3122 1201 2754
3170 1329 2866
3202 1441 2882
3266 1553 2770
3122 961 2578
3122 1041 2642
3106 1041 2642
3106 1025 2642
3106 1057 2658
3106 1057 2642
3106 1073 2658
3122 1105 2706
3122 1105 2722
3122 1153 2754
3154 1185 2754
3122 1153 2738
3122 1201 2754
3154 1297 2834
3186 1393 2898
3202 1553 3010
3234 1681 3026
3122 1073 2674
3122 1153 2738
3122 1153 2738
3154 1217 2786
3170 1249 2802
3122 1233 2786
3170 1313 2834
3170 1329 2866
3170 1329 2866
3170 1329 2866
3170 1361 2882
3186 1425 2914
3186 1441 2930
3186 1473 2930
3202 1585 3010
3234 1745 3090
3250 1889 3122
3170 1297 2834
3170 1361 2882
3186 1425 2914
3186 1457 2946
3186 1473 2946
3202 1489 2946
3186 1489 2946
3202 1537 2978
3202 1553 2978
3218 1585 3026
3202 1585 3010
3218 1649 3026
3218 1681 3042
3218 1697 3058
3234 1729 3074
3266 1953 3154
3282 2050 3186
3186 1489 2946
3218 1665 3042
3234 1681 3058
3234 1697 3058
3234 1729 3074
3250 1777 3090
3234 1777 3090
3250 1841 3106
3266 1889 3154
3266 1953 3154
3266 1969 3154
3266 1985 3154
3282 1985 3154
3266 2001 3170
3314 2066 3170
3282 2082 3170
3346 2258 3218
3234 1745 3090
3266 1953 3154
3266 1969 3154
3266 1985 3154
3314 2050 3170
3282 2033 3154
3314 2066 3170
3314 2082 3186
3314 2130 3186
3346 2210 3202
3346 2226 3218
3330 2210 3202
3346 2290 3234
3346 2306 3234
3362 2354 3234
3378 2418 3266
3362 2370 3250
176 256 320
208 256 336
224 256 352
288 256 384
448 272 416
624 288 448
1201 288 496
1473 272 528
2050 272 640
2370 256 753
2562 256 865
2722 288 1041
2818 320 1201
2946 368 1201
3202 384 897
3186 384 256
2082 560 272
256 256 368
368 272 384
400 272 400
592 272 432
1089 288 496
1505 288 528
1889 272 608
2290 256 705
2498 272 833
2674 272 977
2802 304 1185
2866 336 1297
3090 384 1121
3202 368 304
2434 528 256
1441 801 272
1233 945 272
368 272 400
576 288 432
1009 304 480
1361 288 512
1873 272 592
2290 256 705
2482 256 817
2674 288 993
2802 304 1169
2866 336 1297
2962 384 1409
3170 416 1169
3106 400 224
1745 737 272
1441 881 256
1393 1041 256
1585 1201 256
897 288 464
1329 288 512
1825 288 592
1873 272 608
2306 272 737
2514 256 833
2658 272 977
2802 320 1185
2898 352 1329
2946 400 1489
3010 448 1649
3058 528 1809
3218 464 1185
3250 528 256
2274 913 272
1729 1201 240
1873 1393 240
1825 288 592
2226 272 705
2434 256 769
2482 256 817
2514 256 849
2706 288 1025
2802 304 1169
2898 368 1361
2946 416 1537
3010 448 1649
3042 528 1873
3074 608 2050
3090 624 2082
3202 576 1521
3346 640 336
2530 1121 256
2274 1505 256
2370 272 753
2610 256 897
2738 288 1089
2770 304 1137
2802 320 1185
2818 320 1201
2898 368 1361
2946 400 1505
3026 480 1681
3042 528 1841
3090 608 2050
3106 656 2162
3122 689 2146
3234 656 1569
3314 769 256
2818 1313 256
2370 1729 240
2738 288 1089
2834 320 1201
2930 384 1425
2946 384 1457
2946 400 1489
2946 416 1537
2962 416 1553
3042 496 1713
3074 560 1889
3074 608 2017
3106 672 2178
3106 737 2290
3122 753 2274
3202 753 1905
3410 849 496
2962 1313 240
2642 1905 240
2898 368 1361
2962 416 1553
3026 480 1697
3026 496 1729
3042 496 1761
3058 528 1841
3042 528 1841
3058 528 1857
3106 624 2082
3106 705 2226
3106 721 2258
3106 801 2370
3106 849 2466
3122 961 2530
3202 913 2210
3491 1089 608
3314 1601 272
3026 480 1697
3058 544 1889
3090 624 2082
3090 624 2130
3090 640 2146
3106 689 2210
3090 672 2178
3106 689 2210
3090 672 2194
3106 737 2290
3106 801 2402
3106 881 2498
3122 961 2578
3106 1009 2626
3122 1073 2626
3266 1105 2226
3539 1425 608
3074 608 2017
3106 689 2210
3106 737 2290
3106 737 2322
3106 737 2322
3106 769 2354
3106 753 2322
3106 817 2418
3106 785 2354
3106 785 2370
3106 881 2498
3106 961 2578
3106 1041 2642
3106 1089 2706
3170 1185 2674
3330 1201 2130
3555 1633 384
3106 705 2226
3106 769 2354
3106 833 2434
3106 849 2450
3106 865 2466
3106 865 2482
3122 913 2514
3106 881 2482
3106 913 2514
3122 961 2578
3106 945 2562
3106 1009 2626
3122 1105 2722
3154 1217 2786
3170 1313 2802
3250 1425 2610
3619 1697 1393
3106 849 2466
3106 881 2482
3122 993 2626
3122 1009 2626
3106 1009 2626
3122 1041 2642
3106 1041 2658
3106 1057 2642
3106 1089 2674
3122 1105 2722
3122 1121 2738
3122 1153 2754
3154 1217 2786
3170 1345 2882
3186 1473 2930
3202 1569 2978
3266 1729 2946
3106 961 2594
3106 1025 2642
3122 1121 2722
3122 1121 2722
3122 1153 2738
3122 1153 2738
3154 1217 2786
3154 1249 2802
3154 1249 2802
3154 1281 2818
3154 1297 2834
3170 1329 2866
3170 1329 2866
3186 1505 2962
3218 1665 3042
3250 1761 3106
3314 1953 3058
3122 1121 2738
3122 1201 2770
3170 1345 2866
3186 1377 2898
3186 1425 2914
3186 1441 2930
3186 1457 2946
3186 1473 2930
3202 1505 2962
3218 1553 2978
3218 1553 3010
3202 1569 2978
3218 1601 3026
3218 1665 3042
3234 1761 3090
3266 1953 3154
3314 2114 3106
3170 1329 2866
3186 1457 2946
3218 1585 3026
3218 1601 3026
3218 1649 3042
3234 1681 3042
3234 1729 3074
3250 1745 3090
3234 1761 3090
3250 1825 3106
3266 1873 3122
3250 1873 3106
3266 1921 3122
3266 1921 3122
3266 1985 3154
3282 2114 3186
3362 2338 3234
3202 1585 3010
3234 1745 3090
3250 1873 3106
3266 1953 3154
3266 1969 3154
3282 1985 3154
3282 2017 3154
3266 2001 3154
3314 2066 3170
3282 2082 3186
3330 2194 3202
3330 2178 3202
3330 2194 3202
3346 2258 3218
3346 2290 3234
3346 2306 3234
3378 2450 3266
3266 1873 3122
3266 1985 3154
3314 2162 3186
3330 2194 3202
3346 2258 3218
3346 2274 3218
3362 2322 3234
3362 2354 3234
3378 2418 3250
3378 2418 3250
3378 2450 3266
3394 2482 3266
3394 2498 3282
3410 2562 3314
3410 2578 3314
3410 2594 3330
3427 2626 3330
96 272 1009
48 304 1329
144 288 1265
336 272 480
480 288 496
865 288 496
1473 288 560
1889 272 608
2146 272 656
2402 256 801
2594 272 945
2754 288 1089
2898 336 1185
3090 368 1009
3154 352 256
1569 592 256
1185 737 272
192 272 1089
576 288 496
640 288 496
705 272 560
1009 272 801
1649 288 592
2130 272 656
2466 272 817
2626 272 945
2770 304 1105
2930 352 1185
3122 384 1041
3202 368 320
1777 576 256
1329 737 272
1201 929 256
