其他预设/【236】赛博朋克风调色预设/【后期菌】视频调色预设/3DL/Glitch 10_S.3dl
# LUT by SparkleStock. Enhanced with VOXCOLOR algorithms.
0 128 256 384 512 640 768 896 1023
16 32 64
128 64 128
320 80 256
945 112 528
1713 176 785
2690 256 1057
3427 352 1521
3811 416 1905
4019 512 1585
304 96 272
352 80 288
913 128 512
1809 192 833
2882 288 1153
3507 352 1537
3843 416 1905
4019 512 2017
3074 977 240
1505 160 737
1713 176 785
1953 208 833
2882 272 1153
3523 352 1585
3907 432 2001
4067 640 2530
3907 705 929
2242 1313 400
3186 336 1361
3427 352 1521
3523 352 1585
3491 384 1601
3923 432 2066
4035 592 2530
4067 865 2834
4035 993 2898
3859 1137 769
4003 464 2242
4035 528 2370
3923 544 2306
4019 576 2418
4035 592 2498
4067 865 2834
4067 1073 2946
4067 1249 3058
4003 1313 1297
4035 849 2802
4067 913 2850
3971 977 2834
4067 993 2898
4035 1009 2898
4067 1089 2962
3971 1297 3106
4067 1425 3170
4067 1585 3186
4035 1201 3074
4067 1265 3106
3955 1313 3042
4035 1329 3106
4067 1409 3154
4067 1441 3170
4067 1489 3186
4067 1665 3266
4035 1889 3314
3971 1617 3170
3971 1633 3154
3971 1697 3202
4035 1713 3266
3955 1793 3218
3955 1841 3266
3955 1921 3314
3955 1937 3314
4019 2146 3410
4035 1969 3330
4035 2082 3394
4035 2098 3394
4019 2146 3394
4035 2194 3427
4035 2274 3443
4035 2322 3491
4035 2370 3491
4035 2386 3491
160 64 176
208 80 240
592 96 400
1409 160 689
2402 256 945
3186 304 1329
3731 400 1729
3923 496 1313
2210 1009 224
496 96 400
1233 144 672
2194 224 881
3058 304 1249
3667 384 1681
3987 448 2033
3378 785 240
1617 1217 256
1697 1489 336
2130 224 865
2930 304 1169
2994 320 1297
3523 400 1665
4003 512 2274
4067 689 2610
4035 849 2754
3763 1105 352
2146 1681 480
3459 368 1569
3875 448 2050
3779 512 2082
3923 496 2274
4067 737 2690
4035 897 2834
4067 1057 2850
3971 1297 592
2354 1953 528
4035 592 2434
4067 833 2802
3987 897 2802
4035 897 2834
4035 929 2866
4035 1089 2978
4067 1297 3106
4035 1457 3074
3987 1825 624
4035 929 2866
4035 1137 2978
3971 1185 2978
4067 1233 3074
4035 1249 3074
4035 1281 3090
3987 1505 3202
4035 1665 3186
4035 1905 1409
4035 1329 3122
4067 1521 3202
3987 1569 3154
4067 1585 3218
4067 1633 3234
4067 1665 3234
4035 1713 3266
4035 2001 3346
4019 2162 3282
3987 1729 3186
3971 2001 3266
3971 2033 3282
4035 2082 3378
3971 2098 3346
3971 2178 3410
3955 2210 3410
3971 2274 3443
4019 2434 3507
4035 2178 3427
4019 2354 3491
4019 2402 3507
4019 2434 3507
4035 2482 3523
4019 2498 3507
4019 2530 3539
4035 2594 3539
4019 2626 3555
0 256 432
0 304 560
16 480 2066
1585 224 1745
2866 256 1393
3459 352 2050
3891 432 1409
1665 929 208
1329 1169 224
16 576 1153
2258 256 1505
2290 272 1489
3042 352 1585
3651 432 1953
4019 544 2402
3635 833 304
1729 1409 304
1889 1601 384
2386 336 1889
2802 432 1537
3042 528 1681
3266 640 2130
3571 817 2594
3923 945 2738
3907 1169 512
2210 1793 432
2322 1953 528
3523 496 1889
3314 689 1905
3122 881 2146
3282 929 2386
3571 1041 2738
3907 1153 2994
4035 1169 2482
3154 1825 480
2578 2178 592
3907 753 2578
3555 1041 2434
3427 1217 2530
3443 1265 2722
3667 1249 2898
4067 1361 3122
4067 1521 3154
4035 1697 1329
2946 2370 592
4067 1089 2978
3923 1313 2994
3875 1489 3042
3811 1537 3058
3987 1569 3170
4067 1553 3202
3971 1809 3282
4035 1889 2930
3603 2354 560
4067 1457 3186
4067 1585 3218
3971 1905 3266
4035 1889 3298
4035 1953 3314
4019 1953 3330
4035 2050 3378
4035 2258 3427
4019 2322 2578
3971 1889 3218
3971 2098 3314
3955 2274 3394
4035 2354 3491
3955 2402 3459
3955 2418 3491
3955 2482 3491
3971 2514 3523
4019 2594 3202
4019 2258 3427
4019 2466 3523
4019 2626 3555
4019 2626 3555
4035 2706 3603
4035 2738 3603
4019 2754 3571
4035 2802 3619
4035 2850 3635
16 560 881
80 592 897
160 640 1009
160 721 1185
32 1105 1809
0 1505 2210
3731 512 1265
1425 1089 224
1537 1329 256
176 897 1169
336 1025 1297
432 1073 1473
352 1233 2194
2258 640 2738
3619 624 2818
2962 1121 256
1809 1537 352
2082 1729 432
288 1249 1377
480 1361 1505
544 1473 1729
2546 801 2290
3122 833 2722
3683 1025 2978
3987 1217 721
2370 1905 448
2482 2066 560
288 1665 1857
512 1585 1857
2402 1105 2001
2834 1169 2322
3154 1281 2818
3651 1409 3058
4035 1473 1553
2898 2242 560
2802 2402 640
2866 1153 2530
3186 1249 2194
2978 1409 2178
3042 1505 2434
3330 1489 2818
3795 1601 3154
4035 1697 2802
3218 2322 592
2994 2610 624
3907 1265 2994
3603 1537 2706
3443 1697 2658
3459 1889 2850
3731 1889 3106
4035 1857 3314
3987 2130 3378
4019 2162 2290
3314 2722 656
4067 1585 3298
4003 1793 3218
3987 2050 3314
3923 2290 3394
4035 2306 3459
4019 2306 3459
4019 2354 3491
4019 2418 2706
3523 2850 672
3987 2033 3282
3971 2210 3346
3971 2402 3427
4035 2594 3555
3971 2626 3523
3971 2626 3539
3971 2690 3539
3987 2738 3571
4003 2802 2962
4019 2386 3507
4019 2546 3539
4019 2706 3571
4035 2882 3667
4019 2898 3651
4019 2962 3667
4019 3010 3683
4019 2994 3699
4003 2994 3394
64 977 1329
224 977 1329
320 929 1409
288 1009 1505
176 1169 1601
16 1585 1905
0 1521 1265
1329 1217 224
1665 1457 320
352 1185 1377
592 1265 1393
721 1185 1473
656 1281 1713
496 1457 2050
240 1953 2578
0 2194 2017
1777 1633 368
2178 1841 448
512 1473 1345
785 1473 1329
833 1505 1569
833 1521 1905
672 1697 2498
384 2194 3058
3459 1473 1249
2546 2017 496
2594 2178 592
512 1777 1505
801 1745 1409
881 1841 1697
849 1969 2258
753 2098 2754
3394 1585 3234
3747 1857 1313
2946 2322 592
2898 2514 672
432 2194 1905
705 2210 1857
945 2210 2194
2546 1793 2514
3170 1825 3058
3667 1953 3314
4035 2017 1969
3218 2642 656
3186 2850 689
336 2690 2978
1249 2466 2722
2802 2098 2738
3378 2082 2866
3635 2242 3234
3923 2210 3394
3987 2386 3459
4035 2754 849
3346 2978 721
1553 2594 3699
3186 2290 3491
3811 2242 3298
3763 2402 3314
3971 2546 3491
4019 2546 3523
4019 2594 3539
4019 2690 3106
3603 3106 753
4003 2242 3507
3987 2370 3459
3987 2530 3459
4019 2658 3555
4003 2882 3619
3987 2882 3635
4003 2962 3651
3987 2898 3443
3859 3218 833
4035 2482 3539
4035 2690 3571
4035 2818 3619
4019 3010 3683
4003 3154 3747
4003 3186 3747
4003 3234 3763
3987 3218 3635
4003 3314 2834
96 1393 1665
304 1313 1601
384 1313 1665
352 1409 1825
208 1585 2033
64 1745 2082
16 2162 2306
0 1329 833
1793 1569 352
464 1505 1585
753 1473 1553
897 1377 1633
849 1409 1857
592 1649 2210
256 2033 2466
16 2514 2514
1537 1777 352
2322 1969 480
640 1697 1521
977 1585 1441
1041 1617 1665
1041 1633 1969
849 1825 2370
432 2370 2802
64 2546 2146
2418 2162 512
2738 2306 624
672 2017 1601
1009 1905 1505
1089 2001 1745
1041 2146 2242
913 2322 2658
496 2850 3330
560 3218 3427
2818 2530 608
2978 2594 689
528 2434 1953
849 2434 1809
1009 2498 2017
1057 2626 2402
1153 2818 3058
1217 2978 3635
1601 3058 3234
3106 2802 672
3282 2930 721
272 2882 2610
544 2994 2514
753 3106 2738
1393 2898 2978
1857 2866 3330
3699 2530 3683
3811 2514 3122
3555 2962 705
3507 3186 817
96 3523 3651
592 3523 3635
1809 3042 3603
2242 3074 3571
3699 2722 3539
3763 2818 3539
3875 2818 3571
4003 2978 1729
3619 3314 881
1457 3186 3843
2290 3074 3891
3346 2930 3923
3955 2866 3795
3843 2994 3507
3811 3154 3635
3971 3122 3731
3971 3186 3635
3923 3330 1585
3683 2770 4003
3907 2882 4003
4019 2962 3891
4019 3090 3779
3987 3234 3779
3923 3427 3779
3907 3459 3763
3923 3491 3667
3955 3523 2386
80 1889 2066
192 1809 2050
352 1729 2066
304 1809 2178
128 2130 2386
16 2274 2418
16 2306 2482
0 2130 1713
1745 1665 368
368 1937 1969
672 1793 1921
865 1665 1953
769 1793 2210
544 2050 2530
192 2482 2754
16 2738 2866
16 2610 2242
2210 2130 496
592 2066 1921
945 1905 1745
1105 1905 1953
1073 1953 2290
833 2274 2738
336 2834 3154
32 3234 3378
176 2770 1713
2706 2418 656
592 2386 2066
1025 2242 1841
1217 2274 2098
1297 2386 2466
1089 2610 2930
640 3122 3491
400 3491 3763
817 3090 2354
3010 2722 721
464 2818 2530
833 2850 2386
1217 2738 2274
1457 2722 2498
1585 2834 2930
1361 3154 3443
1185 3394 3747
1777 2978 1777
3330 2994 737
224 3330 3266
544 3378 3090
1025 3346 2930
1585 3154 2738
1825 3122 3010
2033 3202 3394
2130 3218 3635
3394 3058 1041
3539 3266 849
160 3683 3843
416 3763 3843
1105 3635 3346
1649 3459 3106
2098 3346 3154
2642 3234 3427
2690 3443 3699
3603 3330 1329
3779 3523 1025
801 3795 3859
1233 3699 3875
1745 3667 3603
2210 3635 3427
2866 3410 3378
3058 3507 3571
3779 3394 3667
3811 3459 1265
3811 3603 1153
1665 3571 3971
2066 3635 3971
2498 3603 3971
3010 3555 3875
3859 3427 3683
3859 3555 3731
3891 3683 3763
3955 3651 3443
3955 3651 2658
16 2354 2514
80 2322 2498
80 2386 2546
80 2418 2610
16 2514 2706
16 2578 2706
16 2642 2770
16 2690 2818
16 2258 1633
128 2514 2626
384 2466 2546
528 2354 2530
496 2466 2722
272 2706 2946
16 3058 3202
16 3106 3266
16 3170 3298
32 2962 2370
352 2610 2546
640 2546 2514
801 2594 2706
817 2658 2930
576 2978 3282
336 3266 3555
224 3491 3683
144 3651 3795
1249 2738 1105
288 2962 2930
705 2930 2754
1073 2802 2690
1345 2802 2882
1393 2818 3106
1217 3090 3507
1057 3298 3763
640 3683 3699
2882 2834 769
224 3394 3427
608 3394 3234
1329 3090 2818
1937 2818 2626
2210 2802 2930
2098 2946 3298
1937 3122 3619
1553 3410 3491
3266 3154 833
176 3699 3843
753 3651 3507
1569 3298 2898
2210 3074 2642
2530 3058 2946
2706 3074 3218
2642 3202 3603
2178 3491 3539
3507 3410 1105
576 3779 3923
1217 3667 3619
1825 3523 3058
2418 3378 2834
2754 3330 2962
2962 3330 3266
3010 3427 3571
2882 3394 3218
3779 3539 1073
1233 3747 3859
1553 3699 3779
2082 3667 3378
2546 3635 3106
2898 3603 3154
3090 3635 3410
3234 3667 3699
3763 3619 1713
3923 3683 2290
1841 3683 3987
2274 3699 3971
2578 3699 3891
2930 3731 3651
3266 3779 3651
3427 3811 3747
3555 3891 3907
3971 3779 3218
3955 3779 3186
16 2642 2770
16 2658 2802
16 2722 2850
16 2770 2882
16 2834 2946
16 2882 3010
16 2978 3090
16 2994 3106
16 3042 3154
16 2882 2994
16 3154 3282
96 3186 3330
96 3234 3427
16 3346 3507
48 3427 3571
128 3346 3555
80 3523 3651
80 3523 3539
32 3170 3298
192 3378 3507
384 3459 3603
512 3443 3619
672 3346 3651
705 3427 3763
528 3667 3891
480 3795 3923
656 3346 2930
144 3443 3539
336 3635 3731
961 3378 3394
1617 3090 3218
1825 2930 3266
1809 3010 3491
1665 3202 3731
1393 3603 3907
1249 3507 3298
288 3683 3763
865 3603 3603
1633 3218 3074
2354 2946 2850
2802 2818 2978
2770 2882 3298
2642 3074 3635
2386 3378 3891
1793 3731 3539
624 3779 3955
1345 3603 3491
2194 3282 2866
2802 3074 2722
3074 3058 2930
3282 3058 3202
3186 3154 3523
2994 3378 3843
2370 3811 3779
1153 3731 3955
1729 3619 3443
2498 3459 2994
3042 3378 2770
3298 3314 2930
3427 3346 3218
3523 3443 3555
3122 3667 3811
3667 3635 1793
1601 3699 3843
2098 3699 3843
2738 3635 3298
3154 3619 2994
3378 3635 3090
3523 3667 3346
3571 3747 3667
3651 3843 3891
3891 3763 2850
2033 3731 4003
2482 3699 3971
2834 3731 3843
3186 3779 3619
3394 3843 3603
3523 3859 3731
3683 3923 3907
3843 3923 3875
3955 3971 3987
