其他预设/【236】赛博朋克风调色预设/【后期菌】视频调色预设/3DL/Glitch 02_S.3dl
# LUT by SparkleStock. Enhanced with VOXCOLOR algorithms.
0 128 256 384 512 640 768 896 1023
0 0 0
144 16 144
320 32 320
865 128 608
2001 208 689
3042 256 881
3443 304 1297
3571 288 1633
3699 320 1265
304 48 336
336 32 352
801 128 608
2146 224 737
3138 256 977
3459 272 1329
3571 288 1649
3683 320 1665
3378 753 128
1649 176 656
2001 208 689
2386 224 721
3122 256 961
3475 288 1377
3587 304 1713
3699 368 2322
3683 560 640
2658 1409 176
3266 288 1153
3443 304 1297
3475 288 1377
3427 304 1409
3587 320 1793
3699 352 2306
3811 496 2770
3811 624 2898
3603 865 560
3635 288 1921
3667 320 2114
3555 336 2066
3667 336 2226
3699 352 2306
3811 480 2770
3843 672 2962
3843 865 3090
3763 1057 1025
3795 480 2722
3811 560 2834
3731 608 2818
3843 624 2898
3843 624 2898
3843 721 2978
3763 977 3106
3811 1169 3186
3811 1361 3202
3843 865 3090
3843 945 3106
3747 1009 3042
3843 1025 3122
3843 1105 3186
3843 1169 3186
3843 1201 3202
3811 1457 3250
3795 1681 3314
3731 1377 3138
3731 1425 3154
3731 1489 3202
3795 1521 3234
3699 1569 3218
3699 1649 3250
3699 1713 3298
3683 1761 3314
3763 2050 3346
3763 1825 3314
3779 1953 3346
3763 2017 3362
3747 2050 3346
3763 2130 3378
3763 2194 3410
3763 2242 3427
3763 2354 3443
3763 2370 3443
192 16 208
256 32 272
512 96 464
1489 176 672
2866 256 801
3314 256 1105
3555 304 1521
3667 320 961
2770 881 96
416 80 448
1249 176 656
2642 256 753
3234 272 1041
3539 288 1489
3635 320 1713
3491 560 128
1617 1297 176
1329 1585 368
2562 256 753
3138 272 977
3154 304 1073
3410 304 1457
3635 320 1985
3747 400 2466
3795 480 2690
3635 801 256
2050 1889 304
3427 288 1361
3539 320 1761
3427 352 1825
3555 320 1985
3779 400 2498
3811 528 2802
3811 672 2818
3731 961 480
2242 2226 320
3683 336 2242
3795 480 2706
3731 528 2770
3811 528 2802
3811 560 2834
3843 721 2994
3843 977 3122
3811 1185 3106
3763 1489 512
3811 576 2834
3843 785 3026
3763 865 2994
3859 881 3106
3843 913 3106
3843 977 3106
3747 1233 3202
3811 1473 3202
3811 1665 1329
3843 1009 3138
3811 1265 3202
3731 1297 3138
3811 1345 3218
3811 1409 3234
3795 1473 3250
3795 1521 3234
3779 1825 3330
3763 2114 3314
3747 1537 3186
3699 1809 3234
3699 1873 3266
3779 1937 3346
3683 2001 3298
3683 2098 3362
3683 2130 3362
3683 2210 3410
3747 2482 3459
3779 2098 3378
3747 2338 3427
3747 2418 3459
3747 2466 3475
3747 2562 3491
3731 2578 3491
3731 2642 3523
3747 2690 3539
3731 2754 3555
80 288 416
96 320 496
368 512 1905
1345 224 1889
3122 256 1169
3378 272 1809
3651 304 1121
2033 913 96
1057 1217 320
224 560 1105
2482 256 1313
2498 272 1345
3026 304 1409
3362 320 1697
3667 320 2162
3555 592 208
1553 1489 256
1505 1729 352
2450 288 1649
2818 400 1393
2802 416 1521
2962 448 1921
3330 480 2466
3699 592 2706
3683 817 384
2066 2033 272
2098 2226 368
3250 384 1649
2994 544 1697
2914 624 1985
3074 640 2258
3378 705 2722
3731 801 3010
3795 817 2450
3475 2050 128
2482 2418 320
3635 432 2386
3362 721 2434
3266 881 2562
3266 945 2706
3491 929 2930
3843 1073 3154
3811 1281 3154
3795 1473 1217
3122 2706 224
3843 721 2994
3747 993 2994
3651 1233 3042
3587 1313 3042
3763 1345 3154
3795 1297 3202
3747 1633 3298
3795 1777 3074
3683 2802 256
3843 1169 3202
3795 1361 3218
3747 1697 3234
3779 1697 3298
3779 1777 3314
3763 1825 3314
3779 1905 3330
3763 2226 3378
3811 2546 2882
3747 1681 3218
3699 2001 3266
3683 2242 3346
3763 2322 3427
3683 2418 3410
3683 2434 3427
3683 2530 3443
3683 2578 3491
3763 2834 3362
3747 2210 3410
3747 2498 3475
3731 2754 3555
3731 2770 3539
3747 2834 3571
3747 2898 3587
3731 2898 3587
3747 2978 3603
3747 3010 3603
192 560 849
256 608 897
320 624 1025
352 705 1217
400 1105 2114
400 1617 2770
3587 400 945
1441 1121 176
1185 1409 368
400 897 1249
560 1089 1489
656 1089 1681
721 1297 2482
2050 689 2754
3362 608 2642
3330 897 128
1425 1649 368
1665 1889 320
560 1265 1633
721 1473 1777
817 1601 2017
2450 801 2226
2882 785 2578
3427 833 2914
3731 913 528
2306 2162 240
2354 2306 320
640 1873 2274
993 1681 1937
2322 1105 1905
2642 1057 2258
2962 1137 2722
3475 1153 3074
3795 1265 1441
3090 2594 208
2770 2642 304
2722 1153 2450
2962 1073 2114
2834 1233 2194
2898 1297 2450
3186 1281 2818
3571 1393 3138
3811 1537 2914
3459 2770 224
3026 2882 256
3651 1057 2930
3362 1297 2674
3250 1489 2658
3266 1713 2882
3523 1697 3106
3779 1681 3298
3699 2033 3346
3795 2242 2578
3443 3106 256
3795 1329 3250
3763 1585 3218
3731 1873 3266
3667 2210 3346
3763 2258 3427
3747 2306 3410
3747 2338 3427
3795 2674 3010
3603 3218 320
3731 1873 3250
3683 2146 3314
3683 2418 3378
3747 2706 3555
3667 2722 3491
3667 2754 3523
3667 2818 3539
3667 2882 3571
3763 3138 3234
3747 2386 3443
3731 2658 3539
3731 2866 3571
3747 3074 3635
3747 3106 3635
3747 3138 3635
3763 3186 3651
3763 3186 3651
3763 3266 3539
352 977 1489
480 993 1473
560 977 1553
544 1025 1697
464 1185 1921
384 1777 2578
320 2017 2146
961 1265 384
1297 1537 352
624 1233 1649
833 1377 1713
929 1313 1793
881 1409 2146
785 1649 2546
689 2306 3074
576 2786 2978
1265 1841 480
1905 2050 320
785 1585 1697
1009 1601 1601
1105 1665 1841
1153 1681 2226
1105 1985 2722
1105 2498 3218
3555 1361 1249
2658 2306 208
2530 2386 288
817 2050 1889
1105 1985 1649
1233 2050 1921
1361 2130 2322
1409 2274 2786
3154 1633 3090
3603 1777 1249
3090 2690 224
2914 2770 320
881 2546 2306
1217 2466 2033
1505 2386 2130
2434 1921 2386
2962 1889 2866
3427 1777 3234
3795 1985 2130
3362 3010 256
3234 3106 288
1249 2930 2994
1729 2834 2610
2674 2322 2594
3154 1985 2770
3410 2130 3154
3651 2130 3346
3699 2386 3427
3875 2994 721
3346 3234 320
2258 3154 3571
3042 2610 3314
3571 2114 3202
3523 2370 3234
3667 2658 3459
3731 2658 3523
3731 2706 3539
3763 3010 3330
3603 3346 368
3747 2098 3410
3699 2338 3410
3699 2594 3459
3731 2802 3555
3731 3042 3587
3699 3074 3603
3731 3106 3635
3731 3154 3539
3763 3443 528
3747 2530 3491
3731 2818 3555
3747 2978 3603
3763 3186 3651
3763 3314 3683
3763 3346 3683
3779 3410 3731
3779 3410 3651
3811 3491 3138
416 1473 2210
608 1409 2066
672 1425 2194
656 1537 2370
544 1777 2642
432 2033 2770
496 2562 3026
352 2370 1553
1377 1697 400
737 1649 2033
1057 1649 1937
1185 1537 2001
1153 1585 2274
977 1905 2706
753 2418 3042
689 2994 3234
865 2354 881
2066 2242 320
977 1953 1921
1281 1777 1697
1425 1825 1953
1441 1825 2258
1345 2066 2706
1137 2658 3202
1009 3074 3122
1937 2386 368
2658 2530 320
1105 2338 2017
1409 2146 1729
1569 2162 1985
1633 2258 2354
1601 2434 2786
1489 2898 3314
1681 3314 3491
2610 2706 304
3026 2866 320
1137 2754 2370
1441 2642 2050
1649 2594 2114
1809 2594 2386
1985 2770 2882
2114 3122 3410
2338 3314 3443
3122 3042 304
3266 3202 320
1169 3154 2978
1473 3138 2674
1697 3074 2610
2114 3026 2770
2466 3122 3122
3410 2610 3427
3587 2754 3266
3635 3298 336
3459 3346 400
1473 3475 3635
1809 3443 3362
2562 3378 3378
2770 3410 3330
3427 2770 3330
3475 2882 3427
3587 2994 3555
3843 3298 1633
3587 3427 416
2418 3491 3587
2882 3459 3635
3346 3266 3667
3651 2898 3571
3587 3138 3443
3603 3266 3539
3731 3298 3667
3747 3362 3651
3779 3459 1345
3491 3026 3731
3651 3010 3763
3747 3074 3699
3763 3234 3699
3779 3378 3699
3795 3523 3731
3795 3539 3731
3811 3587 3699
3795 3555 2546
464 2194 2786
576 2130 2706
721 2066 2674
705 2162 2802
592 2498 3010
544 2674 3106
560 2690 3122
560 2914 2978
1089 1937 592
801 2258 2562
1121 2114 2338
1281 1937 2354
1265 2098 2658
1137 2370 2978
945 2866 3314
849 3122 3378
897 3218 3266
1457 2450 544
1105 2386 2370
1457 2146 2114
1697 2066 2194
1681 2130 2498
1569 2466 2978
1345 3010 3378
1249 3410 3571
1009 3330 3122
2338 2594 400
1249 2690 2482
1649 2434 2050
1953 2338 2130
2130 2322 2386
2033 2530 2834
1825 2994 3330
1681 3314 3555
1569 3491 3346
2930 2930 384
1345 3026 2786
1713 2882 2450
2066 2658 2210
2306 2594 2354
2418 2674 2706
2338 2978 3234
2274 3202 3491
2354 3266 2482
3346 3234 336
1473 3378 3314
1729 3298 2994
2066 3154 2706
2434 3010 2546
2546 3026 2818
2690 3138 3186
2802 3266 3475
3314 3186 705
3491 3362 400
1617 3539 3651
1809 3539 3587
2210 3427 3090
2530 3362 2898
2722 3330 2962
3010 3378 3250
3074 3491 3539
3459 3378 1009
3635 3523 528
2098 3587 3587
2386 3635 3603
2674 3603 3346
2866 3603 3186
3154 3587 3234
3266 3587 3427
3667 3459 3603
3683 3523 849
3667 3539 640
2674 3603 3699
2882 3667 3731
3106 3667 3747
3330 3699 3683
3731 3475 3571
3779 3587 3667
3811 3667 3731
3843 3683 3603
3763 3635 2914
576 2770 3154
640 2706 3122
656 2770 3154
705 2818 3218
689 2930 3250
705 2978 3298
769 3042 3346
801 3074 3362
672 3074 2994
817 2898 3154
1153 2770 2994
1281 2642 2930
1297 2706 3090
1217 2994 3346
1073 3314 3523
1153 3346 3555
1185 3378 3555
1185 3346 3314
1169 2930 3010
1505 2754 2770
1793 2674 2786
1873 2674 2962
1713 2962 3266
1633 3234 3523
1569 3378 3603
1569 3523 3651
1409 3250 2242
1329 3186 3186
1777 2930 2786
2146 2690 2578
2418 2642 2706
2434 2642 2914
2322 2898 3298
2242 3122 3523
2050 3475 3651
2354 2994 640
1505 3378 3410
1889 3234 3042
2386 2930 2594
2754 2674 2434
2882 2690 2722
2834 2882 3138
2786 3074 3443
2546 3346 3571
3026 3250 512
1633 3539 3651
2033 3427 3250
2562 3154 2658
2882 2994 2482
3042 2994 2770
3122 3042 3074
3122 3154 3427
2898 3427 3603
3250 3378 817
1921 3571 3667
2354 3523 3346
2706 3410 2834
2994 3314 2642
3154 3314 2818
3266 3346 3122
3314 3443 3459
3186 3539 3491
3635 3523 560
2370 3635 3603
2642 3651 3587
2866 3603 3138
3090 3587 2914
3234 3603 3010
3330 3635 3266
3443 3667 3571
3587 3491 1409
3731 3571 2306
2770 3667 3731
2994 3683 3731
3138 3731 3699
3250 3747 3459
3443 3779 3475
3571 3779 3587
3667 3795 3779
3811 3747 3475
3811 3747 3475
769 3026 3330
785 3074 3346
849 3122 3378
865 3138 3427
929 3202 3459
961 3218 3459
1009 3266 3491
1025 3298 3491
1073 3314 3523
945 3218 3459
1185 3362 3555
1281 3330 3523
1345 3346 3539
1329 3427 3587
1393 3459 3603
1457 3410 3603
1473 3475 3635
1489 3491 3587
1185 3378 3555
1489 3362 3491
1761 3314 3427
1809 3250 3410
1985 3138 3378
1985 3218 3475
1889 3443 3651
1889 3571 3667
1777 3523 3491
1489 3443 3539
1713 3459 3523
2226 3154 3154
2690 2930 3010
2802 2786 3026
2786 2898 3298
2690 3106 3523
2498 3491 3683
2354 3539 3571
1697 3491 3555
2130 3378 3330
2690 3074 2834
3090 2882 2674
3298 2770 2802
3298 2834 3106
3218 3026 3427
3090 3362 3667
2722 3683 3651
1953 3571 3667
2498 3443 3218
2978 3202 2674
3298 3026 2546
3459 3010 2770
3539 3042 3074
3475 3138 3410
3362 3410 3683
3026 3699 3731
2338 3603 3683
2770 3539 3234
3122 3410 2786
3443 3330 2610
3555 3314 2786
3635 3346 3106
3651 3410 3427
3427 3587 3699
3539 3475 1601
2674 3651 3603
2914 3683 3587
3234 3635 3090
3475 3635 2866
3587 3603 2962
3651 3603 3202
3683 3683 3539
3731 3747 3763
3699 3667 3154
2882 3667 3731
3106 3699 3747
3266 3747 3651
3443 3763 3427
3555 3795 3443
3667 3811 3587
3731 3843 3763
3795 3811 3795
3843 3811 3843
