其他预设/【236】赛博朋克风调色预设/【后期菌】视频调色预设/3DL/Glitch 10_S.3dl
# LUT by SparkleStock. Enhanced with VOXCOLOR algorithms.
0 256 512 768 1023
16 32 64
320 80 256
1713 176 785
3427 352 1521
4019 512 1585
1505 160 737
1953 208 833
3523 352 1585
4067 640 2530
2242 1313 400
4003 464 2242
3923 544 2306
4035 592 2498
4067 1073 2946
4003 1313 1297
4035 1201 3074
3955 1313 3042
4067 1409 3154
4067 1489 3186
4035 1889 3314
4035 1969 3330
4035 2098 3394
4035 2194 3427
4035 2322 3491
4035 2386 3491
0 256 432
16 480 2066
2866 256 1393
3891 432 1409
1329 1169 224
2386 336 1889
3042 528 1681
3571 817 2594
3907 1169 512
2322 1953 528
3907 753 2578
3427 1217 2530
3667 1249 2898
4067 1521 3154
2946 2370 592
4067 1457 3186
3971 1905 3266
4035 1953 3314
4035 2050 3378
4019 2322 2578
4019 2258 3427
4019 2626 3555
4035 2706 3603
4019 2754 3571
4035 2850 3635
64 977 1329
320 929 1409
176 1169 1601
0 1521 1265
1665 1457 320
512 1473 1345
833 1505 1569
672 1697 2498
3459 1473 1249
2594 2178 592
432 2194 1905
945 2210 2194
3170 1825 3058
4035 2017 1969
3186 2850 689
1553 2594 3699
3811 2242 3298
3971 2546 3491
4019 2594 3539
3603 3106 753
4035 2482 3539
4035 2818 3619
4003 3154 3747
4003 3234 3763
4003 3314 2834
80 1889 2066
352 1729 2066
128 2130 2386
16 2306 2482
1745 1665 368
592 2066 1921
1105 1905 1953
833 2274 2738
32 3234 3378
2706 2418 656
464 2818 2530
1217 2738 2274
1585 2834 2930
1185 3394 3747
3330 2994 737
160 3683 3843
1105 3635 3346
2098 3346 3154
2690 3443 3699
3779 3523 1025
1665 3571 3971
2498 3603 3971
3859 3427 3683
3891 3683 3763
3955 3651 2658
16 2642 2770
16 2722 2850
16 2834 2946
16 2978 3090
16 3042 3154
32 3170 3298
384 3459 3603
672 3346 3651
528 3667 3891
656 3346 2930
288 3683 3763
1633 3218 3074
2802 2818 2978
2642 3074 3635
1793 3731 3539
1153 3731 3955
2498 3459 2994
3298 3314 2930
3523 3443 3555
3667 3635 1793
2033 3731 4003
2834 3731 3843
3394 3843 3603
3683 3923 3907
3955 3971 3987
