其他预设/【236】赛博朋克风调色预设/【后期菌】视频调色预设/3DL/Glitch 10_S.3dl
# LUT by SparkleStock. Enhanced with VOXCOLOR algorithms.
0 64 128 192 256 320 384 448 512 576 640 704 768 832 896 960 1023
16 32 64
80 64 96
128 64 128
192 80 208
320 80 256
560 96 352
945 112 528
1185 128 640
1713 176 785
2322 256 929
2690 256 1057
3218 336 1361
3427 352 1521
3603 368 1617
3811 416 1905
3971 464 1921
4019 512 1585
112 64 128
128 64 144
192 80 208
368 96 288
560 96 352
865 112 480
1297 144 656
1713 176 785
2322 240 929
2802 272 1137
3170 320 1329
3443 352 1505
3747 384 1745
3859 416 1921
3987 480 2001
3987 560 1473
3795 624 721
304 96 272
320 80 256
352 80 288
592 112 400
913 128 512
1297 144 656
1809 192 833
2322 256 929
2882 288 1153
3266 320 1393
3507 352 1537
3731 384 1729
3843 416 1905
3987 464 2178
4019 512 2017
3955 608 1217
3074 977 240
737 112 464
801 112 480
881 112 512
961 112 528
1313 144 672
1857 192 817
2434 256 961
2770 272 1121
3186 320 1329
3523 352 1585
3747 384 1745
3891 432 2001
4003 496 2290
4019 592 2274
4019 624 1585
3507 897 272
2306 1233 320
1505 160 737
1617 176 769
1713 176 785
1841 192 753
1953 208 833
2386 272 961
2882 272 1153
3186 320 1329
3523 352 1585
3763 400 1793
3907 432 2001
4019 512 2354
4067 640 2530
4035 672 2290
3907 705 929
2834 1185 336
2242 1313 400
2434 256 945
2482 256 977
2610 256 1073
2722 272 1105
2834 288 1153
2882 272 1153
3282 336 1409
3523 352 1585
3763 416 1793
3955 432 2082
4003 480 2290
4035 592 2530
4067 753 2706
4067 785 2610
4035 753 1633
3491 1153 288
2258 1457 368
3186 336 1361
3330 336 1457
3427 352 1521
3378 352 1505
3523 352 1585
3507 352 1537
3491 384 1601
3667 432 1793
3923 432 2066
4019 512 2354
4035 592 2530
4067 753 2706
4067 865 2834
4035 929 2834
4035 993 2898
4067 1009 2418
3859 1137 769
3699 384 1713
3667 432 1745
3779 416 1857
3843 416 1905
3875 432 1969
3891 432 2001
3923 432 2066
3971 432 2130
3923 528 2322
3955 640 2498
3971 785 2722
3971 913 2850
3955 929 2850
3955 1009 2898
4067 1137 2994
4067 1089 2530
3907 1169 1297
4003 464 2242
4019 512 2306
4035 528 2370
3955 592 2370
3923 544 2306
3955 592 2386
4019 576 2418
4067 656 2530
4035 592 2498
4067 785 2722
4067 865 2834
4067 945 2866
4067 1073 2946
4067 1137 2994
4067 1249 3058
4067 1185 2642
4003 1313 1297
4035 672 2594
4067 721 2626
4067 737 2690
3971 801 2658
4067 817 2754
4067 833 2770
3971 865 2738
4067 849 2818
4067 897 2850
4035 881 2834
4035 929 2866
3971 1089 2962
3971 1169 3042
3955 1217 3042
4067 1329 3106
4035 1393 3074
4035 1345 2610
4035 849 2802
4035 881 2834
4067 913 2850
4067 929 2866
3971 977 2834
4067 993 2882
4067 993 2898
3971 1025 2882
4035 1009 2898
4067 1073 2946
4067 1089 2962
3971 1185 3042
3971 1297 3106
4035 1329 3090
4067 1425 3170
4067 1521 3186
4067 1585 3186
3955 1089 2866
4035 1073 2946
4067 1089 2978
4035 1105 2978
3955 1137 2930
3971 1169 2994
3971 1201 2994
3971 1217 3010
4067 1217 3074
4035 1201 3042
4067 1265 3106
4035 1281 3106
3955 1345 3090
4067 1425 3170
3971 1537 3202
4035 1601 3202
3955 1681 3186
4035 1201 3074
4035 1233 3058
4067 1265 3106
4035 1265 3074
3955 1313 3042
4067 1329 3106
4035 1329 3106
4035 1345 3106
4067 1409 3154
4035 1393 3122
4067 1441 3170
3971 1489 3154
4067 1489 3186
4067 1569 3202
4067 1665 3266
4035 1777 3282
4035 1889 3314
4035 1393 3122
4067 1441 3170
4035 1425 3154
4035 1441 3170
4035 1441 3170
4067 1505 3186
3955 1505 3122
4067 1521 3186
4067 1569 3202
3971 1585 3186
4067 1585 3202
3971 1649 3218
4067 1601 3202
4035 1633 3218
4035 1793 3282
4035 1889 3298
3955 2001 3346
3971 1617 3170
3971 1633 3154
3971 1633 3154
3955 1665 3170
3971 1697 3202
4035 1665 3234
4035 1713 3266
3955 1777 3218
3955 1793 3218
3955 1841 3266
3955 1841 3266
4035 1841 3298
3955 1921 3314
4035 1889 3314
3955 1937 3314
3955 2082 3378
4019 2146 3410
4035 1809 3282
3955 1841 3202
4035 1841 3298
4035 1857 3298
4035 1937 3314
4035 1937 3330
4035 1921 3314
3955 2017 3298
3955 2066 3330
4035 2033 3346
4035 2050 3378
4035 2066 3394
4035 2130 3394
4035 2146 3410
4035 2162 3427
3923 2194 3410
3923 2274 3443
4035 1969 3330
4035 2033 3346
4035 2082 3394
4035 2098 3394
4035 2098 3394
4035 2130 3394
4019 2146 3394
4035 2178 3427
4035 2194 3427
4019 2194 3427
4035 2274 3443
4035 2274 3443
4035 2322 3491
4019 2290 3459
4035 2370 3491
4019 2354 3491
4035 2386 3491
80 64 112
96 48 96
176 80 176
320 96 272
432 80 336
640 112 432
1025 128 592
1409 144 689
2001 208 833
2578 256 1041
2930 304 1169
3282 336 1409
3539 352 1585
3763 400 1793
3923 432 1825
3923 496 1329
3507 753 256
160 64 160
256 80 240
432 96 336
640 96 416
1025 128 528
1409 144 689
2001 208 833
2610 256 1073
2882 288 1153
3314 336 1409
3603 368 1617
3763 400 1793
3955 432 1953
4003 480 1809
3891 544 1073
2546 1009 224
1905 1121 256
368 96 304
592 96 384
640 96 416
1025 128 592
1537 160 737
2001 208 833
2482 256 1041
2962 288 1185
3282 336 1409
3571 368 1601
3795 416 1857
3923 432 2050
4019 512 1969
3907 576 1153
2994 929 224
2033 1169 288
1617 1329 272
945 112 528
1313 144 672
1441 160 689
1537 160 737
2082 224 865
2498 256 977
2978 304 1217
3330 336 1473
3539 352 1585
3795 416 1857
3987 448 2162
4019 512 2290
4035 592 1905
3859 656 801
2738 1121 256
1969 1249 304
1665 1425 304
1713 176 785
2322 240 929
2434 256 945
2530 256 1041
2610 256 1041
2898 320 1217
3330 352 1473
3603 368 1617
3795 416 1857
3955 432 2130
4035 560 2402
4035 624 2530
4035 737 2530
4035 737 1697
3491 1009 272
2050 1409 416
1777 1553 416
2706 256 1057
3106 304 1313
3186 320 1329
3282 320 1409
3314 336 1409
3346 336 1457
3635 384 1665
3811 416 1857
3955 432 2130
4035 528 2402
4035 672 2546
4067 769 2706
4035 849 2802
4035 961 2882
4035 881 2050
3859 1169 432
2706 1553 432
3346 368 1505
3603 368 1617
3651 384 1665
3635 400 1697
3763 400 1793
3795 416 1889
3747 432 1857
3891 480 2146
4019 528 2402
4067 672 2594
4067 817 2738
4035 849 2802
4035 961 2882
4067 1041 2882
4035 1009 2370
3971 1233 640
2898 1617 512
3811 416 1857
3891 496 2098
4003 480 2274
4003 480 2290
4019 512 2354
4019 512 2354
4035 528 2402
4019 528 2402
3955 672 2530
3971 801 2722
3971 929 2834
3955 945 2866
3955 1073 2946
3971 1169 2962
4035 1089 2530
3987 1409 560
2946 1713 528
4019 512 2322
4067 656 2546
4067 672 2594
3971 705 2546
3971 737 2626
3971 769 2658
4067 769 2706
4035 785 2722
4035 817 2754
4067 913 2850
4035 977 2866
4035 1073 2946
4035 1185 3058
4067 1265 3074
4067 1329 2994
4035 1249 2482
3987 1601 656
4067 769 2722
4035 833 2770
4067 897 2850
3955 913 2754
4035 897 2834
4067 913 2850
3971 961 2834
4035 945 2866
4035 961 2866
4067 993 2898
4067 1089 2978
3971 1169 3042
3955 1297 3090
3955 1361 3106
4035 1425 3154
4067 1553 3202
4035 1521 2738
4035 929 2866
4035 993 2898
4035 1009 2930
4067 1089 2962
3955 1089 2882
4035 1089 2946
4067 1137 2994
3971 1169 2994
4067 1169 3042
4035 1169 3058
4035 1169 3058
3971 1297 3090
3955 1393 3122
4067 1489 3186
4067 1537 3202
4067 1649 3266
4035 1633 2818
3955 1105 2866
4067 1185 3058
4035 1169 3058
4067 1201 3074
3955 1249 2994
3971 1313 3074
3955 1297 3042
3955 1329 3074
4035 1329 3106
4067 1345 3122
4035 1345 3106
4067 1393 3122
3971 1505 3186
4067 1585 3202
3971 1681 3266
4035 1777 3218
3955 1825 3010
4067 1313 3106
4067 1393 3122
4067 1409 3170
4035 1409 3154
3971 1457 3090
4035 1425 3154
4035 1441 3170
4067 1505 3186
4067 1505 3202
4067 1521 3202
4067 1569 3202
3971 1569 3186
4067 1585 3202
4067 1665 3234
4035 1745 3266
4035 1905 3314
4035 2017 3298
4067 1457 3186
4067 1537 3202
4067 1553 3202
4095 1601 3266
4067 1617 3234
4035 1601 3202
3971 1681 3218
4067 1681 3266
4035 1681 3234
3955 1745 3234
4035 1713 3266
3955 1809 3266
4035 1793 3282
4035 1825 3282
4035 1953 3330
4035 2082 3394
3955 2194 3443
3971 1681 3186
3955 1745 3186
3955 1809 3202
3955 1841 3234
3955 1889 3234
4035 1841 3298
4035 1841 3298
3955 1905 3282
3955 1921 3266
3955 2001 3314
3955 2001 3314
4035 1969 3330
3955 2033 3346
4035 2017 3346
3923 2082 3378
3955 2242 3443
4035 2306 3459
4035 1841 3298
3955 2033 3282
4035 2033 3346
4035 2033 3346
4019 2050 3378
4035 2098 3394
4019 2098 3394
3923 2194 3378
3955 2242 3410
4035 2210 3443
4035 2258 3443
4035 2258 3443
4035 2274 3443
4019 2274 3443
4035 2306 3459
3923 2322 3459
3923 2418 3523
4035 2082 3394
4035 2194 3443
4035 2258 3443
4019 2242 3443
4035 2290 3459
4019 2274 3443
4035 2322 3491
4035 2322 3459
4019 2322 3491
4035 2386 3491
4035 2402 3507
4019 2386 3491
4019 2402 3523
4019 2418 3507
4019 2466 3507
4035 2498 3523
4019 2482 3507
160 64 176
176 80 224
208 80 240
368 96 288
592 96 400
849 112 512
1409 160 689
1697 176 753
2402 256 945
2882 288 1153
3186 304 1329
3491 352 1553
3731 400 1729
3843 416 1665
3923 496 1313
3443 737 240
2210 1009 224
288 80 272
496 96 352
560 96 368
801 96 496
1313 144 705
1713 176 785
2258 240 929
2690 256 1057
3074 320 1249
3378 336 1473
3667 384 1681
3811 400 1857
3971 464 1617
3571 721 304
2482 977 224
1617 1169 256
1473 1265 256
496 96 400
769 112 512
1233 144 672
1585 160 753
2194 224 881
2690 256 1057
3058 304 1249
3410 352 1505
3667 384 1681
3811 400 1857
3987 448 2033
4035 544 1665
3378 785 240
1921 1121 256
1617 1217 256
1585 1345 272
1697 1489 336
1137 128 592
1553 176 753
2130 224 865
2194 256 929
2626 288 1089
2994 320 1249
3282 336 1457
3667 384 1681
3843 416 1905
4003 480 2242
4019 544 2402
4035 672 2546
4019 656 1665
3523 961 272
2306 1329 352
1809 1489 336
1921 1633 384
2130 224 865
2610 256 1073
2930 304 1169
2930 320 1217
2994 320 1297
3394 368 1505
3523 400 1665
3795 432 1953
4003 512 2274
4019 544 2402
4067 689 2610
4067 833 2770
4035 849 2754
4035 849 2033
3763 1105 352
2386 1473 432
2146 1681 480
2882 288 1153
3266 320 1393
3459 368 1569
3459 400 1617
3491 432 1649
3539 432 1697
3747 448 1937
3859 512 2194
4035 576 2418
4035 672 2594
4067 833 2770
4035 897 2834
4035 945 2738
4035 961 2066
3555 1297 304
2690 1601 432
2210 1857 448
3459 368 1569
3747 384 1745
3875 448 2050
3859 496 2082
3779 512 2082
3795 544 2194
3923 496 2274
3987 624 2434
4067 737 2690
4035 817 2754
4035 897 2834
4035 1009 2930
4067 1057 2850
4067 1041 2418
3971 1297 592
2834 1649 448
2354 1953 528
3891 432 2001
3955 512 2258
4035 592 2434
3891 608 2386
3891 656 2434
3907 705 2530
3891 705 2530
3987 737 2610
3987 849 2770
3987 929 2834
3971 1009 2866
3987 1105 2962
3971 1185 3058
3987 1297 3042
4067 1233 2594
4003 1505 753
3122 1841 544
4035 592 2434
4067 721 2658
4067 833 2802
3987 865 2754
3987 897 2802
3987 929 2818
4035 897 2834
4067 913 2850
4035 929 2866
4035 1009 2930
4035 1089 2978
4035 1201 3058
4067 1297 3106
4035 1361 3122
4035 1457 3074
4067 1409 2530
3987 1825 624
4035 817 2738
4067 913 2850
4067 993 2898
3987 1041 2866
4067 1041 2946
4067 1073 2946
3971 1073 2898
4067 1089 2978
4035 1089 2946
4035 1105 2962
4067 1201 3074
3971 1313 3074
3987 1409 3154
3987 1505 3186
4067 1553 3074
4035 1473 2402
3811 2050 384
4035 929 2866
4035 1073 2962
4035 1137 2978
4035 1169 3042
3971 1185 2978
4035 1201 3042
4067 1233 3074
3971 1249 3010
4035 1249 3074
4067 1313 3106
4035 1281 3090
3971 1393 3106
3987 1505 3202
4067 1585 3234
4035 1665 3186
4019 1665 2834
4035 1905 1409
3987 1185 2962
4035 1233 3058
4067 1345 3122
4067 1361 3122
3971 1377 3074
3987 1425 3122
3987 1441 3122
3971 1441 3106
4067 1473 3186
4067 1505 3186
4067 1521 3202
4067 1521 3202
3987 1601 3218
4067 1713 3282
3971 1841 3282
4035 1921 3314
3971 2033 3234
4035 1329 3122
4035 1409 3154
4067 1521 3202
4067 1521 3186
3987 1569 3154
4067 1553 3202
4067 1585 3218
4067 1617 3234
4067 1633 3234
4067 1633 3234
4067 1665 3234
3987 1713 3234
4035 1713 3266
4035 1857 3298
4035 2001 3346
4035 2098 3410
4019 2162 3282
4067 1521 3202
4067 1585 3218
4035 1713 3266
4035 1729 3282
4035 1777 3282
4035 1793 3282
3971 1825 3266
4035 1825 3282
4035 1857 3314
3971 1905 3298
4035 1937 3314
3971 1937 3298
4035 1969 3330
4035 2017 3378
4035 2082 3394
4035 2210 3443
3955 2290 3378
3987 1729 3186
3971 1841 3218
3971 2001 3266
3971 2017 3282
3971 2033 3282
4035 2033 3330
4035 2082 3378
3971 2098 3346
3971 2098 3346
3971 2162 3394
3971 2178 3410
4019 2162 3410
3955 2210 3410
4035 2194 3443
3971 2274 3443
3955 2322 3459
4019 2434 3507
4035 1953 3330
3971 2098 3314
4019 2162 3410
4035 2194 3427
4035 2242 3443
4035 2274 3443
4035 2274 3459
3955 2290 3394
3971 2354 3443
4019 2290 3459
4035 2370 3491
4019 2370 3507
4019 2370 3491
4019 2402 3507
4035 2402 3523
3955 2434 3507
3955 2514 3523
4035 2178 3427
4035 2242 3443
4019 2354 3491
4019 2386 3491
4019 2402 3507
4019 2402 3507
4019 2434 3507
4019 2466 3507
4035 2482 3523
4019 2482 3507
4019 2498 3507
4019 2514 3523
4019 2530 3539
4035 2578 3555
4035 2594 3539
4035 2626 3555
4019 2626 3555
16 352 1553
0 416 1905
32 320 1969
416 96 608
672 112 672
1121 112 672
1681 192 833
2258 240 913
2498 256 977
2946 288 1233
3266 336 1409
3539 368 1585
3779 400 1665
3891 448 1441
3394 705 208
1713 977 208
1425 1089 224
144 224 1729
801 112 721
913 112 721
977 112 897
1409 176 1313
1889 192 929
2498 256 1025
2994 304 1217
3298 336 1441
3571 368 1601
3795 400 1649
3923 464 1489
3555 721 288
1937 977 208
1569 1089 240
1441 1249 240
