其他预设/【236】赛博朋克风调色预设/【后期菌】视频调色预设/3DL/Glitch 03.3dl
# LUT by SparkleStock. Enhanced with VOXCOLOR algorithms.
0 64 128 192 256 320 384 448 512 576 640 704 768 832 896 960 1023
0 0 0
96 16 96
144 16 144
256 32 256
320 32 320
480 80 432
865 128 608
1185 176 656
2001 208 689
2786 256 785
3042 256 881
3346 288 1169
3443 304 1297
3523 272 1409
3571 288 1633
3651 320 1633
3699 320 1265
128 16 128
144 16 144
256 32 256
336 32 352
480 80 432
785 112 560
1313 176 656
2001 208 689
2786 256 785
3090 256 961
3298 288 1105
3443 272 1313
3555 288 1537
3571 288 1649
3651 320 1649
3683 368 1105
3635 464 512
304 48 336
320 32 320
336 32 352
528 96 464
801 128 608
1313 160 656
2210 224 721
2786 256 785
3138 256 977
3346 256 1169
3459 272 1329
3555 288 1521
3571 288 1649
3603 304 1905
3683 320 1665
3683 432 833
3378 753 128
640 96 512
705 96 560
801 128 576
865 128 608
1329 176 689
2210 224 721
2866 256 801
3090 256 929
3314 256 1105
3475 288 1377
3555 288 1537
3571 304 1713
3635 320 2001
3699 320 1953
3699 400 1249
3555 640 160
2802 1233 112
1649 176 656
1809 192 689
2001 208 689
2210 208 689
2386 224 721
2866 256 833
3122 256 961
3314 272 1105
3475 288 1377
3555 288 1569
3587 304 1713
3651 320 2033
3699 368 2322
3731 320 1985
3683 560 640
3314 961 96
2722 1409 96
2866 256 801
2898 256 833
2994 272 865
3074 272 913
3122 256 961
3122 256 961
3362 288 1185
3475 288 1377
3571 304 1569
3603 320 1793
3635 304 2001
3699 352 2306
3779 416 2546
3779 432 2450
3699 512 1265
3571 817 176
2578 1649 144
3346 272 1185
3410 288 1249
3443 304 1297
3459 288 1313
3475 288 1377
3459 272 1329
3491 288 1409
3571 304 1569
3587 320 1793
3651 320 2098
3699 352 2306
3779 416 2546
3811 496 2770
3795 544 2802
3811 624 2898
3779 624 2258
3699 849 512
3539 288 1505
3571 304 1569
3571 288 1601
3571 288 1633
3587 304 1697
3587 320 1713
3587 304 1777
3603 304 1809
3651 320 2098
3699 352 2306
3779 432 2562
3811 496 2802
3811 560 2818
3843 624 2898
3843 753 3026
3811 737 2498
3747 929 993
3635 288 1921
3651 320 2033
3667 320 2114
3667 336 2194
3651 320 2114
3683 336 2210
3667 336 2226
3731 368 2338
3699 352 2306
3779 432 2578
3811 480 2770
3811 576 2866
3843 672 2962
3843 753 3026
3843 865 3090
3811 849 2690
3763 1057 1025
3747 384 2434
3747 400 2466
3763 400 2498
3779 432 2562
3795 448 2642
3795 464 2674
3795 480 2706
3795 480 2770
3811 496 2802
3795 512 2802
3795 576 2834
3843 705 2978
3843 769 3026
3843 865 3074
3843 1025 3154
3843 1121 3106
3811 1057 2690
3795 480 2722
3795 512 2802
3811 560 2834
3811 560 2834
3811 576 2866
3811 592 2882
3843 624 2898
3843 640 2914
3843 624 2898
3843 672 2962
3843 721 2978
3859 801 3042
3859 945 3106
3843 1025 3122
3811 1169 3186
3811 1265 3202
3811 1361 3202
3843 656 2930
3811 672 2962
3843 721 2994
3843 721 2994
3843 721 2994
3843 769 3026
3843 801 3042
3859 833 3074
3859 849 3090
3843 865 3074
3859 945 3106
3843 945 3122
3843 1025 3122
3843 1169 3186
3811 1281 3218
3795 1409 3218
3811 1489 3186
3843 865 3090
3843 897 3090
3843 945 3106
3843 945 3106
3843 977 3106
3859 1025 3154
3843 1025 3122
3843 1025 3138
3843 1105 3186
3843 1089 3154
3843 1169 3186
3811 1169 3186
3843 1201 3202
3811 1329 3218
3811 1457 3250
3795 1585 3266
3795 1681 3314
3843 1089 3154
3843 1169 3186
3811 1153 3154
3811 1185 3186
3811 1185 3186
3811 1217 3202
3795 1217 3186
3811 1265 3202
3811 1329 3218
3795 1313 3202
3795 1345 3202
3811 1393 3234
3795 1409 3218
3795 1457 3234
3795 1585 3266
3795 1681 3298
3763 1825 3314
3811 1345 3218
3811 1361 3218
3811 1409 3218
3795 1457 3234
3811 1473 3250
3795 1489 3234
3795 1521 3234
3795 1553 3250
3795 1553 3250
3795 1633 3298
3795 1633 3266
3795 1649 3298
3795 1681 3298
3795 1681 3298
3779 1713 3314
3763 1905 3330
3763 2050 3346
3795 1633 3298
3795 1649 3266
3795 1649 3266
3779 1681 3298
3779 1729 3314
3795 1761 3314
3779 1729 3298
3779 1793 3314
3779 1841 3330
3779 1889 3330
3763 1905 3330
3763 1953 3346
3779 2017 3362
3779 2033 3378
3763 2066 3378
3763 2050 3346
3763 2194 3410
3763 1825 3314
3779 1889 3330
3779 1953 3346
3779 1985 3362
3763 2017 3362
3763 2033 3346
3747 2050 3346
3763 2114 3378
3763 2130 3378
3747 2130 3378
3763 2194 3410
3763 2210 3427
3763 2242 3427
3747 2274 3427
3763 2354 3443
3747 2338 3427
3763 2370 3443
96 16 96
96 16 96
192 16 192
320 48 336
400 48 368
560 96 480
945 144 640
1473 176 672
2418 224 721
2962 256 865
3186 256 977
3362 288 1185
3491 272 1393
3555 288 1553
3635 288 1569
3667 320 993
3539 512 192
176 16 176
272 32 288
384 48 400
560 96 464
945 128 608
1457 176 672
2418 240 721
2994 272 865
3138 256 977
3378 288 1201
3523 272 1409
3555 288 1569
3603 320 1649
3667 320 1489
3667 400 737
3026 849 96
2370 1185 96
336 48 368
512 80 448
560 96 480
945 144 640
1649 192 672
2386 224 721
2914 256 865
3202 256 993
3362 288 1185
3523 304 1409
3571 288 1601
3587 288 1729
3683 320 1649
3683 416 785
3346 721 128
2498 1233 96
1345 1393 288
865 128 608
1329 176 689
1489 176 672
1649 192 672
2498 240 753
2898 256 833
3218 256 1025
3410 288 1249
3475 272 1393
3571 304 1617
3603 304 1873
3651 320 2017
3731 320 1537
3651 480 560
3202 945 96
2338 1345 112
1377 1505 320
2001 208 689
2786 256 785
2866 256 801
2914 256 865
2994 272 865
3218 256 1025
3410 288 1265
3523 272 1409
3571 304 1617
3603 304 1809
3667 336 2194
3731 352 2338
3763 384 2322
3731 480 1329
3555 753 160
2306 1569 176
1409 1681 368
3042 256 881
3266 272 1105
3314 272 1105
3362 272 1185
3378 256 1201
3410 272 1265
3539 304 1457
3571 288 1585
3603 304 1809
3667 320 2162
3731 368 2386
3779 432 2562
3795 496 2722
3811 592 2866
3763 528 1697
3667 849 320
3138 1697 96
3443 304 1313
3523 272 1409
3539 288 1473
3555 288 1505
3571 288 1569
3571 304 1617
3571 288 1633
3603 304 1905
3651 320 2146
3747 400 2418
3795 448 2642
3795 480 2722
3811 592 2882
3843 672 2898
3779 640 2194
3699 897 480
3362 1713 96
3571 288 1585
3603 304 1905
3635 320 1985
3635 304 2001
3651 320 2098
3651 320 2114
3667 320 2162
3667 320 2162
3731 368 2370
3779 448 2642
3811 528 2818
3795 576 2834
3843 656 2930
3843 769 2978
3795 737 2498
3747 1057 464
3410 1921 112
3651 320 2033
3747 368 2370
3747 400 2418
3747 384 2434
3763 400 2482
3779 416 2546
3779 432 2562
3779 432 2578
3779 464 2658
3811 512 2818
3811 576 2866
3811 672 2962
3843 817 3074
3843 945 3106
3859 993 3042
3795 961 2466
3763 1265 544
3779 432 2562
3795 480 2706
3811 496 2802
3795 512 2770
3811 528 2802
3811 544 2818
3811 560 2866
3811 576 2834
3811 592 2834
3843 608 2898
3843 705 2978
3843 801 3042
3843 945 3122
3843 1025 3138
3811 1153 3154
3795 1297 3202
3811 1297 2866
3811 560 2834
3811 608 2882
3811 640 2914
3843 689 2962
3843 672 2962
3843 705 2978
3843 753 3026
3843 769 3026
3859 801 3042
3843 817 3074
3843 833 3042
3843 961 3122
3843 1089 3154
3811 1201 3202
3811 1281 3202
3811 1457 3234
3811 1409 2962
3811 705 2978
3859 833 3074
3843 833 3042
3843 865 3090
3843 865 3090
3843 945 3122
3843 945 3106
3843 977 3122
3843 1009 3122
3843 1041 3154
3843 1025 3138
3843 1105 3154
3811 1217 3202
3795 1345 3202
3811 1489 3250
3795 1585 3234
3811 1665 3090
3843 977 3122
3843 1105 3154
3843 1121 3186
3811 1137 3154
3811 1169 3154
3811 1153 3154
3811 1185 3186
3811 1201 3202
3811 1249 3202
3811 1281 3218
3811 1329 3218
3795 1297 3202
3795 1345 3202
3811 1473 3250
3795 1569 3250
3779 1729 3314
3779 1825 3298
3843 1169 3202
3795 1265 3202
3795 1297 3202
3811 1393 3234
3811 1393 3234
3795 1409 3202
3811 1457 3250
3811 1489 3250
3811 1489 3234
3795 1521 3234
3795 1537 3234
3795 1585 3266
3795 1617 3250
3795 1649 3266
3779 1777 3314
3763 1953 3346
3763 2098 3378
3811 1457 3234
3795 1537 3234
3795 1585 3266
3795 1633 3298
3795 1649 3298
3795 1649 3298
3795 1649 3298
3779 1681 3298
3779 1697 3298
3779 1777 3314
3779 1793 3314
3779 1825 3314
3763 1873 3314
3763 1889 3330
3763 1921 3330
3763 2130 3410
3763 2258 3427
3795 1649 3266
3779 1825 3330
3779 1889 3330
3763 1889 3330
3763 1921 3330
3763 2017 3362
3763 2001 3330
3763 2050 3346
3763 2066 3362
3763 2130 3410
3763 2162 3410
3763 2194 3410
3763 2194 3410
3763 2210 3410
3763 2242 3427
3747 2258 3410
3747 2418 3459
3779 1985 3346
3763 2130 3410
3763 2162 3410
3763 2194 3410
3763 2226 3427
3747 2226 3410
3763 2242 3427
3763 2274 3427
3747 2322 3427
3763 2370 3443
3747 2418 3443
3747 2386 3443
3747 2450 3459
3747 2466 3459
3731 2498 3459
3747 2562 3491
3747 2530 3475
192 16 208
240 32 256
256 32 272
336 32 352
512 96 464
769 112 576
1489 176 672
2001 208 689
2866 256 801
3138 256 977
3314 256 1105
3459 288 1329
3555 304 1521
3603 288 1473
3667 320 961
3523 496 192
2770 881 96
288 32 320
432 64 400
480 80 432
705 96 560
1329 176 689
2001 208 689
2706 256 785
3042 256 881
3266 288 1057
3410 288 1265
3539 288 1489
3571 288 1585
3667 304 1345
3555 448 272
2994 801 96
1697 1233 176
1153 1313 320
416 80 448
689 96 560
1249 176 656
1777 192 672
2642 256 753
3042 256 881
3234 272 1041
3427 288 1297
3539 288 1489
3571 288 1585
3635 320 1713
3699 320 1345
3491 560 128
2370 1185 96
1617 1297 176
1281 1409 320
1329 1585 368
1089 160 624
1681 192 672
2562 256 753
2642 256 801
3074 272 913
3266 272 1073
3410 272 1265
3539 288 1489
3571 288 1649
3635 304 1905
3667 320 2162
3747 384 2370
3699 416 1297
3571 672 176
2754 1425 96
1617 1569 256
1489 1793 384
2562 256 753
2994 272 865
3202 256 993
3234 256 1041
3266 272 1089
3459 304 1329
3539 288 1473
3571 304 1697
3635 320 1985
3667 320 2162
3747 400 2466
3795 464 2674
3795 480 2690
3763 496 1697
3635 801 256
2898 1649 112
2098 1905 240
3154 256 977
3362 272 1185
3491 272 1393
3523 288 1441
3539 288 1489
3555 304 1521
3587 304 1697
3635 304 1921
3683 336 2226
3747 384 2434
3795 480 2690
3795 528 2802
3811 560 2706
3763 608 1729
3603 961 176
3074 1873 128
1985 2098 304
3491 272 1393
3555 288 1537
3603 320 1793
3635 320 1873
3603 304 1905
3635 320 1985
3635 304 2001
3699 352 2258
3779 400 2498
3779 464 2658
3811 528 2802
3811 640 2914
3811 672 2818
3795 672 2274
3731 961 480
3234 1841 96
2274 2242 256
3571 304 1713
3651 320 2033
3683 336 2242
3683 352 2274
3699 352 2306
3747 400 2418
3747 384 2434
3763 400 2466
3811 480 2706
3843 560 2834
3811 624 2882
3843 705 2978
3843 817 3074
3859 945 3074
3811 929 2610
3763 1169 560
3523 2066 128
3683 336 2242
3763 400 2482
3795 480 2706
3795 480 2754
3795 496 2802
3811 528 2818
3811 528 2802
3811 544 2818
3811 560 2834
3811 640 2914
3843 721 2994
3843 849 3074
3843 977 3122
3843 1073 3138
3811 1185 3106
3811 1105 2562
3763 1489 512
3779 464 2658
3811 512 2818
3811 608 2898
3843 640 2914
3843 656 2930
3843 672 2962
3843 656 2930
3843 721 2994
3843 705 2978
3843 721 2994
3843 849 3090
3843 977 3106
3843 1121 3186
3811 1233 3186
3811 1329 3122
3811 1201 2418
3763 1809 304
3811 576 2834
3843 689 2962
3843 785 3026
3843 801 3026
3843 833 3042
3843 865 3074
3859 881 3106
3843 865 3090
3843 913 3106
3843 977 3122
3843 977 3106
3811 1089 3154
3811 1217 3202
3811 1345 3218
3811 1473 3202
3795 1489 2962
3811 1665 1329
3843 801 3042
3843 865 3090
3843 1041 3154
3843 1057 3154
3843 1073 3154
3843 1121 3186
3811 1137 3186
3811 1153 3154
3811 1185 3202
3811 1217 3202
3811 1265 3202
3811 1281 3218
3795 1361 3218
3811 1521 3250
3795 1649 3266
3779 1729 3298
3779 1905 3250
3843 1009 3138
3811 1137 3154
3811 1265 3202
3811 1265 3202
3795 1265 3202
3795 1297 3202
3811 1345 3218
3811 1393 3234
3811 1409 3234
3795 1457 3234
3795 1473 3250
3811 1505 3250
3795 1521 3234
3795 1665 3298
3779 1825 3330
3763 1985 3346
3763 2114 3314
3811 1265 3218
3795 1361 3218
3795 1521 3250
3795 1569 3250
3795 1585 3266
3795 1617 3266
3795 1633 3298
3795 1649 3266
3795 1681 3314
3795 1697 3298
3779 1761 3314
3779 1729 3298
3779 1793 3314
3779 1825 3330
3763 1953 3346
3763 2130 3410
3747 2258 3362
3811 1505 3250
3795 1633 3298
3779 1777 3314
3779 1793 3314
3779 1825 3330
3763 1873 3330
3779 1937 3346
3779 1985 3346
3763 1953 3330
3779 2033 3362
3763 2066 3378
3763 2066 3346
3763 2114 3378
3763 2146 3378
3763 2194 3410
3747 2306 3427
3747 2482 3459
3779 1777 3314
3763 1953 3346
3763 2066 3346
3763 2130 3378
3763 2146 3410
3763 2194 3410
3763 2210 3427
3763 2210 3410
3763 2242 3427
3747 2274 3410
3763 2354 3443
3747 2354 3443
3747 2370 3443
3747 2418 3459
3747 2450 3475
3747 2466 3459
3731 2578 3491
3779 2098 3378
3763 2194 3410
3747 2338 3427
3747 2386 3443
3747 2418 3459
3747 2418 3443
3747 2466 3475
3747 2498 3459
3747 2562 3491
3731 2562 3475
3731 2578 3491
3731 2594 3491
3731 2642 3523
3747 2658 3539
3747 2690 3539
3747 2722 3555
3731 2754 3555
224 400 1297
272 480 1665
320 368 1569
352 96 608
560 96 689
1025 160 705
1985 208 737
2674 256 753
2898 256 833
3154 256 1025
3346 288 1201
3491 288 1409
3571 288 1457
3651 320 1185
3491 480 176
2226 945 80
1409 1153 192
336 304 1425
689 112 737
785 112 769
865 128 897
1345 176 1345
2306 224 785
2898 256 849
3218 272 1025
3378 288 1217
3523 304 1409
3587 288 1425
3667 320 1201
3555 448 272
2482 913 80
1665 1153 160
1137 1297 320
