其他预设/【236】赛博朋克风调色预设/【后期菌】视频调色预设/3DL/Glitch 05_S.3dl
# LUT by SparkleStock. Enhanced with VOXCOLOR algorithms.
0 128 256 384 512 640 768 896 1023
0 384 144
0 384 192
48 384 224
528 400 304
1089 400 416
1793 400 624
2530 416 961
2994 448 1217
3507 496 993
48 400 224
80 384 224
512 400 304
1153 400 464
1953 400 689
2610 400 977
3042 432 1233
3475 464 1265
2722 721 256
929 400 400
1089 400 416
1297 400 448
1937 400 689
2642 416 1009
3106 448 1297
3587 480 1665
3443 624 624
2066 1265 368
2290 416 833
2530 416 961
2642 416 1009
2642 448 1041
3138 448 1329
3571 480 1665
3859 512 2050
3907 560 2194
3475 945 705
3266 432 1425
3427 464 1537
3346 496 1537
3523 464 1601
3571 464 1649
3859 512 2050
3923 592 2242
3987 624 2418
3747 1057 1025
3843 512 2001
3891 544 2114
3795 576 2114
3907 576 2194
3907 560 2194
3939 592 2274
3907 689 2482
3971 753 2578
3971 865 2642
3987 624 2434
3987 656 2450
3891 705 2434
3971 672 2482
3987 737 2546
3987 753 2562
3987 769 2626
3987 913 2754
3971 1089 2898
3907 897 2642
3891 913 2642
3907 961 2706
3971 961 2754
3891 1025 2786
3891 1089 2850
3891 1137 2898
3891 1153 2930
3971 1329 3042
3971 1169 2962
3987 1265 3026
3987 1313 3026
3971 1329 3010
3987 1377 3058
3987 1457 3090
4003 1505 3122
4003 1585 3154
4003 1585 3154
0 384 208
16 400 224
272 400 256
849 400 400
1601 400 560
2274 400 801
2866 448 1137
3362 496 817
1921 833 256
160 400 256
753 400 384
1441 400 480
2162 416 769
2802 432 1105
3234 448 1297
2978 576 256
1585 1249 256
1697 1585 320
1393 400 480
2017 416 721
2146 432 785
2706 448 1105
3298 448 1457
3683 496 1745
3859 528 1953
3394 801 368
2098 1809 432
2626 432 1009
3106 464 1329
3090 496 1377
3266 464 1473
3731 512 1777
3875 528 2098
3907 592 2130
3571 1009 592
2338 2098 496
3523 464 1633
3827 512 1969
3779 544 2050
3859 528 2066
3875 528 2130
3923 592 2322
3987 656 2482
3971 769 2466
3731 1505 785
3891 544 2146
3939 592 2338
3907 640 2338
3987 624 2450
3971 640 2450
3971 656 2450
3923 801 2626
3971 945 2658
3907 1553 1329
3971 672 2530
3987 801 2642
3907 849 2610
3987 849 2690
3971 865 2706
3987 929 2722
3971 961 2754
3971 1185 2978
3971 1425 2882
3923 977 2690
3907 1201 2914
3907 1217 2930
3987 1265 3010
3907 1329 2994
3923 1377 3042
3923 1425 3042
3923 1489 3106
3987 1713 3186
4003 1361 3058
3971 1569 3106
3987 1633 3186
3987 1697 3202
4003 1793 3218
3987 1825 3234
3987 1857 3282
3987 1953 3298
3987 2001 3314
0 432 304
0 448 336
16 400 1313
929 400 1057
1889 416 817
2450 400 1345
3266 464 897
1553 833 224
1329 1249 256
16 496 705
1489 416 929
1537 416 977
2258 416 1121
2914 448 1329
3475 464 1601
3122 608 304
1697 1489 304
1857 1745 352
1473 448 1201
2066 528 1089
2450 576 1233
2866 592 1553
3362 592 1857
3779 576 2001
3475 881 496
2178 1921 400
2274 2146 512
2722 528 1233
2866 672 1361
2978 753 1569
3122 721 1761
3491 689 2162
3859 624 2354
3923 753 1793
3138 1809 432
2562 2386 576
3571 528 1713
3459 721 1857
3394 817 2050
3443 849 2194
3651 769 2370
3971 705 2546
3987 817 2578
3875 1393 1201
3010 2562 576
3939 592 2290
3875 721 2386
3827 833 2482
3763 897 2546
3923 849 2642
3971 817 2642
3923 1057 2850
3987 1313 2466
3715 2418 624
3987 753 2578
3971 849 2674
3907 1121 2866
3971 1105 2898
3971 1153 2962
3955 1169 2962
3987 1233 2994
3987 1489 3042
3987 1969 2290
3923 1105 2818
3923 1329 2994
3907 1521 3042
3987 1553 3138
3923 1633 3138
3923 1681 3122
3923 1777 3202
3939 1841 3250
3971 2130 2914
3971 1473 3090
3987 1745 3218
3987 2001 3314
3971 2050 3314
3987 2146 3346
3987 2210 3362
3971 2226 3362
3971 2322 3410
3971 2386 3427
32 528 560
64 528 592
160 544 721
160 560 865
48 737 1473
16 961 1969
3042 480 785
1393 1089 240
1505 1409 272
192 705 881
368 801 1137
448 801 1345
400 769 2066
1649 512 2162
2770 480 2033
2658 865 288
1777 1649 336
2033 1873 384
320 961 1217
544 1073 1505
608 1233 1857
2066 672 1921
2642 624 2194
3346 624 2370
3571 961 640
2322 2033 400
2450 2226 528
304 1217 1873
753 1169 1761
2033 961 1729
2610 945 2017
2978 897 2402
3651 833 2562
3859 1233 1297
2914 2402 528
2866 2626 624
2178 785 2017
2882 961 1793
2962 1105 1905
3090 1137 2130
3346 1009 2402
3763 961 2674
3971 1153 2242
3346 2530 576
3106 2834 640
3635 721 2418
3507 961 2322
3475 1169 2290
3491 1297 2578
3715 1201 2770
3971 1105 2898
3923 1329 3010
3987 1825 2033
3507 2914 705
3971 801 2786
3939 1025 2802
3939 1217 2930
3923 1505 3042
3987 1505 3122
3971 1521 3090
3971 1569 3106
3987 2114 2450
3763 3026 801
3923 1233 2914
3923 1441 3010
3939 1665 3074
4003 1953 3298
3939 2033 3266
3939 2050 3298
3923 2146 3330
3923 2194 3346
3955 2578 2818
3987 1601 3154
3987 1905 3298
3971 2162 3346
3971 2434 3459
3971 2482 3459
3971 2546 3475
3971 2594 3491
3971 2610 3507
3971 2786 3266
80 721 1057
240 705 1089
368 705 1185
304 737 1313
176 849 1425
0 1169 1777
16 1537 1585
1329 1297 240
1681 1569 304
384 945 1265
672 1025 1425
785 977 1537
737 1057 1809
528 1153 2130
288 1505 2642
144 1953 2402
1793 1793 352
2162 2001 400
576 1201 1361
865 1313 1489
977 1425 1793
977 1409 2162
849 1521 2690
672 1697 3074
3074 1249 1217
2546 2130 448
2594 2370 576
576 1537 1617
961 1665 1601
1073 1745 1969
1137 1777 2386
1105 1761 2802
3074 1137 2882
3459 1601 1329
2994 2530 560
3010 2722 672
576 1857 2130
945 1937 2050
1297 1873 2178
2354 1553 2434
2994 1441 2818
3667 1249 3090
3939 1713 1761
3410 2834 672
3362 3122 753
737 2001 2882
1361 2017 2626
2562 1729 2610
3410 1505 2754
3667 1505 3074
3891 1441 3026
3939 1649 3122
3955 2466 1265
3555 3250 817
1505 2001 3491
2882 1777 3282
3827 1425 3058
3763 1697 3122
3939 1905 3218
3987 1905 3266
3987 1953 3282
3971 2386 2882
3827 3298 961
3971 1329 3234
3955 1569 3234
3971 1857 3218
3971 2098 3330
3955 2434 3427
3939 2434 3427
3955 2546 3459
3939 2626 3250
3939 3282 1329
3987 1761 3250
3971 2114 3330
3971 2338 3427
3971 2594 3491
3955 2834 3523
3955 2898 3555
3971 2978 3571
3955 3042 3459
3987 3250 2866
80 1009 1537
336 961 1521
400 977 1633
384 1057 1761
224 1185 1937
48 1313 2001
32 1681 2418
224 1969 865
1793 1697 336
496 1169 1601
849 1265 1697
1009 1201 1809
977 1249 2066
737 1441 2418
400 1697 2658
224 2162 2850
1649 2146 416
2274 2146 448
721 1473 1681
1137 1489 1681
1265 1585 1969
1265 1601 2258
1105 1729 2658
721 2066 3106
656 2434 2594
2386 2386 496
2754 2498 608
849 1809 1873
1233 1825 1793
1345 1905 2050
1345 2033 2450
1249 2178 2882
913 2402 3394
977 2642 3394
2866 2770 608
3122 2818 721
769 2178 2290
1137 2258 2114
1329 2354 2258
1425 2434 2562
1377 2530 3026
1329 2610 3507
1681 2866 3282
3266 3090 721
3475 3218 785
608 2530 2914
945 2706 2786
1153 2706 2770
1505 2610 2930
1793 2626 3250
3619 1985 3475
3795 2130 2866
3827 3154 881
3731 3443 929
592 2978 3747
897 2994 3523
1697 2706 3491
2033 2818 3459
3699 2162 3427
3731 2338 3346
3827 2370 3394
3955 2978 1857
3859 3539 1025
1425 2818 3699
2033 2754 3715
3090 2546 3731
3907 2242 3635
3827 2594 3362
3795 2802 3459
3923 2834 3507
3939 2962 3443
3971 3443 1905
3491 2274 3747
3779 2338 3795
3955 2418 3667
3971 2658 3571
3955 2978 3571
3971 3202 3651
3955 3266 3651
3971 3346 3571
3987 3587 2546
48 1393 2066
208 1409 2114
368 1393 2146
320 1441 2274
160 1633 2450
64 1745 2530
96 1809 2610
192 2226 2450
1761 1889 384
448 1569 2130
865 1601 2194
1073 1521 2226
993 1617 2530
769 1809 2802
448 2130 3074
288 2338 3186
416 2626 2898
2194 2386 480
785 1809 2226
1185 1745 2098
1409 1777 2242
1409 1841 2562
1153 2066 2978
737 2466 3410
480 2786 3619
881 2898 2434
2754 2690 656
865 2130 2418
1345 2066 2162
1569 2114 2274
1681 2194 2578
1489 2354 3010
1105 2674 3475
849 2914 3683
1201 3202 2930
3122 3010 769
817 2498 2802
1217 2546 2594
1601 2498 2402
1777 2498 2546
1793 2594 2898
1537 2834 3410
1361 3010 3683
2274 3234 2033
3539 3282 817
705 2882 3427
1009 2930 3154
1345 2962 2914
1761 2898 2754
1873 2930 3010
1953 3042 3330
2033 3090 3619
3507 3266 1201
3763 3475 961
672 3090 3779
785 3186 3747
1297 3202 3298
1697 3218 3090
2033 3202 3138
2546 3138 3394
2546 3346 3651
3683 3507 1521
3955 3731 1169
977 3266 3763
1233 3314 3779
1681 3410 3507
2066 3443 3362
2786 3298 3314
3010 3394 3507
3827 3154 3571
3939 3635 1569
3987 3779 1345
1553 3314 3843
1873 3427 3875
2338 3427 3875
2882 3410 3763
3907 3122 3571
3923 3362 3667
3987 3555 3667
3987 3619 3459
3987 3731 2786
112 1857 2690
208 1841 2658
224 1905 2754
224 1953 2818
192 2017 2914
224 2130 2994
256 2210 3058
272 2242 3106
400 2546 2450
336 2098 2882
689 2130 2898
849 2033 2866
817 2130 3026
640 2354 3250
400 2610 3459
416 2658 3507
448 2722 3555
721 2914 3010
640 2242 2898
1025 2258 2802
1217 2322 2898
1249 2386 3090
1025 2578 3427
833 2818 3635
721 2930 3731
656 3074 3779
1857 3010 1521
689 2562 3186
1153 2578 2930
1505 2466 2770
1681 2482 2882
1697 2498 3090
1473 2706 3459
1281 2882 3667
1009 3218 3747
2914 3218 865
689 2898 3539
1073 2882 3218
1617 2754 2802
2114 2610 2658
2226 2674 2930
2098 2786 3298
1905 2930 3587
1601 3282 3651
3330 3443 881
672 3090 3779
1073 3122 3443
1729 2994 2866
2226 2914 2690
2434 2962 2914
2594 3010 3218
2530 3106 3539
2017 3459 3715
3571 3635 1169
833 3234 3827
1297 3266 3523
1793 3250 3042
2322 3234 2818
2658 3250 2994
2834 3282 3234
2882 3394 3539
2802 3619 3186
3971 3763 1217
1233 3330 3763
1489 3394 3715
1921 3443 3298
2434 3491 3106
2786 3523 3138
2962 3555 3346
3138 3619 3651
3907 3763 1825
4003 3827 2386
1649 3459 3859
2066 3491 3891
2370 3571 3827
2754 3635 3555
3154 3683 3571
3427 3715 3683
3619 3779 3843
3987 3827 3250
3987 3843 3250
240 2194 3058
256 2242 3090
288 2274 3154
304 2354 3218
336 2402 3266
352 2450 3314
384 2498 3362
400 2562 3410
400 2578 3427
352 2434 3314
448 2722 3539
528 2706 3539
560 2770 3587
512 2850 3667
544 2914 3715
592 2898 3731
592 2994 3747
608 3010 3683
448 2722 3555
672 2882 3635
881 2914 3555
945 2882 3555
1089 2834 3539
1073 2898 3667
881 3106 3763
801 3218 3827
1089 3218 3362
624 2930 3667
785 3058 3667
1265 2898 3330
1761 2786 3202
1937 2674 3218
1889 2754 3443
1713 2930 3683
1377 3250 3843
1361 3410 3587
753 3090 3699
1121 3106 3507
1777 2898 3026
2322 2802 2882
2674 2754 2978
2642 2818 3266
2498 2962 3571
2194 3218 3795
1681 3667 3731
865 3234 3827
1441 3186 3410
2130 3074 2866
2658 2994 2722
2978 2994 2962
3138 3010 3186
3058 3090 3491
2850 3314 3747
2001 3731 3843
1169 3298 3859
1697 3330 3410
2338 3298 2978
2898 3266 2802
3154 3250 2914
3298 3298 3202
3443 3410 3507
2866 3651 3779
3795 3827 1633
1521 3394 3747
1937 3491 3747
2578 3523 3282
3042 3539 2994
3266 3555 3058
3459 3619 3298
3539 3683 3619
3683 3763 3843
3955 3891 2754
1841 3475 3859
2290 3539 3891
2658 3619 3747
3026 3683 3523
3282 3747 3507
3491 3779 3683
3715 3827 3827
3891 3875 3779
3987 3875 3859
