其他预设/【236】赛博朋克风调色预设/【后期菌】视频调色预设/3DL/Glitch 06.3dl
# LUT by SparkleStock. Enhanced with VOXCOLOR algorithms.
0 128 256 384 512 640 768 896 1023
16 16 48
208 64 208
496 160 432
1281 304 801
1937 352 977
2642 416 1153
3138 448 1425
3394 464 1649
3571 464 1441
480 160 432
560 160 464
1233 288 817
2050 368 1009
2738 416 1233
3202 464 1441
3394 464 1665
3571 464 1681
3026 961 256
1777 336 929
1937 352 977
2114 368 1009
2722 416 1217
3202 464 1457
3427 464 1697
3603 464 2098
3539 753 993
2578 1441 224
3010 416 1345
3138 464 1425
3202 464 1457
3250 464 1473
3443 464 1729
3587 464 2082
3731 480 2530
3779 544 2674
3571 1137 833
3507 464 1809
3555 464 1937
3539 464 1905
3571 464 1985
3587 448 2082
3731 480 2514
3795 560 2738
3827 656 2850
3683 1281 1313
3715 464 2466
3779 496 2594
3779 512 2610
3795 528 2674
3779 544 2690
3795 576 2754
3811 689 2882
3811 865 2994
3811 1073 3042
3811 640 2866
3811 689 2882
3811 705 2882
3811 769 2898
3827 801 2962
3827 849 2994
3827 897 3026
3811 1089 3122
3811 1329 3218
3827 1025 3090
3811 1073 3090
3811 1121 3122
3811 1153 3122
3795 1217 3138
3795 1265 3154
3811 1329 3202
3795 1345 3202
3779 1601 3266
3795 1425 3218
3795 1537 3250
3795 1553 3250
3779 1601 3250
3779 1665 3298
3795 1729 3314
3779 1793 3314
3779 1841 3362
3779 1857 3362
272 96 288
352 128 368
897 240 689
1697 336 897
2434 400 1105
2962 416 1313
3314 464 1553
3523 464 1233
2514 1073 256
753 224 640
1553 336 881
2290 384 1057
2882 416 1281
3282 464 1537
3507 464 1713
3170 753 288
2001 1377 240
1985 1569 256
2242 400 1057
2818 416 1233
2930 432 1313
3282 464 1521
3507 464 1841
3635 464 2194
3715 464 2434
3459 1057 464
2370 1793 272
3218 464 1473
3443 464 1729
3491 464 1793
3507 464 1857
3667 464 2258
3731 464 2562
3779 576 2610
3555 1233 753
2530 2033 272
3571 464 2001
3715 464 2434
3731 480 2546
3731 464 2562
3747 496 2594
3779 576 2786
3811 721 2898
3811 897 2898
3651 1585 769
3747 496 2610
3795 608 2802
3795 608 2818
3827 656 2866
3795 689 2866
3811 705 2882
3811 897 3026
3811 1137 3074
3715 1777 1473
3811 737 2930
3827 945 3042
3811 977 3042
3827 1025 3090
3811 1073 3106
3811 1105 3122
3811 1153 3122
3795 1425 3234
3795 1697 3202
3811 1137 3138
3795 1393 3234
3795 1425 3234
3795 1505 3250
3779 1537 3250
3795 1601 3282
3779 1665 3282
3795 1729 3298
3731 2017 3378
3795 1617 3298
3747 1841 3346
3747 1905 3362
3747 2001 3378
3747 2082 3394
3747 2114 3394
3747 2178 3427
3747 2274 3443
3731 2306 3459
128 384 528
144 432 608
464 656 1777
1761 432 1697
2738 432 1345
3106 464 1713
3459 448 1345
2114 1089 240
1681 1345 256
288 737 1185
2418 432 1457
2562 432 1457
3122 464 1505
3427 464 1681
3555 464 1969
3362 833 448
2050 1521 240
2082 1697 288
2434 448 1729
3026 464 1617
3394 464 1729
3571 464 1985
3683 464 2322
3747 544 2514
3539 1121 672
2370 1873 272
2434 2033 288
3346 464 1745
3539 464 1985
3635 464 2258
3683 464 2322
3779 528 2658
3795 608 2802
3747 865 2274
3282 1841 208
2594 2226 272
3635 464 2226
3731 480 2562
3795 592 2786
3827 624 2834
3811 640 2834
3811 769 2946
3827 977 2994
3715 1649 1393
2978 2402 272
3795 592 2754
3811 689 2882
3811 881 3010
3811 913 3026
3827 977 3074
3811 993 3026
3811 1233 3170
3795 1521 2930
3603 2450 288
3827 865 3010
3811 1041 3090
3811 1329 3202
3795 1345 3202
3811 1393 3218
3795 1425 3202
3795 1473 3250
3779 1761 3282
3795 2322 2706
3811 1313 3170
3795 1521 3250
3779 1761 3298
3779 1825 3346
3779 1873 3362
3747 1937 3362
3747 2033 3378
3747 2098 3410
3747 2530 3250
3779 1745 3298
3747 2033 3378
3731 2306 3459
3715 2402 3459
3731 2466 3523
3731 2546 3539
3715 2562 3523
3715 2658 3555
3731 2706 3571
240 769 993
272 833 1025
304 897 1121
336 977 1249
432 1249 1825
480 1489 2290
3378 576 1233
1857 1265 240
1825 1457 256
352 1153 1425
416 1377 1713
464 1441 1873
624 1489 2658
2466 801 2738
3266 721 2354
3010 1121 304
2033 1633 288
2194 1809 288
464 1441 1873
528 1681 2450
560 1953 2738
3074 785 2690
3459 737 2658
3667 721 2722
3587 1201 833
2530 1969 256
2530 2146 272
576 1745 2658
1089 1745 3010
3090 913 2850
3635 785 2850
3699 849 2962
3843 833 3010
3699 1441 1585
2946 2306 256
2786 2418 272
2882 961 2882
3603 737 2754
3779 737 2898
3843 801 2978
3827 817 2978
3827 1057 3106
3795 1361 2738
3314 2418 256
2946 2594 272
3699 785 2898
3779 833 3010
3843 1009 3090
3827 1249 3202
3795 1281 3154
3795 1345 3202
3795 1569 3250
3779 2114 2370
3362 2818 304
3811 945 3138
3811 1217 3170
3795 1441 3250
3795 1729 3314
3779 1777 3346
3747 1809 3314
3747 1841 3346
3795 2466 2850
3539 2994 320
3795 1425 3234
3779 1665 3282
3747 1905 3346
3747 2290 3443
3731 2306 3443
3731 2322 3459
3715 2434 3491
3731 2498 3507
3747 2946 3122
3779 1873 3362
3747 2242 3443
3715 2498 3507
3731 2786 3587
3715 2834 3587
3731 2866 3603
3731 2946 3635
3731 2962 3651
3747 3106 3491
352 1201 1489
384 1233 1553
400 1313 1617
400 1345 1665
416 1409 1713
464 1665 2098
336 2001 1953
1665 1361 240
1969 1553 256
448 1489 1841
480 1777 2242
480 1809 2274
464 1873 2370
480 1905 2450
576 2226 2802
544 2418 2594
2001 1697 288
2322 1905 288
464 1777 2242
496 2082 2546
544 2370 2786
576 2370 2930
640 2418 3090
833 2530 3170
3378 1617 1393
2674 2098 256
2594 2258 272
496 2082 2546
528 2370 2802
624 2610 3090
833 2674 3250
1025 2658 3266
3459 1425 3234
3555 1857 1409
2994 2386 272
2882 2530 288
576 2386 2898
737 2530 3138
1297 2610 3282
2834 1777 3394
3507 1553 3378
3779 1313 3378
3731 1969 2033
3282 2722 288
3122 2882 320
1025 2642 3266
1793 2690 3410
2930 1953 3443
3747 1361 3394
3795 1553 3410
3795 1681 3298
3747 1905 3346
3795 2642 881
3234 3026 336
2194 2834 3507
2978 2178 3523
3779 1505 3410
3747 1793 3427
3747 2178 3427
3731 2242 3427
3731 2290 3443
3747 2786 3218
3507 3154 352
3795 1505 3427
3747 1793 3410
3747 2114 3410
3715 2434 3491
3731 2738 3587
3715 2754 3587
3731 2866 3603
3747 2962 3491
3699 3282 544
3747 2050 3394
3731 2434 3507
3715 2658 3555
3731 2946 3635
3747 3154 3667
3747 3170 3683
3779 3266 3715
3779 3282 3651
3779 3427 2962
432 1553 1905
464 1617 2017
480 1665 2098
464 1713 2162
464 1761 2258
464 1809 2290
512 2162 2594
576 2226 1681
2050 1665 288
464 1809 2306
512 2146 2594
528 2194 2658
496 2242 2658
528 2306 2722
544 2370 2786
576 2642 2882
1569 1953 448
2418 2017 288
496 2162 2594
528 2418 2834
592 2674 3010
608 2706 3042
608 2738 3106
656 2802 3154
801 2866 2818
2354 2162 304
2706 2354 288
560 2466 2866
592 2674 3026
672 2866 3234
705 2994 3314
753 3074 3394
817 3042 3427
1345 3154 3378
2722 2466 304
2946 2594 288
608 2722 3074
672 2866 3218
737 3074 3394
801 3202 3507
1169 3250 3539
1569 3234 3587
1985 3314 3362
3010 2818 320
3170 2978 352
689 2898 3234
769 3090 3410
913 3170 3491
1553 3202 3571
2178 3266 3587
3603 2146 3603
3731 2514 3202
3555 3074 336
3346 3202 400
833 3234 3523
1105 3282 3571
2242 3282 3635
2610 3394 3683
3667 2258 3635
3683 2514 3587
3699 2658 3555
3811 3154 1537
3443 3282 416
1953 3314 3635
2690 3362 3699
3218 3090 3715
3731 2498 3715
3715 2834 3635
3731 3042 3699
3747 3138 3667
3779 3218 3635
3715 3410 1217
3362 2722 3715
3523 2706 3779
3715 2754 3699
3731 2994 3699
3779 3266 3699
3795 3427 3731
3795 3459 3731
3795 3539 3699
3747 3507 2178
464 1905 2402
464 1985 2466
496 2050 2546
512 2114 2578
528 2178 2642
528 2258 2690
560 2322 2738
464 2578 2594
1889 1745 320
528 2258 2690
560 2466 2866
576 2546 2946
592 2610 2978
608 2658 2994
624 2722 3074
640 2754 3106
624 2946 2946
2098 2146 352
576 2562 2946
624 2722 3090
656 2866 3218
689 2946 3266
705 2978 3314
721 3010 3362
769 3074 3410
785 3250 2898
2594 2434 320
640 2754 3138
689 2930 3266
769 3090 3410
833 3234 3507
849 3234 3507
897 3282 3539
945 3314 3571
1153 3427 3218
2898 2722 320
689 2962 3298
785 3122 3443
833 3234 3507
1009 3378 3571
1201 3410 3587
1297 3459 3635
1345 3459 3635
2194 3346 2434
3218 3026 352
785 3170 3491
881 3266 3539
1025 3394 3587
1281 3443 3603
1569 3491 3603
1969 3539 3635
2274 3507 3603
3250 3122 432
3394 3234 400
913 3314 3571
1025 3394 3603
1281 3443 3603
1617 3491 3603
2098 3491 3603
2866 3539 3683
2898 3651 3715
3427 3362 801
3523 3427 496
1281 3491 3635
1601 3523 3651
2017 3555 3651
2418 3587 3667
3074 3555 3699
3250 3635 3747
3779 3362 3731
3651 3443 689
3587 3507 560
2082 3523 3667
2434 3603 3699
2866 3651 3731
3202 3667 3779
3779 3314 3731
3795 3507 3747
3827 3667 3779
3827 3699 3587
3715 3587 2610
544 2354 2786
560 2402 2818
560 2450 2850
576 2514 2898
576 2546 2946
592 2594 2978
624 2690 3026
624 2706 3074
528 2866 2706
608 2610 2994
656 2802 3154
640 2818 3170
689 2866 3234
689 2898 3234
705 2946 3298
721 2994 3346
753 3026 3378
817 3138 3074
672 2818 3170
705 2978 3298
769 3106 3410
769 3154 3459
801 3202 3507
833 3234 3523
865 3250 3539
897 3298 3555
1665 3218 2178
705 2994 3314
785 3170 3491
881 3266 3539
1057 3394 3587
1105 3410 3587
1137 3410 3603
1201 3427 3587
1249 3491 3587
2498 2882 624
801 3218 3523
913 3314 3571
1105 3394 3587
1345 3443 3587
1665 3491 3587
1745 3523 3635
1793 3507 3603
1713 3571 3555
2946 3106 560
929 3346 3571
1121 3427 3603
1377 3459 3603
1665 3491 3587
2130 3539 3635
2434 3571 3635
2530 3587 3667
2178 3667 3603
3154 3314 817
1137 3427 3635
1457 3507 3651
1697 3507 3603
2082 3539 3635
2530 3571 3651
2834 3635 3667
3026 3683 3715
2850 3699 3491
3523 3459 480
1569 3523 3667
1873 3571 3667
2178 3571 3667
2514 3587 3667
2866 3651 3683
3090 3683 3699
3282 3731 3747
3523 3491 1073
3651 3539 1905
2226 3587 3683
2610 3651 3715
2850 3683 3731
3074 3699 3715
3314 3731 3779
3459 3747 3795
3571 3811 3827
3779 3747 3410
3779 3731 3410
608 2658 3010
624 2690 3042
640 2738 3090
640 2754 3122
656 2818 3170
672 2834 3218
689 2898 3250
689 2930 3266
689 2930 3266
672 2834 3202
721 3026 3362
753 3074 3394
785 3122 3443
769 3122 3443
785 3170 3491
785 3202 3507
817 3218 3523
881 3250 3459
737 3026 3378
801 3218 3523
913 3298 3555
961 3346 3571
1009 3378 3587
1009 3378 3587
1073 3410 3603
1121 3427 3603
1233 3378 3346
817 3218 3507
961 3346 3571
1121 3427 3603
1409 3491 3635
1473 3491 3603
1553 3507 3635
1633 3507 3635
1649 3539 3651
1633 3555 3523
945 3346 3571
1185 3443 3635
1441 3491 3603
1761 3507 3603
2162 3523 3603
2274 3555 3635
2370 3571 3651
2418 3587 3667
2098 3651 3603
1185 3443 3635
1473 3491 3635
1777 3523 3603
2178 3539 3635
2578 3571 3651
2882 3651 3683
2930 3651 3683
2978 3667 3699
2546 3747 3699
1553 3507 3651
1857 3555 3651
2274 3571 3667
2594 3587 3651
2898 3635 3667
3106 3667 3699
3282 3715 3731
3026 3779 3731
3346 3491 1441
1985 3571 3667
2418 3651 3699
2706 3635 3683
2962 3651 3683
3138 3683 3715
3298 3715 3731
3443 3747 3779
3587 3827 3827
3635 3651 2978
2402 3635 3699
2786 3683 3731
3042 3715 3731
3234 3731 3779
3362 3747 3779
3459 3779 3795
3651 3843 3843
3731 3859 3843
3827 3875 3875
