其他预设/【236】赛博朋克风调色预设/【后期菌】视频调色预设/3DL/Glitch 04.3dl
# LUT by SparkleStock. Enhanced with VOXCOLOR algorithms.
0 64 128 192 256 320 384 448 512 576 640 704 768 832 896 960 1023
0 0 16
160 16 128
272 16 272
432 64 448
576 80 608
897 128 833
1297 160 977
1585 160 1041
2130 192 1137
2594 240 1233
2882 256 1297
3202 288 1505
3346 288 1585
3410 320 1681
3507 368 1921
3619 368 1921
3747 400 1601
272 16 240
304 16 288
432 64 448
656 112 640
897 112 801
1233 160 945
1681 160 1041
2130 192 1137
2594 240 1233
2914 272 1361
3154 272 1457
3346 288 1585
3475 336 1761
3523 352 1921
3635 368 1953
3731 448 1505
3635 624 961
544 96 592
576 80 608
656 112 640
977 144 881
1233 160 977
1665 160 1041
2226 192 1153
2594 240 1233
2962 272 1377
3234 272 1505
3362 304 1601
3443 352 1761
3523 352 1921
3603 368 2098
3683 368 1985
3683 560 1281
3202 977 176
1105 160 897
1153 144 929
1233 160 977
1329 160 977
1681 160 1073
2226 208 1153
2674 240 1265
2914 256 1345
3186 272 1473
3378 320 1649
3475 336 1761
3523 352 1953
3619 368 2194
3731 384 2194
3747 512 1617
3491 913 272
2642 1441 160
1889 176 1073
1969 192 1137
2130 192 1137
2226 192 1121
2306 208 1137
2690 256 1265
2946 256 1377
3186 272 1473
3378 320 1649
3475 368 1841
3539 368 1985
3619 368 2210
3731 416 2450
3763 384 2226
3683 769 1137
3154 1233 160
2594 1585 192
2658 224 1265
2690 240 1249
2818 256 1313
2898 272 1329
2946 272 1361
2962 256 1377
3250 288 1521
3378 320 1649
3491 368 1841
3587 368 2066
3619 368 2178
3715 384 2450
3779 448 2690
3795 448 2578
3747 689 1633
3539 1121 256
2466 1745 208
3234 272 1505
3282 288 1553
3346 288 1585
3346 288 1585
3378 320 1649
3362 304 1601
3394 320 1681
3491 368 1841
3555 368 2050
3635 368 2242
3715 384 2450
3779 448 2674
3843 464 2834
3843 480 2882
3843 544 2962
3795 721 2434
3715 1217 993
3443 320 1729
3491 368 1841
3491 368 1873
3523 368 1921
3539 368 1969
3539 368 1985
3555 368 2033
3587 368 2050
3635 368 2242
3731 400 2450
3795 448 2690
3843 480 2866
3843 512 2898
3843 544 2962
3859 640 3106
3843 801 2658
3763 1233 1457
3603 368 2114
3619 368 2210
3651 384 2274
3667 400 2338
3651 368 2274
3683 400 2370
3683 384 2354
3731 416 2466
3731 384 2450
3795 448 2690
3843 464 2834
3859 512 2914
3859 576 3010
3859 640 3106
3859 721 3154
3843 865 2802
3763 1345 1521
3763 416 2546
3763 416 2594
3779 432 2658
3795 448 2690
3827 448 2754
3827 448 2786
3843 480 2802
3843 464 2834
3843 480 2866
3843 480 2866
3843 512 2914
3859 592 3042
3843 656 3106
3843 689 3138
3859 849 3202
3843 977 3154
3859 1073 2802
3827 448 2818
3843 480 2866
3859 496 2898
3843 512 2898
3859 512 2914
3859 544 2946
3859 544 2962
3859 544 2962
3843 560 2994
3859 576 3010
3859 608 3042
3859 689 3122
3859 769 3186
3843 833 3186
3843 977 3234
3843 1073 3250
3843 1153 3250
3843 592 3010
3843 608 3010
3843 624 3074
3843 624 3058
3843 624 3058
3859 656 3122
3859 689 3122
3859 689 3138
3859 705 3154
3843 689 3154
3843 753 3186
3843 769 3170
3843 833 3186
3859 961 3234
3843 1073 3266
3827 1201 3282
3827 1281 3234
3843 705 3170
3843 721 3154
3859 769 3186
3843 769 3154
3843 801 3154
3859 849 3202
3843 849 3186
3843 865 3202
3859 945 3234
3843 929 3202
3859 961 3234
3859 977 3250
3859 1009 3266
3843 1121 3266
3843 1233 3298
3827 1329 3314
3827 1425 3362
3843 913 3202
3859 961 3234
3843 977 3234
3843 977 3234
3843 977 3234
3859 1025 3250
3843 1041 3234
3843 1073 3250
3843 1121 3266
3843 1137 3266
3843 1153 3266
3843 1201 3282
3827 1201 3282
3827 1217 3282
3827 1329 3314
3827 1441 3362
3795 1521 3362
3843 1169 3282
3843 1185 3282
3827 1201 3282
3827 1217 3282
3827 1233 3298
3827 1265 3282
3827 1281 3298
3827 1329 3282
3827 1329 3298
3827 1361 3346
3827 1393 3314
3827 1409 3346
3827 1425 3362
3827 1441 3362
3827 1457 3346
3795 1585 3378
3779 1681 3378
3827 1361 3346
3827 1393 3314
3827 1409 3346
3827 1441 3346
3827 1473 3362
3827 1473 3362
3795 1473 3346
3827 1505 3362
3827 1553 3378
3795 1569 3378
3795 1585 3378
3795 1633 3378
3795 1681 3394
3795 1681 3394
3795 1697 3394
3779 1681 3378
3779 1809 3410
3795 1521 3362
3795 1569 3378
3827 1617 3378
3827 1633 3394
3795 1681 3378
3795 1681 3378
3779 1681 3378
3795 1729 3410
3779 1745 3394
3779 1761 3394
3779 1841 3410
3779 1857 3410
3779 1889 3427
3763 1937 3427
3779 1985 3443
3763 1969 3410
3779 1985 3443
192 16 176
192 16 192
336 48 368
592 112 624
769 112 737
1025 144 913
1409 160 993
1745 176 1073
2322 208 1185
2754 272 1297
3010 272 1377
3250 288 1521
3394 320 1665
3475 368 1841
3587 368 1857
3683 400 1409
3475 721 432
336 32 352
496 64 512
721 112 721
1009 128 897
1393 160 977
1745 176 1073
2322 208 1185
2818 256 1313
2962 272 1377
3282 272 1537
3410 320 1681
3475 368 1841
3587 368 1953
3667 368 1793
3651 512 1185
2866 1137 160
2242 1409 176
672 112 656
945 112 865
1009 128 897
1409 160 993
1889 192 1105
2322 208 1153
2722 256 1297
3026 272 1393
3250 288 1521
3410 320 1681
3507 368 1889
3555 368 1985
3667 368 1937
3667 528 1233
3154 961 176
2370 1457 192
1585 1521 272
1297 160 977
1681 160 1073
1761 192 1073
1889 192 1073
2370 208 1217
2722 256 1281
3058 272 1409
3282 288 1553
3378 320 1665
3507 368 1889
3587 368 2098
3635 368 2194
3731 400 1841
3651 672 1009
3026 1201 176
2242 1521 192
1569 1601 304
2130 192 1137
2594 240 1233
2658 224 1249
2722 256 1297
2818 256 1313
3042 272 1409
3282 288 1553
3410 320 1681
3507 368 1889
3587 368 2050
3667 400 2338
3731 400 2466
3795 416 2530
3747 624 1681
3523 1009 272
2274 1681 240
1617 1697 336
2882 256 1297
3138 272 1457
3186 272 1473
3234 272 1505
3266 272 1521
3282 272 1569
3427 336 1697
3507 352 1857
3555 368 2050
3651 384 2322
3747 416 2514
3779 448 2690
3843 448 2818
3859 512 2930
3763 705 2033
3651 1233 624
2994 1825 192
3346 288 1585
3410 320 1665
3427 336 1713
3443 336 1729
3491 352 1841
3507 368 1889
3507 368 1873
3603 368 2098
3651 384 2322
3763 416 2562
3827 448 2754
3827 448 2818
3859 512 2930
3859 592 2962
3795 737 2402
3683 1249 929
3266 1857 176
3507 352 1857
3603 368 2098
3619 368 2178
3619 368 2178
3651 368 2242
3651 368 2274
3651 384 2322
3667 384 2322
3747 400 2514
3795 448 2722
3859 496 2882
3843 512 2914
3843 592 3010
3859 672 3058
3827 801 2658
3715 1409 849
3298 2001 192
3635 368 2226
3747 416 2514
3763 416 2546
3763 432 2578
3779 432 2626
3779 448 2690
3795 448 2690
3795 448 2706
3827 448 2754
3843 496 2882
3843 528 2930
3843 608 3010
3843 672 3122
3843 769 3186
3859 897 3106
3827 1057 2642
3763 1585 913
3795 448 2690
3827 448 2802
3843 480 2866
3843 448 2834
3843 480 2866
3843 496 2898
3859 528 2914
3843 512 2914
3843 512 2914
3859 528 2946
3859 608 3042
3859 672 3122
3843 753 3170
3843 865 3202
3843 977 3234
3827 1121 3250
3859 1265 2930
3843 512 2898
3843 544 2962
3843 560 2994
3859 592 3042
3843 608 3010
3843 608 3026
3859 640 3106
3843 656 3106
3859 689 3122
3843 672 3122
3843 689 3138
3843 785 3186
3843 897 3202
3859 1009 3250
3843 1105 3266
3843 1233 3298
3843 1377 3010
3843 608 3026
3859 689 3138
3843 689 3138
3843 705 3170
3843 721 3138
3843 769 3186
3843 769 3154
3843 801 3186
3843 817 3186
3859 865 3202
3843 865 3186
3859 945 3202
3859 1025 3250
3843 1153 3266
3843 1233 3314
3827 1377 3282
3843 1521 3138
3843 801 3186
3859 945 3234
3843 945 3234
3843 929 3234
3843 977 3234
3843 977 3202
3843 977 3234
3843 1025 3250
3843 1041 3266
3843 1073 3266
3843 1121 3266
3827 1137 3266
3843 1153 3266
3827 1233 3298
3827 1329 3298
3827 1473 3346
3795 1569 3346
3859 977 3250
3827 1105 3250
3827 1137 3250
3843 1169 3282
3843 1217 3298
3827 1169 3266
3843 1233 3298
3843 1249 3314
3827 1265 3298
3827 1281 3282
3827 1329 3282
3827 1329 3314
3827 1361 3298
3827 1393 3314
3827 1489 3362
3795 1633 3378
3779 1713 3394
3843 1233 3298
3827 1329 3282
3827 1329 3314
3827 1361 3346
3827 1409 3346
3827 1409 3346
3827 1409 3346
3827 1441 3346
3827 1441 3346
3827 1489 3362
3827 1505 3362
3795 1521 3362
3795 1569 3362
3795 1585 3362
3795 1633 3362
3795 1745 3410
3779 1889 3427
3827 1409 3346
3827 1537 3378
3795 1569 3378
3795 1585 3362
3795 1633 3362
3795 1681 3378
3779 1665 3378
3779 1681 3378
3795 1713 3410
3779 1745 3410
3779 1793 3410
3779 1809 3410
3779 1841 3410
3779 1825 3410
3779 1889 3427
3763 1937 3410
3763 2066 3443
3795 1633 3394
3779 1745 3410
3779 1793 3410
3779 1809 3410
3779 1873 3427
3763 1873 3410
3779 1889 3427
3779 1937 3427
3763 1953 3427
3779 1985 3443
3779 2050 3443
3763 2050 3427
3763 2098 3475
3763 2130 3475
3763 2178 3475
3763 2242 3507
3763 2194 3491
336 48 384
384 64 448
432 64 496
672 112 640
961 128 881
1217 160 977
1745 176 1073
2130 192 1105
2642 224 1233
2962 272 1377
3170 272 1473
3378 320 1617
3475 352 1761
3555 368 1745
3683 400 1409
3443 721 368
2562 1153 144
528 80 608
817 112 785
897 112 849
1153 144 961
1681 176 1073
2130 192 1137
2546 240 1233
2882 256 1297
3106 272 1425
3298 288 1569
3427 336 1745
3507 352 1857
3667 368 1649
3539 608 624
2802 1057 160
1825 1409 208
1393 1441 304
817 112 817
1153 160 961
1617 176 1041
1969 192 1089
2514 208 1185
2882 256 1297
3106 272 1425
3314 288 1585
3427 336 1729
3507 352 1857
3603 368 2001
3731 384 1681
3394 785 224
2242 1409 192
1745 1457 240
1505 1537 288
1521 1649 336
1505 160 993
1921 192 1105
2466 240 1217
2530 240 1233
2898 272 1329
3138 272 1441
3282 272 1569
3427 336 1745
3523 352 1921
3603 368 2130
3667 384 2322
3763 432 2546
3747 528 1681
3507 961 304
2594 1601 192
1729 1665 288
1649 1793 352
2466 240 1201
2818 256 1313
3042 272 1393
3106 272 1409
3138 272 1457
3346 288 1601
3427 336 1713
3539 368 1969
3619 368 2194
3667 384 2322
3763 432 2594
3827 448 2786
3827 464 2786
3763 656 2033
3619 1105 496
2706 1761 192
2082 1889 288
2994 272 1377
3234 272 1505
3378 320 1665
3410 320 1697
3427 336 1745
3475 352 1761
3539 368 1969
3603 368 2130
3683 384 2354
3763 416 2562
3827 464 2786
3843 480 2866
3843 560 2802
3779 769 2066
3603 1233 272
2930 1953 208
2001 2033 336
3394 320 1665
3475 352 1761
3587 368 2066
3603 368 2098
3603 368 2114
3619 368 2194
3619 368 2178
3715 400 2402
3779 448 2658
3827 448 2754
3843 480 2866
3843 544 2962
3843 624 2930
3827 785 2450
3715 1329 865
3138 1969 192
2274 2194 336
3539 368 1953
3619 368 2210
3683 384 2370
3715 384 2418
3731 400 2450
3763 416 2562
3763 416 2562
3763 432 2594
3843 480 2802
3859 496 2898
3843 544 2946
3843 608 3042
3859 672 3122
3859 801 3154
3843 961 2722
3763 1505 1009
3443 2130 192
3683 384 2370
3779 432 2642
3827 448 2802
3843 464 2834
3843 480 2866
3859 496 2882
3843 480 2866
3843 496 2898
3843 512 2898
3843 544 2962
3843 624 3058
3843 705 3154
3843 801 3186
3843 881 3202
3843 1041 3170
3843 1169 2690
3763 1729 865
3795 448 2754
3843 496 2882
3859 528 2946
3859 560 2994
3859 560 3010
3859 576 3026
3843 592 3026
3859 624 3058
3843 608 3026
3843 624 3058
3859 705 3154
3843 801 3170
3843 929 3234
3843 1041 3250
3843 1185 3170
3843 1329 2578
3763 1953 448
3843 512 2914
3843 608 3042
3843 656 3106
3843 656 3106
3843 672 3138
3843 689 3138
3859 721 3170
3843 721 3154
3843 753 3154
3843 801 3186
3843 801 3154
3843 913 3202
3843 1025 3266
3843 1169 3282
3827 1265 3266
3827 1409 3026
3827 1889 1681
3859 672 3122
3843 705 3138
3859 881 3202
3859 897 3202
3843 897 3202
3859 945 3234
3843 929 3250
3843 977 3202
3843 977 3250
3859 1041 3250
3859 1073 3266
3843 1073 3266
3843 1185 3282
3827 1297 3298
3827 1393 3314
3827 1489 3346
3827 1665 3266
3843 833 3202
3843 929 3234
3859 1073 3266
3843 1073 3250
3843 1105 3266
3827 1121 3250
3843 1169 3282
3843 1201 3298
3843 1201 3282
3827 1217 3282
3827 1233 3298
3827 1265 3314
3827 1281 3298
3827 1409 3362
3827 1537 3362
3795 1649 3394
3779 1809 3314
3859 1073 3266
3827 1169 3282
3827 1297 3298
3827 1313 3298
3827 1329 3314
3827 1361 3314
3827 1361 3346
3827 1393 3314
3827 1409 3362
3827 1457 3362
3827 1473 3362
3827 1489 3346
3827 1505 3378
3827 1537 3378
3795 1649 3378
3795 1745 3410
3763 1969 3362
3827 1265 3298
3827 1361 3346
3827 1489 3362
3827 1505 3378
3827 1537 3362
3795 1569 3362
3827 1617 3378
3795 1633 3394
3795 1649 3378
3795 1681 3394
3795 1697 3394
3779 1697 3394
3779 1745 3394
3779 1761 3394
3779 1809 3410
3763 1953 3410
3763 2162 3475
3827 1489 3362
3795 1633 3378
3779 1697 3394
3779 1745 3394
3779 1761 3410
3779 1841 3410
3779 1841 3410
3779 1825 3410
3779 1889 3427
3763 1937 3427
3779 1985 3443
3763 1969 3427
3763 1985 3427
3763 2066 3443
3763 2098 3475
3763 2130 3475
3763 2274 3491
3795 1697 3410
3779 1809 3410
3763 1969 3410
3763 2001 3427
3763 2066 3443
3763 2082 3443
3763 2130 3475
3763 2178 3475
3763 2242 3491
3763 2242 3491
3763 2290 3507
3747 2322 3507
3747 2354 3523
3747 2402 3539
3747 2418 3539
3747 2450 3539
3747 2466 3539
224 448 1409
240 480 1617
336 368 1585
721 128 1041
993 160 1137
1457 160 1073
2114 208 1169
2546 224 1233
2722 256 1281
2994 272 1425
3234 288 1537
3394 320 1665
3507 336 1729
3635 352 1521
3410 656 352
2130 1233 144
1569 1345 224
448 304 1569
1121 160 1153
1185 144 1169
1265 160 1297
1553 192 1585
2274 224 1249
2690 256 1297
3074 272 1409
3266 288 1537
3410 320 1681
3523 352 1713
3667 368 1553
3523 592 608
2354 1169 144
1809 1361 192
1377 1441 288
