其他预设/【236】赛博朋克风调色预设/【后期菌】视频调色预设/3DL/Glitch 01_S.3dl
# LUT by SparkleStock. Enhanced with VOXCOLOR algorithms.
0 256 512 768 1023
336 336 336
400 336 368
1025 352 512
2482 368 1025
3330 448 1121
929 336 480
1169 352 528
2594 384 1073
3362 464 1953
1921 1137 496
3154 416 1601
3170 464 1713
3346 464 1921
3619 560 2594
3523 897 1105
3651 624 2770
3555 689 2770
3683 705 2882
3683 753 2914
3683 1121 3074
3683 1217 3106
3699 1377 3154
3699 1473 3170
3699 1617 3218
3715 1729 3266
336 368 416
384 368 1345
1745 352 833
3170 400 1009
1169 1041 368
1345 400 1201
2402 528 1313
3106 544 2146
3330 801 608
2226 2066 592
3330 528 2017
3138 785 2306
3330 737 2626
3683 817 2882
2946 2546 656
3683 737 2914
3619 1153 3010
3683 1185 3090
3683 1313 3138
3715 2098 2482
3699 1553 3186
3715 2290 3346
3715 2418 3362
3699 2514 3362
3715 2626 3410
400 560 929
640 576 1089
512 705 1329
400 1329 1329
1505 1361 416
865 1089 1345
1153 1393 1761
1009 1473 2674
3058 1089 1169
2562 2306 640
801 1825 2114
1217 1889 2162
2914 1377 2834
3667 1713 1905
3218 3074 849
1361 2098 3410
3523 1489 3058
3651 2114 3266
3715 2210 3330
3523 3250 977
3715 1921 3298
3715 2594 3410
3731 3058 3507
3763 3154 3539
3731 3298 2882
448 1217 2066
721 1249 2130
528 1505 2482
448 1697 2610
1633 1713 448
1009 1809 2194
1521 1857 2178
1281 2130 2898
640 2882 3427
2722 2674 737
977 2594 2706
1665 2530 2290
1777 2610 2802
1297 3074 3539
3314 3202 897
785 3154 3619
1233 3282 3154
1969 3250 3074
2594 3362 3539
3619 3539 1185
1473 3378 3715
2418 3475 3715
3683 3282 3507
3715 3539 3587
3747 3651 2610
496 2194 2978
528 2322 3074
544 2498 3186
576 2626 3282
592 2706 3314
624 2834 3394
993 2962 3410
1153 2882 3410
961 3154 3651
897 3250 3186
865 3154 3555
1697 2978 2914
2610 2754 2898
2498 2962 3491
1585 3571 3507
1057 3394 3699
2306 3330 2882
3218 3266 2834
3475 3362 3410
3571 3651 1697
1793 3523 3747
2738 3603 3651
3346 3683 3410
3587 3731 3715
3763 3763 3763
