其他预设/【236】赛博朋克风调色预设/【后期菌】视频调色预设/3DL/Glitch 07.3dl
# LUT by SparkleStock. Enhanced with VOXCOLOR algorithms.
0 256 512 768 1023
96 224 256
272 256 368
1505 288 528
2706 288 1009
3186 400 1089
1281 288 496
1697 272 560
2738 288 1089
3042 496 1761
2274 897 272
2946 384 1489
2978 432 1601
3026 496 1745
3106 769 2354
3410 961 1041
3106 897 2514
3106 945 2562
3122 1041 2642
3122 1089 2706
3202 1537 2978
3218 1649 3026
3250 1777 3090
3266 1953 3154
3314 2066 3170
3346 2210 3202
144 288 384
80 336 1537
2274 256 865
3090 352 993
1089 849 272
1681 288 1297
2834 352 1361
3074 592 1985
3394 705 416
2610 1953 240
3042 544 1889
3106 785 2354
3106 849 2466
3122 1137 2706
3346 2482 288
3122 1089 2674
3202 1521 2978
3218 1585 3026
3234 1697 3074
3539 2402 2642
3266 2001 3154
3427 2626 3330
3459 2722 3362
3459 2786 3362
3507 2898 3394
160 512 977
176 576 1153
144 640 1313
256 1169 1425
1553 1201 240
112 1025 2001
128 1761 2914
176 1985 3362
3170 1121 1265
2962 2290 240
144 1857 3106
737 2290 3539
2978 1537 3090
3539 2001 2082
3683 3074 512
1729 2594 3603
3218 1825 3202
3394 2498 3282
3410 2562 3282
3923 3250 705
3378 2402 3266
3475 2866 3394
3571 3234 3475
3603 3314 3507
3763 3427 2978
80 1153 2226
96 1329 2482
96 1505 2658
96 1681 2834
1665 1505 208
160 2162 3154
432 2882 3539
512 3010 3619
624 3170 3699
3154 2658 304
512 2978 3635
913 3459 3827
1201 3619 3827
1265 3667 3859
3795 3218 640
977 3523 3859
1233 3651 3843
1777 3651 3811
2866 3651 3715
4051 3619 1185
1761 3651 3843
2786 3651 3763
3603 3378 3571
3683 3619 3571
3859 3731 2866
224 2338 3250
256 2498 3346
336 2658 3459
416 2818 3539
480 2930 3603
576 3106 3667
977 3523 3843
1073 3571 3859
1121 3619 3859
961 3555 3491
1025 3555 3859
1329 3667 3859
1793 3683 3779
2033 3699 3779
1729 3859 3731
1377 3667 3859
1889 3699 3795
2834 3651 3683
3330 3683 3667
3939 3811 2050
2066 3763 3827
3026 3731 3763
3394 3715 3683
3603 3779 3683
3699 3779 3667
