其他预设/【236】赛博朋克风调色预设/【后期菌】视频调色预设/3DL/Glitch 07_S.3dl
# LUT by SparkleStock. Enhanced with VOXCOLOR algorithms.
0 256 512 768 1023
96 224 256
272 256 368
1505 288 528
2706 288 1009
3186 400 1089
1281 288 496
1697 272 560
2738 288 1089
3042 496 1761
2210 897 352
2946 384 1489
2914 464 1585
3026 496 1745
3106 769 2354
3410 961 1041
3106 897 2514
3042 961 2514
3122 1041 2642
3122 1089 2706
3202 1537 2978
3218 1649 3026
3250 1777 3090
3266 1953 3154
3314 2066 3170
3346 2210 3202
144 288 384
96 336 1521
2274 256 865
3090 352 993
1089 849 272
1633 336 1201
2306 480 1249
2738 624 1969
3394 705 416
2578 1921 304
2946 592 1809
2674 961 2066
2834 961 2402
3122 1137 2706
3346 2482 288
3122 1089 2674
3154 1553 2930
3218 1585 3026
3234 1697 3074
3539 2402 2642
3266 2001 3154
3427 2626 3330
3459 2722 3362
3459 2786 3362
3507 2898 3394
224 496 961
464 480 1105
288 592 1345
256 1169 1425
1553 1201 240
608 977 1377
929 1345 1825
801 1553 2770
3154 1121 1297
2946 2258 304
544 1841 2226
1217 2066 2226
2594 1617 2658
3539 2001 2082
3683 3074 512
1729 2594 3603
3090 1905 2978
3346 2514 3234
3410 2562 3282
3923 3250 705
3378 2402 3266
3475 2866 3394
3571 3234 3475
3603 3314 3507
3763 3427 2978
144 1121 2178
400 1169 2274
192 1441 2626
96 1681 2834
1665 1505 208
737 1825 2338
1409 1921 2306
1201 2274 3058
624 3170 3699
3154 2626 384
897 2786 2914
1713 2722 2402
1921 2770 2882
1553 3314 3683
3795 3218 640
977 3523 3859
1489 3523 3282
2178 3410 3106
2882 3491 3539
4051 3619 1185
1761 3651 3843
2786 3651 3763
3539 3427 3459
3667 3635 3555
3859 3731 2866
224 2338 3250
256 2498 3346
336 2658 3459
416 2818 3539
480 2930 3603
576 3106 3667
1169 3330 3619
1377 3218 3619
1201 3507 3827
961 3555 3491
1089 3523 3779
1953 3186 3042
2770 2882 2930
2658 3106 3523
1729 3859 3731
1377 3667 3859
2498 3491 2914
3394 3330 2834
3603 3410 3394
3939 3779 2130
2066 3763 3827
3058 3731 3635
3507 3779 3394
3635 3779 3635
3699 3779 3667
