其他预设/【236】赛博朋克风调色预设/【后期菌】视频调色预设/3DL/Glitch 02_S.3dl
# LUT by SparkleStock. Enhanced with VOXCOLOR algorithms.
0 256 512 768 1023
0 0 0
320 32 320
2001 208 689
3443 304 1297
3699 320 1265
1649 176 656
2386 224 721
3475 288 1377
3699 368 2322
2658 1409 176
3635 288 1921
3555 336 2066
3699 352 2306
3843 672 2962
3763 1057 1025
3843 865 3090
3747 1009 3042
3843 1105 3186
3843 1201 3202
3795 1681 3314
3763 1825 3314
3763 2017 3362
3763 2130 3378
3763 2242 3427
3763 2370 3443
80 288 416
368 512 1905
3122 256 1169
3651 304 1121
1057 1217 320
2450 288 1649
2802 416 1521
3330 480 2466
3683 817 384
2098 2226 368
3635 432 2386
3266 881 2562
3491 929 2930
3811 1281 3154
3122 2706 224
3843 1169 3202
3747 1697 3234
3779 1777 3314
3779 1905 3330
3811 2546 2882
3747 2210 3410
3731 2754 3555
3747 2834 3571
3731 2898 3587
3747 3010 3603
352 977 1489
560 977 1553
464 1185 1921
320 2017 2146
1297 1537 352
785 1585 1697
1105 1665 1841
1105 1985 2722
3555 1361 1249
2530 2386 288
881 2546 2306
1505 2386 2130
2962 1889 2866
3795 1985 2130
3234 3106 288
2258 3154 3571
3571 2114 3202
3667 2658 3459
3731 2706 3539
3603 3346 368
3747 2530 3491
3747 2978 3603
3763 3314 3683
3779 3410 3731
3811 3491 3138
464 2194 2786
721 2066 2674
592 2498 3010
560 2690 3122
1089 1937 592
1105 2386 2370
1697 2066 2194
1569 2466 2978
1249 3410 3571
2338 2594 400
1345 3026 2786
2066 2658 2210
2418 2674 2706
2274 3202 3491
3346 3234 336
1617 3539 3651
2210 3427 3090
2722 3330 2962
3074 3491 3539
3635 3523 528
2674 3603 3699
3106 3667 3747
3731 3475 3571
3811 3667 3731
3763 3635 2914
769 3026 3330
849 3122 3378
929 3202 3459
1009 3266 3491
1073 3314 3523
1185 3378 3555
1761 3314 3427
1985 3138 3378
1889 3443 3651
1777 3523 3491
1697 3491 3555
2690 3074 2834
3298 2770 2802
3218 3026 3427
2722 3683 3651
2338 3603 3683
3122 3410 2786
3555 3314 2786
3651 3410 3427
3539 3475 1601
2882 3667 3731
3266 3747 3651
3555 3795 3443
3731 3843 3763
3843 3811 3843
