其他预设/【236】赛博朋克风调色预设/【后期菌】视频调色预设/3DL/Glitch 01_S.3dl
# LUT by SparkleStock. Enhanced with VOXCOLOR algorithms.
0 64 128 192 256 320 384 448 512 576 640 704 768 832 896 960 1023
336 336 336
352 352 368
352 336 368
368 336 368
400 336 368
480 352 400
624 336 416
769 336 448
1025 352 512
1393 352 576
1665 352 656
2290 368 881
2482 368 1025
2690 368 1121
2962 400 1361
3170 416 1361
3330 448 1121
368 352 368
368 352 368
368 336 368
416 336 368
480 336 384
592 336 416
833 336 464
1025 352 512
1393 352 560
1761 368 705
2194 368 865
2514 368 1025
2834 368 1233
3010 384 1361
3186 416 1425
3314 448 1025
3202 480 624
400 352 384
400 336 368
400 336 368
512 352 416
624 352 432
833 336 464
1089 352 528
1393 352 576
1841 368 737
2306 368 881
2578 368 1057
2818 384 1217
2994 384 1361
3138 400 1569
3282 448 1457
3298 480 849
2722 689 400
528 352 416
560 336 400
608 336 416
640 336 432
833 336 480
1105 352 528
1473 336 592
1745 368 705
2226 368 865
2594 368 1073
2834 368 1233
3026 384 1441
3186 416 1665
3346 464 1697
3362 480 1185
3058 640 448
1937 961 416
929 336 480
993 352 512
1025 352 512
1089 352 512
1169 352 528
1441 368 608
1841 368 721
2226 368 865
2594 384 1073
2882 384 1249
3058 400 1441
3186 432 1697
3362 464 1953
3427 480 1713
3314 528 737
2546 865 464
1921 1137 496
1473 336 576
1521 336 608
1617 368 672
1681 368 689
1793 368 721
1841 368 721
2322 368 897
2594 384 1089
2898 400 1297
3090 400 1489
3186 416 1665
3346 464 1889
3459 496 2146
3507 496 2082
3410 528 1249
3122 833 464
1985 1329 432
2242 368 865
2402 368 977
2482 368 1025
2466 384 1025
2594 368 1073
2578 368 1057
2610 400 1105
2818 400 1297
3090 400 1489
3218 432 1697
3346 464 1921
3459 496 2146
3555 512 2354
3571 512 2418
3603 528 2546
3555 608 2017
3314 801 737
2802 368 1201
2818 432 1281
2930 384 1329
2978 400 1361
3010 400 1409
3026 400 1441
3074 400 1489
3106 400 1505
3154 464 1697
3298 496 1937
3410 528 2162
3491 528 2370
3523 528 2466
3539 560 2562
3651 592 2674
3603 672 2178
3410 801 1089
3154 416 1601
3186 432 1697
3250 448 1713
3202 480 1745
3170 464 1713
3250 496 1777
3314 448 1809
3362 480 1953
3346 464 1921
3491 496 2178
3555 512 2354
3587 528 2498
3619 560 2594
3619 592 2674
3651 624 2754
3619 705 2322
3523 897 1105
3394 480 2033
3410 480 2082
3459 480 2114
3410 528 2130
3507 512 2226
3507 496 2274
3475 528 2290
3555 512 2354
3571 512 2370
3555 512 2402
3587 528 2482
3555 592 2610
3555 624 2690
3555 640 2754
3667 672 2834
3667 721 2786
3667 833 2322
3539 496 2338
3555 512 2402
3587 528 2466
3587 528 2482
3523 560 2466
3603 544 2514
3603 544 2530
3539 576 2530
3603 544 2546
3619 560 2594
3619 576 2610
3555 640 2706
3571 672 2802
3651 656 2818
3667 721 2898
3667 785 2930
3683 865 2930
3539 608 2530
3603 560 2594
3619 576 2658
3619 576 2626
3555 624 2594
3555 640 2658
3555 656 2674
3555 656 2722
3651 608 2754
3651 608 2738
3667 640 2786
3667 640 2802
3555 705 2818
3667 705 2898
3571 833 2962
3683 897 2962
3587 1025 2930
3651 624 2770
3651 608 2770
3667 640 2786
3651 640 2786
3555 689 2770
3683 672 2834
3667 672 2834
3667 672 2866
3683 705 2882
3667 705 2882
3683 721 2898
3571 769 2914
3683 753 2914
3683 833 2946
3683 913 2978
3683 1025 3010
3683 1121 3074
3667 705 2882
3683 737 2898
3667 721 2882
3667 737 2898
3667 737 2898
3667 769 2914
3571 801 2882
3667 785 2914
3683 849 2946
3571 865 2914
3667 849 2946
3587 929 2962
3683 897 2962
3667 897 2962
3683 1025 3010
3683 1121 3074
3587 1249 3122
3571 897 2898
3571 913 2914
3587 945 2914
3571 961 2914
3587 977 2930
3667 945 2962
3667 977 2978
3571 1041 2946
3571 1057 2978
3587 1105 3026
3571 1105 2994
3683 1105 3058
3587 1169 3074
3683 1121 3074
3571 1185 3106
3587 1345 3138
3683 1409 3154
3683 1057 3058
3571 1105 2962
3667 1073 3026
3667 1121 3058
3683 1153 3090
3683 1169 3090
3667 1169 3090
3587 1233 3074
3603 1297 3106
3683 1281 3122
3683 1281 3122
3683 1345 3138
3699 1377 3154
3699 1393 3170
3699 1409 3170
3587 1457 3170
3587 1569 3202
3683 1217 3106
3683 1281 3122
3699 1329 3138
3699 1345 3154
3699 1377 3154
3683 1393 3138
3683 1409 3154
3699 1457 3170
3699 1473 3170
3683 1489 3170
3699 1537 3186
3699 1569 3218
3699 1617 3218
3699 1665 3218
3715 1697 3266
3683 1713 3250
3715 1729 3266
352 336 368
352 336 368
368 352 384
416 352 384
432 336 384
528 336 416
689 336 432
865 336 464
1169 352 528
1569 352 656
1905 368 737
2322 368 897
2626 368 1105
2866 384 1249
3122 400 1329
3266 432 945
2978 528 432
368 336 368
384 336 368
432 352 384
512 336 400
672 336 416
865 336 464
1169 352 528
1617 368 672
1841 368 737
2402 368 929
2690 368 1121
2882 384 1249
3122 400 1393
3250 432 1297
3250 448 769
2146 705 384
1585 881 384
416 352 384
496 336 400
512 336 400
689 336 432
929 352 496
1169 352 528
1521 352 656
1953 368 753
2322 368 897
2674 384 1105
2946 400 1345
3074 400 1457
3250 432 1425
3282 464 817
2610 640 384
1697 961 400
1409 1201 384
640 336 432
833 336 480
881 352 480
929 352 496
1233 336 528
1521 352 608
1969 368 785
2402 368 977
2626 368 1105
2946 400 1345
3122 400 1537
3218 432 1665
3362 464 1409
3250 496 672
2402 801 400
1665 1057 400
1521 1329 400
1041 352 512
1393 352 560
1473 336 576
1521 352 640
1617 352 672
1937 368 801
2418 368 993
2690 368 1121
2946 400 1345
3106 400 1505
3282 448 1761
3362 464 1969
3475 496 1985
3410 512 1281
3106 721 448
1809 1297 496
1633 1505 496
1665 352 656
2146 368 849
2226 368 865
2306 368 881
2386 368 929
2434 368 993
2722 384 1153
2962 384 1345
3106 400 1505
3266 448 1761
3378 480 1985
3475 496 2162
3539 512 2338
3603 528 2514
3491 560 1633
3330 849 576
2482 1409 464
2418 400 1009
2690 368 1121
2754 384 1169
2754 384 1201
2898 384 1297
2946 400 1345
2914 400 1361
3058 416 1569
3266 448 1761
3394 480 2033
3507 512 2226
3539 496 2338
3603 528 2514
3619 576 2530
3555 624 1985
3378 865 672
2738 1489 544
2962 384 1345
3058 432 1537
3154 416 1617
3186 416 1665
3218 432 1713
3250 432 1729
3266 448 1761
3282 448 1777
3314 512 1985
3410 528 2210
3507 528 2418
3523 528 2482
3539 560 2578
3571 624 2658
3603 656 2178
3410 1009 672
2834 1649 560
3218 432 1697
3378 480 1985
3394 480 2017
3330 512 2001
3362 528 2066
3394 528 2130
3491 496 2162
3491 496 2194
3507 496 2226
3571 528 2402
3587 528 2498
3603 560 2594
3619 608 2722
3667 640 2786
3667 689 2722
3619 785 2146
3491 1249 737
3491 496 2162
3539 496 2322
3571 512 2370
3491 528 2322
3571 512 2402
3571 528 2418
3539 560 2466
3587 528 2498
3587 528 2498
3603 544 2530
3619 576 2610
3571 640 2706
3571 672 2802
3587 705 2866
3667 721 2882
3667 817 2930
3699 961 2498
3587 528 2466
3603 528 2546
3603 544 2562
3619 560 2610
3539 592 2562
3619 560 2610
3619 592 2674
3555 624 2674
3651 608 2706
3619 592 2722
3651 608 2722
3587 672 2818
3587 705 2882
3683 753 2914
3667 801 2930
3683 913 2978
3699 1057 2610
3539 608 2562
3651 608 2738
3619 608 2722
3651 624 2770
3571 656 2722
3587 689 2786
3571 689 2754
3587 705 2818
3667 656 2818
3667 672 2866
3651 672 2834
3667 705 2882
3603 801 2914
3667 849 2946
3603 961 2994
3683 1057 2978
3619 1265 2818
3667 656 2818
3667 705 2882
3667 705 2898
3667 705 2882
3587 769 2866
3667 705 2882
3667 737 2898
3667 769 2914
3667 769 2930
3667 801 2930
3683 833 2946
3587 865 2930
3667 849 2946
3667 929 2978
3667 1025 2994
3683 1137 3090
3683 1265 3074
3667 721 2914
3667 801 2930
3667 817 2930
3683 865 2962
3683 897 2962
3667 865 2946
3603 961 2946
3683 945 2978
3667 961 2962
3587 1025 2962
3667 1009 2978
3603 1057 3010
3667 1041 3010
3667 1073 3010
3683 1185 3106
3699 1345 3138
3603 1457 3186
3603 977 2914
3587 1041 2930
3603 1057 2962
3587 1105 2978
3603 1137 2994
3683 1089 3058
3667 1089 3026
3587 1169 3010
3587 1185 3026
3603 1217 3090
3587 1233 3090
3683 1217 3106
3603 1297 3122
3683 1281 3122
3603 1361 3106
3619 1505 3202
3699 1617 3250
3667 1073 3026
3603 1265 3058
3683 1265 3122
3683 1281 3122
3683 1313 3106
3699 1377 3154
3683 1377 3138
3603 1457 3122
3619 1489 3170
3699 1473 3186
3699 1521 3186
3699 1537 3186
3699 1537 3186
3699 1569 3218
3699 1617 3218
3603 1681 3250
3619 1825 3298
3699 1345 3138
3699 1473 3186
3699 1521 3186
3699 1521 3186
3699 1601 3218
3683 1585 3202
3699 1617 3218
3699 1665 3250
3699 1681 3250
3715 1729 3266
3715 1761 3282
3699 1777 3266
3699 1809 3282
3699 1841 3282
3699 1889 3282
3715 1953 3298
3699 1921 3282
368 336 368
368 352 384
368 352 384
416 336 368
496 352 400
576 336 416
865 336 464
1025 352 512
1457 336 576
1841 368 737
2210 368 865
2562 384 1041
2834 384 1217
3058 400 1201
3266 432 929
2946 512 432
1777 705 384
384 336 384
464 336 384
480 336 400
560 336 400
833 336 480
1041 352 512
1361 352 560
1665 352 656
2098 368 817
2434 368 993
2754 384 1201
2962 384 1329
3202 416 1137
3026 480 464
2066 672 384
1361 945 384
1281 1137 384
448 352 400
544 336 416
801 352 464
977 352 496
1329 336 544
1665 352 656
2082 368 817
2466 368 1025
2754 384 1201
2962 384 1329
3138 416 1441
3330 448 1201
2930 544 416
1585 881 384
1393 1041 368
1377 1217 384
1521 1393 416
721 336 432
945 352 496
1297 352 544
1329 352 560
1633 368 705
2066 368 849
2386 368 1009
2754 384 1201
2994 384 1361
3154 416 1585
3282 448 1777
3410 480 2001
3362 480 1217
3090 672 464
1969 1137 432
1633 1393 432
1761 1617 464
1297 352 544
1617 368 672
1921 368 769
2001 368 817
2066 368 849
2482 384 1025
2674 400 1185
2962 416 1409
3170 416 1617
3282 448 1793
3394 480 2082
3507 496 2274
3539 512 2306
3475 544 1585
3266 769 528
2162 1313 496
1985 1697 528
1841 368 737
2306 368 881
2578 384 1089
2610 416 1137
2626 432 1185
2706 432 1217
2914 432 1409
3058 448 1601
3314 448 1825
3394 480 2033
3523 512 2274
3571 512 2402
3587 528 2338
3523 608 1665
3186 945 496
2482 1537 480
2130 1905 512
2578 384 1089
2834 368 1233
3026 416 1473
3026 448 1537
2978 464 1553
3010 464 1585
3138 432 1665
3282 480 1873
3459 496 2114
3507 496 2226
3571 512 2402
3603 544 2546
3603 576 2482
3587 656 2033
3394 929 672
2690 1537 480
2290 2017 592
3026 384 1441
3138 464 1665
3314 464 1841
3218 496 1809
3266 512 1905
3298 528 2001
3298 528 2017
3362 528 2066
3475 528 2306
3523 528 2466
3539 544 2530
3555 576 2610
3571 624 2722
3587 672 2770
3619 737 2226
3475 1137 769
3026 1793 592
3314 464 1841
3427 496 2114
3539 512 2290
3491 528 2322
3491 528 2338
3507 544 2386
3571 512 2402
3571 528 2418
3571 528 2434
3603 544 2546
3619 576 2626
3651 608 2754
3667 640 2818
3667 689 2866
3667 769 2802
3667 881 2210
3523 1505 785
3507 496 2226
3571 528 2402
3603 528 2530
3539 576 2514
3603 560 2562
3619 560 2594
3539 592 2562
3619 576 2626
3619 560 2610
3603 576 2626
3651 608 2754
3571 689 2802
3587 721 2898
3587 785 2914
3683 865 2818
3667 1009 2114
3475 1793 689
3587 528 2482
3603 560 2594
3619 576 2674
3619 592 2706
3555 640 2690
3651 608 2738
3667 624 2770
3571 640 2738
3651 624 2786
3667 656 2818
3651 640 2802
3587 721 2882
3587 785 2930
3683 865 2962
3683 961 2930
3683 1105 2658
3651 1553 1361
3571 656 2658
3651 608 2754
3667 689 2866
3667 689 2866
3587 721 2834
3587 737 2866
3587 737 2866
3587 737 2866
3667 737 2914
3683 769 2914
3683 785 2930
3667 801 2946
3587 881 2962
3683 977 2994
3587 1105 3026
3667 1169 3090
3619 1393 2994
3667 656 2866
3667 705 2882
3683 785 2930
3667 785 2914
3587 849 2898
3667 817 2930
3667 865 2962
3683 881 2962
3683 897 2962
3667 913 2962
3667 929 2978
3603 993 2978
3667 977 2978
3667 1105 3058
3683 1217 3122
3699 1361 3138
3683 1521 3074
3683 785 2930
3667 865 2962
3667 977 2978
3667 1009 2994
3683 1025 3010
3667 1041 3010
3603 1105 2994
3667 1073 3010
3683 1121 3058
3603 1185 3058
3683 1169 3090
3587 1201 3090
3683 1201 3106
3683 1217 3122
3683 1361 3122
3699 1473 3186
3619 1681 3170
3587 1009 2914
3587 1105 2962
3603 1217 3058
3603 1233 3058
3603 1265 3074
3683 1265 3122
3699 1329 3138
3619 1377 3106
3603 1393 3106
3619 1441 3138
3619 1441 3154
3683 1425 3154
3603 1505 3170
3683 1489 3170
3619 1569 3186
3603 1681 3250
3699 1873 3282
3683 1185 3106
3603 1377 3074
3683 1425 3154
3699 1473 3170
3699 1505 3186
3699 1537 3186
3699 1537 3202
3619 1601 3154
3619 1665 3186
3699 1649 3218
3715 1697 3266
3699 1713 3266
3683 1729 3266
3699 1793 3282
3699 1809 3298
3619 1873 3298
3619 2017 3314
3699 1425 3170
3699 1521 3186
3683 1697 3250
3699 1745 3266
3699 1793 3282
3699 1793 3266
3699 1857 3282
3699 1889 3282
3715 1953 3298
3699 1969 3282
3699 1985 3298
3699 2033 3298
3715 2082 3314
3715 2146 3330
3715 2194 3330
3715 2274 3346
3715 2290 3346
336 352 849
352 352 1201
368 352 1025
448 352 448
528 352 448
705 336 448
1025 368 528
1361 336 544
1521 352 608
1905 368 785
2306 368 913
2626 384 1105
2946 384 1201
3154 416 1025
2914 480 416
1409 705 352
1201 913 368
416 352 865
544 336 448
592 336 448
640 336 496
801 336 705
1105 352 560
1521 352 656
1985 368 785
2354 368 945
2674 384 1105
2994 384 1185
3218 416 1057
3010 464 464
1569 705 368
1281 881 368
1265 1121 368
