其他预设/【236】赛博朋克风调色预设/【后期菌】视频调色预设/3DL/Glitch 08.3dl
# LUT by SparkleStock. Enhanced with VOXCOLOR algorithms.
0 128 256 384 512 640 768 896 1023
128 128 192
256 176 336
416 192 480
897 240 785
1521 256 961
2418 288 1057
3106 288 1345
3443 304 1585
3667 352 1361
416 208 480
448 176 512
849 240 785
1633 272 961
2578 288 1105
3170 288 1345
3459 304 1585
3651 336 1665
3090 833 240
1377 256 913
1521 256 961
1729 256 929
2578 288 1105
3202 304 1377
3507 304 1665
3651 304 2162
3635 608 897
2354 1393 224
2962 288 1233
3106 304 1345
3202 304 1377
3250 288 1393
3507 304 1697
3651 304 2162
3811 320 2674
3827 384 2818
3635 977 785
3539 304 1793
3587 320 1969
3571 288 1969
3603 304 2050
3651 272 2130
3811 320 2642
3843 416 2882
3843 512 3026
3731 1089 1233
3795 320 2642
3827 352 2722
3811 368 2754
3843 384 2834
3827 400 2834
3843 432 2898
3859 544 3042
3843 689 3138
3843 865 3218
3843 496 3042
3843 544 3042
3827 560 3042
3843 592 3074
3843 672 3122
3843 689 3154
3843 721 3202
3843 929 3266
3827 1137 3298
3843 833 3250
3827 897 3250
3827 913 3266
3827 977 3266
3827 1025 3250
3827 1089 3250
3827 1121 3298
3827 1169 3282
3811 1425 3314
3811 1249 3282
3827 1345 3314
3827 1361 3346
3811 1409 3314
3811 1473 3362
3811 1537 3378
3811 1585 3394
3811 1665 3394
3811 1713 3410
288 176 384
336 192 464
640 208 656
1281 256 897
2114 272 1009
2898 288 1201
3378 304 1473
3603 352 1185
2290 945 240
544 224 624
1137 272 897
1889 272 977
2786 304 1169
3346 288 1473
3555 320 1681
3282 656 256
1585 1297 272
1537 1489 336
1841 288 977
2690 288 1121
2834 304 1201
3314 288 1441
3555 304 1857
3683 304 2290
3795 336 2578
3539 913 464
2050 1745 320
3218 288 1393
3523 304 1713
3539 304 1777
3555 304 1857
3715 320 2370
3811 336 2674
3827 448 2738
3651 1089 721
2290 2050 336
3635 304 2082
3795 320 2594
3811 336 2658
3811 336 2674
3811 352 2738
3827 448 2930
3843 576 3074
3843 753 3042
3683 1521 753
3811 352 2754
3843 464 2962
3843 464 2994
3859 496 3042
3843 528 3026
3827 560 3042
3827 737 3218
3843 961 3218
3779 1649 1441
3843 576 3090
3843 769 3218
3827 785 3234
3843 833 3250
3827 897 3250
3827 913 3266
3827 977 3266
3827 1249 3298
3811 1521 3250
3827 961 3266
3827 1201 3298
3827 1249 3298
3827 1313 3314
3811 1345 3314
3811 1425 3362
3811 1473 3346
3811 1537 3378
3779 1825 3410
3827 1425 3362
3795 1665 3394
3795 1761 3410
3795 1809 3410
3779 1889 3427
3779 1953 3427
3779 2017 3443
3779 2146 3491
3747 2194 3507
160 448 592
176 464 656
368 496 1649
1089 256 1681
2498 288 1265
3074 288 1681
3555 320 1249
1745 977 240
1233 1233 352
256 672 1121
1937 288 1505
2130 288 1473
3090 288 1425
3491 320 1649
3603 288 2017
3443 689 432
1633 1441 288
1665 1617 352
1825 288 1841
2962 304 1553
3410 304 1665
3587 320 2001
3747 320 2450
3811 400 2642
3603 977 656
2050 1841 336
2162 2082 352
3394 304 1681
3587 320 2001
3699 304 2370
3747 320 2466
3827 368 2818
3843 464 2962
3795 689 2306
3282 1889 224
2402 2290 336
3699 304 2370
3811 352 2690
3843 448 2930
3859 480 2994
3843 480 3010
3843 608 3106
3843 801 3154
3779 1473 1377
2946 2498 304
3843 448 2930
3859 544 3042
3827 689 3138
3827 753 3218
3843 817 3234
3827 785 3234
3827 1057 3282
3827 1361 2978
3635 2562 320
3843 705 3170
3827 849 3250
3827 1121 3298
3811 1153 3266
3827 1217 3282
3811 1233 3282
3827 1297 3314
3811 1569 3362
3811 2178 2642
3827 1121 3282
3827 1345 3346
3795 1569 3378
3811 1633 3394
3795 1713 3410
3779 1761 3410
3779 1841 3410
3779 1937 3427
3747 2434 3266
3811 1553 3362
3779 1841 3427
3747 2194 3507
3747 2258 3507
3747 2370 3523
3747 2450 3539
3731 2498 3539
3731 2578 3571
3731 2674 3587
240 705 961
272 769 1009
288 817 1089
304 865 1201
368 1073 1793
448 1313 2354
3443 448 1153
1441 1153 272
1345 1361 352
352 977 1345
416 1233 1697
432 1297 1873
544 1249 2722
1681 576 2818
3282 496 2418
3026 977 288
1601 1553 352
1825 1745 352
416 1265 1857
480 1505 2546
528 1809 2962
2978 560 2818
3491 480 2802
3699 528 2866
3651 1041 785
2226 1969 320
2274 2162 320
528 1569 2818
881 1489 3042
2946 656 2994
3651 560 2978
3731 656 3122
3859 689 3154
3747 1281 1521
2882 2386 304
2738 2498 320
2578 689 3026
3683 528 2898
3795 544 3074
3843 656 3122
3843 689 3138
3843 865 3266
3827 1201 2786
3346 2562 288
2930 2706 336
3747 576 3074
3811 672 3202
3859 833 3266
3843 1073 3298
3843 1105 3266
3827 1137 3266
3811 1377 3314
3795 1969 2290
3346 2946 336
3827 785 3298
3843 1025 3282
3827 1265 3314
3811 1537 3378
3811 1585 3394
3795 1633 3378
3795 1665 3394
3811 2322 2834
3539 3074 352
3827 1249 3298
3811 1489 3362
3795 1745 3394
3779 2146 3491
3747 2194 3491
3747 2226 3507
3747 2306 3507
3731 2418 3539
3747 2930 3122
3795 1713 3410
3779 2082 3459
3731 2418 3523
3731 2738 3603
3715 2802 3603
3731 2850 3635
3731 2898 3667
3731 2946 3667
3747 3090 3507
352 1025 1441
368 1105 1489
368 1121 1553
384 1185 1633
384 1233 1713
432 1489 2130
400 1761 1809
1185 1249 352
1489 1473 336
400 1345 1857
464 1601 2306
464 1665 2354
464 1713 2450
464 1793 2546
528 2114 2962
544 2402 2674
1537 1649 368
1953 1889 352
448 1601 2306
480 1985 2658
512 2290 2882
560 2354 3074
576 2370 3250
785 2466 3346
3427 1393 1313
2498 2130 304
2418 2306 336
480 1985 2674
528 2354 2946
592 2594 3234
785 2658 3378
913 2594 3410
3507 1137 3314
3603 1697 1297
2930 2466 304
2834 2642 352
560 2354 3090
689 2498 3314
1121 2466 3378
2706 1489 3491
3571 1297 3507
3827 1121 3459
3779 1777 1969
3266 2834 336
3106 2978 368
913 2562 3410
1489 2562 3459
2818 1697 3523
3811 1169 3507
3827 1361 3491
3811 1473 3362
3779 1745 3394
3811 2706 897
3234 3106 384
1841 2722 3539
2898 1969 3555
3811 1313 3507
3795 1617 3491
3779 2017 3443
3779 2082 3443
3747 2162 3459
3779 2738 3218
3523 3234 416
3811 1329 3491
3795 1601 3443
3779 1953 3443
3731 2306 3507
3731 2706 3603
3715 2722 3603
3731 2834 3635
3747 2946 3507
3715 3346 576
3779 1857 3427
3747 2306 3507
3731 2594 3571
3731 2898 3651
3747 3122 3683
3747 3170 3699
3779 3266 3715
3779 3282 3651
3795 3443 2962
400 1377 1953
432 1441 2050
448 1489 2114
464 1553 2226
448 1601 2290
448 1665 2370
480 2082 2722
560 2146 1553
1553 1569 352
464 1665 2386
480 2082 2722
496 2146 2802
480 2178 2802
496 2258 2866
512 2290 2898
592 2658 3026
1137 1969 672
2114 2033 352
496 2114 2738
528 2402 2978
608 2690 3154
624 2722 3202
640 2786 3250
672 2834 3298
849 2882 2866
2017 2242 400
2594 2418 336
560 2466 3026
608 2690 3170
672 2898 3346
769 3106 3459
785 3154 3491
881 3138 3555
1265 3170 3443
2642 2578 368
2946 2738 352
640 2722 3234
689 2946 3362
785 3154 3491
897 3282 3555
1217 3314 3603
1489 3266 3651
1857 3314 3394
2962 2898 400
3170 3042 384
705 2978 3378
785 3170 3507
977 3266 3555
1457 3234 3635
2017 3266 3635
3635 1969 3603
3731 2402 3218
3555 3154 368
3362 3282 464
913 3346 3587
1169 3378 3635
2082 3282 3651
2466 3394 3699
3699 2114 3651
3715 2418 3603
3715 2578 3571
3811 3202 1521
3459 3362 464
1809 3314 3683
2546 3346 3699
3202 3042 3731
3747 2370 3699
3715 2802 3651
3731 3026 3699
3747 3106 3683
3779 3218 3635
3715 3427 1265
3346 2674 3731
3523 2642 3779
3715 2722 3715
3731 2978 3699
3779 3266 3715
3795 3427 3731
3795 3459 3731
3811 3539 3699
3747 3523 2194
464 1793 2514
464 1841 2562
480 1969 2658
480 2033 2706
512 2114 2786
512 2194 2834
512 2258 2866
496 2578 2658
1441 1681 432
512 2194 2834
560 2466 3026
576 2562 3090
592 2610 3122
608 2674 3154
656 2722 3234
656 2802 3250
689 2994 3042
1697 2242 512
576 2562 3090
640 2754 3234
689 2978 3378
721 3010 3394
769 3074 3443
769 3106 3491
801 3154 3523
801 3250 2898
2418 2530 416
656 2818 3266
705 3010 3394
801 3202 3523
945 3362 3587
945 3346 3571
993 3378 3587
1025 3410 3603
1153 3443 3234
2818 2834 416
737 3042 3427
817 3234 3539
945 3362 3587
1105 3443 3635
1297 3491 3651
1345 3523 3667
1409 3523 3667
2178 3378 2434
3202 3122 416
865 3266 3555
961 3378 3603
1121 3459 3651
1345 3507 3651
1585 3555 3651
1905 3539 3635
2242 3539 3651
3234 3202 528
3378 3298 464
1009 3410 3635
1121 3491 3651
1345 3507 3651
1649 3555 3667
2033 3523 3635
2850 3555 3683
2882 3651 3715
3427 3378 897
3539 3459 560
1345 3539 3683
1601 3571 3683
1985 3571 3667
2386 3587 3683
3074 3571 3699
3250 3651 3747
3779 3362 3731
3651 3459 785
3587 3539 592
2017 3555 3683
2402 3635 3699
2834 3667 3731
3202 3667 3779
3779 3346 3747
3795 3523 3779
3827 3667 3779
3827 3699 3587
3715 3603 2674
528 2306 2930
544 2354 2946
576 2418 3010
576 2498 3042
592 2546 3090
592 2594 3122
624 2674 3170
656 2706 3218
576 2850 2706
608 2642 3138
689 2850 3298
672 2866 3314
689 2946 3362
705 2978 3378
721 3026 3427
769 3090 3459
785 3122 3507
897 3202 3138
705 2882 3346
753 3074 3427
817 3234 3539
865 3266 3555
897 3298 3571
929 3346 3587
961 3362 3603
1009 3394 3635
1537 3266 2242
769 3090 3459
881 3282 3555
961 3378 3587
1137 3459 3651
1185 3491 3651
1233 3491 3651
1265 3491 3651
1313 3539 3635
2386 2994 753
897 3314 3587
1025 3427 3635
1201 3491 3667
1393 3507 3635
1665 3523 3603
1713 3555 3651
1777 3539 3635
1729 3587 3571
2882 3170 689
1025 3427 3635
1201 3507 3667
1441 3523 3651
1665 3523 3635
2082 3555 3651
2402 3587 3651
2498 3603 3683
2178 3683 3635
3154 3362 945
1233 3507 3667
1505 3555 3683
1697 3555 3651
2033 3555 3651
2498 3587 3651
2834 3667 3699
3010 3683 3699
2850 3699 3491
3555 3507 560
1601 3587 3683
1857 3603 3683
2114 3587 3667
2466 3603 3667
2850 3651 3699
3074 3683 3715
3298 3731 3779
3523 3491 1137
3667 3539 1937
2162 3635 3699
2594 3667 3715
2850 3699 3747
3074 3699 3731
3346 3731 3795
3491 3747 3795
3571 3827 3827
3795 3747 3427
3779 3731 3427
608 2674 3154
640 2706 3202
656 2754 3234
672 2818 3266
689 2866 3298
689 2898 3362
705 2962 3394
705 2994 3394
721 3010 3410
689 2898 3346
785 3122 3491
785 3154 3507
801 3202 3539
817 3234 3539
865 3266 3555
881 3298 3571
913 3314 3587
945 3314 3555
785 3122 3491
897 3314 3587
1009 3394 3603
1041 3427 3635
1089 3443 3651
1121 3459 3651
1153 3491 3651
1201 3491 3667
1281 3427 3394
897 3314 3587
1041 3427 3635
1217 3491 3667
1457 3539 3667
1521 3539 3651
1553 3555 3667
1649 3555 3667
1665 3587 3683
1649 3571 3539
1041 3427 3635
1265 3507 3667
1473 3539 3651
1761 3571 3651
2130 3555 3635
2242 3555 3635
2354 3603 3667
2402 3635 3683
2098 3667 3635
1265 3507 3667
1521 3571 3683
1777 3571 3651
2130 3555 3635
2562 3587 3651
2882 3667 3699
2898 3651 3699
2978 3683 3699
2562 3747 3715
1553 3571 3683
1841 3587 3667
2242 3587 3667
2562 3603 3667
2898 3651 3683
3106 3667 3699
3298 3715 3747
3042 3779 3731
3362 3491 1505
1953 3587 3683
2370 3651 3699
2722 3667 3715
2994 3699 3715
3138 3699 3731
3298 3715 3747
3443 3747 3779
3587 3827 3827
3651 3667 2994
2386 3651 3715
2786 3699 3747
3042 3715 3747
3234 3731 3779
3378 3747 3779
3491 3779 3795
3635 3843 3843
3731 3875 3843
3827 3875 3875
