其他预设/【236】赛博朋克风调色预设/【后期菌】视频调色预设/3DL/Glitch 06.3dl
# LUT by SparkleStock. Enhanced with VOXCOLOR algorithms.
0 256 512 768 1023
16 16 48
496 160 432
1937 352 977
3138 448 1425
3571 464 1441
1777 336 929
2114 368 1009
3202 464 1457
3603 464 2098
2578 1441 224
3507 464 1809
3539 464 1905
3587 448 2082
3795 560 2738
3683 1281 1313
3811 640 2866
3811 705 2882
3827 801 2962
3827 897 3026
3811 1329 3218
3795 1425 3218
3795 1553 3250
3779 1665 3298
3779 1793 3314
3779 1857 3362
128 384 528
464 656 1777
2738 432 1345
3459 448 1345
1681 1345 256
2434 448 1729
3394 464 1729
3683 464 2322
3539 1121 672
2434 2033 288
3635 464 2226
3795 592 2786
3811 640 2834
3827 977 2994
2978 2402 272
3827 865 3010
3811 1329 3202
3811 1393 3218
3795 1473 3250
3795 2322 2706
3779 1745 3298
3731 2306 3459
3731 2466 3523
3715 2562 3523
3731 2706 3571
352 1201 1489
400 1313 1617
416 1409 1713
336 2001 1953
1969 1553 256
464 1777 2242
544 2370 2786
640 2418 3090
3378 1617 1393
2594 2258 272
576 2386 2898
1297 2610 3282
3507 1553 3378
3731 1969 2033
3122 2882 320
2194 2834 3507
3779 1505 3410
3747 2178 3427
3731 2290 3443
3507 3154 352
3747 2050 3394
3715 2658 3555
3747 3154 3667
3779 3266 3715
3779 3427 2962
464 1905 2402
496 2050 2546
528 2178 2642
560 2322 2738
1889 1745 320
576 2562 2946
656 2866 3218
705 2978 3314
769 3074 3410
2594 2434 320
689 2962 3298
833 3234 3507
1201 3410 3587
1345 3459 3635
3218 3026 352
913 3314 3571
1281 3443 3603
2098 3491 3603
2898 3651 3715
3523 3427 496
2082 3523 3667
2866 3651 3731
3779 3314 3731
3827 3667 3779
3715 3587 2610
608 2658 3010
640 2738 3090
656 2818 3170
689 2898 3250
689 2930 3266
737 3026 3378
913 3298 3555
1009 3378 3587
1073 3410 3603
1233 3378 3346
945 3346 3571
1441 3491 3603
2162 3523 3603
2370 3571 3651
2098 3651 3603
1553 3507 3651
2274 3571 3667
2898 3635 3667
3282 3715 3731
3346 3491 1441
2402 3635 3699
3042 3715 3731
3362 3747 3779
3651 3843 3843
3827 3875 3875
