其他预设/【236】赛博朋克风调色预设/【后期菌】视频调色预设/3DL/Glitch 03.3dl
# LUT by SparkleStock. Enhanced with VOXCOLOR algorithms.
0 128 256 384 512 640 768 896 1023
0 0 0
144 16 144
320 32 320
865 128 608
2001 208 689
3042 256 881
3443 304 1297
3571 288 1633
3699 320 1265
304 48 336
336 32 352
801 128 608
2210 224 721
3138 256 977
3459 272 1329
3571 288 1649
3683 320 1665
3378 753 128
1649 176 656
2001 208 689
2386 224 721
3122 256 961
3475 288 1377
3587 304 1713
3699 368 2322
3683 560 640
2722 1409 96
3346 272 1185
3443 304 1297
3475 288 1377
3491 288 1409
3587 320 1793
3699 352 2306
3811 496 2770
3811 624 2898
3699 849 512
3635 288 1921
3667 320 2114
3651 320 2114
3667 336 2226
3699 352 2306
3811 480 2770
3843 672 2962
3843 865 3090
3763 1057 1025
3795 480 2722
3811 560 2834
3811 576 2866
3843 624 2898
3843 624 2898
3843 721 2978
3859 945 3106
3811 1169 3186
3811 1361 3202
3843 865 3090
3843 945 3106
3843 977 3106
3843 1025 3122
3843 1105 3186
3843 1169 3186
3843 1201 3202
3811 1457 3250
3795 1681 3314
3811 1345 3218
3811 1409 3218
3811 1473 3250
3795 1521 3234
3795 1553 3250
3795 1633 3266
3795 1681 3298
3779 1713 3314
3763 2050 3346
3763 1825 3314
3779 1953 3346
3763 2017 3362
3747 2050 3346
3763 2130 3378
3763 2194 3410
3763 2242 3427
3763 2354 3443
3763 2370 3443
192 16 208
256 32 272
512 96 464
1489 176 672
2866 256 801
3314 256 1105
3555 304 1521
3667 320 961
2770 881 96
416 80 448
1249 176 656
2642 256 753
3234 272 1041
3539 288 1489
3635 320 1713
3491 560 128
1617 1297 176
1329 1585 368
2562 256 753
3202 256 993
3266 272 1089
3539 288 1473
3635 320 1985
3747 400 2466
3795 480 2690
3635 801 256
2098 1905 240
3491 272 1393
3603 320 1793
3603 304 1905
3635 304 2001
3779 400 2498
3811 528 2802
3811 672 2818
3731 961 480
2274 2242 256
3683 336 2242
3795 480 2706
3795 496 2802
3811 528 2802
3811 560 2834
3843 721 2994
3843 977 3122
3811 1185 3106
3763 1489 512
3811 576 2834
3843 785 3026
3843 833 3042
3859 881 3106
3843 913 3106
3843 977 3106
3811 1217 3202
3811 1473 3202
3811 1665 1329
3843 1009 3138
3811 1265 3202
3795 1265 3202
3811 1345 3218
3811 1409 3234
3795 1473 3250
3795 1521 3234
3779 1825 3330
3763 2114 3314
3811 1505 3250
3779 1777 3314
3779 1825 3330
3779 1937 3346
3763 1953 3330
3763 2066 3378
3763 2114 3378
3763 2194 3410
3747 2482 3459
3779 2098 3378
3747 2338 3427
3747 2418 3459
3747 2466 3475
3747 2562 3491
3731 2578 3491
3731 2642 3523
3747 2690 3539
3731 2754 3555
80 288 416
96 320 496
352 528 1937
1361 224 1905
3122 256 1169
3378 272 1809
3651 304 1121
2033 913 96
1057 1217 320
208 560 1121
2722 240 1409
2882 256 1425
3427 288 1425
3587 320 1697
3667 320 2162
3555 592 208
1553 1489 256
1505 1729 352
2594 256 1825
3362 288 1617
3539 288 1761
3667 336 2162
3779 432 2578
3811 576 2722
3683 817 384
2066 2033 272
2130 2258 304
3523 304 1841
3651 336 2162
3763 400 2498
3795 448 2594
3843 608 2898
3843 785 3026
3795 817 2450
3475 2050 128
2530 2434 256
3747 400 2498
3811 560 2834
3859 721 2994
3859 785 3042
3859 833 3090
3843 1073 3154
3811 1281 3154
3795 1473 1217
3122 2706 224
3843 721 2994
3859 945 3106
3811 1185 3186
3811 1249 3202
3811 1329 3202
3795 1297 3202
3795 1617 3298
3795 1777 3074
3683 2802 256
3843 1169 3202
3795 1361 3218
3795 1681 3298
3779 1697 3298
3779 1777 3314
3763 1825 3314
3779 1905 3330
3763 2226 3378
3811 2546 2882
3795 1649 3298
3763 1953 3346
3747 2226 3410
3763 2322 3427
3747 2386 3443
3747 2418 3443
3747 2498 3459
3747 2562 3491
3763 2834 3362
3747 2210 3410
3747 2498 3475
3731 2754 3555
3731 2770 3539
3747 2834 3571
3747 2898 3587
3731 2898 3587
3747 2978 3603
3747 3010 3603
176 576 865
192 640 929
208 705 1025
256 785 1201
368 1153 2130
400 1617 2770
3587 400 945
1441 1121 176
1185 1409 368
288 961 1409
336 1297 1905
400 1377 2226
512 1649 3010
2274 753 2994
3491 624 2658
3330 897 128
1425 1649 368
1665 1889 320
384 1361 2210
400 1889 2866
480 2338 3106
3330 753 2962
3603 753 2930
3747 833 2994
3731 913 528
2306 2162 240
2370 2338 256
480 2066 3074
817 2033 3202
3330 977 3074
3747 913 3090
3779 1089 3202
3859 1137 3202
3795 1265 1441
3090 2594 208
2802 2674 240
3074 1025 3106
3731 817 3026
3843 961 3138
3843 1089 3154
3843 1153 3186
3795 1361 3218
3811 1537 2914
3459 2770 224
3026 2882 256
3779 1009 3122
3795 1137 3202
3811 1345 3218
3795 1617 3298
3795 1649 3266
3779 1681 3298
3763 2033 3346
3795 2242 2578
3443 3106 256
3795 1329 3250
3811 1569 3298
3779 1841 3330
3763 2194 3427
3763 2258 3427
3747 2306 3410
3747 2338 3427
3795 2674 3010
3603 3218 320
3779 1825 3330
3747 2130 3378
3747 2386 3443
3747 2706 3555
3731 2706 3539
3731 2722 3539
3731 2802 3555
3731 2866 3571
3763 3138 3234
3747 2386 3443
3731 2658 3539
3731 2866 3571
3747 3074 3635
3747 3106 3635
3747 3138 3635
3763 3186 3651
3763 3186 3651
3763 3266 3539
304 1025 1537
320 1121 1617
320 1185 1697
320 1201 1809
336 1313 1937
384 1777 2578
320 2017 2146
961 1265 384
1297 1537 352
368 1425 2194
368 1953 2674
384 2033 2706
400 2146 2786
416 2274 2882
560 2642 3186
576 2786 2978
1265 1841 480
1905 2050 320
400 2001 2706
448 2434 2962
560 2722 3106
640 2786 3250
721 2882 3362
977 2978 3443
3587 1377 1217
2658 2306 208
2546 2434 224
448 2450 2962
560 2754 3138
769 3010 3346
1057 3090 3459
1217 3042 3491
3555 1729 3298
3683 1793 1185
3090 2690 224
2930 2802 256
640 2802 3250
897 2978 3427
1345 2962 3459
2978 2098 3378
3571 1985 3427
3747 1793 3410
3795 1985 2130
3362 3010 256
3234 3106 288
1185 3026 3491
1761 3010 3475
3074 2338 3459
3731 1841 3410
3763 2098 3459
3763 2130 3410
3747 2386 3443
3875 2994 721
3346 3234 320
2258 3154 3571
3154 2594 3571
3747 2033 3459
3731 2322 3491
3747 2658 3523
3731 2658 3523
3731 2706 3539
3763 3010 3330
3603 3346 368
3779 2066 3475
3747 2322 3475
3747 2578 3523
3731 2802 3555
3763 3042 3635
3747 3074 3635
3763 3106 3651
3763 3154 3539
3763 3443 528
3747 2530 3491
3731 2818 3555
3747 2978 3603
3763 3186 3651
3763 3314 3683
3763 3346 3683
3779 3410 3731
3779 3410 3651
3811 3491 3138
352 1521 2322
368 1649 2434
368 1761 2546
384 1889 2610
400 2001 2722
400 2098 2770
496 2562 3026
352 2370 1553
1377 1697 400
384 2098 2754
496 2546 3026
512 2594 3074
512 2610 3042
544 2674 3106
560 2754 3154
689 2994 3234
865 2354 881
2066 2242 320
496 2578 3010
608 2802 3154
801 3074 3330
801 3074 3346
849 3106 3378
897 3154 3427
977 3122 3122
1937 2386 368
2658 2562 256
640 2882 3234
801 3074 3346
993 3234 3459
1185 3346 3523
1249 3378 3555
1345 3362 3571
1665 3378 3523
2610 2706 304
3042 2898 256
817 3090 3362
1009 3234 3459
1233 3378 3539
1441 3443 3587
1777 3427 3587
2066 3427 3635
2338 3443 3475
3122 3042 304
3266 3202 320
1025 3266 3475
1265 3410 3571
1505 3427 3571
2017 3378 3587
2530 3427 3635
3635 2674 3651
3747 2802 3314
3635 3298 336
3459 3346 400
1473 3475 3635
1777 3475 3635
2578 3443 3667
2834 3475 3683
3667 2754 3667
3699 2882 3635
3731 2994 3603
3843 3298 1633
3587 3427 416
2418 3491 3683
2898 3459 3699
3362 3266 3731
3731 2866 3699
3747 3106 3651
3763 3250 3683
3763 3298 3683
3779 3362 3651
3779 3459 1345
3491 3026 3731
3651 3010 3763
3747 3074 3699
3763 3234 3699
3779 3378 3699
3795 3523 3731
3795 3539 3731
3811 3587 3699
3795 3555 2546
416 2242 2866
432 2354 2914
480 2450 2978
480 2498 3010
528 2610 3074
544 2674 3106
560 2690 3122
560 2914 2978
1089 1937 592
528 2642 3090
640 2882 3202
672 2930 3250
737 3010 3314
769 3026 3314
817 3090 3378
849 3122 3378
897 3218 3266
1457 2450 544
689 2930 3250
833 3106 3378
1041 3266 3475
1073 3298 3491
1137 3346 3539
1185 3346 3539
1249 3410 3571
1009 3330 3122
2322 2642 352
865 3138 3410
1073 3298 3475
1313 3410 3571
1489 3443 3587
1537 3459 3587
1585 3491 3603
1601 3523 3603
1569 3491 3346
2930 2978 320
1105 3314 3523
1345 3427 3587
1489 3443 3587
1697 3491 3603
1985 3523 3603
2098 3555 3651
2130 3555 3651
2322 3378 2418
3346 3234 336
1393 3459 3603
1553 3491 3635
1729 3523 3635
2066 3539 3635
2306 3555 3603
2578 3587 3651
2770 3587 3667
3362 3298 432
3491 3362 400
1617 3539 3651
1793 3555 3667
2050 3539 3635
2370 3571 3651
2642 3555 3635
3042 3587 3683
3122 3667 3731
3523 3427 817
3635 3523 528
2066 3587 3683
2370 3635 3683
2658 3635 3683
2866 3635 3683
3234 3635 3731
3378 3635 3747
3779 3459 3731
3699 3523 801
3667 3539 640
2674 3603 3699
2882 3667 3731
3106 3667 3747
3346 3683 3779
3779 3443 3731
3811 3571 3747
3843 3667 3747
3843 3683 3603
3763 3635 2914
576 2770 3154
592 2786 3186
624 2834 3218
656 2898 3250
689 2930 3250
705 2978 3298
769 3042 3346
801 3074 3362
672 3074 2994
737 3010 3314
897 3154 3427
945 3202 3443
993 3234 3459
1041 3298 3491
1073 3314 3523
1153 3346 3555
1185 3378 3555
1185 3346 3314
945 3218 3459
1121 3330 3523
1345 3427 3587
1409 3443 3587
1441 3459 3603
1489 3491 3635
1521 3491 3635
1569 3523 3651
1377 3314 2210
1169 3362 3555
1409 3459 3603
1537 3475 3587
1777 3523 3635
1825 3523 3603
1905 3539 3635
1985 3555 3651
2001 3571 3651
2338 3026 592
1425 3475 3635
1617 3523 3635
1841 3539 3635
2098 3523 3603
2354 3523 3587
2434 3587 3651
2530 3587 3651
2386 3603 3587
3026 3250 512
1633 3539 3651
1873 3555 3651
2130 3539 3635
2370 3555 3603
2674 3571 3651
2834 3603 3651
2930 3635 3683
2770 3667 3635
3250 3410 769
1921 3571 3667
2242 3571 3667
2450 3587 3667
2658 3587 3651
2914 3603 3667
3106 3667 3699
3218 3699 3731
3122 3667 3491
3635 3523 560
2354 3635 3699
2594 3651 3731
2722 3635 3683
2914 3635 3683
3106 3667 3699
3250 3699 3747
3427 3731 3763
3603 3491 1233
3731 3571 2306
2770 3667 3731
2994 3683 3731
3138 3731 3763
3234 3699 3747
3443 3731 3763
3571 3747 3779
3667 3779 3811
3811 3747 3475
3811 3747 3475
769 3026 3330
785 3074 3346
849 3122 3378
865 3138 3427
929 3202 3459
961 3218 3459
1009 3266 3491
1025 3298 3491
1073 3314 3523
945 3218 3459
1185 3362 3555
1249 3410 3571
1297 3427 3587
1329 3427 3587
1393 3459 3603
1409 3475 3635
1473 3475 3635
1489 3491 3587
1185 3378 3555
1409 3475 3635
1617 3523 3651
1633 3523 3635
1697 3523 3635
1729 3539 3635
1809 3555 3667
1889 3571 3667
1777 3523 3491
1457 3475 3635
1649 3555 3651
1889 3555 3651
2210 3571 3667
2226 3555 3635
2306 3587 3667
2370 3587 3667
2418 3635 3699
2322 3587 3555
1649 3539 3651
1937 3555 3651
2210 3555 3651
2482 3587 3651
2706 3587 3635
2770 3587 3651
2834 3635 3667
2898 3667 3699
2722 3683 3651
1953 3571 3667
2274 3587 3667
2482 3587 3651
2706 3571 3635
2930 3603 3651
3106 3651 3683
3122 3667 3699
3186 3683 3731
3010 3747 3731
2338 3603 3683
2578 3635 3699
2770 3603 3667
2978 3651 3683
3122 3651 3683
3266 3683 3731
3410 3683 3731
3266 3763 3747
3523 3491 1537
2658 3667 3731
2882 3683 3731
3026 3667 3699
3186 3683 3731
3266 3683 3731
3427 3731 3747
3555 3747 3763
3667 3795 3811
3731 3683 3186
2882 3683 3731
3106 3699 3747
3234 3731 3763
3346 3699 3747
3475 3747 3763
3571 3763 3779
3699 3811 3811
3795 3811 3795
3843 3811 3843
