其他预设/【236】赛博朋克风调色预设/【后期菌】视频调色预设/3DL/Glitch 05.3dl
# LUT by SparkleStock. Enhanced with VOXCOLOR algorithms.
0 128 256 384 512 640 768 896 1023
0 384 144
0 384 192
48 384 224
528 400 304
1089 400 416
1793 400 624
2530 416 961
2994 448 1217
3507 496 993
48 400 224
80 384 224
512 400 304
1185 400 448
1953 400 689
2610 400 977
3042 432 1233
3475 464 1265
2722 721 256
929 400 400
1089 400 416
1297 400 448
1937 400 689
2642 416 1009
3106 448 1297
3587 480 1665
3443 624 624
2130 1265 288
2354 400 849
2530 416 961
2642 416 1009
2690 432 1025
3138 448 1329
3571 480 1665
3859 512 2050
3907 560 2194
3539 929 640
3266 432 1425
3427 464 1537
3427 464 1553
3523 464 1601
3571 464 1649
3859 512 2050
3923 592 2242
3987 624 2418
3747 1057 1025
3843 512 2001
3891 544 2114
3891 544 2146
3907 576 2194
3907 560 2194
3939 592 2274
3987 656 2466
3971 753 2578
3971 865 2642
3987 624 2434
3987 656 2450
3971 656 2466
3971 672 2482
3987 737 2546
3987 753 2562
3987 769 2626
3987 913 2754
3971 1089 2898
3987 849 2690
3971 865 2690
3987 929 2754
3971 961 2754
3971 977 2802
3971 1041 2850
3971 1089 2898
3971 1121 2914
3971 1329 3042
3971 1169 2962
3987 1265 3026
3987 1313 3026
3971 1329 3010
3987 1377 3058
3987 1457 3090
4003 1505 3122
4003 1585 3154
4003 1585 3154
0 384 208
16 400 224
272 400 256
849 400 400
1601 400 560
2274 400 801
2866 448 1137
3362 496 817
1921 833 256
160 400 256
753 400 384
1441 400 480
2162 416 769
2802 432 1105
3234 448 1297
2978 576 256
1585 1249 256
1697 1585 320
1393 400 480
2050 400 721
2210 416 785
2802 432 1089
3298 448 1457
3683 496 1745
3859 528 1953
3394 801 368
2130 1825 384
2674 416 1025
3154 448 1329
3250 448 1409
3330 448 1473
3731 512 1777
3875 528 2098
3907 592 2130
3571 1009 592
2370 2114 432
3523 464 1633
3827 512 1969
3859 512 2066
3859 528 2066
3875 528 2130
3923 592 2322
3987 656 2482
3971 769 2466
3731 1505 785
3891 544 2146
3939 592 2338
3971 608 2370
3987 624 2450
3971 640 2450
3971 656 2450
3987 769 2626
3971 945 2658
3907 1553 1329
3971 672 2530
3987 801 2642
3971 801 2642
3987 849 2690
3971 865 2706
3987 929 2722
3971 961 2754
3971 1185 2978
3971 1425 2882
3987 945 2754
3971 1153 2978
3971 1169 2978
3987 1265 3010
3971 1297 3010
3987 1329 3058
3987 1377 3042
3987 1457 3090
3987 1713 3186
4003 1361 3058
3971 1569 3106
3987 1633 3186
3987 1697 3202
4003 1793 3218
3987 1825 3234
3987 1857 3282
3987 1953 3298
3987 2001 3314
0 432 304
0 448 336
0 416 1329
929 400 1057
1889 416 817
2450 400 1345
3266 464 897
1553 833 224
1329 1249 256
0 496 721
1537 416 977
1665 416 977
2498 400 1073
3074 448 1281
3475 464 1601
3122 608 304
1697 1489 304
1857 1745 352
1505 416 1297
2386 416 1233
2994 448 1329
3475 480 1601
3779 528 1857
3891 560 1985
3475 881 496
2178 1921 400
2322 2178 448
2914 432 1345
3427 480 1601
3731 512 1793
3795 528 1873
3923 576 2194
3955 592 2354
3923 753 1793
3138 1809 432
2594 2402 512
3683 480 1777
3891 544 2114
3939 592 2322
3987 624 2370
3987 624 2418
3971 705 2546
3987 817 2578
3875 1393 1201
3010 2562 576
3939 592 2290
3987 656 2466
3971 753 2578
3987 785 2626
3987 817 2658
3971 817 2642
3987 1025 2850
3987 1313 2466
3715 2418 624
3987 753 2578
3971 849 2674
3971 1089 2898
3971 1105 2898
3971 1153 2962
3955 1169 2962
3987 1233 2994
3987 1489 3042
3987 1969 2290
3987 1057 2882
3987 1281 3042
3971 1505 3090
3987 1553 3138
3987 1601 3154
3987 1649 3138
3987 1745 3202
4003 1809 3250
3971 2130 2914
3971 1473 3090
3987 1745 3218
3987 2001 3314
3971 2050 3314
3987 2146 3346
3987 2210 3362
3971 2226 3362
3971 2322 3410
3971 2386 3427
0 544 576
0 560 592
16 592 689
16 608 801
16 769 1457
16 961 1969
3042 480 785
1393 1089 240
1505 1409 272
32 737 993
32 929 1361
32 961 1537
32 881 2354
1697 528 2226
2834 480 2017
2658 865 288
1777 1649 336
2033 1873 384
32 961 1537
48 1137 2162
48 1441 2610
2562 512 2290
3186 496 2322
3635 592 2370
3571 961 640
2322 2033 400
2466 2258 464
16 1169 2434
352 1025 2674
2626 576 2466
3507 592 2498
3699 656 2642
4003 753 2578
3859 1233 1297
2914 2402 528
2898 2642 576
2354 576 2498
3539 592 2434
3891 640 2562
4003 737 2562
3987 737 2578
3987 865 2690
3971 1153 2242
3346 2530 576
3106 2834 640
3747 624 2578
3923 721 2690
4035 865 2690
4003 1041 2866
3987 1073 2866
3971 1105 2898
3971 1329 3010
3987 1825 2033
3507 2914 705
3971 801 2786
3987 993 2850
3987 1185 2994
4003 1457 3106
3987 1505 3122
3971 1521 3090
3971 1569 3106
3987 2114 2450
3763 3026 801
3971 1185 2994
3971 1393 3058
3987 1633 3122
4003 1953 3298
3987 2001 3298
3987 2017 3314
3971 2114 3330
3971 2162 3346
3955 2578 2818
3987 1601 3154
3987 1905 3298
3971 2162 3346
3971 2434 3459
3971 2482 3459
3971 2546 3475
3971 2594 3491
3971 2610 3507
3971 2786 3266
32 753 1105
32 801 1169
48 849 1233
16 865 1297
16 945 1377
0 1169 1777
16 1537 1585
1329 1297 240
1681 1569 304
32 1041 1553
48 1329 1937
32 1345 1985
32 1409 2098
16 1425 2210
64 1665 2674
144 1953 2402
1793 1793 352
2162 2001 400
32 1329 1953
32 1617 2386
144 1873 2706
160 1857 2914
224 1889 3202
400 1889 3234
3090 1249 1185
2546 2130 448
2610 2402 512
32 1601 2370
128 1889 2706
240 2130 3186
432 2162 3362
592 2001 3394
3394 1057 3010
3507 1601 1281
2994 2530 560
3026 2770 608
144 1857 2914
320 1969 3250
801 1857 3330
2706 1313 3282
3523 1217 3282
3987 1137 3218
3939 1713 1761
3410 2834 672
3362 3122 753
576 1953 3330
1201 1889 3410
2834 1489 3362
3987 1153 3282
4035 1329 3314
3987 1393 3058
3971 1633 3122
3955 2466 1265
3555 3250 817
1505 2001 3491
2962 1697 3507
4003 1297 3282
3987 1569 3330
4003 1873 3266
3987 1905 3266
3987 1953 3282
3971 2386 2882
3827 3298 961
4003 1297 3298
3987 1537 3282
4003 1825 3266
3971 2098 3330
3987 2418 3459
3971 2418 3443
3987 2530 3475
3971 2610 3250
3939 3282 1329
3987 1761 3250
3971 2114 3330
3971 2338 3427
3971 2594 3491
3955 2834 3523
3955 2898 3555
3971 2978 3571
3955 3042 3459
3987 3250 2866
0 1057 1601
16 1137 1697
16 1185 1777
16 1249 1841
16 1313 1937
0 1329 1985
32 1681 2418
224 1969 865
1793 1697 336
16 1345 2033
48 1697 2450
64 1729 2530
80 1761 2562
96 1825 2626
128 1873 2690
224 2162 2850
1649 2146 416
2274 2146 448
48 1697 2450
144 1937 2802
240 2242 3074
256 2258 3138
272 2322 3186
320 2386 3266
624 2466 2594
2386 2386 496
2754 2546 560
176 2001 2850
256 2242 3122
336 2466 3330
400 2690 3507
464 2786 3587
528 2674 3635
945 2690 3410
2866 2770 608
3138 2850 656
256 2258 3138
368 2498 3346
448 2770 3555
560 2962 3715
785 2914 3715
1105 2770 3731
1633 2930 3298
3266 3090 721
3475 3218 785
384 2546 3362
480 2802 3587
608 2834 3667
1089 2690 3731
1601 2690 3731
3859 1889 3683
3955 2098 2850
3827 3154 881
3731 3443 929
592 2978 3747
769 2994 3763
1633 2674 3747
1969 2786 3795
3955 1985 3731
3971 2210 3523
3955 2322 3427
3955 2978 1857
3859 3539 1025
1409 2802 3779
2033 2722 3779
3106 2530 3779
3987 2178 3747
3971 2466 3539
3955 2706 3571
3955 2818 3523
3971 2930 3443
3971 3443 1905
3491 2274 3747
3779 2338 3795
3955 2418 3667
3971 2658 3571
3955 2978 3571
3971 3202 3651
3955 3266 3651
3971 3346 3571
3987 3587 2546
0 1425 2130
0 1505 2242
32 1585 2338
32 1617 2402
48 1697 2466
64 1745 2530
96 1809 2610
192 2226 2450
1761 1889 384
64 1745 2530
192 2017 2882
224 2098 2962
224 2146 3026
240 2210 3042
272 2258 3122
288 2338 3186
416 2626 2898
2194 2386 480
208 2098 2962
256 2274 3154
352 2530 3362
400 2594 3427
400 2642 3475
432 2706 3539
480 2786 3619
881 2898 2434
2754 2722 592
304 2354 3218
384 2578 3427
464 2786 3619
592 3010 3731
608 3026 3731
640 3042 3747
656 3074 3747
1201 3202 2930
3122 3042 705
400 2626 3459
496 2834 3667
592 3010 3731
721 3122 3763
881 3202 3795
961 3250 3843
1009 3266 3843
2226 3330 1921
3539 3282 817
544 2914 3715
624 3042 3763
753 3154 3795
961 3250 3843
1185 3298 3827
1473 3362 3795
1745 3298 3795
3571 3362 961
3763 3475 961
672 3090 3779
753 3186 3827
961 3234 3827
1233 3314 3843
1585 3314 3795
2354 3218 3795
2418 3459 3843
3747 3555 1361
3955 3731 1169
961 3266 3859
1201 3314 3859
1537 3394 3843
1857 3427 3859
2706 3234 3779
3010 3346 3827
3955 3090 3667
3955 3635 1537
3987 3779 1345
1553 3314 3843
1873 3427 3875
2338 3427 3875
2882 3394 3859
3971 3058 3699
3971 3330 3731
4003 3539 3683
3987 3619 3459
3987 3731 2786
112 1857 2690
144 1889 2706
160 1953 2786
176 2001 2850
192 2017 2914
224 2130 2994
256 2210 3058
272 2242 3106
400 2546 2450
224 2162 3010
320 2386 3266
336 2418 3298
368 2482 3330
400 2562 3394
400 2610 3459
416 2658 3507
448 2722 3555
721 2914 3010
336 2418 3282
416 2658 3475
496 2850 3651
544 2930 3715
560 2962 3731
592 3010 3747
624 3026 3763
656 3074 3779
1825 3058 1489
432 2674 3507
544 2930 3715
608 3042 3731
753 3154 3763
769 3186 3779
833 3202 3795
865 3218 3795
929 3282 3747
2898 3250 801
560 2962 3747
656 3074 3763
785 3186 3795
1009 3250 3827
1265 3314 3795
1297 3330 3827
1361 3346 3827
1329 3507 3667
3330 3443 881
672 3090 3779
801 3218 3827
1041 3250 3827
1265 3314 3827
1585 3362 3779
1889 3443 3827
1985 3459 3843
1729 3667 3747
3571 3651 1137
833 3234 3827
1105 3282 3843
1281 3330 3843
1569 3410 3795
2001 3459 3843
2338 3491 3795
2562 3571 3795
2642 3731 3106
3971 3763 1217
1185 3330 3859
1425 3394 3843
1617 3427 3843
1969 3475 3859
2386 3507 3795
2674 3571 3795
3042 3635 3843
3939 3779 1649
4003 3827 2386
1649 3459 3859
2066 3491 3891
2354 3555 3891
2642 3571 3827
3106 3619 3859
3410 3667 3859
3619 3763 3891
3987 3827 3250
3987 3843 3250
240 2194 3058
256 2242 3090
288 2274 3154
304 2354 3218
336 2402 3266
352 2450 3314
384 2498 3362
400 2562 3410
400 2578 3427
352 2434 3314
448 2722 3539
464 2770 3587
496 2818 3651
512 2850 3667
544 2914 3715
544 2962 3747
592 2994 3747
608 3010 3683
448 2722 3555
560 2962 3747
656 3074 3763
672 3090 3763
721 3122 3763
753 3154 3795
769 3202 3795
801 3218 3827
1089 3218 3362
576 2978 3747
689 3122 3779
801 3202 3795
1073 3282 3859
1121 3282 3827
1153 3298 3843
1233 3314 3843
1249 3346 3859
1329 3443 3571
689 3106 3779
865 3234 3827
1089 3266 3827
1329 3362 3843
1649 3410 3795
1729 3427 3827
1809 3443 3843
1857 3459 3859
1681 3667 3731
865 3234 3827
1121 3282 3843
1345 3362 3827
1633 3427 3795
2050 3459 3843
2386 3491 3779
2434 3491 3779
2530 3539 3795
1969 3763 3843
1169 3298 3859
1425 3394 3843
1697 3427 3827
2050 3475 3859
2418 3475 3763
2690 3539 3763
3058 3651 3795
2578 3795 3843
3779 3859 1553
1457 3394 3843
1841 3475 3875
2226 3507 3875
2498 3539 3795
2770 3571 3795
3074 3635 3795
3346 3731 3843
3651 3827 3891
3971 3891 2754
1841 3475 3859
2258 3555 3907
2626 3587 3859
2882 3635 3843
3138 3699 3843
3410 3763 3875
3699 3795 3907
3891 3875 3779
3987 3875 3859
