其他预设/【236】赛博朋克风调色预设/【后期菌】视频调色预设/3DL/Glitch 01_S.3dl
# LUT by SparkleStock. Enhanced with VOXCOLOR algorithms.
0 128 256 384 512 640 768 896 1023
336 336 336
352 336 368
400 336 368
624 336 416
1025 352 512
1665 352 656
2482 368 1025
2962 400 1361
3330 448 1121
400 352 384
400 336 368
624 352 432
1089 352 528
1841 368 737
2578 368 1057
2994 384 1361
3282 448 1457
2722 689 400
929 336 480
1025 352 512
1169 352 528
1841 368 721
2594 384 1073
3058 400 1441
3362 464 1953
3314 528 737
1921 1137 496
2242 368 865
2482 368 1025
2594 368 1073
2610 400 1105
3090 400 1489
3346 464 1921
3555 512 2354
3603 528 2546
3314 801 737
3154 416 1601
3250 448 1713
3170 464 1713
3314 448 1809
3346 464 1921
3555 512 2354
3619 560 2594
3651 624 2754
3523 897 1105
3539 496 2338
3587 528 2466
3523 560 2466
3603 544 2530
3603 544 2546
3619 576 2610
3571 672 2802
3667 721 2898
3683 865 2930
3651 624 2770
3667 640 2786
3555 689 2770
3667 672 2834
3683 705 2882
3683 721 2898
3683 753 2914
3683 913 2978
3683 1121 3074
3571 897 2898
3587 945 2914
3587 977 2930
3667 977 2978
3571 1057 2978
3571 1105 2994
3587 1169 3074
3571 1185 3106
3683 1409 3154
3683 1217 3106
3699 1329 3138
3699 1377 3154
3683 1409 3154
3699 1473 3170
3699 1537 3186
3699 1617 3218
3715 1697 3266
3715 1729 3266
368 336 368
368 352 384
496 352 400
865 336 464
1457 336 576
2210 368 865
2834 384 1217
3266 432 929
1777 705 384
448 352 400
801 352 464
1329 336 544
2082 368 817
2754 384 1201
3138 416 1441
2930 544 416
1393 1041 368
1521 1393 416
1297 352 544
1921 368 769
2066 368 849
2674 400 1185
3170 416 1617
3394 480 2082
3539 512 2306
3266 769 528
1985 1697 528
2578 384 1089
3026 416 1473
2978 464 1553
3138 432 1665
3459 496 2114
3571 512 2402
3603 576 2482
3394 929 672
2290 2017 592
3314 464 1841
3539 512 2290
3491 528 2338
3571 512 2402
3571 528 2434
3619 576 2626
3667 640 2818
3667 769 2802
3523 1505 785
3587 528 2482
3619 576 2674
3555 640 2690
3667 624 2770
3651 624 2786
3651 640 2802
3587 785 2930
3683 961 2930
3651 1553 1361
3667 656 2866
3683 785 2930
3587 849 2898
3667 865 2962
3683 897 2962
3667 929 2978
3667 977 2978
3683 1217 3122
3683 1521 3074
3587 1009 2914
3603 1217 3058
3603 1265 3074
3699 1329 3138
3603 1393 3106
3619 1441 3154
3603 1505 3170
3619 1569 3186
3699 1873 3282
3699 1425 3170
3683 1697 3250
3699 1793 3282
3699 1857 3282
3715 1953 3298
3699 1985 3298
3715 2082 3314
3715 2194 3330
3715 2290 3346
336 368 416
336 368 432
384 368 1345
865 352 993
1745 352 833
2386 368 1377
3170 400 1009
1361 705 352
1169 1041 368
352 400 689
1329 368 929
1409 368 993
2210 384 1153
2882 400 1457
3282 448 1793
3106 592 464
1569 1297 416
1729 1569 448
1345 400 1201
2001 480 1105
2402 528 1313
2722 560 1697
3106 544 2146
3491 544 2354
3330 801 608
2130 1841 496
2226 2066 592
2690 480 1329
2722 656 1505
2738 705 1777
2882 705 2001
3202 672 2418
3523 624 2674
3619 705 2130
3010 1761 528
2546 2338 640
3330 528 2017
3186 705 2114
3138 785 2306
3154 833 2466
3330 737 2626
3667 689 2882
3683 817 2882
3619 1345 1265
2946 2546 656
3619 576 2626
3555 705 2722
3507 833 2786
3459 881 2802
3619 865 2930
3667 817 2930
3619 1073 3058
3699 1329 2754
3427 2466 721
3683 737 2914
3667 865 2962
3619 1153 3010
3667 1137 3074
3683 1185 3090
3667 1217 3106
3683 1313 3138
3699 1569 3186
3715 2098 2482
3619 1153 2978
3651 1377 3090
3619 1617 3154
3699 1681 3250
3651 1777 3218
3651 1825 3250
3651 1921 3282
3667 2001 3314
3699 2370 3122
3699 1553 3186
3699 1905 3298
3715 2290 3346
3699 2322 3330
3715 2418 3362
3715 2482 3362
3699 2514 3362
3715 2578 3394
3715 2626 3410
352 448 544
416 464 592
480 448 689
480 464 817
368 592 1377
368 753 1921
3010 432 897
1201 897 368
1361 1201 384
496 560 785
656 689 1057
705 705 1313
672 640 2114
1585 464 2274
2754 448 2210
2610 785 416
1649 1473 432
1921 1745 480
592 817 1153
801 977 1521
833 1105 1889
2033 656 1969
2578 624 2338
3154 592 2626
3394 865 705
2290 1953 512
2418 2178 608
608 1089 1889
865 1073 1825
2001 913 1777
2498 913 2130
2802 881 2578
3330 801 2818
3587 1121 1425
2882 2386 624
2818 2610 721
2178 737 2098
2738 929 1953
2754 1073 2098
2834 1089 2338
3106 993 2658
3459 945 2914
3699 1169 2610
3186 2514 705
3010 2818 737
3378 721 2706
3250 945 2514
3202 1153 2514
3250 1313 2738
3410 1201 2898
3667 1121 3058
3619 1409 3138
3699 1905 2194
3298 2930 817
3667 801 2994
3619 1025 2978
3651 1281 3074
3603 1585 3138
3699 1617 3250
3683 1649 3218
3699 1713 3250
3699 2226 2610
3507 2994 865
3619 1265 3058
3619 1521 3122
3651 1809 3202
3715 2194 3330
3667 2242 3298
3667 2306 3330
3651 2402 3346
3667 2466 3362
3699 2738 2978
3699 1745 3266
3715 2130 3330
3699 2434 3346
3731 2706 3427
3715 2754 3427
3715 2802 3459
3731 2834 3475
3731 2866 3491
3715 2978 3298
400 560 929
544 560 961
640 576 1089
608 592 1217
512 705 1329
384 993 1713
400 1329 1329
1169 1089 368
1505 1361 416
689 785 1185
929 913 1393
1041 881 1521
993 945 1809
833 1041 2114
608 1425 2690
432 1825 2306
1665 1649 448
2082 1873 496
865 1089 1345
1105 1233 1489
1153 1393 1761
1137 1393 2146
1009 1473 2674
753 1697 3058
3058 1089 1169
2514 2082 544
2562 2306 640
865 1441 1633
1121 1649 1601
1185 1729 1937
1185 1793 2338
1073 1793 2738
2978 1025 2962
3330 1585 1281
2930 2514 656
2946 2738 769
801 1825 2114
1025 1937 2001
1217 1889 2162
2386 1457 2418
2914 1377 2834
3410 1233 3122
3667 1713 1905
3250 2834 785
3218 3074 849
721 2066 2834
1217 2066 2610
2562 1665 2562
3170 1489 2738
3378 1553 3058
3603 1521 3154
3667 1793 3250
3683 2722 1137
3330 3186 897
1361 2098 3410
2898 1729 3202
3523 1489 3058
3491 1809 3122
3651 2114 3266
3715 2130 3314
3715 2210 3330
3715 2594 3090
3523 3250 977
3667 1393 3202
3651 1697 3250
3683 2033 3266
3699 2370 3346
3699 2706 3378
3683 2722 3410
3699 2786 3459
3683 2866 3314
3667 3282 1121
3715 1921 3298
3699 2402 3346
3715 2594 3410
3731 2834 3475
3731 3058 3507
3747 3090 3523
3763 3154 3539
3747 3154 3459
3731 3298 2882
448 849 1473
672 817 1473
753 849 1585
721 897 1729
576 1009 1905
448 1121 1969
432 1521 2434
496 1697 705
1665 1521 448
833 1025 1569
1105 1185 1713
1249 1153 1825
1201 1201 2098
977 1377 2418
689 1633 2626
480 2162 2818
1521 1985 496
2242 2033 528
1025 1377 1697
1313 1473 1681
1377 1601 1937
1377 1617 2210
1233 1761 2594
881 2130 3010
656 2402 2514
2354 2306 560
2738 2482 705
1041 1793 1857
1361 1841 1729
1441 1953 1985
1425 2082 2370
1345 2226 2770
993 2498 3218
897 2834 3282
2818 2754 705
3010 2802 801
945 2194 2226
1265 2322 2033
1409 2386 2162
1489 2466 2466
1377 2594 2930
1185 2754 3410
1601 2946 3186
3138 3026 833
3282 3154 865
801 2626 2834
1041 2770 2658
1201 2786 2626
1377 2722 2834
1713 2738 3154
3394 2114 3378
3539 2354 3058
3539 3122 913
3427 3330 1009
721 3058 3555
913 3090 3346
1633 2834 3362
2066 2946 3330
3475 2338 3314
3507 2546 3314
3587 2610 3362
3715 3058 1809
3507 3362 1041
1281 2978 3571
2098 2914 3587
3138 2690 3603
3651 2498 3523
3587 2834 3314
3587 3010 3394
3715 3058 3475
3731 3122 3427
3715 3410 1537
3378 2434 3667
3587 2546 3683
3731 2706 3587
3731 2914 3539
3747 3154 3539
3763 3314 3571
3747 3330 3571
3763 3378 3507
3747 3507 2370
448 1217 2066
592 1249 2098
721 1249 2130
705 1345 2306
528 1505 2482
448 1649 2562
448 1697 2610
448 2082 2242
1633 1713 448
769 1505 2162
1057 1585 2178
1233 1521 2210
1169 1617 2498
977 1825 2754
672 2146 3010
528 2370 3090
576 2626 2786
2146 2322 560
1009 1809 2194
1361 1777 2033
1521 1857 2178
1505 1905 2482
1281 2130 2898
865 2578 3266
640 2882 3427
753 2802 2210
2722 2674 737
1025 2178 2354
1457 2146 2082
1649 2146 2178
1713 2210 2482
1537 2386 2898
1185 2738 3346
945 2978 3555
977 3138 2690
3058 2946 865
977 2594 2706
1329 2594 2434
1665 2530 2290
1809 2530 2466
1777 2610 2802
1521 2882 3282
1297 3074 3539
2066 3138 1921
3314 3202 897
833 2962 3218
1105 2978 3010
1409 2978 2786
1729 2930 2626
1809 2994 2930
1873 3090 3250
1985 3154 3507
3314 3170 1233
3475 3330 1025
785 3154 3619
881 3250 3587
1233 3282 3154
1601 3298 2994
1969 3250 3074
2626 3186 3298
2594 3362 3539
3475 3394 1457
3619 3539 1185
977 3346 3587
1121 3410 3651
1569 3475 3410
2066 3491 3266
2834 3378 3202
3058 3410 3394
3619 3266 3507
3667 3523 1361
3683 3587 1297
1473 3378 3715
1841 3459 3731
2418 3475 3715
2978 3459 3619
3683 3282 3507
3683 3394 3555
3715 3539 3587
3747 3539 3362
3747 3651 2610
448 1777 2674
528 1793 2658
528 1857 2738
528 1937 2802
464 2033 2914
480 2114 2930
512 2210 2978
512 2242 3026
544 2402 2210
576 2082 2834
865 2178 2786
1009 2130 2786
993 2226 2946
817 2466 3154
592 2738 3346
608 2786 3378
624 2834 3410
689 2866 2802
865 2338 2818
1169 2354 2706
1329 2370 2754
1329 2386 2930
1137 2626 3250
961 2882 3475
833 3010 3555
769 3138 3619
1521 2962 1313
849 2674 3058
1265 2626 2770
1569 2514 2658
1729 2530 2786
1729 2546 2978
1489 2754 3330
1297 2946 3523
1009 3266 3571
2882 3106 913
849 2978 3346
1185 2946 3090
1649 2786 2690
2066 2658 2546
2146 2706 2866
2017 2834 3202
1809 2994 3491
1521 3266 3491
3218 3298 993
801 3170 3651
1121 3186 3298
1681 3074 2770
2146 2962 2594
2386 2962 2882
2578 3010 3154
2530 3106 3459
1985 3378 3507
3378 3459 1281
881 3298 3667
1201 3346 3394
1729 3314 2930
2290 3298 2770
2674 3250 2898
2882 3298 3154
2946 3362 3459
2866 3475 3218
3651 3555 1201
1121 3410 3619
1393 3491 3571
1841 3507 3202
2434 3507 2994
2802 3507 3026
3026 3555 3282
3202 3571 3555
3667 3603 1713
3747 3699 2098
1585 3507 3747
2098 3507 3747
2434 3571 3699
2818 3619 3459
3202 3651 3475
3394 3667 3603
3507 3715 3747
3763 3715 3138
3763 3715 3138
496 2194 2978
512 2242 3010
528 2322 3074
528 2386 3122
544 2498 3186
560 2546 3218
576 2626 3282
576 2690 3314
592 2706 3314
544 2546 3218
624 2818 3394
705 2818 3378
721 2866 3427
672 2946 3475
689 2994 3507
753 2962 3507
721 3058 3555
721 3074 3507
624 2834 3394
817 2946 3410
993 2962 3410
1025 2946 3427
1153 2882 3410
1137 2962 3523
961 3154 3651
865 3282 3667
897 3250 3186
769 3010 3475
913 3122 3523
1313 2946 3186
1697 2818 3074
1857 2722 3122
1793 2818 3346
1601 3010 3555
1265 3330 3699
1233 3394 3410
865 3154 3555
1137 3170 3362
1697 2978 2914
2242 2834 2786
2610 2754 2898
2610 2834 3186
2498 2962 3491
2178 3218 3683
1585 3571 3507
881 3298 3667
1361 3282 3282
2033 3138 2770
2610 3010 2674
2978 2978 2882
3202 3026 3122
3122 3090 3394
2914 3314 3667
2114 3683 3683
1057 3394 3699
1617 3410 3282
2306 3330 2882
2914 3266 2706
3218 3266 2834
3362 3298 3122
3475 3362 3410
2994 3555 3651
3571 3651 1697
1425 3475 3619
1873 3523 3619
2610 3507 3138
3074 3539 2898
3346 3539 2978
3491 3555 3218
3555 3603 3555
3587 3699 3731
3715 3747 2770
1793 3523 3747
2338 3539 3731
2738 3603 3651
3138 3651 3427
3346 3683 3410
3507 3731 3571
3587 3731 3715
3699 3763 3667
3763 3763 3763
