其他预设/【236】赛博朋克风调色预设/【后期菌】视频调色预设/3DL/Glitch 05.3dl
# LUT by SparkleStock. Enhanced with VOXCOLOR algorithms.
0 64 128 192 256 320 384 448 512 576 640 704 768 832 896 960 1023
0 384 144
0 400 176
0 384 192
0 400 224
48 384 224
224 400 240
528 400 304
705 400 368
1089 400 416
1521 400 528
1793 400 624
2338 416 849
2530 416 961
2722 432 1041
2994 448 1217
3250 464 1201
3507 496 993
0 400 192
0 400 192
0 384 224
80 400 224
224 400 240
480 400 272
769 400 368
1089 400 416
1521 400 528
1873 400 672
2242 416 801
2546 400 961
2882 432 1137
3042 448 1233
3298 464 1233
3475 528 929
3330 528 496
48 400 224
48 384 224
80 384 224
288 400 256
512 400 304
769 400 368
1185 400 448
1521 400 528
1953 400 689
2354 400 849
2610 400 977
2850 448 1137
3042 432 1233
3250 432 1409
3475 464 1265
3427 544 769
2722 721 256
384 400 272
416 400 272
496 400 288
544 400 304
785 400 400
1185 400 448
1601 400 560
1873 400 656
2274 400 801
2642 416 1009
2882 432 1137
3058 432 1265
3330 448 1473
3619 464 1441
3555 528 1025
3106 672 304
2130 1105 272
929 400 400
993 400 416
1089 400 416
1169 400 416
1297 400 448
1601 400 576
1937 400 689
2274 400 801
2642 416 1009
2898 448 1169
3106 448 1297
3346 464 1521
3587 480 1665
3731 496 1457
3443 624 624
2674 945 272
2130 1265 288
1601 400 560
1649 400 576
1729 400 624
1825 416 656
1905 416 705
1937 400 689
2370 416 865
2642 416 1009
2914 448 1185
3154 448 1329
3330 448 1473
3571 480 1665
3731 512 1809
3795 528 1729
3587 608 1073
3218 865 304
2146 1505 320
2354 400 849
2434 416 913
2530 416 961
2562 400 961
2642 416 1009
2610 400 977
2690 432 1025
2914 448 1153
3138 448 1329
3394 464 1537
3571 480 1665
3731 496 1809
3859 512 2050
3859 528 2066
3907 560 2194
3859 624 1665
3539 929 640
2850 432 1121
2914 448 1185
2962 448 1185
3026 448 1217
3058 448 1281
3090 448 1265
3138 432 1329
3202 432 1345
3394 464 1537
3619 480 1665
3747 512 1825
3875 512 2066
3875 544 2130
3907 560 2194
3955 592 2338
3923 689 1825
3683 929 961
3266 432 1425
3346 448 1505
3427 464 1537
3459 464 1585
3427 464 1553
3507 464 1601
3523 464 1601
3587 480 1665
3571 464 1649
3763 512 1841
3859 512 2050
3891 544 2146
3923 592 2242
3955 592 2338
3987 624 2418
3955 705 1953
3747 1057 1025
3667 480 1713
3699 496 1729
3715 496 1793
3747 512 1825
3795 528 1905
3827 512 1937
3843 528 1969
3859 512 2017
3875 528 2066
3859 528 2098
3891 544 2146
3939 592 2274
3955 592 2354
3971 608 2402
3987 705 2498
3971 753 2450
3971 849 1937
3843 512 2001
3859 512 2098
3891 544 2114
3875 544 2130
3891 544 2146
3907 560 2178
3907 576 2194
3907 560 2210
3907 560 2194
3923 592 2242
3939 592 2274
3971 608 2370
3987 656 2466
3971 672 2466
3971 753 2578
3971 785 2642
3971 865 2642
3907 576 2258
3923 576 2242
3923 592 2322
3939 592 2322
3939 592 2322
3971 608 2354
3971 608 2370
3987 608 2402
3987 624 2434
3971 624 2418
3987 640 2450
3971 656 2466
3971 672 2466
3987 737 2562
3987 785 2658
3971 865 2690
3971 961 2642
3987 624 2434
3971 624 2434
3987 656 2450
3971 640 2450
3971 656 2466
3987 705 2498
3971 672 2482
3971 689 2530
3987 737 2546
3971 721 2546
3987 753 2562
3987 753 2578
3987 769 2626
4003 817 2658
3987 913 2754
3971 993 2850
3971 1089 2898
3971 721 2546
3987 753 2562
3971 753 2562
3971 753 2578
3971 753 2578
3987 769 2610
3971 769 2594
3971 785 2626
4003 817 2658
3971 817 2658
3971 833 2674
3987 865 2690
3971 865 2690
3971 897 2690
3971 993 2850
3971 1105 2898
3971 1169 2962
3987 849 2690
3987 865 2690
3971 865 2690
3971 897 2690
3987 929 2754
3971 945 2722
3971 961 2754
3971 961 2770
3971 977 2802
3971 1025 2850
3971 1041 2850
3987 1057 2882
3971 1089 2898
3971 1105 2898
3971 1121 2914
3971 1233 2994
3971 1329 3042
3971 1025 2850
3971 1041 2850
3971 1057 2866
3955 1089 2898
3971 1121 2930
3971 1137 2962
3955 1121 2914
3971 1153 2962
3987 1185 2994
3971 1217 2994
3971 1217 2994
3971 1281 3010
3987 1313 3042
3987 1329 3058
3987 1329 3058
3971 1329 3042
3987 1441 3090
3971 1169 2962
3971 1217 2994
3987 1265 3026
3987 1281 3042
3987 1313 3026
3971 1329 3010
3971 1329 3010
3987 1361 3042
3987 1377 3058
3971 1393 3058
3987 1457 3090
3987 1473 3106
4003 1505 3122
3987 1521 3106
4003 1585 3154
3971 1569 3106
4003 1585 3154
0 400 176
0 384 176
0 400 208
64 400 240
144 400 224
320 400 256
592 400 320
849 400 400
1313 400 448
1697 416 608
2001 416 705
2370 416 865
2674 416 1025
2898 448 1153
3154 448 1137
3394 496 849
3042 528 272
0 400 208
16 384 224
128 400 240
320 400 256
592 400 304
849 400 400
1313 400 448
1729 400 624
1953 400 705
2418 400 881
2722 432 1041
2898 448 1153
3218 448 1233
3362 464 1121
3346 528 689
2242 785 256
1793 1073 272
96 400 240
256 400 240
320 400 256
592 400 320
945 400 400
1297 400 448
1649 400 592
2050 400 721
2370 416 865
2690 432 1025
2978 448 1201
3106 432 1313
3427 464 1233
3394 544 721
2626 689 240
1873 1121 272
1569 1393 272
528 400 304
785 400 400
849 400 400
945 400 400
1345 400 464
1649 400 576
2066 416 753
2450 416 913
2674 416 1025
2994 448 1201
3202 432 1393
3394 448 1489
3571 480 1185
3394 560 560
2482 881 256
1857 1217 272
1649 1505 304
1089 400 416
1521 400 528
1601 400 560
1649 400 592
1729 400 608
2066 416 737
2450 416 913
2722 432 1041
2994 448 1201
3202 432 1345
3459 464 1585
3619 480 1681
3779 512 1681
3619 592 1105
3138 769 304
1985 1473 304
1809 1697 336
1793 400 624
2210 416 785
2274 400 801
2370 400 849
2418 400 881
2450 400 929
2770 432 1089
3010 448 1185
3202 432 1345
3443 464 1585
3635 480 1697
3747 512 1825
3859 512 2017
3891 544 2162
3731 608 1345
3459 897 448
2562 1521 352
2530 416 961
2722 432 1041
2802 432 1089
2850 432 1121
2914 448 1153
2994 448 1201
2994 448 1217
3250 432 1409
3427 464 1585
3667 496 1713
3795 528 1905
3843 512 2001
3891 544 2162
3923 592 2178
3859 640 1633
3539 961 608
2850 1569 384
3010 448 1185
3250 432 1409
3298 448 1457
3330 448 1473
3394 464 1537
3427 464 1553
3443 464 1585
3475 464 1585
3635 480 1681
3779 512 1889
3875 528 2098
3891 544 2146
3907 576 2258
3955 608 2274
3907 672 1825
3587 1105 608
2978 1713 400
3394 464 1505
3635 496 1681
3667 496 1713
3667 480 1713
3715 496 1777
3731 512 1809
3747 512 1825
3763 512 1841
3795 512 1921
3875 528 2098
3891 544 2162
3923 576 2242
3971 608 2402
3987 656 2450
3987 721 2338
3939 817 1809
3683 1329 737
3747 512 1825
3843 512 1985
3875 528 2066
3859 512 2033
3875 528 2098
3875 528 2114
3891 544 2130
3891 544 2146
3891 544 2146
3907 560 2194
3923 592 2290
3971 608 2370
3971 640 2466
3971 689 2530
3971 737 2562
3971 817 2642
3987 961 2114
3875 528 2130
3907 560 2194
3907 560 2210
3923 592 2274
3923 576 2242
3923 576 2290
3955 592 2338
3955 592 2354
3971 608 2370
3971 608 2402
3971 608 2386
3987 656 2466
3971 705 2546
3987 769 2610
3971 801 2658
3987 913 2722
3987 1073 2258
3923 576 2274
3987 608 2418
3971 608 2386
3987 624 2434
3971 624 2434
3987 656 2466
3971 640 2450
3971 656 2498
3971 672 2498
3987 705 2530
3971 689 2498
3987 721 2546
3987 769 2610
3971 833 2674
3987 929 2754
3971 1041 2770
3987 1185 2498
3987 656 2482
3987 721 2546
3971 737 2562
3971 721 2562
3971 753 2562
3971 737 2562
3971 753 2578
3987 769 2610
3987 785 2626
3987 785 2658
4003 817 2658
3971 817 2642
3971 833 2658
3987 929 2722
3971 977 2818
3971 1121 2914
3971 1201 2914
3987 753 2578
3971 801 2642
3971 817 2642
4003 849 2690
4003 865 2690
3971 865 2674
3987 913 2754
3987 945 2770
3971 945 2722
3971 961 2754
3971 961 2770
3971 993 2850
3971 1025 2850
3971 1057 2850
3971 1153 2962
3987 1281 3042
3987 1345 3058
3987 913 2722
3971 961 2770
3971 993 2850
3971 1025 2866
3971 1057 2866
3971 1057 2866
3971 1073 2866
3971 1105 2898
3955 1105 2898
3971 1153 2978
3955 1137 2962
3971 1169 2962
3971 1201 2978
3971 1217 2994
3971 1249 2994
3987 1393 3058
3987 1505 3138
3971 1057 2866
3971 1185 2994
3971 1217 2994
3971 1217 2994
3971 1249 2994
3987 1313 3026
3971 1329 3010
3971 1329 3042
3987 1345 3058
3987 1377 3058
3987 1441 3074
3987 1457 3090
3987 1457 3090
3987 1473 3106
4003 1505 3122
3971 1505 3090
3987 1633 3186
3987 1281 3042
3987 1377 3058
3987 1441 3074
3987 1457 3090
4003 1505 3122
3971 1505 3090
4003 1505 3122
3987 1537 3122
3987 1537 3122
4003 1585 3154
3987 1617 3154
3971 1633 3122
3987 1665 3202
3987 1697 3154
3987 1729 3154
4003 1793 3234
3987 1761 3218
0 384 208
0 384 224
16 400 224
80 400 224
272 400 256
464 400 288
849 400 400
1089 400 416
1601 400 560
1953 400 705
2274 400 801
2578 416 977
2866 448 1137
3074 448 1073
3362 496 817
2978 496 272
1921 833 256
32 400 240
176 400 240
224 400 240
416 400 272
785 400 400
1089 400 416
1489 400 512
1793 400 608
2178 416 769
2482 400 929
2802 432 1137
3010 432 1185
3330 464 993
3106 480 336
2162 769 240
1569 1153 256
1441 1329 256
160 400 256
400 400 288
753 400 384
993 400 400
1441 400 480
1793 400 608
2162 416 769
2482 400 945
2802 432 1105
3010 432 1185
3234 448 1297
3523 480 1057
2978 576 256
1809 1089 272
1585 1249 256
1537 1409 272
1697 1585 320
656 400 352
961 400 400
1393 400 480
1441 400 512
1825 416 656
2210 416 769
2450 400 929
2802 448 1137
3042 432 1233
3266 448 1425
3475 464 1585
3699 496 1697
3555 544 1073
3138 721 304
2130 1265 304
1761 1569 304
1889 1777 368
1393 400 480
1729 400 624
2050 400 721
2162 416 769
2210 416 785
2562 416 961
2802 432 1089
3058 448 1281
3298 448 1457
3475 464 1585
3683 496 1745
3827 512 1937
3859 528 1953
3715 592 1345
3394 801 368
2322 1489 336
2130 1825 384
1953 416 705
2370 400 849
2674 416 1025
2722 432 1073
2802 448 1137
2866 448 1137
3058 448 1281
3266 432 1425
3523 464 1617
3667 480 1713
3843 512 1953
3859 528 2066
3875 576 1953
3763 689 1409
3314 977 352
2562 1617 368
2178 2001 400
2674 416 1025
2882 432 1137
3154 448 1329
3234 448 1393
3250 448 1409
3298 448 1457
3330 448 1473
3555 480 1633
3731 512 1777
3795 512 1921
3875 528 2098
3891 560 2210
3907 592 2130
3891 672 1697
3571 1009 592
2722 1633 368
2370 2114 432
3090 448 1265
3346 448 1505
3523 464 1633
3571 464 1633
3619 480 1665
3667 496 1713
3667 480 1713
3715 496 1745
3843 528 1969
3891 544 2114
3891 560 2178
3923 592 2290
3971 608 2402
3987 672 2402
3939 769 1905
3683 1217 737
3218 1825 432
3523 464 1633
3715 496 1777
3827 512 1969
3843 512 2017
3859 512 2066
3875 544 2098
3859 528 2066
3875 528 2114
3875 528 2130
3907 560 2210
3923 592 2322
3971 608 2418
3987 656 2482
3971 705 2546
3971 769 2466
3955 929 1873
3731 1505 785
3795 512 1905
3875 528 2098
3891 560 2194
3923 576 2210
3923 576 2226
3923 592 2242
3923 576 2258
3939 592 2290
3923 576 2290
3939 592 2290
3971 608 2418
3971 656 2466
3971 737 2562
3971 769 2594
3971 865 2498
3939 1073 1793
3683 1697 608
3891 544 2146
3923 576 2274
3939 592 2338
3955 592 2370
3971 608 2370
3971 608 2402
3987 624 2450
3971 624 2434
3971 640 2450
3987 656 2482
3971 656 2450
3971 721 2546
3987 769 2626
3987 849 2690
3971 945 2658
3971 1121 2290
3907 1553 1329
3971 608 2370
3971 624 2434
3987 705 2530
3987 705 2530
3971 705 2546
3971 737 2562
3971 737 2578
3971 737 2562
3987 753 2594
3987 769 2626
4003 801 2642
3987 785 2658
3971 849 2690
3987 961 2818
3971 1057 2850
3955 1121 2914
3987 1313 2786
3971 672 2530
3971 721 2562
3987 801 2642
3971 785 2642
3971 801 2642
3971 817 2642
3987 849 2690
3987 865 2690
3971 865 2706
3971 897 2690
3987 929 2722
3987 961 2770
3971 961 2754
3971 1073 2898
3971 1185 2978
3987 1297 3042
3971 1425 2882
4003 801 2642
3971 849 2674
3971 961 2770
3971 961 2818
3971 993 2850
3971 1025 2850
3971 1025 2866
3971 1057 2850
3971 1073 2898
3971 1105 2898
3971 1137 2962
3955 1121 2914
3971 1169 2962
3971 1185 2994
3971 1297 3010
3987 1393 3058
3987 1553 2962
3987 945 2754
3971 1025 2866
3971 1153 2978
3971 1153 2978
3971 1169 2978
3971 1201 2978
3987 1265 3010
3987 1281 3042
3971 1297 3010
3987 1329 3042
3987 1329 3058
3971 1345 3058
3987 1377 3042
3987 1393 3058
3987 1457 3090
3971 1521 3090
3987 1713 3186
3971 1153 2962
3971 1281 3010
3971 1345 3058
3987 1377 3058
3987 1409 3074
3987 1457 3090
4003 1457 3106
3987 1473 3090
4003 1505 3122
3987 1505 3106
4003 1585 3154
3987 1569 3154
3971 1585 3122
3987 1633 3186
3987 1665 3202
3987 1697 3154
3987 1825 3234
4003 1361 3058
3987 1457 3090
3971 1569 3106
3987 1601 3154
3987 1633 3186
3987 1649 3138
3987 1697 3202
3987 1745 3202
4003 1793 3218
3987 1793 3218
3987 1825 3234
3987 1841 3250
3987 1857 3282
3987 1905 3298
3987 1953 3298
3987 1985 3314
3987 2001 3314
0 416 849
0 416 1169
0 400 1089
144 400 336
352 400 352
624 400 368
1073 400 464
1489 400 496
1649 400 576
2017 400 737
2354 416 881
2674 416 1025
2994 448 1073
3250 464 913
2914 480 256
1601 865 224
1393 1105 240
32 400 913
416 400 352
480 400 352
544 400 432
833 416 721
1265 400 496
1649 400 592
2098 416 753
2402 416 897
2706 432 1057
3042 448 1057
3330 480 945
3074 480 320
1729 849 240
1505 1089 240
1409 1313 240
