其他预设/【236】赛博朋克风调色预设/【后期菌】视频调色预设/3DL/Glitch 05.3dl
# LUT by SparkleStock. Enhanced with VOXCOLOR algorithms.
0 256 512 768 1023
0 384 144
48 384 224
1089 400 416
2530 416 961
3507 496 993
929 400 400
1297 400 448
2642 416 1009
3587 480 1665
2130 1265 288
3266 432 1425
3427 464 1553
3571 464 1649
3923 592 2242
3747 1057 1025
3987 624 2434
3971 656 2466
3987 737 2546
3987 769 2626
3971 1089 2898
3971 1169 2962
3987 1313 3026
3987 1377 3058
4003 1505 3122
4003 1585 3154
0 432 304
0 416 1329
1889 416 817
3266 464 897
1329 1249 256
1505 416 1297
2994 448 1329
3779 528 1857
3475 881 496
2322 2178 448
3683 480 1777
3939 592 2322
3987 624 2418
3987 817 2578
3010 2562 576
3987 753 2578
3971 1089 2898
3971 1153 2962
3987 1233 2994
3987 1969 2290
3971 1473 3090
3987 2001 3314
3987 2146 3346
3971 2226 3362
3971 2386 3427
32 753 1105
48 849 1233
16 945 1377
16 1537 1585
1681 1569 304
32 1329 1953
144 1873 2706
224 1889 3202
3090 1249 1185
2610 2402 512
144 1857 2914
801 1857 3330
3523 1217 3282
3939 1713 1761
3362 3122 753
1505 2001 3491
4003 1297 3282
4003 1873 3266
3987 1953 3282
3827 3298 961
3987 1761 3250
3971 2338 3427
3955 2834 3523
3971 2978 3571
3987 3250 2866
0 1425 2130
32 1585 2338
48 1697 2466
96 1809 2610
1761 1889 384
208 2098 2962
352 2530 3362
400 2642 3475
480 2786 3619
2754 2722 592
400 2626 3459
592 3010 3731
881 3202 3795
1009 3266 3843
3539 3282 817
672 3090 3779
961 3234 3827
1585 3314 3795
2418 3459 3843
3955 3731 1169
1553 3314 3843
2338 3427 3875
3971 3058 3699
4003 3539 3683
3987 3731 2786
240 2194 3058
288 2274 3154
336 2402 3266
384 2498 3362
400 2578 3427
448 2722 3555
656 3074 3763
721 3122 3763
769 3202 3795
1089 3218 3362
689 3106 3779
1089 3266 3827
1649 3410 3795
1809 3443 3843
1681 3667 3731
1169 3298 3859
1697 3427 3827
2418 3475 3763
3058 3651 3795
3779 3859 1553
1841 3475 3859
2626 3587 3859
3138 3699 3843
3699 3795 3907
3987 3875 3859
