其他预设/【236】赛博朋克风调色预设/【后期菌】视频调色预设/3DL/Glitch 08_S.3dl
# LUT by SparkleStock. Enhanced with VOXCOLOR algorithms.
0 128 256 384 512 640 768 896 1023
128 128 192
256 176 336
416 192 480
897 240 785
1521 256 961
2418 288 1057
3106 288 1345
3443 304 1585
3667 352 1361
416 208 480
448 176 512
849 240 785
1601 272 977
2578 288 1105
3170 288 1345
3459 304 1585
3651 336 1665
3090 833 240
1377 256 913
1521 256 961
1729 256 929
2578 288 1105
3202 304 1377
3507 304 1665
3651 304 2162
3635 608 897
2290 1377 288
2882 304 1217
3106 304 1345
3202 304 1377
3170 304 1393
3507 304 1697
3651 304 2162
3811 320 2674
3827 384 2818
3539 993 833
3539 304 1793
3587 320 1969
3507 320 1953
3603 304 2050
3651 272 2130
3811 320 2642
3843 416 2882
3843 512 3026
3731 1089 1233
3795 320 2642
3827 352 2722
3715 416 2722
3843 384 2834
3827 400 2834
3843 432 2898
3779 576 3042
3843 689 3138
3843 865 3218
3843 496 3042
3843 544 3042
3731 592 2994
3843 592 3074
3843 672 3122
3843 689 3154
3843 721 3202
3843 929 3266
3827 1137 3298
3747 881 3170
3731 929 3202
3731 961 3218
3827 977 3266
3731 1073 3218
3731 1121 3234
3731 1169 3298
3731 1217 3282
3811 1425 3314
3811 1249 3282
3827 1345 3314
3827 1361 3346
3811 1409 3314
3811 1473 3362
3811 1537 3378
3811 1585 3394
3811 1665 3394
3811 1713 3410
288 176 384
336 192 464
640 208 656
1281 256 897
2114 272 1009
2898 288 1201
3378 304 1473
3603 352 1185
2290 945 240
544 224 624
1137 272 897
1889 272 977
2786 304 1169
3346 288 1473
3555 320 1681
3282 656 256
1585 1297 272
1537 1489 336
1841 288 977
2642 304 1105
2738 320 1185
3218 320 1441
3555 304 1857
3683 304 2290
3795 336 2578
3539 913 464
2017 1729 384
3154 304 1361
3443 320 1681
3362 352 1729
3491 320 1841
3715 320 2370
3811 336 2674
3827 448 2738
3651 1089 721
2258 2033 400
3635 304 2082
3795 320 2594
3731 352 2610
3811 336 2674
3811 352 2738
3827 448 2930
3843 576 3074
3843 753 3042
3683 1521 753
3811 352 2754
3843 464 2962
3779 496 2946
3859 496 3042
3843 528 3026
3827 560 3042
3747 769 3218
3843 961 3218
3779 1649 1441
3843 576 3090
3843 769 3218
3747 833 3170
3843 833 3250
3827 897 3250
3827 913 3266
3827 977 3266
3827 1249 3298
3811 1521 3250
3747 1009 3202
3747 1233 3234
3747 1297 3250
3827 1313 3314
3731 1377 3282
3731 1441 3346
3731 1505 3346
3731 1553 3378
3779 1825 3410
3827 1425 3362
3795 1665 3394
3795 1761 3410
3795 1809 3410
3779 1889 3427
3779 1953 3427
3779 2017 3443
3779 2146 3491
3747 2194 3507
160 448 592
176 464 656
384 480 1633
1089 256 1681
2498 288 1265
3074 288 1681
3555 320 1249
1745 977 240
1233 1233 352
272 672 1105
1793 304 1393
1889 320 1377
2738 320 1409
3282 336 1665
3603 288 2017
3443 689 432
1633 1441 288
1665 1617 352
1745 336 1697
2514 416 1345
2738 448 1473
2930 448 1825
3314 400 2370
3699 416 2610
3603 977 656
2050 1841 336
2130 2033 416
3154 384 1553
2978 528 1649
2898 576 1905
3042 544 2178
3394 496 2674
3731 480 2946
3795 689 2306
3282 1889 224
2370 2274 400
3587 352 2258
3378 544 2322
3282 689 2530
3298 705 2690
3507 624 2882
3843 608 3106
3843 801 3154
3779 1473 1377
2946 2498 304
3843 448 2930
3747 592 2946
3667 785 3010
3603 849 3074
3795 849 3202
3827 785 3234
3779 1089 3282
3827 1361 2978
3635 2562 320
3843 705 3170
3827 849 3250
3779 1153 3250
3811 1153 3266
3827 1217 3282
3811 1233 3282
3827 1297 3314
3811 1569 3362
3811 2178 2642
3779 1153 3218
3779 1377 3266
3731 1601 3314
3811 1633 3394
3731 1745 3378
3715 1793 3394
3715 1873 3394
3715 1969 3427
3747 2434 3266
3811 1553 3362
3779 1841 3427
3747 2194 3507
3747 2258 3507
3747 2370 3523
3747 2450 3539
3731 2498 3539
3731 2578 3571
3731 2674 3587
272 689 945
336 721 977
400 737 1073
416 769 1217
400 1025 1793
448 1313 2354
3443 448 1153
1441 1153 272
1345 1361 352
464 897 1169
640 1041 1393
705 1025 1553
769 1025 2306
1617 544 2610
3170 496 2418
3026 977 288
1601 1553 352
1825 1745 352
608 1185 1457
785 1281 1665
865 1425 1985
2274 689 2178
2818 608 2514
3394 576 2818
3651 1041 785
2226 1969 320
2258 2130 384
689 1521 2130
1057 1441 1905
2162 961 1937
2642 881 2242
2962 865 2706
3507 769 3042
3747 1281 1521
2882 2386 304
2706 2466 384
2354 881 2418
2962 897 2082
2850 993 2178
2946 1041 2450
3218 945 2818
3603 945 3202
3827 1201 2786
3346 2562 288
2930 2706 336
3635 672 2882
3394 913 2706
3298 1121 2722
3346 1297 2898
3571 1233 3106
3827 1137 3266
3747 1393 3314
3795 1969 2290
3346 2946 336
3827 785 3298
3795 1057 3218
3779 1297 3266
3715 1569 3298
3811 1585 3394
3795 1633 3378
3795 1665 3394
3811 2322 2834
3539 3074 352
3779 1297 3234
3747 1521 3282
3731 1777 3346
3779 2146 3491
3699 2226 3443
3699 2242 3491
3699 2322 3491
3683 2434 3539
3747 2930 3122
3795 1713 3410
3779 2082 3459
3731 2418 3523
3731 2738 3603
3715 2802 3603
3731 2850 3635
3731 2898 3667
3731 2946 3667
3747 3090 3507
400 993 1377
544 961 1361
608 929 1441
608 1009 1585
512 1121 1713
432 1489 2130
400 1761 1809
1185 1249 352
1489 1473 336
672 1169 1489
913 1201 1585
1009 1153 1665
961 1233 1985
817 1409 2322
689 1857 2882
544 2402 2674
1537 1649 368
1953 1889 352
833 1393 1553
1073 1457 1553
1121 1553 1809
1137 1569 2162
1041 1713 2690
977 2114 3154
3394 1377 1345
2498 2130 304
2402 2274 400
865 1761 1745
1121 1825 1633
1201 1889 1937
1265 1953 2322
1265 2050 2754
3138 1185 3122
3539 1681 1345
2930 2466 304
2818 2594 416
849 2194 2194
1121 2226 2017
1425 2162 2130
2306 1617 2514
2978 1457 2946
3507 1233 3282
3779 1777 1969
3266 2834 336
3106 2978 368
1025 2546 2930
1553 2514 2642
2514 1873 2674
3250 1457 2866
3491 1521 3202
3699 1521 3298
3731 1761 3394
3811 2706 897
3234 3106 384
1841 2722 3539
2834 2033 3298
3635 1425 3250
3571 1729 3250
3699 2050 3394
3779 2082 3443
3747 2162 3459
3779 2738 3218
3523 3234 416
3779 1361 3410
3747 1633 3378
3731 1985 3394
3731 2306 3507
3699 2722 3571
3683 2738 3587
3699 2850 3603
3715 2962 3507
3715 3346 576
3779 1857 3427
3747 2306 3507
3731 2594 3571
3731 2898 3651
3747 3122 3683
3747 3170 3699
3779 3266 3715
3779 3282 3651
3795 3443 2962
464 1345 1857
689 1249 1793
753 1233 1857
737 1313 2050
592 1457 2258
480 1633 2370
480 2082 2722
560 2146 1553
1553 1569 352
817 1425 1793
1089 1457 1809
1233 1393 1889
1185 1441 2162
993 1665 2562
721 2017 2834
592 2658 3026
1137 1969 672
2114 2033 352
1009 1697 1793
1297 1649 1681
1393 1713 1937
1393 1729 2242
1265 1937 2674
977 2418 3122
881 2850 2866
2017 2242 400
2594 2386 400
1073 2082 1937
1361 2001 1729
1441 2050 1985
1473 2178 2386
1377 2354 2786
1153 2738 3298
1297 3106 3427
2642 2578 368
2930 2706 416
1025 2498 2306
1297 2498 2050
1457 2530 2146
1537 2562 2418
1601 2738 2930
1617 3010 3427
1889 3218 3362
2962 2898 400
3170 3042 384
897 2898 2898
1137 2978 2674
1361 2994 2658
1713 2946 2834
2114 3026 3154
3410 2033 3394
3587 2402 3170
3555 3154 368
3362 3282 464
913 3346 3587
1233 3346 3378
2098 3250 3394
2450 3346 3362
3459 2258 3314
3507 2514 3410
3603 2610 3523
3811 3202 1521
3459 3362 464
1825 3314 3587
2546 3346 3635
3170 3074 3683
3683 2418 3571
3571 2866 3443
3587 3090 3555
3715 3106 3667
3731 3218 3635
3715 3427 1265
3346 2674 3731
3523 2642 3779
3715 2722 3715
3731 2978 3699
3779 3266 3715
3795 3427 3731
3795 3459 3731
3811 3539 3699
3747 3523 2194
496 1745 2450
624 1697 2386
753 1681 2402
721 1777 2546
576 2017 2738
512 2194 2834
512 2258 2866
496 2578 2658
1441 1681 432
801 1905 2370
1105 1841 2258
1265 1745 2274
1217 1857 2562
1041 2130 2866
785 2546 3170
656 2802 3250
689 2994 3042
1697 2242 512
1057 2130 2274
1377 1985 2082
1553 1969 2178
1537 2017 2498
1345 2306 2930
1009 2802 3346
801 3154 3523
801 3250 2898
2434 2498 464
1105 2450 2418
1489 2290 2082
1681 2274 2162
1793 2322 2434
1633 2498 2866
1345 2930 3346
1169 3218 3555
1153 3443 3234
2818 2802 464
1073 2834 2738
1393 2786 2450
1729 2658 2258
1937 2610 2418
1985 2690 2786
1761 2978 3266
1649 3202 3523
2242 3266 2514
3202 3122 416
993 3202 3266
1249 3202 2994
1569 3138 2754
1953 3010 2594
2114 3074 2866
2274 3138 3202
2402 3250 3491
3202 3106 801
3378 3298 464
1009 3410 3635
1153 3459 3571
1569 3410 3122
2001 3378 2946
2354 3314 2994
2882 3362 3266
2898 3491 3539
3394 3346 1105
3539 3459 560
1361 3539 3587
1633 3571 3603
2098 3571 3346
2498 3571 3218
3026 3555 3234
3170 3603 3443
3667 3378 3635
3635 3459 817
3587 3539 592
2017 3555 3683
2402 3635 3699
2834 3667 3731
3202 3683 3683
3715 3394 3603
3747 3555 3699
3811 3667 3747
3827 3699 3587
3715 3603 2674
528 2306 2930
592 2290 2882
624 2370 2962
624 2434 3010
592 2546 3090
592 2594 3122
624 2674 3170
656 2706 3218
576 2850 2706
689 2546 3010
977 2514 2898
1089 2386 2850
1073 2498 3010
913 2722 3234
721 3026 3427
769 3090 3459
785 3122 3507
897 3202 3138
961 2658 2930
1233 2562 2722
1425 2562 2786
1441 2578 2946
1281 2834 3266
1121 3106 3491
1025 3266 3587
1009 3394 3635
1553 3218 2274
977 2930 3122
1377 2818 2786
1665 2658 2610
1889 2642 2754
1937 2658 2962
1713 2882 3314
1585 3090 3523
1377 3443 3635
2402 2962 801
1009 3250 3378
1361 3170 3074
1841 2930 2674
2322 2706 2498
2466 2738 2786
2386 2882 3154
2258 3042 3427
1969 3346 3571
2882 3170 689
1025 3427 3635
1409 3378 3282
2001 3154 2706
2466 2994 2546
2722 3010 2818
2882 3074 3090
2850 3170 3427
2418 3443 3603
3154 3346 1009
1233 3507 3667
1649 3507 3378
2146 3394 2866
2610 3314 2690
2946 3298 2850
3122 3362 3138
3170 3427 3443
2962 3571 3491
3555 3507 560
1633 3587 3587
1905 3603 3555
2354 3571 3138
2786 3587 2946
3090 3603 3026
3218 3635 3266
3362 3683 3587
3523 3491 1345
3667 3539 1937
2162 3635 3699
2594 3667 3715
2866 3699 3699
3122 3731 3459
3362 3795 3523
3491 3795 3603
3571 3843 3795
3795 3747 3427
3779 3731 3427
608 2674 3154
640 2706 3202
656 2754 3234
672 2818 3266
689 2866 3298
689 2898 3362
705 2962 3394
705 2994 3394
721 3010 3410
689 2898 3346
785 3122 3491
849 3106 3443
865 3138 3491
817 3234 3539
865 3266 3555
929 3234 3555
913 3314 3587
945 3314 3555
785 3122 3491
993 3234 3459
1185 3202 3394
1265 3202 3410
1393 3106 3410
1377 3154 3507
1233 3378 3635
1201 3491 3667
1281 3427 3394
961 3282 3523
1121 3362 3507
1569 3122 3202
2082 2946 3026
2258 2818 3074
2226 2898 3298
2082 3106 3523
1761 3459 3683
1681 3523 3555
1105 3394 3539
1457 3362 3362
2098 3090 2866
2642 2882 2722
2978 2802 2834
2962 2850 3122
2882 3042 3443
2674 3346 3667
2098 3667 3635
1265 3507 3667
1777 3427 3250
2498 3202 2706
2978 3042 2578
3250 3026 2818
3427 3090 3106
3362 3154 3410
3218 3410 3667
2594 3715 3715
1553 3571 3683
2114 3523 3234
2738 3410 2818
3202 3346 2642
3427 3314 2834
3523 3362 3122
3587 3427 3459
3250 3603 3699
3378 3459 1569
1985 3587 3587
2418 3635 3571
2978 3635 3106
3314 3603 2882
3491 3635 2978
3587 3667 3250
3603 3699 3555
3651 3795 3795
3651 3667 3010
2386 3651 3715
2802 3699 3747
3106 3747 3667
3346 3779 3459
3491 3811 3459
3571 3811 3587
3683 3859 3779
3731 3875 3843
3827 3875 3875
