其他预设/【236】赛博朋克风调色预设/【后期菌】视频调色预设/3DL/Glitch 08.3dl
# LUT by SparkleStock. Enhanced with VOXCOLOR algorithms.
0 64 128 192 256 320 384 448 512 576 640 704 768 832 896 960 1023
128 128 192
208 176 272
256 176 336
336 192 432
416 192 480
608 224 640
897 240 785
1105 256 865
1521 256 961
2017 304 1009
2418 288 1057
2946 304 1233
3106 288 1345
3282 288 1409
3443 304 1585
3571 320 1601
3667 352 1361
256 176 336
272 176 352
336 192 432
464 192 512
608 224 608
833 224 753
1185 256 865
1521 256 961
2017 288 993
2466 288 1105
2866 320 1201
3138 288 1345
3394 288 1489
3459 304 1617
3587 320 1649
3635 384 1249
3555 544 785
416 208 480
416 192 480
448 176 512
672 224 672
849 240 785
1169 240 849
1633 272 961
2017 288 1009
2578 288 1105
2962 288 1233
3170 288 1345
3378 288 1473
3459 304 1585
3539 304 1777
3651 336 1665
3635 464 1057
3090 833 240
753 224 705
785 224 721
849 240 785
897 240 785
1217 272 881
1633 272 961
2114 288 1009
2466 288 1089
2898 288 1201
3202 304 1377
3394 288 1489
3491 304 1649
3555 304 1873
3667 320 1873
3667 432 1377
3394 753 320
2386 1233 224
1377 256 913
1441 272 961
1521 256 961
1617 256 929
1729 256 929
2130 288 1009
2578 288 1105
2898 304 1201
3202 304 1377
3394 304 1521
3507 304 1665
3571 320 1905
3651 304 2162
3699 304 1953
3635 608 897
2994 1041 240
2354 1393 224
2114 288 1009
2178 288 1009
2306 288 1057
2434 304 1089
2546 304 1105
2578 288 1105
2994 304 1249
3202 304 1377
3410 320 1537
3523 304 1697
3555 304 1857
3651 304 2130
3715 320 2402
3747 336 2306
3683 560 1377
3443 929 304
2290 1553 240
2962 288 1233
3042 288 1297
3106 304 1345
3138 288 1345
3202 304 1377
3170 288 1345
3250 288 1393
3410 320 1537
3507 304 1697
3571 304 1953
3651 304 2162
3715 320 2402
3811 320 2674
3811 352 2690
3827 384 2818
3779 544 2162
3635 977 785
3362 288 1473
3410 320 1537
3427 304 1553
3459 320 1585
3491 320 1649
3491 304 1665
3507 304 1681
3523 304 1729
3571 304 1953
3651 288 2162
3731 320 2434
3811 336 2690
3811 352 2738
3827 400 2834
3843 464 2962
3811 592 2418
3715 1009 1201
3539 304 1793
3555 320 1905
3587 320 1969
3587 320 2001
3571 288 1969
3635 320 2033
3603 304 2050
3667 304 2162
3651 272 2130
3747 320 2450
3811 320 2642
3811 368 2754
3843 416 2882
3843 464 2962
3843 512 3026
3827 656 2562
3731 1089 1233
3683 288 2258
3699 304 2290
3715 304 2370
3731 320 2450
3779 320 2530
3779 320 2562
3795 320 2594
3811 320 2642
3811 352 2690
3811 352 2706
3811 352 2754
3843 432 2898
3843 464 2962
3843 480 3010
3843 592 3090
3843 689 3042
3827 801 2514
3795 320 2642
3811 336 2674
3827 352 2722
3811 352 2738
3811 368 2754
3827 368 2818
3843 384 2834
3827 400 2850
3827 400 2834
3843 416 2882
3843 432 2898
3859 464 2994
3859 544 3042
3827 576 3074
3843 689 3138
3827 785 3218
3843 865 3218
3827 416 2866
3827 416 2882
3827 448 2946
3827 448 2930
3827 448 2930
3843 464 2994
3843 464 2994
3859 480 3010
3859 480 3026
3843 496 3010
3843 528 3042
3843 544 3074
3827 576 3074
3843 689 3138
3843 785 3234
3827 881 3250
3827 1009 3170
3843 496 3042
3843 496 3026
3843 544 3042
3843 544 3026
3827 560 3042
3843 592 3090
3843 592 3074
3843 608 3090
3843 672 3122
3843 656 3106
3843 689 3154
3843 689 3170
3843 721 3202
3843 817 3234
3843 929 3266
3827 1041 3282
3827 1137 3298
3827 656 3106
3843 689 3154
3843 689 3122
3827 689 3138
3827 689 3138
3843 737 3202
3827 737 3170
3827 785 3202
3843 817 3234
3827 785 3218
3827 833 3234
3843 881 3250
3827 881 3250
3827 897 3250
3827 1041 3282
3827 1137 3282
3811 1249 3282
3843 833 3250
3827 849 3250
3827 897 3250
3827 897 3250
3827 913 3266
3827 961 3250
3827 977 3266
3827 1009 3250
3827 1025 3250
3827 1073 3282
3827 1089 3250
3827 1121 3282
3827 1121 3298
3827 1137 3282
3827 1169 3282
3811 1297 3298
3811 1425 3314
3827 1073 3282
3827 1089 3250
3827 1105 3266
3811 1137 3266
3827 1169 3282
3827 1185 3298
3811 1201 3266
3827 1233 3282
3827 1265 3314
3811 1281 3314
3811 1297 3298
3811 1329 3314
3827 1361 3346
3827 1393 3346
3827 1425 3362
3811 1425 3346
3811 1521 3362
3811 1249 3282
3827 1281 3298
3827 1345 3314
3827 1345 3346
3827 1361 3346
3811 1377 3314
3811 1409 3314
3811 1457 3362
3811 1473 3362
3811 1489 3362
3811 1537 3378
3811 1553 3378
3811 1585 3394
3795 1617 3378
3811 1665 3394
3795 1665 3394
3811 1713 3410
224 160 288
208 160 272
288 192 384
432 208 496
496 192 560
689 224 705
961 240 817
1281 256 897
1729 272 961
2258 288 1041
2610 304 1121
2994 304 1249
3218 288 1393
3394 304 1521
3539 304 1553
3603 352 1201
3362 608 384
288 176 352
368 192 464
480 208 560
689 208 689
961 240 785
1281 256 897
1729 272 961
2306 288 1057
2578 288 1121
3042 288 1249
3282 288 1409
3394 304 1521
3555 304 1633
3603 320 1553
3587 432 1009
2658 929 240
1969 1185 240
464 208 528
640 208 656
689 224 689
961 240 817
1393 272 913
1729 256 929
2178 288 1041
2690 288 1121
2994 304 1249
3266 304 1393
3427 320 1553
3507 304 1665
3635 320 1665
3603 448 1009
3026 801 240
2050 1233 240
1489 1361 320
897 240 785
1217 256 881
1281 256 897
1393 256 913
1777 256 961
2178 288 1025
2690 304 1153
3042 304 1297
3218 288 1393
3443 320 1569
3523 304 1777
3571 304 1873
3683 352 1585
3587 576 833
2850 1009 240
1969 1329 224
1505 1441 320
1521 256 961
2017 288 993
2114 272 1009
2178 288 1041
2306 288 1057
2690 304 1137
3042 304 1313
3282 288 1409
3443 320 1569
3523 304 1729
3587 320 2001
3667 288 2178
3731 288 2226
3683 496 1441
3410 833 304
2082 1489 240
1585 1569 352
2418 288 1057
2834 304 1201
2898 304 1201
2962 288 1249
3026 288 1249
3090 288 1297
3298 304 1441
3443 304 1553
3507 304 1729
3587 320 2001
3667 288 2226
3731 304 2418
3811 320 2642
3827 368 2786
3747 544 1729
3587 993 576
2802 1601 208
3122 304 1345
3282 288 1409
3314 288 1441
3362 288 1473
3410 320 1537
3443 320 1569
3443 304 1569
3539 304 1777
3587 304 2001
3683 320 2258
3779 320 2530
3795 320 2642
3827 368 2818
3827 448 2834
3747 560 2098
3635 1041 769
3106 1665 208
3443 304 1553
3539 304 1777
3539 304 1857
3555 304 1857
3571 320 1953
3571 288 1969
3587 320 2001
3587 288 2017
3667 288 2226
3747 320 2498
3827 352 2706
3811 352 2754
3827 416 2866
3843 480 2930
3795 608 2386
3651 1169 705
3170 1745 208
3571 304 1905
3667 320 2194
3683 320 2258
3683 304 2258
3699 320 2354
3731 320 2402
3731 320 2418
3747 288 2466
3779 320 2546
3811 352 2706
3811 368 2786
3827 416 2882
3843 480 3010
3843 544 3042
3859 624 2962
3811 785 2290
3667 1345 785
3731 320 2434
3795 304 2594
3811 352 2690
3811 320 2658
3811 336 2674
3811 352 2722
3827 352 2738
3811 368 2754
3811 368 2754
3827 384 2834
3827 448 2930
3843 464 2994
3843 528 3074
3843 608 3090
3827 689 3122
3827 785 3218
3827 993 2690
3811 352 2738
3827 384 2818
3827 400 2850
3843 432 2898
3827 416 2882
3827 432 2898
3843 464 2962
3843 464 2962
3859 464 2994
3843 464 3010
3843 464 2994
3843 560 3074
3843 640 3106
3843 721 3202
3827 785 3234
3843 929 3250
3827 1121 2802
3827 432 2898
3859 480 3010
3843 464 2994
3843 496 3042
3843 496 3026
3843 544 3074
3843 544 3026
3843 576 3074
3843 576 3074
3843 592 3106
3827 608 3090
3843 672 3122
3843 737 3202
3827 833 3234
3843 929 3266
3827 1089 3234
3827 1265 3026
3843 576 3074
3843 672 3122
3843 672 3138
3827 689 3122
3843 689 3122
3827 689 3122
3827 689 3138
3827 721 3170
3827 753 3218
3827 785 3234
3843 817 3234
3827 785 3234
3827 817 3234
3827 913 3266
3827 1025 3266
3827 1169 3282
3811 1265 3266
3843 689 3170
3827 785 3234
3827 785 3234
3843 833 3266
3843 881 3250
3827 881 3234
3843 929 3266
3843 961 3266
3827 961 3250
3827 977 3250
3827 1009 3250
3827 1041 3282
3827 1073 3250
3827 1089 3250
3827 1201 3282
3811 1345 3346
3811 1441 3346
3843 929 3250
3827 1009 3250
3827 1041 3282
3827 1073 3282
3827 1105 3266
3827 1121 3282
3827 1121 3266
3827 1137 3266
3811 1153 3266
3827 1201 3298
3811 1217 3282
3811 1249 3282
3811 1265 3298
3811 1297 3298
3811 1329 3298
3811 1473 3362
3811 1585 3394
3827 1105 3266
3827 1249 3298
3811 1265 3298
3811 1297 3298
3811 1329 3298
3827 1361 3346
3811 1377 3314
3811 1425 3346
3811 1441 3362
3811 1473 3362
3811 1521 3378
3811 1537 3378
3811 1537 3378
3811 1553 3378
3811 1585 3394
3795 1617 3378
3795 1761 3410
3827 1345 3346
3811 1473 3362
3811 1521 3378
3811 1537 3378
3811 1569 3394
3795 1569 3378
3811 1585 3394
3811 1617 3394
3795 1633 3394
3811 1697 3394
3795 1745 3410
3779 1745 3394
3795 1777 3427
3779 1793 3410
3779 1841 3410
3795 1905 3427
3779 1857 3410
288 176 384
320 192 432
336 192 464
464 208 512
640 208 656
817 224 753
1281 256 897
1521 256 929
2114 272 1009
2578 288 1121
2898 288 1201
3154 288 1345
3378 304 1473
3491 304 1457
3603 352 1185
3346 576 368
2290 945 240
400 192 496
560 208 592
608 224 624
785 224 753
1217 272 897
1553 272 961
1937 288 993
2386 288 1057
2802 304 1169
3090 288 1313
3346 288 1473
3427 304 1553
3587 320 1409
3410 528 512
2546 897 240
1585 1233 272
1345 1313 352
544 224 624
785 224 753
1137 272 897
1441 256 929
1889 272 977
2386 288 1057
2786 304 1169
3090 288 1329
3346 288 1473
3427 304 1553
3555 320 1681
3667 352 1441
3282 656 256
1985 1185 240
1585 1297 272
1441 1377 336
1537 1489 336
1057 240 849
1393 272 929
1841 288 977
1889 288 993
2434 304 1089
2818 304 1169
3090 288 1297
3346 288 1473
3459 304 1585
3555 320 1793
3587 288 2017
3683 304 2226
3667 448 1409
3410 785 336
2354 1393 224
1665 1505 304
1665 1649 352
1841 288 977
2306 288 1057
2690 288 1121
2786 304 1153
2834 304 1201
3138 288 1345
3314 288 1441
3491 320 1649
3555 304 1857
3603 288 2017
3683 304 2290
3779 320 2562
3795 336 2578
3731 512 1697
3539 913 464
2530 1553 224
2050 1745 320
2578 288 1121
2962 288 1233
3218 288 1393
3282 288 1425
3346 288 1473
3378 320 1473
3491 320 1649
3539 304 1793
3635 304 2050
3683 288 2258
3795 320 2562
3811 336 2674
3811 416 2594
3747 608 1729
3491 1057 336
2754 1713 240
1985 1889 352
3218 288 1393
3394 288 1489
3523 304 1713
3539 336 1761
3539 304 1777
3555 304 1857
3555 304 1857
3651 320 2098
3715 320 2370
3779 320 2546
3811 336 2674
3827 400 2834
3827 448 2738
3795 592 2178
3651 1089 721
2978 1729 208
2290 2050 336
3491 304 1665
3555 320 1905
3635 304 2082
3651 288 2114
3651 288 2162
3683 320 2258
3683 288 2258
3699 304 2290
3811 336 2594
3827 352 2722
3827 384 2802
3827 432 2898
3843 480 3010
3843 576 3010
3811 705 2466
3683 1265 817
3346 1905 224
3635 304 2082
3699 320 2354
3795 320 2594
3811 320 2642
3811 336 2658
3827 352 2706
3811 336 2674
3811 352 2722
3811 352 2738
3827 400 2834
3827 448 2930
3843 480 3010
3843 576 3074
3827 640 3106
3843 753 3042
3827 897 2370
3683 1521 753
3779 304 2530
3811 352 2706
3827 384 2834
3827 400 2850
3843 416 2866
3843 416 2882
3827 432 2866
3843 448 2930
3827 432 2898
3827 448 2930
3843 480 3026
3843 560 3042
3843 672 3122
3827 737 3170
3843 865 3074
3811 1025 2194
3667 1745 464
3811 352 2754
3827 432 2882
3843 464 2962
3843 464 2978
3843 464 2994
3843 480 3010
3859 496 3042
3843 496 3026
3843 528 3026
3843 576 3074
3827 560 3042
3827 656 3106
3827 737 3218
3843 833 3250
3843 961 3218
3827 1137 2834
3779 1649 1441
3843 464 2994
3843 480 3010
3843 592 3106
3843 640 3106
3827 640 3106
3843 672 3138
3843 689 3138
3827 689 3122
3827 705 3202
3843 737 3202
3843 769 3218
3843 785 3234
3827 849 3250
3827 993 3282
3827 1089 3266
3811 1201 3282
3827 1361 3218
3843 576 3090
3827 672 3122
3843 769 3218
3827 785 3218
3827 785 3234
3827 785 3218
3843 833 3250
3843 881 3250
3827 897 3250
3827 897 3250
3827 913 3266
3827 961 3266
3827 977 3266
3827 1121 3282
3827 1249 3298
3811 1345 3346
3811 1521 3250
3843 769 3218
3827 849 3250
3827 977 3266
3827 1009 3266
3827 1041 3282
3827 1073 3266
3827 1073 3282
3827 1089 3250
3827 1121 3282
3827 1153 3298
3827 1185 3282
3811 1201 3282
3827 1233 3298
3827 1249 3298
3811 1345 3314
3811 1473 3362
3795 1665 3298
3827 961 3266
3827 1073 3282
3827 1201 3298
3827 1233 3298
3827 1249 3298
3811 1265 3298
3827 1313 3314
3827 1345 3346
3811 1345 3314
3827 1393 3346
3811 1425 3362
3811 1441 3346
3811 1473 3346
3811 1489 3362
3811 1537 3378
3795 1633 3378
3779 1825 3410
3827 1201 3298
3811 1329 3346
3811 1441 3346
3811 1473 3362
3811 1489 3378
3811 1537 3378
3811 1537 3378
3811 1553 3362
3811 1585 3394
3795 1617 3378
3811 1681 3410
3795 1665 3410
3795 1665 3394
3795 1745 3410
3795 1777 3427
3779 1793 3410
3779 1905 3427
3827 1425 3362
3811 1537 3378
3795 1665 3394
3795 1713 3410
3795 1761 3410
3779 1761 3410
3795 1809 3410
3779 1841 3410
3779 1889 3427
3779 1889 3410
3779 1953 3427
3747 1985 3427
3779 2017 3443
3779 2082 3459
3779 2146 3491
3779 2178 3491
3747 2194 3507
240 448 1217
320 480 1473
336 352 1377
464 224 753
689 240 833
1025 240 865
1521 272 1009
1937 288 993
2178 288 1025
2642 288 1153
2962 304 1265
3234 304 1393
3427 304 1441
3555 320 1281
3314 560 352
1825 993 224
1393 1169 272
368 320 1281
753 224 865
801 224 881
865 240 1009
1121 256 1345
1665 272 1009
2178 288 1041
2722 304 1153
3010 304 1265
3266 304 1393
3459 304 1441
3587 320 1329
3410 528 512
2033 977 240
1553 1169 272
1329 1297 336
