其他预设/【236】赛博朋克风调色预设/【后期菌】视频调色预设/3DL/Glitch 05_S.3dl
# LUT by SparkleStock. Enhanced with VOXCOLOR algorithms.
0 256 512 768 1023
0 384 144
48 384 224
1089 400 416
2530 416 961
3507 496 993
929 400 400
1297 400 448
2642 416 1009
3587 480 1665
2066 1265 368
3266 432 1425
3346 496 1537
3571 464 1649
3923 592 2242
3747 1057 1025
3987 624 2434
3891 705 2434
3987 737 2546
3987 769 2626
3971 1089 2898
3971 1169 2962
3987 1313 3026
3987 1377 3058
4003 1505 3122
4003 1585 3154
0 432 304
16 400 1313
1889 416 817
3266 464 897
1329 1249 256
1473 448 1201
2450 576 1233
3362 592 1857
3475 881 496
2274 2146 512
3571 528 1713
3394 817 2050
3651 769 2370
3987 817 2578
3010 2562 576
3987 753 2578
3907 1121 2866
3971 1153 2962
3987 1233 2994
3987 1969 2290
3971 1473 3090
3987 2001 3314
3987 2146 3346
3971 2226 3362
3971 2386 3427
80 721 1057
368 705 1185
176 849 1425
16 1537 1585
1681 1569 304
576 1201 1361
977 1425 1793
849 1521 2690
3074 1249 1217
2594 2370 576
576 1857 2130
1297 1873 2178
2994 1441 2818
3939 1713 1761
3362 3122 753
1505 2001 3491
3827 1425 3058
3939 1905 3218
3987 1953 3282
3827 3298 961
3987 1761 3250
3971 2338 3427
3955 2834 3523
3971 2978 3571
3987 3250 2866
48 1393 2066
368 1393 2146
160 1633 2450
96 1809 2610
1761 1889 384
785 1809 2226
1409 1777 2242
1153 2066 2978
480 2786 3619
2754 2690 656
817 2498 2802
1601 2498 2402
1793 2594 2898
1361 3010 3683
3539 3282 817
672 3090 3779
1297 3202 3298
2033 3202 3138
2546 3346 3651
3955 3731 1169
1553 3314 3843
2338 3427 3875
3907 3122 3571
3987 3555 3667
3987 3731 2786
240 2194 3058
288 2274 3154
336 2402 3266
384 2498 3362
400 2578 3427
448 2722 3555
881 2914 3555
1089 2834 3539
881 3106 3763
1089 3218 3362
753 3090 3699
1777 2898 3026
2674 2754 2978
2498 2962 3571
1681 3667 3731
1169 3298 3859
2338 3298 2978
3154 3250 2914
3443 3410 3507
3795 3827 1633
1841 3475 3859
2658 3619 3747
3282 3747 3507
3715 3827 3827
3987 3875 3859
