其他预设/【236】赛博朋克风调色预设/【后期菌】视频调色预设/3DL/Glitch 08_S.3dl
# LUT by SparkleStock. Enhanced with VOXCOLOR algorithms.
0 256 512 768 1023
128 128 192
416 192 480
1521 256 961
3106 288 1345
3667 352 1361
1377 256 913
1729 256 929
3202 304 1377
3651 304 2162
2290 1377 288
3539 304 1793
3507 320 1953
3651 272 2130
3843 416 2882
3731 1089 1233
3843 496 3042
3731 592 2994
3843 672 3122
3843 721 3202
3827 1137 3298
3811 1249 3282
3827 1361 3346
3811 1473 3362
3811 1585 3394
3811 1713 3410
160 448 592
384 480 1633
2498 288 1265
3555 320 1249
1233 1233 352
1745 336 1697
2738 448 1473
3314 400 2370
3603 977 656
2130 2033 416
3587 352 2258
3282 689 2530
3507 624 2882
3843 801 3154
2946 2498 304
3843 705 3170
3779 1153 3250
3827 1217 3282
3827 1297 3314
3811 2178 2642
3811 1553 3362
3747 2194 3507
3747 2370 3523
3731 2498 3539
3731 2674 3587
400 993 1377
608 929 1441
512 1121 1713
400 1761 1809
1489 1473 336
833 1393 1553
1121 1553 1809
1041 1713 2690
3394 1377 1345
2402 2274 400
849 2194 2194
1425 2162 2130
2978 1457 2946
3779 1777 1969
3106 2978 368
1841 2722 3539
3635 1425 3250
3699 2050 3394
3747 2162 3459
3523 3234 416
3779 1857 3427
3731 2594 3571
3747 3122 3683
3779 3266 3715
3795 3443 2962
496 1745 2450
753 1681 2402
576 2017 2738
512 2258 2866
1441 1681 432
1057 2130 2274
1553 1969 2178
1345 2306 2930
801 3154 3523
2434 2498 464
1073 2834 2738
1729 2658 2258
1985 2690 2786
1649 3202 3523
3202 3122 416
1009 3410 3635
1569 3410 3122
2354 3314 2994
2898 3491 3539
3539 3459 560
2017 3555 3683
2834 3667 3731
3715 3394 3603
3811 3667 3747
3715 3603 2674
608 2674 3154
656 2754 3234
689 2866 3298
705 2962 3394
721 3010 3410
785 3122 3491
1185 3202 3394
1393 3106 3410
1233 3378 3635
1281 3427 3394
1105 3394 3539
2098 3090 2866
2978 2802 2834
2882 3042 3443
2098 3667 3635
1553 3571 3683
2738 3410 2818
3427 3314 2834
3587 3427 3459
3378 3459 1569
2386 3651 3715
3106 3747 3667
3491 3811 3459
3683 3859 3779
3827 3875 3875
