其他预设/【236】赛博朋克风调色预设/【后期菌】视频调色预设/3DL/Glitch 03.3dl
# LUT by SparkleStock. Enhanced with VOXCOLOR algorithms.
0 256 512 768 1023
0 0 0
320 32 320
2001 208 689
3443 304 1297
3699 320 1265
1649 176 656
2386 224 721
3475 288 1377
3699 368 2322
2722 1409 96
3635 288 1921
3651 320 2114
3699 352 2306
3843 672 2962
3763 1057 1025
3843 865 3090
3843 977 3106
3843 1105 3186
3843 1201 3202
3795 1681 3314
3763 1825 3314
3763 2017 3362
3763 2130 3378
3763 2242 3427
3763 2370 3443
80 288 416
352 528 1937
3122 256 1169
3651 304 1121
1057 1217 320
2594 256 1825
3539 288 1761
3779 432 2578
3683 817 384
2130 2258 304
3747 400 2498
3859 721 2994
3859 833 3090
3811 1281 3154
3122 2706 224
3843 1169 3202
3795 1681 3298
3779 1777 3314
3779 1905 3330
3811 2546 2882
3747 2210 3410
3731 2754 3555
3747 2834 3571
3731 2898 3587
3747 3010 3603
304 1025 1537
320 1185 1697
336 1313 1937
320 2017 2146
1297 1537 352
400 2001 2706
560 2722 3106
721 2882 3362
3587 1377 1217
2546 2434 224
640 2802 3250
1345 2962 3459
3571 1985 3427
3795 1985 2130
3234 3106 288
2258 3154 3571
3747 2033 3459
3747 2658 3523
3731 2706 3539
3603 3346 368
3747 2530 3491
3747 2978 3603
3763 3314 3683
3779 3410 3731
3811 3491 3138
416 2242 2866
480 2450 2978
528 2610 3074
560 2690 3122
1089 1937 592
689 2930 3250
1041 3266 3475
1137 3346 3539
1249 3410 3571
2322 2642 352
1105 3314 3523
1489 3443 3587
1985 3523 3603
2130 3555 3651
3346 3234 336
1617 3539 3651
2050 3539 3635
2642 3555 3635
3122 3667 3731
3635 3523 528
2674 3603 3699
3106 3667 3747
3779 3443 3731
3843 3667 3747
3763 3635 2914
769 3026 3330
849 3122 3378
929 3202 3459
1009 3266 3491
1073 3314 3523
1185 3378 3555
1617 3523 3651
1697 3523 3635
1809 3555 3667
1777 3523 3491
1649 3539 3651
2210 3555 3651
2706 3587 3635
2834 3635 3667
2722 3683 3651
2338 3603 3683
2770 3603 3667
3122 3651 3683
3410 3683 3731
3523 3491 1537
2882 3683 3731
3234 3731 3763
3475 3747 3763
3699 3811 3811
3843 3811 3843
