其他预设/【236】赛博朋克风调色预设/【后期菌】视频调色预设/3DL/Glitch 07_S.3dl
# LUT by SparkleStock. Enhanced with VOXCOLOR algorithms.
0 128 256 384 512 640 768 896 1023
96 224 256
160 240 288
272 256 368
721 288 448
1505 288 528
2290 256 705
2706 288 1009
2882 352 1329
3186 400 1089
256 272 368
288 256 384
672 288 448
1569 288 576
2370 256 753
2738 272 1041
2898 352 1329
3074 432 1409
2946 496 240
1281 288 496
1505 288 528
1697 272 560
2370 256 737
2738 288 1089
2914 384 1377
3042 496 1761
3314 496 608
2210 897 352
2562 288 881
2706 288 1009
2738 288 1089
2706 320 1089
2930 384 1425
3026 496 1745
3106 656 2146
3106 737 2290
3330 769 608
2946 384 1489
2978 448 1617
2914 464 1585
3026 480 1681
3026 496 1745
3090 640 2130
3106 769 2354
3122 897 2498
3410 961 1041
3090 640 2130
3106 705 2226
3042 737 2194
3106 737 2306
3106 737 2290
3106 785 2370
3058 961 2562
3106 1073 2674
3154 1201 2754
3106 897 2514
3122 929 2562
3042 961 2514
3106 977 2610
3122 1041 2642
3122 1057 2658
3122 1089 2706
3170 1313 2834
3202 1537 2978
3074 1265 2722
3074 1281 2738
3074 1329 2802
3170 1329 2866
3090 1425 2882
3106 1489 2914
3122 1553 2978
3122 1569 3026
3250 1841 3106
3218 1649 3026
3250 1729 3074
3250 1777 3090
3250 1841 3090
3266 1953 3154
3266 1985 3154
3314 2066 3170
3330 2194 3202
3346 2210 3202
176 256 320
224 256 352
448 272 416
1201 288 496
2050 272 640
2562 256 865
2818 320 1201
3202 384 897
2082 560 272
368 272 400
1009 304 480
1873 272 592
2482 256 817
2802 304 1169
2962 384 1409
3106 400 224
1441 881 256
1585 1201 256
1825 288 592
2370 272 769
2434 288 849
2722 320 1169
2946 416 1537
3042 528 1873
3090 624 2082
3346 640 336
2226 1489 320
2674 304 1073
2882 400 1409
2802 448 1457
2914 432 1553
3074 560 1889
3106 672 2178
3122 753 2274
3410 849 496
2594 1889 304
3026 480 1697
3090 624 2082
3042 672 2114
3090 672 2178
3090 672 2194
3106 801 2402
3122 961 2578
3122 1073 2626
3539 1425 608
3106 705 2226
3106 833 2434
3058 897 2434
3122 913 2514
3106 913 2514
3106 945 2562
3074 1137 2722
3170 1313 2802
3619 1697 1393
3106 961 2594
3122 1121 2722
3074 1185 2706
3154 1217 2786
3154 1249 2802
3154 1297 2834
3170 1329 2866
3218 1665 3042
3314 1953 3058
3106 1377 2786
3170 1617 2962
3170 1681 2978
3234 1729 3074
3186 1793 3074
3218 1905 3106
3218 1969 3122
3218 2017 3154
3362 2338 3234
3266 1873 3122
3314 2162 3186
3346 2258 3218
3362 2322 3234
3378 2418 3250
3378 2450 3266
3394 2498 3282
3410 2578 3314
3427 2626 3330
144 288 384
144 288 416
96 336 1521
1041 288 1105
2274 256 865
2514 320 1345
3090 352 993
1457 560 272
1089 849 272
144 352 737
1681 304 961
1745 304 1009
2338 320 1121
2754 384 1393
3010 464 1649
3234 464 272
1601 1073 256
1841 1361 240
1633 336 1201
2146 432 1089
2306 480 1249
2482 544 1569
2738 624 1969
3042 705 2178
3394 705 416
2402 1633 256
2578 1921 304
2626 432 1281
2482 624 1393
2434 753 1633
2530 753 1825
2770 817 2210
3026 849 2434
3202 865 2082
3266 1569 272
2898 2258 320
2946 592 1809
2754 833 1889
2674 961 2066
2706 1009 2258
2834 961 2402
3106 993 2626
3122 1137 2706
3555 1441 1249
3346 2482 288
3106 817 2418
3042 977 2466
2978 1121 2578
2946 1201 2610
3090 1201 2738
3122 1153 2738
3122 1441 2930
3314 1681 2786
3667 2370 352
3122 1089 2674
3122 1201 2770
3154 1553 2930
3202 1553 2978
3218 1585 3026
3218 1649 3026
3234 1697 3074
3282 2033 3122
3539 2402 2642
3154 1521 2898
3186 1777 3042
3234 2066 3090
3314 2146 3202
3266 2226 3186
3282 2290 3202
3314 2370 3234
3330 2450 3266
3507 2722 3122
3266 2001 3154
3362 2354 3250
3427 2626 3330
3410 2642 3314
3459 2722 3362
3475 2786 3362
3459 2786 3362
3475 2834 3378
3507 2898 3394
160 352 560
192 368 592
288 368 705
304 384 817
144 496 1505
16 737 2066
3042 368 865
1185 737 272
1345 1041 256
336 496 785
464 608 1089
528 608 1329
416 689 2194
1681 480 2050
2562 496 1985
2914 608 256
1681 1265 256
2130 1553 224
400 721 1201
544 913 1553
608 1105 1921
1953 689 1793
2306 672 2082
2754 737 2338
3410 833 560
2594 1761 240
2770 2066 288
320 1089 1985
689 1169 1841
1889 961 1633
2210 977 1889
2418 993 2306
2866 1089 2626
3427 1201 1473
3234 2290 272
3250 2578 368
2114 849 1889
2418 1009 1681
2402 1217 1857
2466 1297 2162
2642 1201 2450
2962 1265 2738
3282 1473 2610
3523 2418 304
3491 2818 368
2914 913 2354
2786 1201 2258
2754 1425 2322
2802 1585 2610
2962 1553 2802
3202 1537 2978
3218 1825 3090
3539 2194 2370
3699 2898 432
3106 1169 2786
3154 1441 2866
3202 1681 3010
3218 2033 3074
3282 2050 3186
3282 2114 3186
3314 2162 3186
3539 2530 2770
3827 2978 512
3186 1681 2962
3218 1969 3074
3282 2226 3154
3427 2594 3314
3378 2610 3266
3378 2626 3282
3394 2706 3330
3410 2770 3362
3619 2962 3042
3330 2194 3202
3410 2530 3314
3459 2738 3346
3507 2946 3410
3507 3010 3410
3523 3042 3427
3539 3074 3459
3539 3106 3459
3603 3170 3314
224 496 961
368 464 993
464 480 1105
400 496 1233
288 592 1345
112 865 1809
256 1169 1425
1105 897 256
1553 1201 240
480 656 1201
705 817 1441
849 817 1553
753 865 1825
576 977 2194
288 1425 2866
208 1857 2530
1745 1441 208
2338 1713 240
608 977 1377
881 1185 1521
929 1345 1825
945 1377 2194
801 1553 2770
640 1953 3266
3154 1121 1297
2882 1889 256
2946 2258 304
592 1361 1681
913 1585 1649
1009 1777 2001
1089 1889 2434
1089 1985 2882
2642 1265 2786
3410 1681 1377
3330 2450 288
3378 2706 400
544 1841 2226
881 2066 2130
1217 2066 2226
2258 1633 2306
2594 1617 2658
2962 1617 2978
3539 2001 2082
3651 2802 400
3683 3074 512
737 2418 3074
1377 2402 2722
2434 1953 2482
2786 1793 2594
2978 1953 2962
3202 1969 3106
3282 2210 3202
3843 2754 961
3779 3186 608
1729 2594 3603
2738 2162 3122
3090 1905 2978
3106 2258 3042
3346 2514 3234
3410 2530 3282
3410 2562 3282
3571 2866 3106
3923 3250 705
3218 1873 3154
3250 2178 3202
3362 2466 3234
3427 2674 3330
3475 2946 3378
3459 2962 3394
3491 3042 3410
3523 3074 3330
3971 3282 929
3378 2402 3266
3427 2674 3346
3475 2866 3394
3539 3074 3459
3571 3234 3475
3571 3266 3491
3603 3314 3507
3619 3330 3459
3763 3427 2978
192 721 1521
432 705 1521
496 737 1633
448 785 1793
288 913 2001
128 1041 2050
80 1457 2610
689 1889 544
1681 1313 240
560 961 1617
849 1137 1777
993 1089 1873
961 1153 2162
705 1345 2562
368 1617 2818
176 2226 3058
1585 1857 192
2578 1889 240
737 1329 1745
1089 1441 1697
1201 1617 2001
1201 1633 2306
1041 1793 2738
689 2258 3218
512 2674 2882
2706 2274 240
3106 2434 352
801 1777 1969
1169 1857 1793
1329 2001 2066
1377 2178 2466
1313 2370 2914
1025 2754 3427
945 3058 3523
3266 2738 320
3491 2802 432
737 2290 2402
1137 2418 2146
1393 2530 2274
1521 2626 2578
1537 2802 3042
1457 3026 3555
1713 3186 3394
3635 3026 480
3731 3154 592
656 2802 3058
1041 2978 2802
1297 3026 2802
1601 2962 2946
2082 3026 3266
3106 2466 3266
3362 2626 3058
3875 3122 608
3907 3378 801
849 3410 3827
1153 3410 3555
2017 3218 3507
2450 3234 3427
3186 2706 3218
3250 2802 3282
3378 2866 3362
3907 3234 1841
3971 3459 897
1681 3346 3763
2562 3250 3683
3186 3074 3619
3378 2834 3427
3378 3058 3266
3410 3218 3362
3539 3218 3459
3603 3282 3459
3987 3539 1681
3250 2834 3635
3378 2914 3635
3491 2978 3539
3539 3170 3491
3603 3330 3523
3635 3459 3555
3635 3475 3555
3667 3523 3507
3907 3635 2594
144 1121 2178
256 1153 2194
400 1169 2274
368 1249 2434
192 1441 2626
96 1585 2738
96 1681 2834
240 2146 2498
1665 1505 208
448 1441 2290
801 1569 2306
993 1521 2306
929 1649 2626
737 1873 2930
416 2306 3250
256 2514 3346
384 2818 3090
2418 2274 224
737 1825 2338
1153 1841 2162
1409 1921 2306
1409 2001 2610
1201 2274 3058
833 2786 3491
624 3170 3699
705 3202 2626
3154 2626 384
833 2290 2514
1361 2258 2194
1633 2306 2290
1777 2370 2578
1633 2578 3026
1329 3042 3539
1153 3346 3779
961 3539 3170
3523 2946 496
897 2786 2914
1329 2818 2610
1713 2722 2402
1921 2706 2530
1921 2770 2882
1697 3090 3394
1553 3314 3683
2706 3475 2258
3795 3218 640
913 3250 3475
1249 3282 3202
1569 3250 2930
1889 3090 2722
1985 3122 3010
2082 3234 3330
2258 3314 3571
3731 3218 1073
3939 3410 849
977 3523 3859
1153 3619 3811
1489 3523 3282
1809 3475 3090
2178 3410 3106
2882 3330 3266
2882 3491 3539
3843 3491 1457
4051 3619 1185
1265 3667 3779
1441 3667 3795
1825 3699 3507
2306 3651 3314
3042 3507 3202
3186 3539 3378
3507 3410 3475
4003 3603 1377
4051 3683 1377
1761 3651 3843
2146 3683 3811
2786 3651 3763
3202 3619 3619
3539 3427 3459
3619 3539 3539
3667 3635 3555
3715 3635 3410
3859 3731 2866
112 1745 2898
176 1745 2866
208 1873 2930
192 1953 3026
144 2066 3122
176 2210 3186
224 2338 3234
240 2418 3282
400 2658 2530
304 2194 3074
656 2338 3010
833 2274 2978
833 2370 3154
672 2626 3394
496 2946 3619
544 3042 3651
592 3106 3667
592 3218 3218
624 2482 3042
1073 2530 2898
1345 2610 2930
1393 2626 3106
1217 2930 3475
1089 3202 3699
993 3362 3795
961 3507 3859
2114 3266 1457
753 2882 3266
1329 2882 2962
1681 2754 2786
1873 2738 2898
1905 2738 3090
1681 3010 3491
1537 3218 3683
1201 3555 3779
3394 3170 656
945 3314 3619
1329 3266 3266
1825 3026 2802
2258 2786 2610
2338 2818 2914
2226 2978 3282
2033 3170 3571
1633 3507 3683
3731 3394 833
993 3539 3859
1377 3507 3475
1905 3250 2882
2354 3090 2658
2562 3090 2898
2738 3122 3170
2706 3234 3491
2114 3619 3699
3907 3571 1297
1169 3651 3859
1489 3619 3539
1953 3491 3026
2418 3410 2786
2802 3362 2898
3058 3362 3154
3154 3459 3427
3154 3667 3346
4051 3635 1249
1425 3699 3795
1649 3715 3731
2082 3683 3266
2610 3651 3026
3042 3619 3042
3218 3635 3266
3362 3667 3523
3971 3715 1969
3971 3795 2530
1809 3731 3843
2370 3715 3795
2770 3731 3715
3090 3763 3459
3378 3731 3427
3491 3763 3523
3555 3779 3651
3827 3779 3282
3811 3779 3266
224 2338 3250
240 2418 3282
256 2498 3346
272 2578 3378
336 2658 3459
384 2738 3507
416 2818 3539
464 2898 3571
480 2930 3603
368 2738 3507
576 3106 3667
689 3106 3635
737 3186 3667
721 3250 3731
769 3330 3779
865 3314 3795
849 3410 3827
817 3410 3731
576 3106 3667
929 3314 3683
1169 3330 3619
1233 3314 3635
1377 3218 3619
1377 3314 3699
1201 3507 3827
1153 3635 3859
961 3555 3491
897 3362 3715
1089 3475 3731
1537 3250 3362
1953 3058 3186
2114 2914 3218
2050 3010 3459
1857 3218 3683
1553 3571 3843
1361 3683 3651
1089 3523 3779
1393 3475 3523
1953 3186 3042
2466 2978 2834
2770 2882 2930
2786 2946 3234
2658 3106 3523
2402 3410 3763
1729 3859 3731
1185 3635 3843
1617 3523 3394
2274 3314 2882
2786 3154 2706
3154 3090 2866
3394 3090 3090
3330 3186 3394
3170 3427 3667
2162 3923 3811
1377 3667 3859
1841 3635 3394
2498 3491 2914
3074 3362 2706
3394 3330 2834
3523 3362 3122
3603 3410 3394
3154 3683 3715
3939 3779 2130
1697 3715 3763
2162 3731 3683
2866 3651 3154
3282 3635 2882
3507 3635 2962
3619 3635 3202
3635 3651 3491
3635 3715 3667
3843 3811 3058
2066 3763 3827
2642 3715 3779
3058 3731 3635
3346 3763 3410
3507 3779 3394
3571 3795 3507
3635 3779 3635
3683 3795 3635
3699 3779 3667
