其他预设/【236】赛博朋克风调色预设/【后期菌】视频调色预设/3DL/Glitch 04.3dl
# LUT by SparkleStock. Enhanced with VOXCOLOR algorithms.
0 256 512 768 1023
0 0 16
576 80 608
2130 192 1137
3346 288 1585
3747 400 1601
1889 176 1073
2306 208 1137
3378 320 1649
3731 416 2450
2594 1585 192
3603 368 2114
3651 368 2274
3731 384 2450
3859 576 3010
3763 1345 1521
3843 705 3170
3843 801 3154
3859 945 3234
3859 1009 3266
3827 1425 3362
3795 1521 3362
3795 1681 3378
3779 1745 3394
3779 1889 3427
3779 1985 3443
112 448 656
384 576 1857
2898 256 1537
3651 368 1505
1329 1393 304
2402 256 1953
3507 352 2001
3795 448 2690
3667 1201 737
2178 2194 352
3763 416 2626
3859 624 3058
3843 672 3138
3843 1121 3234
3058 2642 304
3859 977 3250
3827 1425 3362
3827 1489 3362
3795 1601 3378
3795 2466 2898
3779 1825 3410
3747 2466 3539
3747 2626 3587
3731 2690 3587
3731 2818 3635
272 1153 1617
320 1249 1729
320 1329 1873
304 1825 2001
1505 1617 336
352 1681 2434
368 2242 2914
416 2290 3250
3523 1617 1537
2530 2402 336
384 2274 3106
1073 2642 3427
3603 1585 3427
3795 2066 2354
3234 3106 432
1969 2930 3587
3779 1585 3507
3763 2338 3523
3747 2434 3523
3635 3378 560
3763 2210 3507
3731 2786 3619
3763 3234 3715
3779 3346 3731
3795 3475 3138
336 1809 2594
352 1953 2706
368 2114 2818
368 2226 2898
1361 1825 448
400 2482 3106
464 2834 3362
512 2914 3427
560 3042 3523
2370 2594 448
512 2914 3427
672 3282 3619
1041 3443 3635
1153 3507 3651
3346 3234 512
737 3362 3651
1105 3475 3651
2114 3539 3635
2994 3651 3731
3603 3523 833
2082 3587 3683
2946 3667 3747
3779 3378 3747
3827 3651 3779
3731 3635 2946
432 2562 3186
448 2658 3234
464 2754 3298
480 2834 3362
512 2898 3410
544 3010 3491
753 3362 3635
801 3394 3651
881 3427 3651
1041 3394 3378
769 3378 3635
1249 3507 3651
2210 3587 3651
2466 3603 3667
2098 3667 3635
1345 3539 3683
2338 3603 3667
2994 3635 3667
3314 3715 3747
3427 3507 1825
2514 3651 3731
3122 3715 3763
3394 3747 3779
3635 3827 3843
3827 3859 3875
