其他预设/【236】赛博朋克风调色预设/【后期菌】视频调色预设/3DL/Glitch 06_S.3dl
# LUT by SparkleStock. Enhanced with VOXCOLOR algorithms.
0 256 512 768 1023
16 16 48
496 160 432
1937 352 977
3138 448 1425
3571 464 1441
1777 336 929
2114 368 1009
3202 464 1457
3603 464 2098
2530 1441 288
3507 464 1809
3459 480 1889
3587 448 2082
3795 560 2738
3683 1281 1313
3811 640 2866
3715 753 2850
3827 801 2962
3827 897 3026
3811 1329 3218
3795 1425 3218
3795 1553 3250
3779 1665 3298
3779 1793 3314
3779 1857 3362
128 384 528
480 640 1761
2738 432 1345
3459 448 1345
1681 1345 256
2306 464 1601
2722 576 1521
3266 512 2258
3539 1121 672
2402 2001 352
3523 496 2130
3250 801 2402
3459 769 2722
3827 977 2994
2978 2402 272
3827 865 3010
3747 1345 3138
3811 1393 3218
3795 1473 3250
3795 2322 2706
3779 1745 3298
3731 2306 3459
3731 2466 3523
3715 2562 3523
3731 2706 3571
416 1153 1441
640 1089 1489
528 1281 1713
336 2001 1953
1969 1553 256
849 1505 1505
1137 1585 1761
1073 1745 2594
3346 1601 1425
2578 2226 352
865 2242 2082
1521 2242 2098
2946 1633 2850
3731 1969 2033
3122 2882 320
2194 2834 3507
3603 1601 3170
3683 2194 3378
3731 2290 3443
3507 3154 352
3747 2050 3394
3715 2658 3555
3747 3154 3667
3779 3266 3715
3779 3427 2962
512 1857 2354
769 1761 2306
592 2098 2594
560 2322 2738
1889 1745 320
1041 2130 2162
1537 1905 2098
1329 2258 2850
769 3074 3410
2594 2402 384
1041 2754 2642
1665 2578 2194
1905 2658 2738
1585 3138 3507
3218 3026 352
913 3314 3571
1521 3362 3106
2386 3298 2978
2898 3491 3539
3523 3427 496
2082 3523 3667
2866 3651 3731
3715 3378 3587
3811 3667 3747
3715 3587 2610
608 2658 3010
640 2738 3090
656 2818 3170
689 2898 3250
689 2930 3266
737 3026 3378
1105 3122 3362
1313 3042 3378
1153 3314 3587
1233 3378 3346
1009 3298 3507
2050 3042 2834
2994 2786 2818
2882 3010 3427
2098 3651 3603
1553 3507 3651
2786 3394 2818
3427 3314 2818
3571 3427 3443
3362 3459 1521
2402 3635 3699
3090 3731 3651
3459 3811 3459
3667 3859 3779
3827 3875 3875
