其他预设/【236】赛博朋克风调色预设/【后期菌】视频调色预设/3DL/Glitch 06_S.3dl
# LUT by SparkleStock. Enhanced with VOXCOLOR algorithms.
0 64 128 192 256 320 384 448 512 576 640 704 768 832 896 960 1023
16 16 48
128 64 128
208 64 208
352 112 352
496 160 432
833 224 640
1281 304 801
1537 336 881
1937 352 977
2402 416 1073
2642 416 1153
3010 432 1345
3138 448 1425
3250 464 1489
3394 464 1649
3507 464 1665
3571 464 1441
192 80 192
208 80 208
352 112 352
560 160 464
801 224 640
1217 272 785
1601 320 897
1937 352 977
2386 416 1073
2706 416 1233
2962 432 1329
3138 464 1425
3314 464 1553
3394 464 1665
3523 464 1681
3555 512 1329
3459 640 865
480 160 432
496 144 432
560 160 464
897 240 689
1233 288 817
1601 320 881
2001 368 1009
2386 416 1073
2738 416 1233
3010 416 1345
3202 464 1441
3314 464 1553
3394 464 1665
3491 464 1793
3571 464 1681
3555 576 1153
3026 961 256
1041 272 753
1121 256 753
1217 288 817
1297 304 833
1649 336 897
2050 368 1009
2450 400 1105
2690 416 1185
2962 432 1329
3202 464 1457
3314 464 1569
3410 464 1681
3523 464 1857
3603 464 1857
3571 560 1425
3282 897 336
2578 1329 224
1777 336 929
1841 352 977
1937 352 977
2017 368 977
2114 368 1009
2402 432 1121
2722 416 1217
2978 432 1329
3202 464 1457
3346 464 1585
3427 464 1697
3523 464 1889
3603 464 2098
3651 464 1873
3539 753 993
2930 1185 320
2530 1441 288
2434 400 1105
2498 400 1121
2578 432 1137
2658 432 1201
2722 432 1233
2738 416 1233
3026 432 1361
3202 464 1457
3362 464 1585
3443 464 1729
3507 464 1857
3587 464 2082
3651 464 2290
3683 464 2194
3635 689 1441
3346 1073 320
2514 1569 224
2946 432 1329
3090 448 1377
3138 464 1425
3074 464 1409
3202 464 1457
3202 464 1441
3170 464 1473
3282 480 1585
3443 464 1729
3539 464 1905
3587 464 2082
3651 464 2290
3731 480 2530
3731 480 2562
3779 544 2674
3699 705 2114
3507 1137 897
3298 464 1553
3282 496 1553
3378 464 1617
3410 464 1649
3427 464 1681
3410 464 1697
3443 464 1729
3459 464 1761
3459 480 1905
3523 480 2082
3571 480 2306
3651 512 2546
3667 512 2594
3683 560 2706
3811 608 2802
3747 769 2290
3571 1169 1329
3507 464 1809
3523 464 1889
3555 464 1937
3507 480 1937
3459 480 1889
3507 496 1953
3571 464 1985
3603 464 2098
3587 448 2082
3683 464 2322
3731 480 2514
3779 512 2610
3795 560 2738
3795 608 2802
3827 656 2850
3779 801 2450
3683 1281 1313
3603 464 2162
3635 464 2194
3651 464 2258
3571 480 2274
3699 464 2402
3699 464 2418
3635 512 2418
3715 464 2514
3747 480 2546
3731 480 2562
3747 496 2610
3699 592 2754
3699 624 2818
3715 656 2834
3811 753 2930
3811 865 2882
3795 1009 2498
3715 464 2466
3731 464 2562
3779 496 2594
3747 496 2594
3683 544 2578
3779 528 2658
3795 528 2674
3683 576 2674
3779 544 2690
3795 560 2738
3795 576 2754
3715 656 2834
3715 721 2882
3795 737 2898
3811 865 2994
3811 961 3042
3811 1073 3042
3683 608 2642
3779 576 2706
3795 576 2786
3795 592 2786
3699 640 2738
3715 656 2786
3715 672 2802
3715 689 2834
3827 656 2850
3811 640 2850
3811 689 2882
3811 689 2898
3699 769 2898
3827 833 2994
3731 993 3074
3811 1073 3090
3715 1217 3074
3811 640 2866
3811 656 2850
3811 689 2882
3811 689 2866
3715 753 2850
3811 753 2930
3811 769 2898
3811 769 2930
3827 801 2962
3811 785 2962
3827 849 2994
3715 897 3010
3827 897 3026
3827 993 3074
3811 1089 3122
3811 1233 3154
3811 1329 3218
3811 785 2962
3827 849 2994
3811 849 2978
3811 881 2978
3811 881 2978
3827 913 3026
3715 945 2946
3811 929 3026
3827 993 3074
3715 1025 3026
3811 1025 3074
3715 1105 3090
3811 1073 3090
3811 1089 3090
3811 1233 3154
3795 1345 3202
3699 1441 3234
3731 1073 3010
3715 1105 3010
3715 1121 3026
3715 1121 3042
3715 1153 3074
3811 1137 3106
3811 1153 3122
3715 1233 3090
3699 1249 3122
3715 1313 3138
3699 1313 3138
3811 1297 3170
3715 1361 3202
3795 1345 3202
3699 1377 3202
3699 1505 3266
3779 1601 3266
3811 1265 3154
3699 1313 3090
3795 1297 3170
3795 1329 3202
3811 1345 3218
3811 1377 3218
3795 1361 3202
3699 1441 3202
3715 1473 3218
3795 1457 3250
3795 1473 3250
3795 1521 3250
3795 1553 3266
3795 1569 3266
3795 1601 3282
3699 1633 3282
3683 1729 3314
3795 1425 3218
3795 1457 3250
3795 1537 3250
3795 1521 3266
3795 1553 3250
3795 1569 3250
3779 1601 3250
3795 1649 3282
3779 1665 3298
3779 1665 3282
3795 1729 3314
3779 1745 3314
3779 1793 3314
3779 1793 3314
3779 1841 3362
3747 1841 3346
3779 1857 3362
128 48 144
144 48 128
272 96 256
528 160 464
689 192 544
977 256 721
1361 304 849
1697 320 897
2146 368 1009
2546 416 1153
2786 416 1233
3026 432 1377
3218 464 1473
3346 464 1585
3459 464 1617
3523 464 1249
3266 705 416
272 96 240
432 128 384
656 192 528
945 240 689
1361 304 833
1697 320 897
2146 368 1009
2594 432 1137
2738 416 1233
3074 448 1361
3250 464 1489
3346 464 1585
3459 464 1681
3539 464 1569
3523 544 1089
2722 1057 240
2306 1281 224
576 176 480
897 224 689
961 240 689
1361 304 849
1793 352 945
2146 368 1009
2450 416 1137
2818 416 1233
3026 432 1377
3250 464 1473
3378 464 1633
3427 464 1713
3555 464 1681
3539 576 1121
3010 929 272
2402 1329 224
1953 1457 240
1297 304 833
1633 336 897
1713 336 897
1793 352 945
2194 384 1041
2514 400 1121
2818 432 1265
3090 448 1393
3218 464 1457
3394 464 1633
3459 464 1777
3539 464 1857
3603 496 1617
3491 672 913
2882 1121 240
2322 1393 208
1985 1537 240
1937 352 977
2386 416 1073
2434 400 1105
2514 400 1121
2578 416 1137
2754 448 1265
3090 448 1393
3250 464 1489
3394 464 1633
3459 464 1745
3571 464 1969
3587 464 2098
3667 448 2130
3603 640 1473
3298 993 320
2354 1521 288
2001 1633 352
2642 416 1153
2930 432 1313
2962 432 1329
3010 432 1361
3074 432 1361
3106 448 1393
3266 464 1505
3394 464 1617
3459 464 1745
3555 464 1969
3603 464 2130
3651 464 2290
3731 464 2514
3747 528 2642
3683 689 1745
3507 1137 576
2882 1649 208
3074 480 1393
3250 464 1489
3282 464 1521
3250 464 1537
3346 464 1585
3394 464 1633
3314 464 1649
3410 464 1793
3555 464 1953
3635 464 2162
3699 464 2402
3715 464 2466
3779 528 2642
3795 576 2674
3699 721 2082
3555 1185 785
3042 1665 272
3394 464 1617
3410 480 1761
3507 464 1841
3507 464 1857
3539 464 1905
3539 464 1905
3555 464 1969
3555 464 1953
3539 480 2130
3603 480 2354
3683 512 2578
3683 512 2610
3699 576 2706
3715 656 2786
3731 769 2306
3571 1329 737
3122 1745 272
3539 464 1889
3603 464 2114
3635 464 2162
3555 480 2146
3571 480 2194
3571 480 2274
3667 464 2306
3667 464 2306
3683 464 2386
3747 496 2578
3747 512 2642
3779 576 2706
3811 640 2834
3811 689 2882
3827 785 2802
3747 977 2274
3635 1473 785
3667 464 2306
3715 464 2450
3747 480 2546
3667 496 2498
3747 464 2562
3747 496 2594
3699 528 2578
3779 512 2610
3747 512 2610
3779 528 2674
3795 576 2754
3715 656 2834
3731 705 2882
3731 785 2930
3811 849 2978
3811 993 3026
3795 1153 2642
3747 496 2594
3779 544 2674
3779 560 2690
3795 576 2754
3699 592 2674
3779 576 2754
3795 608 2802
3715 624 2802
3811 624 2834
3811 640 2834
3811 624 2834
3731 721 2898
3731 801 2946
3827 897 3026
3811 977 3042
3827 1089 3106
3811 1265 2738
3699 624 2658
3811 640 2850
3811 624 2818
3811 640 2866
3731 689 2818
3731 705 2866
3715 721 2834
3731 737 2866
3811 721 2898
3811 769 2930
3811 769 2930
3811 801 2946
3747 945 3026
3811 1025 3074
3747 1137 3122
3811 1249 3122
3715 1441 2978
3811 721 2898
3811 801 2946
3811 801 2962
3811 817 2962
3731 897 2930
3811 849 2978
3811 881 2978
3811 897 3026
3811 913 3026
3811 961 3042
3827 993 3074
3731 1009 3026
3811 1025 3074
3811 1105 3122
3811 1233 3138
3795 1345 3218
3795 1457 3202
3827 865 3010
3811 977 3026
3811 993 3026
3827 1041 3106
3827 1073 3106
3811 1057 3090
3731 1121 3090
3827 1121 3122
3811 1137 3122
3715 1185 3106
3795 1201 3122
3731 1249 3138
3795 1233 3154
3795 1281 3154
3795 1393 3234
3795 1521 3250
3699 1649 3298
3747 1153 3026
3715 1233 3042
3731 1265 3106
3731 1313 3122
3731 1329 3122
3811 1281 3170
3795 1297 3170
3715 1377 3154
3715 1377 3154
3715 1425 3218
3715 1409 3202
3795 1425 3218
3715 1489 3234
3795 1473 3234
3699 1553 3234
3715 1713 3314
3779 1777 3346
3795 1297 3170
3715 1457 3154
3795 1457 3250
3795 1473 3234
3779 1521 3234
3795 1553 3250
3779 1553 3250
3715 1633 3234
3715 1665 3250
3795 1665 3298
3795 1713 3314
3795 1729 3298
3795 1729 3314
3779 1745 3314
3779 1793 3314
3683 1825 3346
3683 1953 3378
3795 1521 3266
3795 1665 3298
3795 1713 3314
3779 1729 3298
3779 1761 3314
3779 1761 3298
3779 1793 3314
3779 1809 3346
3779 1809 3346
3779 1857 3362
3779 1889 3362
3747 1905 3346
3747 1953 3378
3731 2001 3378
3731 2033 3362
3747 2098 3410
3747 2050 3378
272 96 288
320 96 336
352 128 368
560 160 464
897 240 689
1185 288 785
1697 336 897
1937 352 977
2434 400 1105
2738 416 1233
2962 416 1313
3170 464 1441
3314 464 1553
3410 464 1521
3523 464 1233
3250 689 400
2514 1073 256
464 144 432
769 208 592
801 224 656
1121 272 785
1649 336 897
1937 352 977
2322 400 1073
2642 416 1153
2882 448 1281
3106 448 1393
3298 464 1537
3378 464 1617
3507 464 1441
3314 640 576
2674 1009 256
2017 1345 240
1761 1425 272
753 224 640
1121 288 785
1553 336 881
1841 352 945
2290 384 1057
2642 416 1153
2882 416 1281
3122 448 1425
3282 464 1537
3378 464 1617
3507 464 1713
3571 464 1457
3170 753 288
2306 1281 224
2001 1377 240
1889 1457 240
1985 1569 256
1441 304 881
1793 352 961
2258 400 1057
2274 400 1057
2562 448 1185
2818 448 1297
3042 448 1393
3298 464 1553
3394 464 1649
3507 464 1809
3555 464 1953
3635 464 2130
3587 576 1441
3314 929 352
2578 1441 224
2114 1585 256
2114 1713 288
2242 400 1057
2578 432 1137
2754 432 1233
2786 432 1249
2818 448 1297
3090 464 1441
3170 480 1521
3362 480 1681
3507 464 1841
3555 464 1969
3635 464 2194
3699 464 2418
3715 464 2434
3667 672 1729
3459 1057 464
2642 1569 256
2306 1777 352
2738 416 1233
3010 416 1361
3154 480 1441
3138 496 1473
3138 496 1521
3154 496 1537
3298 496 1665
3378 480 1809
3571 464 1985
3603 464 2178
3715 464 2434
3731 464 2562
3747 560 2434
3699 769 1777
3394 1201 336
2882 1713 224
2370 1937 288
3154 480 1441
3314 464 1569
3378 480 1697
3362 496 1729
3298 496 1745
3314 512 1793
3427 464 1841
3523 480 2017
3667 464 2258
3683 464 2370
3731 464 2562
3779 544 2690
3779 576 2610
3715 769 2130
3555 1233 753
3026 1729 208
2466 2017 352
3410 464 1681
3443 480 1857
3571 464 2001
3459 480 2001
3459 480 2017
3507 512 2130
3491 496 2130
3555 480 2178
3667 512 2450
3699 512 2578
3699 560 2658
3699 592 2754
3731 656 2834
3731 737 2866
3779 897 2370
3603 1409 849
3250 1857 272
3571 464 2001
3651 464 2242
3715 464 2434
3651 496 2466
3667 512 2514
3683 528 2546
3731 464 2562
3747 496 2594
3747 496 2594
3779 544 2690
3779 576 2786
3811 640 2850
3811 721 2898
3811 785 2946
3811 897 2898
3795 1057 2370
3651 1585 769
3683 464 2370
3747 496 2562
3779 528 2674
3715 576 2642
3795 544 2706
3795 560 2738
3699 592 2690
3795 592 2754
3779 576 2754
3779 592 2754
3811 640 2850
3731 737 2882
3731 817 2962
3731 945 3026
3827 1057 2946
3779 1233 2242
3635 1777 464
3747 496 2610
3779 576 2722
3795 608 2802
3795 608 2818
3715 640 2786
3811 624 2850
3827 656 2866
3731 672 2834
3795 689 2866
3811 721 2898
3811 705 2882
3731 817 2946
3731 929 3026
3827 1025 3090
3811 1137 3074
3795 1313 2786
3715 1777 1473
3715 672 2754
3811 640 2850
3811 769 2946
3811 785 2930
3731 801 2882
3731 833 2930
3731 849 2946
3731 881 2946
3811 881 3010
3827 913 3026
3827 945 3042
3827 961 3042
3731 1073 3090
3811 1169 3154
3715 1313 3154
3795 1361 3202
3715 1569 3138
3811 737 2930
3811 801 2962
3827 945 3042
3811 961 3042
3731 1009 2994
3811 993 3026
3827 1025 3090
3827 1073 3090
3811 1073 3106
3811 1089 3106
3811 1105 3122
3731 1169 3122
3811 1153 3122
3795 1297 3202
3795 1425 3234
3795 1537 3266
3795 1697 3202
3827 945 3042
3811 1041 3090
3811 1169 3138
3811 1201 3138
3811 1233 3154
3795 1233 3154
3731 1297 3138
3795 1281 3154
3811 1297 3202
3731 1361 3202
3811 1377 3218
3715 1393 3170
3795 1409 3234
3795 1441 3234
3779 1537 3250
3795 1681 3298
3699 1873 3266
3731 1185 3074
3731 1313 3106
3715 1425 3170
3715 1441 3170
3715 1441 3170
3795 1457 3234
3795 1505 3250
3715 1553 3234
3699 1553 3218
3715 1601 3250
3715 1633 3266
3779 1617 3266
3699 1681 3282
3779 1665 3298
3715 1761 3298
3683 1841 3346
3731 2017 3378
3795 1393 3234
3715 1553 3170
3779 1617 3266
3779 1665 3298
3779 1697 3298
3795 1729 3314
3795 1729 3314
3699 1777 3266
3699 1825 3282
3779 1793 3314
3779 1841 3362
3747 1857 3362
3747 1857 3346
3747 1905 3362
3747 1969 3378
3667 2017 3362
3667 2130 3410
3795 1617 3298
3779 1729 3298
3747 1841 3346
3747 1873 3362
3747 1905 3362
3747 1937 3362
3747 2001 3378
3747 2033 3378
3747 2082 3394
3747 2082 3378
3747 2114 3394
3731 2146 3394
3747 2178 3427
3747 2242 3443
3747 2274 3443
3747 2354 3459
3731 2306 3459
304 528 1313
368 576 1601
432 464 1521
656 224 785
1009 288 897
1441 304 897
1937 352 1009
2322 384 1057
2514 400 1121
2802 432 1281
3026 432 1393
3234 464 1473
3378 464 1521
3459 464 1361
3218 640 368
2178 1121 224
1841 1265 224
512 432 1489
1137 304 929
1217 304 945
1265 320 1057
1617 384 1345
2033 400 1089
2466 400 1121
2834 432 1265
3042 448 1361
3250 480 1489
3378 448 1505
3507 464 1377
3298 624 560
2322 1121 224
1969 1265 240
1761 1393 240
