其他预设/【236】赛博朋克风调色预设/【后期菌】视频调色预设/3DL/Glitch 04.3dl
# LUT by SparkleStock. Enhanced with VOXCOLOR algorithms.
0 128 256 384 512 640 768 896 1023
0 0 16
272 16 272
576 80 608
1297 160 977
2130 192 1137
2882 256 1297
3346 288 1585
3507 368 1921
3747 400 1601
544 96 592
656 112 640
1233 160 977
2226 192 1153
2962 272 1377
3362 304 1601
3523 352 1921
3683 368 1985
3202 977 176
1889 176 1073
2130 192 1137
2306 208 1137
2946 256 1377
3378 320 1649
3539 368 1985
3731 416 2450
3683 769 1137
2594 1585 192
3234 272 1505
3346 288 1585
3378 320 1649
3394 320 1681
3555 368 2050
3715 384 2450
3843 464 2834
3843 544 2962
3715 1217 993
3603 368 2114
3651 384 2274
3651 368 2274
3683 384 2354
3731 384 2450
3843 464 2834
3859 576 3010
3859 721 3154
3763 1345 1521
3827 448 2818
3859 496 2898
3859 512 2914
3859 544 2962
3843 560 2994
3859 608 3042
3859 769 3186
3843 977 3234
3843 1153 3250
3843 705 3170
3859 769 3186
3843 801 3154
3843 849 3186
3859 945 3234
3859 961 3234
3859 1009 3266
3843 1233 3298
3827 1425 3362
3843 1169 3282
3827 1201 3282
3827 1233 3298
3827 1281 3298
3827 1329 3298
3827 1393 3314
3827 1425 3362
3827 1457 3346
3779 1681 3378
3795 1521 3362
3827 1617 3378
3795 1681 3378
3779 1681 3378
3779 1745 3394
3779 1841 3410
3779 1889 3427
3779 1985 3443
3779 1985 3443
336 48 384
432 64 496
961 128 881
1745 176 1073
2642 224 1233
3170 272 1473
3475 352 1761
3683 400 1409
2562 1153 144
817 112 817
1617 176 1041
2514 208 1185
3106 272 1425
3427 336 1729
3603 368 2001
3394 785 224
1745 1457 240
1521 1649 336
2466 240 1201
3042 272 1393
3138 272 1457
3427 336 1713
3619 368 2194
3763 432 2594
3827 464 2786
3619 1105 496
2082 1889 288
3394 320 1665
3587 368 2066
3603 368 2114
3619 368 2178
3779 448 2658
3843 480 2866
3843 624 2930
3715 1329 865
2274 2194 336
3683 384 2370
3827 448 2802
3843 480 2866
3843 480 2866
3843 512 2898
3843 624 3058
3843 801 3186
3843 1041 3170
3763 1729 865
3843 512 2914
3843 656 3106
3843 672 3138
3859 721 3170
3843 753 3154
3843 801 3154
3843 1025 3266
3827 1265 3266
3827 1889 1681
3843 833 3202
3859 1073 3266
3843 1105 3266
3843 1169 3282
3843 1201 3282
3827 1233 3298
3827 1281 3298
3827 1537 3362
3779 1809 3314
3827 1265 3298
3827 1489 3362
3827 1537 3362
3827 1617 3378
3795 1649 3378
3795 1697 3394
3779 1745 3394
3779 1809 3410
3763 2162 3475
3795 1697 3410
3763 1969 3410
3763 2066 3443
3763 2130 3475
3763 2242 3491
3763 2290 3507
3747 2354 3523
3747 2418 3539
3747 2466 3539
112 448 656
112 480 753
384 576 1857
1537 224 1985
2898 256 1537
3202 288 1985
3651 368 1505
2098 1185 160
1329 1393 304
240 721 1329
2466 240 1681
2642 240 1665
3266 304 1681
3539 368 1969
3667 384 2322
3523 865 448
1729 1601 272
1633 1761 352
2402 256 1953
3170 288 1873
3507 352 2001
3667 384 2338
3795 448 2690
3843 544 2834
3667 1201 737
2130 2001 304
2178 2194 352
3475 352 2066
3635 368 2306
3795 432 2642
3827 448 2722
3875 560 2962
3843 656 3106
3827 913 2626
3410 2114 192
2514 2370 320
3763 416 2626
3843 480 2882
3859 624 3058
3875 672 3138
3843 672 3138
3843 897 3202
3843 1121 3234
3795 1681 1665
3058 2642 304
3859 624 3058
3859 769 3186
3843 977 3234
3843 1041 3266
3843 1121 3266
3827 1137 3250
3843 1345 3346
3843 1649 3106
3715 2786 336
3859 977 3250
3827 1169 3282
3827 1425 3362
3827 1457 3346
3827 1489 3362
3795 1521 3346
3795 1601 3378
3779 1873 3394
3795 2466 2898
3827 1409 3346
3795 1633 3378
3763 1873 3410
3779 1953 3427
3779 2001 3443
3763 2082 3443
3763 2178 3475
3763 2274 3507
3747 2706 3362
3779 1825 3410
3763 2178 3491
3747 2466 3539
3731 2546 3539
3747 2626 3587
3731 2690 3603
3731 2690 3587
3731 2770 3619
3731 2818 3635
192 801 1169
240 849 1233
256 897 1329
272 977 1425
320 1169 1985
352 1377 2466
3555 496 1377
1601 1345 224
1393 1505 320
288 1121 1569
320 1313 1857
352 1345 2050
480 1409 2818
2114 705 2898
3378 656 2658
3170 1185 208
1633 1697 336
1841 1873 320
352 1345 2050
368 1553 2642
384 1809 2946
3154 705 2914
3587 689 2946
3731 753 3010
3715 1281 993
2274 2114 304
2370 2290 320
400 1617 2834
881 1793 3122
3154 865 3042
3731 817 3106
3779 913 3186
3875 961 3250
3779 1489 1841
3042 2530 288
2818 2626 336
2866 897 3058
3731 769 3042
3843 801 3234
3875 897 3250
3859 945 3250
3827 1169 3282
3843 1457 2962
3475 2770 304
2994 2834 368
3779 849 3154
3843 961 3282
3859 1153 3298
3859 1361 3362
3827 1393 3314
3827 1441 3346
3795 1681 3378
3795 2274 2674
3443 3106 400
3843 1089 3346
3843 1329 3314
3827 1553 3378
3779 1841 3410
3779 1889 3427
3763 1953 3410
3763 1969 3410
3795 2594 3010
3651 3202 448
3827 1537 3378
3779 1761 3394
3763 2050 3427
3763 2418 3539
3731 2466 3539
3731 2482 3539
3731 2578 3555
3731 2642 3587
3747 3042 3250
3779 2001 3427
3747 2402 3523
3731 2642 3587
3731 2898 3651
3731 2946 3651
3731 2994 3651
3747 3026 3667
3747 3058 3683
3763 3186 3523
272 1153 1617
304 1217 1681
320 1249 1729
304 1281 1809
320 1329 1873
352 1553 2306
304 1825 2001
1233 1409 320
1505 1617 336
336 1409 2033
368 1665 2434
368 1697 2466
368 1809 2562
336 1809 2626
384 2082 2994
416 2370 2706
1505 1761 368
1921 2001 352
352 1681 2434
352 1969 2706
368 2242 2914
384 2242 3074
416 2290 3250
656 2514 3362
3523 1617 1537
2594 2274 288
2530 2402 336
352 1969 2722
368 2274 2930
416 2514 3234
656 2674 3410
817 2658 3410
3555 1457 3298
3651 1985 1585
3106 2642 320
2930 2754 368
384 2274 3106
528 2466 3346
1073 2642 3427
2834 1729 3410
3603 1585 3427
3827 1393 3507
3795 2066 2354
3378 3026 384
3234 3106 432
817 2642 3410
1521 2770 3475
2914 1937 3491
3795 1457 3507
3795 1649 3507
3795 1745 3410
3763 2050 3427
3859 2914 1073
3378 3234 480
1969 2930 3587
3026 2210 3539
3779 1585 3507
3747 1889 3491
3763 2338 3523
3747 2402 3523
3747 2434 3523
3763 2898 3314
3635 3378 560
3795 1601 3507
3763 1889 3491
3763 2290 3507
3731 2578 3555
3747 2866 3651
3731 2882 3635
3747 2962 3667
3763 3042 3523
3763 3410 833
3763 2210 3507
3731 2578 3555
3731 2786 3619
3747 3026 3667
3763 3234 3715
3763 3266 3715
3779 3346 3731
3763 3362 3683
3795 3475 3138
320 1425 2098
352 1505 2210
368 1569 2290
352 1601 2354
352 1665 2434
352 1713 2482
352 2082 2786
448 2322 1633
1585 1697 352
352 1713 2514
352 2066 2786
368 2114 2834
336 2130 2834
352 2194 2898
368 2274 2930
400 2546 3042
1025 2114 672
2114 2178 368
352 2082 2786
368 2322 2994
400 2594 3154
432 2626 3186
432 2674 3234
448 2722 3282
721 2882 2882
1985 2322 416
2658 2482 352
384 2402 3026
400 2578 3170
448 2786 3314
512 2946 3443
560 3042 3507
640 3058 3523
1105 3170 3475
2594 2658 432
2994 2866 384
432 2642 3202
464 2818 3346
544 3042 3507
624 3202 3587
1009 3314 3619
1377 3298 3667
1809 3314 3410
3106 3026 432
3266 3170 464
480 2866 3362
576 3058 3523
753 3202 3603
1377 3250 3635
2130 3346 3635
3635 2274 3635
3731 2674 3298
3667 3282 496
3491 3362 640
672 3266 3635
961 3346 3635
2194 3378 3667
2578 3443 3715
3683 2418 3667
3683 2658 3651
3715 2770 3619
3843 3266 1889
3555 3410 672
1857 3378 3683
2658 3410 3731
3250 3122 3747
3731 2626 3731
3731 2930 3683
3747 3154 3715
3747 3202 3715
3763 3282 3667
3779 3475 1585
3394 2786 3747
3555 2786 3779
3731 2882 3731
3747 3106 3715
3779 3346 3731
3779 3491 3747
3779 3507 3747
3795 3555 3731
3779 3587 2642
336 1809 2594
352 1873 2642
352 1953 2706
352 2033 2770
368 2114 2818
368 2178 2866
368 2226 2898
352 2546 2674
1361 1825 448
352 2162 2834
384 2402 3058
384 2450 3074
400 2514 3138
416 2562 3170
448 2642 3234
448 2690 3234
512 2914 3042
1585 2322 528
400 2482 3106
448 2658 3234
464 2834 3362
496 2898 3394
512 2914 3427
544 2962 3475
560 3042 3523
721 3202 2930
2370 2594 448
448 2706 3266
496 2882 3394
576 3074 3523
672 3282 3619
689 3282 3603
721 3314 3619
753 3362 3635
993 3410 3202
2898 2930 448
512 2914 3427
576 3122 3539
672 3282 3619
801 3410 3635
1041 3443 3635
1121 3491 3651
1153 3507 3651
2274 3394 2706
3346 3234 512
624 3170 3603
705 3298 3635
817 3410 3651
1121 3491 3651
1425 3555 3667
1873 3539 3651
2322 3539 3651
3346 3282 721
3491 3378 656
737 3362 3651
817 3427 3651
1105 3475 3651
1473 3555 3667
2114 3539 3635
2930 3555 3715
2994 3651 3731
3507 3394 1153
3603 3523 833
1089 3507 3667
1409 3555 3683
1969 3587 3683
2530 3619 3683
3138 3587 3715
3298 3635 3763
3763 3394 3747
3667 3507 1121
3635 3523 961
2082 3587 3683
2546 3635 3731
2946 3667 3747
3266 3683 3779
3779 3378 3747
3779 3555 3779
3827 3651 3779
3843 3683 3635
3731 3635 2946
384 2274 2946
400 2306 2962
400 2370 3026
400 2418 3042
400 2434 3106
416 2514 3138
432 2578 3186
448 2626 3202
464 2786 2722
432 2546 3154
448 2754 3282
448 2770 3298
464 2818 3346
480 2834 3362
512 2914 3427
544 2946 3475
544 3010 3491
689 3122 3106
464 2770 3298
512 2930 3427
592 3154 3555
592 3170 3587
624 3234 3619
672 3266 3635
705 3298 3635
721 3346 3651
1569 3282 2370
528 2946 3443
624 3186 3603
705 3298 3619
865 3427 3635
897 3427 3651
961 3443 3651
1025 3475 3651
1025 3491 3635
2370 3042 817
624 3234 3635
753 3362 3651
897 3443 3651
1153 3491 3651
1505 3539 3635
1585 3587 3651
1681 3555 3635
1505 3603 3587
2994 3250 849
769 3378 3635
913 3443 3667
1185 3491 3651
1505 3555 3651
2098 3539 3635
2530 3603 3651
2642 3635 3683
2226 3667 3635
3250 3378 1201
945 3475 3651
1281 3523 3667
1569 3587 3667
2066 3587 3651
2594 3587 3651
2914 3635 3683
3074 3667 3715
2930 3667 3491
3619 3523 849
1393 3555 3683
1793 3619 3715
2194 3619 3683
2594 3619 3683
2946 3651 3683
3154 3683 3731
3346 3731 3763
3587 3491 1457
3667 3587 2370
2210 3635 3715
2706 3667 3731
2946 3715 3747
3138 3715 3747
3362 3731 3779
3507 3747 3779
3603 3795 3827
3779 3763 3507
3763 3747 3491
432 2562 3186
448 2626 3186
448 2658 3234
448 2706 3266
464 2754 3298
464 2786 3314
480 2834 3362
496 2882 3394
512 2898 3410
464 2786 3314
544 2994 3491
560 3042 3523
592 3106 3539
592 3122 3555
624 3170 3587
624 3202 3619
656 3250 3619
689 3266 3555
544 3010 3491
624 3234 3619
753 3362 3635
769 3378 3635
801 3394 3651
817 3410 3651
881 3427 3651
897 3443 3651
1041 3394 3378
640 3234 3619
769 3378 3651
929 3443 3651
1233 3507 3667
1297 3523 3651
1361 3539 3667
1473 3555 3667
1473 3587 3683
1409 3555 3523
769 3378 3635
993 3475 3651
1249 3507 3651
1633 3587 3667
2210 3587 3651
2354 3587 3635
2466 3603 3667
2530 3635 3715
2098 3667 3635
993 3475 3651
1297 3539 3683
1649 3587 3651
2210 3587 3651
2674 3587 3651
2962 3651 3683
2994 3651 3683
3058 3667 3715
2690 3747 3715
1345 3539 3683
1761 3603 3683
2338 3603 3667
2690 3619 3667
2994 3635 3667
3154 3667 3715
3314 3715 3747
3122 3731 3731
3427 3507 1825
1873 3603 3683
2482 3651 3731
2818 3651 3715
3026 3651 3683
3186 3683 3731
3346 3715 3747
3475 3747 3763
3603 3795 3827
3635 3667 3170
2514 3651 3731
2882 3683 3747
3122 3715 3763
3266 3731 3763
3394 3747 3779
3507 3779 3795
3635 3827 3843
3747 3843 3843
3827 3859 3875
