其他预设/【236】赛博朋克风调色预设/【后期菌】视频调色预设/3DL/Glitch 07.3dl
# LUT by SparkleStock. Enhanced with VOXCOLOR algorithms.
0 128 256 384 512 640 768 896 1023
96 224 256
160 240 288
272 256 368
721 288 448
1505 288 528
2290 256 705
2706 288 1009
2882 352 1329
3186 400 1089
256 272 368
288 256 384
672 288 448
1601 288 560
2370 256 753
2738 272 1041
2898 352 1329
3074 432 1409
2946 496 240
1281 288 496
1505 288 528
1697 272 560
2370 256 737
2738 288 1089
2914 384 1377
3042 496 1761
3314 496 608
2274 897 272
2610 256 897
2706 288 1009
2738 288 1089
2770 304 1089
2930 384 1425
3026 496 1745
3106 656 2146
3106 737 2290
3394 753 544
2946 384 1489
2978 448 1617
2978 432 1601
3026 480 1681
3026 496 1745
3090 640 2130
3106 769 2354
3122 897 2498
3410 961 1041
3090 640 2130
3106 705 2226
3106 705 2226
3106 737 2306
3106 737 2290
3106 785 2370
3122 945 2562
3106 1073 2674
3154 1201 2754
3106 897 2514
3122 929 2562
3106 945 2562
3106 977 2610
3122 1041 2642
3122 1057 2658
3122 1089 2706
3170 1313 2834
3202 1537 2978
3154 1217 2786
3154 1233 2786
3154 1297 2834
3170 1329 2866
3170 1393 2898
3186 1457 2930
3202 1521 2978
3202 1553 3010
3250 1841 3106
3218 1649 3026
3250 1729 3074
3250 1777 3090
3250 1841 3090
3266 1953 3154
3266 1985 3154
3314 2066 3170
3330 2194 3202
3346 2210 3202
176 256 320
224 256 352
448 272 416
1201 288 496
2050 272 640
2562 256 865
2818 320 1201
3202 384 897
2082 560 272
368 272 400
1009 304 480
1873 272 592
2482 256 817
2802 304 1169
2962 384 1409
3106 400 224
1441 881 256
1585 1201 256
1825 288 592
2434 256 769
2514 256 849
2802 304 1169
2946 416 1537
3042 528 1873
3090 624 2082
3346 640 336
2274 1505 256
2738 288 1089
2930 384 1425
2946 400 1489
2962 416 1553
3074 560 1889
3106 672 2178
3122 753 2274
3410 849 496
2642 1905 240
3026 480 1697
3090 624 2082
3090 640 2146
3090 672 2178
3090 672 2194
3106 801 2402
3122 961 2578
3122 1073 2626
3539 1425 608
3106 705 2226
3106 833 2434
3106 865 2466
3122 913 2514
3106 913 2514
3106 945 2562
3122 1105 2722
3170 1313 2802
3619 1697 1393
3106 961 2594
3122 1121 2722
3122 1153 2738
3154 1217 2786
3154 1249 2802
3154 1297 2834
3170 1329 2866
3218 1665 3042
3314 1953 3058
3170 1329 2866
3218 1585 3026
3218 1649 3042
3234 1729 3074
3234 1761 3090
3266 1873 3122
3266 1921 3122
3266 1985 3154
3362 2338 3234
3266 1873 3122
3314 2162 3186
3346 2258 3218
3362 2322 3234
3378 2418 3250
3378 2450 3266
3394 2498 3282
3410 2578 3314
3427 2626 3330
144 288 384
144 288 416
80 336 1537
1041 288 1105
2274 256 865
2514 320 1345
3090 352 993
1457 560 272
1089 849 272
144 352 753
1793 288 1025
1921 272 1025
2610 288 1089
2914 384 1361
3010 464 1649
3234 464 272
1601 1073 256
1841 1361 240
1681 288 1297
2498 320 1249
2834 352 1361
3010 448 1633
3074 592 1985
3122 705 2178
3394 705 416
2402 1633 256
2610 1953 240
2802 352 1409
2962 448 1649
3058 544 1905
3074 592 2001
3106 737 2290
3106 833 2434
3202 865 2082
3266 1569 272
2946 2274 256
3042 544 1889
3090 672 2178
3106 785 2354
3122 849 2466
3106 849 2466
3106 993 2626
3122 1137 2706
3555 1441 1249
3346 2482 288
3106 817 2418
3122 945 2562
3106 1073 2674
3122 1105 2722
3154 1169 2754
3122 1153 2738
3186 1441 2930
3314 1681 2786
3667 2370 352
3122 1089 2674
3122 1201 2770
3202 1521 2978
3202 1553 2978
3218 1585 3026
3218 1649 3026
3234 1697 3074
3282 2033 3122
3539 2402 2642
3202 1489 2962
3234 1745 3090
3282 2033 3154
3314 2146 3202
3330 2210 3218
3346 2274 3218
3362 2354 3234
3378 2434 3266
3507 2722 3122
3266 2001 3154
3362 2354 3250
3427 2626 3330
3410 2642 3314
3459 2722 3362
3475 2786 3362
3459 2786 3362
3475 2834 3378
3507 2898 3394
144 352 576
144 384 608
160 400 672
176 432 737
96 512 1489
16 737 2066
3042 368 865
1185 737 272
1345 1041 256
192 496 897
176 656 1313
160 672 1537
64 769 2578
1761 496 2114
2626 496 1969
2914 608 256
1681 1265 256
2130 1553 224
144 656 1521
80 913 2306
64 1265 2834
2434 544 2162
2754 576 2210
2962 721 2338
3410 833 560
2594 1761 240
2802 2114 224
48 1009 2626
272 1057 2914
2450 624 2354
2914 721 2370
2946 849 2530
3122 1057 2658
3427 1201 1473
3234 2290 272
3282 2610 288
2290 640 2402
2914 689 2322
3074 881 2530
3122 1025 2642
3106 1025 2642
3122 1201 2770
3282 1473 2610
3523 2418 304
3491 2818 368
3010 849 2514
3074 1009 2658
3154 1201 2770
3186 1441 2930
3186 1473 2930
3202 1537 2978
3250 1809 3090
3539 2194 2370
3699 2898 432
3106 1169 2786
3186 1409 2914
3234 1665 3058
3282 2001 3154
3282 2050 3186
3282 2114 3186
3314 2162 3186
3539 2530 2770
3827 2978 512
3218 1665 3042
3250 1921 3122
3330 2210 3202
3427 2594 3314
3410 2594 3314
3410 2610 3314
3427 2674 3330
3459 2754 3362
3619 2962 3042
3330 2194 3202
3410 2530 3314
3459 2738 3346
3507 2946 3410
3507 3010 3410
3523 3042 3427
3539 3074 3459
3539 3106 3459
3603 3170 3314
160 512 977
160 528 1073
176 576 1153
144 592 1201
144 640 1313
112 865 1809
256 1169 1425
1105 897 256
1553 1201 240
160 721 1473
128 1009 2017
144 1089 2066
128 1137 2194
96 1201 2338
80 1553 2930
208 1857 2530
1745 1441 208
2338 1713 240
112 1025 2001
144 1425 2562
128 1761 2914
144 1825 3106
176 1985 3362
384 2258 3491
3170 1121 1265
2882 1889 256
2962 2290 240
80 1361 2530
128 1809 2930
224 2306 3362
432 2498 3539
608 2466 3603
2866 1233 2898
3475 1681 1329
3330 2450 288
3410 2738 336
144 1857 3106
288 2258 3459
737 2290 3539
2594 1505 3106
2978 1537 3090
3186 1585 3090
3539 2001 2082
3651 2802 400
3683 3074 512
592 2418 3571
1249 2402 3555
2674 1777 3234
3170 1601 3106
3234 1857 3202
3266 1953 3154
3330 2210 3202
3843 2754 961
3779 3186 608
1729 2594 3603
2802 2114 3362
3218 1825 3202
3266 2162 3250
3394 2498 3282
3410 2530 3282
3410 2562 3282
3571 2866 3106
3923 3250 705
3250 1841 3218
3282 2146 3250
3394 2450 3282
3427 2674 3330
3507 2930 3410
3491 2946 3410
3523 3026 3427
3555 3058 3330
3971 3282 929
3378 2402 3266
3427 2674 3346
3475 2866 3394
3539 3074 3459
3571 3234 3475
3571 3266 3491
3603 3314 3507
3619 3330 3459
3763 3427 2978
128 737 1569
144 817 1681
144 881 1793
112 945 1889
112 993 2017
80 1057 2050
80 1457 2610
689 1889 544
1681 1313 240
112 1089 2114
128 1505 2658
112 1553 2738
96 1601 2770
96 1697 2834
112 1777 2898
176 2226 3058
1585 1857 192
2578 1889 240
112 1521 2658
128 1905 3010
208 2418 3250
240 2466 3314
256 2530 3346
304 2626 3410
496 2722 2882
2706 2274 240
3122 2466 272
144 2001 3058
224 2418 3266
384 2786 3507
560 3074 3635
640 3186 3699
705 3154 3715
897 3122 3539
3266 2738 320
3507 2834 384
256 2450 3330
400 2802 3507
624 3170 3667
849 3394 3811
1089 3410 3811
1297 3266 3811
1681 3282 3427
3635 3026 480
3731 3154 592
432 2866 3539
640 3186 3683
849 3314 3779
1297 3250 3795
1985 3234 3779
3266 2482 3459
3491 2658 3074
3875 3122 608
3907 3378 801
849 3410 3827
1073 3459 3827
1985 3234 3779
2466 3282 3779
3346 2642 3507
3410 2786 3475
3475 2866 3394
3907 3234 1841
3971 3459 897
1681 3346 3843
2562 3250 3763
3202 3074 3667
3427 2802 3555
3507 3010 3459
3539 3186 3491
3555 3218 3475
3619 3282 3459
3987 3539 1681
3250 2834 3635
3378 2914 3635
3491 2978 3539
3539 3170 3491
3603 3330 3523
3635 3459 3555
3635 3475 3555
3667 3523 3507
3907 3635 2594
80 1153 2226
64 1233 2354
96 1329 2482
80 1409 2578
96 1505 2658
96 1585 2738
96 1681 2834
240 2146 2498
1665 1505 208
96 1585 2738
144 2017 3074
144 2130 3106
192 2258 3202
208 2338 3234
256 2466 3330
256 2514 3346
384 2818 3090
2418 2274 224
160 2162 3154
256 2514 3362
432 2882 3539
480 2946 3571
512 3010 3619
576 3090 3651
624 3170 3699
705 3202 2626
3154 2658 304
288 2594 3394
480 2930 3603
689 3234 3715
913 3459 3827
929 3475 3827
977 3507 3843
1009 3539 3843
961 3539 3170
3539 2978 448
512 2978 3635
721 3266 3731
913 3459 3827
1089 3603 3843
1201 3619 3827
1249 3667 3859
1265 3667 3859
2674 3603 2162
3795 3218 640
769 3330 3779
945 3491 3843
1105 3619 3875
1233 3651 3843
1393 3667 3843
1665 3699 3827
2017 3619 3779
3827 3330 817
3939 3410 849
977 3523 3859
1121 3635 3875
1233 3651 3843
1441 3683 3859
1777 3651 3811
2834 3507 3683
2866 3651 3715
3939 3539 1313
4051 3619 1185
1233 3667 3859
1409 3667 3859
1713 3715 3843
2146 3683 3795
3074 3507 3651
3250 3539 3667
3603 3394 3555
4019 3603 1329
4051 3683 1377
1761 3651 3843
2146 3683 3811
2786 3651 3763
3202 3603 3699
3603 3378 3571
3651 3507 3603
3683 3619 3571
3715 3635 3410
3859 3731 2866
112 1745 2898
128 1777 2914
144 1921 2978
144 2001 3058
144 2066 3122
176 2210 3186
224 2338 3234
240 2418 3282
400 2658 2530
208 2274 3202
320 2658 3410
352 2722 3475
384 2802 3507
432 2866 3539
496 2946 3619
544 3042 3651
592 3106 3667
592 3218 3218
336 2706 3459
512 3026 3635
721 3282 3731
769 3330 3779
833 3394 3811
881 3427 3827
913 3475 3827
961 3507 3859
2066 3330 1425
528 3042 3635
801 3362 3795
945 3507 3843
1105 3603 3843
1153 3619 3843
1169 3635 3859
1201 3635 3843
1137 3651 3795
3394 3202 608
833 3394 3827
993 3539 3859
1153 3619 3859
1265 3651 3827
1457 3667 3827
1505 3699 3859
1537 3683 3827
1393 3779 3699
3731 3394 833
993 3539 3859
1169 3635 3859
1313 3651 3859
1473 3683 3843
1761 3683 3811
2146 3683 3763
2258 3699 3779
1825 3859 3731
3907 3603 1249
1169 3651 3859
1329 3667 3859
1473 3683 3843
1713 3715 3811
2258 3683 3731
2738 3667 3683
2962 3699 3683
3074 3811 3314
4051 3635 1249
1393 3699 3875
1585 3715 3859
1793 3715 3827
2226 3699 3779
2786 3667 3699
3058 3683 3699
3330 3699 3683
4019 3731 1793
3971 3795 2530
1809 3731 3843
2370 3715 3795
2754 3731 3779
3042 3715 3715
3362 3683 3699
3491 3699 3683
3555 3763 3683
3827 3779 3282
3811 3779 3266
224 2338 3250
240 2418 3282
256 2498 3346
272 2578 3378
336 2658 3459
384 2738 3507
416 2818 3539
464 2898 3571
480 2930 3603
368 2738 3507
576 3106 3667
624 3170 3683
689 3234 3715
721 3250 3731
769 3330 3779
817 3378 3811
849 3410 3827
817 3410 3731
576 3106 3667
833 3394 3811
977 3523 3843
1009 3555 3859
1073 3571 3859
1105 3619 3859
1121 3619 3859
1153 3635 3859
961 3555 3491
849 3394 3811
1009 3555 3859
1153 3635 3859
1329 3683 3859
1345 3667 3859
1377 3683 3859
1441 3683 3859
1441 3699 3859
1329 3731 3651
1025 3555 3859
1185 3635 3843
1329 3667 3859
1537 3699 3843
1793 3683 3779
1953 3699 3795
2033 3699 3779
2082 3715 3795
1729 3859 3731
1185 3635 3843
1345 3683 3859
1537 3715 3859
1809 3715 3811
2370 3667 3731
2818 3667 3683
2866 3667 3683
2930 3699 3699
2130 3955 3811
1377 3667 3859
1585 3715 3859
1889 3699 3795
2354 3667 3731
2834 3651 3683
3106 3683 3683
3330 3683 3667
2930 3859 3763
3939 3811 2050
1665 3715 3859
2050 3731 3811
2562 3699 3763
2946 3683 3699
3122 3667 3683
3330 3683 3667
3475 3715 3667
3571 3779 3683
3843 3811 3058
2066 3763 3827
2658 3731 3779
3026 3731 3763
3234 3715 3715
3394 3715 3683
3491 3715 3683
3603 3779 3683
3683 3795 3635
3699 3779 3667
