其他预设/【236】赛博朋克风调色预设/【后期菌】视频调色预设/3DL/Glitch 08.3dl
# LUT by SparkleStock. Enhanced with VOXCOLOR algorithms.
0 256 512 768 1023
128 128 192
416 192 480
1521 256 961
3106 288 1345
3667 352 1361
1377 256 913
1729 256 929
3202 304 1377
3651 304 2162
2354 1393 224
3539 304 1793
3571 288 1969
3651 272 2130
3843 416 2882
3731 1089 1233
3843 496 3042
3827 560 3042
3843 672 3122
3843 721 3202
3827 1137 3298
3811 1249 3282
3827 1361 3346
3811 1473 3362
3811 1585 3394
3811 1713 3410
160 448 592
368 496 1649
2498 288 1265
3555 320 1249
1233 1233 352
1825 288 1841
3410 304 1665
3747 320 2450
3603 977 656
2162 2082 352
3699 304 2370
3843 448 2930
3843 480 3010
3843 801 3154
2946 2498 304
3843 705 3170
3827 1121 3298
3827 1217 3282
3827 1297 3314
3811 2178 2642
3811 1553 3362
3747 2194 3507
3747 2370 3523
3731 2498 3539
3731 2674 3587
352 1025 1441
368 1121 1553
384 1233 1713
400 1761 1809
1489 1473 336
448 1601 2306
512 2290 2882
576 2370 3250
3427 1393 1313
2418 2306 336
560 2354 3090
1121 2466 3378
3571 1297 3507
3779 1777 1969
3106 2978 368
1841 2722 3539
3811 1313 3507
3779 2017 3443
3747 2162 3459
3523 3234 416
3779 1857 3427
3731 2594 3571
3747 3122 3683
3779 3266 3715
3795 3443 2962
464 1793 2514
480 1969 2658
512 2114 2786
512 2258 2866
1441 1681 432
576 2562 3090
689 2978 3378
769 3074 3443
801 3154 3523
2418 2530 416
737 3042 3427
945 3362 3587
1297 3491 3651
1409 3523 3667
3202 3122 416
1009 3410 3635
1345 3507 3651
2033 3523 3635
2882 3651 3715
3539 3459 560
2017 3555 3683
2834 3667 3731
3779 3346 3747
3827 3667 3779
3715 3603 2674
608 2674 3154
656 2754 3234
689 2866 3298
705 2962 3394
721 3010 3410
785 3122 3491
1009 3394 3603
1089 3443 3651
1153 3491 3651
1281 3427 3394
1041 3427 3635
1473 3539 3651
2130 3555 3635
2354 3603 3667
2098 3667 3635
1553 3571 3683
2242 3587 3667
2898 3651 3683
3298 3715 3747
3362 3491 1505
2386 3651 3715
3042 3715 3747
3378 3747 3779
3635 3843 3843
3827 3875 3875
