其他预设/【236】赛博朋克风调色预设/【后期菌】视频调色预设/3DL/Glitch 06_S.3dl
# LUT by SparkleStock. Enhanced with VOXCOLOR algorithms.
0 128 256 384 512 640 768 896 1023
16 16 48
208 64 208
496 160 432
1281 304 801
1937 352 977
2642 416 1153
3138 448 1425
3394 464 1649
3571 464 1441
480 160 432
560 160 464
1233 288 817
2001 368 1009
2738 416 1233
3202 464 1441
3394 464 1665
3571 464 1681
3026 961 256
1777 336 929
1937 352 977
2114 368 1009
2722 416 1217
3202 464 1457
3427 464 1697
3603 464 2098
3539 753 993
2530 1441 288
2946 432 1329
3138 464 1425
3202 464 1457
3170 464 1473
3443 464 1729
3587 464 2082
3731 480 2530
3779 544 2674
3507 1137 897
3507 464 1809
3555 464 1937
3459 480 1889
3571 464 1985
3587 448 2082
3731 480 2514
3795 560 2738
3827 656 2850
3683 1281 1313
3715 464 2466
3779 496 2594
3683 544 2578
3795 528 2674
3779 544 2690
3795 576 2754
3715 721 2882
3811 865 2994
3811 1073 3042
3811 640 2866
3811 689 2882
3715 753 2850
3811 769 2898
3827 801 2962
3827 849 2994
3827 897 3026
3811 1089 3122
3811 1329 3218
3731 1073 3010
3715 1121 3026
3715 1153 3074
3811 1153 3122
3699 1249 3122
3699 1313 3138
3715 1361 3202
3699 1377 3202
3779 1601 3266
3795 1425 3218
3795 1537 3250
3795 1553 3250
3779 1601 3250
3779 1665 3298
3795 1729 3314
3779 1793 3314
3779 1841 3362
3779 1857 3362
272 96 288
352 128 368
897 240 689
1697 336 897
2434 400 1105
2962 416 1313
3314 464 1553
3523 464 1233
2514 1073 256
753 224 640
1553 336 881
2290 384 1057
2882 416 1281
3282 464 1537
3507 464 1713
3170 753 288
2001 1377 240
1985 1569 256
2242 400 1057
2754 432 1233
2818 448 1297
3170 480 1521
3507 464 1841
3635 464 2194
3715 464 2434
3459 1057 464
2306 1777 352
3154 480 1441
3378 480 1697
3298 496 1745
3427 464 1841
3667 464 2258
3731 464 2562
3779 576 2610
3555 1233 753
2466 2017 352
3571 464 2001
3715 464 2434
3667 512 2514
3731 464 2562
3747 496 2594
3779 576 2786
3811 721 2898
3811 897 2898
3651 1585 769
3747 496 2610
3795 608 2802
3715 640 2786
3827 656 2866
3795 689 2866
3811 705 2882
3731 929 3026
3811 1137 3074
3715 1777 1473
3811 737 2930
3827 945 3042
3731 1009 2994
3827 1025 3090
3811 1073 3106
3811 1105 3122
3811 1153 3122
3795 1425 3234
3795 1697 3202
3731 1185 3074
3715 1425 3170
3715 1441 3170
3795 1505 3250
3699 1553 3218
3715 1633 3266
3699 1681 3282
3715 1761 3298
3731 2017 3378
3795 1617 3298
3747 1841 3346
3747 1905 3362
3747 2001 3378
3747 2082 3394
3747 2114 3394
3747 2178 3427
3747 2274 3443
3731 2306 3459
128 384 528
144 432 608
480 640 1761
1745 416 1681
2738 432 1345
3106 464 1713
3459 448 1345
2114 1089 240
1681 1345 256
304 737 1153
2242 432 1345
2258 432 1377
2786 464 1473
3234 464 1681
3555 464 1969
3362 833 448
2050 1521 240
2082 1697 288
2306 464 1601
2562 560 1393
2722 576 1521
2930 576 1809
3266 512 2258
3651 560 2514
3539 1121 672
2370 1873 272
2402 2001 352
3106 528 1585
2946 656 1633
2850 689 1841
2994 656 2082
3346 640 2530
3683 640 2786
3747 865 2274
3282 1841 208
2562 2194 352
3523 496 2130
3298 672 2226
3250 801 2402
3266 817 2546
3459 769 2722
3811 769 2946
3827 977 2994
3715 1649 1393
2978 2402 272
3795 592 2754
3699 753 2786
3651 945 2882
3587 1009 2898
3779 1009 3042
3811 993 3026
3747 1249 3170
3795 1521 2930
3603 2450 288
3827 865 3010
3811 1041 3090
3747 1345 3138
3795 1345 3202
3811 1393 3218
3795 1425 3202
3795 1473 3250
3779 1761 3282
3795 2322 2706
3747 1345 3106
3731 1553 3202
3715 1793 3250
3779 1825 3346
3715 1905 3314
3699 1969 3346
3699 2082 3378
3699 2130 3410
3747 2530 3250
3779 1745 3298
3747 2033 3378
3731 2306 3459
3715 2402 3459
3731 2466 3523
3731 2546 3539
3715 2562 3523
3715 2658 3555
3731 2706 3571
272 753 977
336 785 1009
416 785 1105
448 881 1265
464 1217 1825
480 1489 2290
3378 576 1233
1857 1265 240
1825 1457 256
480 1073 1249
640 1153 1409
737 1137 1553
817 1201 2258
2242 737 2562
3154 705 2354
3010 1121 304
2033 1633 288
2194 1809 288
640 1345 1457
817 1393 1617
881 1489 1857
2322 817 2114
2802 785 2402
3362 737 2690
3587 1201 833
2530 1969 256
2514 2114 352
721 1665 1985
1185 1585 1889
2242 1121 1857
2610 1009 2162
2930 1009 2594
3491 897 2930
3699 1441 1585
2946 2306 256
2738 2402 352
2594 1105 2290
2898 1041 1969
2834 1121 2082
2946 1137 2370
3202 1057 2690
3587 1121 3026
3795 1361 2738
3314 2418 256
2946 2594 272
3571 865 2722
3378 1057 2546
3298 1265 2578
3314 1441 2818
3523 1377 3010
3795 1345 3202
3731 1585 3250
3779 2114 2370
3362 2818 304
3811 945 3138
3747 1233 3122
3731 1457 3202
3699 1761 3250
3779 1777 3346
3747 1809 3314
3747 1841 3346
3795 2466 2850
3539 2994 320
3731 1441 3154
3715 1697 3218
3699 1953 3282
3747 2290 3443
3683 2322 3410
3683 2354 3443
3667 2450 3459
3683 2514 3507
3747 2946 3122
3779 1873 3362
3747 2242 3443
3715 2498 3507
3731 2786 3587
3715 2834 3587
3731 2866 3603
3731 2946 3635
3731 2962 3651
3747 3106 3491
416 1153 1441
560 1089 1409
640 1089 1489
624 1121 1617
528 1281 1713
464 1665 2098
336 2001 1953
1665 1361 240
1969 1553 256
689 1297 1473
929 1313 1553
1025 1233 1633
977 1329 1937
849 1473 2274
721 1953 2738
544 2418 2594
2001 1697 288
2322 1905 288
849 1505 1505
1073 1505 1505
1137 1585 1761
1153 1585 2098
1073 1745 2594
1009 2162 3010
3346 1601 1425
2674 2098 256
2578 2226 352
881 1825 1665
1121 1825 1569
1217 1905 1857
1297 1969 2258
1329 2082 2690
3122 1409 3042
3507 1841 1441
2994 2386 272
2866 2514 352
865 2242 2082
1153 2242 1905
1521 2242 2098
2386 1777 2450
2946 1633 2850
3459 1377 3218
3731 1969 2033
3282 2722 288
3122 2882 320
1121 2594 2802
1793 2610 2594
2578 2082 2610
3218 1601 2786
3443 1665 3122
3683 1713 3250
3715 1905 3346
3795 2642 881
3234 3026 336
2194 2834 3507
2882 2242 3266
3603 1601 3170
3539 1905 3202
3683 2194 3378
3731 2242 3427
3731 2290 3443
3747 2786 3218
3507 3154 352
3747 1537 3362
3715 1825 3346
3715 2146 3362
3715 2434 3491
3699 2754 3555
3683 2786 3571
3699 2882 3587
3715 2978 3491
3699 3282 544
3747 2050 3394
3731 2434 3507
3715 2658 3555
3731 2946 3635
3747 3154 3667
3747 3170 3683
3779 3266 3715
3779 3282 3651
3779 3427 2962
496 1489 1825
689 1393 1761
785 1377 1841
753 1441 2017
624 1601 2226
480 1761 2290
512 2162 2594
576 2226 1681
2050 1665 288
817 1521 1729
1105 1505 1729
1233 1425 1809
1185 1457 2082
1009 1697 2466
753 2082 2722
576 2642 2882
1569 1953 448
2418 2017 288
1009 1729 1697
1297 1649 1633
1377 1697 1857
1393 1729 2162
1249 1905 2578
961 2386 3010
833 2834 2818
2354 2162 304
2706 2306 352
1073 2082 1825
1361 1985 1665
1441 2033 1937
1441 2130 2306
1361 2290 2722
1121 2674 3218
1377 3090 3362
2722 2466 304
2930 2562 352
1009 2498 2194
1281 2434 1969
1441 2466 2114
1489 2514 2402
1569 2690 2866
1681 2978 3378
2001 3218 3314
3010 2818 320
3170 2978 352
865 2834 2786
1121 2898 2594
1329 2930 2594
1793 2930 2802
2242 3026 3122
3394 2178 3394
3587 2498 3170
3555 3074 336
3346 3202 400
833 3234 3523
1185 3266 3314
2258 3250 3378
2578 3346 3346
3443 2386 3298
3491 2578 3394
3587 2674 3507
3811 3154 1537
3443 3282 416
1953 3314 3539
2690 3362 3635
3202 3090 3667
3667 2546 3587
3571 2898 3427
3587 3106 3555
3715 3138 3651
3731 3218 3635
3715 3410 1217
3362 2722 3715
3523 2706 3779
3715 2754 3699
3731 2994 3699
3779 3266 3699
3795 3427 3731
3795 3459 3731
3795 3539 3699
3747 3507 2178
512 1857 2354
624 1809 2306
769 1761 2306
737 1841 2434
592 2098 2594
528 2258 2690
560 2322 2738
464 2578 2594
1889 1745 320
817 1953 2258
1105 1841 2146
1265 1745 2178
1217 1857 2450
1041 2114 2738
769 2546 3010
640 2754 3106
624 2946 2946
2098 2146 352
1041 2130 2162
1377 1969 1985
1537 1905 2098
1505 1985 2418
1329 2258 2850
961 2722 3234
769 3074 3410
785 3250 2898
2594 2402 384
1105 2418 2322
1473 2242 1985
1665 2194 2114
1729 2258 2402
1569 2434 2818
1265 2850 3282
1105 3138 3523
1153 3427 3218
2898 2690 384
1041 2754 2642
1361 2706 2402
1665 2578 2194
1873 2578 2386
1905 2658 2738
1729 2946 3234
1585 3138 3507
2258 3234 2514
3218 3026 352
929 3122 3202
1185 3106 2946
1521 3090 2722
1905 2978 2578
2114 3010 2850
2306 3138 3202
2434 3234 3443
3218 3042 705
3394 3234 400
913 3314 3571
1057 3394 3539
1521 3362 3106
1969 3314 2898
2386 3298 2978
2882 3362 3266
2898 3491 3539
3394 3314 1009
3523 3427 496
1313 3491 3539
1633 3523 3571
2114 3555 3314
2530 3571 3202
3026 3555 3234
3170 3603 3443
3667 3378 3635
3635 3443 737
3587 3507 560
2082 3523 3667
2434 3603 3699
2866 3651 3731
3202 3683 3683
3715 3378 3587
3747 3539 3683
3811 3667 3747
3827 3699 3587
3715 3587 2610
544 2354 2786
608 2354 2754
608 2402 2818
640 2450 2866
576 2546 2946
592 2594 2978
624 2690 3026
624 2706 3074
528 2866 2706
689 2530 2866
961 2466 2786
1073 2354 2738
1057 2434 2898
897 2658 3106
705 2946 3298
721 2994 3346
753 3026 3378
817 3138 3074
929 2578 2786
1217 2498 2642
1377 2466 2690
1377 2514 2882
1217 2738 3218
1025 3010 3410
945 3154 3523
897 3298 3555
1681 3154 2226
913 2834 2994
1313 2738 2722
1617 2578 2578
1825 2594 2722
1857 2610 2946
1665 2834 3282
1537 3042 3491
1329 3410 3587
2514 2850 689
913 3138 3314
1265 3090 3010
1777 2866 2610
2290 2674 2466
2466 2722 2786
2418 2850 3138
2274 3026 3427
1953 3314 3555
2946 3106 560
929 3346 3571
1329 3314 3234
1969 3122 2690
2498 2978 2514
2754 3010 2802
2898 3042 3090
2866 3170 3410
2418 3443 3587
3154 3298 881
1137 3427 3635
1601 3443 3346
2146 3362 2834
2658 3298 2674
2962 3298 2850
3122 3346 3122
3202 3427 3459
2962 3571 3491
3523 3459 480
1601 3523 3571
1937 3571 3539
2418 3555 3138
2802 3571 2946
3090 3603 3026
3234 3635 3266
3346 3683 3571
3523 3491 1297
3651 3539 1905
2226 3587 3683
2610 3651 3715
2866 3683 3683
3122 3731 3443
3362 3795 3507
3459 3795 3603
3571 3827 3795
3779 3747 3410
3779 3731 3410
608 2658 3010
624 2690 3042
640 2738 3090
640 2754 3122
656 2818 3170
672 2834 3218
689 2898 3250
689 2930 3266
689 2930 3266
672 2834 3202
721 3026 3362
801 3010 3346
833 3074 3410
769 3122 3443
785 3170 3491
849 3138 3491
817 3218 3523
881 3250 3459
737 3026 3378
897 3122 3394
1105 3122 3362
1185 3106 3378
1313 3042 3378
1281 3090 3459
1153 3314 3587
1121 3427 3603
1233 3378 3346
881 3170 3427
1057 3266 3443
1489 3090 3138
2017 2882 2994
2226 2786 3042
2194 2866 3282
2082 3074 3507
1745 3410 3651
1665 3507 3539
1009 3298 3507
1393 3298 3314
2050 3042 2834
2642 2850 2690
2994 2786 2818
2994 2850 3122
2882 3010 3427
2674 3298 3651
2098 3651 3603
1185 3443 3635
1729 3346 3202
2498 3154 2690
2994 3026 2578
3250 3026 2818
3427 3074 3090
3362 3154 3394
3218 3394 3667
2578 3715 3699
1553 3507 3651
2130 3491 3218
2786 3394 2818
3218 3314 2642
3427 3314 2818
3523 3362 3122
3571 3427 3443
3234 3603 3699
3362 3459 1521
2017 3571 3571
2466 3651 3587
2978 3603 3106
3346 3603 2882
3507 3635 2978
3587 3651 3234
3603 3699 3555
3651 3779 3779
3651 3667 2994
2402 3635 3699
2818 3683 3731
3090 3731 3651
3346 3779 3443
3459 3811 3459
3555 3811 3571
3667 3859 3779
3731 3859 3843
3827 3875 3875
