其他预设/【236】赛博朋克风调色预设/【后期菌】视频调色预设/3DL/Glitch 08_S.3dl
# LUT by SparkleStock. Enhanced with VOXCOLOR algorithms.
0 64 128 192 256 320 384 448 512 576 640 704 768 832 896 960 1023
128 128 192
208 176 272
256 176 336
336 192 432
416 192 480
608 224 640
897 240 785
1105 256 865
1521 256 961
2017 304 1009
2418 288 1057
2946 304 1233
3106 288 1345
3282 288 1409
3443 304 1585
3571 320 1601
3667 352 1361
256 176 336
272 176 352
336 192 432
464 192 512
608 224 608
833 224 753
1185 256 865
1521 256 961
2017 288 993
2466 288 1105
2866 320 1201
3138 288 1345
3394 288 1489
3459 304 1617
3587 320 1649
3635 384 1249
3555 544 785
416 208 480
416 192 480
448 176 512
672 224 672
849 240 785
1169 240 849
1601 272 977
2017 288 1009
2578 288 1105
2962 288 1233
3170 288 1345
3378 288 1473
3459 304 1585
3539 304 1777
3651 336 1665
3635 464 1057
3090 833 240
753 224 705
785 224 721
849 240 785
897 240 785
1217 272 881
1633 272 961
2114 288 1009
2466 288 1089
2898 288 1201
3202 304 1377
3394 288 1489
3491 304 1649
3555 304 1873
3667 320 1873
3667 432 1377
3394 753 320
2386 1233 224
1377 256 913
1441 272 961
1521 256 961
1617 256 929
1729 256 929
2082 304 1009
2578 288 1105
2898 304 1201
3202 304 1377
3394 304 1521
3507 304 1665
3571 320 1905
3651 304 2162
3699 304 1953
3635 608 897
2930 1041 288
2290 1377 288
2114 288 1009
2178 288 1009
2306 288 1057
2434 304 1089
2546 304 1105
2578 288 1105
2994 304 1249
3202 304 1377
3410 320 1537
3523 304 1697
3555 304 1857
3651 304 2130
3715 320 2402
3747 336 2306
3683 560 1377
3443 929 304
2290 1553 240
2882 304 1217
3042 288 1297
3106 304 1345
3074 304 1329
3202 304 1377
3170 288 1345
3170 304 1393
3346 336 1537
3507 304 1697
3571 304 1953
3651 304 2162
3715 320 2402
3811 320 2674
3811 352 2690
3827 384 2818
3779 544 2162
3539 993 833
3362 288 1473
3346 352 1505
3427 304 1553
3459 320 1585
3491 320 1649
3491 304 1665
3507 304 1681
3523 304 1729
3507 336 1953
3555 320 2162
3651 352 2434
3715 352 2690
3715 368 2738
3731 432 2834
3843 464 2962
3811 592 2418
3635 1009 1233
3539 304 1793
3555 320 1905
3587 320 1969
3523 352 1969
3507 320 1953
3539 352 2017
3603 304 2050
3667 304 2162
3651 272 2130
3747 320 2450
3811 320 2642
3811 368 2754
3843 416 2882
3843 464 2962
3843 512 3026
3827 656 2562
3731 1089 1233
3683 288 2258
3699 304 2290
3715 304 2370
3651 352 2418
3779 320 2530
3779 320 2562
3699 352 2562
3811 320 2642
3811 352 2690
3811 352 2706
3811 352 2754
3747 464 2898
3747 496 2962
3747 512 3010
3843 592 3090
3843 689 3042
3827 801 2514
3795 320 2642
3811 336 2674
3827 352 2722
3811 352 2738
3715 416 2722
3827 368 2818
3843 384 2834
3731 448 2834
3827 400 2834
3843 416 2882
3843 432 2898
3779 496 2994
3779 576 3042
3827 576 3074
3843 689 3138
3827 785 3218
3843 865 3218
3731 464 2802
3827 416 2882
3827 448 2946
3827 448 2930
3731 480 2882
3747 512 2962
3747 512 2962
3779 528 2978
3859 480 3026
3843 496 3010
3843 528 3042
3843 544 3074
3731 624 3074
3843 689 3138
3747 801 3234
3827 881 3250
3731 1025 3202
3843 496 3042
3843 496 3026
3843 544 3042
3843 544 3026
3731 592 2994
3843 592 3090
3843 592 3074
3843 608 3090
3843 672 3122
3843 656 3106
3843 689 3154
3747 737 3154
3843 721 3202
3843 817 3234
3843 929 3266
3827 1041 3282
3827 1137 3298
3827 656 3106
3843 689 3154
3843 689 3122
3827 689 3138
3827 689 3138
3843 737 3202
3731 785 3138
3827 785 3202
3843 817 3234
3731 833 3202
3827 833 3234
3747 913 3234
3827 881 3250
3827 897 3250
3827 1041 3282
3827 1137 3282
3715 1281 3298
3747 881 3170
3731 897 3170
3731 929 3202
3731 945 3202
3731 961 3218
3827 961 3250
3827 977 3266
3731 1057 3218
3731 1073 3218
3731 1121 3266
3731 1121 3234
3827 1121 3282
3731 1169 3298
3827 1137 3282
3731 1217 3282
3715 1345 3314
3811 1425 3314
3827 1073 3282
3731 1121 3170
3827 1105 3266
3811 1137 3266
3827 1169 3282
3827 1185 3298
3811 1201 3266
3731 1265 3250
3731 1313 3282
3811 1281 3314
3811 1297 3298
3811 1329 3314
3827 1361 3346
3827 1393 3346
3827 1425 3362
3715 1457 3362
3715 1553 3378
3811 1249 3282
3827 1281 3298
3827 1345 3314
3827 1345 3346
3827 1361 3346
3811 1377 3314
3811 1409 3314
3811 1457 3362
3811 1473 3362
3811 1489 3362
3811 1537 3378
3811 1553 3378
3811 1585 3394
3795 1617 3378
3811 1665 3394
3795 1665 3394
3811 1713 3410
224 160 288
208 160 272
288 192 384
432 208 496
496 192 560
689 224 705
961 240 817
1281 256 897
1729 272 961
2258 288 1041
2610 304 1121
2994 304 1249
3218 288 1393
3394 304 1521
3539 304 1553
3603 352 1201
3362 608 384
288 176 352
368 192 464
480 208 560
689 208 689
961 240 785
1281 256 897
1729 272 961
2306 288 1057
2578 288 1121
3042 288 1249
3282 288 1409
3394 304 1521
3555 304 1633
3603 320 1553
3587 432 1009
2658 929 240
1969 1185 240
464 208 528
640 208 656
689 224 689
961 240 817
1393 272 913
1729 256 929
2130 288 1041
2690 288 1121
2994 304 1249
3266 304 1393
3427 320 1553
3507 304 1665
3635 320 1665
3603 448 1009
3026 801 240
2050 1233 240
1489 1361 320
897 240 785
1217 256 881
1281 256 897
1393 256 913
1777 256 961
2178 288 1025
2690 304 1153
3042 304 1297
3218 288 1393
3443 320 1569
3523 304 1777
3571 304 1873
3683 352 1585
3587 576 833
2850 1009 240
1969 1329 224
1505 1441 320
1521 256 961
2017 288 993
2114 272 1009
2178 288 1041
2306 288 1057
2642 320 1137
3042 304 1313
3282 288 1409
3443 320 1569
3523 304 1729
3587 320 2001
3667 288 2178
3731 288 2226
3683 496 1441
3410 833 304
2017 1473 304
1553 1553 416
2418 288 1057
2834 304 1201
2898 304 1201
2962 288 1249
3026 288 1249
3090 288 1297
3298 304 1441
3443 304 1553
3507 304 1729
3587 320 2001
3667 288 2226
3731 304 2418
3811 320 2642
3827 368 2786
3747 544 1729
3587 993 576
2802 1601 208
3042 320 1313
3282 288 1409
3314 288 1441
3282 304 1457
3410 320 1537
3443 320 1569
3378 320 1569
3459 320 1777
3587 304 2001
3683 320 2258
3779 320 2530
3795 320 2642
3827 368 2818
3827 448 2834
3747 560 2098
3635 1041 769
3026 1665 272
3443 304 1553
3459 336 1745
3539 304 1857
3555 304 1857
3571 320 1953
3571 288 1969
3587 320 2001
3587 288 2017
3587 320 2226
3683 352 2498
3747 368 2706
3731 384 2754
3747 448 2866
3779 512 2930
3795 608 2386
3651 1169 705
3106 1745 272
3571 304 1905
3667 320 2194
3683 320 2258
3603 336 2226
3635 352 2306
3667 352 2370
3731 320 2418
3747 288 2466
3779 320 2546
3811 352 2706
3811 368 2786
3827 416 2882
3843 480 3010
3843 544 3042
3859 624 2962
3811 785 2290
3667 1345 785
3731 320 2434
3795 304 2594
3811 352 2690
3731 352 2594
3811 336 2674
3811 352 2722
3747 384 2706
3811 368 2754
3811 368 2754
3827 384 2834
3827 448 2930
3779 496 2994
3779 560 3074
3779 640 3090
3827 689 3122
3827 785 3218
3827 993 2690
3811 352 2738
3827 384 2818
3827 400 2850
3843 432 2898
3747 464 2850
3827 432 2898
3843 464 2962
3779 496 2930
3859 464 2994
3843 464 3010
3843 464 2994
3779 576 3074
3779 672 3106
3843 721 3202
3827 785 3234
3843 929 3250
3827 1121 2802
3747 464 2834
3859 480 3010
3843 464 2994
3843 496 3042
3779 544 2978
3779 576 3026
3779 576 2994
3779 608 3026
3843 576 3074
3843 592 3106
3827 608 3090
3843 672 3122
3779 769 3202
3827 833 3234
3779 961 3266
3827 1089 3234
3747 1297 3042
3843 576 3074
3843 672 3122
3843 672 3138
3827 689 3122
3779 737 3074
3827 689 3122
3827 689 3138
3827 721 3170
3827 753 3218
3827 785 3234
3843 817 3234
3747 833 3218
3827 817 3234
3827 913 3266
3827 1025 3266
3827 1169 3282
3811 1265 3266
3843 689 3170
3827 785 3234
3827 785 3234
3843 833 3266
3843 881 3250
3827 881 3234
3779 977 3234
3843 961 3266
3827 961 3250
3747 1009 3234
3827 1009 3250
3747 1089 3266
3827 1073 3250
3827 1089 3250
3827 1201 3282
3811 1345 3346
3731 1457 3362
3779 977 3170
3747 1057 3170
3747 1089 3218
3747 1121 3234
3747 1137 3218
3827 1121 3282
3827 1121 3266
3747 1185 3234
3731 1201 3234
3747 1233 3282
3731 1249 3266
3811 1249 3282
3731 1313 3298
3811 1297 3298
3731 1361 3298
3731 1505 3362
3811 1585 3394
3827 1105 3266
3747 1297 3234
3811 1265 3298
3811 1297 3298
3811 1329 3298
3827 1361 3346
3811 1377 3314
3731 1457 3298
3731 1473 3314
3811 1473 3362
3811 1521 3378
3811 1537 3378
3811 1537 3378
3811 1553 3378
3811 1585 3394
3715 1649 3378
3715 1793 3427
3827 1345 3346
3811 1473 3362
3811 1521 3378
3811 1537 3378
3811 1569 3394
3795 1569 3378
3811 1585 3394
3811 1617 3394
3795 1633 3394
3811 1697 3394
3795 1745 3410
3779 1745 3394
3795 1777 3427
3779 1793 3410
3779 1841 3410
3795 1905 3427
3779 1857 3410
288 176 384
320 192 432
336 192 464
464 208 512
640 208 656
817 224 753
1281 256 897
1521 256 929
2114 272 1009
2578 288 1121
2898 288 1201
3154 288 1345
3378 304 1473
3491 304 1457
3603 352 1185
3346 576 368
2290 945 240
400 192 496
560 208 592
608 224 624
785 224 753
1217 272 897
1553 272 961
1937 288 993
2386 288 1057
2802 304 1169
3090 288 1313
3346 288 1473
3427 304 1553
3587 320 1409
3410 528 512
2546 897 240
1585 1233 272
1345 1313 352
544 224 624
785 224 753
1137 272 897
1441 256 929
1889 272 977
2386 288 1057
2786 304 1169
3090 288 1329
3346 288 1473
3427 304 1553
3555 320 1681
3667 352 1441
3282 656 256
1985 1185 240
1585 1297 272
1441 1377 336
1537 1489 336
1057 240 849
1393 272 929
1841 288 977
1857 304 993
2354 320 1089
2722 320 1169
3026 304 1297
3346 288 1473
3459 304 1585
3555 320 1793
3587 288 2017
3683 304 2226
3667 448 1409
3410 785 336
2354 1393 224
1665 1505 304
1665 1649 352
1841 288 977
2306 288 1057
2642 304 1105
2690 320 1137
2738 320 1185
3090 304 1345
3218 320 1441
3410 336 1649
3555 304 1857
3603 288 2017
3683 304 2290
3779 320 2562
3795 336 2578
3731 512 1697
3539 913 464
2466 1553 272
2017 1729 384
2578 288 1121
2962 288 1233
3154 304 1377
3170 320 1393
3170 336 1441
3218 352 1457
3362 352 1633
3410 336 1777
3635 304 2050
3683 288 2258
3795 320 2562
3811 336 2674
3811 416 2594
3747 608 1729
3491 1057 336
2754 1713 240
1985 1889 352
3154 304 1361
3394 288 1489
3443 320 1681
3410 368 1713
3362 352 1729
3378 352 1809
3491 320 1841
3571 336 2082
3715 320 2370
3779 320 2546
3811 336 2674
3827 400 2834
3827 448 2738
3795 592 2178
3651 1089 721
2978 1729 208
2258 2033 400
3491 304 1665
3491 352 1873
3635 304 2082
3523 336 2050
3523 336 2114
3555 352 2194
3555 336 2226
3635 336 2274
3731 352 2578
3747 368 2706
3747 416 2802
3747 464 2898
3779 512 3010
3779 592 3010
3811 705 2466
3683 1265 817
3266 1905 288
3635 304 2082
3699 320 2354
3795 320 2594
3731 352 2594
3731 352 2610
3747 368 2674
3811 336 2674
3811 352 2722
3811 352 2738
3827 400 2834
3827 448 2930
3843 480 3010
3843 576 3074
3827 640 3106
3843 753 3042
3827 897 2370
3683 1521 753
3779 304 2530
3811 352 2706
3827 384 2834
3747 432 2802
3843 416 2866
3843 416 2882
3747 464 2834
3843 448 2930
3827 432 2898
3827 448 2930
3843 480 3026
3779 576 3042
3779 689 3122
3747 769 3170
3843 865 3074
3811 1025 2194
3667 1745 464
3811 352 2754
3827 432 2882
3843 464 2962
3843 464 2978
3779 496 2946
3843 480 3010
3859 496 3042
3779 528 2994
3843 528 3026
3843 576 3074
3827 560 3042
3747 689 3106
3747 769 3218
3843 833 3250
3843 961 3218
3827 1137 2834
3779 1649 1441
3779 512 2930
3843 480 3010
3843 592 3106
3843 640 3106
3747 689 3042
3779 705 3106
3779 705 3106
3747 705 3090
3827 705 3202
3843 737 3202
3843 769 3218
3843 785 3234
3747 881 3250
3827 993 3282
3747 1121 3266
3811 1201 3282
3747 1393 3234
3843 576 3090
3827 672 3122
3843 769 3218
3827 785 3218
3747 833 3170
3827 785 3218
3843 833 3250
3843 881 3250
3827 897 3250
3827 897 3250
3827 913 3266
3747 993 3250
3827 977 3266
3827 1121 3282
3827 1249 3298
3811 1345 3346
3811 1521 3250
3843 769 3218
3827 849 3250
3827 977 3266
3827 1009 3266
3827 1041 3282
3827 1073 3266
3747 1121 3250
3827 1089 3250
3827 1121 3282
3747 1185 3282
3827 1185 3282
3731 1233 3266
3827 1233 3298
3827 1249 3298
3811 1345 3314
3811 1473 3362
3715 1681 3314
3747 1009 3202
3747 1121 3218
3747 1233 3234
3747 1265 3250
3747 1297 3250
3811 1265 3298
3827 1313 3314
3747 1377 3298
3731 1377 3282
3747 1425 3314
3731 1441 3346
3811 1441 3346
3731 1505 3346
3811 1489 3362
3731 1553 3378
3715 1665 3378
3779 1825 3410
3827 1201 3298
3731 1361 3266
3811 1441 3346
3811 1473 3362
3811 1489 3378
3811 1537 3378
3811 1537 3378
3731 1585 3314
3731 1617 3362
3795 1617 3378
3811 1681 3410
3795 1665 3410
3795 1665 3394
3795 1745 3410
3795 1777 3427
3699 1825 3410
3699 1953 3443
3827 1425 3362
3811 1537 3378
3795 1665 3394
3795 1713 3410
3795 1761 3410
3779 1761 3410
3795 1809 3410
3779 1841 3410
3779 1889 3427
3779 1889 3410
3779 1953 3427
3747 1985 3427
3779 2017 3443
3779 2082 3459
3779 2146 3491
3779 2178 3491
3747 2194 3507
240 448 1217
320 480 1473
336 352 1377
464 224 753
689 240 833
1025 240 865
1521 272 1009
1937 288 993
2178 288 1025
2642 288 1153
2962 304 1265
3234 304 1393
3427 304 1441
3555 320 1281
3314 560 352
1825 993 224
1393 1169 272
368 320 1281
753 224 865
801 224 881
865 240 1009
1121 256 1329
1633 272 1009
2146 288 1041
2722 304 1153
3010 304 1265
3266 304 1393
3459 304 1441
3587 320 1329
3410 528 512
2033 977 240
1553 1169 272
1329 1297 336
