其他预设/【236】赛博朋克风调色预设/【后期菌】视频调色预设/3DL/Miami 06_S.3dl
# LUT by SparkleStock. Enhanced with VOXCOLOR algorithms.
0 64 128 192 256 320 384 448 512 576 640 704 768 832 896 960 1023
80 80 144
128 144 224
160 160 272
192 224 352
208 288 416
272 336 512
304 400 656
384 464 801
480 592 1057
592 737 1409
689 881 1665
817 1041 2130
897 1169 2434
961 1233 2658
1041 1313 2866
1105 1393 3058
1217 1473 3218
128 176 240
144 208 288
176 240 336
192 272 384
240 336 464
272 384 576
336 464 737
416 560 913
528 705 1233
624 833 1521
737 993 1889
817 1089 2162
913 1201 2514
977 1297 2754
1057 1377 2930
1153 1457 3138
1233 1521 3250
160 224 272
128 240 288
160 288 352
240 368 464
272 400 544
304 432 640
368 544 833
464 656 1089
560 785 1377
656 913 1665
753 1057 2001
849 1201 2386
913 1265 2562
993 1377 2818
1089 1473 3042
1201 1553 3202
1281 1617 3330
160 288 304
144 288 336
192 368 416
240 400 512
288 464 608
368 560 737
416 640 961
480 737 1201
592 897 1521
705 1057 1873
801 1169 2194
881 1297 2514
945 1377 2722
1009 1473 2914
1105 1553 3090
1281 1665 3266
1345 1745 3362
144 336 352
176 384 416
208 448 464
256 480 560
288 528 656
368 656 817
432 737 1041
544 913 1377
656 1041 1681
769 1185 2066
849 1313 2386
929 1425 2626
1009 1537 2850
1089 1601 2978
1201 1729 3154
1281 1777 3266
1377 1905 3378
144 448 416
160 480 464
192 544 544
192 608 624
336 689 785
400 753 929
496 913 1201
592 1041 1457
721 1201 1873
833 1345 2194
881 1425 2434
977 1553 2674
1057 1681 2866
1137 1761 3042
1265 1905 3170
1409 2033 3282
1505 2130 3378
112 576 464
112 624 560
128 689 640
192 753 737
288 833 897
416 913 1073
544 1105 1361
672 1249 1649
801 1393 2033
865 1521 2290
945 1633 2546
1073 1777 2786
1169 1937 2930
1217 2001 3090
1361 2130 3218
1505 2274 3330
1617 2354 3427
80 737 576
112 833 656
96 881 753
128 961 913
224 1025 1073
384 1153 1265
592 1297 1537
737 1457 1889
833 1617 2146
929 1745 2418
1009 1889 2642
1153 2082 2866
1217 2194 2994
1329 2290 3122
1521 2482 3266
1649 2546 3378
1777 2594 3475
32 929 656
32 1025 753
16 1137 929
64 1249 1089
128 1297 1217
384 1489 1569
560 1601 1809
753 1873 2242
881 1953 2386
1009 2194 2642
1153 2306 2850
1249 2418 2978
1377 2546 3138
1521 2626 3234
1649 2722 3330
1841 2786 3427
1985 2802 3491
16 1185 785
0 1281 929
16 1441 1137
16 1569 1313
112 1745 1617
224 1809 1873
336 2001 2130
448 2178 2370
689 2354 2626
961 2482 2818
1121 2562 2962
1265 2690 3106
1409 2770 3218
1585 2818 3298
1873 2962 3410
2001 2962 3475
2226 3010 3539
0 1505 961
16 1681 1185
16 1889 1425
16 2001 1633
32 2130 1793
64 2242 2066
112 2322 2354
272 2482 2562
560 2562 2770
769 2738 2978
1041 2818 3106
1281 2898 3218
1537 2978 3330
1713 3026 3378
1985 3090 3459
2226 3106 3507
2402 3138 3587
0 1889 1137
0 2066 1377
0 2258 1633
0 2354 1841
16 2418 2066
32 2530 2354
96 2626 2530
288 2690 2770
416 2802 2914
656 2866 3010
977 2978 3170
1281 3042 3282
1505 3090 3362
1905 3202 3475
2082 3202 3507
2354 3218 3571
2514 3250 3635
0 2274 1425
0 2418 1633
0 2562 1921
0 2626 2162
16 2658 2290
32 2786 2594
48 2802 2674
176 2866 2850
368 2930 2978
608 2978 3058
1105 3090 3250
1393 3154 3330
1729 3234 3427
2033 3282 3507
2306 3298 3539
2530 3330 3603
2770 3362 3667
0 2562 1681
16 2738 2033
16 2770 2242
16 2850 2386
32 2882 2594
112 2930 2754
144 2930 2786
304 2994 2978
721 3106 3122
929 3122 3170
1249 3170 3282
1521 3250 3362
1793 3266 3459
2146 3330 3507
2450 3362 3587
2690 3394 3619
2754 3410 3651
48 2818 1905
80 2898 2130
112 2962 2306
144 2978 2530
208 3026 2642
320 3026 2818
560 3090 2914
737 3122 2978
929 3154 3122
1249 3234 3234
1441 3234 3282
1745 3298 3378
1985 3346 3427
2354 3394 3523
2530 3427 3587
2722 3459 3619
2914 3475 3667
224 2962 2146
240 3010 2242
384 3042 2498
528 3090 2642
801 3154 2802
945 3170 2914
1009 3202 2962
1137 3250 3026
1425 3298 3138
1521 3282 3234
1681 3298 3282
1873 3362 3362
2226 3410 3459
2514 3459 3523
2722 3475 3571
2786 3491 3619
2930 3523 3667
560 3058 2322
705 3138 2482
977 3218 2642
1169 3250 2770
1201 3250 2882
1329 3266 2962
1393 3282 3026
1633 3346 3138
1713 3346 3234
1841 3362 3250
2146 3410 3346
2306 3427 3410
2482 3475 3491
2626 3475 3507
2850 3523 3587
2962 3523 3603
3154 3587 3667
192 144 240
192 144 272
224 208 336
240 240 384
256 272 416
304 352 560
368 400 656
432 464 833
560 624 1137
672 817 1521
801 977 1889
881 1089 2178
929 1185 2450
1009 1281 2738
1105 1361 2914
1185 1425 3090
1329 1505 3234
240 192 288
240 192 320
272 256 384
272 272 400
288 336 496
320 384 624
416 496 817
496 624 1041
576 737 1329
672 881 1617
785 1041 2001
913 1185 2370
961 1249 2594
1041 1345 2818
1153 1441 3026
1265 1521 3218
1345 1569 3298
272 240 320
256 240 336
272 288 384
304 352 464
352 400 576
400 480 737
464 608 961
512 689 1169
640 865 1505
737 1025 1841
849 1153 2194
913 1249 2482
993 1361 2738
1105 1457 2930
1169 1505 3058
1345 1617 3250
1409 1665 3362
256 272 336
272 320 384
304 384 464
320 432 560
368 496 656
416 560 833
512 721 1105
576 865 1377
656 977 1617
801 1137 2050
865 1265 2370
929 1345 2562
1025 1457 2786
1121 1553 2978
1249 1633 3154
1345 1713 3266
1457 1809 3394
256 352 384
256 416 448
288 448 512
288 512 592
352 592 737
432 705 945
528 849 1233
608 977 1489
737 1137 1825
817 1249 2178
929 1393 2482
1009 1489 2690
1057 1553 2866
1185 1665 3026
1297 1777 3170
1377 1841 3282
1505 1953 3427
288 448 448
208 544 528
224 560 560
272 640 672
368 721 817
464 833 1041
576 1009 1329
672 1137 1633
769 1249 1953
897 1409 2322
961 1521 2530
1041 1633 2754
1169 1761 2930
1281 1889 3090
1377 2001 3218
1553 2146 3362
1665 2226 3427
192 608 464
144 656 592
192 721 689
224 801 785
384 913 993
496 1057 1217
624 1169 1457
737 1329 1761
849 1473 2130
961 1633 2402
1089 1777 2674
1105 1809 2802
1281 2017 3010
1393 2146 3138
1489 2242 3234
1633 2354 3362
1809 2482 3475
144 705 496
80 881 672
112 945 817
144 993 929
208 1105 1121
480 1217 1377
656 1441 1697
801 1553 1985
913 1729 2290
1009 1873 2514
1169 2082 2786
1201 2162 2898
1345 2290 3058
1489 2418 3202
1617 2498 3282
1873 2658 3427
1937 2674 3507
80 865 560
32 1153 881
32 1217 1025
96 1329 1185
176 1457 1409
464 1601 1697
608 1729 1985
769 1921 2258
913 2130 2514
1121 2306 2754
1201 2402 2882
1329 2498 3010
1489 2626 3170
1665 2722 3282
1841 2786 3394
1953 2802 3459
2258 2898 3571
80 993 560
0 1425 1041
16 1553 1265
48 1681 1409
144 1761 1681
224 1985 2017
320 2130 2226
496 2258 2482
817 2402 2674
1041 2562 2898
1233 2658 3026
1377 2738 3138
1553 2786 3234
1713 2882 3346
1953 2914 3394
2146 2962 3475
2418 3026 3587
16 1281 640
16 1761 1249
16 1937 1457
16 2130 1713
32 2162 1905
48 2290 2162
160 2434 2450
416 2530 2658
689 2690 2898
929 2754 3010
1169 2850 3122
1393 2914 3218
1633 2994 3330
1937 3106 3410
2178 3122 3475
2386 3138 3539
2610 3202 3635
0 1505 705
16 2130 1377
0 2290 1633
0 2418 1985
16 2482 2178
48 2626 2418
144 2626 2594
304 2738 2770
496 2818 2914
833 2914 3058
1153 2978 3170
1505 3090 3298
1809 3138 3378
2050 3202 3459
2290 3218 3523
2546 3250 3587
2690 3282 3651
16 1745 833
0 2370 1489
0 2498 1729
16 2610 2050
32 2738 2354
48 2754 2546
144 2802 2722
288 2882 2818
528 2962 2978
913 3010 3106
1345 3122 3266
1537 3154 3298
1841 3218 3394
2226 3266 3491
2450 3282 3523
2674 3330 3603
2818 3346 3651
16 2001 945
16 2594 1729
64 2738 1985
112 2882 2402
160 2930 2658
192 2914 2738
448 3010 2850
672 3042 2994
913 3106 3106
1153 3122 3154
1489 3170 3266
1745 3250 3362
2050 3282 3459
2402 3362 3523
2626 3378 3571
2818 3410 3619
2898 3410 3667
112 2194 1009
64 2546 1505
192 2754 1777
368 2962 2242
528 3042 2722
737 3090 2866
913 3122 2914
1073 3154 2994
1249 3202 3122
1473 3234 3218
1649 3266 3266
1921 3330 3362
2146 3362 3427
2450 3394 3507
2674 3410 3571
2882 3475 3651
3026 3491 3699
288 2370 1169
384 2626 1553
576 2754 1761
833 2994 2258
977 3154 2770
1233 3218 2914
1281 3218 2978
1393 3282 3042
1601 3330 3138
1825 3330 3250
2017 3362 3330
2178 3394 3378
2402 3410 3459
2642 3459 3507
2898 3491 3587
2914 3491 3603
3058 3539 3699
737 2594 1345
849 2818 1809
1057 2898 2001
1233 3090 2370
1537 3282 2898
1569 3282 2930
1777 3346 3090
1873 3346 3154
2017 3362 3218
2194 3394 3298
2354 3427 3362
2434 3427 3378
2626 3475 3475
2786 3491 3507
2930 3507 3539
3154 3571 3635
3218 3571 3651
256 176 288
288 192 336
288 224 368
288 240 384
336 288 464
368 320 560
416 384 672
528 480 897
656 576 1121
769 817 1553
833 977 1905
961 1153 2354
1025 1233 2610
1105 1313 2786
1201 1393 3026
1313 1473 3170
1457 1537 3282
352 208 336
352 224 384
368 240 400
352 288 448
384 368 560
432 432 672
496 528 865
560 640 1089
753 833 1505
833 945 1777
897 1121 2194
977 1201 2482
1057 1281 2658
1105 1377 2882
1233 1473 3090
1393 1553 3266
1505 1617 3362
496 272 400
512 288 448
544 304 512
512 336 560
464 400 624
480 480 785
576 656 1073
640 785 1329
689 929 1585
769 1057 1921
913 1201 2354
993 1297 2610
1057 1393 2786
1185 1505 3010
1281 1569 3138
1457 1649 3330
1537 1729 3410
512 320 432
480 352 480
528 384 560
496 432 640
480 528 753
528 608 913
608 753 1185
656 929 1489
737 1057 1745
865 1217 2226
929 1297 2418
1025 1409 2674
1105 1489 2850
1249 1601 3058
1377 1729 3234
1457 1793 3330
1665 1921 3475
560 400 480
384 448 528
416 480 576
432 560 672
464 640 833
544 785 1057
624 913 1345
705 1057 1633
801 1185 1953
897 1313 2274
1009 1441 2546
1105 1553 2770
1169 1633 2930
1281 1729 3090
1457 1921 3234
1553 1953 3346
1761 2082 3507
528 464 496
384 512 560
304 608 624
384 705 753
464 833 961
560 961 1201
656 1089 1473
737 1201 1745
849 1377 2082
945 1473 2370
1089 1633 2674
1137 1713 2818
1249 1841 2994
1425 2001 3154
1505 2066 3250
1729 2258 3394
1905 2370 3491
384 544 448
336 640 656
288 817 769
416 897 929
480 1009 1105
592 1169 1345
705 1249 1585
833 1457 1921
945 1601 2274
1009 1681 2514
1121 1825 2738
1249 1985 2914
1377 2114 3042
1521 2258 3202
1633 2322 3298
1793 2418 3378
2050 2562 3571
288 656 464
192 833 624
144 993 881
224 1057 1009
352 1201 1217
560 1425 1553
737 1505 1809
865 1681 2130
1009 1921 2434
1121 2050 2658
1217 2162 2818
1345 2274 2978
1473 2418 3154
1633 2498 3266
1825 2610 3362
2033 2722 3475
2162 2738 3571
176 849 496
112 1025 689
64 1329 1105
96 1441 1281
304 1585 1585
464 1745 1873
608 1841 2114
817 2082 2402
1009 2258 2626
1185 2370 2802
1329 2498 2978
1457 2594 3122
1633 2722 3250
1777 2754 3298
1937 2786 3394
2226 2882 3491
2402 2914 3587
192 977 464
48 1297 817
48 1681 1377
64 1825 1569
112 1953 1825
208 2114 2114
288 2178 2274
560 2370 2562
849 2482 2754
1105 2610 2930
1361 2754 3106
1505 2786 3170
1713 2866 3282
1889 2914 3362
2242 2994 3459
2370 3010 3523
2594 3090 3619
336 1153 464
16 1409 737
0 2082 1585
16 2194 1825
32 2290 2033
96 2386 2322
320 2562 2626
496 2610 2754
753 2722 2930
1105 2850 3058
1345 2882 3138
1537 2962 3234
1841 3042 3346
2162 3106 3410
2386 3122 3491
2546 3138 3571
2738 3202 3651
272 1457 544
16 1617 833
16 2434 1809
16 2546 2146
48 2594 2290
112 2674 2498
288 2722 2674
448 2786 2818
689 2882 2978
1169 2978 3154
1441 3058 3234
1697 3122 3330
1953 3154 3378
2290 3218 3475
2450 3218 3523
2674 3250 3603
2850 3298 3667
496 1665 624
16 1825 897
32 2530 1745
48 2642 2066
80 2770 2434
144 2802 2626
288 2898 2786
672 2962 2930
865 2994 3010
1185 3058 3154
1553 3138 3266
1825 3218 3362
2114 3234 3410
2418 3282 3491
2610 3298 3539
2818 3346 3603
2962 3362 3651
721 1985 737
112 2050 993
144 2674 1841
224 2802 2146
384 2962 2594
496 2994 2786
769 3042 2866
913 3058 2994
1281 3138 3138
1537 3202 3234
1809 3234 3330
1953 3266 3362
2354 3346 3475
2594 3362 3507
2770 3378 3539
2930 3427 3635
3010 3427 3667
945 2226 817
689 2322 1025
480 2642 1617
721 2898 2082
881 3058 2610
1089 3138 2882
1265 3170 2994
1345 3202 3026
1473 3234 3122
1793 3282 3250
1937 3298 3298
2146 3330 3362
2370 3378 3410
2674 3394 3507
2850 3459 3587
2962 3459 3619
3122 3491 3667
1329 2434 913
1169 2514 1057
945 2546 1377
1041 2722 1745
1345 3122 2562
1521 3250 2930
1665 3282 3042
1697 3298 3042
1921 3346 3170
2033 3330 3250
2322 3394 3346
2402 3394 3378
2546 3410 3427
2818 3459 3507
2994 3491 3587
3042 3491 3603
3170 3523 3667
1617 2642 1009
1505 2658 1185
1409 2722 1473
1521 2818 1777
1729 3154 2562
1777 3298 2978
2033 3346 3106
2162 3346 3154
2386 3378 3250
2402 3378 3282
2562 3427 3362
2642 3427 3394
2818 3491 3475
2994 3507 3523
3122 3539 3587
3250 3571 3635
3330 3587 3667
384 192 336
384 208 384
384 240 416
400 240 448
464 288 544
496 304 608
560 384 753
608 400 833
769 528 1137
881 721 1473
977 961 1937
1073 1121 2354
1153 1217 2594
1249 1345 2850
1313 1393 3026
1425 1457 3154
1569 1505 3298
560 288 416
560 272 448
544 272 464
576 288 544
544 352 640
576 384 737
608 448 849
769 624 1169
865 737 1457
1009 929 1873
1041 1105 2258
1105 1281 2562
1201 1377 2802
1217 1425 2930
1393 1537 3154
1489 1569 3266
