其他预设/【236】赛博朋克风调色预设/【后期菌】视频调色预设/3DL/Miami 05_S.3dl
# LUT by SparkleStock. Enhanced with VOXCOLOR algorithms.
0 64 128 192 256 320 384 448 512 576 640 704 768 832 896 960 1023
64 64 128
128 96 240
144 128 336
176 192 448
176 224 560
208 288 705
240 336 865
288 368 1025
336 384 1201
384 416 1441
416 432 1617
448 480 1857
496 480 2066
528 480 2242
624 512 2466
672 528 2626
785 560 2786
144 192 272
128 240 352
160 256 448
192 288 560
224 368 689
240 432 833
272 448 1009
320 496 1185
400 544 1409
432 560 1585
480 608 1825
496 592 1969
544 592 2178
592 576 2386
640 576 2546
753 608 2754
817 624 2882
160 288 368
144 304 416
160 352 496
240 448 672
256 496 801
256 512 913
320 608 1153
400 640 1377
432 640 1553
464 656 1745
512 672 1921
576 737 2162
608 705 2322
656 689 2530
737 721 2706
833 753 2930
913 769 3010
176 416 480
176 432 528
208 496 624
240 560 769
288 624 913
336 705 1105
384 737 1313
432 785 1505
464 817 1697
560 881 1937
592 881 2146
640 929 2354
721 945 2562
769 945 2722
817 929 2850
945 929 3042
1009 945 3170
192 528 576
240 624 689
256 656 785
272 689 865
304 753 1009
368 865 1217
432 897 1409
464 977 1633
528 1041 1857
608 1073 2130
672 1121 2354
737 1169 2562
833 1217 2770
897 1201 2882
1009 1217 3058
1009 1153 3170
1121 1169 3298
240 721 737
240 769 801
288 817 897
336 929 1041
416 1009 1217
432 1057 1393
480 1153 1601
512 1201 1793
592 1265 2050
656 1313 2274
721 1329 2498
817 1409 2722
913 1457 2882
1009 1489 3042
1121 1553 3186
1217 1489 3298
1249 1393 3394
272 929 881
320 1009 1009
368 1073 1121
368 1121 1185
432 1233 1425
464 1281 1553
512 1393 1777
576 1425 1985
624 1473 2178
672 1537 2386
785 1585 2642
897 1633 2834
1009 1761 3010
1057 1713 3090
1201 1777 3234
1345 1793 3378
1409 1777 3491
304 1185 1105
368 1265 1217
384 1345 1345
432 1425 1489
464 1505 1585
512 1553 1729
560 1617 1905
608 1649 2130
624 1729 2322
705 1777 2546
801 1841 2738
913 1937 2930
1009 1985 3026
1137 2050 3202
1297 2114 3314
1425 2130 3443
1537 2066 3523
352 1441 1345
384 1537 1457
432 1617 1585
448 1697 1649
448 1713 1729
544 1793 1921
576 1857 2114
656 2017 2386
689 2033 2498
769 2130 2690
849 2194 2850
977 2274 3010
1089 2354 3154
1217 2354 3250
1377 2370 3378
1505 2386 3475
1601 2386 3523
384 1729 1553
416 1761 1633
432 1873 1761
448 1937 1825
528 2066 2066
560 2082 2146
608 2178 2306
640 2274 2466
737 2354 2626
817 2434 2802
881 2498 2914
977 2562 3058
1089 2594 3186
1201 2578 3298
1425 2642 3427
1521 2642 3475
1665 2626 3555
416 2033 1777
432 2146 1921
464 2210 2066
496 2258 2146
512 2338 2194
592 2402 2354
624 2466 2434
672 2530 2562
785 2594 2738
865 2722 2882
993 2786 3026
1041 2818 3138
1169 2818 3266
1281 2834 3330
1457 2850 3459
1617 2850 3523
1761 2850 3587
416 2370 1985
432 2466 2130
496 2546 2274
512 2546 2322
544 2594 2370
624 2658 2498
656 2722 2594
753 2754 2722
817 2834 2818
929 2866 2946
1009 2946 3074
1121 2962 3186
1185 2978 3282
1393 3026 3410
1489 3026 3491
1649 3042 3539
1777 3058 3635
480 2690 2274
496 2706 2338
544 2786 2482
544 2802 2530
576 2802 2546
672 2914 2706
705 2866 2722
769 2914 2786
833 2978 2882
929 2994 2962
1089 3090 3138
1169 3138 3218
1329 3170 3330
1425 3170 3443
1569 3186 3507
1713 3202 3587
1889 3234 3651
512 2882 2434
592 2962 2578
576 2962 2594
624 2994 2658
656 3042 2754
737 3058 2818
737 3058 2818
817 3074 2930
929 3154 3026
1009 3154 3074
1153 3202 3186
1233 3250 3250
1361 3250 3362
1457 3282 3427
1601 3298 3523
1777 3314 3587
1857 3314 3635
592 3106 2562
624 3106 2610
640 3154 2690
672 3154 2754
737 3186 2834
785 3186 2930
849 3218 2994
897 3234 2994
961 3234 3058
1089 3282 3154
1169 3282 3186
1313 3362 3298
1393 3378 3362
1537 3394 3443
1617 3394 3507
1777 3410 3555
1921 3410 3619
672 3266 2722
672 3250 2706
737 3250 2834
785 3282 2914
865 3314 2994
929 3330 3058
945 3330 3074
977 3394 3090
1089 3410 3186
1153 3410 3234
1249 3410 3266
1313 3410 3298
1473 3443 3378
1633 3475 3443
1761 3491 3507
1825 3475 3555
1953 3491 3619
737 3362 2834
801 3378 2914
849 3410 2994
913 3427 3058
945 3443 3090
977 3443 3138
1009 3443 3154
1105 3475 3234
1169 3475 3266
1217 3491 3282
1329 3507 3330
1425 3523 3378
1553 3539 3410
1649 3523 3443
1825 3539 3523
1921 3539 3539
2098 3587 3619
224 112 288
224 96 336
240 176 448
240 176 512
240 208 608
256 272 785
288 272 913
336 304 1073
400 368 1313
448 432 1585
480 480 1777
512 496 1969
544 512 2130
608 512 2338
672 528 2530
753 544 2690
913 592 2914
320 192 416
288 176 448
304 240 544
272 240 592
272 320 737
288 368 897
352 480 1105
400 544 1313
432 560 1489
464 592 1681
496 608 1873
560 608 2114
592 592 2290
672 592 2498
769 624 2690
865 640 2866
945 656 2994
320 288 464
288 288 528
288 352 624
304 400 753
320 480 897
368 544 1073
416 640 1297
432 656 1457
496 721 1681
544 753 1905
576 737 2098
624 769 2274
689 769 2482
769 785 2642
833 769 2802
977 801 3010
1041 801 3106
304 384 544
288 448 624
304 512 769
352 592 897
368 656 1025
416 721 1201
480 817 1473
496 865 1601
528 881 1793
624 929 2114
656 961 2290
721 977 2482
801 1009 2658
865 993 2834
945 977 2978
1025 961 3106
1169 993 3250
304 544 624
288 640 753
304 672 833
352 769 993
400 865 1137
464 945 1393
512 1025 1601
528 1041 1777
624 1121 2017
640 1105 2210
769 1217 2498
817 1233 2690
897 1217 2802
1009 1249 2994
1089 1249 3106
1169 1217 3250
1249 1201 3362
352 737 801
336 833 897
352 865 961
400 977 1121
432 1025 1281
464 1137 1505
560 1233 1729
576 1265 1921
624 1265 2130
737 1377 2434
801 1425 2594
897 1441 2786
1025 1505 2978
1137 1585 3106
1217 1553 3250
1345 1505 3378
1393 1441 3427
400 961 913
352 1057 1073
416 1121 1185
448 1201 1281
512 1345 1537
544 1425 1697
592 1441 1841
608 1489 2050
689 1553 2322
801 1665 2546
913 1713 2770
977 1681 2882
1105 1777 3074
1233 1841 3202
1345 1841 3298
1473 1841 3427
1537 1761 3507
416 1089 1025
400 1345 1297
432 1441 1441
448 1457 1521
528 1585 1681
576 1585 1809
640 1697 2050
640 1745 2242
705 1809 2434
801 1889 2610
945 1985 2866
1009 2050 2978
1153 2082 3138
1297 2130 3266
1409 2114 3362
1601 2162 3475
1665 2114 3539
448 1361 1233
448 1665 1569
464 1713 1649
496 1745 1713
544 1809 1841
592 1889 2050
640 1953 2242
705 2033 2402
753 2130 2578
849 2242 2770
913 2290 2882
1025 2338 3042
1217 2402 3202
1377 2466 3330
1521 2434 3443
1585 2418 3491
1825 2402 3587
544 1505 1313
448 1873 1745
496 1985 1873
480 2050 1921
544 2098 2098
624 2194 2274
640 2306 2370
721 2354 2546
801 2402 2658
913 2530 2866
993 2578 2994
1105 2610 3106
1217 2610 3234
1345 2642 3330
1537 2642 3443
1665 2642 3507
1841 2658 3587
560 1825 1537
448 2210 1985
480 2290 2114
560 2402 2258
576 2370 2258
624 2482 2402
705 2546 2530
753 2594 2626
897 2722 2834
961 2754 2946
1025 2802 3042
1169 2850 3170
1265 2866 3282
1457 2914 3394
1585 2882 3459
1761 2882 3539
1937 2914 3619
576 2098 1665
528 2546 2210
544 2578 2290
592 2642 2418
608 2642 2434
656 2754 2562
721 2754 2626
817 2802 2738
897 2866 2850
1009 2946 2994
1105 2962 3090
1233 3026 3234
1377 3058 3362
1489 3058 3427
1649 3074 3491
1793 3074 3555
1969 3090 3651
640 2482 1937
576 2754 2354
592 2802 2434
624 2834 2530
656 2882 2610
705 2882 2690
785 2914 2754
833 2978 2834
897 3026 2914
1041 3058 3026
1185 3138 3170
1265 3154 3218
1393 3170 3330
1553 3186 3443
1665 3202 3507
1873 3202 3555
2017 3218 3635
672 2770 2130
608 2930 2498
624 2994 2578
721 3074 2722
753 3106 2818
769 3074 2834
833 3138 2882
945 3170 2994
1009 3170 3042
1089 3186 3074
1217 3218 3186
1345 3266 3266
1441 3282 3362
1585 3314 3443
1761 3314 3523
1921 3330 3587
2066 3362 3651
705 2978 2242
656 3090 2466
689 3138 2562
753 3186 2706
817 3234 2882
897 3250 2994
945 3250 3026
993 3266 3042
1073 3282 3106
1185 3298 3170
1249 3314 3218
1393 3362 3282
1473 3394 3362
1617 3394 3427
1777 3394 3491
1953 3427 3587
2114 3443 3635
785 3074 2386
769 3250 2546
801 3250 2642
833 3298 2802
929 3330 3010
993 3378 3074
1009 3378 3106
1057 3394 3138
1153 3427 3186
1281 3443 3266
1361 3443 3298
1425 3459 3314
1569 3459 3362
1713 3475 3427
1889 3507 3523
1985 3491 3555
2130 3507 3635
865 3250 2530
849 3362 2738
897 3378 2802
913 3410 2930
1041 3459 3138
1041 3443 3154
1137 3491 3218
1201 3491 3250
1265 3491 3282
1377 3523 3330
1425 3523 3362
1473 3507 3362
1633 3523 3410
1777 3523 3459
1905 3523 3491
2114 3555 3587
2194 3555 3603
336 128 400
336 160 464
320 176 528
288 160 592
320 208 721
336 240 833
384 256 1009
432 304 1201
464 320 1393
512 416 1649
512 448 1809
608 512 2098
624 528 2290
705 544 2466
817 576 2658
929 608 2834
1025 624 2978
432 208 512
432 208 576
432 224 640
352 256 721
368 336 849
416 384 1041
432 464 1201
448 480 1361
544 560 1665
544 544 1809
560 592 2033
624 592 2210
689 608 2402
737 624 2562
881 656 2802
1025 705 2978
1121 721 3106
624 288 640
640 304 753
656 336 897
608 368 993
480 432 1025
448 480 1153
496 592 1393
512 672 1569
544 737 1761
560 753 1953
624 785 2194
705 785 2402
753 769 2546
865 817 2786
961 817 2930
1089 817 3090
1201 865 3218
656 416 737
608 464 849
640 496 1009
544 560 1057
528 656 1169
528 689 1313
560 769 1537
576 897 1761
592 913 1921
672 977 2194
737 1009 2386
817 1009 2594
849 1009 2738
977 1009 2946
1121 1025 3106
1201 1041 3218
1361 1089 3362
753 592 897
464 689 913
464 721 993
480 817 1121
528 881 1249
560 1009 1521
592 1041 1697
624 1121 1921
656 1137 2130
721 1185 2354
817 1265 2578
929 1297 2786
993 1265 2882
1073 1265 3026
1217 1297 3234
1297 1265 3330
1457 1297 3443
689 769 977
480 833 993
432 929 1041
496 1041 1233
560 1201 1457
592 1297 1649
624 1329 1857
640 1329 2050
705 1393 2290
801 1457 2514
945 1505 2754
1009 1553 2882
1121 1585 3042
1265 1585 3202
1329 1569 3282
1473 1569 3410
1585 1537 3491
544 913 897
512 1057 1169
512 1265 1313
560 1345 1473
592 1409 1617
608 1489 1777
640 1489 1937
721 1633 2178
801 1697 2466
833 1697 2610
977 1729 2818
1105 1841 2994
1201 1873 3106
1393 1937 3266
1505 1889 3394
1585 1793 3443
1665 1777 3539
512 1089 1009
512 1329 1281
496 1505 1521
544 1553 1585
592 1617 1713
656 1745 1937
656 1761 2114
737 1825 2338
833 1969 2578
913 2050 2770
993 2050 2882
1169 2130 3074
1313 2162 3218
1457 2194 3330
1601 2210 3427
1761 2178 3507
1809 2130 3587
560 1297 1169
512 1601 1473
528 1793 1761
544 1825 1809
608 1921 1985
656 2033 2178
705 2066 2338
785 2178 2530
833 2242 2690
945 2306 2834
1057 2386 2994
1185 2466 3138
1361 2482 3266
1473 2466 3362
1601 2434 3443
1793 2466 3523
1953 2386 3603
608 1409 1121
560 1905 1713
544 2098 2017
576 2194 2098
624 2242 2242
672 2290 2338
705 2338 2418
817 2434 2626
865 2514 2754
977 2578 2914
1105 2690 3058
1201 2642 3170
1377 2706 3282
1489 2706 3378
1745 2738 3491
1825 2642 3539
2050 2658 3619
656 1585 1105
608 2017 1729
544 2370 2194
592 2466 2306
624 2514 2354
705 2530 2498
817 2642 2642
849 2690 2722
945 2754 2850
1073 2850 3010
1169 2850 3090
1265 2866 3202
1425 2930 3330
1585 2946 3427
1761 2930 3491
1905 2882 3555
2114 2882 3635
753 2017 1377
624 2306 1905
624 2658 2402
656 2722 2514
689 2770 2546
753 2818 2626
817 2834 2690
881 2850 2786
993 2946 2930
1153 3010 3074
1233 3042 3186
1377 3074 3282
1473 3074 3378
1617 3090 3459
1745 3090 3507
1937 3090 3587
2130 3138 3667
817 2306 1553
737 2594 2050
656 2866 2498
689 2882 2578
737 2930 2642
785 2946 2738
865 3010 2834
945 3058 2930
1009 3058 2978
1137 3106 3058
1265 3170 3186
1393 3202 3266
1505 3186 3378
1665 3218 3459
1825 3218 3507
2033 3250 3587
2178 3250 3635
881 2690 1777
769 2786 2178
721 3026 2594
753 3074 2658
817 3154 2818
849 3138 2914
945 3186 2946
993 3170 2994
1121 3234 3090
1233 3250 3154
1361 3282 3234
1409 3298 3266
1585 3330 3394
1745 3362 3475
1905 3330 3523
2098 3378 3603
2194 3378 3651
929 2866 1857
897 2962 2162
817 3154 2530
833 3218 2690
897 3266 2882
977 3282 3026
1057 3298 3074
1089 3330 3090
1153 3314 3138
1297 3378 3218
1377 3362 3234
1457 3378 3298
1601 3410 3378
1777 3410 3459
1937 3427 3523
2082 3443 3587
2306 3459 3635
1025 3042 2066
1009 3090 2258
913 3186 2514
945 3282 2658
993 3378 2978
1089 3410 3138
1169 3443 3186
1185 3427 3170
1297 3459 3218
1345 3443 3266
1473 3475 3314
1537 3475 3330
1633 3459 3362
1841 3475 3443
2066 3507 3523
2162 3507 3555
2306 3523 3635
1121 3202 2194
1089 3202 2370
1009 3250 2562
1041 3378 2738
1105 3459 3026
1137 3475 3170
1233 3507 3234
1313 3507 3266
1393 3539 3314
1441 3523 3314
1537 3539 3362
1585 3523 3378
1793 3539 3443
1953 3539 3475
2130 3555 3523
2274 3587 3555
2370 3603 3603
464 144 480
464 176 592
464 208 656
480 192 753
528 224 929
528 240 1073
560 272 1233
576 272 1345
656 320 1585
656 336 1777
656 432 1969
721 464 2194
769 480 2386
865 528 2594
929 560 2738
1025 592 2882
1169 608 3074
737 256 672
705 256 737
689 240 833
689 256 1009
608 336 1089
608 352 1201
576 384 1345
640 448 1585
689 464 1777
769 496 2050
737 544 2178
753 624 2386
817 640 2546
881 656 2706
1025 689 2914
1121 705 3042
