其他预设/【236】赛博朋克风调色预设/【后期菌】视频调色预设/3DL/Miami 04.3dl
# LUT by SparkleStock. Enhanced with VOXCOLOR algorithms.
0 128 256 384 512 640 768 896 1023
80 16 32
96 32 128
128 48 272
176 128 560
272 208 1073
368 384 1729
544 705 2402
721 1041 2754
961 1329 2994
96 48 112
96 64 160
144 144 400
192 224 721
288 384 1425
400 608 2050
544 961 2578
769 1297 2914
1025 1601 3074
96 144 160
112 224 320
144 272 480
224 416 977
336 689 1697
464 1041 2434
656 1393 2850
913 1697 3074
1233 1953 3186
96 400 304
128 528 512
160 689 897
240 913 1425
368 1233 2146
544 1553 2706
801 1857 3026
1089 2082 3186
1441 2354 3314
64 929 592
112 1137 929
128 1297 1265
224 1553 1905
384 1841 2578
721 2178 2994
1041 2434 3202
1425 2578 3314
1713 2722 3410
64 1665 1057
144 1937 1489
176 2178 1905
272 2338 2418
432 2514 2914
817 2738 3202
1377 2866 3330
1729 2946 3410
2114 3010 3459
176 2402 1585
288 2594 2033
336 2674 2418
416 2802 2818
592 2946 3138
929 3010 3314
1553 3122 3427
2033 3170 3459
2434 3218 3507
416 2818 2066
512 2882 2466
640 2994 2754
785 3058 3026
897 3106 3202
1185 3170 3330
1681 3234 3427
2210 3282 3475
2626 3330 3507
705 3010 2370
945 3122 2658
1169 3170 2914
1281 3202 3042
1569 3282 3202
1809 3314 3298
2146 3346 3410
2498 3378 3459
2786 3427 3507
160 32 128
192 48 192
208 64 320
288 128 624
416 192 1169
528 464 1937
737 849 2562
929 1153 2834
1249 1441 3010
336 80 192
400 128 352
304 160 512
384 288 1041
416 528 1681
560 833 2354
753 1153 2738
1041 1489 2994
1393 1745 3106
416 176 288
240 256 432
288 352 737
368 592 1345
464 881 2033
624 1217 2626
897 1521 2898
1249 1889 3138
1649 2146 3218
256 352 288
176 656 705
240 865 1121
336 1041 1633
544 1473 2418
753 1697 2834
1089 2033 3106
1473 2306 3234
1857 2530 3346
160 881 416
144 1329 1153
192 1569 1665
320 1809 2242
624 2082 2754
961 2370 3058
1425 2562 3266
1713 2690 3330
2146 2818 3427
320 1313 448
176 2146 1681
256 2322 2162
416 2546 2738
640 2658 3042
1169 2786 3218
1681 2962 3346
2114 3010 3427
2482 3074 3475
560 2017 656
352 2594 1857
432 2738 2562
592 2898 2914
785 2978 3154
1297 3058 3298
1841 3122 3362
2338 3186 3459
2690 3234 3491
1025 2594 753
672 2802 1761
929 3010 2690
1169 3138 3042
1313 3170 3170
1681 3218 3298
2082 3266 3362
2594 3330 3443
2850 3330 3491
1761 2994 753
1505 2994 1553
1713 3170 2594
1873 3266 3074
2162 3314 3186
2338 3330 3282
2546 3362 3362
2818 3410 3443
2994 3427 3491
496 96 160
448 80 288
496 128 496
544 144 737
801 224 1249
977 368 1809
1281 640 2386
1425 1089 2786
1713 1425 2962
1409 256 240
1473 288 448
1441 288 705
1297 288 1137
1297 432 1681
1345 656 2306
1185 1345 2850
1473 1601 3010
1761 1857 3138
2498 480 208
2882 544 656
2594 496 1009
1153 624 1681
785 1153 2386
929 1441 2754
1297 1809 3042
1649 2066 3186
2001 2258 3234
1777 608 160
1329 624 640
721 881 1409
913 1249 2098
865 1665 2626
1041 1937 2946
1505 2258 3154
1905 2498 3298
2258 2658 3378
672 913 240
432 1185 656
320 1777 1905
528 2050 2482
913 2338 2882
1329 2530 3138
1761 2690 3298
2194 2850 3410
2578 2962 3443
1345 1569 272
737 1825 705
400 2498 2418
624 2674 2850
1025 2786 3122
1553 2882 3234
2082 3010 3346
2482 3074 3443
2738 3138 3491
2033 2242 240
1297 2418 624
785 2818 2482
945 2914 2850
1329 3058 3154
1809 3074 3282
2274 3170 3346
2674 3218 3443
2914 3282 3507
2466 2818 288
2098 2914 624
1521 2914 1889
1681 3154 2962
1953 3218 3170
2194 3234 3234
2530 3298 3346
2882 3346 3459
3042 3362 3523
2722 3106 288
2786 3202 496
2738 3202 1041
2482 3234 2706
2642 3346 3186
2786 3378 3298
2866 3410 3346
3058 3443 3459
3186 3475 3507
1809 288 160
1809 288 368
1745 288 689
1793 304 961
1777 320 1377
1937 384 1777
2434 592 2242
2722 785 2514
2466 1169 2818
3042 528 288
2994 512 544
3042 528 913
2994 496 1297
2994 560 1713
2658 656 2210
2562 913 2562
2578 1233 2818
2562 1569 3010
3314 656 288
3378 672 945
3362 672 1345
3346 769 1793
2802 769 2146
2658 961 2466
2626 1361 2818
2146 2114 3170
2354 2306 3266
3218 849 96
3427 897 640
3507 929 1713
3330 961 2050
1809 1649 2674
1681 2178 3026
1889 2418 3202
2354 2658 3330
2578 2722 3378
2434 1185 32
2114 1377 160
1649 1553 1057
1217 2050 2482
1681 2322 2882
1761 2626 3154
2194 2818 3330
2626 2946 3427
2802 3010 3459
2898 1841 32
2818 1985 48
1601 2322 817
1073 2738 2882
1473 2834 3074
2033 2962 3234
2434 3058 3362
2754 3122 3443
2962 3186 3507
3042 2530 80
3042 2690 160
2546 2818 592
1633 3010 2818
1841 3074 3058
2274 3138 3218
2690 3218 3330
2994 3282 3475
3074 3298 3507
3186 2978 160
3170 3042 224
2898 3122 656
2514 3170 2418
2530 3202 2850
2674 3298 3266
2866 3330 3330
3106 3362 3475
3202 3378 3507
3298 3234 240
3314 3282 336
3314 3314 512
3298 3346 1025
3010 3330 2946
3042 3410 3282
3170 3459 3378
3218 3459 3459
3314 3475 3507
3170 528 208
3170 528 432
3154 496 785
3106 464 1169
3074 496 1553
3106 576 1953
3042 672 2274
3170 913 2546
3234 1169 2754
3443 656 480
3459 656 913
3459 656 1297
3443 672 1665
3378 737 2066
3346 833 2306
3346 1057 2562
3346 1249 2738
3362 1505 2914
3507 785 544
3587 817 1361
3587 881 1745
3523 913 2066
3491 1041 2386
3459 1153 2530
3298 1361 2786
3234 1649 2962
3186 1921 3122
3475 961 240
3587 1009 913
3587 1137 2066
3507 1169 2322
3491 1297 2530
3330 1537 2754
3218 1809 2994
3202 2242 3218
2882 2722 3378
3218 1361 0
3330 1537 32
3571 1537 833
3523 1569 2370
3298 1857 2722
2674 2594 3122
2706 2914 3346
2898 3042 3443
3026 3106 3491
3362 1873 0
3362 2146 32
3330 2338 64
3138 2626 1009
2514 2866 3026
2818 2978 3218
2834 3106 3362
3026 3186 3475
3138 3202 3507
3443 2642 48
3443 2786 96
3459 2914 192
3170 3026 656
2530 3154 3010
2754 3218 3266
2978 3266 3346
3154 3314 3475
3234 3330 3507
3539 3106 160
3523 3154 192
3539 3234 320
3491 3266 480
3138 3298 2786
3058 3346 3202
3186 3410 3378
3282 3410 3475
3346 3427 3507
3587 3314 256
3571 3330 320
3571 3378 416
3571 3443 721
3507 3410 1297
3330 3410 3154
3346 3475 3410
3378 3475 3475
3459 3491 3523
3443 608 384
3459 608 737
3475 624 1153
3475 656 1553
3427 672 1921
3410 801 2242
3378 945 2498
3378 1153 2690
3427 1361 2850
3523 721 737
3571 769 1297
3587 817 1665
3539 849 1953
3491 929 2258
3475 1041 2498
3459 1185 2658
3491 1425 2850
3491 1649 2978
3587 881 833
3619 945 1633
3619 1009 1985
3571 1073 2274
3539 1169 2514
3539 1345 2674
3523 1473 2818
3507 1633 2914
3539 1889 3074
3571 1073 400
3635 1137 1137
3619 1233 2162
3603 1313 2466
3603 1457 2690
3571 1585 2802
3539 1761 2946
3491 2098 3122
3459 2338 3234
3459 1425 0
3523 1633 48
3651 1681 929
3603 1665 2466
3539 1825 2738
3523 2050 2914
3443 2418 3138
3443 2706 3314
3410 2898 3427
3587 2033 16
3587 2306 48
3587 2482 128
3635 2482 672
3619 2658 1457
3330 2946 3154
3154 3122 3346
3202 3218 3459
3298 3282 3523
3651 2738 48
3635 2834 96
3651 3010 192
3651 3122 304
3459 3186 1185
3154 3218 3170
3266 3298 3362
3314 3330 3459
3378 3378 3507
3699 3138 144
3683 3218 240
3699 3298 352
3699 3346 464
3603 3362 1073
3410 3362 2994
3330 3410 3330
3443 3443 3491
3475 3459 3539
3699 3346 272
3683 3378 352
3683 3427 432
3731 3475 576
3683 3491 865
3683 3475 1649
3507 3491 3330
3523 3523 3491
3539 3539 3539
3507 656 576
3507 672 1009
3571 737 1505
3523 785 1857
3523 881 2194
3507 993 2418
3507 1169 2642
3507 1313 2802
3507 1553 2946
3587 817 961
3603 865 1489
3619 945 1873
3603 1041 2226
3571 1121 2466
3571 1233 2626
3539 1377 2754
3571 1601 2946
3539 1729 3026
3603 977 913
3651 1089 1825
3635 1105 2146
3603 1233 2434
3587 1329 2594
3587 1441 2738
3587 1649 2898
3587 1809 3026
3587 2001 3122
3587 1137 512
3651 1265 1233
3651 1409 2322
3635 1505 2594
3603 1585 2738
3603 1713 2866
3571 1873 2978
3603 2146 3122
3619 2322 3234
3571 1521 32
3619 1761 96
3683 1809 1041
3635 1825 2562
3587 1905 2802
3587 2114 2962
3603 2306 3106
3603 2562 3218
3603 2834 3378
3635 2098 32
3683 2386 96
3683 2578 176
3699 2658 656
3683 2626 1329
3571 2802 3058
3539 2898 3218
3539 3058 3362
3539 3202 3507
3747 2754 96
3763 2962 160
3731 3010 192
3731 3106 320
3747 3138 689
3683 3202 1585
3475 3282 3202
3443 3346 3427
3523 3427 3571
3811 3154 176
3795 3282 256
3763 3346 384
3763 3362 544
3747 3362 656
3683 3378 1649
3539 3443 3202
3523 3475 3443
3571 3491 3539
3795 3378 288
3779 3443 400
3779 3475 544
3779 3491 721
3779 3507 1025
3763 3523 1585
3731 3523 2658
3587 3523 3459
3603 3571 3523
3539 769 721
3571 785 1297
3603 865 1745
3587 913 2066
3587 1041 2386
3587 1169 2594
3603 1393 2786
3603 1569 2914
3603 1729 3026
3587 897 1089
3635 993 1681
3619 1041 2033
3603 1121 2322
3619 1249 2562
3603 1377 2722
3587 1553 2866
3603 1697 2994
3619 1889 3106
3635 1089 785
3651 1169 1905
3635 1233 2258
3619 1313 2498
3619 1441 2690
3619 1585 2834
3603 1745 2962
3619 1953 3106
3619 2146 3186
3635 1281 656
3683 1425 1361
3667 1473 2194
3619 1553 2626
3619 1713 2802
3619 1857 2898
3603 2033 3026
3651 2258 3186
3651 2402 3282
3651 1601 112
3683 1857 192
3731 1985 785
3619 1953 2642
3619 2066 2866
3603 2258 3010
3603 2386 3122
3651 2594 3234
3667 2802 3346
3731 2162 112
3747 2402 176
3731 2578 256
3747 2642 801
3747 2722 1313
3635 2738 3106
3635 2882 3234
3667 3010 3362
3683 3186 3491
3795 2786 128
3795 2914 192
3795 3074 288
3779 3154 416
3795 3202 624
3795 3186 1585
3667 3218 3122
3651 3298 3362
3635 3410 3539
3859 3234 256
3843 3346 400
3827 3362 512
3811 3378 737
3779 3378 993
3779 3427 1345
3747 3427 2370
3635 3475 3314
3635 3507 3571
3843 3427 368
3827 3459 480
3843 3507 721
3795 3491 961
3811 3507 1441
3779 3507 2114
3747 3523 2882
3731 3587 3362
3667 3587 3571
3571 833 817
3603 881 1377
3619 945 1857
3603 1041 2194
3603 1169 2498
3619 1313 2690
3619 1505 2850
3603 1633 2946
3603 1809 3058
3603 977 1169
3619 1025 1681
3603 1089 2066
3619 1217 2418
3619 1313 2626
3619 1489 2802
3619 1665 2946
3619 1825 3026
3619 2001 3138
3619 1153 624
3651 1297 2033
3619 1281 2306
3619 1425 2562
3635 1537 2754
3619 1697 2898
3619 1857 3010
3619 2050 3122
3635 2210 3202
3619 1345 160
3667 1457 1025
3683 1601 2258
3651 1697 2738
3635 1793 2834
3619 1953 2946
3635 2146 3074
3651 2338 3202
3667 2482 3298
3683 1697 176
3699 1857 272
3731 2017 672
3699 2178 1985
3603 2178 2898
3619 2354 3058
3635 2546 3186
3651 2690 3282
3683 2850 3378
3763 2194 160
3779 2402 256
3779 2626 368
3779 2754 737
3763 2738 1473
3667 2866 3138
3635 2914 3234
3667 3042 3378
3699 3154 3491
3827 2818 176
3827 2978 288
3811 3074 384
3811 3170 544
3811 3202 785
3827 3202 1697
3731 3202 3010
3699 3298 3378
3699 3410 3571
3859 3234 304
3843 3314 432
3843 3362 592
3843 3410 785
3827 3410 1073
3811 3410 1553
3811 3443 2338
3763 3475 3122
3699 3507 3571
3859 3459 496
3843 3507 689
3843 3523 1041
3827 3507 1473
3795 3507 2098
3779 3571 2818
3731 3539 3218
3731 3603 3475
3731 3603 3587
