其他预设/【236】赛博朋克风调色预设/【后期菌】视频调色预设/3DL/Miami 06.3dl
# LUT by SparkleStock. Enhanced with VOXCOLOR algorithms.
0 128 256 384 512 640 768 896 1023
80 80 144
160 160 272
208 288 416
304 400 656
480 592 1057
689 881 1665
897 1169 2434
1041 1313 2866
1217 1473 3218
160 224 272
160 288 352
272 400 544
384 544 817
560 785 1377
753 1057 2001
913 1265 2562
1089 1473 3042
1281 1617 3330
144 336 352
208 448 464
288 528 656
432 737 1041
656 1041 1681
849 1313 2386
1009 1537 2850
1201 1729 3154
1409 1921 3362
112 560 480
128 689 640
288 833 897
560 1105 1361
801 1393 2033
945 1633 2546
1169 1937 2930
1361 2130 3218
1633 2370 3410
32 929 656
16 1137 929
128 1281 1233
560 1601 1809
881 1953 2386
1153 2306 2850
1377 2546 3138
1649 2722 3330
1985 2802 3491
0 1505 961
16 1889 1425
32 2130 1809
112 2322 2354
560 2562 2770
1041 2818 3106
1553 2994 3330
1985 3090 3459
2402 3138 3587
0 2274 1425
0 2562 1921
16 2658 2322
48 2802 2674
368 2930 2978
1105 3090 3250
1729 3234 3427
2306 3298 3539
2770 3362 3667
48 2802 1953
112 2930 2370
208 3010 2674
560 3090 2914
945 3154 3138
1457 3234 3298
2033 3346 3459
2594 3427 3587
2914 3475 3667
560 3058 2322
977 3218 2642
1201 3250 2882
1393 3282 3026
1713 3346 3234
2146 3410 3346
2482 3475 3491
2850 3523 3587
3154 3587 3667
256 176 288
288 224 368
336 288 464
416 384 672
656 576 1121
833 977 1905
1025 1233 2610
1201 1393 3026
1457 1537 3282
496 272 400
544 304 512
464 400 624
576 656 1073
689 929 1585
913 1201 2354
1057 1393 2786
1281 1569 3138
1537 1729 3410
560 400 480
416 464 576
464 624 833
624 913 1345
801 1185 1953
1009 1441 2546
1169 1633 2930
1457 1921 3234
1793 2130 3491
384 528 464
288 801 769
480 993 1105
705 1249 1585
945 1601 2274
1121 1825 2738
1377 2114 3042
1633 2322 3298
2082 2610 3539
176 849 496
64 1329 1105
304 1585 1601
608 1841 2114
1009 2258 2626
1329 2498 2978
1633 2722 3250
1937 2786 3394
2402 2914 3587
336 1153 464
0 2082 1585
16 2290 2066
320 2562 2626
753 2722 2930
1345 2882 3138
1889 3058 3346
2386 3122 3491
2738 3202 3651
496 1665 624
32 2530 1745
64 2770 2482
288 2898 2786
865 2994 3010
1553 3138 3266
2114 3234 3410
2610 3298 3539
2962 3362 3651
961 2194 833
480 2626 1633
897 3058 2642
1265 3170 2994
1505 3234 3154
1985 3298 3330
2418 3378 3427
2898 3459 3587
3122 3491 3667
1617 2642 1009
1409 2722 1473
1729 3154 2562
2033 3346 3106
2386 3378 3250
2562 3427 3362
2818 3491 3475
3122 3539 3587
3330 3587 3667
640 256 400
592 240 464
640 288 592
656 336 737
913 464 1137
1121 721 1713
1409 977 2418
1601 1249 2962
1841 1393 3330
1409 480 544
1409 528 672
1377 560 849
1329 544 1121
1313 656 1585
1441 993 2306
1377 1521 2994
1617 1649 3298
1937 1809 3507
2242 753 560
2626 833 929
2370 801 1153
1201 897 1633
1073 1377 2306
1185 1585 2722
1473 1873 3106
1793 2082 3378
2194 2290 3587
1601 785 496
1281 785 785
897 1089 1377
1105 1425 2050
1137 1761 2482
1329 2033 2866
1649 2322 3154
2066 2530 3410
2498 2738 3619
785 913 384
432 1121 721
368 1777 1825
753 2162 2370
1185 2434 2786
1553 2658 3106
2017 2818 3330
2418 2930 3507
2754 3042 3667
1361 1457 496
656 1585 721
112 2498 2290
592 2658 2738
1185 2866 3026
1697 2978 3202
2322 3122 3394
2738 3218 3571
2994 3266 3699
2017 2082 705
1265 2050 817
737 2866 2434
929 2930 2786
1537 3090 3090
2082 3170 3298
2562 3282 3427
2930 3346 3587
3202 3410 3715
2482 2626 849
1937 2594 945
1457 2722 1825
1793 3202 2962
2162 3282 3218
2450 3330 3330
2802 3394 3427
3138 3475 3603
3330 3523 3699
2770 2914 961
2690 2978 1009
2498 2962 1265
2514 3170 2754
2786 3410 3282
2994 3475 3394
3106 3475 3475
3330 3539 3587
3427 3603 3699
1681 544 496
1713 560 656
1649 592 833
1713 624 1057
1729 592 1377
1905 656 1777
2450 817 2386
2818 913 2738
2610 961 3058
2898 833 689
2802 817 865
2914 897 1169
2898 929 1473
2914 913 1841
2674 897 2322
2642 977 2754
2674 1105 3090
2738 1297 3346
3234 929 753
3394 1009 1201
3410 1089 1553
3410 1105 1985
2802 993 2290
2658 1057 2642
2658 1281 3042
2322 2146 3507
2546 2322 3635
3122 1009 608
3410 1073 945
3667 1201 1937
3394 1185 2306
1873 1745 2722
1793 2258 3026
2033 2498 3282
2530 2754 3523
2770 2850 3667
2290 1217 512
2017 1377 592
1569 1489 1137
1377 2146 2402
1777 2418 2818
1937 2738 3154
2418 2914 3394
2786 3042 3603
3026 3106 3731
2866 1793 672
2770 1937 705
1441 2001 945
1201 2786 2818
1633 2914 3026
2242 3058 3282
2658 3154 3427
2978 3234 3603
3202 3298 3747
3010 2450 833
2994 2610 881
2354 2594 945
1681 3026 2818
2017 3122 3090
2546 3234 3330
2914 3330 3459
3218 3394 3619
3346 3427 3731
3170 2882 961
3154 2914 961
2754 2930 1041
2498 3042 2498
2610 3170 2914
2882 3362 3346
3090 3394 3427
3346 3491 3603
3459 3523 3715
3282 3138 1041
3282 3202 1057
3250 3234 1089
3202 3250 1265
3090 3362 3042
3218 3475 3378
3378 3539 3523
3459 3587 3619
3539 3619 3715
3026 817 689
3042 833 833
3010 849 1057
3026 929 1393
3026 929 1729
3090 929 2194
3058 945 2514
3330 1041 2914
3507 1121 3202
3507 961 913
3539 1009 1137
3587 1089 1521
3587 1105 1873
3571 1089 2354
3539 1073 2642
3603 1105 2930
3619 1185 3154
3715 1313 3410
3651 1025 929
3827 1185 1553
3859 1233 2001
3843 1201 2386
3843 1201 2786
3763 1201 2962
3539 1345 3154
3491 1521 3410
3475 1745 3571
3587 1105 753
3747 1185 1169
3971 1329 2354
3827 1281 2642
3779 1329 2882
3539 1537 3138
3459 1777 3346
3410 2226 3539
3122 2802 3763
3122 1377 560
3250 1473 592
3619 1537 1089
3779 1601 2674
3427 1953 2962
2770 2722 3282
2850 3010 3491
3090 3154 3699
3266 3154 3795
3346 1825 640
3378 2066 672
3362 2306 737
3058 2594 1249
2642 2930 3106
2930 3058 3330
2994 3218 3475
3250 3298 3667
3378 3330 3779
3491 2626 849
3475 2770 897
3410 2882 929
3026 2914 1041
2674 3154 3090
2962 3282 3346
3202 3346 3475
3378 3410 3651
3475 3459 3763
3539 3058 1009
3491 3106 1009
3507 3202 1057
3410 3218 1073
3170 3298 2882
3234 3394 3330
3378 3491 3523
3507 3523 3635
3587 3571 3747
3571 3298 1105
3539 3330 1105
3539 3378 1121
3523 3410 1153
3427 3394 1457
3475 3491 3266
3539 3587 3571
3603 3603 3651
3651 3651 3731
3539 945 833
3587 977 1025
3619 1041 1345
3667 1121 1793
3667 1105 2242
3651 1073 2594
3635 1073 2882
3715 1137 3138
3779 1233 3346
3763 1025 1041
3859 1105 1377
3907 1201 1873
3907 1185 2274
3875 1153 2626
3859 1169 2898
3843 1185 3106
3891 1297 3346
3891 1409 3507
3875 1105 1089
3987 1233 1697
4035 1297 2290
4019 1265 2642
3955 1249 2882
3955 1329 3154
3907 1377 3282
3907 1457 3427
3939 1665 3603
3827 1185 833
3907 1249 1281
4019 1377 2450
3987 1345 2818
3987 1441 3122
3955 1505 3234
3907 1681 3410
3795 2082 3571
3763 2322 3699
3523 1441 592
3603 1601 624
3763 1633 1121
3939 1633 2770
3843 1825 3106
3843 2130 3266
3651 2498 3427
3667 2770 3651
3667 2914 3763
3635 1953 624
3635 2242 656
3619 2418 721
3779 2434 945
3715 2594 1569
3459 2994 3362
3298 3154 3507
3410 3298 3699
3539 3346 3827
3715 2674 801
3699 2818 849
3699 3010 929
3699 3122 993
3410 3154 1377
3298 3250 3282
3427 3362 3507
3523 3427 3667
3619 3475 3779
3763 3122 977
3747 3234 1025
3747 3330 1089
3715 3378 1105
3539 3378 1297
3507 3410 3122
3507 3491 3507
3635 3571 3667
3699 3603 3763
3763 3378 1105
3731 3427 1137
3699 3459 1153
3699 3491 1185
3651 3523 1233
3603 3523 1729
3667 3603 3491
3715 3667 3699
3747 3699 3747
3795 1009 929
3843 1057 1201
3891 1153 1633
3907 1185 2130
3955 1169 2546
3939 1153 2818
3939 1185 3122
3939 1201 3298
3971 1281 3491
3971 1089 1121
3987 1185 1553
4019 1281 2130
4035 1265 2594
4003 1217 2866
3987 1217 3058
3987 1281 3266
3987 1377 3459
3971 1457 3571
3987 1153 1121
4067 1345 2001
4067 1329 2402
4035 1313 2818
4035 1329 3058
4019 1361 3250
4019 1473 3410
4003 1601 3571
3987 1793 3667
3907 1233 865
3987 1313 1345
4095 1457 2642
4067 1457 2994
4035 1505 3202
4003 1617 3346
4003 1793 3475
3971 2050 3587
3971 2274 3699
3747 1505 624
3779 1633 624
3859 1777 1185
3987 1825 2882
3955 1937 3234
3955 2226 3378
3939 2402 3507
3891 2626 3619
3875 2850 3763
3779 2017 608
3795 2290 640
3779 2546 721
3859 2594 881
3859 2610 1457
3747 2818 3330
3747 2914 3475
3747 3122 3635
3779 3234 3779
3859 2722 769
3859 2962 865
3827 3042 913
3795 3154 977
3843 3218 1073
3747 3282 1649
3635 3378 3378
3635 3427 3603
3747 3539 3827
3907 3170 993
3875 3282 1057
3843 3378 1105
3795 3427 1121
3763 3459 1137
3635 3459 1713
3699 3523 3378
3731 3603 3635
3763 3635 3795
3875 3427 1121
3859 3491 1153
3827 3539 1185
3763 3539 1201
3747 3603 1281
3731 3603 1633
3779 3651 2786
3795 3699 3651
3795 3731 3795
3971 1041 1009
3987 1121 1377
4019 1233 1905
4019 1233 2386
4019 1185 2770
4019 1185 3026
4067 1265 3298
4035 1297 3491
4035 1377 3635
4035 1121 1233
4035 1281 1745
4035 1297 2290
4035 1281 2690
4035 1281 3010
4035 1281 3218
4035 1345 3410
4035 1441 3571
4035 1601 3699
4003 1201 1009
4067 1377 2082
4067 1377 2594
4035 1361 2914
4067 1409 3170
4067 1457 3362
4067 1553 3507
4035 1761 3651
4019 1953 3731
3987 1313 913
4035 1441 1425
4067 1553 2434
4067 1553 3042
4035 1633 3282
4035 1761 3410
3987 1937 3507
4003 2226 3651
4003 2386 3731
3907 1569 640
3891 1713 624
3939 1873 977
4003 2001 2930
3971 2146 3266
3971 2322 3427
3955 2482 3523
3971 2658 3651
4019 2786 3779
3939 2050 608
3891 2306 624
3859 2530 672
3939 2562 929
3955 2674 1377
3875 2770 3378
3907 2930 3571
3955 3058 3699
3939 3234 3827
3939 2722 737
3939 2914 833
3907 3106 913
3907 3234 1009
3891 3266 1025
3939 3266 1617
3859 3298 3298
3859 3346 3635
3859 3491 3827
3987 3250 1009
3971 3394 1105
3907 3427 1121
3859 3475 1137
3875 3523 1201
3827 3539 1457
3795 3571 2498
3827 3619 3507
3859 3715 3843
3971 3507 1169
3939 3571 1185
3875 3619 1233
3779 3603 1249
3779 3635 1489
3763 3651 2178
3859 3715 3042
3907 3731 3571
3891 3795 3827
4035 1105 1057
4067 1185 1473
4035 1281 2066
4035 1265 2594
4035 1217 2930
4067 1233 3218
4095 1281 3410
4019 1329 3539
4035 1425 3667
4067 1169 1281
4035 1281 1777
4019 1313 2418
4067 1281 2818
4067 1281 3090
4095 1345 3298
4067 1425 3539
4067 1537 3635
4067 1681 3731
4003 1233 897
4095 1441 2274
4067 1377 2674
4067 1409 3010
4095 1457 3234
4095 1553 3427
4067 1681 3571
4035 1873 3667
4019 2033 3747
3955 1377 689
4019 1441 1185
4095 1633 2546
4035 1649 3138
4035 1761 3346
4019 1937 3459
4003 2114 3603
4019 2354 3715
4003 2450 3763
3971 1633 640
3987 1761 624
3987 1921 865
3971 2194 2066
3987 2274 3330
3955 2434 3459
3955 2594 3587
3987 2722 3715
4003 2882 3795
3987 2114 608
3971 2354 624
3955 2546 672
3955 2674 897
3971 2722 1489
3939 2930 3427
3907 2978 3587
3955 3090 3715
3987 3218 3827
4003 2754 737
4003 2962 833
3971 3106 897
3971 3250 993
3955 3282 1073
3971 3250 1761
3891 3330 3218
3939 3378 3635
3971 3475 3859
4019 3266 1009
3987 3394 1089
3971 3459 1105
3939 3507 1153
3891 3539 1265
3875 3571 1569
3891 3603 2434
3939 3619 3250
3955 3731 3875
3971 3603 1201
3907 3635 1233
3859 3667 1281
3843 3651 1537
3827 3699 2194
3891 3715 2898
3939 3731 3410
3955 3779 3699
3939 3827 3843
