其他预设/【236】赛博朋克风调色预设/【后期菌】视频调色预设/3DL/Miami 10.3dl
# LUT by SparkleStock. Enhanced with VOXCOLOR algorithms.
0 256 512 768 1023
80 80 64
128 112 144
352 304 608
1025 849 1777
1665 1249 2306
128 176 144
192 256 272
656 785 1329
1233 1393 2146
1873 1937 2610
352 993 689
224 1553 1233
865 1745 1937
1585 2194 2450
2258 2530 2818
304 2530 1857
544 2642 2338
1233 2642 2578
2114 2722 2802
2642 2882 3010
1249 2994 2498
1729 3042 2754
2082 3042 2914
2450 3058 3026
2754 3058 3122
576 224 224
624 256 336
1249 512 897
2194 1057 2162
2546 1537 2706
1985 656 592
2178 785 1089
1393 1281 1937
1889 1873 2498
2466 2306 2850
1329 929 288
737 1937 1825
1505 2178 2322
2242 2514 2738
2706 2770 3042
2482 1905 400
1457 2802 2482
2001 2802 2754
2514 2850 2914
2882 2978 3138
2914 2402 464
2946 2754 1137
2610 3090 2978
2738 3106 3042
2962 3122 3154
2274 640 624
2354 721 961
2530 913 1553
2626 1073 1969
2818 1441 2402
2610 865 913
2818 1137 1745
2914 1377 2162
2882 1793 2498
3090 2354 2994
2514 1233 480
2770 1681 1313
2818 2274 2546
2738 2738 2978
2946 2898 3154
2914 1873 448
2930 2033 496
2562 2930 2866
2818 2962 3010
3026 3042 3186
3042 2274 464
3106 2386 544
3154 2770 1441
3026 3186 3138
3106 3202 3234
2610 753 849
2802 945 1505
2930 1153 1953
2978 1393 2290
3042 1745 2610
2802 1105 1185
2978 1329 1985
3042 1649 2338
3106 2017 2658
3170 2354 2882
2818 1409 544
2930 1921 1473
3058 2306 2642
3170 2578 2898
3234 2802 3138
3138 1937 464
3122 2082 496
3106 2258 833
3042 2994 2962
3202 3154 3266
3202 2290 464
3202 2434 592
3234 2642 1057
3266 3154 2690
3250 3266 3282
2802 913 1041
3010 1169 1809
3090 1361 2194
3154 1681 2498
3202 2001 2754
2882 1345 1009
3106 1633 2226
3154 1921 2530
3218 2242 2786
3250 2482 2946
3010 1537 608
3090 1873 1041
3186 2482 2770
3218 2674 2946
3330 2850 3138
3234 1985 528
3234 2146 576
3234 2338 913
3250 2978 2930
3362 3138 3282
3298 2402 528
3330 2642 1025
3346 3058 2338
3362 3250 3026
3394 3362 3346
