其他预设/【236】赛博朋克风调色预设/【后期菌】视频调色预设/3DL/Miami 05.3dl
# LUT by SparkleStock. Enhanced with VOXCOLOR algorithms.
0 256 512 768 1023
64 64 128
176 224 560
336 384 1201
496 480 2066
785 560 2786
192 528 576
304 753 1009
528 1041 1857
833 1217 2770
1153 1169 3282
352 1441 1345
464 1713 1745
689 2033 2498
1089 2354 3154
1601 2386 3523
480 2690 2274
592 2802 2578
833 2978 2882
1329 3170 3330
1889 3234 3651
737 3362 2834
945 3443 3090
1169 3475 3266
1553 3539 3410
2098 3587 3619
817 208 640
769 240 1137
929 288 1729
1153 416 2546
1489 592 3218
2306 576 913
2514 560 1569
929 1265 2466
1265 1409 3106
1777 1377 3507
897 1233 753
721 2114 2210
1057 2466 2818
1649 2562 3378
2274 2418 3651
1697 2130 753
913 3058 2770
1265 3170 3074
1825 3266 3427
2546 3298 3667
1857 3010 1281
1665 3362 2402
1665 3603 3378
2082 3603 3459
2754 3635 3635
2882 368 865
2978 320 1329
3026 336 1905
3058 352 2594
3250 368 3250
3459 624 1201
3603 576 1969
3619 592 2690
3410 785 3218
3138 865 3651
2946 1393 352
3491 1585 1489
3362 1633 2994
2418 2578 3491
2690 2434 3667
3218 2322 400
3186 2626 624
1873 3378 3218
2562 3378 3475
3026 3314 3683
3250 3106 769
3202 3234 1217
3026 3378 2098
2962 3667 3587
3250 3699 3715
3603 400 1185
3651 368 1761
3667 336 2482
3715 352 3106
3715 384 3475
3763 817 1457
3779 608 2338
3811 640 3010
3779 737 3378
3779 817 3635
3555 1473 432
3715 1777 1585
3827 1377 3186
3763 1537 3459
3667 1777 3651
3715 2466 432
3651 2786 608
3667 2994 1233
3443 3362 3330
3427 3410 3747
3683 3234 624
3667 3410 1169
3619 3475 1729
3603 3619 2914
3635 3779 3779
3843 544 1313
3859 432 2050
3875 416 2850
3875 400 3362
3859 416 3619
3843 1025 1233
3875 737 2530
3891 769 3170
3859 801 3507
3875 881 3699
3779 1601 624
3811 1953 1329
3859 1537 3282
3843 1601 3539
3827 1745 3683
3859 2578 592
3843 2930 865
3827 3154 1377
3731 3170 3090
3811 3106 3763
3859 3427 929
3827 3555 1681
3763 3635 2578
3843 3779 3475
3875 3875 3891
