其他预设/【236】赛博朋克风调色预设/【后期菌】视频调色预设/3DL/Miami 02_S.3dl
# LUT by SparkleStock. Enhanced with VOXCOLOR algorithms.
0 256 512 768 1023
96 32 48
192 160 432
336 384 1105
592 624 2226
1041 1057 3058
176 384 416
304 592 801
576 977 1921
977 1521 2962
1441 2050 3394
368 1217 1137
496 1553 1633
785 2194 2706
1265 2738 3250
1937 2962 3523
560 2786 2290
785 2946 2706
1233 3202 3122
1969 3346 3475
2594 3443 3635
1137 3427 2978
1521 3523 3250
1953 3555 3378
2482 3571 3507
2930 3619 3651
721 192 464
689 256 881
865 384 1601
1153 624 2578
1649 1345 3298
2162 592 624
2050 689 1217
993 1313 2498
1473 1985 3234
2114 2322 3491
849 1057 528
817 2082 2033
1169 2594 2882
1921 3010 3427
2674 3122 3619
1569 2017 528
1217 3218 2914
1825 3330 3266
2450 3427 3491
2962 3475 3651
2050 2866 672
2306 3266 1681
2610 3603 3475
2850 3587 3555
3170 3651 3683
2946 400 608
2834 368 1089
2978 464 1793
3090 672 2626
3314 1089 3266
2994 785 705
2722 865 1441
2914 993 2370
3314 1521 3234
3042 2098 3587
2610 1345 144
2722 1681 1121
2754 2033 2626
2722 3106 3555
3058 3186 3683
3090 2338 224
2994 2674 400
2482 3394 3250
2946 3475 3523
3250 3507 3715
3218 3122 416
3218 3250 705
3218 3362 1761
3298 3683 3619
3443 3715 3715
3603 560 977
3587 544 1633
3651 689 2530
3683 1025 3122
3651 1409 3443
3555 977 1025
3394 977 1681
3491 1185 2658
3715 1697 3346
3635 1969 3571
3443 1425 224
3330 1825 1201
3314 1953 2530
3507 2322 3346
3555 2818 3699
3651 2594 288
3459 2914 464
3378 3058 1233
3346 3330 3330
3523 3571 3747
3603 3266 416
3603 3427 785
3555 3491 1505
3603 3619 3058
3683 3747 3763
3779 817 1265
3811 801 2178
3843 1041 2962
3811 1329 3362
3779 1585 3555
3779 1265 1025
3827 1329 2594
3843 1521 3010
3779 1825 3443
3763 2162 3619
3731 1553 400
3843 1985 1009
3843 2114 2626
3811 2338 3346
3731 2818 3715
3827 2738 400
3859 3042 672
3907 3090 1393
3859 3186 3170
3827 3443 3811
3763 3459 640
3763 3555 1457
3779 3683 2578
3843 3779 3507
3843 3827 3859
