其他预设/【236】赛博朋克风调色预设/【后期菌】视频调色预设/3DL/Miami 08_S.3dl
# LUT by SparkleStock. Enhanced with VOXCOLOR algorithms.
0 128 256 384 512 640 768 896 1023
0 0 16
128 48 256
128 144 448
224 288 817
352 336 1233
448 448 1745
608 496 2258
785 544 2642
929 576 2962
128 240 288
112 304 416
240 464 753
336 592 1153
480 721 1665
576 721 2098
721 801 2530
897 817 2898
1089 865 3170
160 544 544
240 672 769
304 801 1025
464 1009 1553
624 1185 2114
833 1313 2626
993 1345 2946
1137 1345 3218
1201 1281 3427
272 1041 961
384 1265 1265
512 1425 1601
608 1617 2050
753 1729 2514
929 1777 2882
1169 1905 3154
1313 1905 3346
1521 1873 3555
416 1713 1553
480 1889 1809
528 1953 1985
721 2178 2418
849 2258 2738
1041 2402 3058
1265 2450 3282
1457 2466 3475
1681 2434 3587
496 2370 2050
608 2514 2306
689 2578 2434
849 2690 2690
1041 2786 2946
1201 2866 3202
1409 2834 3394
1617 2834 3539
1841 2882 3635
624 2882 2466
721 2962 2626
817 2962 2706
977 3042 2898
1169 3106 3074
1409 3154 3298
1649 3202 3475
1809 3202 3587
2098 3250 3667
801 3234 2658
881 3266 2834
1009 3282 2962
1185 3314 3138
1313 3298 3170
1553 3346 3314
1793 3410 3475
1985 3410 3603
2274 3427 3667
1009 3410 2946
1153 3475 3090
1281 3491 3218
1393 3491 3266
1601 3539 3346
1825 3507 3427
2114 3555 3507
2354 3571 3603
2530 3603 3667
336 64 304
304 96 448
336 160 705
448 224 1041
576 304 1537
640 464 2033
801 576 2482
977 608 2834
1137 672 3138
737 288 656
785 320 945
576 416 1105
576 608 1489
656 849 1969
785 865 2434
929 913 2770
1121 945 3090
1281 993 3330
897 608 961
560 785 1057
608 993 1441
705 1185 1937
833 1329 2434
1025 1425 2818
1137 1409 3074
1345 1441 3346
1521 1409 3555
656 1041 1009
608 1489 1537
705 1617 1841
769 1729 2274
993 1905 2754
1153 1937 3026
1377 2033 3266
1585 1985 3459
1761 1969 3635
737 1681 1409
656 2130 2082
801 2242 2322
913 2370 2610
1073 2466 2914
1281 2530 3170
1537 2546 3410
1681 2530 3539
1969 2482 3635
945 2033 1281
753 2626 2466
849 2722 2578
1105 2866 2866
1249 2898 3074
1457 2930 3266
1649 2930 3427
1873 2946 3587
2194 2930 3683
1185 2658 1617
929 3042 2658
993 3074 2818
1233 3122 3026
1409 3170 3138
1665 3202 3330
1841 3218 3459
2082 3234 3603
2354 3250 3667
1345 3074 1841
1185 3266 2706
1265 3346 3042
1489 3394 3218
1601 3394 3250
1873 3410 3378
2114 3443 3475
2322 3459 3619
2530 3459 3683
1601 3266 2033
1553 3314 2642
1537 3491 3138
1697 3571 3330
1921 3571 3410
2098 3555 3443
2370 3571 3507
2578 3603 3603
2738 3603 3667
945 176 656
865 176 833
881 208 1169
897 256 1393
1073 288 1857
1169 368 2322
1281 464 2690
1313 592 3042
1473 624 3298
1777 384 977
1697 432 1169
1649 448 1441
1537 512 1857
1457 608 2306
1377 705 2690
1249 1057 3042
1409 1089 3266
1553 1089 3443
2258 721 993
2290 721 1281
2098 721 1553
1329 1041 2178
1137 1377 2610
1249 1553 2978
1457 1617 3266
1569 1553 3443
1713 1537 3603
1937 1217 897
1649 1409 1393
1137 1601 1905
1233 1697 2402
1233 1985 2770
1393 2098 3122
1681 2146 3394
1857 2114 3539
1937 2017 3651
1201 1585 833
1041 2082 1665
945 2306 2194
1089 2434 2514
1265 2578 2914
1537 2690 3266
1793 2610 3475
2050 2626 3603
2290 2562 3683
1681 2017 833
1313 2610 1841
1073 2834 2658
1281 2914 2866
1505 2994 3154
1681 3026 3330
1937 3042 3491
2242 3042 3635
2450 2994 3715
1937 2354 785
1553 2834 1793
1281 3202 2914
1441 3218 3074
1729 3266 3250
1937 3250 3378
2194 3298 3539
2418 3314 3635
2610 3298 3715
1985 2738 945
1857 3090 1777
1601 3282 2770
1681 3443 3234
1905 3443 3298
2114 3443 3378
2354 3475 3491
2578 3507 3619
2754 3491 3683
2130 2962 1025
2194 3218 1537
2226 3314 2146
1985 3539 3218
2226 3603 3459
2434 3603 3507
2578 3587 3539
2818 3619 3635
2946 3651 3715
1969 256 881
2017 272 1137
1969 256 1377
2017 304 1681
1969 304 2066
2082 368 2386
2274 400 2834
2370 416 3122
1985 512 3346
2578 448 993
2434 448 1137
2354 464 1409
2386 464 1761
2530 496 2194
2402 576 2786
2226 721 3138
2082 817 3378
2098 849 3507
2690 769 961
2514 737 1185
2402 753 1457
2434 801 1873
2226 865 2450
2226 1025 2994
2194 1281 3346
1857 1585 3507
1953 1617 3619
2578 1217 753
2482 1233 1105
2418 1121 1553
2402 1217 2050
1697 1745 2690
1745 2066 3170
1905 2226 3459
2098 2210 3587
2178 2098 3667
2082 1665 336
1969 1905 785
1857 2066 1569
1521 2306 2322
1697 2386 2818
1761 2610 3266
2098 2706 3507
2354 2690 3651
2466 2578 3667
2514 2098 480
2306 2210 592
1761 2626 1729
1553 2930 2722
1697 2994 3058
1953 3090 3394
2242 3074 3539
2514 3042 3651
2706 3026 3731
2658 2370 544
2658 2546 785
2306 2866 1665
1713 3298 3090
1937 3314 3250
2226 3314 3427
2418 3346 3539
2706 3346 3667
2834 3314 3731
2706 2706 689
2690 2802 881
2418 3106 1681
2146 3410 3058
2082 3491 3234
2434 3475 3427
2594 3507 3507
2786 3571 3635
2946 3539 3715
2706 2978 865
2722 3074 1073
2706 3170 1377
2770 3298 1873
2482 3571 3330
2658 3603 3539
2882 3635 3603
3026 3635 3651
3106 3651 3731
2834 304 1041
2786 272 1185
2738 240 1425
2738 272 1729
2834 304 2098
2978 368 2530
2866 384 2882
2962 400 3170
3042 384 3410
3026 480 1057
2818 464 1185
2722 464 1425
2770 448 1809
2914 448 2306
3154 496 2770
3330 528 3122
3266 576 3330
3234 544 3571
2962 817 961
2770 769 1217
2722 769 1521
2722 785 1873
2914 801 2450
3170 785 2930
3122 961 3346
2866 1057 3571
2754 1121 3667
2898 1249 785
2738 1281 1105
2738 1153 1585
2738 1201 2017
2882 1217 2530
2898 1409 3106
2866 1569 3491
2802 1825 3651
2466 2178 3683
2594 1665 288
2530 1793 528
2690 1841 1297
2802 1681 2098
2722 1921 2722
2354 2402 3250
2482 2722 3587
2578 2738 3667
2658 2658 3715
2834 2017 304
2754 2210 480
2706 2370 753
2722 2594 1681
2274 2946 3058
2546 2994 3410
2530 3106 3571
2770 3106 3667
2898 3074 3747
3090 2402 448
3042 2594 576
3058 2722 849
2786 2946 1585
2306 3346 3234
2546 3378 3459
2658 3410 3571
2914 3378 3667
3058 3346 3731
3154 2802 528
3154 2914 721
3202 3058 1009
3138 3090 1329
2738 3459 3138
2658 3539 3443
2914 3571 3571
3058 3587 3667
3154 3571 3747
3202 3090 721
3218 3154 881
3202 3234 1137
3154 3298 1553
3074 3378 2033
2962 3635 3443
3090 3667 3635
3170 3667 3667
3282 3731 3747
3282 304 1169
3234 272 1313
3234 256 1569
3250 272 1889
3346 304 2322
3427 320 2706
3410 352 3058
3410 400 3282
3443 400 3475
3298 496 1137
3202 464 1297
3106 464 1553
3106 448 1905
3250 448 2434
3443 464 2898
3555 528 3234
3571 592 3443
3571 576 3603
3266 881 1105
3106 785 1281
3058 801 1585
3074 801 1969
3170 801 2466
3459 833 3042
3619 833 3346
3619 865 3475
3571 913 3635
3218 1313 849
3058 1329 1137
3074 1201 1633
3090 1185 2066
3202 1217 2594
3443 1185 3106
3603 1281 3427
3394 1505 3603
3234 1569 3715
3026 1649 304
2946 1793 544
2994 1873 1297
3074 1681 2066
3138 1745 2626
3378 1809 3138
3218 2066 3491
3138 2322 3667
3122 2450 3747
3234 2033 320
3138 2242 496
3074 2354 753
3170 2402 1409
3234 2562 1937
2946 2834 3266
2818 3042 3507
2946 3154 3667
3090 3138 3747
3410 2450 368
3346 2594 448
3346 2786 689
3330 2914 993
3106 3106 1937
2818 3298 3250
2962 3346 3555
3090 3410 3683
3234 3410 3747
3443 2834 432
3443 2994 624
3475 3090 881
3443 3218 1169
3234 3314 1857
3058 3539 3218
3074 3587 3555
3250 3619 3715
3330 3619 3779
3475 3154 608
3491 3234 801
3475 3298 1041
3443 3378 1297
3394 3410 1633
3346 3475 2322
3298 3715 3587
3427 3747 3747
3459 3763 3779
3571 368 1329
3555 320 1553
3539 304 1761
3539 288 2114
3651 304 2578
3667 320 2930
3683 336 3218
3667 336 3410
3667 384 3555
3619 576 1377
3507 496 1489
3459 496 1745
3539 496 2226
3571 480 2642
3667 496 3058
3715 512 3298
3715 592 3507
3683 624 3619
3555 977 1249
3475 833 1489
3427 817 1713
3459 833 2178
3539 801 2690
3667 817 3122
3747 865 3427
3747 945 3571
3715 1025 3651
3507 1377 1041
3410 1361 1265
3427 1249 1761
3410 1265 2146
3475 1249 2658
3603 1249 3154
3651 1297 3427
3715 1425 3587
3683 1489 3667
3410 1681 432
3378 1825 624
3314 1889 1345
3346 1729 2066
3394 1729 2578
3491 1777 3090
3571 1809 3394
3603 1953 3603
3539 2130 3715
3539 2033 432
3491 2242 560
3410 2418 817
3330 2434 1345
3346 2466 1825
3346 2450 3026
3410 2482 3394
3346 2722 3651
3378 2930 3763
3651 2466 432
3635 2642 528
3491 2802 689
3410 2914 993
3410 2962 1505
3410 3106 2194
3298 3298 3346
3250 3427 3635
3410 3475 3795
3635 2866 368
3619 3042 528
3571 3202 817
3491 3298 1249
3443 3330 1537
3394 3443 2290
3346 3587 3410
3459 3651 3683
3539 3651 3795
3651 3170 560
3651 3298 865
3635 3394 1249
3603 3443 1537
3555 3491 1825
3555 3571 2290
3571 3635 2978
3571 3763 3731
3635 3779 3811
3731 528 1457
3763 384 1745
3747 352 2066
3763 320 2434
3795 304 2770
3779 304 3106
3795 368 3346
3795 352 3539
3811 400 3651
3779 721 1617
3795 608 1777
3763 512 2066
3779 496 2450
3811 496 2898
3795 528 3218
3811 560 3427
3795 576 3587
3811 656 3683
3763 1201 1393
3763 865 1777
3763 817 2066
3763 817 2434
3811 833 2946
3811 849 3282
3779 881 3459
3811 977 3619
3795 1057 3715
3747 1505 1297
3731 1457 1553
3731 1329 1889
3747 1281 2386
3747 1297 2738
3763 1313 3122
3763 1345 3427
3779 1409 3635
3763 1521 3715
3651 1713 624
3667 1889 801
3635 1953 1329
3651 1761 2146
3667 1777 2610
3683 1809 3026
3683 1841 3346
3683 1889 3587
3763 2050 3683
3731 2050 576
3715 2242 689
3651 2386 865
3635 2450 1409
3635 2514 1809
3619 2354 2946
3635 2402 3346
3667 2530 3651
3651 2770 3795
3779 2450 496
3747 2658 576
3683 2834 753
3635 2946 1089
3635 2994 1489
3651 3058 2178
3635 3090 3202
3651 3090 3651
3619 3330 3795
3779 2978 464
3779 3202 737
3731 3314 1073
3667 3394 1489
3651 3410 1809
3651 3459 2226
3651 3539 2802
3651 3635 3571
3667 3715 3827
3779 3298 721
3747 3394 1185
3747 3491 1633
3683 3555 1873
3683 3635 2322
3667 3667 2722
3715 3731 3234
3779 3795 3683
3779 3827 3875
3811 705 1537
3827 544 1825
3843 448 2146
3843 352 2546
3891 352 2898
3875 336 3170
3875 352 3410
3843 352 3555
3875 368 3683
3827 865 1697
3827 721 2033
3827 592 2386
3891 560 2754
3875 512 3058
3843 560 3266
3875 576 3475
3843 624 3619
3875 705 3731
3795 1393 1409
3875 993 2226
3891 849 2450
3907 865 2802
3891 865 3058
3891 897 3298
3843 913 3507
3843 993 3635
3827 1057 3715
3683 1505 817
3795 1617 1665
3891 1409 2258
3939 1313 2626
3923 1329 2834
3923 1393 3154
3891 1409 3443
3843 1505 3635
3811 1585 3683
3763 1745 737
3795 1889 881
3827 1985 1297
3891 1985 1921
3923 1825 2658
3891 1841 3026
3875 1889 3378
3827 1985 3619
3779 2146 3683
3811 2033 640
3843 2226 753
3891 2418 977
3907 2514 1393
3923 2546 1873
3875 2450 2930
3827 2434 3314
3795 2546 3635
3763 2738 3763
3843 2482 576
3891 2722 705
3891 2866 897
3923 2962 1249
3923 3026 1617
3891 3058 2226
3843 3090 3090
3795 3074 3635
3811 3234 3827
3875 2994 592
3843 3218 881
3875 3330 1217
3891 3427 1553
3891 3427 1873
3891 3475 2354
3843 3555 2866
3875 3619 3378
3827 3667 3843
3827 3410 1137
3795 3475 1665
3811 3555 2017
3779 3635 2322
3811 3747 2754
3811 3779 3154
3875 3811 3555
3875 3843 3779
3875 3875 3891
