其他预设/【236】赛博朋克风调色预设/【后期菌】视频调色预设/3DL/Miami 03_S.3dl
# LUT by SparkleStock. Enhanced with VOXCOLOR algorithms.
0 128 256 384 512 640 768 896 1023
384 176 320
400 176 352
416 208 448
464 288 640
560 432 1057
737 721 1745
945 1073 2498
1137 1377 2834
1409 1665 3074
416 208 368
400 208 416
464 288 576
496 400 865
656 640 1457
833 945 2162
1025 1297 2690
1297 1665 3010
1569 2001 3186
416 256 432
464 320 560
496 384 672
592 592 1137
785 977 1889
1009 1393 2610
1281 1777 2994
1537 2210 3202
1825 2450 3314
480 480 576
528 592 753
576 785 1073
721 1105 1633
977 1521 2466
1233 1969 2946
1537 2402 3186
1857 2626 3314
2194 2834 3427
528 1009 913
624 1249 1233
672 1457 1537
961 1889 2322
1249 2290 2866
1601 2674 3186
1969 2882 3330
2322 3026 3427
2658 3122 3459
656 1857 1425
881 2226 1873
1057 2498 2322
1377 2738 2802
1681 2914 3122
2098 3106 3314
2386 3170 3410
2738 3234 3459
2978 3298 3523
1057 2722 1969
1313 2866 2450
1537 2978 2754
1857 3106 3058
2194 3218 3218
2498 3282 3346
2802 3346 3459
2978 3394 3507
3202 3427 3571
1569 3090 2402
1825 3186 2690
2098 3234 2914
2434 3314 3186
2546 3330 3250
2738 3362 3330
2962 3443 3443
3106 3459 3523
3282 3475 3539
2162 3282 2690
2466 3346 2962
2658 3394 3138
2770 3410 3218
2978 3443 3330
3090 3459 3410
3234 3507 3459
3314 3523 3523
3410 3539 3571
416 208 368
432 224 416
464 256 496
512 320 705
640 480 1169
849 817 1985
1089 1217 2642
1313 1505 2914
1617 1841 3090
528 256 464
560 272 544
528 320 656
624 496 1121
785 801 1713
993 1153 2450
1217 1505 2850
1537 1905 3090
1889 2290 3218
576 320 528
528 384 656
576 512 897
721 817 1505
929 1217 2290
1169 1585 2770
1425 1969 3058
1841 2402 3234
2274 2658 3362
576 448 576
592 785 945
672 1025 1345
817 1297 1937
1185 1841 2754
1425 2194 3026
1793 2578 3250
2210 2802 3346
2578 2978 3475
592 961 785
737 1521 1457
913 1873 2017
1169 2226 2610
1505 2610 3026
1873 2834 3234
2290 3010 3362
2610 3090 3427
2898 3202 3507
721 1569 1009
1041 2418 2130
1297 2674 2546
1681 2914 3010
1985 3026 3202
2322 3122 3330
2642 3218 3410
2914 3250 3475
3122 3330 3539
897 2466 1313
1409 2882 2242
1761 3074 2834
2162 3202 3106
2418 3250 3234
2722 3282 3362
2914 3346 3443
3106 3394 3523
3282 3427 3555
1201 2898 1313
1713 3090 2066
2322 3282 2914
2674 3346 3218
2754 3362 3250
2946 3427 3362
3090 3443 3427
3202 3475 3523
3362 3475 3539
1761 3138 1249
2114 3186 1633
2754 3362 2898
3010 3427 3250
3138 3459 3330
3218 3475 3362
3314 3507 3443
3410 3523 3523
3507 3539 3571
576 240 432
576 256 496
608 304 624
656 336 817
881 544 1297
1089 817 1889
1409 1153 2466
1633 1553 2866
2082 2001 3122
1025 336 448
1057 384 576
1057 464 817
1121 576 1233
1233 817 1761
1457 1169 2418
1537 1713 2946
1841 2098 3106
2322 2466 3282
1633 448 416
1857 576 656
1633 656 977
1137 929 1681
1153 1377 2450
1393 1793 2898
1777 2306 3170
2242 2610 3298
2610 2786 3410
1297 576 464
1105 801 769
977 1185 1441
1169 1537 2178
1329 1969 2690
1665 2418 3106
2178 2770 3314
2562 2962 3394
2850 3058 3475
897 929 640
817 1409 961
1073 2066 1985
1329 2386 2498
1665 2658 2946
2210 2962 3282
2626 3090 3410
2914 3202 3475
3122 3250 3539
1377 1761 945
1009 2194 1153
1537 2834 2642
1857 2962 2914
2274 3122 3202
2578 3186 3346
2850 3250 3427
3122 3330 3523
3282 3362 3555
1841 2578 1057
1441 2738 1217
2066 3122 2754
2386 3202 3090
2690 3298 3282
2898 3314 3362
3106 3394 3459
3234 3410 3523
3394 3443 3555
2386 3026 1057
2050 3090 1137
2306 3186 2178
2802 3346 3170
2978 3410 3282
3090 3427 3346
3202 3443 3427
3330 3475 3523
3475 3507 3555
2722 3218 1057
2786 3298 1073
2802 3298 1137
3122 3410 2994
3298 3475 3330
3346 3507 3394
3410 3507 3427
3507 3539 3507
3555 3555 3555
1265 320 384
1313 352 496
1313 384 737
1377 480 1057
1489 640 1441
1681 881 1889
2274 1201 2402
2610 1441 2674
2642 1953 3058
2306 416 352
2098 464 544
2098 528 865
2130 640 1297
2322 833 1729
2386 1153 2290
2562 1569 2738
2754 2066 3058
2882 2466 3234
2514 576 336
2322 705 689
2194 801 1089
2274 945 1537
2114 1137 2082
2402 1505 2626
2754 2210 3058
2658 2738 3330
2866 2882 3427
2450 721 320
2322 913 576
2290 1137 1281
2242 1297 1713
1761 1793 2498
2082 2450 3074
2530 2898 3330
2914 3074 3443
3058 3090 3507
1761 1121 480
1601 1393 624
1537 1697 1201
1601 2226 2210
1969 2498 2754
2402 2898 3218
2882 3170 3427
3138 3234 3507
3250 3282 3539
2354 1825 737
2178 2050 737
1553 2498 1073
2066 2898 2690
2418 3074 3058
2850 3234 3346
3058 3298 3443
3250 3330 3507
3394 3394 3555
2658 2642 929
2690 2802 945
2434 2978 1057
2642 3234 2978
2882 3298 3234
3090 3346 3362
3234 3394 3443
3410 3443 3523
3459 3443 3539
2962 3058 961
2978 3090 961
2834 3218 1025
3058 3330 2770
3090 3362 3106
3234 3443 3346
3330 3459 3410
3443 3475 3523
3523 3507 3539
3202 3282 977
3218 3314 977
3234 3346 977
3314 3362 1105
3394 3443 3186
3443 3507 3394
3523 3539 3459
3555 3539 3507
3571 3539 3539
2642 400 336
2578 384 464
2498 416 737
2514 528 1137
2610 721 1537
2802 993 1985
2786 1217 2338
3010 1505 2674
3170 1841 2914
2850 480 368
2642 512 624
2546 576 1025
2610 689 1441
2754 897 1905
2978 1153 2306
3218 1553 2658
3234 1857 2882
3330 2306 3138
2754 640 336
2578 817 817
2530 897 1185
2530 993 1585
2690 1201 2130
2978 1425 2530
3202 2066 2978
3282 2546 3234
3314 2834 3410
2754 801 288
2546 1025 656
2546 1249 1329
2546 1377 1729
2674 1537 2226
2946 2001 2834
3234 2610 3202
3394 3010 3410
3234 3170 3523
2562 1185 400
2450 1393 512
2578 1457 929
2626 1793 1889
2690 2210 2514
2834 2786 3122
3186 3218 3459
3314 3314 3539
3394 3330 3555
2850 1729 592
2690 2082 656
2626 2242 801
2610 2562 1249
2770 3010 2962
3122 3186 3314
3218 3298 3427
3394 3394 3523
3443 3410 3555
3122 2642 849
3026 2786 849
3026 2898 897
2898 3026 977
3090 3330 3170
3250 3394 3362
3394 3410 3459
3475 3443 3523
3523 3459 3555
3282 3074 897
3282 3122 897
3330 3218 929
3362 3234 929
3346 3394 2994
3394 3443 3314
3459 3507 3443
3523 3523 3523
3587 3523 3555
3427 3298 945
3443 3314 945
3459 3346 945
3523 3394 977
3507 3410 1345
3539 3475 3282
3587 3539 3459
3619 3539 3507
3651 3571 3539
3122 432 384
3026 416 528
3010 496 897
3058 656 1377
3122 897 1793
3186 1137 2178
3234 1409 2546
3282 1681 2802
3346 2017 3026
3074 512 416
2962 576 769
2898 656 1137
2914 769 1537
3058 1009 2050
3218 1329 2466
3346 1697 2754
3427 2098 3010
3475 2418 3186
3010 689 416
2898 833 865
2866 961 1265
2882 1089 1649
2962 1249 2162
3202 1617 2658
3443 2082 2962
3475 2402 3122
3507 2658 3298
2994 849 304
2882 1073 705
2866 1297 1377
2882 1409 1745
2962 1601 2274
3202 1937 2770
3475 2450 3122
3523 2834 3330
3507 3026 3459
2978 1185 400
2882 1409 528
2866 1521 929
2866 1793 1793
2994 2114 2418
3282 2498 2962
3410 2882 3282
3555 3202 3443
3571 3314 3539
3170 1745 576
3026 2098 656
2978 2242 769
3058 2226 993
3122 2498 1649
3234 3058 3122
3298 3218 3362
3443 3394 3507
3539 3443 3571
3362 2562 817
3298 2722 801
3314 2882 849
3282 2994 929
3202 3106 1409
3234 3298 3138
3394 3394 3394
3539 3459 3507
3587 3475 3571
3459 3026 865
3459 3122 881
3507 3202 913
3507 3314 961
3394 3346 1217
3410 3427 3058
3539 3459 3394
3587 3523 3523
3635 3523 3555
3539 3282 913
3555 3314 929
3587 3346 929
3619 3394 945
3635 3410 1041
3635 3427 1713
3651 3539 3410
3699 3571 3523
3699 3571 3539
3282 480 416
3250 512 689
3250 624 1105
3282 785 1537
3346 1073 1985
3394 1345 2386
3410 1633 2722
3427 1905 2914
3475 2274 3106
3298 576 544
3250 656 897
3218 753 1297
3282 961 1745
3330 1201 2210
3427 1537 2626
3459 1937 2882
3523 2290 3090
3523 2514 3202
3250 721 496
3234 945 1073
3202 1025 1377
3234 1201 1793
3298 1393 2306
3410 1793 2770
3539 2322 3074
3555 2578 3218
3555 2738 3330
3250 865 368
3202 1089 769
3218 1393 1457
3186 1521 1825
3234 1681 2322
3394 2066 2850
3507 2466 3138
3587 2802 3298
3587 2978 3427
3250 1153 448
3218 1393 544
3186 1601 977
3170 1889 1825
3218 2082 2338
3330 2402 2850
3443 2658 3186
3555 2962 3362
3635 3218 3459
3330 1697 608
3314 2082 656
3282 2290 769
3218 2290 1025
3234 2386 1553
3330 2786 2866
3410 2946 3202
3523 3202 3459
3651 3410 3555
3475 2498 801
3507 2722 817
3394 2850 817
3330 2914 961
3314 2914 1169
3330 3058 1857
3427 3282 3218
3539 3394 3443
3667 3523 3571
3555 2994 849
3571 3106 881
3539 3218 897
3475 3298 977
3427 3314 1105
3427 3346 1873
3523 3459 3250
3667 3523 3475
3683 3539 3555
3635 3234 913
3651 3314 913
3667 3362 929
3667 3427 977
3635 3459 1185
3667 3475 1745
3683 3507 2802
3699 3555 3507
3747 3587 3539
3346 512 480
3346 624 817
3394 785 1297
3410 993 1713
3443 1265 2178
3459 1521 2546
3523 1873 2850
3539 2210 3058
3571 2466 3202
3394 640 672
3427 785 1089
3459 913 1473
3475 1137 1937
3507 1457 2402
3523 1841 2770
3539 2162 2978
3555 2434 3170
3619 2674 3298
3427 753 496
3459 1041 1265
3507 1217 1633
3523 1377 2050
3523 1649 2546
3539 2050 2882
3571 2354 3106
3619 2690 3282
3651 2802 3362
3427 897 480
3459 1185 945
3507 1441 1553
3475 1649 2066
3523 1825 2434
3539 2098 2850
3555 2402 3122
3651 2834 3330
3635 2994 3427
3394 1105 512
3443 1377 576
3459 1585 817
3475 2001 1905
3523 2178 2402
3539 2354 2802
3555 2578 3138
3619 2898 3394
3667 3202 3443
3443 1617 656
3475 1985 689
3475 2210 753
3507 2306 1089
3507 2434 1537
3539 2690 2786
3571 2850 3170
3635 3090 3427
3699 3362 3555
3523 2434 785
3539 2658 769
3539 2834 817
3539 2898 993
3555 2946 1217
3555 2978 1889
3587 3138 3090
3635 3298 3427
3731 3475 3555
3635 3010 849
3651 3170 897
3619 3234 881
3619 3314 1041
3587 3330 1313
3587 3346 1665
3635 3410 2626
3667 3475 3394
3747 3571 3555
3667 3250 897
3683 3314 913
3731 3410 977
3683 3459 1137
3667 3523 1601
3683 3507 2290
3683 3523 2978
3763 3571 3410
3763 3587 3555
3394 576 496
3394 689 881
3427 881 1377
3459 1137 1873
3507 1409 2306
3507 1649 2642
3555 2050 2946
3555 2306 3106
3587 2546 3234
3394 721 705
3427 881 1185
3475 1121 1665
3539 1409 2210
3523 1665 2578
3539 1969 2834
3587 2274 3074
3587 2530 3202
3635 2754 3314
3410 737 464
3475 1249 1617
3539 1393 1953
3571 1617 2386
3619 1793 2626
3619 2114 2898
3619 2498 3170
3635 2754 3282
3651 2898 3394
3410 817 464
3427 1137 865
3635 1601 1841
3683 1857 2306
3731 1969 2530
3731 2178 2866
3699 2466 3186
3651 2866 3362
3651 3026 3443
3443 1153 544
3507 1361 576
3635 1601 753
3699 1969 1649
3779 2274 2450
3779 2402 2850
3747 2610 3170
3699 2882 3394
3683 3218 3459
3507 1633 656
3587 1969 656
3683 2210 769
3763 2338 1057
3763 2434 1601
3811 2722 2770
3795 2834 3138
3747 3058 3443
3731 3346 3555
3555 2402 753
3651 2674 753
3747 2802 817
3795 2882 1009
3811 2914 1281
3795 2962 1969
3795 3106 3010
3763 3282 3410
3779 3459 3571
3667 2994 849
3683 3106 865
3763 3218 881
3811 3314 1073
3811 3330 1377
3811 3362 1841
3779 3362 2562
3779 3459 3202
3747 3555 3555
3699 3298 897
3747 3346 929
3763 3427 1137
3763 3507 1553
3763 3539 2178
3779 3555 2834
3763 3571 3250
3763 3571 3459
3779 3587 3571
