其他预设/【236】赛博朋克风调色预设/【后期菌】视频调色预设/3DL/Miami 09.3dl
# LUT by SparkleStock. Enhanced with VOXCOLOR algorithms.
0 128 256 384 512 640 768 896 1023
288 48 64
336 64 144
368 80 256
400 112 432
432 128 833
400 128 1601
432 96 2498
496 48 3090
656 32 3459
352 128 144
336 144 192
384 208 352
400 224 640
384 256 1281
384 224 2066
384 176 2786
480 112 3298
656 96 3603
352 256 176
352 288 288
352 336 448
384 400 897
368 496 1793
432 496 2642
464 480 3138
608 448 3491
801 432 3683
368 528 288
400 624 448
384 737 817
352 913 1473
336 1073 2242
416 1073 2882
576 1185 3218
769 1233 3410
1073 1233 3603
432 1105 352
432 1281 721
400 1409 1121
320 1729 1921
304 1905 2514
416 2033 2914
640 2098 3154
1041 2146 3330
1361 2178 3394
432 1937 608
432 2290 1137
400 2482 1681
384 2658 2258
432 2786 2722
592 2930 2978
881 2882 3138
1281 2850 3218
1697 2850 3298
448 2882 1057
480 3026 1633
528 3106 2050
608 3218 2434
737 3330 2754
977 3378 2930
1313 3362 3090
1633 3298 3170
2017 3266 3234
608 3394 1585
721 3443 1921
865 3475 2242
1009 3523 2514
1121 3523 2706
1393 3587 2882
1697 3619 2994
1953 3571 3090
2258 3523 3154
977 3635 1873
1233 3667 2114
1393 3667 2338
1489 3667 2482
1697 3699 2674
1889 3715 2786
2146 3747 2898
2386 3731 3010
2530 3731 3090
416 64 144
448 80 224
480 80 304
528 80 496
592 96 993
496 144 1937
592 96 2770
737 48 3234
1009 48 3491
576 128 208
640 160 304
576 160 448
544 224 929
464 272 1633
480 224 2514
592 176 3042
753 144 3443
1057 192 3635
624 256 272
512 288 416
496 368 656
496 464 1329
464 576 2226
560 544 2850
672 560 3218
913 624 3523
1249 592 3667
592 464 320
480 737 608
464 897 1089
416 1073 1777
496 1281 2578
624 1265 2994
865 1345 3250
1201 1393 3427
1521 1473 3507
721 1121 400
480 1537 961
464 1777 1585
432 1985 2226
480 2146 2690
689 2242 2994
1089 2290 3202
1441 2258 3266
1841 2290 3346
1105 1697 416
480 2466 1345
480 2610 1937
624 2882 2498
656 2946 2850
929 2946 2962
1345 2994 3122
1761 2914 3202
2114 2898 3250
1425 2418 528
753 3090 1489
753 3202 2210
945 3282 2514
1073 3378 2738
1377 3378 2930
1681 3378 3042
2001 3330 3138
2386 3266 3186
1713 2850 624
1233 3362 1489
1281 3491 2194
1473 3555 2546
1569 3571 2690
1857 3619 2866
2033 3619 2946
2354 3587 3058
2546 3555 3122
2050 3154 656
2001 3362 1425
1921 3635 2114
1985 3667 2530
2194 3699 2690
2306 3699 2770
2498 3715 2882
2674 3715 2978
2770 3731 3042
640 96 192
624 96 240
721 96 432
785 112 576
1073 112 1185
1217 160 1953
1425 176 2690
1489 144 3170
1681 176 3475
1137 224 288
1265 256 448
1345 256 608
1441 256 1073
1537 272 1841
1521 256 2562
1025 256 3218
1249 256 3459
1633 384 3571
1681 448 464
2082 496 737
2082 464 977
1393 480 1825
817 656 2562
833 721 3026
1073 785 3346
1345 753 3507
1681 833 3603
1473 560 416
1329 656 656
977 881 1489
1025 1121 2322
817 1393 2770
945 1457 3042
1297 1601 3234
1633 1617 3378
1937 1585 3443
1169 1073 320
1073 1441 689
576 1985 1889
656 2258 2434
801 2418 2802
1153 2418 3010
1521 2450 3170
1889 2450 3250
2258 2498 3298
1745 1809 464
1457 2194 721
769 2818 2162
945 3010 2578
1121 3090 2818
1377 3042 2962
1841 3042 3090
2226 3026 3170
2482 2962 3218
2194 2354 464
1857 2626 656
1233 3250 2114
1297 3298 2466
1633 3410 2738
1841 3394 2914
2098 3394 3010
2418 3362 3106
2674 3346 3170
2498 2802 448
2306 2994 656
1905 3378 1697
1889 3523 2466
2082 3587 2706
2258 3587 2802
2434 3619 2914
2690 3603 3026
2802 3571 3106
2642 3010 400
2658 3170 528
2658 3282 961
2514 3635 2274
2626 3699 2674
2722 3699 2770
2770 3699 2850
2946 3715 2962
3010 3731 3026
1265 240 288
1425 256 432
1505 272 608
1649 288 865
1825 240 1361
2162 208 2033
2658 240 2578
2962 272 2882
2642 304 3250
2082 496 592
2162 480 672
2338 496 865
2498 496 1265
2754 464 1761
2802 336 2450
2770 448 2914
2738 496 3202
2674 544 3394
2434 640 705
2754 656 945
2882 656 1233
3106 672 1729
2866 496 2290
2786 640 2754
2706 833 3090
1937 929 3410
2146 1089 3491
2322 689 656
2674 801 881
3202 785 1553
3202 833 2017
1921 1297 2770
1633 1649 3058
1729 1729 3218
2050 1889 3298
2258 1793 3378
1953 1105 384
1873 1361 512
1905 1745 1329
1409 2178 2482
1697 2258 2802
1617 2514 2994
2017 2562 3138
2338 2626 3218
2514 2546 3266
2306 1761 448
2338 1937 464
2033 2498 977
1393 3090 2578
1569 3138 2786
1921 3106 2946
2194 3122 3042
2546 3026 3138
2738 3026 3202
2546 2338 448
2658 2530 480
2530 2866 769
1937 3378 2402
2066 3410 2674
2242 3443 2898
2498 3427 2978
2754 3410 3090
2898 3346 3138
2802 2786 432
2818 2882 464
2754 3122 721
2626 3507 2146
2562 3555 2450
2674 3587 2770
2786 3603 2882
2930 3603 2994
3010 3571 3058
2978 3058 400
2994 3138 448
3010 3234 544
3090 3378 913
2962 3651 2498
2962 3715 2738
3090 3731 2866
3138 3731 2946
3202 3715 3010
2194 496 592
2290 496 656
2402 480 801
2546 496 1089
2738 464 1505
2994 400 2050
3138 272 2530
3378 304 2898
3475 352 3154
2738 656 785
2866 656 897
3010 656 1185
3122 656 1473
3298 576 1969
3427 480 2354
3571 448 2770
3603 496 3010
3667 608 3234
2882 737 849
3170 753 1153
3346 785 1505
3491 753 1905
3619 689 2338
3651 640 2626
3507 801 2978
3410 961 3234
3298 1153 3346
2786 769 785
3026 913 1009
3507 881 1745
3587 913 2194
3635 929 2482
3475 1217 2850
3362 1457 3106
3234 1793 3218
2690 1985 3346
2514 1073 496
2642 1217 560
3026 1281 1025
3571 1457 2210
3330 1873 2658
2610 2402 2946
2530 2706 3106
2674 2722 3202
2786 2642 3282
2658 1585 432
2706 1841 464
2706 2050 464
2786 2610 1233
2498 3042 2754
2706 3042 2914
2642 3122 3026
2866 3122 3138
2962 3090 3186
2818 2338 416
2866 2498 416
2914 2626 464
2898 2962 865
2610 3459 2642
2690 3459 2866
2850 3459 2946
2994 3427 3058
3090 3378 3122
3010 2754 368
3026 2882 400
3122 2994 464
3138 3106 592
3122 3571 2386
3010 3619 2722
3090 3651 2898
3170 3619 2978
3234 3587 3042
3170 3058 368
3202 3154 416
3250 3234 480
3330 3362 672
3298 3491 1185
3266 3699 2674
3282 3747 2882
3330 3731 2946
3378 3747 3010
2738 656 753
2850 624 817
2946 624 1025
3154 656 1361
3330 608 1793
3459 512 2226
3587 400 2642
3651 352 2946
3715 432 3170
3042 737 897
3218 721 1073
3346 737 1377
3475 721 1713
3619 656 2098
3683 560 2498
3731 512 2786
3811 592 3058
3843 689 3218
3122 849 961
3378 817 1281
3555 849 1665
3699 817 2066
3763 769 2402
3811 769 2722
3811 817 2930
3843 881 3090
3859 1137 3218
3042 881 865
3186 1025 1089
3651 977 1857
3763 1009 2226
3827 1073 2562
3811 1121 2770
3763 1297 2946
3667 1681 3138
3587 1857 3250
2818 1089 608
2930 1265 640
3170 1377 993
3699 1489 2226
3683 1681 2562
3699 1889 2754
3507 2322 2962
3459 2530 3122
3394 2658 3218
2946 1665 464
2962 1905 480
2946 2050 464
3170 2082 801
3266 2498 1441
3266 3026 2818
3026 3138 2978
3042 3186 3106
3186 3170 3170
3042 2258 416
3026 2418 400
3090 2626 416
3138 2754 464
3218 3186 1249
3122 3443 2754
3154 3443 2930
3186 3459 3010
3282 3443 3106
3138 2690 336
3170 2802 352
3234 2946 416
3298 3090 464
3362 3362 1025
3362 3619 2546
3266 3651 2866
3362 3651 2994
3394 3619 3058
3266 3010 320
3298 3138 384
3346 3202 432
3427 3330 544
3475 3443 753
3555 3619 1441
3475 3763 2786
3491 3795 2978
3507 3795 3010
3042 721 865
3138 672 945
3282 705 1201
3443 705 1569
3619 672 1969
3715 576 2354
3811 464 2754
3843 448 2978
3907 480 3170
3234 817 961
3362 769 1153
3523 801 1537
3699 817 1937
3811 721 2290
3827 640 2562
3875 608 2866
3923 689 3058
3907 801 3202
3234 881 993
3523 881 1425
3667 881 1761
3827 897 2178
3891 865 2482
3907 865 2754
3907 945 2946
3923 1073 3106
3923 1281 3202
3170 929 881
3282 1073 1121
3747 1105 1969
3907 1153 2386
3907 1169 2578
3891 1297 2802
3875 1441 2946
3875 1649 3042
3875 1857 3154
3042 1137 672
3138 1313 656
3330 1521 1057
3811 1681 2274
3859 1713 2626
3859 1953 2802
3843 2082 2914
3747 2386 3010
3715 2562 3154
3138 1633 480
3170 1905 464
3170 2098 464
3266 2194 689
3378 2306 1233
3635 2754 2722
3651 2850 2866
3603 3042 3010
3555 3138 3122
3218 2274 432
3218 2450 432
3186 2530 400
3218 2674 432
3282 2754 640
3459 3154 1441
3475 3491 2786
3394 3523 2946
3459 3475 3106
3266 2642 352
3266 2786 336
3298 2946 368
3378 3058 448
3394 3122 512
3555 3459 1521
3523 3667 2722
3523 3683 2946
3555 3667 3042
3346 2978 304
3394 3106 336
3459 3234 432
3507 3346 576
3603 3459 833
3667 3635 1521
3699 3715 2178
3635 3811 2930
3635 3811 3010
3202 801 929
3346 753 1041
3491 753 1377
3635 753 1761
3795 705 2162
3891 608 2530
3971 560 2818
4003 528 3026
4003 576 3202
3362 865 1025
3523 833 1265
3635 833 1633
3811 849 2001
3907 785 2402
3955 689 2674
3987 705 2882
3987 753 3058
4003 913 3202
3282 945 961
3619 929 1473
3811 961 1873
3907 977 2210
3971 961 2546
3987 977 2770
3987 1041 2930
4003 1217 3106
3987 1409 3186
3282 1025 913
3410 1217 1169
3731 1249 1777
3939 1297 2386
3971 1377 2642
3971 1457 2818
3939 1585 2946
3939 1729 3058
3939 1905 3138
3234 1217 705
3266 1393 656
3378 1553 865
3827 1793 2258
3891 1889 2626
3891 2017 2786
3875 2210 2882
3875 2386 2994
3923 2546 3106
3298 1665 496
3298 1889 512
3250 2050 480
3378 2178 737
3459 2386 1153
3747 2626 2674
3811 2786 2850
3843 2930 2994
3827 3122 3106
3330 2194 464
3330 2386 432
3330 2530 416
3346 2658 416
3362 2770 496
3571 2994 1361
3699 3250 2546
3747 3330 2882
3731 3459 3058
3378 2706 352
3410 2882 384
3410 2962 400
3459 3090 512
3523 3202 769
3619 3346 1185
3683 3555 1985
3699 3683 2754
3683 3699 3058
3443 2994 304
3491 3138 336
3571 3266 480
3619 3410 721
3699 3571 1393
3731 3635 1857
3763 3747 2354
3827 3827 2754
3763 3859 3026
3330 849 945
3475 801 1073
3619 801 1425
3795 801 1825
3923 753 2226
4003 640 2610
4051 560 2866
4051 544 3026
4051 656 3170
3410 913 1041
3571 833 1249
3747 865 1681
3907 865 2066
3971 801 2418
4003 769 2706
4035 801 2914
4051 865 3058
4051 1041 3186
3330 961 929
3699 977 1537
3827 961 1857
3971 1041 2258
4003 1025 2578
4003 1089 2786
4035 1169 2946
4035 1313 3090
4003 1457 3170
3218 1009 833
3378 1233 1025
3795 1345 1809
3987 1425 2450
4003 1473 2642
3987 1617 2802
3987 1729 2962
3987 1889 3042
3987 2033 3122
3346 1281 721
3362 1409 656
3427 1553 753
3651 1937 1521
3923 2017 2626
3939 2178 2786
3923 2306 2914
3923 2466 3010
3939 2610 3090
3410 1665 528
3410 1857 528
3394 2033 512
3427 2226 656
3571 2402 1233
3811 2738 2642
3827 2802 2818
3875 2914 2962
3907 3058 3090
3410 2178 464
3410 2402 448
3410 2514 448
3427 2642 480
3427 2738 576
3619 2978 1409
3747 3186 2402
3859 3282 2850
3907 3410 3058
3443 2658 368
3491 2818 400
3475 2930 432
3523 3042 544
3603 3186 817
3683 3330 1297
3747 3475 1873
3827 3603 2450
3891 3683 3026
3507 3058 320
3603 3234 480
3683 3427 769
3731 3555 1377
3763 3651 1841
3795 3715 2242
3843 3811 2610
3843 3827 2866
3843 3875 3010
