其他预设/【236】赛博朋克风调色预设/【后期菌】视频调色预设/3DL/Miami 02_S.3dl
# LUT by SparkleStock. Enhanced with VOXCOLOR algorithms.
0 128 256 384 512 640 768 896 1023
96 32 48
160 80 224
192 160 432
224 272 737
336 384 1105
448 496 1649
592 624 2226
785 801 2690
1041 1057 3058
176 192 240
160 240 368
240 384 640
320 496 977
448 640 1505
560 737 2033
753 961 2562
977 1249 2978
1249 1505 3250
176 384 416
240 496 624
304 592 801
432 785 1297
576 977 1921
753 1233 2562
977 1521 2962
1233 1809 3218
1441 2050 3394
272 721 689
336 881 913
448 1057 1233
544 1265 1745
689 1473 2418
865 1793 2850
1105 2146 3122
1329 2338 3314
1617 2546 3475
368 1217 1137
448 1457 1425
496 1553 1633
640 1857 2274
785 2194 2706
993 2546 3058
1265 2738 3250
1585 2882 3394
1937 2962 3523
432 1937 1649
496 2242 2066
608 2418 2306
785 2626 2658
993 2850 2962
1281 3042 3202
1553 3106 3378
1905 3186 3491
2322 3250 3603
560 2786 2290
672 2930 2578
785 2946 2706
977 3074 2946
1233 3202 3122
1537 3298 3330
1969 3346 3475
2274 3378 3555
2594 3443 3635
785 3234 2658
945 3298 2882
1089 3330 3042
1345 3362 3186
1505 3394 3234
1793 3394 3346
2178 3475 3459
2434 3491 3555
2738 3555 3619
1137 3427 2978
1345 3491 3138
1521 3523 3250
1649 3523 3314
1953 3555 3378
2210 3571 3459
2482 3571 3507
2706 3587 3571
2930 3619 3651
336 112 256
320 128 400
304 176 592
368 256 865
480 352 1313
560 544 1889
753 737 2466
993 961 2866
1281 1217 3186
592 256 480
608 288 689
480 368 865
496 560 1265
560 753 1761
737 913 2370
945 1153 2818
1233 1441 3170
1521 1681 3346
672 464 672
448 560 817
496 737 1105
592 945 1633
705 1153 2274
945 1441 2754
1153 1649 3074
1489 2050 3314
1809 2194 3475
496 705 689
512 1073 1169
592 1265 1521
640 1377 1969
881 1729 2674
1073 2050 2994
1313 2354 3218
1665 2530 3394
2066 2690 3555
512 1105 961
544 1681 1649
656 1905 2050
785 2194 2530
977 2498 2914
1217 2722 3138
1569 2914 3346
1921 2978 3475
2338 3042 3587
672 1425 929
608 2434 2242
753 2610 2482
1041 2866 2866
1233 2994 3090
1521 3106 3266
1857 3186 3427
2274 3234 3555
2610 3298 3635
833 2290 1345
785 3010 2546
977 3090 2850
1233 3202 3074
1457 3250 3186
1825 3314 3362
2178 3362 3459
2466 3394 3555
2754 3443 3635
1041 2930 1553
1089 3234 2562
1329 3378 3074
1617 3459 3266
1777 3427 3266
2114 3459 3362
2370 3491 3459
2690 3555 3587
2882 3555 3635
1393 3202 1601
1553 3298 2466
1745 3507 3186
2033 3555 3362
2322 3571 3459
2466 3571 3475
2690 3571 3523
2882 3603 3603
3042 3619 3651
721 192 464
689 208 608
689 256 881
689 288 1105
865 384 1601
929 464 2098
1153 624 2578
1361 961 2994
1649 1345 3298
1457 352 640
1457 400 849
1425 448 1137
1361 496 1553
1265 592 2114
1265 785 2594
1265 1361 3010
1521 1569 3234
1825 1889 3427
2162 592 624
2290 656 961
2050 689 1217
1137 897 1937
993 1313 2498
1169 1633 2946
1473 1985 3234
1809 2210 3394
2114 2322 3491
1617 865 544
1393 1073 1041
977 1361 1649
1073 1553 2274
1073 1921 2722
1265 2274 3090
1649 2578 3330
2050 2674 3459
2418 2738 3587
849 1057 528
833 1553 1249
817 2082 2033
945 2338 2434
1169 2594 2882
1537 2914 3234
1921 3010 3427
2354 3090 3571
2674 3122 3619
1313 1505 528
945 2146 1441
961 2802 2610
1233 2946 2850
1521 3106 3170
1777 3170 3314
2194 3250 3475
2562 3314 3587
2834 3314 3651
1569 2017 528
1217 2626 1345
1217 3218 2914
1457 3250 3106
1825 3330 3266
2162 3346 3362
2450 3427 3491
2706 3459 3587
2962 3475 3651
1825 2562 592
1633 3042 1297
1633 3266 2690
1841 3475 3266
2178 3491 3330
2370 3475 3378
2610 3507 3475
2866 3555 3603
3074 3587 3651
2050 2866 672
2178 3106 1009
2306 3266 1681
2434 3507 3218
2610 3603 3475
2754 3603 3507
2850 3587 3555
3058 3619 3619
3170 3651 3683
1713 304 528
1777 304 769
1729 320 1057
1825 368 1361
1857 416 1713
2033 480 2162
2466 608 2626
2706 753 2962
2322 1217 3314
2658 496 640
2450 496 849
2418 496 1137
2466 528 1489
2674 608 1937
2658 721 2498
2498 1057 3010
2450 1441 3314
2450 1809 3475
2754 721 592
2546 753 977
2434 785 1297
2466 833 1681
2338 929 2210
2402 1169 2850
2450 1713 3266
2210 2274 3427
2402 2402 3523
2626 945 416
2530 1121 833
2434 1137 1457
2434 1233 1841
1633 1729 2594
1697 2290 3106
2033 2674 3394
2466 2802 3523
2626 2786 3619
1889 1265 192
1729 1505 448
1649 1793 1313
1377 2274 2242
1633 2466 2738
1777 2834 3218
2306 3074 3491
2658 3122 3587
2850 3122 3635
2418 1697 224
2242 1889 320
1457 2450 1361
1521 2962 2722
1729 3074 3074
2146 3234 3378
2466 3298 3491
2786 3314 3603
2994 3330 3651
2562 2178 288
2562 2370 384
2050 2754 1121
1793 3346 3106
2082 3378 3266
2450 3378 3394
2722 3443 3507
2962 3491 3619
3106 3475 3683
2674 2626 352
2658 2722 448
2370 3042 1169
2450 3394 3058
2418 3491 3234
2626 3507 3443
2818 3523 3491
3058 3571 3619
3186 3587 3683
2738 2962 512
2738 3058 672
2802 3170 913
2914 3250 1505
2882 3571 3346
2962 3603 3507
3090 3635 3587
3186 3651 3619
3298 3683 3699
2946 400 608
2866 384 785
2834 368 1089
2882 400 1441
2978 464 1793
3138 576 2274
3090 672 2626
3234 881 3010
3314 1089 3266
3090 560 769
2850 544 977
2738 544 1297
2802 560 1649
2962 624 2162
3234 785 2626
3459 1041 2978
3427 1233 3218
3394 1457 3427
2994 785 705
2786 833 1105
2722 865 1441
2706 897 1809
2914 993 2370
3218 1121 2834
3314 1521 3234
3138 1825 3459
3042 2098 3587
2962 1057 480
2738 1217 929
2706 1233 1537
2722 1281 1937
2850 1377 2450
2994 1649 2994
3106 2066 3362
3074 2498 3587
2866 2850 3635
2610 1345 144
2546 1553 352
2722 1681 1121
2754 1729 2050
2754 2033 2626
2482 2674 3186
2722 3106 3555
2882 3186 3619
3058 3186 3683
2914 1729 144
2754 2017 272
2690 2194 464
2690 2562 1281
2354 3042 2994
2690 3186 3362
2754 3314 3507
3010 3362 3635
3186 3362 3699
3090 2338 224
2962 2498 304
2994 2674 400
2754 2882 1073
2482 3394 3250
2738 3443 3443
2946 3475 3523
3122 3507 3635
3250 3507 3715
3138 2818 304
3122 2930 368
3138 3058 496
3202 3122 785
2978 3475 3170
2946 3555 3459
3090 3587 3523
3218 3619 3635
3362 3619 3715
3218 3122 416
3202 3186 512
3218 3250 705
3234 3330 1137
3218 3362 1761
3218 3603 3459
3298 3683 3619
3362 3651 3651
3443 3715 3715
3394 480 785
3314 448 993
3298 448 1361
3330 480 1729
3394 560 2178
3491 689 2546
3507 849 2930
3523 1041 3170
3555 1249 3346
3346 608 897
3202 608 1169
3106 592 1457
3122 608 1841
3266 737 2402
3475 929 2850
3587 1169 3106
3603 1425 3330
3587 1569 3443
3266 881 881
3090 881 1185
3042 913 1537
3074 977 1937
3170 1057 2466
3394 1313 2962
3603 1521 3250
3587 1665 3362
3587 1857 3523
3218 1153 560
3058 1265 1025
3042 1281 1585
3058 1345 2033
3122 1457 2498
3346 1617 2994
3571 1921 3346
3475 2210 3507
3346 2402 3619
3058 1393 176
2978 1601 384
2994 1729 1121
3010 1777 2017
3106 1937 2578
3346 2162 3106
3330 2546 3427
3346 2866 3635
3346 3010 3715
3298 1857 176
3138 2114 288
3074 2274 480
3186 2418 1073
3250 2626 1761
3090 2978 3218
3010 3202 3475
3186 3378 3651
3314 3427 3731
3475 2466 224
3362 2626 304
3330 2834 400
3250 2978 592
3138 3106 1601
2962 3330 3234
3122 3427 3491
3266 3523 3651
3378 3555 3747
3459 2978 304
3427 3058 368
3443 3170 496
3394 3266 689
3234 3330 1521
3202 3507 3202
3266 3587 3523
3427 3619 3699
3491 3635 3731
3443 3186 400
3443 3266 512
3459 3346 689
3443 3378 913
3459 3427 1361
3443 3475 2210
3459 3651 3571
3507 3715 3699
3555 3731 3731
3603 560 977
3571 512 1297
3587 544 1633
3555 528 2033
3651 689 2530
3683 833 2850
3683 1025 3122
3651 1185 3298
3651 1409 3443
3603 737 1169
3523 689 1377
3459 689 1665
3507 785 2194
3587 897 2658
3651 1105 3042
3683 1345 3250
3683 1553 3394
3635 1649 3475
3555 977 1025
3459 977 1441
3394 977 1681
3427 1073 2146
3491 1185 2658
3619 1425 3090
3715 1697 3346
3683 1857 3475
3635 1969 3571
3507 1233 737
3427 1345 1153
3378 1393 1713
3346 1441 2098
3394 1537 2594
3507 1713 3090
3587 1953 3362
3651 2210 3507
3651 2354 3619
3443 1425 224
3362 1633 400
3330 1825 1201
3298 1857 2033
3314 1953 2530
3427 2146 3010
3507 2322 3346
3571 2562 3571
3555 2818 3699
3523 1921 224
3491 2210 336
3378 2418 512
3346 2498 1089
3346 2546 1713
3330 2690 3010
3394 2754 3346
3459 3042 3603
3507 3266 3731
3651 2594 288
3619 2818 352
3459 2914 464
3378 2994 737
3378 3058 1233
3394 3138 2033
3346 3330 3330
3394 3459 3603
3523 3571 3747
3603 3042 304
3587 3122 400
3523 3266 560
3459 3362 849
3394 3362 1153
3394 3427 2162
3443 3571 3378
3523 3635 3635
3587 3683 3731
3603 3266 416
3619 3362 528
3603 3427 785
3571 3459 1089
3555 3491 1505
3555 3523 2194
3603 3619 3058
3619 3715 3683
3683 3747 3763
3715 689 1153
3731 689 1553
3731 689 2017
3747 737 2434
3763 865 2802
3763 977 3074
3763 1217 3314
3747 1409 3443
3747 1553 3507
3763 881 1425
3747 865 1681
3731 833 2033
3747 977 2498
3779 1121 2930
3763 1329 3218
3747 1489 3346
3747 1617 3459
3731 1793 3523
3747 1169 1089
3747 1121 1777
3731 1153 2114
3699 1249 2482
3731 1425 2930
3747 1553 3218
3747 1745 3378
3747 1953 3507
3731 2066 3603
3731 1361 945
3699 1489 1409
3683 1489 1905
3651 1553 2354
3651 1649 2690
3635 1777 3074
3651 1969 3362
3715 2274 3587
3715 2418 3651
3683 1473 320
3651 1697 448
3635 1905 1073
3603 1953 2114
3587 2033 2562
3603 2162 2978
3603 2290 3330
3651 2498 3603
3699 2754 3715
3731 1969 304
3715 2274 384
3635 2434 592
3603 2498 1217
3619 2594 1697
3587 2594 2946
3603 2706 3330
3683 2914 3635
3715 3170 3747
3747 2658 320
3715 2850 368
3651 2994 576
3603 3058 881
3619 3090 1265
3635 3106 2050
3619 3186 3234
3651 3298 3603
3683 3491 3747
3731 3138 400
3715 3266 528
3651 3378 737
3619 3394 1105
3603 3427 1505
3635 3459 1953
3635 3523 2786
3651 3619 3555
3731 3715 3779
3715 3378 480
3715 3443 656
3699 3507 1057
3651 3523 1393
3651 3587 2017
3651 3635 2626
3715 3715 3234
3763 3747 3651
3779 3811 3827
3779 817 1265
3779 801 1665
3811 801 2178
3811 881 2610
3843 1041 2962
3827 1153 3186
3811 1329 3362
3811 1457 3459
3779 1585 3555
3811 1025 1505
3811 977 1953
3811 1057 2450
3843 1185 2882
3811 1297 3122
3811 1441 3250
3811 1569 3394
3779 1713 3491
3763 1825 3571
3779 1265 1025
3827 1329 2322
3827 1329 2594
3827 1457 2866
3843 1521 3010
3827 1649 3250
3779 1825 3443
3763 2017 3555
3763 2162 3619
3731 1265 448
3779 1617 1457
3843 1649 2338
3843 1681 2610
3843 1729 2802
3827 1841 3106
3779 2033 3378
3763 2354 3619
3731 2482 3683
3731 1553 400
3779 1761 496
3843 1985 1009
3875 2114 1937
3843 2114 2626
3827 2194 2994
3811 2338 3346
3731 2562 3619
3731 2818 3715
3811 2066 400
3843 2322 496
3875 2530 689
3891 2594 1169
3891 2610 1809
3859 2658 2930
3827 2690 3314
3779 2866 3635
3763 3138 3747
3827 2738 400
3875 2962 496
3859 3042 672
3907 3090 1041
3907 3090 1393
3875 3106 2146
3859 3186 3170
3811 3266 3619
3827 3443 3811
3827 3202 464
3827 3330 624
3827 3394 881
3859 3427 1217
3891 3475 1633
3859 3459 2098
3843 3523 2754
3843 3603 3362
3827 3683 3827
3763 3459 640
3747 3507 1009
3763 3555 1457
3763 3587 1953
3779 3683 2578
3779 3731 3090
3843 3779 3507
3827 3827 3731
3843 3827 3859
