其他预设/【236】赛博朋克风调色预设/【后期菌】视频调色预设/3DL/Miami 08.3dl
# LUT by SparkleStock. Enhanced with VOXCOLOR algorithms.
0 128 256 384 512 640 768 896 1023
0 0 16
128 48 256
128 144 448
224 288 817
352 336 1233
448 448 1745
608 496 2258
785 544 2642
929 576 2962
128 240 288
112 304 416
240 464 753
336 592 1153
480 721 1665
576 721 2098
721 801 2530
897 817 2898
1089 865 3170
160 544 544
240 672 769
304 801 1025
464 1009 1553
624 1185 2114
833 1313 2626
993 1345 2946
1137 1345 3218
1233 1281 3410
272 1041 977
384 1265 1265
512 1425 1601
624 1617 2066
753 1729 2514
929 1777 2882
1169 1905 3154
1313 1905 3346
1553 1889 3539
416 1713 1553
480 1889 1809
544 1953 2017
721 2178 2418
849 2258 2738
1041 2402 3058
1265 2450 3282
1457 2466 3475
1681 2434 3587
496 2370 2050
608 2514 2306
705 2578 2466
849 2690 2690
1041 2786 2946
1201 2866 3202
1425 2866 3394
1617 2834 3539
1841 2882 3635
624 2882 2466
721 2962 2626
833 2962 2738
977 3042 2898
1169 3106 3074
1409 3154 3298
1649 3202 3475
1809 3202 3587
2098 3250 3667
817 3234 2738
897 3266 2898
1025 3282 3026
1185 3314 3138
1345 3298 3218
1569 3346 3330
1841 3410 3491
2050 3410 3603
2274 3427 3667
1009 3410 2946
1153 3475 3090
1281 3491 3218
1393 3491 3266
1601 3539 3346
1825 3507 3427
2114 3555 3507
2354 3571 3603
2530 3603 3667
336 64 304
304 96 448
336 160 705
448 224 1041
576 304 1537
640 464 2033
801 576 2482
977 608 2834
1137 672 3138
737 288 656
785 320 945
576 416 1105
576 608 1489
656 849 1969
785 865 2434
929 913 2770
1121 945 3090
1281 993 3330
897 608 961
560 785 1073
608 993 1457
721 1201 1953
833 1329 2434
1025 1425 2818
1137 1409 3074
1345 1441 3346
1537 1425 3539
656 1041 1025
608 1489 1553
721 1633 1889
769 1729 2290
993 1905 2754
1153 1937 3026
1377 2033 3266
1585 1985 3459
1793 1985 3619
737 1681 1409
656 2130 2082
801 2242 2370
913 2370 2610
1073 2466 2914
1281 2530 3170
1537 2546 3410
1681 2530 3539
1969 2482 3635
945 2033 1281
753 2626 2466
865 2722 2610
1105 2866 2866
1249 2898 3074
1457 2930 3266
1681 2946 3443
1873 2946 3587
2194 2930 3683
1185 2658 1617
929 3042 2658
993 3074 2866
1233 3122 3026
1409 3170 3138
1665 3202 3330
1841 3218 3459
2082 3234 3603
2354 3250 3667
1361 3058 1889
1201 3266 2754
1281 3346 3090
1489 3394 3218
1633 3394 3282
1905 3410 3394
2146 3443 3491
2370 3459 3619
2530 3459 3683
1601 3266 2033
1553 3314 2642
1537 3491 3138
1697 3571 3330
1921 3571 3410
2098 3555 3443
2370 3571 3507
2578 3603 3603
2738 3603 3667
945 176 656
865 176 833
881 208 1169
897 256 1393
1073 288 1857
1169 368 2322
1281 464 2690
1313 592 3042
1473 624 3298
1793 384 993
1809 432 1265
1793 448 1553
1633 528 1937
1505 624 2354
1377 705 2690
1249 1057 3042
1409 1089 3266
1553 1089 3443
2386 721 1073
2658 672 1473
2546 656 1745
1441 1073 2434
1153 1441 2738
1265 1569 2994
1457 1617 3266
1569 1553 3443
1729 1553 3587
2066 1201 993
1857 1409 1633
1233 1681 2322
1313 1809 2722
1281 2098 2930
1409 2130 3154
1681 2146 3394
1857 2114 3539
1953 2033 3651
1217 1569 865
1073 2114 1857
961 2418 2514
1137 2562 2754
1297 2658 3042
1537 2690 3266
1793 2610 3475
2050 2626 3603
2290 2562 3683
1681 2017 833
1329 2610 1905
1089 2866 2770
1313 2946 2978
1521 3026 3170
1681 3026 3330
1953 3058 3507
2242 3042 3635
2450 2994 3715
1937 2354 785
1553 2834 1793
1281 3202 2962
1441 3218 3074
1729 3266 3250
1937 3250 3378
2194 3298 3539
2418 3314 3635
2610 3298 3715
2017 2722 961
1873 3090 1809
1617 3282 2802
1681 3443 3234
1921 3443 3330
2146 3443 3394
2386 3475 3507
2610 3507 3619
2754 3491 3683
2130 2962 1025
2194 3218 1537
2226 3314 2146
1985 3539 3218
2226 3603 3459
2434 3603 3507
2578 3587 3539
2818 3619 3635
2946 3651 3715
1985 256 897
2050 288 1153
2066 288 1425
2098 320 1697
1985 304 2066
2082 368 2386
2274 400 2834
2370 416 3122
1985 512 3346
2754 448 1137
2802 448 1361
2834 480 1633
2802 464 1921
2818 512 2274
2450 576 2802
2226 721 3138
2082 817 3378
2098 849 3507
3058 737 1201
3218 640 1601
3202 640 1857
3202 721 2274
2626 865 2722
2354 1041 3090
2194 1281 3346
1857 1585 3507
1969 1633 3603
2914 1169 961
3250 1137 1489
3378 897 2130
3218 1121 2594
1873 1937 3074
1809 2194 3298
1905 2226 3459
2098 2210 3587
2194 2114 3667
2258 1617 416
2274 1921 913
2194 2210 1985
1585 2562 2882
1825 2562 3138
1809 2690 3346
2098 2706 3507
2354 2690 3651
2466 2578 3667
2578 2082 512
2514 2178 624
1873 2706 1969
1585 3058 3074
1745 3074 3202
1953 3090 3394
2258 3090 3555
2514 3042 3651
2706 3026 3731
2658 2370 544
2706 2546 785
2322 2866 1681
1729 3314 3154
1937 3314 3250
2226 3314 3427
2418 3346 3539
2706 3346 3667
2834 3314 3731
2738 2690 705
2722 2786 897
2434 3106 1681
2146 3410 3058
2098 3491 3266
2450 3475 3443
2610 3507 3539
2818 3571 3635
2946 3539 3715
2706 2978 865
2722 3074 1073
2706 3170 1377
2770 3298 1873
2482 3571 3330
2658 3603 3539
2882 3635 3603
3026 3635 3651
3106 3651 3731
2882 304 1089
2930 304 1281
2930 304 1553
2914 304 1809
2930 336 2114
2978 368 2530
2866 384 2882
2962 400 3170
3042 384 3410
3298 480 1297
3330 464 1569
3346 464 1809
3330 448 2130
3330 448 2514
3330 496 2818
3330 528 3122
3266 576 3330
3234 544 3571
3427 769 1361
3555 640 1841
3539 640 2146
3539 656 2434
3571 721 2818
3491 753 3058
3138 961 3346
2866 1057 3571
2770 1121 3667
3330 1185 1121
3539 1169 1665
3635 945 2370
3571 1025 2722
3555 1105 2978
3170 1409 3298
2898 1569 3507
2802 1825 3651
2482 2194 3683
2834 1601 368
2962 1761 576
3394 1841 1617
3539 1569 2738
3154 1953 3154
2434 2514 3410
2482 2722 3587
2578 2738 3667
2658 2658 3715
2978 1953 336
3058 2146 480
3074 2354 705
3058 2658 1809
2370 3058 3298
2578 3042 3459
2546 3122 3587
2770 3106 3667
2898 3074 3747
3090 2402 448
3122 2562 576
3154 2706 833
2898 2946 1617
2322 3378 3282
2546 3378 3459
2658 3410 3571
2914 3378 3667
3058 3346 3731
3202 2786 544
3170 2898 721
3234 3042 1009
3138 3090 1329
2754 3459 3154
2690 3539 3459
2930 3571 3587
3074 3587 3667
3154 3571 3747
3202 3090 721
3218 3154 881
3202 3234 1137
3154 3298 1553
3074 3378 2033
2962 3635 3443
3090 3667 3635
3170 3667 3667
3282 3731 3747
3314 320 1217
3346 304 1441
3410 304 1713
3410 320 2017
3443 336 2386
3443 320 2706
3410 352 3058
3410 400 3282
3443 400 3475
3555 512 1441
3603 480 1745
3603 464 2066
3587 448 2306
3587 448 2658
3587 464 2962
3555 528 3234
3571 592 3443
3571 576 3603
3635 865 1553
3683 672 1969
3667 705 2290
3683 705 2626
3683 721 2882
3715 801 3202
3635 833 3346
3619 865 3475
3587 913 3635
3571 1281 1233
3635 1281 1729
3747 1009 2482
3731 1009 2802
3763 1105 3138
3715 1137 3282
3651 1281 3443
3394 1505 3603
3250 1569 3715
3218 1585 416
3314 1761 592
3539 1889 1649
3715 1553 2802
3603 1681 3122
3571 1793 3298
3266 2082 3539
3138 2322 3667
3122 2450 3747
3346 1969 368
3394 2194 512
3378 2306 689
3555 2402 1409
3507 2610 1969
3058 2930 3443
2882 3106 3587
2946 3154 3667
3090 3138 3747
3410 2450 368
3427 2562 448
3443 2770 656
3475 2914 929
3250 3138 1953
2898 3346 3410
3026 3394 3603
3090 3410 3683
3234 3410 3747
3459 2818 448
3459 2978 624
3491 3090 881
3491 3202 1153
3330 3298 1857
3122 3539 3298
3090 3587 3571
3266 3619 3715
3330 3619 3779
3475 3154 608
3491 3234 801
3475 3298 1041
3443 3378 1297
3394 3410 1633
3346 3475 2322
3298 3715 3587
3427 3747 3747
3459 3763 3779
3587 384 1361
3603 352 1633
3603 336 1889
3603 304 2226
3667 320 2610
3667 320 2930
3683 336 3218
3667 336 3410
3667 384 3555
3731 592 1585
3715 512 1857
3715 512 2226
3763 512 2610
3731 480 2866
3731 496 3106
3715 512 3298
3715 592 3507
3683 624 3619
3715 993 1601
3779 785 2146
3779 737 2450
3811 769 2818
3795 753 3058
3779 801 3234
3747 865 3427
3747 945 3571
3731 1025 3651
3667 1377 1345
3683 1361 1777
3811 1137 2642
3827 1137 2962
3811 1153 3202
3779 1217 3346
3731 1281 3475
3715 1425 3587
3715 1489 3667
3491 1649 512
3555 1809 721
3603 1921 1697
3747 1633 2866
3763 1633 3218
3747 1745 3410
3715 1809 3491
3651 1953 3603
3539 2130 3715
3571 1985 448
3603 2210 576
3603 2418 769
3619 2466 1329
3635 2530 1825
3571 2466 3346
3555 2514 3539
3410 2754 3667
3378 2930 3763
3651 2466 432
3651 2642 528
3603 2770 640
3603 2898 849
3635 2962 1329
3603 3170 2082
3410 3410 3459
3266 3475 3651
3410 3475 3795
3651 2834 384
3635 3026 528
3635 3154 801
3619 3250 1217
3603 3282 1425
3507 3410 2258
3410 3587 3475
3475 3651 3683
3539 3651 3795
3651 3170 560
3651 3298 865
3635 3394 1249
3619 3427 1537
3603 3459 1825
3587 3539 2290
3587 3619 2978
3571 3763 3731
3635 3779 3811
3731 528 1457
3763 400 1777
3747 368 2098
3763 320 2450
3795 304 2770
3779 304 3106
3795 368 3346
3795 352 3539
3811 400 3651
3795 721 1681
3827 624 1985
3811 528 2354
3827 512 2690
3827 496 2994
3795 528 3218
3811 560 3427
3795 576 3587
3811 656 3683
3795 1233 1553
3827 865 2194
3827 769 2546
3843 769 2834
3875 817 3170
3843 833 3378
3795 881 3475
3811 977 3619
3795 1057 3715
3763 1521 1425
3779 1489 1873
3827 1313 2466
3875 1217 3026
3875 1265 3266
3827 1297 3378
3811 1345 3539
3795 1409 3635
3763 1521 3715
3651 1713 656
3683 1889 865
3683 2033 1537
3779 1697 2914
3779 1713 3250
3779 1793 3410
3763 1841 3491
3731 1905 3587
3763 2050 3683
3731 2050 576
3731 2226 721
3715 2386 849
3731 2482 1457
3731 2594 1793
3667 2306 3346
3683 2402 3555
3715 2546 3667
3651 2770 3795
3779 2450 496
3763 2626 576
3747 2786 705
3715 2946 897
3715 3042 1217
3747 3122 1985
3683 3138 3298
3683 3122 3667
3619 3330 3795
3779 2962 480
3795 3170 753
3763 3266 1105
3731 3314 1553
3715 3346 1793
3715 3427 2130
3683 3539 2770
3667 3651 3571
3667 3715 3827
3779 3298 721
3747 3394 1185
3747 3475 1649
3715 3475 1937
3715 3571 2402
3683 3619 2770
3731 3715 3250
3779 3795 3683
3779 3827 3875
3811 705 1537
3827 544 1825
3843 448 2146
3843 352 2546
3891 352 2898
3875 336 3170
3875 352 3410
3843 352 3555
3875 368 3683
3827 865 1697
3827 721 2033
3827 592 2418
3891 560 2786
3875 512 3058
3843 560 3266
3875 576 3491
3843 624 3619
3875 705 3731
3795 1393 1409
3875 993 2290
3875 849 2594
3891 865 2946
3875 865 3218
3875 897 3410
3843 913 3539
3843 993 3635
3827 1057 3715
3683 1505 833
3779 1633 1697
3843 1409 2546
3891 1297 3106
3843 1313 3282
3875 1393 3459
3843 1409 3571
3827 1521 3635
3811 1585 3683
3763 1745 753
3763 1889 929
3747 2050 1425
3779 2082 2322
3795 1809 3298
3763 1841 3427
3779 1921 3555
3779 2033 3635
3779 2146 3683
3811 2033 640
3811 2210 801
3795 2418 993
3779 2578 1409
3779 2642 1889
3683 2482 3378
3683 2450 3555
3731 2578 3667
3763 2738 3763
3843 2482 576
3843 2690 721
3811 2818 897
3795 2962 1137
3795 3058 1441
3747 3122 2082
3731 3154 3154
3731 3106 3651
3795 3250 3811
3891 2994 624
3843 3170 865
3827 3298 1265
3779 3346 1633
3763 3410 1921
3779 3443 2274
3795 3571 2818
3811 3635 3346
3827 3667 3843
3827 3410 1137
3795 3475 1665
3795 3539 2082
3763 3587 2466
3747 3651 2914
3779 3715 3266
3843 3795 3619
3875 3843 3779
3875 3875 3891
