其他预设/【236】赛博朋克风调色预设/【后期菌】视频调色预设/3DL/Miami 09.3dl
# LUT by SparkleStock. Enhanced with VOXCOLOR algorithms.
0 256 512 768 1023
288 48 64
368 80 256
432 128 833
432 96 2498
656 32 3459
352 256 176
352 336 448
368 496 1793
464 480 3138
801 432 3683
432 1105 352
400 1409 1121
304 1905 2514
640 2098 3154
1361 2178 3394
448 2882 1057
528 3106 2050
737 3330 2754
1313 3362 3090
2017 3266 3234
977 3635 1873
1393 3667 2338
1697 3699 2674
2146 3747 2898
2530 3731 3090
640 96 192
721 96 432
1073 112 1185
1425 176 2690
1681 176 3475
1681 448 464
2082 464 977
817 656 2562
1073 785 3346
1681 833 3603
1169 1073 320
576 1985 1889
801 2418 2802
1521 2450 3170
2258 2498 3298
2194 2354 464
1233 3250 2114
1633 3410 2738
2098 3394 3010
2674 3346 3170
2642 3010 400
2658 3282 961
2626 3699 2674
2770 3699 2850
3010 3731 3026
2194 496 592
2402 480 801
2738 464 1505
3138 272 2530
3475 352 3154
2882 737 849
3346 785 1505
3619 689 2338
3507 801 2978
3298 1153 3346
2514 1073 496
3026 1281 1025
3330 1873 2658
2530 2706 3106
2786 2642 3282
2818 2338 416
2914 2626 464
2610 3459 2642
2850 3459 2946
3090 3378 3122
3170 3058 368
3250 3234 480
3298 3491 1185
3282 3747 2882
3378 3747 3010
3042 721 865
3282 705 1201
3619 672 1969
3811 464 2754
3907 480 3170
3234 881 993
3667 881 1761
3891 865 2482
3907 945 2946
3923 1281 3202
3042 1137 672
3330 1521 1057
3859 1713 2626
3843 2082 2914
3715 2562 3154
3218 2274 432
3186 2530 400
3282 2754 640
3475 3491 2786
3459 3475 3106
3346 2978 304
3459 3234 432
3603 3459 833
3699 3715 2178
3635 3811 3010
3330 849 945
3619 801 1425
3923 753 2226
4051 560 2866
4051 656 3170
3330 961 929
3827 961 1857
4003 1025 2578
4035 1169 2946
4003 1457 3170
3346 1281 721
3427 1553 753
3923 2017 2626
3923 2306 2914
3939 2610 3090
3410 2178 464
3410 2514 448
3427 2738 576
3747 3186 2402
3907 3410 3058
3507 3058 320
3683 3427 769
3763 3651 1841
3843 3811 2610
3843 3875 3010
