其他预设/【236】赛博朋克风调色预设/【后期菌】视频调色预设/3DL/Miami 05_S.3dl
# LUT by SparkleStock. Enhanced with VOXCOLOR algorithms.
0 128 256 384 512 640 768 896 1023
64 64 128
144 128 336
176 224 560
240 336 865
336 384 1201
416 432 1617
496 480 2066
624 512 2466
785 560 2786
160 288 368
160 352 496
256 496 801
320 608 1153
432 640 1553
512 672 1921
608 705 2322
737 721 2706
913 769 3010
192 528 576
256 656 785
304 753 1009
432 897 1409
528 1041 1857
672 1121 2354
833 1217 2770
1009 1217 3058
1121 1169 3298
272 929 881
368 1073 1121
432 1233 1425
512 1393 1777
624 1473 2178
785 1585 2642
1009 1761 3010
1201 1777 3234
1409 1777 3491
352 1441 1345
432 1617 1585
448 1713 1729
576 1857 2114
689 2033 2498
849 2194 2850
1089 2354 3154
1377 2370 3378
1601 2386 3523
416 2033 1777
464 2210 2066
512 2338 2194
624 2466 2434
785 2594 2738
993 2786 3026
1169 2818 3266
1457 2850 3459
1761 2850 3587
480 2690 2274
544 2786 2482
576 2802 2546
705 2866 2722
833 2978 2882
1089 3090 3138
1329 3170 3330
1569 3186 3507
1889 3234 3651
592 3106 2562
640 3154 2690
737 3186 2834
849 3218 2994
961 3234 3058
1169 3282 3186
1393 3378 3362
1617 3394 3507
1921 3410 3619
737 3362 2834
849 3410 2994
945 3443 3090
1009 3443 3154
1169 3475 3266
1329 3507 3330
1553 3539 3410
1825 3539 3523
2098 3587 3619
336 128 400
320 176 528
320 208 721
384 256 1009
464 320 1393
512 448 1809
624 528 2290
817 576 2658
1025 624 2978
624 288 640
656 336 897
480 432 1025
496 592 1393
544 737 1761
624 785 2194
753 769 2546
961 817 2930
1201 865 3218
753 592 897
464 721 993
528 881 1249
592 1041 1697
656 1137 2130
817 1265 2578
993 1265 2882
1217 1297 3234
1457 1297 3443
544 913 897
512 1265 1313
592 1409 1617
640 1489 1937
801 1697 2466
977 1729 2818
1201 1873 3106
1505 1889 3394
1665 1777 3539
560 1297 1169
528 1793 1761
608 1921 1985
705 2066 2338
833 2242 2690
1057 2386 2994
1361 2482 3266
1601 2434 3443
1953 2386 3603
656 1585 1105
544 2370 2194
624 2514 2354
817 2642 2642
945 2754 2850
1169 2850 3090
1425 2930 3330
1761 2930 3491
2114 2882 3635
817 2306 1553
656 2866 2498
737 2930 2642
865 3010 2834
1009 3058 2978
1265 3170 3186
1505 3186 3378
1825 3218 3507
2178 3250 3635
929 2866 1857
817 3154 2530
897 3266 2882
1057 3298 3074
1153 3314 3138
1377 3362 3234
1601 3410 3378
1937 3427 3523
2306 3459 3635
1121 3202 2194
1009 3250 2562
1105 3459 3026
1233 3507 3234
1393 3539 3314
1537 3539 3362
1793 3539 3443
2130 3555 3523
2370 3603 3603
817 208 640
753 176 833
769 240 1137
753 256 1345
929 288 1729
993 336 2130
1153 416 2546
1249 528 2882
1489 592 3218
1601 368 865
1601 416 1089
1537 400 1329
1425 448 1729
1329 528 2178
1249 560 2514
1089 881 2834
1345 913 3170
1569 929 3394
2194 608 849
2306 624 1169
2098 640 1409
1153 881 1985
929 1217 2370
1073 1393 2802
1265 1409 3106
1521 1377 3330
1761 1361 3523
1761 1009 769
1473 1217 1281
977 1457 1729
1057 1569 2194
1009 1761 2594
1185 1905 2962
1521 2033 3266
1761 1905 3459
1937 1825 3619
897 1265 721
817 1745 1425
769 2082 1969
865 2210 2322
1041 2402 2722
1297 2578 3106
1649 2562 3378
1953 2530 3539
2274 2418 3651
1329 1729 785
913 2210 1713
801 2626 2466
977 2770 2642
1185 2914 2978
1393 2962 3218
1745 3010 3410
2098 3010 3555
2434 2930 3667
1697 2130 753
1057 2690 1809
913 3058 2738
1009 3090 2882
1265 3170 3074
1553 3218 3234
1825 3266 3427
2210 3282 3555
2546 3298 3667
1777 2722 1057
1313 3106 2017
1041 3250 2642
1217 3394 3138
1393 3410 3202
1585 3410 3282
1889 3443 3410
2322 3491 3539
2610 3507 3651
1857 3010 1281
1825 3234 1793
1665 3362 2402
1393 3507 3138
1665 3603 3378
1841 3619 3427
2082 3603 3459
2514 3603 3539
2754 3635 3635
1825 272 769
1873 272 1009
1873 256 1265
1937 288 1569
1937 304 1873
2082 320 2194
2530 368 2530
2706 384 2914
2290 448 3282
2546 432 849
2418 432 1009
2402 432 1281
2466 432 1617
2610 432 2033
2610 496 2466
2482 576 2994
2370 624 3282
2338 705 3459
2706 689 817
2578 689 1105
2482 721 1393
2514 721 1777
2386 753 2258
2434 817 2818
2466 961 3266
1905 1377 3443
2082 1377 3587
2594 1041 640
2546 1105 993
2514 1041 1505
2498 1089 1905
1617 1585 2610
1633 1905 3058
1793 2050 3378
2050 2017 3523
2258 1905 3651
2098 1441 272
1841 1697 624
1665 1937 1505
1345 2194 2194
1585 2290 2738
1617 2578 3154
1985 2626 3443
2338 2546 3587
2466 2386 3651
2562 1873 384
2370 2050 496
1329 2562 1777
1217 2818 2578
1393 2946 2946
1745 3058 3282
2033 3042 3427
2418 2978 3603
2690 2946 3683
2690 2290 448
2658 2466 624
1857 2834 1713
1281 3234 2978
1473 3266 3154
1857 3266 3298
2178 3314 3459
2546 3362 3603
2802 3282 3667
2706 2642 656
2690 2754 833
2082 3138 1825
1473 3427 2994
1585 3459 3170
1969 3475 3330
2306 3475 3427
2642 3523 3587
2850 3523 3651
2706 2978 993
2690 3074 1217
2610 3202 1521
2594 3330 2017
1937 3587 3282
2290 3619 3475
2610 3635 3539
2818 3635 3603
3026 3651 3667
2850 352 833
2802 288 1041
2786 256 1265
2802 256 1585
2930 304 1905
3074 352 2274
3058 352 2594
3202 368 3026
3250 368 3250
3042 496 897
2850 448 1073
2786 448 1377
2834 432 1729
2978 432 2162
3234 432 2578
3443 432 2978
3443 480 3186
3475 496 3427
2994 721 849
2818 737 1169
2770 753 1473
2770 753 1825
2962 721 2386
3234 640 2802
3378 785 3218
3234 817 3475
3106 865 3651
2962 1073 640
2802 1169 1025
2770 1089 1569
2786 1105 1969
2930 1073 2482
3106 1169 3010
3154 1217 3394
3042 1425 3619
2594 1873 3667
2690 1521 256
2578 1697 480
2770 1713 1233
2866 1553 2066
2866 1729 2626
2306 2242 3170
2418 2578 3491
2562 2562 3619
2690 2434 3667
2978 1857 272
2850 2098 432
2770 2258 640
2722 2530 1489
2114 2882 2930
2434 2946 3298
2434 3042 3475
2770 2994 3635
2882 2930 3699
3218 2322 400
3090 2514 480
3074 2658 656
2690 2866 1441
1873 3362 3170
2306 3330 3362
2562 3378 3475
2834 3362 3635
3026 3314 3683
3218 2786 512
3170 2914 672
3202 3026 913
3154 3074 1265
2338 3459 3090
2370 3523 3378
2738 3539 3491
2978 3555 3619
3138 3555 3683
3250 3106 769
3234 3154 945
3202 3234 1217
3106 3298 1649
3026 3378 2098
2786 3619 3394
2962 3667 3587
3106 3667 3635
3250 3699 3715
3298 368 993
3250 288 1153
3266 272 1441
3298 272 1777
3394 304 2162
3475 336 2514
3491 336 2850
3507 368 3138
3555 384 3330
3330 480 1009
3218 464 1217
3138 464 1489
3154 432 1857
3282 432 2338
3491 416 2770
3619 448 3058
3651 512 3314
3667 528 3507
3298 785 977
3154 753 1217
3090 753 1553
3090 769 1953
3218 737 2418
3491 721 2962
3683 672 3250
3699 689 3427
3699 785 3603
3250 1137 753
3106 1201 1105
3090 1121 1633
3154 1121 2066
3234 1121 2562
3475 1025 3058
3667 1025 3362
3619 1201 3539
3491 1265 3667
3090 1521 272
3026 1745 528
3058 1777 1249
3138 1569 2050
3218 1569 2610
3475 1569 3074
3410 1777 3394
3362 1873 3619
3266 2017 3715
3330 1905 336
3218 2146 448
3154 2274 672
3202 2354 1345
3282 2514 1841
3058 2642 3186
2834 2914 3459
2930 3026 3635
3090 3010 3731
3523 2370 368
3427 2546 432
3427 2754 608
3362 2930 881
3138 3074 1761
2754 3266 3170
2930 3330 3475
3058 3378 3651
3250 3362 3715
3491 2850 464
3491 2994 624
3491 3106 817
3443 3202 1057
3218 3314 1793
2962 3491 3138
2994 3555 3507
3218 3603 3651
3330 3603 3731
3507 3170 672
3491 3266 881
3475 3314 1057
3459 3378 1329
3427 3427 1681
3362 3475 2322
3266 3683 3523
3394 3715 3699
3459 3731 3731
3587 384 1153
3587 336 1393
3555 320 1649
3555 304 2017
3651 320 2466
3699 336 2818
3715 352 3106
3699 352 3298
3715 384 3475
3619 528 1217
3555 480 1425
3491 480 1697
3539 480 2146
3603 448 2610
3699 448 2978
3747 480 3218
3747 544 3427
3731 560 3555
3603 833 1137
3507 769 1457
3443 753 1697
3491 769 2162
3539 737 2658
3699 705 3106
3779 737 3378
3779 769 3523
3763 817 3651
3555 1153 945
3459 1217 1201
3443 1153 1761
3459 1185 2162
3507 1121 2642
3651 1073 3138
3715 1057 3394
3763 1153 3539
3747 1249 3651
3459 1553 352
3410 1745 560
3394 1825 1297
3410 1633 2066
3443 1601 2578
3539 1585 3058
3619 1601 3378
3683 1697 3539
3667 1777 3651
3587 1937 384
3523 2194 496
3459 2354 753
3378 2466 1329
3394 2466 1809
3410 2322 2978
3475 2306 3330
3491 2482 3603
3459 2658 3747
3715 2466 432
3667 2658 528
3523 2818 656
3443 2930 977
3443 2994 1457
3443 3106 2050
3330 3266 3266
3266 3394 3587
3427 3410 3747
3683 2930 432
3683 3074 608
3603 3218 817
3507 3298 1137
3459 3362 1393
3410 3410 2162
3378 3555 3330
3443 3635 3635
3539 3651 3763
3683 3234 624
3667 3330 833
3667 3410 1169
3603 3475 1425
3555 3507 1745
3555 3555 2274
3587 3635 2914
3555 3731 3667
3635 3779 3779
3715 480 1265
3763 416 1617
3763 368 1937
3763 368 2338
3811 352 2706
3827 352 3010
3827 400 3266
3827 416 3459
3827 416 3587
3811 592 1489
3827 560 1713
3763 496 1985
3779 496 2402
3827 496 2834
3827 496 3170
3827 528 3330
3827 544 3507
3843 608 3635
3779 961 1217
3779 785 1745
3763 753 2050
3763 753 2402
3827 769 2930
3827 737 3250
3827 753 3443
3827 801 3603
3827 865 3667
3779 1201 1201
3763 1249 1441
3763 1201 1873
3763 1153 2402
3763 1201 2754
3779 1185 3154
3779 1169 3410
3827 1185 3603
3811 1233 3683
3699 1537 512
3683 1777 656
3667 1905 1249
3699 1665 2146
3699 1649 2626
3731 1665 3042
3747 1633 3362
3763 1649 3587
3811 1681 3667
3747 1953 480
3763 2242 608
3683 2386 801
3667 2482 1393
3667 2530 1825
3651 2194 2930
3683 2242 3298
3731 2242 3587
3747 2434 3715
3811 2482 480
3763 2722 560
3715 2914 753
3667 3010 1073
3667 3042 1473
3683 3090 2130
3667 3074 3138
3683 3058 3587
3699 3218 3763
3843 3058 576
3811 3250 769
3747 3330 993
3683 3410 1329
3667 3427 1681
3651 3459 2033
3667 3507 2610
3667 3619 3475
3699 3683 3779
3811 3330 721
3779 3427 993
3747 3507 1345
3699 3555 1601
3699 3619 2066
3683 3651 2546
3715 3699 3106
3779 3779 3619
3811 3843 3859
3843 544 1313
3859 496 1713
3859 432 2050
3859 384 2482
3875 416 2850
3891 384 3138
3875 400 3362
3859 400 3491
3859 416 3619
3859 689 1553
3859 624 1889
3843 560 2290
3891 560 2722
3891 512 3010
3875 544 3234
3875 544 3427
3875 576 3555
3875 624 3667
3843 1025 1233
3891 817 2178
3891 753 2402
3907 785 2802
3907 785 3010
3891 817 3266
3859 801 3491
3875 833 3619
3875 881 3699
3747 1233 705
3843 1345 1537
3923 1217 2146
3955 1201 2642
3955 1217 2850
3971 1233 3186
3923 1233 3459
3891 1265 3635
3859 1281 3683
3779 1601 624
3827 1809 785
3875 1937 1217
3907 1841 1841
3955 1681 2690
3939 1713 3058
3907 1697 3378
3875 1697 3619
3827 1745 3683
3843 2017 576
3875 2258 656
3907 2418 897
3923 2530 1393
3923 2578 1873
3907 2322 2914
3891 2258 3314
3827 2258 3603
3811 2354 3699
3859 2578 592
3891 2802 689
3907 2946 881
3923 3026 1233
3939 3074 1601
3907 3090 2194
3859 3090 3058
3811 3010 3587
3827 3106 3779
3891 3106 672
3875 3250 849
3891 3378 1057
3923 3443 1393
3923 3459 1729
3907 3475 2130
3875 3523 2626
3875 3619 3234
3843 3635 3827
3859 3427 929
3827 3507 1265
3827 3555 1633
3811 3619 1985
3827 3715 2498
3811 3731 2946
3859 3779 3443
3875 3843 3731
3875 3875 3891
