其他预设/【236】赛博朋克风调色预设/【后期菌】视频调色预设/3DL/Miami 02.3dl
# LUT by SparkleStock. Enhanced with VOXCOLOR algorithms.
0 128 256 384 512 640 768 896 1023
96 32 48
160 80 224
192 160 432
224 272 737
336 384 1105
448 496 1649
592 624 2226
785 801 2690
1041 1057 3058
176 192 240
160 240 368
240 384 640
320 496 977
448 640 1505
560 737 2033
753 961 2562
977 1249 2978
1249 1505 3250
176 384 416
240 496 624
304 592 801
432 785 1297
576 977 1921
753 1233 2562
977 1521 2962
1233 1809 3218
1457 2082 3378
272 705 705
336 881 913
448 1057 1233
560 1265 1761
689 1473 2418
865 1793 2850
1105 2146 3122
1329 2338 3314
1649 2578 3459
368 1217 1137
448 1457 1425
512 1553 1649
640 1857 2274
785 2194 2706
993 2546 3058
1265 2738 3250
1585 2882 3394
1937 2962 3523
432 1937 1649
496 2242 2066
624 2418 2338
785 2626 2658
993 2850 2962
1281 3042 3202
1585 3122 3394
1905 3186 3491
2322 3250 3603
560 2786 2290
672 2930 2578
785 2946 2738
977 3074 2946
1233 3202 3122
1537 3298 3330
1969 3346 3475
2274 3378 3555
2594 3443 3635
785 3234 2722
961 3298 2946
1121 3330 3090
1345 3362 3186
1537 3394 3266
1841 3394 3362
2226 3475 3475
2482 3491 3555
2738 3555 3619
1137 3427 2978
1345 3491 3138
1521 3523 3250
1649 3523 3314
1953 3555 3378
2210 3571 3459
2482 3571 3507
2706 3587 3571
2930 3619 3651
336 112 256
320 128 400
304 176 592
368 256 865
480 352 1313
560 544 1889
753 737 2466
993 961 2866
1281 1217 3186
592 256 480
608 288 689
480 368 865
496 560 1265
560 753 1761
737 913 2370
945 1153 2818
1233 1441 3170
1521 1681 3346
672 464 672
448 560 833
496 737 1121
592 945 1649
705 1153 2274
945 1441 2754
1153 1649 3074
1489 2050 3314
1841 2226 3459
496 689 689
512 1073 1169
592 1265 1553
640 1377 1985
881 1729 2674
1073 2050 2994
1313 2354 3218
1665 2530 3394
2098 2722 3523
512 1105 961
544 1681 1649
656 1905 2082
785 2194 2530
977 2498 2914
1217 2722 3138
1569 2914 3346
1921 2978 3475
2338 3042 3587
672 1425 929
608 2434 2242
753 2610 2530
1041 2866 2866
1233 2994 3090
1521 3106 3266
1905 3202 3443
2274 3234 3555
2610 3298 3635
833 2290 1345
785 3010 2546
993 3090 2882
1233 3202 3074
1457 3250 3186
1825 3314 3362
2178 3362 3459
2466 3394 3555
2754 3443 3635
1057 2914 1585
1105 3234 2610
1345 3378 3122
1617 3459 3266
1809 3427 3314
2162 3459 3378
2434 3491 3475
2738 3555 3587
2882 3555 3635
1393 3202 1601
1553 3298 2466
1745 3507 3186
2033 3555 3362
2322 3571 3459
2466 3571 3475
2690 3571 3523
2882 3603 3603
3042 3619 3651
721 192 464
689 208 608
689 256 881
689 288 1105
865 384 1601
929 464 2098
1153 624 2578
1361 961 2994
1649 1345 3298
1473 352 656
1537 400 897
1521 448 1185
1441 512 1585
1281 608 2146
1265 785 2594
1265 1361 3010
1521 1569 3234
1825 1889 3427
2274 576 672
2690 592 1073
2530 608 1329
1201 897 2162
1025 1377 2626
1185 1649 2962
1473 1985 3234
1809 2210 3394
2162 2354 3475
1681 817 592
1537 1009 1185
993 1361 1985
1121 1633 2578
1105 2033 2866
1281 2306 3106
1649 2578 3330
2050 2674 3459
2450 2786 3571
849 1025 544
817 1521 1361
801 2162 2322
961 2466 2690
1217 2706 3010
1537 2914 3234
1921 3010 3427
2354 3090 3571
2674 3122 3619
1313 1505 528
945 2146 1473
961 2818 2722
1265 2978 2978
1537 3122 3202
1777 3170 3314
2226 3266 3491
2562 3314 3587
2834 3314 3651
1569 2017 528
1217 2626 1345
1233 3218 2962
1457 3250 3106
1825 3330 3266
2162 3346 3362
2450 3427 3491
2706 3459 3587
2962 3475 3651
1841 2546 592
1649 3010 1313
1649 3266 2722
1841 3475 3266
2210 3491 3362
2418 3475 3394
2658 3507 3491
2914 3555 3603
3074 3587 3651
2050 2866 672
2178 3106 1009
2306 3266 1681
2434 3507 3218
2610 3603 3475
2754 3603 3507
2850 3587 3555
3058 3619 3619
3170 3651 3683
1729 304 544
1809 320 785
1793 368 1073
1905 400 1361
1889 432 1713
2033 480 2162
2466 608 2626
2706 753 2962
2322 1217 3314
2850 496 721
2850 496 977
2962 528 1249
2978 576 1553
3042 656 1969
2722 737 2530
2498 1057 3010
2450 1441 3314
2450 1809 3475
3186 689 769
3330 689 1297
3330 737 1601
3330 801 1985
2834 945 2418
2562 1217 2930
2450 1713 3266
2210 2274 3427
2418 2434 3507
3010 849 528
3346 993 1073
3475 977 1969
3330 1169 2338
1793 1953 2978
1777 2466 3234
2033 2674 3394
2466 2802 3523
2674 2818 3603
2033 1169 224
1937 1409 464
1889 1809 1569
1425 2546 2818
1729 2706 3074
1825 2946 3298
2306 3074 3491
2658 3122 3587
2850 3122 3635
2482 1665 240
2450 1793 304
1473 2482 1505
1553 3106 3090
1793 3170 3218
2146 3234 3378
2482 3314 3507
2786 3314 3603
2994 3330 3651
2562 2178 288
2594 2354 384
2066 2754 1121
1809 3362 3186
2082 3378 3266
2450 3378 3394
2722 3443 3507
2962 3491 3619
3106 3475 3683
2706 2610 368
2690 2706 448
2402 3010 1169
2450 3394 3058
2434 3491 3266
2674 3507 3459
2850 3523 3507
3090 3571 3619
3186 3587 3683
2738 2962 512
2738 3058 672
2802 3170 913
2914 3250 1505
2882 3571 3346
2962 3603 3507
3090 3635 3587
3186 3651 3619
3298 3683 3699
2978 416 640
3042 432 849
3058 448 1137
3090 464 1457
3090 496 1793
3138 576 2274
3090 672 2626
3234 881 3010
3314 1089 3266
3394 592 945
3443 592 1249
3459 624 1601
3443 640 1905
3443 705 2322
3443 833 2674
3459 1041 2978
3427 1233 3218
3394 1457 3427
3523 753 1009
3619 801 1649
3619 849 2033
3603 913 2402
3619 1073 2754
3571 1169 2946
3346 1537 3234
3138 1825 3459
3058 2146 3571
3459 945 672
3619 1121 1361
3683 1137 2338
3619 1265 2658
3587 1425 2914
3330 1745 3170
3170 2098 3378
3074 2498 3587
2882 2882 3635
2882 1201 208
3058 1425 304
3507 1617 1313
3523 1713 2706
3250 2162 3058
2626 2834 3346
2722 3106 3555
2882 3186 3619
3058 3186 3683
3074 1649 160
3090 1905 208
3074 2114 304
3058 2658 1265
2482 3186 3250
2738 3218 3427
2786 3330 3523
3010 3362 3635
3186 3362 3699
3090 2338 224
3058 2466 288
3106 2658 368
2866 2882 1057
2498 3427 3314
2738 3443 3443
2946 3475 3523
3122 3507 3635
3250 3507 3715
3186 2802 304
3138 2914 368
3186 3058 496
3202 3122 785
2994 3475 3202
2962 3555 3475
3106 3587 3555
3250 3619 3635
3362 3619 3715
3218 3122 416
3202 3186 512
3218 3250 705
3234 3330 1137
3218 3362 1761
3218 3603 3459
3298 3683 3619
3362 3651 3651
3443 3715 3715
3443 496 817
3475 512 1089
3491 544 1457
3507 576 1825
3491 608 2210
3507 689 2546
3507 849 2930
3523 1041 3170
3555 1249 3346
3603 656 1137
3651 705 1553
3651 705 1937
3635 737 2290
3635 849 2626
3635 993 2930
3587 1169 3106
3603 1425 3330
3587 1569 3443
3651 897 1249
3715 881 1841
3699 961 2290
3747 1073 2674
3699 1169 2930
3651 1409 3106
3619 1537 3250
3587 1665 3362
3603 1889 3507
3619 1073 801
3699 1249 1553
3731 1249 2498
3715 1361 2834
3683 1569 3058
3619 1697 3186
3603 1937 3362
3475 2210 3507
3362 2418 3619
3298 1265 224
3394 1505 336
3587 1697 1329
3635 1777 2802
3571 2050 3074
3555 2242 3266
3394 2594 3459
3346 2866 3635
3346 3010 3715
3427 1793 208
3394 2050 240
3394 2226 304
3587 2450 977
3571 2722 1761
3250 3106 3394
3090 3314 3555
3186 3378 3651
3314 3427 3731
3475 2466 224
3443 2610 288
3427 2834 368
3394 2978 480
3314 3138 1569
3074 3394 3394
3202 3475 3555
3266 3523 3651
3378 3555 3747
3475 2962 304
3443 3058 368
3459 3170 480
3459 3250 672
3346 3314 1489
3314 3507 3314
3298 3587 3555
3443 3619 3699
3491 3635 3731
3443 3186 400
3443 3266 512
3459 3346 689
3443 3378 913
3459 3427 1361
3443 3475 2210
3459 3651 3571
3507 3715 3699
3555 3731 3731
3619 576 993
3619 560 1361
3683 608 1745
3619 592 2146
3683 721 2562
3683 833 2850
3683 1025 3122
3651 1185 3298
3651 1409 3443
3715 785 1345
3731 769 1713
3715 801 2178
3763 913 2610
3747 1025 2882
3715 1169 3090
3683 1345 3250
3683 1553 3394
3635 1649 3475
3731 1009 1329
3763 1025 2098
3763 1073 2466
3763 1217 2834
3747 1345 3058
3715 1489 3202
3715 1697 3346
3683 1857 3475
3651 2017 3555
3683 1201 945
3731 1361 1617
3779 1457 2690
3731 1553 2978
3715 1681 3138
3683 1841 3298
3635 2033 3394
3651 2210 3507
3683 2370 3619
3555 1361 272
3571 1569 368
3651 1889 1457
3683 1985 2882
3635 2114 3186
3635 2322 3330
3635 2450 3459
3619 2610 3571
3555 2818 3699
3587 1889 240
3619 2194 304
3587 2434 368
3651 2610 929
3651 2690 1681
3555 2866 3362
3555 2882 3491
3507 3122 3619
3507 3266 3731
3651 2594 288
3635 2818 352
3571 2914 384
3571 3010 496
3619 3122 961
3603 3234 1889
3475 3443 3443
3443 3507 3603
3523 3571 3747
3619 3010 304
3603 3122 400
3603 3234 512
3587 3330 737
3571 3330 961
3523 3378 2098
3523 3571 3459
3555 3635 3635
3587 3683 3731
3603 3266 416
3619 3362 528
3603 3427 785
3587 3443 1073
3603 3459 1489
3587 3491 2194
3619 3619 3058
3619 3715 3683
3683 3747 3763
3715 689 1153
3731 689 1569
3731 705 2050
3747 753 2450
3763 865 2802
3763 977 3074
3763 1217 3314
3747 1409 3443
3747 1553 3507
3763 881 1473
3779 913 1905
3763 913 2338
3811 1073 2754
3811 1185 3042
3763 1329 3218
3747 1489 3346
3747 1617 3459
3731 1793 3523
3779 1201 1217
3811 1185 2226
3811 1249 2674
3763 1361 2946
3779 1537 3170
3763 1633 3298
3747 1777 3394
3747 1953 3507
3731 2098 3587
3747 1361 1041
3747 1553 1681
3763 1569 2546
3747 1713 3042
3731 1841 3218
3699 1969 3330
3699 2146 3459
3715 2306 3587
3715 2434 3651
3683 1457 336
3699 1681 448
3699 1969 1169
3683 2146 2962
3635 2242 3218
3651 2402 3378
3635 2482 3491
3683 2626 3619
3699 2754 3715
3731 1969 304
3731 2274 384
3699 2466 464
3699 2658 1137
3715 2802 1649
3635 2802 3394
3651 2882 3555
3715 3010 3683
3715 3186 3747
3747 2658 320
3731 2850 368
3715 3010 464
3683 3122 592
3715 3218 881
3731 3234 1841
3683 3314 3378
3699 3362 3619
3683 3491 3747
3731 3138 400
3715 3266 528
3699 3346 705
3683 3362 1025
3651 3378 1377
3699 3443 1777
3683 3523 2738
3683 3635 3555
3731 3715 3779
3715 3378 480
3715 3443 656
3699 3491 1057
3683 3475 1409
3683 3507 2050
3683 3587 2674
3731 3699 3250
3763 3747 3651
3779 3811 3827
3779 817 1265
3779 801 1665
3811 801 2178
3811 881 2610
3843 1041 2962
3827 1153 3186
3811 1329 3362
3811 1457 3459
3779 1585 3555
3811 1025 1505
3811 977 1953
3811 1073 2482
3843 1201 2930
3811 1297 3122
3811 1441 3250
3811 1601 3427
3779 1713 3491
3763 1825 3571
3779 1265 1025
3827 1345 2418
3811 1361 2738
3811 1521 3042
3811 1617 3202
3779 1745 3362
3763 1889 3459
3763 2017 3555
3763 2162 3619
3731 1265 464
3763 1633 1505
3811 1729 2674
3763 1841 3106
3731 1953 3250
3731 2098 3394
3715 2226 3491
3747 2418 3619
3731 2498 3683
3731 1553 400
3747 1761 496
3747 2066 1073
3747 2354 2418
3683 2402 3298
3651 2482 3443
3683 2594 3555
3683 2706 3635
3731 2818 3715
3811 2066 400
3811 2322 496
3779 2594 608
3747 2786 1073
3747 2850 1841
3683 2914 3427
3651 2914 3555
3715 3010 3683
3763 3170 3747
3827 2738 400
3843 2962 496
3779 3090 592
3811 3202 849
3779 3234 1105
3731 3234 1985
3731 3330 3298
3747 3362 3651
3811 3459 3779
3827 3186 464
3811 3330 608
3779 3362 881
3747 3394 1153
3763 3427 1521
3747 3443 1969
3763 3555 2706
3811 3619 3330
3827 3683 3827
3763 3459 640
3747 3507 1009
3763 3523 1473
3715 3523 2066
3731 3603 2690
3747 3699 3218
3827 3763 3571
3827 3827 3731
3843 3827 3859
