其他预设/【236】赛博朋克风调色预设/【后期菌】视频调色预设/3DL/Miami 07_S.3dl
# LUT by SparkleStock. Enhanced with VOXCOLOR algorithms.
0 256 512 768 1023
0 0 0
112 96 320
256 304 929
512 544 2130
945 929 2994
96 320 336
224 496 672
480 881 1729
881 1425 2914
1393 1953 3394
272 1169 1073
384 1521 1521
689 2098 2658
1153 2658 3250
1841 2914 3507
448 2754 2242
672 2866 2658
1153 3138 3106
1841 3298 3475
2530 3410 3651
1009 3378 2962
1425 3491 3234
1889 3507 3378
2418 3555 3507
2866 3619 3651
560 144 368
544 160 737
801 272 1489
1089 544 2546
1649 1201 3282
2338 560 544
2226 624 1169
929 1233 2466
1425 1905 3234
2066 2226 3523
721 1025 576
737 2017 1969
1073 2562 2850
1809 2946 3410
2642 3058 3635
1377 2033 689
1121 3138 2866
1729 3282 3250
2386 3378 3491
2930 3443 3667
1809 2850 785
2098 3266 1745
2530 3571 3443
2834 3571 3539
3154 3651 3667
3074 368 560
2930 304 1041
3090 368 1777
3186 544 2642
3362 929 3266
3042 737 656
2754 785 1425
2946 897 2386
3346 1393 3218
3058 1985 3587
2706 1377 144
2770 1649 1073
2818 1953 2626
2690 3042 3539
3010 3138 3683
3106 2354 240
2994 2642 400
2450 3378 3234
2930 3427 3539
3234 3491 3699
3202 3058 368
3218 3202 592
3186 3330 1665
3282 3667 3619
3443 3683 3715
3619 464 897
3571 384 1585
3667 528 2530
3699 833 3122
3699 1249 3443
3571 913 977
3427 897 1681
3523 1089 2674
3715 1553 3378
3667 1889 3555
3491 1393 208
3346 1777 1153
3330 1905 2530
3523 2258 3362
3571 2722 3683
3683 2498 256
3491 2850 432
3410 3042 1105
3378 3298 3282
3523 3539 3763
3619 3218 352
3635 3394 592
3571 3507 1297
3635 3635 2946
3683 3731 3763
3811 672 1121
3827 624 2114
3843 817 2946
3827 1153 3362
3811 1489 3555
3795 1137 945
3843 1153 2546
3843 1393 3042
3811 1729 3427
3779 2050 3619
3763 1505 368
3859 1889 913
3843 2050 2642
3811 2306 3362
3731 2770 3715
3827 2626 368
3907 2978 592
3923 3090 1281
3843 3154 3122
3827 3410 3795
3779 3410 480
3779 3555 1169
3811 3651 2354
3843 3763 3475
3843 3827 3843
