其他预设/【236】赛博朋克风调色预设/【后期菌】视频调色预设/3DL/Miami 07_S.3dl
# LUT by SparkleStock. Enhanced with VOXCOLOR algorithms.
0 128 256 384 512 640 768 896 1023
0 0 0
80 48 160
112 96 320
160 224 576
256 304 929
368 400 1473
512 544 2130
705 672 2562
945 929 2994
96 144 176
80 192 256
176 304 512
240 432 817
368 528 1297
496 656 1889
672 849 2482
913 1153 2946
1169 1393 3234
96 320 336
160 432 528
224 496 672
320 656 1089
480 881 1729
689 1137 2450
881 1425 2914
1137 1681 3202
1393 1953 3394
176 672 624
256 785 817
368 929 1105
464 1169 1617
592 1393 2306
785 1681 2786
1025 2033 3106
1265 2258 3298
1569 2482 3491
272 1169 1073
352 1393 1361
384 1521 1521
560 1793 2162
689 2098 2658
881 2418 3010
1153 2658 3250
1505 2818 3410
1841 2914 3507
336 1953 1617
400 2226 1969
496 2370 2226
672 2546 2578
913 2786 2962
1169 2962 3202
1489 3058 3394
1793 3122 3491
2226 3202 3587
448 2754 2242
560 2850 2530
672 2866 2658
865 2978 2866
1153 3138 3106
1457 3234 3298
1841 3298 3475
2178 3346 3555
2530 3410 3651
672 3186 2626
817 3218 2818
1009 3250 2962
1233 3298 3138
1393 3346 3202
1729 3378 3346
2082 3443 3443
2386 3491 3555
2690 3523 3619
1009 3378 2962
1217 3443 3138
1425 3491 3234
1569 3491 3282
1889 3507 3378
2130 3523 3410
2418 3555 3507
2674 3571 3571
2866 3619 3651
224 32 192
240 64 304
240 112 432
256 176 705
400 272 1137
480 464 1745
656 608 2354
897 817 2818
1185 1089 3154
464 192 400
480 240 592
368 272 705
400 464 1105
480 656 1617
640 817 2258
833 1041 2722
1121 1313 3106
1457 1601 3346
560 400 592
336 512 705
384 640 961
512 833 1505
624 1041 2130
849 1313 2690
1041 1553 3010
1441 1969 3330
1745 2098 3491
400 656 608
400 961 1025
512 1185 1393
576 1329 1873
785 1649 2626
961 1921 2962
1233 2258 3218
1601 2450 3394
1985 2610 3539
464 1089 961
464 1633 1569
576 1793 1921
705 2098 2450
849 2386 2834
1121 2658 3122
1489 2834 3346
1793 2898 3443
2274 2978 3587
592 1489 1041
496 2402 2178
656 2514 2418
913 2802 2818
1121 2930 3058
1425 3042 3266
1745 3122 3394
2194 3202 3555
2562 3266 3651
769 2338 1505
689 2946 2514
865 3010 2786
1121 3122 3010
1377 3218 3154
1745 3266 3362
2082 3330 3475
2402 3378 3555
2722 3394 3651
913 2898 1729
913 3202 2530
1201 3346 3042
1521 3394 3234
1729 3394 3266
2066 3427 3362
2322 3475 3443
2626 3523 3571
2850 3539 3635
1217 3202 1841
1329 3250 2482
1617 3491 3154
1921 3539 3362
2226 3555 3410
2402 3555 3475
2642 3555 3507
2866 3587 3587
3042 3619 3651
560 144 368
512 128 480
544 160 737
560 208 977
801 272 1489
881 368 2017
1089 544 2546
1313 817 2962
1649 1201 3282
1409 320 544
1489 368 737
1457 384 1009
1345 416 1473
1297 512 2066
1217 672 2546
1153 1217 2978
1457 1489 3234
1745 1745 3410
2338 560 544
2450 608 897
2226 624 1169
1089 817 1905
929 1233 2466
1073 1537 2914
1425 1905 3234
1761 2098 3410
2066 2226 3523
1697 817 496
1393 1009 1009
897 1281 1585
1025 1489 2242
1025 1809 2706
1185 2178 3074
1569 2482 3330
1969 2578 3475
2370 2658 3571
721 1025 576
753 1537 1217
737 2017 1969
865 2258 2402
1073 2562 2850
1425 2850 3234
1809 2946 3410
2274 3010 3555
2642 3058 3635
1089 1537 672
849 2194 1537
849 2722 2546
1137 2914 2818
1409 3074 3138
1713 3122 3330
2114 3218 3475
2514 3282 3587
2786 3266 3651
1377 2033 689
1041 2674 1585
1121 3138 2866
1329 3218 3074
1729 3282 3250
2066 3330 3362
2386 3378 3491
2690 3427 3571
2930 3443 3667
1601 2610 753
1409 3042 1505
1425 3266 2690
1761 3427 3250
2098 3443 3298
2338 3443 3378
2562 3507 3475
2834 3539 3587
3042 3555 3651
1809 2850 785
1937 3090 1153
2098 3266 1745
2242 3507 3202
2530 3571 3443
2722 3571 3507
2834 3571 3539
3042 3587 3619
3154 3651 3667
1713 240 480
1825 256 624
1809 256 929
1905 272 1201
2033 304 1649
2226 368 2098
2626 496 2626
2818 624 2962
2338 1041 3298
2786 464 560
2578 464 769
2514 464 1089
2578 464 1489
2754 480 1905
2786 592 2498
2578 865 3010
2466 1281 3298
2466 1681 3475
2834 689 560
2610 705 961
2498 721 1297
2514 753 1713
2450 817 2226
2482 1041 2850
2466 1553 3282
2130 2178 3427
2354 2306 3523
2722 913 368
2578 1057 801
2498 1057 1473
2498 1153 1873
1617 1665 2626
1665 2242 3122
1953 2610 3394
2418 2706 3523
2578 2690 3619
1985 1281 176
1761 1537 464
1649 1793 1313
1313 2226 2242
1585 2450 2770
1729 2834 3218
2242 3042 3491
2626 3074 3587
2818 3090 3651
2450 1713 224
2226 1921 336
1377 2498 1473
1409 2930 2690
1665 3058 3074
2066 3202 3378
2402 3234 3491
2770 3266 3619
2978 3282 3667
2482 2178 304
2498 2354 400
1921 2754 1217
1697 3298 3090
1969 3346 3250
2402 3362 3394
2658 3410 3507
2946 3443 3619
3106 3475 3667
2578 2578 368
2562 2658 480
2242 3010 1217
2338 3378 3010
2306 3475 3218
2562 3491 3410
2802 3507 3491
3010 3555 3619
3154 3571 3667
2674 2866 480
2706 2962 640
2706 3090 897
2818 3234 1441
2818 3555 3346
2914 3587 3507
3090 3635 3571
3186 3651 3619
3282 3651 3683
3074 368 560
2994 336 721
2930 304 1041
2978 272 1393
3090 368 1777
3234 448 2258
3186 544 2642
3282 721 3042
3362 929 3266
3122 496 689
2914 480 929
2802 480 1265
2834 480 1665
2994 528 2194
3282 640 2658
3507 849 3010
3475 1057 3218
3491 1329 3427
3042 737 656
2802 769 1073
2754 785 1425
2722 817 1809
2946 897 2386
3250 993 2850
3346 1393 3218
3202 1729 3475
3058 1985 3587
2978 1025 448
2770 1153 913
2722 1153 1553
2754 1217 1953
2914 1297 2466
3074 1585 2994
3122 1937 3378
3090 2418 3571
2834 2770 3651
2706 1377 144
2610 1553 352
2770 1649 1073
2818 1681 2066
2818 1953 2626
2466 2626 3202
2690 3042 3539
2850 3138 3635
3010 3138 3683
2978 1745 144
2818 2050 256
2754 2194 480
2722 2530 1265
2306 2994 2994
2674 3154 3362
2754 3266 3523
2994 3298 3635
3138 3330 3683
3106 2354 240
2978 2482 304
2994 2642 400
2722 2850 993
2450 3378 3234
2674 3410 3427
2930 3427 3539
3122 3475 3635
3234 3491 3699
3138 2770 304
3106 2850 352
3138 2994 464
3154 3074 705
2946 3427 3122
2914 3523 3427
3074 3571 3539
3202 3587 3635
3346 3619 3715
3202 3058 368
3202 3106 464
3218 3202 592
3202 3282 993
3186 3330 1665
3202 3587 3443
3282 3667 3619
3362 3651 3651
3443 3683 3715
3427 432 705
3346 368 945
3346 368 1297
3362 352 1713
3427 416 2178
3523 528 2578
3523 656 2930
3555 865 3154
3587 1073 3378
3362 528 817
3234 512 1137
3138 512 1473
3122 512 1841
3298 608 2402
3491 753 2834
3635 993 3106
3651 1265 3330
3651 1473 3443
3298 817 801
3106 801 1185
3058 833 1553
3074 897 1953
3186 945 2466
3443 1169 2994
3651 1393 3250
3635 1569 3362
3619 1761 3523
3234 1105 512
3090 1217 1009
3058 1233 1617
3090 1281 2050
3154 1409 2546
3394 1553 3042
3587 1777 3330
3523 2114 3523
3394 2306 3635
3122 1377 144
3010 1617 368
3058 1729 1089
3058 1729 2050
3122 1873 2562
3378 2098 3090
3362 2466 3394
3362 2754 3619
3330 2962 3715
3330 1809 144
3186 2114 288
3106 2242 480
3202 2370 1025
3282 2578 1697
3106 2930 3202
3010 3202 3491
3186 3346 3651
3298 3378 3715
3491 2402 208
3378 2578 256
3378 2786 368
3282 2914 544
3154 3074 1489
2962 3282 3218
3106 3410 3491
3266 3507 3651
3394 3523 3731
3475 2898 288
3443 3010 352
3427 3106 448
3410 3234 592
3266 3298 1393
3202 3491 3186
3266 3555 3523
3410 3619 3667
3491 3635 3715
3443 3138 352
3427 3218 448
3475 3282 528
3475 3362 721
3443 3394 1137
3475 3427 2017
3491 3651 3539
3523 3699 3683
3539 3715 3731
3619 464 897
3571 416 1233
3571 384 1585
3571 416 2033
3667 528 2530
3699 672 2850
3699 833 3122
3699 1009 3282
3699 1249 3443
3619 592 1057
3539 560 1361
3491 576 1681
3523 656 2194
3587 737 2658
3683 913 3010
3715 1153 3250
3699 1393 3427
3683 1585 3491
3571 913 977
3475 865 1441
3427 897 1681
3443 993 2178
3523 1089 2674
3651 1281 3122
3715 1553 3378
3715 1729 3475
3667 1889 3555
3539 1153 672
3427 1281 1121
3394 1297 1729
3378 1393 2130
3427 1473 2610
3571 1649 3090
3619 1841 3346
3683 2114 3507
3667 2258 3619
3491 1393 208
3394 1601 368
3346 1777 1153
3330 1809 2066
3330 1905 2530
3443 2098 3042
3523 2258 3362
3587 2498 3555
3571 2722 3683
3571 1809 208
3523 2114 304
3427 2370 496
3362 2466 1025
3378 2498 1649
3362 2658 2994
3410 2722 3346
3475 3010 3587
3507 3218 3715
3683 2498 256
3635 2722 320
3491 2850 432
3394 2962 705
3410 3042 1105
3410 3122 1889
3378 3298 3282
3394 3427 3587
3523 3539 3763
3635 2962 272
3587 3074 336
3539 3202 480
3443 3298 721
3410 3362 1025
3410 3394 2033
3443 3555 3362
3539 3635 3635
3587 3651 3731
3619 3218 352
3619 3298 448
3635 3394 592
3587 3443 897
3571 3507 1297
3587 3523 1969
3635 3635 2946
3635 3699 3667
3683 3731 3763
3715 560 1041
3763 496 1489
3763 496 1953
3779 528 2418
3779 672 2802
3779 801 3058
3795 1057 3282
3779 1233 3410
3779 1425 3539
3779 705 1329
3763 705 1649
3731 689 2033
3779 785 2498
3795 961 2930
3795 1153 3218
3779 1313 3346
3779 1505 3475
3763 1681 3539
3763 1041 1009
3763 977 1729
3731 1041 2114
3763 1121 2514
3763 1281 2946
3779 1425 3218
3779 1617 3378
3779 1825 3507
3763 1953 3587
3779 1265 913
3731 1393 1361
3699 1393 1889
3699 1505 2386
3683 1585 2690
3683 1713 3090
3683 1873 3346
3731 2162 3555
3731 2338 3651
3683 1425 304
3683 1617 400
3683 1841 1009
3635 1905 2130
3619 1969 2578
3635 2098 2994
3635 2242 3330
3683 2482 3571
3715 2706 3699
3731 1889 272
3731 2210 368
3667 2386 560
3651 2482 1121
3651 2546 1617
3587 2578 2946
3619 2674 3346
3667 2850 3651
3715 3122 3763
3763 2530 288
3731 2754 352
3667 2946 512
3635 3010 817
3635 3074 1153
3667 3106 1953
3651 3186 3218
3683 3266 3587
3683 3475 3731
3763 3090 352
3763 3234 464
3683 3330 608
3651 3410 945
3635 3410 1377
3651 3443 1793
3667 3507 2674
3683 3619 3523
3715 3683 3779
3715 3330 400
3715 3410 496
3715 3507 769
3651 3539 1169
3683 3571 1745
3683 3635 2498
3715 3683 3154
3779 3763 3635
3795 3795 3811
3811 672 1121
3811 640 1617
3827 624 2114
3827 672 2610
3843 817 2946
3843 977 3202
3827 1153 3362
3811 1297 3475
3811 1489 3555
3811 865 1441
3811 817 1921
3827 817 2402
3843 993 2834
3843 1137 3106
3811 1281 3266
3827 1425 3394
3811 1617 3523
3795 1761 3571
3795 1137 945
3843 1137 2258
3843 1153 2546
3843 1297 2898
3843 1393 3042
3843 1537 3250
3811 1729 3427
3795 1905 3539
3779 2050 3619
3763 1153 400
3811 1505 1377
3859 1521 2274
3875 1617 2626
3859 1665 2802
3843 1761 3090
3811 1937 3378
3795 2242 3587
3763 2386 3667
3763 1505 368
3795 1681 448
3859 1889 913
3875 2050 1873
3843 2050 2642
3843 2162 2994
3811 2306 3362
3763 2498 3619
3731 2770 3715
3811 1937 352
3859 2226 400
3875 2450 624
3923 2546 1073
3923 2610 1729
3859 2642 2946
3827 2674 3330
3779 2850 3635
3779 3090 3731
3827 2626 368
3875 2866 416
3907 2978 592
3923 3074 929
3923 3090 1281
3923 3106 2050
3843 3154 3122
3811 3266 3635
3827 3410 3795
3843 3122 384
3827 3266 480
3843 3378 689
3859 3427 1041
3875 3443 1457
3907 3475 1985
3843 3523 2658
3843 3587 3330
3827 3667 3811
3779 3410 480
3763 3507 705
3779 3555 1169
3795 3571 1745
3811 3651 2354
3811 3715 2994
3843 3763 3475
3843 3811 3715
3843 3827 3843
