其他预设/【236】赛博朋克风调色预设/【后期菌】视频调色预设/3DL/Miami 05.3dl
# LUT by SparkleStock. Enhanced with VOXCOLOR algorithms.
0 128 256 384 512 640 768 896 1023
64 64 128
144 128 336
176 224 560
240 336 865
336 384 1201
416 432 1617
496 480 2066
624 512 2466
785 560 2786
160 288 368
160 352 496
256 496 801
320 608 1153
432 640 1553
512 672 1921
608 705 2322
737 721 2706
913 769 3010
192 528 576
256 656 785
304 753 1009
432 897 1409
528 1041 1857
672 1121 2354
833 1217 2770
1009 1217 3058
1153 1169 3282
272 913 897
368 1073 1121
432 1233 1425
528 1393 1777
624 1473 2178
785 1585 2642
1009 1761 3010
1201 1777 3234
1441 1793 3475
352 1441 1345
432 1617 1585
464 1713 1745
576 1857 2114
689 2033 2498
849 2194 2850
1089 2354 3154
1377 2370 3378
1601 2386 3523
416 2033 1777
464 2210 2066
528 2338 2242
624 2466 2434
785 2594 2738
993 2786 3026
1201 2818 3266
1457 2850 3459
1761 2850 3587
480 2690 2274
544 2786 2482
592 2802 2578
705 2866 2722
833 2978 2882
1089 3090 3138
1329 3170 3330
1569 3186 3507
1889 3234 3651
608 3090 2610
656 3154 2738
753 3186 2866
849 3218 2994
977 3234 3074
1201 3282 3202
1425 3378 3362
1649 3394 3507
1921 3410 3619
737 3362 2834
849 3410 2994
945 3443 3090
1009 3443 3154
1169 3475 3266
1329 3507 3330
1553 3539 3410
1825 3539 3523
2098 3587 3619
336 128 400
320 176 528
320 208 721
384 256 1009
464 320 1393
512 448 1809
624 528 2290
817 576 2658
1025 624 2978
624 288 640
656 336 897
480 432 1025
496 592 1393
544 737 1761
624 785 2194
753 769 2546
961 817 2930
1201 865 3218
753 592 897
464 721 1009
528 881 1265
592 1041 1713
656 1137 2130
817 1265 2578
993 1265 2882
1217 1297 3234
1473 1297 3427
544 897 913
512 1265 1329
592 1409 1649
640 1489 1953
801 1697 2466
977 1729 2818
1201 1873 3106
1505 1889 3394
1697 1777 3523
560 1297 1169
528 1793 1761
608 1921 2017
705 2066 2338
833 2242 2690
1057 2386 2994
1361 2482 3266
1601 2434 3443
1953 2386 3603
656 1585 1105
544 2370 2194
624 2514 2386
817 2642 2642
945 2754 2850
1169 2850 3090
1441 2946 3330
1761 2930 3491
2114 2882 3635
817 2306 1553
656 2866 2498
737 2930 2690
865 3010 2834
1009 3058 2978
1265 3170 3186
1505 3186 3378
1825 3218 3507
2178 3250 3635
945 2850 1905
817 3154 2578
913 3266 2930
1057 3298 3074
1169 3314 3154
1393 3362 3250
1633 3410 3378
1969 3427 3523
2306 3459 3635
1121 3202 2194
1009 3250 2562
1105 3459 3026
1233 3507 3234
1393 3539 3314
1537 3539 3362
1793 3539 3443
2130 3555 3523
2370 3603 3603
817 208 640
753 176 833
769 240 1137
753 256 1345
929 288 1729
993 336 2130
1153 416 2546
1249 528 2882
1489 592 3218
1617 368 881
1681 400 1169
1649 384 1393
1505 448 1777
1361 528 2194
1249 560 2514
1089 881 2834
1345 913 3170
1569 929 3394
2306 576 913
2658 544 1329
2514 560 1569
1201 865 2178
929 1265 2466
1073 1393 2818
1265 1409 3106
1521 1377 3330
1777 1377 3507
1825 977 833
1617 1169 1489
993 1473 2033
1089 1601 2466
1025 1809 2706
1201 1921 2978
1521 2033 3266
1761 1905 3459
1953 1841 3603
897 1233 753
817 1713 1585
721 2114 2210
849 2290 2530
1057 2466 2818
1297 2578 3106
1649 2562 3378
1953 2530 3539
2274 2418 3651
1329 1729 785
913 2210 1761
785 2642 2546
977 2786 2754
1185 2930 2994
1393 2962 3218
1761 3026 3410
2098 3010 3555
2434 2930 3667
1697 2130 753
1057 2690 1809
913 3058 2770
1009 3090 2882
1265 3170 3074
1553 3218 3234
1825 3266 3427
2210 3282 3555
2546 3298 3667
1777 2706 1073
1329 3090 2050
1041 3250 2690
1217 3394 3138
1409 3410 3234
1601 3410 3298
1905 3443 3410
2354 3491 3539
2610 3507 3651
1857 3010 1281
1825 3234 1793
1665 3362 2402
1393 3507 3138
1665 3603 3378
1841 3619 3427
2082 3603 3459
2514 3603 3539
2754 3635 3635
1841 272 785
1905 288 1025
1937 288 1313
2017 320 1585
1953 320 1873
2082 320 2194
2530 368 2530
2706 384 2914
2290 448 3282
2722 432 977
2770 416 1201
2882 416 1441
2882 432 1713
2930 432 2066
2690 496 2466
2482 576 2994
2370 624 3282
2338 705 3459
3058 624 1025
3282 560 1473
3282 576 1713
3282 576 2050
2834 672 2402
2594 801 2866
2466 961 3266
1905 1377 3443
2098 1393 3555
2930 945 817
3282 913 1297
3459 737 1969
3314 865 2322
1729 1681 2946
1665 1985 3170
1793 2050 3378
2050 2017 3523
2274 1921 3635
2258 1361 336
2050 1617 672
1809 1953 1825
1297 2370 2658
1617 2402 3010
1633 2642 3218
1985 2626 3443
2338 2546 3587
2466 2386 3651
2626 1841 400
2562 1969 496
1313 2594 2017
1185 2914 2866
1393 2994 3058
1745 3058 3282
2050 3058 3443
2418 2978 3603
2690 2946 3683
2690 2290 448
2706 2434 624
1873 2834 1729
1281 3234 3026
1473 3266 3154
1857 3266 3298
2178 3314 3459
2546 3362 3603
2802 3282 3667
2738 2626 672
2722 2738 849
2098 3138 1841
1473 3427 2994
1585 3459 3186
1985 3475 3362
2322 3475 3427
2690 3523 3587
2850 3523 3651
2706 2978 993
2690 3074 1217
2610 3202 1521
2594 3330 2017
1937 3587 3282
2290 3619 3475
2610 3635 3539
2818 3635 3603
3026 3651 3667
2882 368 865
2930 336 1121
2978 320 1329
2978 304 1617
3026 336 1905
3074 352 2274
3058 352 2594
3202 368 3026
3250 368 3250
3314 496 1121
3362 432 1393
3427 432 1665
3410 432 1921
3410 416 2274
3427 432 2594
3443 432 2978
3443 480 3186
3475 496 3427
3459 624 1201
3603 576 1729
3603 576 1969
3603 560 2290
3619 592 2690
3539 576 2882
3410 785 3218
3234 817 3475
3138 865 3651
3410 945 929
3603 945 1537
3667 769 2258
3635 817 2562
3619 849 2866
3443 1105 3170
3202 1217 3410
3042 1425 3619
2610 1889 3667
2946 1393 352
3042 1585 496
3491 1585 1489
3635 1297 2610
3362 1633 2994
2386 2306 3298
2418 2578 3491
2562 2562 3619
2690 2434 3667
3138 1777 320
3170 1985 416
3138 2162 528
3026 2562 1521
2162 2978 3138
2482 2978 3362
2466 3058 3491
2770 2994 3635
2882 2930 3699
3218 2322 400
3186 2482 480
3186 2626 624
2770 2850 1441
1873 3378 3218
2306 3330 3362
2562 3378 3475
2834 3362 3635
3026 3314 3683
3250 2770 528
3186 2882 672
3234 3010 913
3154 3074 1265
2354 3459 3106
2386 3523 3394
2754 3539 3507
2994 3555 3619
3138 3555 3683
3250 3106 769
3234 3154 945
3202 3234 1217
3106 3298 1649
3026 3378 2098
2786 3619 3394
2962 3667 3587
3106 3667 3635
3250 3699 3715
3330 384 1009
3378 336 1249
3443 336 1553
3459 336 1841
3475 336 2178
3491 336 2514
3491 336 2850
3507 368 3138
3555 384 3330
3587 480 1265
3635 464 1617
3635 464 1889
3619 432 2178
3619 432 2514
3635 416 2818
3619 448 3058
3651 512 3314
3667 528 3507
3667 721 1377
3731 592 1841
3699 576 2162
3699 608 2530
3715 608 2786
3731 656 3074
3699 672 3250
3699 689 3427
3715 785 3587
3619 1009 1089
3715 1025 1665
3763 817 2402
3811 849 2754
3811 897 3042
3747 929 3218
3715 1009 3378
3619 1201 3539
3507 1265 3667
3298 1393 368
3410 1633 576
3619 1665 1537
3763 1265 2706
3699 1377 3058
3683 1505 3218
3475 1777 3427
3362 1873 3619
3266 2017 3715
3459 1841 384
3475 2050 448
3459 2194 560
3587 2322 1297
3587 2546 1825
3186 2706 3330
2882 2962 3507
2930 3026 3635
3090 3010 3731
3523 2370 368
3491 2514 432
3507 2738 576
3491 2914 801
3266 3090 1729
2802 3314 3298
2978 3378 3523
3058 3378 3651
3250 3362 3715
3507 2834 480
3507 2978 624
3507 3106 817
3491 3186 1041
3298 3282 1777
3010 3491 3218
3010 3555 3523
3234 3603 3651
3330 3603 3731
3507 3170 672
3491 3266 881
3475 3314 1057
3459 3378 1329
3427 3427 1681
3362 3475 2322
3266 3683 3523
3394 3715 3699
3459 3731 3731
3603 400 1185
3635 368 1473
3651 368 1761
3635 336 2098
3667 336 2482
3699 336 2818
3715 352 3106
3699 352 3298
3715 384 3475
3715 544 1409
3747 480 1777
3731 480 2098
3763 480 2482
3747 448 2802
3747 448 3010
3747 480 3218
3747 544 3427
3731 560 3555
3763 817 1457
3811 656 2050
3779 608 2338
3843 640 2754
3811 640 3010
3811 672 3202
3779 737 3378
3779 769 3523
3779 817 3635
3731 1073 1217
3763 1105 1681
3843 929 2578
3891 961 2946
3859 929 3154
3827 993 3298
3779 1025 3427
3763 1153 3539
3763 1249 3651
3555 1473 432
3603 1665 592
3715 1777 1585
3827 1393 2786
3827 1377 3186
3811 1457 3330
3763 1537 3459
3731 1681 3539
3667 1777 3651
3635 1905 416
3651 2146 496
3651 2322 656
3667 2482 1265
3667 2482 1761
3635 2274 3250
3635 2274 3443
3539 2482 3603
3459 2658 3747
3715 2466 432
3683 2658 528
3651 2786 608
3635 2914 785
3667 2994 1233
3635 3170 1857
3443 3362 3330
3282 3427 3587
3427 3410 3747
3699 2914 448
3699 3058 608
3667 3186 801
3635 3250 1057
3619 3298 1249
3523 3378 2082
3427 3555 3394
3459 3635 3635
3539 3651 3763
3683 3234 624
3667 3330 833
3667 3410 1169
3619 3459 1425
3619 3475 1729
3603 3523 2258
3603 3619 2914
3555 3731 3667
3635 3779 3779
3715 480 1265
3763 432 1649
3763 368 1953
3763 368 2354
3811 352 2706
3827 352 3010
3827 400 3266
3827 416 3459
3827 416 3587
3827 592 1553
3859 576 1889
3827 496 2242
3843 496 2610
3859 496 2930
3827 496 3170
3827 528 3330
3827 544 3507
3843 608 3635
3827 961 1377
3859 737 2114
3859 689 2498
3859 689 2786
3875 721 3138
3843 721 3314
3843 753 3459
3827 801 3603
3827 865 3667
3811 1201 1313
3843 1201 1729
3875 1073 2402
3891 1009 3010
3891 1073 3250
3875 1089 3394
3843 1121 3491
3843 1169 3603
3811 1233 3683
3715 1521 544
3715 1745 689
3731 1921 1409
3843 1457 2850
3843 1457 3250
3859 1521 3410
3827 1553 3491
3811 1617 3587
3811 1681 3667
3747 1953 480
3811 2210 624
3747 2354 737
3747 2498 1393
3747 2594 1777
3731 2033 3282
3747 2114 3475
3763 2194 3603
3747 2434 3715
3811 2482 480
3779 2706 576
3763 2866 689
3731 3010 849
3747 3090 1169
3763 3170 1921
3715 3138 3202
3715 3074 3603
3699 3218 3763
3843 3042 592
3827 3234 785
3779 3298 1009
3747 3362 1297
3715 3378 1569
3699 3427 1825
3699 3507 2514
3683 3635 3475
3699 3683 3779
3811 3330 721
3779 3427 993
3747 3491 1361
3715 3491 1633
3715 3539 2098
3699 3603 2562
3731 3683 3106
3779 3779 3619
3811 3843 3859
3843 544 1313
3859 496 1713
3859 432 2050
3859 384 2482
3875 416 2850
3891 384 3138
3875 400 3362
3859 400 3491
3859 416 3619
3859 689 1553
3859 624 1889
3843 560 2322
3891 560 2754
3891 512 3010
3875 544 3234
3875 544 3443
3875 576 3555
3875 624 3667
3843 1025 1233
3891 817 2258
3875 737 2530
3891 769 2946
3891 769 3170
3875 801 3378
3859 801 3507
3875 833 3619
3875 881 3699
3747 1233 721
3843 1345 1585
3891 1185 2402
3923 1121 3090
3907 1137 3282
3923 1185 3475
3891 1201 3555
3875 1249 3635
3859 1281 3683
3779 1601 624
3811 1793 817
3811 1953 1329
3811 1809 2146
3859 1537 3282
3859 1585 3459
3843 1601 3539
3843 1649 3635
3827 1745 3683
3843 2017 576
3843 2242 689
3827 2418 881
3811 2594 1377
3811 2690 1873
3747 2242 3298
3763 2130 3507
3747 2194 3619
3811 2354 3699
3859 2578 592
3859 2786 721
3843 2930 865
3827 3058 1105
3827 3154 1377
3779 3170 2033
3731 3170 3090
3731 3010 3603
3811 3106 3763
3891 3074 656
3875 3250 897
3859 3314 1073
3827 3394 1361
3843 3443 1665
3827 3475 1969
3811 3523 2498
3859 3619 3186
3843 3635 3827
3859 3427 929
3827 3491 1265
3827 3555 1681
3763 3539 2082
3763 3635 2578
3763 3683 3042
3843 3779 3475
3875 3843 3731
3875 3875 3891
