其他预设/【236】赛博朋克风调色预设/【后期菌】视频调色预设/3DL/Miami 06_S.3dl
# LUT by SparkleStock. Enhanced with VOXCOLOR algorithms.
0 128 256 384 512 640 768 896 1023
80 80 144
160 160 272
208 288 416
304 400 656
480 592 1057
689 881 1665
897 1169 2434
1041 1313 2866
1217 1473 3218
160 224 272
160 288 352
272 400 544
368 544 833
560 785 1377
753 1057 2001
913 1265 2562
1089 1473 3042
1281 1617 3330
144 336 352
208 448 464
288 528 656
432 737 1041
656 1041 1681
849 1313 2386
1009 1537 2850
1201 1729 3154
1377 1905 3378
112 576 464
128 689 640
288 833 897
544 1105 1361
801 1393 2033
945 1633 2546
1169 1937 2930
1361 2130 3218
1617 2354 3427
32 929 656
16 1137 929
128 1297 1217
560 1601 1809
881 1953 2386
1153 2306 2850
1377 2546 3138
1649 2722 3330
1985 2802 3491
0 1505 961
16 1889 1425
32 2130 1793
112 2322 2354
560 2562 2770
1041 2818 3106
1537 2978 3330
1985 3090 3459
2402 3138 3587
0 2274 1425
0 2562 1921
16 2658 2290
48 2802 2674
368 2930 2978
1105 3090 3250
1729 3234 3427
2306 3298 3539
2770 3362 3667
48 2818 1905
112 2962 2306
208 3026 2642
560 3090 2914
929 3154 3122
1441 3234 3282
1985 3346 3427
2530 3427 3587
2914 3475 3667
560 3058 2322
977 3218 2642
1201 3250 2882
1393 3282 3026
1713 3346 3234
2146 3410 3346
2482 3475 3491
2850 3523 3587
3154 3587 3667
256 176 288
288 224 368
336 288 464
416 384 672
656 576 1121
833 977 1905
1025 1233 2610
1201 1393 3026
1457 1537 3282
496 272 400
544 304 512
464 400 624
576 656 1073
689 929 1585
913 1201 2354
1057 1393 2786
1281 1569 3138
1537 1729 3410
560 400 480
416 480 576
464 640 833
624 913 1345
801 1185 1953
1009 1441 2546
1169 1633 2930
1457 1921 3234
1761 2082 3507
384 544 448
288 817 769
480 1009 1105
705 1249 1585
945 1601 2274
1121 1825 2738
1377 2114 3042
1633 2322 3298
2050 2562 3571
176 849 496
64 1329 1105
304 1585 1585
608 1841 2114
1009 2258 2626
1329 2498 2978
1633 2722 3250
1937 2786 3394
2402 2914 3587
336 1153 464
0 2082 1585
32 2290 2033
320 2562 2626
753 2722 2930
1345 2882 3138
1841 3042 3346
2386 3122 3491
2738 3202 3651
496 1665 624
32 2530 1745
80 2770 2434
288 2898 2786
865 2994 3010
1553 3138 3266
2114 3234 3410
2610 3298 3539
2962 3362 3651
945 2226 817
480 2642 1617
881 3058 2610
1265 3170 2994
1473 3234 3122
1937 3298 3298
2370 3378 3410
2850 3459 3587
3122 3491 3667
1617 2642 1009
1409 2722 1473
1729 3154 2562
2033 3346 3106
2386 3378 3250
2562 3427 3362
2818 3491 3475
3122 3539 3587
3330 3587 3667
640 256 400
592 240 464
640 288 592
656 336 753
913 464 1137
1121 721 1713
1409 977 2418
1601 1249 2962
1841 1393 3330
1393 480 528
1361 512 656
1297 544 849
1265 528 1153
1281 640 1601
1441 993 2306
1377 1521 2994
1617 1649 3298
1937 1809 3507
2130 769 512
2226 833 833
1921 817 1089
1121 897 1553
1041 1297 2242
1169 1553 2690
1473 1873 3106
1793 2082 3378
2162 2258 3603
1537 833 464
1185 897 721
881 1137 1249
1041 1393 1841
1105 1681 2386
1313 2001 2850
1649 2322 3154
2066 2530 3410
2450 2690 3619
785 945 384
480 1201 672
448 1777 1633
769 2082 2162
1153 2370 2674
1553 2658 3106
2017 2818 3330
2418 2930 3507
2754 3042 3667
1361 1457 496
672 1617 705
160 2498 2194
608 2642 2626
1185 2850 3010
1697 2978 3202
2290 3106 3378
2738 3218 3571
2994 3266 3699
2017 2082 705
1265 2050 817
737 2866 2402
929 2930 2786
1537 3090 3090
2082 3170 3298
2562 3282 3427
2930 3346 3587
3202 3410 3715
2434 2642 833
1921 2610 929
1441 2738 1809
1793 3202 2962
2130 3282 3170
2418 3330 3298
2770 3394 3410
3090 3475 3603
3330 3523 3699
2770 2914 961
2690 2978 1009
2498 2962 1265
2514 3170 2754
2786 3410 3282
2994 3475 3394
3106 3475 3475
3330 3539 3587
3427 3603 3699
1665 528 480
1681 528 640
1617 528 833
1665 560 1089
1713 560 1393
1905 656 1777
2450 817 2386
2818 913 2738
2610 961 3058
2674 769 608
2402 721 753
2370 737 1073
2418 801 1425
2594 833 1825
2610 865 2322
2642 977 2754
2674 1105 3090
2738 1297 3346
2802 913 592
2594 961 913
2482 993 1265
2514 1009 1665
2322 945 2130
2482 1025 2610
2658 1281 3042
2322 2146 3507
2530 2290 3635
2722 1073 480
2546 1153 753
2530 1249 1425
2450 1233 1825
1665 1601 2418
1713 2114 2930
2033 2498 3282
2530 2754 3523
2738 2802 3667
2082 1313 416
1761 1473 544
1473 1585 1041
1345 2001 1985
1649 2258 2562
1873 2642 3090
2418 2914 3394
2786 3042 3603
3026 3106 3731
2770 1809 640
2514 2001 656
1409 2066 929
1217 2690 2514
1601 2866 2898
2242 3058 3282
2626 3138 3410
2978 3234 3603
3202 3298 3747
3010 2450 833
2962 2610 865
2322 2594 945
1665 3026 2770
2017 3122 3090
2546 3234 3330
2914 3330 3459
3218 3394 3619
3346 3427 3731
3138 2898 945
3122 2930 945
2722 2962 1041
2498 3042 2498
2562 3170 2898
2850 3362 3330
3042 3394 3410
3298 3491 3603
3459 3523 3715
3282 3138 1041
3282 3202 1057
3250 3234 1089
3202 3250 1265
3090 3362 3042
3218 3475 3378
3378 3539 3523
3459 3587 3619
3539 3619 3715
2994 785 656
2882 737 769
2786 705 1025
2818 785 1377
2914 849 1729
3090 929 2194
3058 945 2514
3330 1041 2914
3507 1121 3202
3170 865 737
2914 817 897
2802 817 1249
2882 849 1633
3042 913 2178
3330 993 2610
3603 1105 2930
3619 1185 3154
3715 1313 3410
3090 977 656
2882 1041 1041
2850 1057 1409
2818 1041 1793
3042 1073 2386
3378 1137 2818
3507 1329 3154
3491 1521 3410
3427 1729 3587
3042 1153 544
2802 1233 833
2850 1313 1521
2802 1281 1921
2978 1313 2418
3170 1473 2978
3394 1761 3330
3410 2226 3539
3106 2770 3763
2786 1457 416
2658 1585 528
2770 1633 993
2898 1649 2017
2882 1889 2546
2610 2562 3138
2850 3010 3491
3090 3154 3699
3266 3154 3795
3138 1889 560
2978 2130 624
2882 2306 785
2690 2514 1265
2498 2818 2866
2882 3026 3266
2978 3202 3459
3250 3298 3667
3378 3330 3779
3491 2626 849
3346 2786 865
3266 2882 929
2898 2914 1073
2642 3154 3026
2962 3282 3346
3202 3346 3475
3378 3410 3651
3475 3459 3763
3507 3058 993
3459 3106 1009
3475 3202 1057
3410 3218 1073
3138 3298 2866
3202 3394 3298
3346 3491 3507
3475 3523 3635
3587 3571 3747
3571 3298 1105
3539 3330 1105
3539 3378 1121
3523 3410 1153
3427 3394 1457
3475 3491 3266
3539 3587 3571
3603 3603 3651
3651 3651 3731
3507 913 801
3410 833 945
3394 865 1265
3475 945 1713
3571 1009 2194
3635 1041 2594
3635 1073 2882
3715 1137 3138
3779 1233 3346
3475 913 833
3330 881 1057
3250 881 1425
3282 897 1825
3459 945 2386
3667 1073 2818
3843 1185 3106
3891 1297 3346
3891 1409 3507
3410 1025 753
3234 1073 1121
3218 1105 1537
3218 1073 1921
3298 1105 2418
3635 1233 2994
3875 1361 3282
3907 1457 3427
3891 1649 3619
3362 1217 560
3170 1281 897
3170 1329 1553
3202 1329 2017
3298 1377 2546
3619 1457 3042
3859 1665 3394
3795 2082 3571
3731 2306 3699
3234 1505 448
3106 1649 544
3106 1681 1009
3154 1681 2001
3266 1793 2594
3587 2050 3106
3571 2434 3394
3667 2770 3651
3667 2914 3763
3475 2001 544
3330 2258 608
3218 2386 753
3298 2402 1073
3362 2514 1617
3250 2882 3170
3202 3058 3459
3410 3298 3699
3539 3346 3827
3715 2674 801
3603 2818 833
3587 3010 929
3507 3090 1025
3234 3122 1441
3154 3202 3138
3346 3330 3459
3523 3427 3667
3619 3475 3779
3731 3122 961
3715 3234 1009
3715 3330 1089
3635 3378 1121
3410 3394 1345
3378 3427 3026
3491 3491 3491
3619 3571 3667
3699 3603 3763
3763 3378 1105
3731 3427 1137
3699 3459 1153
3699 3491 1185
3651 3523 1233
3603 3523 1729
3667 3603 3491
3715 3667 3699
3747 3699 3747
3779 993 913
3763 977 1153
3779 1009 1537
3795 1057 2017
3907 1121 2514
3939 1153 2818
3939 1185 3122
3939 1201 3298
3971 1281 3491
3827 993 977
3715 993 1281
3651 1009 1633
3715 1009 2162
3779 1057 2626
3907 1169 3010
3987 1281 3266
3987 1377 3459
3971 1457 3571
3747 1089 865
3635 1169 1377
3571 1121 1633
3587 1121 2130
3699 1185 2658
3891 1297 3138
4019 1473 3410
4003 1601 3571
3971 1777 3667
3699 1249 672
3571 1313 977
3539 1377 1681
3507 1377 2114
3603 1425 2626
3779 1553 3138
3907 1745 3410
3971 2050 3587
3955 2258 3699
3603 1553 512
3507 1665 560
3427 1761 1041
3459 1777 2017
3475 1841 2530
3635 2066 3042
3731 2274 3394
3827 2562 3619
3875 2850 3763
3731 2033 560
3651 2290 592
3523 2482 753
3459 2482 1057
3475 2498 1569
3459 2658 2978
3539 2770 3346
3651 3026 3619
3779 3234 3779
3859 2722 769
3843 2962 849
3667 3026 897
3539 3090 1073
3523 3106 1297
3491 3170 1841
3475 3266 3266
3587 3394 3603
3747 3539 3827
3891 3170 977
3859 3282 1041
3747 3394 1073
3635 3459 1153
3571 3475 1281
3475 3475 1841
3587 3523 3330
3715 3603 3635
3763 3635 3795
3875 3427 1121
3859 3491 1153
3827 3539 1185
3731 3571 1201
3699 3635 1297
3699 3619 1665
3763 3651 2786
3795 3699 3651
3795 3731 3795
3971 1041 1009
3971 1105 1377
4003 1201 1889
4003 1201 2370
4019 1185 2770
4019 1185 3026
4067 1265 3298
4035 1297 3491
4035 1377 3635
4019 1105 1185
3971 1169 1569
3955 1153 2001
3955 1137 2450
3987 1201 2898
4035 1281 3218
4035 1345 3410
4035 1441 3571
4035 1601 3699
3955 1169 897
3955 1265 1665
3907 1233 2066
3891 1233 2450
3971 1313 2930
4003 1409 3266
4035 1537 3491
4035 1761 3651
4003 1937 3731
3955 1313 833
3939 1409 1201
3875 1457 1809
3859 1457 2354
3843 1505 2722
3891 1633 3138
3907 1809 3394
3987 2178 3651
3987 2370 3731
3891 1585 608
3843 1713 592
3779 1825 929
3763 1873 2114
3763 1953 2594
3779 2114 3010
3827 2274 3362
3907 2530 3635
4019 2786 3779
3939 2050 608
3859 2306 608
3747 2482 737
3747 2450 1105
3747 2514 1537
3715 2594 2914
3763 2738 3346
3875 2930 3651
3939 3218 3827
3939 2722 737
3891 2914 785
3795 3042 913
3747 3106 1121
3731 3122 1329
3747 3122 1889
3747 3170 3170
3795 3266 3619
3859 3491 3827
3971 3250 1009
3955 3394 1073
3843 3459 1089
3747 3491 1185
3747 3523 1377
3715 3523 1681
3731 3539 2594
3779 3603 3507
3859 3715 3843
3971 3507 1169
3939 3571 1185
3875 3619 1217
3747 3651 1249
3747 3699 1521
3731 3715 2194
3843 3731 3042
3907 3731 3571
3891 3795 3827
4035 1105 1057
4067 1185 1473
4035 1281 2066
4035 1265 2594
4035 1217 2930
4067 1233 3218
4095 1281 3410
4019 1329 3539
4035 1425 3667
4067 1169 1281
4035 1281 1777
4019 1297 2386
4067 1281 2786
4067 1281 3090
4095 1345 3298
4067 1409 3523
4067 1537 3635
4067 1681 3731
4003 1233 897
4095 1425 2194
4067 1345 2530
4067 1377 2850
4095 1377 3042
4095 1473 3330
4067 1649 3539
4035 1873 3667
4019 2033 3747
3955 1377 672
4019 1441 1169
4095 1585 2242
4067 1553 2626
4067 1617 2850
4035 1729 3138
4019 1921 3475
4019 2290 3699
4003 2434 3763
3971 1633 624
3987 1761 608
4003 1873 865
4003 2017 1729
4019 2033 2642
4003 2162 3010
3987 2322 3378
4003 2562 3667
4003 2882 3795
3987 2114 608
3987 2354 592
3987 2482 737
4003 2530 1073
4019 2546 1601
4003 2658 2930
3971 2738 3330
3971 2914 3667
3987 3202 3827
4003 2754 737
4003 2962 769
4003 3042 881
4003 3122 1121
4003 3122 1377
4019 3106 2001
3971 3170 3106
3971 3282 3619
3971 3459 3859
4003 3250 993
3987 3394 1057
3987 3475 1073
3987 3507 1201
3971 3539 1457
3955 3539 1793
3939 3587 2562
3955 3603 3282
3955 3731 3875
3971 3603 1201
3907 3635 1233
3859 3699 1265
3875 3715 1505
3843 3731 2066
3907 3763 2802
3955 3763 3394
3955 3779 3699
3939 3827 3843
