其他预设/【236】赛博朋克风调色预设/【后期菌】视频调色预设/3DL/Miami 07.3dl
# LUT by SparkleStock. Enhanced with VOXCOLOR algorithms.
0 256 512 768 1023
0 0 0
112 96 320
256 304 929
512 544 2130
945 929 2994
96 320 336
224 496 672
480 881 1729
881 1425 2914
1409 1969 3378
272 1169 1073
400 1521 1537
689 2098 2658
1153 2658 3250
1841 2914 3507
448 2754 2242
689 2866 2690
1153 3138 3106
1841 3298 3475
2530 3410 3651
1009 3378 2962
1425 3491 3234
1889 3507 3378
2418 3555 3507
2866 3619 3651
560 144 368
528 160 737
801 272 1489
1089 544 2546
1649 1201 3282
2466 528 592
2722 544 1281
929 1281 2562
1425 1905 3234
2098 2258 3507
721 993 592
705 2066 2242
1105 2658 2978
1809 2946 3410
2642 3058 3635
1377 2033 689
1121 3138 2914
1729 3282 3250
2386 3378 3491
2930 3443 3667
1809 2850 785
2098 3266 1745
2530 3571 3443
2834 3571 3539
3154 3651 3667
3122 368 576
3154 368 1057
3218 400 1777
3186 544 2642
3362 929 3266
3555 689 929
3651 689 1969
3651 897 2754
3378 1393 3218
3074 2033 3571
3010 1233 208
3571 1521 1233
3330 2050 3042
2690 3042 3539
3010 3138 3683
3106 2354 240
3106 2610 368
2466 3394 3282
2930 3427 3539
3234 3491 3699
3202 3058 368
3218 3202 592
3186 3330 1665
3282 3667 3619
3443 3683 3715
3635 480 913
3667 448 1681
3683 544 2562
3699 833 3122
3699 1249 3443
3763 913 1265
3795 897 2418
3795 1169 3074
3715 1553 3378
3683 1905 3539
3587 1313 256
3667 1777 1345
3667 2017 3154
3667 2370 3443
3571 2722 3683
3683 2498 256
3587 2834 336
3651 3090 737
3507 3410 3394
3523 3539 3763
3619 3218 352
3635 3394 592
3635 3475 1265
3651 3619 2946
3683 3731 3763
3811 672 1121
3827 624 2114
3843 817 2946
3827 1153 3362
3811 1489 3555
3795 1137 945
3827 1169 2690
3811 1473 3218
3795 1745 3443
3779 2050 3619
3763 1505 368
3795 1921 929
3683 2242 3282
3683 2530 3539
3731 2770 3715
3827 2626 368
3827 2994 480
3795 3202 849
3715 3282 3234
3811 3427 3779
3779 3410 480
3763 3523 1185
3763 3587 2530
3827 3763 3523
3843 3827 3843
