其他预设/【236】赛博朋克风调色预设/【后期菌】视频调色预设/3DL/Miami 03_S.3dl
# LUT by SparkleStock. Enhanced with VOXCOLOR algorithms.
0 64 128 192 256 320 384 448 512 576 640 704 768 832 896 960 1023
384 176 320
400 176 352
400 176 352
416 208 416
416 208 448
448 256 528
464 288 640
496 336 817
560 432 1057
656 576 1457
737 721 1745
849 913 2178
945 1073 2498
1041 1217 2658
1137 1377 2834
1249 1521 2962
1409 1665 3074
400 192 352
400 192 368
416 208 400
416 208 416
432 240 496
464 272 592
496 336 737
544 416 977
624 544 1281
705 656 1553
817 865 2017
881 977 2306
993 1185 2578
1073 1345 2770
1201 1505 2914
1345 1665 3026
1473 1825 3106
416 208 368
400 208 384
400 208 416
448 256 496
464 288 576
480 320 656
496 400 865
592 512 1153
656 640 1457
737 785 1793
833 945 2162
945 1153 2514
1025 1297 2690
1153 1489 2882
1297 1665 3010
1457 1889 3122
1569 2001 3186
416 224 400
416 224 416
432 256 480
464 288 560
496 336 640
512 416 817
560 496 1025
640 624 1313
705 753 1617
817 977 2098
897 1121 2354
1009 1329 2642
1137 1505 2802
1265 1665 2978
1377 1873 3090
1569 2130 3202
1697 2306 3250
416 256 432
448 288 496
464 320 560
480 352 624
496 384 672
528 496 897
592 592 1137
689 785 1521
785 977 1889
897 1201 2338
1009 1393 2610
1137 1553 2802
1281 1777 2994
1377 1953 3090
1537 2210 3202
1633 2274 3250
1825 2450 3314
464 336 496
464 352 560
496 416 624
512 480 705
560 560 881
592 656 1105
656 817 1393
753 993 1729
881 1217 2226
977 1441 2546
1073 1585 2754
1233 1825 2946
1377 2066 3090
1505 2226 3170
1665 2418 3250
1905 2610 3330
2066 2674 3346
480 480 576
512 528 672
528 592 753
528 656 865
576 785 1073
624 881 1297
721 1105 1633
817 1297 2050
977 1521 2466
1073 1697 2738
1233 1969 2946
1377 2194 3090
1537 2402 3186
1633 2466 3234
1857 2626 3314
2082 2770 3362
2194 2834 3427
512 672 737
544 801 849
576 881 977
608 993 1153
656 1105 1313
705 1233 1537
817 1409 1937
945 1617 2386
1057 1873 2642
1185 2050 2866
1345 2274 3010
1537 2498 3170
1617 2578 3234
1857 2754 3330
2114 2882 3410
2338 2994 3443
2418 2978 3459
528 1009 913
576 1137 1057
624 1249 1233
656 1377 1393
672 1457 1537
865 1713 2050
961 1889 2322
1153 2194 2690
1249 2290 2866
1441 2530 3058
1601 2674 3186
1745 2770 3250
1969 2882 3330
2130 2962 3394
2322 3026 3427
2546 3106 3459
2658 3122 3459
576 1409 1153
624 1489 1297
689 1665 1489
753 1841 1697
913 2082 2082
1025 2194 2338
1137 2386 2562
1313 2562 2850
1489 2722 3026
1617 2802 3186
1777 2882 3234
1953 2962 3314
2098 3026 3362
2274 3074 3410
2578 3170 3459
2690 3186 3459
2850 3234 3507
656 1857 1425
753 2066 1617
881 2226 1873
977 2338 2130
1057 2498 2322
1233 2626 2642
1377 2738 2802
1521 2834 2962
1681 2914 3122
1905 3026 3234
2098 3106 3314
2194 3122 3346
2386 3170 3410
2546 3202 3427
2738 3234 3459
2866 3282 3507
2978 3298 3523
817 2354 1617
913 2450 1873
1057 2578 2162
1169 2658 2402
1281 2770 2546
1457 2882 2770
1617 2978 2962
1761 3058 3106
1985 3106 3202
2114 3138 3250
2306 3202 3330
2450 3234 3394
2514 3234 3410
2770 3298 3459
2802 3314 3507
2978 3330 3523
2994 3330 3555
1057 2722 1969
1137 2754 2130
1313 2866 2450
1441 2914 2626
1537 2978 2754
1777 3090 2994
1857 3106 3058
2001 3138 3138
2194 3218 3218
2306 3234 3282
2498 3282 3346
2578 3298 3394
2802 3346 3459
2898 3362 3507
2978 3394 3507
3090 3410 3539
3202 3427 3571
1281 2898 2226
1505 3010 2530
1601 3058 2674
1713 3106 2770
1889 3138 2946
2066 3202 3074
2066 3218 3090
2274 3250 3202
2466 3314 3298
2498 3314 3314
2690 3330 3362
2738 3362 3410
2898 3394 3443
2994 3410 3475
3106 3443 3523
3186 3443 3539
3170 3443 3571
1569 3090 2402
1681 3122 2530
1825 3186 2690
1969 3218 2834
2098 3234 2914
2274 3282 3090
2434 3314 3186
2450 3330 3202
2546 3330 3250
2690 3394 3314
2738 3362 3330
2946 3427 3427
2962 3443 3443
3106 3459 3507
3106 3459 3523
3170 3475 3539
3282 3475 3539
1889 3202 2578
1937 3234 2642
2162 3250 2850
2290 3298 2962
2466 3330 3074
2578 3362 3186
2626 3346 3218
2642 3394 3218
2770 3427 3282
2882 3427 3330
2962 3427 3362
3026 3443 3410
3122 3475 3459
3202 3507 3507
3250 3507 3523
3202 3507 3539
3234 3523 3555
2162 3282 2690
2306 3314 2850
2466 3346 2962
2610 3394 3074
2658 3394 3138
2738 3394 3186
2770 3410 3218
2898 3443 3298
2978 3443 3330
3010 3443 3346
3090 3459 3410
3170 3475 3427
3234 3507 3459
3250 3507 3475
3314 3523 3523
3314 3523 3523
3410 3539 3571
416 176 352
400 176 352
416 208 400
416 224 416
416 224 448
464 256 576
496 304 656
528 352 833
592 480 1169
721 640 1537
817 801 1937
897 977 2290
993 1121 2514
1105 1297 2722
1217 1441 2866
1313 1553 2978
1521 1761 3090
416 208 368
416 208 384
432 224 416
448 224 448
464 256 528
480 288 624
512 368 817
576 480 1105
656 576 1377
737 737 1697
833 897 2098
977 1121 2466
1057 1249 2658
1169 1425 2850
1297 1569 2962
1457 1761 3090
1585 1937 3138
432 224 400
432 224 400
448 240 448
480 256 512
496 304 624
512 368 769
560 480 1025
624 576 1281
737 737 1617
833 929 2066
929 1073 2338
1009 1233 2578
1137 1441 2802
1297 1617 2962
1393 1761 3058
1585 1969 3138
1697 2130 3202
448 240 416
448 256 448
496 288 528
496 320 608
512 352 689
544 432 881
640 592 1217
689 737 1457
769 849 1761
897 1089 2274
993 1265 2546
1105 1425 2738
1233 1617 2898
1377 1825 3026
1521 2017 3122
1649 2194 3202
1889 2402 3250
464 272 464
480 320 528
496 336 592
496 384 656
528 464 801
576 576 1057
672 737 1377
737 897 1665
865 1089 2114
961 1281 2450
1105 1505 2722
1217 1649 2866
1313 1825 2994
1489 2082 3122
1649 2274 3202
1777 2354 3282
1985 2530 3330
496 336 544
496 416 608
496 416 656
528 496 753
576 592 945
624 737 1217
737 945 1553
817 1121 1953
913 1297 2306
1057 1553 2658
1169 1729 2850
1313 1953 2994
1489 2178 3122
1633 2354 3202
1841 2530 3282
2098 2690 3346
2226 2754 3346
528 496 576
528 576 705
544 640 817
560 737 977
624 897 1217
705 1057 1473
769 1217 1761
897 1409 2194
1041 1617 2578
1201 1889 2834
1377 2162 3010
1457 2242 3090
1649 2466 3218
1873 2642 3314
2017 2722 3330
2226 2850 3394
2418 2914 3443
528 656 656
544 865 897
576 977 1041
608 1041 1185
672 1217 1409
753 1329 1697
897 1585 2162
1009 1761 2498
1169 2017 2770
1297 2210 2914
1521 2498 3106
1617 2562 3186
1825 2722 3298
2050 2834 3362
2226 2914 3362
2498 3010 3443
2562 3010 3475
544 977 833
624 1297 1185
656 1377 1345
689 1489 1505
801 1665 1777
945 1889 2210
1057 2066 2466
1217 2242 2738
1361 2434 2946
1569 2658 3106
1665 2738 3202
1857 2802 3282
2114 2914 3346
2306 3010 3410
2530 3090 3443
2642 3106 3443
2850 3186 3475
576 1281 945
689 1665 1425
785 1841 1649
833 1969 1825
977 2162 2210
1137 2354 2514
1217 2498 2674
1425 2642 2914
1585 2770 3074
1761 2882 3202
1937 2962 3282
2082 2994 3330
2226 3058 3362
2402 3106 3427
2642 3138 3443
2770 3186 3459
2962 3250 3523
592 1761 1185
817 2162 1697
929 2306 1905
1073 2498 2274
1153 2530 2434
1297 2674 2674
1489 2802 2882
1617 2882 3026
1889 3010 3202
2001 3058 3250
2162 3106 3314
2306 3138 3346
2466 3186 3410
2722 3234 3459
2834 3250 3459
2962 3298 3523
3074 3330 3539
624 2162 1297
1009 2562 1937
1121 2642 2162
1297 2770 2514
1393 2850 2642
1601 2978 2850
1681 2994 2978
1873 3074 3090
2066 3122 3202
2274 3186 3298
2402 3202 3330
2578 3250 3394
2690 3282 3427
2850 3314 3459
2898 3314 3507
3074 3362 3539
3106 3362 3571
769 2514 1409
1153 2770 2001
1297 2850 2226
1473 2914 2546
1649 3026 2770
1777 3058 2946
1985 3122 3058
2130 3186 3138
2274 3218 3218
2418 3250 3298
2642 3298 3362
2658 3298 3362
2834 3330 3427
2962 3362 3475
3026 3394 3507
3138 3410 3539
3218 3410 3555
961 2754 1489
1425 2946 2274
1585 3010 2450
1857 3138 2770
2082 3218 2994
2114 3202 3026
2242 3282 3122
2434 3298 3234
2530 3314 3298
2578 3314 3298
2754 3330 3346
2834 3362 3410
2962 3394 3443
3074 3427 3507
3170 3427 3523
3234 3459 3539
3202 3459 3571
1137 2898 1489
1457 3010 1953
1633 3090 2242
1953 3202 2642
2242 3282 2962
2434 3314 3122
2530 3330 3186
2562 3346 3202
2658 3346 3234
2770 3394 3314
2850 3394 3346
2994 3427 3427
2994 3443 3427
3170 3459 3475
3138 3459 3507
3218 3507 3539
3330 3507 3555
1377 2994 1537
1697 3122 1985
1889 3170 2274
2210 3234 2642
2514 3330 3058
2658 3362 3170
2690 3362 3202
2738 3394 3218
2850 3427 3282
2978 3427 3362
3026 3443 3394
3090 3459 3427
3170 3459 3443
3234 3475 3475
3298 3507 3523
3234 3507 3523
3314 3523 3571
1697 3138 1617
2114 3234 2274
2306 3282 2450
2466 3314 2754
2754 3410 3122
2770 3394 3138
2914 3427 3250
2978 3443 3298
3058 3443 3330
3122 3459 3362
3170 3475 3410
3186 3459 3410
3250 3507 3443
3298 3507 3475
3314 3507 3507
3410 3539 3555
3427 3539 3571
416 208 368
432 224 384
432 224 416
432 224 432
464 256 496
480 272 576
512 320 705
576 400 929
640 480 1169
769 656 1601
849 817 1985
993 1057 2418
1089 1217 2642
1185 1345 2770
1313 1505 2914
1457 1665 3026
1617 1841 3090
464 224 416
464 240 432
480 240 464
480 256 496
496 288 576
528 336 705
576 416 897
624 496 1153
769 689 1569
849 817 1889
945 1025 2306
1041 1169 2530
1137 1313 2722
1233 1473 2866
1425 1665 3010
1601 1873 3090
1745 2050 3138
528 256 464
544 256 480
560 272 544
544 288 592
528 320 656
560 384 817
624 496 1121
705 656 1441
785 801 1713
881 977 2130
993 1153 2450
1105 1329 2674
1217 1505 2850
1409 1713 2994
1537 1905 3090
1681 2098 3170
1889 2290 3218
544 272 496
544 304 544
576 336 608
560 352 672
576 432 817
608 480 977
672 624 1313
753 817 1633
849 977 2001
977 1201 2418
1057 1345 2610
1217 1553 2834
1329 1681 2946
1505 1953 3090
1665 2178 3170
1825 2306 3218
2130 2530 3298
576 320 528
528 336 592
528 384 656
544 432 737
576 512 897
656 656 1201
721 817 1505
817 1009 1873
929 1217 2290
1025 1377 2546
1169 1585 2770
1329 1825 2978
1425 1969 3058
1553 2162 3122
1841 2402 3234
2001 2514 3314
2274 2658 3362
592 368 576
544 416 640
528 496 705
576 592 865
624 753 1137
689 945 1409
785 1073 1729
881 1233 2130
1025 1457 2514
1153 1665 2754
1313 1905 2946
1441 2098 3058
1585 2274 3138
1841 2466 3234
1969 2578 3298
2274 2754 3346
2466 2866 3410
576 448 576
576 544 737
592 785 945
640 881 1137
672 1025 1345
769 1217 1617
817 1297 1937
993 1569 2386
1185 1841 2754
1281 2001 2898
1425 2194 3026
1601 2418 3170
1793 2578 3250
2050 2738 3330
2210 2802 3346
2402 2882 3394
2578 2978 3475
576 624 640
576 833 833
624 1057 1137
656 1169 1297
737 1329 1537
881 1585 1969
961 1681 2290
1105 1905 2610
1313 2226 2882
1457 2434 3058
1569 2514 3106
1793 2690 3234
2017 2802 3330
2226 2898 3362
2450 2994 3410
2642 3074 3443
2722 3074 3475
592 961 785
608 1217 1025
737 1521 1457
769 1649 1633
913 1873 2017
1057 2114 2338
1169 2226 2610
1345 2434 2850
1505 2610 3026
1649 2722 3138
1873 2834 3234
2050 2898 3314
2290 3010 3362
2418 3026 3410
2610 3090 3427
2802 3170 3459
2898 3202 3507
624 1249 897
672 1665 1249
865 2001 1777
977 2210 2066
1121 2338 2402
1249 2514 2626
1329 2562 2738
1537 2754 2978
1681 2850 3106
1873 2898 3218
2114 3026 3314
2226 3058 3330
2418 3106 3394
2562 3122 3427
2802 3202 3459
2898 3218 3475
3058 3282 3523
721 1569 1009
672 1937 1265
1041 2418 2130
1153 2546 2354
1297 2674 2546
1473 2786 2786
1681 2914 3010
1745 2946 3074
1985 3026 3202
2226 3122 3298
2322 3122 3330
2418 3170 3362
2642 3218 3410
2834 3250 3459
2914 3250 3475
3026 3298 3507
3122 3330 3539
753 2130 1217
769 2306 1377
1297 2770 2338
1457 2882 2626
1553 2946 2738
1713 3010 2898
1873 3074 3026
2017 3090 3122
2226 3186 3234
2418 3218 3314
2562 3250 3362
2690 3282 3410
2770 3298 3427
2946 3314 3475
2978 3330 3507
3122 3346 3539
3186 3394 3587
897 2466 1313
929 2610 1425
1409 2882 2242
1553 2946 2530
1761 3074 2834
1937 3106 2978
2162 3202 3106
2306 3234 3202
2418 3250 3234
2562 3282 3298
2722 3282 3362
2786 3330 3410
2914 3346 3443
3026 3362 3475
3106 3394 3523
3218 3427 3539
3282 3427 3555
1041 2754 1361
1089 2770 1457
1601 2994 2322
1793 3106 2578
2130 3202 2914
2290 3234 3090
2386 3298 3138
2498 3298 3218
2674 3330 3298
2754 3346 3330
2898 3362 3394
2882 3394 3410
3074 3427 3459
3138 3427 3507
3202 3427 3523
3250 3459 3539
3234 3459 3555
1201 2898 1313
1297 2962 1345
1713 3090 2066
2001 3186 2498
2322 3282 2914
2546 3314 3138
2674 3346 3218
2690 3362 3234
2754 3362 3250
2898 3410 3346
2946 3427 3362
3026 3427 3410
3090 3443 3427
3202 3459 3475
3202 3475 3523
3218 3475 3523
3362 3475 3539
1457 3010 1297
1489 3074 1297
1825 3122 1617
2130 3202 2162
2546 3314 2898
2754 3362 3170
2866 3410 3234
2834 3394 3218
2946 3427 3298
3026 3427 3346
3138 3459 3410
3170 3459 3410
3202 3459 3427
3282 3475 3475
3330 3507 3523
3282 3507 3523
3330 3523 3571
1761 3138 1249
1841 3170 1281
2114 3186 1633
2450 3250 2162
2754 3362 2898
2882 3394 3170
3010 3427 3250
3058 3443 3282
3138 3459 3330
3138 3459 3346
3218 3475 3362
3234 3475 3410
3314 3507 3443
3362 3523 3475
3410 3523 3523
3459 3539 3555
3507 3539 3571
464 208 400
496 240 432
496 256 464
496 256 496
528 272 576
544 304 656
592 352 817
624 400 945
737 512 1233
833 656 1537
961 865 2066
1057 1057 2386
1169 1185 2562
1313 1377 2786
1409 1521 2898
1537 1681 2994
1745 1905 3090
576 256 448
560 256 480
560 256 496
576 272 576
576 320 656
608 352 785
640 416 929
753 560 1265
865 672 1553
993 865 1985
1057 1025 2306
1153 1265 2626
1297 1425 2802
1377 1553 2898
1537 1761 3026
1665 1937 3090
