其他预设/【236】赛博朋克风调色预设/【后期菌】视频调色预设/3DL/Miami 10.3dl
# LUT by SparkleStock. Enhanced with VOXCOLOR algorithms.
0 64 128 192 256 320 384 448 512 576 640 704 768 832 896 960 1023
80 80 64
112 96 96
96 96 96
128 112 112
128 112 144
160 144 208
208 176 256
256 224 368
352 304 608
512 464 945
656 560 1265
865 753 1585
1025 849 1777
1137 913 1921
1345 1025 2082
1473 1121 2210
1665 1249 2306
112 112 96
112 112 112
112 112 112
128 112 128
144 144 176
176 160 224
208 208 304
288 256 480
432 400 785
560 528 1073
753 689 1473
881 801 1649
1073 913 1857
1201 1041 2001
1361 1121 2146
1521 1233 2258
1665 1345 2338
112 128 112
96 112 112
112 112 112
160 160 176
176 176 208
192 192 256
256 256 400
368 368 656
480 480 929
640 624 1281
785 753 1537
977 913 1777
1089 1009 1921
1265 1137 2066
1393 1281 2210
1585 1425 2338
1713 1505 2434
128 128 128
112 128 128
144 160 160
160 192 208
192 224 256
224 256 336
304 336 528
416 464 801
560 608 1121
753 785 1473
865 897 1681
1041 1057 1889
1169 1185 2017
1297 1281 2162
1441 1441 2274
1665 1617 2434
1777 1729 2514
128 176 144
144 208 176
160 224 208
160 240 256
192 256 272
256 320 432
352 416 624
480 592 945
656 785 1329
833 945 1649
993 1121 1841
1089 1249 1985
1233 1393 2146
1393 1505 2242
1569 1665 2402
1697 1777 2482
1873 1937 2610
144 256 192
160 272 224
192 336 272
208 416 336
256 464 448
304 480 576
432 640 833
576 785 1153
737 993 1521
913 1169 1761
1025 1281 1905
1137 1441 2066
1313 1585 2226
1473 1713 2338
1633 1873 2450
1825 2017 2578
1969 2082 2674
208 432 288
224 496 352
224 560 416
224 624 480
256 705 656
320 785 785
496 913 1089
656 1073 1377
817 1249 1681
945 1393 1825
1073 1521 2001
1265 1681 2178
1409 1825 2290
1521 1905 2386
1713 2050 2514
1921 2178 2642
2066 2290 2738
256 656 464
288 769 560
256 881 656
272 1025 801
272 1137 929
320 1201 1089
544 1217 1329
689 1297 1553
849 1473 1745
977 1601 1921
1137 1713 2082
1297 1889 2226
1425 1969 2322
1649 2114 2482
1841 2258 2610
2017 2354 2706
2194 2434 2786
352 993 689
352 1121 801
320 1281 945
256 1473 1137
224 1553 1233
416 1601 1521
560 1617 1649
769 1713 1857
865 1745 1937
1057 1873 2082
1201 1953 2210
1393 2066 2322
1585 2194 2450
1745 2274 2546
1969 2402 2674
2162 2482 2770
2258 2530 2818
416 1377 961
384 1473 1073
304 1697 1281
240 1857 1457
272 2033 1697
432 1937 1809
560 1985 1953
689 2001 2050
913 2017 2162
1073 2082 2258
1249 2162 2322
1489 2258 2450
1681 2306 2514
1873 2402 2626
2146 2514 2754
2242 2562 2802
2402 2658 2914
400 1777 1249
352 1969 1393
256 2210 1649
224 2274 1809
272 2354 1969
432 2290 2082
560 2258 2178
785 2242 2258
961 2258 2322
1153 2322 2418
1393 2386 2482
1617 2434 2562
1873 2498 2658
2001 2514 2690
2210 2610 2786
2338 2674 2866
2466 2738 2930
352 2178 1553
288 2338 1713
256 2514 1921
256 2514 2050
352 2498 2178
560 2482 2290
737 2450 2354
945 2450 2418
1121 2498 2498
1281 2466 2514
1537 2530 2610
1745 2546 2658
1921 2562 2706
2162 2658 2786
2306 2706 2866
2434 2738 2914
2530 2786 2962
304 2530 1857
288 2626 1969
352 2690 2194
384 2690 2274
544 2642 2338
721 2658 2434
849 2626 2466
1025 2610 2514
1233 2642 2578
1393 2626 2610
1681 2658 2690
1889 2674 2738
2114 2722 2802
2274 2738 2866
2402 2770 2898
2530 2802 2962
2642 2882 3010
416 2722 2066
480 2818 2274
512 2786 2338
624 2770 2418
785 2754 2482
1025 2770 2562
1089 2738 2578
1281 2738 2642
1489 2786 2706
1649 2754 2706
1873 2754 2754
2033 2786 2818
2178 2786 2850
2322 2786 2898
2482 2850 2946
2578 2882 2994
2642 2898 3026
624 2898 2274
737 2898 2386
833 2914 2466
945 2882 2530
1137 2882 2562
1249 2882 2626
1409 2882 2690
1521 2882 2706
1649 2866 2738
1857 2882 2802
1969 2850 2818
2114 2898 2898
2274 2898 2930
2434 2914 2962
2514 2898 2978
2626 2914 3010
2690 2946 3042
961 2946 2418
1009 2962 2466
1153 2962 2530
1297 2978 2626
1473 2978 2690
1601 2978 2738
1665 2962 2754
1761 2978 2802
1921 2994 2882
1985 2978 2882
2082 2962 2914
2194 2978 2946
2386 2994 2978
2498 2978 3010
2578 2978 3026
2658 2978 3042
2722 2994 3090
1249 2994 2498
1361 3026 2578
1521 3058 2658
1681 3058 2722
1729 3042 2754
1809 3026 2802
1825 3026 2818
2001 3058 2882
2082 3042 2914
2146 3026 2930
2258 3058 2962
2354 3042 2994
2450 3058 3026
2498 3026 3026
2642 3042 3058
2674 3026 3090
2754 3058 3122
112 96 80
112 96 80
144 112 112
144 112 128
160 112 144
224 160 224
272 192 288
336 240 416
464 368 689
656 512 1089
849 672 1425
993 801 1665
1105 865 1809
1281 961 2001
1473 1073 2146
1601 1169 2242
1825 1313 2402
160 112 96
160 112 112
192 128 128
192 128 144
208 160 192
256 176 256
288 240 384
384 336 624
496 448 865
672 608 1249
865 753 1521
1041 865 1761
1185 977 1921
1361 1089 2082
1521 1201 2226
1681 1329 2338
1825 1409 2418
192 128 128
160 112 112
176 128 144
224 160 176
256 192 256
304 240 336
368 336 560
432 432 753
608 592 1121
817 753 1473
961 865 1681
1089 977 1857
1249 1121 2017
1441 1265 2178
1537 1345 2274
1777 1505 2418
1873 1601 2498
192 144 128
192 160 160
224 192 192
240 224 240
256 240 288
320 288 416
448 464 721
528 576 993
656 689 1281
897 897 1633
1041 1025 1809
1121 1121 1953
1281 1281 2098
1473 1441 2258
1633 1569 2386
1761 1681 2466
1953 1857 2610
208 176 160
176 208 192
176 224 208
208 256 272
240 304 352
336 416 544
464 576 865
592 705 1153
785 897 1489
945 1041 1729
1105 1233 1937
1201 1329 2050
1313 1441 2178
1521 1617 2322
1713 1761 2466
1873 1905 2562
2017 2017 2658
224 240 192
208 320 256
208 352 288
224 432 368
272 464 480
368 560 672
528 753 1009
656 897 1313
833 1073 1601
1041 1281 1857
1121 1409 1985
1281 1521 2162
1473 1697 2290
1649 1857 2434
1761 1969 2514
2001 2114 2674
2098 2194 2706
256 464 304
240 544 384
256 608 464
288 672 576
336 817 769
448 913 961
576 993 1201
705 1137 1457
913 1345 1745
1073 1537 1953
1265 1681 2146
1329 1729 2210
1569 1921 2386
1729 2066 2498
1873 2146 2578
2066 2274 2706
2258 2402 2802
304 656 416
320 865 640
320 1009 769
288 1073 849
304 1265 1057
432 1265 1217
656 1329 1473
817 1441 1681
961 1585 1873
1089 1697 2017
1329 1889 2210
1425 1953 2290
1617 2098 2434
1841 2242 2562
1985 2306 2658
2210 2450 2770
2306 2498 2850
432 961 640
432 1281 929
352 1441 1073
288 1553 1217
320 1681 1441
512 1681 1633
689 1697 1761
865 1729 1889
1009 1841 2033
1217 1985 2194
1329 2033 2274
1505 2146 2386
1745 2274 2514
1969 2402 2658
2178 2482 2754
2258 2530 2818
2450 2626 2930
544 1217 785
384 1665 1233
304 1857 1425
256 1985 1569
336 2017 1745
544 2050 1921
656 2082 2033
849 2050 2114
1057 2082 2210
1281 2194 2322
1457 2226 2402
1681 2322 2498
1841 2386 2562
2017 2466 2674
2210 2530 2770
2338 2610 2866
2514 2722 2962
656 1537 1057
336 2082 1505
272 2258 1697
304 2386 1921
400 2306 2017
528 2290 2146
721 2306 2242
913 2290 2306
1201 2354 2418
1377 2338 2450
1537 2402 2514
1809 2482 2626
1969 2514 2674
2210 2626 2786
2322 2658 2850
2450 2722 2914
2610 2802 2994
753 1729 1217
400 2402 1761
352 2514 1921
416 2546 2162
512 2530 2242
721 2514 2338
849 2482 2386
1105 2498 2450
1233 2530 2514
1473 2546 2578
1681 2546 2626
1921 2610 2706
2114 2642 2770
2274 2690 2818
2434 2738 2898
2530 2786 2946
2658 2866 3026
929 1985 1409
544 2530 1905
544 2658 2066
560 2706 2242
689 2690 2386
849 2658 2434
1057 2642 2498
1185 2658 2546
1361 2690 2610
1601 2690 2658
1857 2690 2722
2001 2690 2738
2194 2706 2802
2386 2754 2882
2482 2786 2930
2610 2850 2978
2674 2882 3010
1073 2162 1569
656 2722 2082
705 2818 2258
913 2850 2450
1073 2850 2546
1121 2770 2546
1313 2802 2642
1489 2818 2690
1649 2802 2706
1793 2770 2738
1985 2770 2786
2162 2802 2850
2290 2818 2882
2450 2850 2930
2546 2882 2978
2658 2914 3026
2722 2930 3058
1249 2290 1681
1057 2642 2033
1089 2754 2210
1137 2914 2450
1329 2914 2626
1473 2930 2674
1585 2914 2706
1697 2914 2738
1857 2898 2786
2017 2914 2866
2098 2898 2866
2210 2914 2914
2354 2914 2930
2482 2914 2962
2578 2914 2994
2706 2962 3058
2770 2978 3106
1473 2402 1793
1473 2658 2162
1537 2722 2258
1489 2914 2466
1617 2994 2690
1777 2994 2754
1793 2978 2770
1921 2994 2818
2033 3010 2882
2162 3010 2914
2242 3010 2946
2306 3010 2962
2434 2994 2978
2530 2978 3010
2658 3010 3042
2706 2994 3058
2786 3026 3106
1713 2530 1953
1761 2722 2290
1841 2786 2402
1809 2930 2530
1937 3042 2770
1937 3026 2786
2066 3090 2866
2146 3058 2898
2210 3058 2914
2306 3090 2962
2354 3058 2978
2418 3058 2978
2498 3058 3026
2610 3042 3042
2658 3042 3058
2754 3090 3106
2802 3058 3122
176 112 96
192 112 112
208 128 128
192 128 128
256 144 176
288 176 240
368 208 320
480 272 480
656 384 737
881 576 1201
961 705 1489
1201 865 1793
1313 945 1953
1457 1057 2082
1681 1153 2258
1841 1265 2354
1985 1377 2466
256 144 128
256 128 128
288 144 160
256 144 176
304 192 224
400 224 320
432 272 464
528 368 672
849 576 1153
977 689 1409
1057 849 1681
1217 929 1873
1393 1041 2033
1489 1153 2162
1681 1281 2306
1873 1441 2434
2017 1521 2530
448 208 192
464 224 224
496 240 256
464 224 272
448 240 304
464 256 400
560 400 656
640 528 993
721 656 1233
881 801 1521
1073 945 1777
1265 1073 1969
1361 1185 2082
1617 1377 2274
1697 1457 2338
1889 1585 2482
2033 1729 2610
480 240 224
448 240 240
496 256 272
464 256 304
464 304 400
496 368 544
592 496 833
672 656 1153
833 801 1457
1041 993 1729
1137 1089 1873
1297 1265 2050
1441 1361 2178
1633 1553 2338
1825 1697 2482
1937 1793 2546
2146 1969 2690
560 288 256
320 256 224
320 256 256
352 288 320
384 368 464
464 496 705
608 656 1041
753 849 1345
881 993 1617
1057 1121 1809
1201 1297 1985
1361 1473 2162
1473 1537 2258
1665 1697 2402
1905 1921 2562
2017 2001 2642
2210 2146 2738
544 320 256
320 288 256
272 400 320
320 464 464
384 592 640
496 753 897
656 881 1217
769 1041 1473
977 1233 1745
1105 1377 1937
1297 1553 2114
1425 1665 2226
1601 1809 2386
1809 1985 2514
1921 2066 2578
2162 2226 2722
2306 2338 2802
432 400 256
336 464 368
336 689 576
384 785 721
448 897 897
528 1041 1121
672 1089 1329
897 1329 1649
1073 1505 1889
1185 1601 2017
1345 1729 2178
1553 1889 2322
1697 2017 2450
1889 2178 2578
2066 2258 2674
2194 2338 2754
2402 2482 2866
416 640 368
448 817 576
384 1073 849
352 1185 977
368 1345 1185
592 1425 1425
753 1425 1585
929 1553 1777
1137 1745 2001
1281 1857 2146
1409 1937 2242
1633 2098 2418
1809 2226 2530
2017 2338 2658
2178 2434 2738
2322 2514 2850
2434 2562 2898
496 961 592
544 1185 833
384 1569 1217
320 1697 1361
432 1793 1585
656 1809 1793
801 1809 1873
977 1889 2017
1121 1953 2114
1329 2033 2258
1537 2178 2386
1697 2242 2482
1937 2386 2610
2082 2434 2690
2242 2514 2770
2434 2626 2898
2514 2658 2962
640 1201 656
656 1521 1105
320 2017 1569
384 2146 1761
480 2162 1921
656 2114 2017
769 2114 2082
1025 2162 2210
1169 2178 2274
1393 2226 2354
1633 2322 2482
1825 2386 2562
2033 2482 2658
2178 2530 2738
2386 2642 2866
2482 2674 2914
2610 2754 2994
865 1441 672
785 1665 1169
336 2322 1809
400 2402 1985
528 2386 2114
705 2338 2226
961 2402 2338
1121 2354 2386
1297 2402 2434
1585 2466 2546
1745 2466 2578
1937 2514 2658
2162 2578 2738
2290 2658 2818
2450 2706 2898
2546 2754 2946
2674 2818 3026
1057 1761 881
913 1889 1361
528 2610 2082
576 2610 2242
656 2578 2306
897 2578 2418
1121 2546 2466
1265 2546 2498
1409 2578 2562
1697 2610 2642
1889 2626 2690
2098 2642 2754
2242 2690 2802
2386 2722 2866
2498 2770 2930
2610 2818 2978
2722 2898 3058
1265 1953 929
1089 2033 1473
753 2674 2082
737 2738 2274
929 2706 2434
1073 2706 2482
1281 2706 2546
1473 2738 2626
1585 2722 2658
1777 2722 2706
2001 2722 2754
2194 2754 2802
2306 2754 2850
2466 2786 2914
2546 2818 2946
2674 2882 3010
2738 2930 3058
1457 2146 993
1281 2210 1585
1041 2722 2194
1041 2818 2338
1249 2882 2546
1393 2818 2626
1537 2850 2674
1633 2818 2690
1841 2850 2754
2033 2818 2802
2178 2850 2866
2258 2850 2882
2434 2866 2930
2530 2882 2962
2610 2898 2978
2722 2930 3042
2770 2962 3090
1665 2258 993
1473 2306 1473
1489 2626 2162
1473 2818 2402
1521 2946 2610
1681 2946 2706
1809 2946 2770
1889 2946 2802
2001 2930 2818
2162 2962 2898
2242 2946 2914
2306 2930 2930
2450 2930 2946
2578 2930 2978
2674 2962 3026
2738 2962 3042
2818 2994 3106
1985 2434 977
1809 2450 1345
1809 2514 1953
1937 2658 2274
1841 2946 2610
1921 3010 2770
2033 3026 2818
2050 3010 2850
2210 3042 2914
2258 3010 2914
2386 3026 2962
2418 3026 2962
2466 2994 2978
2626 3010 3010
2706 3026 3058
2770 3010 3058
2850 3026 3106
2322 2562 961
2066 2578 1377
1969 2610 1937
2194 2722 2322
2178 2946 2658
2098 3042 2786
2210 3090 2866
2258 3058 2898
2354 3090 2946
2386 3058 2946
2450 3090 2978
2498 3058 2994
2610 3090 3026
2690 3090 3058
2754 3106 3106
2818 3106 3122
2882 3090 3138
288 128 128
304 144 144
320 160 160
352 176 192
432 208 256
464 224 304
592 272 432
656 304 512
945 448 817
1217 624 1233
1377 817 1665
1457 897 1889
1649 977 2050
1825 1105 2242
1841 1185 2322
2033 1297 2450
2226 1441 2562
528 224 224
512 224 224
528 224 240
544 240 272
528 256 336
576 272 400
640 304 512
913 480 865
1201 640 1217
1489 833 1649
1473 881 1841
1473 1041 2001
1649 1153 2194
1713 1233 2274
1873 1377 2402
2017 1473 2498
