其他预设/【236】赛博朋克风调色预设/【后期菌】视频调色预设/3DL/Miami 08.3dl
# LUT by SparkleStock. Enhanced with VOXCOLOR algorithms.
0 64 128 192 256 320 384 448 512 576 640 704 768 832 896 960 1023
0 0 16
96 32 160
128 48 256
144 112 384
128 144 448
176 240 656
224 288 817
288 320 993
352 336 1233
432 416 1553
448 448 1745
544 480 2050
608 496 2258
672 496 2434
785 544 2642
849 560 2786
929 576 2962
80 128 176
80 176 256
128 192 352
160 240 464
176 304 624
224 384 801
272 432 961
336 496 1185
432 544 1473
464 576 1681
544 592 1969
576 592 2130
656 592 2370
737 624 2562
817 640 2738
913 656 2930
993 672 3058
128 240 288
96 240 320
112 304 416
192 400 624
240 464 753
256 496 897
336 592 1153
448 689 1457
480 721 1665
528 721 1905
576 721 2098
689 801 2386
721 801 2530
833 817 2738
897 817 2898
993 865 3074
1089 865 3170
160 384 432
144 400 448
176 480 592
224 528 721
288 608 897
336 721 1137
416 785 1361
480 881 1617
560 929 1889
656 993 2210
721 1025 2386
801 1073 2610
865 1057 2754
929 1041 2914
977 993 2994
1105 1057 3218
1137 1089 3314
160 544 544
192 608 672
240 672 769
272 721 881
304 801 1025
416 961 1329
464 1009 1553
528 1105 1825
624 1185 2114
721 1249 2402
833 1313 2626
913 1329 2786
993 1345 2946
1057 1361 3058
1137 1345 3218
1169 1281 3298
1233 1281 3410
208 753 737
240 817 833
304 945 977
352 1041 1121
448 1121 1361
480 1233 1553
560 1313 1825
624 1393 2066
705 1441 2354
801 1521 2578
881 1505 2738
993 1569 2914
1073 1617 3074
1153 1601 3170
1249 1649 3298
1329 1617 3410
1361 1537 3475
272 1041 977
336 1153 1137
384 1265 1265
432 1313 1409
512 1425 1601
544 1473 1745
624 1617 2066
689 1665 2290
753 1729 2514
833 1745 2658
929 1777 2882
1041 1825 3042
1169 1905 3154
1233 1841 3250
1313 1905 3346
1441 1921 3459
1553 1889 3539
336 1393 1281
416 1521 1441
448 1601 1553
496 1649 1681
544 1681 1793
576 1745 1969
656 1857 2242
721 1921 2450
785 1985 2626
881 2017 2786
993 2066 2946
1137 2146 3122
1217 2178 3202
1297 2146 3314
1409 2226 3443
1553 2242 3555
1665 2146 3587
416 1713 1553
448 1809 1681
480 1889 1809
560 1937 1937
544 1953 2017
705 2098 2290
721 2178 2418
833 2290 2626
849 2258 2738
945 2354 2898
1041 2402 3058
1137 2418 3170
1265 2450 3282
1393 2450 3394
1457 2466 3475
1601 2466 3571
1681 2434 3587
448 2050 1809
480 2098 1921
528 2226 2066
576 2242 2178
672 2370 2354
721 2354 2450
785 2450 2562
865 2546 2722
945 2594 2866
1025 2610 2978
1089 2610 3106
1201 2658 3234
1297 2658 3314
1409 2626 3427
1585 2658 3539
1617 2658 3571
1729 2690 3619
496 2370 2050
544 2466 2210
608 2514 2306
656 2530 2402
705 2578 2466
785 2610 2594
849 2690 2690
945 2738 2802
1041 2786 2946
1137 2834 3074
1201 2866 3202
1329 2882 3298
1425 2866 3394
1489 2866 3443
1617 2834 3539
1697 2866 3587
1841 2882 3635
576 2642 2274
592 2690 2370
640 2738 2482
689 2738 2546
737 2754 2594
865 2834 2722
945 2882 2802
1057 2914 2946
1137 2978 3042
1217 2978 3122
1329 3026 3250
1409 3026 3330
1489 2978 3410
1633 3058 3491
1713 3058 3587
1825 3042 3619
1953 3058 3651
624 2882 2466
656 2898 2530
721 2962 2626
769 2962 2690
833 2962 2738
929 3042 2866
977 3042 2898
1073 3058 2978
1169 3106 3074
1265 3106 3154
1409 3154 3298
1505 3154 3394
1649 3202 3475
1745 3218 3539
1809 3202 3587
1953 3218 3635
2098 3250 3667
705 3058 2594
785 3122 2722
801 3122 2754
833 3138 2818
913 3138 2898
993 3154 2962
1057 3154 2994
1153 3170 3074
1297 3250 3170
1409 3234 3250
1521 3266 3330
1633 3298 3427
1697 3282 3475
1825 3298 3539
1937 3314 3603
2082 3330 3635
2178 3330 3667
817 3234 2738
865 3250 2802
897 3266 2898
977 3266 2962
1025 3282 3026
1073 3282 3058
1185 3314 3138
1265 3314 3154
1345 3298 3218
1489 3378 3298
1569 3346 3330
1713 3410 3427
1841 3410 3491
1969 3427 3555
2050 3410 3603
2194 3443 3635
2274 3427 3667
913 3330 2866
945 3330 2914
1009 3346 2994
1105 3394 3058
1169 3410 3122
1281 3427 3202
1281 3410 3218
1377 3443 3250
1505 3459 3298
1569 3443 3314
1681 3443 3346
1761 3459 3410
1985 3475 3491
2114 3491 3571
2242 3507 3603
2306 3507 3635
2386 3507 3651
1009 3410 2946
1089 3443 3026
1153 3475 3090
1249 3491 3170
1281 3491 3218
1345 3491 3234
1393 3491 3266
1553 3555 3314
1601 3539 3346
1681 3507 3378
1825 3507 3427
1937 3539 3459
2114 3555 3507
2210 3539 3539
2354 3571 3603
2402 3571 3619
2530 3603 3667
176 32 176
192 32 240
224 96 368
224 96 432
208 144 528
256 208 737
304 240 897
352 288 1089
448 368 1409
496 448 1681
576 496 1937
608 512 2146
672 512 2322
769 544 2562
849 576 2738
929 576 2882
1041 624 3074
304 144 304
304 128 368
304 176 464
272 192 544
272 272 705
288 320 849
352 464 1073
448 544 1377
480 576 1569
528 576 1809
592 608 2066
689 640 2322
721 624 2466
849 656 2690
929 689 2866
1025 721 3042
1089 737 3138
304 240 400
304 240 448
288 304 576
304 384 721
336 464 881
416 560 1105
448 656 1361
480 721 1553
576 769 1841
640 849 2114
721 865 2322
769 865 2482
849 865 2690
961 897 2866
993 881 2978
1137 913 3170
1169 929 3266
304 368 480
304 448 608
336 528 769
368 608 913
384 689 1057
448 753 1281
560 913 1617
576 993 1825
624 993 2050
753 1089 2370
833 1121 2562
881 1105 2706
977 1137 2866
1041 1121 2994
1137 1137 3154
1153 1089 3266
1281 1137 3378
320 544 624
304 656 753
304 721 849
384 833 1025
448 945 1233
512 1089 1521
576 1185 1793
608 1201 2017
737 1281 2306
817 1297 2530
945 1409 2754
993 1377 2882
1073 1393 2978
1153 1409 3154
1249 1377 3282
1281 1329 3346
1329 1313 3443
384 769 817
352 929 961
384 961 1041
448 1105 1233
480 1185 1441
576 1329 1729
656 1425 1985
689 1457 2210
769 1505 2434
913 1553 2690
993 1617 2818
1073 1617 2994
1185 1665 3122
1297 1713 3250
1361 1681 3378
1457 1633 3459
1489 1601 3491
448 1105 1025
400 1233 1217
448 1329 1361
512 1425 1521
608 1553 1745
656 1633 1953
705 1681 2178
753 1729 2386
865 1793 2626
961 1873 2802
1073 1937 2978
1137 1873 3074
1281 1953 3218
1393 2017 3330
1457 1969 3410
1553 1937 3507
1681 1921 3571
512 1313 1201
480 1569 1521
528 1681 1665
560 1681 1729
624 1809 1921
689 1841 2130
785 1985 2402
801 2017 2530
897 2098 2738
993 2130 2882
1153 2210 3090
1201 2210 3138
1329 2210 3282
1425 2242 3394
1521 2226 3459
1697 2290 3571
1761 2242 3619
576 1681 1473
544 1953 1841
576 2017 1953
592 2066 2050
689 2130 2226
769 2226 2434
833 2274 2546
865 2290 2690
945 2386 2802
1073 2466 2994
1121 2466 3090
1233 2482 3202
1393 2482 3330
1521 2514 3443
1649 2514 3539
1697 2466 3571
1873 2466 3635
705 1857 1553
560 2242 2066
640 2322 2210
656 2354 2274
721 2386 2402
833 2482 2546
881 2562 2626
945 2610 2770
1041 2626 2898
1137 2690 3058
1217 2706 3154
1345 2722 3282
1425 2706 3346
1553 2690 3443
1665 2658 3507
1729 2658 3571
1905 2706 3635
721 2242 1809
624 2514 2274
656 2562 2370
721 2610 2482
753 2594 2530
849 2658 2626
945 2754 2754
1057 2802 2882
1169 2882 3042
1233 2866 3122
1297 2882 3234
1441 2930 3314
1537 2898 3410
1665 2930 3491
1729 2914 3555
1857 2930 3619
2050 2930 3667
785 2514 1969
705 2802 2434
721 2786 2530
801 2818 2610
849 2834 2690
945 2898 2786
1025 2914 2866
1137 2978 2962
1233 2994 3058
1329 3058 3170
1425 3058 3266
1537 3058 3378
1665 3074 3459
1729 3074 3507
1857 3090 3603
1969 3090 3635
2114 3090 3683
881 2754 2178
785 2962 2530
817 2978 2610
865 2978 2706
929 3026 2802
977 3042 2866
1089 3074 2930
1201 3090 3026
1281 3138 3106
1425 3154 3202
1553 3202 3314
1617 3170 3394
1697 3170 3443
1841 3202 3539
1953 3218 3587
2098 3218 3619
2194 3234 3651
961 2962 2354
849 3106 2642
881 3138 2738
977 3202 2882
1073 3218 2978
1089 3202 2994
1201 3234 3090
1297 3250 3138
1393 3266 3202
1505 3266 3250
1633 3282 3346
1761 3314 3443
1841 3314 3475
1969 3330 3555
2098 3330 3603
2226 3346 3635
2322 3346 3667
1041 3074 2434
945 3202 2626
993 3250 2754
1073 3298 2930
1169 3330 3090
1249 3346 3138
1297 3346 3154
1393 3346 3202
1489 3346 3250
1649 3394 3314
1745 3394 3378
1825 3410 3427
1953 3394 3475
2098 3427 3555
2226 3427 3603
2322 3459 3651
2418 3459 3683
1137 3170 2514
1121 3298 2722
1169 3330 2802
1185 3394 2962
1265 3427 3138
1393 3443 3202
1409 3443 3234
1489 3443 3266
1617 3459 3314
1729 3459 3346
1841 3459 3378
1921 3475 3427
2082 3491 3491
2226 3491 3555
2386 3539 3603
2434 3507 3619
2546 3539 3667
1313 3298 2610
1265 3410 2834
1313 3427 2930
1313 3459 3042
1425 3507 3218
1441 3507 3234
1569 3571 3314
1649 3555 3330
1729 3555 3378
1857 3539 3410
1953 3555 3443
2050 3539 3459
2226 3555 3507
2354 3555 3555
2418 3571 3571
2562 3603 3635
2594 3587 3651
336 64 304
336 80 384
304 96 448
288 112 512
336 160 705
368 192 849
448 224 1041
496 288 1281
576 304 1537
608 416 1825
640 464 2033
737 560 2354
801 576 2482
865 576 2658
977 608 2834
1057 640 2994
1137 672 3138
496 176 448
448 176 528
464 176 608
400 208 705
416 304 865
464 352 1073
480 464 1265
512 496 1457
640 576 1841
689 576 2050
721 672 2274
769 640 2434
865 689 2610
913 721 2770
1041 769 2962
1153 817 3138
1233 801 3250
737 288 656
737 304 769
785 320 945
721 352 1025
576 416 1105
528 480 1217
576 608 1489
592 769 1745
656 849 1969
705 865 2210
785 865 2434
865 897 2626
929 913 2770
1057 977 2962
1121 945 3090
1217 961 3250
1281 993 3330
785 432 753
721 480 881
753 528 1073
656 576 1137
592 672 1281
624 769 1473
689 865 1729
705 1041 2017
721 1073 2210
833 1121 2466
881 1137 2610
993 1169 2802
1041 1153 2914
1153 1217 3122
1265 1217 3266
1281 1169 3314
1409 1217 3443
897 608 961
544 721 961
560 785 1073
576 865 1233
608 993 1457
672 1153 1729
721 1201 1953
769 1281 2226
833 1329 2434
913 1377 2626
1025 1425 2818
1121 1441 2962
1137 1409 3074
1233 1425 3218
1345 1441 3346
1409 1441 3427
1537 1425 3539
849 865 1073
576 929 1089
512 1073 1185
576 1217 1425
672 1393 1697
689 1473 1905
737 1537 2130
785 1553 2370
897 1601 2594
993 1633 2770
1121 1681 2962
1201 1697 3074
1297 1729 3202
1441 1777 3346
1457 1697 3410
1553 1681 3491
1617 1681 3555
656 1041 1025
608 1265 1329
608 1489 1553
689 1553 1729
721 1633 1889
721 1713 2114
769 1729 2290
881 1905 2562
993 1905 2754
1041 1905 2882
1153 1937 3026
1281 2017 3154
1377 2033 3266
1505 2082 3394
1585 1985 3459
1665 1937 3507
1793 1985 3619
672 1313 1137
624 1617 1521
576 1761 1745
672 1793 1889
721 1905 2066
801 2050 2354
849 2050 2466
913 2114 2642
1025 2258 2834
1137 2274 2994
1217 2258 3106
1329 2290 3218
1457 2306 3330
1585 2354 3459
1681 2322 3507
1825 2306 3587
1873 2258 3635
737 1681 1409
640 1921 1729
656 2130 2082
705 2178 2194
801 2242 2370
881 2370 2530
913 2370 2610
993 2450 2770
1073 2466 2914
1153 2530 3058
1281 2530 3170
1409 2562 3282
1537 2546 3410
1601 2530 3459
1681 2530 3539
1857 2530 3603
1969 2482 3635
833 1841 1345
705 2306 2017
721 2402 2306
785 2482 2434
849 2514 2514
897 2578 2610
961 2610 2690
1089 2706 2866
1137 2706 2978
1233 2722 3106
1361 2786 3234
1441 2754 3314
1553 2754 3410
1665 2722 3475
1793 2754 3571
1873 2722 3603
2098 2754 3667
945 2033 1281
817 2434 2017
753 2626 2466
785 2690 2530
865 2722 2610
929 2754 2706
1105 2866 2866
1169 2866 2946
1249 2898 3074
1393 2962 3218
1457 2930 3266
1553 2930 3330
1681 2946 3443
1777 2962 3539
1873 2946 3587
2017 2914 3635
2194 2930 3683
1073 2450 1553
865 2642 2178
849 2882 2610
881 2914 2706
929 2914 2754
1041 2962 2866
1185 2978 2946
1249 2994 3026
1329 3058 3106
1489 3090 3234
1569 3106 3330
1665 3106 3410
1745 3106 3459
1857 3106 3555
1969 3122 3619
2098 3106 3651
2258 3138 3683
1185 2658 1617
1009 2818 2274
929 3042 2658
945 3042 2738
993 3074 2866
1073 3090 2930
1233 3122 3026
1329 3154 3106
1409 3170 3138
1537 3202 3234
1665 3202 3330
1777 3234 3427
1841 3218 3459
1969 3234 3555
2082 3234 3603
2242 3266 3635
2354 3250 3667
1281 2898 1777
1105 2978 2370
993 3154 2754
1057 3170 2834
1137 3250 2994
1233 3234 3074
1345 3266 3138
1377 3266 3154
1553 3282 3234
1697 3314 3314
1825 3330 3394
1873 3330 3443
2033 3346 3507
2146 3378 3571
2242 3346 3619
2354 3394 3651
2434 3394 3667
1361 3058 1889
1297 3138 2370
1201 3266 2754
1217 3330 2914
1281 3346 3090
1361 3378 3154
1489 3394 3218
1553 3394 3234
1633 3394 3282
1793 3410 3346
1905 3410 3394
1969 3410 3427
2146 3443 3491
2242 3443 3571
2370 3459 3619
2434 3459 3635
2530 3459 3683
1473 3154 1937
1473 3234 2370
1393 3266 2610
1409 3330 2802
1393 3443 3106
1505 3475 3218
1601 3491 3282
1665 3475 3298
1777 3507 3346
1857 3475 3346
1985 3491 3410
2050 3475 3427
2194 3491 3475
2370 3507 3555
2482 3555 3603
2562 3539 3619
2642 3539 3667
1601 3266 2033
1585 3298 2402
1553 3314 2642
1633 3378 2818
1537 3491 3138
1585 3539 3250
1697 3571 3330
1777 3555 3346
1921 3571 3410
1969 3539 3410
2098 3555 3443
2178 3555 3459
2370 3571 3507
2482 3587 3571
2578 3603 3603
2658 3619 3635
2738 3603 3667
544 112 416
528 144 544
512 160 624
544 160 753
608 176 945
624 192 1089
672 256 1281
689 256 1409
817 304 1697
817 336 1937
817 448 2210
865 528 2418
929 528 2578
1009 592 2770
1057 608 2914
1137 624 3058
1249 624 3202
865 256 689
833 240 753
817 240 865
833 272 1009
721 304 1137
737 352 1281
721 400 1441
785 480 1761
865 480 1969
945 576 2274
881 608 2402
961 753 2610
1009 769 2770
1057 785 2882
1185 865 3106
1217 817 3170
