其他预设/【236】赛博朋克风调色预设/【后期菌】视频调色预设/3DL/Miami 02.3dl
# LUT by SparkleStock. Enhanced with VOXCOLOR algorithms.
0 256 512 768 1023
96 32 48
192 160 432
336 384 1105
592 624 2226
1041 1057 3058
176 384 416
304 592 801
576 977 1921
977 1521 2962
1457 2082 3378
368 1217 1137
512 1553 1649
785 2194 2706
1265 2738 3250
1937 2962 3523
560 2786 2290
785 2946 2738
1233 3202 3122
1969 3346 3475
2594 3443 3635
1137 3427 2978
1521 3523 3250
1953 3555 3378
2482 3571 3507
2930 3619 3651
721 192 464
689 256 881
865 384 1601
1153 624 2578
1649 1345 3298
2274 576 672
2530 608 1329
1025 1377 2626
1473 1985 3234
2162 2354 3475
849 1025 544
801 2162 2322
1217 2706 3010
1921 3010 3427
2674 3122 3619
1569 2017 528
1233 3218 2962
1825 3330 3266
2450 3427 3491
2962 3475 3651
2050 2866 672
2306 3266 1681
2610 3603 3475
2850 3587 3555
3170 3651 3683
2978 416 640
3058 448 1137
3090 496 1793
3090 672 2626
3314 1089 3266
3523 753 1009
3619 849 2033
3619 1073 2754
3346 1537 3234
3058 2146 3571
2882 1201 208
3507 1617 1313
3250 2162 3058
2722 3106 3555
3058 3186 3683
3090 2338 224
3106 2658 368
2498 3427 3314
2946 3475 3523
3250 3507 3715
3218 3122 416
3218 3250 705
3218 3362 1761
3298 3683 3619
3443 3715 3715
3619 576 993
3683 608 1745
3683 721 2562
3683 1025 3122
3651 1409 3443
3731 1009 1329
3763 1073 2466
3747 1345 3058
3715 1697 3346
3651 2017 3555
3555 1361 272
3651 1889 1457
3635 2114 3186
3635 2450 3459
3555 2818 3699
3651 2594 288
3571 2914 384
3619 3122 961
3475 3443 3443
3523 3571 3747
3603 3266 416
3603 3427 785
3603 3459 1489
3619 3619 3058
3683 3747 3763
3779 817 1265
3811 801 2178
3843 1041 2962
3811 1329 3362
3779 1585 3555
3779 1265 1025
3811 1361 2738
3811 1617 3202
3763 1889 3459
3763 2162 3619
3731 1553 400
3747 2066 1073
3683 2402 3298
3683 2594 3555
3731 2818 3715
3827 2738 400
3779 3090 592
3779 3234 1105
3731 3330 3298
3811 3459 3779
3763 3459 640
3763 3523 1473
3731 3603 2690
3827 3763 3571
3843 3827 3859
