其他预设/【236】赛博朋克风调色预设/【后期菌】视频调色预设/3DL/Miami 02_S.3dl
# LUT by SparkleStock. Enhanced with VOXCOLOR algorithms.
0 64 128 192 256 320 384 448 512 576 640 704 768 832 896 960 1023
96 32 48
144 80 160
160 80 224
192 128 352
192 160 432
208 224 592
224 272 737
288 336 881
336 384 1105
400 464 1425
448 496 1649
512 592 1953
592 624 2226
672 672 2434
785 801 2690
881 897 2866
1041 1057 3058
144 112 176
144 144 240
176 176 336
192 208 400
208 240 528
224 320 689
256 384 833
320 448 1057
400 512 1313
448 576 1553
528 640 1905
560 689 2098
672 785 2418
753 881 2626
865 977 2834
1009 1121 3010
1121 1233 3138
176 192 240
160 208 288
160 240 368
224 304 528
240 384 640
256 400 753
320 496 977
400 592 1265
448 640 1505
496 689 1745
560 737 2033
672 881 2354
753 961 2562
865 1089 2802
977 1249 2978
1153 1393 3170
1249 1505 3250
192 272 320
192 304 400
208 368 496
240 416 608
272 496 737
320 560 945
384 624 1153
448 721 1393
496 785 1649
592 897 2033
672 977 2290
785 1105 2594
865 1233 2786
977 1361 2962
1073 1489 3090
1265 1681 3250
1361 1841 3330
176 384 416
208 448 528
240 496 624
272 544 705
304 592 801
368 705 1057
432 785 1297
496 881 1585
576 977 1921
672 1089 2274
753 1233 2562
849 1361 2786
977 1521 2962
1073 1601 3074
1233 1809 3218
1281 1889 3314
1441 2050 3394
208 528 560
240 576 640
288 656 737
320 721 833
400 801 1057
432 881 1249
496 1025 1537
560 1089 1793
640 1201 2194
737 1345 2498
801 1441 2690
913 1617 2882
1041 1761 3058
1169 1921 3170
1265 2114 3250
1425 2274 3362
1553 2306 3427
272 721 689
304 785 817
336 881 913
368 945 1025
448 1057 1233
480 1121 1425
544 1265 1745
592 1361 2050
689 1473 2418
769 1585 2610
865 1793 2850
977 1969 3010
1105 2146 3122
1169 2194 3202
1329 2338 3314
1489 2466 3394
1617 2546 3475
320 929 897
368 1073 1041
400 1153 1169
448 1249 1313
496 1329 1457
544 1393 1649
592 1505 1937
640 1601 2306
689 1777 2530
785 1921 2738
865 2098 2914
1009 2306 3090
1073 2402 3170
1249 2546 3298
1457 2674 3378
1633 2738 3459
1745 2738 3507
368 1217 1137
400 1361 1281
448 1457 1425
480 1537 1537
496 1553 1633
592 1745 2033
640 1857 2274
737 2114 2578
785 2194 2706
881 2402 2882
993 2546 3058
1089 2610 3170
1265 2738 3250
1409 2818 3330
1585 2882 3394
1777 2946 3475
1937 2962 3523
400 1553 1377
432 1617 1489
464 1761 1649
496 1857 1777
576 2050 2082
640 2146 2290
689 2306 2450
785 2466 2690
881 2610 2850
977 2706 2994
1089 2754 3106
1233 2866 3218
1361 2930 3314
1521 2946 3378
1777 3074 3475
1921 3090 3507
2162 3122 3587
432 1937 1649
448 2146 1857
496 2242 2066
560 2306 2178
608 2418 2306
689 2530 2482
785 2626 2658
881 2754 2818
993 2850 2962
1153 2962 3106
1281 3042 3202
1393 3058 3298
1553 3106 3378
1713 3138 3427
1905 3186 3491
2114 3218 3571
2322 3250 3603
464 2434 1937
512 2530 2146
560 2610 2322
608 2626 2434
672 2706 2498
785 2818 2658
913 2914 2802
1025 2978 2946
1153 3074 3074
1265 3106 3138
1425 3170 3266
1553 3202 3362
1649 3186 3378
1921 3266 3475
2050 3298 3555
2242 3330 3587
2402 3330 3619
560 2786 2290
592 2818 2402
672 2930 2578
721 2962 2674
785 2946 2706
945 3074 2914
977 3074 2946
1121 3122 3042
1233 3202 3122
1329 3218 3202
1537 3298 3330
1681 3314 3362
1969 3346 3475
2146 3362 3523
2274 3378 3555
2418 3394 3603
2594 3443 3635
640 3010 2530
753 3106 2690
785 3122 2786
849 3170 2850
961 3186 2946
1089 3218 3058
1105 3218 3042
1265 3250 3138
1441 3346 3234
1521 3330 3266
1713 3346 3362
1841 3378 3394
2082 3394 3459
2242 3427 3507
2418 3459 3571
2562 3491 3587
2610 3475 3635
785 3234 2658
881 3250 2802
945 3298 2882
1025 3298 2962
1089 3330 3042
1201 3346 3138
1345 3362 3186
1377 3378 3186
1505 3394 3234
1681 3427 3314
1793 3394 3346
2033 3459 3427
2178 3475 3459
2370 3491 3507
2434 3491 3555
2578 3523 3587
2738 3555 3619
977 3346 2882
1009 3346 2882
1121 3378 3042
1185 3394 3106
1345 3459 3186
1441 3475 3234
1489 3475 3250
1553 3491 3266
1761 3491 3330
1857 3475 3362
1985 3491 3378
2114 3491 3427
2322 3523 3491
2498 3555 3523
2610 3555 3571
2626 3571 3587
2738 3587 3635
1137 3427 2978
1201 3459 3058
1345 3491 3138
1441 3523 3202
1521 3523 3250
1601 3523 3298
1649 3523 3314
1841 3555 3378
1953 3555 3378
2033 3523 3394
2210 3571 3459
2338 3571 3475
2482 3571 3507
2562 3571 3507
2706 3587 3571
2786 3587 3603
2930 3619 3651
208 80 176
208 80 208
256 112 320
256 128 400
240 144 480
256 224 640
272 256 769
320 304 961
400 384 1233
464 496 1537
512 560 1793
576 592 2082
656 656 2322
753 769 2562
849 865 2754
977 945 2930
1169 1137 3138
304 128 272
304 128 320
304 176 400
288 192 464
272 240 592
256 304 721
336 416 945
400 496 1201
448 544 1441
496 592 1665
560 672 1969
656 753 2306
721 801 2482
833 929 2738
977 1073 2930
1121 1233 3122
1249 1361 3234
304 208 336
288 208 368
288 256 464
304 304 592
304 384 737
352 464 913
416 576 1169
448 624 1361
512 705 1649
592 785 1969
672 881 2242
737 961 2466
865 1073 2722
993 1233 2946
1073 1313 3058
1265 1473 3218
1377 1601 3314
288 288 400
288 320 480
304 400 608
304 448 721
336 512 849
400 592 1041
496 721 1361
512 817 1569
560 849 1793
689 977 2226
769 1089 2482
849 1169 2690
977 1345 2882
1089 1473 3058
1249 1617 3186
1361 1761 3298
1521 1905 3362
304 400 480
272 496 592
288 528 689
320 592 801
368 689 961
464 801 1217
528 913 1521
560 977 1761
656 1073 2146
721 1169 2418
881 1361 2706
945 1441 2866
1025 1553 2978
1185 1729 3138
1345 1921 3250
1441 1969 3346
1585 2114 3427
320 544 624
304 656 737
320 672 785
384 769 929
432 865 1121
496 977 1377
576 1121 1665
608 1169 1985
689 1265 2306
817 1457 2610
881 1553 2786
1009 1697 2978
1169 1905 3122
1265 2082 3218
1377 2226 3314
1601 2322 3427
1697 2370 3443
352 753 705
336 849 881
400 929 1009
448 1009 1137
512 1169 1393
560 1265 1617
592 1329 1841
640 1425 2178
769 1569 2530
881 1777 2754
993 1969 2962
1073 2033 3042
1217 2242 3186
1361 2402 3298
1457 2450 3362
1649 2546 3443
1825 2594 3507
400 881 833
416 1121 1089
448 1265 1265
496 1281 1361
544 1425 1537
592 1457 1777
672 1649 2178
705 1745 2418
785 1921 2674
865 2082 2818
1041 2338 3058
1073 2402 3106
1249 2546 3234
1409 2674 3346
1569 2706 3394
1809 2818 3475
1937 2818 3555
464 1153 1073
464 1489 1409
496 1553 1521
528 1601 1617
592 1729 1825
656 1889 2194
705 2017 2402
769 2162 2610
849 2322 2786
993 2546 2978
1073 2594 3074
1217 2690 3186
1425 2818 3298
1601 2882 3378
1777 2962 3459
1937 2962 3507
2226 3010 3587
544 1345 1153
480 1777 1633
512 1905 1809
528 1985 1921
624 2098 2178
721 2306 2434
769 2434 2546
881 2578 2738
977 2674 2914
1121 2802 3074
1217 2850 3170
1361 2914 3250
1505 2962 3330
1649 3010 3394
1857 3074 3475
2066 3090 3523
2354 3186 3603
592 1697 1393
496 2210 1953
544 2338 2114
624 2450 2322
656 2466 2354
753 2594 2562
881 2722 2722
993 2818 2866
1169 2962 3074
1249 2994 3138
1361 3058 3234
1505 3090 3330
1649 3122 3378
1905 3202 3475
2082 3218 3523
2306 3266 3587
2498 3298 3635
592 2082 1553
592 2610 2210
608 2674 2354
705 2754 2546
737 2818 2594
881 2930 2738
977 2946 2834
1121 3010 2962
1249 3090 3090
1393 3170 3202
1521 3186 3298
1697 3234 3378
1889 3250 3443
2082 3298 3507
2226 3314 3571
2418 3346 3603
2546 3346 3651
721 2482 1809
672 2866 2370
705 2946 2498
785 2978 2658
881 3058 2786
977 3058 2882
1105 3106 2978
1233 3170 3074
1329 3218 3138
1457 3234 3218
1697 3314 3346
1809 3314 3362
1985 3330 3443
2210 3362 3507
2354 3394 3555
2546 3427 3603
2658 3427 3635
801 2802 2050
753 3058 2562
833 3138 2690
993 3234 2930
1089 3250 3058
1137 3250 3058
1265 3314 3106
1409 3330 3202
1505 3330 3250
1617 3346 3266
1825 3362 3362
1985 3394 3394
2194 3427 3459
2370 3459 3523
2530 3475 3571
2674 3491 3603
2706 3507 3635
913 2994 2146
881 3170 2450
929 3234 2626
1073 3330 2882
1249 3378 3090
1361 3394 3186
1441 3427 3218
1521 3427 3218
1649 3427 3266
1841 3427 3330
1969 3427 3346
2162 3459 3427
2242 3475 3443
2466 3491 3507
2562 3507 3555
2706 3571 3619
2834 3571 3651
1057 3106 2322
1073 3298 2562
1137 3330 2738
1249 3394 2978
1409 3459 3186
1553 3491 3234
1617 3491 3266
1681 3491 3298
1857 3491 3330
2050 3491 3378
2162 3507 3427
2242 3523 3443
2418 3523 3491
2578 3555 3523
2706 3571 3571
2738 3571 3603
2850 3603 3651
1265 3250 2466
1329 3378 2802
1393 3427 2914
1441 3475 3074
1649 3555 3266
1665 3523 3298
1857 3555 3362
1969 3555 3378
2082 3555 3394
2242 3571 3443
2354 3571 3475
2418 3555 3475
2562 3571 3507
2674 3571 3523
2754 3571 3571
2930 3619 3635
2962 3619 3651
336 112 256
336 112 336
320 128 400
304 144 448
304 176 592
320 208 689
368 256 865
400 304 1089
480 352 1313
528 480 1617
560 544 1889
689 656 2274
753 737 2466
849 817 2658
993 961 2866
1121 1073 3058
1281 1217 3186
416 176 352
400 176 416
400 192 496
368 208 576
352 288 689
400 352 881
416 448 1073
464 480 1265
544 576 1633
592 592 1841
656 721 2162
721 785 2402
817 881 2594
929 1009 2818
1089 1169 3010
1281 1329 3202
1409 1457 3266
592 256 480
592 256 544
608 288 689
560 320 769
480 368 865
448 432 1009
496 560 1265
528 689 1553
560 753 1761
608 801 2050
737 913 2370
833 1009 2594
945 1153 2818
1105 1329 3042
1233 1441 3170
1377 1569 3266
1521 1681 3346
608 336 576
576 384 656
592 416 801
544 464 913
512 544 1041
496 608 1169
544 705 1457
592 865 1729
640 929 2017
769 1073 2370
833 1169 2578
977 1281 2818
1073 1409 2962
1233 1585 3122
1409 1761 3250
1505 1841 3330
1713 1985 3443
672 464 672
448 512 737
448 560 817
448 656 929
496 737 1105
560 881 1409
592 945 1633
656 1057 1953
705 1153 2274
801 1265 2546
945 1441 2754
1057 1569 2962
1153 1649 3074
1281 1825 3186
1489 2050 3314
1601 2098 3378
1809 2194 3475
640 592 737
464 640 801
400 753 881
496 881 1073
544 1009 1297
576 1169 1569
624 1185 1857
672 1265 2162
785 1425 2498
897 1553 2706
1041 1713 2930
1121 1889 3058
1265 2033 3170
1425 2210 3298
1521 2274 3330
1745 2402 3443
1953 2482 3491
496 705 689
480 865 961
512 1073 1169
576 1153 1329
592 1265 1521
624 1361 1729
640 1377 1969
769 1585 2370
881 1729 2674
929 1841 2834
1073 2050 2994
1169 2226 3122
1313 2354 3218
1505 2498 3330
1665 2530 3394
1809 2578 3459
2066 2690 3555
480 865 753
496 1105 1073
496 1313 1361
544 1361 1457
608 1489 1649
672 1649 2017
689 1713 2274
785 1889 2530
881 2146 2802
993 2322 2946
1089 2370 3058
1249 2530 3170
1425 2626 3298
1585 2754 3378
1793 2802 3459
2050 2850 3507
2162 2850 3587
512 1105 961
528 1409 1297
544 1681 1649
592 1729 1745
656 1905 2050
753 2082 2322
785 2194 2530
881 2338 2706
977 2498 2914
1073 2610 3058
1217 2722 3138
1361 2802 3250
1569 2914 3346
1713 2914 3394
1921 2978 3475
2162 3042 3555
2338 3042 3587
560 1233 913
592 1761 1553
576 2066 1969
640 2194 2114
721 2306 2338
785 2434 2530
817 2498 2594
977 2690 2834
1073 2754 2978
1217 2850 3090
1393 2962 3234
1489 2962 3298
1649 3042 3378
1825 3058 3443
2114 3122 3523
2274 3138 3571
2498 3202 3619
672 1425 929
640 1905 1553
608 2434 2242
672 2530 2402
753 2610 2482
849 2706 2674
1041 2866 2866
1105 2914 2930
1233 2994 3090
1425 3090 3218
1521 3106 3266
1633 3106 3330
1857 3186 3427
2082 3234 3507
2274 3234 3555
2418 3250 3587
2610 3298 3635
753 1905 1201
689 2306 1777
721 2834 2530
785 2882 2658
865 2914 2690
977 2994 2834
1105 3042 2930
1233 3074 3010
1361 3170 3138
1553 3202 3250
1665 3234 3346
1857 3266 3427
2017 3266 3459
2210 3330 3523
2338 3330 3571
2530 3346 3619
2674 3362 3651
833 2290 1345
833 2626 1953
785 3010 2546
849 3042 2690
977 3090 2850
1105 3106 2962
1233 3202 3074
1361 3234 3122
1457 3250 3186
1633 3266 3250
1825 3314 3362
1969 3346 3394
2178 3362 3459
2354 3378 3523
2466 3394 3555
2674 3443 3619
2754 3443 3635
945 2674 1505
929 2850 2098
913 3122 2658
1009 3202 2818
1169 3298 3042
1281 3298 3122
1393 3346 3138
1473 3330 3202
1697 3362 3266
1825 3394 3330
2066 3394 3378
2114 3394 3394
2370 3443 3491
2482 3459 3523
2594 3475 3571
2738 3507 3619
2786 3507 3635
1041 2930 1553
1089 3058 2050
1089 3234 2562
1169 3330 2834
1329 3378 3074
1473 3427 3202
1617 3459 3266
1681 3459 3250
1777 3427 3266
2017 3475 3346
2114 3459 3362
2226 3459 3427
2370 3491 3459
2562 3507 3523
2690 3555 3587
2738 3555 3603
2882 3555 3635
1201 3074 1569
1249 3202 1985
1361 3218 2450
1457 3330 2738
1521 3475 3122
1681 3507 3266
1825 3523 3330
1841 3491 3314
2066 3507 3346
2146 3507 3378
2338 3523 3459
2370 3523 3459
2482 3507 3475
2690 3555 3523
2802 3587 3587
2834 3571 3603
2930 3587 3651
1393 3202 1601
1457 3298 2050
1553 3298 2466
1761 3362 2738
1745 3507 3186
1825 3523 3314
2033 3555 3362
2146 3555 3394
2322 3571 3459
2354 3571 3459
2466 3571 3475
2530 3571 3491
2690 3571 3523
2818 3587 3571
2882 3603 3603
2994 3619 3635
3042 3619 3651
448 128 320
464 160 416
448 176 496
464 176 592
496 224 737
512 240 881
528 304 1057
544 304 1169
656 384 1457
656 432 1697
689 544 2050
785 640 2322
865 721 2498
993 849 2738
1073 977 2914
1233 1105 3074
1409 1281 3218
672 240 496
640 224 560
624 224 624
640 256 769
592 304 881
592 320 1025
560 368 1169
640 480 1457
689 512 1729
785 592 2066
785 672 2274
881 865 2546
993 993 2754
1073 1089 2914
1249 1265 3106
1361 1393 3218
