其他预设/【236】赛博朋克风调色预设/【后期菌】视频调色预设/3DL/Miami 04.3dl
# LUT by SparkleStock. Enhanced with VOXCOLOR algorithms.
0 256 512 768 1023
80 16 32
128 48 272
272 208 1073
544 705 2402
961 1329 2994
96 144 160
144 272 480
336 689 1697
656 1393 2850
1233 1953 3186
64 929 592
128 1297 1265
384 1841 2578
1041 2434 3202
1713 2722 3410
176 2402 1585
336 2674 2418
592 2946 3138
1553 3122 3427
2434 3218 3507
705 3010 2370
1169 3170 2914
1569 3282 3202
2146 3346 3410
2786 3427 3507
496 96 160
496 128 496
801 224 1249
1281 640 2386
1713 1425 2962
2498 480 208
2594 496 1009
785 1153 2386
1297 1809 3042
2001 2258 3234
672 913 240
320 1777 1905
913 2338 2882
1761 2690 3298
2578 2962 3443
2033 2242 240
785 2818 2482
1329 3058 3154
2274 3170 3346
2914 3282 3507
2722 3106 288
2738 3202 1041
2642 3346 3186
2866 3410 3346
3186 3475 3507
3170 528 208
3154 496 785
3074 496 1553
3042 672 2274
3234 1169 2754
3507 785 544
3587 881 1745
3491 1041 2386
3298 1361 2786
3186 1921 3122
3218 1361 0
3571 1537 833
3298 1857 2722
2706 2914 3346
3026 3106 3491
3443 2642 48
3459 2914 192
2530 3154 3010
2978 3266 3346
3234 3330 3507
3587 3314 256
3571 3378 416
3507 3410 1297
3346 3475 3410
3459 3491 3523
3507 656 576
3571 737 1505
3523 881 2194
3507 1169 2642
3507 1553 2946
3603 977 913
3635 1105 2146
3587 1329 2594
3587 1649 2898
3587 2001 3122
3571 1521 32
3683 1809 1041
3587 1905 2802
3603 2306 3106
3603 2834 3378
3747 2754 96
3731 3010 192
3747 3138 689
3475 3282 3202
3523 3427 3571
3795 3378 288
3779 3475 544
3779 3507 1025
3731 3523 2658
3603 3571 3523
3571 833 817
3619 945 1857
3603 1169 2498
3619 1505 2850
3603 1809 3058
3619 1153 624
3619 1281 2306
3635 1537 2754
3619 1857 3010
3635 2210 3202
3683 1697 176
3731 2017 672
3603 2178 2898
3635 2546 3186
3683 2850 3378
3827 2818 176
3811 3074 384
3811 3202 785
3731 3202 3010
3699 3410 3571
3859 3459 496
3843 3523 1041
3795 3507 2098
3731 3539 3218
3731 3603 3587
