其他预设/【236】赛博朋克风调色预设/【后期菌】视频调色预设/3DL/Miami 10.3dl
# LUT by SparkleStock. Enhanced with VOXCOLOR algorithms.
0 128 256 384 512 640 768 896 1023
80 80 64
96 96 96
128 112 144
208 176 256
352 304 608
656 560 1265
1025 849 1777
1345 1025 2082
1665 1249 2306
112 128 112
112 112 112
176 176 208
256 256 400
480 480 929
785 753 1537
1089 1009 1921
1393 1281 2210
1713 1505 2434
128 176 144
160 224 208
192 256 272
352 416 624
656 785 1329
993 1121 1841
1233 1393 2146
1569 1665 2402
1873 1937 2610
208 432 288
224 560 416
256 705 656
496 913 1089
817 1249 1681
1073 1521 2001
1409 1825 2290
1713 2050 2514
2066 2290 2738
352 993 689
320 1281 945
224 1553 1233
560 1617 1649
865 1745 1937
1201 1953 2210
1585 2194 2450
1969 2402 2674
2258 2530 2818
400 1777 1249
256 2210 1649
272 2354 1969
560 2258 2178
961 2258 2322
1393 2386 2482
1873 2498 2658
2210 2610 2786
2466 2738 2930
304 2530 1857
352 2690 2194
544 2642 2338
849 2626 2466
1233 2642 2578
1681 2658 2690
2114 2722 2802
2402 2770 2898
2642 2882 3010
624 2898 2274
833 2914 2466
1137 2882 2562
1409 2882 2690
1649 2866 2738
1969 2850 2818
2274 2898 2930
2514 2898 2978
2690 2946 3042
1249 2994 2498
1521 3058 2658
1729 3042 2754
1825 3026 2818
2082 3042 2914
2258 3058 2962
2450 3058 3026
2642 3042 3058
2754 3058 3122
176 112 96
208 128 128
256 144 176
368 208 320
656 384 737
961 705 1489
1313 945 1953
1681 1153 2258
1985 1377 2466
448 208 192
496 240 256
448 240 304
560 400 656
721 656 1233
1073 945 1777
1361 1185 2082
1697 1457 2338
2033 1729 2610
560 288 256
320 256 256
384 368 464
608 656 1041
881 993 1617
1201 1297 1985
1473 1537 2258
1905 1921 2562
2210 2146 2738
432 400 256
336 689 576
448 897 897
672 1089 1329
1073 1505 1889
1345 1729 2178
1697 2017 2450
2066 2258 2674
2402 2482 2866
496 961 592
384 1569 1217
432 1793 1585
801 1809 1873
1121 1953 2114
1537 2178 2386
1937 2386 2610
2242 2514 2770
2514 2658 2962
865 1441 672
336 2322 1809
528 2386 2114
961 2402 2338
1297 2402 2434
1745 2466 2578
2162 2578 2738
2450 2706 2898
2674 2818 3026
1265 1953 929
753 2674 2082
929 2706 2434
1281 2706 2546
1585 2722 2658
2001 2722 2754
2306 2754 2850
2546 2818 2946
2738 2930 3058
1665 2258 993
1489 2626 2162
1521 2946 2610
1809 2946 2770
2001 2930 2818
2242 2946 2914
2450 2930 2946
2674 2962 3026
2818 2994 3106
2322 2562 961
1969 2610 1937
2178 2946 2658
2210 3090 2866
2354 3090 2946
2450 3090 2978
2610 3090 3026
2754 3106 3106
2882 3090 3138
576 224 224
560 208 240
624 256 336
705 304 464
1249 512 897
1713 817 1633
2194 1057 2162
2418 1281 2482
2546 1537 2706
1441 448 432
1521 464 512
1569 512 656
1601 624 929
1825 833 1457
2194 1089 2098
1889 1425 2338
2114 1665 2546
2354 1921 2722
1985 656 592
2194 721 865
2178 785 1089
1729 945 1521
1393 1281 1937
1521 1553 2194
1889 1873 2498
2210 2098 2690
2466 2306 2850
1713 753 496
1553 801 721
1169 1073 1281
1473 1473 1889
1457 1761 2162
1681 1969 2354
2033 2258 2626
2354 2434 2802
2578 2562 2946
1329 929 288
945 1345 833
737 1937 1825
1121 2001 2066
1505 2178 2322
1857 2338 2530
2242 2514 2738
2530 2674 2946
2706 2770 3042
2017 1505 368
1441 1889 897
897 2498 2290
1361 2514 2450
1713 2530 2578
2050 2562 2674
2418 2722 2850
2642 2802 2978
2786 2882 3106
2482 1905 400
2066 2210 785
1457 2802 2482
1633 2802 2626
2001 2802 2754
2274 2786 2818
2514 2850 2914
2722 2914 3010
2882 2978 3138
2786 2242 464
2706 2514 737
2146 2658 2306
2098 2962 2770
2306 2978 2882
2450 2962 2930
2610 2994 2978
2786 3010 3058
2930 3026 3138
2914 2402 464
2994 2562 624
2946 2754 1137
2562 2930 2738
2610 3090 2978
2690 3122 3026
2738 3106 3042
2866 3122 3122
2962 3122 3154
1633 464 448
1697 480 496
1745 512 656
1841 608 881
1985 721 1233
2178 865 1585
2450 1057 1937
2610 1169 2146
2770 1505 2562
2242 656 656
2242 656 769
2354 785 1073
2434 865 1377
2530 993 1665
2498 1073 1905
2578 1313 2226
2770 1665 2610
2882 1985 2866
2402 785 721
2546 881 1169
2610 977 1473
2706 1121 1745
2530 1201 1905
2562 1457 2226
2754 1841 2658
2498 2258 2802
2642 2418 2914
2386 929 640
2514 1025 993
2738 1201 1761
2738 1409 1985
2258 1905 2418
2178 2258 2610
2322 2418 2754
2610 2562 2930
2738 2658 3010
2146 1089 432
2178 1249 480
2066 1633 1217
1793 2114 2226
2098 2306 2498
2210 2482 2658
2514 2658 2882
2706 2754 3010
2818 2818 3106
2546 1473 416
2546 1569 416
2338 2146 881
1729 2626 2546
2033 2626 2658
2338 2690 2786
2578 2770 2914
2770 2866 3042
2898 2930 3154
2690 1825 416
2738 1937 464
2770 2306 705
2082 2866 2706
2226 2882 2802
2498 2866 2866
2690 2898 2946
2882 2978 3090
2962 2994 3170
2866 2082 448
2882 2146 464
2962 2482 753
2626 2866 2642
2562 2930 2802
2626 2994 2962
2754 3026 3010
2898 3058 3106
2994 3058 3154
2962 2290 464
2978 2338 512
3042 2450 608
3090 2674 1057
2802 3026 2898
2818 3122 3026
2898 3170 3122
2962 3154 3138
3010 3138 3186
2274 640 624
2306 656 721
2354 721 961
2450 817 1265
2530 913 1553
2626 1025 1809
2626 1073 1969
2722 1249 2194
2818 1441 2402
2498 753 801
2578 849 1105
2658 929 1409
2722 1041 1665
2754 1105 1889
2770 1201 2050
2850 1329 2242
2866 1521 2402
2946 1793 2626
2610 865 913
2754 1041 1489
2818 1137 1745
2866 1233 1953
2914 1377 2162
2898 1473 2258
2882 1793 2498
2962 2146 2786
3090 2354 2994
2562 1057 737
2722 1153 1281
2914 1361 1985
2914 1537 2194
2914 1681 2306
2866 1985 2514
2930 2274 2770
3058 2562 3042
2898 2722 3106
2514 1233 480
2642 1345 512
2770 1681 1313
2898 1937 2322
2818 2274 2546
2674 2610 2850
2738 2738 2978
2850 2850 3090
2946 2898 3154
2754 1489 448
2802 1649 464
2850 1761 480
2754 2194 1297
2546 2722 2770
2738 2802 2914
2770 2850 2978
2914 2930 3122
2978 2978 3186
2914 1873 448
2914 1953 464
2930 2033 496
2882 2274 785
2562 2930 2866
2674 2930 2930
2818 2962 3010
2978 3010 3122
3026 3042 3186
2978 2114 464
2962 2178 464
3010 2242 512
3026 2306 624
2866 2978 2754
2818 3042 2978
2914 3106 3090
3010 3106 3154
3090 3122 3202
3042 2274 464
3058 2306 480
3106 2386 544
3138 2498 737
3154 2770 1441
2978 3106 2994
3026 3186 3138
3058 3170 3170
3106 3202 3234
2482 705 721
2546 769 977
2642 865 1281
2722 961 1585
2770 1057 1793
2802 1137 1985
2850 1233 2178
2882 1393 2322
2930 1585 2482
2642 817 993
2770 945 1377
2850 1057 1681
2882 1153 1873
2898 1217 2033
2914 1297 2178
2930 1473 2322
2978 1729 2514
3026 1937 2690
2706 993 1057
2866 1121 1649
2914 1249 1905
2946 1361 2082
2978 1473 2226
2994 1681 2434
3010 1841 2546
3026 2017 2658
3106 2258 2850
2690 1185 849
2786 1313 1441
2978 1505 2098
2978 1617 2242
3010 1841 2434
3010 1985 2546
3058 2226 2722
3090 2450 2898
3170 2610 3042
2690 1297 528
2786 1473 544
2850 1777 1361
2962 2001 2386
2994 2226 2562
3058 2418 2738
3042 2626 2898
3138 2770 3090
3170 2882 3202
2898 1601 464
2946 1729 480
2978 1809 512
3026 1985 1009
2994 2386 1873
2962 2818 2946
2930 2914 3026
2994 2978 3154
3058 3010 3218
3026 1905 464
3026 1969 464
3026 2066 480
3042 2146 528
2978 2498 1425
2866 2946 2930
2962 3010 3058
3042 3042 3154
3122 3106 3234
3090 2114 464
3106 2178 480
3122 2258 512
3138 2322 592
3106 2610 1201
3010 3042 2882
2994 3106 3058
3106 3154 3186
3154 3170 3234
3154 2274 480
3154 2322 496
3154 2386 528
3170 2450 640
3186 2578 897
3202 2930 1873
3138 3170 3090
3154 3234 3218
3170 3250 3266
2610 753 849
2690 833 1185
2802 945 1505
2866 1073 1777
2930 1153 1953
2946 1249 2114
2978 1393 2290
2994 1537 2418
3042 1745 2610
2738 913 1153
2866 1025 1537
2930 1153 1825
2978 1281 2017
2978 1345 2146
2994 1473 2274
3026 1665 2450
3058 1889 2642
3106 2066 2738
2802 1105 1185
2978 1281 1825
2978 1329 1985
3042 1521 2226
3042 1649 2338
3042 1793 2482
3106 2017 2658
3138 2194 2786
3170 2354 2882
2770 1281 945
2882 1473 1553
3042 1681 2226
3058 1841 2386
3090 1953 2514
3090 2146 2642
3122 2290 2754
3170 2466 2898
3202 2578 2994
2818 1409 544
2882 1505 560
2930 1921 1473
3026 2178 2482
3058 2306 2642
3138 2466 2770
3170 2578 2898
3186 2706 2994
3234 2802 3138
2978 1649 480
3058 1777 528
3106 1905 560
3106 2033 913
3042 2338 1729
3090 2738 2882
3138 2802 2978
3170 2930 3122
3218 2994 3250
3138 1937 464
3138 2033 480
3122 2082 496
3122 2178 544
3106 2258 833
3122 2642 1857
3042 2994 2962
3090 3090 3122
3202 3154 3266
3170 2146 464
3170 2210 464
3170 2274 512
3154 2338 592
3170 2402 705
3138 2802 1905
3106 3106 2978
3154 3186 3154
3218 3218 3266
3202 2290 464
3202 2354 512
3202 2434 592
3218 2514 737
3234 2642 1057
3234 2914 1841
3266 3154 2690
3218 3250 3202
3250 3266 3282
2706 833 961
2802 929 1377
2930 1073 1713
2946 1137 1905
2994 1249 2082
3026 1361 2242
3090 1585 2434
3122 1745 2562
3154 1953 2722
2850 1025 1297
2962 1169 1697
2994 1249 1921
3042 1361 2098
3090 1521 2290
3106 1649 2418
3138 1809 2546
3154 2017 2722
3202 2210 2850
2850 1265 1089
3010 1441 1937
3090 1521 2162
3106 1681 2306
3122 1825 2466
3138 1937 2562
3170 2114 2722
3202 2322 2866
3218 2450 2930
2866 1441 1041
2978 1681 1681
3058 1809 2226
3138 2001 2498
3138 2114 2610
3138 2242 2690
3170 2386 2786
3234 2530 2930
3250 2642 3010
2930 1473 576
2994 1585 608
3042 1889 1185
3058 2290 2546
3138 2418 2722
3170 2514 2818
3186 2626 2914
3234 2706 2994
3298 2802 3106
3058 1697 512
3122 1841 560
3122 1905 576
3122 2098 1073
3122 2354 1665
3170 2722 2898
3202 2802 3010
3250 2914 3106
3298 3010 3218
3186 1937 496
3202 2033 496
3186 2098 512
3170 2194 592
3186 2290 737
3202 2642 1873
3218 2978 2962
3234 3042 3122
3298 3138 3266
3234 2194 480
3250 2290 544
3234 2322 592
3218 2402 721
3202 2514 1073
3234 2690 1553
3250 2978 2514
3234 3186 3090
3298 3250 3330
3250 2322 496
3250 2418 544
3282 2498 672
3266 2626 977
3282 2850 1665
3298 3026 2354
3298 3186 2802
3362 3282 3138
3346 3330 3330
2802 913 1041
2898 1057 1505
3010 1169 1809
3042 1249 2001
3090 1361 2194
3122 1521 2354
3154 1681 2498
3170 1825 2626
3202 2001 2754
2914 1137 1409
2994 1249 1761
3058 1345 2017
3122 1505 2226
3138 1649 2354
3154 1777 2498
3202 1937 2642
3218 2114 2786
3234 2290 2882
2882 1345 1009
3090 1585 2082
3106 1633 2226
3154 1809 2434
3154 1921 2530
3186 2082 2658
3218 2242 2786
3234 2386 2882
3250 2482 2946
2866 1345 656
2962 1745 1473
3122 1985 2306
3186 2162 2610
3170 2242 2658
3202 2354 2754
3218 2482 2866
3266 2578 2962
3282 2658 3042
3010 1537 608
3042 1649 656
3090 1873 1041
3122 2386 2306
3186 2482 2770
3202 2562 2866
3218 2674 2946
3266 2738 3010
3330 2850 3138
3138 1745 560
3170 1857 592
3202 1953 656
3170 2114 993
3138 2434 1793
3202 2786 2930
3218 2802 3010
3266 2914 3106
3346 2994 3202
3234 1985 528
3250 2066 544
3234 2146 576
3250 2258 705
3234 2338 913
3218 2658 1969
3250 2978 2930
3282 3058 3122
3362 3138 3282
3282 2210 512
3282 2290 560
3266 2354 656
3250 2450 833
3234 2562 1169
3250 2754 1793
3298 2994 2482
3298 3138 2930
3378 3250 3330
3298 2402 528
3298 2482 656
3330 2642 1025
3298 2850 1681
3346 3058 2338
3330 3154 2738
3362 3250 3026
3378 3330 3234
3394 3362 3346
