其他预设/【236】赛博朋克风调色预设/【后期菌】视频调色预设/3DL/Miami 08_S.3dl
# LUT by SparkleStock. Enhanced with VOXCOLOR algorithms.
0 256 512 768 1023
0 0 16
128 144 448
352 336 1233
608 496 2258
929 576 2962
160 544 544
304 801 1025
624 1185 2114
993 1345 2946
1201 1281 3427
416 1713 1553
528 1953 1985
849 2258 2738
1265 2450 3282
1681 2434 3587
624 2882 2466
817 2962 2706
1169 3106 3074
1649 3202 3475
2098 3250 3667
1009 3410 2946
1281 3491 3218
1601 3539 3346
2114 3555 3507
2530 3603 3667
945 176 656
881 208 1169
1073 288 1857
1281 464 2690
1473 624 3298
2258 721 993
2098 721 1553
1137 1377 2610
1457 1617 3266
1713 1537 3603
1201 1585 833
945 2306 2194
1265 2578 2914
1793 2610 3475
2290 2562 3683
1937 2354 785
1281 3202 2914
1729 3266 3250
2194 3298 3539
2610 3298 3715
2130 2962 1025
2226 3314 2146
2226 3603 3459
2578 3587 3539
2946 3651 3715
2834 304 1041
2738 240 1425
2834 304 2098
2866 384 2882
3042 384 3410
2962 817 961
2722 769 1521
2914 801 2450
3122 961 3346
2754 1121 3667
2594 1665 288
2690 1841 1297
2722 1921 2722
2482 2722 3587
2658 2658 3715
3090 2402 448
3058 2722 849
2306 3346 3234
2658 3410 3571
3058 3346 3731
3202 3090 721
3202 3234 1137
3074 3378 2033
3090 3667 3635
3282 3731 3747
3571 368 1329
3539 304 1761
3651 304 2578
3683 336 3218
3667 384 3555
3555 977 1249
3427 817 1713
3539 801 2690
3747 865 3427
3715 1025 3651
3410 1681 432
3314 1889 1345
3394 1729 2578
3571 1809 3394
3539 2130 3715
3651 2466 432
3491 2802 689
3410 2962 1505
3298 3298 3346
3410 3475 3795
3651 3170 560
3635 3394 1249
3555 3491 1825
3571 3635 2978
3635 3779 3811
3811 705 1537
3843 448 2146
3891 352 2898
3875 352 3410
3875 368 3683
3795 1393 1409
3891 849 2450
3891 865 3058
3843 913 3507
3827 1057 3715
3763 1745 737
3827 1985 1297
3923 1825 2658
3875 1889 3378
3779 2146 3683
3843 2482 576
3891 2866 897
3923 3026 1617
3843 3090 3090
3811 3234 3827
3827 3410 1137
3811 3555 2017
3811 3747 2754
3875 3811 3555
3875 3875 3891
