其他预设/【236】赛博朋克风调色预设/【后期菌】视频调色预设/3DL/Miami 06_S.3dl
# LUT by SparkleStock. Enhanced with VOXCOLOR algorithms.
0 256 512 768 1023
80 80 144
208 288 416
480 592 1057
897 1169 2434
1217 1473 3218
144 336 352
288 528 656
656 1041 1681
1009 1537 2850
1377 1905 3378
32 929 656
128 1297 1217
881 1953 2386
1377 2546 3138
1985 2802 3491
0 2274 1425
16 2658 2290
368 2930 2978
1729 3234 3427
2770 3362 3667
560 3058 2322
1201 3250 2882
1713 3346 3234
2482 3475 3491
3154 3587 3667
640 256 400
640 288 592
913 464 1137
1409 977 2418
1841 1393 3330
2130 769 512
1921 817 1089
1041 1297 2242
1473 1873 3106
2162 2258 3603
785 945 384
448 1777 1633
1153 2370 2674
2017 2818 3330
2754 3042 3667
2017 2082 705
737 2866 2402
1537 3090 3090
2562 3282 3427
3202 3410 3715
2770 2914 961
2498 2962 1265
2786 3410 3282
3106 3475 3475
3427 3603 3699
2994 785 656
2786 705 1025
2914 849 1729
3058 945 2514
3507 1121 3202
3090 977 656
2850 1057 1409
3042 1073 2386
3507 1329 3154
3427 1729 3587
2786 1457 416
2770 1633 993
2882 1889 2546
2850 3010 3491
3266 3154 3795
3491 2626 849
3266 2882 929
2642 3154 3026
3202 3346 3475
3475 3459 3763
3571 3298 1105
3539 3378 1121
3427 3394 1457
3539 3587 3571
3651 3651 3731
3779 993 913
3779 1009 1537
3907 1121 2514
3939 1185 3122
3971 1281 3491
3747 1089 865
3571 1121 1633
3699 1185 2658
4019 1473 3410
3971 1777 3667
3603 1553 512
3427 1761 1041
3475 1841 2530
3731 2274 3394
3875 2850 3763
3859 2722 769
3667 3026 897
3523 3106 1297
3475 3266 3266
3747 3539 3827
3875 3427 1121
3827 3539 1185
3699 3635 1297
3763 3651 2786
3795 3731 3795
4035 1105 1057
4035 1281 2066
4035 1217 2930
4095 1281 3410
4035 1425 3667
4003 1233 897
4067 1345 2530
4095 1377 3042
4067 1649 3539
4019 2033 3747
3971 1633 624
4003 1873 865
4019 2033 2642
3987 2322 3378
4003 2882 3795
4003 2754 737
4003 3042 881
4003 3122 1377
3971 3170 3106
3971 3459 3859
3971 3603 1201
3859 3699 1265
3843 3731 2066
3955 3763 3394
3939 3827 3843
