其他预设/【236】赛博朋克风调色预设/【后期菌】视频调色预设/3DL/Miami 05_S.3dl
# LUT by SparkleStock. Enhanced with VOXCOLOR algorithms.
0 256 512 768 1023
64 64 128
176 224 560
336 384 1201
496 480 2066
785 560 2786
192 528 576
304 753 1009
528 1041 1857
833 1217 2770
1121 1169 3298
352 1441 1345
448 1713 1729
689 2033 2498
1089 2354 3154
1601 2386 3523
480 2690 2274
576 2802 2546
833 2978 2882
1329 3170 3330
1889 3234 3651
737 3362 2834
945 3443 3090
1169 3475 3266
1553 3539 3410
2098 3587 3619
817 208 640
769 240 1137
929 288 1729
1153 416 2546
1489 592 3218
2194 608 849
2098 640 1409
929 1217 2370
1265 1409 3106
1761 1361 3523
897 1265 721
769 2082 1969
1041 2402 2722
1649 2562 3378
2274 2418 3651
1697 2130 753
913 3058 2738
1265 3170 3074
1825 3266 3427
2546 3298 3667
1857 3010 1281
1665 3362 2402
1665 3603 3378
2082 3603 3459
2754 3635 3635
2850 352 833
2786 256 1265
2930 304 1905
3058 352 2594
3250 368 3250
2994 721 849
2770 753 1473
2962 721 2386
3378 785 3218
3106 865 3651
2690 1521 256
2770 1713 1233
2866 1729 2626
2418 2578 3491
2690 2434 3667
3218 2322 400
3074 2658 656
1873 3362 3170
2562 3378 3475
3026 3314 3683
3250 3106 769
3202 3234 1217
3026 3378 2098
2962 3667 3587
3250 3699 3715
3587 384 1153
3555 320 1649
3651 320 2466
3715 352 3106
3715 384 3475
3603 833 1137
3443 753 1697
3539 737 2658
3779 737 3378
3763 817 3651
3459 1553 352
3394 1825 1297
3443 1601 2578
3619 1601 3378
3667 1777 3651
3715 2466 432
3523 2818 656
3443 2994 1457
3330 3266 3266
3427 3410 3747
3683 3234 624
3667 3410 1169
3555 3507 1745
3587 3635 2914
3635 3779 3779
3843 544 1313
3859 432 2050
3875 416 2850
3875 400 3362
3859 416 3619
3843 1025 1233
3891 753 2402
3907 785 3010
3859 801 3491
3875 881 3699
3779 1601 624
3875 1937 1217
3955 1681 2690
3907 1697 3378
3827 1745 3683
3859 2578 592
3907 2946 881
3939 3074 1601
3859 3090 3058
3827 3106 3779
3859 3427 929
3827 3555 1633
3827 3715 2498
3859 3779 3443
3875 3875 3891
