其他预设/【236】赛博朋克风调色预设/【后期菌】视频调色预设/3DL/Miami 07.3dl
# LUT by SparkleStock. Enhanced with VOXCOLOR algorithms.
0 128 256 384 512 640 768 896 1023
0 0 0
80 48 160
112 96 320
160 224 576
256 304 929
368 400 1473
512 544 2130
705 672 2562
945 929 2994
96 144 176
80 192 256
176 304 512
240 432 817
368 528 1297
496 656 1889
672 849 2482
913 1153 2946
1169 1393 3234
96 320 336
160 432 528
224 496 672
320 656 1089
480 881 1729
689 1137 2450
881 1425 2914
1137 1681 3202
1409 1969 3378
176 656 640
256 785 817
368 929 1105
480 1169 1617
592 1393 2306
785 1681 2786
1025 2033 3106
1265 2258 3298
1601 2498 3475
272 1169 1073
352 1393 1361
400 1521 1537
560 1793 2162
689 2098 2658
881 2418 3010
1153 2658 3250
1505 2818 3410
1841 2914 3507
336 1953 1617
400 2226 1969
512 2370 2258
672 2546 2578
913 2786 2962
1169 2962 3202
1505 3074 3394
1793 3122 3491
2226 3202 3587
448 2754 2242
560 2850 2530
689 2866 2690
865 2978 2866
1153 3138 3106
1457 3234 3298
1841 3298 3475
2178 3346 3555
2530 3410 3651
689 3186 2674
817 3218 2866
1025 3250 3010
1233 3298 3138
1425 3346 3234
1761 3378 3362
2130 3443 3475
2450 3491 3555
2690 3523 3619
1009 3378 2962
1217 3443 3138
1425 3491 3234
1569 3491 3282
1889 3507 3378
2130 3523 3410
2418 3555 3507
2674 3571 3571
2866 3619 3651
224 32 192
240 64 304
240 112 432
256 176 705
400 272 1137
480 464 1745
656 608 2354
897 817 2818
1185 1089 3154
464 192 400
480 240 592
368 272 705
400 464 1105
480 656 1617
640 817 2258
833 1041 2722
1121 1313 3106
1457 1601 3346
560 400 592
336 496 705
384 624 961
512 833 1505
624 1041 2130
849 1313 2690
1041 1553 3010
1441 1969 3330
1777 2130 3475
400 640 624
400 945 1041
512 1169 1425
576 1329 1889
785 1649 2626
961 1921 2962
1233 2258 3218
1601 2450 3394
2033 2642 3523
464 1089 961
464 1633 1569
576 1793 1937
705 2098 2450
849 2386 2834
1121 2658 3122
1489 2834 3346
1793 2898 3443
2274 2978 3587
592 1489 1041
496 2402 2178
656 2514 2466
913 2802 2818
1121 2930 3058
1425 3042 3266
1777 3138 3410
2194 3202 3555
2562 3266 3651
769 2338 1505
689 2946 2514
881 3010 2818
1121 3122 3010
1377 3218 3154
1745 3266 3362
2082 3330 3475
2402 3378 3555
2722 3394 3651
929 2866 1745
929 3202 2578
1217 3346 3090
1521 3394 3234
1745 3394 3298
2098 3427 3378
2370 3475 3475
2674 3523 3571
2850 3539 3635
1217 3202 1841
1329 3250 2482
1617 3491 3154
1921 3539 3362
2226 3555 3410
2402 3555 3475
2642 3555 3507
2866 3587 3587
3042 3619 3651
560 144 368
512 128 480
528 160 737
560 208 961
801 272 1489
881 368 2017
1089 544 2546
1313 817 2962
1649 1201 3282
1425 320 560
1553 352 785
1569 368 1041
1409 416 1505
1329 512 2082
1217 672 2546
1153 1217 2978
1457 1489 3234
1745 1745 3410
2466 528 592
2866 544 993
2722 544 1281
1153 785 2098
929 1281 2562
1073 1569 2930
1425 1905 3234
1761 2098 3410
2098 2258 3507
1761 769 544
1521 929 1153
897 1281 1825
1041 1521 2530
1041 1905 2850
1201 2210 3090
1569 2482 3330
1969 2578 3475
2402 2690 3555
721 993 592
721 1505 1345
705 2066 2242
865 2370 2658
1105 2658 2978
1425 2850 3234
1809 2946 3410
2274 3010 3555
2642 3058 3635
1089 1537 672
849 2194 1585
849 2754 2658
1153 2946 2946
1425 3090 3154
1713 3122 3330
2162 3234 3491
2514 3282 3587
2786 3266 3651
1377 2033 689
1041 2674 1585
1121 3138 2914
1329 3218 3074
1729 3282 3250
2066 3330 3362
2386 3378 3491
2690 3427 3571
2930 3443 3667
1617 2578 769
1425 3010 1537
1441 3266 2722
1761 3427 3250
2130 3443 3346
2370 3443 3394
2610 3507 3491
2866 3539 3587
3042 3555 3651
1809 2850 785
1937 3090 1153
2098 3266 1745
2242 3507 3202
2530 3571 3443
2722 3571 3507
2834 3571 3539
3042 3587 3619
3154 3651 3667
1729 240 480
1873 256 640
1889 272 929
1969 304 1185
2066 320 1649
2226 368 2098
2626 496 2626
2818 624 2962
2338 1041 3298
2994 464 624
3010 464 865
3090 464 1169
3106 480 1537
3106 496 1937
2866 608 2498
2578 865 3010
2466 1281 3298
2466 1681 3475
3266 624 705
3394 592 1265
3394 608 1585
3378 672 1985
2946 801 2402
2658 1073 2930
2466 1553 3282
2130 2178 3427
2370 2338 3507
3122 801 480
3410 897 1025
3539 817 1969
3394 1025 2338
1745 1825 2978
1729 2402 3250
1953 2610 3394
2418 2706 3523
2626 2722 3587
2162 1153 224
1969 1425 464
1825 1793 1553
1297 2466 2786
1665 2642 3090
1761 2930 3282
2242 3042 3491
2626 3074 3587
2818 3090 3651
2514 1681 240
2402 1825 320
1377 2530 1617
1425 3058 3042
1713 3122 3218
2066 3202 3378
2418 3250 3507
2770 3266 3619
2978 3282 3667
2482 2178 304
2514 2338 400
1937 2754 1217
1713 3330 3154
1969 3346 3250
2402 3362 3394
2658 3410 3507
2946 3443 3619
3106 3475 3667
2626 2562 384
2610 2642 480
2258 2994 1217
2338 3378 3010
2322 3475 3250
2610 3491 3427
2834 3507 3507
3058 3555 3619
3154 3571 3667
2674 2866 480
2706 2962 640
2706 3090 897
2818 3234 1441
2818 3555 3346
2914 3587 3507
3090 3635 3571
3186 3651 3619
3282 3651 3683
3122 368 576
3154 368 769
3154 368 1057
3202 336 1409
3218 400 1777
3234 448 2258
3186 544 2642
3282 721 3042
3362 929 3266
3443 512 849
3491 512 1185
3507 512 1521
3491 496 1889
3475 560 2338
3491 672 2690
3507 849 3010
3475 1057 3218
3491 1329 3427
3555 689 929
3635 672 1601
3651 689 1969
3619 737 2370
3651 897 2754
3587 1025 2962
3378 1393 3218
3202 1729 3475
3074 2033 3571
3491 881 624
3635 961 1297
3683 945 2338
3635 1105 2658
3635 1281 2914
3410 1649 3154
3186 1953 3394
3090 2418 3571
2850 2802 3651
3010 1233 208
3138 1393 288
3571 1521 1233
3587 1601 2706
3330 2050 3042
2578 2786 3346
2690 3042 3539
2850 3138 3635
3010 3138 3683
3138 1681 144
3138 1937 208
3138 2114 288
3090 2610 1217
2402 3122 3250
2722 3202 3410
2770 3282 3539
2994 3298 3635
3138 3330 3683
3106 2354 240
3074 2450 288
3106 2610 368
2834 2834 945
2466 3394 3282
2674 3410 3427
2930 3427 3539
3122 3475 3635
3234 3491 3699
3186 2754 304
3122 2834 352
3154 2978 448
3154 3074 705
2962 3427 3138
2930 3523 3443
3090 3571 3555
3234 3587 3635
3346 3619 3715
3202 3058 368
3202 3106 464
3218 3202 592
3202 3282 993
3186 3330 1665
3202 3587 3443
3282 3667 3619
3362 3651 3651
3443 3683 3715
3475 448 721
3507 432 1041
3539 432 1393
3539 416 1777
3539 464 2210
3539 544 2578
3523 656 2930
3555 865 3154
3587 1073 3378
3635 544 1041
3683 560 1505
3683 560 1905
3635 576 2258
3667 672 2642
3651 801 2914
3635 993 3106
3651 1265 3330
3651 1473 3443
3683 785 1137
3715 705 1793
3699 785 2258
3731 897 2642
3715 977 2898
3699 1249 3138
3667 1409 3250
3635 1569 3362
3635 1777 3507
3635 993 737
3715 1121 1505
3763 1105 2482
3763 1201 2818
3731 1457 3090
3667 1617 3218
3635 1793 3346
3523 2114 3523
3410 2322 3619
3362 1233 208
3443 1489 320
3651 1665 1265
3683 1649 2802
3587 1921 3058
3587 2162 3234
3427 2514 3427
3362 2754 3619
3330 2962 3715
3443 1745 176
3443 2050 240
3427 2194 272
3619 2370 849
3619 2658 1665
3266 3058 3378
3090 3282 3555
3186 3346 3651
3298 3378 3715
3491 2402 208
3443 2546 256
3475 2770 336
3427 2914 416
3330 3106 1409
3074 3362 3378
3186 3443 3539
3266 3507 3651
3394 3523 3731
3491 2866 288
3475 2994 352
3443 3106 432
3475 3218 560
3378 3282 1345
3298 3491 3266
3282 3555 3539
3427 3619 3667
3491 3635 3715
3443 3138 352
3427 3218 448
3475 3282 528
3475 3362 721
3443 3394 1137
3475 3427 2017
3491 3651 3539
3523 3699 3683
3539 3715 3731
3635 480 913
3635 448 1281
3667 448 1681
3651 464 2114
3683 544 2562
3699 672 2850
3699 833 3122
3699 1009 3282
3699 1249 3443
3715 624 1233
3763 592 1681
3731 624 2162
3779 737 2578
3763 817 2866
3731 945 3074
3715 1153 3250
3699 1393 3427
3683 1585 3491
3763 913 1265
3779 849 2066
3795 897 2418
3811 1057 2850
3795 1169 3074
3731 1345 3234
3715 1553 3378
3715 1729 3475
3683 1905 3539
3699 1105 865
3763 1233 1553
3795 1281 2658
3795 1441 2994
3731 1553 3122
3731 1729 3282
3667 1905 3378
3683 2114 3507
3683 2274 3587
3587 1313 256
3587 1505 352
3667 1777 1345
3715 1825 2914
3667 2017 3154
3667 2226 3346
3667 2370 3443
3651 2546 3555
3571 2722 3683
3635 1777 224
3651 2066 272
3635 2370 352
3683 2530 769
3683 2578 1553
3571 2802 3346
3571 2850 3475
3523 3090 3619
3507 3218 3715
3683 2498 256
3651 2722 320
3587 2834 336
3571 2978 432
3651 3090 737
3635 3202 1697
3507 3410 3394
3427 3491 3587
3523 3539 3763
3651 2946 272
3619 3058 336
3619 3154 432
3571 3250 592
3571 3298 769
3555 3362 1921
3523 3555 3427
3555 3635 3635
3587 3651 3731
3619 3218 352
3619 3298 448
3635 3394 592
3619 3427 881
3635 3475 1265
3635 3491 1953
3651 3619 2946
3635 3699 3667
3683 3731 3763
3715 560 1041
3763 512 1505
3763 512 1969
3779 544 2450
3779 672 2802
3779 801 3058
3795 1057 3282
3779 1233 3410
3779 1425 3539
3779 721 1377
3795 737 1825
3795 721 2322
3827 849 2722
3811 1009 3042
3795 1153 3218
3779 1313 3346
3779 1505 3475
3763 1681 3539
3795 1057 1121
3811 1009 2162
3811 1073 2642
3827 1201 2962
3811 1361 3186
3795 1489 3282
3779 1633 3394
3779 1825 3507
3763 1969 3571
3795 1249 993
3811 1409 1617
3795 1409 2498
3795 1585 3058
3779 1729 3202
3731 1841 3346
3715 1985 3427
3731 2194 3555
3731 2354 3651
3699 1409 320
3715 1601 384
3763 1889 1057
3715 1985 2930
3683 2130 3234
3699 2306 3394
3667 2418 3475
3699 2578 3587
3715 2706 3699
3731 1889 272
3763 2194 352
3715 2402 400
3731 2562 929
3731 2706 1505
3651 2754 3394
3667 2834 3539
3699 2962 3667
3715 3138 3763
3763 2530 288
3763 2722 336
3715 2946 384
3699 3058 480
3715 3186 689
3763 3218 1697
3699 3282 3362
3715 3346 3619
3683 3475 3731
3763 3090 368
3763 3218 464
3715 3282 560
3699 3362 785
3683 3362 1153
3699 3410 1569
3699 3507 2610
3699 3635 3523
3715 3683 3779
3715 3330 400
3715 3410 496
3715 3491 769
3667 3475 1153
3715 3491 1745
3699 3555 2514
3731 3667 3186
3779 3763 3635
3795 3795 3811
3811 672 1121
3811 640 1617
3827 624 2114
3827 672 2610
3843 817 2946
3843 977 3202
3827 1153 3362
3811 1297 3475
3811 1489 3555
3811 865 1441
3811 817 1921
3827 833 2450
3843 1009 2866
3843 1137 3106
3811 1281 3266
3827 1441 3410
3811 1617 3523
3795 1761 3571
3795 1137 945
3843 1153 2338
3827 1169 2690
3827 1345 3058
3811 1473 3218
3811 1617 3362
3795 1745 3443
3795 1905 3539
3779 2050 3619
3763 1153 416
3795 1505 1393
3827 1569 2578
3811 1729 3106
3779 1825 3250
3763 1969 3378
3763 2114 3491
3779 2306 3587
3763 2402 3667
3763 1505 368
3779 1665 448
3795 1921 929
3763 2210 2258
3683 2242 3282
3683 2386 3410
3683 2530 3539
3699 2626 3635
3731 2770 3715
3811 1937 352
3827 2210 400
3795 2482 496
3795 2674 881
3779 2786 1649
3683 2866 3410
3667 2850 3555
3699 2978 3667
3779 3106 3731
3827 2626 368
3843 2866 416
3827 2994 480
3811 3154 624
3795 3202 849
3795 3234 1809
3715 3282 3234
3763 3346 3651
3811 3427 3779
3843 3138 416
3827 3250 480
3795 3346 624
3779 3378 881
3779 3410 1265
3779 3427 1729
3795 3523 2562
3827 3619 3298
3827 3667 3811
3779 3410 480
3763 3507 705
3763 3523 1185
3763 3507 1809
3763 3587 2530
3763 3667 3106
3827 3763 3523
3843 3811 3715
3843 3827 3843
