其他预设/【236】赛博朋克风调色预设/【后期菌】视频调色预设/3DL/Miami 06.3dl
# LUT by SparkleStock. Enhanced with VOXCOLOR algorithms.
0 256 512 768 1023
80 80 144
208 288 416
480 592 1057
897 1169 2434
1217 1473 3218
144 336 352
288 528 656
656 1041 1681
1009 1537 2850
1409 1921 3362
32 929 656
128 1281 1233
881 1953 2386
1377 2546 3138
1985 2802 3491
0 2274 1425
16 2658 2322
368 2930 2978
1729 3234 3427
2770 3362 3667
560 3058 2322
1201 3250 2882
1713 3346 3234
2482 3475 3491
3154 3587 3667
640 256 400
640 288 592
913 464 1137
1409 977 2418
1841 1393 3330
2242 753 560
2370 801 1153
1073 1377 2306
1473 1873 3106
2194 2290 3587
785 913 384
368 1777 1825
1185 2434 2786
2017 2818 3330
2754 3042 3667
2017 2082 705
737 2866 2434
1537 3090 3090
2562 3282 3427
3202 3410 3715
2770 2914 961
2498 2962 1265
2786 3410 3282
3106 3475 3475
3427 3603 3699
3026 817 689
3010 849 1057
3026 929 1729
3058 945 2514
3507 1121 3202
3651 1025 929
3859 1233 2001
3843 1201 2786
3539 1345 3154
3475 1745 3571
3122 1377 560
3619 1537 1089
3427 1953 2962
2850 3010 3491
3266 3154 3795
3491 2626 849
3410 2882 929
2674 3154 3090
3202 3346 3475
3475 3459 3763
3571 3298 1105
3539 3378 1121
3427 3394 1457
3539 3587 3571
3651 3651 3731
3795 1009 929
3891 1153 1633
3955 1169 2546
3939 1185 3122
3971 1281 3491
3987 1153 1121
4067 1329 2402
4035 1329 3058
4019 1473 3410
3987 1793 3667
3747 1505 624
3859 1777 1185
3955 1937 3234
3939 2402 3507
3875 2850 3763
3859 2722 769
3827 3042 913
3843 3218 1073
3635 3378 3378
3747 3539 3827
3875 3427 1121
3827 3539 1185
3747 3603 1281
3779 3651 2786
3795 3731 3795
4035 1105 1057
4035 1281 2066
4035 1217 2930
4095 1281 3410
4035 1425 3667
4003 1233 897
4067 1377 2674
4095 1457 3234
4067 1681 3571
4019 2033 3747
3971 1633 640
3987 1921 865
3987 2274 3330
3955 2594 3587
4003 2882 3795
4003 2754 737
3971 3106 897
3955 3282 1073
3891 3330 3218
3971 3475 3859
3971 3603 1201
3859 3667 1281
3827 3699 2194
3939 3731 3410
3939 3827 3843
