其他预设/【236】赛博朋克风调色预设/【后期菌】视频调色预设/3DL/Miami 03_S.3dl
# LUT by SparkleStock. Enhanced with VOXCOLOR algorithms.
0 256 512 768 1023
384 176 320
416 208 448
560 432 1057
945 1073 2498
1409 1665 3074
416 256 432
496 384 672
785 977 1889
1281 1777 2994
1825 2450 3314
528 1009 913
672 1457 1537
1249 2290 2866
1969 2882 3330
2658 3122 3459
1057 2722 1969
1537 2978 2754
2194 3218 3218
2802 3346 3459
3202 3427 3571
2162 3282 2690
2658 3394 3138
2978 3443 3330
3234 3507 3459
3410 3539 3571
576 240 432
608 304 624
881 544 1297
1409 1153 2466
2082 2001 3122
1633 448 416
1633 656 977
1153 1377 2450
1777 2306 3170
2610 2786 3410
897 929 640
1073 2066 1985
1665 2658 2946
2626 3090 3410
3122 3250 3539
1841 2578 1057
2066 3122 2754
2690 3298 3282
3106 3394 3459
3394 3443 3555
2722 3218 1057
2802 3298 1137
3298 3475 3330
3410 3507 3427
3555 3555 3555
2642 400 336
2498 416 737
2610 721 1537
2786 1217 2338
3170 1841 2914
2754 640 336
2530 897 1185
2690 1201 2130
3202 2066 2978
3314 2834 3410
2562 1185 400
2578 1457 929
2690 2210 2514
3186 3218 3459
3394 3330 3555
3122 2642 849
3026 2898 897
3090 3330 3170
3394 3410 3459
3523 3459 3555
3427 3298 945
3459 3346 945
3507 3410 1345
3587 3539 3459
3651 3571 3539
3282 480 416
3250 624 1105
3346 1073 1985
3410 1633 2722
3475 2274 3106
3250 721 496
3202 1025 1377
3298 1393 2306
3539 2322 3074
3555 2738 3330
3250 1153 448
3186 1601 977
3218 2082 2338
3443 2658 3186
3635 3218 3459
3475 2498 801
3394 2850 817
3314 2914 1169
3427 3282 3218
3667 3523 3571
3635 3234 913
3667 3362 929
3635 3459 1185
3683 3507 2802
3747 3587 3539
3394 576 496
3427 881 1377
3507 1409 2306
3555 2050 2946
3587 2546 3234
3410 737 464
3539 1393 1953
3619 1793 2626
3619 2498 3170
3651 2898 3394
3443 1153 544
3635 1601 753
3779 2274 2450
3747 2610 3170
3683 3218 3459
3555 2402 753
3747 2802 817
3811 2914 1281
3795 3106 3010
3779 3459 3571
3699 3298 897
3763 3427 1137
3763 3539 2178
3763 3571 3250
3779 3587 3571
