其他预设/【236】赛博朋克风调色预设/【后期菌】视频调色预设/3DL/Miami 07.3dl
# LUT by SparkleStock. Enhanced with VOXCOLOR algorithms.
0 64 128 192 256 320 384 448 512 576 640 704 768 832 896 960 1023
0 0 0
64 32 112
80 48 160
128 64 256
112 96 320
144 144 432
160 224 576
208 272 721
256 304 929
336 368 1233
368 400 1473
464 496 1841
512 544 2130
576 576 2354
705 672 2562
817 801 2818
945 929 2994
64 80 128
64 112 160
80 128 240
112 144 288
144 176 400
160 256 528
192 320 705
240 368 865
304 416 1137
384 480 1393
448 560 1729
496 592 1969
592 656 2306
705 801 2546
785 881 2786
897 961 2962
1025 1121 3090
96 144 176
64 144 208
80 192 256
144 256 416
176 304 512
192 352 624
240 432 817
288 480 1057
368 528 1297
432 592 1601
496 656 1889
592 769 2242
672 849 2482
785 993 2722
913 1153 2946
1057 1297 3106
1169 1393 3234
112 240 256
96 256 288
128 288 384
160 352 496
208 400 624
256 480 769
272 528 961
352 608 1233
432 689 1505
512 801 1873
576 833 2130
689 993 2482
801 1137 2706
881 1249 2898
1025 1393 3058
1185 1585 3234
1313 1697 3330
96 320 336
144 384 448
160 432 528
176 480 592
224 496 672
272 592 881
320 656 1089
400 769 1409
480 881 1729
592 993 2130
689 1137 2450
769 1265 2706
881 1425 2914
993 1521 3042
1137 1681 3202
1265 1809 3282
1409 1969 3378
144 464 480
144 496 544
192 576 640
240 640 737
288 705 897
336 785 1089
400 897 1361
464 993 1617
560 1105 2033
656 1249 2370
721 1345 2626
817 1505 2834
945 1665 3010
1057 1793 3138
1185 1985 3250
1377 2130 3346
1505 2210 3410
176 656 640
224 721 721
256 785 817
272 833 897
368 929 1105
400 1025 1281
480 1169 1617
544 1281 1921
592 1393 2306
689 1521 2546
785 1681 2786
897 1841 2978
1025 2033 3106
1105 2098 3186
1265 2258 3298
1425 2386 3394
1601 2498 3475
240 849 817
288 993 945
320 1057 1057
368 1153 1201
416 1265 1345
464 1329 1521
512 1441 1809
560 1505 2162
624 1681 2450
705 1809 2690
801 1985 2898
929 2226 3058
1025 2338 3138
1185 2466 3266
1377 2610 3378
1553 2674 3443
1729 2690 3491
272 1169 1073
320 1281 1201
352 1393 1361
400 1505 1473
400 1521 1537
512 1681 1905
560 1793 2162
640 2017 2498
689 2098 2658
785 2274 2850
881 2418 3010
1009 2546 3138
1153 2658 3250
1313 2754 3330
1505 2818 3410
1697 2866 3475
1841 2914 3507
320 1521 1345
352 1617 1441
368 1745 1617
400 1809 1729
480 2017 1985
544 2017 2178
608 2226 2450
689 2370 2626
785 2498 2834
897 2626 2978
977 2690 3090
1153 2802 3218
1281 2866 3298
1457 2914 3378
1697 2994 3443
1809 3042 3507
2082 3074 3571
336 1953 1617
368 2114 1777
400 2226 1969
448 2258 2098
512 2370 2258
592 2418 2418
672 2546 2578
801 2690 2802
913 2786 2962
1025 2898 3090
1169 2962 3202
1329 3042 3282
1505 3074 3394
1617 3074 3427
1793 3122 3491
2033 3154 3539
2226 3202 3587
368 2386 1937
400 2498 2082
480 2578 2258
512 2578 2370
576 2642 2482
705 2754 2658
817 2818 2786
929 2914 2946
1041 3010 3058
1153 3042 3122
1329 3122 3250
1473 3138 3346
1601 3154 3410
1825 3218 3475
2017 3250 3539
2194 3266 3571
2370 3298 3619
448 2754 2242
480 2786 2354
560 2850 2530
592 2850 2610
689 2866 2690
817 2978 2834
865 2978 2866
993 3058 2978
1153 3138 3106
1265 3154 3186
1457 3234 3298
1617 3250 3378
1841 3298 3475
2033 3346 3507
2178 3346 3555
2354 3378 3619
2530 3410 3651
544 2946 2466
640 3042 2642
672 3042 2706
721 3058 2802
817 3090 2866
977 3154 2978
1041 3154 3042
1169 3202 3106
1329 3282 3218
1441 3282 3266
1633 3330 3362
1825 3362 3427
1969 3362 3475
2130 3394 3507
2338 3427 3571
2498 3443 3619
2578 3443 3635
689 3186 2674
753 3186 2786
817 3218 2866
913 3218 2946
1025 3250 3010
1105 3266 3090
1233 3298 3138
1313 3330 3186
1425 3346 3234
1633 3378 3330
1761 3378 3362
1953 3427 3410
2130 3443 3475
2338 3475 3507
2450 3491 3555
2578 3507 3587
2690 3523 3619
833 3298 2834
881 3282 2898
993 3330 2994
1089 3362 3090
1249 3394 3154
1345 3410 3218
1409 3410 3218
1505 3427 3266
1713 3475 3346
1761 3443 3346
1905 3427 3362
2066 3475 3394
2306 3507 3475
2450 3523 3539
2562 3539 3555
2658 3555 3587
2770 3571 3635
1009 3378 2962
1089 3410 3058
1217 3443 3138
1361 3491 3202
1425 3491 3234
1521 3491 3266
1569 3491 3282
1745 3523 3362
1889 3507 3378
1937 3491 3378
2130 3523 3410
2274 3539 3475
2418 3555 3507
2498 3539 3523
2674 3571 3571
2754 3571 3587
2866 3619 3651
128 32 112
128 32 144
160 64 240
160 64 288
160 80 336
176 144 480
224 192 624
240 240 785
320 304 1041
384 400 1377
464 480 1681
512 528 1953
544 560 2194
640 608 2450
785 753 2690
881 833 2850
1073 1025 3090
192 80 192
192 80 256
208 128 304
192 128 352
192 192 480
208 256 592
240 352 785
288 400 993
368 432 1217
416 512 1537
480 592 1825
576 656 2162
640 705 2386
753 817 2658
881 929 2866
1041 1089 3074
1153 1169 3186
224 160 256
192 144 288
208 192 368
224 256 480
240 304 608
256 368 753
288 464 961
352 512 1153
448 608 1505
512 672 1809
576 753 2098
656 817 2370
785 993 2658
913 1121 2866
1009 1217 3010
1185 1361 3202
1281 1473 3282
208 240 320
208 272 400
240 320 512
240 384 608
256 448 705
288 480 865
384 624 1185
448 705 1425
480 769 1665
592 865 2098
689 993 2370
753 1073 2610
881 1233 2818
1041 1393 3010
1153 1537 3154
1281 1633 3250
1473 1809 3378
224 336 400
192 416 512
208 464 576
240 512 672
272 576 801
352 689 1041
432 801 1361
480 849 1601
576 977 1953
656 1057 2274
769 1265 2610
849 1361 2802
929 1473 2930
1089 1633 3106
1281 1793 3250
1409 1937 3330
1569 2050 3410
240 480 528
224 576 624
240 592 689
272 672 801
336 753 977
384 849 1217
480 1009 1521
512 1073 1793
592 1153 2130
737 1361 2530
817 1505 2722
913 1617 2930
1057 1777 3090
1201 1969 3202
1313 2098 3282
1537 2226 3410
1649 2306 3443
272 689 656
256 769 785
304 833 881
368 929 1041
432 1041 1249
480 1185 1505
512 1249 1729
576 1345 2033
672 1489 2418
785 1697 2706
897 1873 2930
945 1921 2994
1137 2130 3154
1281 2306 3266
1393 2354 3346
1585 2466 3427
1793 2546 3491
304 817 769
320 1073 1041
368 1169 1169
384 1217 1265
464 1345 1441
512 1409 1649
592 1553 2033
624 1649 2354
705 1809 2626
785 1969 2802
945 2226 3010
1025 2306 3090
1153 2466 3218
1361 2578 3346
1505 2626 3394
1729 2722 3475
1905 2770 3523
368 1105 993
384 1457 1361
416 1505 1457
432 1585 1553
496 1665 1729
576 1793 2082
624 1937 2322
689 2066 2562
769 2242 2770
913 2418 2946
977 2498 3058
1105 2610 3186
1313 2722 3282
1505 2818 3378
1713 2850 3443
1825 2914 3491
2130 2962 3571
448 1297 1121
384 1761 1585
432 1873 1729
448 1953 1873
512 2033 2082
624 2210 2354
689 2338 2498
769 2482 2722
881 2578 2898
1009 2722 3042
1121 2786 3138
1297 2898 3250
1425 2914 3330
1601 2962 3394
1777 2994 3443
1969 3042 3523
2274 3122 3619
496 1697 1393
400 2194 1905
432 2306 2050
528 2418 2242
576 2386 2338
656 2498 2498
769 2658 2674
897 2770 2866
1041 2898 3042
1153 2930 3122
1265 2978 3218
1473 3058 3330
1601 3090 3394
1825 3138 3475
1985 3154 3523
2194 3202 3571
2450 3250 3635
496 2050 1569
480 2610 2162
512 2642 2306
592 2690 2482
672 2722 2562
801 2818 2722
865 2850 2818
1025 2962 2962
1121 3042 3058
1297 3106 3202
1425 3122 3266
1617 3186 3378
1777 3218 3427
1969 3234 3491
2194 3282 3555
2354 3298 3587
2546 3346 3651
592 2466 1777
560 2818 2322
592 2866 2482
672 2914 2610
769 2962 2754
833 2978 2818
977 3042 2930
1089 3090 3010
1233 3186 3122
1393 3218 3218
1601 3266 3330
1729 3266 3378
1937 3282 3443
2162 3346 3523
2306 3362 3555
2466 3378 3587
2578 3378 3635
672 2786 2017
640 2994 2530
705 3090 2658
849 3138 2834
993 3202 2978
1041 3154 2978
1153 3234 3090
1281 3266 3154
1425 3282 3234
1569 3298 3266
1745 3330 3362
1953 3378 3427
2114 3394 3475
2306 3410 3523
2450 3443 3555
2610 3475 3619
2706 3475 3651
769 2930 2162
721 3106 2482
801 3202 2626
929 3266 2898
1137 3298 3090
1249 3346 3138
1345 3346 3186
1441 3362 3218
1617 3378 3266
1777 3394 3346
1921 3394 3378
2066 3427 3394
2258 3443 3475
2386 3475 3507
2530 3491 3555
2706 3539 3619
2802 3555 3651
881 3074 2274
929 3234 2578
977 3282 2706
1105 3362 2946
1313 3394 3154
1473 3443 3234
1505 3427 3234
1649 3443 3282
1793 3475 3346
1969 3475 3362
2098 3491 3394
2210 3491 3427
2370 3507 3475
2498 3523 3523
2674 3555 3571
2770 3555 3571
2866 3571 3651
1057 3202 2450
1121 3362 2770
1217 3394 2866
1297 3427 3042
1601 3523 3250
1617 3507 3266
1777 3539 3346
1889 3523 3362
2017 3523 3378
2194 3539 3410
2274 3539 3443
2354 3539 3443
2514 3555 3507
2626 3555 3523
2706 3555 3555
2850 3587 3619
2930 3587 3651
224 32 192
240 64 256
240 64 304
208 80 336
240 112 432
256 144 560
256 176 705
320 224 897
400 272 1137
464 384 1473
480 464 1745
592 560 2130
656 608 2354
737 705 2578
897 817 2818
1041 929 2962
1185 1089 3154
320 112 288
288 112 336
304 128 384
256 144 464
256 208 576
288 256 705
304 336 865
368 368 1057
480 480 1473
496 512 1713
560 608 2050
640 672 2274
737 753 2514
849 897 2770
1009 1041 2978
1169 1201 3186
1313 1313 3250
464 192 400
480 208 464
480 240 592
432 240 640
368 272 705
336 336 833
400 464 1105
464 576 1377
480 656 1617
544 705 1905
640 817 2258
753 929 2530
833 1041 2722
1041 1233 2994
1121 1313 3106
1281 1441 3250
1457 1601 3346
480 272 464
432 304 576
480 336 689
400 368 737
384 464 881
416 528 1025
464 608 1281
512 769 1585
544 817 1873
689 961 2258
753 1041 2498
865 1201 2754
977 1297 2914
1153 1505 3106
1329 1665 3250
1441 1729 3298
1649 1905 3427
560 400 592
336 464 624
336 496 705
352 544 817
384 624 961
448 753 1233
512 833 1505
576 961 1793
624 1041 2130
721 1153 2418
849 1313 2690
961 1489 2914
1041 1553 3010
1217 1729 3154
1441 1969 3330
1569 2033 3378
1777 2130 3475
528 512 656
336 560 689
304 656 769
384 769 945
464 913 1185
496 1041 1441
544 1121 1729
592 1169 1985
705 1313 2354
817 1457 2642
929 1617 2866
1025 1729 2994
1169 1905 3138
1361 2114 3266
1457 2194 3330
1713 2322 3427
1889 2418 3491
400 640 624
368 753 833
400 945 1041
480 1041 1217
512 1169 1425
560 1297 1649
576 1329 1889
672 1505 2306
785 1649 2626
849 1745 2786
961 1921 2962
1121 2098 3090
1233 2258 3218
1409 2402 3330
1601 2450 3394
1729 2498 3443
2033 2642 3523
384 817 721
400 1025 993
432 1281 1281
480 1329 1393
528 1441 1601
608 1601 1905
624 1633 2178
705 1777 2482
817 2050 2770
913 2210 2914
1009 2306 3042
1169 2482 3186
1345 2578 3282
1553 2690 3378
1713 2722 3427
1921 2786 3507
2098 2818 3539
464 1089 961
448 1361 1249
464 1633 1569
480 1697 1681
576 1793 1937
656 1985 2274
705 2098 2450
769 2274 2674
849 2386 2834
977 2514 3010
1121 2658 3122
1281 2722 3234
1489 2834 3346
1633 2850 3394
1793 2898 3443
2114 2962 3539
2274 2978 3587
496 1249 977
480 1761 1521
480 2033 1921
544 2162 2082
624 2210 2258
689 2338 2450
737 2418 2578
881 2610 2802
961 2690 2946
1073 2770 3074
1281 2914 3218
1425 2930 3282
1617 2994 3378
1745 3042 3427
2033 3090 3523
2210 3090 3555
2450 3138 3635
592 1489 1041
544 1905 1553
496 2402 2178
576 2466 2322
656 2514 2466
753 2642 2626
913 2802 2818
1009 2850 2946
1121 2930 3058
1313 3042 3202
1425 3042 3266
1585 3074 3346
1777 3138 3410
1969 3186 3491
2194 3202 3555
2370 3234 3587
2562 3266 3651
705 1985 1377
592 2306 1745
624 2754 2482
705 2802 2578
753 2818 2658
881 2914 2802
1041 2978 2930
1121 3010 2994
1249 3106 3106
1457 3154 3250
1601 3202 3346
1761 3218 3394
1937 3250 3443
2130 3266 3523
2322 3298 3571
2482 3330 3619
2674 3362 3667
769 2338 1505
689 2578 1921
689 2946 2514
753 2978 2658
881 3010 2818
977 3058 2898
1121 3122 3010
1281 3202 3106
1377 3218 3154
1521 3250 3250
1745 3266 3362
1953 3330 3410
2082 3330 3475
2306 3362 3539
2402 3378 3555
2610 3410 3619
2722 3394 3651
849 2690 1681
801 2802 2066
801 3106 2626
849 3138 2754
1041 3234 2978
1185 3234 3074
1313 3282 3138
1393 3282 3154
1585 3330 3250
1793 3346 3330
1969 3378 3378
2082 3378 3410
2274 3410 3475
2418 3427 3523
2530 3443 3555
2690 3491 3619
2802 3475 3651
929 2866 1745
945 2962 2114
929 3202 2578
1041 3282 2850
1217 3346 3090
1393 3362 3186
1521 3394 3234
1617 3394 3266
1745 3394 3298
1969 3427 3346
2098 3427 3378
2194 3427 3410
2370 3475 3475
2514 3491 3523
2674 3523 3571
2770 3523 3587
2850 3539 3635
1041 3058 1793
1105 3122 2162
1153 3154 2450
1217 3298 2690
1393 3427 3106
1601 3475 3250
1729 3475 3298
1761 3443 3298
1985 3491 3362
2082 3475 3362
2274 3507 3427
2338 3507 3443
2418 3507 3475
2626 3539 3523
2770 3555 3571
2834 3555 3587
2930 3571 3635
1217 3202 1841
1281 3250 2210
1329 3250 2482
1537 3346 2706
1617 3491 3154
1745 3507 3282
1921 3539 3362
2033 3539 3378
2226 3555 3410
2274 3523 3410
2402 3555 3475
2482 3539 3491
2642 3555 3507
2770 3571 3555
2866 3587 3587
2962 3619 3635
3042 3619 3651
352 64 272
352 96 352
336 112 416
336 112 480
368 144 592
384 160 705
448 224 897
464 224 1009
560 288 1297
592 352 1585
624 464 1921
672 528 2210
769 592 2418
913 721 2690
993 833 2850
1153 977 3010
1361 1137 3202
528 176 384
496 176 432
480 160 496
480 176 624
448 256 737
448 272 865
448 304 993
544 400 1313
608 448 1585
705 512 1937
705 592 2178
769 753 2466
897 865 2690
977 961 2850
1137 1137 3074
1281 1249 3202
