其他预设/【236】赛博朋克风调色预设/【后期菌】视频调色预设/3DL/Miami 06.3dl
# LUT by SparkleStock. Enhanced with VOXCOLOR algorithms.
0 64 128 192 256 320 384 448 512 576 640 704 768 832 896 960 1023
80 80 144
128 144 224
160 160 272
192 224 352
208 288 416
272 336 512
304 400 656
384 464 801
480 592 1057
592 737 1409
689 881 1665
817 1041 2130
897 1169 2434
961 1233 2658
1041 1313 2866
1105 1393 3058
1217 1473 3218
128 176 240
144 208 288
176 240 336
192 272 384
240 336 464
272 384 576
336 464 737
416 560 913
528 705 1233
624 833 1521
737 993 1889
817 1089 2162
913 1201 2514
977 1297 2754
1057 1377 2930
1153 1457 3138
1233 1521 3250
160 224 272
128 240 288
160 288 352
240 368 464
272 400 544
304 432 640
384 544 817
464 656 1089
560 785 1377
656 913 1665
753 1057 2001
849 1201 2386
913 1265 2562
993 1377 2818
1089 1473 3042
1201 1553 3202
1281 1617 3330
160 288 304
144 288 336
192 368 416
240 400 512
288 464 608
368 560 737
416 640 961
480 737 1201
592 897 1521
705 1057 1873
801 1169 2194
881 1297 2514
945 1377 2722
1009 1473 2914
1105 1553 3090
1281 1665 3266
1345 1745 3362
144 336 352
176 384 416
208 448 464
256 480 560
288 528 656
384 656 817
432 737 1041
544 913 1377
656 1041 1681
769 1185 2066
849 1313 2386
929 1425 2626
1009 1537 2850
1089 1601 2978
1201 1729 3154
1297 1793 3250
1409 1921 3362
144 448 416
160 480 464
192 544 544
192 608 624
336 689 785
400 753 929
496 913 1201
592 1041 1457
721 1201 1873
833 1345 2194
881 1425 2434
977 1553 2674
1057 1681 2866
1137 1761 3042
1265 1905 3170
1409 2033 3282
1505 2130 3378
112 560 480
112 624 560
128 689 640
192 737 737
288 833 897
416 913 1073
560 1105 1361
689 1249 1649
801 1393 2033
865 1521 2290
945 1633 2546
1073 1777 2786
1169 1937 2930
1217 2001 3090
1361 2130 3218
1505 2274 3330
1633 2370 3410
80 737 576
112 817 672
96 881 753
128 961 913
224 1025 1073
384 1153 1265
592 1297 1537
737 1457 1889
849 1617 2146
945 1745 2418
1041 1889 2642
1185 2114 2866
1249 2226 2994
1361 2306 3122
1521 2482 3266
1649 2546 3378
1825 2610 3459
32 929 656
32 1025 753
16 1137 929
64 1233 1105
128 1281 1233
400 1489 1585
560 1601 1809
753 1873 2242
881 1953 2386
1009 2194 2642
1153 2306 2850
1249 2418 2978
1377 2546 3138
1521 2626 3234
1649 2722 3330
1841 2786 3427
1985 2802 3491
16 1185 785
0 1281 929
16 1441 1137
16 1553 1329
112 1745 1617
224 1809 1873
336 2001 2146
448 2178 2370
689 2354 2626
961 2482 2818
1121 2562 2962
1281 2722 3122
1441 2786 3218
1617 2850 3298
1873 2962 3410
2001 2962 3475
2226 3010 3539
0 1505 961
16 1681 1185
16 1889 1425
16 2001 1633
32 2130 1809
64 2242 2066
112 2322 2354
272 2482 2594
560 2562 2770
769 2738 2978
1041 2818 3106
1297 2914 3234
1553 2994 3330
1713 3026 3378
1985 3090 3459
2226 3106 3507
2402 3138 3587
0 1873 1169
0 2066 1377
0 2258 1633
0 2354 1841
16 2418 2114
32 2530 2386
96 2626 2562
288 2690 2786
416 2802 2914
656 2866 3010
977 2978 3170
1281 3042 3282
1537 3106 3362
1905 3202 3475
2146 3218 3507
2354 3218 3571
2562 3266 3635
0 2274 1425
0 2418 1633
0 2562 1921
0 2626 2162
16 2658 2322
32 2786 2594
48 2802 2674
176 2866 2850
368 2930 2978
608 2978 3058
1105 3090 3250
1425 3154 3346
1729 3234 3427
2033 3282 3507
2306 3298 3539
2530 3330 3603
2770 3362 3667
0 2562 1681
16 2738 2033
16 2770 2242
16 2850 2386
32 2882 2594
112 2930 2754
144 2930 2818
304 2994 2978
721 3106 3122
945 3122 3202
1249 3170 3282
1553 3250 3378
1793 3266 3459
2146 3330 3507
2450 3362 3587
2690 3394 3619
2818 3410 3651
48 2802 1953
80 2882 2178
112 2930 2370
144 2962 2562
208 3010 2674
320 3026 2818
560 3090 2914
737 3122 3010
945 3154 3138
1281 3234 3250
1457 3234 3298
1745 3298 3378
2033 3346 3459
2354 3394 3523
2594 3427 3587
2786 3459 3619
2914 3475 3667
224 2962 2146
240 2994 2290
384 3042 2498
528 3090 2642
801 3154 2802
945 3170 2914
1009 3202 2962
1169 3234 3058
1457 3282 3170
1521 3282 3234
1681 3298 3282
1873 3362 3362
2226 3410 3459
2514 3459 3523
2722 3475 3571
2866 3491 3619
3010 3523 3667
560 3058 2322
705 3138 2482
977 3218 2642
1169 3250 2770
1201 3250 2882
1329 3266 2962
1393 3282 3026
1633 3346 3138
1713 3346 3234
1841 3362 3250
2146 3410 3346
2306 3427 3410
2482 3475 3491
2626 3475 3507
2850 3523 3587
2962 3523 3603
3154 3587 3667
192 144 240
192 144 272
224 208 336
240 240 384
256 272 416
304 352 560
368 400 656
432 464 833
560 624 1137
672 817 1521
801 977 1889
881 1089 2178
929 1185 2450
1009 1281 2738
1105 1361 2914
1185 1425 3090
1329 1505 3234
240 192 288
240 192 320
272 256 384
272 272 400
288 336 496
320 384 624
416 496 817
496 624 1041
576 737 1329
672 881 1617
785 1041 2001
913 1185 2370
961 1249 2594
1041 1345 2818
1153 1441 3026
1265 1521 3218
1345 1569 3298
272 240 320
256 240 336
272 288 384
304 352 464
352 400 576
400 480 737
464 608 961
512 689 1169
640 865 1505
737 1025 1841
849 1153 2194
913 1249 2482
993 1361 2738
1105 1457 2930
1169 1505 3058
1345 1617 3250
1409 1665 3362
256 272 336
272 320 384
304 384 464
320 432 560
368 496 656
416 560 833
512 721 1105
576 865 1377
656 977 1617
801 1137 2050
865 1265 2370
929 1345 2562
1025 1457 2786
1121 1553 2978
1249 1633 3154
1345 1713 3266
1457 1809 3394
256 352 384
256 416 448
288 448 512
288 512 592
352 592 737
432 705 945
528 849 1233
608 977 1489
737 1137 1825
817 1249 2178
929 1393 2482
1009 1489 2690
1057 1553 2866
1185 1665 3026
1297 1777 3170
1409 1873 3266
1537 2001 3410
288 448 448
208 544 528
224 560 560
272 640 672
368 721 817
464 833 1041
576 1009 1329
672 1137 1633
769 1249 1953
897 1409 2322
961 1521 2530
1041 1633 2754
1169 1761 2930
1281 1889 3090
1377 2001 3218
1553 2146 3362
1665 2226 3427
192 592 480
144 656 592
192 721 689
224 785 785
384 913 993
496 1057 1217
640 1169 1457
737 1329 1761
849 1473 2130
961 1633 2402
1089 1777 2674
1105 1809 2802
1281 2017 3010
1393 2146 3138
1489 2242 3234
1633 2354 3362
1841 2498 3459
144 705 496
80 865 689
112 945 817
144 993 929
208 1105 1121
480 1217 1377
656 1441 1697
801 1553 1985
929 1729 2306
1009 1873 2530
1185 2114 2802
1217 2178 2898
1377 2306 3058
1521 2434 3202
1617 2498 3282
1873 2658 3427
1985 2690 3491
80 865 560
32 1153 881
32 1217 1025
96 1313 1185
176 1457 1425
464 1601 1713
608 1729 1985
769 1921 2258
913 2130 2514
1121 2306 2754
1201 2402 2882
1329 2498 3010
1489 2626 3170
1665 2722 3282
1841 2786 3394
1953 2802 3459
2258 2898 3571
80 993 560
0 1425 1041
16 1553 1265
48 1681 1425
144 1761 1681
224 1985 2017
320 2130 2242
496 2258 2482
817 2402 2674
1041 2562 2898
1233 2658 3026
1393 2754 3154
1569 2802 3234
1745 2898 3346
1953 2914 3394
2146 2962 3475
2418 3026 3587
16 1281 640
16 1761 1249
16 1937 1457
16 2130 1713
32 2162 1921
48 2290 2162
160 2434 2450
416 2530 2674
689 2690 2898
929 2754 3010
1169 2850 3122
1425 2930 3234
1649 3010 3330
1937 3106 3410
2178 3122 3475
2386 3138 3539
2610 3202 3635
0 1489 721
16 2130 1377
0 2290 1633
0 2418 1985
16 2482 2226
48 2626 2450
144 2626 2626
304 2738 2786
496 2818 2914
833 2914 3058
1153 2978 3170
1505 3090 3298
1841 3154 3394
2050 3202 3459
2354 3234 3523
2546 3250 3587
2754 3298 3651
16 1745 833
0 2370 1489
0 2498 1729
16 2610 2050
32 2738 2386
48 2754 2546
144 2802 2722
288 2882 2818
528 2962 2978
913 3010 3106
1345 3122 3266
1553 3154 3330
1841 3218 3394
2226 3266 3491
2450 3282 3523
2674 3330 3603
2818 3346 3651
16 2001 945
16 2594 1729
64 2738 1985
112 2882 2402
160 2930 2658
192 2914 2738
448 3010 2882
672 3042 2994
913 3106 3106
1169 3122 3170
1489 3170 3266
1777 3250 3378
2050 3282 3459
2402 3362 3523
2626 3378 3571
2818 3410 3619
2962 3410 3667
112 2178 1025
64 2530 1537
192 2738 1809
368 2930 2274
528 3042 2754
737 3090 2866
913 3122 2914
1089 3154 3026
1281 3202 3138
1505 3234 3234
1681 3266 3282
1921 3330 3362
2194 3362 3459
2450 3394 3507
2738 3410 3571
2930 3475 3651
3026 3491 3699
288 2370 1169
384 2610 1569
576 2754 1761
833 2994 2258
977 3154 2770
1233 3218 2914
1281 3218 2978
1425 3266 3090
1633 3298 3170
1825 3330 3250
2017 3362 3330
2178 3394 3378
2402 3410 3459
2642 3459 3507
2898 3491 3587
2994 3491 3603
3138 3539 3699
737 2594 1345
849 2818 1809
1057 2898 2001
1233 3090 2370
1537 3282 2898
1569 3282 2930
1777 3346 3090
1873 3346 3154
2017 3362 3218
2194 3394 3298
2354 3427 3362
2434 3427 3378
2626 3475 3475
2786 3491 3507
2930 3507 3539
3154 3571 3635
3218 3571 3651
256 176 288
288 192 336
288 224 368
288 240 384
336 288 464
368 320 560
416 384 672
528 480 897
656 576 1121
769 817 1553
833 977 1905
961 1153 2354
1025 1233 2610
1105 1313 2786
1201 1393 3026
1313 1473 3170
1457 1537 3282
352 208 336
352 224 384
368 240 400
352 288 448
384 368 560
432 432 672
496 528 865
560 640 1089
753 833 1505
833 945 1777
897 1121 2194
977 1201 2482
1057 1281 2658
1105 1377 2882
1233 1473 3090
1393 1553 3266
1505 1617 3362
496 272 400
512 288 448
544 304 512
512 336 560
464 400 624
480 480 785
576 656 1073
640 785 1329
689 929 1585
769 1057 1921
913 1201 2354
993 1297 2610
1057 1393 2786
1185 1505 3010
1281 1569 3138
1457 1649 3330
1537 1729 3410
512 320 432
480 352 480
528 384 560
496 432 640
480 528 753
528 608 913
608 753 1185
656 929 1489
737 1057 1745
865 1217 2226
929 1297 2418
1025 1409 2674
1105 1489 2850
1249 1601 3058
1377 1729 3234
1457 1793 3330
1665 1921 3475
560 400 480
384 448 528
416 464 576
432 544 672
464 624 833
544 785 1057
624 913 1345
705 1057 1633
801 1185 1953
897 1313 2274
1009 1441 2546
1105 1553 2770
1169 1633 2930
1281 1729 3090
1457 1921 3234
1569 2001 3346
1793 2130 3491
528 464 496
384 512 560
304 592 624
384 689 753
464 817 961
560 961 1201
656 1089 1473
737 1201 1761
849 1377 2082
945 1473 2370
1089 1633 2674
1137 1713 2818
1249 1841 2994
1425 2001 3154
1505 2066 3250
1729 2258 3394
1905 2370 3491
384 528 464
336 640 656
288 801 769
416 881 945
480 993 1105
608 1153 1361
705 1249 1585
833 1457 1937
945 1601 2274
1009 1681 2514
1121 1825 2738
1249 1985 2914
1377 2114 3042
1521 2258 3202
1633 2322 3298
1793 2418 3378
2082 2610 3539
288 656 464
192 833 640
144 993 881
208 1041 1009
352 1185 1233
560 1425 1569
737 1505 1825
881 1681 2146
1025 1937 2450
1137 2066 2674
1233 2178 2850
1361 2290 2978
1505 2434 3154
1665 2514 3266
1825 2610 3362
2033 2722 3475
2194 2754 3539
176 849 496
112 1025 689
64 1329 1105
96 1441 1297
304 1585 1601
464 1745 1889
608 1841 2114
817 2082 2402
1009 2258 2626
1185 2370 2802
1329 2498 2978
1457 2594 3122
1633 2722 3250
1777 2754 3298
1937 2786 3394
2226 2882 3491
2402 2914 3587
192 977 464
48 1297 817
48 1681 1377
48 1825 1585
112 1953 1825
208 2114 2114
288 2178 2290
560 2370 2562
849 2482 2754
1105 2610 2930
1361 2754 3106
1537 2802 3202
1745 2882 3282
1921 2930 3362
2242 2994 3459
2370 3010 3523
2594 3090 3619
336 1153 464
16 1409 737
0 2082 1585
16 2194 1825
16 2290 2066
96 2386 2322
320 2562 2626
496 2610 2770
753 2722 2930
1105 2850 3058
1345 2882 3138
1553 2978 3250
1889 3058 3346
2162 3106 3410
2386 3122 3491
2546 3138 3571
2738 3202 3651
272 1457 560
16 1617 833
16 2434 1809
16 2546 2146
32 2594 2322
112 2674 2530
288 2722 2722
448 2786 2850
689 2882 2978
1169 2978 3154
1441 3058 3234
1697 3122 3330
2001 3170 3394
2290 3218 3475
2514 3234 3523
2674 3250 3603
2898 3330 3667
496 1665 624
16 1825 897
32 2530 1745
48 2642 2066
64 2770 2482
144 2802 2626
288 2898 2786
672 2962 2930
865 2994 3010
1185 3058 3154
1553 3138 3266
1873 3218 3378
2114 3234 3410
2418 3282 3491
2610 3298 3539
2818 3346 3603
2962 3362 3651
721 1985 737
112 2050 993
144 2674 1841
224 2802 2146
384 2962 2594
496 2994 2786
769 3042 2898
913 3058 2994
1281 3138 3138
1553 3202 3250
1809 3234 3330
2001 3266 3378
2354 3346 3475
2594 3362 3507
2770 3378 3539
2930 3427 3635
3058 3427 3667
961 2194 833
689 2306 1041
480 2626 1633
721 2882 2130
897 3058 2642
1089 3138 2882
1265 3170 2994
1361 3202 3058
1505 3234 3154
1825 3282 3266
1985 3298 3330
2146 3330 3362
2418 3378 3427
2674 3394 3507
2898 3459 3587
3010 3459 3619
3122 3491 3667
1329 2434 913
1185 2498 1073
945 2546 1377
1041 2722 1745
1345 3122 2562
1521 3250 2930
1665 3282 3042
1729 3282 3090
1953 3330 3218
2033 3330 3250
2322 3394 3346
2402 3394 3378
2546 3410 3427
2818 3459 3507
2994 3491 3587
3106 3491 3603
3234 3523 3667
1617 2642 1009
1505 2658 1185
1409 2722 1473
1521 2818 1777
1729 3154 2562
1777 3298 2978
2033 3346 3106
2162 3346 3154
2386 3378 3250
2402 3378 3282
2562 3427 3362
2642 3427 3394
2818 3491 3475
2994 3507 3523
3122 3539 3587
3250 3571 3635
3330 3587 3667
384 192 336
384 208 384
384 240 416
400 240 448
464 288 544
496 304 608
560 384 753
608 400 833
769 528 1137
881 721 1473
977 961 1937
1073 1121 2354
1153 1217 2594
1249 1345 2850
1313 1393 3026
1425 1457 3154
1569 1505 3298
560 288 416
560 272 448
544 272 464
576 288 544
544 352 624
576 384 721
608 448 833
769 624 1169
865 737 1457
1009 929 1873
1041 1105 2258
1105 1281 2562
1201 1377 2802
1217 1425 2930
1393 1537 3154
1489 1569 3266
