其他预设/【236】赛博朋克风调色预设/【后期菌】视频调色预设/3DL/Miami 08.3dl
# LUT by SparkleStock. Enhanced with VOXCOLOR algorithms.
0 256 512 768 1023
0 0 16
128 144 448
352 336 1233
608 496 2258
929 576 2962
160 544 544
304 801 1025
624 1185 2114
993 1345 2946
1233 1281 3410
416 1713 1553
544 1953 2017
849 2258 2738
1265 2450 3282
1681 2434 3587
624 2882 2466
833 2962 2738
1169 3106 3074
1649 3202 3475
2098 3250 3667
1009 3410 2946
1281 3491 3218
1601 3539 3346
2114 3555 3507
2530 3603 3667
945 176 656
881 208 1169
1073 288 1857
1281 464 2690
1473 624 3298
2386 721 1073
2546 656 1745
1153 1441 2738
1457 1617 3266
1729 1553 3587
1217 1569 865
961 2418 2514
1297 2658 3042
1793 2610 3475
2290 2562 3683
1937 2354 785
1281 3202 2962
1729 3266 3250
2194 3298 3539
2610 3298 3715
2130 2962 1025
2226 3314 2146
2226 3603 3459
2578 3587 3539
2946 3651 3715
2882 304 1089
2930 304 1553
2930 336 2114
2866 384 2882
3042 384 3410
3427 769 1361
3539 640 2146
3571 721 2818
3138 961 3346
2770 1121 3667
2834 1601 368
3394 1841 1617
3154 1953 3154
2482 2722 3587
2658 2658 3715
3090 2402 448
3154 2706 833
2322 3378 3282
2658 3410 3571
3058 3346 3731
3202 3090 721
3202 3234 1137
3074 3378 2033
3090 3667 3635
3282 3731 3747
3587 384 1361
3603 336 1889
3667 320 2610
3683 336 3218
3667 384 3555
3715 993 1601
3779 737 2450
3795 753 3058
3747 865 3427
3731 1025 3651
3491 1649 512
3603 1921 1697
3763 1633 3218
3715 1809 3491
3539 2130 3715
3651 2466 432
3603 2770 640
3635 2962 1329
3410 3410 3459
3410 3475 3795
3651 3170 560
3635 3394 1249
3603 3459 1825
3587 3619 2978
3635 3779 3811
3811 705 1537
3843 448 2146
3891 352 2898
3875 352 3410
3875 368 3683
3795 1393 1409
3875 849 2594
3875 865 3218
3843 913 3539
3827 1057 3715
3763 1745 753
3747 2050 1425
3795 1809 3298
3779 1921 3555
3779 2146 3683
3843 2482 576
3811 2818 897
3795 3058 1441
3731 3154 3154
3795 3250 3811
3827 3410 1137
3795 3539 2082
3747 3651 2914
3843 3795 3619
3875 3875 3891
