其他预设/【236】赛博朋克风调色预设/【后期菌】视频调色预设/3DL/Miami 09.3dl
# LUT by SparkleStock. Enhanced with VOXCOLOR algorithms.
0 64 128 192 256 320 384 448 512 576 640 704 768 832 896 960 1023
288 48 64
336 80 112
336 64 144
368 80 208
368 80 256
400 96 336
400 112 432
416 112 576
432 128 833
432 128 1201
400 128 1601
432 144 2114
432 96 2498
400 64 2786
496 48 3090
544 32 3266
656 32 3459
336 96 112
336 112 160
352 112 192
368 112 240
368 128 288
384 144 384
400 144 512
400 176 705
400 192 1073
400 208 1377
400 208 1873
400 144 2258
400 112 2674
416 80 2946
464 48 3186
528 32 3410
640 32 3523
352 128 144
336 128 160
336 144 192
368 192 256
384 208 352
368 192 432
400 224 640
400 256 913
384 256 1281
368 256 1681
384 224 2066
400 192 2514
384 176 2786
432 144 3090
480 112 3298
576 80 3507
656 96 3603
352 192 160
336 192 176
336 240 224
352 256 304
368 256 416
384 256 544
384 272 769
384 320 1121
368 304 1553
384 352 2033
384 336 2322
432 304 2706
432 256 2994
448 256 3218
480 224 3410
624 208 3603
672 208 3699
352 256 176
352 272 224
352 288 288
352 320 352
352 336 448
384 400 672
384 400 897
384 448 1329
368 496 1793
400 512 2290
432 496 2642
448 464 2898
464 480 3138
512 480 3298
608 448 3491
689 416 3587
801 432 3683
352 384 224
352 400 272
368 448 368
384 480 448
384 512 624
368 528 865
384 592 1169
368 656 1585
352 753 2098
384 753 2450
416 689 2722
464 769 2994
512 817 3186
624 753 3346
737 849 3443
833 817 3587
913 705 3683
368 528 288
384 560 368
400 624 448
384 656 544
384 737 817
368 769 1041
352 913 1473
336 1009 1841
336 1073 2242
384 1057 2546
416 1073 2882
448 1137 3090
576 1185 3218
640 1121 3298
769 1233 3410
961 1265 3507
1073 1233 3603
400 753 320
432 865 416
416 913 528
416 977 753
400 1057 977
368 1121 1281
336 1281 1649
304 1361 2050
304 1425 2354
368 1441 2674
384 1489 2882
528 1553 3058
592 1569 3170
721 1665 3282
897 1697 3394
1073 1745 3443
1249 1665 3491
432 1105 352
432 1185 512
432 1281 721
432 1409 929
400 1409 1121
352 1617 1649
320 1729 1921
336 1905 2322
304 1905 2514
336 1985 2722
416 2033 2914
544 2033 3058
640 2098 3154
833 2098 3250
1041 2146 3330
1233 2178 3378
1361 2178 3394
464 1489 512
432 1569 624
448 1697 801
432 1825 1073
416 2033 1505
368 2050 1841
336 2258 2098
336 2386 2386
336 2418 2626
384 2434 2802
448 2482 2930
560 2514 3042
689 2530 3122
929 2482 3218
1201 2514 3266
1313 2498 3298
1569 2546 3346
432 1937 608
448 2146 865
432 2290 1137
400 2322 1409
400 2482 1681
400 2530 2001
384 2658 2258
400 2754 2530
432 2786 2722
496 2914 2866
592 2930 2978
721 2914 3026
881 2882 3138
1041 2866 3154
1281 2850 3218
1473 2818 3266
1697 2850 3298
400 2466 801
400 2546 1025
432 2674 1329
432 2722 1633
432 2786 1889
464 2914 2194
512 3010 2418
528 3058 2642
624 3138 2770
656 3138 2882
769 3170 2946
881 3154 3010
1009 3122 3106
1249 3138 3154
1473 3122 3202
1601 3090 3234
1825 3058 3266
448 2882 1057
464 2914 1265
480 3026 1633
496 3058 1809
528 3106 2050
592 3202 2290
608 3218 2434
656 3250 2610
737 3330 2754
785 3330 2818
977 3378 2930
1121 3362 3010
1313 3362 3090
1441 3330 3138
1633 3298 3170
1793 3266 3202
2017 3266 3234
480 3154 1297
576 3234 1681
560 3266 1809
608 3298 1969
656 3330 2194
705 3394 2402
721 3394 2498
833 3427 2626
945 3491 2754
1025 3475 2850
1201 3491 2930
1345 3507 2994
1473 3491 3042
1601 3459 3090
1777 3459 3138
1953 3427 3170
2098 3394 3202
608 3394 1585
672 3427 1729
721 3443 1921
785 3443 2098
865 3475 2242
897 3491 2354
1009 3523 2514
1073 3523 2610
1121 3523 2706
1297 3587 2802
1393 3587 2882
1569 3635 2930
1697 3619 2994
1809 3603 3042
1953 3571 3090
2146 3555 3122
2258 3523 3154
817 3555 1761
865 3523 1873
929 3555 2033
1025 3571 2178
1137 3603 2306
1201 3619 2450
1233 3603 2498
1361 3635 2562
1505 3651 2706
1537 3651 2754
1633 3651 2802
1697 3683 2850
1873 3699 2946
2050 3699 3010
2178 3683 3042
2258 3667 3090
2402 3651 3106
977 3635 1873
1089 3635 2001
1233 3667 2114
1361 3667 2242
1393 3667 2338
1457 3667 2434
1489 3667 2482
1633 3699 2626
1697 3699 2674
1761 3699 2722
1889 3715 2786
2001 3731 2850
2146 3747 2898
2210 3715 2962
2386 3731 3010
2418 3699 3026
2530 3731 3090
368 64 112
368 64 144
400 80 192
400 80 224
416 80 256
448 96 368
464 96 464
464 96 608
464 112 913
464 144 1361
464 160 1825
464 128 2290
464 96 2546
496 64 2914
576 48 3138
656 16 3330
833 48 3491
416 96 160
416 80 176
448 96 240
432 96 256
448 112 320
448 128 432
448 160 608
448 192 881
416 192 1169
432 208 1569
432 192 2017
464 144 2530
464 112 2770
512 64 3058
576 32 3282
721 48 3475
785 48 3555
432 128 192
416 128 192
432 144 256
464 144 304
464 176 416
464 176 544
448 240 801
416 256 1041
432 256 1473
432 272 1905
464 240 2322
448 176 2658
480 160 2962
560 144 3218
592 96 3394
753 128 3555
833 112 3619
432 176 192
432 192 240
448 224 288
448 240 384
432 256 464
448 256 624
432 336 1025
416 368 1313
416 368 1681
448 368 2242
464 352 2530
464 288 2850
512 320 3090
560 256 3298
656 240 3491
721 224 3619
913 256 3683
448 240 224
400 288 256
400 304 304
416 352 432
416 384 528
416 448 833
416 480 1201
384 496 1553
416 576 2050
432 496 2434
496 528 2754
528 528 2978
560 544 3154
656 496 3362
785 560 3491
849 464 3603
961 480 3699
464 352 256
416 448 336
416 448 400
416 464 480
400 528 705
400 576 993
416 656 1409
384 737 1809
400 753 2226
464 817 2610
480 833 2850
560 801 3090
672 849 3234
769 881 3378
865 913 3459
1041 897 3587
1089 865 3651
480 560 288
416 608 416
416 656 464
432 705 640
432 817 929
400 913 1265
384 977 1585
368 1073 2001
400 1105 2402
464 1233 2706
512 1233 2962
560 1169 3090
721 1281 3234
849 1297 3346
961 1313 3410
1153 1345 3491
1345 1361 3555
512 785 304
448 929 448
448 993 640
416 1025 801
432 1185 1057
384 1233 1393
368 1425 1873
352 1473 2210
400 1505 2514
432 1569 2738
560 1681 2962
608 1649 3090
785 1681 3202
929 1761 3298
1057 1681 3394
1329 1841 3410
1473 1841 3427
576 1089 368
480 1361 656
464 1441 801
448 1489 1025
448 1617 1345
400 1745 1793
384 1889 2066
384 1953 2386
368 2001 2610
464 2082 2802
496 2082 2946
624 2162 3042
865 2162 3170
1089 2226 3266
1281 2226 3330
1377 2226 3346
1681 2258 3378
737 1409 432
464 1729 737
464 1905 1025
464 1969 1217
416 2082 1585
416 2258 2001
432 2386 2210
400 2450 2466
448 2466 2690
512 2562 2882
592 2530 2962
753 2578 3042
977 2530 3138
1137 2530 3202
1329 2530 3234
1521 2514 3282
1793 2610 3330
833 1857 512
464 2258 929
448 2322 1201
464 2482 1521
432 2482 1761
448 2610 2114
480 2754 2354
512 2818 2642
608 2946 2770
624 2898 2914
705 2914 2962
897 2930 3042
1105 2930 3106
1313 2930 3170
1489 2914 3218
1713 2914 3250
1953 2898 3282
865 2226 592
512 2674 1105
496 2738 1313
496 2850 1745
496 2898 1985
560 3010 2258
592 3026 2450
705 3106 2626
737 3170 2770
849 3202 2882
929 3170 2946
1089 3186 3026
1281 3170 3122
1425 3154 3154
1665 3138 3186
1857 3122 3218
2050 3106 3266
977 2578 705
592 2962 1185
592 3010 1441
608 3058 1777
640 3154 2114
656 3186 2290
737 3234 2450
849 3266 2610
881 3330 2706
1041 3362 2802
1217 3378 2930
1297 3362 2978
1457 3346 3042
1681 3330 3106
1793 3298 3138
2033 3266 3170
2162 3250 3202
1009 2898 833
624 3186 1409
672 3250 1649
785 3346 2033
833 3394 2274
833 3378 2386
929 3427 2530
1057 3475 2626
1105 3475 2738
1249 3475 2802
1377 3475 2898
1553 3523 2994
1649 3507 3026
1841 3491 3058
2001 3443 3122
2178 3443 3154
2322 3410 3170
1121 3122 945
849 3282 1313
897 3394 1569
961 3459 1921
1041 3491 2290
1121 3523 2418
1201 3523 2498
1281 3555 2578
1377 3555 2690
1489 3587 2786
1649 3603 2850
1729 3619 2930
1841 3603 2962
1969 3603 3010
2162 3571 3058
2306 3571 3122
2434 3523 3138
1329 3234 1105
1121 3427 1441
1217 3459 1585
1265 3523 1873
1281 3587 2290
1425 3619 2418
1457 3603 2482
1537 3619 2578
1665 3651 2690
1777 3667 2754
1841 3667 2802
1905 3683 2850
2066 3683 2914
2194 3683 2978
2402 3683 3026
2450 3651 3042
2514 3651 3106
1569 3378 1281
1409 3555 1601
1473 3571 1729
1489 3619 1953
1633 3667 2338
1649 3651 2402
1777 3683 2562
1809 3699 2610
1905 3683 2690
2017 3715 2722
2098 3715 2786
2162 3715 2802
2290 3715 2898
2418 3715 2946
2482 3715 2978
2642 3731 3026
2642 3715 3042
416 64 144
432 80 176
448 80 224
448 64 240
480 80 304
480 80 400
528 80 496
560 96 672
592 96 993
560 128 1521
496 144 1937
592 128 2466
592 96 2770
608 64 2994
737 48 3234
865 48 3410
1009 48 3491
464 96 176
480 80 208
496 80 256
496 80 288
512 128 384
560 144 496
528 160 705
512 160 929
576 208 1457
528 192 1857
496 160 2290
560 128 2658
592 96 2914
624 48 3154
769 64 3362
865 96 3507
1041 96 3587
576 128 208
576 128 240
640 160 304
624 160 352
576 160 448
560 176 592
544 224 929
480 256 1281
464 272 1633
448 256 2066
480 224 2514
528 208 2802
592 176 3042
672 176 3298
753 144 3443
881 144 3587
1057 192 3635
592 176 224
592 208 304
640 224 384
624 224 464
592 256 592
560 256 769
528 288 1105
480 384 1521
448 416 1905
480 400 2418
528 352 2658
544 336 2962
608 288 3170
737 304 3378
881 336 3507
913 304 3619
1185 368 3667
624 256 272
512 272 352
512 288 416
496 320 512
496 368 656
512 464 977
496 464 1329
464 576 1777
464 576 2226
496 560 2546
560 544 2850
640 576 3106
672 560 3218
769 560 3378
913 624 3523
1041 560 3603
1249 592 3667
640 320 320
528 368 384
464 448 464
464 512 640
464 624 913
464 721 1233
464 769 1617
432 801 2033
464 865 2402
544 865 2706
640 897 2978
672 913 3122
801 897 3266
945 977 3394
1025 929 3459
1217 993 3587
1377 1009 3619
592 464 320
512 528 480
480 737 608
496 817 865
464 897 1089
432 1041 1457
416 1073 1777
448 1265 2210
496 1281 2578
512 1249 2770
624 1265 2994
769 1313 3106
865 1345 3250
1057 1473 3346
1201 1393 3427
1313 1393 3475
1521 1473 3507
656 769 336
576 929 464
464 1089 721
464 1137 961
464 1265 1201
448 1489 1681
384 1505 2033
448 1569 2322
464 1713 2642
544 1729 2850
624 1697 2978
801 1809 3122
993 1841 3202
1185 1857 3298
1329 1889 3362
1537 1937 3378
1681 1905 3410
721 1121 400
624 1329 496
480 1537 961
480 1681 1137
464 1777 1585
448 1937 1985
432 1985 2226
448 2146 2450
480 2146 2690
576 2178 2882
689 2242 2994
849 2242 3090
1089 2290 3202
1265 2258 3234
1441 2258 3266
1681 2338 3330
1841 2290 3346
897 1425 400
672 1809 624
528 2066 1201
512 2210 1473
464 2274 1777
480 2386 2098
464 2418 2274
528 2562 2562
528 2578 2738
624 2578 2898
785 2690 2994
929 2610 3058
1169 2658 3138
1393 2626 3170
1649 2658 3218
1777 2626 3250
2017 2674 3282
1105 1697 416
833 2017 624
480 2466 1345
496 2546 1585
480 2610 1937
496 2738 2258
624 2882 2498
640 2914 2674
656 2946 2850
849 2994 2930
929 2946 2962
1089 2946 3026
1345 2994 3122
1521 2962 3170
1761 2914 3202
1937 2882 3234
2114 2898 3250
1265 2114 496
929 2386 737
592 2882 1585
592 2930 1905
640 3010 2098
705 3058 2338
769 3122 2546
817 3138 2706
881 3218 2786
1041 3218 2898
1169 3218 2962
1281 3218 3042
1473 3218 3090
1665 3202 3138
1873 3170 3170
2033 3122 3202
2258 3138 3250
1425 2418 528
1153 2690 865
753 3090 1489
737 3106 1809
753 3202 2210
817 3218 2354
945 3282 2514
1041 3346 2658
1073 3378 2738
1217 3394 2818
1377 3378 2930
1553 3394 3010
1681 3378 3042
1825 3362 3090
2001 3330 3138
2210 3298 3170
2386 3266 3186
1585 2690 592
1233 2946 993
865 3234 1601
897 3298 1841
1009 3394 2178
1057 3427 2418
1137 3459 2546
1217 3475 2610
1393 3491 2722
1537 3507 2850
1681 3523 2914
1713 3523 2962
1905 3507 3010
2017 3491 3042
2178 3443 3106
2354 3459 3138
2466 3427 3154
1713 2850 624
1649 3042 1025
1233 3362 1489
1249 3443 1825
1281 3491 2194
1329 3523 2434
1473 3555 2546
1489 3571 2626
1569 3571 2690
1761 3619 2786
1857 3619 2866
1905 3619 2898
2033 3619 2946
2194 3587 3010
2354 3587 3058
2450 3571 3090
2546 3555 3122
1889 2978 624
1857 3106 961
1697 3298 1361
1617 3443 1617
1601 3571 2114
1665 3619 2418
1761 3635 2530
1777 3619 2578
1921 3651 2706
1921 3651 2738
2098 3683 2786
2146 3683 2818
2226 3667 2882
2386 3667 2962
2514 3683 3010
2562 3651 3042
2658 3635 3090
2050 3154 656
2033 3234 977
2001 3362 1425
1985 3475 1681
1921 3635 2114
1841 3651 2402
1985 3667 2530
2033 3667 2626
2194 3699 2690
2194 3683 2706
2306 3699 2770
2338 3699 2802
2498 3715 2882
2578 3715 2946
2674 3715 2978
2754 3731 3010
2770 3731 3042
480 64 144
512 96 208
512 96 256
528 96 256
576 96 368
624 80 464
672 96 592
672 96 737
801 112 1073
801 128 1505
769 160 2146
785 128 2498
817 96 2770
881 80 3058
897 48 3234
1057 48 3378
1265 80 3475
624 112 208
608 112 224
608 96 256
656 112 352
656 144 448
689 144 544
689 144 753
753 176 1137
833 176 1505
881 208 2082
817 176 2434
721 144 2786
785 112 3026
785 80 3202
945 96 3410
1073 112 3491
