其他预设/【236】赛博朋克风调色预设/【后期菌】视频调色预设/3DL/Miami 04_S.3dl
# LUT by SparkleStock. Enhanced with VOXCOLOR algorithms.
0 256 512 768 1023
80 16 32
128 48 272
272 208 1073
544 705 2402
961 1329 2994
96 144 160
144 272 480
336 689 1697
656 1393 2850
1201 1937 3202
64 929 592
128 1297 1265
384 1841 2578
1041 2434 3202
1713 2722 3410
176 2402 1585
336 2674 2386
592 2946 3138
1553 3122 3427
2434 3218 3507
705 3010 2370
1169 3170 2914
1569 3282 3202
2146 3346 3410
2786 3427 3507
496 96 160
512 128 512
801 224 1249
1281 640 2386
1713 1425 2962
2370 512 192
2146 592 977
785 1121 2322
1297 1809 3042
1985 2226 3266
689 945 224
416 1793 1713
913 2274 2786
1761 2690 3298
2578 2962 3443
2033 2242 240
785 2818 2434
1329 3058 3154
2274 3170 3346
2914 3282 3507
2722 3106 288
2738 3202 1041
2642 3346 3186
2866 3410 3346
3186 3475 3507
3122 512 192
2914 416 801
2978 448 1585
3042 672 2274
3234 1169 2754
3010 817 384
2722 897 1345
2850 993 2178
3266 1345 2786
3154 1905 3138
2882 1473 0
2786 1665 865
2818 1841 2418
2706 2914 3346
3026 3106 3491
3443 2642 48
3314 2914 256
2514 3154 2978
2978 3266 3346
3234 3330 3507
3587 3314 256
3571 3378 416
3507 3410 1297
3346 3475 3410
3459 3491 3523
3491 656 560
3491 656 1425
3507 849 2178
3507 1169 2642
3507 1553 2946
3459 961 705
3346 1025 1569
3378 1201 2354
3587 1649 2898
3571 1985 3138
3459 1569 32
3362 1809 977
3298 1873 2338
3475 2210 3058
3603 2834 3378
3747 2754 96
3603 2994 320
3475 3074 1073
3362 3202 3154
3523 3427 3571
3795 3378 288
3779 3475 544
3731 3539 1073
3699 3539 2658
3603 3571 3523
3571 833 817
3619 945 1857
3603 1169 2498
3619 1505 2850
3603 1809 3058
3619 1153 624
3651 1249 2194
3683 1457 2658
3635 1825 3010
3635 2210 3202
3683 1697 176
3811 1953 737
3811 2017 2434
3779 2322 3122
3683 2850 3378
3827 2818 176
3891 3042 528
3939 3106 1249
3843 3122 2994
3731 3378 3587
3859 3459 496
3843 3539 1041
3843 3619 2066
3763 3603 3218
3731 3603 3587
