其他预设/【236】赛博朋克风调色预设/【后期菌】视频调色预设/3DL/Miami 04_S.3dl
# LUT by SparkleStock. Enhanced with VOXCOLOR algorithms.
0 128 256 384 512 640 768 896 1023
80 16 32
96 32 128
128 48 272
176 128 560
272 208 1073
368 384 1729
544 705 2402
721 1041 2754
961 1329 2994
96 48 112
96 64 160
144 144 400
192 224 737
288 384 1425
400 608 2050
544 961 2578
769 1297 2914
1025 1601 3074
96 144 160
112 224 320
144 272 480
224 416 977
336 689 1697
464 1041 2434
656 1393 2850
913 1697 3074
1201 1937 3202
96 416 304
128 528 512
160 689 897
240 929 1425
368 1233 2146
544 1553 2706
801 1857 3026
1089 2082 3186
1425 2338 3330
64 929 592
112 1137 929
128 1297 1265
224 1553 1905
384 1841 2578
721 2178 2994
1041 2434 3202
1425 2578 3314
1713 2722 3410
64 1665 1057
144 1937 1489
176 2178 1889
272 2338 2418
432 2514 2914
817 2738 3202
1345 2850 3330
1729 2946 3410
2114 3010 3459
176 2402 1585
288 2594 2033
336 2674 2386
416 2802 2818
592 2946 3138
929 3010 3314
1553 3122 3427
2033 3170 3459
2434 3218 3507
400 2834 2017
496 2898 2402
624 3010 2722
785 3058 3026
881 3106 3170
1169 3170 3314
1649 3234 3410
2162 3282 3475
2626 3330 3507
705 3010 2370
945 3122 2658
1169 3170 2914
1281 3202 3042
1569 3282 3202
1809 3314 3298
2146 3346 3410
2498 3378 3459
2786 3427 3507
160 32 128
192 48 192
208 64 320
288 128 624
416 192 1169
528 464 1937
737 849 2562
929 1153 2834
1249 1441 3010
336 80 192
400 128 352
304 160 512
384 288 1041
416 528 1681
560 833 2354
753 1153 2738
1041 1489 2994
1393 1745 3106
416 176 288
240 272 432
288 368 737
368 608 1345
464 881 2033
624 1217 2626
897 1521 2898
1249 1889 3138
1617 2098 3234
256 368 288
176 656 705
256 897 1105
336 1041 1633
544 1473 2418
753 1697 2834
1089 2033 3106
1473 2306 3234
1825 2514 3362
160 881 416
144 1329 1153
192 1569 1649
320 1809 2242
624 2082 2754
961 2370 3058
1425 2562 3266
1713 2690 3330
2146 2818 3427
320 1313 448
176 2146 1681
256 2322 2114
416 2546 2738
640 2658 3042
1169 2786 3218
1649 2946 3346
2114 3010 3427
2482 3074 3475
560 2017 656
352 2594 1857
432 2738 2530
592 2898 2914
785 2978 3154
1297 3058 3298
1841 3122 3362
2338 3186 3459
2690 3234 3491
1009 2626 737
672 2818 1729
913 3026 2658
1169 3138 3042
1297 3170 3154
1665 3218 3282
2050 3266 3362
2546 3330 3443
2850 3330 3491
1761 2994 753
1505 2994 1553
1713 3170 2594
1873 3266 3074
2162 3314 3186
2338 3330 3282
2546 3362 3362
2818 3410 3443
2994 3427 3491
496 96 160
448 80 288
512 128 512
544 144 753
801 224 1249
977 368 1809
1281 640 2386
1425 1089 2786
1713 1425 2962
1393 256 240
1425 288 448
1361 304 737
1233 320 1169
1281 432 1681
1345 656 2306
1185 1345 2850
1473 1601 3010
1761 1857 3138
2370 512 192
2466 608 624
2146 592 977
1089 672 1601
785 1121 2322
929 1425 2738
1297 1809 3042
1649 2066 3186
1985 2226 3266
1697 672 160
1249 785 592
769 1009 1281
913 1281 1905
865 1617 2514
1041 1921 2914
1505 2258 3154
1905 2498 3298
2226 2626 3410
689 945 224
512 1281 640
416 1793 1713
592 2017 2258
913 2274 2786
1329 2530 3138
1761 2690 3298
2194 2850 3410
2578 2962 3443
1345 1569 272
737 1841 689
416 2498 2338
640 2658 2738
1025 2786 3106
1553 2882 3234
2050 2994 3346
2482 3074 3443
2738 3138 3491
2033 2242 240
1297 2418 624
785 2818 2434
945 2914 2850
1329 3058 3154
1809 3074 3282
2274 3170 3346
2674 3218 3443
2914 3282 3507
2418 2834 288
2066 2946 624
1505 2946 1873
1681 3154 2962
1937 3218 3154
2162 3234 3218
2498 3298 3346
2850 3346 3459
3042 3362 3523
2722 3106 288
2786 3202 496
2738 3202 1041
2482 3234 2706
2642 3346 3186
2786 3378 3298
2866 3410 3346
3058 3443 3459
3186 3475 3507
1793 288 160
1777 288 368
1697 272 721
1745 288 1009
1761 304 1393
1937 384 1777
2434 592 2242
2722 785 2514
2466 1169 2818
2834 512 256
2562 496 528
2498 496 913
2514 480 1297
2658 544 1729
2578 640 2226
2562 913 2562
2578 1233 2818
2562 1569 3010
2882 705 240
2594 769 769
2498 785 1169
2514 817 1617
2338 801 2050
2482 961 2466
2626 1361 2818
2146 2114 3170
2338 2258 3282
2818 945 80
2594 1073 560
2498 1137 1345
2466 1137 1729
1665 1553 2402
1633 2050 2946
1889 2418 3202
2354 2658 3330
2562 2690 3410
2226 1297 32
1873 1505 256
1553 1665 1009
1265 1985 2050
1601 2194 2626
1729 2546 3074
2194 2818 3330
2626 2946 3427
2802 3010 3459
2818 1873 32
2562 2050 112
1553 2338 833
1137 2674 2562
1457 2786 2946
2033 2962 3234
2418 3042 3362
2754 3122 3443
2962 3186 3507
3042 2530 80
3010 2690 160
2530 2818 592
1617 3010 2754
1841 3074 3058
2274 3138 3218
2690 3218 3330
2994 3282 3475
3074 3298 3507
3154 2994 160
3138 3058 224
2866 3122 656
2514 3170 2418
2514 3202 2834
2642 3298 3234
2834 3330 3330
3058 3362 3475
3202 3378 3507
3298 3234 240
3314 3282 336
3314 3314 512
3298 3346 1025
3010 3330 2946
3042 3410 3282
3170 3459 3378
3218 3459 3459
3314 3475 3507
3122 512 192
3010 464 432
2914 416 801
2898 400 1185
2978 448 1585
3106 576 1953
3042 672 2274
3170 913 2546
3234 1169 2754
3138 608 384
2882 576 753
2786 576 1137
2818 592 1553
2946 656 2001
3170 785 2322
3346 1057 2562
3346 1249 2738
3362 1505 2914
3010 817 384
2786 865 945
2722 897 1345
2706 913 1697
2850 993 2178
3138 1105 2498
3266 1345 2786
3234 1649 2962
3154 1905 3138
2994 1073 160
2754 1169 705
2690 1249 1457
2690 1265 1809
2834 1313 2242
3010 1505 2690
3170 1793 2994
3202 2242 3218
2866 2690 3410
2882 1473 0
2722 1649 192
2786 1665 865
2802 1681 1889
2818 1841 2418
2530 2482 3010
2706 2914 3346
2898 3042 3443
3026 3106 3491
3170 1937 0
2994 2194 144
2882 2354 304
2754 2546 1105
2386 2786 2818
2754 2946 3186
2818 3074 3362
3026 3186 3475
3138 3202 3507
3443 2642 48
3330 2802 128
3314 2914 256
3026 3026 721
2514 3154 2978
2754 3218 3266
2978 3266 3346
3154 3314 3475
3234 3330 3507
3507 3106 160
3491 3154 192
3507 3234 336
3491 3266 480
3122 3298 2754
3042 3346 3186
3154 3410 3378
3234 3410 3475
3346 3427 3507
3587 3314 256
3571 3330 320
3571 3378 416
3571 3443 721
3507 3410 1297
3330 3410 3154
3346 3475 3410
3378 3475 3475
3459 3491 3523
3410 576 368
3314 528 689
3282 512 1105
3298 544 1537
3330 624 1905
3378 785 2242
3378 945 2498
3378 1153 2690
3427 1361 2850
3298 656 576
3154 656 1009
3074 656 1345
3074 689 1697
3186 801 2146
3346 977 2482
3459 1185 2658
3491 1425 2850
3491 1649 2978
3218 897 592
3058 929 1105
3026 961 1441
2994 993 1793
3074 1057 2242
3330 1265 2626
3507 1457 2818
3507 1633 2914
3523 1873 3106
3202 1169 272
3042 1233 817
2994 1297 1489
3010 1329 1873
3106 1425 2338
3314 1553 2706
3507 1745 2946
3491 2098 3122
3443 2322 3266
3186 1537 0
3074 1697 208
3058 1745 913
3010 1729 1873
3106 1825 2386
3330 2017 2834
3362 2386 3122
3443 2706 3314
3410 2898 3427
3443 2066 16
3298 2322 160
3202 2434 368
3218 2434 913
3298 2578 1553
3170 2850 3026
3058 3042 3314
3202 3218 3459
3298 3282 3523
3651 2738 48
3539 2834 128
3539 3010 256
3475 3106 448
3282 3154 1297
3026 3186 3042
3186 3266 3330
3314 3330 3459
3378 3378 3507
3683 3138 144
3667 3218 240
3683 3298 368
3635 3362 512
3475 3378 1169
3298 3378 2914
3314 3410 3330
3427 3443 3491
3475 3459 3539
3699 3346 272
3683 3378 352
3683 3427 432
3731 3475 576
3683 3491 865
3683 3475 1649
3507 3491 3330
3523 3523 3491
3539 3539 3539
3491 656 560
3475 640 961
3491 656 1425
3475 689 1793
3507 849 2178
3507 993 2418
3507 1169 2642
3507 1313 2802
3507 1553 2946
3491 769 833
3443 753 1217
3410 785 1553
3410 865 1937
3443 977 2338
3523 1169 2594
3539 1377 2754
3571 1601 2946
3539 1729 3026
3459 961 705
3410 1025 1313
3346 1025 1569
3330 1089 1937
3378 1201 2354
3507 1377 2706
3587 1649 2898
3587 1809 3026
3571 1985 3138
3443 1185 400
3378 1297 913
3330 1393 1601
3314 1425 1937
3346 1505 2370
3475 1649 2754
3507 1825 2978
3603 2146 3122
3603 2306 3266
3459 1569 32
3427 1777 208
3362 1809 977
3298 1825 1905
3298 1873 2338
3378 2033 2786
3475 2210 3058
3539 2514 3234
3603 2834 3378
3587 2114 32
3571 2386 160
3475 2530 400
3378 2546 961
3378 2530 1537
3346 2658 2834
3410 2786 3154
3491 2994 3378
3539 3202 3507
3747 2754 96
3747 2962 160
3603 2994 320
3491 3058 624
3475 3074 1073
3459 3138 1809
3362 3202 3154
3410 3314 3443
3523 3427 3571
3795 3154 176
3779 3282 256
3667 3362 432
3603 3410 705
3539 3410 945
3523 3427 1793
3459 3459 3170
3507 3475 3443
3571 3491 3539
3795 3378 288
3779 3443 400
3779 3475 544
3747 3507 753
3731 3539 1073
3731 3571 1617
3699 3539 2658
3587 3523 3459
3603 3571 3523
3539 769 721
3571 785 1281
3603 849 1729
3587 913 2050
3587 1041 2386
3587 1169 2594
3603 1393 2786
3603 1569 2914
3603 1729 3026
3587 881 1041
3619 913 1537
3603 929 1809
3587 1025 2162
3619 1169 2498
3603 1377 2722
3587 1553 2866
3603 1697 2994
3619 1889 3106
3619 1073 705
3635 1121 1585
3603 1153 1857
3603 1201 2178
3603 1345 2546
3619 1537 2802
3603 1713 2962
3619 1953 3106
3619 2098 3202
3619 1297 592
3651 1425 1169
3619 1425 1713
3587 1489 2114
3587 1585 2434
3603 1713 2754
3587 1889 3010
3651 2226 3202
3651 2386 3298
3651 1617 112
3667 1857 240
3651 1921 833
3587 1889 2001
3587 1953 2386
3571 2082 2786
3587 2226 3058
3635 2498 3282
3667 2802 3346
3731 2162 112
3731 2402 208
3667 2530 448
3651 2530 1057
3651 2562 1553
3587 2578 2802
3603 2706 3138
3651 2898 3410
3683 3170 3507
3795 2786 128
3779 2914 224
3731 3042 432
3667 3074 785
3683 3106 1137
3683 3106 1889
3619 3138 3058
3635 3234 3410
3635 3410 3539
3859 3234 256
3827 3346 400
3779 3410 576
3731 3427 913
3683 3443 1281
3683 3459 1649
3683 3443 2498
3619 3475 3330
3635 3507 3571
3843 3427 368
3827 3459 480
3843 3523 721
3763 3539 1009
3779 3587 1505
3747 3587 2162
3731 3571 2882
3731 3587 3362
3667 3587 3571
3571 833 817
3603 881 1377
3619 945 1857
3603 1041 2194
3603 1169 2498
3619 1313 2690
3619 1505 2850
3603 1633 2946
3603 1809 3058
3603 977 1169
3619 1025 1681
3619 1073 2033
3635 1201 2402
3619 1313 2626
3619 1489 2802
3635 1633 2946
3619 1825 3026
3619 2001 3138
3619 1153 624
3667 1281 1953
3651 1249 2194
3651 1377 2466
3683 1457 2658
3667 1617 2850
3635 1825 3010
3619 2050 3122
3635 2210 3202
3635 1345 160
3683 1457 1009
3747 1553 2017
3763 1617 2354
3779 1665 2514
3747 1777 2786
3731 1953 3058
3667 2274 3218
3667 2466 3314
3683 1697 176
3747 1857 288
3811 1953 737
3843 2033 1713
3811 2017 2434
3795 2146 2802
3779 2322 3122
3731 2546 3314
3683 2850 3378
3763 2194 160
3811 2402 288
3859 2546 544
3907 2594 1009
3907 2578 1633
3843 2658 2802
3811 2722 3138
3763 2898 3427
3699 3138 3507
3827 2818 176
3859 2978 304
3891 3042 528
3923 3074 897
3939 3106 1249
3939 3106 1985
3843 3122 2994
3779 3218 3427
3731 3378 3587
3859 3218 304
3843 3330 432
3891 3410 656
3923 3443 977
3939 3459 1361
3907 3459 1809
3859 3459 2482
3811 3475 3170
3699 3507 3571
3859 3459 496
3843 3507 689
3843 3539 1041
3859 3587 1457
3843 3619 2066
3811 3619 2706
3763 3603 3218
3731 3603 3475
3731 3603 3587
