其他预设/【236】赛博朋克风调色预设/【后期菌】视频调色预设/3DL/Miami 09_S.3dl
# LUT by SparkleStock. Enhanced with VOXCOLOR algorithms.
0 256 512 768 1023
288 48 64
368 80 256
432 128 833
432 96 2498
656 32 3459
352 256 176
352 336 448
368 496 1793
464 480 3138
785 448 3683
432 1105 352
384 1425 1121
304 1905 2514
640 2098 3154
1361 2178 3394
448 2882 1057
512 3106 2033
737 3330 2754
1313 3362 3090
2017 3266 3234
977 3635 1873
1393 3667 2338
1697 3699 2674
2146 3747 2898
2530 3731 3090
640 96 192
721 96 448
1073 112 1185
1425 176 2690
1681 176 3475
1633 464 448
1793 592 977
833 689 2482
1073 785 3346
1681 833 3619
1153 1105 304
640 1969 1713
817 2354 2706
1521 2450 3170
2258 2498 3298
2194 2354 464
1233 3250 2082
1633 3410 2738
2098 3394 3010
2674 3346 3170
2642 3010 400
2658 3282 961
2626 3699 2674
2770 3699 2850
3010 3731 3026
2178 480 576
2306 400 833
2674 432 1537
3138 272 2530
3475 352 3154
2578 801 592
2642 865 1249
2962 785 2178
3475 801 2978
3266 1153 3362
2354 1281 384
2514 1553 993
2866 1889 2418
2530 2706 3106
2786 2642 3282
2818 2338 416
2818 2658 496
2578 3443 2610
2850 3459 2946
3090 3378 3122
3170 3058 368
3250 3234 480
3298 3491 1185
3282 3747 2882
3378 3747 3010
3042 705 865
3250 624 1169
3603 656 1969
3811 464 2754
3907 480 3170
3186 897 769
3378 913 1409
3619 897 2290
3907 945 2946
3907 1281 3218
3026 1281 560
3170 1681 1009
3459 1809 2274
3683 2050 2930
3715 2562 3154
3218 2274 432
3154 2626 480
3186 2850 1073
3378 3394 2850
3459 3475 3106
3346 2978 304
3459 3234 432
3571 3507 897
3683 3715 2194
3635 3811 3010
3330 849 945
3619 801 1425
3923 753 2226
4051 560 2866
4051 656 3170
3330 961 929
3843 961 1793
4003 1009 2498
4035 1153 2946
4003 1457 3170
3362 1281 705
3603 1649 801
3987 1969 2306
3971 2194 2946
3939 2610 3090
3410 2178 464
3603 2658 576
3715 2866 1169
3875 3122 2626
3907 3394 3106
3507 3090 320
3699 3443 753
3827 3699 1857
3859 3827 2642
3843 3875 3010
