其他预设/【236】赛博朋克风调色预设/【后期菌】视频调色预设/3DL/Miami 09_S.3dl
# LUT by SparkleStock. Enhanced with VOXCOLOR algorithms.
0 128 256 384 512 640 768 896 1023
288 48 64
336 64 144
368 80 256
400 112 432
432 128 833
400 128 1601
432 96 2498
496 48 3090
656 32 3459
352 128 144
336 144 192
384 208 352
384 224 656
384 256 1281
384 224 2066
384 176 2786
480 112 3298
656 96 3603
352 256 176
352 288 288
352 336 448
384 400 897
368 496 1793
432 496 2642
464 480 3138
608 448 3491
785 448 3683
368 544 288
400 624 448
384 737 817
352 929 1473
336 1073 2242
416 1073 2882
576 1185 3218
769 1233 3410
1073 1233 3619
432 1105 352
432 1281 721
384 1425 1121
320 1729 1921
304 1905 2514
416 2033 2914
640 2098 3154
1041 2146 3330
1361 2178 3394
432 1937 608
432 2290 1137
384 2482 1665
384 2658 2258
432 2786 2722
592 2930 2978
865 2882 3138
1281 2850 3218
1697 2850 3298
448 2882 1057
480 3026 1633
512 3106 2033
608 3218 2434
737 3330 2754
977 3378 2930
1313 3362 3090
1633 3298 3170
2017 3266 3234
592 3394 1553
705 3443 1889
865 3475 2210
1009 3523 2514
1105 3523 2690
1361 3587 2882
1681 3619 2994
1905 3571 3106
2258 3523 3154
977 3635 1873
1233 3667 2114
1393 3667 2338
1489 3667 2482
1697 3699 2674
1889 3715 2786
2146 3747 2898
2386 3731 3010
2530 3731 3090
416 64 144
448 80 224
480 80 304
528 80 496
592 96 993
496 144 1937
592 96 2770
737 48 3234
1009 48 3491
576 128 208
640 160 304
576 160 448
544 224 929
464 272 1633
480 224 2514
592 176 3042
753 144 3443
1057 192 3635
624 256 272
512 304 416
496 384 656
496 480 1329
464 576 2226
560 544 2850
672 560 3218
913 624 3523
1233 592 3667
592 464 320
480 753 608
464 929 1073
416 1073 1777
496 1281 2578
624 1265 2994
865 1345 3250
1201 1393 3427
1505 1473 3523
721 1121 400
480 1537 961
464 1777 1569
432 1985 2226
480 2146 2690
689 2242 2994
1089 2290 3202
1441 2258 3266
1841 2290 3346
1105 1697 416
480 2466 1345
480 2610 1921
624 2882 2498
656 2946 2850
929 2946 2962
1329 2978 3122
1761 2914 3202
2114 2898 3250
1425 2418 528
753 3090 1489
753 3202 2178
945 3282 2514
1073 3378 2738
1377 3378 2930
1681 3378 3042
2001 3330 3138
2386 3266 3186
1681 2866 608
1217 3362 1473
1265 3491 2162
1473 3555 2546
1553 3571 2674
1825 3619 2866
2001 3619 2946
2322 3587 3090
2546 3555 3122
2050 3154 656
2001 3362 1425
1921 3635 2114
1985 3667 2530
2194 3699 2690
2306 3699 2770
2498 3715 2882
2674 3715 2978
2770 3731 3042
640 96 192
624 96 240
721 96 448
785 112 592
1073 112 1185
1217 160 1953
1425 176 2690
1489 144 3170
1681 176 3475
1137 224 288
1233 272 448
1281 288 656
1361 288 1105
1489 288 1841
1521 256 2562
1025 256 3218
1249 256 3459
1633 384 3571
1633 464 448
1857 592 689
1793 592 977
1281 592 1729
833 689 2482
833 737 3010
1073 785 3346
1345 753 3507
1681 833 3619
1425 640 384
1265 817 624
961 1025 1345
1009 1185 2098
833 1393 2658
945 1457 3026
1297 1601 3234
1633 1617 3378
1921 1585 3459
1153 1105 304
1057 1489 656
640 1969 1713
705 2194 2242
817 2354 2706
1153 2418 3010
1521 2450 3170
1889 2450 3250
2258 2498 3298
1745 1809 464
1441 2210 705
785 2802 2082
945 2978 2498
1121 3058 2802
1377 3042 2962
1825 3026 3090
2226 3026 3170
2482 2962 3218
2194 2354 464
1857 2626 656
1233 3250 2082
1297 3298 2466
1633 3410 2738
1841 3394 2914
2098 3394 3010
2418 3362 3106
2674 3346 3170
2466 2818 432
2274 3010 656
1889 3378 1681
1889 3523 2466
2066 3587 2690
2226 3587 2802
2402 3619 2914
2658 3603 3042
2802 3571 3106
2642 3010 400
2658 3170 528
2658 3282 961
2514 3635 2274
2626 3699 2674
2722 3699 2770
2770 3699 2850
2946 3715 2962
3010 3731 3026
1265 240 288
1425 256 432
1489 256 640
1617 256 929
1809 224 1377
2162 208 2033
2658 240 2578
2962 272 2882
2642 304 3250
2001 496 512
1969 480 640
2033 480 897
2178 480 1297
2482 464 1793
2738 336 2450
2770 448 2914
2738 496 3202
2674 544 3394
2210 689 560
2242 753 769
2242 769 1105
2418 785 1617
2418 640 2178
2626 672 2722
2706 833 3090
1937 929 3410
2114 1089 3507
2114 849 512
2178 1041 721
2354 1073 1281
2434 1073 1761
1761 1329 2498
1601 1617 2978
1729 1729 3218
2050 1889 3298
2242 1793 3394
1857 1249 320
1729 1521 496
1713 1809 1201
1409 2066 2082
1633 2178 2578
1601 2466 2946
2017 2562 3138
2338 2626 3218
2514 2546 3266
2258 1793 416
2194 2017 464
1905 2482 977
1393 2962 2338
1553 3058 2690
1921 3106 2946
2178 3106 3042
2546 3026 3138
2738 3026 3202
2546 2338 448
2642 2546 480
2514 2866 769
1921 3362 2354
2066 3410 2674
2242 3443 2898
2498 3427 2978
2754 3410 3090
2898 3346 3138
2770 2802 416
2786 2898 464
2722 3122 721
2626 3507 2146
2546 3555 2434
2642 3587 2770
2754 3603 2882
2898 3603 3010
3010 3571 3058
2978 3058 400
2994 3138 448
3010 3234 544
3090 3378 913
2962 3651 2498
2962 3715 2738
3090 3731 2866
3138 3731 2946
3202 3715 3010
2178 480 576
2242 448 640
2306 400 833
2450 432 1137
2674 432 1537
2994 400 2050
3138 272 2530
3378 304 2898
3475 352 3154
2578 640 640
2530 592 753
2546 592 1073
2658 576 1457
2914 544 1953
3234 480 2386
3571 448 2770
3603 496 3010
3667 608 3234
2578 801 592
2610 849 849
2642 865 1249
2722 849 1681
2962 785 2178
3298 689 2578
3475 801 2978
3410 961 3234
3266 1153 3362
2530 961 544
2498 1153 753
2706 1153 1345
2770 1153 1793
2946 1121 2258
3154 1265 2754
3298 1457 3106
3234 1793 3218
2674 1969 3362
2354 1281 384
2338 1473 528
2514 1553 993
2850 1649 1841
2866 1889 2418
2498 2306 2866
2530 2706 3106
2674 2722 3202
2786 2642 3282
2562 1681 368
2514 1985 464
2466 2178 608
2546 2546 1281
2402 2946 2610
2674 3010 2898
2626 3106 3026
2866 3122 3138
2962 3090 3186
2818 2338 416
2786 2530 416
2818 2658 496
2786 2962 913
2578 3443 2610
2690 3459 2866
2850 3459 2946
2994 3427 3058
3090 3378 3122
2994 2770 368
3010 2898 400
3106 3010 464
3138 3106 592
3106 3571 2354
2994 3619 2722
3058 3651 2898
3154 3619 2994
3234 3587 3042
3170 3058 368
3202 3154 416
3250 3234 480
3330 3362 672
3298 3491 1185
3266 3699 2674
3282 3747 2882
3330 3731 2946
3378 3747 3010
2722 624 721
2786 528 769
2866 512 1009
3042 544 1377
3250 544 1809
3443 496 2226
3587 400 2642
3651 352 2946
3715 432 3170
2930 672 705
2946 640 865
2962 640 1201
3058 624 1601
3282 608 2050
3523 544 2498
3731 512 2786
3811 592 3058
3843 689 3218
2930 865 672
2962 865 913
3010 881 1313
3106 865 1745
3250 849 2210
3555 801 2674
3763 817 2930
3843 881 3090
3827 1137 3234
2866 1057 592
2850 1217 801
3042 1201 1393
3138 1217 1809
3250 1233 2290
3523 1185 2706
3715 1297 2946
3667 1681 3138
3571 1841 3266
2738 1281 464
2738 1505 576
2818 1617 977
3106 1681 1809
3218 1761 2306
3475 1889 2706
3443 2290 2962
3459 2530 3122
3394 2658 3218
2882 1745 416
2850 2033 480
2786 2178 624
2930 2210 1009
3058 2482 1553
3138 2930 2754
2962 3058 2978
3042 3186 3106
3186 3170 3170
3042 2258 416
2994 2450 400
3026 2658 464
3042 2786 608
3090 3154 1361
3010 3378 2706
3090 3410 2930
3186 3459 3010
3282 3443 3106
3122 2706 336
3154 2818 352
3218 2962 432
3250 3106 512
3250 3378 1105
3250 3619 2530
3250 3651 2866
3346 3651 3010
3394 3619 3058
3266 3010 320
3298 3138 384
3346 3202 432
3427 3330 544
3475 3443 753
3555 3619 1441
3475 3763 2786
3491 3795 2978
3507 3795 3010
3042 705 865
3122 640 913
3250 624 1169
3394 640 1553
3603 656 1969
3715 576 2354
3811 464 2754
3843 448 2978
3907 480 3170
3202 769 833
3266 689 977
3362 689 1345
3491 705 1777
3635 656 2210
3763 624 2562
3875 608 2866
3923 689 3058
3907 801 3202
3186 897 769
3346 897 1073
3378 913 1409
3475 913 1841
3619 897 2290
3811 865 2722
3907 945 2946
3923 1073 3106
3907 1281 3218
3138 1041 689
3170 1217 865
3394 1265 1473
3459 1281 1889
3555 1281 2306
3699 1329 2738
3811 1441 2946
3875 1649 3042
3859 1841 3170
3026 1281 560
3106 1489 592
3170 1681 1009
3394 1793 1825
3459 1809 2274
3603 1937 2690
3683 2050 2930
3699 2338 3042
3715 2562 3154
3122 1681 464
3138 2001 464
3122 2210 608
3154 2290 1009
3218 2354 1505
3410 2658 2626
3491 2738 2898
3523 2978 3058
3555 3138 3122
3218 2274 432
3218 2466 432
3154 2626 480
3154 2770 721
3186 2850 1073
3330 3106 1729
3378 3394 2850
3362 3475 2994
3459 3475 3106
3266 2658 352
3266 2802 336
3266 3010 432
3298 3154 640
3282 3218 865
3427 3475 1713
3459 3651 2754
3507 3683 2962
3555 3667 3042
3346 2978 304
3394 3106 336
3459 3234 432
3491 3378 608
3571 3507 897
3635 3651 1569
3683 3715 2194
3635 3811 2930
3635 3811 3010
3202 801 929
3346 737 1025
3491 737 1361
3635 737 1761
3795 705 2162
3891 608 2530
3971 560 2818
4003 528 3026
4003 576 3202
3362 849 993
3523 785 1169
3619 769 1505
3763 785 1905
3875 753 2338
3955 689 2674
3987 705 2882
3987 753 3058
4003 913 3202
3330 945 865
3603 929 1265
3731 961 1633
3827 961 1985
3907 961 2434
3955 977 2738
3971 1041 2930
4003 1217 3106
3971 1393 3202
3298 1057 849
3443 1265 1009
3667 1297 1505
3811 1345 2001
3827 1393 2354
3875 1441 2722
3875 1553 2962
3923 1713 3090
3939 1889 3154
3250 1249 672
3330 1473 624
3427 1681 881
3699 1841 1841
3731 1889 2290
3747 1969 2658
3795 2114 2914
3827 2306 3058
3923 2546 3106
3298 1665 496
3330 1937 512
3346 2178 640
3459 2290 1057
3491 2418 1489
3667 2546 2562
3715 2674 2898
3795 2850 3106
3827 3106 3122
3330 2194 464
3346 2434 432
3378 2658 544
3427 2786 817
3443 2882 1105
3571 2994 1777
3651 3170 2706
3715 3266 2994
3731 3459 3058
3378 2722 352
3410 2898 384
3427 3058 480
3475 3218 785
3523 3330 1153
3603 3410 1569
3651 3555 2210
3683 3667 2850
3683 3699 3058
3443 2994 304
3491 3138 336
3571 3282 496
3619 3475 801
3683 3635 1473
3715 3683 1921
3747 3763 2402
3827 3827 2754
3763 3859 3026
3330 849 945
3475 801 1073
3619 801 1425
3795 801 1825
3923 753 2226
4003 640 2610
4051 560 2866
4051 544 3026
4051 656 3170
3410 913 1041
3571 833 1249
3747 849 1681
3907 849 2050
3971 801 2418
4003 769 2706
4035 801 2914
4051 865 3058
4051 1041 3186
3330 961 929
3715 977 1489
3843 961 1793
3987 1025 2178
4003 1009 2498
4003 1073 2754
4035 1153 2946
4035 1313 3090
4003 1457 3170
3234 1025 817
3394 1233 1009
3843 1361 1681
4003 1425 2162
4035 1473 2418
4003 1553 2706
4003 1681 2962
3987 1857 3058
3987 2017 3138
3362 1281 705
3427 1457 656
3603 1649 801
3827 1921 1473
3987 1969 2306
3987 2066 2658
3971 2194 2946
3939 2386 3106
3939 2610 3090
3410 1665 528
3491 1921 528
3603 2162 656
3699 2322 993
3811 2418 1521
3923 2610 2546
3923 2674 2898
3907 2802 3090
3907 3042 3106
3410 2178 464
3491 2466 448
3603 2658 576
3699 2786 865
3715 2866 1169
3827 2978 1825
3875 3122 2626
3891 3234 2978
3907 3394 3106
3475 2690 368
3507 2850 400
3603 3058 528
3715 3218 833
3795 3346 1233
3843 3427 1697
3843 3507 2178
3859 3603 2578
3891 3683 3026
3507 3090 320
3603 3250 480
3699 3443 753
3763 3619 1377
3827 3699 1857
3827 3763 2290
3859 3827 2642
3843 3827 2866
3843 3875 3010
