其他预设/【236】赛博朋克风调色预设/【后期菌】视频调色预设/3DL/Miami 04_S.3dl
# LUT by SparkleStock. Enhanced with VOXCOLOR algorithms.
0 64 128 192 256 320 384 448 512 576 640 704 768 832 896 960 1023
80 16 32
96 32 96
96 32 128
128 48 192
128 48 272
160 96 384
176 128 560
224 160 769
272 208 1073
336 304 1441
368 384 1729
464 544 2146
544 705 2402
608 849 2594
721 1041 2754
785 1169 2882
961 1329 2994
80 32 80
96 32 128
112 48 160
128 48 208
144 96 320
160 112 464
176 160 656
224 208 881
288 304 1281
336 400 1569
416 544 1985
448 624 2226
544 833 2514
640 1025 2706
721 1169 2850
865 1313 2962
961 1425 3010
96 48 112
96 48 128
96 64 160
128 128 288
144 144 400
160 160 496
192 224 737
256 304 1073
288 384 1425
352 496 1729
400 608 2050
480 817 2386
544 961 2578
656 1153 2786
769 1297 2914
929 1489 3010
1025 1601 3074
96 96 128
96 96 160
112 128 224
128 160 352
144 208 448
176 256 640
224 304 897
256 400 1185
304 512 1553
384 672 1921
416 785 2242
512 993 2514
608 1169 2722
689 1297 2866
785 1457 2978
993 1681 3106
1121 1761 3138
96 144 160
112 192 224
112 224 320
128 256 400
144 272 480
192 384 753
224 416 977
288 544 1345
336 689 1697
400 865 2114
464 1041 2434
544 1217 2658
656 1393 2850
785 1489 2946
913 1697 3074
1025 1761 3138
1201 1937 3202
96 256 240
96 288 288
128 320 368
144 416 496
160 464 705
192 544 913
240 640 1201
288 769 1505
368 945 1921
416 1089 2274
480 1217 2530
624 1425 2786
705 1585 2946
849 1729 3042
993 1889 3138
1169 2050 3202
1297 2146 3234
96 416 304
112 464 400
128 528 512
128 592 656
160 689 897
176 753 1041
240 929 1425
320 1057 1777
368 1233 2146
432 1345 2418
544 1553 2706
672 1665 2882
801 1857 3026
913 1937 3122
1089 2082 3186
1281 2242 3266
1425 2338 3330
96 608 416
112 721 576
112 801 721
128 897 897
144 977 1057
160 1057 1297
224 1217 1601
304 1345 2017
368 1505 2306
448 1649 2578
576 1777 2802
737 1953 2994
865 2066 3074
1041 2242 3202
1265 2386 3282
1425 2482 3330
1553 2514 3362
64 929 592
80 1057 769
112 1137 929
128 1249 1089
128 1297 1265
192 1473 1713
224 1553 1905
320 1777 2354
384 1841 2578
544 2050 2802
721 2178 2994
865 2274 3074
1041 2434 3202
1217 2498 3282
1425 2578 3314
1633 2690 3378
1713 2722 3410
64 1313 849
64 1361 929
96 1521 1169
128 1649 1377
160 1761 1713
176 1809 1921
240 1985 2210
288 2114 2530
416 2258 2802
592 2354 2978
737 2466 3074
945 2546 3170
1137 2658 3266
1313 2690 3314
1617 2802 3378
1729 2850 3410
1921 2898 3459
64 1665 1057
96 1841 1265
144 1937 1489
160 2050 1697
176 2178 1889
240 2258 2210
272 2338 2418
336 2466 2722
432 2514 2914
592 2642 3122
817 2738 3202
1089 2818 3266
1345 2850 3330
1521 2898 3362
1729 2946 3410
1937 2978 3443
2114 3010 3459
96 2066 1265
128 2178 1473
176 2322 1729
208 2354 1937
256 2466 2146
304 2562 2466
352 2642 2674
416 2706 2898
528 2802 3058
624 2802 3154
897 2882 3282
1185 2962 3330
1345 2978 3362
1681 3042 3427
1857 3074 3443
2082 3106 3459
2210 3122 3491
176 2402 1585
208 2466 1729
288 2594 2033
304 2626 2226
336 2674 2386
416 2786 2722
416 2802 2818
496 2866 3010
592 2946 3138
656 2946 3218
929 3010 3314
1169 3042 3330
1553 3122 3427
1793 3138 3443
2033 3170 3459
2226 3186 3475
2434 3218 3507
272 2626 1793
368 2738 2146
384 2754 2274
416 2802 2434
464 2850 2674
544 2946 2882
560 2962 2962
656 3010 3074
785 3058 3218
849 3058 3282
1041 3106 3330
1297 3138 3378
1553 3170 3427
1857 3186 3443
2162 3234 3475
2354 3282 3491
2466 3282 3523
400 2834 2017
448 2866 2210
496 2898 2402
544 2946 2578
624 3010 2722
689 3026 2882
785 3058 3026
817 3074 3074
881 3106 3170
1041 3154 3282
1169 3170 3314
1425 3218 3362
1649 3234 3410
1937 3266 3443
2162 3282 3475
2386 3314 3491
2626 3330 3507
544 2914 2210
560 2946 2306
656 2994 2546
769 3042 2706
865 3106 2866
977 3138 3010
993 3138 3058
1057 3186 3106
1265 3234 3186
1297 3218 3266
1457 3234 3298
1553 3266 3330
1841 3298 3410
2098 3314 3443
2370 3330 3475
2466 3362 3475
2626 3362 3507
705 3010 2370
801 3058 2498
945 3122 2658
1121 3154 2818
1169 3170 2914
1249 3186 3010
1281 3202 3042
1489 3266 3154
1569 3282 3202
1665 3282 3218
1809 3314 3298
1953 3330 3330
2146 3346 3410
2258 3346 3427
2498 3378 3459
2594 3378 3459
2786 3427 3507
112 32 96
112 32 128
160 48 160
160 48 208
160 48 256
192 96 432
224 128 576
256 160 785
336 224 1169
400 336 1553
448 464 1921
544 592 2210
576 737 2434
705 929 2658
785 1057 2802
913 1201 2882
1137 1409 3010
160 32 128
160 32 160
176 48 192
176 64 224
176 96 368
192 128 512
240 176 737
288 272 1041
336 336 1329
384 432 1681
448 560 2033
544 769 2370
624 897 2562
753 1089 2754
849 1233 2882
1025 1409 2994
1137 1521 3042
160 64 160
160 48 160
160 80 224
176 112 336
208 160 448
240 192 656
272 288 945
288 336 1169
352 480 1553
416 592 1905
496 737 2226
544 897 2482
656 1089 2706
801 1249 2850
897 1377 2946
1089 1553 3042
1201 1649 3074
160 96 160
160 128 208
176 160 336
192 176 416
192 224 544
224 272 721
288 400 1105
304 496 1377
368 592 1665
448 785 2162
512 913 2386
592 1073 2594
721 1281 2802
849 1425 2914
993 1569 3026
1105 1713 3106
1281 1841 3154
144 160 192
144 208 288
144 240 368
160 288 448
176 352 608
224 432 865
288 560 1233
320 656 1521
400 801 1889
432 945 2242
544 1169 2546
656 1297 2738
753 1425 2850
913 1617 3010
1057 1761 3106
1201 1857 3170
1329 2001 3218
160 240 288
144 320 352
144 352 416
160 416 560
176 496 769
224 624 1025
304 721 1361
352 865 1697
400 993 2050
496 1201 2402
560 1361 2642
721 1505 2834
881 1681 2994
993 1841 3074
1137 1985 3154
1377 2146 3234
1489 2210 3266
144 432 288
128 512 432
144 560 592
160 656 753
176 785 1009
224 897 1265
288 977 1489
336 1121 1809
432 1313 2258
528 1537 2578
656 1649 2802
785 1713 2882
977 1953 3058
1105 2098 3170
1249 2178 3202
1457 2306 3282
1633 2402 3330
112 592 336
112 801 624
128 913 785
128 929 913
160 1041 1153
192 1137 1425
288 1313 1777
352 1441 2146
448 1617 2434
560 1761 2674
769 1985 2914
849 2050 3010
1041 2194 3138
1249 2338 3218
1409 2402 3282
1633 2578 3346
1729 2594 3410
80 865 464
112 1185 897
128 1249 1041
128 1361 1169
160 1473 1489
224 1553 1809
288 1681 2114
368 1825 2418
480 2001 2658
689 2146 2882
785 2226 2994
961 2338 3106
1217 2482 3202
1425 2594 3298
1649 2674 3346
1729 2722 3378
2001 2802 3427
112 1057 528
96 1505 1089
128 1665 1329
144 1713 1473
160 1825 1793
224 2001 2098
272 2098 2354
352 2210 2642
480 2306 2850
721 2466 3026
913 2546 3122
1105 2594 3186
1313 2674 3282
1489 2722 3330
1729 2802 3362
1889 2850 3410
2162 2914 3443
96 1441 705
112 1873 1329
144 2001 1553
192 2162 1809
208 2194 2017
256 2338 2274
304 2434 2578
416 2530 2818
544 2626 3026
737 2690 3138
961 2738 3202
1265 2834 3266
1441 2866 3330
1729 2962 3410
1889 2978 3427
2114 3010 3459
2354 3058 3475
112 1761 849
176 2258 1569
208 2322 1681
272 2482 2066
288 2514 2226
352 2626 2530
368 2658 2706
464 2722 2898
576 2818 3074
769 2866 3218
1041 2898 3266
1345 2978 3330
1617 3026 3378
1809 3058 3410
2050 3106 3443
2274 3122 3459
2402 3138 3507
160 2114 1041
240 2482 1633
288 2530 1841
336 2626 2146
384 2706 2434
416 2754 2674
496 2818 2850
576 2898 3010
656 2962 3122
817 2962 3202
1137 3042 3314
1329 3042 3314
1633 3074 3378
1937 3138 3410
2178 3170 3443
2386 3186 3475
2546 3218 3491
240 2434 1201
320 2642 1841
416 2722 2066
512 2834 2498
576 2914 2802
576 2914 2866
672 3010 2978
785 3042 3106
865 3042 3202
977 3058 3234
1217 3122 3314
1457 3170 3362
1745 3186 3410
2066 3202 3427
2306 3234 3459
2498 3282 3491
2594 3298 3523
368 2642 1265
416 2738 1665
480 2818 1937
592 2898 2322
737 3042 2802
817 3058 2962
897 3074 3026
977 3122 3074
1073 3138 3170
1249 3170 3234
1393 3186 3282
1585 3218 3346
1809 3234 3378
2114 3266 3410
2338 3298 3443
2578 3330 3491
2754 3346 3507
576 2738 1409
624 2866 1761
737 2882 1921
865 2978 2338
1009 3074 2834
1185 3138 2978
1217 3154 3042
1297 3202 3074
1425 3234 3154
1601 3266 3234
1697 3282 3298
1841 3298 3330
2066 3314 3362
2306 3314 3427
2530 3346 3459
2594 3362 3459
2786 3378 3523
913 2898 1521
1009 2994 1953
1137 3026 2098
1201 3074 2418
1473 3202 2914
1489 3186 2946
1665 3266 3074
1745 3266 3138
1809 3282 3186
1953 3314 3266
2066 3330 3298
2146 3314 3314
2338 3346 3378
2482 3362 3410
2626 3378 3427
2818 3410 3475
2866 3410 3491
160 32 128
176 32 160
192 48 192
176 48 208
208 64 320
224 80 416
288 128 624
352 160 881
416 192 1169
496 320 1553
528 464 1937
656 656 2322
737 849 2562
785 993 2706
929 1153 2834
1073 1297 2946
1249 1441 3010
240 48 160
224 48 176
256 64 224
224 64 288
256 128 432
288 160 608
320 208 833
352 240 1089
496 384 1537
544 480 1841
544 656 2194
640 801 2434
753 977 2642
801 1137 2802
993 1329 2914
1185 1489 3026
1329 1585 3058
336 80 192
368 96 256
400 128 352
352 128 416
304 160 512
304 192 721
384 288 1041
400 416 1377
416 528 1681
448 656 2001
560 833 2354
672 1009 2578
753 1153 2738
945 1361 2898
1041 1489 2994
1201 1617 3058
1393 1745 3106
352 128 224
336 160 304
368 160 416
352 192 512
336 272 705
368 320 897
400 416 1185
400 560 1553
416 672 1825
528 881 2242
592 1009 2466
705 1185 2706
817 1297 2818
1009 1521 2962
1169 1681 3058
1297 1777 3122
1553 1953 3170
416 176 288
240 224 384
240 272 432
256 320 544
288 368 737
320 512 1041
368 608 1345
416 737 1681
464 881 2033
512 1041 2354
624 1217 2626
785 1393 2802
897 1521 2898
1025 1681 3026
1249 1889 3138
1377 1985 3202
1617 2098 3234
384 272 336
224 288 400
160 416 480
208 528 672
256 656 913
320 753 1217
352 881 1537
400 945 1793
480 1153 2226
560 1297 2498
737 1489 2754
833 1617 2882
977 1793 3026
1201 1953 3138
1313 2033 3170
1569 2242 3266
1729 2354 3298
256 368 288
192 480 512
176 656 705
224 785 913
256 897 1105
288 1009 1377
336 1041 1633
432 1281 2001
544 1473 2418
624 1553 2642
753 1697 2834
961 1889 2978
1089 2033 3106
1329 2226 3202
1473 2306 3234
1617 2370 3282
1825 2514 3362
192 576 304
160 785 544
144 961 881
176 1009 1041
192 1121 1249
272 1345 1617
320 1425 1873
416 1585 2242
608 1793 2562
721 1905 2802
833 2001 2914
1025 2178 3074
1265 2322 3186
1457 2434 3266
1649 2546 3314
1825 2642 3362
1905 2658 3410
160 881 416
128 1073 689
144 1329 1153
160 1457 1329
192 1569 1649
272 1729 1985
320 1809 2242
448 1985 2562
624 2082 2754
785 2226 2946
961 2370 3058
1169 2466 3154
1425 2562 3266
1569 2626 3298
1713 2690 3330
2001 2802 3410
2146 2818 3427
208 1073 416
144 1457 881
160 1729 1457
192 1873 1665
224 1985 1921
272 2098 2258
288 2178 2418
448 2322 2738
608 2386 2898
833 2498 3026
1089 2642 3170
1297 2674 3202
1521 2754 3298
1681 2786 3346
1937 2866 3378
2098 2882 3410
2370 2978 3443
320 1313 448
160 1585 849
176 2146 1681
224 2226 1889
256 2322 2114
304 2418 2418
416 2546 2738
480 2578 2866
640 2658 3042
929 2786 3186
1169 2786 3218
1409 2850 3266
1649 2946 3346
1905 2978 3378
2114 3010 3427
2306 3010 3443
2482 3074 3475
400 1697 576
176 1905 1009
288 2482 1889
320 2546 2226
352 2594 2402
416 2674 2594
464 2722 2818
560 2786 2962
656 2850 3122
1009 2914 3234
1281 2962 3298
1537 3010 3346
1745 3058 3378
2001 3074 3410
2210 3122 3443
2402 3138 3459
2562 3186 3523
560 2017 656
272 2226 1121
352 2594 1857
400 2642 2114
432 2738 2530
496 2802 2738
592 2898 2914
721 2962 3058
785 2978 3154
1025 3010 3218
1297 3058 3298
1569 3106 3346
1841 3122 3362
2162 3170 3410
2338 3186 3459
2562 3218 3475
2690 3234 3491
753 2386 721
400 2482 1201
464 2706 1953
528 2786 2226
656 2898 2658
705 2978 2898
801 3026 3010
849 3042 3074
1089 3074 3186
1297 3138 3266
1521 3154 3314
1665 3170 3330
2033 3202 3378
2274 3234 3427
2466 3266 3443
2642 3298 3475
2706 3298 3507
1009 2626 737
817 2722 1121
672 2818 1729
801 2914 2162
913 3026 2658
1041 3074 2962
1169 3138 3042
1233 3154 3106
1297 3170 3154
1553 3218 3234
1665 3218 3282
1777 3234 3330
2050 3266 3362
2354 3282 3410
2546 3330 3443
2658 3330 3459
2850 3330 3491
1393 2802 721
1313 2882 1041
1089 2866 1553
1169 2946 1889
1329 3074 2594
1441 3154 2914
1585 3202 3042
1569 3218 3058
1729 3282 3170
1793 3266 3218
2017 3298 3282
2066 3298 3314
2226 3298 3346
2498 3330 3410
2690 3362 3443
2754 3362 3459
2866 3378 3523
1761 2994 753
1649 3010 1073
1505 2994 1553
1649 3058 1857
1713 3170 2594
1697 3202 2962
1873 3266 3074
1985 3282 3122
2162 3314 3186
2178 3298 3202
2338 3330 3282
2370 3330 3314
2546 3362 3362
2690 3378 3410
2818 3410 3443
2914 3427 3475
2994 3427 3491
256 32 144
288 64 192
272 64 240
288 80 288
320 96 416
336 112 544
416 144 769
464 160 897
592 208 1201
656 288 1569
705 464 1985
801 640 2306
897 785 2514
1009 993 2706
1057 1153 2834
1233 1297 2946
1425 1441 2994
432 96 192
400 96 224
400 80 288
432 112 416
400 144 544
448 160 689
448 176 865
560 272 1249
672 336 1537
785 480 1921
769 624 2210
817 897 2530
929 1089 2722
1009 1201 2818
1201 1409 2962
1297 1521 3010
