其他预设/【236】赛博朋克风调色预设/【后期菌】视频调色预设/3DL/Sunset 10_S.3dl
# LUT by SparkleStock. Enhanced with VOXCOLOR algorithms.
0 64 128 192 256 320 384 448 512 576 640 704 768 832 896 960 1023
112 112 112
144 128 144
144 128 160
160 144 208
160 160 224
192 192 304
192 224 352
224 256 464
272 320 608
320 368 721
352 416 849
432 480 1025
496 560 1201
544 608 1329
608 672 1489
640 721 1585
689 769 1697
144 144 160
160 160 176
160 176 208
176 176 224
192 208 288
208 224 336
240 272 432
288 320 560
336 384 721
384 448 865
432 512 1025
464 560 1121
544 624 1297
592 689 1425
624 737 1537
672 785 1665
721 817 1761
176 224 192
160 208 208
176 240 240
208 272 320
224 288 352
240 304 416
304 368 560
368 432 705
400 480 817
416 528 929
480 608 1105
560 672 1249
608 737 1393
672 801 1537
705 833 1633
769 913 1745
801 961 1825
224 288 240
208 272 256
224 352 336
224 400 384
256 432 464
320 464 576
352 496 640
400 544 769
448 624 913
544 721 1105
576 753 1217
640 833 1377
689 881 1489
753 929 1633
785 961 1697
849 1057 1809
881 1105 1889
256 464 336
288 496 384
288 544 432
288 576 512
320 576 560
384 672 721
416 656 769
496 753 929
576 801 1073
640 881 1233
705 961 1361
737 1009 1457
817 1073 1585
849 1121 1665
929 1185 1809
945 1201 1889
993 1265 1985
368 672 480
400 721 544
448 801 640
448 881 737
448 929 801
448 929 881
528 945 993
592 977 1089
705 1089 1233
785 1121 1361
817 1105 1409
897 1217 1553
961 1281 1633
1025 1329 1729
1073 1393 1825
1153 1441 1921
1153 1457 1969
528 929 640
576 1025 769
576 1089 833
592 1137 897
640 1169 977
672 1201 1057
769 1313 1201
817 1329 1297
897 1345 1377
977 1393 1473
1041 1441 1585
1105 1489 1649
1185 1553 1761
1233 1553 1809
1297 1617 1905
1377 1665 1985
1409 1713 2098
737 1153 785
833 1281 897
881 1313 1009
881 1409 1121
977 1473 1185
977 1505 1265
1009 1553 1345
1073 1633 1473
1121 1665 1553
1201 1681 1633
1233 1713 1713
1377 1777 1825
1409 1809 1905
1489 1841 1985
1617 1921 2050
1681 1937 2114
1665 1953 2194
1057 1425 913
1089 1489 1025
1217 1601 1121
1217 1649 1201
1201 1665 1297
1265 1729 1425
1329 1777 1489
1409 1873 1633
1409 1889 1697
1521 1969 1809
1553 2017 1905
1649 2050 1969
1745 2114 2066
1793 2146 2114
1825 2162 2162
1905 2194 2226
1937 2210 2258
1345 1697 1009
1393 1745 1105
1489 1809 1201
1473 1889 1329
1617 1937 1441
1617 1985 1569
1649 2050 1697
1745 2098 1809
1761 2146 1889
1809 2210 1969
1841 2210 2017
1905 2274 2130
1921 2306 2194
1937 2322 2242
2050 2386 2290
2033 2402 2306
2114 2434 2370
1649 1921 1057
1681 1985 1201
1809 2066 1297
1825 2098 1425
1841 2146 1537
1889 2178 1681
1921 2242 1809
1937 2274 1873
2001 2290 1969
2066 2354 2050
2130 2402 2162
2114 2434 2242
2162 2466 2290
2210 2466 2290
2258 2514 2370
2306 2530 2402
2322 2562 2450
1969 2162 1105
1953 2178 1281
2066 2210 1361
2082 2258 1473
2066 2290 1537
2130 2354 1681
2162 2402 1793
2242 2434 1873
2322 2450 1953
2322 2482 2050
2370 2530 2130
2402 2546 2210
2354 2546 2274
2466 2610 2338
2450 2626 2402
2482 2626 2418
2466 2674 2514
2290 2322 1217
2354 2354 1265
2370 2402 1393
2354 2402 1489
2370 2450 1537
2434 2498 1697
2466 2514 1761
2466 2546 1873
2562 2594 1969
2530 2594 2017
2562 2642 2114
2530 2674 2194
2610 2690 2226
2626 2706 2274
2642 2722 2322
2674 2754 2370
2706 2802 2402
2482 2450 1265
2610 2514 1329
2578 2514 1409
2610 2546 1505
2642 2578 1617
2658 2626 1729
2594 2642 1761
2674 2658 1857
2690 2690 1937
2610 2706 1985
2674 2738 2066
2674 2786 2130
2738 2770 2146
2770 2802 2178
2786 2834 2242
2818 2866 2274
2770 2882 2338
2722 2594 1265
2738 2610 1345
2754 2658 1425
2738 2690 1521
2738 2706 1601
2818 2706 1665
2818 2738 1761
2770 2770 1825
2802 2802 1841
2802 2850 1969
2802 2850 1985
2914 2866 2050
2866 2898 2114
2914 2898 2130
2866 2914 2178
2882 2946 2242
2930 2930 2242
2914 2706 1361
2834 2722 1377
2930 2722 1441
2930 2754 1521
2946 2802 1617
2946 2818 1697
2946 2818 1729
2898 2850 1777
2914 2898 1873
2978 2882 1905
2994 2898 1937
3010 2930 1985
3042 2962 2017
3042 2978 2082
3042 2994 2114
2994 3010 2162
2994 3010 2178
2978 2770 1361
2994 2802 1441
3010 2850 1553
3026 2850 1585
3026 2866 1633
3026 2898 1713
3026 2898 1745
3058 2930 1809
3074 2946 1841
3058 2946 1857
3090 2978 1937
3106 2994 1969
3122 3026 2050
3122 3026 2033
3154 3058 2098
3138 3042 2082
3170 3090 2146
160 128 128
160 128 144
208 160 192
224 160 224
224 176 256
256 208 320
272 224 384
304 272 496
352 336 624
368 400 785
416 464 945
448 496 1041
512 576 1217
592 656 1377
624 705 1505
672 721 1585
737 785 1729
240 160 160
256 160 176
304 192 208
304 208 256
288 208 304
288 240 352
304 320 496
336 368 640
384 416 769
416 480 913
480 544 1057
544 608 1217
592 656 1329
656 721 1473
705 785 1601
769 833 1713
785 865 1777
336 224 192
336 208 192
336 240 240
368 272 304
352 304 368
368 336 448
400 432 656
416 480 753
464 544 881
512 608 1041
576 689 1201
608 721 1313
689 801 1473
753 865 1601
785 881 1681
865 977 1793
881 993 1857
400 272 224
400 288 256
400 336 320
400 368 400
384 416 480
432 464 576
464 544 737
512 624 897
544 672 993
656 801 1217
705 849 1345
721 881 1457
801 929 1569
881 993 1697
913 1041 1761
961 1121 1857
1009 1153 1921
544 400 288
400 496 384
432 528 448
432 624 560
432 689 656
512 721 801
608 785 913
624 817 1025
737 913 1185
753 945 1281
865 1073 1441
881 1089 1505
929 1121 1601
961 1185 1713
1089 1265 1841
1089 1281 1937
1137 1345 2017
705 544 384
592 737 544
592 769 624
640 865 753
608 929 833
672 977 945
785 1041 1073
817 1057 1153
881 1137 1281
977 1217 1425
1025 1265 1505
1089 1329 1617
1153 1377 1713
1265 1473 1809
1313 1505 1905
1409 1585 2001
1425 1601 2050
993 913 464
769 993 721
833 1057 801
881 1153 929
929 1249 1057
977 1329 1169
977 1361 1249
1041 1393 1345
1201 1473 1441
1313 1521 1553
1393 1601 1681
1361 1569 1729
1489 1665 1857
1553 1729 1953
1537 1729 1985
1633 1793 2066
1665 1857 2178
1297 1201 528
1089 1345 865
1137 1393 977
1153 1441 1073
1249 1521 1185
1233 1537 1297
1377 1617 1409
1377 1665 1505
1425 1713 1617
1457 1761 1713
1553 1841 1825
1569 1857 1873
1633 1889 1953
1777 1985 2082
1777 1969 2082
1905 2082 2194
1889 2098 2258
1649 1425 592
1473 1649 993
1521 1665 1089
1521 1681 1137
1569 1745 1281
1569 1841 1457
1617 1857 1521
1633 1921 1665
1697 1969 1777
1825 2066 1889
1825 2082 1921
1825 2114 2017
1905 2162 2098
2001 2210 2162
2050 2274 2258
2066 2290 2274
2146 2322 2338
2050 1537 512
1745 1857 1041
1857 1905 1153
1777 1921 1265
1857 2001 1441
1905 2066 1569
1905 2114 1697
2017 2146 1761
2001 2194 1873
2050 2242 1969
2082 2258 2050
2098 2306 2162
2130 2338 2210
2178 2386 2274
2226 2418 2290
2258 2434 2322
2322 2466 2402
2322 1777 592
1985 2066 1153
2082 2114 1265
2114 2162 1393
2066 2178 1473
2130 2226 1601
2178 2290 1745
2194 2322 1825
2242 2370 1937
2258 2370 2001
2258 2418 2082
2306 2482 2194
2338 2498 2242
2418 2530 2306
2450 2546 2354
2482 2578 2402
2530 2610 2434
2402 1937 608
2386 2242 1137
2386 2274 1233
2386 2290 1377
2338 2370 1489
2370 2418 1649
2370 2418 1713
2418 2466 1825
2482 2498 1905
2546 2530 2001
2530 2546 2082
2562 2578 2146
2546 2626 2242
2594 2626 2274
2562 2658 2370
2642 2690 2354
2610 2722 2466
2626 2098 705
2610 2322 1105
2626 2354 1201
2626 2418 1329
2578 2498 1489
2610 2498 1617
2658 2530 1697
2674 2562 1777
2658 2610 1921
2706 2610 1937
2722 2674 2050
2658 2674 2098
2738 2706 2146
2754 2738 2210
2754 2770 2258
2770 2786 2306
2786 2818 2322
2754 2242 785
2738 2434 1169
2754 2482 1265
2818 2578 1425
2786 2626 1585
2770 2626 1649
2754 2690 1729
2802 2706 1809
2802 2738 1905
2770 2754 1937
2834 2770 2001
2802 2818 2082
2866 2818 2082
2898 2850 2130
2898 2866 2194
2914 2882 2226
2882 2914 2290
2818 2402 833
2818 2482 1041
2834 2562 1201
2866 2642 1345
2850 2722 1569
2930 2754 1649
2914 2754 1697
2882 2802 1793
2898 2818 1825
2898 2850 1905
2898 2850 1953
2962 2866 1985
2930 2898 2033
2978 2914 2082
2930 2930 2146
2994 2994 2210
3026 2978 2210
2962 2514 929
2946 2642 1121
3010 2674 1233
3010 2690 1361
2994 2786 1553
3010 2818 1665
2994 2818 1681
2978 2882 1761
2994 2898 1825
3058 2930 1873
3058 2946 1937
3074 2962 1969
3090 2978 2017
3090 2978 2033
3106 3010 2098
3058 3026 2146
3058 3058 2194
3058 2642 1025
3058 2722 1233
3074 2754 1297
3074 2802 1441
3090 2898 1649
3074 2898 1697
3106 2930 1761
3106 2930 1745
3122 2946 1809
3122 2962 1889
3138 2994 1937
3138 3010 1953
3154 3042 2001
3170 3042 2001
3170 3058 2050
3202 3090 2114
3202 3090 2114
208 128 128
240 144 160
288 176 208
304 176 224
368 208 288
384 224 368
432 256 464
464 288 544
480 336 640
480 400 785
464 448 945
576 560 1169
608 624 1297
640 672 1409
705 737 1553
753 785 1665
785 817 1761
352 176 176
384 192 208
448 224 240
432 224 272
464 256 352
496 288 432
432 320 512
432 368 624
528 464 817
544 496 929
560 576 1105
608 624 1233
656 689 1377
705 753 1521
785 817 1649
849 881 1761
881 913 1825
608 272 272
640 272 304
737 304 352
689 304 384
656 320 432
624 368 512
544 432 640
512 528 785
544 592 945
576 640 1073
656 737 1249
705 785 1393
753 833 1505
865 897 1649
881 945 1713
961 1009 1809
993 1041 1889
769 352 320
849 400 368
881 416 416
849 416 464
785 496 560
737 512 624
737 544 753
689 689 945
689 753 1089
785 865 1281
785 881 1377
849 945 1489
897 977 1585
1009 1073 1713
1089 1153 1809
1089 1153 1873
1217 1265 1985
1105 480 448
913 544 464
881 576 512
833 624 592
865 689 737
833 753 865
849 817 977
865 897 1105
897 977 1249
945 1041 1345
1009 1121 1457
1105 1201 1601
1105 1233 1681
1185 1297 1777
1345 1393 1921
1329 1393 2001
1425 1457 2098
1329 656 528
1121 705 560
913 833 640
929 945 785
945 1041 929
977 1137 1089
1025 1169 1169
1025 1201 1249
1121 1249 1377
1201 1329 1473
1313 1409 1601
1345 1457 1697
1409 1505 1825
1537 1601 1937
1537 1601 1985
1665 1697 2066
1697 1761 2146
1489 865 496
1361 961 656
1169 1169 865
1233 1233 929
1265 1329 1041
1249 1393 1201
1233 1393 1281
1377 1505 1425
1457 1553 1521
1473 1569 1585
1521 1649 1697
1633 1697 1809
1681 1761 1905
1777 1841 2001
1809 1857 2066
1809 1905 2130
1905 1985 2258
1745 1073 432
1633 1249 608
1457 1441 929
1457 1505 1025
1537 1569 1185
1585 1681 1345
1569 1681 1425
1617 1729 1521
1665 1841 1697
1745 1873 1793
1745 1905 1873
1809 1953 1953
1905 2050 2066
1969 2082 2130
2050 2114 2178
2082 2146 2258
2082 2178 2322
1985 1313 448
1969 1537 672
1809 1745 1073
1761 1809 1169
1793 1841 1329
1889 1921 1457
1857 1937 1553
1969 2017 1697
1985 2066 1793
1985 2098 1889
2066 2146 1985
2066 2178 2066
2162 2258 2162
2146 2258 2194
2194 2306 2258
2274 2354 2322
2274 2370 2370
2290 1505 448
2226 1777 769
2050 1985 1185
2114 2033 1265
2146 2098 1425
2194 2130 1553
2082 2162 1681
2210 2210 1777
2178 2226 1857
2194 2274 1953
2290 2338 2050
2258 2354 2114
2306 2418 2210
2322 2418 2274
2434 2466 2306
2402 2482 2370
2482 2530 2418
2482 1649 464
2418 1825 689
2290 2162 1249
2306 2194 1345
2258 2258 1489
2338 2274 1569
2402 2354 1729
2338 2354 1777
2418 2386 1857
2482 2466 2017
2466 2466 2066
2450 2498 2130
2530 2546 2226
2578 2578 2290
2578 2594 2322
2594 2610 2370
2610 2642 2402
2610 1873 512
2562 1969 705
2562 2322 1249
2562 2370 1393
2530 2402 1457
2530 2434 1633
2546 2466 1713
2562 2498 1809
2658 2530 1889
2674 2562 1985
2674 2594 2066
2674 2642 2146
2642 2658 2194
2706 2690 2242
2658 2706 2306
2706 2722 2322
2722 2770 2402
2770 1985 576
2706 2082 721
2738 2354 1185
2706 2386 1313
2674 2482 1505
2722 2530 1649
2770 2578 1681
2770 2610 1809
2770 2642 1873
2786 2658 1921
2802 2706 1985
2786 2738 2066
2834 2738 2082
2850 2786 2194
2866 2802 2210
2898 2850 2258
2882 2850 2290
2866 2146 608
2818 2242 785
2834 2450 1185
2834 2498 1281
2850 2594 1505
2850 2658 1633
2834 2706 1713
2866 2722 1777
2898 2738 1857
2882 2786 1905
2930 2786 1953
2882 2818 2001
2946 2850 2066
2962 2866 2082
2962 2866 2114
2978 2898 2146
2946 2930 2210
2882 2322 656
2882 2386 801
2898 2546 1089
2914 2626 1281
2930 2722 1473
2978 2754 1633
2978 2786 1713
2930 2818 1777
2930 2834 1825
2962 2850 1873
2962 2882 1921
3010 2882 1953
2994 2914 2001
3042 2930 2033
3010 2962 2114
3026 2978 2130
3090 2978 2146
3010 2418 721
2978 2498 849
3026 2562 1009
3042 2642 1169
3042 2754 1489
3042 2834 1665
3074 2882 1729
3010 2882 1745
3042 2930 1825
3090 2898 1857
3106 2946 1905
3106 2946 1905
3106 2946 1937
3138 2994 2017
3154 3026 2066
3090 3026 2098
3106 3042 2130
3090 2530 833
3090 2578 945
3090 2674 1073
3106 2738 1233
3122 2834 1489
3106 2898 1681
3138 2930 1729
3138 2946 1777
3170 2962 1809
3170 2978 1841
3186 2994 1905
3186 3010 1921
3202 3042 1969
3218 3042 2001
3234 3074 2050
3250 3106 2098
3250 3106 2114
320 160 160
384 176 192
448 208 240
496 224 288
560 256 352
592 272 400
705 320 512
737 336 576
833 384 705
817 448 881
785 528 1089
721 560 1185
737 608 1297
753 689 1457
753 737 1569
801 785 1665
865 849 1777
608 256 256
624 256 288
640 256 304
737 288 368
737 320 432
801 336 528
785 352 592
881 416 721
961 464 833
1009 560 1057
865 592 1137
785 672 1281
865 753 1441
817 785 1553
913 881 1697
929 913 1777
