其他预设/【236】赛博朋克风调色预设/【后期菌】视频调色预设/3DL/Sunset 08_S.3dl
# LUT by SparkleStock. Enhanced with VOXCOLOR algorithms.
0 128 256 384 512 640 768 896 1023
48 48 96
96 48 272
64 80 512
64 128 897
96 176 1361
80 224 1793
80 304 2210
96 336 2530
112 384 2786
144 288 272
80 336 480
128 416 817
144 480 1265
144 544 1681
160 592 2082
192 640 2402
176 672 2690
208 753 2914
208 672 480
256 705 753
256 833 1121
304 913 1585
400 993 2033
464 1041 2370
480 1073 2642
512 1137 2882
512 1137 3010
448 1217 801
528 1313 1185
592 1393 1537
705 1537 1889
753 1569 2242
785 1617 2530
881 1649 2722
929 1649 2914
1025 1713 3122
849 1825 1105
993 1969 1425
1041 2050 1713
1153 2114 2050
1233 2210 2354
1361 2322 2578
1457 2386 2802
1473 2386 2946
1569 2402 3058
1201 2418 1217
1345 2546 1489
1425 2594 1713
1553 2658 2001
1665 2706 2290
1777 2802 2482
1857 2850 2674
1969 2882 2802
2066 2914 2914
1617 2850 1249
1761 2898 1441
1825 2930 1585
1953 2978 1777
2114 3058 1921
2162 3106 2130
2306 3154 2226
2338 3170 2370
2418 3234 2450
2050 3170 1137
2130 3186 1265
2210 3218 1393
2370 3282 1505
2370 3330 1569
2434 3346 1729
2562 3410 1793
2610 3443 1857
2674 3459 1905
2402 3394 993
2530 3459 1105
2594 3475 1137
2610 3475 1201
2722 3555 1233
2802 3587 1329
2850 3635 1361
2898 3667 1393
2946 3667 1441
304 48 176
384 48 384
448 48 672
512 64 1041
608 96 1489
320 224 1953
272 320 2354
240 352 2658
240 432 2882
737 192 352
881 192 640
753 240 993
576 384 1409
400 576 1905
432 656 2242
432 656 2498
464 705 2754
480 753 2962
1121 528 608
833 672 913
769 801 1313
753 945 1761
721 1105 2162
769 1121 2450
785 1153 2674
913 1217 2898
961 1249 3090
1473 1153 737
993 1441 1297
1073 1569 1601
1121 1665 1937
1281 1793 2354
1297 1793 2578
1361 1857 2786
1441 1873 2962
1553 1953 3138
1841 2082 769
1473 2226 1521
1537 2290 1793
1617 2370 2066
1761 2450 2354
1873 2498 2562
1953 2610 2738
2001 2594 2866
2082 2610 3010
2578 2610 753
1745 2674 1457
1793 2738 1665
2033 2818 1953
2114 2818 2130
2194 2882 2354
2338 2914 2530
2418 2978 2642
2482 3042 2722
2882 2994 833
2418 3058 1233
2370 3074 1489
2498 3138 1633
2530 3154 1793
2578 3202 1873
2642 3234 2033
2674 3298 2130
2706 3330 2194
2962 3298 705
2706 3330 929
2594 3362 1185
2674 3410 1361
2658 3410 1457
2738 3459 1521
2802 3491 1585
2834 3555 1649
2930 3571 1665
3090 3507 624
2978 3539 721
2946 3587 929
2946 3603 1089
2994 3635 1137
2994 3651 1169
3058 3683 1201
3122 3715 1233
3138 3715 1265
689 64 256
817 48 528
1009 80 913
1249 112 1329
1425 128 1777
1329 192 2098
1313 224 2418
961 272 2658
865 384 2898
1473 224 448
1665 272 801
1777 272 1089
1857 320 1521
1937 384 1953
1777 448 2290
1025 705 2626
929 737 2818
977 833 2978
2033 560 400
2130 528 753
2066 544 1089
1857 785 1649
1377 1137 2194
1265 1265 2530
1393 1361 2754
1489 1377 2946
1569 1425 3106
2338 1137 432
2082 1281 833
1825 1473 1393
1905 1585 1793
1825 1905 2290
1841 2001 2594
1985 2162 2818
2001 2178 2962
2050 2210 3106
2610 2130 640
2290 2194 993
1825 2354 1633
1937 2402 1937
2066 2530 2258
2322 2674 2482
2402 2706 2642
2466 2786 2834
2562 2802 2914
2978 2658 769
2850 2786 993
2338 2866 1617
2386 2882 1809
2578 2962 2082
2642 2994 2178
2690 3074 2370
2754 3122 2466
2818 3170 2546
3202 3010 865
3106 3090 961
2754 3202 1329
2786 3218 1505
2818 3298 1665
2850 3298 1745
2898 3346 1825
2914 3378 1921
2994 3443 1969
3218 3362 801
3154 3410 849
2978 3427 961
2962 3491 1201
2946 3539 1345
2946 3555 1361
2994 3603 1409
3042 3635 1489
3106 3651 1489
3282 3571 640
3298 3603 689
3234 3635 705
3122 3667 881
3138 3715 1025
3186 3747 1041
3186 3731 1089
3250 3779 1137
3330 3827 1169
1473 112 368
1697 128 721
1873 128 1057
2001 144 1393
2194 176 1729
2338 176 2001
2530 208 2370
2578 240 2578
1889 368 2914
2114 304 368
2098 288 656
2162 320 1009
2258 304 1361
2466 304 1681
2610 352 2033
2610 496 2370
2450 640 2754
2178 737 2962
2354 672 336
2242 624 640
2226 672 977
2322 672 1361
2418 737 1745
2658 801 2033
2786 1073 2402
2130 1553 2930
2082 1681 3090
2610 1249 368
2370 1249 608
2338 1169 1009
2386 1249 1409
2290 1713 1953
2386 2098 2434
2466 2322 2706
2562 2402 2898
2562 2402 3010
2706 2146 480
2482 2082 672
2386 2050 1137
2242 2226 1729
2450 2354 2050
2594 2642 2386
2754 2834 2546
2786 2882 2690
2818 2930 2802
3106 2690 672
2930 2658 689
2754 2738 1073
2546 2914 1713
2690 3010 1905
2930 3138 2066
2914 3170 2194
2978 3234 2290
2994 3282 2354
3330 3106 897
3314 3154 961
3250 3250 1089
2962 3362 1361
3058 3378 1489
2994 3410 1601
3058 3443 1681
3090 3507 1713
3106 3539 1777
3330 3443 849
3330 3443 865
3282 3539 865
3202 3571 1009
3138 3587 1105
3138 3619 1281
3154 3651 1313
3202 3683 1361
3250 3699 1329
3394 3667 672
3427 3683 705
3410 3715 705
3410 3747 769
3314 3779 897
3346 3795 1009
3427 3827 1137
3427 3827 1153
3443 3843 1329
2162 208 352
2258 160 624
2354 128 977
2482 128 1313
2642 160 1665
2818 224 1937
2866 224 2210
2930 240 2450
2978 256 2642
2530 336 384
2466 336 640
2466 368 977
2562 352 1329
2706 336 1617
2946 320 1809
3154 352 1953
3186 400 2194
3202 480 2434
2626 737 352
2562 737 672
2562 769 993
2594 785 1345
2754 769 1649
3010 721 1809
3202 897 2050
3186 1137 2386
3090 1361 2738
2802 1345 416
2610 1361 656
2610 1361 1089
2626 1377 1409
2754 1441 1665
2978 1585 1985
3170 1809 2146
3170 2178 2418
2898 2530 2850
2850 2194 448
2706 2178 592
2706 2033 977
2738 1969 1377
2882 2162 1777
2898 2498 2162
3042 2898 2386
2994 3010 2530
3042 3058 2626
3154 2754 640
2962 2738 705
2898 2738 913
2930 2786 1297
2946 2994 1841
3138 3154 1953
3122 3234 2001
3154 3346 2066
3170 3362 2130
3394 3218 1009
3282 3218 993
3250 3282 1073
3202 3330 1153
3170 3475 1425
3170 3507 1489
3218 3571 1553
3234 3603 1569
3250 3619 1601
3410 3555 881
3394 3555 881
3427 3619 913
3427 3619 897
3314 3699 993
3250 3699 1153
3314 3747 1201
3346 3779 1265
3394 3795 1281
3475 3731 721
3491 3747 769
3507 3779 833
3555 3827 897
3539 3811 929
3491 3811 1169
3539 3875 1489
3587 3859 1745
3651 3875 2130
2658 208 400
2674 160 640
2754 160 945
2866 160 1265
2978 208 1569
3090 240 1809
3138 240 2050
3202 272 2226
3282 288 2450
2866 368 432
2866 416 672
2850 416 961
2882 416 1297
2994 400 1537
3170 400 1697
3298 416 1809
3362 512 2066
3410 576 2242
2962 849 400
2898 833 672
2898 881 1025
2930 913 1361
3042 913 1665
3234 929 1793
3410 945 1809
3459 1025 1985
3491 1217 2210
3074 1521 480
2946 1505 705
2914 1473 1089
2946 1489 1377
3042 1585 1681
3250 1681 1793
3443 1889 1857
3427 2162 2098
3330 2322 2370
3106 2338 448
2978 2258 592
2978 2130 945
2994 2066 1361
3106 2146 1649
3362 2370 1777
3410 2610 1953
3443 2850 2146
3378 2994 2322
3314 2898 769
3170 2850 833
3106 2850 993
3122 2818 1265
3186 2898 1505
3218 3058 1921
3202 3234 1953
3250 3443 1873
3298 3491 1905
3475 3330 1137
3378 3330 1041
3378 3378 1105
3346 3378 1217
3282 3443 1313
3202 3491 1553
3282 3571 1569
3346 3683 1409
3362 3699 1441
3475 3603 913
3475 3635 881
3507 3683 945
3475 3715 977
3394 3715 1089
3378 3747 1233
3443 3779 1249
3475 3827 1361
3539 3827 1505
3555 3795 849
3587 3827 929
3603 3827 1089
3635 3827 1361
3635 3843 1505
3651 3859 1793
3683 3875 2194
3715 3907 2562
3747 3907 2754
2978 256 464
3010 224 689
3074 224 929
3138 224 1233
3234 240 1489
3314 240 1681
3346 272 1921
3378 272 2114
3443 320 2306
3170 432 496
3186 464 689
3202 496 961
3250 528 1265
3298 512 1489
3378 512 1617
3427 576 1729
3491 656 1937
3507 705 2146
3282 945 480
3250 993 785
3234 1009 1057
3282 1041 1361
3362 1105 1601
3443 1153 1745
3555 1281 1793
3571 1425 1937
3603 1505 2162
3394 1649 544
3330 1617 737
3298 1601 1121
3298 1633 1393
3330 1713 1665
3443 1889 1793
3507 2098 1825
3587 2290 1857
3587 2402 2066
3362 2482 528
3298 2434 624
3282 2258 929
3298 2194 1361
3314 2226 1665
3394 2434 1857
3459 2594 1985
3539 2802 2050
3539 3010 2114
3443 3010 929
3394 2994 993
3330 2962 1137
3250 2834 1377
3282 2866 1633
3314 2930 2050
3346 3058 2162
3427 3298 2082
3475 3475 1905
3555 3443 1185
3539 3459 1169
3427 3410 1137
3346 3378 1217
3346 3346 1457
3362 3427 1569
3394 3539 1697
3394 3635 1505
3491 3747 1457
3539 3715 881
3555 3731 929
3507 3747 1041
3459 3715 1185
3443 3715 1377
3459 3715 1617
3491 3779 1793
3635 3843 1969
3683 3859 2242
3635 3811 1249
3651 3827 1409
3683 3843 1713
3683 3859 1937
3715 3907 2322
3731 3923 2546
3795 3923 2834
3779 3907 3042
3811 3923 3234
3218 272 512
3250 304 753
3314 304 993
3362 320 1201
3410 336 1393
3459 304 1569
3539 368 1793
3571 384 1985
3587 400 2178
3378 560 560
3443 608 737
3443 624 977
3475 672 1265
3491 737 1457
3507 737 1521
3571 785 1681
3603 849 1857
3651 993 2066
3507 1201 592
3507 1137 913
3555 1201 1137
3539 1265 1361
3571 1409 1569
3571 1489 1665
3603 1585 1777
3651 1825 1889
3667 1953 2082
3651 1921 721
3667 1841 817
3635 1793 1089
3603 1793 1377
3603 1857 1633
3619 2033 1793
3635 2194 1889
3683 2498 1905
3667 2610 1985
3555 2786 737
3539 2738 833
3539 2546 993
3555 2338 1361
3555 2354 1681
3555 2498 1969
3539 2642 2146
3587 2898 2210
3603 3170 2178
3571 3202 1249
3539 3154 1185
3539 2994 1169
3507 2882 1441
3539 2930 1697
3539 2930 2114
3571 3090 2306
3571 3314 2210
3603 3571 1937
3587 3555 1169
3571 3507 1073
3555 3443 1073
3571 3410 1265
3555 3378 1505
3587 3410 1825
3603 3459 2098
3635 3587 2130
3651 3779 1905
3635 3795 1121
3651 3795 1249
3635 3747 1345
3635 3715 1553
3635 3715 1825
3651 3715 2194
3699 3779 2482
3715 3827 2706
3795 3891 2866
3731 3859 1937
3747 3859 2162
3795 3891 2418
3731 3907 2450
3779 3923 2818
3747 3907 3042
3811 3923 3298
3859 3923 3539
3859 3923 3619
3410 320 496
3459 384 737
3475 464 1009
3491 496 1233
3555 496 1409
3587 448 1569
3619 464 1713
3619 464 1873
3651 528 2050
3491 689 624
3491 737 801
3539 833 1009
3571 913 1217
3571 945 1377
3619 993 1537
3651 1057 1713
3683 1137 1825
3715 1265 2001
3603 1473 624
3667 1425 1057
3651 1473 1201
3651 1569 1393
3683 1649 1537
3683 1777 1697
3683 1969 1777
3667 2146 1825
3683 2258 1953
3635 2466 689
3731 2306 865
3779 2098 1121
3811 2082 1393
3811 2066 1585
3795 2194 1809
3747 2386 1937
3683 2658 1921
3667 2802 2001
3603 2946 945
3619 2898 1025
3683 2706 1137
3747 2594 1441
3779 2498 1793
3747 2594 2098
3715 2754 2322
3667 3042 2322
3619 3330 2194
3603 3330 1377
3651 3250 1281
3715 3106 1281
3795 3010 1457
3811 2994 1729
3811 3010 2082
3779 3106 2290
3699 3330 2242
3667 3635 2001
3619 3651 1201
3667 3603 1169
3747 3491 1249
3827 3427 1409
3827 3394 1649
3843 3394 2050
3827 3459 2370
3795 3619 2466
3811 3795 2610
3699 3811 1505
3747 3795 1729
3779 3779 1745
3859 3715 1937
3875 3731 2242
3891 3731 2546
3859 3795 2898
3843 3859 3170
3843 3907 3362
3795 3891 2562
3827 3923 2834
3843 3907 2962
3843 3923 2994
3875 3939 3186
3875 3923 3378
3875 3939 3667
3843 3923 3891
3827 3907 4003
