其他预设/【236】赛博朋克风调色预设/【后期菌】视频调色预设/3DL/Sunset 06_S.3dl
# LUT by SparkleStock. Enhanced with VOXCOLOR algorithms.
0 256 512 768 1023
32 512 224
48 528 464
112 544 817
288 560 1409
464 544 2162
80 769 432
96 785 689
240 801 1137
416 833 1745
560 865 2322
144 1329 705
208 1425 961
320 1537 1345
544 1697 1857
689 1809 2242
544 2498 1121
721 2594 1281
1121 2786 1489
1425 2946 1729
1697 3122 1937
2001 3346 1569
2322 3459 1681
2562 3507 1777
2754 3635 1889
2882 3683 1953
496 496 320
672 464 576
897 464 913
929 464 1553
833 496 2226
1665 608 464
1921 624 817
929 801 1345
849 833 1761
1057 881 2274
1905 1409 705
1201 1777 1057
1345 1953 1457
1617 2082 1777
1953 2258 2162
2994 2674 1297
2418 2946 1473
2514 3106 1649
2658 3218 1777
2802 3314 1905
3234 3507 1713
3234 3651 1809
3186 3747 1937
3266 3795 1985
3459 3859 2066
1857 464 464
2194 400 785
2610 432 1217
2930 464 1713
3122 480 2274
2786 721 528
2722 785 929
2930 753 1489
3362 592 1537
3074 689 2066
2738 1841 769
2722 1873 1105
2914 1937 1665
2818 2498 1761
2866 2722 1969
3314 3106 1537
3218 3186 1553
3106 3394 1777
3154 3507 1873
3250 3603 1969
3539 3779 1905
3619 3827 1969
3651 3859 2033
3715 3923 2210
3779 3939 2386
3282 464 689
3394 448 913
3555 480 1265
3667 496 1649
3763 496 2066
3507 801 721
3427 833 1009
3523 785 1393
3779 705 1361
3811 769 1633
3378 2258 1057
3298 2210 1217
3314 2210 1777
3475 2562 2017
3555 2930 1905
3523 3459 1745
3427 3410 1617
3362 3378 1857
3459 3555 2210
3619 3795 2066
3763 3891 2066
3779 3939 2178
3795 3955 2370
3891 3955 2722
3907 3939 3074
3795 512 833
3875 512 993
3907 528 1249
3955 544 1569
3939 560 1873
3795 1201 1089
3923 1009 1201
3907 1217 1457
3859 1521 1601
3859 1825 1761
3651 2834 1489
3731 2690 1409
3811 2514 1809
3795 2802 2178
3715 3330 1921
3683 3715 1905
3795 3539 1665
3875 3443 1985
3891 3523 2466
3875 3859 2482
3875 3955 2514
3923 3939 2786
3955 4003 2994
4003 4003 3475
3987 3987 3875
