其他预设/【236】赛博朋克风调色预设/【后期菌】视频调色预设/3DL/Sunset 08.3dl
# LUT by SparkleStock. Enhanced with VOXCOLOR algorithms.
0 64 128 192 256 320 384 448 512 576 640 704 768 832 896 960 1023
48 48 96
96 64 208
96 48 272
96 64 384
64 80 512
64 112 705
64 128 897
80 144 1121
96 176 1361
96 208 1617
80 224 1793
80 288 2001
80 304 2210
64 288 2354
96 336 2530
96 352 2658
112 384 2786
112 160 192
80 208 272
80 176 384
80 176 480
80 208 656
64 256 833
80 272 1009
112 336 1265
112 384 1521
112 384 1745
128 448 1937
112 416 2082
112 464 2306
128 480 2434
128 480 2594
128 512 2722
128 528 2850
144 288 272
112 288 368
80 336 480
128 384 656
128 416 817
112 416 993
144 480 1265
160 512 1473
144 544 1681
144 544 1873
160 592 2082
176 624 2242
192 640 2402
176 689 2578
176 672 2690
208 721 2850
208 753 2914
176 464 368
160 464 480
160 512 640
160 544 769
160 624 977
176 689 1217
192 705 1441
208 753 1649
224 753 1873
272 801 2082
272 801 2210
288 833 2402
304 849 2530
304 865 2674
304 881 2754
336 913 2898
336 929 2962
208 672 480
256 705 640
256 705 753
240 801 929
256 833 1121
304 913 1377
304 913 1585
352 961 1825
400 993 2033
432 1025 2210
464 1041 2370
448 1073 2482
480 1073 2642
496 1105 2754
512 1137 2882
496 1137 2930
528 1137 2994
288 913 656
320 945 817
400 1009 977
416 1057 1153
448 1121 1377
464 1137 1553
512 1185 1777
528 1217 1937
576 1313 2162
576 1297 2338
560 1265 2418
624 1329 2578
672 1345 2674
705 1361 2802
721 1361 2882
769 1409 2978
753 1361 3058
464 1217 817
480 1281 1009
528 1313 1185
544 1361 1329
592 1393 1537
624 1425 1697
721 1537 1905
721 1537 2098
753 1569 2242
769 1585 2402
785 1617 2530
849 1633 2642
881 1649 2722
881 1601 2802
929 1649 2914
961 1697 3010
1041 1713 3106
640 1473 945
721 1617 1169
753 1649 1377
785 1697 1537
865 1777 1649
881 1793 1841
913 1825 2001
961 1841 2178
1025 1889 2322
1041 1873 2434
1057 1921 2530
1137 1985 2674
1153 1985 2754
1169 1985 2866
1201 2066 2946
1265 2082 3042
1281 2082 3090
849 1825 1105
897 1873 1265
993 1969 1425
1041 2033 1601
1057 2050 1729
1137 2114 1905
1153 2114 2050
1233 2194 2226
1233 2210 2354
1329 2258 2466
1361 2322 2578
1393 2306 2690
1457 2386 2802
1489 2386 2866
1473 2386 2946
1553 2402 3010
1569 2402 3058
1057 2146 1153
1057 2178 1345
1169 2258 1457
1201 2322 1617
1329 2370 1761
1345 2386 1937
1361 2466 2066
1441 2498 2178
1489 2546 2338
1489 2546 2466
1537 2562 2546
1617 2610 2658
1681 2626 2738
1665 2626 2834
1777 2674 2898
1745 2658 2946
1825 2690 3010
1201 2418 1217
1233 2482 1345
1345 2546 1489
1409 2562 1649
1457 2594 1729
1489 2642 1873
1553 2658 2001
1633 2690 2130
1665 2706 2290
1745 2754 2370
1777 2802 2482
1809 2818 2610
1889 2850 2674
1889 2834 2690
1969 2882 2802
2001 2898 2834
2066 2914 2914
1393 2658 1217
1409 2690 1361
1489 2706 1489
1569 2754 1569
1601 2754 1665
1697 2834 1809
1793 2850 1905
1873 2882 2001
1905 2898 2130
1937 2898 2242
2001 2946 2338
2082 2962 2402
2082 2962 2482
2178 2994 2578
2210 3010 2626
2210 3042 2690
2242 3074 2754
1617 2850 1249
1697 2866 1329
1761 2898 1441
1777 2914 1521
1857 2930 1601
1937 2978 1697
1953 2978 1777
1985 2994 1841
2114 3058 1921
2146 3058 1985
2162 3106 2130
2226 3122 2194
2306 3154 2226
2338 3154 2338
2338 3170 2370
2386 3186 2434
2418 3234 2450
1793 2978 1217
1937 3042 1313
1921 3042 1377
1985 3074 1441
2098 3090 1537
2130 3138 1585
2162 3122 1665
2210 3154 1729
2290 3202 1809
2242 3186 1873
2290 3218 1937
2370 3250 1985
2386 3250 2050
2450 3282 2050
2450 3314 2130
2546 3330 2162
2546 3330 2194
2098 3170 1169
2146 3170 1233
2178 3186 1281
2210 3202 1329
2258 3218 1409
2306 3250 1425
2370 3282 1505
2386 3298 1553
2418 3330 1569
2450 3346 1681
2482 3346 1713
2562 3394 1729
2610 3410 1793
2610 3427 1809
2658 3443 1825
2690 3459 1873
2674 3459 1905
2290 3314 1105
2306 3314 1121
2386 3330 1169
2418 3362 1217
2466 3394 1265
2498 3410 1297
2498 3394 1329
2578 3427 1377
2594 3443 1425
2610 3459 1457
2642 3459 1489
2690 3491 1521
2722 3539 1553
2738 3555 1569
2754 3571 1601
2802 3571 1617
2818 3571 1649
2402 3394 993
2482 3410 1041
2530 3459 1105
2562 3459 1121
2594 3475 1137
2594 3491 1153
2610 3475 1201
2690 3539 1217
2722 3555 1233
2722 3539 1265
2802 3587 1329
2818 3603 1361
2850 3635 1361
2850 3619 1377
2898 3667 1393
2898 3635 1409
2946 3667 1441
176 48 144
192 48 224
240 48 320
256 48 432
256 48 544
256 80 769
272 80 913
272 96 1137
272 112 1425
192 208 1745
192 256 1953
176 272 2114
144 272 2290
144 320 2450
144 336 2594
144 384 2690
160 400 2850
288 112 224
304 112 288
384 128 448
352 128 576
272 160 737
240 176 913
176 304 1233
176 352 1457
176 384 1681
176 416 1857
176 416 2050
208 448 2226
192 480 2386
192 496 2562
176 512 2658
224 528 2802
208 544 2882
384 240 320
400 224 384
384 256 544
368 272 721
320 336 897
320 352 1073
272 480 1393
224 544 1617
272 576 1825
272 608 2033
304 624 2178
288 640 2322
304 656 2466
336 705 2626
272 689 2722
352 737 2882
336 705 2946
464 352 400
448 400 528
432 448 672
400 480 865
336 544 1041
368 592 1297
384 737 1601
368 785 1793
384 785 1953
432 833 2162
432 833 2306
432 849 2434
448 865 2594
480 897 2706
496 913 2802
480 929 2914
480 929 2978
544 528 496
416 689 672
400 705 817
416 833 1057
432 897 1217
480 929 1521
528 977 1713
512 1009 1889
576 1057 2114
560 1025 2242
608 1089 2434
608 1121 2546
608 1089 2642
640 1121 2754
705 1169 2882
689 1137 2914
705 1185 3010
672 769 640
528 993 897
528 993 1009
576 1057 1217
544 1137 1409
608 1217 1585
705 1297 1857
689 1281 2066
705 1313 2210
753 1361 2370
785 1377 2482
817 1361 2610
849 1377 2706
897 1441 2818
913 1457 2914
1009 1457 3010
993 1489 3058
865 1217 689
672 1313 1025
705 1361 1201
769 1425 1393
849 1521 1617
897 1569 1793
913 1617 1937
929 1633 2114
961 1681 2258
1041 1697 2418
1105 1745 2578
1025 1681 2626
1137 1761 2754
1185 1761 2882
1137 1777 2930
1233 1793 3010
1297 1841 3090
993 1553 689
913 1681 1201
929 1713 1393
977 1777 1537
1089 1841 1697
1105 1873 1873
1201 1937 2050
1201 1937 2162
1265 1985 2306
1281 2001 2450
1377 2082 2578
1361 2082 2658
1393 2098 2786
1505 2162 2850
1441 2114 2930
1553 2194 3058
1537 2194 3106
1249 1889 785
1185 2033 1345
1233 2082 1457
1249 2114 1569
1329 2162 1745
1361 2226 1905
1441 2226 2050
1409 2306 2178
1505 2322 2338
1617 2402 2466
1585 2402 2546
1585 2418 2674
1617 2434 2786
1761 2498 2850
1761 2546 2946
1777 2530 2978
1841 2562 3058
1761 2290 753
1313 2338 1345
1441 2386 1505
1441 2386 1633
1505 2450 1777
1569 2530 1905
1633 2546 2050
1713 2578 2146
1729 2594 2306
1777 2642 2418
1793 2642 2530
1857 2674 2610
1889 2674 2690
1969 2722 2754
2001 2738 2834
2033 2738 2898
2130 2802 2978
1985 2578 865
1457 2578 1329
1569 2594 1457
1585 2658 1601
1665 2658 1713
1697 2690 1825
1809 2738 1953
1841 2738 2066
1921 2818 2210
1937 2802 2322
1953 2818 2418
2098 2882 2498
2130 2882 2562
2162 2914 2674
2194 2930 2722
2290 2946 2754
2370 2978 2866
2098 2738 849
1793 2786 1297
1793 2818 1361
1825 2834 1521
1889 2850 1617
1969 2882 1745
1985 2882 1809
2066 2914 1905
2098 2930 2001
2194 2978 2114
2210 2962 2210
2258 3010 2306
2338 3058 2402
2354 3058 2466
2370 3090 2546
2418 3106 2578
2450 3138 2642
2338 2978 833
2098 2946 1201
2146 2946 1281
2130 2962 1409
2162 3010 1553
2162 2994 1633
2242 3042 1697
2306 3058 1761
2306 3106 1857
2402 3122 1905
2418 3154 1985
2418 3138 2050
2450 3154 2098
2498 3186 2162
2498 3218 2210
2546 3234 2290
2562 3282 2306
2530 3122 881
2242 3090 1169
2242 3122 1233
2354 3154 1345
2354 3170 1489
2338 3170 1521
2434 3202 1585
2434 3218 1649
2434 3218 1729
2498 3234 1745
2546 3250 1809
2594 3298 1857
2594 3330 1857
2626 3346 1905
2642 3362 1985
2690 3394 2001
2706 3394 2033
2642 3234 833
2530 3234 945
2498 3250 1041
2498 3298 1137
2466 3314 1345
2530 3346 1377
2498 3346 1425
2562 3362 1473
2594 3362 1505
2642 3394 1553
2658 3394 1585
2690 3427 1585
2706 3443 1633
2722 3459 1681
2754 3475 1713
2834 3539 1745
2818 3539 1793
2738 3346 769
2674 3378 881
2706 3394 897
2674 3394 993
2610 3410 1153
2642 3443 1233
2642 3443 1249
2690 3459 1265
2722 3491 1313
2754 3507 1345
2786 3539 1393
2818 3555 1409
2850 3587 1441
2834 3571 1473
2882 3603 1505
2882 3603 1505
2914 3635 1553
2834 3459 721
2754 3475 817
2818 3491 881
2754 3491 913
2754 3555 1057
2738 3539 1105
2818 3571 1137
2866 3571 1153
2866 3587 1185
2898 3603 1249
2898 3619 1249
2914 3619 1265
2946 3651 1297
2962 3635 1297
2962 3651 1329
3042 3699 1345
3058 3683 1361
304 48 176
336 48 272
384 48 384
384 48 480
448 48 672
464 48 865
512 64 1041
592 96 1297
608 96 1489
480 160 1761
320 224 1953
352 272 2194
272 320 2354
240 336 2498
240 352 2658
240 416 2786
240 432 2882
464 128 256
496 112 384
560 112 496
528 112 656
528 160 817
592 176 1041
480 224 1217
432 256 1441
496 288 1761
480 288 1889
384 400 2114
368 416 2242
352 448 2402
288 480 2578
320 528 2706
336 544 2850
352 560 2930
737 192 352
801 160 480
881 192 640
881 192 817
753 240 993
705 272 1137
576 384 1409
432 496 1681
400 576 1905
400 576 2033
432 656 2242
448 640 2370
432 656 2498
480 689 2658
464 705 2754
480 737 2882
480 753 2962
849 288 464
897 368 608
961 368 785
913 384 929
817 464 1121
721 496 1265
705 576 1521
576 753 1825
560 785 2001
608 833 2226
560 817 2354
592 897 2482
576 881 2594
656 913 2722
689 929 2834
656 929 2914
737 993 2994
1121 528 608
881 640 753
833 672 929
801 705 1089
785 801 1329
737 913 1569
769 945 1777
737 993 1969
721 1105 2162
737 1105 2322
769 1121 2450
817 1153 2594
785 1153 2674
833 1185 2786
913 1217 2898
913 1217 2962
977 1249 3074
1361 769 737
1025 849 881
817 1009 1089
849 1137 1313
849 1297 1569
897 1361 1745
913 1377 1905
897 1409 2082
913 1393 2242
929 1393 2402
1041 1457 2530
1025 1457 2626
1057 1473 2738
1137 1569 2866
1137 1489 2946
1265 1569 3010
1297 1569 3090
1489 1153 753
1233 1265 1105
1009 1441 1313
1121 1489 1489
1105 1569 1633
1137 1681 1809
1137 1665 1953
1233 1761 2178
1281 1793 2354
1281 1793 2434
1297 1793 2578
1361 1809 2674
1361 1857 2786
1457 1889 2882
1441 1873 2962
1425 1889 3042
1569 1969 3122
1681 1665 705
1441 1697 1041
1201 1809 1425
1281 1841 1553
1361 1937 1713
1409 2066 1921
1441 2050 2066
1489 2082 2194
1537 2162 2370
1617 2162 2482
1585 2178 2578
1633 2194 2690
1729 2258 2754
1713 2306 2882
1777 2306 2946
1793 2322 3042
1793 2322 3074
1841 2082 769
1649 2130 1073
1473 2226 1521
1489 2242 1633
1553 2290 1793
1665 2338 1937
1617 2370 2066
1713 2434 2194
1761 2450 2354
1777 2466 2482
1873 2498 2562
1857 2530 2658
1953 2610 2738
1921 2578 2818
2001 2594 2866
2098 2626 2962
2082 2610 3010
2306 2386 737
1841 2450 1105
1585 2466 1521
1713 2546 1617
1745 2562 1777
1825 2610 1873
1793 2578 2033
1905 2642 2162
1889 2642 2290
1953 2674 2370
2050 2706 2466
2066 2738 2562
2146 2786 2626
2162 2802 2706
2290 2850 2754
2242 2834 2850
2354 2882 2898
2578 2610 753
2226 2674 993
1745 2674 1457
1793 2706 1569
1825 2738 1681
1937 2754 1793
2033 2818 1953
2001 2802 2001
2114 2818 2130
2210 2898 2258
2194 2882 2354
2258 2898 2418
2370 2930 2498
2386 2978 2546
2418 2978 2642
2434 2978 2706
2482 3042 2722
2738 2866 833
2434 2866 961
2098 2882 1393
2098 2898 1537
2162 2898 1601
2178 2946 1713
2226 2962 1761
2258 2962 1873
2370 2994 1953
2402 3058 2050
2418 3058 2162
2450 3090 2226
2482 3090 2290
2482 3122 2370
2482 3138 2402
2498 3154 2466
2578 3186 2498
2882 2994 833
2674 3042 929
2418 3058 1233
2386 3058 1361
2402 3074 1505
2370 3074 1601
2498 3138 1633
2482 3154 1697
2530 3154 1793
2562 3154 1825
2578 3202 1873
2610 3218 1953
2642 3234 2033
2674 3250 2098
2674 3298 2130
2706 3314 2162
2706 3330 2194
2962 3154 801
2722 3154 897
2562 3186 1105
2562 3202 1201
2546 3234 1361
2530 3234 1457
2562 3298 1521
2562 3282 1569
2658 3314 1617
2690 3346 1665
2706 3346 1729
2738 3362 1761
2738 3394 1793
2754 3410 1841
2786 3410 1841
2850 3443 1889
2834 3459 1889
3010 3298 721
2930 3314 833
2754 3330 945
2706 3346 1057
2642 3362 1185
2626 3394 1265
2674 3410 1361
2690 3410 1393
2706 3410 1441
2786 3459 1457
2802 3459 1505
2802 3459 1537
2850 3491 1569
2866 3507 1601
2882 3555 1617
2898 3571 1649
2930 3571 1665
3010 3410 656
3010 3427 737
2914 3427 801
2898 3443 865
2818 3475 1025
2786 3491 1137
2818 3539 1185
2818 3507 1217
2882 3555 1249
2866 3555 1281
2914 3587 1313
2930 3587 1345
2930 3587 1361
2962 3619 1393
2994 3635 1409
2978 3635 1425
3042 3651 1457
3090 3507 624
3058 3507 689
2978 3539 721
2994 3571 785
2946 3587 929
2882 3571 1041
2946 3603 1089
2930 3619 1105
2994 3635 1137
2978 3635 1121
2994 3651 1169
3010 3651 1185
3058 3683 1201
3106 3699 1217
3122 3715 1233
3154 3731 1249
3138 3715 1265
448 48 208
496 48 336
560 64 464
624 64 608
705 64 785
753 64 961
897 112 1233
929 96 1361
993 112 1601
913 144 1841
753 208 2066
656 224 2226
576 240 2338
544 272 2530
400 320 2626
384 352 2738
384 384 2914
721 144 320
785 128 448
833 112 576
913 112 769
913 176 961
977 192 1137
977 192 1361
1025 256 1649
1041 256 1825
993 272 2050
801 320 2162
624 448 2322
608 480 2466
480 480 2578
512 512 2722
480 528 2850
