其他预设/【236】赛博朋克风调色预设/【后期菌】视频调色预设/3DL/Sunset 05_S.3dl
# LUT by SparkleStock. Enhanced with VOXCOLOR algorithms.
0 64 128 192 256 320 384 448 512 576 640 704 768 832 896 960 1023
624 528 416
656 528 448
624 528 448
624 528 480
624 528 480
656 544 512
656 544 560
656 560 608
656 576 705
689 608 833
705 624 945
753 689 1121
801 753 1361
849 785 1585
897 833 1809
945 881 1969
993 929 2130
656 544 432
624 544 448
624 544 464
624 544 480
656 560 512
656 560 544
656 576 576
672 592 672
689 624 785
721 656 897
769 721 1089
785 737 1233
833 801 1489
881 849 1681
929 881 1841
977 929 2017
1009 961 2178
656 560 432
624 560 448
656 576 464
672 592 512
672 608 544
656 592 560
672 624 689
705 656 753
705 672 833
737 705 993
769 753 1153
817 801 1345
865 849 1537
929 897 1761
961 945 1921
1009 993 2082
1025 1025 2194
672 608 448
656 592 464
672 624 496
689 624 528
689 656 576
689 672 656
705 689 737
705 721 801
737 737 897
785 801 1073
817 833 1217
865 881 1441
897 945 1617
961 977 1809
977 1009 1937
1025 1073 2114
1041 1105 2210
672 672 464
689 689 512
689 705 528
689 705 560
689 705 608
689 769 721
705 753 769
737 801 865
769 833 1009
817 865 1153
849 945 1329
881 977 1457
945 1025 1633
977 1057 1793
1009 1121 1953
993 1137 2066
1041 1201 2226
689 737 512
705 753 544
721 785 592
737 801 624
721 817 705
721 849 753
737 881 865
753 929 961
801 961 1089
833 993 1233
849 1009 1345
897 1073 1505
945 1121 1617
977 1153 1761
1009 1217 1873
1057 1281 2017
1073 1297 2130
705 833 528
753 849 592
753 881 624
737 929 672
769 929 737
753 961 785
753 1025 929
769 1073 1025
801 1089 1105
833 1105 1249
865 1153 1361
897 1201 1489
961 1281 1617
977 1281 1713
1025 1345 1857
1057 1393 2001
1073 1441 2146
769 929 592
785 1025 656
801 1009 689
817 1057 737
833 1089 769
833 1121 833
817 1153 897
817 1217 1009
817 1265 1121
833 1297 1249
865 1345 1393
929 1409 1521
961 1441 1633
993 1489 1729
1041 1569 1841
1073 1585 1953
1089 1617 2146
817 1105 656
849 1121 705
881 1201 753
881 1249 801
865 1249 817
881 1329 897
881 1329 945
897 1409 1041
881 1425 1105
897 1521 1233
929 1601 1377
961 1601 1521
993 1713 1633
1025 1761 1729
1041 1793 1873
1089 1825 1985
1121 1841 2017
929 1281 705
945 1297 737
977 1393 801
961 1441 833
1009 1505 881
977 1553 945
977 1649 1025
993 1665 1073
993 1697 1153
993 1761 1265
993 1793 1329
1025 1905 1505
1025 1953 1617
1041 1953 1729
1153 2017 1841
1121 2050 1921
1217 2130 2017
1025 1537 769
1057 1601 801
1089 1649 865
1089 1697 929
1089 1793 961
1089 1841 1009
1121 1889 1073
1105 1937 1137
1121 1953 1233
1201 2050 1313
1201 2098 1409
1233 2146 1537
1281 2194 1649
1281 2194 1633
1345 2258 1793
1409 2290 1873
1425 2322 1969
1121 1793 801
1153 1841 849
1217 1905 897
1233 1969 961
1249 2017 1009
1281 2082 1105
1313 2130 1217
1377 2210 1297
1489 2226 1361
1505 2242 1425
1553 2306 1521
1601 2354 1585
1585 2386 1681
1729 2434 1777
1777 2482 1873
1793 2498 1905
1809 2546 2017
1313 2050 881
1345 2098 897
1409 2146 961
1425 2178 993
1441 2242 1041
1537 2290 1121
1553 2290 1169
1585 2322 1249
1713 2402 1313
1761 2402 1377
1825 2498 1505
1857 2546 1601
1985 2546 1633
2001 2594 1713
2050 2610 1761
2098 2658 1841
2178 2738 1889
1457 2258 897
1601 2322 945
1569 2338 961
1633 2370 1009
1713 2402 1041
1809 2450 1089
1793 2450 1137
1889 2498 1201
1937 2546 1265
1905 2578 1313
1985 2610 1377
2082 2674 1489
2146 2658 1457
2242 2706 1505
2242 2754 1585
2322 2786 1585
2290 2802 1681
1793 2482 945
1857 2498 961
1889 2514 977
1953 2546 1025
1985 2578 1057
2098 2594 1057
2178 2626 1105
2146 2658 1153
2242 2706 1201
2274 2770 1265
2290 2786 1297
2434 2818 1297
2418 2850 1377
2466 2850 1377
2482 2898 1425
2530 2930 1505
2546 2914 1489
2146 2626 993
2114 2658 977
2258 2674 1009
2290 2706 1025
2338 2754 1057
2386 2786 1073
2402 2786 1089
2434 2834 1137
2450 2866 1169
2546 2866 1153
2562 2898 1201
2626 2946 1217
2658 2978 1249
2674 3010 1265
2706 3026 1265
2690 3042 1345
2706 3058 1361
2290 2754 993
2370 2786 1009
2434 2818 1041
2466 2834 1057
2514 2850 1041
2530 2882 1057
2530 2882 1073
2626 2946 1105
2642 2962 1105
2674 2978 1105
2722 3042 1137
2754 3042 1153
2786 3090 1169
2786 3074 1169
2818 3122 1201
2818 3106 1201
2866 3170 1217
656 544 448
624 528 448
656 528 480
672 528 480
656 528 480
672 544 528
689 544 576
672 544 608
689 576 737
705 624 849
737 672 1009
769 705 1169
817 769 1393
865 801 1617
897 849 1825
945 881 1953
993 945 2146
672 544 448
656 528 464
689 544 480
689 544 496
672 560 512
672 560 560
689 592 656
689 608 737
705 656 817
721 672 961
769 721 1105
817 769 1313
849 817 1505
897 865 1729
945 881 1889
977 929 2066
1009 961 2194
672 576 464
672 560 480
689 576 496
689 592 528
705 608 560
705 592 592
705 624 737
705 672 801
737 721 929
769 753 1073
817 801 1233
833 833 1377
881 881 1601
945 945 1793
977 961 1921
1025 1025 2114
1041 1041 2226
705 592 464
705 592 496
705 624 528
705 624 560
705 656 592
721 672 672
737 721 769
753 753 849
753 769 977
801 833 1137
849 881 1297
881 897 1441
929 977 1649
977 1009 1809
1009 1057 1953
1025 1089 2130
1057 1121 2242
721 624 480
705 689 512
705 689 544
705 721 592
721 753 656
721 769 753
753 817 817
753 833 945
801 881 1073
817 897 1169
881 977 1377
897 1009 1505
945 1025 1633
993 1073 1793
1025 1137 1937
1025 1153 2082
1041 1217 2210
721 705 496
721 769 560
721 769 576
737 801 656
737 817 705
753 865 785
769 929 897
785 945 1009
817 977 1121
849 1041 1249
881 1073 1361
929 1089 1521
961 1137 1617
1009 1201 1729
1041 1265 1905
1089 1313 2001
1089 1329 2130
753 849 512
753 865 592
769 897 624
769 961 705
817 977 769
817 1025 833
801 1073 945
785 1089 1009
833 1121 1105
865 1153 1233
929 1233 1377
945 1233 1457
1009 1313 1601
1041 1345 1713
1041 1361 1809
1105 1425 1953
1121 1505 2114
817 961 544
801 1041 656
833 1057 721
849 1073 737
881 1137 801
865 1153 865
881 1233 945
865 1233 993
865 1313 1121
881 1345 1249
961 1425 1409
961 1441 1505
993 1505 1649
1073 1569 1777
1089 1569 1857
1137 1681 1985
1153 1697 2130
897 1105 576
945 1233 737
961 1249 769
945 1297 801
977 1345 865
961 1393 945
977 1409 961
961 1489 1057
977 1537 1137
1025 1617 1265
993 1633 1361
1009 1681 1505
1057 1729 1617
1137 1825 1761
1169 1921 1889
1217 1921 1969
1297 1953 2066
1217 1361 592
1025 1425 753
1073 1521 833
1041 1537 865
1089 1585 929
1121 1681 1009
1137 1729 1089
1169 1777 1137
1137 1809 1217
1201 1857 1329
1201 1905 1393
1249 1969 1553
1265 2001 1617
1329 2066 1761
1361 2098 1809
1393 2146 1873
1505 2210 1985
1441 1649 656
1121 1681 833
1201 1761 865
1233 1857 945
1233 1873 993
1265 1905 1073
1329 1969 1169
1329 2017 1265
1409 2098 1361
1441 2114 1409
1425 2146 1489
1553 2258 1633
1601 2290 1681
1665 2322 1777
1697 2338 1841
1809 2402 1937
1937 2450 2066
1633 1921 689
1361 1937 849
1377 1985 865
1425 2050 961
1425 2098 1009
1489 2194 1105
1505 2194 1169
1569 2242 1265
1665 2258 1329
1793 2338 1409
1793 2338 1505
1857 2418 1601
1921 2482 1713
2001 2482 1761
2017 2546 1889
2098 2562 1889
2130 2626 2050
2001 2194 737
1697 2194 865
1729 2210 865
1761 2226 929
1713 2306 1025
1761 2290 1057
1841 2338 1105
1905 2386 1153
1921 2434 1265
2082 2466 1297
2114 2530 1377
2098 2546 1489
2178 2562 1489
2242 2610 1537
2258 2658 1617
2290 2690 1681
2338 2722 1697
2242 2386 785
1969 2354 897
2001 2402 961
2178 2498 1009
2098 2514 1073
2098 2514 1089
2178 2578 1137
2194 2594 1153
2210 2610 1233
2242 2642 1249
2322 2674 1281
2354 2738 1377
2386 2754 1361
2450 2786 1409
2466 2802 1489
2530 2834 1521
2498 2866 1585
2370 2562 785
2322 2594 849
2306 2626 929
2322 2658 977
2290 2690 1041
2386 2722 1073
2386 2722 1073
2370 2770 1137
2434 2786 1153
2498 2834 1201
2498 2850 1233
2594 2882 1233
2562 2898 1281
2626 2914 1297
2594 2946 1377
2690 3026 1393
2738 3026 1393
2546 2706 817
2482 2770 865
2546 2770 897
2546 2786 945
2514 2786 1025
2546 2834 1073
2546 2834 1073
2546 2898 1105
2594 2946 1121
2690 2962 1121
2706 2994 1153
2738 3010 1169
2770 3042 1201
2770 3042 1217
2802 3058 1233
2770 3074 1265
2786 3122 1313
2642 2818 865
2626 2850 929
2674 2882 929
2658 2882 961
2690 2962 1025
2658 2946 1041
2722 3010 1073
2754 3026 1073
2770 3042 1073
2786 3058 1105
2802 3074 1105
2802 3074 1105
2834 3106 1121
2866 3122 1121
2866 3138 1137
2946 3186 1169
2930 3186 1153
656 528 448
672 528 464
689 544 480
689 528 480
705 544 512
705 544 528
721 544 576
721 544 656
721 544 737
721 608 865
737 656 1009
801 737 1265
849 785 1425
881 817 1665
945 865 1857
977 897 2017
1025 945 2162
689 544 448
689 544 480
705 560 496
705 544 512
721 576 544
721 576 576
721 592 656
705 592 737
737 656 865
737 672 977
785 737 1169
817 769 1329
865 833 1553
929 865 1761
977 929 1937
1009 961 2098
1057 1009 2242
737 576 464
737 576 496
753 592 528
753 576 544
753 576 560
737 592 608
737 624 737
737 689 849
753 737 961
769 753 1073
833 817 1281
865 865 1457
897 897 1633
977 977 1857
993 993 1969
1041 1041 2130
1057 1073 2258
769 592 480
785 624 528
817 624 560
801 624 592
785 656 672
769 656 705
753 689 785
769 769 897
785 801 1025
833 865 1169
865 897 1345
897 961 1505
945 977 1665
993 1025 1825
1025 1089 1985
1041 1105 2130
1089 1169 2258
929 656 528
785 689 560
769 689 576
769 721 608
769 753 689
769 785 769
785 817 881
817 849 993
817 897 1089
865 945 1249
897 993 1377
945 1025 1505
977 1057 1649
1009 1105 1793
1057 1201 1937
1057 1217 2114
1105 1281 2242
1025 721 576
833 721 560
769 801 608
785 849 689
801 929 785
801 961 881
801 977 945
801 1009 1041
849 1009 1121
881 1057 1249
945 1105 1361
961 1121 1489
993 1169 1601
1057 1265 1777
1073 1297 1889
1153 1345 1985
1201 1393 2130
1057 865 528
865 849 592
833 977 689
849 993 753
865 1057 833
865 1121 897
849 1089 945
881 1153 1057
897 1201 1153
929 1217 1249
961 1265 1361
1025 1313 1489
1057 1345 1617
1121 1425 1761
1137 1441 1857
1169 1521 1953
1233 1601 2130
1137 1041 528
961 1057 592
929 1105 737
897 1169 785
945 1217 849
961 1297 945
961 1297 977
977 1345 1057
977 1425 1201
1025 1489 1313
1009 1489 1425
1057 1521 1553
1137 1633 1697
1153 1665 1825
1249 1697 1889
1313 1777 2017
1281 1793 2114
1281 1265 544
1089 1281 656
1041 1345 801
1041 1409 849
1057 1489 929
1121 1537 993
1105 1521 1025
1137 1617 1137
1121 1649 1217
1153 1681 1313
1233 1761 1425
1233 1793 1537
1329 1905 1665
1281 1905 1729
1361 1953 1857
1457 2017 1953
1489 2050 2066
1697 1537 576
1297 1553 689
1153 1617 849
1217 1697 929
1265 1729 993
1297 1777 1073
1249 1825 1137
1377 1873 1233
1361 1905 1313
1393 1937 1377
1505 2050 1521
1489 2082 1617
1585 2146 1713
1617 2146 1809
1777 2258 1873
1697 2258 1937
1873 2322 2082
2050 1793 608
1777 1841 672
1313 1841 881
1361 1873 929
1361 1953 1025
1441 1985 1073
1553 2082 1217
1521 2098 1297
1633 2146 1345
1761 2242 1441
1761 2258 1537
1809 2290 1649
1921 2338 1761
2001 2402 1809
2017 2418 1905
2082 2466 1953
2130 2514 2001
2274 2098 608
2017 2066 689
1665 2114 897
1665 2178 977
1681 2210 1009
1713 2242 1089
1777 2290 1153
1825 2290 1233
1937 2338 1297
2001 2402 1361
2082 2434 1457
2130 2482 1553
2162 2514 1601
2210 2546 1713
2194 2578 1809
2242 2610 1841
2290 2690 1921
2434 2274 656
2322 2306 721
2146 2370 897
2114 2354 929
2050 2386 1025
2082 2386 1073
2210 2482 1105
2226 2530 1169
2226 2530 1233
2274 2546 1249
2322 2594 1313
2338 2674 1425
2386 2658 1409
2434 2706 1505
2450 2722 1537
2514 2770 1585
2546 2786 1617
2562 2482 672
2450 2482 753
2354 2546 881
2354 2546 929
2386 2610 993
2338 2610 1057
2370 2674 1105
2386 2674 1121
2482 2738 1153
2498 2786 1217
2546 2786 1249
2546 2818 1297
2578 2834 1313
2610 2866 1345
2626 2866 1361
2674 2930 1425
2674 2946 1489
2610 2626 689
2594 2674 737
2546 2738 865
2514 2754 929
2498 2770 993
2530 2786 1041
2562 2818 1089
2546 2850 1121
2562 2866 1137
2610 2914 1169
2642 2946 1217
2690 2930 1201
2690 2994 1249
2754 2994 1233
2754 3042 1313
2754 3042 1329
2818 3058 1297
2722 2770 737
2674 2802 753
2690 2802 833
2706 2834 881
2674 2866 993
2674 2914 1041
2722 2962 1057
2658 2978 1073
2738 3026 1105
2786 3026 1089
2802 3042 1121
2834 3058 1121
2834 3058 1137
2866 3106 1153
2898 3138 1169
2834 3122 1217
2866 3154 1249
2786 2898 785
2786 2914 785
2770 2898 817
2786 2962 865
2786 2994 961
2754 3010 1025
2818 3042 1025
2834 3058 1057
2866 3090 1057
2866 3090 1057
2898 3106 1073
2898 3122 1073
2930 3170 1105
2962 3186 1105
2994 3218 1121
3010 3250 1137
3010 3250 1137
672 528 448
689 544 480
721 560 496
721 560 512
753 560 544
753 560 560
769 560 624
785 560 689
801 560 801
785 592 929
801 672 1089
833 737 1281
865 769 1441
929 833 1697
945 865 1857
993 897 2017
1025 961 2210
721 560 464
737 560 480
737 560 496
753 576 528
769 560 576
785 560 656
769 576 705
801 592 801
817 608 897
849 672 1073
817 721 1201
865 801 1409
929 849 1633
945 865 1809
993 945 1953
1025 977 2114
