其他预设/【236】赛博朋克风调色预设/【后期菌】视频调色预设/3DL/Sunset 03.3dl
# LUT by SparkleStock. Enhanced with VOXCOLOR algorithms.
0 128 256 384 512 640 768 896 1023
32 160 288
64 288 480
80 400 705
128 560 1041
128 705 1553
176 929 2114
224 1153 2594
240 1297 2914
240 1425 3106
80 336 448
80 400 592
128 560 897
144 705 1281
160 913 1793
192 1137 2306
240 1297 2626
272 1441 2882
288 1553 3074
80 496 592
112 624 769
144 737 1025
160 913 1441
208 1153 1969
272 1377 2434
304 1537 2706
336 1665 2914
352 1761 3026
64 785 769
64 913 945
160 1041 1217
208 1249 1601
288 1441 2001
352 1617 2370
384 1793 2658
416 1905 2818
496 2050 2930
48 1217 929
64 1361 1105
64 1473 1281
64 1617 1569
128 1809 1953
288 2017 2290
448 2242 2578
544 2338 2754
689 2434 2850
32 1713 1025
64 1857 1217
160 1969 1377
256 2114 1585
464 2242 1857
801 2434 2162
1009 2546 2434
1233 2626 2594
1441 2706 2754
384 2178 1169
737 2290 1281
1041 2354 1425
1329 2482 1569
1649 2594 1761
1809 2690 1953
2017 2786 2114
2098 2818 2274
2306 2898 2434
1505 2594 1265
1665 2642 1345
1809 2706 1425
1985 2786 1505
2146 2834 1569
2274 2898 1665
2450 2962 1761
2530 3010 1825
2594 3026 1921
2050 2834 1265
2274 2914 1329
2386 2962 1345
2450 2978 1377
2642 3074 1425
2706 3122 1505
2802 3170 1537
2882 3218 1585
2914 3234 1617
80 240 400
160 352 608
176 432 817
176 592 1217
208 753 1681
208 1009 2242
272 1217 2674
272 1345 2946
288 1473 3138
320 320 544
416 368 689
304 528 1009
224 753 1441
224 1025 1969
272 1217 2450
288 1361 2690
320 1505 2930
352 1601 3106
640 512 705
368 624 897
320 785 1169
272 1009 1601
288 1249 2098
352 1441 2466
384 1585 2706
432 1729 2898
480 1841 3026
817 785 689
272 993 1073
320 1153 1297
336 1313 1601
464 1553 2001
496 1713 2322
640 1905 2610
769 2050 2786
961 2226 2930
721 1329 640
240 1537 1153
352 1649 1361
464 1793 1617
608 2001 1889
913 2162 2226
1089 2338 2514
1217 2434 2658
1505 2530 2818
1857 2162 801
640 2033 1217
897 2162 1377
1249 2306 1617
1441 2386 1793
1681 2514 2066
1969 2626 2306
2130 2706 2514
2274 2786 2626
2546 2674 993
1793 2562 1217
1857 2594 1393
2017 2690 1489
2162 2754 1633
2290 2834 1729
2450 2882 1857
2530 2930 1985
2610 2978 2130
2786 2946 1121
2466 2898 1153
2386 2882 1297
2514 2962 1425
2546 2978 1489
2674 3058 1537
2754 3090 1585
2818 3138 1681
2882 3170 1713
2946 3138 1217
2834 3106 1217
2834 3138 1265
2850 3170 1377
2914 3218 1409
2946 3234 1441
2994 3266 1473
3074 3298 1505
3090 3314 1505
288 240 464
352 304 608
480 368 833
592 448 1169
640 560 1617
512 929 2258
512 1153 2674
432 1345 2978
416 1473 3170
1057 496 689
1457 592 865
1713 656 1073
1729 672 1377
1537 672 1809
1057 817 2242
448 1425 2786
432 1553 2946
496 1665 3090
2322 849 624
2754 929 913
2786 945 1121
1953 929 1569
737 1249 2050
576 1505 2434
672 1665 2690
801 1793 2882
929 1921 3010
2594 1201 624
2546 1217 817
1937 1217 1249
1825 1345 1617
1233 1617 1937
1137 1809 2290
1377 2033 2546
1489 2178 2754
1601 2322 2882
2530 1937 769
2194 1953 849
1185 1889 1377
1457 2050 1633
1537 2194 1889
1697 2322 2162
1889 2450 2418
2066 2578 2594
2210 2642 2770
2962 2642 1009
2690 2642 993
1857 2466 1361
2017 2546 1505
2194 2642 1713
2338 2706 1873
2514 2802 2130
2610 2882 2290
2690 2930 2434
3154 2978 1121
2930 2914 1105
2498 2834 1281
2514 2866 1393
2578 2930 1521
2642 2946 1585
2754 3010 1697
2802 3058 1793
2882 3106 1873
3122 3122 1185
3074 3122 1201
2898 3090 1201
2834 3106 1345
2898 3138 1425
2930 3154 1457
2994 3218 1505
3026 3234 1569
3074 3250 1601
3154 3218 1249
3154 3250 1265
3138 3266 1281
3074 3266 1297
3074 3298 1393
3122 3330 1393
3138 3330 1409
3170 3378 1425
3250 3427 1441
1009 464 640
1393 560 817
1729 640 1025
1905 689 1281
2114 737 1601
2130 753 2001
2354 849 2434
2450 881 2674
1377 1009 2946
2562 817 689
2690 849 865
2914 945 1153
2962 993 1409
3106 1089 1777
2898 993 2178
2658 993 2482
2258 1009 2706
1793 1105 2866
3026 1025 785
3234 1041 993
3266 1089 1201
3378 1169 1473
3186 1217 1777
3106 1233 2098
2850 1297 2482
1617 1681 2802
1633 1937 2930
3170 1313 689
3314 1313 849
3491 1313 1169
3459 1409 1393
2802 1697 1745
2274 1985 2210
2017 2114 2498
2194 2290 2690
2258 2338 2818
3122 2290 849
3122 2242 817
3154 2194 977
2690 2354 1457
2786 2498 1665
2434 2530 1953
2562 2658 2290
2610 2738 2498
2690 2786 2658
3250 2834 1025
3282 2834 1009
3106 2850 1057
2578 2770 1473
2610 2818 1601
2754 2882 1729
2786 2930 1873
2866 2978 2001
2914 3026 2178
3282 3074 1169
3282 3106 1185
3186 3106 1201
2882 3058 1345
2930 3090 1425
2914 3106 1505
2946 3138 1585
3010 3186 1681
3026 3202 1729
3218 3202 1217
3218 3202 1217
3154 3218 1233
3122 3250 1281
3090 3250 1329
3090 3250 1409
3122 3282 1441
3154 3314 1489
3170 3330 1489
3250 3298 1297
3234 3314 1313
3250 3330 1329
3250 3394 1361
3202 3378 1345
3234 3410 1377
3298 3459 1409
3314 3459 1425
3346 3475 1489
2498 753 640
2690 801 833
2834 865 1073
2930 945 1377
3026 1025 1729
3122 1041 2146
3122 1025 2466
3154 1041 2706
3202 1073 2914
3154 961 849
3234 993 993
3298 1025 1185
3378 1089 1457
3443 1185 1777
3491 1217 2130
3491 1201 2418
3491 1201 2658
3475 1217 2850
3346 1105 849
3507 1153 1089
3539 1201 1217
3571 1233 1457
3619 1313 1745
3619 1361 1985
3523 1457 2370
3378 1489 2642
3170 1601 2834
3394 1425 705
3507 1441 881
3651 1441 1201
3571 1505 1313
3587 1601 1457
3523 1777 1825
3427 1937 2178
3330 2258 2498
2866 2562 2770
3282 2482 833
3282 2450 785
3475 2306 753
3571 2162 1121
3507 2434 1457
3202 2690 1793
2994 2866 2050
2930 2914 2274
2994 2962 2482
3394 2930 1041
3346 2946 1041
3346 2978 1073
3346 3010 1121
3122 3026 1441
3138 3090 1537
3026 3074 1681
3090 3122 1793
3090 3138 1889
3330 3170 1201
3298 3154 1185
3298 3186 1201
3234 3170 1217
3122 3202 1377
3074 3186 1457
3122 3234 1505
3170 3266 1553
3186 3282 1585
3282 3266 1265
3266 3266 1265
3282 3298 1297
3282 3298 1297
3234 3330 1345
3202 3330 1377
3234 3394 1393
3266 3410 1409
3282 3410 1425
3298 3394 1345
3314 3410 1361
3330 3427 1361
3394 3475 1393
3378 3459 1377
3346 3459 1393
3410 3491 1569
3410 3491 1713
3427 3539 2001
3138 897 801
3218 929 929
3298 977 1137
3378 1057 1393
3459 1153 1793
3475 1185 2162
3475 1169 2482
3491 1169 2690
3539 1185 2882
3443 1025 929
3523 1073 1089
3555 1105 1233
3571 1137 1441
3603 1217 1713
3651 1281 1969
3635 1297 2306
3651 1313 2610
3667 1329 2786
3539 1217 865
3619 1217 1073
3651 1249 1217
3699 1313 1425
3699 1361 1617
3715 1457 1857
3731 1505 2162
3715 1569 2386
3699 1665 2610
3523 1617 689
3603 1617 833
3699 1601 1153
3667 1649 1281
3699 1809 1425
3651 1889 1537
3635 2033 1729
3539 2290 2017
3459 2466 2306
3410 2642 865
3443 2674 865
3507 2546 801
3587 2434 993
3603 2546 1249
3667 2706 1441
3587 2866 1649
3539 2994 1841
3459 3106 2033
3459 3090 1121
3427 3090 1137
3410 3106 1137
3475 3122 1137
3459 3154 1169
3378 3186 1409
3186 3170 1505
3154 3186 1633
3186 3234 1713
3410 3266 1233
3346 3234 1217
3346 3250 1233
3346 3266 1249
3282 3266 1249
3234 3266 1345
3234 3298 1377
3250 3330 1457
3250 3346 1473
3330 3314 1297
3330 3330 1313
3346 3378 1329
3346 3394 1329
3330 3410 1345
3330 3427 1345
3330 3443 1377
3394 3475 1441
3394 3475 1521
3378 3443 1361
3410 3459 1393
3427 3491 1393
3443 3507 1409
3443 3523 1441
3459 3523 1585
3459 3539 1969
3475 3571 2466
3491 3587 2706
3427 993 881
3475 993 977
3507 1041 1169
3555 1105 1441
3619 1201 1745
3651 1249 2066
3667 1265 2434
3651 1233 2642
3667 1217 2834
3619 1105 961
3651 1121 1089
3699 1169 1217
3715 1217 1441
3715 1249 1681
3715 1329 1937
3731 1393 2194
3747 1425 2498
3731 1441 2706
3651 1281 881
3747 1329 1105
3731 1345 1201
3731 1393 1361
3731 1473 1553
3731 1521 1777
3763 1649 2017
3747 1761 2258
3763 1857 2482
3619 1793 672
3667 1825 769
3731 1825 1089
3731 1937 1217
3699 2050 1345
3651 2194 1473
3651 2354 1585
3651 2482 1793
3667 2642 1985
3523 2818 929
3507 2898 977
3555 2834 929
3603 2770 1041
3603 2802 1201
3635 2962 1345
3651 2994 1489
3651 3106 1617
3587 3186 1713
3475 3170 1169
3459 3186 1185
3443 3202 1185
3459 3218 1185
3443 3218 1185
3459 3234 1297
3459 3266 1345
3410 3282 1409
3394 3314 1489
3443 3298 1281
3410 3298 1281
3378 3282 1249
3330 3282 1249
3378 3314 1265
3330 3330 1281
3346 3378 1329
3298 3394 1361
3378 3443 1425
3378 3394 1329
3394 3410 1345
3394 3427 1345
3410 3443 1361
3410 3443 1345
3410 3459 1361
3427 3491 1489
3459 3523 1729
3459 3539 2001
3443 3491 1409
3443 3507 1409
3459 3539 1441
3475 3539 1569
3475 3539 1857
3491 3571 2290
3507 3587 2706
3523 3603 2994
3555 3619 3218
3603 1057 945
3619 1057 1057
3667 1105 1233
3699 1137 1473
3731 1201 1713
3763 1281 2001
3795 1345 2418
3795 1345 2610
3779 1329 2802
3715 1137 977
3747 1185 1121
3747 1201 1217
3763 1249 1409
3779 1313 1617
3779 1361 1825
3811 1473 2130
3811 1537 2450
3811 1601 2626
3715 1441 769
3779 1409 1073
3795 1489 1217
3763 1521 1329
3779 1649 1489
3763 1697 1633
3747 1857 1761
3747 2017 1953
3699 2210 2130
3715 2146 640
3715 2130 689
3715 2146 865
3715 2210 1105
3715 2370 1217
3715 2530 1377
3715 2610 1537
3747 2786 1713
3731 2866 1841
3603 3074 1089
3555 3090 1105
3571 3074 1073
3619 2978 1089
3587 3010 1201
3619 3122 1313
3603 3138 1377
3619 3218 1489
3619 3282 1585
3523 3282 1233
3491 3266 1217
3427 3250 1217
3443 3266 1217
3427 3282 1217
3475 3298 1249
3475 3330 1313
3491 3346 1345
3475 3410 1425
3459 3330 1313
3410 3330 1297
3378 3330 1281
3378 3330 1281
3394 3378 1297
3394 3394 1297
3427 3427 1313
3443 3459 1377
3459 3491 1521
3443 3475 1377
3459 3475 1393
3459 3491 1377
3443 3491 1377
3427 3491 1409
3459 3507 1569
3459 3523 1857
3475 3555 2354
3507 3571 2770
3475 3555 1505
3491 3539 1665
3507 3571 2001
3475 3555 2370
3507 3587 2818
3523 3603 3026
3555 3619 3218
3587 3651 3459
3587 3651 3555
3731 1089 977
3747 1105 1105
3795 1137 1265
3795 1169 1473
3811 1217 1745
3811 1329 2066
3827 1393 2306
3811 1393 2562
3811 1409 2738
3779 1201 993
3779 1217 1105
3779 1233 1233
3795 1313 1425
3795 1361 1585
3811 1457 1793
3811 1553 2017
3811 1665 2274
3811 1761 2498
3747 1633 705
3811 1585 1073
3795 1649 1153
3795 1761 1281
3779 1889 1393
3747 2001 1521
3731 2210 1633
3699 2370 1777
3699 2498 1969
3651 2706 849
3699 2626 769
3731 2514 849
3731 2610 1105
3715 2690 1217
3715 2834 1345
3715 2914 1473
3731 2994 1601
3731 3074 1681
3603 3170 1153
3571 3202 1169
3571 3186 1169
3571 3218 1169
3587 3170 1217
3587 3218 1265
3571 3266 1297
3587 3314 1409
3587 3346 1473
3523 3314 1265
3491 3314 1265
3443 3298 1249
3427 3298 1249
3427 3314 1249
3459 3346 1281
3459 3378 1297
3475 3410 1345
3523 3475 1393
3443 3410 1345
3443 3410 1329
3427 3410 1329
3427 3410 1313
3410 3410 1313
3459 3475 1345
3443 3491 1409
3491 3507 1665
3523 3555 2001
3475 3507 1409
3491 3523 1409
3475 3539 1489
3443 3491 1601
3459 3523 1873
3459 3523 2242
3475 3539 2690
3539 3603 3010
3571 3635 3266
3507 3571 2178
3523 3587 2594
3539 3619 2914
3539 3619 3138
3555 3603 3298
3571 3635 3475
3555 3651 3667
3571 3715 3827
3571 3747 3907
