其他预设/【236】赛博朋克风调色预设/【后期菌】视频调色预设/3DL/Sunset 08.3dl
# LUT by SparkleStock. Enhanced with VOXCOLOR algorithms.
0 256 512 768 1023
48 48 96
64 80 512
96 176 1361
80 304 2210
112 384 2786
208 672 480
256 833 1121
400 993 2033
480 1073 2642
528 1137 2994
849 1825 1105
1057 2050 1729
1233 2210 2354
1457 2386 2802
1569 2402 3058
1617 2850 1249
1857 2930 1601
2114 3058 1921
2306 3154 2226
2418 3234 2450
2402 3394 993
2594 3475 1137
2722 3555 1233
2850 3635 1361
2946 3667 1441
689 64 256
1009 80 913
1425 128 1777
1313 224 2418
865 384 2898
2114 528 432
2466 416 1137
1457 1169 2242
1393 1361 2754
1569 1441 3090
2674 2130 672
2033 2450 1793
2210 2594 2306
2402 2706 2642
2562 2802 2914
3202 3010 865
2802 3202 1345
2818 3298 1665
2898 3346 1825
2994 3443 1969
3282 3571 640
3234 3635 705
3138 3715 1025
3186 3731 1089
3330 3827 1169
2178 208 368
2450 160 993
2706 176 1633
2866 224 2210
2978 256 2642
2914 656 496
3154 608 1025
3298 672 1505
3234 897 2033
3106 1377 2706
3154 2306 592
3362 2130 1009
3362 2290 1697
3042 2898 2386
3042 3058 2626
3394 3218 1009
3394 3298 1089
3218 3491 1409
3218 3571 1553
3250 3619 1601
3475 3731 721
3507 3779 833
3539 3811 929
3539 3875 1489
3651 3875 2130
2978 256 480
3090 256 929
3250 256 1473
3346 272 1921
3443 320 2306
3346 945 624
3410 1057 1137
3507 1153 1473
3555 1281 1793
3619 1521 2130
3427 2610 640
3491 2578 913
3587 2530 1457
3571 2738 1777
3539 3010 2114
3555 3443 1185
3507 3491 1153
3507 3539 1217
3491 3683 1361
3491 3747 1457
3635 3811 1249
3683 3843 1713
3779 3891 2354
3811 3923 2834
3811 3923 3234
3410 320 496
3475 464 1009
3555 496 1409
3619 464 1713
3651 528 2050
3603 1473 624
3619 1521 1217
3635 1761 1489
3667 2001 1729
3683 2258 1953
3587 2962 961
3555 2994 1201
3539 2962 1697
3571 3154 2001
3619 3330 2194
3619 3651 1201
3619 3683 1361
3619 3699 1441
3683 3731 1985
3795 3827 2562
3795 3891 2562
3827 3907 3058
3843 3907 3410
3859 3939 3715
3827 3907 4003
