其他预设/【236】赛博朋克风调色预设/【后期菌】视频调色预设/3DL/Sunset 06_S.3dl
# LUT by SparkleStock. Enhanced with VOXCOLOR algorithms.
0 128 256 384 512 640 768 896 1023
32 512 224
64 512 336
48 528 464
64 544 640
112 544 817
192 544 1073
288 560 1409
368 544 1793
464 544 2162
64 624 336
48 640 432
96 656 576
112 672 769
160 672 929
224 656 1249
304 656 1553
432 672 1921
496 672 2226
80 769 432
96 769 528
96 785 689
128 785 833
240 801 1137
336 817 1457
416 833 1745
512 833 2082
560 865 2322
112 993 560
128 1041 721
176 1025 833
224 1089 1057
304 1073 1265
384 1089 1553
464 1153 1777
576 1137 2050
640 1201 2290
144 1329 705
176 1393 833
208 1425 961
272 1457 1137
320 1537 1345
432 1617 1585
544 1697 1857
592 1745 2082
689 1809 2242
256 1841 881
336 1985 1009
352 2050 1121
368 2146 1297
448 2210 1489
560 2322 1665
640 2418 1873
833 2482 2033
945 2546 2194
544 2498 1121
656 2530 1201
721 2594 1281
849 2642 1361
1121 2786 1489
1201 2866 1601
1425 2946 1729
1505 3010 1825
1697 3122 1937
1313 3010 1345
1425 3042 1409
1585 3090 1489
1761 3154 1569
1921 3218 1633
2017 3266 1713
2194 3314 1793
2258 3362 1857
2402 3394 1889
2001 3346 1569
2178 3410 1633
2322 3459 1681
2370 3459 1713
2562 3507 1777
2642 3555 1825
2754 3635 1889
2834 3651 1921
2882 3683 1953
208 496 288
272 528 416
320 496 512
352 480 640
400 464 833
288 496 1169
368 528 1521
448 528 1873
528 528 2194
528 544 384
608 544 464
512 544 592
352 592 801
272 640 1073
352 640 1377
432 640 1665
512 624 1969
592 640 2290
817 640 464
544 721 592
464 753 769
384 753 961
384 817 1217
464 833 1553
528 817 1793
656 849 2050
753 865 2322
881 881 496
464 1057 737
464 1105 897
464 1089 1089
544 1137 1297
608 1121 1553
689 1201 1825
801 1217 2050
881 1313 2322
977 1313 608
496 1521 833
496 1585 993
544 1649 1201
656 1761 1409
865 1793 1633
993 1921 1841
1105 1921 2050
1201 2001 2242
1825 1809 833
721 2098 1057
769 2210 1169
993 2322 1313
1073 2370 1409
1201 2466 1585
1537 2562 1761
1601 2610 1873
1793 2706 2033
2402 2498 1153
1793 2674 1281
1681 2706 1361
1921 2818 1473
1937 2914 1569
2114 2994 1649
2194 3058 1729
2290 3106 1825
2386 3202 1905
2706 3074 1409
2402 3186 1505
2306 3250 1585
2434 3330 1681
2434 3330 1713
2530 3410 1809
2594 3443 1841
2690 3475 1921
2818 3523 1937
2946 3443 1633
2850 3459 1665
2866 3539 1745
2866 3587 1793
2978 3651 1857
3010 3651 1873
3058 3699 1937
3138 3763 1985
3202 3763 2001
496 496 320
560 480 416
672 464 576
801 464 769
897 464 913
881 464 1201
929 464 1553
817 480 1857
833 496 2226
1025 496 384
1217 496 544
1345 496 721
1409 496 945
1473 512 1201
1281 496 1361
785 576 1713
769 608 2033
817 640 2274
1665 608 464
1953 624 608
1921 624 817
1489 689 1089
929 801 1345
753 801 1537
849 833 1761
993 833 2066
1057 881 2274
1857 881 560
1761 977 656
1457 1073 897
1489 1105 1153
1249 1233 1457
1089 1233 1585
1201 1313 1793
1233 1345 2050
1345 1409 2258
1905 1409 705
1665 1569 785
1201 1777 1057
1297 1857 1265
1345 1953 1457
1489 2050 1569
1617 2082 1777
1761 2226 1953
1953 2258 2162
2610 2017 1025
2418 2194 1073
1713 2402 1249
1809 2482 1393
2033 2562 1537
2146 2610 1601
2274 2738 1793
2402 2850 1889
2482 2930 1985
2994 2674 1297
2850 2722 1313
2418 2946 1473
2434 2994 1553
2514 3106 1649
2562 3138 1697
2658 3218 1777
2706 3234 1825
2802 3314 1905
3074 3234 1537
3010 3298 1585
2850 3330 1617
2802 3427 1729
2850 3475 1793
2866 3491 1825
2962 3555 1889
2978 3603 1953
3074 3635 1969
3234 3507 1713
3234 3603 1777
3234 3651 1809
3106 3699 1857
3186 3747 1937
3266 3779 1969
3266 3795 1985
3362 3827 2033
3459 3859 2066
1025 464 368
1201 464 528
1393 448 705
1505 448 881
1681 464 1057
1857 464 1313
2178 464 1681
2402 464 1937
1681 480 2242
1873 512 464
1937 496 576
2082 512 833
2210 496 1089
2466 512 1329
2514 496 1489
2466 528 1713
2194 544 2017
1889 544 2226
2338 689 496
2338 705 656
2322 737 897
2434 737 1185
2450 689 1377
2626 608 1457
2578 624 1633
1601 833 2017
1569 929 2258
2546 977 608
2450 1057 721
2466 1041 945
2482 1025 1201
2130 1201 1457
1985 1409 1649
1889 1457 1777
2033 1569 1985
2066 1585 2162
2514 1649 753
2290 1713 817
2226 1761 1057
2050 1873 1329
2210 1937 1553
2210 2130 1681
2386 2306 1777
2450 2402 1953
2466 2498 2066
2946 2274 1105
2802 2306 1073
2594 2418 1201
2242 2626 1473
2402 2706 1601
2642 2834 1665
2658 2914 1793
2754 2994 1873
2786 3058 1937
3154 2882 1425
3186 2962 1457
3106 3058 1521
2786 3234 1665
2866 3282 1713
2866 3298 1761
2914 3362 1825
3010 3443 1905
3026 3459 1953
3250 3378 1617
3250 3394 1633
3218 3475 1697
3154 3539 1793
3122 3587 1825
3138 3635 1905
3186 3667 1937
3282 3731 2017
3314 3731 2001
3394 3651 1809
3394 3699 1841
3443 3747 1889
3475 3795 1937
3394 3811 1969
3443 3827 2017
3539 3891 2082
3587 3891 2098
3619 3907 2146
1857 464 464
2066 432 576
2194 400 785
2370 400 1009
2610 432 1217
2834 480 1457
2930 464 1713
3058 480 2017
3122 480 2274
2626 512 528
2594 496 656
2578 512 913
2690 496 1185
2898 496 1393
3138 512 1505
3410 512 1617
3427 512 1825
3443 528 2114
2786 721 528
2722 785 689
2722 785 929
2738 785 1249
2930 753 1489
3218 656 1537
3362 592 1537
3298 640 1761
3074 689 2066
2866 1089 608
2722 1185 769
2738 1137 1025
2754 1121 1281
2898 1057 1489
3122 977 1553
3298 929 1489
3250 1329 1665
2706 1825 2082
2738 1841 769
2626 1889 833
2722 1873 1105
2850 1809 1425
2914 1937 1665
2802 2162 1745
2818 2498 1761
2818 2658 1873
2866 2722 1969
3074 2434 1105
2930 2530 1089
2882 2562 1217
2882 2610 1457
2834 2834 1697
3010 2962 1729
2962 3042 1793
3058 3186 1873
3042 3234 1905
3314 3106 1537
3202 3138 1473
3218 3186 1553
3138 3250 1601
3106 3394 1777
3090 3443 1825
3154 3507 1873
3250 3555 1937
3250 3603 1969
3378 3507 1713
3378 3539 1729
3427 3619 1793
3459 3619 1809
3346 3731 1921
3330 3731 1969
3394 3779 2033
3459 3811 2082
3523 3827 2066
3539 3779 1905
3555 3795 1937
3619 3827 1969
3667 3859 2017
3651 3859 2033
3635 3891 2098
3715 3923 2210
3731 3923 2258
3779 3939 2386
2738 464 608
2834 416 689
2946 416 865
3026 416 1073
3202 464 1265
3314 464 1425
3378 480 1697
3459 496 1921
3539 496 2162
3122 512 560
3074 512 705
3058 512 945
3090 512 1201
3250 512 1393
3459 528 1505
3619 512 1537
3683 544 1729
3699 560 1937
3154 785 608
3090 785 705
3074 817 961
3074 817 1249
3186 769 1457
3427 705 1505
3667 624 1441
3699 640 1553
3747 672 1761
3154 1281 689
3074 1297 817
3058 1233 1073
3090 1201 1345
3202 1249 1585
3443 1185 1585
3635 1201 1505
3635 1473 1633
3491 1681 1841
3042 2001 833
2994 2066 897
2994 2017 1153
3042 2001 1457
3122 2066 1697
3362 2242 1809
3362 2434 1841
3410 2674 1873
3330 2818 1921
3282 2722 1233
3138 2706 1185
3074 2722 1297
3122 2738 1489
3202 2818 1665
3218 2978 1841
3122 3138 1905
3202 3330 1873
3266 3394 1953
3475 3314 1649
3362 3314 1585
3346 3346 1617
3330 3394 1697
3266 3410 1809
3218 3459 1969
3314 3539 2017
3410 3667 1969
3427 3731 2017
3507 3635 1793
3507 3683 1809
3555 3731 1889
3555 3763 1905
3459 3763 1953
3459 3795 2066
3587 3843 2066
3635 3875 2146
3699 3891 2178
3667 3843 2001
3715 3859 2017
3731 3875 2050
3763 3907 2098
3779 3939 2178
3795 3939 2242
3795 3939 2386
3843 3955 2594
3875 3939 2722
3282 464 689
3314 448 769
3394 448 913
3443 464 1089
3555 480 1265
3635 496 1441
3667 496 1649
3715 496 1825
3763 496 2066
3491 528 689
3459 544 769
3443 528 945
3523 544 1201
3555 544 1345
3667 528 1393
3747 544 1473
3779 576 1649
3795 592 1841
3507 801 721
3475 833 817
3427 833 1009
3443 817 1233
3523 785 1393
3667 721 1393
3779 705 1361
3811 737 1489
3811 769 1633
3475 1425 833
3427 1457 897
3443 1409 1169
3427 1457 1425
3475 1489 1649
3603 1585 1713
3667 1761 1729
3731 1889 1697
3715 2082 1889
3378 2258 1057
3314 2274 1057
3298 2210 1217
3298 2178 1505
3314 2210 1777
3410 2418 1953
3475 2562 2017
3555 2738 1969
3555 2930 1905
3427 2914 1393
3394 2930 1361
3346 2930 1409
3298 2850 1553
3298 2866 1761
3362 2930 1985
3394 3026 2066
3475 3266 2033
3491 3459 1905
3523 3459 1745
3523 3491 1745
3427 3410 1617
3378 3410 1713
3362 3378 1857
3410 3459 2066
3459 3555 2210
3507 3667 2130
3619 3795 2066
3603 3747 1873
3635 3779 1905
3603 3779 1857
3555 3763 1889
3539 3763 2001
3587 3795 2178
3635 3843 2274
3779 3907 2306
3795 3907 2402
3763 3891 2066
3779 3907 2114
3779 3939 2178
3795 3939 2210
3795 3955 2370
3827 3955 2546
3891 3955 2722
3891 3923 2914
3907 3939 3074
3603 496 769
3635 480 865
3699 480 977
3731 480 1105
3779 496 1233
3811 496 1409
3859 528 1617
3875 528 1793
3891 544 1985
3747 576 817
3779 592 865
3763 560 961
3779 576 1121
3811 576 1217
3811 576 1281
3859 592 1425
3859 608 1585
3891 640 1713
3747 913 897
3779 833 961
3779 849 1089
3763 849 1249
3779 865 1377
3811 897 1393
3827 961 1473
3859 1041 1521
3859 1201 1665
3699 1713 1105
3715 1697 1105
3715 1665 1233
3715 1713 1489
3699 1777 1697
3683 1937 1857
3683 2082 1953
3731 2370 1905
3715 2498 1969
3587 2626 1377
3555 2626 1329
3539 2482 1297
3603 2306 1537
3603 2386 1809
3603 2514 2033
3603 2642 2114
3635 2866 2066
3699 3122 1937
3619 3186 1617
3587 3122 1521
3539 3026 1441
3555 2930 1585
3555 2978 1841
3603 2962 2098
3619 3106 2258
3667 3330 2178
3699 3603 2017
3619 3603 1809
3619 3555 1697
3603 3491 1617
3603 3443 1729
3619 3410 1937
3651 3443 2178
3683 3523 2338
3731 3667 2322
3779 3827 2162
3747 3827 1953
3763 3843 1969
3747 3811 1873
3699 3779 1905
3715 3763 2082
3731 3795 2306
3779 3843 2514
3843 3891 2658
3875 3923 2722
3827 3939 2226
3843 3939 2274
3875 3955 2418
3859 3987 2466
3843 3939 2658
3859 3939 2882
3907 3955 3090
3955 3987 3314
3939 3987 3394
3795 512 833
3827 512 913
3875 512 993
3891 512 1121
3907 528 1249
3923 544 1409
3955 544 1569
3939 544 1729
3939 560 1873
3875 624 897
3875 624 929
3891 608 993
3907 624 1089
3891 608 1137
3891 624 1233
3907 656 1393
3923 656 1489
3939 705 1601
3795 1201 1089
3907 977 1137
3923 1009 1201
3891 1089 1329
3907 1217 1457
3891 1281 1569
3859 1521 1601
3875 1697 1681
3859 1825 1761
3635 2210 1265
3763 2130 1377
3843 2017 1409
3827 2050 1569
3811 2050 1729
3795 2178 1921
3763 2370 2017
3763 2674 1985
3731 2786 1985
3651 2834 1489
3651 2850 1457
3731 2690 1409
3795 2594 1569
3811 2514 1809
3811 2610 2050
3795 2802 2178
3763 3042 2130
3715 3330 1921
3651 3362 1713
3667 3314 1585
3763 3186 1521
3827 3058 1633
3827 3058 1889
3859 3074 2162
3843 3154 2322
3811 3394 2306
3779 3683 2066
3683 3715 1905
3747 3651 1745
3795 3539 1665
3875 3459 1761
3875 3443 1985
3907 3475 2242
3891 3523 2466
3859 3699 2482
3875 3859 2482
3811 3875 2033
3827 3875 2066
3859 3843 1937
3923 3795 1985
3923 3779 2242
3939 3779 2514
3939 3827 2818
3923 3859 2978
3939 3939 3090
3875 3955 2514
3891 3955 2642
3923 3939 2786
3939 3955 2850
3955 4003 2994
3987 4003 3218
4003 4003 3475
3987 4003 3731
3987 3987 3875
