其他预设/【236】赛博朋克风调色预设/【后期菌】视频调色预设/3DL/Sunset 10_S.3dl
# LUT by SparkleStock. Enhanced with VOXCOLOR algorithms.
0 128 256 384 512 640 768 896 1023
112 112 112
144 128 160
160 160 224
192 224 352
272 320 608
352 416 849
496 560 1201
608 672 1489
689 769 1697
176 224 192
176 240 240
224 288 352
304 368 560
400 480 817
480 608 1105
608 737 1393
705 833 1633
801 961 1825
256 464 336
288 544 432
320 576 560
416 656 769
576 801 1073
705 961 1361
817 1073 1585
929 1185 1809
993 1265 1985
528 929 640
576 1089 833
640 1169 977
769 1313 1201
897 1345 1377
1041 1441 1585
1185 1553 1761
1297 1617 1905
1409 1713 2098
1057 1425 913
1217 1601 1121
1201 1665 1297
1329 1777 1489
1409 1889 1697
1553 2017 1905
1745 2114 2066
1825 2162 2162
1937 2210 2258
1649 1921 1057
1809 2066 1297
1841 2146 1537
1921 2242 1809
2001 2290 1969
2130 2402 2162
2162 2466 2290
2258 2514 2370
2322 2562 2450
2290 2322 1217
2370 2402 1393
2370 2450 1537
2466 2514 1761
2562 2594 1969
2562 2642 2114
2610 2690 2226
2642 2722 2322
2706 2802 2402
2722 2594 1265
2754 2658 1425
2738 2706 1601
2818 2738 1761
2802 2802 1841
2802 2850 1985
2866 2898 2114
2866 2914 2178
2930 2930 2242
2978 2770 1361
3010 2850 1553
3026 2866 1633
3026 2898 1745
3074 2946 1841
3090 2978 1937
3122 3026 2050
3154 3058 2098
3170 3090 2146
208 128 128
288 176 208
368 208 288
432 256 464
480 336 640
464 448 945
608 624 1297
705 737 1553
785 817 1761
608 272 272
737 304 352
656 320 432
544 432 640
544 592 945
656 737 1249
753 833 1505
881 945 1713
993 1041 1889
1105 480 448
881 576 512
865 689 737
849 817 977
897 977 1249
1009 1121 1457
1105 1233 1681
1345 1393 1921
1425 1457 2098
1489 865 496
1169 1169 865
1265 1329 1041
1233 1393 1281
1457 1553 1521
1521 1649 1697
1681 1761 1905
1809 1857 2066
1905 1985 2258
1985 1313 448
1809 1745 1073
1793 1841 1329
1857 1937 1553
1985 2066 1793
2066 2146 1985
2162 2258 2162
2194 2306 2258
2274 2370 2370
2482 1649 464
2290 2162 1249
2258 2258 1489
2402 2354 1729
2418 2386 1857
2466 2466 2066
2530 2546 2226
2578 2594 2322
2610 2642 2402
2770 1985 576
2738 2354 1185
2674 2482 1505
2770 2578 1681
2770 2642 1873
2802 2706 1985
2834 2738 2082
2866 2802 2210
2882 2850 2290
2882 2322 656
2898 2546 1089
2930 2722 1473
2978 2786 1713
2930 2834 1825
2962 2882 1921
2994 2914 2001
3010 2962 2114
3090 2978 2146
3090 2530 833
3090 2674 1073
3122 2834 1489
3138 2930 1729
3170 2962 1809
3186 2994 1905
3202 3042 1969
3234 3074 2050
3250 3106 2114
560 224 224
656 240 288
785 304 416
945 368 576
1137 448 753
1233 576 1073
1425 705 1457
1153 785 1633
1121 897 1825
1249 400 400
1377 464 512
1489 512 705
1569 576 929
1649 672 1121
1649 737 1281
1297 961 1633
1329 1089 1825
1425 1201 2001
1777 705 528
1857 753 689
1825 801 913
1697 945 1201
1505 1169 1489
1489 1313 1633
1697 1473 1841
1809 1601 2033
1873 1697 2194
2017 1057 544
1937 1233 753
1777 1393 1089
1841 1521 1425
1857 1729 1697
1921 1825 1857
2114 2001 2050
2162 2082 2194
2226 2162 2338
2338 1409 448
2210 1617 640
2033 1953 1265
2082 2066 1569
2194 2178 1841
2386 2290 2001
2434 2370 2178
2498 2450 2322
2546 2498 2418
2770 1761 512
2674 1905 640
2530 2306 1441
2546 2402 1665
2658 2450 1857
2690 2498 1969
2738 2610 2162
2802 2690 2258
2818 2722 2338
2946 2066 560
2898 2146 656
2834 2498 1393
2882 2578 1601
2914 2674 1809
2914 2706 1889
2962 2786 2001
2978 2834 2098
3010 2882 2162
3010 2354 624
3010 2434 817
2994 2610 1217
3058 2770 1617
3042 2866 1777
3042 2882 1841
3074 2946 1953
3106 2994 2050
3154 2994 2082
3138 2514 769
3170 2626 945
3186 2722 1153
3218 2914 1617
3250 3010 1825
3282 3058 1921
3266 3058 1969
3298 3090 2033
3314 3122 2098
1169 352 368
1377 416 464
1521 432 640
1601 480 833
1745 576 961
1889 689 1153
2098 801 1409
2194 865 1601
2146 1009 2017
1841 560 480
1857 576 608
1905 608 881
1969 656 1137
2114 737 1329
2210 817 1409
2274 929 1537
2226 1041 1745
2258 1217 2050
2050 817 544
2017 865 689
2017 897 977
2082 961 1297
2162 1025 1553
2290 1137 1617
2402 1393 1761
2178 1697 2050
2226 1841 2274
2242 1201 512
2130 1313 689
2130 1361 1057
2162 1441 1425
2162 1729 1777
2290 1985 2017
2370 2146 2114
2450 2242 2258
2466 2290 2386
2482 1633 416
2354 1729 576
2274 1873 977
2226 2033 1505
2370 2130 1777
2498 2290 2001
2674 2450 2162
2690 2514 2274
2722 2578 2386
2834 1905 496
2706 2001 544
2610 2146 817
2530 2434 1617
2658 2498 1809
2834 2578 1937
2834 2658 2098
2898 2722 2194
2930 2770 2258
3010 2162 576
2994 2226 656
2994 2338 833
2946 2626 1569
2994 2674 1681
2994 2738 1841
3026 2802 1921
3074 2866 2033
3090 2882 2098
3058 2418 689
3074 2466 753
3090 2562 961
3138 2754 1425
3106 2834 1633
3138 2930 1873
3170 2978 1969
3202 3026 2050
3250 3042 2082
3202 2626 913
3218 2690 1025
3234 2770 1185
3250 2866 1377
3266 2978 1745
3298 3058 1937
3330 3106 2017
3314 3106 2050
3330 3122 2178
1793 496 480
1905 480 576
2001 480 769
2098 560 993
2194 672 1185
2306 801 1297
2386 865 1473
2450 929 1617
2530 993 1777
2162 624 512
2210 640 672
2226 656 961
2274 689 1265
2386 769 1489
2498 881 1553
2626 977 1569
2674 1041 1697
2722 1121 1841
2322 913 512
2306 961 721
2322 993 1025
2354 1041 1361
2450 1073 1649
2562 1105 1713
2690 1345 1777
2690 1569 1953
2642 1729 2162
2434 1329 480
2386 1441 689
2402 1489 1089
2402 1537 1441
2498 1617 1729
2626 1809 1969
2754 2001 1985
2802 2242 2194
2674 2418 2402
2626 1729 368
2546 1825 544
2530 1889 897
2546 1969 1377
2642 2098 1745
2706 2258 1985
2818 2482 2066
2834 2594 2226
2850 2642 2322
2882 2033 480
2770 2146 576
2722 2210 737
2738 2290 1121
2770 2514 1745
2898 2578 1857
2946 2658 1953
2994 2754 2082
3010 2786 2130
3058 2258 640
2994 2354 672
2978 2418 769
2946 2498 993
3058 2754 1697
3090 2786 1809
3122 2834 1905
3154 2898 1985
3170 2930 2050
3154 2530 785
3154 2562 881
3170 2642 1009
3186 2658 1089
3218 2882 1601
3218 2962 1841
3250 3042 1969
3250 3042 2017
3282 3058 2066
3250 2770 1121
3250 2802 1217
3266 2834 1313
3298 2898 1457
3282 2914 1553
3314 3074 1985
3362 3170 2290
3362 3186 2386
3378 3234 2562
2130 560 560
2258 544 656
2338 544 849
2402 624 1105
2482 753 1297
2530 849 1393
2610 929 1553
2690 993 1713
2738 1041 1841
2450 672 560
2514 672 705
2546 705 993
2578 721 1297
2626 817 1489
2674 913 1569
2706 1009 1569
2802 1153 1745
2834 1217 1857
2578 1009 528
2610 1009 737
2642 1057 1057
2674 1121 1409
2690 1153 1681
2754 1313 1793
2818 1441 1761
2850 1553 1857
2898 1681 2082
2690 1425 464
2706 1505 689
2690 1553 1073
2722 1601 1409
2770 1729 1745
2850 1857 1857
2930 2066 1905
2962 2258 2066
2946 2370 2226
2834 1825 384
2818 1905 544
2786 1953 881
2802 2017 1345
2834 2098 1649
2978 2226 1761
3010 2354 1857
3058 2514 1985
3058 2610 2130
3010 2162 512
2930 2258 592
2898 2306 785
2914 2338 1073
2962 2386 1297
2978 2546 1825
2994 2658 1969
3074 2770 1985
3106 2834 2082
3138 2386 721
3090 2466 737
3090 2498 865
3074 2594 1025
3042 2690 1345
3042 2834 1857
3138 2882 1969
3218 2946 1969
3234 2994 2050
3186 2610 897
3186 2658 993
3218 2722 1121
3202 2834 1281
3170 2930 1505
3186 3010 1841
3266 3026 1953
3298 3090 2130
3330 3122 2226
3282 2818 1249
3298 2850 1361
3314 2914 1521
3330 3010 1857
3346 3090 2082
3378 3170 2322
3394 3218 2562
3394 3282 2754
3394 3298 2834
2370 624 624
2450 608 721
2562 640 945
2610 721 1137
2642 817 1281
2690 897 1393
2754 977 1585
2786 1025 1697
2834 1089 1825
2626 753 656
2738 737 753
2802 753 1025
2850 833 1313
2818 913 1489
2770 1025 1553
2802 1121 1601
2850 1233 1761
2882 1297 1889
2770 1057 592
2882 1121 801
2914 1169 1073
2930 1217 1393
2914 1345 1633
2882 1505 1729
2898 1697 1793
2930 1873 1937
2978 1953 2098
2898 1505 512
2978 1569 689
3010 1633 1089
3026 1697 1425
3010 1793 1697
3010 1969 1825
3026 2130 1857
3042 2290 1921
3090 2402 2082
3042 1921 448
3074 1985 560
3074 2017 897
3090 2082 1361
3074 2130 1697
3106 2242 1857
3122 2338 1921
3154 2450 1921
3154 2594 1921
3106 2242 576
3106 2322 672
3106 2386 833
3106 2450 1169
3106 2466 1457
3122 2546 1889
3138 2610 2017
3138 2706 2017
3170 2786 1937
3186 2466 785
3186 2546 881
3138 2610 913
3138 2738 1169
3122 2786 1457
3154 2850 1777
3186 2914 2050
3218 2962 2033
3282 3010 2033
3250 2738 1057
3266 2770 1153
3250 2866 1281
3218 2962 1441
3202 3010 1633
3218 3106 2001
3282 3154 2306
3362 3186 2434
3378 3202 2578
3330 2946 1633
3330 3010 1889
3346 3090 2114
3362 3186 2306
3378 3266 2498
3378 3298 2690
3410 3330 2850
3410 3330 2946
3427 3346 3026
2514 721 705
2578 705 785
2642 769 961
2690 817 1137
2722 881 1265
2770 929 1425
2834 1025 1585
2898 1089 1729
2914 1153 1841
2706 817 769
2834 865 849
2882 865 1009
2914 977 1249
2898 1105 1457
2850 1217 1521
2882 1329 1665
2914 1409 1825
2962 1537 1953
2866 1265 689
2978 1265 913
3058 1345 1121
3074 1425 1361
3042 1617 1601
2994 1761 1729
3010 1937 1857
3042 2130 1985
3090 2226 2130
3010 1633 592
3138 1681 721
3218 1713 1009
3250 1809 1361
3266 1889 1649
3202 2017 1793
3170 2146 1937
3154 2370 1905
3170 2450 2001
3138 2050 544
3202 2098 608
3282 2114 849
3346 2130 1329
3330 2194 1665
3314 2274 1889
3282 2354 2001
3250 2482 1937
3234 2642 1857
3170 2338 705
3202 2386 737
3282 2450 881
3346 2498 1233
3346 2530 1521
3346 2578 1953
3330 2642 2146
3282 2738 2098
3266 2866 1953
3218 2562 897
3234 2658 929
3314 2754 1057
3362 2834 1313
3362 2850 1585
3378 2898 1921
3362 2930 2162
3330 2962 2210
3314 3058 2178
3298 2834 1249
3330 2898 1393
3346 3010 1537
3378 3138 1745
3394 3202 2066
3410 3250 2386
3394 3250 2626
3394 3266 2786
3394 3298 2834
3362 3122 2242
3378 3170 2418
3410 3250 2594
3410 3346 2610
3410 3394 2738
3427 3427 2898
3443 3378 3026
3459 3394 3138
3443 3394 3186
2642 753 753
2674 769 849
2722 833 1009
2754 881 1153
2818 961 1329
2866 1009 1473
2914 1105 1649
2930 1153 1745
2962 1217 1857
2754 961 817
2770 1009 897
2834 1057 1009
2882 1185 1233
2882 1297 1393
2914 1409 1569
2962 1537 1777
2994 1665 1905
3026 1825 2033
2866 1425 689
2978 1521 1009
3010 1569 1121
3074 1729 1345
3154 1809 1521
3154 1921 1729
3090 2114 1777
3106 2274 1889
3122 2386 2050
3090 1841 560
3138 1873 737
3266 1905 1009
3378 1969 1329
3427 1969 1585
3394 2066 1809
3330 2210 1921
3234 2418 1873
3218 2514 1905
3170 2162 592
3234 2194 640
3394 2194 817
3523 2226 1201
3571 2258 1649
3539 2306 1905
3459 2402 2082
3346 2546 2001
3250 2722 1873
3202 2434 769
3314 2482 801
3459 2514 929
3571 2546 1249
3587 2578 1553
3603 2642 2001
3555 2674 2194
3443 2770 2162
3314 2914 1937
3266 2674 1041
3362 2754 1041
3475 2818 1169
3603 2898 1409
3619 2914 1729
3603 2962 2114
3571 3010 2418
3475 3058 2546
3427 3186 2610
3362 2962 1649
3378 3026 1889
3475 3154 1937
3571 3250 2066
3619 3298 2322
3603 3314 2610
3555 3330 2866
3491 3346 3010
3443 3362 3058
3410 3250 2674
3410 3282 2802
3443 3362 2866
3491 3427 2802
3523 3459 2914
3507 3459 3042
3475 3443 3202
3443 3427 3346
3443 3443 3443
