其他预设/【236】赛博朋克风调色预设/【后期菌】视频调色预设/3DL/Sunset 09.3dl
# LUT by SparkleStock. Enhanced with VOXCOLOR algorithms.
0 64 128 192 256 320 384 448 512 576 640 704 768 832 896 960 1023
48 16 16
96 48 128
128 32 208
144 48 336
96 64 464
112 128 656
96 128 849
96 144 1041
128 192 1297
144 272 1537
144 336 1681
160 464 1873
192 544 2033
224 592 2178
256 672 2322
272 737 2418
288 785 2546
112 144 144
96 160 208
144 160 336
144 176 416
144 192 592
112 224 801
144 256 977
144 304 1201
160 352 1425
176 432 1633
208 528 1793
208 560 1921
240 656 2114
256 721 2242
288 769 2338
320 817 2482
336 865 2562
160 304 224
144 272 320
128 304 416
192 336 576
192 352 705
176 352 865
192 400 1105
208 448 1345
224 512 1489
272 576 1697
256 624 1873
288 705 2033
320 769 2194
336 817 2306
368 881 2418
384 945 2530
416 977 2578
256 464 352
224 432 432
224 448 544
224 464 672
224 480 801
256 512 1025
272 560 1217
288 608 1377
336 656 1585
384 753 1809
368 769 1969
416 849 2162
416 881 2258
464 929 2370
480 977 2466
528 1073 2578
560 1121 2658
272 608 416
336 640 560
352 656 672
304 656 769
336 640 913
384 672 1121
384 689 1297
432 769 1521
496 817 1713
496 881 1921
544 945 2082
544 977 2210
592 1041 2338
640 1089 2418
656 1169 2530
672 1201 2578
721 1249 2658
368 849 560
400 833 672
480 865 785
512 865 913
544 849 1057
560 865 1185
608 897 1393
592 929 1601
624 993 1793
640 1041 1953
640 1057 2114
721 1153 2226
769 1217 2354
785 1265 2434
833 1329 2514
897 1393 2594
913 1409 2658
544 1089 672
592 1137 833
624 1137 913
672 1105 977
737 1089 1105
721 1089 1249
785 1137 1441
769 1185 1633
785 1201 1777
817 1233 1937
833 1297 2098
913 1345 2210
961 1393 2290
961 1425 2370
1041 1489 2466
1105 1553 2546
1169 1601 2594
705 1361 769
801 1409 913
817 1393 1009
865 1425 1121
897 1393 1217
913 1377 1313
945 1377 1441
977 1409 1585
1009 1425 1745
1041 1457 1873
1073 1489 1985
1121 1569 2130
1153 1601 2210
1201 1665 2306
1249 1729 2418
1313 1777 2498
1345 1809 2578
881 1633 881
929 1649 993
993 1713 1121
1041 1745 1233
1057 1729 1313
1105 1745 1409
1121 1713 1473
1185 1745 1633
1169 1729 1729
1281 1777 1857
1297 1825 1969
1345 1825 2066
1377 1921 2162
1409 1921 2258
1425 1969 2370
1505 2001 2418
1553 2033 2450
1041 1905 977
1057 1937 1073
1137 2001 1185
1153 2017 1265
1297 2082 1377
1297 2066 1473
1377 2130 1601
1425 2146 1697
1409 2146 1841
1441 2146 1905
1489 2146 1953
1585 2210 2017
1617 2210 2114
1633 2178 2194
1729 2258 2258
1745 2274 2338
1825 2290 2386
1201 2210 1073
1233 2258 1185
1313 2306 1281
1377 2306 1377
1441 2322 1425
1473 2354 1521
1553 2386 1649
1633 2434 1713
1665 2418 1841
1745 2466 1889
1793 2482 1985
1873 2514 2050
1921 2514 2114
1921 2514 2114
2050 2562 2178
2114 2578 2210
2162 2594 2274
1409 2434 1121
1409 2498 1217
1505 2498 1329
1569 2530 1377
1633 2546 1489
1713 2578 1585
1825 2642 1665
1921 2658 1761
2001 2690 1857
2033 2690 1905
2130 2738 2001
2194 2754 2050
2226 2754 2130
2338 2802 2226
2386 2818 2274
2386 2834 2290
2450 2866 2338
1697 2642 1137
1793 2642 1201
1857 2706 1281
1841 2706 1377
1921 2722 1409
2017 2754 1489
2082 2770 1537
2082 2786 1681
2210 2850 1729
2242 2850 1793
2338 2898 1921
2386 2930 2001
2466 2962 2017
2514 2962 2098
2530 2978 2130
2578 3026 2226
2674 3058 2258
1921 2786 1105
2050 2818 1121
2050 2818 1169
2114 2818 1233
2194 2866 1297
2242 2914 1345
2258 2898 1377
2322 2930 1457
2402 2978 1553
2402 2978 1649
2466 3026 1697
2546 3058 1729
2578 3074 1761
2610 3090 1761
2674 3122 1857
2722 3154 1873
2738 3154 1921
2194 2930 977
2242 2930 1009
2290 2946 1041
2322 2978 1089
2370 2994 1137
2386 3010 1153
2450 3058 1217
2482 3074 1265
2546 3106 1297
2594 3138 1393
2642 3154 1425
2706 3202 1441
2754 3202 1473
2754 3218 1553
2802 3218 1569
2850 3250 1601
2850 3250 1649
2370 3074 913
2386 3058 929
2450 3090 945
2482 3122 1009
2546 3154 1041
2562 3186 1057
2594 3186 1105
2658 3202 1153
2690 3234 1201
2738 3250 1233
2770 3282 1249
2802 3314 1265
2850 3346 1329
2882 3362 1361
2898 3378 1361
2914 3378 1377
2946 3394 1393
2466 3170 865
2514 3186 897
2578 3234 913
2642 3250 945
2658 3250 945
2674 3282 993
2706 3298 1009
2770 3346 1041
2786 3346 1057
2834 3346 1105
2866 3378 1153
2898 3410 1185
2930 3443 1217
2914 3443 1201
2978 3475 1249
2962 3443 1249
3010 3491 1313
192 32 80
224 16 160
304 64 288
304 80 400
272 80 496
288 128 705
336 144 849
336 160 1025
400 256 1297
336 384 1569
320 448 1761
336 496 1905
304 576 2082
320 656 2226
336 705 2338
352 753 2434
416 801 2546
352 144 192
400 144 304
432 176 400
400 192 496
384 224 608
368 240 785
336 352 1073
304 384 1281
288 432 1473
320 496 1665
304 576 1841
336 656 2033
352 705 2162
368 769 2306
400 801 2402
432 865 2514
448 897 2578
464 304 304
464 272 368
464 320 496
496 368 608
480 416 753
480 416 913
416 496 1217
336 528 1393
400 624 1585
416 672 1793
432 721 1969
416 769 2114
480 833 2258
512 897 2370
512 929 2450
576 1009 2546
592 1041 2610
544 432 368
560 480 496
576 528 608
560 544 769
512 560 865
528 592 1057
528 672 1329
496 705 1505
496 737 1681
544 817 1921
576 865 2050
560 897 2178
608 961 2306
640 1025 2418
689 1073 2498
689 1137 2562
721 1185 2658
656 608 464
560 672 624
576 705 721
576 737 833
576 753 977
624 769 1185
672 817 1409
640 849 1569
689 929 1793
689 945 1921
753 1041 2114
737 1073 2226
769 1105 2338
769 1169 2434
881 1281 2530
865 1281 2562
897 1345 2658
769 801 560
705 897 705
721 881 785
769 929 913
705 929 1041
753 961 1233
801 1025 1441
785 1025 1633
769 1073 1809
833 1169 1985
849 1201 2098
913 1249 2242
977 1313 2338
1009 1377 2418
1057 1425 2498
1137 1489 2562
1137 1521 2642
881 1153 608
785 1185 817
833 1201 929
865 1201 1025
913 1201 1169
961 1249 1313
961 1233 1425
977 1265 1585
1009 1313 1761
1073 1377 1905
1121 1409 2050
1089 1409 2146
1217 1521 2258
1281 1585 2338
1249 1601 2418
1329 1665 2498
1409 1745 2562
993 1393 592
945 1473 945
993 1489 1057
1025 1489 1137
1089 1569 1233
1073 1505 1329
1185 1537 1441
1185 1521 1537
1249 1569 1697
1297 1585 1857
1361 1681 1969
1329 1681 2066
1377 1729 2162
1489 1809 2258
1425 1793 2370
1553 1905 2450
1553 1937 2498
1185 1649 705
1153 1809 1073
1201 1793 1153
1233 1825 1217
1313 1857 1329
1329 1905 1409
1377 1873 1489
1361 1889 1633
1425 1905 1745
1553 1953 1825
1537 1969 1889
1521 1969 2001
1601 2001 2098
1729 2098 2178
1761 2146 2306
1825 2162 2338
1921 2226 2402
1473 1873 560
1297 2050 1105
1377 2114 1249
1377 2082 1313
1441 2146 1377
1521 2194 1505
1601 2242 1617
1681 2258 1681
1697 2274 1777
1761 2290 1857
1793 2290 1921
1857 2322 1985
1921 2338 2033
2001 2386 2098
2033 2386 2146
2066 2418 2178
2210 2482 2306
1697 2194 624
1441 2306 1185
1521 2354 1265
1601 2418 1377
1649 2402 1441
1697 2450 1569
1809 2482 1665
1889 2498 1777
1969 2562 1873
2001 2546 1921
2017 2546 1969
2162 2642 2066
2226 2658 2146
2274 2690 2210
2322 2706 2258
2418 2722 2338
2498 2802 2402
1889 2386 624
1841 2514 1073
1857 2546 1169
1873 2562 1297
1921 2594 1377
2001 2658 1473
2033 2658 1617
2114 2690 1713
2178 2738 1809
2306 2770 1873
2322 2770 1969
2418 2818 2066
2450 2834 2130
2498 2866 2194
2546 2914 2274
2594 2930 2306
2658 2978 2370
2130 2642 608
2066 2706 961
2114 2722 993
2114 2722 1089
2178 2770 1233
2178 2770 1345
2258 2802 1377
2322 2850 1457
2370 2882 1553
2466 2898 1633
2498 2946 1697
2530 2946 1777
2578 2978 1793
2658 3010 1905
2674 3026 1937
2722 3058 2033
2754 3074 2033
2338 2834 624
2210 2818 897
2274 2866 945
2354 2930 1025
2370 2930 1185
2370 2930 1217
2450 2978 1281
2466 3010 1361
2514 3026 1409
2578 3042 1425
2610 3074 1505
2690 3106 1585
2706 3122 1585
2738 3154 1617
2786 3170 1713
2818 3186 1745
2850 3202 1745
2498 2978 592
2434 2994 769
2450 3026 833
2482 3058 913
2498 3090 1057
2562 3122 1105
2562 3106 1153
2642 3138 1201
2674 3170 1233
2738 3186 1281
2754 3202 1313
2802 3234 1329
2818 3250 1377
2850 3282 1409
2866 3282 1441
2930 3346 1473
2946 3346 1537
2642 3106 560
2578 3138 705
2610 3170 737
2674 3186 801
2658 3186 945
2674 3218 993
2690 3234 1025
2754 3282 1057
2802 3314 1105
2834 3330 1137
2866 3346 1169
2882 3362 1201
2914 3378 1217
2914 3394 1249
2978 3410 1313
2962 3410 1329
3010 3443 1361
2754 3218 592
2706 3282 705
2786 3314 721
2770 3314 785
2802 3346 913
2770 3330 945
2850 3378 993
2882 3378 1009
2882 3394 1025
2930 3410 1073
2946 3427 1105
2946 3427 1121
2978 3443 1137
2994 3475 1153
3010 3475 1201
3074 3523 1265
3074 3523 1265
352 48 144
416 64 240
480 64 352
448 64 432
512 128 576
544 128 721
592 160 881
640 208 1041
624 240 1297
560 384 1537
448 448 1777
480 560 2017
448 624 2146
464 689 2274
496 737 2418
528 801 2514
528 865 2594
544 144 224
592 144 336
640 176 416
592 208 528
608 288 656
672 320 785
576 368 1009
560 400 1233
640 512 1489
592 544 1649
512 624 1921
512 689 2050
512 737 2194
512 785 2322
576 865 2434
608 913 2546
640 977 2610
769 272 304
833 256 416
913 304 544
897 336 640
785 416 753
769 464 897
721 544 1153
608 624 1441
576 672 1633
560 705 1809
576 769 2017
608 833 2162
624 865 2258
672 945 2386
656 993 2466
721 1057 2562
769 1105 2642
929 400 400
945 480 528
977 528 656
913 576 769
881 640 897
833 656 1009
849 705 1217
753 785 1537
721 817 1729
769 897 1921
721 929 2066
753 977 2210
753 1025 2322
833 1105 2434
881 1185 2514
865 1201 2562
961 1297 2658
1185 592 576
929 705 689
913 753 801
897 769 913
929 817 1057
897 865 1249
929 897 1377
881 945 1601
817 1009 1809
849 1041 1969
897 1105 2114
961 1169 2226
945 1217 2322
993 1265 2402
1105 1361 2498
1105 1377 2578
1185 1457 2674
1377 769 672
1089 881 769
945 977 913
945 1041 1009
961 1105 1137
993 1121 1329
1009 1137 1441
977 1137 1633
1009 1201 1809
1041 1249 1953
1121 1313 2066
1121 1345 2194
1185 1393 2306
1265 1489 2402
1281 1505 2450
1393 1601 2514
1457 1665 2578
1425 1025 544
1169 1121 881
1041 1281 1009
1105 1297 1121
1137 1329 1233
1153 1377 1345
1153 1361 1441
1249 1425 1569
1297 1457 1745
1297 1441 1889
1329 1505 2001
1377 1553 2098
1393 1633 2226
1505 1713 2322
1537 1745 2386
1537 1777 2466
1665 1889 2546
1425 1377 448
1297 1473 801
1169 1585 1089
1233 1601 1201
1297 1665 1297
1377 1713 1409
1361 1665 1457
1393 1697 1553
1457 1745 1713
1537 1793 1825
1553 1793 1921
1601 1841 2017
1697 1921 2098
1729 1969 2210
1777 2001 2306
1889 2066 2386
1873 2082 2418
1553 1665 464
1441 1777 785
1409 1921 1233
1409 1937 1297
1473 1969 1377
1585 2033 1505
1553 2017 1569
1633 2082 1665
1681 2082 1745
1713 2098 1825
1825 2130 1889
1825 2130 1969
1953 2226 2082
1937 2210 2130
2050 2274 2194
2146 2338 2274
2162 2338 2338
1953 1889 336
1633 2114 801
1537 2178 1249
1665 2242 1345
1713 2274 1473
1793 2306 1585
1777 2306 1633
1873 2370 1761
1873 2354 1809
1937 2402 1889
2033 2434 1969
2098 2466 2033
2194 2498 2146
2226 2498 2194
2354 2562 2290
2322 2546 2290
2434 2642 2386
2274 2146 208
1969 2290 656
1761 2402 1233
1809 2418 1313
1841 2482 1441
1937 2514 1505
2033 2578 1681
2050 2562 1761
2130 2594 1857
2258 2674 1937
2274 2674 2033
2338 2690 2114
2450 2738 2178
2482 2786 2258
2514 2786 2322
2562 2802 2370
2642 2866 2434
2530 2434 272
2242 2498 624
2050 2642 1089
2082 2658 1217
2130 2658 1281
2178 2690 1377
2226 2738 1473
2290 2754 1537
2370 2802 1649
2450 2834 1745
2498 2850 1857
2546 2866 1921
2610 2898 1985
2642 2930 2098
2658 2946 2130
2706 2962 2226
2770 3026 2242
2738 2658 256
2530 2738 560
2338 2802 897
2306 2770 1009
2338 2818 1169
2354 2834 1249
2450 2898 1297
2498 2930 1377
2530 2946 1457
2578 2962 1521
2642 3010 1569
2690 3042 1633
2706 3042 1697
2770 3074 1777
2786 3074 1793
2850 3122 1857
2866 3122 1889
2882 2850 320
2610 2866 560
2482 2962 849
2498 2978 913
2546 3010 1009
2530 3026 1121
2594 3058 1201
2594 3058 1265
2690 3122 1313
2754 3154 1329
2770 3154 1393
2786 3154 1441
2834 3170 1473
2850 3186 1521
2882 3202 1537
2930 3250 1601
2946 3282 1601
2946 3010 336
2866 3058 512
2706 3090 721
2690 3122 817
2658 3138 945
2674 3170 1025
2738 3202 1089
2754 3218 1121
2770 3218 1169
2850 3282 1185
2850 3282 1217
2866 3298 1249
2914 3314 1281
2930 3330 1313
2962 3346 1361
2994 3362 1377
3010 3394 1393
2962 3138 352
2962 3170 480
2866 3202 576
2866 3234 672
2802 3250 833
2802 3298 929
2850 3330 993
2834 3330 993
2898 3362 1041
2914 3362 1073
2946 3394 1121
2978 3394 1137
2978 3394 1169
3010 3427 1201
3042 3459 1249
3026 3443 1233
3058 3459 1265
3010 3282 416
2994 3298 480
2914 3314 576
2946 3346 672
2962 3378 817
2882 3362 929
2946 3394 977
2946 3410 993
2994 3459 1041
2994 3443 1041
3026 3459 1089
3042 3475 1105
3074 3507 1153
3122 3523 1201
3138 3539 1233
3170 3571 1265
3186 3571 1281
528 64 160
592 80 304
672 112 400
721 128 512
769 144 640
817 144 769
897 224 945
961 208 1121
993 288 1297
865 400 1505
769 512 1809
721 576 2017
689 592 2178
721 689 2322
656 769 2402
656 785 2498
689 865 2594
769 192 288
833 192 368
881 192 480
929 224 624
913 320 737
993 320 897
977 336 1073
1009 432 1265
1041 496 1393
1009 608 1633
849 624 1825
753 737 2066
769 785 2226
705 817 2338
769 897 2450
769 945 2530
