其他预设/【236】赛博朋克风调色预设/【后期菌】视频调色预设/3DL/Sunset 07.3dl
# LUT by SparkleStock. Enhanced with VOXCOLOR algorithms.
0 128 256 384 512 640 768 896 1023
96 464 48
128 464 144
112 480 304
128 496 592
208 496 961
304 512 1393
400 528 1729
480 544 2050
544 544 2290
128 576 128
112 576 272
128 592 512
160 576 817
256 576 1185
336 576 1553
432 608 1857
512 624 2162
576 672 2370
144 705 272
160 721 416
160 705 624
208 705 993
336 753 1393
432 785 1729
528 801 2017
576 897 2274
624 897 2434
128 977 480
160 1025 656
192 1009 881
272 1041 1169
384 1041 1505
480 1089 1825
576 1169 2066
640 1185 2274
705 1281 2450
160 1409 624
192 1489 817
192 1505 993
256 1553 1281
336 1617 1569
480 1681 1873
560 1825 2146
608 1857 2338
737 1889 2482
272 2001 881
320 2130 1025
336 2162 1121
352 2242 1345
400 2306 1601
528 2402 1809
672 2450 2066
833 2546 2226
993 2594 2386
528 2562 1105
640 2594 1153
753 2642 1233
817 2706 1345
1041 2802 1457
1105 2866 1585
1329 2946 1713
1361 3010 1825
1537 3106 1969
1233 2978 1313
1377 3010 1361
1521 3058 1409
1681 3122 1473
1825 3170 1537
1969 3202 1601
2130 3266 1681
2194 3314 1729
2274 3330 1777
1905 3282 1489
2098 3330 1537
2210 3362 1569
2242 3394 1601
2386 3443 1649
2514 3507 1697
2610 3539 1745
2706 3587 1793
2754 3587 1809
304 480 96
368 496 224
416 480 400
464 480 689
544 464 1041
432 480 1457
496 512 1825
560 512 2114
608 544 2338
576 528 176
721 512 304
592 512 528
464 544 881
368 560 1297
448 576 1633
528 592 1921
608 576 2162
656 640 2370
897 592 288
656 656 464
560 672 737
480 656 1057
480 753 1489
560 769 1777
624 817 2001
753 865 2242
833 897 2434
1073 881 432
544 1041 656
560 1073 929
496 1073 1185
624 1137 1553
672 1153 1809
769 1233 2082
881 1281 2258
1009 1393 2482
1249 1585 672
528 1681 865
512 1729 1025
528 1825 1265
721 1873 1569
913 1921 1841
1041 2033 2082
1089 2017 2274
1233 2082 2434
2066 2338 1041
705 2274 1057
817 2338 1169
929 2482 1329
1041 2482 1441
1169 2562 1649
1457 2674 1841
1505 2706 2017
1681 2786 2162
2546 2802 1297
1809 2850 1313
1681 2818 1345
1889 2898 1441
1873 2946 1521
2017 3026 1601
2098 3058 1681
2178 3122 1777
2274 3186 1857
2738 3154 1473
2418 3202 1505
2258 3218 1505
2322 3282 1585
2338 3282 1601
2450 3346 1665
2562 3378 1713
2594 3443 1777
2690 3475 1809
2914 3394 1601
2738 3394 1585
2722 3491 1665
2690 3507 1697
2786 3555 1745
2834 3571 1761
2898 3619 1793
2994 3667 1841
3026 3667 1857
640 464 112
721 464 224
897 480 432
1073 464 753
1233 464 1137
1185 480 1505
1185 480 1793
977 496 2066
961 528 2306
1233 512 256
1505 512 368
1697 512 560
1793 512 881
1825 528 1329
1537 512 1585
881 576 1953
897 608 2194
961 656 2370
2001 592 480
2370 560 560
2386 528 608
1857 576 977
1089 721 1441
913 753 1713
1009 801 2017
1105 881 2226
1201 929 2370
2338 897 624
2242 897 705
1857 977 833
1857 1009 1073
1457 1249 1505
1169 1249 1809
1313 1393 2017
1361 1441 2242
1441 1489 2418
2306 1889 913
2098 1825 897
1313 1953 1089
1409 2050 1297
1361 2114 1489
1521 2210 1713
1681 2226 1953
1857 2338 2178
1969 2354 2354
2770 2562 1201
2610 2594 1217
1793 2562 1281
1905 2610 1377
2017 2706 1505
2098 2738 1617
2226 2834 1793
2290 2914 1905
2402 2978 2017
3010 2946 1425
2866 2930 1409
2386 3026 1473
2354 3058 1489
2386 3138 1585
2482 3138 1617
2594 3218 1713
2610 3234 1761
2690 3298 1825
3090 3266 1553
2994 3298 1569
2802 3298 1569
2690 3362 1633
2738 3410 1681
2770 3443 1713
2866 3491 1745
2898 3523 1793
2978 3555 1825
3154 3491 1681
3154 3539 1713
3138 3571 1729
3010 3603 1745
3010 3651 1793
3074 3699 1825
3090 3699 1841
3202 3731 1889
3282 3779 1937
1265 480 240
1521 480 352
1761 496 528
1953 496 785
2146 480 1121
2290 480 1505
2514 496 1873
2658 496 2098
1937 512 2290
2162 544 448
2290 512 480
2514 512 624
2642 512 849
2834 528 1169
2738 496 1537
2642 544 1889
2402 576 2146
2114 576 2306
2706 624 592
2882 576 656
2914 544 705
3042 576 865
2866 576 1105
2850 576 1393
2722 640 1809
1809 881 2210
1761 993 2370
2914 1041 785
3106 865 817
3234 785 913
3170 769 993
2594 1233 1265
2242 1553 1697
2033 1553 2017
2114 1665 2226
2146 1697 2354
2834 2114 1057
2802 2050 1041
2802 1921 1105
2434 2066 1265
2546 2162 1441
2306 2338 1665
2386 2482 1889
2482 2530 2082
2450 2578 2210
3074 2690 1313
3090 2658 1297
2930 2706 1297
2434 2786 1441
2482 2834 1521
2610 2914 1649
2626 2978 1761
2674 3042 1841
2706 3090 1905
3154 3058 1473
3186 3138 1505
3074 3170 1521
2754 3234 1585
2770 3250 1633
2738 3282 1665
2802 3314 1713
2882 3410 1793
2914 3410 1809
3218 3362 1617
3218 3378 1633
3154 3443 1665
3042 3507 1697
3026 3523 1729
3042 3555 1777
3074 3587 1809
3154 3651 1857
3154 3667 1873
3282 3603 1761
3314 3635 1793
3346 3667 1825
3346 3715 1857
3234 3715 1857
3282 3747 1889
3378 3779 1937
3410 3795 1953
3443 3811 2001
2130 512 400
2338 512 496
2514 496 592
2642 496 849
2802 480 1137
2946 496 1537
3026 496 1841
3106 512 2146
3218 512 2338
2786 576 576
2898 528 608
3010 528 705
3090 528 881
3170 512 1105
3234 528 1377
3330 528 1633
3378 528 1905
3394 560 2162
3106 656 705
3234 624 753
3282 608 801
3346 592 865
3394 608 1041
3394 592 1265
3362 608 1569
3266 656 1905
3122 737 2194
3202 1169 881
3346 1057 945
3491 945 1041
3427 1009 1105
3443 961 1185
3362 1073 1361
3314 1201 1521
3234 1585 1841
2786 2050 2274
3090 2274 1137
3154 2274 1153
3298 2082 1185
3346 1969 1345
3266 2178 1505
2930 2418 1617
2802 2642 1793
2770 2770 1937
2850 2802 2066
3234 2770 1361
3186 2802 1361
3202 2850 1377
3186 2834 1441
2978 2994 1569
3010 3042 1633
2898 3122 1713
2914 3186 1793
2930 3218 1825
3266 3186 1537
3250 3186 1537
3266 3250 1569
3202 3282 1601
3058 3394 1713
3010 3410 1729
3074 3427 1761
3106 3491 1809
3138 3539 1841
3314 3491 1697
3314 3507 1713
3362 3555 1761
3330 3571 1761
3234 3635 1809
3202 3651 1825
3250 3699 1873
3330 3731 1905
3346 3731 1937
3410 3699 1841
3443 3715 1873
3491 3731 1873
3555 3795 1921
3523 3779 1921
3507 3795 1953
3539 3843 2066
3571 3827 2098
3619 3859 2226
2770 512 528
2898 496 576
3026 480 689
3090 496 865
3186 496 1137
3250 512 1457
3346 512 1729
3410 528 2001
3523 528 2210
3186 576 672
3266 576 705
3314 544 737
3346 544 881
3394 544 1041
3427 528 1249
3491 544 1505
3587 560 1745
3619 576 1937
3378 721 817
3475 705 865
3507 721 897
3523 689 961
3523 640 1041
3523 656 1169
3571 640 1329
3603 672 1505
3667 705 1697
3378 1473 993
3491 1409 1041
3603 1281 1137
3587 1265 1201
3619 1457 1329
3603 1505 1409
3603 1585 1521
3539 1793 1729
3427 2017 1937
3234 2434 1233
3282 2482 1265
3378 2306 1281
3475 2242 1409
3410 2354 1521
3475 2514 1617
3346 2642 1681
3330 2786 1809
3250 2882 1873
3314 2978 1457
3298 2994 1457
3282 3010 1457
3362 2994 1505
3362 3042 1537
3250 3122 1633
3122 3234 1697
3106 3330 1777
3138 3378 1841
3378 3330 1633
3330 3330 1617
3346 3362 1649
3378 3410 1681
3298 3443 1697
3218 3491 1745
3266 3539 1809
3250 3603 1857
3298 3635 1889
3394 3571 1761
3427 3603 1793
3475 3651 1825
3507 3699 1857
3475 3699 1857
3427 3747 1905
3443 3747 1921
3507 3779 1985
3539 3795 2033
3555 3763 1905
3587 3795 1937
3603 3795 1953
3635 3811 1985
3635 3827 2017
3651 3843 2098
3651 3859 2226
3699 3875 2402
3747 3875 2546
3170 528 624
3234 496 640
3282 480 721
3346 496 881
3427 512 1121
3523 512 1377
3571 528 1633
3619 528 1857
3683 544 2082
3443 608 769
3475 576 769
3539 592 817
3587 576 897
3587 576 1041
3587 560 1201
3603 576 1409
3667 592 1617
3699 608 1825
3539 769 881
3619 785 961
3603 801 993
3603 817 1073
3619 801 1121
3619 769 1201
3651 801 1297
3683 849 1441
3731 881 1569
3539 1697 1105
3603 1681 1153
3667 1665 1265
3667 1777 1361
3635 1825 1457
3603 1969 1537
3603 2098 1633
3603 2178 1729
3619 2354 1889
3362 2626 1329
3378 2690 1377
3443 2594 1393
3523 2594 1489
3507 2594 1521
3523 2722 1617
3523 2786 1697
3523 2866 1761
3475 3010 1809
3394 3106 1521
3394 3154 1537
3394 3186 1553
3394 3138 1537
3410 3170 1569
3410 3186 1649
3394 3218 1681
3394 3330 1761
3394 3410 1809
3443 3443 1713
3475 3491 1729
3427 3443 1713
3427 3491 1713
3443 3523 1745
3427 3587 1793
3410 3619 1841
3362 3667 1873
3475 3715 1953
3507 3683 1857
3539 3699 1873
3555 3715 1873
3587 3747 1905
3603 3747 1921
3603 3763 1953
3587 3795 2017
3635 3827 2114
3635 3827 2226
3651 3811 1969
3651 3811 1985
3667 3827 2033
3699 3843 2098
3747 3875 2226
3763 3875 2354
3795 3891 2562
3811 3875 2770
3827 3875 2946
3475 560 689
3491 528 721
3539 512 785
3571 512 913
3635 512 1073
3667 512 1297
3763 544 1553
3779 560 1745
3811 576 1953
3635 640 817
3651 656 865
3635 608 849
3683 608 897
3683 608 1025
3667 592 1137
3699 608 1313
3747 640 1521
3811 672 1697
3651 1041 993
3747 929 1041
3731 1009 1089
3699 1041 1169
3699 1153 1281
3715 1185 1345
3731 1281 1457
3763 1457 1585
3763 1617 1713
3619 2017 1233
3683 2033 1297
3667 2033 1345
3635 2098 1441
3603 2226 1521
3587 2338 1601
3587 2402 1681
3619 2578 1809
3619 2690 1889
3491 2850 1457
3491 2898 1473
3491 2850 1489
3523 2738 1489
3523 2786 1537
3539 2898 1601
3539 2946 1665
3571 3058 1729
3587 3170 1809
3507 3250 1617
3491 3282 1617
3475 3282 1617
3443 3282 1617
3475 3330 1665
3491 3298 1697
3523 3394 1777
3555 3443 1809
3555 3555 1889
3539 3523 1761
3523 3571 1777
3523 3587 1793
3523 3619 1809
3523 3635 1809
3587 3667 1857
3603 3683 1889
3635 3715 1953
3635 3747 2017
3635 3763 1921
3667 3779 1937
3651 3763 1937
3635 3763 1953
3651 3779 2017
3683 3795 2082
3715 3827 2194
3731 3827 2354
3763 3859 2578
3715 3859 2082
3731 3843 2146
3763 3875 2274
3747 3859 2370
3795 3875 2626
3827 3859 2802
3859 3875 2994
3891 3907 3202
3891 3907 3282
3651 576 753
3683 544 785
3715 528 865
3715 528 945
3763 544 1057
3763 544 1265
3827 560 1457
3827 576 1665
3843 576 1825
3747 672 881
3731 672 897
3747 672 929
3747 705 1025
3747 656 1041
3763 656 1121
3779 672 1265
3811 705 1441
3843 753 1569
3715 1441 1057
3795 1281 1153
3779 1345 1201
3795 1505 1313
3795 1617 1425
3747 1697 1505
3747 1889 1617
3747 2017 1713
3747 2146 1841
3571 2530 1361
3667 2434 1409
3683 2354 1473
3667 2450 1553
3619 2514 1585
3619 2642 1681
3619 2722 1729
3619 2802 1793
3619 2882 1841
3555 3010 1521
3539 3058 1537
3523 3026 1521
3571 3042 1585
3571 3026 1617
3571 3074 1649
3571 3186 1713
3603 3266 1777
3603 3314 1809
3571 3346 1665
3571 3394 1697
3539 3410 1697
3523 3427 1697
3523 3427 1713
3555 3491 1793
3571 3507 1809
3587 3555 1857
3651 3619 1921
3603 3651 1841
3603 3667 1857
3603 3667 1857
3619 3683 1873
3619 3699 1873
3667 3715 1921
3683 3731 1985
3715 3747 2082
3731 3779 2210
3699 3795 1969
3699 3779 1985
3731 3811 2050
3699 3795 2098
3731 3827 2210
3731 3811 2290
3779 3843 2530
3827 3843 2722
3875 3875 3042
3779 3875 2290
3795 3891 2498
3827 3875 2690
3859 3875 2914
3859 3875 3074
3875 3891 3186
3891 3907 3410
3907 3923 3635
3907 3907 3811
