其他预设/【236】赛博朋克风调色预设/【后期菌】视频调色预设/3DL/Sunset 09_S.3dl
# LUT by SparkleStock. Enhanced with VOXCOLOR algorithms.
0 256 512 768 1023
48 16 16
96 64 464
128 192 1297
192 544 2033
288 785 2546
272 608 416
336 640 913
496 817 1713
592 1041 2338
705 1249 2690
881 1633 881
1041 1729 1313
1169 1729 1729
1377 1921 2162
1553 2033 2450
1697 2642 1137
1889 2722 1393
2210 2850 1729
2466 2962 2017
2674 3058 2258
2466 3170 865
2658 3250 945
2786 3346 1057
2930 3443 1217
3010 3491 1313
753 80 208
1025 176 721
1361 304 1377
1297 592 1985
1041 849 2562
2258 705 448
2322 817 945
1425 1217 1713
1505 1425 2194
1713 1617 2530
2418 1777 176
1745 2114 1345
1985 2290 1921
2370 2466 2290
2546 2610 2514
3106 2770 144
2770 2994 945
2850 3090 1249
2962 3138 1441
3058 3250 1601
3218 3346 352
3218 3427 689
3154 3539 1089
3218 3571 1201
3394 3651 1313
2498 368 448
2674 352 801
2914 448 1441
3042 737 2114
3186 817 2434
2802 977 432
2722 977 1009
2914 1025 1617
3250 1281 1905
2962 1713 2386
2866 2033 96
2786 1985 753
2946 2130 1537
3138 2722 1921
3122 2882 2226
3346 3042 128
3218 3106 336
3186 3298 1041
3234 3362 1185
3314 3443 1313
3443 3555 801
3507 3603 945
3539 3635 1089
3603 3747 1505
3699 3779 1825
3282 576 624
3346 544 849
3475 624 1377
3491 849 1921
3507 1057 2290
3330 1201 560
3346 1137 1073
3459 1265 1585
3619 1505 1681
3619 1729 2001
3378 2322 144
3346 2242 769
3378 2226 1473
3587 2546 1585
3667 2930 1425
3523 3314 368
3410 3282 608
3346 3282 1185
3427 3427 1553
3571 3619 1313
3651 3667 1169
3715 3731 1425
3763 3811 1809
3843 3827 2354
3891 3875 2898
3587 753 801
3683 817 961
3731 817 1297
3763 961 1777
3715 1185 2130
3587 1553 496
3699 1585 1041
3747 1729 1377
3715 2017 1569
3715 2290 1825
3635 2802 128
3763 2658 480
3875 2514 1329
3827 2738 1601
3747 3218 1185
3619 3507 817
3763 3394 961
3843 3346 1489
3859 3427 1985
3843 3699 1905
3859 3811 1953
3939 3843 2514
3955 3939 2866
3987 3955 3459
3971 3971 3955
