其他预设/【236】赛博朋克风调色预设/【后期菌】视频调色预设/3DL/Sunset 02_S.3dl
# LUT by SparkleStock. Enhanced with VOXCOLOR algorithms.
0 64 128 192 256 320 384 448 512 576 640 704 768 832 896 960 1023
352 288 256
368 320 320
368 320 336
368 352 400
384 368 432
400 400 528
416 400 608
432 432 721
448 496 881
496 560 1073
528 592 1201
592 672 1441
608 753 1649
640 817 1841
689 929 2098
737 993 2322
769 1105 2530
352 336 304
368 352 352
368 368 400
384 368 432
400 384 512
400 400 592
416 432 689
432 480 833
464 528 977
528 592 1169
576 656 1345
592 705 1505
624 769 1713
672 865 1905
721 961 2178
753 1073 2402
769 1169 2578
368 368 336
368 368 384
384 384 416
400 400 512
416 416 592
416 432 672
416 480 801
464 544 929
496 576 1057
544 624 1217
576 705 1425
608 769 1601
640 849 1793
705 961 2066
753 1073 2290
785 1185 2530
801 1281 2658
400 400 400
384 400 400
400 448 480
432 464 560
448 480 624
448 528 769
464 544 865
496 592 993
544 640 1185
592 737 1393
592 769 1505
656 881 1777
705 961 2001
753 1073 2226
769 1169 2402
817 1297 2594
849 1425 2754
400 464 400
416 496 480
432 512 544
448 544 624
464 544 689
480 592 833
512 608 945
560 689 1137
592 769 1297
608 817 1473
656 913 1697
689 977 1857
753 1105 2114
769 1201 2290
817 1329 2498
817 1377 2642
849 1473 2786
432 560 496
448 592 560
496 624 640
512 640 753
528 672 833
544 705 961
592 753 1105
592 801 1217
640 881 1393
672 961 1617
689 1009 1729
737 1137 1921
769 1233 2146
785 1313 2290
833 1425 2482
865 1521 2658
881 1617 2770
464 721 560
512 753 672
528 769 753
528 785 801
576 801 929
592 849 1025
624 945 1185
656 977 1329
705 1041 1505
737 1105 1633
769 1201 1793
785 1281 1969
817 1377 2162
817 1425 2274
881 1537 2498
929 1649 2626
961 1745 2786
544 865 624
576 961 737
592 961 833
624 1009 945
656 1041 1057
672 1073 1153
705 1121 1265
737 1169 1393
769 1233 1521
785 1281 1665
833 1345 1825
881 1505 2017
929 1569 2162
961 1665 2338
1025 1809 2482
1073 1905 2642
1089 1969 2786
624 1089 721
672 1153 801
721 1217 897
737 1297 1009
737 1297 1089
769 1345 1233
817 1377 1329
897 1473 1505
881 1489 1585
961 1601 1745
993 1697 1905
1041 1745 2050
1121 1905 2242
1153 1985 2386
1185 2050 2530
1265 2162 2658
1297 2210 2722
785 1345 753
817 1441 833
897 1505 945
897 1569 1057
993 1665 1201
1009 1697 1329
1057 1809 1473
1121 1873 1585
1137 1937 1745
1169 2001 1873
1201 2066 1985
1297 2178 2146
1329 2242 2274
1329 2258 2386
1473 2402 2498
1489 2434 2578
1569 2546 2706
993 1697 801
1057 1825 913
1137 1873 961
1185 1969 1137
1201 2001 1185
1297 2130 1329
1329 2210 1505
1377 2258 1617
1441 2354 1761
1521 2434 1873
1569 2530 2050
1601 2578 2210
1681 2626 2290
1713 2658 2370
1825 2770 2482
1905 2802 2578
1969 2850 2674
1249 2114 833
1313 2194 961
1409 2226 1025
1489 2338 1137
1505 2338 1185
1601 2466 1329
1697 2562 1457
1809 2642 1585
1921 2690 1697
1953 2722 1777
2033 2818 1937
2146 2850 2050
2066 2882 2178
2274 2994 2274
2322 3042 2418
2370 3058 2466
2402 3122 2594
1649 2482 881
1745 2578 945
1825 2626 1041
1857 2674 1137
1905 2706 1169
2066 2834 1313
2130 2850 1393
2178 2898 1521
2354 2994 1617
2402 3010 1697
2498 3122 1825
2530 3154 1921
2674 3218 2001
2722 3234 2130
2770 3266 2194
2818 3314 2322
2898 3362 2386
2017 2850 881
2210 2930 961
2210 2962 1009
2290 2978 1089
2450 3074 1201
2546 3122 1281
2482 3122 1377
2658 3202 1441
2754 3266 1553
2674 3282 1665
2818 3330 1729
2834 3362 1825
2930 3394 1889
3010 3410 1921
3058 3459 2050
3138 3507 2114
3090 3507 2194
2546 3218 865
2610 3218 929
2642 3250 993
2706 3282 1089
2754 3298 1169
2898 3362 1233
2978 3427 1313
2914 3427 1393
3010 3459 1473
3074 3507 1585
3090 3523 1633
3266 3571 1697
3234 3619 1809
3298 3587 1841
3282 3651 1905
3330 3667 2001
3394 3651 2017
2978 3459 929
2898 3443 945
3074 3507 1041
3106 3539 1137
3218 3571 1185
3250 3619 1281
3266 3619 1313
3250 3635 1393
3282 3667 1505
3394 3699 1537
3427 3699 1585
3475 3731 1665
3507 3763 1729
3555 3779 1809
3587 3795 1873
3539 3779 1921
3555 3795 2001
3186 3619 961
3266 3667 1041
3314 3699 1121
3362 3715 1169
3410 3731 1185
3427 3731 1281
3427 3731 1313
3523 3779 1409
3539 3795 1441
3539 3779 1505
3587 3843 1601
3635 3859 1649
3683 3875 1713
3667 3859 1729
3731 3891 1825
3715 3875 1841
3763 3923 1905
384 320 288
384 320 304
400 352 368
400 368 416
400 368 464
448 400 576
464 432 656
480 464 769
512 528 913
528 576 1073
576 624 1297
592 689 1489
624 753 1665
672 833 1857
705 913 2098
737 993 2322
769 1121 2546
400 336 320
400 336 368
432 352 400
432 368 464
432 400 544
448 400 608
464 464 769
480 496 849
512 544 1009
544 592 1185
592 656 1377
624 737 1585
656 801 1761
705 929 2033
753 1009 2242
769 1121 2466
801 1201 2610
432 352 368
432 352 384
432 368 448
448 400 528
448 416 592
464 448 672
496 512 849
496 560 961
560 608 1137
592 689 1329
608 753 1505
640 801 1697
705 913 1937
753 993 2146
769 1073 2338
817 1217 2562
817 1297 2674
448 368 368
448 400 448
448 416 512
480 448 592
480 480 656
496 512 769
544 592 961
560 624 1105
576 672 1249
608 769 1473
640 833 1633
672 913 1841
737 1009 2050
769 1105 2258
817 1201 2434
833 1313 2594
849 1425 2754
480 416 400
464 480 512
480 496 560
496 560 656
512 592 769
560 624 913
592 689 1041
592 721 1185
640 801 1377
640 849 1521
721 961 1745
737 1041 1921
769 1121 2130
801 1233 2338
833 1329 2498
833 1377 2610
849 1489 2770
528 512 464
512 608 592
528 592 640
544 640 753
560 672 833
592 737 961
640 801 1137
640 833 1281
689 913 1441
737 1025 1649
753 1089 1777
769 1169 2001
801 1265 2162
849 1361 2322
881 1457 2466
945 1553 2626
961 1617 2706
592 689 464
560 769 656
592 785 753
592 833 833
640 881 977
672 929 1105
672 977 1201
705 1025 1329
769 1089 1489
817 1169 1633
881 1265 1857
865 1313 1953
945 1441 2178
977 1537 2354
961 1617 2466
1041 1697 2626
1089 1777 2754
656 817 496
624 961 721
656 993 833
689 1041 913
753 1105 1009
737 1137 1169
817 1201 1297
817 1201 1377
865 1297 1521
929 1361 1697
977 1489 1841
961 1537 1985
1025 1633 2194
1137 1745 2322
1137 1825 2482
1249 1985 2658
1249 2033 2770
785 1025 544
817 1249 801
833 1265 881
849 1313 961
897 1393 1121
929 1505 1249
961 1473 1329
993 1537 1505
1057 1617 1649
1169 1761 1825
1169 1777 1889
1185 1873 2098
1265 1985 2226
1345 2066 2370
1425 2210 2530
1473 2258 2626
1537 2354 2706
1105 1249 416
977 1505 817
1089 1617 913
1057 1633 1041
1153 1745 1153
1233 1825 1297
1281 1921 1441
1329 2001 1553
1345 2050 1697
1409 2146 1857
1457 2210 1937
1505 2258 2098
1537 2338 2226
1665 2434 2370
1729 2482 2434
1761 2530 2482
1889 2642 2642
1457 1665 448
1233 1873 881
1329 1969 961
1409 2098 1105
1409 2098 1185
1505 2210 1297
1617 2338 1457
1665 2370 1569
1761 2482 1713
1777 2498 1809
1809 2562 1921
1953 2690 2130
2001 2722 2210
2114 2786 2338
2162 2818 2386
2258 2898 2482
2418 2978 2626
1761 2033 400
1665 2274 833
1713 2370 929
1745 2402 1073
1809 2482 1185
1953 2626 1297
1969 2626 1393
2050 2690 1521
2162 2722 1633
2370 2850 1729
2322 2850 1841
2450 2962 2001
2450 3010 2066
2578 3042 2178
2594 3138 2354
2722 3186 2386
2722 3218 2482
2274 2498 464
2146 2674 769
2194 2690 817
2210 2754 961
2274 2866 1137
2322 2866 1233
2450 2914 1345
2546 2978 1425
2610 3058 1553
2722 3106 1617
2818 3202 1697
2802 3218 1825
2898 3250 1873
2978 3298 2001
3010 3346 2050
3026 3362 2178
3106 3410 2210
2770 2962 512
2546 2978 785
2610 3058 865
2786 3186 1009
2754 3186 1169
2770 3202 1217
2850 3250 1297
2914 3314 1409
2930 3330 1505
2978 3346 1569
3058 3394 1633
3074 3459 1729
3186 3475 1761
3250 3507 1857
3266 3523 1953
3314 3555 2017
3282 3571 2098
2994 3298 576
2978 3330 705
2994 3362 833
3010 3410 961
3010 3443 1169
3154 3491 1265
3186 3491 1329
3186 3523 1377
3218 3555 1473
3282 3619 1537
3266 3587 1617
3410 3667 1649
3346 3667 1729
3459 3683 1777
3410 3683 1873
3507 3731 1969
3571 3747 2001
3330 3555 672
3234 3571 769
3346 3619 849
3394 3635 977
3346 3635 1153
3394 3683 1265
3394 3667 1281
3394 3715 1377
3443 3747 1473
3539 3763 1489
3555 3779 1585
3587 3795 1649
3635 3827 1697
3635 3827 1745
3683 3843 1825
3619 3843 1889
3651 3859 1953
3507 3699 769
3507 3731 881
3555 3747 961
3523 3747 1041
3555 3795 1249
3539 3779 1297
3619 3843 1377
3635 3843 1409
3651 3859 1457
3683 3875 1537
3715 3891 1617
3715 3891 1633
3763 3907 1697
3763 3907 1713
3763 3907 1761
3843 3939 1873
3843 3923 1889
400 320 288
400 336 336
448 368 400
448 368 432
496 400 528
512 400 592
544 448 705
576 512 817
592 544 929
592 592 1089
592 624 1297
640 721 1537
672 769 1729
705 865 1937
737 961 2178
769 1057 2434
801 1137 2594
432 336 320
464 352 368
512 368 400
512 384 480
528 400 576
544 448 689
528 480 753
528 512 849
592 592 1089
592 608 1201
608 689 1457
640 753 1633
689 817 1825
737 945 2098
769 1041 2290
801 1137 2482
833 1233 2642
528 352 320
576 368 352
624 400 432
656 416 512
592 416 608
576 448 705
560 512 833
576 592 1025
592 640 1217
592 689 1361
640 769 1585
689 849 1777
721 929 1985
785 1025 2226
801 1121 2370
833 1233 2594
849 1329 2722
592 368 352
608 400 416
672 416 496
640 448 576
624 496 705
592 512 785
608 560 945
608 656 1137
624 705 1313
672 785 1505
689 865 1713
737 945 1889
769 1025 2098
801 1137 2290
849 1249 2482
849 1313 2594
897 1457 2754
705 432 400
592 480 512
592 512 576
592 544 656
608 592 769
608 624 913
640 689 1073
672 753 1249
689 833 1425
721 913 1601
753 977 1777
769 1089 1985
785 1137 2162
817 1249 2322
897 1345 2466
897 1409 2626
961 1505 2786
801 496 416
672 544 512
592 624 656
608 689 769
624 769 913
656 833 1057
689 865 1201
689 913 1329
753 961 1505
785 1057 1665
849 1137 1825
865 1201 2001
913 1297 2178
961 1425 2354
961 1489 2482
1057 1569 2594
1105 1697 2722
817 592 368
753 656 592
689 833 769
721 865 865
737 961 993
769 993 1121
769 1009 1201
833 1105 1361
913 1169 1521
897 1201 1633
945 1281 1793
993 1345 1953
1041 1489 2162
1137 1617 2338
1153 1697 2482
1169 1777 2610
1265 1889 2770
913 801 336
833 897 560
785 1025 801
801 1089 913
865 1169 1041
897 1265 1185
897 1281 1281
977 1329 1409
1009 1409 1553
1121 1489 1713
1121 1553 1873
1153 1649 2017
1265 1777 2178
1329 1889 2370
1377 1953 2450
1457 2050 2610
1441 2098 2706
1089 1025 352
1009 1153 560
993 1377 897
993 1441 977
1041 1505 1137
1137 1569 1249
1137 1617 1377
1249 1713 1537
1281 1793 1681
1329 1873 1825
1393 1905 1889
1425 1985 2066
1569 2146 2210
1521 2162 2290
1633 2274 2434
1729 2386 2562
1745 2434 2658
1569 1345 224
1329 1553 592
1217 1713 945
1329 1777 1025
1393 1889 1185
1457 1953 1313
1425 1985 1441
1553 2130 1553
1569 2162 1665
1633 2226 1793
1761 2370 1937
1761 2402 2050
1873 2482 2210
1905 2498 2322
2130 2642 2386
2114 2658 2498
2258 2786 2578
2162 1729 192
1777 1841 432
1537 2066 961
1601 2146 1057
1617 2226 1185
1777 2338 1281
1889 2450 1489
1841 2418 1521
2001 2530 1649
2194 2658 1793
2162 2674 1905
2210 2706 2017
2354 2802 2130
2434 2882 2226
2466 2914 2370
2578 2994 2450
2642 3058 2546
2610 2290 288
2274 2258 432
2050 2546 929
2066 2578 1057
2098 2610 1121
2178 2690 1265
2258 2722 1361
2338 2770 1489
2530 2866 1601
2610 2978 1697
2658 3026 1825
2754 3074 1937
2754 3090 2017
2834 3186 2162
2818 3202 2242
2882 3234 2338
2962 3314 2418
3010 2722 336
2802 2754 464
2626 2882 785
2594 2866 929
2546 2962 1105
2642 2978 1185
2802 3090 1313
2850 3138 1409
2882 3186 1505
2978 3234 1569
3026 3282 1633
3042 3330 1761
3106 3330 1793
3154 3362 1953
3186 3427 1953
3266 3475 2098
3282 3491 2162
3282 3090 432
3058 3138 544
2978 3218 817
2994 3218 913
3042 3298 1089
3026 3314 1233
3058 3362 1297
3106 3362 1377
3234 3459 1457
3234 3491 1537
3298 3507 1601
3282 3539 1697
3362 3571 1745
3410 3571 1825
3427 3587 1857
3491 3635 1937
3443 3651 2001
3427 3427 528
3346 3459 592
3250 3507 769
3250 3523 945
3250 3539 1137
3346 3587 1265
3394 3619 1329
3330 3635 1409
3330 3635 1473
3427 3683 1553
3443 3699 1601
3507 3699 1633
3491 3731 1713
3571 3731 1761
3555 3763 1841
3571 3763 1905
3667 3779 1921
3619 3619 640
3555 3651 705
3539 3651 769
3555 3683 881
3523 3699 1121
3523 3747 1281
3571 3779 1361
3491 3763 1361
3571 3827 1505
3635 3795 1505
3683 3859 1569
3699 3859 1617
3715 3843 1665
3747 3875 1729
3763 3891 1793
3699 3875 1841
3731 3891 1905
3731 3763 769
3731 3779 833
3683 3763 897
3699 3827 977
3699 3843 1153
3651 3843 1313
3715 3875 1377
3731 3891 1457
3763 3907 1505
3779 3907 1537
3795 3907 1617
3795 3923 1649
3843 3939 1713
3875 3939 1745
3891 3955 1825
3907 3971 1841
3891 3955 1889
432 320 288
480 352 352
528 384 400
560 400 464
592 416 560
624 448 640
705 512 785
737 544 881
769 592 1041
753 640 1217
737 689 1393
737 753 1585
753 785 1761
769 881 2001
769 961 2194
785 1025 2418
817 1137 2610
528 352 320
560 368 352
608 384 400
672 416 496
689 432 624
737 464 737
721 528 849
737 592 993
769 624 1137
785 689 1329
737 705 1441
721 785 1681
769 881 1905
769 945 2066
817 1057 2338
833 1137 2498
