其他预设/【236】赛博朋克风调色预设/【后期菌】视频调色预设/3DL/Sunset 05.3dl
# LUT by SparkleStock. Enhanced with VOXCOLOR algorithms.
0 128 256 384 512 640 768 896 1023
624 528 416
624 528 448
624 528 480
656 544 560
656 576 705
705 624 945
801 753 1361
897 833 1809
993 929 2130
656 560 432
656 576 464
672 608 544
689 624 672
705 672 833
769 753 1153
865 849 1537
961 945 1921
1025 1025 2194
672 672 464
689 705 528
689 705 608
705 753 769
769 833 1009
849 945 1329
945 1025 1633
1009 1121 1953
1057 1201 2194
721 817 544
753 881 624
769 929 737
769 1009 897
801 1089 1105
865 1153 1361
961 1281 1617
1025 1345 1857
1089 1441 2098
817 1105 656
881 1201 753
881 1233 817
881 1329 945
881 1425 1105
929 1601 1377
993 1713 1633
1041 1793 1873
1121 1841 2017
1025 1537 769
1089 1649 865
1105 1777 961
1121 1889 1073
1121 1953 1233
1201 2098 1409
1297 2178 1617
1345 2258 1793
1425 2322 1969
1313 2050 881
1409 2146 961
1489 2226 1041
1553 2290 1169
1713 2402 1313
1825 2498 1505
1985 2546 1633
2050 2610 1761
2178 2738 1889
1825 2450 961
1921 2498 993
2017 2562 1057
2178 2626 1105
2290 2690 1169
2338 2770 1265
2466 2834 1345
2530 2882 1377
2546 2914 1489
2290 2754 993
2434 2818 1041
2514 2850 1041
2530 2882 1073
2642 2962 1105
2722 3042 1137
2786 3090 1169
2818 3122 1201
2866 3170 1217
656 528 448
689 544 480
705 544 512
721 544 576
721 544 737
737 656 1009
849 785 1425
945 865 1857
1025 945 2162
737 576 464
753 592 528
753 576 560
737 624 737
753 737 961
833 817 1281
897 897 1633
993 993 1969
1057 1073 2258
929 656 528
769 689 576
769 737 672
785 801 849
817 897 1089
897 993 1377
977 1057 1649
1057 1201 1937
1121 1281 2210
1073 849 544
833 961 689
881 1025 817
849 1073 929
897 1201 1153
961 1265 1361
1057 1345 1617
1137 1441 1857
1249 1601 2082
1281 1265 544
1041 1345 801
1073 1457 929
1105 1521 1025
1121 1649 1217
1233 1761 1425
1329 1905 1665
1361 1953 1857
1489 2050 2066
2050 1793 608
1313 1841 881
1377 1937 1025
1553 2082 1217
1633 2146 1345
1761 2258 1537
1953 2338 1713
2017 2418 1905
2130 2514 2001
2434 2274 656
2146 2370 897
2082 2370 1025
2210 2482 1105
2226 2530 1233
2322 2594 1313
2386 2658 1409
2450 2722 1537
2546 2786 1617
2642 2610 705
2562 2722 865
2530 2754 993
2562 2818 1089
2594 2850 1121
2690 2930 1169
2738 2978 1217
2786 3026 1265
2818 3058 1297
2786 2898 785
2770 2898 817
2786 2994 961
2818 3042 1025
2866 3090 1057
2898 3106 1073
2930 3170 1105
2994 3218 1121
3010 3250 1137
721 544 448
737 544 496
785 576 560
849 576 672
945 560 833
945 608 1121
993 737 1489
1025 865 1905
1073 993 2242
1057 624 512
1249 672 608
1409 721 737
1489 705 881
1505 689 1121
1233 672 1377
1009 945 1697
1073 1041 2017
1121 1121 2290
1841 817 689
2178 881 801
2210 865 881
1761 849 1025
1057 977 1217
1025 1057 1409
1137 1201 1697
1233 1281 2001
1329 1361 2194
2130 1025 721
2130 1089 801
1697 1137 961
1681 1233 1153
1361 1393 1297
1265 1425 1457
1425 1585 1713
1489 1665 1953
1601 1793 2146
2130 1489 672
2017 1585 721
1457 1681 993
1585 1793 1201
1649 1905 1393
1777 1985 1553
1873 2114 1777
1985 2226 1953
2098 2290 2130
2482 2001 689
2450 2130 721
2017 2210 993
2130 2290 1153
2242 2370 1313
2290 2418 1409
2402 2530 1601
2482 2610 1777
2546 2674 1857
2706 2418 689
2642 2482 705
2546 2626 945
2546 2658 1025
2610 2738 1137
2642 2754 1201
2706 2818 1281
2738 2866 1377
2786 2946 1425
2818 2754 705
2802 2802 753
2770 2834 833
2786 2946 1009
2818 3010 1073
2850 3042 1073
2898 3074 1121
2930 3106 1153
2962 3154 1169
2914 2962 769
2930 3042 801
2962 3058 833
2930 3106 961
2978 3186 1041
3026 3234 1057
3042 3250 1057
3074 3282 1073
3122 3314 1089
1009 608 496
1137 624 576
1345 672 705
1489 672 801
1697 672 993
1793 656 1265
2001 672 1601
2162 689 1921
1505 833 2242
1937 785 689
2066 817 753
2258 849 881
2354 833 1041
2482 817 1233
2370 737 1441
2306 753 1761
2082 769 2162
1761 897 2338
2386 929 785
2546 945 881
2594 945 977
2706 945 1105
2626 945 1297
2578 897 1505
2450 961 1825
1601 1297 2050
1633 1457 2242
2514 1153 769
2658 1137 833
2834 1153 1057
2802 1217 1201
2370 1505 1393
2082 1697 1617
1905 1777 1825
2050 1905 2050
2114 1953 2210
2498 1681 753
2530 1697 801
2546 1793 929
2402 1985 1169
2434 2098 1329
2290 2194 1505
2370 2306 1697
2402 2386 1921
2450 2450 2082
2690 2162 737
2722 2194 737
2690 2290 769
2514 2498 1073
2514 2530 1169
2594 2594 1313
2626 2674 1425
2706 2754 1569
2754 2802 1665
2802 2546 689
2818 2610 705
2802 2690 737
2754 2818 993
2786 2866 1057
2786 2898 1121
2834 2962 1169
2914 3026 1249
2930 3042 1281
2882 2834 721
2898 2866 737
2914 2946 785
2946 3042 929
2930 3058 977
2978 3122 1041
2994 3154 1073
3042 3234 1105
3058 3250 1105
3010 3074 785
3042 3122 801
3042 3154 817
3074 3218 865
3074 3250 977
3106 3282 1009
3170 3330 1041
3202 3346 1041
3218 3378 1089
1825 737 656
2001 769 721
2130 801 817
2290 785 977
2418 769 1169
2514 737 1425
2562 705 1713
2626 721 2066
2674 721 2306
2450 865 801
2546 897 865
2610 897 977
2706 881 1105
2786 865 1297
2834 833 1521
2898 801 1729
2914 785 1969
2946 801 2258
2658 977 817
2818 1009 993
2882 1041 1073
2946 1041 1201
2994 1025 1313
2994 961 1457
2946 977 1729
2898 1009 2017
2754 1105 2290
2690 1249 817
2850 1297 897
3010 1281 1089
2994 1361 1233
3010 1393 1313
2962 1521 1553
2882 1601 1713
2850 1873 1937
2546 2146 2194
2642 1841 769
2722 1889 801
2866 1873 897
3010 1873 1073
2962 2066 1265
2738 2258 1489
2674 2482 1601
2674 2578 1761
2706 2626 1937
2802 2290 737
2818 2338 721
2818 2386 705
2882 2482 801
2786 2658 1057
2850 2738 1153
2802 2786 1265
2850 2850 1361
2882 2914 1425
2882 2690 689
2866 2706 672
2898 2770 705
2882 2786 737
2914 2994 993
2914 3010 1041
2962 3058 1073
3010 3106 1105
3042 3154 1137
2994 2962 753
2994 2994 753
3026 3042 785
3042 3074 801
3058 3186 961
3074 3218 1025
3122 3282 1057
3154 3282 1057
3170 3298 1073
3090 3186 801
3122 3218 817
3154 3250 833
3202 3282 849
3202 3298 849
3234 3346 977
3282 3443 1121
3314 3475 1201
3378 3523 1377
2386 817 753
2498 849 833
2562 865 929
2674 865 1073
2770 817 1265
2802 785 1521
2866 753 1777
2930 753 2050
2994 769 2290
2706 929 849
2802 961 961
2866 961 1041
2898 945 1137
2962 897 1281
3026 881 1521
3058 849 1729
3122 849 1985
3138 865 2178
2850 1057 865
2962 1057 977
3010 1089 1073
3042 1121 1217
3074 1089 1313
3122 1073 1505
3138 1073 1633
3170 1089 1825
3218 1153 2001
2834 1393 849
2962 1425 881
3042 1409 1057
3074 1457 1137
3122 1601 1249
3122 1665 1361
3122 1777 1505
3090 1969 1697
3042 2114 1921
2770 2001 769
2802 2082 769
2930 2066 849
3026 2082 977
3042 2162 1089
3090 2274 1217
3058 2402 1377
3042 2546 1489
3010 2658 1569
2898 2482 705
2898 2546 689
2914 2546 689
2946 2578 721
2994 2658 785
2994 2786 993
2930 2882 1057
2946 2946 1169
2994 3026 1249
2978 2818 721
2962 2818 705
2978 2866 737
3010 2946 753
2994 2994 801
3010 3074 961
3074 3170 1025
3106 3218 1073
3122 3250 1089
3042 3042 753
3058 3090 785
3106 3138 801
3138 3202 817
3154 3218 849
3186 3282 945
3202 3298 993
3250 3362 1057
3266 3410 1089
3202 3282 801
3218 3282 817
3250 3314 833
3282 3362 897
3330 3427 977
3346 3475 1089
3410 3523 1329
3475 3587 1697
3507 3635 1985
2690 881 817
2738 881 865
2802 897 977
2882 865 1137
2978 833 1345
3042 833 1553
3090 801 1825
3122 785 2050
3154 801 2274
2898 977 865
2946 993 945
3010 1009 1041
3074 1009 1201
3090 977 1313
3106 945 1457
3154 929 1665
3218 945 1905
3234 929 2146
2978 1105 881
3074 1137 1009
3106 1169 1105
3138 1217 1233
3186 1249 1345
3202 1249 1457
3250 1297 1633
3282 1345 1777
3282 1377 1937
2946 1553 833
3042 1601 897
3138 1633 1041
3170 1713 1121
3154 1793 1217
3154 1873 1281
3170 2001 1361
3186 2114 1505
3202 2274 1617
2898 2178 753
2914 2290 769
2994 2258 833
3090 2306 929
3074 2338 961
3154 2498 1041
3170 2530 1153
3170 2610 1249
3170 2722 1297
2962 2610 689
2978 2674 705
2978 2706 689
2978 2706 689
3010 2754 737
3090 2850 881
3074 2898 897
3074 2994 977
3074 3058 1025
3042 2946 737
3042 2978 737
3026 2962 721
3042 3026 737
3042 3042 737
3090 3106 801
3154 3202 929
3170 3250 993
3234 3298 1041
3138 3186 785
3170 3202 785
3186 3234 785
3202 3250 785
3202 3266 769
3266 3314 881
3298 3410 1041
3346 3475 1169
3394 3523 1345
3282 3346 833
3298 3378 897
3346 3427 993
3378 3475 1073
3443 3523 1249
3507 3587 1505
3523 3651 1937
3571 3683 2370
3619 3731 2674
2866 929 849
2930 945 961
3026 945 1057
3042 881 1169
3106 865 1345
3186 849 1569
3250 865 1825
3282 849 2066
3282 849 2258
3026 993 881
3058 1025 961
3074 1025 1041
3154 1041 1201
3186 1041 1329
3202 1025 1441
3250 1025 1649
3282 1025 1857
3330 1073 2017
3058 1249 897
3154 1233 1025
3186 1297 1121
3234 1361 1217
3234 1425 1313
3250 1457 1409
3266 1585 1553
3282 1729 1665
3282 1841 1793
3042 1793 849
3106 1809 897
3138 1857 961
3186 1953 1057
3170 2050 1105
3202 2178 1201
3186 2226 1297
3234 2370 1393
3234 2450 1505
3010 2418 769
3026 2466 753
3042 2466 769
3106 2434 865
3122 2530 897
3154 2626 945
3170 2706 993
3202 2786 1057
3250 2866 1121
3042 2786 721
3042 2802 721
3010 2818 689
3026 2834 689
3042 2882 705
3090 2914 817
3122 3026 865
3170 3090 929
3218 3202 993
3090 3042 737
3090 3058 737
3090 3074 737
3106 3122 721
3122 3122 721
3186 3186 785
3234 3234 849
3282 3298 929
3314 3378 1041
3234 3266 785
3266 3298 817
3266 3298 817
3282 3330 865
3314 3378 961
3346 3443 1041
3410 3491 1233
3475 3555 1553
3523 3635 2017
3394 3475 1025
3410 3507 1105
3491 3555 1329
3491 3587 1553
3539 3651 2066
3587 3699 2386
3651 3763 2722
3699 3827 3106
3715 3859 3282
3026 961 865
3090 977 977
3154 977 1089
3186 961 1201
3234 945 1361
3282 929 1585
3314 897 1809
3314 881 1969
3330 897 2162
3122 1041 897
3138 1041 977
3170 1073 1057
3218 1089 1201
3234 1105 1329
3266 1121 1441
3298 1169 1617
3346 1169 1777
3378 1265 1953
3106 1409 865
3218 1409 1009
3234 1441 1057
3250 1537 1153
3250 1649 1249
3250 1761 1345
3266 1889 1409
3282 2050 1505
3282 2146 1633
3010 2130 801
3106 2114 881
3170 2114 945
3186 2226 993
3202 2290 1025
3218 2386 1073
3234 2498 1153
3250 2562 1265
3250 2610 1329
3058 2546 753
3042 2594 737
3058 2610 737
3106 2658 785
3154 2690 849
3170 2786 865
3186 2834 897
3218 2914 945
3250 3010 1009
3074 2882 721
3074 2930 721
3058 2946 705
3042 2946 689
3074 2978 705
3154 3058 817
3154 3090 849
3218 3170 881
3282 3250 945
3170 3154 753
3202 3186 753
3186 3170 721
3202 3202 737
3202 3218 737
3250 3266 817
3282 3314 929
3346 3410 1073
3443 3507 1329
3298 3330 833
3346 3394 929
3362 3427 977
3378 3459 1057
3443 3507 1217
3443 3523 1425
3523 3603 1937
3587 3683 2354
3667 3763 2754
3507 3571 1409
3523 3635 1777
3587 3683 2210
3635 3731 2610
3667 3779 2866
3699 3827 3170
3731 3891 3443
3747 3955 3763
3699 3987 3971
