其他预设/【236】赛博朋克风调色预设/【后期菌】视频调色预设/3DL/Sunset 04_S.3dl
# LUT by SparkleStock. Enhanced with VOXCOLOR algorithms.
0 256 512 768 1023
32 80 160
128 272 416
272 512 929
576 929 1873
737 1313 2786
112 432 416
272 608 721
528 961 1441
801 1393 2306
945 1697 2834
192 977 656
240 1313 1025
608 1697 1649
1137 2226 2322
1553 2514 2690
1281 2242 993
1745 2498 1265
2290 2770 1681
2690 2962 2033
2946 3138 2402
2882 3170 1217
3106 3282 1345
3234 3378 1457
3346 3459 1633
3410 3523 1729
304 240 368
480 352 640
849 480 1137
1089 961 2001
1073 1409 2834
1697 753 480
2242 929 897
1089 1121 1649
1281 1569 2322
1633 1921 2802
2674 1601 592
1521 1809 1105
1841 2146 1697
2418 2498 2178
2706 2738 2562
3555 3138 1089
3058 3106 1249
3186 3202 1521
3314 3266 1713
3394 3362 1937
3571 3507 1265
3555 3571 1329
3523 3587 1441
3555 3603 1521
3651 3683 1585
1665 544 480
2450 640 817
3154 961 1473
3555 1169 2226
3635 1185 2738
3106 1089 496
2898 1089 1009
3138 1201 1649
3795 1537 2178
3507 1777 2674
3170 2162 528
2898 2050 785
3186 2290 1521
3410 2978 2033
3443 3090 2402
3731 3410 1185
3539 3394 1169
3507 3443 1425
3539 3475 1585
3571 3539 1713
3699 3635 1377
3715 3651 1393
3715 3699 1393
3747 3715 1729
3763 3731 2194
3651 1025 721
3731 977 1041
3907 1217 1697
4019 1377 2370
4003 1393 2818
3731 1233 576
3571 1201 1025
3699 1393 1585
4003 1841 1889
4003 2098 2434
3699 2722 721
3459 2434 897
3507 2418 1537
3795 2866 1777
3923 3330 1761
3795 3571 1265
3603 3443 1217
3459 3362 1489
3555 3507 1713
3731 3683 1569
3763 3715 1425
3763 3731 1569
3747 3747 2114
3859 3763 2818
3923 3763 3250
4003 1153 881
4067 1201 1201
4051 1377 1729
4095 1537 2370
4051 1601 2722
4003 1713 689
4019 1745 1073
4003 1953 1393
3987 2370 1713
3987 2658 2033
3923 3314 1089
3939 2978 1073
3987 2706 1537
3955 2978 1873
3907 3555 1569
3779 3651 1361
3827 3459 1233
3891 3346 1585
3891 3410 2066
3827 3699 2322
3827 3747 2370
3907 3779 2882
3939 3811 3106
3955 3811 3619
3939 3875 3907
