其他预设/【236】赛博朋克风调色预设/【后期菌】视频调色预设/3DL/Sunset 02_S.3dl
# LUT by SparkleStock. Enhanced with VOXCOLOR algorithms.
0 256 512 768 1023
352 288 256
384 368 432
448 496 881
608 753 1649
769 1105 2530
400 464 400
464 544 689
592 769 1297
753 1105 2114
849 1473 2786
624 1089 721
737 1297 1089
881 1489 1585
1121 1905 2242
1297 2210 2722
1649 2482 881
1905 2706 1169
2354 2994 1617
2674 3218 2001
2898 3362 2386
3186 3619 961
3410 3731 1185
3539 3795 1441
3683 3875 1713
3763 3923 1905
512 320 304
753 432 576
1025 640 1089
1041 849 1793
961 1137 2594
1681 560 144
2050 753 608
993 897 1473
1073 1233 2146
1249 1553 2690
2146 1281 112
1425 1697 1057
1681 2001 1633
2114 2338 2114
2434 2674 2578
3507 3010 448
3186 3250 977
3346 3443 1441
3475 3523 1713
3571 3635 2001
3875 3859 881
3907 3939 1089
3907 3955 1537
3939 3987 1729
4003 4035 1937
1937 496 112
2418 576 512
2978 849 1137
3266 1121 1713
3362 1329 2338
2962 849 176
2818 961 833
3058 1041 1457
3587 1249 1681
3218 1569 2290
2994 1857 192
2866 1873 753
3106 2066 1489
3282 2882 1889
3346 3138 2354
3843 3475 705
3715 3539 849
3763 3731 1425
3843 3827 1681
3891 3859 1889
4035 4003 1265
4051 4051 1409
4051 4051 1585
4067 4035 2274
4095 4035 2754
3555 785 320
3651 833 721
3779 1057 1281
3875 1265 1777
3875 1393 2258
3619 993 400
3491 1073 929
3635 1217 1489
3907 1521 1697
3907 1745 2146
3619 2418 432
3459 2274 865
3475 2338 1569
3779 2850 1857
3955 3362 1857
4003 3795 1025
3843 3699 1105
3667 3587 1505
3827 3747 1953
4051 4003 1937
4095 4051 1713
4067 4035 2098
4003 4035 2642
4051 3971 3266
4067 3955 3587
3907 977 656
3955 1105 1057
3971 1201 1441
3971 1329 1857
3971 1473 2258
3875 1361 608
3955 1441 1089
3987 1633 1473
3987 1985 1745
3987 2418 2066
3939 3186 801
3987 2930 945
4035 2722 1601
4067 3058 2017
4067 3699 1825
4051 3971 1345
4067 3731 1329
4095 3555 1761
4051 3619 2434
4095 3955 2818
4051 3987 2898
4067 3971 3298
4051 3987 3427
4051 3955 3827
4051 3939 4095
