其他预设/【236】赛博朋克风调色预设/【后期菌】视频调色预设/3DL/Sunset 07.3dl
# LUT by SparkleStock. Enhanced with VOXCOLOR algorithms.
0 256 512 768 1023
96 464 48
112 480 304
208 496 961
400 528 1729
544 544 2290
144 705 272
160 705 624
336 753 1393
528 801 2017
624 897 2434
160 1409 624
192 1505 993
336 1617 1569
560 1825 2146
737 1889 2482
528 2562 1105
753 2642 1233
1041 2802 1457
1329 2946 1713
1537 3106 1969
1905 3282 1489
2210 3362 1569
2386 3443 1649
2610 3539 1745
2754 3587 1809
640 464 112
897 480 432
1233 464 1137
1185 480 1793
961 528 2306
2001 592 480
2386 528 608
1089 721 1441
1009 801 2017
1201 929 2370
2306 1889 913
1313 1953 1089
1361 2114 1489
1681 2226 1953
1969 2354 2354
3010 2946 1425
2386 3026 1473
2386 3138 1585
2594 3218 1713
2690 3298 1825
3154 3491 1681
3138 3571 1729
3010 3651 1793
3090 3699 1841
3282 3779 1937
2130 512 400
2514 496 592
2802 480 1137
3026 496 1841
3218 512 2338
3106 656 705
3282 608 801
3394 608 1041
3362 608 1569
3122 737 2194
3090 2274 1137
3298 2082 1185
3266 2178 1505
2802 2642 1793
2850 2802 2066
3266 3186 1537
3266 3250 1569
3058 3394 1713
3074 3427 1761
3138 3539 1841
3410 3699 1841
3491 3731 1873
3523 3779 1921
3539 3843 2066
3619 3859 2226
3170 528 624
3282 480 721
3427 512 1121
3571 528 1633
3683 544 2082
3539 769 881
3603 801 993
3619 801 1121
3651 801 1297
3731 881 1569
3362 2626 1329
3443 2594 1393
3507 2594 1521
3523 2786 1697
3475 3010 1809
3443 3443 1713
3427 3443 1713
3443 3523 1745
3410 3619 1841
3475 3715 1953
3651 3811 1969
3667 3827 2033
3747 3875 2226
3795 3891 2562
3827 3875 2946
3651 576 753
3715 528 865
3763 544 1057
3827 560 1457
3843 576 1825
3715 1441 1057
3779 1345 1201
3795 1617 1425
3747 1889 1617
3747 2146 1841
3555 3010 1521
3523 3026 1521
3571 3026 1617
3571 3186 1713
3603 3314 1809
3603 3651 1841
3603 3667 1857
3619 3699 1873
3683 3731 1985
3731 3779 2210
3779 3875 2290
3827 3875 2690
3859 3875 3074
3891 3907 3410
3907 3907 3811
