其他预设/【236】赛博朋克风调色预设/【后期菌】视频调色预设/3DL/Sunset 01.3dl
# LUT by SparkleStock. Enhanced with VOXCOLOR algorithms.
0 128 256 384 512 640 768 896 1023
32 16 16
32 32 64
48 32 112
80 64 240
96 96 464
128 128 897
208 240 1537
288 416 2178
352 656 2610
64 64 64
64 64 96
96 96 224
112 128 416
160 176 817
208 272 1409
256 416 1985
336 656 2498
384 961 2818
80 144 112
112 192 208
128 224 352
160 256 640
240 400 1281
304 576 1857
368 833 2418
432 1105 2770
480 1281 2946
128 480 256
176 560 400
224 640 624
304 801 1057
368 929 1585
448 1121 2130
544 1361 2530
640 1569 2818
769 1825 3026
272 1249 560
400 1425 753
480 1473 929
592 1633 1297
672 1825 1761
897 2066 2258
1073 2242 2594
1201 2354 2834
1377 2466 2978
769 2162 737
993 2322 865
1201 2418 1057
1361 2546 1409
1553 2610 1809
1809 2754 2178
2001 2866 2514
2162 2914 2674
2274 2962 2850
1713 2770 672
2001 2834 753
2146 2898 897
2370 2994 1121
2594 3090 1393
2722 3138 1761
2834 3186 2017
2882 3202 2226
2994 3266 2434
2594 3138 544
2722 3186 624
2850 3234 769
3010 3282 929
3074 3298 1089
3138 3330 1313
3250 3378 1473
3266 3378 1633
3282 3394 1809
3026 3346 512
3138 3394 624
3202 3410 672
3218 3410 753
3314 3427 881
3362 3459 1041
3410 3475 1121
3427 3475 1233
3459 3491 1265
48 32 64
96 48 112
128 64 176
144 64 304
176 80 560
176 160 1073
272 288 1713
336 496 2322
384 753 2690
176 80 96
272 96 176
240 96 304
208 160 544
224 240 1089
272 368 1665
336 528 2178
400 785 2610
464 1041 2866
528 192 176
320 224 272
336 272 512
336 352 897
368 528 1521
448 737 2050
512 945 2450
656 1217 2754
737 1457 2962
929 432 176
464 705 528
544 849 817
576 993 1185
817 1233 1729
881 1361 2146
1025 1633 2578
1217 1825 2802
1377 2114 2994
1489 1313 224
1041 1777 721
1169 1889 1009
1313 2001 1361
1505 2194 1825
1697 2322 2162
1889 2482 2530
1985 2578 2722
2098 2674 2914
2674 2098 144
1857 2514 721
2050 2642 929
2322 2786 1297
2402 2818 1585
2546 2882 1969
2754 2962 2242
2786 3026 2514
2882 3090 2674
3122 2770 176
2834 2994 480
2882 3026 753
3010 3122 977
3058 3170 1281
3122 3218 1441
3186 3250 1649
3234 3282 1873
3266 3314 2050
3314 3122 192
3170 3250 368
3186 3314 608
3250 3362 865
3282 3362 993
3330 3394 1121
3378 3410 1233
3410 3427 1393
3443 3427 1457
3394 3362 272
3362 3378 320
3410 3427 496
3410 3459 705
3427 3491 801
3459 3491 865
3475 3491 977
3539 3507 1025
3555 3523 1073
160 48 64
208 48 128
336 80 240
464 112 416
656 128 656
705 208 1201
817 288 1777
592 496 2322
592 769 2674
849 144 64
1281 208 128
1617 224 208
1745 272 496
1745 304 977
1425 320 1457
672 608 2274
705 897 2642
769 1153 2866
2386 384 32
2962 464 128
2962 448 288
2162 464 833
993 624 1537
881 881 2082
1073 1105 2450
1233 1345 2722
1361 1585 2898
2818 705 16
2850 753 176
2306 881 656
2242 1041 1185
1761 1505 1713
1585 1665 2146
1841 1937 2482
1937 2114 2738
2066 2322 2930
2834 1473 32
2658 1681 160
2098 2098 913
2226 2258 1281
2306 2418 1681
2466 2546 2033
2562 2642 2386
2690 2786 2626
2770 2850 2802
3282 2338 112
3202 2514 176
2802 2818 785
2914 2882 1105
3010 2962 1425
3074 3010 1697
3154 3106 2033
3202 3154 2226
3250 3186 2354
3443 2882 144
3362 2946 176
3218 3154 544
3250 3186 769
3298 3266 1073
3330 3266 1185
3378 3314 1425
3410 3346 1601
3427 3378 1713
3475 3234 192
3443 3266 240
3378 3314 352
3394 3410 672
3410 3410 881
3410 3410 929
3459 3443 1057
3491 3459 1137
3507 3459 1217
3491 3410 256
3523 3427 320
3539 3443 352
3507 3459 544
3539 3507 753
3571 3523 801
3571 3523 849
3619 3539 881
3651 3555 929
737 112 48
1089 160 80
1505 208 176
1761 208 320
2114 256 608
2402 288 1025
2738 368 1505
2834 448 1937
1921 705 2530
2626 368 32
2802 384 64
3042 432 192
3106 432 416
3250 448 801
3138 432 1297
2994 496 1777
2674 672 2258
2242 929 2578
3234 528 32
3362 528 128
3394 544 320
3427 576 592
3330 592 1025
3282 672 1457
3090 945 2017
2082 1473 2642
2082 1745 2834
3378 833 32
3443 817 80
3523 817 416
3523 913 817
3122 1473 1425
2722 1937 2033
2482 2146 2418
2642 2386 2706
2674 2466 2834
3346 1729 48
3346 1777 64
3378 1873 288
3154 2274 1009
3186 2450 1425
3010 2674 1889
3074 2834 2226
3090 2898 2482
3122 2978 2658
3459 2546 96
3443 2562 64
3427 2690 176
3234 3010 961
3234 3074 1217
3314 3138 1441
3330 3186 1681
3378 3234 1889
3394 3266 2066
3523 3010 128
3539 3090 160
3507 3170 224
3410 3314 656
3410 3330 849
3410 3330 1041
3459 3362 1201
3507 3410 1345
3507 3410 1457
3523 3330 224
3523 3330 240
3523 3378 288
3523 3427 464
3507 3443 576
3523 3459 817
3539 3475 881
3587 3507 993
3587 3507 1025
3603 3459 320
3603 3475 336
3619 3491 384
3635 3507 432
3603 3507 592
3635 3523 721
3667 3555 785
3683 3555 833
3715 3555 977
2498 320 32
2770 368 32
2946 400 112
3090 416 336
3218 432 705
3282 448 1121
3298 448 1553
3330 512 1969
3346 624 2290
3314 480 32
3378 512 112
3410 512 288
3427 528 496
3443 528 849
3459 544 1217
3459 560 1569
3459 640 1921
3475 785 2226
3427 592 32
3491 608 160
3523 640 352
3523 656 624
3539 705 961
3523 721 1329
3491 897 1777
3443 1121 2194
3330 1457 2546
3475 929 32
3555 977 160
3603 993 464
3603 1105 785
3603 1233 1025
3587 1457 1601
3539 1729 1921
3491 2194 2322
3170 2642 2738
3475 1953 32
3491 2033 16
3635 1921 208
3667 1921 592
3635 2274 1057
3459 2674 1553
3346 2962 1985
3330 3074 2210
3362 3106 2402
3539 2658 64
3523 2722 80
3523 2802 96
3571 2898 240
3507 3154 977
3539 3218 1185
3475 3250 1377
3507 3314 1601
3507 3330 1729
3571 3154 160
3555 3186 160
3571 3234 192
3555 3266 256
3523 3410 737
3507 3410 913
3539 3410 1009
3571 3427 1089
3587 3459 1185
3587 3410 256
3603 3410 288
3619 3443 336
3619 3443 336
3603 3475 528
3603 3491 737
3635 3523 817
3667 3539 833
3683 3539 897
3667 3507 368
3667 3507 400
3683 3523 416
3699 3555 496
3683 3539 496
3683 3555 737
3747 3587 1105
3731 3571 1345
3763 3571 1841
3282 464 16
3346 464 48
3410 496 192
3410 512 432
3443 512 801
3443 496 1169
3443 528 1601
3475 592 1937
3507 721 2226
3443 544 48
3491 576 160
3523 592 320
3507 592 528
3523 592 833
3523 592 1169
3523 640 1537
3555 769 1905
3555 881 2162
3507 672 48
3539 656 192
3555 737 416
3587 817 721
3571 833 977
3587 929 1313
3587 1009 1601
3603 1137 1873
3619 1345 2162
3571 1153 80
3619 1233 192
3651 1249 496
3651 1345 737
3667 1569 993
3667 1633 1233
3683 1841 1585
3683 2162 1985
3635 2418 2258
3523 2194 32
3539 2274 48
3635 2226 160
3699 2226 512
3683 2386 769
3715 2626 993
3699 2818 1281
3683 2994 1617
3635 3122 1857
3619 2898 96
3587 2946 96
3587 2978 112
3635 3010 160
3651 3090 272
3651 3218 865
3587 3298 1121
3571 3346 1297
3603 3394 1441
3635 3298 208
3603 3298 208
3603 3330 240
3635 3378 272
3603 3394 336
3587 3427 721
3603 3459 817
3619 3491 945
3635 3507 993
3667 3443 304
3667 3459 336
3683 3491 384
3699 3507 416
3683 3507 448
3667 3507 576
3683 3523 721
3715 3555 865
3731 3555 1009
3715 3523 416
3715 3539 448
3715 3555 496
3715 3571 608
3747 3571 785
3779 3571 1073
3779 3571 1777
3779 3587 2402
3779 3587 2706
3443 528 16
3459 528 80
3475 544 224
3475 528 448
3507 544 833
3507 560 1185
3523 592 1585
3539 656 1889
3555 785 2178
3507 576 64
3523 592 160
3539 624 320
3555 656 576
3555 656 897
3539 672 1201
3555 753 1521
3571 865 1873
3587 993 2162
3555 785 80
3603 833 288
3603 881 464
3603 977 705
3619 1057 993
3619 1137 1297
3635 1281 1601
3667 1457 1825
3683 1665 2130
3619 1377 96
3667 1473 208
3699 1569 512
3699 1729 656
3699 1889 929
3715 2017 1153
3747 2242 1361
3747 2386 1569
3763 2594 1841
3603 2482 48
3619 2578 64
3667 2578 192
3683 2594 432
3715 2674 656
3763 2866 865
3763 2946 1025
3747 3026 1201
3731 3154 1361
3651 3074 128
3635 3138 144
3635 3170 160
3619 3154 176
3651 3186 240
3699 3250 640
3699 3282 753
3683 3362 913
3699 3410 1009
3667 3378 256
3667 3410 272
3635 3394 272
3635 3394 288
3651 3410 336
3667 3443 432
3651 3459 608
3667 3491 753
3699 3523 865
3699 3507 368
3715 3507 384
3715 3507 416
3715 3523 464
3699 3507 464
3715 3539 624
3731 3539 929
3763 3571 1377
3779 3555 1857
3731 3555 528
3731 3571 608
3763 3555 817
3779 3571 1057
3795 3571 1633
3795 3571 2210
3795 3603 2690
3779 3587 2994
3779 3603 3186
3491 560 32
3523 576 128
3523 576 304
3523 576 544
3539 576 881
3539 592 1249
3571 705 1633
3587 785 1905
3603 881 2162
3539 608 96
3571 672 224
3555 672 368
3571 737 624
3587 785 929
3571 833 1217
3603 945 1537
3619 1057 1857
3651 1233 2114
3587 993 112
3603 993 320
3635 1089 512
3651 1217 672
3651 1377 945
3667 1489 1217
3683 1633 1489
3715 1889 1761
3731 2114 1985
3683 1729 128
3699 1777 208
3699 1889 336
3699 2033 624
3731 2226 801
3747 2418 977
3747 2546 1185
3779 2754 1377
3779 2850 1569
3731 2818 128
3699 2866 112
3683 2850 144
3699 2786 368
3715 2882 560
3763 3010 705
3747 3074 801
3763 3170 929
3779 3266 1105
3699 3234 192
3683 3234 192
3635 3266 192
3651 3266 240
3667 3298 288
3715 3330 544
3715 3378 640
3747 3410 769
3747 3459 849
3699 3427 288
3683 3427 304
3683 3443 320
3683 3427 336
3683 3459 384
3715 3459 432
3715 3491 560
3747 3507 737
3763 3539 1009
3763 3555 448
3747 3555 480
3731 3539 528
3731 3523 608
3747 3523 833
3763 3539 1105
3779 3555 1649
3763 3539 2274
3779 3587 2738
3779 3571 945
3779 3571 1233
3811 3571 1857
3779 3555 2258
3779 3571 2818
3779 3587 3042
3779 3587 3202
3795 3635 3378
3795 3635 3427
3523 592 80
3539 592 192
3555 608 384
3539 624 608
3555 640 929
3571 705 1297
3587 769 1601
3587 865 1905
3603 961 2098
3555 672 128
3555 721 240
3555 769 432
3587 849 672
3587 913 929
3587 1009 1201
3619 1153 1521
3651 1297 1793
3683 1505 2050
3619 1233 80
3635 1233 352
3635 1345 480
3683 1521 705
3715 1713 913
3715 1841 1137
3747 2066 1361
3779 2274 1601
3779 2418 1841
3699 2338 80
3747 2242 192
3747 2258 368
3747 2450 560
3747 2546 656
3763 2706 865
3763 2850 1025
3811 2962 1233
3795 3026 1329
3747 2978 144
3731 3042 160
3699 3026 144
3731 3090 272
3731 3074 496
3731 3138 576
3747 3218 705
3779 3314 833
3779 3362 961
3715 3314 224
3699 3346 240
3699 3362 272
3683 3362 288
3699 3394 352
3715 3410 528
3715 3410 592
3731 3427 656
3779 3491 769
3731 3491 352
3731 3491 384
3731 3491 400
3731 3507 448
3715 3491 448
3731 3507 576
3763 3507 849
3763 3523 1265
3811 3555 1841
3747 3555 560
3747 3555 672
3763 3555 881
3763 3539 1121
3763 3523 1681
3763 3523 2130
3763 3555 2690
3795 3571 2978
3795 3603 3234
3811 3571 2017
3811 3587 2530
3795 3587 2898
3779 3571 3090
3779 3619 3298
3779 3619 3378
3779 3619 3475
3795 3635 3603
3795 3651 3667
