其他预设/【236】赛博朋克风调色预设/【后期菌】视频调色预设/3DL/Sunset 06_S.3dl
# LUT by SparkleStock. Enhanced with VOXCOLOR algorithms.
0 64 128 192 256 320 384 448 512 576 640 704 768 832 896 960 1023
32 512 224
64 528 288
64 512 336
64 528 432
48 528 464
64 544 560
64 544 640
96 544 737
112 544 817
160 544 929
192 544 1073
240 560 1249
288 560 1409
320 528 1601
368 544 1793
416 544 1953
464 544 2162
64 592 304
32 592 336
48 576 400
64 576 448
64 592 512
64 592 624
80 592 672
96 608 769
144 608 881
176 608 1041
224 608 1201
240 592 1297
288 592 1521
336 592 1649
400 592 1841
432 592 2033
464 576 2210
64 624 336
48 624 384
48 640 432
80 656 512
96 656 576
96 640 656
112 672 769
144 672 849
160 672 929
192 656 1105
224 656 1249
272 656 1425
304 656 1553
384 656 1745
432 672 1921
464 689 2098
496 672 2226
96 689 400
80 689 432
80 721 480
96 721 576
96 737 640
112 721 737
112 721 801
144 721 897
176 721 1041
240 737 1201
256 721 1329
336 721 1537
368 737 1665
432 737 1857
464 721 1985
512 753 2146
544 753 2306
80 769 432
96 753 480
96 769 528
96 785 624
96 785 689
128 817 801
128 785 833
176 801 993
240 801 1137
272 817 1281
336 817 1457
368 817 1585
416 833 1745
464 833 1921
512 833 2082
512 833 2194
560 865 2322
96 833 496
96 865 544
128 881 640
144 897 721
144 897 785
144 881 849
176 897 961
208 897 1073
240 913 1217
320 913 1377
352 897 1505
400 929 1633
448 961 1793
480 977 1921
528 993 2050
576 1009 2194
592 1009 2306
112 993 560
128 993 672
128 1041 721
128 1057 769
176 1025 833
176 1009 897
224 1089 1057
256 1073 1185
304 1073 1265
336 1073 1393
384 1089 1553
416 1121 1665
464 1153 1777
480 1137 1889
576 1137 2050
608 1201 2178
640 1201 2290
112 1121 640
112 1201 721
128 1201 785
144 1201 833
176 1217 913
208 1201 993
240 1217 1089
272 1217 1201
304 1281 1329
368 1281 1425
384 1297 1569
448 1345 1665
464 1361 1793
496 1377 1921
576 1473 2050
640 1473 2178
640 1489 2290
144 1329 705
160 1345 785
176 1393 833
208 1441 897
208 1425 961
256 1473 1073
272 1457 1137
320 1537 1281
320 1537 1345
416 1569 1489
432 1617 1585
496 1617 1729
544 1697 1857
576 1729 1953
592 1745 2082
672 1777 2178
689 1809 2242
208 1569 785
208 1585 833
224 1633 865
240 1713 961
288 1729 1025
288 1745 1137
320 1825 1233
352 1873 1345
368 1905 1457
400 1921 1569
432 1937 1665
464 2033 1761
544 2017 1889
624 2017 2001
753 2114 2066
721 2114 2146
817 2146 2242
256 1841 881
272 1921 945
336 1985 1009
336 2001 1073
352 2050 1121
352 2098 1201
368 2146 1297
400 2162 1361
448 2210 1489
496 2290 1569
560 2322 1665
576 2386 1777
640 2418 1873
672 2418 1905
833 2482 2033
929 2514 2098
945 2546 2194
400 2194 993
384 2226 1057
416 2242 1089
448 2290 1137
464 2306 1169
464 2386 1249
544 2450 1313
672 2482 1393
705 2530 1457
737 2530 1521
801 2594 1585
897 2610 1665
881 2642 1761
1041 2722 1809
1121 2754 1921
1105 2754 1937
1201 2834 2082
544 2498 1121
624 2498 1153
656 2530 1201
689 2546 1217
721 2594 1281
833 2642 1345
849 2642 1361
881 2706 1409
1121 2786 1489
1201 2802 1521
1201 2866 1601
1233 2914 1681
1425 2946 1729
1409 2994 1777
1505 3010 1825
1601 3042 1889
1697 3122 1937
769 2722 1217
1009 2786 1281
993 2802 1297
1041 2834 1329
1201 2866 1393
1297 2914 1441
1297 2882 1457
1409 2962 1521
1505 3010 1585
1441 3010 1601
1585 3074 1649
1681 3090 1713
1777 3106 1745
1953 3138 1761
1937 3202 1825
2033 3234 1857
2001 3250 1921
1313 3010 1345
1409 3010 1377
1425 3042 1409
1537 3058 1441
1585 3090 1489
1697 3090 1521
1761 3154 1569
1841 3186 1601
1921 3218 1633
1969 3250 1697
2017 3266 1713
2194 3314 1745
2194 3314 1793
2242 3330 1793
2258 3362 1857
2338 3394 1889
2402 3394 1889
1793 3218 1505
1793 3218 1457
1921 3234 1537
1985 3266 1569
2050 3298 1601
2114 3346 1633
2162 3330 1649
2210 3362 1681
2226 3410 1729
2370 3410 1745
2402 3427 1777
2434 3443 1793
2482 3475 1825
2530 3507 1873
2578 3507 1873
2562 3523 1937
2610 3523 1969
2001 3346 1569
2098 3362 1585
2178 3410 1633
2242 3443 1665
2322 3459 1681
2338 3459 1697
2370 3459 1713
2482 3523 1761
2562 3507 1777
2578 3523 1793
2642 3555 1825
2690 3603 1857
2754 3635 1889
2754 3619 1889
2834 3651 1921
2834 3635 1905
2882 3683 1953
96 512 256
96 496 304
144 528 400
160 528 448
144 512 496
144 512 592
160 496 640
160 480 705
192 480 817
192 544 945
240 544 1153
272 544 1265
304 528 1457
352 544 1633
400 528 1809
448 528 1985
480 544 2194
192 544 320
208 528 352
272 544 432
224 544 480
176 544 544
176 528 624
144 576 737
160 608 833
176 592 897
208 592 1073
256 592 1217
288 592 1393
320 576 1521
384 592 1697
432 592 1889
464 608 2066
496 592 2210
256 608 368
272 576 400
240 592 464
256 576 528
224 608 592
224 592 672
192 640 833
176 656 881
224 656 1041
256 656 1201
304 656 1345
320 640 1473
384 656 1633
432 672 1809
464 640 1937
528 656 2130
544 640 2242
320 640 400
288 640 464
272 656 496
240 672 592
192 689 656
208 689 753
208 705 849
224 721 977
240 705 1105
320 721 1281
352 721 1441
384 721 1585
432 737 1745
464 737 1889
512 721 1985
560 737 2194
592 753 2290
384 705 448
224 769 496
208 753 560
208 801 640
208 801 737
224 801 833
240 817 929
240 801 1057
304 833 1201
320 801 1313
400 833 1505
432 833 1633
464 817 1761
512 833 1921
560 865 2066
576 849 2178
624 865 2338
400 785 480
240 865 592
240 865 640
256 881 721
208 881 785
224 897 865
272 913 1009
288 897 1121
336 913 1233
400 945 1409
416 961 1521
464 945 1665
512 945 1793
560 977 1937
608 993 2082
672 1025 2178
689 1041 2306
368 977 496
224 1009 640
224 1057 721
224 1089 785
256 1057 849
288 1073 977
304 1089 1073
352 1089 1169
384 1105 1265
464 1105 1425
512 1121 1569
496 1137 1665
576 1185 1825
624 1201 1937
640 1201 2033
705 1217 2162
737 1265 2322
384 1137 528
176 1217 705
176 1233 785
208 1233 833
304 1265 913
320 1265 1025
400 1281 1105
400 1265 1201
464 1313 1329
480 1329 1457
576 1377 1585
544 1393 1665
608 1393 1809
689 1473 1969
705 1425 2050
769 1569 2178
769 1569 2306
464 1313 608
304 1441 785
320 1441 833
320 1473 849
352 1537 961
368 1569 1057
432 1553 1153
416 1601 1297
480 1633 1393
592 1697 1521
608 1681 1601
608 1697 1745
672 1745 1873
801 1809 1953
833 1873 2098
865 1889 2178
961 1905 2242
849 1537 689
336 1665 833
400 1729 897
384 1745 945
416 1777 1041
448 1857 1153
464 1905 1233
560 1921 1297
528 1985 1425
576 2033 1553
672 2050 1617
721 2098 1729
849 2130 1841
945 2178 1937
993 2194 2017
1025 2210 2066
1201 2306 2194
1057 1841 833
416 2017 977
464 2033 1009
464 2098 1089
496 2098 1121
496 2178 1201
592 2210 1265
640 2258 1361
737 2370 1441
753 2322 1505
801 2370 1585
913 2482 1713
993 2498 1793
1073 2546 1857
1137 2546 1905
1313 2594 2001
1489 2658 2098
1249 2130 929
785 2274 1073
753 2338 1105
801 2370 1169
817 2402 1201
897 2482 1281
865 2482 1313
961 2546 1377
1041 2562 1425
1281 2642 1521
1281 2626 1585
1377 2722 1649
1393 2754 1761
1505 2802 1777
1521 2850 1889
1633 2898 1921
1617 2946 2017
1649 2482 1121
1201 2578 1201
1313 2594 1217
1249 2610 1233
1217 2658 1313
1217 2658 1329
1409 2690 1377
1489 2754 1441
1537 2818 1505
1729 2866 1585
1777 2930 1633
1729 2914 1665
1889 2994 1713
1985 3010 1777
2001 3058 1825
2033 3074 1873
2114 3122 1905
1921 2786 1265
1537 2818 1297
1585 2866 1329
1745 2946 1425
1665 2978 1489
1697 2962 1489
1841 2994 1553
1825 3042 1569
1921 3042 1601
1969 3074 1649
2050 3122 1665
2114 3154 1745
2162 3202 1729
2242 3234 1777
2258 3250 1825
2306 3298 1873
2322 3298 1937
2146 3042 1377
2001 3074 1393
2001 3090 1441
2017 3138 1489
2001 3186 1537
2098 3218 1585
2114 3218 1601
2178 3250 1649
2194 3282 1665
2274 3314 1729
2306 3298 1729
2434 3362 1761
2402 3362 1793
2498 3394 1825
2450 3394 1873
2546 3459 1937
2610 3475 1921
2418 3218 1505
2306 3298 1521
2386 3314 1569
2402 3330 1585
2306 3330 1617
2338 3378 1681
2370 3378 1681
2418 3427 1729
2482 3459 1761
2578 3475 1777
2594 3491 1809
2658 3507 1841
2706 3539 1857
2690 3539 1873
2786 3587 1905
2706 3587 1937
2786 3619 1985
2594 3394 1601
2562 3410 1633
2642 3443 1665
2594 3443 1665
2578 3507 1729
2578 3507 1729
2674 3539 1761
2722 3539 1777
2738 3555 1793
2802 3587 1825
2866 3619 1857
2850 3635 1857
2898 3651 1889
2930 3651 1889
2946 3667 1905
3042 3715 1969
3042 3715 1969
208 496 288
224 512 336
272 528 416
272 496 464
320 496 512
320 480 576
352 480 640
384 464 721
400 464 833
336 480 993
288 496 1169
352 512 1361
368 528 1521
384 528 1649
448 528 1873
480 528 2050
528 528 2194
368 528 320
384 528 384
416 528 432
384 512 480
384 528 544
400 512 624
304 544 721
288 528 817
336 544 993
336 528 1105
320 560 1249
352 544 1425
384 544 1585
416 560 1729
464 576 1905
528 560 2114
576 576 2242
528 544 384
544 544 416
608 544 464
576 528 528
512 544 592
448 560 689
352 592 801
272 608 945
272 640 1073
288 624 1201
352 640 1377
400 624 1553
432 640 1665
496 624 1857
512 624 1969
560 624 2130
592 640 2290
624 592 416
640 608 464
672 592 528
624 592 592
544 624 689
464 624 737
432 624 865
320 672 1025
320 689 1137
384 705 1329
400 689 1457
448 705 1585
480 689 1745
560 721 1889
592 737 2050
608 721 2146
672 753 2290
817 640 464
592 705 528
544 721 592
480 737 672
464 753 769
400 737 849
384 753 961
384 769 1105
384 817 1217
432 801 1361
464 833 1553
512 833 1649
528 817 1793
576 833 1921
656 849 2050
689 849 2210
753 865 2322
913 721 496
705 785 560
432 865 640
416 929 737
384 961 833
368 977 945
400 945 1057
384 961 1169
448 929 1265
464 929 1409
544 929 1569
560 945 1697
592 993 1809
672 1025 1969
721 977 2082
801 1009 2178
833 1025 2290
881 881 496
721 913 640
464 1057 737
496 1073 801
464 1105 897
464 1137 1009
464 1089 1089
496 1121 1201
544 1137 1297
576 1105 1441
608 1121 1553
672 1169 1681
689 1201 1825
769 1217 1953
801 1217 2050
785 1281 2162
881 1313 2322
929 1089 528
753 1185 624
400 1249 753
432 1281 833
464 1329 913
496 1393 1025
544 1345 1121
592 1361 1233
672 1409 1393
737 1425 1505
721 1409 1585
785 1441 1713
833 1505 1825
865 1553 1985
929 1569 2050
1009 1585 2178
977 1601 2290
977 1313 608
769 1409 705
496 1521 833
464 1569 897
496 1585 993
624 1633 1089
544 1649 1201
640 1729 1297
656 1761 1409
769 1777 1521
865 1793 1633
897 1825 1729
993 1921 1841
977 1889 1937
1105 1921 2050
1233 1985 2130
1201 2001 2242
1409 1537 705
977 1729 849
528 1793 945
689 1873 1009
656 1921 1089
689 1969 1153
624 1969 1217
817 2033 1313
769 2066 1377
849 2082 1473
961 2162 1585
977 2210 1681
1153 2258 1809
1201 2258 1905
1329 2338 1937
1361 2322 2066
1553 2402 2130
1825 1809 833
1473 1921 913
721 2098 1057
753 2146 1105
769 2210 1169
897 2242 1217
993 2322 1313
913 2322 1345
1073 2370 1409
1297 2482 1537
1201 2466 1585
1313 2514 1649
1537 2562 1761
1569 2610 1809
1601 2610 1873
1633 2658 1953
1793 2706 2033
2146 2178 993
1729 2226 1041
1185 2450 1185
1153 2482 1217
1217 2482 1249
1233 2546 1313
1329 2562 1361
1425 2594 1409
1585 2674 1489
1665 2738 1569
1729 2754 1617
1777 2818 1681
1889 2818 1745
1841 2898 1793
1889 2946 1889
1937 2962 1905
2033 3042 2001
2402 2498 1153
2114 2578 1201
1793 2674 1281
1729 2674 1297
1681 2706 1361
1681 2738 1409
1921 2818 1473
1921 2914 1537
1937 2914 1569
2033 2930 1601
2114 2994 1649
2130 3042 1729
2194 3058 1729
2290 3090 1793
2290 3106 1825
2370 3186 1873
2386 3202 1905
2626 2818 1313
2274 2850 1329
2082 2930 1393
2082 2962 1425
2114 3026 1489
2050 3042 1537
2146 3090 1585
2130 3106 1601
2274 3186 1649
2322 3218 1697
2386 3234 1713
2386 3250 1761
2434 3282 1777
2466 3282 1809
2514 3314 1825
2562 3346 1857
2546 3362 1937
2706 3074 1409
2610 3106 1441
2402 3186 1505
2338 3218 1537
2306 3250 1585
2322 3298 1633
2434 3330 1681
2418 3346 1713
2434 3330 1713
2498 3378 1777
2530 3410 1809
2562 3410 1793
2594 3443 1841
2658 3443 1841
2690 3475 1921
2690 3491 1937
2818 3523 1937
2850 3266 1553
2786 3314 1553
2690 3330 1585
2706 3362 1617
2610 3394 1665
2578 3443 1713
2658 3475 1745
2594 3475 1745
2706 3507 1793
2738 3523 1793
2802 3555 1841
2866 3555 1841
2866 3555 1857
2898 3603 1889
2962 3635 1921
2882 3635 1953
2930 3635 1985
2946 3443 1633
2930 3459 1649
2850 3459 1665
2882 3507 1713
2866 3539 1745
2754 3539 1761
2866 3587 1793
2882 3603 1825
2978 3651 1857
2946 3635 1857
3010 3651 1873
3010 3667 1905
3058 3699 1937
3122 3715 1953
3138 3763 1985
3202 3779 2001
3202 3763 2001
352 496 288
400 512 368
432 512 432
464 496 464
480 496 544
512 480 608
576 496 705
592 480 769
640 464 881
592 464 1025
544 480 1201
496 480 1377
496 480 1553
512 496 1729
496 480 1873
528 480 2033
592 496 2210
528 528 368
544 512 400
560 496 448
608 496 496
624 496 592
656 480 705
624 496 769
640 512 865
672 496 977
672 496 1153
560 496 1233
496 528 1457
528 528 1633
496 528 1777
576 544 1969
592 528 2114
