其他预设/【236】赛博朋克风调色预设/【后期菌】视频调色预设/3DL/Sunset 07_S.3dl
# LUT by SparkleStock. Enhanced with VOXCOLOR algorithms.
0 128 256 384 512 640 768 896 1023
96 464 48
128 464 144
112 480 304
128 496 592
208 496 961
304 512 1393
400 528 1729
480 544 2050
544 544 2290
128 576 128
112 576 272
128 592 512
160 576 833
256 576 1185
336 576 1553
432 608 1857
512 624 2162
576 672 2370
144 705 272
160 721 416
160 705 624
208 705 993
336 753 1393
432 785 1729
528 801 2017
576 897 2274
608 897 2482
128 993 464
160 1025 656
192 1009 881
272 1041 1169
384 1041 1505
480 1089 1825
576 1169 2066
640 1185 2274
689 1281 2498
160 1409 624
192 1489 817
192 1505 993
256 1553 1281
336 1617 1569
480 1681 1873
560 1825 2146
608 1857 2338
737 1889 2482
272 2001 881
320 2130 1025
336 2162 1121
352 2242 1345
400 2306 1601
528 2402 1809
656 2450 2082
833 2546 2226
993 2594 2386
528 2562 1105
640 2594 1153
737 2642 1233
817 2706 1345
1041 2802 1457
1105 2866 1585
1329 2946 1713
1361 3010 1825
1537 3106 1969
1201 2994 1281
1345 3026 1345
1505 3074 1393
1681 3122 1473
1793 3170 1553
1937 3202 1617
2082 3266 1713
2146 3314 1761
2274 3330 1777
1905 3282 1489
2098 3330 1537
2210 3362 1569
2242 3394 1601
2386 3443 1649
2514 3507 1697
2610 3539 1745
2706 3587 1793
2754 3587 1809
304 480 96
368 496 224
416 480 400
464 480 689
544 464 1041
432 480 1457
496 512 1825
560 512 2114
608 544 2338
576 528 176
721 512 304
592 512 528
464 544 881
368 560 1297
448 576 1633
528 592 1921
608 576 2162
656 640 2370
897 592 288
656 656 464
560 689 753
480 672 1073
480 753 1489
560 769 1777
624 817 2001
753 865 2242
833 897 2482
1057 897 416
544 1057 656
560 1089 929
496 1089 1185
624 1137 1553
672 1153 1809
769 1233 2082
881 1281 2258
993 1393 2514
1249 1585 672
528 1681 865
512 1729 1025
528 1825 1265
721 1873 1569
913 1921 1841
1041 2033 2082
1089 2017 2274
1233 2082 2434
2066 2338 1041
705 2274 1057
817 2338 1169
929 2482 1329
1041 2482 1441
1169 2562 1649
1441 2674 1857
1505 2706 2017
1681 2786 2162
2546 2802 1297
1809 2850 1313
1649 2818 1345
1889 2898 1441
1873 2946 1521
2017 3026 1601
2098 3058 1681
2178 3122 1777
2274 3186 1857
2690 3154 1441
2386 3202 1489
2226 3218 1505
2322 3282 1585
2306 3282 1601
2418 3346 1681
2514 3378 1745
2546 3443 1809
2690 3475 1809
2914 3394 1601
2738 3394 1585
2722 3491 1665
2690 3507 1697
2786 3555 1745
2834 3571 1761
2898 3619 1793
2994 3667 1841
3026 3667 1857
640 464 112
721 464 224
897 464 448
1073 448 769
1233 464 1137
1185 480 1505
1185 480 1793
977 496 2066
961 528 2306
1233 512 256
1457 512 384
1585 512 608
1681 512 961
1761 528 1377
1537 512 1585
881 576 1953
897 608 2194
961 656 2370
1921 624 448
2098 624 544
2033 624 705
1649 672 1073
1073 753 1505
913 769 1745
1009 801 2017
1105 881 2226
1201 929 2402
2226 945 576
1969 1025 656
1633 1105 881
1649 1105 1169
1393 1281 1553
1169 1265 1841
1313 1393 2017
1361 1441 2242
1425 1489 2450
2258 1889 881
1937 1841 833
1249 1953 1073
1329 2033 1329
1313 2098 1521
1521 2210 1713
1681 2226 1953
1857 2338 2178
1969 2354 2354
2770 2562 1201
2546 2594 1185
1745 2562 1265
1841 2610 1377
2001 2706 1521
2098 2738 1617
2194 2834 1809
2290 2914 1905
2402 2978 2017
3010 2946 1425
2866 2930 1409
2354 3026 1457
2354 3058 1489
2386 3138 1585
2482 3138 1617
2594 3218 1713
2610 3234 1761
2690 3298 1825
3042 3266 1521
2946 3298 1553
2770 3298 1553
2690 3362 1633
2706 3410 1681
2738 3443 1729
2834 3491 1777
2866 3523 1825
2978 3555 1825
3154 3491 1681
3154 3539 1713
3138 3571 1729
3010 3603 1745
3010 3651 1793
3074 3699 1825
3090 3699 1841
3202 3731 1889
3282 3779 1937
1265 464 240
1521 448 352
1729 448 576
1905 448 865
2130 464 1153
2290 480 1505
2514 496 1873
2658 496 2098
1937 512 2290
2082 544 384
2098 512 480
2178 512 737
2306 512 1025
2578 528 1329
2674 496 1585
2642 544 1889
2402 576 2146
2114 576 2306
2434 705 480
2354 721 592
2306 721 817
2402 737 1105
2450 689 1361
2690 608 1521
2722 640 1809
1809 881 2210
1761 993 2402
2626 1121 608
2482 1089 689
2418 1089 945
2450 1057 1185
2242 1313 1489
2130 1537 1809
2033 1553 2017
2114 1665 2226
2130 1697 2386
2610 2098 881
2402 2033 881
2306 1937 1057
2098 2033 1345
2274 2114 1569
2242 2306 1729
2386 2482 1889
2482 2530 2082
2450 2578 2210
2994 2674 1249
2818 2642 1169
2626 2674 1233
2242 2738 1457
2354 2802 1569
2610 2914 1649
2610 2946 1793
2674 3042 1841
2706 3090 1905
3154 3058 1473
3154 3138 1505
3042 3170 1505
2706 3234 1585
2770 3250 1633
2738 3282 1665
2802 3314 1713
2882 3410 1793
2914 3410 1809
3186 3362 1585
3186 3378 1617
3122 3443 1649
3042 3507 1697
2994 3523 1729
3010 3555 1793
3042 3587 1825
3122 3651 1889
3154 3667 1873
3282 3603 1761
3314 3635 1793
3346 3667 1825
3346 3715 1857
3234 3715 1857
3282 3747 1889
3378 3779 1937
3410 3795 1953
3443 3811 2001
2130 496 384
2290 448 496
2402 400 656
2546 416 945
2738 432 1217
2946 496 1537
3026 496 1841
3106 512 2146
3218 512 2338
2642 560 480
2594 512 576
2578 512 817
2674 512 1105
2834 512 1361
3090 528 1505
3330 528 1633
3378 528 1905
3394 560 2162
2770 753 496
2674 785 624
2658 801 897
2690 785 1153
2850 753 1409
3122 672 1505
3330 608 1601
3266 656 1905
3106 737 2226
2834 1265 608
2706 1265 721
2722 1217 1009
2738 1233 1297
2866 1153 1505
3090 1153 1585
3266 1217 1569
3234 1585 1841
2770 2033 2306
2818 2210 865
2690 2162 897
2706 2033 1089
2754 1969 1409
2834 2114 1649
2786 2354 1761
2802 2642 1793
2770 2770 1937
2850 2802 2066
3090 2738 1185
2882 2738 1137
2834 2754 1265
2850 2738 1457
2802 2898 1633
2946 3010 1681
2882 3106 1745
2914 3186 1793
2930 3218 1825
3266 3186 1537
3170 3170 1473
3154 3234 1521
3074 3250 1585
3026 3378 1729
3010 3410 1729
3074 3427 1761
3106 3491 1809
3138 3539 1841
3282 3491 1665
3282 3507 1681
3330 3555 1745
3330 3571 1761
3218 3635 1809
3186 3651 1841
3218 3699 1889
3298 3731 1937
3346 3731 1937
3410 3699 1841
3443 3715 1873
3491 3731 1873
3555 3795 1921
3523 3779 1921
3507 3795 1953
3539 3843 2066
3571 3827 2098
3619 3859 2226
2754 496 512
2850 432 560
2930 400 737
3010 416 961
3122 448 1217
3234 496 1473
3346 512 1729
3410 528 2001
3523 528 2210
3042 560 544
3010 544 624
2994 528 849
3026 528 1105
3154 528 1297
3314 528 1409
3491 544 1505
3587 560 1745
3619 576 1937
3122 801 576
3042 833 689
3026 849 945
3042 833 1201
3122 785 1409
3314 721 1425
3555 640 1361
3603 672 1505
3651 705 1745
3122 1473 672
3026 1441 785
3058 1393 1057
3074 1377 1345
3154 1473 1585
3362 1505 1617
3571 1585 1569
3539 1793 1729
3410 2001 1985
3058 2322 945
2978 2274 961
2978 2162 1137
3010 2114 1441
3074 2210 1697
3298 2402 1761
3282 2594 1777
3330 2786 1809
3250 2882 1873
3218 2914 1281
3106 2866 1217
3042 2850 1313
3090 2818 1505
3154 2898 1649
3122 3026 1777
3058 3154 1841
3106 3330 1777
3138 3378 1841
3378 3330 1633
3266 3314 1537
3282 3330 1585
3266 3362 1649
3170 3378 1745
3106 3410 1857
3202 3491 1905
3250 3603 1857
3298 3635 1889
3378 3571 1729
3410 3603 1761
3443 3651 1809
3443 3699 1841
3362 3683 1873
3330 3731 1969
3427 3747 1937
3491 3779 2017
3539 3795 2033
3555 3763 1905
3587 3795 1937
3603 3795 1953
3635 3811 1985
3635 3827 2017
3651 3843 2098
3651 3859 2226
3699 3875 2402
3747 3875 2546
3170 512 608
3218 464 624
3250 416 753
3314 448 945
3410 496 1153
3523 512 1377
3571 528 1633
3619 528 1857
3683 544 2082
3394 592 656
3346 560 689
3362 576 881
3410 560 1057
3475 560 1233
3555 560 1297
3603 576 1409
3667 592 1617
3699 608 1825
3410 817 672
3394 865 785
3346 881 993
3362 897 1249
3427 865 1393
3555 801 1361
3651 801 1297
3683 849 1441
3715 881 1617
3410 1649 865
3378 1601 897
3362 1569 1137
3362 1633 1425
3394 1681 1649
3491 1873 1729
3555 2050 1745
3603 2178 1729
3603 2338 1937
3314 2514 1089
3266 2482 1089
3266 2306 1201
3266 2274 1489
3282 2306 1745
3362 2498 1889
3410 2642 1953
3491 2802 1889
3475 3010 1809
3362 3058 1425
3330 3042 1361
3298 2994 1393
3250 2866 1505
3250 2882 1745
3282 2946 1937
3314 3058 2001
3362 3250 1953
3394 3410 1809
3443 3443 1713
3443 3475 1697
3362 3378 1585
3314 3346 1649
3298 3346 1825
3314 3410 2017
3330 3491 2098
3330 3619 2017
3475 3715 1953
3491 3683 1825
3523 3699 1841
3507 3699 1777
3491 3715 1825
3475 3699 1937
3475 3715 2082
3507 3763 2162
3619 3827 2146
3635 3827 2226
3651 3811 1969
3651 3811 1985
3667 3827 2033
3683 3843 2082
3699 3891 2210
3731 3891 2354
3779 3891 2578
3811 3875 2770
3827 3875 2946
3475 560 689
3491 512 721
3539 496 785
3571 496 929
3635 512 1073
3667 512 1297
3763 544 1553
3779 560 1745
3811 576 1953
3635 640 785
3635 640 817
3619 592 881
3667 592 993
3667 592 1089
3667 592 1137
3699 608 1313
3747 640 1521
3811 672 1697
3635 1041 881
3715 945 929
3683 1009 1057
3667 1041 1249
3683 1121 1409
3699 1169 1441
3731 1265 1505
3763 1457 1585
3763 1601 1761
3619 1969 1121
3651 1905 1105
3635 1841 1217
3619 1873 1457
3587 1953 1697
3587 2114 1825
3587 2242 1905
3619 2546 1873
3619 2674 1937
3491 2802 1377
3507 2754 1313
3523 2578 1313
3539 2386 1489
3539 2418 1745
3555 2562 1937
3555 2690 2033
3571 2898 1969
3587 3170 1809
3507 3250 1617
3507 3202 1505
3507 3042 1425
3507 2930 1553
3523 2946 1809
3523 2946 2050
3539 3090 2210
3555 3282 2098
3555 3539 1937
3539 3523 1761
3523 3523 1665
3539 3427 1585
3539 3378 1681
3539 3362 1889
3587 3394 2130
3587 3475 2258
3619 3603 2226
3635 3747 2017
3635 3763 1889
3667 3779 1889
3635 3731 1761
3619 3699 1809
3619 3715 2001
3651 3715 2226
3683 3763 2370
3715 3795 2498
3763 3859 2578
3715 3859 2082
3731 3843 2146
3763 3875 2242
3731 3875 2274
3763 3907 2546
3795 3891 2770
3843 3891 2994
3891 3907 3202
3891 3907 3282
3651 576 753
3683 544 785
3715 528 865
3715 528 945
3763 544 1057
3763 544 1265
3827 560 1457
3827 576 1665
3843 576 1825
3747 672 881
3731 672 897
3747 672 929
3747 705 1041
3747 656 1041
3763 656 1121
3779 672 1297
3811 705 1441
3843 753 1569
3715 1441 1057
3811 1265 1121
3795 1313 1185
3811 1457 1329
3827 1537 1489
3779 1617 1601
3763 1857 1665
3747 2017 1713
3747 2146 1841
3587 2514 1329
3683 2402 1377
3747 2210 1393
3763 2194 1537
3763 2178 1713
3747 2306 1905
3699 2482 1969
3635 2738 1889
3635 2850 1889
3571 2994 1505
3587 2946 1457
3667 2754 1393
3763 2642 1537
3779 2578 1777
3763 2642 1985
3731 2802 2114
3683 3074 2050
3603 3314 1809
3571 3346 1665
3635 3282 1553
3699 3138 1489
3763 3042 1601
3763 3026 1841
3779 3042 2114
3763 3122 2274
3683 3330 2210
3667 3603 1969
3603 3651 1841
3667 3587 1681
3731 3491 1601
3811 3410 1713
3827 3394 1921
3843 3410 2178
3827 3491 2354
3779 3619 2354
3747 3747 2274
3699 3779 1937
3731 3795 1969
3779 3763 1857
3827 3731 1905
3875 3731 2130
3859 3731 2402
3859 3779 2658
3859 3827 2834
3859 3859 3010
3779 3875 2306
3811 3891 2530
3843 3875 2626
3891 3891 2738
3907 3907 2898
3907 3923 3122
3923 3923 3362
3907 3923 3635
3907 3907 3811
