其他预设/【236】赛博朋克风调色预设/【后期菌】视频调色预设/3DL/Sunset 04_S.3dl
# LUT by SparkleStock. Enhanced with VOXCOLOR algorithms.
0 128 256 384 512 640 768 896 1023
32 80 160
64 176 304
128 272 416
192 400 640
272 512 929
416 705 1361
576 929 1873
656 1153 2402
737 1313 2786
96 256 288
144 336 416
208 448 592
272 560 833
368 721 1153
496 913 1633
640 1105 2114
737 1313 2546
801 1473 2802
112 432 416
192 512 560
272 608 721
384 753 1009
528 961 1441
672 1185 1921
801 1393 2306
897 1569 2610
945 1697 2834
112 672 528
176 785 721
320 881 929
512 1089 1249
721 1281 1617
865 1505 1953
1009 1697 2274
1121 1857 2514
1233 2066 2770
192 977 656
256 1153 817
240 1313 1025
384 1457 1313
608 1697 1649
833 1969 1985
1137 2226 2322
1313 2402 2530
1553 2514 2690
272 1505 785
480 1697 945
737 1889 1121
913 2066 1393
1217 2258 1649
1537 2466 1921
1745 2626 2194
2001 2722 2354
2162 2818 2562
1281 2242 993
1553 2370 1121
1745 2498 1265
2001 2626 1457
2290 2770 1681
2482 2850 1857
2690 2962 2033
2786 3010 2194
2946 3138 2402
2258 2850 1121
2418 2914 1217
2530 2994 1329
2738 3058 1457
2802 3106 1537
2866 3170 1681
3010 3250 1793
3074 3282 1905
3202 3314 2001
2882 3170 1217
3042 3250 1313
3106 3282 1345
3106 3314 1393
3234 3378 1457
3314 3427 1553
3346 3459 1633
3394 3475 1697
3410 3523 1729
144 160 256
208 272 416
272 352 560
336 448 769
480 560 1057
512 785 1473
656 1025 2050
753 1217 2530
801 1361 2802
336 336 432
432 384 560
416 464 705
464 624 961
512 817 1393
640 1025 1809
769 1201 2242
849 1393 2610
929 1537 2850
576 480 528
480 560 656
512 705 849
592 865 1185
689 1089 1585
817 1281 1969
945 1457 2306
1121 1649 2562
1233 1825 2834
737 705 496
480 881 801
592 1041 1025
705 1169 1281
961 1409 1633
1105 1585 1937
1297 1809 2274
1489 2033 2530
1649 2274 2770
1089 1169 496
705 1345 897
817 1505 1089
993 1681 1345
1217 1889 1633
1489 2130 1921
1777 2354 2242
1921 2466 2434
2130 2610 2626
2594 2066 753
1313 1985 1025
1537 2146 1201
1873 2370 1473
2050 2466 1681
2242 2610 1921
2498 2738 2178
2674 2834 2354
2802 2946 2482
3138 2850 977
2498 2738 1089
2498 2802 1281
2706 2898 1409
2786 2962 1585
2898 3042 1697
3010 3090 1857
3074 3170 1985
3186 3218 2146
3266 3218 1089
3090 3218 1153
3026 3202 1281
3138 3266 1425
3106 3282 1521
3202 3346 1601
3234 3378 1697
3266 3410 1809
3378 3443 1841
3459 3410 1233
3394 3410 1233
3378 3443 1297
3394 3459 1393
3427 3507 1441
3443 3507 1489
3459 3539 1537
3523 3571 1617
3523 3587 1649
304 240 368
352 304 480
480 352 640
640 400 865
849 480 1137
945 737 1537
1089 961 2001
1041 1249 2530
1073 1409 2834
721 368 480
993 480 640
1217 528 801
1425 608 1089
1569 656 1393
1425 721 1681
1057 1297 2322
1105 1489 2626
1233 1649 2866
1697 753 480
2242 897 640
2242 929 897
1697 913 1249
1089 1121 1649
1121 1345 2001
1281 1569 2322
1489 1761 2610
1633 1921 2802
2306 1105 448
2146 1185 624
1633 1185 961
1697 1297 1329
1441 1505 1633
1537 1697 1921
1825 1969 2258
1969 2178 2482
2114 2338 2706
2674 1601 592
2226 1697 640
1521 1809 1105
1665 1969 1409
1841 2146 1697
2194 2354 1905
2418 2498 2178
2562 2658 2418
2706 2738 2562
3410 2594 897
3170 2658 929
2338 2546 1233
2466 2642 1441
2722 2802 1681
2882 2850 1841
3026 2978 2130
3154 3074 2274
3218 3138 2402
3555 3138 1089
3427 3090 1089
3058 3106 1249
3106 3138 1393
3186 3202 1521
3234 3218 1585
3314 3266 1713
3346 3282 1841
3394 3362 1937
3523 3378 1169
3475 3394 1201
3314 3362 1185
3378 3394 1377
3346 3427 1489
3362 3427 1537
3410 3459 1617
3427 3507 1697
3475 3523 1697
3571 3507 1265
3571 3555 1313
3555 3571 1329
3507 3555 1361
3523 3587 1441
3555 3603 1489
3555 3603 1521
3587 3635 1537
3651 3683 1585
640 304 448
929 368 592
1201 432 785
1457 496 993
1953 656 1249
2370 785 1569
2802 929 2001
2962 977 2354
2033 945 2626
1793 640 464
2066 705 608
2354 769 881
2594 817 1201
2978 993 1569
3154 1105 1841
3090 1089 2130
2738 1089 2434
2370 1137 2610
2706 961 480
2658 1009 689
2594 1025 945
2706 1089 1281
2834 1153 1617
3138 1265 1841
3154 1393 2114
2098 1665 2482
2162 1921 2738
2978 1297 480
2706 1329 640
2674 1361 961
2706 1409 1297
2498 1585 1601
2402 1825 1953
2434 2098 2226
2610 2338 2466
2674 2434 2658
3010 1921 560
2786 1921 608
2658 1953 865
2450 2130 1345
2706 2306 1601
2738 2530 1905
3026 2770 2162
3090 2850 2370
3106 2898 2530
3507 2850 897
3266 2818 865
3058 2834 961
2770 2850 1409
2978 2946 1585
3250 3090 1713
3266 3138 1921
3346 3202 2066
3394 3250 2194
3683 3266 1121
3619 3330 1137
3555 3346 1153
3314 3282 1345
3410 3346 1441
3394 3346 1569
3427 3378 1681
3475 3443 1745
3475 3443 1809
3571 3443 1217
3571 3459 1233
3539 3507 1265
3539 3523 1297
3475 3523 1377
3475 3539 1521
3507 3555 1569
3539 3587 1633
3571 3587 1617
3635 3587 1329
3651 3603 1345
3651 3603 1361
3635 3635 1377
3603 3635 1409
3635 3651 1473
3683 3699 1521
3699 3699 1537
3699 3699 1649
1665 544 480
2098 592 608
2450 640 817
2802 769 1121
3154 961 1473
3475 1169 1809
3555 1169 2226
3587 1153 2514
3635 1185 2738
2962 849 528
2866 817 689
2850 817 977
2978 881 1297
3218 1025 1649
3587 1217 1969
3875 1345 2242
3891 1345 2498
3875 1377 2706
3106 1089 496
2914 1073 721
2898 1089 1009
2914 1105 1345
3138 1201 1649
3539 1329 1937
3795 1537 2178
3747 1697 2466
3507 1777 2674
3154 1393 480
2914 1425 640
2882 1425 977
2914 1489 1313
3074 1553 1569
3410 1745 1841
3651 2001 2033
3635 2370 2306
3202 2610 2642
3170 2162 528
2946 2114 608
2898 2050 785
2994 2050 1201
3186 2290 1521
3282 2594 1809
3410 2978 2033
3394 3058 2226
3443 3090 2402
3507 2978 849
3250 2946 865
3186 2946 993
3202 2978 1169
3250 3074 1537
3523 3234 1633
3443 3266 1729
3523 3346 1873
3507 3362 1969
3731 3410 1185
3571 3362 1121
3539 3394 1169
3443 3378 1217
3507 3443 1425
3523 3443 1521
3539 3475 1585
3571 3523 1649
3571 3539 1713
3651 3539 1233
3619 3539 1265
3635 3587 1297
3651 3571 1313
3587 3603 1393
3571 3603 1473
3603 3635 1537
3635 3651 1569
3683 3651 1569
3699 3635 1377
3699 3635 1377
3715 3651 1393
3731 3699 1409
3715 3699 1393
3715 3699 1505
3747 3715 1729
3747 3715 1889
3763 3731 2194
3106 849 592
3234 833 721
3362 865 945
3475 945 1265
3635 1121 1633
3779 1249 1969
3875 1281 2322
3907 1281 2562
3907 1297 2802
3443 961 608
3330 913 785
3250 881 1025
3314 913 1329
3523 1057 1649
3779 1233 1953
3971 1425 2226
4003 1473 2482
4003 1521 2706
3443 1153 528
3250 1105 737
3218 1121 1025
3234 1169 1345
3362 1233 1665
3699 1441 1857
3971 1633 2066
3987 1761 2290
3971 1905 2546
3410 1537 480
3202 1521 624
3186 1521 977
3218 1553 1297
3314 1697 1553
3619 1905 1681
3859 2194 1745
3875 2466 2001
3763 2610 2258
3394 2418 560
3218 2338 640
3170 2226 817
3202 2178 1169
3378 2322 1489
3715 2642 1585
3795 2882 1713
3875 3106 1857
3779 3218 2066
3635 3154 945
3443 3058 945
3362 3026 1057
3362 3026 1217
3443 3106 1329
3523 3218 1601
3475 3282 1713
3571 3427 1713
3587 3459 1809
3779 3507 1233
3651 3459 1169
3603 3443 1201
3539 3443 1249
3459 3427 1393
3427 3443 1569
3523 3507 1633
3635 3587 1569
3635 3603 1601
3699 3587 1281
3683 3603 1313
3699 3619 1345
3651 3651 1393
3555 3619 1409
3555 3651 1521
3683 3683 1521
3715 3699 1617
3731 3699 1697
3731 3683 1393
3747 3699 1409
3747 3715 1425
3747 3731 1457
3763 3731 1537
3763 3731 1745
3763 3731 2194
3811 3747 2594
3875 3763 2818
3651 1025 721
3715 1009 849
3731 977 1041
3779 1041 1345
3907 1217 1697
3987 1345 2033
4019 1377 2370
4003 1377 2562
4003 1393 2818
3795 1057 721
3715 977 817
3651 961 1057
3715 1057 1377
3795 1185 1665
3939 1361 1905
4019 1505 2162
4051 1585 2466
4019 1633 2674
3731 1233 576
3619 1217 785
3571 1201 1025
3587 1249 1329
3699 1393 1585
3891 1601 1729
4003 1841 1889
4003 1969 2146
4003 2098 2434
3699 1681 512
3571 1665 624
3523 1681 961
3507 1713 1265
3571 1825 1521
3747 2130 1665
3859 2402 1729
3955 2626 1793
3939 2722 2050
3699 2722 721
3571 2658 785
3459 2434 897
3443 2354 1217
3507 2418 1537
3683 2690 1697
3795 2866 1777
3891 3106 1777
3923 3330 1761
3763 3314 1073
3699 3250 1057
3555 3138 1105
3443 2994 1249
3443 3010 1457
3523 3090 1713
3603 3218 1777
3683 3394 1697
3731 3539 1569
3795 3571 1265
3747 3555 1265
3603 3443 1217
3475 3378 1313
3459 3362 1489
3459 3410 1633
3555 3507 1713
3619 3571 1633
3731 3683 1569
3715 3635 1345
3731 3651 1361
3635 3635 1329
3603 3635 1393
3555 3635 1505
3555 3635 1633
3619 3683 1793
3747 3715 1937
3763 3715 2226
3763 3715 1425
3763 3715 1457
3763 3731 1569
3747 3747 1729
3747 3747 2114
3779 3763 2466
3859 3763 2818
3907 3763 3058
3923 3763 3250
3907 1089 817
3955 1089 945
3971 1121 1137
3971 1185 1393
3987 1297 1681
4019 1393 2001
4067 1457 2370
4067 1489 2626
4067 1505 2802
3971 1153 833
3955 1137 929
3939 1121 1089
3955 1201 1361
3987 1345 1617
4051 1521 1825
4051 1649 2146
4067 1713 2402
4067 1857 2594
3955 1457 672
3907 1361 881
3907 1425 1089
3907 1489 1281
3939 1649 1489
3971 1841 1617
3971 2066 1761
3987 2322 1953
3971 2402 2194
3923 2066 592
3875 1985 640
3827 1921 865
3811 1937 1201
3827 2066 1489
3875 2274 1649
3923 2466 1793
3987 2834 1841
3987 2962 1921
3907 3138 977
3859 3042 977
3763 2786 1025
3747 2514 1233
3763 2562 1521
3795 2722 1729
3827 2882 1825
3891 3170 1777
3955 3443 1665
3875 3507 1233
3795 3378 1121
3715 3170 1121
3683 3010 1281
3651 3026 1505
3699 3042 1745
3715 3170 1905
3763 3394 1793
3795 3619 1569
3779 3603 1313
3731 3555 1233
3683 3443 1217
3651 3362 1361
3635 3330 1553
3651 3378 1761
3683 3427 1873
3731 3539 1809
3763 3699 1681
3763 3699 1377
3779 3715 1393
3731 3651 1329
3699 3651 1441
3683 3635 1681
3683 3635 1953
3731 3683 2322
3763 3715 2610
3859 3747 2850
3779 3747 1665
3779 3731 1857
3811 3747 2226
3779 3763 2402
3811 3795 2738
3859 3779 3010
3923 3795 3266
3955 3795 3475
3955 3795 3571
4003 1153 881
4019 1169 1041
4067 1201 1201
4051 1249 1457
4051 1377 1729
4067 1473 2098
4095 1537 2370
4067 1553 2562
4051 1601 2722
4003 1249 913
4019 1297 1009
4019 1329 1169
4051 1425 1361
4019 1521 1537
4051 1617 1761
4095 1777 2066
4067 1905 2258
4067 2066 2434
4003 1713 689
4051 1713 977
4019 1745 1073
4019 1841 1233
4003 1953 1393
4003 2114 1585
3987 2370 1713
3987 2594 1841
3987 2658 2033
3907 2738 785
3971 2610 737
4003 2402 881
4051 2354 1201
4051 2322 1441
4019 2450 1665
4019 2674 1777
4019 3026 1761
4019 3154 1793
3923 3314 1089
3907 3234 1089
3939 2978 1073
3971 2818 1249
3987 2706 1537
3987 2802 1761
3955 2978 1873
3939 3250 1809
3907 3555 1569
3859 3555 1249
3859 3427 1153
3891 3218 1169
3891 3058 1313
3907 3042 1537
3907 3058 1793
3891 3154 1953
3859 3378 1841
3827 3651 1553
3779 3651 1361
3795 3571 1233
3827 3459 1233
3891 3378 1377
3891 3346 1585
3891 3362 1809
3891 3410 2066
3827 3555 2146
3827 3699 2322
3779 3715 1409
3811 3747 1473
3827 3683 1505
3875 3635 1649
3891 3635 2001
3907 3635 2466
3907 3683 2834
3907 3731 3090
3939 3779 3314
3827 3747 2370
3875 3747 2674
3907 3779 2882
3939 3779 2946
3939 3811 3106
3955 3811 3346
3955 3811 3619
3939 3827 3779
3939 3875 3907
