其他预设/【236】赛博朋克风调色预设/【后期菌】视频调色预设/3DL/Sunset 02.3dl
# LUT by SparkleStock. Enhanced with VOXCOLOR algorithms.
0 256 512 768 1023
352 288 256
384 368 432
448 496 881
608 753 1649
769 1105 2530
400 464 400
464 544 689
592 769 1297
753 1105 2114
865 1489 2754
624 1089 721
753 1281 1089
881 1489 1585
1121 1905 2242
1297 2210 2722
1649 2482 881
1953 2706 1169
2354 2994 1617
2674 3218 2001
2898 3362 2386
3186 3619 961
3410 3731 1185
3539 3795 1441
3683 3875 1713
3763 3923 1905
512 320 304
753 448 576
1025 640 1089
1041 849 1793
961 1137 2594
1729 528 160
2466 689 512
1009 897 1409
1073 1233 2146
1249 1569 2658
2194 1265 112
1521 1681 1089
1761 2017 1601
2114 2338 2114
2434 2674 2578
3507 3010 448
3234 3250 977
3346 3443 1441
3475 3523 1713
3571 3635 2001
3875 3859 881
3907 3939 1089
3907 3955 1537
3939 3987 1729
4003 4035 1937
1937 512 112
2530 689 416
3074 929 1057
3266 1121 1713
3362 1329 2338
3410 817 240
3699 977 753
3779 1105 1185
3635 1249 1649
3250 1585 2258
3346 1841 240
3667 1857 592
3715 2178 1297
3282 2882 1889
3346 3138 2354
3843 3475 705
3891 3587 833
3843 3763 1409
3843 3827 1681
3891 3859 1889
4035 4003 1265
4051 4051 1409
4051 4051 1585
4067 4035 2274
4095 4035 2754
3571 801 320
3731 961 689
3827 1105 1249
3875 1265 1777
3875 1393 2258
3779 1009 512
3875 1153 913
3923 1345 1313
3907 1521 1697
3923 1761 2114
3747 2530 528
3843 2594 785
3907 2706 1313
3971 3074 1617
3955 3362 1857
4003 3795 1025
4003 3859 1137
4003 3907 1313
4067 3971 1697
4051 4003 1937
4095 4051 1713
4067 4035 2098
4095 4035 2690
4067 3971 3266
4067 3955 3587
3907 977 656
3955 1105 1057
3971 1201 1441
3971 1329 1857
3971 1473 2258
3875 1361 608
3955 1489 1105
3971 1729 1409
3987 2033 1697
3987 2418 2066
3939 3202 817
3955 3298 945
3971 3362 1393
4051 3571 1633
4067 3699 1825
4051 3971 1345
4067 4003 1505
4095 4035 1665
4035 3971 2114
4095 3987 2770
4051 3987 2898
4067 3955 3394
4051 3971 3699
4051 3955 3907
4051 3939 4095
