其他预设/【236】赛博朋克风调色预设/【后期菌】视频调色预设/3DL/Sunset 01_S.3dl
# LUT by SparkleStock. Enhanced with VOXCOLOR algorithms.
0 256 512 768 1023
32 16 16
48 32 112
96 96 464
208 240 1537
352 656 2610
80 144 112
128 224 352
240 400 1281
368 833 2418
464 1281 2962
272 1249 560
464 1489 929
672 1825 1761
1073 2242 2594
1377 2466 2978
1713 2770 672
2098 2898 897
2594 3090 1393
2834 3186 2017
2994 3266 2434
3026 3346 512
3202 3410 672
3314 3427 881
3410 3475 1121
3459 3491 1265
160 48 64
352 80 256
656 128 656
817 288 1777
592 769 2674
2290 432 32
2498 592 464
993 672 1617
1073 1105 2450
1361 1569 2914
2770 1489 32
1921 2098 929
2178 2386 1729
2562 2642 2386
2770 2850 2802
3443 2882 144
3170 3154 560
3298 3266 1073
3378 3314 1425
3427 3378 1713
3491 3410 256
3539 3443 352
3539 3507 753
3571 3523 849
3651 3555 929
2482 304 32
2802 336 272
3122 400 817
3298 448 1553
3346 624 2290
3042 737 16
2834 849 672
2994 833 1377
3459 897 1809
3298 1441 2578
3138 1985 32
2930 1985 576
3122 2210 1393
3346 2962 1985
3362 3106 2402
3571 3154 160
3443 3218 256
3475 3394 785
3539 3410 1009
3587 3459 1185
3667 3507 368
3683 3523 416
3683 3539 496
3747 3587 1105
3763 3571 1841
3443 512 16
3427 480 320
3491 528 881
3523 592 1585
3555 785 2178
3443 849 64
3394 945 721
3443 1057 1329
3635 1281 1601
3667 1649 2162
3507 2418 32
3410 2354 560
3410 2386 1329
3635 2770 1425
3731 3154 1361
3667 3378 256
3539 3346 400
3459 3298 945
3523 3394 1169
3699 3523 865
3731 3555 528
3763 3555 817
3747 3603 1665
3779 3619 2690
3779 3603 3186
3523 592 80
3555 608 384
3555 640 929
3587 769 1601
3603 961 2098
3619 1233 80
3667 1329 512
3763 1633 1057
3763 2033 1425
3779 2418 1841
3747 2962 144
3795 2770 368
3875 2642 1185
3859 2866 1441
3779 3362 961
3731 3491 352
3827 3394 576
3875 3314 1185
3875 3362 1665
3827 3539 1921
3811 3571 2017
3827 3603 2850
3827 3699 3106
3795 3667 3475
3795 3651 3667
