其他预设/【236】赛博朋克风调色预设/【后期菌】视频调色预设/3DL/Sunset 07_S.3dl
# LUT by SparkleStock. Enhanced with VOXCOLOR algorithms.
0 64 128 192 256 320 384 448 512 576 640 704 768 832 896 960 1023
96 464 48
112 480 112
128 464 144
128 480 224
112 480 304
128 512 464
128 496 592
160 496 753
208 496 961
288 512 1217
304 512 1393
352 528 1585
400 528 1729
432 528 1889
480 544 2050
512 528 2178
544 544 2290
112 528 96
112 544 144
112 528 192
112 528 272
112 544 416
112 528 560
112 528 672
176 512 881
240 544 1105
288 544 1313
320 560 1473
352 560 1601
400 560 1793
448 576 1953
480 576 2098
528 576 2242
544 592 2338
128 576 128
112 576 176
112 576 272
128 592 384
128 592 512
128 576 608
160 576 833
224 592 1009
256 576 1185
288 576 1377
336 576 1553
384 592 1697
432 608 1857
480 624 2017
512 624 2162
560 672 2290
576 672 2370
144 624 192
128 608 256
112 640 352
128 640 448
144 640 576
160 640 737
192 640 913
240 656 1089
288 640 1313
336 656 1505
368 656 1617
432 672 1809
464 672 1921
528 689 2098
544 705 2194
576 753 2338
592 785 2434
144 705 272
160 721 352
160 721 416
128 721 496
160 705 624
192 737 833
208 705 993
256 737 1201
336 753 1393
384 769 1569
432 785 1729
464 785 1873
528 801 2017
560 833 2130
576 897 2274
576 865 2370
608 897 2482
144 817 368
160 817 432
208 849 528
208 849 640
192 849 785
208 833 929
240 849 1089
272 849 1249
368 897 1489
416 881 1649
432 897 1777
496 929 1905
544 993 2050
576 977 2162
608 1025 2274
656 1041 2386
656 1041 2450
128 993 464
144 993 576
160 1025 656
160 1041 721
192 1009 881
192 1009 1009
272 1041 1169
320 1057 1361
384 1041 1505
416 1057 1649
480 1089 1825
528 1121 1953
576 1169 2066
576 1153 2146
640 1185 2274
672 1249 2370
689 1281 2498
128 1121 560
144 1217 624
144 1201 737
160 1217 849
192 1249 961
224 1233 1073
272 1265 1233
320 1265 1425
352 1329 1569
416 1313 1713
448 1345 1841
528 1409 1969
560 1393 2050
576 1441 2194
640 1537 2290
705 1537 2386
689 1553 2514
160 1409 624
160 1409 705
192 1489 817
208 1505 929
192 1505 993
240 1569 1153
256 1553 1281
320 1617 1473
336 1617 1569
416 1665 1729
480 1681 1873
544 1713 1985
560 1825 2146
608 1825 2226
608 1857 2338
672 1889 2418
737 1889 2482
208 1681 737
208 1697 801
208 1761 881
208 1841 977
272 1857 1073
272 1873 1185
288 1953 1361
336 1969 1505
368 2017 1649
384 2017 1761
416 2033 1873
496 2114 2017
576 2114 2130
624 2114 2242
737 2194 2290
721 2210 2386
833 2226 2482
272 2001 881
272 2082 961
320 2130 1025
304 2146 1089
336 2162 1121
320 2210 1249
352 2242 1345
368 2258 1441
400 2306 1601
464 2370 1681
528 2402 1809
560 2434 1953
656 2450 2082
705 2450 2114
833 2546 2226
897 2546 2274
993 2594 2386
384 2306 993
384 2338 1041
416 2354 1089
432 2402 1121
432 2402 1153
464 2482 1249
496 2530 1313
576 2578 1393
640 2594 1457
640 2610 1553
737 2658 1649
769 2706 1745
785 2690 1857
961 2770 1937
1025 2802 2050
1057 2786 2098
1121 2834 2210
528 2562 1105
576 2578 1121
640 2594 1153
640 2610 1185
737 2642 1233
801 2706 1313
817 2706 1345
833 2738 1393
1041 2802 1457
1137 2802 1505
1105 2866 1585
1137 2914 1665
1329 2946 1713
1313 3010 1793
1361 3010 1825
1473 3058 1921
1537 3106 1969
689 2738 1185
945 2818 1249
897 2818 1249
1009 2834 1297
1105 2882 1329
1233 2930 1393
1185 2898 1393
1329 2946 1457
1441 3010 1505
1329 2994 1537
1441 3042 1585
1553 3090 1649
1649 3106 1665
1793 3138 1697
1745 3170 1761
1937 3202 1793
1921 3218 1889
1201 2994 1281
1313 3010 1313
1345 3026 1345
1457 3058 1377
1505 3074 1393
1569 3090 1441
1681 3122 1473
1697 3154 1505
1793 3170 1553
1873 3218 1601
1937 3202 1617
2066 3266 1649
2082 3266 1713
2130 3282 1697
2146 3314 1761
2242 3314 1793
2274 3330 1777
1681 3154 1425
1665 3170 1409
1809 3186 1457
1857 3218 1489
1937 3234 1505
1969 3282 1521
2017 3282 1537
2050 3314 1569
2082 3362 1601
2210 3346 1633
2258 3362 1649
2322 3378 1681
2370 3410 1713
2370 3443 1745
2418 3475 1761
2418 3475 1809
2482 3491 1841
1905 3282 1489
2033 3298 1505
2098 3330 1537
2162 3362 1569
2210 3362 1569
2226 3378 1585
2242 3394 1601
2370 3443 1649
2386 3443 1649
2402 3427 1649
2514 3507 1697
2562 3507 1713
2610 3539 1745
2626 3539 1745
2706 3587 1793
2690 3571 1777
2754 3587 1809
192 480 96
208 464 112
256 480 192
256 480 256
240 464 336
256 496 496
288 480 608
288 464 801
352 480 1009
352 512 1249
384 512 1441
416 512 1601
432 512 1745
480 528 1905
512 512 2050
528 528 2178
576 544 2322
288 512 112
304 496 144
352 512 240
336 512 320
288 512 448
256 512 560
224 512 769
240 528 945
288 528 1153
320 544 1329
368 544 1505
416 544 1697
448 544 1841
480 560 2001
528 576 2146
576 576 2258
576 608 2354
336 560 160
352 544 208
352 544 288
336 560 400
304 560 528
288 544 640
272 560 897
256 576 1057
320 576 1265
368 576 1473
400 576 1617
432 576 1745
480 592 1905
544 608 2066
560 592 2146
592 640 2290
608 640 2386
384 576 208
384 592 288
368 608 368
320 592 480
272 624 592
272 608 785
288 624 1025
304 640 1169
336 624 1345
416 672 1569
448 672 1681
480 656 1825
528 656 1953
576 689 2082
592 705 2194
624 753 2322
640 769 2402
432 656 288
304 705 368
272 705 448
272 737 576
256 737 705
288 721 881
320 721 1057
336 737 1265
416 753 1457
432 737 1585
512 785 1777
528 801 1889
560 817 2001
576 833 2130
656 865 2258
640 865 2354
656 913 2450
480 753 352
320 833 480
336 817 528
336 817 656
256 849 769
272 849 945
336 865 1153
384 849 1345
416 881 1505
496 913 1665
528 945 1793
576 945 1953
608 961 2050
656 1009 2162
705 1025 2274
753 1041 2386
753 1073 2434
496 977 400
256 993 576
288 1025 624
304 1057 737
304 1041 913
336 1057 1057
368 1073 1201
400 1089 1345
464 1105 1537
544 1121 1713
576 1137 1841
576 1137 1937
672 1169 2082
721 1217 2178
721 1233 2274
785 1281 2370
817 1345 2514
448 1185 480
240 1249 624
240 1265 721
240 1265 817
320 1329 945
320 1313 1105
416 1329 1249
432 1345 1377
528 1361 1553
576 1377 1713
624 1441 1857
624 1441 1953
656 1489 2098
737 1537 2194
753 1537 2274
849 1633 2418
833 1633 2498
528 1441 592
288 1537 737
304 1537 801
320 1569 849
336 1601 977
352 1665 1121
432 1665 1265
432 1729 1457
512 1729 1585
624 1809 1761
624 1793 1857
624 1809 2017
705 1841 2114
817 1921 2210
865 1969 2338
913 1969 2386
993 2033 2450
1025 1809 753
336 1841 849
400 1921 929
368 1889 977
400 1953 1073
400 2017 1185
432 2066 1313
496 2082 1409
528 2130 1569
576 2162 1697
672 2162 1809
721 2226 1969
817 2210 2033
945 2274 2162
1041 2290 2242
1057 2290 2290
1185 2386 2402
1169 2178 945
448 2146 993
480 2178 1025
464 2258 1089
496 2258 1121
480 2322 1201
544 2354 1313
624 2386 1393
640 2450 1489
656 2434 1601
721 2450 1697
865 2578 1857
945 2562 1905
1025 2610 2033
1137 2642 2114
1297 2658 2178
1489 2706 2258
1313 2434 1041
753 2434 1073
769 2434 1089
769 2498 1137
769 2530 1201
849 2578 1281
849 2578 1313
993 2610 1377
1025 2674 1457
1249 2722 1521
1233 2706 1585
1265 2786 1697
1281 2834 1809
1377 2818 1841
1393 2882 1953
1505 2898 1985
1585 2930 2130
1777 2722 1185
1201 2706 1201
1297 2722 1233
1265 2722 1249
1281 2770 1297
1249 2754 1313
1393 2770 1361
1457 2802 1409
1473 2834 1473
1665 2882 1521
1713 2946 1585
1697 2946 1617
1777 3010 1681
1841 3026 1745
1873 3074 1777
1937 3090 1857
1985 3122 1889
2033 2898 1297
1521 2866 1281
1553 2898 1313
1713 2994 1377
1617 2978 1409
1633 2994 1409
1761 3026 1473
1793 3058 1505
1825 3058 1537
1889 3074 1569
1985 3106 1601
2001 3154 1665
2066 3170 1665
2114 3202 1697
2178 3218 1761
2226 3250 1793
2226 3266 1841
2194 3106 1377
2050 3090 1393
2017 3122 1409
1969 3154 1441
1889 3154 1473
2033 3186 1505
1985 3186 1505
2050 3234 1537
2066 3250 1585
2146 3282 1633
2178 3266 1633
2306 3314 1665
2290 3314 1713
2354 3346 1713
2338 3346 1777
2402 3410 1809
2450 3427 1809
2386 3218 1473
2258 3282 1473
2338 3266 1505
2322 3282 1521
2178 3266 1521
2242 3330 1569
2226 3314 1569
2306 3362 1601
2354 3410 1633
2450 3410 1665
2498 3427 1697
2546 3443 1713
2562 3475 1729
2562 3491 1745
2642 3523 1777
2610 3507 1809
2658 3539 1857
2530 3362 1537
2482 3378 1553
2546 3410 1585
2450 3394 1585
2434 3443 1617
2434 3427 1617
2562 3475 1665
2578 3475 1665
2594 3491 1681
2626 3523 1713
2706 3539 1729
2690 3539 1729
2738 3571 1761
2754 3555 1761
2786 3571 1777
2914 3635 1825
2898 3619 1825
304 480 96
320 480 128
368 496 224
368 480 272
416 480 400
432 480 528
464 480 689
512 480 849
544 464 1041
496 480 1281
432 480 1457
480 496 1665
496 512 1825
528 512 1969
560 512 2114
592 528 2242
608 544 2338
416 512 128
448 496 176
496 496 256
480 496 336
464 512 464
480 512 608
416 496 769
400 496 945
480 512 1185
480 496 1361
448 512 1569
448 512 1713
512 528 1873
528 528 2017
576 560 2130
624 576 2258
640 576 2338
576 528 176
640 512 224
721 512 304
721 496 384
592 512 528
544 512 656
464 544 881
384 544 1105
368 560 1297
400 544 1473
448 576 1633
496 576 1793
528 592 1921
592 576 2066
608 576 2162
640 608 2290
656 640 2370
672 544 224
721 560 304
785 544 368
737 544 480
640 576 640
560 576 753
528 560 945
432 608 1185
432 608 1377
496 624 1569
496 640 1713
544 640 1825
576 656 1969
624 705 2098
672 737 2194
689 721 2306
737 769 2418
897 592 288
672 656 384
656 656 464
624 672 576
560 689 753
464 656 929
480 672 1073
448 705 1281
480 753 1489
528 737 1633
560 769 1777
608 769 1905
624 817 2001
672 817 2130
753 865 2242
769 881 2386
833 897 2482
1057 656 368
801 737 448
576 833 560
544 849 672
464 913 849
432 913 1041
464 897 1201
464 929 1361
512 897 1505
560 913 1681
624 929 1809
640 961 1937
721 977 2082
801 1009 2194
801 1025 2258
897 1057 2370
929 1089 2434
1057 897 416
865 897 528
544 1057 656
592 1057 753
560 1089 929
528 1169 1089
496 1089 1185
560 1121 1377
624 1137 1553
640 1121 1697
672 1153 1809
753 1169 1953
769 1233 2082
849 1281 2178
881 1281 2258
881 1345 2354
993 1393 2514
1137 1201 528
881 1233 576
480 1313 721
528 1345 817
560 1409 929
560 1473 1089
592 1441 1233
640 1441 1377
721 1489 1569
785 1505 1729
769 1489 1857
833 1505 1985
881 1601 2098
929 1617 2226
1009 1649 2290
1073 1665 2386
1041 1713 2482
1249 1585 672
929 1585 721
528 1681 865
480 1697 913
512 1729 1025
624 1809 1121
528 1825 1265
624 1873 1441
721 1873 1569
753 1921 1745
913 1921 1841
929 1937 1969
1041 2033 2082
1041 2001 2162
1089 2017 2274
1233 2098 2338
1233 2082 2434
1713 2001 881
1041 1969 881
560 1985 977
656 2066 1041
624 2098 1105
656 2114 1153
576 2130 1281
801 2178 1393
672 2210 1505
785 2242 1633
977 2290 1761
1009 2322 1905
1137 2354 2001
1233 2338 2130
1377 2482 2146
1393 2418 2258
1553 2514 2322
2066 2338 1041
1553 2306 1041
705 2274 1057
817 2290 1089
817 2338 1169
881 2370 1233
929 2482 1329
897 2450 1361
1041 2482 1441
1281 2594 1553
1169 2562 1649
1249 2610 1729
1441 2674 1857
1457 2706 1905
1505 2706 2017
1569 2738 2114
1681 2786 2162
2338 2642 1169
1873 2578 1137
1217 2594 1201
1217 2610 1233
1249 2626 1249
1265 2642 1313
1377 2658 1345
1425 2674 1393
1553 2754 1473
1649 2802 1537
1665 2834 1617
1713 2866 1681
1777 2882 1761
1793 2914 1825
1761 2946 1921
1809 2978 1953
1921 3042 2033
2546 2802 1297
2226 2786 1265
1809 2850 1313
1713 2802 1297
1649 2818 1345
1649 2850 1377
1889 2898 1441
1889 2930 1489
1873 2946 1521
1969 2978 1553
2017 3026 1601
2082 3074 1665
2098 3058 1681
2162 3090 1745
2178 3122 1777
2226 3170 1809
2274 3186 1857
2674 2978 1393
2370 2978 1361
2066 3026 1393
2066 3026 1409
2017 3058 1441
1985 3074 1457
2017 3122 1505
2017 3122 1521
2178 3154 1569
2210 3202 1617
2274 3218 1633
2258 3202 1665
2322 3250 1681
2338 3266 1713
2418 3266 1729
2482 3298 1777
2450 3330 1841
2690 3154 1441
2594 3170 1441
2386 3202 1489
2322 3202 1489
2226 3218 1505
2226 3250 1537
2322 3282 1585
2306 3298 1601
2306 3282 1601
2386 3346 1665
2418 3346 1681
2482 3362 1681
2514 3378 1745
2578 3394 1745
2546 3443 1809
2594 3443 1809
2690 3475 1809
2786 3282 1521
2722 3298 1505
2658 3314 1537
2610 3330 1569
2514 3346 1585
2450 3378 1601
2546 3410 1633
2482 3410 1633
2562 3443 1681
2610 3427 1665
2642 3491 1713
2706 3507 1729
2722 3491 1729
2770 3523 1761
2818 3555 1793
2754 3539 1809
2818 3571 1857
2914 3394 1601
2850 3394 1601
2738 3394 1585
2738 3475 1617
2722 3491 1665
2610 3475 1665
2690 3507 1697
2706 3523 1697
2786 3555 1745
2802 3555 1745
2834 3571 1761
2850 3571 1761
2898 3619 1793
2978 3635 1825
2994 3667 1841
3010 3683 1857
3026 3667 1857
432 480 112
496 480 160
528 480 240
576 480 304
624 480 432
672 480 544
737 480 705
785 464 865
865 464 1041
785 464 1281
689 480 1521
640 496 1681
624 480 1809
656 496 1985
640 496 2098
672 496 2210
689 512 2338
608 512 160
656 496 192
705 480 256
785 480 352
769 480 496
817 464 656
785 480 833
833 496 1025
865 496 1185
833 496 1441
705 496 1553
608 528 1745
640 528 1905
608 528 2001
656 560 2130
672 544 2226
