其他预设/【236】赛博朋克风调色预设/【后期菌】视频调色预设/3DL/Sunset 03_S.3dl
# LUT by SparkleStock. Enhanced with VOXCOLOR algorithms.
0 256 512 768 1023
32 160 288
80 400 705
128 705 1553
224 1153 2594
240 1425 3106
80 496 592
144 737 1025
208 1153 1969
304 1537 2706
352 1745 3058
48 1217 929
64 1489 1281
128 1809 1953
448 2242 2578
689 2434 2850
384 2178 1169
1025 2370 1409
1649 2594 1761
2017 2786 2114
2306 2898 2434
2050 2834 1265
2386 2962 1345
2642 3074 1425
2802 3170 1537
2914 3234 1617
288 240 464
496 368 833
640 560 1617
512 1153 2674
416 1473 3170
2226 865 576
2306 945 1089
769 1217 2033
672 1665 2690
929 1905 3026
2482 1937 737
1153 1905 1297
1489 2162 1889
1889 2450 2418
2210 2642 2770
3154 2978 1121
2466 2834 1281
2578 2930 1521
2754 3010 1697
2882 3106 1873
3154 3218 1249
3138 3266 1281
3074 3298 1393
3138 3330 1409
3250 3427 1441
2482 721 624
2674 705 1057
2930 929 1745
3122 1025 2466
3202 1073 2914
2930 1057 608
2770 1089 1089
2978 1185 1809
3491 1441 2386
3154 1585 2850
2962 2338 640
2786 2146 849
2978 2258 1617
2994 2866 2050
2994 2962 2482
3330 3170 1201
3186 3170 1185
3090 3202 1393
3122 3234 1505
3186 3282 1585
3298 3394 1345
3330 3427 1361
3378 3459 1377
3410 3491 1569
3427 3539 2001
3427 977 865
3443 929 1137
3603 1153 1745
3667 1265 2434
3667 1217 2834
3523 1217 672
3427 1185 1105
3507 1313 1681
3763 1649 2017
3747 1841 2514
3443 2658 753
3314 2434 945
3330 2386 1537
3539 2802 1761
3587 3186 1713
3443 3298 1281
3298 3234 1217
3250 3218 1505
3282 3282 1681
3378 3443 1425
3443 3491 1409
3459 3539 1441
3443 3571 1857
3491 3603 2706
3555 3619 3218
3731 1089 977
3795 1137 1265
3811 1217 1745
3827 1393 2306
3811 1409 2738
3747 1633 705
3811 1601 1137
3811 1793 1457
3747 2162 1681
3699 2498 1969
3619 3154 1137
3715 2866 1121
3811 2642 1521
3731 2866 1793
3587 3346 1473
3443 3410 1345
3603 3298 1217
3715 3234 1585
3667 3314 1953
3539 3539 2066
3507 3571 2178
3555 3635 2850
3635 3667 3090
3603 3715 3603
3571 3747 3907
