其他预设/【236】赛博朋克风调色预设/【后期菌】视频调色预设/3DL/Sunset 02_S.3dl
# LUT by SparkleStock. Enhanced with VOXCOLOR algorithms.
0 128 256 384 512 640 768 896 1023
352 288 256
368 320 336
384 368 432
416 400 608
448 496 881
528 592 1201
608 753 1649
689 929 2098
769 1105 2530
368 368 336
384 384 416
416 416 592
416 480 801
496 576 1057
576 705 1425
640 849 1793
753 1073 2290
801 1281 2658
400 464 400
432 512 544
464 544 689
512 608 945
592 769 1297
656 913 1697
753 1105 2114
817 1329 2498
849 1473 2786
464 721 560
528 769 753
576 801 929
624 945 1185
705 1041 1505
769 1201 1793
817 1377 2162
881 1537 2498
961 1745 2786
624 1089 721
721 1217 897
737 1297 1089
817 1377 1329
881 1489 1585
993 1697 1905
1121 1905 2242
1185 2050 2530
1297 2210 2722
993 1697 801
1137 1873 961
1201 2001 1185
1329 2210 1505
1441 2354 1761
1569 2530 2050
1681 2626 2290
1825 2770 2482
1969 2850 2674
1649 2482 881
1825 2626 1041
1905 2706 1169
2130 2850 1393
2354 2994 1617
2498 3122 1825
2674 3218 2001
2770 3266 2194
2898 3362 2386
2546 3218 865
2642 3250 993
2754 3298 1169
2978 3427 1313
3010 3459 1473
3090 3523 1633
3234 3619 1809
3282 3651 1905
3394 3651 2017
3186 3619 961
3314 3699 1121
3410 3731 1185
3427 3731 1313
3539 3795 1441
3587 3843 1601
3683 3875 1713
3731 3891 1825
3763 3923 1905
400 320 288
448 368 400
496 400 528
544 448 705
592 544 929
592 624 1297
672 769 1729
737 961 2178
801 1137 2594
528 352 320
624 400 432
592 416 608
560 512 833
592 640 1217
640 769 1585
721 929 1985
801 1121 2370
849 1329 2722
705 432 400
592 512 576
608 592 769
640 689 1073
689 833 1425
753 977 1777
785 1137 2162
897 1345 2466
961 1505 2786
817 592 368
689 833 769
737 961 993
769 1009 1201
913 1169 1521
945 1281 1793
1041 1489 2162
1153 1697 2482
1265 1889 2770
1089 1025 352
993 1377 897
1041 1505 1137
1137 1617 1377
1281 1793 1681
1393 1905 1889
1569 2146 2210
1633 2274 2434
1745 2434 2658
2162 1729 192
1537 2066 961
1617 2226 1185
1889 2450 1489
2001 2530 1649
2162 2674 1905
2354 2802 2130
2466 2914 2370
2642 3058 2546
3010 2722 336
2626 2882 785
2546 2962 1105
2802 3090 1313
2882 3186 1505
3026 3282 1633
3106 3330 1793
3186 3427 1953
3282 3491 2162
3427 3427 528
3250 3507 769
3250 3539 1137
3394 3619 1329
3330 3635 1473
3443 3699 1601
3491 3731 1713
3555 3763 1841
3667 3779 1921
3731 3763 769
3683 3763 897
3699 3843 1153
3715 3875 1377
3763 3907 1505
3795 3907 1617
3843 3939 1713
3891 3955 1825
3891 3955 1889
512 320 304
592 384 400
753 432 576
881 528 833
1025 640 1089
977 753 1457
1041 849 1793
961 977 2226
961 1137 2594
913 400 256
1137 480 400
1361 560 608
1473 640 945
1537 769 1313
1329 849 1601
913 977 2017
961 1153 2418
993 1361 2690
1681 560 144
2098 721 352
2050 753 608
1489 785 1089
993 897 1473
961 1041 1777
1073 1233 2146
1169 1393 2434
1249 1553 2690
1985 785 128
1873 929 368
1425 1041 833
1441 1137 1201
1281 1329 1553
1313 1473 1825
1473 1665 2114
1553 1841 2402
1649 2033 2690
2146 1281 112
1825 1441 336
1425 1697 1057
1553 1873 1361
1681 2001 1633
1953 2210 1841
2114 2338 2114
2290 2562 2354
2434 2674 2578
3042 2162 256
2898 2354 368
2322 2546 1073
2386 2642 1313
2674 2786 1569
2818 2882 1745
2930 3042 2001
3090 3202 2194
3138 3250 2354
3507 3010 448
3443 3090 496
3186 3250 977
3250 3314 1217
3346 3443 1441
3394 3459 1553
3475 3523 1713
3507 3571 1857
3571 3635 2001
3715 3619 640
3699 3667 753
3571 3667 929
3651 3747 1313
3635 3795 1505
3667 3795 1553
3715 3859 1713
3747 3875 1857
3843 3891 1889
3875 3859 881
3891 3907 977
3907 3939 1089
3875 3939 1329
3907 3955 1537
3939 3987 1697
3939 3987 1729
3971 4003 1809
4003 4035 1937
913 368 256
1185 432 368
1441 496 576
1601 592 817
1889 721 1073
2194 913 1457
2450 1057 1809
2626 1153 2114
1665 1201 2482
1921 528 160
2001 576 320
2226 640 608
2418 705 929
2754 833 1217
2866 977 1505
2754 1089 1809
2258 1153 2194
1841 1297 2466
2562 753 112
2562 849 416
2482 881 737
2610 945 1057
2642 961 1297
2882 1025 1473
2786 1185 1777
1633 1441 2274
1633 1649 2610
2754 1041 112
2578 1137 368
2594 1217 801
2626 1233 1137
2242 1361 1473
2033 1649 1825
1985 1809 2050
2162 2114 2370
2258 2194 2578
2706 1633 128
2546 1697 304
2450 1745 689
2242 1937 1185
2482 2066 1489
2498 2338 1777
2786 2626 2017
2850 2786 2290
2930 2882 2466
3330 2482 368
3138 2498 416
2994 2658 608
2770 2866 1281
2962 2994 1489
3250 3186 1633
3282 3266 1841
3410 3346 1985
3459 3427 2162
3715 3250 576
3699 3346 624
3699 3475 721
3507 3539 1217
3619 3587 1345
3619 3651 1537
3651 3683 1697
3731 3747 1825
3747 3763 1937
3795 3731 785
3843 3747 849
3827 3827 961
3859 3875 1217
3795 3875 1393
3827 3891 1617
3843 3907 1713
3891 3939 1857
3955 3939 1889
3971 3939 1073
3987 3971 1137
3987 3987 1233
4035 4035 1361
3987 4003 1569
4003 4035 1729
4051 4051 1841
4067 4051 1921
4051 4035 2114
1937 496 112
2194 512 272
2418 576 512
2674 656 785
2978 849 1137
3218 1009 1377
3266 1121 1713
3330 1249 2098
3362 1329 2338
2898 672 160
2818 672 400
2770 705 737
2882 769 1057
3122 881 1329
3443 1041 1521
3667 1169 1681
3667 1233 1921
3651 1329 2178
2962 849 176
2850 945 528
2818 961 833
2850 993 1201
3058 1041 1457
3394 1105 1569
3587 1249 1681
3475 1377 1937
3218 1569 2290
2994 1169 176
2834 1281 464
2834 1329 897
2850 1345 1217
3026 1393 1473
3314 1505 1681
3523 1665 1745
3491 2033 2066
2962 2386 2482
2994 1857 192
2802 1905 368
2866 1873 753
2978 1873 1201
3106 2066 1489
3138 2434 1697
3282 2882 1889
3282 3058 2178
3346 3138 2354
3427 2690 400
3202 2722 496
3138 2786 672
3202 2882 961
3314 3138 1473
3587 3346 1585
3555 3459 1697
3667 3539 1889
3683 3571 2001
3843 3475 705
3715 3491 721
3715 3539 849
3667 3587 961
3763 3731 1425
3795 3763 1553
3843 3827 1681
3875 3859 1825
3891 3859 1889
3923 3843 961
3923 3859 993
3955 3923 1137
3987 3923 1153
3955 3955 1457
3939 3955 1649
3955 3971 1793
3987 3987 1873
4035 4003 1921
4035 4003 1265
4051 4035 1329
4051 4051 1409
4067 4051 1537
4051 4051 1585
4067 4051 1857
4067 4035 2274
4067 4003 2450
4095 4035 2754
3026 640 128
3106 640 336
3234 705 608
3346 785 929
3507 961 1217
3619 1089 1409
3699 1169 1713
3715 1281 2017
3731 1345 2242
3314 769 272
3266 769 544
3202 769 817
3250 817 1137
3410 913 1377
3635 1057 1521
3779 1185 1649
3827 1281 1905
3843 1377 2162
3314 929 256
3186 961 576
3154 1009 897
3186 1057 1233
3298 1089 1505
3571 1217 1649
3827 1329 1681
3843 1425 1825
3827 1569 2114
3282 1329 272
3154 1377 544
3122 1409 929
3186 1457 1249
3298 1537 1553
3571 1633 1649
3843 1825 1697
3843 2098 1873
3731 2290 2130
3266 2098 272
3138 2114 448
3138 2050 801
3154 2033 1217
3298 2146 1489
3635 2450 1601
3731 2802 1713
3843 3074 1825
3795 3250 2033
3635 3010 560
3475 3010 592
3394 2994 785
3410 2994 1041
3507 3106 1249
3651 3298 1649
3667 3475 1761
3795 3683 1793
3859 3731 1937
3955 3683 897
3859 3651 897
3827 3699 977
3763 3699 1121
3715 3699 1329
3731 3731 1697
3843 3827 1809
3971 3907 1777
3987 3939 1873
3971 3923 1105
3971 3955 1169
3987 3971 1297
3955 3987 1409
3891 3971 1537
3891 3971 1761
4035 4003 1809
4035 4003 2001
4051 4003 2178
4067 4051 1473
4067 4051 1537
4067 4051 1649
4095 4051 1825
4095 4051 2001
4095 4035 2354
4095 4003 2754
4051 3987 3090
4067 3971 3266
3555 785 320
3587 801 480
3651 833 721
3699 929 993
3779 1057 1281
3843 1169 1505
3875 1265 1777
3875 1313 2001
3875 1393 2258
3699 865 448
3619 849 608
3571 849 865
3635 929 1153
3715 1009 1409
3795 1137 1489
3875 1233 1649
3891 1329 1905
3891 1425 2146
3619 993 400
3555 1073 689
3491 1073 929
3523 1137 1233
3635 1217 1489
3795 1361 1617
3907 1521 1697
3907 1665 1889
3907 1745 2146
3619 1441 400
3507 1505 608
3491 1521 977
3491 1585 1313
3555 1681 1553
3731 1841 1649
3843 2098 1745
3939 2322 1793
3939 2546 2017
3619 2418 432
3539 2418 560
3459 2274 865
3443 2242 1281
3475 2338 1569
3667 2610 1745
3779 2850 1857
3907 3106 1857
3955 3362 1857
3843 3266 705
3747 3250 753
3651 3202 897
3523 3042 1137
3555 3074 1409
3651 3202 1809
3747 3346 1889
3891 3587 1873
3987 3763 1777
4003 3795 1025
3987 3827 1089
3843 3699 1105
3715 3651 1281
3667 3587 1505
3715 3667 1729
3827 3747 1953
3955 3891 1921
4051 4003 1937
4035 3971 1297
4035 3987 1361
3939 3971 1441
3859 3939 1521
3795 3907 1697
3827 3923 1953
3907 3939 2274
4067 3987 2498
4095 3987 2770
4095 4051 1713
4095 4051 1857
4067 4035 2098
4035 4035 2338
4003 4035 2642
4003 3987 2962
4051 3971 3266
4095 3955 3459
4067 3955 3587
3795 913 480
3843 961 656
3875 1025 881
3891 1089 1105
3923 1153 1329
3939 1217 1569
3955 1313 1857
3955 1361 2098
3955 1441 2258
3859 961 624
3875 977 769
3843 977 945
3875 1041 1185
3923 1137 1345
3923 1265 1505
3939 1361 1713
3939 1457 1937
3955 1585 2178
3827 1153 528
3859 1169 801
3859 1217 1009
3843 1297 1217
3891 1457 1457
3891 1537 1569
3939 1697 1697
3971 1921 1889
3971 2066 2098
3827 1713 592
3827 1697 705
3795 1713 961
3795 1777 1281
3795 1889 1537
3827 2114 1697
3875 2322 1873
3971 2706 1889
3987 2866 2001
3891 2882 672
3843 2866 705
3779 2674 897
3747 2450 1281
3747 2530 1585
3795 2722 1809
3859 2914 1953
3939 3202 1905
4035 3539 1841
4003 3571 913
3955 3507 913
3859 3282 977
3795 3122 1265
3795 3154 1505
3827 3186 1889
3875 3330 2098
3955 3571 2033
4051 3859 1889
4035 3891 1169
3987 3859 1169
3907 3715 1217
3843 3571 1393
3843 3555 1665
3859 3571 1937
3891 3667 2162
3955 3795 2210
4051 3971 2162
4067 4035 1505
4067 4035 1553
3987 3955 1601
3923 3891 1745
3875 3859 2033
3891 3859 2418
3955 3907 2770
3987 3923 3074
4067 3955 3282
4067 4051 2258
4095 4035 2482
4051 4003 2786
3987 3987 2866
3987 3987 3138
4003 3987 3362
4035 3955 3587
4067 3971 3779
4051 3955 3843
3907 977 656
3939 1041 817
3955 1105 1057
3955 1153 1233
3971 1201 1441
3971 1265 1665
3971 1329 1857
3971 1377 2066
3971 1473 2258
3923 1025 785
3923 1073 881
3939 1137 1041
3955 1217 1233
3955 1297 1393
3955 1345 1521
3971 1489 1761
3971 1601 1953
3987 1745 2194
3875 1361 608
3955 1393 977
3955 1441 1089
3987 1521 1265
3987 1633 1473
3987 1745 1649
3987 1985 1745
3987 2242 1889
3987 2418 2066
3875 2354 624
3923 2210 833
3987 2130 1057
4003 2162 1313
4003 2194 1537
4003 2386 1761
4035 2626 1921
4035 3010 1905
4035 3154 1953
3939 3186 801
3955 3154 817
3987 2930 945
4035 2802 1233
4035 2722 1601
4051 2850 1841
4067 3058 2017
4051 3346 1985
4067 3699 1825
4035 3715 1057
4035 3619 1041
4067 3394 1105
4051 3234 1329
4051 3218 1601
4067 3234 1969
4051 3314 2178
4051 3587 2130
4067 3891 1921
4051 3971 1345
4067 3875 1313
4067 3731 1329
4095 3587 1521
4095 3555 1761
4067 3571 2114
4051 3619 2434
4067 3795 2626
4095 3955 2818
4095 4035 1697
4067 4003 1889
4067 3939 1969
4067 3859 2098
4067 3827 2386
4051 3795 2802
4067 3875 3218
4095 3907 3475
4067 3955 3635
4051 3987 2898
4051 3971 3202
4067 3971 3298
4067 3971 3298
4051 3987 3427
4051 3971 3619
4051 3955 3827
4051 3955 4035
4051 3939 4095
