其他预设/【236】赛博朋克风调色预设/【后期菌】视频调色预设/3DL/Sunset 09_S.3dl
# LUT by SparkleStock. Enhanced with VOXCOLOR algorithms.
0 128 256 384 512 640 768 896 1023
48 16 16
128 32 208
96 64 464
96 128 849
128 192 1297
144 336 1681
192 544 2033
256 672 2322
288 785 2546
160 304 224
128 304 416
192 352 705
192 400 1105
224 512 1489
256 624 1873
320 769 2194
368 881 2418
416 977 2578
272 608 416
352 656 672
336 640 913
384 689 1297
496 817 1713
544 945 2082
592 1041 2338
656 1169 2530
705 1249 2690
528 1105 656
624 1137 913
737 1089 1105
769 1137 1441
785 1201 1777
833 1297 2098
961 1393 2290
1041 1489 2466
1153 1601 2642
881 1633 881
993 1713 1121
1041 1729 1313
1121 1713 1473
1169 1729 1729
1297 1825 1969
1377 1921 2162
1425 1969 2370
1553 2033 2450
1201 2210 1073
1313 2306 1281
1409 2322 1409
1553 2386 1649
1665 2418 1841
1793 2482 1985
1889 2514 2130
2050 2562 2178
2162 2594 2274
1697 2642 1137
1857 2706 1281
1889 2722 1393
2082 2770 1537
2210 2850 1729
2338 2898 1921
2466 2962 2017
2530 2978 2130
2674 3058 2258
2146 2946 961
2242 2962 1025
2322 3010 1137
2450 3058 1217
2498 3122 1313
2578 3154 1441
2706 3202 1505
2754 3218 1601
2850 3250 1649
2466 3170 865
2578 3234 913
2658 3250 945
2706 3298 1009
2786 3346 1057
2866 3378 1153
2930 3443 1217
2978 3475 1249
3010 3491 1313
352 48 144
480 64 352
512 128 576
592 160 881
624 240 1297
448 448 1777
448 624 2146
496 737 2418
528 865 2594
769 272 304
913 304 544
785 416 753
721 544 1153
576 672 1633
576 769 2017
624 865 2258
656 993 2466
769 1105 2642
1185 592 576
897 753 801
913 817 1057
913 897 1377
817 1009 1809
897 1105 2114
945 1217 2322
1105 1361 2498
1169 1441 2706
1409 1041 528
1025 1281 993
1105 1345 1217
1137 1361 1441
1297 1457 1745
1329 1505 2001
1393 1633 2226
1537 1745 2386
1649 1889 2578
1553 1665 464
1409 1921 1233
1457 1969 1377
1553 2017 1569
1681 2082 1745
1825 2130 1889
1953 2226 2082
2050 2274 2194
2162 2338 2338
2274 2146 208
1761 2402 1233
1809 2482 1425
2033 2578 1681
2130 2594 1857
2274 2674 2033
2418 2738 2194
2514 2786 2322
2642 2866 2434
2738 2658 256
2338 2802 897
2306 2818 1169
2450 2898 1297
2530 2946 1457
2642 3010 1569
2706 3042 1697
2786 3074 1793
2866 3122 1889
2898 3026 336
2658 3106 721
2594 3154 945
2738 3202 1089
2722 3218 1185
2802 3282 1249
2866 3314 1313
2914 3346 1393
3010 3394 1393
3010 3282 416
2914 3314 576
2962 3378 817
2946 3394 977
2994 3459 1041
3026 3459 1089
3074 3507 1153
3138 3539 1233
3186 3571 1281
753 80 208
881 112 432
1025 176 721
1201 224 1057
1361 304 1377
1313 464 1665
1297 592 1985
1025 737 2338
1041 849 2562
1505 368 432
1729 416 624
1841 448 865
1857 544 1297
1921 640 1665
1777 737 1825
1153 1009 2210
1137 1105 2434
1217 1217 2578
2258 705 448
2402 769 705
2322 817 945
1873 977 1457
1425 1217 1713
1377 1297 2017
1505 1425 2194
1601 1521 2386
1713 1617 2530
2418 1121 336
2226 1233 672
1857 1377 1169
1809 1505 1553
1729 1745 1873
1809 1809 1985
2017 1985 2162
2098 2050 2306
2178 2146 2482
2418 1777 176
2162 1905 544
1745 2114 1345
1841 2210 1633
1985 2290 1921
2242 2418 2098
2370 2466 2290
2482 2562 2418
2546 2610 2514
2898 2322 144
2770 2466 416
2274 2610 1233
2338 2658 1425
2546 2754 1633
2690 2770 1809
2786 2866 1969
2882 2946 2098
2946 2962 2194
3106 2770 144
3026 2834 336
2770 2994 945
2802 3026 1089
2850 3090 1249
2898 3090 1329
2962 3138 1441
2978 3186 1537
3058 3250 1601
3138 3138 176
3090 3186 400
2994 3202 689
2962 3298 945
2978 3346 1073
2994 3346 1105
3026 3410 1201
3058 3443 1281
3154 3459 1297
3218 3346 352
3218 3410 544
3218 3427 689
3138 3475 929
3154 3539 1089
3218 3571 1153
3218 3571 1201
3314 3619 1249
3394 3651 1313
1521 160 368
1729 208 544
1953 256 801
2082 320 1137
2274 384 1473
2402 480 1777
2658 592 2066
2770 656 2210
2210 817 2386
2418 512 448
2386 528 608
2434 576 881
2530 592 1217
2722 656 1553
2802 769 1889
2770 929 2114
2610 1041 2258
2370 1169 2370
2610 897 448
2514 865 705
2450 897 977
2530 929 1313
2578 1009 1617
2818 1169 1873
2754 1393 2114
2162 1649 2178
2194 1809 2370
2690 1297 256
2482 1361 560
2482 1345 1025
2514 1377 1377
2354 1649 1761
2274 1969 2130
2338 2146 2290
2482 2290 2450
2514 2338 2546
2706 1905 112
2546 1953 384
2466 1969 833
2370 2130 1377
2562 2226 1665
2610 2450 1985
2818 2610 2162
2850 2690 2338
2850 2754 2466
3074 2466 144
2898 2466 192
2802 2594 608
2594 2770 1313
2754 2834 1473
2962 2930 1569
2962 2962 1777
3042 3026 1857
3074 3074 1937
3234 2882 128
3250 2962 208
3218 3058 448
3010 3170 993
3074 3186 1089
3058 3202 1185
3090 3250 1265
3154 3330 1345
3170 3330 1393
3234 3218 208
3234 3250 288
3234 3314 512
3202 3394 833
3170 3410 977
3154 3443 1137
3186 3475 1185
3234 3539 1297
3298 3539 1265
3346 3459 560
3362 3491 672
3378 3523 785
3394 3571 945
3346 3603 1105
3378 3635 1201
3459 3683 1281
3475 3699 1329
3523 3699 1409
2498 368 448
2594 352 560
2674 352 801
2754 368 1121
2914 448 1441
3026 640 1809
3042 737 2114
3122 785 2290
3186 817 2434
2834 640 496
2754 608 672
2706 624 929
2786 640 1281
2930 672 1569
3138 769 1793
3314 929 1921
3314 1009 2162
3314 1121 2338
2802 977 432
2722 977 721
2722 977 1009
2754 1009 1345
2914 1025 1617
3170 1041 1777
3250 1281 1905
3154 1521 2178
2962 1713 2386
2834 1377 272
2690 1425 576
2722 1441 1041
2738 1457 1377
2850 1489 1649
3026 1633 1857
3170 1841 1905
3154 2146 2098
2850 2450 2482
2866 2033 96
2738 2033 320
2786 1985 753
2834 1985 1217
2946 2130 1537
3026 2386 1777
3138 2722 1921
3106 2818 2098
3122 2882 2226
3122 2530 96
2978 2578 224
2930 2642 448
2978 2722 849
3026 2882 1361
3186 2978 1377
3170 3042 1457
3218 3138 1553
3218 3170 1633
3346 3042 128
3218 3042 192
3218 3106 336
3170 3138 576
3186 3298 1041
3186 3330 1121
3234 3362 1185
3298 3427 1265
3314 3443 1313
3330 3362 352
3346 3362 448
3378 3427 624
3410 3443 689
3330 3523 993
3298 3539 1169
3362 3587 1249
3410 3619 1329
3459 3635 1329
3443 3555 801
3459 3571 849
3507 3603 945
3555 3635 1057
3539 3635 1089
3539 3699 1313
3603 3747 1505
3635 3747 1601
3699 3779 1825
2994 496 528
3010 448 624
3074 480 833
3138 496 1121
3218 560 1425
3298 689 1729
3314 785 2001
3346 913 2210
3394 993 2386
3106 689 560
3058 689 721
3042 672 961
3074 672 1265
3202 737 1505
3362 801 1697
3459 945 1825
3459 1105 2082
3475 1217 2226
3074 1105 496
3026 1025 753
3026 1057 1041
3042 1089 1361
3122 1105 1617
3346 1201 1729
3523 1281 1745
3539 1393 1857
3523 1553 2082
3090 1473 240
2994 1521 560
2994 1521 993
3026 1553 1329
3106 1649 1601
3314 1713 1697
3507 1921 1761
3491 2114 1937
3410 2274 2130
3106 2178 128
3026 2162 336
3026 2082 753
3058 2082 1169
3154 2146 1441
3427 2354 1489
3491 2530 1569
3539 2754 1649
3475 2882 1793
3314 2722 112
3186 2754 224
3122 2754 464
3186 2754 769
3234 2818 961
3314 2946 1345
3250 3106 1393
3314 3234 1345
3362 3298 1425
3443 3186 208
3346 3170 272
3362 3218 432
3314 3282 656
3250 3314 929
3218 3330 1281
3314 3427 1329
3410 3507 1265
3410 3539 1281
3427 3443 544
3443 3459 672
3475 3507 769
3475 3571 945
3410 3571 1105
3427 3619 1329
3491 3635 1281
3555 3683 1393
3603 3699 1457
3555 3619 977
3587 3651 1041
3603 3667 1121
3651 3699 1281
3683 3731 1393
3715 3763 1553
3731 3795 1809
3779 3811 2114
3811 3811 2354
3282 576 624
3314 544 689
3346 544 849
3378 576 1089
3475 624 1377
3507 721 1649
3491 849 1921
3491 945 2114
3507 1057 2290
3394 785 705
3378 769 785
3378 769 1009
3427 801 1249
3475 833 1425
3555 913 1569
3571 1025 1713
3587 1169 1953
3571 1297 2162
3330 1201 560
3346 1153 801
3346 1137 1073
3362 1169 1377
3459 1265 1585
3555 1377 1665
3619 1505 1681
3635 1649 1809
3619 1729 2001
3378 1585 224
3362 1617 528
3346 1633 961
3362 1665 1297
3378 1745 1521
3491 1937 1617
3571 2098 1617
3619 2274 1633
3619 2386 1841
3378 2322 144
3346 2322 304
3346 2242 769
3362 2210 1169
3378 2226 1473
3507 2418 1553
3587 2546 1585
3635 2738 1489
3667 2930 1425
3443 2898 112
3410 2898 208
3346 2866 464
3314 2818 865
3330 2834 1121
3410 2898 1473
3459 3010 1505
3507 3170 1377
3539 3346 1217
3523 3314 368
3491 3362 480
3410 3282 608
3362 3298 913
3346 3282 1185
3362 3330 1393
3427 3427 1553
3459 3507 1393
3571 3619 1313
3523 3539 801
3539 3555 881
3523 3571 961
3491 3603 1137
3475 3603 1313
3507 3635 1521
3571 3683 1649
3699 3731 1665
3747 3763 1825
3651 3667 1169
3683 3699 1281
3715 3731 1425
3731 3763 1553
3763 3811 1809
3811 3843 2066
3843 3827 2354
3875 3843 2674
3891 3875 2898
3459 672 737
3491 705 817
3539 721 913
3571 721 1089
3619 721 1313
3635 753 1569
3651 881 1857
3651 1009 2033
3635 1121 2210
3555 897 849
3603 913 913
3603 897 1041
3635 961 1233
3651 1057 1377
3667 1121 1457
3699 1201 1649
3699 1265 1873
3715 1393 2033
3507 1377 576
3571 1329 881
3587 1329 1105
3603 1377 1313
3635 1489 1521
3651 1569 1633
3667 1697 1745
3683 1905 1841
3667 2033 2001
3587 1841 224
3635 1825 464
3651 1793 785
3635 1841 1153
3635 1889 1409
3667 2066 1537
3683 2194 1633
3731 2482 1601
3747 2562 1697
3571 2594 144
3571 2594 240
3587 2466 608
3635 2322 1105
3651 2370 1393
3667 2514 1537
3683 2610 1585
3715 2818 1473
3747 3058 1265
3587 3074 144
3555 3042 272
3523 2946 528
3539 2866 929
3555 2914 1233
3619 2914 1585
3619 3026 1713
3683 3218 1569
3667 3443 1297
3555 3410 576
3539 3394 640
3555 3362 833
3555 3314 1105
3571 3314 1377
3603 3330 1649
3619 3394 1777
3683 3507 1697
3715 3651 1441
3651 3619 993
3667 3651 1073
3667 3635 1137
3667 3635 1345
3667 3651 1617
3699 3683 1873
3731 3715 2050
3779 3763 2194
3827 3795 2386
3779 3747 1521
3795 3763 1633
3843 3811 1873
3811 3843 2001
3827 3843 2386
3859 3875 2690
3891 3891 2930
3971 3907 3186
3971 3907 3346
3587 753 801
3635 785 881
3683 817 961
3699 817 1073
3731 817 1297
3763 881 1553
3763 961 1777
3715 1057 1985
3715 1185 2130
3619 1089 913
3635 1089 1009
3667 1073 1121
3715 1153 1249
3715 1217 1345
3731 1297 1473
3747 1377 1697
3763 1473 1809
3763 1569 1953
3587 1553 496
3683 1585 897
3699 1585 1041
3715 1649 1201
3747 1729 1377
3731 1825 1505
3715 2017 1569
3715 2194 1665
3715 2290 1825
3603 2242 192
3731 2194 400
3795 2082 705
3827 2082 1041
3843 2082 1313
3843 2210 1521
3827 2386 1601
3811 2642 1521
3795 2738 1473
3635 2802 128
3651 2786 192
3763 2658 480
3843 2562 913
3875 2514 1329
3859 2578 1505
3827 2738 1601
3795 2962 1441
3747 3218 1185
3619 3202 304
3667 3170 432
3715 3042 672
3795 2978 1009
3811 2962 1329
3843 2994 1681
3827 3058 1825
3763 3234 1665
3747 3507 1329
3619 3507 817
3683 3459 849
3763 3394 961
3827 3362 1233
3843 3346 1489
3859 3362 1777
3859 3427 1985
3827 3555 1953
3843 3699 1905
3715 3683 1185
3763 3699 1313
3827 3699 1377
3891 3683 1569
3907 3683 1905
3939 3699 2226
3907 3731 2498
3939 3795 2802
3939 3875 2962
3859 3811 1953
3875 3811 2242
3939 3843 2514
3955 3891 2658
3955 3939 2866
3971 3939 3106
3987 3955 3459
4003 3955 3795
3971 3971 3955
