其他预设/【236】赛博朋克风调色预设/【后期菌】视频调色预设/3DL/Sunset 09.3dl
# LUT by SparkleStock. Enhanced with VOXCOLOR algorithms.
0 256 512 768 1023
48 16 16
96 64 464
128 192 1297
192 544 2033
288 785 2546
272 608 416
336 640 913
496 817 1713
592 1041 2338
721 1249 2658
881 1633 881
1057 1729 1313
1169 1729 1729
1377 1921 2162
1553 2033 2450
1697 2642 1137
1921 2722 1409
2210 2850 1729
2466 2962 2017
2674 3058 2258
2466 3170 865
2658 3250 945
2786 3346 1057
2930 3443 1217
3010 3491 1313
753 80 208
1025 176 721
1361 304 1377
1297 592 1985
1041 849 2562
2354 689 480
2770 769 929
1505 1249 1665
1505 1425 2194
1729 1633 2498
2466 1761 176
1905 2146 1393
2114 2322 1905
2370 2466 2290
2546 2610 2514
3106 2770 144
2802 2994 945
2850 3090 1249
2962 3138 1441
3058 3250 1601
3218 3346 352
3218 3427 689
3154 3539 1089
3218 3571 1201
3394 3651 1313
2514 384 464
2802 432 769
2994 496 1393
3042 737 2114
3186 817 2434
3122 977 624
3394 977 1025
3475 1057 1393
3298 1281 1889
2978 1729 2354
3138 2050 128
3427 1985 528
3410 2194 1329
3138 2722 1921
3122 2882 2226
3346 3042 128
3346 3106 272
3234 3314 1009
3234 3362 1185
3314 3443 1313
3443 3555 801
3507 3603 945
3539 3635 1089
3603 3747 1505
3699 3779 1825
3282 592 640
3378 624 833
3491 640 1377
3491 849 1921
3507 1057 2290
3410 1265 721
3555 1249 1121
3635 1377 1409
3619 1505 1681
3635 1745 1953
3443 2386 160
3587 2434 560
3651 2434 1025
3715 2690 1265
3667 2930 1425
3523 3314 368
3475 3330 528
3507 3394 769
3523 3523 1137
3571 3619 1313
3651 3667 1169
3715 3731 1425
3811 3795 1793
3859 3827 2338
3891 3875 2898
3587 753 801
3683 817 961
3731 817 1297
3763 961 1777
3715 1185 2130
3587 1553 496
3667 1633 1041
3699 1825 1281
3699 2050 1521
3715 2290 1825
3619 2818 128
3651 2882 304
3731 2914 801
3715 3058 977
3747 3218 1185
3619 3507 817
3635 3523 945
3667 3587 1073
3747 3635 1393
3827 3715 1825
3875 3827 1969
3907 3827 2562
3907 3891 3026
4003 3939 3507
3971 3971 3955
