其他预设/【236】赛博朋克风调色预设/【后期菌】视频调色预设/3DL/Sunset 05.3dl
# LUT by SparkleStock. Enhanced with VOXCOLOR algorithms.
0 256 512 768 1023
624 528 416
624 528 480
656 576 705
801 753 1361
993 929 2130
672 672 464
689 705 608
769 833 1009
945 1025 1633
1057 1201 2194
817 1105 656
881 1233 817
881 1425 1105
993 1713 1633
1121 1841 2017
1313 2050 881
1489 2226 1041
1713 2402 1313
1985 2546 1633
2178 2738 1889
2290 2754 993
2514 2850 1041
2642 2962 1105
2786 3090 1169
2866 3170 1217
721 544 448
785 576 560
945 560 833
993 737 1489
1073 993 2242
1841 817 689
2210 865 881
1057 977 1217
1137 1201 1697
1329 1361 2194
2130 1489 672
1457 1681 993
1649 1905 1393
1873 2114 1777
2098 2290 2130
2706 2418 689
2546 2626 945
2610 2738 1137
2706 2818 1281
2786 2946 1425
2914 2962 769
2962 3058 833
2978 3186 1041
3042 3250 1057
3122 3314 1089
1825 737 656
2130 801 817
2418 769 1169
2562 705 1713
2674 721 2306
2658 977 817
2882 1041 1073
2994 1025 1313
2946 977 1729
2754 1105 2290
2642 1841 769
2866 1873 897
2962 2066 1265
2674 2482 1601
2706 2626 1937
2882 2690 689
2898 2770 705
2914 2994 993
2962 3058 1073
3042 3154 1137
3090 3186 801
3154 3250 833
3202 3298 849
3282 3443 1121
3378 3523 1377
2690 881 817
2802 897 977
2978 833 1345
3090 801 1825
3154 801 2274
2978 1105 881
3106 1169 1105
3186 1249 1345
3250 1297 1633
3282 1377 1937
2898 2178 753
2994 2258 833
3074 2338 961
3170 2530 1153
3170 2722 1297
3042 2946 737
3026 2962 721
3042 3042 737
3154 3202 929
3234 3298 1041
3282 3346 833
3346 3427 993
3443 3523 1249
3523 3651 1937
3619 3731 2674
3026 961 865
3154 977 1089
3234 945 1361
3314 897 1809
3330 897 2162
3106 1409 865
3234 1441 1057
3250 1649 1249
3266 1889 1409
3282 2146 1633
3058 2546 753
3058 2610 737
3154 2690 849
3186 2834 897
3250 3010 1009
3170 3154 753
3186 3170 721
3202 3218 737
3282 3314 929
3443 3507 1329
3507 3571 1409
3587 3683 2210
3667 3779 2866
3731 3891 3443
3699 3987 3971
