其他预设/【236】赛博朋克风调色预设/【后期菌】视频调色预设/3DL/Sunset 06.3dl
# LUT by SparkleStock. Enhanced with VOXCOLOR algorithms.
0 128 256 384 512 640 768 896 1023
32 512 224
64 512 336
48 528 464
64 544 640
112 544 817
192 544 1073
288 560 1409
368 544 1793
464 544 2162
64 624 336
48 640 432
96 656 576
112 672 753
160 672 929
224 656 1249
304 656 1553
432 672 1921
496 672 2226
80 769 432
96 769 528
96 785 689
128 785 833
240 801 1137
336 817 1457
416 833 1745
512 833 2082
576 865 2290
112 977 576
128 1041 721
176 1025 833
224 1073 1041
304 1073 1265
384 1089 1553
464 1153 1777
576 1137 2050
656 1201 2258
144 1329 705
176 1393 833
208 1409 961
272 1457 1137
320 1537 1345
432 1617 1585
544 1697 1857
592 1745 2082
689 1809 2242
256 1841 881
336 1985 1009
352 2033 1121
368 2146 1297
448 2210 1489
560 2322 1665
656 2418 1857
833 2482 2033
945 2546 2194
544 2498 1121
656 2530 1201
737 2578 1281
849 2642 1361
1121 2786 1489
1201 2866 1601
1425 2946 1729
1505 3010 1825
1697 3122 1937
1345 2994 1377
1457 3026 1425
1601 3074 1505
1761 3154 1569
1953 3218 1633
2066 3266 1697
2242 3314 1777
2306 3362 1825
2402 3394 1889
2001 3346 1569
2178 3410 1633
2322 3459 1681
2370 3459 1713
2562 3507 1777
2642 3555 1825
2754 3635 1889
2834 3651 1921
2882 3683 1953
208 496 288
272 528 416
320 496 512
352 480 640
400 464 833
288 496 1169
368 528 1521
448 528 1873
528 528 2194
528 544 384
608 544 464
512 544 592
352 592 801
272 640 1073
352 640 1377
432 640 1665
512 624 1969
592 640 2290
817 640 464
544 721 592
464 737 753
384 737 945
384 817 1217
464 833 1553
528 817 1793
656 849 2050
753 865 2290
897 865 512
464 1041 737
464 1089 897
464 1089 1089
544 1137 1297
608 1121 1553
689 1201 1825
801 1217 2050
897 1313 2290
977 1313 608
496 1521 833
496 1585 993
544 1649 1201
656 1761 1409
865 1793 1633
993 1921 1841
1105 1921 2050
1201 2001 2242
1825 1809 833
721 2098 1057
769 2210 1169
993 2322 1313
1073 2370 1409
1201 2466 1585
1553 2562 1729
1601 2610 1873
1793 2706 2033
2402 2498 1153
1793 2674 1281
1713 2706 1361
1921 2818 1473
1937 2914 1569
2114 2994 1649
2194 3058 1729
2290 3106 1825
2386 3202 1905
2754 3058 1441
2434 3186 1521
2338 3250 1585
2434 3330 1681
2466 3330 1713
2578 3410 1793
2642 3443 1825
2738 3475 1889
2818 3523 1937
2946 3443 1633
2850 3459 1665
2866 3539 1745
2866 3587 1793
2978 3651 1857
3010 3651 1873
3058 3699 1937
3138 3763 1985
3202 3763 2001
496 496 320
560 480 416
672 480 560
801 464 753
897 464 913
881 464 1201
929 464 1553
817 480 1857
833 496 2226
1025 496 400
1249 496 544
1409 496 672
1473 496 865
1505 512 1153
1281 496 1361
785 576 1713
769 608 2033
817 640 2274
1713 576 480
2194 528 640
2242 512 769
1633 608 977
929 769 1249
737 801 1505
849 833 1761
993 833 2066
1057 881 2242
1937 833 624
1969 833 705
1617 929 865
1617 993 1057
1297 1201 1377
1089 1217 1569
1201 1313 1793
1233 1345 2050
1345 1409 2226
1937 1393 737
1777 1505 833
1233 1745 1073
1361 1841 1217
1393 1953 1393
1489 2050 1569
1617 2082 1777
1761 2226 1953
1953 2258 2162
2610 2017 1025
2466 2178 1089
1761 2402 1265
1873 2482 1393
2050 2562 1521
2146 2610 1601
2306 2738 1777
2402 2850 1889
2482 2930 1985
2994 2674 1297
2850 2722 1313
2450 2946 1489
2434 2994 1553
2514 3106 1649
2562 3138 1697
2658 3218 1777
2706 3234 1825
2802 3314 1905
3122 3234 1569
3058 3298 1585
2882 3330 1633
2802 3427 1729
2882 3475 1793
2898 3491 1809
2994 3555 1873
3026 3603 1921
3074 3635 1969
3234 3507 1713
3234 3603 1777
3234 3651 1809
3106 3699 1857
3186 3747 1937
3266 3779 1969
3266 3795 1985
3362 3827 2033
3459 3859 2066
1009 464 368
1185 480 528
1377 480 672
1505 480 817
1697 464 1025
1857 464 1313
2178 464 1681
2402 464 1937
1681 480 2242
1937 512 512
2098 496 608
2386 528 785
2514 496 929
2706 512 1185
2578 496 1441
2466 528 1713
2194 544 2017
1889 544 2226
2578 608 640
2882 544 753
2962 560 849
3090 576 993
2866 560 1137
2802 560 1313
2578 624 1633
1601 833 2017
1569 929 2226
2834 849 769
3074 817 849
3314 689 929
3234 705 1009
2450 1073 1217
2066 1393 1537
1889 1457 1777
2033 1569 1985
2082 1585 2130
2722 1585 897
2658 1601 945
2674 1633 1105
2370 1825 1249
2466 1937 1409
2274 2146 1601
2386 2306 1777
2450 2402 1953
2466 2498 2066
3026 2258 1169
3042 2274 1185
2898 2402 1249
2450 2658 1473
2514 2722 1569
2642 2834 1665
2674 2914 1761
2754 2994 1873
2786 3058 1937
3154 2882 1425
3218 2962 1473
3138 3058 1537
2834 3234 1665
2866 3282 1713
2866 3298 1761
2914 3362 1825
3010 3443 1905
3026 3459 1953
3282 3378 1649
3282 3394 1649
3250 3475 1713
3154 3539 1793
3154 3587 1825
3186 3635 1889
3218 3667 1921
3314 3731 1985
3314 3731 2001
3394 3651 1809
3394 3699 1841
3443 3747 1889
3475 3795 1937
3394 3811 1969
3443 3827 2017
3539 3891 2082
3587 3891 2098
3619 3907 2146
1857 480 480
2082 480 592
2242 480 737
2450 464 913
2674 464 1153
2834 480 1457
2930 464 1713
3058 480 2017
3122 480 2274
2786 512 656
2930 512 753
3026 528 865
3138 512 1009
3250 512 1185
3314 512 1361
3410 512 1617
3427 512 1825
3443 528 2114
3122 608 753
3346 608 833
3427 592 897
3475 592 1041
3523 608 1201
3507 576 1313
3394 592 1505
3298 640 1761
3090 689 2033
3234 913 865
3410 929 993
3523 801 1073
3507 785 1121
3507 801 1185
3427 849 1297
3346 913 1441
3250 1329 1665
2722 1825 2050
2994 1809 1009
3058 1825 1041
3346 1793 1201
3523 1697 1377
3378 1921 1521
2946 2194 1601
2818 2498 1761
2818 2658 1873
2866 2722 1969
3234 2434 1249
3234 2530 1281
3266 2578 1313
3234 2658 1441
3010 2898 1633
3058 2978 1697
2978 3058 1761
3058 3186 1873
3042 3234 1905
3314 3106 1537
3298 3138 1553
3330 3202 1585
3282 3282 1617
3154 3410 1777
3090 3443 1825
3154 3507 1873
3250 3555 1937
3250 3603 1969
3410 3507 1745
3410 3539 1761
3459 3619 1809
3459 3619 1809
3378 3731 1921
3362 3731 1953
3427 3779 2017
3491 3811 2050
3523 3827 2066
3539 3779 1905
3555 3795 1937
3619 3827 1969
3667 3859 2017
3651 3859 2033
3635 3891 2098
3715 3923 2210
3731 3923 2258
3779 3939 2386
2754 464 624
2882 464 721
3042 496 849
3122 480 993
3266 496 1201
3330 480 1409
3378 480 1697
3459 496 1921
3539 496 2162
3298 512 721
3394 528 817
3459 544 913
3475 528 1025
3523 528 1185
3603 528 1361
3619 512 1537
3683 544 1729
3699 560 1937
3443 705 849
3587 624 865
3635 640 945
3635 640 1041
3635 624 1137
3651 640 1265
3683 624 1409
3699 640 1553
3763 672 1713
3459 1201 993
3587 1169 1089
3651 993 1169
3667 929 1217
3699 1105 1313
3699 1105 1361
3683 1185 1457
3635 1473 1633
3507 1681 1793
3218 2017 1121
3314 2130 1185
3443 2050 1297
3555 2033 1457
3507 2114 1553
3539 2290 1665
3427 2466 1745
3410 2674 1873
3330 2818 1921
3378 2754 1409
3346 2786 1409
3346 2850 1457
3427 2866 1505
3443 2930 1569
3362 3074 1713
3218 3234 1777
3202 3330 1873
3266 3394 1953
3475 3314 1649
3427 3330 1649
3427 3378 1681
3459 3443 1729
3410 3491 1777
3346 3539 1873
3394 3603 1921
3410 3667 1969
3427 3731 2017
3523 3635 1825
3523 3683 1841
3587 3731 1905
3619 3779 1937
3587 3779 1953
3587 3827 2017
3603 3843 2050
3651 3875 2114
3699 3891 2178
3667 3843 2001
3715 3859 2017
3731 3875 2050
3763 3907 2098
3779 3939 2178
3795 3939 2242
3795 3939 2386
3843 3955 2594
3875 3939 2722
3282 464 705
3330 464 785
3443 496 913
3491 496 1041
3587 496 1233
3635 496 1441
3667 496 1649
3715 496 1825
3763 496 2066
3587 544 801
3619 560 849
3667 560 929
3731 576 1073
3715 560 1185
3715 528 1313
3747 544 1473
3779 576 1649
3795 592 1841
3651 737 913
3731 737 993
3731 721 1041
3747 705 1089
3763 689 1153
3747 689 1233
3779 705 1361
3811 737 1489
3827 769 1585
3619 1409 1089
3683 1457 1185
3795 1345 1313
3811 1457 1393
3763 1489 1457
3747 1601 1537
3731 1793 1617
3731 1889 1697
3731 2098 1841
3443 2322 1265
3427 2434 1313
3507 2418 1425
3587 2402 1553
3555 2434 1617
3603 2610 1713
3603 2690 1793
3603 2818 1857
3555 2930 1905
3459 2946 1505
3475 3026 1553
3475 3106 1585
3491 3106 1585
3491 3122 1617
3523 3154 1729
3507 3202 1777
3523 3362 1857
3491 3459 1905
3523 3459 1745
3539 3507 1777
3507 3491 1761
3523 3587 1809
3539 3555 1809
3587 3667 1889
3603 3715 1985
3555 3731 2001
3619 3795 2066
3619 3747 1905
3651 3779 1937
3667 3795 1969
3699 3811 2001
3715 3827 2017
3731 3859 2082
3731 3891 2162
3795 3907 2274
3795 3907 2402
3763 3891 2066
3779 3907 2114
3779 3939 2178
3827 3939 2242
3859 3955 2402
3875 3955 2546
3907 3955 2722
3891 3923 2914
3907 3939 3074
3603 496 769
3635 496 865
3699 496 977
3731 496 1105
3779 496 1233
3811 496 1409
3859 528 1617
3875 528 1793
3891 544 1985
3747 576 833
3811 608 913
3795 576 961
3827 592 1057
3827 592 1169
3811 576 1281
3859 592 1425
3859 608 1585
3891 640 1713
3763 897 1009
3827 817 1089
3843 817 1137
3827 817 1185
3827 849 1249
3827 881 1297
3843 961 1409
3859 1041 1521
3859 1201 1617
3715 1729 1201
3763 1761 1281
3779 1761 1361
3795 1857 1505
3763 1969 1569
3731 2098 1633
3715 2210 1729
3731 2402 1841
3715 2514 1921
3587 2658 1457
3555 2738 1489
3539 2722 1473
3619 2626 1585
3619 2706 1681
3619 2866 1761
3619 2914 1777
3651 3010 1841
3699 3122 1937
3619 3186 1617
3587 3218 1633
3523 3282 1649
3555 3298 1681
3555 3362 1729
3635 3330 1793
3651 3427 1857
3683 3491 1905
3699 3619 1985
3619 3603 1809
3619 3619 1825
3619 3667 1857
3635 3715 1905
3651 3715 1905
3715 3747 1969
3731 3763 2017
3763 3795 2082
3779 3827 2162
3747 3827 2001
3763 3859 2033
3779 3859 2066
3763 3859 2098
3779 3875 2146
3811 3907 2226
3843 3923 2370
3875 3923 2562
3875 3923 2722
3827 3939 2226
3843 3939 2274
3875 3955 2450
3891 3955 2578
3891 3923 2786
3907 3923 2930
3923 3955 3090
3955 3987 3314
3939 3987 3394
3795 512 833
3827 512 913
3875 512 993
3891 512 1121
3907 528 1249
3923 544 1409
3955 544 1569
3939 544 1729
3939 560 1873
3875 624 897
3875 624 929
3891 608 993
3907 624 1073
3891 608 1137
3891 624 1233
3907 656 1361
3923 656 1489
3939 705 1601
3795 1201 1089
3907 977 1169
3907 1009 1217
3875 1105 1313
3891 1249 1393
3875 1313 1457
3859 1537 1569
3875 1697 1681
3859 1825 1761
3619 2226 1297
3747 2162 1409
3795 2130 1489
3747 2258 1585
3699 2322 1617
3683 2466 1713
3699 2578 1793
3747 2738 1905
3731 2818 1937
3635 2850 1521
3619 2930 1553
3619 2946 1569
3635 2978 1617
3619 2930 1681
3651 3042 1761
3667 3154 1809
3699 3250 1873
3715 3330 1921
3651 3362 1713
3619 3427 1745
3635 3475 1761
3635 3491 1777
3635 3523 1809
3699 3539 1905
3699 3555 1921
3747 3635 1985
3779 3699 2033
3683 3715 1905
3699 3731 1921
3699 3747 1937
3747 3779 1985
3731 3795 1985
3795 3827 2066
3795 3811 2130
3811 3843 2226
3875 3891 2418
3811 3875 2082
3827 3891 2130
3811 3907 2194
3843 3907 2258
3843 3907 2386
3843 3907 2498
3875 3907 2722
3907 3907 2914
3939 3939 3106
3875 3955 2498
3907 3955 2658
3907 3923 2850
3923 3939 3042
3939 3987 3186
3987 4003 3346
3987 3987 3507
3987 4003 3731
3987 3987 3875
