其他预设/【236】赛博朋克风调色预设/【后期菌】视频调色预设/3DL/Sunset 04_S.3dl
# LUT by SparkleStock. Enhanced with VOXCOLOR algorithms.
0 64 128 192 256 320 384 448 512 576 640 704 768 832 896 960 1023
32 80 160
64 144 256
64 176 304
112 224 368
128 272 416
160 336 512
192 400 640
224 464 769
272 512 929
336 624 1121
416 705 1361
496 817 1633
576 929 1873
624 1041 2146
656 1153 2402
705 1233 2594
737 1313 2786
80 192 240
80 224 304
112 256 352
144 304 416
176 336 512
192 400 624
208 464 721
272 528 865
336 624 1057
400 705 1281
480 833 1537
528 897 1713
592 1025 2033
640 1121 2258
689 1217 2482
737 1297 2658
769 1393 2802
96 256 288
112 272 336
144 336 416
192 400 512
208 448 592
224 480 672
272 560 833
336 640 977
368 721 1153
448 801 1393
496 913 1633
592 1025 1905
640 1105 2114
689 1217 2354
737 1313 2546
785 1393 2690
801 1473 2802
112 336 352
128 368 416
160 432 480
192 480 560
240 512 656
304 592 785
336 656 945
384 753 1089
448 833 1329
528 945 1553
576 1025 1761
656 1153 2066
689 1233 2242
753 1329 2434
785 1393 2546
833 1505 2722
881 1585 2818
112 432 416
144 480 480
192 512 560
192 544 624
272 608 721
352 705 865
384 753 1009
464 865 1233
528 961 1441
608 1073 1697
672 1185 1921
721 1281 2098
801 1393 2306
833 1441 2450
897 1569 2610
897 1617 2722
945 1697 2834
96 544 480
128 576 544
176 624 640
240 689 721
336 769 833
400 801 977
480 913 1185
528 993 1329
624 1137 1537
689 1233 1761
753 1313 1953
817 1409 2114
881 1537 2290
929 1601 2434
977 1697 2530
1057 1809 2674
1089 1873 2786
112 672 528
128 721 640
176 785 721
208 833 785
320 881 929
400 945 1057
512 1089 1249
640 1185 1441
721 1281 1617
785 1393 1777
865 1505 1953
913 1585 2098
1009 1697 2274
1041 1745 2354
1121 1857 2514
1201 2001 2658
1233 2066 2770
128 785 608
160 913 689
176 945 785
208 1025 897
288 1089 993
336 1153 1121
496 1233 1297
624 1345 1457
689 1457 1617
833 1537 1761
913 1665 1937
993 1793 2114
1089 1889 2274
1137 2001 2402
1249 2162 2530
1377 2274 2642
1393 2322 2738
192 977 656
208 1073 753
256 1153 817
272 1249 929
240 1313 1025
336 1393 1185
384 1457 1313
544 1617 1505
608 1697 1649
721 1825 1809
833 1969 1985
993 2066 2162
1137 2226 2322
1233 2306 2434
1313 2402 2530
1441 2482 2642
1553 2514 2690
192 1201 705
224 1281 785
320 1377 849
320 1489 961
464 1553 1089
512 1665 1217
576 1825 1377
721 1921 1505
785 2082 1697
897 2178 1809
1041 2226 1953
1169 2354 2114
1281 2450 2258
1393 2466 2402
1569 2562 2498
1617 2626 2562
1793 2690 2674
272 1505 785
304 1617 849
480 1697 945
640 1793 1057
737 1889 1121
769 1969 1249
913 2066 1393
1105 2146 1505
1217 2258 1649
1457 2354 1761
1537 2466 1921
1633 2530 2066
1745 2626 2194
1809 2642 2242
2001 2722 2354
2098 2786 2482
2162 2818 2562
705 1889 833
705 1953 945
929 2033 1025
1089 2114 1105
1169 2162 1185
1377 2274 1313
1537 2370 1441
1713 2466 1553
1889 2514 1697
1953 2594 1825
2114 2674 1937
2178 2706 2050
2194 2738 2130
2450 2834 2258
2450 2882 2354
2482 2882 2418
2530 2946 2514
1281 2242 993
1425 2306 1057
1553 2370 1121
1617 2402 1201
1745 2498 1265
1921 2594 1393
2001 2626 1457
2098 2674 1553
2290 2770 1681
2354 2786 1713
2482 2850 1857
2498 2882 1953
2690 2962 2033
2722 2994 2130
2786 3010 2194
2850 3074 2322
2946 3138 2402
1777 2546 1089
2001 2642 1153
2001 2658 1185
2114 2706 1249
2258 2786 1345
2370 2850 1409
2338 2834 1441
2466 2882 1537
2562 2962 1649
2530 2962 1697
2674 3010 1793
2722 3058 1873
2834 3074 1905
2898 3106 1953
2946 3154 2066
3010 3186 2098
2962 3202 2178
2258 2850 1121
2338 2882 1185
2418 2914 1217
2498 2962 1249
2530 2994 1329
2642 2994 1377
2738 3058 1457
2706 3090 1505
2802 3106 1537
2850 3170 1649
2866 3170 1681
3026 3234 1713
3010 3250 1793
3074 3250 1841
3074 3282 1905
3138 3314 1969
3202 3314 2001
2690 3042 1201
2658 3058 1185
2818 3090 1249
2850 3106 1297
2914 3170 1361
2962 3202 1393
2994 3218 1409
2994 3266 1473
3010 3314 1537
3106 3314 1553
3154 3330 1617
3186 3346 1633
3234 3378 1697
3250 3378 1745
3266 3394 1777
3218 3394 1825
3250 3427 1889
2882 3170 1217
2978 3202 1249
3042 3250 1313
3074 3266 1345
3106 3282 1345
3106 3282 1377
3106 3314 1393
3218 3362 1441
3234 3378 1457
3250 3378 1505
3314 3427 1553
3330 3427 1601
3346 3459 1633
3346 3443 1633
3394 3475 1697
3394 3475 1697
3410 3523 1729
96 128 224
96 160 272
144 224 352
176 272 416
192 304 464
224 368 592
256 416 689
288 448 801
352 528 977
400 640 1169
480 785 1441
544 865 1681
608 945 1921
656 1089 2226
689 1169 2450
721 1233 2610
785 1345 2802
144 208 304
160 240 336
208 304 432
224 336 480
224 368 576
256 416 640
288 512 817
336 592 945
368 656 1105
432 769 1345
496 865 1585
608 977 1857
640 1073 2082
705 1169 2354
737 1249 2514
785 1345 2674
785 1393 2802
192 304 352
208 320 416
240 352 480
272 416 576
288 464 640
320 496 753
352 624 945
384 672 1073
448 785 1281
512 881 1537
592 977 1761
640 1073 1969
705 1169 2242
753 1265 2418
769 1329 2546
833 1425 2706
865 1505 2834
240 368 432
256 400 480
272 448 544
304 480 640
320 544 705
368 624 849
416 721 1057
480 801 1233
496 881 1393
608 1009 1665
656 1105 1889
705 1185 2098
785 1297 2322
817 1377 2450
865 1457 2610
897 1537 2722
945 1617 2834
288 448 480
240 480 512
256 512 592
288 608 689
352 672 801
432 769 977
480 833 1137
528 929 1329
624 1057 1553
656 1121 1745
769 1249 1953
801 1345 2130
849 1393 2274
913 1489 2466
977 1585 2610
993 1633 2706
1041 1729 2818
320 544 528
224 624 624
256 640 672
336 737 785
368 785 865
448 865 1041
576 977 1233
640 1073 1425
705 1153 1585
785 1297 1825
833 1377 1953
913 1473 2146
977 1553 2290
1057 1665 2418
1121 1761 2546
1201 1857 2674
1233 1937 2738
320 689 512
224 753 656
256 801 737
320 897 833
432 961 993
528 1057 1137
608 1137 1281
689 1217 1425
833 1329 1633
929 1457 1793
1009 1569 1969
1009 1601 2082
1137 1745 2258
1233 1857 2418
1249 1937 2498
1361 2066 2642
1441 2178 2770
336 785 528
288 945 705
336 993 785
352 1073 897
416 1153 1009
496 1201 1153
656 1313 1329
705 1393 1425
785 1521 1601
929 1633 1745
1057 1761 1953
1105 1857 2114
1233 1969 2290
1361 2082 2402
1425 2162 2482
1569 2322 2642
1585 2370 2738
464 977 576
400 1185 785
448 1233 849
480 1265 913
576 1377 1041
592 1489 1185
705 1537 1313
769 1697 1489
849 1793 1649
1089 1953 1809
1121 2033 1937
1217 2130 2114
1329 2242 2274
1521 2338 2354
1633 2466 2498
1761 2514 2610
1889 2594 2674
945 1297 544
480 1409 785
640 1521 913
640 1553 993
801 1681 1121
929 1809 1233
993 1905 1393
1201 1969 1473
1201 2114 1617
1377 2226 1761
1441 2290 1873
1537 2370 2066
1681 2434 2178
1809 2514 2290
1953 2562 2370
1985 2626 2466
2194 2722 2594
1409 1713 640
753 1761 897
945 1841 961
1057 1953 1089
1153 2001 1169
1297 2114 1281
1489 2226 1441
1601 2274 1537
1761 2402 1697
1825 2450 1809
1889 2498 1937
2082 2626 2098
2130 2658 2162
2290 2722 2290
2338 2770 2338
2466 2818 2450
2610 2882 2514
1713 2114 721
1409 2130 961
1489 2194 1025
1585 2274 1137
1649 2338 1233
1777 2418 1329
1873 2482 1441
2001 2546 1553
2178 2626 1697
2354 2706 1777
2354 2722 1889
2498 2818 2001
2562 2866 2130
2674 2898 2226
2674 2962 2306
2802 2994 2354
2834 3042 2514
2306 2546 865
2001 2514 1009
2114 2546 1073
2146 2594 1153
2146 2642 1265
2226 2658 1361
2354 2738 1409
2466 2786 1521
2514 2834 1617
2658 2882 1697
2722 2962 1793
2738 2978 1889
2850 3010 1921
2898 3042 2050
2962 3090 2114
3010 3138 2194
3026 3138 2242
2674 2850 977
2338 2738 1089
2434 2818 1137
2610 2914 1233
2610 2914 1345
2626 2914 1393
2690 3010 1457
2770 3026 1505
2786 3042 1601
2818 3058 1633
2914 3090 1697
2946 3170 1777
3010 3170 1809
3058 3202 1857
3090 3218 1985
3170 3250 2001
3138 3266 2082
2898 3074 1073
2818 3058 1089
2818 3074 1105
2834 3090 1217
2802 3090 1329
2946 3154 1393
2946 3154 1409
2962 3202 1505
2978 3218 1521
3026 3250 1601
3042 3250 1649
3186 3282 1649
3154 3314 1729
3234 3330 1777
3170 3330 1857
3234 3394 1905
3314 3394 1921
3090 3202 1121
3010 3234 1153
3138 3250 1185
3138 3234 1233
3074 3234 1329
3106 3266 1393
3106 3266 1393
3090 3346 1425
3138 3362 1489
3234 3362 1521
3266 3394 1569
3314 3410 1601
3330 3427 1665
3314 3410 1697
3362 3443 1729
3282 3443 1761
3330 3475 1841
3234 3330 1201
3202 3330 1201
3250 3362 1233
3218 3346 1249
3250 3378 1361
3250 3362 1377
3314 3410 1409
3330 3410 1425
3330 3427 1473
3362 3443 1505
3394 3459 1537
3378 3459 1537
3410 3475 1569
3410 3475 1569
3427 3507 1617
3459 3539 1665
3459 3539 1681
144 160 256
192 192 336
208 272 416
224 304 464
272 352 560
288 384 640
336 448 769
416 496 897
480 560 1057
496 656 1217
512 785 1473
624 913 1761
656 1025 2050
705 1105 2274
753 1217 2530
785 1281 2658
801 1361 2802
208 240 336
256 288 416
288 336 480
288 352 544
320 416 640
368 464 737
368 512 833
400 576 977
496 689 1217
544 785 1393
576 897 1649
640 993 1905
705 1089 2178
737 1185 2370
801 1297 2562
833 1377 2722
865 1425 2818
336 336 432
368 336 480
432 384 560
448 416 608
416 464 705
432 512 785
464 624 961
480 721 1169
512 817 1393
544 881 1537
640 1025 1809
721 1121 2082
769 1201 2242
833 1329 2482
849 1393 2610
897 1457 2738
929 1537 2850
400 400 480
448 432 528
480 464 608
512 496 672
512 560 785
480 624 913
544 689 1057
560 849 1297
592 945 1489
672 1089 1713
721 1137 1921
785 1233 2098
833 1313 2306
913 1425 2498
961 1505 2626
977 1553 2722
1089 1681 2834
576 480 528
480 528 608
480 560 656
480 640 753
512 705 849
560 785 1041
592 865 1185
640 977 1393
689 1089 1585
769 1185 1777
817 1281 1969
913 1377 2162
945 1457 2306
1009 1537 2434
1121 1649 2562
1137 1697 2706
1233 1825 2834
737 592 560
560 640 640
448 721 721
480 785 817
512 897 961
592 993 1121
656 1057 1265
721 1105 1441
801 1233 1649
897 1329 1825
993 1425 1969
1025 1521 2146
1105 1601 2306
1201 1713 2450
1265 1793 2562
1377 1889 2658
1473 1985 2770
737 705 496
624 769 689
480 881 801
544 945 897
592 1041 1025
640 1137 1169
705 1169 1281
833 1313 1457
961 1409 1633
1025 1489 1777
1105 1585 1937
1217 1697 2082
1297 1809 2274
1409 1937 2418
1489 2033 2530
1537 2130 2610
1649 2274 2770
865 913 480
656 945 640
528 1057 833
592 1137 929
640 1233 1041
737 1345 1201
785 1393 1297
897 1473 1441
1041 1649 1665
1185 1745 1793
1233 1809 1953
1361 1921 2130
1473 2082 2290
1569 2194 2418
1697 2274 2482
1825 2370 2610
1793 2418 2690
1089 1169 496
881 1201 656
705 1345 897
753 1409 977
817 1505 1089
1009 1617 1233
993 1681 1345
1153 1793 1521
1217 1889 1633
1329 2033 1809
1489 2130 1921
1537 2242 2098
1777 2354 2242
1745 2370 2322
1921 2466 2434
2066 2530 2514
2130 2610 2626
1873 1585 592
1233 1585 705
929 1649 945
1137 1777 1057
1233 1841 1169
1345 1937 1281
1313 1985 1393
1553 2114 1537
1569 2178 1649
1697 2274 1777
1889 2402 1921
1889 2450 2050
2066 2530 2162
2162 2562 2306
2354 2674 2354
2338 2706 2466
2498 2786 2546
2594 2066 753
1873 1969 737
1313 1985 1025
1457 2066 1105
1537 2146 1201
1697 2258 1297
1873 2370 1473
1857 2370 1537
2050 2466 1681
2242 2610 1825
2242 2610 1921
2338 2674 2066
2498 2738 2178
2642 2834 2274
2674 2834 2354
2738 2882 2434
2802 2946 2482
2882 2546 865
2338 2402 833
1953 2418 1089
1969 2450 1201
2066 2514 1265
2130 2546 1393
2258 2642 1457
2306 2674 1569
2514 2770 1697
2594 2834 1777
2690 2866 1905
2786 2914 1985
2786 2946 2066
2850 2994 2194
2866 3026 2274
2962 3042 2338
2994 3106 2450
3138 2850 977
2802 2786 945
2498 2738 1089
2482 2738 1153
2498 2802 1281
2546 2802 1361
2706 2898 1409
2770 2946 1521
2786 2962 1585
2866 3010 1665
2898 3042 1697
2962 3090 1825
3010 3090 1857
3090 3154 1969
3074 3170 1985
3154 3202 2082
3186 3218 2146
3266 3074 1089
3010 2994 1041
2850 3010 1121
2834 3010 1185
2866 3042 1281
2850 3042 1377
2866 3106 1457
2914 3106 1489
3042 3186 1537
3026 3202 1617
3138 3218 1665
3074 3234 1713
3186 3250 1761
3218 3266 1841
3234 3282 1857
3282 3330 1905
3234 3330 1953
3266 3218 1089
3218 3218 1105
3090 3218 1153
3058 3202 1201
3026 3202 1281
3090 3218 1377
3138 3266 1425
3106 3266 1473
3106 3282 1521
3186 3346 1569
3202 3346 1601
3250 3346 1617
3234 3378 1697
3330 3378 1729
3266 3410 1809
3282 3410 1841
3378 3443 1841
3394 3330 1169
3314 3362 1169
3314 3330 1185
3282 3346 1201
3250 3330 1281
3250 3346 1345
3314 3378 1409
3234 3378 1409
3266 3410 1473
3346 3410 1505
3362 3443 1537
3394 3443 1553
3394 3443 1569
3410 3475 1633
3443 3507 1681
3362 3475 1697
3378 3523 1729
3459 3410 1233
3443 3427 1233
3394 3410 1233
3394 3427 1233
3378 3443 1297
3330 3410 1377
3394 3459 1393
3394 3459 1425
3427 3507 1441
3427 3507 1441
3443 3507 1489
3443 3507 1521
3459 3539 1537
3507 3555 1553
3523 3571 1617
3523 3587 1633
3523 3587 1649
192 192 320
256 256 400
288 320 464
336 336 528
352 384 624
400 400 689
480 480 833
544 496 945
640 576 1121
656 721 1377
689 833 1585
721 945 1841
753 1041 2066
801 1153 2338
785 1217 2498
833 1297 2674
865 1377 2818
336 304 416
352 320 480
368 336 512
448 368 608
480 432 689
528 480 817
560 544 945
640 640 1089
705 689 1249
785 817 1505
721 913 1697
753 1057 1953
817 1169 2242
801 1233 2402
881 1329 2610
881 1393 2722
