其他预设/【236】赛博朋克风调色预设/【后期菌】视频调色预设/3DL/Sunset 05_S.3dl
# LUT by SparkleStock. Enhanced with VOXCOLOR algorithms.
0 128 256 384 512 640 768 896 1023
624 528 416
624 528 448
624 528 480
656 544 560
656 576 705
705 624 945
801 753 1361
897 833 1809
993 929 2130
656 560 432
656 576 464
672 608 544
672 624 689
705 672 833
769 753 1153
865 849 1537
961 945 1921
1025 1025 2194
672 672 464
689 705 528
689 705 608
705 753 769
769 833 1009
849 945 1329
945 1025 1633
1009 1121 1953
1041 1201 2226
705 833 528
753 881 624
769 929 737
753 1025 929
801 1089 1105
865 1153 1361
961 1281 1617
1025 1345 1857
1073 1441 2146
817 1105 656
881 1201 753
865 1249 817
881 1329 945
881 1425 1105
929 1601 1377
993 1713 1633
1041 1793 1873
1121 1841 2017
1025 1537 769
1089 1649 865
1089 1793 961
1121 1889 1073
1121 1953 1233
1201 2098 1409
1281 2194 1649
1345 2258 1793
1425 2322 1969
1313 2050 881
1409 2146 961
1441 2242 1041
1553 2290 1169
1713 2402 1313
1825 2498 1505
1985 2546 1633
2050 2610 1761
2178 2738 1889
1793 2482 945
1889 2514 977
1985 2578 1057
2178 2626 1105
2242 2706 1201
2290 2786 1297
2418 2850 1377
2482 2898 1425
2546 2914 1489
2290 2754 993
2434 2818 1041
2514 2850 1041
2530 2882 1073
2642 2962 1105
2722 3042 1137
2786 3090 1169
2818 3122 1201
2866 3170 1217
656 528 448
689 544 480
705 544 512
721 544 576
721 544 737
737 656 1009
849 785 1425
945 865 1857
1025 945 2162
737 576 464
753 592 528
753 576 560
737 624 737
753 737 961
833 817 1281
897 897 1633
993 993 1969
1057 1073 2258
929 656 528
769 689 576
769 753 689
785 817 881
817 897 1089
897 993 1377
977 1057 1649
1057 1201 1937
1105 1281 2242
1057 865 528
833 977 689
865 1057 833
849 1089 945
897 1201 1153
961 1265 1361
1057 1345 1617
1137 1441 1857
1233 1601 2130
1281 1265 544
1041 1345 801
1057 1489 929
1105 1521 1025
1121 1649 1217
1233 1761 1425
1329 1905 1665
1361 1953 1857
1489 2050 2066
2050 1793 608
1313 1841 881
1361 1953 1025
1553 2082 1217
1633 2146 1345
1761 2258 1537
1921 2338 1761
2017 2418 1905
2130 2514 2001
2434 2274 656
2146 2370 897
2050 2386 1025
2210 2482 1105
2226 2530 1233
2322 2594 1313
2386 2658 1409
2450 2722 1537
2546 2786 1617
2610 2626 689
2546 2738 865
2498 2770 993
2562 2818 1089
2562 2866 1137
2642 2946 1217
2690 2994 1249
2754 3042 1313
2818 3058 1297
2786 2898 785
2770 2898 817
2786 2994 961
2818 3042 1025
2866 3090 1057
2898 3106 1073
2930 3170 1105
2994 3218 1121
3010 3250 1137
721 544 448
737 544 496
785 560 576
849 560 689
945 560 833
945 608 1121
993 737 1489
1025 865 1905
1073 993 2242
1057 624 496
1233 656 608
1361 689 785
1425 689 993
1457 672 1201
1233 672 1377
1009 945 1697
1073 1041 2017
1121 1121 2290
1793 833 624
1969 929 753
1937 929 945
1601 897 1153
1057 993 1345
1025 1057 1457
1137 1201 1697
1233 1281 2001
1329 1361 2226
2050 1073 656
1905 1217 753
1553 1281 993
1553 1313 1265
1329 1425 1409
1265 1425 1521
1425 1585 1713
1489 1665 1953
1585 1793 2194
2098 1505 656
1889 1665 705
1393 1777 1009
1505 1857 1265
1601 1937 1489
1777 1985 1553
1873 2114 1777
1985 2226 1953
2098 2290 2130
2482 2001 689
2402 2146 721
1969 2242 993
2066 2322 1201
2226 2370 1329
2290 2418 1409
2370 2530 1633
2482 2610 1777
2546 2674 1857
2706 2418 689
2642 2482 705
2530 2642 945
2546 2658 1025
2610 2738 1137
2642 2754 1201
2706 2818 1281
2738 2866 1377
2786 2946 1425
2786 2770 689
2786 2818 753
2738 2850 833
2786 2946 1009
2786 3026 1089
2818 3042 1105
2866 3090 1153
2898 3122 1217
2962 3154 1169
2914 2962 769
2930 3042 801
2962 3058 833
2930 3106 961
2978 3186 1041
3026 3234 1057
3042 3250 1057
3074 3282 1073
3122 3314 1089
1025 592 480
1153 592 576
1377 592 737
1505 592 881
1697 656 1025
1793 656 1265
2001 672 1601
2162 689 1921
1505 833 2242
1905 753 592
1953 753 705
2082 753 961
2178 753 1217
2322 769 1409
2338 721 1521
2306 753 1761
2082 769 2162
1761 897 2338
2242 961 608
2242 993 769
2226 1009 1025
2290 1009 1313
2354 993 1553
2482 929 1649
2450 961 1825
1601 1297 2050
1633 1457 2274
2338 1265 608
2290 1329 737
2322 1377 1073
2338 1377 1377
2162 1537 1633
2001 1681 1777
1905 1777 1825
2050 1905 2050
2098 1953 2242
2354 1777 608
2290 1841 737
2242 1921 993
2162 2066 1329
2258 2114 1537
2258 2194 1601
2370 2306 1697
2402 2386 1921
2450 2450 2082
2642 2194 705
2546 2274 705
2482 2370 833
2354 2530 1169
2418 2546 1281
2594 2594 1313
2610 2674 1457
2706 2754 1569
2754 2802 1665
2802 2546 689
2802 2626 705
2786 2706 737
2722 2834 1009
2786 2866 1057
2786 2898 1121
2834 2962 1169
2914 3026 1249
2930 3042 1281
2850 2850 705
2866 2882 737
2882 2962 785
2946 3042 929
2898 3074 993
2946 3138 1073
2962 3170 1121
3026 3250 1153
3058 3250 1105
3010 3074 785
3042 3122 801
3042 3154 817
3074 3218 865
3074 3250 977
3106 3282 1009
3170 3330 1041
3202 3346 1041
3218 3378 1089
1841 705 624
2017 689 705
2146 672 865
2274 672 1073
2402 705 1265
2514 737 1425
2562 705 1713
2626 721 2066
2674 721 2306
2402 801 656
2418 785 753
2434 753 1025
2514 753 1313
2626 785 1537
2770 801 1665
2898 801 1729
2914 785 1969
2946 801 2258
2530 1009 576
2546 1041 785
2546 1057 1073
2562 1057 1409
2674 1057 1633
2834 993 1697
2930 977 1777
2898 1009 2017
2738 1105 2322
2546 1361 576
2546 1441 737
2578 1457 1089
2594 1505 1425
2674 1505 1649
2786 1537 1793
2850 1601 1777
2850 1873 1937
2546 2130 2226
2530 1921 576
2514 2001 705
2546 2001 993
2642 2001 1313
2706 2098 1569
2642 2242 1665
2674 2482 1601
2674 2578 1761
2706 2626 1937
2738 2322 656
2674 2418 689
2626 2466 817
2690 2530 1041
2690 2658 1249
2818 2738 1249
2786 2786 1297
2850 2850 1361
2882 2914 1425
2882 2690 689
2818 2738 672
2834 2786 737
2802 2818 833
2882 2994 1025
2914 3010 1041
2962 3058 1073
3010 3106 1105
3042 3154 1137
2978 2978 737
2978 3010 753
3010 3058 785
3042 3074 801
3042 3202 977
3058 3234 1057
3106 3282 1105
3138 3282 1105
3170 3298 1073
3090 3186 801
3122 3218 817
3154 3250 833
3202 3282 849
3202 3298 849
3234 3346 977
3282 3443 1121
3314 3475 1201
3378 3523 1377
2402 785 721
2530 737 801
2578 721 961
2674 737 1153
2754 753 1345
2802 769 1537
2866 753 1777
2930 753 2050
2994 769 2290
2690 833 689
2770 817 817
2786 785 1057
2802 785 1329
2866 801 1537
2978 849 1665
3058 849 1729
3122 849 1985
3138 865 2178
2786 1073 608
2818 1073 785
2834 1089 1073
2850 1105 1409
2914 1089 1649
3042 1073 1729
3122 1073 1665
3170 1089 1825
3202 1153 2066
2786 1457 592
2818 1537 737
2850 1537 1073
2866 1553 1377
2930 1617 1633
3042 1665 1649
3106 1777 1569
3090 1969 1697
3042 2098 1969
2738 2050 576
2754 2114 689
2802 2114 977
2834 2130 1297
2898 2162 1505
3026 2258 1457
3042 2386 1521
3042 2546 1489
3010 2658 1569
2866 2498 608
2834 2562 656
2834 2578 801
2850 2610 1025
2898 2658 1137
2930 2770 1297
2898 2850 1297
2946 2946 1169
2994 3026 1249
2978 2818 721
2946 2834 689
2946 2898 769
2962 2978 865
2930 3026 1041
2946 3090 1233
3042 3170 1217
3106 3218 1073
3122 3250 1089
3042 3058 737
3042 3106 785
3090 3154 801
3106 3218 849
3106 3266 993
3122 3298 1121
3186 3298 1041
3234 3362 1105
3266 3410 1089
3202 3282 801
3218 3282 817
3250 3314 833
3282 3362 897
3330 3427 977
3346 3475 1089
3410 3523 1329
3475 3587 1697
3507 3635 1985
2706 865 801
2770 817 849
2850 801 993
2914 785 1201
2978 801 1377
3042 833 1553
3090 801 1825
3122 785 2050
3154 801 2274
2930 929 753
2994 865 833
3042 849 1057
3090 865 1329
3106 881 1505
3106 897 1553
3154 929 1665
3218 945 1905
3234 929 2146
3010 1105 689
3090 1121 833
3122 1137 1105
3138 1153 1393
3170 1201 1601
3202 1233 1617
3250 1297 1633
3282 1345 1777
3282 1377 1985
2994 1569 656
3074 1617 769
3138 1633 1057
3154 1681 1361
3154 1713 1601
3154 1825 1585
3170 1969 1537
3186 2114 1505
3202 2258 1665
2946 2178 608
2994 2258 705
3058 2226 961
3122 2242 1281
3106 2274 1537
3154 2386 1569
3170 2466 1569
3170 2578 1425
3170 2722 1297
2978 2610 624
3010 2674 672
3026 2690 801
3042 2690 1089
3058 2722 1329
3106 2786 1521
3090 2834 1489
3074 2962 1281
3074 3058 1025
3042 2946 737
3042 2978 737
3042 2994 785
3058 3042 1009
3074 3058 1233
3106 3122 1393
3154 3186 1441
3170 3234 1233
3234 3298 1041
3138 3202 769
3170 3218 785
3186 3282 817
3186 3314 961
3186 3346 1105
3234 3378 1297
3282 3443 1345
3346 3475 1233
3394 3523 1345
3282 3346 833
3298 3378 897
3346 3427 993
3362 3491 1089
3427 3555 1313
3491 3619 1569
3523 3667 1969
3571 3683 2370
3619 3731 2674
2866 929 849
2946 929 961
3042 929 1057
3058 865 1201
3106 865 1345
3186 849 1569
3250 865 1825
3282 849 2066
3282 849 2258
3042 977 849
3122 977 897
3170 945 1057
3234 961 1265
3234 993 1393
3202 1025 1441
3250 1025 1649
3282 1025 1857
3330 1073 2017
3122 1233 801
3250 1201 929
3298 1249 1105
3330 1297 1313
3282 1377 1457
3282 1425 1537
3282 1569 1617
3282 1729 1665
3282 1825 1841
3074 1777 785
3234 1777 817
3298 1793 1009
3346 1841 1265
3330 1889 1505
3298 2050 1585
3266 2130 1633
3250 2338 1489
3250 2434 1553
3042 2402 737
3106 2418 721
3234 2370 865
3346 2306 1233
3346 2370 1489
3330 2466 1617
3282 2546 1617
3266 2706 1425
3250 2866 1121
3042 2786 721
3090 2786 705
3202 2786 801
3282 2770 1105
3298 2786 1361
3314 2802 1633
3282 2898 1697
3250 3026 1409
3234 3186 1057
3090 3042 737
3138 3058 721
3234 3090 817
3298 3122 1073
3330 3122 1345
3362 3170 1585
3362 3202 1649
3330 3282 1409
3314 3378 1041
3250 3266 769
3282 3314 801
3314 3362 865
3378 3427 1089
3427 3475 1377
3443 3507 1601
3459 3523 1681
3491 3555 1793
3523 3635 2017
3394 3475 1025
3410 3507 1105
3491 3571 1329
3507 3635 1569
3555 3715 2082
3587 3747 2418
3651 3779 2738
3699 3827 3106
3715 3859 3282
3026 961 865
3090 977 977
3154 977 1089
3186 961 1201
3234 945 1361
3282 929 1585
3314 897 1809
3314 881 1969
3330 897 2162
3122 1041 897
3138 1041 977
3186 1057 1057
3234 1073 1217
3234 1105 1329
3266 1121 1441
3314 1153 1649
3346 1169 1777
3378 1265 1953
3106 1409 865
3250 1393 993
3282 1425 1057
3314 1505 1201
3346 1585 1361
3330 1681 1505
3282 1857 1489
3282 2050 1505
3282 2146 1633
3026 2114 785
3138 2098 865
3314 2050 961
3427 2082 1153
3475 2098 1377
3459 2194 1537
3394 2338 1569
3282 2530 1393
3266 2594 1377
3074 2546 737
3138 2562 721
3330 2498 817
3491 2482 1105
3555 2466 1425
3523 2546 1601
3475 2626 1633
3346 2786 1393
3250 3010 1009
3074 2882 721
3202 2898 705
3378 2850 817
3507 2818 1089
3523 2834 1361
3571 2882 1681
3523 2930 1777
3394 3058 1505
3282 3234 1009
3170 3154 753
3298 3186 737
3443 3154 817
3571 3170 1105
3603 3186 1377
3603 3218 1633
3571 3266 1777
3491 3362 1601
3475 3491 1425
3314 3330 817
3378 3410 897
3507 3459 1009
3603 3507 1249
3667 3523 1569
3683 3571 1953
3651 3603 2242
3651 3667 2466
3651 3763 2770
3507 3587 1425
3523 3619 1729
3619 3699 2194
3699 3779 2514
3731 3811 2770
3763 3843 3074
3779 3907 3443
3747 3955 3763
3699 3987 3971
