其他预设/【236】赛博朋克风调色预设/【后期菌】视频调色预设/3DL/Sunset 10_S.3dl
# LUT by SparkleStock. Enhanced with VOXCOLOR algorithms.
0 256 512 768 1023
112 112 112
160 160 224
272 320 608
496 560 1201
689 769 1697
256 464 336
320 576 560
576 801 1073
817 1073 1585
993 1265 1985
1057 1425 913
1201 1665 1297
1409 1889 1697
1745 2114 2066
1937 2210 2258
2290 2322 1217
2370 2450 1537
2562 2594 1969
2610 2690 2226
2706 2802 2402
2978 2770 1361
3026 2866 1633
3074 2946 1841
3122 3026 2050
3170 3090 2146
560 224 224
785 304 416
1137 448 753
1425 705 1457
1121 897 1825
1777 705 528
1825 801 913
1505 1169 1489
1697 1473 1841
1873 1697 2194
2338 1409 448
2033 1953 1265
2194 2178 1841
2434 2370 2178
2546 2498 2418
2946 2066 560
2834 2498 1393
2914 2674 1809
2962 2786 2001
3010 2882 2162
3138 2514 769
3186 2722 1153
3250 3010 1825
3266 3058 1969
3314 3122 2098
1793 496 480
2001 480 769
2194 672 1185
2386 865 1473
2530 993 1777
2322 913 512
2322 993 1025
2450 1073 1649
2690 1345 1777
2642 1729 2162
2626 1729 368
2530 1889 897
2642 2098 1745
2818 2482 2066
2850 2642 2322
3058 2258 640
2978 2418 769
3058 2754 1697
3122 2834 1905
3170 2930 2050
3250 2770 1121
3266 2834 1313
3282 2914 1553
3362 3170 2290
3378 3234 2562
2370 624 624
2562 640 945
2642 817 1281
2754 977 1585
2834 1089 1825
2770 1057 592
2914 1169 1073
2914 1345 1633
2898 1697 1793
2978 1953 2098
3042 1921 448
3074 2017 897
3074 2130 1697
3122 2338 1921
3154 2594 1921
3186 2466 785
3138 2610 913
3122 2786 1457
3186 2914 2050
3282 3010 2033
3330 2946 1633
3346 3090 2114
3378 3266 2498
3410 3330 2850
3427 3346 3026
2642 753 753
2722 833 1009
2818 961 1329
2914 1105 1649
2962 1217 1857
2866 1425 689
3010 1569 1121
3154 1809 1521
3090 2114 1777
3122 2386 2050
3170 2162 592
3394 2194 817
3571 2258 1649
3459 2402 2082
3250 2722 1873
3266 2674 1041
3475 2818 1169
3619 2914 1729
3571 3010 2418
3427 3186 2610
3410 3250 2674
3443 3362 2866
3523 3459 2914
3475 3443 3202
3443 3443 3443
