其他预设/【236】赛博朋克风调色预设/【后期菌】视频调色预设/3DL/Sunset 01_S.3dl
# LUT by SparkleStock. Enhanced with VOXCOLOR algorithms.
0 128 256 384 512 640 768 896 1023
32 16 16
32 32 64
48 32 112
80 64 240
96 96 464
128 128 897
208 240 1537
288 416 2178
352 656 2610
64 64 64
64 64 96
96 96 224
112 128 432
160 176 817
208 272 1409
256 416 1985
336 656 2498
384 961 2818
80 144 112
112 192 208
128 224 352
160 256 640
240 400 1281
304 576 1857
368 833 2418
432 1105 2770
464 1281 2962
128 496 256
176 560 400
224 640 624
304 817 1073
368 929 1585
448 1121 2130
544 1361 2530
640 1569 2818
753 1825 3042
272 1249 560
400 1425 753
464 1489 929
592 1633 1297
672 1825 1761
897 2066 2258
1073 2242 2594
1201 2354 2834
1377 2466 2978
769 2162 737
993 2322 865
1185 2418 1057
1361 2546 1409
1553 2610 1809
1809 2754 2178
1969 2866 2530
2162 2914 2674
2274 2962 2850
1713 2770 672
2001 2834 753
2098 2898 897
2370 2994 1121
2594 3090 1393
2722 3138 1761
2834 3186 2017
2882 3202 2226
2994 3266 2434
2546 3154 528
2674 3202 624
2802 3234 769
3010 3282 929
3010 3298 1105
3074 3330 1345
3186 3378 1505
3202 3378 1665
3282 3394 1809
3026 3346 512
3138 3394 624
3202 3410 672
3218 3410 753
3314 3427 881
3362 3459 1041
3410 3475 1121
3427 3475 1233
3459 3491 1265
48 32 64
96 48 112
128 64 176
144 64 304
176 80 560
176 160 1073
272 288 1713
336 496 2322
384 753 2690
176 80 96
272 96 176
240 96 304
208 160 544
224 240 1089
272 368 1665
336 528 2178
400 785 2610
464 1041 2866
528 192 176
320 240 272
336 304 528
336 368 913
368 528 1521
448 737 2050
512 945 2450
656 1217 2754
737 1441 2978
929 448 176
464 721 528
544 881 833
576 1009 1185
817 1233 1729
881 1361 2146
1025 1633 2578
1217 1825 2802
1361 2098 3010
1489 1313 224
1041 1777 721
1153 1889 1009
1313 2001 1361
1505 2194 1825
1697 2322 2162
1889 2482 2530
1985 2578 2722
2098 2674 2914
2674 2098 144
1857 2514 721
2017 2642 929
2322 2786 1297
2402 2818 1585
2546 2882 1969
2706 2962 2258
2786 3026 2514
2882 3090 2674
3122 2770 176
2834 2994 480
2834 3026 753
3010 3122 977
3058 3170 1281
3122 3218 1441
3186 3250 1649
3234 3282 1873
3266 3314 2050
3266 3138 192
3122 3250 368
3138 3314 624
3250 3362 865
3234 3362 1009
3282 3394 1153
3330 3410 1265
3362 3427 1441
3443 3427 1457
3394 3362 272
3362 3378 320
3410 3427 496
3410 3459 705
3427 3491 801
3459 3491 865
3475 3491 977
3539 3507 1025
3555 3523 1073
160 48 64
208 48 128
352 80 256
480 112 432
656 128 656
705 208 1201
817 288 1777
592 496 2322
592 769 2674
849 144 64
1249 240 176
1521 272 336
1649 304 640
1697 320 1057
1425 320 1457
672 608 2274
705 897 2642
769 1153 2866
2290 432 32
2594 576 208
2498 592 464
1905 592 993
993 672 1617
881 881 2098
1073 1105 2450
1233 1345 2722
1361 1569 2914
2658 785 16
2482 913 240
1985 1057 769
1969 1153 1265
1665 1505 1761
1569 1665 2162
1841 1937 2482
1937 2114 2738
2050 2306 2946
2770 1489 32
2434 1729 208
1921 2098 929
2017 2226 1329
2178 2386 1729
2466 2546 2033
2562 2642 2386
2690 2786 2626
2770 2850 2802
3282 2338 112
3122 2514 192
2706 2802 801
2786 2866 1137
2978 2962 1441
3074 3010 1697
3106 3090 2050
3202 3154 2226
3250 3186 2354
3443 2882 144
3362 2946 176
3170 3154 560
3250 3186 769
3298 3266 1073
3330 3266 1185
3378 3314 1425
3410 3346 1601
3427 3378 1713
3427 3234 192
3410 3266 240
3330 3314 368
3394 3410 672
3378 3410 897
3378 3410 961
3410 3443 1089
3443 3459 1185
3507 3459 1217
3491 3410 256
3523 3427 320
3539 3443 352
3507 3459 544
3539 3507 753
3571 3523 801
3571 3523 849
3619 3539 881
3651 3555 929
753 112 48
1105 144 96
1505 192 272
1745 192 448
2098 240 656
2402 288 1025
2738 368 1505
2834 448 1937
1921 705 2530
2498 384 32
2498 416 176
2578 464 448
2674 448 737
2930 464 1041
3058 432 1361
2994 496 1777
2674 672 2258
2242 929 2578
2882 624 32
2706 721 272
2626 753 608
2690 769 977
2802 737 1329
3074 737 1601
3090 945 2017
2082 1473 2642
2066 1729 2866
2994 977 32
2738 1089 240
2642 1153 705
2706 1185 1121
2642 1505 1617
2562 1889 2114
2482 2146 2418
2642 2386 2706
2658 2450 2866
3042 1793 32
2818 1857 192
2706 1937 560
2594 2210 1201
2786 2354 1585
2882 2626 1953
3074 2834 2226
3090 2898 2482
3122 2978 2658
3378 2546 96
3154 2562 128
3042 2674 352
2914 2930 1073
3058 3026 1313
3314 3138 1441
3298 3170 1713
3378 3234 1889
3394 3266 2066
3523 3010 128
3507 3090 160
3475 3170 240
3346 3314 705
3410 3330 849
3410 3330 1041
3459 3362 1201
3507 3410 1345
3507 3410 1457
3491 3330 224
3491 3330 240
3491 3378 304
3523 3427 464
3475 3443 608
3491 3459 849
3507 3475 929
3539 3507 1041
3587 3507 1025
3603 3459 320
3603 3475 336
3619 3491 384
3635 3507 432
3603 3507 592
3635 3523 721
3667 3555 785
3683 3555 833
3715 3555 977
2482 304 32
2690 320 96
2802 336 272
2930 352 528
3122 400 817
3282 448 1121
3298 448 1553
3330 512 1969
3346 624 2290
3074 480 32
2930 512 256
2850 512 592
2914 528 913
3074 528 1185
3298 544 1377
3459 560 1569
3459 640 1921
3475 785 2226
3042 737 16
2850 817 320
2834 849 672
2834 849 1073
2994 833 1377
3250 785 1569
3459 897 1809
3443 1121 2194
3298 1441 2578
3074 1105 16
2866 1249 320
2834 1281 769
2866 1329 1153
3010 1361 1441
3282 1473 1809
3491 1729 1969
3491 2194 2322
3154 2626 2770
3138 1985 32
2930 2050 208
2930 1985 576
2978 1985 1009
3122 2210 1393
3250 2578 1713
3346 2962 1985
3330 3074 2210
3362 3106 2402
3378 2642 64
3186 2690 192
3106 2738 368
3170 2802 608
3266 3058 1169
3459 3186 1249
3443 3234 1409
3507 3314 1601
3507 3330 1729
3571 3154 160
3443 3186 192
3443 3218 256
3410 3250 384
3475 3394 785
3507 3410 913
3539 3410 1009
3571 3427 1089
3587 3459 1185
3555 3410 256
3571 3410 288
3587 3443 352
3619 3443 336
3571 3475 560
3571 3491 769
3603 3523 865
3635 3539 881
3683 3539 897
3667 3507 368
3667 3507 400
3683 3523 416
3699 3555 496
3683 3539 496
3683 3555 737
3747 3587 1105
3731 3571 1345
3763 3571 1841
3250 448 16
3234 400 112
3266 416 336
3298 432 608
3378 464 913
3427 480 1201
3443 528 1601
3475 592 1937
3507 721 2226
3282 544 32
3186 560 288
3138 560 608
3154 560 945
3266 576 1169
3410 576 1345
3523 640 1537
3555 769 1905
3555 881 2162
3250 785 32
3106 833 336
3090 881 721
3106 929 1121
3186 913 1409
3410 945 1553
3571 1009 1633
3603 1137 1873
3603 1345 2194
3266 1281 48
3138 1377 336
3122 1409 785
3138 1441 1137
3218 1569 1441
3443 1617 1505
3651 1825 1633
3683 2162 1985
3619 2402 2290
3298 2162 32
3170 2194 224
3154 2146 560
3170 2146 1025
3266 2258 1265
3523 2530 1265
3619 2770 1409
3683 2994 1617
3635 3122 1857
3491 2866 80
3346 2850 192
3282 2850 400
3298 2866 608
3378 2962 753
3459 3106 1153
3475 3218 1329
3571 3346 1297
3603 3394 1441
3635 3298 208
3523 3282 224
3507 3314 304
3491 3346 448
3427 3346 624
3427 3394 1009
3507 3427 1009
3619 3491 945
3635 3507 993
3651 3443 304
3651 3459 336
3667 3491 400
3635 3507 480
3571 3523 624
3555 3523 801
3667 3523 769
3699 3555 913
3731 3555 1009
3715 3523 416
3715 3539 448
3715 3555 496
3715 3571 608
3747 3571 785
3779 3571 1073
3779 3571 1777
3779 3587 2402
3779 3587 2706
3443 512 16
3427 496 112
3427 480 320
3427 480 560
3491 528 881
3507 560 1185
3523 592 1585
3539 656 1889
3555 785 2178
3443 560 48
3410 576 256
3394 592 544
3410 608 881
3459 624 1137
3507 656 1297
3555 753 1521
3571 865 1873
3587 993 2162
3443 849 64
3410 913 368
3394 945 721
3394 1009 1057
3443 1057 1329
3555 1121 1457
3635 1281 1601
3667 1457 1825
3667 1649 2162
3491 1409 80
3427 1505 336
3410 1569 769
3410 1649 1105
3459 1761 1377
3587 1921 1441
3683 2178 1505
3747 2386 1569
3747 2578 1889
3507 2418 32
3443 2418 208
3410 2354 560
3394 2322 1009
3410 2386 1329
3555 2626 1393
3635 2770 1425
3699 2962 1377
3731 3154 1361
3603 3042 112
3539 3042 208
3475 2994 416
3394 2898 785
3410 2930 1009
3491 3026 1313
3555 3106 1313
3619 3282 1201
3699 3410 1009
3667 3378 256
3651 3410 272
3539 3346 400
3475 3298 656
3459 3298 945
3491 3346 1105
3523 3394 1169
3619 3459 993
3699 3523 865
3683 3507 368
3699 3507 384
3651 3523 480
3587 3539 672
3555 3523 865
3571 3555 1073
3635 3539 1233
3747 3571 1425
3779 3555 1857
3731 3555 528
3731 3571 608
3763 3555 817
3747 3587 1073
3747 3603 1665
3763 3603 2226
3779 3619 2690
3779 3587 2994
3779 3603 3186
3491 560 32
3523 560 128
3523 560 320
3523 560 560
3539 576 881
3539 592 1249
3571 705 1633
3587 785 1905
3603 881 2162
3539 608 96
3571 656 256
3555 640 480
3571 705 785
3587 769 1025
3571 833 1217
3603 945 1537
3619 1057 1857
3651 1233 2114
3587 993 96
3603 1009 352
3619 1073 640
3635 1169 913
3635 1313 1137
3667 1457 1329
3683 1617 1553
3715 1889 1761
3731 2098 2033
3667 1713 112
3667 1729 272
3667 1777 560
3651 1857 977
3683 1985 1265
3699 2194 1393
3715 2370 1521
3779 2706 1457
3779 2818 1617
3731 2786 128
3683 2738 176
3651 2594 432
3651 2450 929
3651 2514 1249
3699 2658 1425
3699 2786 1441
3731 3026 1297
3779 3266 1105
3699 3234 192
3667 3170 224
3619 3058 448
3619 2962 849
3635 2978 1105
3667 3010 1425
3667 3106 1489
3715 3282 1265
3747 3443 913
3699 3427 288
3667 3410 320
3651 3362 496
3651 3298 833
3635 3314 1121
3667 3314 1329
3667 3362 1409
3715 3427 1233
3763 3539 1009
3763 3555 432
3747 3555 480
3699 3555 608
3683 3539 897
3699 3539 1265
3699 3555 1585
3731 3555 1969
3747 3539 2418
3779 3587 2738
3779 3571 945
3779 3571 1233
3811 3587 1841
3763 3603 2178
3747 3635 2722
3763 3651 2978
3763 3619 3202
3795 3635 3378
3795 3635 3427
3523 592 80
3539 592 192
3555 608 384
3539 624 608
3555 640 929
3571 705 1297
3587 769 1601
3587 865 1905
3603 961 2098
3555 672 128
3555 721 240
3571 769 448
3603 849 705
3587 913 929
3587 1009 1201
3635 1137 1553
3651 1297 1793
3683 1505 2050
3619 1233 80
3651 1233 352
3667 1329 512
3715 1473 785
3763 1633 1057
3747 1761 1297
3763 2033 1425
3779 2274 1601
3779 2418 1841
3699 2322 80
3763 2210 208
3795 2146 464
3827 2226 833
3859 2242 1105
3859 2386 1345
3827 2594 1425
3827 2898 1361
3795 2994 1377
3747 2962 144
3763 2962 192
3795 2770 368
3859 2706 769
3875 2642 1185
3875 2706 1377
3859 2866 1441
3827 3122 1265
3779 3362 961
3715 3314 224
3747 3250 272
3811 3122 512
3859 3026 849
3875 3026 1137
3875 3042 1457
3859 3090 1553
3811 3266 1281
3779 3475 833
3731 3491 352
3779 3443 400
3827 3394 576
3875 3346 913
3875 3314 1185
3875 3330 1441
3875 3362 1665
3827 3443 1713
3827 3539 1921
3747 3555 544
3763 3555 656
3827 3555 913
3875 3555 1313
3891 3555 1825
3875 3539 2306
3859 3571 2802
3811 3571 3074
3779 3603 3202
3811 3571 2017
3811 3587 2498
3827 3603 2850
3827 3651 2914
3827 3699 3106
3827 3683 3266
3795 3667 3475
3795 3635 3603
3795 3651 3667
