其他预设/【236】赛博朋克风调色预设/【后期菌】视频调色预设/3DL/Sunset 03.3dl
# LUT by SparkleStock. Enhanced with VOXCOLOR algorithms.
0 64 128 192 256 320 384 448 512 576 640 704 768 832 896 960 1023
32 160 288
64 240 400
64 288 480
80 352 608
80 400 705
112 480 881
128 560 1041
128 624 1249
128 705 1553
160 833 1857
176 929 2114
208 1073 2418
224 1153 2594
224 1217 2770
240 1297 2914
224 1345 2994
240 1425 3106
64 272 384
64 320 464
80 352 560
80 400 640
96 464 785
112 560 977
128 624 1169
144 689 1393
144 817 1729
176 929 1969
192 1057 2242
192 1121 2434
224 1217 2610
240 1281 2770
240 1361 2882
256 1425 2994
256 1489 3090
80 336 448
80 368 512
80 400 592
112 496 753
128 560 897
128 608 1041
144 705 1281
144 817 1553
160 913 1793
176 1009 2066
192 1137 2306
224 1217 2498
240 1297 2626
256 1377 2786
272 1441 2882
288 1505 2978
288 1553 3074
96 416 528
96 448 592
96 528 705
112 576 817
144 640 945
144 721 1185
144 801 1377
144 913 1601
160 1009 1873
208 1153 2162
224 1217 2354
240 1313 2530
256 1393 2658
288 1473 2786
288 1521 2898
320 1601 3010
320 1665 3074
80 496 592
96 576 672
112 624 769
128 672 881
144 737 1025
160 833 1217
160 913 1441
176 1041 1713
208 1153 1969
240 1249 2210
272 1377 2434
288 1441 2562
304 1537 2706
320 1585 2802
336 1665 2914
336 1681 2962
352 1761 3026
64 640 656
80 672 737
128 737 865
144 817 1009
160 913 1169
176 977 1329
192 1073 1553
224 1169 1745
256 1297 2001
288 1409 2258
304 1489 2418
336 1569 2562
352 1649 2674
352 1697 2786
352 1777 2850
400 1841 2930
400 1889 2978
64 785 769
64 865 881
64 913 945
80 961 1057
160 1041 1217
144 1121 1361
208 1249 1601
256 1345 1793
288 1441 2001
320 1537 2194
352 1617 2370
368 1713 2514
384 1793 2658
384 1825 2738
416 1905 2818
464 1985 2882
496 2050 2930
48 993 865
48 1089 961
48 1121 1057
64 1201 1169
80 1249 1281
96 1329 1425
144 1409 1585
176 1521 1793
256 1617 1985
320 1713 2178
352 1777 2306
400 1889 2450
416 1969 2546
448 2050 2658
512 2194 2770
576 2226 2850
608 2274 2898
48 1217 929
64 1281 1009
64 1361 1105
80 1441 1201
64 1473 1281
64 1569 1457
64 1617 1569
128 1777 1809
128 1809 1953
208 1921 2146
288 2017 2290
368 2130 2450
448 2242 2578
512 2290 2658
544 2338 2754
640 2418 2818
689 2434 2850
16 1473 961
32 1505 1041
48 1585 1121
48 1649 1217
96 1745 1329
112 1793 1441
144 1921 1585
176 2017 1745
224 2114 1937
240 2178 2098
288 2226 2210
416 2338 2370
480 2386 2514
560 2434 2626
737 2514 2690
753 2530 2770
945 2594 2834
32 1713 1025
32 1793 1105
64 1857 1217
112 1921 1297
160 1969 1377
208 2033 1473
256 2114 1585
400 2162 1697
464 2242 1857
672 2322 1985
801 2434 2162
897 2498 2274
1009 2546 2434
1009 2562 2498
1233 2626 2594
1393 2658 2642
1441 2706 2754
96 1953 1105
112 2001 1185
224 2050 1233
320 2114 1297
432 2162 1393
608 2242 1489
801 2306 1601
1025 2370 1681
1233 2450 1825
1281 2482 1921
1441 2546 2033
1537 2594 2178
1649 2610 2274
1793 2690 2418
1873 2738 2482
1873 2754 2546
1953 2802 2610
384 2178 1169
576 2226 1217
737 2290 1281
865 2306 1329
1041 2354 1425
1217 2450 1505
1329 2482 1569
1409 2514 1665
1649 2594 1761
1697 2610 1825
1809 2690 1953
1857 2738 2017
2017 2786 2114
2050 2802 2194
2098 2818 2274
2194 2850 2354
2306 2898 2434
881 2354 1217
1217 2466 1297
1233 2466 1313
1361 2498 1393
1553 2578 1473
1649 2626 1521
1697 2626 1537
1793 2674 1601
1889 2754 1713
1905 2754 1761
1985 2786 1825
2098 2850 1889
2162 2850 1921
2258 2882 1937
2306 2914 2066
2370 2946 2098
2434 2962 2162
1505 2594 1265
1601 2610 1281
1665 2642 1345
1777 2674 1377
1809 2706 1425
1889 2738 1457
1985 2786 1505
2017 2802 1537
2146 2834 1569
2226 2882 1649
2274 2898 1665
2386 2946 1697
2450 2962 1761
2466 2978 1809
2530 3010 1825
2594 3026 1873
2594 3026 1921
1857 2738 1265
1889 2738 1281
1985 2786 1313
2066 2818 1345
2178 2850 1377
2210 2882 1425
2290 2898 1425
2354 2930 1473
2418 2962 1505
2466 2978 1521
2498 2994 1553
2562 3026 1585
2626 3074 1617
2674 3106 1665
2706 3106 1681
2754 3122 1697
2770 3138 1713
2050 2834 1265
2162 2866 1297
2274 2914 1329
2354 2946 1345
2386 2962 1345
2434 2962 1361
2450 2978 1377
2594 3058 1409
2642 3074 1425
2658 3090 1441
2706 3122 1505
2770 3154 1505
2802 3170 1537
2818 3170 1537
2882 3218 1585
2850 3186 1569
2914 3234 1617
64 208 352
64 256 432
96 352 544
96 368 640
96 416 737
128 496 929
144 560 1105
128 640 1313
160 737 1617
192 881 1921
208 1009 2226
208 1073 2434
224 1153 2610
240 1233 2770
256 1313 2914
240 1361 3010
256 1441 3106
96 272 432
128 320 512
160 368 624
144 416 705
128 480 849
144 544 1009
160 656 1281
160 753 1505
160 865 1777
176 961 2033
208 1089 2290
240 1185 2498
240 1249 2658
256 1329 2818
272 1393 2898
272 1457 2994
272 1505 3090
160 352 528
160 368 592
160 432 672
176 480 801
176 576 961
160 640 1153
176 753 1409
160 865 1617
192 977 1905
224 1105 2194
240 1201 2386
256 1249 2530
272 1345 2674
304 1425 2834
288 1457 2898
320 1537 3026
304 1585 3106
176 400 592
192 464 656
192 512 769
192 592 913
176 656 1025
176 721 1217
192 881 1505
192 977 1745
208 1073 1985
256 1217 2258
272 1281 2386
288 1345 2562
304 1441 2706
320 1505 2850
336 1553 2898
336 1617 2994
352 1681 3058
224 496 640
160 576 737
176 624 833
176 705 945
176 785 1121
192 913 1361
208 1009 1585
208 1105 1777
272 1233 2066
272 1297 2242
336 1425 2482
336 1505 2626
336 1537 2706
352 1601 2802
368 1681 2898
368 1713 2946
384 1777 3010
240 608 705
160 705 817
160 721 897
176 833 1041
192 913 1185
192 1025 1361
240 1153 1601
256 1217 1825
272 1329 2050
336 1441 2274
352 1521 2418
368 1601 2562
384 1665 2690
400 1761 2786
416 1825 2866
464 1889 2930
464 1921 2962
208 769 737
96 881 913
96 929 977
144 993 1105
208 1105 1281
224 1201 1441
240 1281 1617
272 1377 1793
320 1489 1969
368 1601 2194
416 1697 2370
400 1729 2482
480 1841 2610
528 1921 2690
528 1969 2802
608 2050 2866
656 2146 2914
128 929 737
112 1137 993
112 1185 1073
112 1217 1153
144 1313 1249
160 1377 1425
208 1473 1585
256 1537 1777
352 1649 1953
400 1761 2146
496 1857 2290
464 1953 2418
576 2017 2546
689 2146 2658
672 2178 2754
817 2306 2850
833 2338 2882
144 1169 785
112 1393 1057
144 1441 1137
160 1473 1185
192 1553 1313
176 1681 1457
240 1713 1569
256 1793 1761
272 1889 1937
384 2001 2114
416 2050 2226
480 2178 2418
576 2258 2530
801 2338 2626
913 2434 2754
961 2466 2802
1137 2514 2850
432 1505 721
80 1601 1073
144 1697 1169
160 1729 1249
240 1793 1345
304 1905 1473
400 2001 1617
544 2050 1729
592 2130 1857
737 2242 2033
753 2322 2194
881 2354 2322
993 2418 2434
1137 2482 2546
1233 2514 2626
1281 2546 2674
1505 2626 2770
769 1841 849
160 1857 1121
240 1889 1185
320 1985 1297
416 2017 1361
560 2114 1473
801 2194 1585
977 2258 1729
1121 2338 1841
1217 2370 1953
1297 2434 2098
1505 2530 2242
1633 2562 2322
1681 2610 2466
1745 2642 2514
1873 2690 2610
2017 2754 2674
1073 2098 897
705 2130 1169
817 2178 1217
881 2226 1313
1009 2274 1377
1169 2338 1489
1265 2370 1553
1425 2450 1665
1553 2498 1793
1729 2562 1873
1777 2594 1985
1889 2658 2114
1969 2706 2226
2050 2738 2306
2114 2770 2434
2226 2802 2482
2306 2850 2562
1569 2370 961
1281 2354 1201
1409 2418 1233
1441 2434 1297
1537 2498 1409
1553 2498 1473
1713 2562 1537
1809 2610 1601
1841 2642 1713
2017 2690 1745
2066 2754 1825
2098 2770 1889
2194 2802 1937
2274 2850 2050
2322 2866 2146
2370 2898 2226
2434 2914 2242
1873 2578 1025
1601 2514 1201
1697 2578 1249
1857 2658 1329
1873 2674 1441
1905 2690 1473
2033 2770 1505
2050 2770 1537
2130 2802 1649
2210 2834 1665
2290 2866 1713
2354 2898 1793
2370 2914 1793
2466 2946 1841
2514 2978 1953
2594 3010 1969
2610 3010 1985
2194 2754 1057
2098 2738 1121
2098 2754 1201
2114 2786 1265
2098 2802 1377
2226 2850 1441
2226 2850 1457
2290 2882 1505
2370 2914 1505
2450 2946 1537
2482 2962 1569
2546 2994 1585
2594 3010 1665
2610 3026 1697
2642 3058 1761
2754 3106 1777
2754 3106 1809
2418 2866 1105
2338 2882 1169
2386 2898 1185
2466 2930 1217
2386 2914 1329
2450 2946 1377
2466 2962 1393
2562 3010 1409
2610 3026 1457
2674 3074 1473
2690 3090 1505
2738 3122 1521
2786 3138 1569
2786 3138 1585
2850 3186 1617
2850 3170 1617
2898 3202 1649
2594 2994 1185
2546 2978 1201
2642 3026 1217
2594 3010 1233
2626 3074 1329
2610 3058 1345
2738 3122 1377
2770 3122 1393
2786 3138 1409
2834 3170 1441
2850 3186 1473
2850 3186 1473
2898 3202 1505
2914 3218 1505
2930 3218 1505
2994 3282 1569
3010 3266 1569
80 240 400
128 288 480
160 352 608
144 368 672
176 432 817
160 496 993
176 592 1217
208 656 1441
208 753 1681
224 897 1969
208 1009 2242
256 1137 2514
272 1217 2674
272 1281 2818
272 1345 2946
288 1409 3058
288 1473 3138
160 288 480
192 352 576
224 352 640
208 416 737
208 496 913
208 576 1137
176 656 1313
192 737 1505
240 897 1857
240 977 2098
240 1121 2338
256 1217 2546
272 1281 2706
272 1329 2818
304 1425 2930
320 1489 3026
336 1537 3122
320 320 544
352 336 608
416 368 689
384 416 801
304 528 1009
256 640 1217
224 753 1441
224 913 1729
224 1025 1969
240 1105 2210
272 1217 2450
288 1297 2594
288 1361 2690
336 1457 2850
320 1505 2930
352 1553 3026
352 1601 3106
400 384 624
432 448 705
464 464 785
432 528 929
352 640 1105
288 737 1281
256 833 1489
240 1025 1809
256 1121 2050
304 1233 2290
304 1297 2466
336 1393 2610
336 1457 2738
352 1537 2850
368 1601 2930
368 1633 2994
416 1729 3074
640 512 705
384 592 801
368 624 897
352 689 1009
320 785 1169
272 929 1409
272 1009 1601
272 1153 1857
288 1249 2098
320 1345 2306
352 1441 2466
384 1505 2610
384 1585 2706
400 1649 2818
432 1729 2898
448 1777 2962
480 1841 3026
849 640 785
480 656 833
304 769 929
288 865 1073
304 993 1249
288 1089 1441
304 1185 1633
304 1281 1809
336 1377 2050
352 1489 2258
416 1553 2418
416 1633 2546
448 1713 2658
512 1809 2786
512 1841 2866
640 1921 2898
656 1969 2962
817 785 689
496 817 913
272 993 1073
336 1057 1153
320 1153 1297
320 1249 1441
336 1313 1601
384 1457 1793
464 1553 2001
464 1617 2178
496 1713 2322
608 1793 2466
640 1905 2610
721 2001 2690
769 2050 2786
785 2114 2850
961 2226 2930
656 1041 624
480 1057 849
256 1217 1105
304 1297 1217
320 1393 1297
304 1505 1457
304 1537 1553
416 1601 1745
512 1745 1953
640 1857 2162
672 1905 2290
737 2001 2434
881 2130 2546
929 2226 2658
1073 2274 2738
1201 2354 2834
1217 2386 2866
721 1329 640
496 1377 865
240 1537 1153
288 1585 1233
352 1649 1361
544 1761 1505
464 1793 1617
560 1921 1777
608 2001 1889
640 2066 2098
913 2162 2226
897 2242 2370
1089 2338 2514
1073 2354 2594
1217 2434 2658
1441 2498 2754
1505 2530 2818
1345 1761 640
672 1761 945
304 1793 1185
528 1873 1265
624 1937 1393
785 2001 1473
737 2050 1601
1057 2162 1745
1089 2194 1889
1169 2274 2001
1329 2354 2146
1377 2386 2274
1569 2482 2418
1601 2514 2498
1793 2578 2578
1729 2594 2658
1889 2658 2706
1857 2162 801
1265 2033 881
640 2033 1217
801 2066 1281
897 2162 1377
1089 2226 1473
1249 2306 1617
1265 2322 1681
1441 2386 1793
1697 2498 1953
1681 2514 2066
1793 2546 2178
1969 2626 2306
2050 2674 2386
2130 2706 2514
2210 2754 2578
2274 2786 2626
2226 2482 913
1681 2306 945
1313 2322 1249
1329 2354 1345
1457 2386 1393
1553 2450 1505
1681 2498 1569
1761 2530 1649
1889 2594 1745
1969 2642 1825
2066 2690 1937
2162 2754 2050
2210 2770 2098
2242 2802 2242
2306 2834 2322
2338 2850 2386
2466 2898 2450
2546 2674 993
2098 2562 977
1793 2562 1217
1793 2546 1265
1857 2594 1393
1905 2626 1457
2017 2690 1489
2098 2738 1553
2162 2754 1633
2210 2786 1681
2290 2834 1729
2386 2866 1809
2450 2882 1857
2498 2914 1953
2530 2930 1985
2594 2962 2066
2610 2978 2130
2690 2850 1073
2290 2706 1041
2098 2706 1185
2114 2738 1249
2162 2786 1345
2146 2786 1409
2274 2834 1489
2274 2850 1521
2418 2898 1569
2466 2930 1585
2514 2946 1633
2546 2962 1681
2610 2994 1745
2626 3010 1777
2642 3010 1793
2738 3074 1841
2754 3074 1873
2786 2946 1121
2658 2930 1121
2466 2898 1153
2434 2898 1217
2386 2882 1297
2418 2914 1377
2514 2962 1425
2530 2978 1473
2546 2978 1489
2642 3026 1505
2674 3058 1537
2674 3074 1569
2754 3090 1585
2786 3106 1617
2818 3138 1681
2850 3154 1697
2882 3170 1713
2834 3026 1169
2802 3058 1169
2706 3010 1185
2706 3026 1201
2658 3010 1265
2642 3058 1361
2738 3090 1377
2738 3090 1393
2802 3122 1425
2818 3122 1441
2834 3154 1473
2882 3170 1489
2882 3170 1505
2930 3202 1521
2962 3218 1553
2946 3218 1553
2978 3234 1585
2946 3138 1217
2914 3138 1217
2834 3106 1217
2850 3138 1233
2834 3138 1265
2754 3122 1345
2850 3170 1377
2866 3170 1377
2914 3218 1409
2914 3202 1409
2946 3234 1441
2962 3234 1441
2994 3266 1473
3026 3282 1489
3074 3298 1505
3090 3314 1505
3090 3314 1505
160 224 416
208 304 528
240 352 640
272 352 689
288 416 849
304 464 1009
336 560 1249
336 608 1425
352 705 1713
320 913 2066
320 1041 2354
304 1137 2562
320 1217 2738
320 1297 2866
288 1345 2946
304 1393 3058
320 1473 3138
320 304 528
352 320 576
368 336 640
416 368 753
400 448 929
416 512 1121
368 608 1345
352 753 1633
352 865 1873
368 1025 2226
320 1121 2370
320 1233 2594
336 1313 2770
320 1361 2850
336 1441 2946
352 1489 3058
