其他预设/【236】赛博朋克风调色预设/【后期菌】视频调色预设/3DL/Sunset 03.3dl
# LUT by SparkleStock. Enhanced with VOXCOLOR algorithms.
0 256 512 768 1023
32 160 288
80 400 705
128 705 1553
224 1153 2594
240 1425 3106
80 496 592
144 737 1025
208 1153 1969
304 1537 2706
352 1761 3026
48 1217 929
64 1473 1281
128 1809 1953
448 2242 2578
689 2434 2850
384 2178 1169
1041 2354 1425
1649 2594 1761
2017 2786 2114
2306 2898 2434
2050 2834 1265
2386 2962 1345
2642 3074 1425
2802 3170 1537
2914 3234 1617
288 240 464
480 368 833
640 560 1617
512 1153 2674
416 1473 3170
2322 849 624
2786 945 1121
737 1249 2050
672 1665 2690
929 1921 3010
2530 1937 769
1185 1889 1377
1537 2194 1889
1889 2450 2418
2210 2642 2770
3154 2978 1121
2498 2834 1281
2578 2930 1521
2754 3010 1697
2882 3106 1873
3154 3218 1249
3138 3266 1281
3074 3298 1393
3138 3330 1409
3250 3427 1441
2498 753 640
2834 865 1073
3026 1025 1729
3122 1025 2466
3202 1073 2914
3346 1105 849
3539 1201 1217
3619 1313 1745
3523 1457 2370
3170 1601 2834
3282 2482 833
3475 2306 753
3507 2434 1457
2994 2866 2050
2994 2962 2482
3330 3170 1201
3298 3186 1201
3122 3202 1377
3122 3234 1505
3186 3282 1585
3298 3394 1345
3330 3427 1361
3378 3459 1377
3410 3491 1569
3427 3539 2001
3427 993 881
3507 1041 1169
3619 1201 1745
3667 1265 2434
3667 1217 2834
3651 1281 881
3731 1345 1201
3731 1473 1553
3763 1649 2017
3763 1857 2482
3523 2818 929
3555 2834 929
3603 2802 1201
3651 2994 1489
3587 3186 1713
3443 3298 1281
3378 3282 1249
3378 3314 1265
3346 3378 1329
3378 3443 1425
3443 3491 1409
3459 3539 1441
3475 3539 1857
3507 3587 2706
3555 3619 3218
3731 1089 977
3795 1137 1265
3811 1217 1745
3827 1393 2306
3811 1409 2738
3747 1633 705
3795 1649 1153
3779 1889 1393
3731 2210 1633
3699 2498 1969
3603 3170 1153
3571 3186 1169
3587 3170 1217
3571 3266 1297
3587 3346 1473
3443 3410 1345
3427 3410 1329
3410 3410 1313
3443 3491 1409
3523 3555 2001
3507 3571 2178
3539 3619 2914
3555 3603 3298
3555 3651 3667
3571 3747 3907
