其他预设/【236】赛博朋克风调色预设/【后期菌】视频调色预设/3DL/Sunset 07_S.3dl
# LUT by SparkleStock. Enhanced with VOXCOLOR algorithms.
0 256 512 768 1023
96 464 48
112 480 304
208 496 961
400 528 1729
544 544 2290
144 705 272
160 705 624
336 753 1393
528 801 2017
608 897 2482
160 1409 624
192 1505 993
336 1617 1569
560 1825 2146
737 1889 2482
528 2562 1105
737 2642 1233
1041 2802 1457
1329 2946 1713
1537 3106 1969
1905 3282 1489
2210 3362 1569
2386 3443 1649
2610 3539 1745
2754 3587 1809
640 464 112
897 464 448
1233 464 1137
1185 480 1793
961 528 2306
1921 624 448
2033 624 705
1073 753 1505
1009 801 2017
1201 929 2402
2258 1889 881
1249 1953 1073
1313 2098 1521
1681 2226 1953
1969 2354 2354
3010 2946 1425
2354 3026 1457
2386 3138 1585
2594 3218 1713
2690 3298 1825
3154 3491 1681
3138 3571 1729
3010 3651 1793
3090 3699 1841
3282 3779 1937
2130 496 384
2402 400 656
2738 432 1217
3026 496 1841
3218 512 2338
2770 753 496
2658 801 897
2850 753 1409
3330 608 1601
3106 737 2226
2818 2210 865
2706 2033 1089
2834 2114 1649
2802 2642 1793
2850 2802 2066
3266 3186 1537
3154 3234 1521
3026 3378 1729
3074 3427 1761
3138 3539 1841
3410 3699 1841
3491 3731 1873
3523 3779 1921
3539 3843 2066
3619 3859 2226
3170 512 608
3250 416 753
3410 496 1153
3571 528 1633
3683 544 2082
3410 817 672
3346 881 993
3427 865 1393
3651 801 1297
3715 881 1617
3314 2514 1089
3266 2306 1201
3282 2306 1745
3410 2642 1953
3475 3010 1809
3443 3443 1713
3362 3378 1585
3298 3346 1825
3330 3491 2098
3475 3715 1953
3651 3811 1969
3667 3827 2033
3699 3891 2210
3779 3891 2578
3827 3875 2946
3651 576 753
3715 528 865
3763 544 1057
3827 560 1457
3843 576 1825
3715 1441 1057
3795 1313 1185
3827 1537 1489
3763 1857 1665
3747 2146 1841
3571 2994 1505
3667 2754 1393
3779 2578 1777
3731 2802 2114
3603 3314 1809
3603 3651 1841
3731 3491 1601
3827 3394 1921
3827 3491 2354
3747 3747 2274
3779 3875 2306
3843 3875 2626
3907 3907 2898
3923 3923 3362
3907 3907 3811
