其他预设/【236】赛博朋克风调色预设/【后期菌】视频调色预设/3DL/Sunset 05_S.3dl
# LUT by SparkleStock. Enhanced with VOXCOLOR algorithms.
0 256 512 768 1023
624 528 416
624 528 480
656 576 705
801 753 1361
993 929 2130
672 672 464
689 705 608
769 833 1009
945 1025 1633
1041 1201 2226
817 1105 656
865 1249 817
881 1425 1105
993 1713 1633
1121 1841 2017
1313 2050 881
1441 2242 1041
1713 2402 1313
1985 2546 1633
2178 2738 1889
2290 2754 993
2514 2850 1041
2642 2962 1105
2786 3090 1169
2866 3170 1217
721 544 448
785 560 576
945 560 833
993 737 1489
1073 993 2242
1793 833 624
1937 929 945
1057 993 1345
1137 1201 1697
1329 1361 2226
2098 1505 656
1393 1777 1009
1601 1937 1489
1873 2114 1777
2098 2290 2130
2706 2418 689
2530 2642 945
2610 2738 1137
2706 2818 1281
2786 2946 1425
2914 2962 769
2962 3058 833
2978 3186 1041
3042 3250 1057
3122 3314 1089
1841 705 624
2146 672 865
2402 705 1265
2562 705 1713
2674 721 2306
2530 1009 576
2546 1057 1073
2674 1057 1633
2930 977 1777
2738 1105 2322
2530 1921 576
2546 2001 993
2706 2098 1569
2674 2482 1601
2706 2626 1937
2882 2690 689
2834 2786 737
2882 2994 1025
2962 3058 1073
3042 3154 1137
3090 3186 801
3154 3250 833
3202 3298 849
3282 3443 1121
3378 3523 1377
2706 865 801
2850 801 993
2978 801 1377
3090 801 1825
3154 801 2274
3010 1105 689
3122 1137 1105
3170 1201 1601
3250 1297 1633
3282 1377 1985
2946 2178 608
3058 2226 961
3106 2274 1537
3170 2466 1569
3170 2722 1297
3042 2946 737
3042 2994 785
3074 3058 1233
3154 3186 1441
3234 3298 1041
3282 3346 833
3346 3427 993
3427 3555 1313
3523 3667 1969
3619 3731 2674
3026 961 865
3154 977 1089
3234 945 1361
3314 897 1809
3330 897 2162
3106 1409 865
3282 1425 1057
3346 1585 1361
3282 1857 1489
3282 2146 1633
3074 2546 737
3330 2498 817
3555 2466 1425
3475 2626 1633
3250 3010 1009
3170 3154 753
3443 3154 817
3603 3186 1377
3571 3266 1777
3475 3491 1425
3507 3587 1425
3619 3699 2194
3731 3811 2770
3779 3907 3443
3699 3987 3971
