其他预设/【236】赛博朋克风调色预设/【后期菌】视频调色预设/3DL/Sunset 08_S.3dl
# LUT by SparkleStock. Enhanced with VOXCOLOR algorithms.
0 256 512 768 1023
48 48 96
64 80 512
96 176 1361
80 304 2210
112 384 2786
208 672 480
256 833 1121
400 993 2033
480 1073 2642
512 1137 3010
849 1825 1105
1041 2050 1713
1233 2210 2354
1457 2386 2802
1569 2402 3058
1617 2850 1249
1825 2930 1585
2114 3058 1921
2306 3154 2226
2418 3234 2450
2402 3394 993
2594 3475 1137
2722 3555 1233
2850 3635 1361
2946 3667 1441
689 64 256
1009 80 913
1425 128 1777
1313 224 2418
865 384 2898
2033 560 400
2066 544 1089
1377 1137 2194
1393 1361 2754
1569 1425 3106
2610 2130 640
1825 2354 1633
2066 2530 2258
2402 2706 2642
2562 2802 2914
3202 3010 865
2754 3202 1329
2818 3298 1665
2898 3346 1825
2994 3443 1969
3282 3571 640
3234 3635 705
3138 3715 1025
3186 3731 1089
3330 3827 1169
2162 208 352
2354 128 977
2642 160 1665
2866 224 2210
2978 256 2642
2626 737 352
2562 769 993
2754 769 1649
3202 897 2050
3090 1361 2738
2850 2194 448
2706 2033 977
2882 2162 1777
3042 2898 2386
3042 3058 2626
3394 3218 1009
3250 3282 1073
3170 3475 1425
3218 3571 1553
3250 3619 1601
3475 3731 721
3507 3779 833
3539 3811 929
3539 3875 1489
3651 3875 2130
2978 256 464
3074 224 929
3234 240 1489
3346 272 1921
3443 320 2306
3282 945 480
3234 1009 1057
3362 1105 1601
3555 1281 1793
3603 1505 2162
3362 2482 528
3282 2258 929
3314 2226 1665
3459 2594 1985
3539 3010 2114
3555 3443 1185
3427 3410 1137
3346 3346 1457
3394 3539 1697
3491 3747 1457
3635 3811 1249
3683 3843 1713
3715 3907 2322
3795 3923 2834
3811 3923 3234
3410 320 496
3475 464 1009
3555 496 1409
3619 464 1713
3651 528 2050
3603 1473 624
3651 1473 1201
3683 1649 1537
3683 1969 1777
3683 2258 1953
3603 2946 945
3683 2706 1137
3779 2498 1793
3715 2754 2322
3619 3330 2194
3619 3651 1201
3747 3491 1249
3827 3394 1649
3827 3459 2370
3811 3795 2610
3795 3891 2562
3843 3907 2962
3875 3939 3186
3875 3939 3667
3827 3907 4003
