其他预设/【236】赛博朋克风调色预设/【后期菌】视频调色预设/3DL/Sunset 02.3dl
# LUT by SparkleStock. Enhanced with VOXCOLOR algorithms.
0 128 256 384 512 640 768 896 1023
352 288 256
368 320 336
384 368 432
416 400 608
448 496 881
528 592 1201
608 753 1649
689 929 2098
769 1105 2530
368 368 336
384 384 416
416 416 592
432 480 785
496 576 1057
576 705 1425
640 849 1793
753 1073 2290
801 1281 2658
400 464 400
432 512 544
464 544 689
512 608 945
592 769 1297
656 913 1697
753 1105 2114
817 1329 2498
865 1489 2754
480 705 576
528 769 753
576 801 929
640 929 1185
705 1041 1505
769 1201 1793
817 1377 2162
881 1537 2498
961 1745 2754
624 1089 721
721 1217 897
753 1281 1089
817 1377 1329
881 1489 1585
993 1697 1905
1121 1905 2242
1185 2050 2530
1297 2210 2722
993 1697 801
1137 1873 961
1233 2001 1185
1329 2210 1505
1441 2354 1761
1569 2530 2050
1697 2626 2274
1825 2770 2482
1969 2850 2674
1649 2482 881
1825 2626 1041
1953 2706 1169
2130 2850 1393
2354 2994 1617
2498 3122 1825
2674 3218 2001
2770 3266 2194
2898 3362 2386
2594 3218 881
2690 3250 1009
2818 3298 1169
2978 3427 1313
3074 3459 1457
3154 3523 1617
3298 3619 1793
3346 3651 1873
3394 3651 2017
3186 3619 961
3314 3699 1121
3410 3731 1185
3427 3731 1313
3539 3795 1441
3587 3843 1601
3683 3875 1713
3731 3891 1825
3763 3923 1905
400 320 288
448 368 400
496 400 528
544 448 705
592 544 929
592 624 1297
672 769 1729
737 961 2178
801 1137 2594
528 352 320
624 400 432
592 416 608
560 512 833
592 640 1217
640 769 1585
721 929 1985
801 1121 2370
849 1329 2722
705 432 400
592 496 576
608 576 769
640 672 1057
689 833 1425
753 977 1777
785 1137 2162
897 1345 2466
961 1521 2754
817 592 384
689 817 769
753 929 993
769 993 1201
913 1169 1521
945 1281 1793
1041 1489 2162
1153 1697 2482
1281 1905 2722
1089 1025 352
993 1377 897
1057 1505 1137
1137 1617 1377
1281 1793 1681
1393 1905 1889
1569 2146 2210
1633 2274 2434
1745 2434 2658
2162 1729 192
1537 2066 961
1649 2226 1185
1889 2450 1489
2001 2530 1649
2162 2674 1905
2386 2802 2114
2466 2914 2370
2642 3058 2546
3010 2722 336
2626 2882 785
2594 2962 1105
2802 3090 1313
2882 3186 1505
3026 3282 1633
3106 3330 1793
3186 3427 1953
3282 3491 2162
3491 3427 544
3314 3507 769
3298 3539 1137
3394 3619 1329
3410 3635 1457
3507 3699 1585
3555 3731 1697
3635 3763 1809
3667 3779 1921
3731 3763 769
3683 3763 897
3699 3843 1153
3715 3875 1377
3763 3907 1505
3795 3907 1617
3843 3939 1713
3891 3955 1825
3891 3955 1889
512 320 304
592 384 400
753 448 576
881 544 817
1025 640 1089
977 753 1457
1041 849 1793
961 977 2226
961 1137 2594
913 400 256
1153 480 400
1441 576 560
1553 672 865
1585 769 1265
1329 849 1601
913 977 2017
961 1153 2418
993 1361 2690
1729 528 160
2402 656 320
2466 689 512
1649 753 993
1009 897 1409
961 1041 1761
1073 1233 2146
1169 1393 2434
1249 1569 2658
2114 737 144
2146 785 336
1585 913 801
1585 1057 1137
1329 1329 1505
1329 1473 1809
1473 1665 2114
1553 1841 2402
1665 2050 2658
2194 1265 112
1969 1361 320
1521 1681 1089
1697 1873 1345
1761 2017 1601
1953 2210 1841
2114 2338 2114
2290 2562 2354
2434 2674 2578
3042 2162 256
2978 2354 368
2402 2546 1089
2498 2658 1313
2706 2786 1569
2818 2882 1745
2994 3058 1985
3090 3202 2194
3138 3250 2354
3507 3010 448
3443 3090 496
3234 3250 977
3250 3314 1217
3346 3443 1441
3394 3459 1553
3475 3523 1713
3507 3571 1857
3571 3635 2001
3763 3619 656
3747 3667 753
3635 3667 929
3651 3747 1313
3683 3795 1505
3715 3795 1537
3763 3859 1697
3795 3875 1825
3843 3891 1889
3875 3859 881
3891 3907 977
3907 3939 1089
3875 3939 1329
3907 3955 1537
3939 3987 1697
3939 3987 1729
3971 4003 1809
4003 4035 1937
897 384 256
1169 464 368
1441 560 528
1633 656 753
1905 753 1041
2194 913 1457
2450 1057 1809
2626 1153 2114
1665 1201 2482
2001 544 176
2226 592 272
2642 721 464
2850 785 737
3090 929 1057
2962 1009 1457
2754 1089 1809
2258 1153 2194
1841 1297 2466
2882 689 144
3250 801 400
3298 849 592
3443 945 833
3186 961 1057
3090 1041 1345
2786 1185 1777
1633 1441 2274
1633 1665 2578
3106 945 144
3346 977 304
3635 1057 705
3539 1121 929
2658 1345 1281
2146 1681 1729
1985 1809 2050
2162 2114 2370
2274 2210 2546
3010 1569 160
3042 1617 224
3090 1681 544
2722 1953 1073
2850 2146 1345
2610 2386 1713
2786 2626 2017
2850 2786 2290
2930 2882 2466
3443 2482 384
3475 2530 400
3427 2706 528
3106 2978 1249
3138 3058 1441
3250 3186 1633
3314 3282 1825
3410 3346 1985
3459 3427 2162
3715 3250 576
3747 3346 624
3747 3491 721
3587 3555 1217
3619 3587 1345
3619 3651 1537
3651 3683 1697
3731 3747 1825
3747 3763 1937
3859 3731 801
3891 3747 865
3875 3827 961
3859 3875 1217
3859 3875 1377
3875 3891 1601
3891 3907 1697
3939 3939 1825
3955 3939 1889
3971 3939 1073
3987 3971 1137
3987 3987 1233
4035 4035 1361
3987 4003 1569
4003 4035 1729
4051 4051 1841
4067 4051 1921
4051 4035 2114
1937 512 112
2226 592 240
2530 689 416
2834 769 672
3074 929 1057
3218 1009 1377
3266 1121 1713
3330 1249 2098
3362 1329 2338
3138 721 192
3298 785 384
3394 865 592
3507 961 833
3619 1041 1105
3651 1121 1409
3667 1169 1681
3667 1233 1921
3651 1329 2178
3410 817 240
3651 945 576
3699 977 753
3763 1057 993
3779 1105 1185
3747 1137 1393
3635 1249 1649
3475 1377 1937
3250 1585 2258
3459 1089 240
3667 1169 464
3779 1233 849
3763 1313 1025
3779 1393 1201
3699 1521 1505
3571 1681 1697
3491 2033 2066
2978 2402 2450
3346 1841 240
3410 1921 304
3667 1857 592
3795 1873 1041
3715 2178 1297
3394 2546 1585
3282 2882 1889
3282 3058 2178
3346 3138 2354
3635 2722 464
3635 2818 496
3667 2914 576
3715 3058 801
3619 3298 1377
3683 3410 1537
3587 3475 1681
3667 3539 1889
3683 3571 2001
3843 3475 705
3859 3523 737
3891 3587 833
3875 3667 929
3843 3763 1409
3795 3763 1553
3843 3827 1681
3875 3859 1825
3891 3859 1889
3955 3843 977
3955 3859 1009
3987 3923 1137
3987 3923 1153
3987 3955 1441
3971 3955 1633
3987 3987 1777
4035 4003 1841
4035 4003 1921
4035 4003 1265
4051 4035 1329
4051 4051 1409
4067 4051 1537
4051 4051 1585
4067 4051 1857
4067 4035 2274
4067 4003 2450
4095 4035 2754
3042 672 128
3218 753 304
3394 849 544
3523 945 833
3619 1041 1153
3635 1105 1393
3699 1169 1713
3715 1281 2017
3731 1345 2242
3555 833 352
3699 929 576
3747 977 753
3779 1041 961
3779 1089 1185
3795 1137 1409
3779 1185 1649
3827 1281 1905
3843 1377 2162
3683 929 384
3779 993 640
3843 1089 865
3875 1153 1057
3859 1185 1249
3859 1281 1489
3859 1329 1649
3843 1425 1825
3859 1585 2066
3667 1313 400
3779 1345 592
3843 1393 913
3875 1489 1105
3907 1649 1329
3875 1697 1457
3891 1841 1649
3843 2098 1873
3747 2322 2098
3539 2162 368
3619 2258 448
3763 2194 689
3859 2178 1041
3843 2322 1249
3875 2578 1441
3843 2866 1633
3843 3074 1825
3795 3250 2033
3795 3090 624
3795 3186 640
3827 3234 721
3875 3250 865
3891 3346 1025
3891 3491 1505
3795 3587 1633
3795 3683 1793
3859 3731 1937
3955 3683 897
3955 3699 929
3955 3763 977
3971 3795 1073
3971 3859 1217
3971 3875 1569
3971 3891 1697
3971 3907 1777
3987 3939 1873
4003 3923 1137
4003 3955 1185
4035 3987 1297
4051 4003 1409
4067 4035 1505
4067 4035 1697
4067 4035 1793
4067 4035 1969
4051 4003 2178
4067 4051 1473
4067 4051 1537
4067 4051 1649
4095 4051 1825
4095 4051 2001
4095 4035 2354
4095 4003 2754
4051 3987 3090
4067 3971 3266
3571 801 320
3651 865 480
3731 961 689
3779 1025 961
3827 1105 1249
3843 1169 1505
3875 1265 1777
3875 1313 2001
3875 1393 2258
3795 929 528
3827 977 672
3875 1041 833
3907 1121 1057
3907 1153 1281
3875 1169 1425
3875 1233 1649
3891 1329 1905
3891 1425 2146
3779 1009 512
3891 1137 801
3875 1153 913
3907 1265 1105
3923 1345 1313
3907 1425 1505
3907 1521 1697
3907 1665 1889
3923 1761 2114
3779 1457 528
3859 1553 705
3939 1633 1025
3955 1745 1201
3939 1841 1329
3923 1953 1473
3923 2162 1649
3939 2322 1793
3955 2562 1985
3747 2530 528
3779 2658 592
3843 2594 785
3907 2626 1137
3907 2706 1313
3955 2930 1489
3971 3074 1617
3971 3202 1745
3955 3362 1857
3907 3330 769
3907 3427 801
3923 3507 881
3923 3507 961
3955 3539 1089
3987 3587 1505
3987 3651 1585
3987 3731 1697
3987 3763 1777
4003 3795 1025
4003 3843 1105
4003 3859 1137
4035 3923 1217
4003 3907 1313
4051 3971 1457
4067 3971 1697
4051 3971 1777
4051 4003 1937
4051 3987 1329
4051 4003 1377
4067 4035 1505
4067 4035 1553
4067 4035 1633
4067 4035 1825
4067 4003 2162
4095 4003 2482
4095 3987 2770
4095 4051 1713
4095 4051 1857
4067 4035 2098
4067 4035 2370
4095 4035 2690
4067 3987 2994
4067 3971 3266
4095 3955 3459
4067 3955 3587
3795 913 480
3843 961 656
3875 1041 881
3891 1105 1105
3923 1153 1329
3939 1217 1569
3955 1313 1857
3955 1361 2098
3955 1441 2258
3875 977 656
3923 1057 801
3907 1089 945
3939 1137 1137
3955 1201 1313
3923 1265 1505
3939 1361 1713
3939 1457 1937
3955 1585 2178
3859 1185 592
3939 1233 897
3955 1329 1041
3939 1425 1153
3955 1553 1361
3923 1601 1505
3955 1729 1665
3971 1921 1889
3971 2098 2050
3859 1745 640
3907 1793 769
3939 1873 961
3939 2001 1201
3955 2194 1345
3923 2386 1489
3939 2530 1665
3987 2770 1825
4003 2898 1969
3907 2930 705
3891 3058 753
3907 3058 865
3923 2930 1153
3923 3058 1345
3971 3250 1489
3971 3314 1601
4003 3410 1681
4035 3539 1841
4003 3571 913
4003 3635 961
3987 3667 993
4003 3699 1137
4003 3747 1217
4051 3747 1521
4051 3795 1665
4051 3827 1745
4067 3891 1841
4035 3891 1169
4035 3939 1233
4051 3955 1313
4035 3971 1393
4067 3987 1489
4095 4003 1617
4067 3987 1777
4051 3971 1937
4051 3971 2162
4095 4051 1537
4095 4051 1601
4095 4051 1729
4095 4051 1905
4051 4003 2114
4067 4003 2402
4095 4003 2690
4051 3971 3026
4067 3955 3282
4067 4051 2258
4095 4035 2482
4067 4003 2818
4051 3971 3042
4067 3971 3346
4095 3971 3491
4067 3955 3635
4067 3971 3779
4051 3955 3843
3907 977 656
3939 1041 817
3955 1105 1057
3955 1153 1233
3971 1201 1441
3971 1265 1665
3971 1329 1857
3971 1377 2066
3971 1473 2258
3923 1025 785
3923 1073 881
3939 1137 1041
3955 1233 1233
3955 1297 1393
3955 1345 1521
3971 1505 1745
3971 1601 1953
3987 1745 2194
3875 1361 608
3955 1409 993
3955 1489 1105
3971 1585 1249
3971 1729 1409
3971 1841 1553
3987 2033 1697
3987 2242 1889
3987 2418 2066
3875 2370 640
3923 2242 849
3971 2274 1089
3971 2450 1281
3971 2594 1377
3971 2786 1537
4003 2930 1697
4035 3090 1825
4035 3202 1921
3939 3202 817
3939 3282 849
3955 3298 945
3987 3362 1137
3971 3362 1393
4003 3475 1505
4051 3571 1633
4051 3635 1713
4067 3699 1825
4035 3715 1057
4035 3763 1121
4051 3827 1169
4035 3843 1249
4035 3859 1361
4051 3875 1633
4035 3875 1697
4035 3891 1761
4067 3923 1873
4051 3971 1345
4067 3987 1425
4067 4003 1505
4095 4035 1601
4095 4035 1665
4051 4003 1857
4035 3971 2114
4067 3987 2402
4095 3987 2770
4095 4051 1729
4067 4035 1969
4067 4035 2194
4095 4035 2482
4067 4003 2706
4051 3971 2978
4067 3971 3298
4095 3971 3459
4067 3955 3651
4051 3987 2898
4051 3971 3138
4067 3955 3394
4067 3955 3571
4051 3971 3699
4051 3971 3795
4051 3955 3907
4051 3955 4035
4051 3939 4095
