其他预设/【236】赛博朋克风调色预设/【后期菌】视频调色预设/3DL/Sunset 08.3dl
# LUT by SparkleStock. Enhanced with VOXCOLOR algorithms.
0 128 256 384 512 640 768 896 1023
48 48 96
96 48 272
64 80 512
64 128 897
96 176 1361
80 224 1793
80 304 2210
96 336 2530
112 384 2786
144 288 272
80 336 480
128 416 817
144 480 1265
144 544 1681
160 592 2082
192 640 2402
176 672 2690
208 753 2914
208 672 480
256 705 753
256 833 1121
304 913 1585
400 993 2033
464 1041 2370
480 1073 2642
512 1137 2882
528 1137 2994
464 1217 817
528 1313 1185
592 1393 1537
721 1537 1905
753 1569 2242
785 1617 2530
881 1649 2722
929 1649 2914
1041 1713 3106
849 1825 1105
993 1969 1425
1057 2050 1729
1153 2114 2050
1233 2210 2354
1361 2322 2578
1457 2386 2802
1473 2386 2946
1569 2402 3058
1201 2418 1217
1345 2546 1489
1457 2594 1729
1553 2658 2001
1665 2706 2290
1777 2802 2482
1889 2850 2674
1969 2882 2802
2066 2914 2914
1617 2850 1249
1761 2898 1441
1857 2930 1601
1953 2978 1777
2114 3058 1921
2162 3106 2130
2306 3154 2226
2338 3170 2370
2418 3234 2450
2098 3170 1169
2178 3186 1281
2258 3218 1409
2370 3282 1505
2418 3330 1569
2482 3346 1713
2610 3410 1793
2658 3443 1825
2674 3459 1905
2402 3394 993
2530 3459 1105
2594 3475 1137
2610 3475 1201
2722 3555 1233
2802 3587 1329
2850 3635 1361
2898 3667 1393
2946 3667 1441
304 48 176
384 48 384
448 48 672
512 64 1041
608 96 1489
320 224 1953
272 320 2354
240 352 2658
240 432 2882
737 192 352
881 192 640
753 240 993
576 384 1409
400 576 1905
432 656 2242
432 656 2498
464 705 2754
480 753 2962
1121 528 608
833 672 929
785 801 1329
769 945 1777
721 1105 2162
769 1121 2450
785 1153 2674
913 1217 2898
977 1249 3074
1489 1153 753
1009 1441 1313
1105 1569 1633
1137 1665 1953
1281 1793 2354
1297 1793 2578
1361 1857 2786
1441 1873 2962
1569 1969 3122
1841 2082 769
1473 2226 1521
1553 2290 1793
1617 2370 2066
1761 2450 2354
1873 2498 2562
1953 2610 2738
2001 2594 2866
2082 2610 3010
2578 2610 753
1745 2674 1457
1825 2738 1681
2033 2818 1953
2114 2818 2130
2194 2882 2354
2370 2930 2498
2418 2978 2642
2482 3042 2722
2882 2994 833
2418 3058 1233
2402 3074 1505
2498 3138 1633
2530 3154 1793
2578 3202 1873
2642 3234 2033
2674 3298 2130
2706 3330 2194
3010 3298 721
2754 3330 945
2642 3362 1185
2674 3410 1361
2706 3410 1441
2802 3459 1505
2850 3491 1569
2882 3555 1617
2930 3571 1665
3090 3507 624
2978 3539 721
2946 3587 929
2946 3603 1089
2994 3635 1137
2994 3651 1169
3058 3683 1201
3122 3715 1233
3138 3715 1265
689 64 256
817 48 528
1009 80 913
1249 112 1329
1425 128 1777
1329 192 2098
1313 224 2418
961 272 2658
865 384 2898
1489 224 464
1761 256 849
1921 240 1121
2033 288 1537
2033 384 1953
1777 448 2290
1025 705 2626
929 737 2818
977 833 2978
2114 528 432
2434 432 833
2466 416 1137
2162 737 1713
1457 1169 2242
1281 1281 2530
1393 1361 2754
1489 1377 2946
1569 1441 3090
2466 1121 480
2418 1233 913
2162 1489 1553
2210 1633 1905
1969 1985 2354
1873 2033 2594
1985 2162 2818
2001 2178 2962
2066 2226 3090
2674 2130 672
2530 2242 1073
2033 2450 1793
2178 2498 2066
2210 2594 2306
2322 2674 2482
2402 2706 2642
2466 2786 2834
2562 2802 2914
2978 2658 769
2914 2802 1009
2418 2882 1649
2498 2914 1841
2610 2978 2082
2642 2994 2178
2722 3090 2354
2754 3122 2466
2818 3170 2546
3202 3010 865
3106 3090 961
2802 3202 1345
2786 3218 1505
2818 3298 1665
2850 3298 1745
2898 3346 1825
2914 3378 1921
2994 3443 1969
3282 3362 817
3202 3410 849
3042 3427 961
2962 3491 1201
2978 3539 1329
2994 3555 1361
3058 3603 1377
3090 3635 1457
3106 3651 1489
3282 3571 640
3298 3603 689
3234 3635 705
3122 3667 881
3138 3715 1025
3186 3747 1041
3186 3731 1089
3250 3779 1137
3330 3827 1169
1473 112 384
1713 128 737
1921 144 1073
2098 160 1393
2226 176 1729
2338 176 2001
2530 208 2370
2578 240 2578
1889 368 2914
2210 288 432
2338 240 705
2530 256 1041
2610 256 1361
2738 272 1633
2674 352 2001
2610 496 2370
2450 640 2754
2178 737 2962
2610 592 432
2754 432 737
2850 464 1009
2946 480 1329
2866 656 1681
2850 785 1953
2786 1073 2402
2130 1553 2930
2098 1697 3074
2930 1201 480
2994 1137 689
3138 961 1057
3106 1137 1409
2690 1825 1969
2546 2210 2434
2466 2322 2706
2562 2402 2898
2578 2418 2994
2978 2194 592
2962 2146 753
2978 2130 1233
2722 2402 1873
2818 2482 2082
2706 2706 2386
2754 2834 2546
2786 2882 2690
2818 2930 2802
3202 2706 705
3218 2690 721
3138 2818 1105
2818 3042 1793
2850 3090 1905
2930 3138 2066
2946 3186 2178
2978 3234 2290
2994 3282 2354
3330 3106 897
3346 3154 977
3298 3250 1089
3010 3378 1361
3058 3378 1489
2994 3410 1601
3058 3443 1681
3090 3507 1713
3106 3539 1777
3362 3443 865
3362 3443 881
3314 3539 865
3202 3571 1009
3170 3587 1089
3170 3619 1265
3186 3651 1281
3234 3683 1329
3250 3699 1329
3394 3667 672
3427 3683 705
3410 3715 705
3410 3747 769
3314 3779 897
3346 3795 1009
3427 3827 1137
3427 3827 1153
3443 3843 1329
2178 208 368
2322 176 640
2450 160 993
2594 160 1297
2706 176 1633
2818 224 1937
2866 224 2210
2930 240 2450
2978 256 2642
2674 304 480
2754 272 721
2866 288 1009
2946 272 1249
3010 272 1505
3090 304 1745
3154 352 1953
3186 400 2194
3202 480 2434
2914 656 496
3106 576 817
3154 608 1025
3218 640 1265
3298 672 1505
3282 672 1681
3234 897 2033
3186 1137 2386
3106 1377 2706
3154 1313 576
3202 1329 817
3314 1265 1217
3314 1345 1393
3314 1441 1521
3282 1633 1873
3218 1825 2114
3170 2178 2418
2914 2546 2834
3154 2306 592
3218 2354 689
3362 2130 1009
3378 2033 1361
3362 2290 1697
3090 2626 2114
3042 2898 2386
2994 3010 2530
3042 3058 2626
3330 2802 721
3314 2834 785
3314 2866 897
3330 2914 1249
3170 3122 1825
3202 3186 1921
3138 3250 1985
3154 3346 2066
3170 3362 2130
3394 3218 1009
3378 3234 1041
3394 3298 1089
3362 3362 1137
3218 3491 1409
3170 3507 1489
3218 3571 1553
3234 3603 1569
3250 3619 1601
3443 3555 897
3427 3555 897
3459 3619 913
3427 3619 897
3346 3699 977
3298 3699 1137
3346 3747 1169
3378 3779 1217
3394 3795 1281
3475 3731 721
3491 3747 769
3507 3779 833
3555 3827 897
3539 3811 929
3491 3811 1169
3539 3875 1489
3587 3859 1745
3651 3875 2130
2658 208 416
2706 192 672
2834 192 945
2930 192 1233
3042 224 1553
3106 240 1793
3138 240 2050
3202 272 2226
3282 288 2450
2962 336 544
3090 384 769
3122 384 977
3154 368 1201
3202 368 1393
3282 384 1601
3298 416 1809
3362 512 2066
3410 576 2242
3186 801 560
3282 721 833
3330 801 1105
3378 881 1329
3410 881 1505
3427 929 1649
3427 945 1793
3459 1025 1985
3507 1217 2178
3346 1569 689
3378 1569 897
3394 1521 1217
3410 1537 1361
3459 1713 1521
3459 1761 1617
3475 1905 1825
3427 2162 2098
3346 2338 2338
3314 2466 592
3330 2482 672
3443 2338 945
3507 2210 1313
3507 2306 1489
3555 2466 1633
3475 2658 1873
3443 2850 2146
3378 2994 2322
3427 2962 881
3394 2978 945
3394 3010 1025
3443 2978 1169
3443 3058 1361
3378 3170 1825
3298 3346 1841
3250 3443 1873
3298 3491 1905
3475 3330 1137
3443 3346 1089
3459 3410 1121
3475 3443 1185
3443 3539 1185
3346 3587 1377
3362 3619 1441
3346 3683 1409
3362 3699 1441
3491 3603 913
3491 3635 897
3539 3683 945
3539 3731 945
3507 3731 977
3475 3779 1105
3459 3779 1217
3491 3827 1329
3539 3827 1505
3555 3795 849
3587 3827 929
3603 3827 1089
3635 3827 1361
3635 3843 1505
3651 3859 1793
3683 3875 2194
3715 3907 2562
3747 3907 2754
2978 256 480
3010 240 705
3090 256 929
3154 256 1217
3250 256 1473
3314 240 1681
3346 272 1921
3378 272 2114
3443 320 2306
3202 416 576
3250 464 753
3314 512 961
3362 544 1185
3378 528 1377
3410 512 1569
3427 576 1729
3491 656 1937
3507 705 2146
3346 945 624
3394 1025 961
3410 1057 1137
3459 1121 1313
3507 1153 1473
3507 1185 1649
3555 1281 1793
3571 1425 1937
3619 1521 2130
3491 1713 705
3555 1761 913
3555 1761 1265
3571 1825 1377
3555 1905 1505
3571 2033 1617
3571 2162 1729
3587 2290 1857
3603 2418 2033
3427 2610 640
3427 2674 705
3491 2578 913
3587 2482 1281
3587 2530 1457
3571 2674 1633
3571 2738 1777
3571 2866 1921
3539 3010 2114
3475 3074 1009
3475 3122 1105
3459 3170 1217
3459 3106 1361
3475 3154 1441
3475 3186 1825
3459 3234 1889
3475 3394 1905
3475 3475 1905
3555 3443 1185
3555 3475 1185
3507 3491 1153
3491 3539 1137
3507 3539 1217
3507 3619 1217
3491 3683 1361
3427 3699 1329
3491 3747 1457
3555 3715 897
3571 3731 945
3587 3779 1057
3587 3747 1137
3603 3779 1217
3603 3779 1393
3587 3811 1601
3651 3843 1937
3683 3859 2242
3635 3811 1249
3651 3827 1409
3683 3843 1713
3699 3859 1953
3779 3891 2354
3779 3907 2546
3811 3923 2834
3779 3907 3042
3811 3923 3234
3218 272 512
3250 304 753
3314 304 993
3362 320 1201
3410 336 1393
3459 304 1569
3539 368 1793
3571 384 1985
3587 400 2178
3378 560 576
3427 624 785
3427 656 977
3459 705 1233
3491 769 1409
3507 737 1521
3571 785 1681
3603 849 1857
3651 993 2066
3507 1233 672
3507 1201 1009
3555 1297 1201
3507 1361 1329
3571 1505 1505
3571 1537 1601
3603 1617 1729
3651 1825 1889
3667 1969 2050
3667 1969 801
3699 1969 913
3667 1985 1153
3619 2050 1361
3635 2146 1489
3635 2258 1569
3651 2370 1697
3683 2546 1841
3667 2626 1953
3555 2834 785
3539 2898 897
3507 2850 1025
3555 2690 1297
3555 2722 1505
3555 2866 1713
3539 2930 1825
3587 3058 2001
3603 3170 2178
3571 3202 1249
3539 3234 1281
3507 3250 1281
3491 3234 1441
3539 3330 1521
3507 3298 1841
3571 3410 1937
3571 3475 1937
3603 3587 1889
3587 3555 1169
3571 3571 1137
3555 3603 1121
3571 3667 1153
3555 3667 1201
3603 3699 1425
3635 3683 1681
3651 3699 1841
3651 3779 1905
3635 3795 1137
3651 3795 1281
3651 3795 1409
3667 3795 1585
3667 3811 1793
3699 3811 2066
3731 3843 2338
3731 3859 2610
3795 3891 2866
3731 3859 1937
3747 3859 2162
3795 3891 2450
3747 3891 2594
3811 3891 2946
3795 3891 3122
3827 3923 3314
3859 3923 3539
3859 3923 3619
3410 320 496
3459 384 737
3475 464 1009
3491 496 1233
3555 496 1409
3587 448 1569
3619 464 1713
3619 464 1873
3651 528 2050
3491 689 624
3491 737 801
3507 833 1009
3555 913 1217
3571 945 1377
3619 993 1537
3651 1073 1681
3683 1137 1825
3715 1265 2001
3603 1473 624
3651 1441 1073
3619 1521 1217
3619 1633 1393
3635 1761 1489
3635 1857 1601
3667 2001 1729
3667 2146 1825
3683 2258 1953
3619 2482 705
3715 2338 881
3715 2226 1137
3715 2338 1377
3683 2386 1457
3683 2530 1601
3667 2626 1713
3667 2722 1841
3667 2834 1969
3587 2962 961
3571 2994 1073
3555 2994 1201
3571 3010 1457
3539 2962 1697
3555 3058 1857
3571 3154 2001
3587 3234 2098
3619 3330 2194
3603 3330 1377
3587 3378 1377
3571 3394 1425
3571 3443 1473
3587 3459 1569
3587 3491 1793
3587 3491 1857
3603 3571 1905
3667 3651 1969
3619 3651 1201
3619 3683 1265
3619 3683 1361
3635 3715 1409
3619 3699 1441
3667 3699 1745
3683 3731 1985
3715 3779 2210
3795 3827 2562
3715 3811 1569
3699 3811 1729
3715 3827 1937
3715 3811 2146
3747 3827 2450
3779 3859 2642
3795 3859 2914
3811 3891 3090
3843 3923 3330
3795 3891 2562
3811 3907 2818
3827 3907 3058
3811 3907 3218
3843 3907 3410
3859 3923 3571
3859 3939 3715
3843 3923 3891
3827 3907 4003
