其他预设/【236】赛博朋克风调色预设/【后期菌】视频调色预设/3DL/Sunset 03_S.3dl
# LUT by SparkleStock. Enhanced with VOXCOLOR algorithms.
0 128 256 384 512 640 768 896 1023
32 160 288
64 288 480
80 400 705
128 560 1041
128 705 1553
176 929 2114
224 1153 2594
240 1297 2914
240 1425 3106
80 336 448
80 400 592
128 560 897
144 705 1281
160 913 1793
192 1137 2306
240 1297 2626
272 1441 2882
288 1553 3074
80 496 592
112 624 769
144 737 1025
160 913 1441
208 1153 1969
272 1377 2434
304 1537 2706
336 1665 2914
352 1745 3058
64 801 753
64 913 945
160 1041 1217
208 1249 1601
288 1441 2001
352 1617 2370
384 1793 2658
416 1905 2818
480 2033 2946
48 1217 929
64 1361 1105
64 1489 1281
64 1617 1569
128 1809 1953
288 2017 2290
448 2242 2578
544 2338 2754
689 2434 2850
32 1713 1025
64 1857 1217
160 1985 1361
256 2114 1585
464 2242 1857
801 2434 2162
993 2546 2450
1233 2626 2594
1441 2706 2754
384 2178 1169
737 2290 1281
1025 2370 1409
1329 2482 1569
1649 2594 1761
1809 2690 1953
2017 2786 2114
2098 2818 2274
2306 2898 2434
1473 2610 1233
1633 2658 1329
1793 2738 1409
1985 2786 1505
2098 2850 1569
2226 2914 1681
2386 2978 1777
2482 3026 1857
2594 3026 1921
2050 2834 1265
2274 2914 1329
2386 2962 1345
2450 2978 1377
2642 3074 1425
2706 3122 1505
2802 3170 1537
2882 3218 1585
2914 3234 1617
80 240 400
160 352 608
176 432 817
176 592 1217
208 753 1681
208 1009 2242
272 1217 2674
272 1345 2946
288 1473 3138
320 320 544
416 368 689
304 528 1009
224 753 1441
224 1025 1969
272 1217 2450
288 1361 2690
320 1505 2930
352 1601 3106
640 512 705
368 624 881
320 785 1169
272 1009 1601
288 1249 2098
352 1441 2466
384 1585 2706
432 1729 2898
480 1825 3058
817 801 672
272 1009 1057
336 1169 1281
336 1313 1601
464 1553 2001
496 1713 2322
640 1905 2610
769 2050 2786
945 2210 2946
721 1329 640
240 1537 1153
352 1649 1345
464 1793 1617
608 2001 1889
913 2162 2226
1089 2338 2514
1217 2434 2658
1505 2530 2818
1857 2162 801
640 2033 1217
881 2162 1361
1249 2306 1617
1441 2386 1793
1681 2514 2066
1937 2626 2322
2130 2706 2514
2274 2786 2626
2546 2674 993
1793 2562 1217
1825 2594 1377
2017 2690 1489
2162 2754 1633
2290 2834 1729
2450 2882 1857
2530 2930 1985
2610 2978 2130
2738 2962 1105
2434 2914 1137
2354 2898 1297
2514 2962 1425
2498 2994 1505
2626 3074 1553
2690 3106 1617
2770 3138 1713
2882 3170 1713
2946 3138 1217
2834 3106 1217
2834 3138 1265
2850 3170 1377
2914 3218 1409
2946 3234 1441
2994 3266 1473
3074 3298 1505
3090 3314 1505
288 240 464
352 304 608
496 368 833
592 432 1169
640 560 1617
512 929 2258
512 1153 2674
432 1345 2978
416 1473 3170
1057 496 672
1409 576 817
1585 640 1057
1617 640 1393
1505 656 1825
1057 817 2242
448 1425 2786
432 1553 2946
496 1665 3090
2226 865 576
2370 929 833
2306 945 1089
1729 929 1537
769 1217 2033
592 1489 2434
672 1665 2690
801 1793 2882
929 1905 3026
2450 1217 560
2194 1265 737
1681 1281 1185
1633 1377 1585
1217 1585 1937
1137 1793 2290
1377 2033 2546
1489 2178 2754
1585 2306 2898
2482 1937 737
2001 1953 801
1153 1905 1297
1361 2033 1601
1489 2162 1889
1697 2322 2162
1889 2450 2418
2066 2578 2594
2210 2642 2770
2962 2642 1009
2626 2642 977
1809 2466 1345
1937 2546 1505
2162 2642 1713
2338 2706 1873
2482 2802 2146
2610 2882 2290
2690 2930 2434
3154 2978 1121
2930 2914 1105
2466 2834 1281
2514 2866 1393
2578 2930 1521
2642 2946 1585
2754 3010 1697
2802 3058 1793
2882 3106 1873
3074 3138 1153
3010 3138 1185
2866 3106 1201
2834 3106 1345
2866 3138 1441
2898 3154 1473
2962 3218 1521
2978 3234 1601
3074 3250 1601
3154 3218 1249
3154 3250 1265
3138 3266 1281
3074 3266 1297
3074 3298 1393
3122 3330 1393
3138 3330 1409
3170 3378 1425
3250 3427 1441
1025 448 640
1393 528 801
1697 576 1025
1857 624 1297
2098 705 1617
2130 753 2001
2354 849 2434
2450 881 2674
1377 1009 2946
2434 769 608
2370 753 769
2450 801 1089
2530 865 1425
2786 961 1793
2818 961 2194
2658 993 2482
2258 1009 2706
1793 1105 2866
2690 1009 624
2562 1009 817
2498 1041 1105
2594 1089 1473
2658 1153 1809
2898 1217 2146
2850 1297 2482
1617 1681 2802
1633 1921 2946
2802 1345 544
2594 1361 705
2546 1377 1073
2594 1425 1425
2354 1617 1793
2162 1905 2242
2017 2114 2498
2194 2290 2690
2242 2322 2834
2818 2226 689
2610 2162 721
2514 2114 977
2242 2210 1457
2450 2354 1729
2338 2482 2001
2562 2658 2290
2610 2738 2498
2690 2786 2658
3154 2818 977
2978 2786 929
2754 2770 1041
2354 2706 1473
2482 2786 1633
2754 2882 1729
2754 2914 1889
2866 2978 2001
2914 3026 2178
3282 3074 1169
3250 3106 1169
3154 3106 1201
2834 3058 1345
2930 3090 1425
2914 3106 1505
2946 3138 1585
3010 3186 1681
3026 3202 1729
3186 3202 1201
3186 3202 1217
3122 3218 1233
3122 3250 1281
3058 3250 1345
3058 3250 1425
3090 3282 1473
3122 3314 1505
3170 3330 1489
3250 3298 1297
3234 3314 1313
3250 3330 1329
3250 3394 1361
3202 3378 1345
3234 3410 1377
3298 3459 1409
3314 3459 1425
3346 3475 1489
2482 721 624
2610 705 785
2674 705 1057
2786 801 1393
2930 929 1745
3122 1041 2146
3122 1025 2466
3154 1041 2706
3202 1073 2914
2914 881 672
2786 817 817
2738 801 1089
2834 865 1457
3010 977 1809
3298 1121 2178
3491 1201 2418
3491 1201 2658
3475 1217 2850
2930 1057 608
2802 1073 817
2770 1089 1089
2786 1105 1457
2978 1185 1809
3298 1281 2098
3491 1441 2386
3378 1489 2642
3154 1585 2850
2962 1441 496
2786 1441 689
2802 1457 1073
2786 1489 1377
2930 1537 1649
3186 1713 1953
3378 1921 2210
3330 2258 2498
2850 2546 2802
2962 2338 640
2754 2242 656
2786 2146 849
2866 2050 1249
2978 2258 1617
2994 2578 1889
2994 2866 2050
2930 2914 2274
2994 2962 2482
3218 2882 929
3010 2834 913
2930 2834 1041
2962 2866 1217
2914 2930 1521
3074 3058 1585
3010 3058 1713
3090 3122 1793
3090 3138 1889
3330 3170 1201
3202 3138 1137
3186 3170 1185
3106 3154 1233
3090 3202 1393
3074 3186 1457
3122 3234 1505
3170 3266 1553
3186 3282 1585
3250 3266 1233
3234 3266 1249
3250 3298 1297
3282 3298 1297
3202 3330 1361
3186 3330 1393
3202 3394 1425
3234 3410 1457
3282 3410 1425
3298 3394 1345
3314 3410 1361
3330 3427 1361
3394 3475 1393
3378 3459 1377
3346 3459 1393
3410 3491 1569
3410 3491 1713
3427 3539 2001
3122 865 769
3122 801 881
3170 817 1105
3234 897 1409
3378 1041 1793
3459 1153 2162
3475 1169 2482
3491 1169 2690
3539 1185 2882
3234 929 721
3170 881 881
3106 849 1137
3138 881 1441
3282 1009 1777
3507 1201 2033
3635 1297 2306
3651 1313 2610
3667 1329 2786
3218 1137 608
3106 1105 801
3090 1121 1089
3106 1153 1441
3202 1217 1745
3475 1361 1969
3715 1505 2178
3715 1569 2386
3667 1649 2642
3202 1569 480
3090 1537 656
3090 1521 1057
3106 1553 1361
3186 1665 1633
3410 1793 1729
3603 2017 1777
3539 2290 2017
3443 2450 2338
3186 2482 640
3058 2386 705
3026 2258 881
3058 2194 1217
3186 2306 1505
3475 2578 1601
3507 2802 1745
3539 2994 1841
3459 3106 2033
3330 3010 977
3186 2930 977
3122 2914 1089
3154 2898 1233
3202 2978 1361
3218 3074 1585
3122 3106 1649
3154 3186 1633
3186 3234 1713
3410 3266 1233
3282 3218 1185
3282 3234 1217
3234 3234 1281
3154 3218 1377
3122 3234 1505
3170 3282 1505
3250 3330 1457
3250 3346 1473
3314 3314 1265
3314 3330 1297
3330 3378 1329
3298 3410 1329
3250 3427 1409
3250 3443 1473
3314 3443 1409
3378 3475 1489
3394 3475 1521
3378 3443 1361
3410 3459 1393
3427 3491 1393
3443 3507 1409
3443 3523 1441
3459 3523 1585
3459 3539 1969
3475 3571 2466
3491 3587 2706
3427 977 865
3443 929 945
3443 929 1137
3507 977 1441
3603 1153 1745
3651 1249 2066
3667 1265 2434
3651 1233 2642
3667 1217 2834
3539 1009 833
3491 945 929
3475 929 1137
3507 993 1441
3555 1089 1745
3651 1265 1969
3731 1393 2194
3747 1425 2498
3731 1441 2706
3523 1217 672
3475 1201 881
3427 1185 1105
3443 1217 1393
3507 1313 1681
3635 1473 1841
3763 1649 2017
3747 1761 2258
3747 1841 2514
3491 1713 528
3427 1681 640
3394 1649 1025
3394 1713 1329
3427 1809 1569
3523 2017 1665
3603 2274 1713
3651 2482 1793
3651 2626 2017
3443 2658 753
3346 2594 833
3314 2434 945
3298 2338 1249
3330 2386 1537
3459 2642 1681
3539 2802 1761
3603 3010 1745
3587 3186 1713
3443 3122 1089
3394 3074 1057
3314 2978 1121
3266 2898 1297
3266 2914 1505
3298 2962 1697
3346 3090 1729
3378 3202 1617
3394 3314 1489
3443 3298 1281
3410 3298 1265
3298 3234 1217
3234 3202 1313
3250 3218 1505
3234 3234 1633
3282 3282 1681
3282 3346 1537
3378 3443 1425
3378 3394 1297
3394 3410 1329
3346 3443 1297
3330 3459 1377
3298 3475 1489
3314 3475 1601
3378 3507 1681
3443 3523 1761
3459 3539 2001
3443 3491 1409
3443 3507 1409
3459 3539 1441
3459 3555 1569
3443 3571 1857
3475 3603 2306
3491 3603 2706
3523 3603 2994
3555 3619 3218
3603 1057 945
3619 1041 1041
3667 1089 1233
3699 1121 1473
3731 1201 1713
3763 1281 2001
3795 1345 2418
3795 1345 2610
3779 1329 2802
3715 1105 945
3731 1089 1041
3715 1073 1169
3731 1137 1409
3763 1233 1649
3779 1361 1825
3811 1473 2130
3811 1537 2450
3811 1601 2626
3699 1393 689
3731 1313 945
3731 1345 1169
3715 1377 1361
3747 1521 1553
3747 1633 1697
3747 1825 1793
3747 2017 1953
3699 2178 2162
3699 2066 576
3667 1953 640
3651 1905 897
3651 1905 1217
3651 2017 1489
3667 2242 1649
3667 2418 1793
3747 2738 1777
3731 2834 1889
3603 3010 1025
3555 2898 1009
3571 2690 1041
3587 2498 1249
3571 2530 1521
3587 2658 1745
3587 2802 1793
3603 3058 1745
3619 3282 1585
3523 3282 1233
3491 3186 1153
3459 3010 1137
3491 2914 1313
3491 2914 1537
3507 2946 1761
3507 3026 1857
3507 3202 1697
3475 3394 1473
3459 3330 1313
3427 3298 1217
3427 3250 1217
3443 3202 1345
3459 3218 1569
3459 3234 1777
3475 3282 1841
3459 3394 1729
3459 3491 1521
3443 3475 1345
3459 3475 1361
3475 3507 1297
3475 3507 1393
3475 3507 1585
3491 3523 1841
3475 3523 2114
3491 3555 2498
3507 3571 2770
3475 3555 1505
3491 3539 1665
3507 3587 1985
3491 3603 2274
3507 3651 2690
3523 3651 2962
3555 3635 3202
3587 3651 3459
3587 3651 3555
3731 1089 977
3747 1105 1105
3795 1137 1265
3795 1169 1473
3811 1217 1745
3811 1329 2066
3827 1393 2306
3811 1393 2562
3811 1409 2738
3779 1201 993
3779 1217 1105
3779 1217 1233
3795 1297 1425
3795 1361 1585
3811 1457 1793
3811 1537 2033
3811 1665 2274
3811 1761 2498
3747 1633 705
3827 1569 1057
3811 1601 1137
3811 1697 1297
3811 1793 1457
3779 1889 1617
3747 2162 1681
3699 2370 1777
3699 2498 1969
3651 2674 833
3715 2578 753
3779 2338 865
3811 2290 1201
3827 2290 1457
3811 2434 1649
3779 2626 1745
3747 2914 1697
3731 3026 1729
3619 3154 1137
3619 3106 1105
3715 2866 1121
3763 2738 1265
3811 2642 1521
3779 2706 1729
3731 2866 1793
3667 3106 1729
3587 3346 1473
3523 3314 1265
3555 3218 1185
3635 3058 1169
3715 2946 1345
3731 2930 1553
3747 2962 1793
3699 3026 1905
3587 3218 1777
3539 3459 1441
3443 3410 1345
3523 3346 1217
3603 3298 1217
3699 3234 1377
3715 3234 1585
3731 3266 1809
3667 3314 1953
3603 3410 2001
3539 3539 2066
3491 3507 1377
3507 3539 1393
3587 3539 1377
3651 3523 1553
3699 3523 1905
3651 3523 2306
3619 3555 2802
3603 3603 3026
3571 3619 3234
3507 3571 2178
3507 3587 2578
3555 3635 2850
3603 3667 2914
3635 3667 3090
3635 3715 3314
3603 3715 3603
3571 3715 3827
3571 3747 3907
