其他预设/【236】赛博朋克风调色预设/【后期菌】视频调色预设/3DL/Sunset 06.3dl
# LUT by SparkleStock. Enhanced with VOXCOLOR algorithms.
0 256 512 768 1023
32 512 224
48 528 464
112 544 817
288 560 1409
464 544 2162
80 769 432
96 785 689
240 801 1137
416 833 1745
576 865 2290
144 1329 705
208 1409 961
320 1537 1345
544 1697 1857
689 1809 2242
544 2498 1121
737 2578 1281
1121 2786 1489
1425 2946 1729
1697 3122 1937
2001 3346 1569
2322 3459 1681
2562 3507 1777
2754 3635 1889
2882 3683 1953
496 496 320
672 480 560
897 464 913
929 464 1553
833 496 2226
1713 576 480
2242 512 769
929 769 1249
849 833 1761
1057 881 2242
1937 1393 737
1233 1745 1073
1393 1953 1393
1617 2082 1777
1953 2258 2162
2994 2674 1297
2450 2946 1489
2514 3106 1649
2658 3218 1777
2802 3314 1905
3234 3507 1713
3234 3651 1809
3186 3747 1937
3266 3795 1985
3459 3859 2066
1857 480 480
2242 480 737
2674 464 1153
2930 464 1713
3122 480 2274
3122 608 753
3427 592 897
3523 608 1201
3394 592 1505
3090 689 2033
2994 1809 1009
3346 1793 1201
3378 1921 1521
2818 2498 1761
2866 2722 1969
3314 3106 1537
3330 3202 1585
3154 3410 1777
3154 3507 1873
3250 3603 1969
3539 3779 1905
3619 3827 1969
3651 3859 2033
3715 3923 2210
3779 3939 2386
3282 464 705
3443 496 913
3587 496 1233
3667 496 1649
3763 496 2066
3651 737 913
3731 721 1041
3763 689 1153
3779 705 1361
3827 769 1585
3443 2322 1265
3507 2418 1425
3555 2434 1617
3603 2690 1793
3555 2930 1905
3523 3459 1745
3507 3491 1761
3539 3555 1809
3603 3715 1985
3619 3795 2066
3763 3891 2066
3779 3939 2178
3859 3955 2402
3907 3955 2722
3907 3939 3074
3795 512 833
3875 512 993
3907 528 1249
3955 544 1569
3939 560 1873
3795 1201 1089
3907 1009 1217
3891 1249 1393
3859 1537 1569
3859 1825 1761
3635 2850 1521
3619 2946 1569
3619 2930 1681
3667 3154 1809
3715 3330 1921
3683 3715 1905
3699 3747 1937
3731 3795 1985
3795 3811 2130
3875 3891 2418
3875 3955 2498
3907 3923 2850
3939 3987 3186
3987 3987 3507
3987 3987 3875
