其他预设/【236】赛博朋克风调色预设/【后期菌】视频调色预设/3DL/Sunset 09.3dl
# LUT by SparkleStock. Enhanced with VOXCOLOR algorithms.
0 128 256 384 512 640 768 896 1023
48 16 16
128 32 208
96 64 464
96 128 849
128 192 1297
144 336 1681
192 544 2033
256 672 2322
288 785 2546
160 304 224
128 304 416
192 352 705
192 400 1105
224 512 1489
256 624 1873
320 769 2194
368 881 2418
416 977 2578
272 608 416
352 656 672
336 640 913
384 689 1297
496 817 1713
544 945 2082
592 1041 2338
656 1169 2530
721 1249 2658
544 1089 672
624 1137 913
737 1089 1105
785 1137 1441
785 1201 1777
833 1297 2098
961 1393 2290
1041 1489 2466
1169 1601 2594
881 1633 881
993 1713 1121
1057 1729 1313
1121 1713 1473
1169 1729 1729
1297 1825 1969
1377 1921 2162
1425 1969 2370
1553 2033 2450
1201 2210 1073
1313 2306 1281
1441 2322 1425
1553 2386 1649
1665 2418 1841
1793 2482 1985
1921 2514 2114
2050 2562 2178
2162 2594 2274
1697 2642 1137
1857 2706 1281
1921 2722 1409
2082 2770 1537
2210 2850 1729
2338 2898 1921
2466 2962 2017
2530 2978 2130
2674 3058 2258
2194 2930 977
2290 2946 1041
2370 2994 1137
2450 3058 1217
2546 3106 1297
2642 3154 1425
2754 3202 1473
2802 3218 1569
2850 3250 1649
2466 3170 865
2578 3234 913
2658 3250 945
2706 3298 1009
2786 3346 1057
2866 3378 1153
2930 3443 1217
2978 3475 1249
3010 3491 1313
352 48 144
480 64 352
512 128 576
592 160 881
624 240 1297
448 448 1777
448 624 2146
496 737 2418
528 865 2594
769 272 304
913 304 544
785 416 753
721 544 1153
576 672 1633
576 769 2017
624 865 2258
656 993 2466
769 1105 2642
1185 592 576
913 753 801
929 817 1057
929 897 1377
817 1009 1809
897 1105 2114
945 1217 2322
1105 1361 2498
1185 1457 2674
1425 1025 544
1041 1281 1009
1137 1329 1233
1153 1361 1441
1297 1457 1745
1329 1505 2001
1393 1633 2226
1537 1745 2386
1665 1889 2546
1553 1665 464
1409 1921 1233
1473 1969 1377
1553 2017 1569
1681 2082 1745
1825 2130 1889
1953 2226 2082
2050 2274 2194
2162 2338 2338
2274 2146 208
1761 2402 1233
1841 2482 1441
2033 2578 1681
2130 2594 1857
2274 2674 2033
2450 2738 2178
2514 2786 2322
2642 2866 2434
2738 2658 256
2338 2802 897
2338 2818 1169
2450 2898 1297
2530 2946 1457
2642 3010 1569
2706 3042 1697
2786 3074 1793
2866 3122 1889
2946 3010 336
2706 3090 721
2658 3138 945
2738 3202 1089
2770 3218 1169
2850 3282 1217
2914 3314 1281
2962 3346 1361
3010 3394 1393
3010 3282 416
2914 3314 576
2962 3378 817
2946 3394 977
2994 3459 1041
3026 3459 1089
3074 3507 1153
3138 3539 1233
3186 3571 1281
753 80 208
881 112 432
1025 176 721
1201 224 1041
1361 304 1377
1313 464 1665
1297 592 1985
1025 737 2338
1041 849 2562
1521 368 448
1825 400 640
2001 448 833
2001 560 1265
2001 656 1633
1777 737 1825
1153 1009 2210
1137 1105 2434
1217 1217 2578
2354 689 480
2754 705 753
2770 769 929
2130 977 1441
1505 1249 1665
1377 1313 2001
1505 1425 2194
1601 1521 2386
1729 1633 2498
2546 1089 368
2562 1153 721
2162 1329 1233
2050 1505 1569
1841 1777 1857
1841 1825 1969
2017 1985 2162
2098 2050 2306
2194 2162 2450
2466 1761 176
2354 1889 544
1905 2146 1393
2017 2258 1665
2114 2322 1905
2242 2418 2098
2370 2466 2290
2482 2562 2418
2546 2610 2514
2898 2322 144
2834 2466 416
2338 2610 1249
2434 2674 1425
2578 2754 1633
2690 2770 1809
2818 2866 1953
2882 2946 2098
2946 2962 2194
3106 2770 144
3026 2834 336
2802 2994 945
2802 3026 1089
2850 3090 1249
2898 3090 1329
2962 3138 1441
2978 3186 1537
3058 3250 1601
3186 3122 176
3138 3186 400
3026 3202 689
2962 3298 945
3010 3346 1057
3026 3346 1073
3074 3410 1169
3106 3443 1233
3154 3459 1297
3218 3346 352
3218 3410 544
3218 3427 689
3138 3475 929
3154 3539 1089
3218 3571 1153
3218 3571 1201
3314 3619 1249
3394 3651 1313
1521 160 368
1745 224 544
2001 288 785
2146 352 1089
2306 400 1457
2402 480 1777
2658 592 2066
2770 656 2210
2210 817 2386
2546 512 512
2690 544 640
2866 608 833
2946 624 1105
3010 689 1441
2866 769 1857
2770 929 2114
2610 1041 2258
2370 1169 2370
2914 865 560
3106 801 817
3154 833 961
3234 897 1185
3058 1009 1457
2994 1185 1793
2754 1393 2114
2162 1649 2178
2210 1825 2338
3010 1249 336
3106 1265 592
3330 1217 1057
3250 1297 1281
2754 1729 1649
2402 2050 2066
2338 2146 2290
2482 2290 2450
2530 2354 2514
2962 1889 144
2994 1937 336
3042 1953 753
2850 2194 1329
2914 2306 1553
2738 2498 1937
2818 2610 2162
2850 2690 2338
2850 2754 2466
3154 2466 144
3154 2450 144
3138 2610 496
2882 2818 1265
2898 2866 1409
2962 2930 1569
2994 2978 1745
3042 3026 1857
3074 3074 1937
3234 2882 128
3298 2962 208
3250 3058 432
3058 3170 977
3074 3186 1089
3058 3202 1185
3090 3250 1265
3154 3330 1345
3170 3330 1393
3282 3218 208
3282 3250 288
3282 3314 496
3202 3394 833
3202 3410 961
3186 3443 1105
3218 3475 1153
3282 3539 1249
3298 3539 1265
3346 3459 560
3362 3491 672
3378 3523 785
3394 3571 945
3346 3603 1105
3378 3635 1201
3459 3683 1281
3475 3699 1329
3523 3699 1409
2514 384 464
2690 400 560
2802 432 769
2898 432 1057
2994 496 1393
3026 640 1809
3042 737 2114
3122 785 2290
3186 817 2434
3026 672 624
3138 672 769
3202 705 897
3250 721 1137
3298 737 1409
3314 817 1697
3314 929 1921
3314 1009 2162
3314 1121 2338
3122 977 624
3330 961 897
3394 977 1025
3443 1025 1201
3475 1057 1393
3459 1057 1601
3298 1281 1889
3154 1521 2178
2978 1729 2354
3170 1329 384
3282 1377 656
3443 1377 1089
3410 1425 1281
3410 1489 1409
3314 1665 1681
3218 1857 1857
3154 2146 2098
2866 2466 2450
3138 2050 128
3202 2050 208
3427 1985 528
3475 1985 993
3410 2194 1329
3218 2466 1633
3138 2722 1921
3106 2818 2098
3122 2882 2226
3298 2530 112
3298 2594 144
3330 2690 224
3362 2786 608
3234 2946 1217
3250 3010 1313
3186 3058 1425
3218 3138 1553
3218 3170 1633
3346 3042 128
3330 3042 176
3346 3106 272
3314 3154 464
3234 3314 1009
3186 3330 1121
3234 3362 1185
3298 3427 1265
3314 3443 1313
3362 3362 352
3378 3362 448
3410 3427 624
3410 3443 689
3362 3523 977
3330 3539 1137
3394 3587 1217
3443 3619 1281
3459 3635 1329
3443 3555 801
3459 3571 849
3507 3603 945
3555 3635 1057
3539 3635 1089
3539 3699 1313
3603 3747 1505
3635 3747 1601
3699 3779 1825
3010 512 544
3090 528 640
3186 576 801
3250 592 1057
3298 608 1377
3314 705 1713
3314 785 2001
3346 913 2210
3394 993 2386
3250 737 705
3362 769 833
3410 785 945
3443 785 1105
3475 817 1329
3475 849 1585
3459 945 1825
3459 1105 2082
3475 1217 2226
3314 1153 705
3443 1041 961
3491 1105 1089
3539 1185 1233
3539 1185 1377
3539 1249 1537
3539 1281 1713
3539 1393 1857
3539 1569 2050
3346 1473 352
3427 1537 608
3491 1553 977
3491 1601 1169
3539 1761 1329
3523 1777 1489
3539 1937 1713
3491 2114 1937
3427 2290 2098
3298 2226 144
3378 2274 240
3491 2162 528
3571 2146 849
3555 2242 1121
3619 2418 1297
3571 2562 1457
3539 2754 1649
3475 2882 1793
3427 2754 128
3410 2818 144
3410 2850 224
3523 2866 432
3507 2914 608
3475 3042 1105
3346 3170 1217
3314 3234 1345
3362 3298 1425
3443 3186 208
3410 3186 256
3443 3234 384
3443 3314 512
3410 3362 721
3362 3378 1041
3394 3459 1169
3410 3507 1265
3410 3539 1281
3443 3443 560
3459 3459 672
3491 3507 769
3523 3571 913
3507 3571 993
3523 3619 1185
3507 3635 1249
3571 3683 1361
3603 3699 1457
3555 3619 977
3587 3651 1041
3603 3667 1121
3651 3699 1281
3683 3731 1393
3715 3763 1553
3731 3795 1809
3779 3811 2114
3811 3811 2354
3282 592 640
3330 592 705
3378 624 833
3410 640 1041
3491 640 1377
3507 721 1649
3491 849 1921
3491 945 2114
3507 1057 2290
3443 833 801
3491 849 897
3539 881 1009
3587 945 1153
3587 929 1297
3587 945 1505
3571 1025 1713
3587 1169 1953
3571 1297 2162
3410 1265 721
3523 1249 993
3555 1249 1121
3587 1297 1281
3635 1377 1409
3619 1425 1553
3619 1505 1681
3635 1649 1809
3635 1745 1953
3475 1617 288
3555 1713 560
3603 1761 945
3635 1841 1089
3587 1921 1233
3603 2050 1377
3619 2162 1489
3619 2274 1633
3635 2402 1793
3443 2386 160
3475 2466 208
3587 2434 560
3667 2418 833
3651 2434 1025
3715 2594 1137
3715 2690 1265
3683 2786 1345
3667 2930 1425
3475 2930 112
3491 2978 144
3475 3010 240
3507 3026 384
3523 3058 512
3587 3090 945
3587 3154 1025
3555 3250 1121
3539 3346 1217
3523 3314 368
3507 3362 480
3475 3330 528
3491 3394 689
3507 3394 769
3507 3459 913
3523 3523 1137
3491 3555 1201
3571 3619 1313
3539 3539 817
3555 3555 881
3571 3571 961
3603 3603 1057
3619 3619 1089
3635 3651 1249
3651 3699 1425
3715 3731 1633
3747 3763 1825
3651 3667 1169
3683 3699 1281
3715 3731 1425
3763 3747 1553
3811 3795 1793
3843 3827 2033
3859 3827 2338
3875 3843 2674
3891 3875 2898
3459 672 737
3491 721 817
3539 737 913
3571 737 1073
3619 721 1313
3635 753 1569
3651 881 1857
3651 1009 2033
3635 1121 2210
3555 913 881
3603 977 977
3603 993 1057
3651 1057 1185
3667 1105 1329
3667 1121 1457
3699 1201 1649
3699 1265 1873
3715 1393 2033
3507 1425 640
3571 1409 993
3603 1441 1137
3619 1489 1249
3651 1601 1425
3651 1633 1553
3667 1729 1697
3683 1905 1841
3667 2050 1953
3587 1873 240
3651 1921 448
3683 1937 705
3667 2033 961
3683 2130 1089
3699 2258 1217
3699 2338 1361
3731 2514 1537
3747 2578 1649
3571 2642 144
3571 2722 192
3603 2706 400
3699 2610 769
3715 2674 913
3731 2834 961
3731 2850 1041
3747 2946 1153
3747 3058 1265
3587 3074 144
3555 3106 240
3507 3138 304
3523 3154 480
3539 3218 608
3651 3218 897
3651 3298 1041
3699 3378 1169
3667 3459 1249
3555 3410 576
3539 3427 656
3555 3459 769
3539 3491 849
3571 3507 913
3619 3523 1041
3651 3555 1169
3715 3603 1329
3715 3651 1441
3651 3619 1009
3667 3651 1089
3683 3651 1169
3699 3667 1281
3715 3683 1409
3763 3731 1569
3779 3763 1777
3811 3779 2033
3827 3795 2386
3779 3747 1521
3795 3763 1633
3843 3811 1889
3843 3811 2066
3859 3811 2450
3907 3843 2706
3907 3875 2930
3971 3907 3186
3971 3907 3346
3587 753 801
3635 785 881
3683 817 961
3699 817 1073
3731 817 1297
3763 881 1553
3763 961 1777
3715 1057 1985
3715 1185 2130
3619 1089 913
3635 1089 1009
3667 1089 1121
3715 1169 1249
3715 1217 1345
3731 1297 1473
3747 1377 1665
3763 1473 1809
3763 1569 1953
3587 1553 496
3667 1601 913
3667 1633 1041
3683 1713 1169
3699 1825 1281
3683 1921 1393
3699 2050 1521
3715 2194 1665
3715 2290 1825
3587 2258 192
3715 2226 400
3747 2194 656
3747 2290 881
3747 2354 993
3763 2482 1153
3779 2594 1281
3795 2706 1409
3795 2770 1425
3619 2818 128
3619 2866 160
3651 2882 304
3699 2930 560
3731 2914 801
3731 2978 865
3715 3058 977
3747 3138 1073
3747 3218 1185
3619 3202 304
3603 3250 416
3555 3298 528
3587 3330 656
3587 3346 769
3667 3378 1025
3683 3410 1105
3683 3443 1185
3747 3523 1281
3619 3507 817
3635 3523 897
3635 3523 945
3667 3587 1041
3667 3587 1073
3699 3603 1233
3747 3635 1393
3779 3667 1569
3827 3715 1825
3715 3683 1217
3747 3699 1345
3763 3715 1457
3795 3731 1617
3811 3747 1777
3827 3763 2033
3859 3779 2322
3907 3827 2658
3939 3875 2946
3875 3827 1969
3875 3811 2274
3907 3827 2562
3939 3875 2818
3907 3891 3026
3939 3891 3170
4003 3939 3507
4003 3955 3795
3971 3971 3955
