其他预设/【236】赛博朋克风调色预设/【后期菌】视频调色预设/3DL/Sunset 01_S.3dl
# LUT by SparkleStock. Enhanced with VOXCOLOR algorithms.
0 64 128 192 256 320 384 448 512 576 640 704 768 832 896 960 1023
32 16 16
32 32 48
32 32 64
48 48 96
48 32 112
64 48 176
80 64 240
80 64 320
96 96 464
112 128 705
128 128 897
176 176 1201
208 240 1537
224 304 1825
288 416 2178
304 528 2402
352 656 2610
48 48 48
48 48 64
48 48 80
48 48 112
64 48 160
80 64 208
80 80 288
96 112 448
128 128 624
144 160 881
192 208 1169
192 240 1409
224 320 1761
272 416 2066
304 512 2306
336 656 2562
368 817 2738
64 64 64
48 64 80
64 64 96
96 96 176
96 96 224
96 96 272
112 128 432
128 160 608
160 176 817
176 224 1089
208 272 1409
240 352 1665
256 416 1985
304 544 2306
336 656 2498
368 849 2706
384 961 2818
80 96 80
80 80 112
96 112 160
112 128 208
112 144 288
128 160 416
128 176 512
160 224 721
176 272 1025
224 336 1377
240 368 1585
272 496 1953
304 576 2194
336 721 2466
368 849 2610
400 1009 2802
416 1105 2898
80 144 112
112 176 160
112 192 208
112 224 272
128 224 352
160 288 528
160 256 640
192 336 945
240 400 1281
272 464 1569
304 576 1857
320 672 2146
368 833 2418
400 945 2578
432 1105 2770
416 1153 2850
464 1281 2962
96 256 160
112 272 208
144 336 304
160 368 400
176 400 512
192 384 640
224 448 897
240 512 1121
288 624 1473
320 705 1761
320 785 2001
384 913 2242
432 1041 2450
464 1169 2642
496 1297 2786
560 1441 2898
560 1521 2978
128 496 256
144 528 336
176 560 400
192 592 480
224 640 624
240 672 801
304 817 1073
336 865 1345
368 929 1585
416 1041 1873
448 1121 2130
464 1249 2354
544 1361 2530
544 1409 2658
640 1569 2818
705 1697 2930
753 1825 3042
176 769 368
240 929 496
272 945 592
288 993 721
336 1089 849
352 1137 993
384 1185 1201
448 1265 1473
464 1377 1681
544 1409 1937
592 1505 2178
672 1633 2370
721 1729 2546
785 1825 2706
881 2017 2834
993 2098 2946
1009 2146 3026
272 1249 560
320 1265 624
400 1425 753
480 1489 865
464 1489 929
560 1617 1185
592 1633 1297
705 1793 1585
672 1825 1761
833 1953 2050
897 2066 2258
977 2082 2434
1073 2242 2594
1185 2274 2706
1201 2354 2834
1329 2434 2930
1377 2466 2978
432 1713 672
480 1761 737
624 1873 801
640 1969 913
849 2050 1041
913 2082 1233
977 2226 1473
1073 2258 1665
1153 2354 1857
1201 2386 2050
1265 2450 2226
1393 2546 2402
1409 2578 2530
1457 2594 2690
1681 2690 2770
1681 2722 2850
1825 2754 2946
769 2162 737
833 2242 801
993 2322 865
1105 2354 945
1185 2418 1057
1249 2482 1201
1361 2546 1409
1521 2578 1585
1553 2610 1809
1745 2722 1969
1809 2754 2178
1857 2802 2386
1969 2866 2530
1985 2850 2546
2162 2914 2674
2226 2946 2770
2274 2962 2850
1201 2482 672
1265 2562 785
1409 2578 833
1521 2642 897
1617 2690 977
1745 2754 1137
1905 2818 1249
2033 2850 1425
2178 2882 1617
2226 2898 1793
2322 2978 2001
2418 2994 2130
2370 2994 2306
2562 3058 2418
2562 3074 2514
2610 3090 2578
2626 3122 2738
1713 2770 672
1873 2802 705
2001 2834 753
2050 2866 801
2098 2898 897
2338 2978 1041
2370 2994 1121
2418 3010 1265
2594 3090 1393
2674 3090 1553
2722 3138 1761
2690 3154 1889
2834 3186 2017
2866 3202 2146
2882 3202 2226
2914 3218 2306
2994 3266 2434
2130 2962 624
2386 3026 656
2402 3042 705
2530 3058 737
2610 3090 849
2690 3138 945
2658 3122 1057
2802 3170 1185
2882 3202 1329
2802 3202 1457
2898 3234 1537
2930 3266 1697
3010 3266 1745
3074 3282 1809
3090 3298 1953
3138 3314 2001
3074 3314 2098
2546 3154 528
2626 3170 576
2674 3202 624
2754 3218 705
2802 3234 769
2914 3250 833
3010 3282 929
2946 3282 1009
3010 3298 1105
3058 3330 1249
3074 3330 1345
3202 3362 1409
3186 3378 1505
3234 3362 1601
3202 3378 1665
3218 3394 1761
3282 3394 1809
2898 3282 528
2834 3282 544
2994 3298 576
3042 3314 656
3106 3346 721
3122 3362 769
3138 3362 849
3122 3394 929
3154 3410 1009
3250 3410 1089
3266 3410 1137
3298 3410 1185
3330 3427 1265
3346 3443 1377
3378 3443 1409
3314 3443 1473
3330 3443 1505
3026 3346 512
3074 3362 560
3138 3394 624
3186 3394 656
3202 3410 672
3202 3410 737
3218 3410 753
3298 3427 865
3314 3427 881
3330 3427 929
3362 3459 1041
3378 3459 1073
3410 3475 1121
3394 3475 1137
3427 3475 1233
3427 3475 1249
3459 3491 1265
48 32 48
32 16 48
48 48 96
64 48 112
64 48 128
80 48 192
80 64 256
96 64 336
128 96 528
144 128 769
176 160 1041
192 192 1281
224 256 1569
256 336 1921
288 448 2226
320 560 2466
368 705 2642
48 48 64
64 32 80
96 64 128
96 48 144
80 48 176
80 48 224
112 96 368
128 128 544
144 144 737
160 176 977
208 224 1281
240 304 1601
256 368 1889
288 464 2178
320 576 2402
352 721 2610
384 833 2738
80 80 80
80 64 96
112 80 144
128 80 192
128 96 256
128 112 336
144 144 544
144 176 721
192 224 977
224 272 1281
256 336 1553
256 384 1825
304 480 2098
336 608 2370
352 721 2530
400 881 2722
416 977 2834
112 96 112
128 112 160
144 128 208
144 144 272
144 144 320
160 176 448
176 224 656
208 272 945
224 304 1153
272 384 1505
288 464 1761
320 544 2050
352 656 2338
384 817 2530
416 913 2658
448 1073 2834
448 1153 2898
160 160 144
144 192 192
128 208 256
144 256 320
160 272 432
192 304 624
224 336 849
240 384 1105
288 480 1441
304 528 1665
368 705 2001
384 769 2226
416 849 2418
464 993 2594
528 1137 2754
512 1217 2850
544 1345 2946
224 240 176
160 304 272
160 320 320
208 384 432
192 400 528
240 448 721
304 560 993
304 592 1233
352 672 1569
416 833 1857
448 897 2066
480 1009 2322
544 1121 2498
592 1265 2674
640 1409 2818
721 1505 2914
737 1617 2978
288 528 256
224 576 352
256 608 448
288 705 576
336 737 737
384 865 977
416 913 1153
432 993 1361
512 1041 1649
592 1185 1937
672 1281 2194
640 1313 2370
753 1489 2546
817 1617 2722
833 1713 2818
929 1809 2914
1041 1953 3026
400 833 304
352 1009 512
384 1041 608
416 1073 705
496 1233 849
512 1249 1057
640 1377 1281
656 1409 1473
737 1457 1729
785 1553 1937
929 1697 2226
913 1745 2418
1009 1873 2578
1201 2001 2706
1169 2050 2834
1313 2226 2930
1329 2258 3010
705 1265 400
608 1537 656
656 1537 737
737 1585 801
817 1681 961
913 1793 1169
977 1841 1329
961 1905 1585
1041 2033 1825
1233 2130 2066
1233 2162 2226
1217 2242 2402
1377 2322 2530
1585 2402 2642
1633 2498 2786
1729 2530 2866
1809 2610 2946
1393 1697 336
865 1985 721
1073 2066 785
1073 2082 881
1217 2210 1041
1329 2274 1217
1409 2338 1393
1537 2386 1569
1553 2434 1761
1649 2498 2001
1697 2530 2162
1777 2594 2338
1873 2642 2498
1985 2690 2610
2050 2738 2690
2082 2770 2754
2258 2850 2866
1857 2146 352
1233 2354 753
1457 2402 785
1553 2514 881
1633 2514 961
1697 2594 1121
1921 2642 1313
1953 2690 1489
2066 2770 1681
2114 2770 1857
2162 2802 2066
2290 2882 2242
2338 2914 2322
2434 2946 2498
2514 2962 2562
2578 2994 2674
2706 3042 2738
2146 2450 336
1921 2658 624
2001 2690 656
2082 2738 801
2146 2786 881
2274 2882 1025
2290 2882 1153
2370 2930 1377
2498 2962 1521
2642 3010 1697
2642 2994 1841
2722 3042 2017
2722 3090 2130
2818 3106 2274
2802 3138 2418
2898 3154 2466
2882 3186 2610
2594 2754 304
2402 2882 512
2530 2914 544
2530 2946 624
2594 2994 801
2610 3010 929
2754 3042 1009
2802 3074 1153
2834 3122 1361
2946 3122 1425
2978 3170 1601
2946 3170 1745
3010 3202 1793
3058 3234 1969
3074 3250 2033
3106 3266 2178
3138 3266 2210
2866 2962 288
2674 3026 464
2738 3074 528
2866 3154 608
2898 3170 801
2930 3170 881
2962 3202 977
3026 3218 1073
3042 3234 1249
3058 3250 1297
3122 3266 1377
3106 3298 1553
3186 3314 1553
3218 3330 1617
3234 3330 1793
3250 3346 1841
3218 3346 1921
2914 3138 288
2930 3186 368
2962 3202 416
2978 3250 528
2994 3298 705
3122 3314 785
3106 3314 849
3090 3330 961
3138 3346 1041
3170 3362 1121
3186 3362 1249
3282 3378 1249
3234 3378 1377
3314 3394 1457
3266 3394 1601
3314 3410 1617
3362 3410 1633
3122 3234 288
3074 3314 384
3154 3314 416
3202 3330 480
3186 3362 640
3234 3378 737
3234 3378 769
3202 3410 865
3250 3427 945
3330 3427 993
3346 3427 1073
3378 3443 1105
3394 3443 1185
3394 3443 1233
3427 3459 1281
3346 3443 1345
3394 3459 1457
3250 3346 320
3250 3378 400
3282 3394 432
3266 3410 496
3314 3427 640
3298 3410 705
3346 3459 769
3378 3459 785
3378 3459 849
3410 3475 929
3410 3475 961
3410 3459 977
3427 3475 1009
3443 3475 1025
3443 3475 1105
3507 3507 1153
3491 3491 1169
48 32 64
64 32 80
96 48 112
96 48 128
128 64 176
128 48 224
144 64 304
160 80 416
176 80 560
176 128 801
176 160 1073
240 224 1441
272 288 1713
288 384 2066
336 496 2322
368 624 2546
384 753 2690
80 48 80
112 48 112
144 64 128
144 64 160
144 80 224
160 80 304
160 112 400
160 112 528
208 160 801
208 176 1009
240 256 1377
256 304 1649
288 384 1921
320 480 2210
352 624 2466
384 753 2642
432 881 2770
176 80 96
208 80 128
272 96 176
272 96 240
240 96 304
224 112 368
208 160 544
192 208 833
224 240 1089
240 272 1313
272 368 1665
304 448 1937
336 528 2178
384 656 2434
400 785 2610
432 929 2754
464 1041 2866
272 112 112
304 144 176
352 160 224
352 160 304
320 176 384
288 192 528
272 224 656
256 288 1025
272 336 1297
320 464 1617
336 496 1841
384 608 2130
416 705 2354
480 865 2562
528 993 2706
512 1073 2802
576 1249 2914
528 192 176
320 224 224
320 240 272
320 256 368
336 304 528
320 336 705
336 368 913
352 448 1217
368 528 1521
384 608 1761
448 737 2050
512 849 2274
512 945 2450
576 1057 2610
656 1217 2754
656 1297 2866
737 1441 2978
817 272 192
464 304 272
320 384 352
336 480 512
368 544 656
400 656 929
432 705 1121
432 753 1345
496 801 1601
544 897 1873
640 1025 2146
640 1105 2354
737 1265 2546
801 1393 2690
849 1457 2818
977 1601 2882
1073 1745 2978
929 448 176
608 512 352
464 721 528
560 817 640
544 881 833
576 1057 1009
576 1009 1185
705 1137 1489
817 1233 1729
817 1265 1937
881 1361 2146
961 1457 2354
1025 1633 2578
1153 1777 2706
1217 1825 2802
1201 1937 2882
1361 2098 3010
1169 881 176
913 977 336
656 1185 624
737 1233 753
833 1345 881
897 1505 1121
897 1473 1281
1009 1569 1505
1057 1697 1809
1185 1793 2001
1185 1841 2194
1265 1905 2402
1425 2082 2546
1505 2178 2706
1633 2242 2802
1745 2354 2914
1729 2370 2978
1489 1313 224
1297 1489 384
1041 1777 721
1057 1809 817
1153 1889 1009
1393 1969 1169
1313 2001 1361
1457 2130 1585
1505 2194 1825
1553 2258 2050
1697 2322 2162
1713 2370 2354
1889 2482 2530
1825 2482 2626
1985 2578 2722
2130 2642 2818
2098 2674 2914
2178 1713 160
1745 2050 432
1409 2194 785
1617 2290 865
1697 2354 993
1841 2386 1137
1729 2434 1329
1953 2498 1489
1921 2514 1713
2001 2562 1921
2178 2674 2098
2146 2706 2274
2242 2738 2450
2274 2738 2562
2482 2850 2578
2418 2850 2722
2578 2914 2770
2674 2098 144
2322 2290 288
1857 2514 721
1969 2562 833
2017 2642 929
2194 2690 1073
2322 2786 1297
2226 2786 1409
2402 2818 1585
2594 2914 1793
2546 2882 1969
2562 2898 2130
2706 2962 2258
2770 3010 2386
2786 3026 2514
2818 3042 2578
2882 3090 2674
2914 2498 176
2626 2578 272
2434 2818 608
2482 2850 737
2514 2882 849
2562 2930 1025
2626 2962 1137
2690 2994 1281
2834 3042 1441
2898 3074 1569
2914 3090 1761
2978 3122 1937
2946 3122 2017
2978 3154 2210
2962 3186 2290
3010 3202 2354
3058 3234 2482
3122 2770 176
2930 2818 240
2834 2994 480
2834 2994 544
2834 3026 753
2882 3074 897
3010 3122 977
3042 3154 1089
3058 3170 1281
3090 3170 1345
3122 3218 1441
3122 3250 1617
3186 3250 1649
3234 3266 1841
3234 3282 1873
3266 3314 1985
3266 3314 2050
3234 2978 192
3042 3010 240
2994 3122 432
3010 3138 496
3074 3202 624
3058 3218 785
3106 3266 929
3138 3250 977
3218 3298 1089
3202 3314 1153
3266 3314 1265
3234 3330 1377
3298 3346 1457
3314 3346 1537
3346 3362 1633
3362 3378 1681
3330 3394 1761
3266 3138 192
3186 3170 240
3122 3250 368
3122 3282 464
3138 3314 624
3218 3346 737
3250 3362 865
3218 3378 913
3234 3362 1009
3282 3394 1073
3282 3394 1153
3330 3394 1169
3330 3410 1265
3394 3410 1345
3362 3427 1441
3362 3427 1473
3443 3427 1457
3346 3234 224
3282 3298 256
3282 3314 304
3314 3346 368
3298 3378 544
3298 3410 705
3362 3427 769
3298 3443 817
3330 3443 881
3378 3427 913
3410 3459 977
3410 3459 993
3410 3443 1073
3427 3475 1121
3459 3475 1153
3410 3459 1217
3427 3475 1297
3394 3362 272
3410 3362 288
3362 3378 320
3378 3410 368
3410 3427 496
3378 3443 656
3410 3459 705
3410 3459 785
3427 3491 801
3443 3475 817
3459 3491 865
3459 3491 881
3475 3491 977
3507 3507 993
3539 3507 1025
3539 3523 1041
3555 3523 1073
80 32 64
112 48 96
144 64 128
176 64 160
192 80 224
224 80 288
272 96 384
288 96 496
336 112 640
320 144 897
304 176 1201
320 224 1505
320 272 1729
352 384 2082
352 496 2338
384 592 2514
416 769 2706
176 64 96
208 64 112
224 64 144
272 80 208
288 96 320
352 112 400
336 112 496
352 160 656
400 176 849
448 208 1137
368 240 1377
352 320 1713
384 432 2050
368 512 2290
416 672 2530
432 785 2674
