其他预设/【236】赛博朋克风调色预设/【后期菌】视频调色预设/3DL/Sunset 01.3dl
# LUT by SparkleStock. Enhanced with VOXCOLOR algorithms.
0 256 512 768 1023
32 16 16
48 32 112
96 96 464
208 240 1537
352 656 2610
80 144 112
128 224 352
240 400 1281
368 833 2418
480 1281 2946
272 1249 560
480 1473 929
672 1825 1761
1073 2242 2594
1377 2466 2978
1713 2770 672
2146 2898 897
2594 3090 1393
2834 3186 2017
2994 3266 2434
3026 3346 512
3202 3410 672
3314 3427 881
3410 3475 1121
3459 3491 1265
160 48 64
336 80 240
656 128 656
817 288 1777
592 769 2674
2386 384 32
2962 448 288
993 624 1537
1073 1105 2450
1361 1585 2898
2834 1473 32
2098 2098 913
2306 2418 1681
2562 2642 2386
2770 2850 2802
3443 2882 144
3218 3154 544
3298 3266 1073
3378 3314 1425
3427 3378 1713
3491 3410 256
3539 3443 352
3539 3507 753
3571 3523 849
3651 3555 929
2498 320 32
2946 400 112
3218 432 705
3298 448 1553
3346 624 2290
3427 592 32
3523 640 352
3539 705 961
3491 897 1777
3330 1457 2546
3475 1953 32
3635 1921 208
3635 2274 1057
3346 2962 1985
3362 3106 2402
3571 3154 160
3571 3234 192
3523 3410 737
3539 3410 1009
3587 3459 1185
3667 3507 368
3683 3523 416
3683 3539 496
3747 3587 1105
3763 3571 1841
3443 528 16
3475 544 224
3507 544 833
3523 592 1585
3555 785 2178
3555 785 80
3603 881 464
3619 1057 993
3635 1281 1601
3683 1665 2130
3603 2482 48
3667 2578 192
3715 2674 656
3763 2946 1025
3731 3154 1361
3667 3378 256
3635 3394 272
3651 3410 336
3651 3459 608
3699 3523 865
3731 3555 528
3763 3555 817
3795 3571 1633
3795 3603 2690
3779 3603 3186
3523 592 80
3555 608 384
3555 640 929
3587 769 1601
3603 961 2098
3619 1233 80
3635 1345 480
3715 1713 913
3747 2066 1361
3779 2418 1841
3747 2978 144
3699 3026 144
3731 3074 496
3747 3218 705
3779 3362 961
3731 3491 352
3731 3491 400
3715 3491 448
3763 3507 849
3811 3555 1841
3811 3571 2017
3795 3587 2898
3779 3619 3298
3779 3619 3475
3795 3651 3667
