其他预设/【236】赛博朋克风调色预设/【后期菌】视频调色预设/3DL/Tokyo 07.3dl
# LUT by SparkleStock. Enhanced with VOXCOLOR algorithms.
0 128 256 384 512 640 768 896 1023
769 192 240
801 192 240
721 208 272
320 352 512
224 624 961
32 929 1681
0 1233 2338
16 1297 2514
32 1393 2706
785 208 256
769 192 240
737 224 288
336 352 528
224 624 961
32 913 1665
0 1201 2306
16 1281 2514
32 1377 2690
769 208 272
769 208 272
656 224 304
320 368 528
192 721 1105
0 1089 1905
0 1281 2402
32 1361 2594
32 1425 2722
416 432 496
448 464 528
416 480 544
224 849 993
16 1313 1921
16 1601 2530
48 1697 2754
48 1681 2818
64 1745 2914
640 1137 1057
656 1201 1137
576 1249 1217
256 1697 1969
80 2162 2706
112 2226 2946
224 2290 3090
288 2322 3202
304 2354 3266
1153 2066 2001
1313 2162 2082
1137 2162 2178
833 2418 2578
464 2626 2914
576 2738 3170
721 2786 3298
801 2786 3362
913 2818 3475
2610 2706 2322
2626 2706 2322
2594 2690 2322
2033 2818 2738
1569 2930 2994
1377 3042 3234
1313 3106 3378
1425 3106 3475
1409 3122 3555
3346 3026 2322
3346 3010 2290
3346 3026 2306
2770 3234 2978
2482 3218 3106
2162 3218 3218
1889 3298 3378
1745 3298 3507
1729 3298 3571
3667 3170 2242
3667 3202 2354
3667 3202 2370
3090 3346 3010
2930 3410 3170
2754 3427 3282
2514 3443 3410
2098 3459 3539
2066 3475 3619
785 192 256
801 208 256
785 208 272
320 352 512
224 592 929
16 913 1665
0 1233 2338
16 1297 2514
32 1393 2706
785 208 256
785 208 256
721 208 272
320 352 528
240 624 961
32 929 1681
0 1201 2306
16 1281 2498
32 1377 2690
769 224 288
769 208 272
672 240 320
320 368 528
192 721 1105
0 1057 1841
0 1249 2354
32 1361 2594
32 1425 2722
416 432 496
432 464 528
416 464 544
208 801 961
16 1345 2001
16 1569 2514
48 1665 2722
64 1713 2834
80 1793 2946
672 1169 1089
640 1201 1137
592 1249 1233
256 1713 1969
80 2194 2722
96 2226 2930
208 2274 3074
272 2306 3170
304 2354 3266
1153 2066 2001
1153 2066 2001
1057 2114 2130
769 2386 2562
464 2594 2898
528 2706 3138
705 2770 3282
801 2802 3362
913 2818 3475
2610 2706 2322
2626 2706 2322
2594 2690 2322
2017 2834 2770
1521 2914 2978
1361 3026 3202
1297 3090 3362
1409 3106 3459
1425 3122 3539
3314 3010 2306
3346 3026 2322
3346 3026 2306
2786 3250 2978
2482 3218 3106
2194 3250 3234
1873 3282 3362
1713 3298 3523
1729 3298 3571
3667 3202 2354
3651 3154 2242
3667 3202 2370
3138 3362 3026
2962 3427 3170
2754 3410 3266
2402 3410 3394
2098 3443 3523
2066 3459 3603
881 208 240
881 208 240
881 224 272
352 368 528
224 608 961
16 961 1745
0 1201 2322
16 1313 2530
32 1409 2706
897 208 256
913 224 272
881 224 272
352 368 544
224 705 1105
16 961 1745
0 1249 2354
16 1313 2530
32 1409 2706
1041 256 288
1041 256 288
961 240 288
384 416 576
192 769 1185
0 1105 1953
16 1329 2466
32 1377 2626
32 1473 2754
480 496 560
496 512 576
448 496 576
272 849 993
32 1377 2033
16 1601 2530
48 1697 2754
64 1745 2866
80 1793 2946
849 1041 881
881 1089 913
624 1313 1281
288 1809 2098
96 2226 2754
128 2226 2946
240 2322 3106
352 2370 3218
352 2386 3298
1857 2082 1825
1857 2082 1825
1105 2178 2194
833 2418 2578
544 2658 2946
576 2738 3154
769 2802 3298
913 2834 3410
945 2834 3475
2946 2706 2066
2914 2626 1953
2658 2786 2450
2050 2834 2754
1649 2946 3010
1345 3026 3202
1361 3122 3378
1473 3122 3475
1489 3154 3555
3523 2994 2082
3539 2994 2050
3378 3010 2258
2882 3250 2962
2546 3250 3138
2210 3234 3218
1889 3282 3362
1777 3314 3523
1777 3314 3587
3811 3042 1793
3811 3074 1873
3747 3138 2114
3250 3346 2962
2994 3443 3186
2818 3443 3298
2466 3410 3378
2194 3459 3523
2130 3491 3619
1793 240 192
1793 256 208
1761 288 256
1313 304 432
416 608 929
64 1041 1905
32 1361 2514
32 1441 2674
48 1489 2770
1793 272 224
1809 256 208
1777 304 272
1249 320 448
448 672 1009
64 1041 1921
32 1377 2546
48 1441 2690
48 1489 2770
1873 304 256
1889 304 256
1841 304 272
1409 384 528
416 721 1089
32 1169 2082
48 1441 2610
32 1473 2706
48 1505 2786
2242 416 336
2258 432 336
2162 416 384
1553 560 737
48 1569 2338
64 1793 2706
80 1841 2850
96 1905 2978
96 1905 3026
2370 1073 384
2402 1073 384
2050 1089 608
288 1985 2306
128 2306 2834
288 2370 3026
416 2434 3186
528 2498 3314
496 2482 3346
3603 1825 80
3555 1777 64
3475 1953 208
1345 2626 2706
913 2738 3010
1025 2882 3250
1041 2882 3330
1217 2930 3459
1233 2914 3523
3859 2178 112
3891 2210 128
3811 2386 256
2834 3042 2786
2146 3074 3058
1761 3122 3250
1633 3202 3410
1729 3234 3539
1729 3218 3587
4035 2546 192
4003 2498 176
4003 2626 384
3635 3218 2530
2802 3330 3154
2578 3314 3266
2114 3330 3410
1921 3362 3555
2050 3427 3667
4035 2850 336
4035 2850 336
4035 2898 640
3955 3122 1777
3202 3475 3202
3042 3507 3314
2898 3539 3459
2578 3555 3571
2466 3571 3651
2722 400 96
2722 400 96
2674 368 128
2210 368 464
1329 592 1041
304 1185 2114
192 1233 2338
112 1281 2530
176 1329 2674
2722 400 96
2738 416 112
2674 400 176
2226 384 480
1393 592 1009
320 1153 2066
192 1233 2338
96 1265 2498
208 1361 2674
2738 416 96
2770 448 128
2738 432 176
2274 416 528
1425 721 1217
336 1201 2146
208 1265 2386
176 1313 2562
208 1361 2690
2962 624 128
2978 656 144
2914 640 256
2530 560 608
1665 977 1553
448 1537 2466
304 1665 2722
480 1889 2978
480 2017 3138
3427 1105 16
3443 1137 32
3491 1201 32
3250 1313 464
977 2258 2738
705 2498 3122
849 2610 3298
993 2690 3410
1009 2690 3459
3779 1793 32
3795 1793 48
3795 1809 48
3875 1969 80
1601 2946 3090
1537 3058 3330
1553 3026 3410
1681 3106 3555
1761 3122 3619
3955 2226 96
3955 2226 96
3955 2226 96
4019 2354 128
3138 3314 3058
2338 3282 3314
2001 3314 3491
2017 3346 3603
2178 3394 3699
4095 2690 208
4067 2642 192
4067 2706 224
4051 2770 368
3763 3378 2786
3122 3491 3330
2898 3555 3507
2466 3539 3635
2370 3555 3715
4067 2994 737
4051 2978 705
4051 2994 785
4051 3138 1409
3987 3346 2402
3346 3571 3330
3266 3635 3491
3090 3667 3603
3026 3715 3715
3138 528 32
3138 528 32
3106 560 48
2834 496 320
2178 592 961
640 1281 2242
448 1313 2418
512 1361 2562
624 1441 2706
3138 528 32
3170 576 64
3122 592 80
2850 496 304
2210 576 929
753 1185 2146
432 1313 2418
560 1393 2594
640 1441 2722
3186 608 48
3170 576 48
3154 640 64
2914 560 336
2210 592 977
865 1329 2274
544 1361 2466
592 1393 2594
705 1505 2738
3282 881 80
3282 881 80
3234 865 128
2978 753 528
2450 945 1361
1185 1777 2578
1009 1793 2722
1105 1841 2866
1089 1841 2914
3555 1265 16
3603 1313 32
3619 1345 32
3555 1553 288
2946 1729 1953
1825 2482 2962
1825 2578 3170
1777 2658 3314
1841 2738 3443
3923 1953 64
3923 1969 64
3923 1953 48
3939 2066 80
3955 2114 128
2146 3154 3330
1953 3170 3475
2001 3234 3587
2178 3314 3699
4051 2434 144
4051 2402 128
4051 2434 144
4051 2498 144
4067 2690 256
3346 3378 3170
2530 3427 3507
2354 3475 3667
2498 3539 3763
4095 2786 224
4095 2770 208
4095 2818 240
4095 2978 528
4051 3154 1473
3891 3475 2898
3314 3587 3443
2994 3667 3699
2818 3683 3779
4067 3090 705
4067 3090 705
4067 3106 769
4067 3250 1601
4067 3378 2210
4019 3555 2770
3683 3635 3298
3459 3747 3635
3378 3763 3715
3314 640 32
3314 640 32
3298 689 32
3074 656 240
2546 576 913
1633 1153 2033
913 1505 2546
881 1505 2658
913 1521 2754
3314 640 32
3330 656 32
3314 721 48
3106 689 304
2594 560 881
1617 1121 2001
945 1505 2514
881 1521 2658
897 1521 2738
3346 721 48
3362 769 48
3346 769 48
3122 721 320
2610 640 961
1649 1217 2098
1089 1617 2610
1009 1585 2706
1089 1649 2818
3443 1041 64
3459 1089 96
3459 1121 112
3266 1073 496
2818 1009 1281
1713 1841 2594
1489 2017 2834
1521 2033 2946
1553 2066 3042
3683 1377 16
3715 1425 16
3731 1441 32
3763 1697 192
3282 1937 1985
2690 2546 2898
2066 2690 3170
2098 2738 3314
2130 2786 3410
3939 1969 48
3955 2017 64
3939 2017 64
3971 2146 80
4003 2258 96
3394 2946 2930
2450 3186 3378
2402 3250 3571
2546 3346 3699
4095 2546 192
4095 2546 192
4067 2530 144
4051 2626 144
4051 2754 256
4051 3090 1761
3779 3443 3074
3314 3539 3459
2786 3651 3827
4095 2898 256
4095 2898 256
4067 2914 256
4067 3026 672
4051 3250 1825
4019 3410 2626
3939 3539 3042
3619 3619 3443
3234 3731 3763
4067 3186 1041
4067 3218 1153
4067 3218 1185
4067 3330 1921
4067 3539 2594
4035 3635 2898
3987 3651 3090
3747 3683 3427
3571 3779 3683
3459 769 0
3459 801 16
3443 849 16
3234 801 176
2834 592 865
2194 1041 1857
1297 1665 2642
1313 1713 2754
1345 1729 2850
3459 785 0
3459 801 16
3443 785 16
3250 849 208
2866 624 881
2210 1057 1857
1265 1633 2610
1281 1697 2754
1345 1729 2850
3523 865 16
3491 849 16
3491 881 32
3250 865 272
2898 689 945
2242 1153 1969
1329 1697 2658
1425 1793 2818
1409 1793 2882
3603 1185 64
3603 1169 64
3587 1201 80
3427 1217 368
3090 1137 1249
2338 1745 2482
1809 2210 2930
1825 2242 3042
1825 2242 3106
3779 1521 16
3795 1537 32
3779 1505 16
3843 1601 64
3475 2082 1969
3042 2482 2786
2210 2770 3202
2242 2850 3346
2290 2898 3459
3971 2050 64
3971 2066 64
3955 2050 64
4003 2210 64
4035 2354 112
3715 2962 2738
3250 3202 3282
2642 3314 3539
2706 3410 3731
4095 2594 192
4067 2578 176
4051 2594 176
4051 2722 192
4035 2850 480
4051 3106 1761
4035 3282 2626
3715 3394 3218
3090 3635 3779
4095 3010 400
4095 3010 400
4067 2994 416
4051 3186 1537
4035 3330 2290
4051 3459 2674
4003 3523 2930
3891 3587 3250
3491 3747 3747
4095 3330 1713
4067 3314 1649
4095 3346 1841
4067 3459 2338
4051 3587 2770
4019 3635 2994
3987 3667 3170
3987 3715 3346
3763 3763 3667
3539 785 0
3555 801 0
3539 881 0
3346 929 128
3026 705 833
2514 1089 1841
1617 1809 2706
1521 1777 2802
1537 1809 2882
3523 769 0
3523 769 0
3523 833 0
3362 961 192
3010 705 801
2498 1073 1841
1681 1777 2690
1569 1809 2818
1569 1841 2898
3571 865 0
3571 881 0
3539 881 0
3410 1025 192
3090 785 849
2562 1153 1905
1633 1841 2738
1617 1905 2866
1633 1905 2946
3667 1185 32
3667 1217 48
3667 1233 64
3555 1361 368
3282 1313 1217
2722 1729 2386
2017 2354 3010
2050 2402 3122
1985 2338 3154
3795 1553 0
3795 1553 0
3811 1585 32
3875 1697 64
3667 2258 2001
3266 2546 2770
2466 2914 3266
2338 2914 3362
2386 2994 3507
3987 2114 64
4003 2146 64
4003 2146 80
4035 2322 96
4019 2402 128
3891 3074 2706
3475 3106 3106
2850 3346 3539
2770 3427 3699
4095 2658 208
4067 2674 208
4051 2658 192
4051 2786 240
4035 2882 512
4035 3138 1841
4035 3298 2562
3939 3410 3074
3378 3683 3763
4095 3042 512
4095 3074 576
4067 3058 576
4051 3170 1393
4035 3362 2274
4035 3491 2706
4035 3523 2914
4051 3603 3106
3715 3715 3683
4095 3410 2050
4095 3410 2050
4095 3427 2130
4067 3555 2562
4051 3619 2882
4019 3667 3090
4003 3683 3298
3987 3699 3443
3875 3763 3635
