其他预设/【236】赛博朋克风调色预设/【后期菌】视频调色预设/3DL/Tokyo 02.3dl
# LUT by SparkleStock. Enhanced with VOXCOLOR algorithms.
0 128 256 384 512 640 768 896 1023
336 160 368
336 160 368
320 176 416
224 208 608
160 256 977
176 240 1297
224 256 1649
336 256 1841
416 256 1985
352 176 384
336 160 368
336 192 448
224 224 624
160 256 961
176 240 1281
224 240 1601
320 256 1841
400 240 1953
336 176 416
336 176 416
304 192 448
208 224 640
144 304 1009
176 288 1393
224 288 1681
320 304 1889
400 288 2017
144 320 560
160 336 592
144 336 592
80 384 801
80 464 1233
112 464 1617
160 528 1921
224 448 2050
352 496 2194
32 672 785
48 721 833
32 689 849
0 753 1025
0 833 1377
32 977 1857
96 1009 2082
176 1041 2290
240 1089 2386
96 1425 1377
128 1473 1425
128 1473 1441
96 1521 1633
48 1505 1793
80 1537 2033
160 1633 2210
224 1665 2354
336 1793 2482
785 2434 1985
801 2434 1985
721 2386 1969
352 2130 2082
192 2050 2162
176 2017 2258
224 2033 2354
336 2114 2466
512 2258 2610
2530 3122 2418
2578 3138 2434
2562 3138 2434
1297 2754 2578
592 2546 2514
384 2386 2466
368 2354 2514
416 2386 2578
608 2482 2706
3106 3314 2498
3122 3314 2530
3122 3314 2546
2258 3122 2802
1985 3026 2866
1681 2930 2850
1121 2818 2818
592 2674 2754
833 2706 2818
336 160 384
352 176 400
336 176 416
224 208 608
160 240 961
176 240 1281
224 256 1649
336 256 1841
416 256 1985
352 176 384
352 176 384
320 176 416
224 224 624
160 256 977
176 240 1297
224 240 1601
304 240 1809
400 240 1953
352 192 416
336 176 416
320 192 448
224 224 640
144 304 1025
160 288 1377
208 256 1649
320 304 1889
416 288 2033
144 320 560
160 336 576
128 336 608
48 384 785
80 496 1249
112 464 1617
144 496 1889
224 496 2082
368 528 2226
48 689 817
48 689 833
48 689 865
0 753 1041
0 849 1393
16 961 1825
96 993 2066
160 1025 2242
224 1089 2386
96 1441 1377
96 1441 1377
96 1441 1409
96 1505 1601
48 1473 1761
48 1505 1985
144 1601 2194
224 1665 2354
336 1793 2498
785 2434 1985
801 2434 1985
721 2386 1969
336 2130 2082
176 2050 2146
160 1985 2242
192 2017 2322
336 2114 2466
464 2226 2578
2530 3122 2418
2530 3122 2418
2562 3138 2434
1377 2754 2594
592 2546 2514
400 2418 2498
352 2338 2498
432 2386 2594
608 2482 2706
3122 3314 2530
3074 3298 2482
3122 3314 2546
2354 3154 2834
2082 3058 2898
1665 2930 2834
817 2754 2754
592 2658 2738
817 2706 2802
368 160 384
368 160 368
368 176 416
240 224 640
176 240 977
192 240 1329
224 240 1633
336 256 1857
432 256 1985
368 176 384
384 192 400
384 176 400
256 240 656
192 288 1025
192 240 1329
240 256 1665
336 256 1857
432 256 1985
432 192 400
448 208 416
416 192 432
256 256 672
176 320 1041
176 304 1393
224 304 1713
352 304 1921
432 304 2050
192 368 608
192 368 608
176 368 640
112 384 833
96 512 1281
96 464 1633
160 512 1921
240 512 2098
352 512 2210
80 689 769
96 721 785
80 753 897
32 801 1089
16 929 1441
32 977 1857
112 1009 2082
192 1089 2290
256 1121 2402
240 1585 1409
240 1585 1409
144 1505 1473
112 1521 1633
80 1585 1841
48 1553 2033
176 1649 2242
256 1729 2386
368 1841 2514
1425 2674 1969
1297 2578 1889
1025 2546 2146
352 2146 2114
192 2066 2178
160 1985 2242
240 2066 2370
352 2146 2482
576 2290 2642
2850 3138 2322
2834 3122 2290
2722 3170 2482
1649 2850 2626
769 2642 2594
464 2482 2530
368 2338 2498
496 2450 2626
689 2546 2754
3250 3234 2242
3250 3250 2258
3202 3282 2386
2514 3250 2802
2242 3122 2946
1873 2994 2914
961 2754 2770
737 2706 2770
1025 2754 2850
817 240 400
817 256 416
817 256 432
640 224 592
432 208 865
432 192 1297
384 320 1761
432 320 1969
528 288 2082
833 256 432
849 288 432
833 288 448
640 240 608
464 240 897
432 192 1297
384 320 1809
448 320 1985
528 288 2082
929 320 496
961 336 496
897 304 496
753 288 640
448 240 961
432 224 1393
384 352 1841
432 352 1985
528 320 2114
1521 560 721
1489 560 721
1473 544 737
1057 384 865
192 560 1473
160 624 1857
208 576 2050
368 608 2210
512 608 2306
1121 897 721
1185 945 737
945 1025 849
128 977 1265
32 1057 1649
112 1105 1969
192 1217 2226
288 1297 2418
400 1329 2530
2882 1825 624
2818 1745 560
2706 1985 833
192 1761 1857
144 1713 1969
160 1761 2194
288 1841 2322
416 1937 2498
608 2114 2674
3250 2354 672
3266 2386 689
3186 2578 1169
1761 2786 2530
464 2354 2402
336 2178 2354
384 2242 2482
656 2418 2674
1025 2498 2786
3427 2738 945
3378 2674 865
3394 2866 1393
3266 3346 2674
1937 2946 2818
1377 2786 2754
817 2594 2690
865 2658 2770
1457 2786 2930
3507 2978 1361
3507 2978 1361
3507 3042 1505
3523 3250 2194
2738 3314 3074
2562 3234 3090
2418 3202 3122
2130 3074 3058
2162 3074 3090
2050 640 769
2066 656 785
2017 640 801
1665 496 817
1201 304 1057
1025 288 1377
1121 224 1601
1217 224 1841
1265 208 1985
2082 672 801
2098 672 817
2066 689 833
1697 528 849
1217 304 1041
1041 256 1361
1121 224 1601
1201 208 1809
1313 224 2017
2130 689 817
2178 753 865
2178 753 897
1873 608 945
1313 368 1185
1105 304 1409
1201 240 1665
1265 240 1889
1361 224 2033
2594 1041 1185
2658 1073 1233
2626 1057 1233
2354 881 1265
1745 560 1425
1297 512 1745
1105 464 2050
1217 656 2338
1153 672 2402
2802 1457 961
2834 1489 993
2866 1521 1009
3058 1857 1825
1409 1409 2194
368 1425 2258
432 1537 2434
737 1713 2658
1233 1953 2850
3218 1889 544
3234 1905 544
3234 1937 560
3314 2114 769
368 2082 2258
432 2114 2418
656 2242 2578
1441 2482 2834
1921 2658 3026
3427 2386 464
3427 2386 464
3410 2386 496
3459 2530 721
2866 3282 2978
1313 2690 2738
1377 2690 2802
2017 2882 3010
2482 3042 3186
3571 2786 849
3539 2754 785
3571 2818 945
3587 2898 1201
3587 3491 2898
2946 3362 3186
2786 3314 3218
2658 3234 3218
2834 3314 3298
3619 3058 1377
3603 3026 1329
3619 3058 1393
3651 3186 1745
3683 3378 2466
3314 3555 3266
3330 3555 3346
3218 3507 3378
3282 3539 3443
2770 993 1073
2786 1009 1089
2770 1009 1121
2594 929 1217
2210 528 1297
1601 352 1537
1585 336 1761
1681 320 1969
1809 336 2114
2786 1009 1089
2818 1041 1153
2802 1025 1153
2578 881 1201
2242 560 1281
1601 352 1505
1537 320 1761
1713 336 1985
1809 336 2130
2882 1073 1169
2866 1057 1169
2866 1089 1217
2738 1025 1329
2322 592 1377
1745 448 1633
1649 368 1825
1729 352 2017
1857 368 2162
3042 1329 1409
3058 1361 1425
3058 1377 1473
2946 1329 1601
2626 977 1729
1969 769 1921
1889 737 2114
2050 753 2274
2082 721 2338
3058 1617 1009
3074 1633 1009
3122 1665 1025
3298 2098 1905
3122 2017 2370
2546 1793 2514
2498 1841 2674
2594 2050 2898
2786 2274 3090
3378 2050 464
3378 2066 464
3346 2033 464
3410 2162 592
3491 2434 1361
2578 2898 2994
2194 2770 2962
2498 2946 3170
2946 3170 3394
3539 2530 400
3523 2498 400
3523 2514 400
3587 2642 689
3651 2850 1313
3507 3443 3202
2882 3234 3218
2914 3266 3298
3250 3394 3443
3619 2834 833
3603 2802 785
3635 2850 865
3683 3010 1297
3683 3138 1729
3715 3491 2994
3507 3587 3362
3443 3539 3459
3443 3523 3491
3667 3090 1281
3667 3090 1281
3667 3090 1313
3683 3170 1633
3731 3314 2050
3763 3491 2690
3683 3651 3330
3651 3683 3459
3635 3683 3491
3010 1169 1233
3010 1169 1233
3026 1185 1281
2946 1153 1425
2738 833 1537
2274 544 1681
1921 528 1953
1969 464 2098
2082 448 2194
3026 1185 1249
3010 1185 1249
3058 1233 1313
2962 1201 1457
2754 897 1553
2242 512 1681
1921 528 1937
1969 464 2098
2066 448 2194
3058 1217 1281
3074 1265 1329
3074 1249 1329
2978 1233 1505
2802 945 1617
2322 592 1761
2017 592 2017
2082 560 2178
2178 560 2258
3170 1521 1505
3186 1553 1537
3218 1601 1617
3170 1649 1825
2978 1329 1953
2466 977 2066
2258 993 2258
2290 929 2338
2370 961 2418
3186 1713 977
3202 1713 945
3218 1745 993
3362 2210 1937
3394 2418 2594
3234 2274 2690
2914 2178 2770
2994 2274 2930
3042 2290 3010
3427 2098 368
3459 2162 384
3459 2162 400
3491 2290 512
3555 2466 881
3651 3202 3122
3427 3122 3250
3459 3218 3394
3555 3314 3491
3603 2594 448
3603 2578 432
3571 2578 416
3603 2690 689
3667 2850 1201
3715 3090 2082
3763 3443 3138
3635 3523 3378
3619 3555 3571
3667 2914 865
3667 2882 833
3667 2930 945
3683 3010 1281
3699 3170 1825
3763 3362 2594
3795 3523 3106
3747 3619 3394
3699 3651 3523
3683 3090 1233
3683 3122 1297
3683 3122 1297
3699 3218 1697
3763 3378 2322
3795 3507 2738
3811 3587 3042
3763 3651 3362
3747 3683 3491
3122 1329 1329
3122 1329 1329
3122 1361 1377
3090 1329 1521
2946 1089 1681
2658 689 1793
2322 672 2098
2338 672 2242
2354 592 2290
3122 1329 1329
3122 1361 1361
3122 1297 1361
3122 1361 1537
2978 1105 1713
2658 689 1793
2258 608 2033
2306 656 2242
2354 592 2290
3154 1409 1393
3154 1409 1393
3138 1393 1425
3122 1393 1601
3010 1169 1793
2706 785 1857
2338 689 2114
2386 721 2290
2402 689 2338
3266 1713 1633
3282 1713 1633
3282 1713 1665
3298 1825 1937
3218 1681 2178
2914 1297 2226
2562 1217 2386
2578 1185 2450
2594 1121 2498
3282 1793 817
3282 1793 817
3298 1809 881
3362 2114 1505
3507 2594 2690
3459 2514 2802
3186 2418 2898
3202 2418 2994
3314 2530 3122
3491 2194 368
3491 2194 368
3475 2178 368
3491 2290 432
3587 2530 849
3715 3234 3106
3683 3218 3234
3619 3218 3346
3683 3330 3491
3635 2610 416
3603 2578 384
3603 2610 416
3603 2706 656
3683 2914 1233
3747 3090 2033
3811 3314 2834
3795 3491 3378
3763 3523 3507
3699 2994 1153
3699 2994 1153
3683 2978 1169
3699 3122 1553
3715 3202 2066
3779 3346 2514
3827 3491 2962
3811 3555 3282
3779 3651 3523
3715 3170 1441
3715 3154 1441
3731 3186 1505
3731 3266 1905
3795 3459 2498
3827 3539 2850
3843 3603 3090
3859 3635 3266
3843 3683 3475
3202 1473 1425
3202 1489 1425
3202 1489 1457
3170 1457 1617
3106 1297 1841
2930 961 1953
2514 785 2162
2450 737 2274
2482 672 2322
3186 1457 1409
3186 1457 1409
3186 1441 1425
3186 1505 1665
3106 1297 1841
2914 929 1921
2546 817 2162
2482 785 2290
2482 721 2338
3234 1521 1457
3234 1537 1473
3202 1489 1441
3218 1537 1681
3138 1409 1905
2946 993 1969
2578 865 2194
2514 849 2338
2530 801 2370
3314 1841 1665
3330 1841 1681
3330 1841 1713
3346 1937 2017
3330 1905 2290
3138 1521 2338
2850 1441 2482
2802 1425 2578
2818 1393 2610
3314 1809 737
3314 1809 737
3314 1809 753
3410 2098 1217
3587 2754 2754
3571 2706 2914
3410 2642 3010
3346 2578 3058
3459 2690 3186
3507 2242 352
3523 2258 352
3507 2242 352
3539 2386 432
3603 2546 833
3747 3266 3090
3715 3282 3234
3683 3266 3346
3715 3314 3459
3651 2642 432
3651 2658 448
3619 2626 416
3667 2786 801
3683 2914 1233
3731 3090 2066
3811 3266 2658
3811 3475 3282
3827 3555 3523
3715 3010 1089
3715 3026 1121
3683 3010 1105
3715 3106 1473
3731 3250 2050
3779 3346 2498
3859 3475 2866
3859 3523 3106
3859 3667 3539
3763 3250 1633
3763 3234 1617
3763 3266 1697
3779 3346 2146
3811 3475 2610
3859 3571 2962
3859 3619 3154
3875 3651 3330
3875 3683 3475
