其他预设/【236】赛博朋克风调色预设/【后期菌】视频调色预设/3DL/Tokyo 07.3dl
# LUT by SparkleStock. Enhanced with VOXCOLOR algorithms.
0 256 512 768 1023
769 192 240
721 208 272
224 624 961
0 1233 2338
32 1393 2706
769 208 272
656 224 304
192 721 1105
0 1281 2402
32 1425 2722
640 1137 1057
576 1249 1217
80 2162 2706
224 2290 3090
304 2354 3266
2610 2706 2322
2594 2690 2322
1569 2930 2994
1313 3106 3378
1409 3122 3555
3667 3170 2242
3667 3202 2370
2930 3410 3170
2514 3443 3410
2066 3475 3619
881 208 240
881 224 272
224 608 961
0 1201 2322
32 1409 2706
1041 256 288
961 240 288
192 769 1185
16 1329 2466
32 1473 2754
849 1041 881
624 1313 1281
96 2226 2754
240 2322 3106
352 2386 3298
2946 2706 2066
2658 2786 2450
1649 2946 3010
1361 3122 3378
1489 3154 3555
3811 3042 1793
3747 3138 2114
2994 3443 3186
2466 3410 3378
2130 3491 3619
2722 400 96
2674 368 128
1329 592 1041
192 1233 2338
176 1329 2674
2738 416 96
2738 432 176
1425 721 1217
208 1265 2386
208 1361 2690
3427 1105 16
3491 1201 32
977 2258 2738
849 2610 3298
1009 2690 3459
3955 2226 96
3955 2226 96
3138 3314 3058
2001 3314 3491
2178 3394 3699
4067 2994 737
4051 2994 785
3987 3346 2402
3266 3635 3491
3026 3715 3715
3314 640 32
3298 689 32
2546 576 913
913 1505 2546
913 1521 2754
3346 721 48
3346 769 48
2610 640 961
1089 1617 2610
1089 1649 2818
3683 1377 16
3731 1441 32
3282 1937 1985
2066 2690 3170
2130 2786 3410
4095 2546 192
4067 2530 144
4051 2754 256
3779 3443 3074
2786 3651 3827
4067 3186 1041
4067 3218 1185
4067 3539 2594
3987 3651 3090
3571 3779 3683
3539 785 0
3539 881 0
3026 705 833
1617 1809 2706
1537 1809 2882
3571 865 0
3539 881 0
3090 785 849
1633 1841 2738
1633 1905 2946
3795 1553 0
3811 1585 32
3667 2258 2001
2466 2914 3266
2386 2994 3507
4095 2658 208
4051 2658 192
4035 2882 512
4035 3298 2562
3378 3683 3763
4095 3410 2050
4095 3427 2130
4051 3619 2882
4003 3683 3298
3875 3763 3635
