其他预设/【236】赛博朋克风调色预设/【后期菌】视频调色预设/3DL/Tokyo 04_S.3dl
# LUT by SparkleStock. Enhanced with VOXCOLOR algorithms.
0 128 256 384 512 640 768 896 1023
368 224 144
384 240 144
352 240 144
256 304 256
160 464 416
80 656 705
0 817 993
16 1041 1377
16 1265 1745
400 240 144
368 224 144
368 256 160
256 320 288
160 464 416
80 624 689
0 769 961
0 1041 1361
0 1217 1665
368 240 144
384 240 144
320 240 160
240 320 256
144 528 464
64 737 801
0 865 1057
16 1137 1473
16 1313 1857
288 400 240
304 416 256
288 416 272
208 576 432
64 833 769
0 1137 1265
16 1377 1713
16 1505 2001
64 1665 2290
480 705 384
512 753 432
448 801 448
288 929 737
80 1505 1521
80 1889 2178
144 2082 2498
160 2242 2706
176 2322 2818
1105 1457 977
1137 1521 1057
1057 1553 1073
833 1777 1489
304 2098 2130
208 2530 2754
224 2626 2914
240 2674 3074
256 2754 3202
2274 2194 1441
2290 2210 1441
2194 2210 1473
1649 2370 2082
993 2562 2530
256 2770 2882
256 2898 3122
256 2946 3234
272 3010 3378
2946 2594 1633
2946 2578 1617
2962 2594 1665
2530 2898 2594
2066 2962 2754
1409 2930 2866
480 3042 3122
304 3138 3330
256 3170 3459
3475 2802 1873
3475 2834 1921
3475 2850 1953
2946 3154 2754
2754 3234 2962
2386 3218 3042
1905 3234 3170
849 3234 3330
352 3250 3427
384 240 144
400 240 160
368 240 160
256 304 256
160 448 416
80 624 672
0 817 993
16 1041 1377
16 1265 1745
400 240 144
400 240 144
352 240 144
256 320 256
160 464 432
80 656 705
0 769 961
0 1025 1345
0 1217 1665
384 256 160
368 256 144
352 288 208
272 384 320
160 528 464
64 705 753
0 833 1009
16 1137 1473
32 1313 1857
288 416 240
288 432 256
288 480 304
208 560 416
64 865 817
0 1121 1265
0 1329 1633
32 1553 2033
96 1713 2338
512 737 400
480 737 416
480 817 464
304 961 721
96 1553 1553
80 1873 2130
128 2066 2482
144 2194 2642
176 2322 2818
1105 1457 993
1105 1457 993
1025 1505 1041
817 1745 1457
272 2082 2130
160 2498 2706
208 2594 2898
240 2674 3074
256 2754 3218
2274 2194 1441
2274 2210 1441
2194 2226 1473
1633 2386 2114
993 2530 2466
256 2754 2866
256 2866 3074
256 2946 3234
272 2994 3346
2946 2594 1633
2946 2594 1649
2962 2594 1665
2530 2914 2626
2082 2962 2754
1473 2962 2882
480 3010 3122
304 3154 3346
256 3170 3459
3475 2834 1921
3443 2802 1873
3475 2850 1953
2978 3186 2786
2786 3234 2962
2306 3186 3026
1553 3202 3170
737 3234 3330
352 3250 3427
416 240 128
400 240 128
416 256 176
272 320 304
160 448 416
80 672 737
0 817 993
0 1057 1377
16 1265 1745
416 240 144
480 288 208
528 304 320
416 384 464
256 480 576
80 672 737
0 849 1025
16 1057 1425
16 1265 1745
512 320 128
592 432 240
608 464 400
464 544 624
304 624 753
96 753 881
0 929 1153
16 1169 1553
32 1345 1905
432 544 256
512 705 352
544 769 528
448 833 737
224 993 1041
32 1153 1329
16 1377 1729
64 1569 2050
96 1681 2322
560 721 320
656 897 400
624 1057 592
528 1281 993
224 1681 1713
96 1905 2194
144 2098 2514
160 2274 2722
208 2370 2866
1441 1505 881
1425 1569 865
1137 1617 1121
817 1873 1553
304 2194 2242
176 2514 2738
240 2642 2946
256 2738 3122
256 2770 3234
2466 2194 1313
2386 2066 1201
2322 2338 1617
1713 2418 2162
1105 2578 2530
240 2754 2866
256 2898 3122
256 2962 3250
272 3026 3394
3106 2546 1457
3122 2546 1441
2994 2594 1649
2610 2930 2594
2290 3026 2802
1569 2978 2882
608 3026 3106
400 3154 3346
272 3186 3475
3587 2738 1601
3619 2754 1633
3587 2802 1777
3090 3138 2690
2818 3266 2978
2530 3250 3058
1857 3218 3154
1041 3250 3330
400 3266 3443
737 256 112
769 256 128
817 272 256
656 304 400
288 432 464
128 656 689
0 1057 1313
16 1265 1681
32 1377 1921
849 320 112
977 352 240
1025 400 464
849 416 672
544 512 801
224 656 817
0 1073 1345
32 1281 1713
32 1377 1921
1009 512 128
1169 624 304
1169 672 576
1041 705 865
689 705 1009
320 817 1057
0 1153 1441
16 1313 1745
80 1441 2050
1473 753 128
1473 977 320
1505 1057 624
1217 1041 929
592 1281 1473
272 1457 1809
32 1569 2001
96 1761 2306
128 1857 2482
1585 1041 144
1617 1249 288
1489 1361 592
961 1601 1265
544 1953 2017
272 2098 2418
160 2274 2674
208 2386 2834
224 2466 2994
3026 1585 64
2882 1713 144
2674 1809 368
1281 2242 1825
512 2386 2386
208 2642 2850
272 2690 2994
256 2786 3170
272 2834 3298
3507 1969 112
3523 2066 128
3427 2114 352
2482 2642 2210
1649 2754 2658
576 2818 2882
368 2946 3122
288 3058 3346
272 3074 3443
3779 2418 368
3747 2386 320
3699 2482 705
3475 2914 2210
2642 3122 2866
2210 3122 2994
1169 3122 3122
448 3186 3346
272 3234 3475
3939 2722 1073
3939 2706 1073
3923 2722 1185
3891 2946 1889
3026 3346 3026
2850 3346 3138
2498 3378 3298
1569 3346 3362
977 3346 3475
1825 464 80
1873 448 144
1873 432 288
1473 416 448
865 512 608
208 817 881
96 961 1153
32 1169 1521
64 1297 1793
1921 544 96
2017 560 288
2017 560 560
1729 544 817
1169 560 977
448 769 1105
96 961 1153
32 1137 1473
64 1313 1809
2033 737 80
2130 849 320
2130 865 656
1889 865 993
1345 849 1249
608 897 1297
128 1041 1329
64 1217 1617
96 1345 1921
2418 1073 96
2418 1265 368
2370 1297 689
2194 1265 1009
1665 1217 1361
689 1313 1665
144 1489 1937
144 1873 2434
208 2050 2674
2882 1473 16
2754 1633 240
2754 1729 544
2642 1761 929
1489 1857 1809
512 2274 2610
208 2450 2850
256 2578 3042
256 2658 3186
3362 1873 32
3234 2017 160
3154 2082 368
3250 2178 544
1313 2642 2546
400 2786 2962
288 2802 3106
288 2914 3266
288 2962 3394
3811 2178 96
3699 2258 128
3683 2274 208
3699 2402 400
2978 3106 2786
1633 3010 2994
769 3090 3218
304 3154 3410
304 3202 3523
3971 2610 592
3939 2578 528
3971 2642 705
4003 2706 1105
3715 3234 2642
2850 3330 3122
2498 3362 3298
1521 3346 3443
705 3346 3571
4051 2946 1633
4035 2930 1585
4035 2946 1633
4051 3090 2001
4003 3234 2482
3314 3507 3218
3122 3555 3378
2850 3555 3475
2546 3587 3603
2754 769 16
2754 705 96
2738 689 256
2402 656 432
1793 721 689
624 881 1009
160 1137 1377
112 1313 1729
112 1489 2050
2754 769 32
2754 753 224
2754 737 528
2498 689 801
2050 737 1009
913 833 1137
160 1121 1377
128 1345 1761
112 1505 2066
2802 961 16
2770 993 288
2770 1025 592
2626 1009 961
2242 977 1249
1153 1025 1409
240 1185 1505
128 1345 1745
176 1569 2178
2946 1297 64
2898 1377 320
2882 1409 624
2754 1409 993
2466 1441 1505
1297 1425 1745
304 1585 1969
176 1809 2290
224 1857 2466
3202 1617 16
3122 1761 240
3106 1857 560
3042 1905 961
2754 2033 1761
2050 2098 2242
480 2274 2642
272 2466 2866
304 2626 3122
3635 2066 64
3507 2178 176
3459 2226 384
3475 2306 608
3587 2354 801
2050 2850 2898
560 2898 3170
304 3010 3346
320 3090 3475
4019 2402 208
3907 2434 224
3907 2482 288
3859 2610 624
3827 2818 1441
3234 3282 2994
1969 3250 3266
448 3234 3459
448 3282 3571
4051 2786 1025
4035 2754 993
4051 2834 1153
4019 2994 1665
3939 3154 2114
3811 3427 2834
3234 3491 3314
2690 3539 3539
1729 3491 3603
4095 3090 1873
4095 3090 1873
4095 3106 1921
4095 3218 2226
4095 3330 2498
4051 3491 2834
3715 3619 3298
3443 3699 3555
3266 3699 3619
3106 977 16
3106 913 64
3090 881 176
2898 865 288
2338 961 608
1425 1073 1057
320 1329 1601
144 1489 1921
128 1601 2178
3122 961 32
3122 897 176
3122 881 416
2994 881 624
2578 929 897
1569 1025 1169
304 1297 1569
144 1505 1937
128 1601 2178
3170 1057 32
3186 1121 256
3154 1105 528
3042 1105 833
2658 1105 1121
1681 1153 1345
352 1425 1713
160 1633 2082
240 1713 2322
3266 1361 32
3282 1473 272
3266 1505 592
3154 1521 1009
2882 1553 1489
2082 1585 1857
656 1761 2210
224 1921 2402
288 2033 2594
3475 1649 16
3459 1793 208
3410 1921 544
3410 2033 977
3186 2194 1921
2930 2402 2514
1553 2402 2770
544 2498 2914
304 2578 2994
3827 2098 32
3795 2242 160
3699 2322 400
3635 2466 817
3667 2514 1105
3346 2882 2754
2738 2914 3058
1105 2962 3298
384 3074 3427
4051 2530 368
4035 2530 352
3891 2626 464
3795 2802 1057
3763 2946 1729
3795 3122 2402
3699 3330 3010
3234 3443 3346
1441 3427 3635
4067 2962 1425
4067 2946 1425
3971 3042 1521
3907 3186 1873
3843 3330 2338
3859 3427 2722
3875 3523 3042
3683 3635 3378
3106 3667 3667
4095 3218 2162
4095 3234 2194
4095 3234 2210
4051 3346 2402
4019 3491 2690
4035 3603 2962
4035 3619 3122
3811 3699 3427
3587 3731 3619
3330 1153 16
3330 1137 64
3314 1137 64
3154 1153 144
2674 1121 528
2066 1265 1153
849 1441 1665
272 1681 2130
176 1761 2338
3346 1137 16
3378 1105 128
3362 1041 240
3234 1105 384
2818 1137 737
2066 1265 1153
849 1377 1617
256 1681 2130
176 1761 2338
3410 1201 32
3443 1185 144
3427 1185 352
3298 1201 576
2914 1217 961
2338 1345 1409
1041 1441 1761
288 1761 2226
256 1809 2434
3491 1441 64
3539 1489 176
3539 1505 432
3443 1553 833
3234 1665 1489
2722 1809 2082
1265 1873 2418
464 2066 2562
320 2162 2658
3683 1713 16
3683 1761 112
3667 1889 400
3715 2033 849
3523 2290 1969
3330 2466 2594
2610 2482 2850
1137 2546 2994
416 2658 3058
3955 2194 80
3939 2258 128
3843 2370 416
3827 2498 833
3859 2610 1313
3715 2882 2658
3427 2978 3074
2418 3026 3298
961 3122 3475
4051 2642 576
4019 2674 544
3939 2770 769
3907 2930 1345
3875 3042 1953
3875 3138 2482
3923 3234 2866
3747 3410 3282
2994 3539 3603
4067 3122 1905
4067 3122 1889
4003 3202 1825
3939 3346 2130
3907 3443 2482
3923 3491 2754
3955 3523 3026
3923 3587 3266
3427 3699 3667
4095 3346 2450
4095 3346 2434
4067 3362 2450
4035 3491 2562
4003 3603 2802
4003 3667 3010
4035 3683 3218
4019 3699 3362
3811 3763 3619
3491 1281 16
3507 1297 16
3491 1297 32
3314 1265 112
2978 1313 592
2530 1441 1265
1217 1601 1873
400 1745 2194
240 1825 2386
3475 1265 16
3475 1265 16
3475 1249 32
3330 1281 208
2946 1297 592
2514 1425 1249
1457 1585 1873
416 1777 2242
256 1873 2402
3539 1329 16
3555 1345 64
3555 1297 96
3410 1297 288
3154 1361 897
2770 1489 1473
1425 1649 2001
400 1825 2290
256 1905 2450
3651 1489 64
3651 1505 80
3683 1553 256
3635 1633 721
3507 1761 1457
3122 1905 2114
2210 2001 2482
656 2178 2642
384 2210 2722
3763 1745 0
3795 1777 64
3859 1905 304
3955 2066 705
3811 2354 2017
3619 2530 2642
3122 2578 2914
1745 2642 3074
560 2738 3106
3987 2258 96
4019 2354 144
4035 2434 432
4051 2562 881
4051 2642 1377
3971 2882 2642
3811 3010 3090
3138 3106 3330
2017 3202 3459
4067 2706 817
4067 2802 897
4067 2866 993
4067 3010 1569
4051 3090 2050
4051 3170 2546
4051 3234 2866
4003 3362 3138
3346 3571 3603
4095 3154 2017
4095 3186 2050
4067 3234 1921
4051 3362 2178
4051 3475 2530
4051 3523 2786
4067 3555 3058
4051 3587 3186
3763 3699 3587
4095 3443 2626
4095 3427 2610
4095 3475 2594
4067 3587 2690
4067 3667 2882
4051 3699 3106
4051 3715 3330
4003 3715 3443
3891 3779 3619
