其他预设/【236】赛博朋克风调色预设/【后期菌】视频调色预设/3DL/Tokyo 03.3dl
# LUT by SparkleStock. Enhanced with VOXCOLOR algorithms.
0 64 128 192 256 320 384 448 512 576 640 704 768 832 896 960 1023
801 160 192
833 192 224
817 176 192
817 192 208
753 176 224
592 192 320
464 224 448
464 272 656
480 352 977
560 384 1153
640 384 1329
785 464 1521
865 496 1633
913 496 1697
1009 528 1793
1073 592 1889
1169 640 1953
817 192 208
817 192 208
817 176 208
817 176 208
769 176 240
560 192 288
464 224 448
464 272 656
480 352 977
560 368 1137
656 416 1345
753 448 1489
849 480 1617
913 496 1697
977 512 1777
1073 592 1889
1137 608 1937
817 192 224
801 160 192
801 160 192
817 192 224
817 192 256
560 192 288
480 224 464
464 288 672
464 352 977
544 352 1121
640 384 1329
753 464 1505
849 480 1617
913 496 1697
993 528 1793
1089 608 1905
1137 608 1937
817 192 208
817 176 208
817 176 208
817 192 224
801 192 240
592 192 320
464 224 448
448 272 672
464 336 977
544 384 1137
624 400 1329
753 448 1489
833 480 1617
913 496 1697
993 528 1777
1089 624 1905
1153 640 1953
801 192 224
817 192 224
801 192 224
801 192 224
721 192 256
560 224 352
448 240 464
448 288 721
480 400 1025
544 416 1201
656 464 1393
785 512 1553
865 544 1681
913 544 1729
1009 608 1841
1073 624 1889
1153 672 1969
560 240 304
560 224 288
592 256 304
592 256 320
544 256 336
432 256 416
400 352 640
448 416 897
464 512 1153
544 512 1313
640 528 1457
769 608 1633
881 656 1761
929 656 1809
1025 705 1905
1121 769 1985
1169 785 2017
304 400 448
336 432 448
320 432 480
304 416 464
304 448 480
272 480 608
288 608 865
368 705 1137
448 753 1329
560 801 1521
705 849 1681
833 881 1809
961 945 1921
1009 913 1953
1089 961 2033
1185 1025 2098
1313 1073 2178
240 753 753
272 801 817
256 769 785
272 801 833
272 817 881
272 833 977
304 1009 1217
400 1153 1473
512 1153 1633
656 1169 1777
817 1217 1905
993 1281 2033
1089 1329 2114
1201 1329 2178
1345 1409 2274
1425 1425 2322
1489 1473 2370
304 1185 1153
304 1201 1169
320 1233 1201
320 1249 1217
304 1217 1217
352 1281 1345
400 1377 1537
592 1617 1841
705 1601 1953
865 1633 2082
1025 1681 2178
1137 1681 2258
1281 1761 2370
1441 1825 2450
1553 1857 2514
1649 1889 2578
1713 1905 2594
432 1617 1537
432 1617 1537
448 1617 1553
448 1617 1553
480 1697 1649
480 1713 1681
576 1809 1841
737 1937 2033
929 2017 2226
1041 2001 2306
1169 2017 2370
1345 2066 2450
1425 2082 2514
1521 2098 2562
1665 2162 2674
1745 2178 2722
1825 2210 2770
849 2017 1889
897 2066 1921
961 2114 1953
897 2066 1937
961 2098 1969
961 2130 2050
1057 2226 2178
1009 2242 2290
1025 2242 2354
1217 2338 2498
1361 2354 2562
1489 2386 2626
1617 2418 2706
1649 2418 2706
1793 2450 2802
1889 2466 2850
1969 2482 2898
1505 2386 2066
1505 2386 2066
1553 2418 2098
1521 2402 2082
1505 2402 2098
1473 2450 2226
1329 2434 2322
1265 2466 2402
1233 2514 2482
1265 2498 2546
1425 2546 2674
1521 2562 2706
1617 2546 2722
1745 2594 2802
1825 2626 2850
1905 2626 2898
1985 2642 2930
1969 2658 2226
1937 2642 2194
1969 2658 2226
1937 2642 2194
1921 2642 2210
1921 2690 2354
1633 2642 2418
1553 2658 2498
1457 2674 2578
1409 2658 2626
1505 2706 2722
1553 2706 2754
1681 2738 2818
1761 2738 2850
1841 2738 2898
1905 2754 2930
2033 2786 2994
2146 2786 2274
2178 2818 2306
2146 2786 2274
2130 2786 2274
2146 2786 2306
2066 2850 2466
1873 2818 2530
1841 2834 2594
1761 2850 2674
1553 2786 2674
1537 2786 2738
1617 2834 2786
1649 2802 2818
1729 2834 2866
1873 2866 2946
1969 2882 2978
2033 2882 3010
2402 2914 2290
2386 2914 2274
2402 2914 2274
2386 2898 2258
2402 2930 2306
2306 2962 2450
2130 2978 2610
2033 2962 2642
1969 2946 2690
1969 2978 2754
1841 2930 2770
1841 2962 2834
1793 2962 2866
1761 2930 2898
1809 2946 2946
1953 2962 2994
2033 2978 3026
2546 2994 2242
2530 2978 2194
2530 2978 2210
2530 2978 2210
2562 3026 2258
2514 3074 2450
2226 3058 2626
2226 3074 2706
2194 3090 2770
2130 3074 2818
2082 3058 2834
2017 3058 2866
1937 3058 2914
1937 3058 2946
1921 3042 2962
1905 3026 2978
2001 3042 3042
2626 3074 2242
2626 3074 2242
2642 3090 2274
2642 3090 2274
2642 3090 2306
2562 3106 2450
2306 3122 2674
2338 3154 2770
2306 3154 2818
2274 3154 2834
2258 3170 2898
2242 3170 2930
2162 3170 2978
2033 3122 2962
2033 3154 3010
2050 3138 3026
2098 3170 3074
817 192 208
785 160 192
817 192 224
817 192 224
753 176 240
592 192 320
464 224 448
448 272 640
480 352 977
544 384 1153
656 400 1345
785 464 1521
833 496 1617
913 496 1697
977 528 1777
1073 560 1873
1169 640 1953
817 176 208
801 160 192
817 192 208
817 176 208
753 176 224
560 192 288
480 224 448
464 288 705
480 352 977
544 368 1121
640 384 1329
769 464 1505
849 480 1617
913 496 1697
993 528 1793
1089 608 1905
1137 608 1937
833 192 224
801 160 192
817 176 208
817 176 208
817 192 240
560 192 304
480 224 464
464 272 656
480 368 977
544 384 1137
656 416 1329
753 448 1489
849 496 1633
929 496 1697
977 512 1777
1089 608 1905
1137 608 1937
817 176 208
817 176 208
817 176 208
817 176 224
753 176 240
560 192 320
480 240 464
464 288 705
464 336 977
560 384 1153
656 416 1345
753 448 1489
849 480 1617
929 496 1713
993 544 1793
1073 576 1889
1137 624 1937
817 192 224
817 192 224
801 192 224
801 192 240
737 208 272
560 224 352
480 256 496
448 288 721
480 400 1041
544 400 1169
672 480 1409
769 496 1537
833 512 1649
913 544 1729
1009 592 1825
1073 624 1889
1137 656 1953
560 240 304
592 240 304
560 240 304
560 240 304
512 240 320
432 256 416
400 368 656
448 400 881
448 480 1105
544 512 1313
640 544 1457
753 592 1617
865 656 1745
945 672 1825
1009 705 1889
1137 769 1985
1169 785 2017
320 432 480
304 416 448
320 416 448
304 416 464
304 448 496
304 528 656
288 592 849
336 672 1105
448 753 1313
576 817 1553
721 849 1697
801 849 1777
961 929 1921
1041 977 2001
1089 961 2033
1185 1025 2098
1329 1121 2194
256 753 753
256 753 753
256 769 785
240 753 769
272 801 865
256 817 961
304 1009 1217
400 1121 1457
496 1153 1617
656 1169 1777
833 1233 1921
945 1233 1985
1089 1329 2098
1233 1377 2194
1281 1345 2226
1425 1425 2322
1489 1473 2370
304 1201 1169
320 1233 1201
320 1233 1201
304 1201 1169
320 1217 1217
352 1281 1345
416 1393 1553
528 1569 1777
705 1617 1953
865 1681 2082
993 1633 2162
1121 1649 2242
1265 1729 2354
1441 1825 2450
1569 1873 2546
1617 1857 2546
1761 1937 2642
448 1617 1553
432 1617 1537
464 1681 1585
432 1617 1553
464 1665 1601
496 1713 1697
592 1825 1857
737 1937 2033
929 2001 2210
1073 2050 2322
1185 2033 2386
1345 2066 2450
1425 2082 2514
1521 2098 2578
1633 2114 2642
1713 2162 2690
1841 2226 2786
929 2082 1921
849 2033 1889
849 2033 1889
897 2066 1937
881 2050 1937
881 2082 1985
1041 2210 2162
993 2242 2290
1057 2290 2370
1169 2274 2450
1329 2322 2530
1489 2386 2626
1569 2386 2674
1697 2450 2754
1793 2450 2802
1889 2466 2850
2001 2514 2930
1505 2386 2066
1569 2434 2098
1521 2402 2082
1569 2418 2114
1489 2386 2098
1425 2418 2210
1249 2402 2290
1265 2466 2386
1201 2482 2450
1297 2530 2578
1393 2530 2642
1537 2562 2706
1649 2594 2754
1729 2578 2786
1841 2626 2850
1905 2626 2898
2017 2674 2962
1969 2658 2226
1969 2658 2226
1969 2658 2226
1937 2642 2194
1937 2642 2226
1857 2642 2306
1633 2642 2418
1569 2674 2498
1457 2674 2562
1409 2674 2626
1505 2706 2722
1521 2690 2738
1649 2706 2802
1729 2706 2834
1841 2738 2882
1905 2754 2930
2001 2770 2978
2178 2818 2306
2162 2786 2274
2162 2786 2274
2178 2818 2322
2210 2850 2338
2066 2834 2434
1937 2866 2562
1873 2866 2610
1713 2818 2658
1553 2786 2674
1505 2786 2722
1617 2818 2786
1633 2802 2818
1745 2834 2882
1857 2866 2946
1969 2882 2978
2033 2882 3010
2418 2930 2290
2386 2898 2258
2386 2914 2274
2386 2914 2274
2402 2930 2306
2338 2994 2482
2130 2978 2610
2033 2962 2642
1969 2962 2690
1953 2978 2754
1841 2946 2786
1793 2930 2802
1761 2930 2850
1745 2914 2882
1809 2914 2930
1969 2978 3010
2066 3010 3058
2530 2978 2194
2546 2978 2226
2546 2978 2210
2530 2978 2210
2514 2978 2242
2514 3074 2450
2210 3042 2626
2194 3058 2706
2162 3074 2754
2130 3074 2818
2098 3074 2850
2066 3074 2866
1921 3042 2898
1921 3042 2930
1921 3058 2978
1889 3010 2978
2001 3058 3042
2642 3090 2258
2642 3090 2258
2642 3090 2258
2626 3074 2242
2658 3106 2322
2562 3106 2450
2354 3154 2706
2338 3154 2754
2306 3154 2802
2274 3170 2850
2258 3170 2898
2210 3154 2914
2082 3138 2946
2033 3106 2946
2001 3122 2978
2098 3154 3042
2082 3138 3058
817 176 208
817 176 208
833 192 224
817 176 208
833 192 240
560 192 304
464 224 448
464 272 656
464 320 961
560 368 1137
624 384 1329
785 480 1537
865 496 1633
913 496 1697
1009 528 1793
1089 608 1905
1169 640 1953
817 176 208
817 176 208
817 176 208
737 160 208
833 192 240
592 192 320
480 224 464
464 272 640
496 368 993
544 368 1121
656 400 1329
753 448 1489
849 480 1617
913 480 1697
993 528 1793
1089 624 1905
1169 640 1953
817 192 208
817 176 208
817 192 224
817 176 208
753 176 224
560 192 288
480 224 448
464 288 672
480 352 977
544 352 1121
656 400 1329
769 464 1521
849 480 1617
929 496 1697
977 512 1777
1073 592 1889
1137 608 1937
817 176 208
817 192 224
817 192 224
817 192 224
817 192 256
560 192 320
464 224 448
464 288 672
464 336 977
560 384 1169
624 400 1329
753 448 1489
833 480 1617
929 512 1713
1009 560 1809
1073 576 1889
1153 640 1953
817 208 240
817 192 240
801 192 224
801 192 224
737 192 272
560 224 352
464 240 480
464 304 753
480 400 1025
544 400 1169
624 464 1361
769 496 1553
833 512 1649
913 528 1713
1009 608 1841
1073 640 1905
1169 672 1985
592 240 304
560 240 304
560 240 304
576 240 320
528 256 336
448 272 448
400 368 656
432 400 865
448 496 1105
544 496 1281
656 576 1473
769 576 1617
865 656 1745
961 672 1841
993 672 1873
1137 769 1985
1201 817 2050
320 416 448
304 416 448
320 432 480
320 432 480
304 448 496
288 496 624
272 576 833
368 721 1153
464 769 1361
560 801 1521
705 833 1681
833 881 1809
929 897 1889
1041 977 2001
1121 977 2050
1153 993 2082
1361 1137 2226
256 769 785
256 769 785
256 753 785
256 753 769
256 785 865
288 865 1025
288 977 1185
400 1137 1473
528 1185 1665
705 1185 1809
817 1201 1905
961 1281 2017
1105 1345 2114
1233 1377 2194
1313 1393 2258
1425 1425 2322
1489 1473 2370
304 1201 1169
320 1217 1201
320 1217 1201
304 1217 1201
320 1217 1217
368 1297 1361
400 1377 1537
576 1601 1825
705 1633 1953
849 1633 2066
1009 1681 2162
1137 1681 2258
1281 1761 2354
1393 1761 2402
1505 1825 2498
1649 1889 2578
1713 1889 2594
432 1617 1537
464 1665 1585
464 1665 1585
480 1681 1601
480 1681 1633
496 1713 1713
544 1761 1825
753 1937 2033
881 1953 2178
1009 1985 2274
1201 2033 2386
1313 2066 2434
1425 2082 2514
1521 2098 2578
1649 2162 2658
1729 2178 2706
1841 2210 2786
849 2033 1889
897 2066 1905
849 2033 1889
849 2033 1889
881 2050 1937
881 2082 1985
1041 2210 2162
961 2210 2274
1009 2226 2354
1217 2338 2498
1329 2322 2530
1441 2354 2594
1585 2402 2690
1697 2450 2754
1793 2450 2802
1889 2466 2850
1969 2482 2914
1569 2434 2098
1505 2386 2066
1569 2434 2098
1569 2434 2114
1505 2402 2098
1425 2418 2210
1249 2402 2290
1233 2434 2370
1233 2498 2466
1297 2530 2594
1425 2546 2674
1537 2562 2706
1633 2546 2722
1745 2594 2802
1825 2610 2850
1905 2610 2898
2017 2674 2962
1969 2658 2226
1937 2642 2194
1969 2658 2226
1953 2642 2194
1937 2642 2226
1857 2642 2306
1649 2658 2434
1601 2674 2514
1457 2658 2562
1409 2642 2626
1473 2690 2706
1553 2706 2754
1649 2706 2802
1745 2738 2850
1841 2738 2882
1905 2754 2930
2001 2786 2978
2178 2818 2306
2162 2786 2274
2162 2786 2290
2162 2786 2290
2178 2802 2306
2066 2834 2434
1937 2866 2562
1857 2850 2594
1697 2818 2658
1633 2818 2706
1569 2818 2738
1601 2818 2770
1649 2818 2834
1761 2850 2898
1857 2834 2930
1969 2882 2994
2033 2882 3010
2386 2914 2274
2386 2914 2274
2402 2914 2290
2386 2914 2274
2402 2930 2306
2322 2978 2466
2146 2978 2626
2050 2962 2658
1969 2962 2690
1969 2978 2770
1873 2962 2786
1761 2930 2786
1761 2930 2850
1761 2930 2898
1841 2946 2962
1921 2946 2978
2033 2978 3026
2546 2978 2210
2546 2978 2210
2530 2978 2194
2546 2978 2210
2546 3026 2258
2514 3074 2450
2258 3074 2658
2194 3058 2706
2194 3090 2770
2114 3058 2802
2130 3090 2850
2017 3058 2866
1889 3010 2882
1921 3042 2930
1905 3042 2962
1905 3010 2978
2001 3042 3026
2642 3090 2274
2626 3074 2242
2610 3058 2242
2626 3074 2258
2642 3090 2306
2562 3106 2450
2354 3154 2690
2322 3154 2754
2338 3170 2818
2274 3154 2834
2226 3154 2882
2210 3154 2914
2082 3138 2946
2033 3138 2962
2033 3138 2994
2082 3154 3042
2082 3138 3058
817 176 208
865 192 208
849 192 224
833 192 224
849 192 256
592 192 320
496 240 464
464 272 656
480 352 977
544 352 1121
656 400 1329
753 464 1505
849 480 1617
913 496 1697
977 512 1777
1073 560 1873
1137 608 1937
833 192 224
865 192 208
817 176 208
833 176 208
849 192 256
608 208 320
480 208 448
480 288 705
480 368 993
560 384 1153
640 384 1329
753 464 1505
849 496 1633
913 480 1697
1009 528 1793
1073 576 1889
