其他预设/【236】赛博朋克风调色预设/【后期菌】视频调色预设/3DL/Tokyo 05.3dl
# LUT by SparkleStock. Enhanced with VOXCOLOR algorithms.
0 128 256 384 512 640 768 896 1023
592 240 160
608 240 160
544 240 192
368 288 368
368 432 640
480 576 945
769 865 1425
929 993 1633
1073 1137 1841
608 256 176
592 240 160
576 256 208
384 288 368
368 432 624
480 560 945
721 801 1377
913 977 1617
1041 1089 1793
560 240 176
592 240 192
528 240 192
368 304 384
400 496 705
560 672 1073
817 913 1489
1009 1089 1729
1121 1185 1889
496 352 336
528 368 352
528 368 352
432 496 608
624 833 1121
945 1153 1585
1249 1409 1953
1329 1441 2066
1521 1617 2226
897 672 592
945 721 656
929 737 672
913 1041 1121
1393 1777 1953
1729 2017 2306
1905 2146 2498
2017 2242 2690
2098 2306 2802
1889 1729 1505
1921 1777 1569
1937 1825 1633
1953 2050 1953
2033 2402 2434
2162 2562 2706
2306 2690 2930
2386 2738 3090
2482 2834 3266
2690 2306 1873
2706 2306 1873
2642 2306 1889
2546 2482 2242
2482 2722 2610
2402 2866 2946
2482 2978 3138
2546 3010 3250
2626 3074 3410
3170 2594 2033
3186 2578 1985
3186 2594 2033
3010 2850 2514
2914 2930 2722
2754 3026 2962
2674 3122 3202
2658 3170 3346
2738 3218 3475
3491 2754 2017
3523 2786 2050
3507 2802 2066
3218 2994 2594
3218 3106 2866
3170 3218 3106
3042 3282 3282
2946 3362 3475
2962 3410 3555
592 240 176
608 256 176
592 256 192
368 288 368
368 416 608
480 560 929
769 865 1425
929 993 1633
1073 1137 1841
608 256 176
608 256 176
544 240 192
384 288 368
368 432 640
496 576 961
721 801 1377
897 977 1601
1041 1089 1793
608 256 192
592 240 192
544 256 208
368 304 400
400 496 705
544 656 1057
785 881 1457
1009 1089 1729
1137 1201 1905
528 352 336
528 368 352
512 368 352
432 480 576
672 881 1201
929 1137 1569
1185 1345 1905
1377 1473 2098
1569 1665 2274
945 705 608
961 721 640
945 753 672
929 1041 1121
1425 1809 1969
1697 1985 2274
1889 2130 2482
2001 2210 2642
2098 2306 2802
1889 1729 1505
1889 1729 1505
1857 1745 1569
1937 2017 1905
2017 2386 2434
2130 2530 2674
2290 2674 2930
2386 2738 3090
2482 2834 3266
2690 2306 1873
2690 2306 1873
2658 2306 1889
2546 2498 2258
2498 2690 2562
2402 2850 2898
2450 2946 3090
2546 3010 3250
2610 3058 3362
3170 2594 2017
3170 2594 2033
3186 2594 2033
3026 2866 2530
2914 2946 2738
2818 3058 3010
2674 3122 3170
2658 3186 3362
2738 3218 3475
3523 2786 2050
3475 2754 2017
3507 2786 2066
3250 3026 2626
3218 3122 2866
3138 3218 3106
2978 3266 3266
2930 3346 3459
2946 3410 3539
656 256 160
640 240 160
640 256 192
416 304 368
368 448 656
512 608 1009
753 833 1409
945 1009 1649
1089 1153 1857
656 256 160
672 272 176
656 272 192
432 304 384
416 496 689
512 608 1009
801 897 1473
945 1025 1649
1089 1153 1857
721 288 192
721 288 192
689 272 192
464 336 400
416 528 737
608 721 1153
881 977 1553
1041 1121 1761
1185 1233 1937
592 400 368
608 416 384
544 400 384
496 544 640
689 913 1233
961 1169 1601
1265 1409 1969
1393 1489 2114
1569 1649 2274
993 689 560
1025 721 592
1009 817 721
1057 1185 1265
1489 1873 2033
1729 2033 2306
1937 2178 2530
2050 2290 2722
2146 2354 2850
2082 1697 1409
2082 1713 1409
1937 1825 1633
1953 2050 1953
2066 2434 2466
2146 2562 2690
2322 2722 2962
2434 2802 3154
2498 2850 3282
2850 2338 1809
2786 2258 1729
2754 2418 2017
2546 2514 2290
2498 2738 2626
2386 2850 2914
2482 2978 3138
2562 3026 3266
2642 3090 3427
3266 2562 1857
3266 2530 1825
3202 2594 2001
3074 2882 2530
2962 2962 2770
2818 3058 3010
2674 3122 3170
2690 3202 3378
2754 3250 3491
3571 2690 1825
3587 2706 1841
3555 2738 1937
3298 2994 2546
3266 3154 2898
3202 3234 3122
3026 3250 3234
2994 3346 3443
2994 3427 3555
1137 368 144
1153 384 160
1169 400 176
1025 384 240
640 416 496
592 672 1089
1009 1105 1697
1169 1233 1889
1281 1345 2033
1169 400 176
1169 400 176
1201 432 208
1009 416 272
672 464 560
608 672 1121
1025 1121 1713
1185 1249 1905
1281 1345 2033
1297 448 192
1313 464 208
1281 464 208
1137 480 304
624 512 640
672 785 1217
1105 1217 1793
1217 1313 1937
1345 1393 2082
1873 672 240
1841 672 240
1825 689 288
1425 656 416
929 1153 1505
1281 1489 1953
1457 1617 2130
1633 1745 2306
1777 1873 2450
1985 913 368
2017 945 384
1857 961 512
1329 1521 1569
1665 2033 2194
1889 2178 2450
2066 2338 2690
2210 2466 2898
2290 2546 3042
2962 1521 496
2914 1489 464
2834 1553 640
2258 2338 2194
2162 2530 2530
2306 2722 2882
2418 2850 3074
2498 2898 3250
2578 2946 3362
3314 2033 961
3346 2066 993
3346 2146 1153
2946 2706 2370
2674 2850 2738
2530 2946 2994
2562 3058 3218
2674 3154 3378
2754 3186 3507
3619 2482 1409
3587 2434 1361
3603 2482 1489
3491 2866 2226
3122 3058 2850
3010 3154 3058
2882 3234 3250
2866 3282 3443
2930 3362 3587
3715 2754 1745
3715 2738 1729
3731 2786 1809
3763 2914 2050
3346 3202 2962
3346 3314 3186
3330 3378 3330
3250 3443 3475
3202 3475 3571
2001 656 176
2017 672 176
1969 656 176
1777 640 240
1201 624 560
865 961 1297
1057 1121 1633
1201 1233 1825
1329 1345 1985
2017 672 192
2050 689 208
2017 672 224
1809 672 272
1249 656 576
849 945 1265
1057 1121 1633
1185 1233 1809
1377 1393 2033
2050 689 192
2130 737 224
2098 753 256
1889 737 336
1297 737 689
913 1025 1377
1153 1217 1729
1249 1281 1889
1393 1409 2033
2306 865 256
2354 913 288
2306 897 304
2162 961 480
1505 1073 1121
1313 1457 1809
1601 1697 2162
1937 2017 2530
2033 2114 2690
2754 1169 240
2786 1201 272
2818 1249 304
2626 1313 640
1953 2178 2258
2146 2434 2690
2306 2610 2962
2418 2706 3154
2482 2754 3266
3170 1729 592
3186 1745 592
3186 1745 608
3282 1921 833
2434 2754 2738
2498 2946 3074
2578 3010 3266
2706 3090 3443
2770 3122 3523
3555 2290 1121
3555 2290 1121
3539 2274 1121
3619 2402 1313
3234 3026 2738
2914 3138 3122
2818 3234 3362
2946 3346 3603
2994 3378 3651
3747 2706 1633
3731 2674 1585
3747 2722 1665
3763 2770 1761
3683 3074 2482
3362 3314 3186
3346 3443 3427
3202 3475 3587
3202 3523 3699
3843 2962 1969
3843 2946 1953
3843 2962 1985
3875 3074 2162
3907 3154 2370
3539 3378 3202
3555 3507 3410
3491 3539 3523
3491 3587 3619
2418 849 192
2434 865 208
2418 865 224
2242 849 304
1713 913 753
1169 1313 1617
1313 1393 1857
1425 1457 1985
1601 1617 2162
2434 865 208
2466 897 240
2434 881 240
2258 865 320
1729 897 705
1121 1265 1553
1313 1377 1857
1441 1473 2001
1633 1633 2194
2498 913 240
2482 913 256
2466 929 272
2322 929 368
1793 993 817
1313 1441 1729
1377 1457 1921
1457 1489 2017
1681 1681 2226
2626 1073 304
2642 1089 320
2642 1105 384
2466 1137 560
2050 1441 1329
1681 1825 2082
1793 1873 2242
1937 2001 2402
2001 2050 2514
2962 1393 320
2994 1409 336
2994 1425 352
2962 1505 672
2498 2066 1873
2258 2450 2594
2354 2530 2786
2514 2722 3074
2642 2850 3298
3410 2001 769
3410 2001 769
3378 1985 769
3459 2098 913
3539 2242 1201
2706 3058 3154
2770 3154 3378
2882 3250 3571
2994 3314 3651
3715 2530 1361
3699 2498 1313
3699 2514 1345
3731 2626 1505
3811 2786 1793
3378 3202 2994
3138 3346 3427
3106 3475 3667
3186 3491 3731
3827 2882 1793
3827 2866 1761
3843 2914 1841
3891 2978 2017
3923 3106 2258
3843 3250 2658
3539 3459 3346
3443 3539 3619
3427 3587 3683
3907 3074 2114
3907 3074 2114
3907 3090 2130
3939 3170 2274
3971 3266 2434
3955 3362 2674
3731 3491 3218
3667 3603 3539
3635 3635 3603
2626 977 224
2626 977 224
2626 1009 256
2482 1009 352
2050 1121 881
1409 1473 1697
1537 1617 2017
1649 1681 2146
1761 1777 2258
2642 993 240
2642 993 240
2658 1041 288
2530 1057 400
2114 1121 833
1409 1473 1697
1521 1601 1985
1649 1697 2162
1761 1761 2258
2674 1041 256
2706 1073 288
2690 1041 272
2546 1073 400
2130 1217 977
1489 1569 1809
1649 1713 2098
1761 1809 2242
1889 1905 2370
2834 1217 368
2866 1249 400
2882 1281 432
2706 1361 705
2306 1601 1393
1889 2001 2178
2033 2114 2434
2098 2194 2546
2210 2274 2690
3106 1521 368
3138 1569 416
3138 1569 416
3154 1713 785
2786 2258 1969
2482 2642 2706
2466 2674 2882
2578 2786 3074
2642 2866 3218
3523 2114 881
3555 2178 929
3555 2178 929
3619 2274 1073
3683 2450 1345
3266 2962 2738
2866 3154 3314
2994 3282 3523
3106 3346 3651
3779 2674 1521
3779 2658 1505
3763 2642 1489
3763 2722 1617
3827 2834 1825
3859 3010 2178
3699 3218 2834
3507 3427 3378
3362 3587 3747
3891 2994 1953
3891 2994 1937
3891 3010 1969
3907 3058 2098
3923 3154 2338
3955 3282 2578
3891 3362 2866
3715 3523 3346
3587 3619 3683
3939 3170 2226
3955 3186 2242
3955 3186 2258
3971 3266 2418
3971 3378 2642
4003 3491 2866
3971 3507 2962
3795 3587 3362
3715 3651 3603
2834 1137 272
2834 1137 272
2834 1137 288
2690 1153 400
2242 1249 913
1697 1633 1777
1809 1889 2210
1873 1905 2322
1969 1985 2434
2834 1137 272
2850 1169 304
2818 1121 272
2706 1169 416
2274 1313 977
1697 1633 1777
1761 1825 2162
1857 1905 2306
1969 1985 2434
2882 1201 304
2882 1185 304
2882 1201 336
2722 1217 480
2306 1377 1073
1761 1761 1905
1841 1921 2242
1969 2001 2386
2033 2050 2482
2978 1345 432
3010 1377 464
2994 1361 480
2898 1489 753
2562 1809 1505
2082 2178 2306
2146 2242 2514
2258 2370 2706
2306 2402 2802
3218 1665 480
3218 1665 480
3202 1665 480
3298 1841 753
2994 2386 2050
2770 2658 2610
2562 2786 2962
2658 2882 3154
2786 2994 3330
3651 2306 1057
3651 2306 1057
3603 2274 1025
3667 2386 1185
3715 2530 1409
3459 2914 2530
3170 3122 3154
3122 3314 3507
3218 3443 3683
3811 2738 1585
3795 2706 1553
3795 2722 1585
3795 2786 1697
3843 2914 1921
3891 3058 2242
3907 3138 2482
3635 3330 3154
3491 3571 3699
3955 3090 2114
3939 3090 2114
3923 3074 2098
3939 3170 2274
3939 3250 2466
3955 3330 2626
3971 3378 2834
3859 3475 3122
3667 3635 3651
4003 3282 2402
3987 3266 2370
4003 3314 2434
3971 3346 2546
3987 3491 2786
3987 3539 2962
3971 3571 3106
3987 3619 3250
3827 3699 3587
2930 1233 304
2946 1265 320
2930 1249 320
2818 1233 432
2434 1425 1041
1969 1777 1841
1969 2033 2338
1985 2017 2386
2066 2082 2498
2914 1233 304
2914 1233 304
2914 1233 304
2834 1281 480
2434 1425 1041
1937 1745 1809
1969 2033 2306
2017 2050 2402
2098 2114 2530
2962 1297 336
2978 1297 352
2946 1265 336
2866 1297 480
2514 1505 1121
2033 1841 1889
2017 2082 2370
2066 2114 2466
2130 2162 2578
3074 1457 480
3074 1457 496
3042 1441 512
2978 1585 849
2690 1921 1585
2370 2322 2322
2242 2370 2610
2338 2466 2786
2402 2514 2914
3266 1745 512
3266 1745 512
3282 1745 544
3362 1921 769
3138 2450 2050
2930 2706 2578
2674 2914 3090
2738 2978 3218
2866 3074 3410
3699 2370 1121
3683 2386 1137
3683 2370 1121
3715 2498 1329
3747 2610 1521
3587 2962 2498
3362 3122 3026
3186 3314 3491
3218 3443 3683
3843 2786 1649
3843 2786 1665
3811 2770 1633
3843 2850 1793
3875 2978 2001
3891 3074 2290
3939 3138 2450
3795 3298 2962
3571 3587 3667
3971 3106 2146
3955 3106 2130
3939 3090 2130
3939 3186 2290
3971 3282 2498
3955 3378 2706
3971 3443 2882
3987 3491 2978
3779 3651 3619
4019 3362 2514
4003 3362 2514
4019 3410 2546
4003 3475 2706
3987 3539 2898
3971 3571 3090
3971 3651 3266
3955 3651 3362
3859 3699 3571
