其他预设/【236】赛博朋克风调色预设/【后期菌】视频调色预设/3DL/Tokyo 01_S.3dl
# LUT by SparkleStock. Enhanced with VOXCOLOR algorithms.
0 128 256 384 512 640 768 896 1023
288 160 288
320 160 288
272 160 336
144 224 512
112 336 705
96 400 929
112 512 1153
128 608 1345
144 705 1537
320 176 320
288 160 288
288 176 352
160 240 560
112 336 705
96 400 929
112 480 1121
128 608 1345
144 672 1505
288 160 336
288 176 352
272 160 368
160 240 528
96 368 785
96 464 993
112 528 1185
144 656 1409
144 721 1633
224 288 464
240 272 512
240 272 512
144 416 785
80 560 977
96 672 1233
128 849 1537
160 913 1649
224 1025 1825
416 496 705
448 528 737
400 576 753
288 672 961
112 1105 1441
208 1313 1761
320 1441 1969
400 1585 2162
464 1729 2322
1057 1169 1281
1121 1233 1345
1073 1297 1361
945 1537 1617
464 1761 1905
496 2033 2290
608 2146 2482
993 2290 2658
1361 2418 2834
2402 2146 1969
2418 2162 1969
2338 2146 1937
2130 2274 2194
1873 2418 2402
1297 2530 2610
1425 2642 2802
1697 2722 2946
1937 2834 3106
3042 2546 2194
3058 2546 2178
3042 2562 2226
2818 2738 2530
2642 2818 2626
2434 2866 2770
2322 3010 3010
2146 3026 3122
2242 3026 3202
3459 2738 2370
3475 2770 2402
3491 2786 2402
3138 2946 2642
3058 3026 2802
3010 3106 2962
2898 3186 3106
2802 3234 3234
2722 3250 3282
288 160 320
320 176 336
288 176 352
144 224 512
96 320 689
80 400 929
112 512 1153
128 608 1345
144 705 1537
320 176 320
320 176 336
272 160 336
160 240 528
112 336 721
96 416 945
112 480 1121
128 592 1329
144 672 1505
320 176 352
288 192 352
288 208 400
192 272 576
96 368 785
96 448 977
96 512 1153
144 656 1409
160 737 1633
224 320 480
240 320 512
240 352 560
128 400 753
80 576 1025
96 672 1233
112 817 1473
176 929 1665
240 1057 1857
448 512 721
432 528 737
400 576 785
288 672 961
112 1105 1441
208 1297 1745
288 1409 1921
368 1537 2114
464 1729 2322
1057 1185 1297
1057 1169 1281
1041 1233 1313
881 1473 1601
464 1761 1905
448 1985 2242
608 2146 2466
1025 2290 2658
1393 2418 2850
2402 2146 1969
2418 2162 1969
2370 2162 1937
2114 2274 2210
1809 2386 2370
1281 2498 2578
1313 2610 2770
1697 2722 2946
1905 2818 3074
3058 2546 2194
3058 2546 2210
3058 2562 2226
2834 2754 2546
2642 2818 2626
2514 2898 2802
2290 2994 2978
2130 3026 3154
2242 3026 3202
3475 2770 2402
3459 2738 2354
3475 2770 2386
3170 2962 2658
3074 3026 2802
2962 3090 2946
2834 3170 3090
2754 3218 3218
2722 3234 3282
320 160 320
320 160 320
336 176 352
176 240 576
112 336 721
96 432 945
112 480 1137
128 624 1361
144 721 1553
336 160 320
400 192 336
448 224 448
288 288 721
176 384 865
96 432 961
112 512 1169
128 624 1361
144 721 1553
400 240 288
496 368 368
528 400 512
384 464 833
256 480 977
128 496 1089
112 576 1217
144 672 1425
176 753 1665
352 432 480
448 592 528
464 656 689
368 672 961
224 737 1185
128 721 1329
128 849 1537
192 961 1681
256 1057 1857
480 560 640
576 737 656
560 865 881
480 1025 1169
240 1297 1601
224 1345 1777
336 1457 1985
432 1665 2210
560 1825 2402
1425 1313 1345
1409 1361 1313
1089 1361 1377
977 1633 1633
560 1857 2001
480 2033 2274
705 2194 2514
1137 2354 2722
1457 2466 2882
2610 2194 1969
2530 2114 1873
2466 2274 2066
2098 2290 2226
1857 2434 2402
1217 2482 2578
1473 2658 2802
1793 2770 2978
2017 2866 3122
3186 2530 2146
3186 2514 2130
3106 2562 2226
2882 2770 2546
2722 2866 2658
2530 2898 2786
2370 3010 3010
2258 3074 3170
2274 3058 3218
3507 2642 2194
3523 2674 2242
3507 2722 2306
3234 2946 2642
3106 3058 2818
3026 3122 2962
2866 3170 3090
2818 3234 3218
2770 3266 3314
608 192 256
656 192 288
705 208 400
560 224 576
224 320 785
128 432 945
128 624 1313
160 737 1537
176 849 1665
721 240 256
865 288 352
929 352 576
737 336 801
480 400 1057
208 432 1057
144 640 1329
160 753 1553
176 833 1665
881 416 240
1041 560 400
1073 608 656
929 608 945
624 608 1217
336 576 1233
144 689 1393
160 785 1553
224 865 1745
1361 689 368
1409 913 512
1425 993 785
1121 929 1073
624 993 1505
352 977 1665
176 961 1649
256 1121 1841
336 1201 2017
1329 881 480
1393 1089 576
1345 1217 849
865 1377 1377
576 1585 1825
448 1633 2033
416 1681 2162
592 1905 2402
897 2050 2594
2722 1345 801
2562 1457 753
2386 1585 977
1521 2082 1889
897 2114 2178
689 2226 2434
1089 2370 2674
1505 2498 2834
1825 2626 3010
3282 1857 1297
3266 1921 1313
3234 2017 1473
2658 2546 2354
2386 2674 2594
1857 2690 2690
1777 2818 2898
2098 2946 3106
2226 2978 3202
3587 2402 1697
3571 2370 1681
3539 2434 1841
3459 2818 2482
2946 3010 2770
2882 3058 2914
2674 3122 3058
2498 3170 3218
2450 3170 3298
3715 2642 2098
3715 2642 2098
3715 2706 2162
3731 2850 2402
3250 3122 2866
3218 3218 3026
3170 3298 3202
3058 3330 3282
3010 3362 3330
1729 400 336
1793 384 368
1777 384 512
1409 368 721
849 400 881
240 608 1105
176 705 1313
208 817 1537
240 865 1633
1809 448 288
1921 496 432
1921 496 705
1649 496 993
1137 480 1153
480 592 1297
176 705 1313
192 801 1521
240 881 1649
1937 672 288
2033 785 496
2033 817 785
1841 817 1137
1377 753 1377
624 721 1441
224 753 1393
224 865 1585
288 913 1745
2258 1025 480
2258 1185 640
2242 1233 929
2066 1201 1265
1601 1153 1569
672 1105 1729
336 1089 1761
432 1393 2066
624 1601 2306
2626 1201 352
2562 1425 512
2562 1553 817
2450 1665 1377
1441 1761 1905
737 1873 2242
672 2033 2434
1217 2242 2690
1649 2434 2898
3090 1697 833
2994 1873 865
2930 1937 1025
3010 2066 1361
1825 2466 2402
1361 2546 2674
1601 2610 2818
1969 2770 3026
2194 2850 3170
3571 2226 1521
3475 2290 1441
3443 2290 1457
3475 2434 1681
3058 2930 2674
2738 3010 2946
2354 3026 3074
2402 3106 3234
2546 3154 3314
3699 2610 1985
3683 2610 1937
3699 2642 2033
3747 2690 2162
3619 3090 2658
3218 3218 3026
3186 3298 3218
2946 3346 3346
2834 3362 3410
3811 2914 2370
3795 2882 2354
3795 2898 2354
3827 3010 2482
3811 3074 2578
3475 3314 3106
3491 3427 3266
3410 3427 3346
3410 3491 3410
2450 656 464
2482 608 496
2482 592 656
2290 608 881
1681 672 1105
705 721 1233
256 945 1521
288 1041 1665
368 1121 1809
2498 656 400
2562 672 528
2546 656 801
2402 672 1105
1937 705 1329
945 689 1345
240 945 1505
320 1041 1681
384 1137 1825
2594 865 400
2610 913 576
2594 945 865
2498 961 1217
2146 929 1521
1153 913 1569
336 1025 1601
320 1073 1697
464 1185 1921
2722 1185 608
2722 1313 721
2706 1345 1025
2594 1345 1361
2306 1393 1761
1185 1345 1873
496 1393 1889
560 1521 2033
705 1569 2194
2962 1409 448
2930 1617 608
2914 1697 881
2898 1841 1457
2562 2033 2050
1329 2066 2290
1233 2114 2434
1569 2322 2658
1937 2546 2930
3378 2033 1057
3266 2130 1041
3218 2162 1153
3250 2274 1457
3346 2354 1793
2386 2770 2786
2178 2834 3026
2306 2962 3186
2482 3042 3298
3683 2450 1761
3603 2466 1633
3587 2498 1697
3571 2642 1921
3555 2770 2162
3250 3138 2866
2786 3202 3218
2642 3234 3330
2770 3266 3394
3763 2818 2178
3747 2802 2146
3763 2834 2226
3715 2946 2338
3683 3074 2482
3651 3250 2770
3459 3346 3202
3362 3443 3378
3234 3459 3443
3811 3042 2466
3811 3042 2466
3811 3042 2482
3827 3106 2562
3843 3202 2642
3843 3282 2786
3667 3410 3170
3603 3507 3378
3587 3539 3427
2818 833 608
2834 801 608
2818 785 721
2626 817 961
2130 945 1233
1233 993 1377
368 1185 1681
384 1201 1809
480 1297 1921
2882 833 560
2898 785 608
2946 801 849
2786 865 1137
2402 913 1409
1377 961 1473
352 1169 1649
400 1201 1825
464 1281 1905
2946 945 528
2994 1025 672
2994 1025 913
2850 1041 1265
2514 1089 1569
1505 1105 1617
400 1281 1745
464 1329 1889
656 1441 2098
3010 1233 737
3058 1345 801
3074 1409 1073
3010 1505 1457
2674 1521 1825
1873 1585 2050
865 1665 2130
801 1729 2162
1121 1873 2386
3186 1521 608
3202 1665 689
3218 1793 929
3218 1937 1521
2978 2194 2162
2626 2322 2498
1985 2354 2674
1921 2450 2786
2050 2578 2882
3523 2130 1201
3523 2242 1233
3459 2306 1297
3427 2450 1585
3427 2498 1937
3202 2802 2690
2706 2834 3010
2594 2994 3218
2690 3122 3330
3731 2610 1937
3699 2610 1889
3619 2658 1761
3555 2802 1937
3539 2898 2226
3587 3010 2546
3555 3186 2946
3394 3298 3234
3074 3410 3459
3779 2930 2290
3779 2930 2306
3715 3010 2226
3667 3106 2306
3635 3202 2450
3667 3298 2706
3731 3346 2962
3635 3443 3250
3555 3523 3459
3827 3106 2530
3827 3106 2530
3827 3106 2530
3795 3218 2594
3795 3330 2690
3827 3394 2882
3843 3427 3010
3731 3491 3266
3667 3555 3427
3010 993 737
3026 977 753
3010 993 817
2866 1057 993
2402 1153 1313
1697 1233 1553
592 1457 1841
624 1505 1985
753 1585 2130
3026 977 705
3106 961 737
3106 929 833
2994 993 1121
2546 1153 1425
1697 1233 1553
592 1393 1809
592 1473 1969
753 1585 2130
3122 1089 737
3170 1073 753
3202 1089 929
3090 1137 1233
2658 1233 1553
1921 1345 1761
705 1505 1921
672 1585 2033
881 1633 2226
3202 1361 993
3266 1393 961
3314 1425 1121
3266 1553 1457
3010 1697 1937
2418 1825 2226
1473 1857 2354
1233 1937 2370
1409 2066 2498
3362 1617 833
3410 1681 849
3443 1809 961
3523 1985 1441
3330 2274 2226
3026 2386 2578
2466 2418 2802
2338 2546 2946
2274 2722 2994
3619 2226 1457
3619 2274 1361
3619 2370 1345
3619 2482 1617
3635 2562 2017
3523 2786 2642
3234 2866 3010
2882 3010 3282
2802 3170 3378
3731 2642 2001
3699 2674 1857
3683 2786 1777
3683 2898 1937
3683 2978 2242
3715 3042 2594
3731 3106 2802
3603 3250 3218
3250 3427 3443
3827 3026 2402
3827 3026 2402
3763 3090 2210
3747 3250 2322
3731 3298 2466
3747 3378 2722
3795 3378 2962
3811 3427 3170
3619 3539 3459
3827 3202 2610
3827 3186 2610
3827 3218 2610
3827 3346 2578
3811 3443 2738
3827 3507 2946
3827 3475 3090
3859 3523 3218
3827 3603 3427
3090 1121 817
3090 1121 833
3106 1153 881
3010 1201 1089
2594 1345 1441
2114 1521 1761
817 1665 2001
753 1633 2050
913 1729 2210
3074 1105 817
3074 1105 817
3090 1089 833
3026 1233 1137
2594 1345 1425
2098 1505 1745
961 1617 2017
801 1681 2082
961 1777 2226
3122 1169 865
3154 1185 881
3170 1153 881
3154 1281 1201
2850 1409 1601
2370 1569 1937
945 1697 2082
865 1761 2130
1057 1825 2290
3266 1441 1105
3298 1457 1137
3394 1521 1169
3427 1633 1505
3234 1825 1985
2850 1969 2322
1873 2001 2482
1569 2114 2498
1601 2178 2594
3410 1649 897
3443 1681 881
3603 1825 993
3731 2017 1441
3619 2338 2274
3346 2418 2594
2850 2514 2866
2562 2626 3026
2402 2802 3058
3651 2322 1569
3699 2386 1441
3779 2434 1425
3843 2530 1681
3859 2610 2066
3811 2802 2642
3587 2882 3010
3074 3026 3298
2850 3186 3362
3763 2722 2082
3795 2786 1905
3827 2818 1809
3875 2962 2001
3891 3010 2274
3907 3058 2594
3891 3090 2802
3811 3218 3090
3443 3427 3475
3827 3058 2418
3843 3058 2402
3859 3154 2210
3891 3282 2290
3907 3346 2466
3891 3394 2722
3891 3394 2962
3891 3427 3090
3715 3555 3443
3843 3250 2674
3843 3250 2674
3859 3282 2626
3859 3427 2626
3859 3491 2802
3875 3555 3010
3859 3587 3218
3859 3555 3282
3843 3619 3427
