其他预设/【236】赛博朋克风调色预设/【后期菌】视频调色预设/3DL/Tokyo 06_S.3dl
# LUT by SparkleStock. Enhanced with VOXCOLOR algorithms.
0 256 512 768 1023
400 160 272
368 192 320
208 480 769
0 1121 2066
16 1313 2546
384 192 304
336 208 352
208 576 849
0 1169 2146
16 1345 2610
656 897 753
592 977 849
48 2001 2514
176 2242 3026
336 2370 3266
2210 2338 1841
2114 2338 1857
1297 2802 2882
1329 3074 3346
1777 3186 3587
3443 3010 1921
3459 3042 1953
2466 3218 3074
2338 3362 3346
2162 3443 3571
464 176 288
464 208 336
208 496 785
0 1073 2033
16 1313 2546
608 256 272
640 416 512
336 672 1073
16 1233 2258
48 1361 2658
785 897 672
753 1233 945
176 2082 2530
192 2258 3042
448 2418 3314
2482 2354 1601
2242 2466 2017
1345 2818 2898
1393 3090 3346
1873 3218 3603
3683 2978 1569
3603 3058 1873
2530 3266 3122
2322 3346 3330
2274 3475 3587
2386 304 208
2306 288 400
1169 448 961
160 1121 2178
80 1281 2562
2354 576 160
2290 721 656
1553 817 1489
208 1185 2290
160 1329 2642
3010 1377 16
2786 1633 512
1745 2146 2450
1345 2738 3362
1793 2946 3603
3955 2290 96
3795 2354 192
2962 3250 3026
2482 3427 3523
2482 3507 3731
4051 2914 256
4051 2914 256
3971 3346 2338
3218 3635 3539
3122 3699 3683
3250 817 48
3186 721 208
2626 544 897
1057 1473 2498
1185 1553 2738
3250 913 64
3202 961 512
2818 721 1265
1265 1569 2562
1409 1665 2834
3555 1537 16
3427 1745 496
3234 2033 2017
2754 2754 3234
2738 3106 3555
4095 2482 160
3891 2562 288
3731 2834 849
3619 3394 3122
3138 3683 3827
4095 3010 224
4095 3026 224
4003 3443 2146
3971 3651 3090
3635 3763 3667
3555 1137 48
3539 1153 64
3090 737 769
2130 1665 2594
1889 1921 2914
3571 1185 64
3571 1153 128
3250 865 945
2258 1697 2642
2033 2033 2978
3747 1553 16
3859 1713 304
3859 2258 2130
3523 2674 3138
2962 3250 3619
4095 2562 144
4067 2706 384
4051 2930 1073
4051 3202 2738
3635 3603 3683
4095 3154 400
4095 3218 576
4035 3635 2610
4019 3731 3266
3891 3763 3619
