其他预设/【236】赛博朋克风调色预设/【后期菌】视频调色预设/3DL/Tokyo 05_S.3dl
# LUT by SparkleStock. Enhanced with VOXCOLOR algorithms.
0 256 512 768 1023
592 240 160
544 240 192
368 432 640
769 865 1425
1073 1137 1841
560 240 176
528 240 192
400 496 705
817 913 1489
1105 1185 1937
897 672 592
913 769 672
1393 1777 1953
1905 2146 2498
2098 2306 2802
2690 2306 1873
2594 2322 1873
2482 2722 2610
2482 2978 3138
2626 3074 3410
3491 2754 2017
3507 2802 2066
3218 3106 2866
3042 3282 3282
2962 3410 3555
656 256 160
640 256 208
368 448 656
753 833 1409
1089 1153 1857
737 336 176
769 448 400
496 592 913
881 977 1553
1185 1233 1985
993 737 544
1009 1025 769
1441 1889 2033
1937 2178 2530
2146 2354 2850
2850 2338 1809
2722 2434 2001
2498 2738 2626
2482 2978 3138
2642 3090 3427
3571 2690 1825
3555 2738 1937
3266 3154 2898
3026 3250 3234
2994 3427 3555
2001 640 176
1985 544 320
1265 576 672
1057 1121 1633
1329 1345 1985
2050 785 128
2066 881 624
1569 833 1201
1169 1217 1761
1409 1409 2066
2578 1377 176
2466 1601 624
1985 2130 2178
2306 2610 2962
2482 2754 3266
3555 2290 1121
3410 2338 1105
3186 3026 2706
2818 3234 3362
2994 3378 3651
3843 2962 1969
3843 2962 1985
3907 3154 2370
3555 3507 3410
3491 3587 3619
2642 961 224
2674 881 352
2082 1073 929
1537 1617 2017
1761 1777 2258
2754 1041 192
2850 1025 592
2418 1153 1297
1649 1713 2098
1905 1889 2402
3090 1617 304
3106 1777 672
2914 2146 2001
2578 2546 2914
2642 2866 3218
3779 2674 1521
3651 2706 1409
3571 2914 1889
3555 3186 2882
3362 3587 3747
3939 3170 2226
3955 3186 2258
3907 3443 2594
3955 3523 2962
3715 3651 3603
2930 1233 304
2930 1249 320
2434 1425 1041
1969 2033 2338
2066 2082 2498
2962 1297 336
3026 1249 384
2706 1441 1233
2098 2050 2402
2130 2162 2578
3282 1745 496
3507 1825 672
3555 2274 2050
3106 2642 3074
2866 3074 3410
3843 2786 1649
3891 2850 1457
3971 3010 2017
3987 3106 2674
3587 3571 3683
4019 3362 2498
4019 3427 2498
4003 3635 2786
3971 3667 3218
3859 3699 3571
