其他预设/【236】赛博朋克风调色预设/【后期菌】视频调色预设/3DL/Tokyo 08_S.3dl
# LUT by SparkleStock. Enhanced with VOXCOLOR algorithms.
0 128 256 384 512 640 768 896 1023
400 288 400
416 304 400
400 304 416
256 384 608
112 624 1073
80 897 1489
112 1121 1793
128 1201 1937
144 1345 2082
432 320 416
416 288 400
432 336 448
272 400 624
112 624 1073
64 881 1473
80 1089 1761
112 1201 1937
112 1313 2066
416 320 432
432 336 432
400 336 432
256 400 640
128 705 1169
112 977 1537
112 1137 1825
144 1249 1969
144 1377 2146
240 496 592
272 512 640
256 512 640
144 705 993
128 1025 1441
176 1249 1793
224 1409 2017
208 1489 2146
208 1617 2338
256 1025 1121
288 1089 1185
256 1105 1201
240 1217 1425
272 1537 1825
336 1761 2178
336 1889 2386
304 1969 2578
272 2033 2690
656 1777 1777
721 1841 1825
689 1857 1825
624 1937 2001
496 2050 2242
416 2242 2562
384 2338 2786
320 2386 2946
304 2498 3154
1601 2322 2146
1601 2322 2162
1521 2322 2130
1313 2338 2306
1153 2466 2498
672 2562 2722
496 2642 2946
400 2690 3122
384 2754 3282
2258 2722 2290
2258 2722 2290
2258 2722 2322
1889 2754 2594
1665 2786 2690
1361 2802 2818
977 2866 2994
592 2898 3186
432 2930 3314
2738 2930 2418
2754 2962 2434
2754 2962 2450
2194 2994 2722
2050 3026 2866
1873 3058 2994
1649 3090 3138
1185 3106 3266
961 3106 3346
416 304 400
432 320 416
432 336 432
256 384 608
96 592 1057
64 881 1473
112 1121 1793
128 1201 1937
144 1345 2082
432 320 416
432 320 416
400 304 416
272 400 608
112 624 1073
96 897 1489
80 1089 1777
112 1185 1921
112 1313 2066
448 336 448
432 352 432
400 368 480
272 432 672
128 705 1169
96 945 1521
96 1105 1793
144 1249 1953
144 1377 2162
256 512 608
256 528 640
256 560 672
128 672 945
144 1041 1473
160 1249 1793
192 1361 1985
224 1521 2178
224 1633 2370
272 1073 1169
288 1089 1185
288 1121 1217
272 1249 1425
288 1553 1841
336 1745 2162
336 1873 2370
304 1937 2530
272 2033 2690
656 1777 1777
656 1777 1777
640 1793 1777
608 1905 1985
480 2050 2226
400 2210 2514
368 2322 2754
320 2386 2946
304 2498 3154
1601 2322 2146
1601 2322 2162
1537 2322 2130
1345 2370 2322
1153 2450 2482
656 2530 2706
496 2610 2898
384 2690 3122
368 2738 3250
2274 2722 2290
2274 2722 2306
2274 2738 2322
1889 2754 2610
1681 2786 2690
1441 2834 2850
929 2850 2994
576 2914 3218
432 2930 3330
2754 2962 2434
2722 2930 2402
2754 2962 2450
2226 3026 2754
2082 3042 2882
1857 3026 2962
1489 3042 3122
1233 3090 3250
1009 3106 3330
448 320 416
448 320 400
496 352 448
304 400 656
128 624 1105
96 913 1505
96 1089 1777
128 1217 1937
144 1345 2098
464 320 400
528 352 432
544 368 528
400 432 769
224 672 1217
96 913 1505
112 1121 1809
128 1217 1937
144 1345 2098
560 416 432
624 496 464
640 528 608
464 592 881
272 769 1313
144 993 1601
144 1169 1841
160 1265 1985
192 1409 2194
368 640 624
448 769 656
464 801 769
384 897 1105
288 1137 1569
208 1281 1841
224 1409 2017
256 1553 2194
256 1633 2354
336 1073 1057
400 1185 1025
416 1297 1201
432 1457 1537
400 1665 1921
352 1777 2194
352 1905 2402
336 2017 2610
288 2082 2754
913 1873 1793
913 1889 1745
705 1873 1793
656 1969 1969
544 2114 2274
416 2226 2546
400 2354 2802
352 2450 3010
320 2514 3170
1905 2434 2162
1777 2338 2098
1681 2418 2210
1345 2370 2338
1169 2482 2514
640 2530 2690
528 2642 2946
400 2706 3138
432 2770 3298
2466 2754 2226
2466 2754 2242
2354 2754 2306
1969 2786 2610
1761 2834 2722
1489 2834 2834
1089 2850 2978
705 2946 3218
496 2962 3346
2946 2914 2290
2978 2930 2306
2930 2962 2370
2354 3042 2706
2114 3074 2898
1953 3090 2994
1601 3042 3106
1297 3106 3250
1137 3122 3362
881 496 576
929 512 640
945 496 689
833 576 929
432 689 1185
336 993 1569
272 1217 1873
256 1329 2033
256 1441 2178
961 544 544
1057 544 608
1105 560 785
945 608 1073
656 737 1393
400 993 1633
288 1233 1889
272 1345 2050
256 1441 2178
1089 705 560
1201 769 656
1201 801 865
1137 881 1217
769 913 1521
496 1073 1777
288 1281 1937
272 1377 2066
304 1473 2242
1681 1249 945
1633 1313 961
1601 1329 1137
1457 1377 1489
721 1345 1793
480 1473 2066
320 1553 2130
352 1697 2338
336 1761 2482
1377 1425 865
1425 1537 897
1377 1649 1185
817 1713 1633
672 1825 2050
496 1921 2322
432 2033 2530
416 2146 2738
336 2178 2898
2562 2033 1329
2386 2050 1185
2210 2146 1425
1153 2210 2050
801 2226 2338
512 2306 2626
544 2402 2834
464 2514 3058
400 2562 3218
3058 2386 1649
3042 2418 1665
2866 2482 1857
2017 2674 2434
1649 2626 2626
1297 2642 2770
849 2722 2978
753 2818 3202
640 2818 3314
3346 2706 1825
3298 2658 1809
3202 2754 2001
2850 2994 2514
2033 2930 2770
1873 2946 2898
1585 2978 3058
1089 3010 3250
1009 3042 3394
3539 2898 1969
3539 2898 1969
3491 2930 2050
3427 3058 2322
2418 3170 2946
2242 3186 3058
2146 3234 3218
1889 3234 3314
1777 3250 3410
2066 1169 1153
2082 1089 1137
2050 1025 1201
1889 1089 1441
1617 1281 1713
1297 1473 1889
1265 1505 2001
1281 1569 2162
1345 1633 2290
2082 1105 993
2082 993 993
2066 961 1185
1937 1009 1489
1713 1153 1777
1345 1329 1953
1265 1505 2001
1249 1537 2130
1393 1665 2306
2114 1217 881
2146 1201 961
2130 1201 1201
2033 1233 1537
1889 1361 1889
1521 1441 2050
1425 1585 2098
1409 1633 2226
1473 1665 2370
2498 1617 1121
2418 1633 1105
2386 1633 1345
2322 1665 1681
2210 1729 2050
1825 1745 2242
1377 1745 2274
1281 1889 2482
1121 1969 2706
2706 1761 753
2578 1825 833
2546 1889 1073
2610 2050 1729
2242 2114 2210
1057 2082 2498
753 2226 2738
705 2338 2978
705 2402 3122
3154 2162 1105
3010 2226 1105
2946 2258 1217
2962 2370 1569
1617 2498 2450
1121 2562 2802
1089 2578 2962
1041 2674 3154
1121 2722 3298
3603 2466 1473
3491 2514 1409
3443 2498 1441
3427 2610 1649
2514 2946 2722
2017 2898 2930
1601 2914 3106
1489 2962 3314
1585 2994 3427
3763 2802 1697
3747 2802 1697
3747 2834 1761
3779 2882 1873
3314 3218 2690
2498 3170 3042
2354 3202 3234
2017 3202 3362
1953 3234 3491
3827 3010 1921
3811 2994 1905
3811 3010 1921
3827 3106 2066
3763 3234 2418
2834 3346 3154
2786 3410 3314
2626 3394 3394
2626 3459 3539
2898 1601 1489
2866 1441 1393
2834 1409 1505
2754 1489 1729
2626 1761 2082
2258 1857 2194
2001 1825 2242
2050 1905 2370
2162 1985 2514
2834 1425 1217
2802 1297 1217
2754 1201 1361
2674 1249 1665
2610 1505 2050
2242 1665 2194
1937 1793 2226
2082 1905 2386
2162 1985 2530
2882 1521 1137
2786 1409 1105
2770 1409 1345
2722 1425 1665
2642 1585 2066
2386 1745 2290
2082 1841 2290
2114 1921 2386
2210 2001 2578
3058 1825 1233
2930 1745 1185
2882 1729 1393
2834 1761 1729
2802 1873 2162
2562 1969 2386
2306 2033 2450
2354 2130 2562
2386 2146 2706
3170 1889 801
3042 1937 849
2994 1969 1089
2978 2114 1697
2930 2194 2226
2834 2306 2514
2530 2338 2706
2434 2434 2866
2418 2546 3106
3571 2274 1073
3427 2322 1057
3346 2338 1169
3314 2386 1425
3394 2498 1873
2546 2674 2754
1969 2738 3058
1777 2834 3266
1905 2930 3443
3907 2594 1441
3795 2594 1345
3779 2626 1409
3715 2722 1617
3683 2834 1873
3026 3138 2898
2434 3074 3186
2178 3090 3346
2290 3170 3523
3939 2866 1617
3923 2850 1617
3939 2882 1665
3907 3010 1809
3827 3122 2033
3555 3378 2818
3010 3330 3234
2818 3378 3459
2690 3394 3555
3987 3074 1825
3987 3074 1825
3987 3074 1841
4003 3170 1985
3987 3250 2162
3939 3394 2562
3475 3523 3250
3314 3587 3475
3250 3587 3555
3330 1825 1633
3314 1729 1585
3282 1665 1633
3202 1745 1857
3042 1985 2194
2770 2082 2306
2338 1969 2354
2322 2001 2450
2402 2066 2562
3298 1681 1441
3266 1505 1361
3250 1457 1489
3186 1537 1809
3026 1681 2114
2722 1921 2306
2306 1937 2338
2322 2001 2450
2402 2066 2562
3314 1697 1313
3266 1585 1265
3234 1521 1425
3170 1553 1761
3058 1713 2130
2786 1937 2338
2418 2033 2402
2418 2082 2530
2498 2114 2658
3394 1905 1377
3330 1825 1265
3314 1809 1441
3218 1809 1761
3138 1921 2162
2962 2066 2450
2562 2114 2546
2562 2210 2626
2658 2290 2818
3523 1921 801
3475 1985 865
3378 2001 1041
3330 2130 1697
3234 2210 2226
3234 2354 2578
2994 2402 2770
2850 2482 2914
2834 2562 3010
3827 2290 1025
3763 2354 1025
3651 2370 1137
3523 2450 1425
3539 2514 1761
3378 2722 2674
3202 2770 2978
2866 2834 3218
2882 2978 3362
4035 2626 1361
4019 2642 1329
3843 2690 1281
3731 2802 1505
3683 2898 1841
3715 2994 2258
3539 3202 2962
3202 3234 3234
2834 3314 3603
4051 2914 1521
4035 2898 1537
3955 2962 1505
3843 3122 1729
3795 3218 2017
3763 3330 2466
3715 3443 2994
3571 3491 3330
3282 3507 3571
4051 3106 1761
4051 3122 1777
4051 3122 1793
4019 3250 2001
3971 3378 2258
3971 3475 2610
3923 3539 2914
3683 3587 3362
3523 3603 3539
3571 1953 1697
3571 1937 1681
3571 1969 1745
3443 1953 1905
3266 2098 2194
3058 2162 2370
2722 2146 2482
2642 2162 2562
2690 2210 2674
3571 1921 1633
3571 1793 1553
3539 1697 1585
3459 1761 1873
3314 1969 2194
3058 2162 2370
2674 2098 2434
2594 2130 2546
2690 2210 2674
3619 1889 1537
3587 1777 1473
3587 1745 1569
3475 1745 1825
3378 1953 2210
3138 2082 2402
2770 2098 2482
2674 2194 2610
2738 2210 2738
3683 2050 1649
3651 1953 1505
3619 1889 1553
3539 1889 1825
3443 1969 2210
3298 2098 2498
2946 2114 2642
2818 2290 2722
2882 2370 2866
3795 2017 961
3779 2017 929
3731 2017 1009
3683 2114 1553
3539 2242 2210
3491 2338 2578
3314 2402 2834
3106 2514 3010
3106 2690 3074
3971 2338 1089
3923 2354 1025
3843 2386 1041
3795 2466 1361
3795 2530 1761
3683 2690 2594
3587 2802 2994
3427 2898 3218
3234 3042 3427
4067 2658 1281
4003 2658 1185
3923 2738 1217
3875 2882 1489
3843 2946 1857
3843 3010 2274
3859 3074 2722
3747 3266 3234
3475 3346 3491
4067 3010 1665
4067 3010 1633
3987 3090 1585
3907 3234 1777
3875 3298 2098
3891 3346 2434
3891 3427 2866
3811 3491 3234
3555 3523 3523
4067 3186 1841
4067 3170 1809
4051 3218 1857
4003 3346 2001
3987 3507 2386
3987 3539 2706
3971 3587 3010
3955 3619 3266
3763 3651 3539
3699 1969 1665
3715 1985 1681
3699 2017 1745
3587 2033 1905
3443 2146 2226
3298 2242 2434
2930 2210 2514
2738 2178 2578
2802 2242 2690
3683 1953 1649
3683 1953 1649
3683 1953 1697
3619 2033 1937
3443 2146 2226
3266 2226 2418
2994 2178 2514
2786 2210 2594
2818 2242 2706
3731 2001 1713
3747 1985 1681
3747 1921 1649
3651 1969 1905
3539 2001 2210
3362 2098 2434
3026 2194 2546
2818 2242 2626
2834 2274 2722
3795 2082 1713
3811 2082 1713
3811 2033 1697
3779 2001 1905
3715 2033 2210
3587 2130 2530
3298 2210 2706
3010 2322 2786
3010 2418 2882
3875 2017 865
3891 2017 865
3923 2033 961
3971 2146 1473
3859 2274 2210
3779 2370 2594
3619 2466 2882
3330 2562 3026
3218 2738 3122
4003 2338 1025
4019 2386 977
4035 2418 1025
4035 2498 1377
4051 2562 1745
3987 2706 2578
3859 2850 2994
3635 2914 3234
3475 3090 3394
4095 2674 1249
4067 2738 1201
4067 2770 1169
4067 2898 1489
4051 2946 1857
4051 3026 2290
4051 3074 2674
3987 3218 3074
3715 3378 3475
4095 3042 1617
4095 3026 1585
4067 3122 1521
4067 3266 1761
4051 3330 2098
4051 3394 2450
4067 3427 2802
4051 3459 3010
3843 3571 3507
4095 3250 1905
4095 3250 1905
4095 3282 1889
4067 3427 2082
4051 3539 2466
4035 3587 2818
4003 3619 3154
3955 3619 3330
3891 3699 3555
