其他预设/【236】赛博朋克风调色预设/【后期菌】视频调色预设/3DL/Tokyo 10.3dl
# LUT by SparkleStock. Enhanced with VOXCOLOR algorithms.
0 256 512 768 1023
464 256 240
448 256 272
400 464 672
721 801 1281
1057 1089 1745
464 256 272
432 272 288
432 528 785
753 817 1329
1089 1137 1777
897 849 865
897 913 929
1121 1505 1697
1649 1905 2242
1985 2146 2562
2434 2162 1777
2370 2146 1777
2226 2402 2354
2354 2738 2882
2530 2914 3218
3282 2626 1953
3330 2674 2001
3010 2914 2642
2818 3058 2994
2786 3250 3378
528 256 240
496 272 272
400 480 672
721 769 1281
1073 1105 1761
544 272 256
544 304 304
464 560 833
801 881 1393
1121 1185 1841
945 849 833
961 945 961
1201 1601 1777
1681 1921 2258
2050 2210 2626
2546 2178 1729
2482 2242 1873
2242 2418 2354
2354 2754 2882
2546 2946 3250
3410 2578 1777
3346 2626 1889
3058 2930 2642
2802 3026 2946
2818 3266 3394
1841 672 272
1761 689 320
1025 737 913
1041 1105 1521
1329 1329 1889
1889 737 320
1937 801 400
1169 897 1073
1105 1185 1617
1377 1377 1921
2738 1217 272
2818 1313 336
1729 1889 2001
2146 2338 2658
2370 2562 3026
3459 2210 1009
3459 2194 1025
2978 2786 2498
2546 2978 3074
2866 3234 3523
3795 2882 1841
3795 2882 1857
3859 3074 2258
3394 3346 3218
3378 3507 3555
2706 1153 384
2658 1169 448
1985 1201 1105
1521 1569 1905
1665 1665 2098
2770 1233 448
2770 1281 512
2114 1297 1153
1585 1649 1969
1745 1745 2178
3154 1601 416
3186 1633 432
2706 2098 1793
2210 2322 2482
2370 2466 2786
3731 2546 1329
3699 2514 1297
3779 2754 1697
3683 3154 2690
3250 3523 3747
3939 3106 2098
3939 3138 2130
3971 3314 2514
3987 3459 2882
3683 3603 3555
3042 1425 496
3042 1457 544
2530 1601 1249
1841 1889 2066
1889 1873 2242
3074 1473 544
3058 1457 544
2594 1649 1313
1873 1905 2082
1937 1937 2290
3314 1793 528
3330 1809 560
3122 2370 1953
2450 2546 2610
2498 2658 2930
3811 2706 1505
3779 2690 1489
3843 2898 1873
3907 3074 2338
3443 3539 3651
4003 3298 2370
4003 3314 2418
4003 3475 2818
3955 3587 3186
3875 3683 3539
