其他预设/【236】赛博朋克风调色预设/【后期菌】视频调色预设/3DL/Tokyo 04_S.3dl
# LUT by SparkleStock. Enhanced with VOXCOLOR algorithms.
0 64 128 192 256 320 384 448 512 576 640 704 768 832 896 960 1023
368 224 144
400 240 144
384 240 144
384 240 144
352 240 144
288 272 224
256 304 256
208 384 352
160 464 416
144 560 544
80 656 705
32 753 881
0 817 993
0 881 1121
16 1041 1377
16 1153 1569
16 1265 1745
400 240 144
400 240 144
384 240 144
384 240 144
352 240 160
288 256 176
256 304 256
208 384 352
176 464 432
128 544 544
96 689 737
16 721 849
0 769 961
0 881 1121
0 1025 1345
16 1153 1569
0 1201 1649
400 240 144
368 224 144
368 224 144
384 256 160
368 256 160
288 256 176
256 320 288
208 400 352
160 464 416
128 528 512
80 624 689
32 737 865
0 769 961
0 881 1121
0 1041 1361
16 1169 1569
0 1217 1665
400 240 144
368 224 144
384 240 144
368 240 144
368 240 160
288 272 224
256 320 256
208 400 352
160 448 416
128 544 544
80 656 705
16 737 849
0 769 961
0 881 1121
0 1025 1361
16 1185 1601
16 1249 1713
368 240 144
384 240 160
384 240 144
368 240 144
320 240 160
288 320 256
240 320 256
208 400 368
144 528 464
112 592 576
64 737 801
16 801 913
0 865 1057
0 961 1217
16 1137 1473
16 1185 1649
16 1313 1857
304 304 208
304 288 208
320 304 208
320 304 224
304 320 224
256 352 240
224 432 320
176 512 432
112 608 560
64 721 721
0 817 881
0 929 1073
0 1057 1297
0 1153 1457
0 1281 1681
16 1345 1809
16 1377 1889
288 400 240
304 416 256
304 416 256
272 416 272
288 416 272
240 448 304
208 576 432
128 705 608
64 833 769
0 1009 1041
0 1137 1265
0 1281 1505
16 1377 1713
16 1409 1793
16 1505 2001
32 1585 2114
64 1665 2290
352 512 288
384 576 304
352 528 304
352 560 352
352 576 368
304 624 416
240 721 528
128 929 817
0 1217 1217
0 1329 1457
0 1473 1681
32 1617 1937
64 1681 2098
64 1745 2242
96 1873 2402
112 1937 2482
112 1969 2562
480 705 384
512 737 400
512 753 432
512 817 432
448 801 448
432 881 560
288 929 737
240 1201 1073
80 1505 1521
64 1761 1921
80 1889 2178
112 1953 2322
144 2082 2498
144 2162 2594
160 2242 2706
176 2290 2770
176 2322 2818
705 1009 592
705 1009 592
737 1025 592
721 1057 592
705 1073 672
656 1121 737
512 1265 977
368 1457 1297
208 1809 1857
112 2082 2258
128 2178 2418
144 2226 2562
160 2322 2674
160 2386 2754
208 2482 2898
208 2498 2930
224 2562 3042
1105 1457 977
1073 1473 1009
1137 1521 1057
1073 1489 1041
1057 1553 1073
1025 1633 1265
833 1777 1489
480 1937 1793
304 2098 2130
240 2418 2578
208 2530 2754
208 2562 2834
224 2626 2914
208 2610 2946
240 2674 3074
240 2722 3138
256 2754 3202
1633 1809 1121
1665 1777 1137
1729 1825 1185
1681 1825 1201
1617 1857 1217
1473 2017 1553
1217 2162 1825
881 2210 2033
689 2370 2322
256 2498 2610
224 2642 2818
224 2690 2882
224 2722 2978
240 2770 3058
256 2818 3138
256 2850 3218
256 2882 3282
2274 2194 1441
2258 2194 1441
2290 2210 1441
2258 2194 1441
2194 2210 1473
2130 2338 1793
1649 2370 2082
1361 2434 2274
993 2562 2530
592 2642 2690
256 2770 2882
256 2834 2978
256 2898 3122
256 2930 3186
256 2946 3234
272 2978 3298
272 3010 3378
2514 2402 1633
2626 2450 1681
2530 2402 1633
2514 2402 1633
2546 2434 1713
2386 2562 2098
2033 2642 2370
1905 2722 2530
1617 2802 2690
993 2786 2754
608 2850 2882
288 2914 3010
288 2946 3106
272 2994 3202
256 3058 3330
272 3090 3378
272 3090 3427
2946 2594 1633
2946 2594 1633
2946 2578 1617
2930 2562 1601
2962 2594 1665
2786 2706 2130
2530 2898 2594
2338 2962 2690
2066 2962 2754
1681 2962 2850
1409 2930 2866
1105 2994 3010
480 3042 3122
288 3074 3234
304 3138 3330
256 3170 3410
256 3170 3459
3298 2690 1729
3218 2658 1585
3298 2642 1649
3298 2642 1649
3314 2738 1809
3218 2866 2194
2738 3026 2674
2610 3122 2786
2514 3138 2882
2258 3090 2914
2050 3090 2946
1729 3074 2994
1041 3122 3138
592 3138 3234
320 3154 3330
304 3202 3394
304 3234 3475
3475 2802 1873
3475 2818 1889
3475 2834 1921
3475 2834 1921
3475 2850 1953
3346 2962 2274
2946 3154 2754
2850 3218 2882
2754 3234 2962
2610 3218 2994
2386 3218 3042
2130 3202 3074
1905 3234 3170
1153 3218 3234
849 3234 3330
320 3202 3346
352 3250 3427
384 240 144
368 224 144
400 240 144
384 240 160
352 240 144
288 272 224
256 320 256
208 384 320
176 464 432
144 560 544
96 672 721
32 753 881
0 801 977
0 881 1121
0 1025 1345
0 1121 1505
16 1265 1713
384 240 144
368 224 144
400 240 144
384 240 144
352 240 144
288 256 176
256 320 256
208 400 368
160 464 416
128 528 528
80 656 705
32 737 865
0 769 961
0 881 1121
16 1041 1361
16 1153 1569
0 1217 1665
400 240 144
368 224 144
384 240 144
384 240 144
368 240 160
288 256 208
272 320 288
208 384 352
176 464 432
144 560 544
96 672 705
16 721 849
0 817 993
0 913 1153
0 1025 1345
16 1169 1569
0 1201 1649
384 240 144
384 240 144
384 240 144
368 240 144
352 240 160
288 272 208
272 320 256
208 400 368
160 448 416
128 560 560
80 672 721
16 721 849
0 769 961
0 897 1153
16 1057 1409
0 1137 1553
0 1217 1681
384 240 144
384 240 160
368 240 144
368 240 160
352 256 176
288 320 256
256 368 288
208 400 368
160 528 480
112 576 560
64 737 817
16 801 913
0 833 1009
0 961 1217
16 1137 1473
16 1185 1649
0 1281 1793
304 304 208
320 304 208
304 304 208
304 304 208
288 304 224
256 352 240
240 432 352
160 480 416
112 576 528
64 705 705
16 833 897
0 913 1057
0 1057 1313
0 1169 1473
0 1265 1649
32 1361 1857
16 1377 1889
304 432 256
288 400 240
288 400 256
272 416 272
288 416 272
256 464 320
208 560 432
128 672 560
64 833 769
0 1041 1073
0 1153 1297
0 1249 1457
16 1377 1713
32 1473 1889
16 1505 1969
32 1601 2114
80 1681 2322
368 512 288
368 544 288
352 528 304
320 512 288
352 560 352
288 608 400
240 721 528
112 929 833
0 1217 1217
0 1329 1457
16 1505 1729
16 1569 1873
64 1681 2098
80 1761 2258
80 1809 2322
112 1937 2482
112 1969 2578
480 721 400
544 753 416
512 753 416
480 753 416
480 817 464
432 865 560
352 961 721
224 1169 1041
96 1553 1553
64 1777 1937
64 1825 2098
96 1953 2306
128 2033 2434
144 2162 2578
160 2242 2706
160 2274 2754
208 2354 2866
737 1025 592
705 1009 576
753 1041 608
705 1041 592
721 1041 624
656 1137 769
544 1313 1025
368 1457 1297
208 1793 1793
128 2114 2306
128 2178 2450
144 2226 2562
160 2322 2674
160 2386 2754
176 2434 2866
208 2482 2914
240 2578 3058
1105 1473 1009
1105 1457 993
1105 1457 993
1073 1489 1041
1025 1505 1041
993 1553 1153
753 1729 1441
512 1937 1793
288 2130 2178
224 2354 2498
176 2498 2722
208 2562 2834
208 2594 2882
224 2642 2994
224 2674 3058
256 2722 3154
272 2754 3234
1633 1809 1121
1713 1857 1217
1681 1825 1201
1713 1857 1217
1633 1857 1217
1521 2017 1521
1153 2082 1761
881 2210 2033
592 2322 2274
256 2530 2626
208 2626 2770
224 2706 2898
240 2754 2994
240 2754 3042
256 2818 3154
256 2850 3218
272 2914 3330
2290 2210 1441
2274 2210 1441
2274 2194 1441
2258 2194 1425
2194 2226 1473
2017 2242 1681
1649 2370 2082
1345 2450 2290
1009 2530 2482
624 2658 2690
256 2770 2882
256 2818 2978
256 2866 3074
256 2898 3154
256 2946 3234
256 2962 3282
272 2994 3346
2626 2450 1665
2530 2386 1617
2530 2386 1617
2610 2450 1713
2626 2482 1761
2370 2530 2033
2098 2706 2418
1921 2754 2594
1489 2754 2658
977 2770 2754
672 2834 2882
352 2914 2994
288 2946 3106
272 3010 3218
256 3058 3314
272 3090 3378
272 3090 3427
2962 2594 1633
2946 2562 1585
2946 2594 1649
2946 2594 1649
2962 2594 1665
2802 2754 2210
2530 2898 2594
2354 2962 2690
2082 2962 2754
1761 2962 2834
1425 2930 2866
1041 2994 2994
464 3010 3106
272 3058 3234
320 3122 3314
272 3202 3459
272 3186 3475
3266 2642 1601
3234 2690 1633
3298 2658 1649
3298 2642 1649
3266 2658 1681
3154 2834 2178
2706 3010 2674
2594 3106 2770
2514 3122 2850
2258 3106 2914
2066 3106 2978
1713 3074 2994
1025 3122 3138
576 3122 3218
320 3154 3330
288 3186 3378
288 3250 3475
3475 2834 1921
3475 2834 1921
3475 2834 1921
3475 2818 1889
3491 2866 2001
3346 2946 2274
2978 3186 2802
2850 3218 2882
2754 3234 2946
2658 3234 3010
2386 3218 3042
2130 3186 3058
1585 3202 3186
1185 3202 3234
689 3202 3298
352 3234 3378
320 3234 3427
384 240 144
384 240 144
400 240 160
384 240 144
368 240 160
288 256 208
256 304 256
208 384 320
160 448 416
128 544 528
80 624 672
32 769 881
0 817 993
0 881 1121
16 1041 1377
16 1169 1569
16 1265 1745
384 240 144
384 240 144
384 240 144
352 224 144
368 240 160
288 272 224
272 320 256
208 384 320
176 480 448
128 528 528
96 656 705
16 721 833
0 769 961
0 865 1105
16 1041 1361
16 1169 1585
16 1265 1713
400 240 144
384 240 144
400 240 144
384 240 144
352 240 144
288 256 176
256 320 256
208 400 352
160 464 432
128 528 512
80 656 705
32 753 881
0 769 961
0 913 1153
0 1025 1345
16 1153 1569
0 1217 1665
384 240 144
384 256 160
384 256 160
368 256 176
368 272 208
304 288 240
256 320 272
208 400 368
160 448 416
128 560 560
80 656 689
16 721 849
0 769 961
0 929 1185
16 1073 1425
0 1137 1553
16 1265 1729
384 256 160
384 256 160
368 256 144
368 272 160
352 288 208
288 320 240
272 384 320
208 448 416
160 528 464
112 576 560
64 705 753
16 801 913
0 833 1009
0 961 1201
16 1137 1473
32 1201 1681
32 1313 1857
320 304 208
304 304 208
304 320 208
320 352 240
304 384 272
288 416 304
256 464 400
176 528 448
112 576 528
64 689 689
16 865 929
0 913 1057
0 1057 1313
0 1201 1521
0 1249 1633
32 1361 1857
32 1441 1953
288 416 240
288 400 240
288 432 256
320 464 288
288 480 304
272 528 368
208 560 416
128 721 608
64 865 817
0 1009 1041
0 1121 1265
0 1281 1505
0 1329 1633
32 1473 1889
32 1553 2033
32 1585 2098
96 1713 2338
352 528 304
352 560 304
352 528 304
352 560 304
320 608 384
320 689 464
240 753 560
128 961 833
16 1265 1281
16 1361 1489
16 1473 1665
64 1601 1921
80 1681 2098
96 1761 2258
96 1873 2370
112 1937 2482
128 1969 2578
512 737 400
480 737 416
480 737 416
480 769 416
480 817 464
432 881 576
304 961 721
240 1201 1073
96 1553 1553
32 1761 1921
80 1873 2130
96 1953 2322
128 2066 2482
128 2082 2530
144 2194 2642
176 2290 2770
176 2322 2818
705 1009 592
753 1041 608
753 1041 608
737 1105 624
705 1073 672
624 1153 801
480 1249 961
368 1457 1297
176 1777 1793
128 2033 2194
128 2194 2466
144 2226 2546
160 2322 2674
160 2386 2754
208 2466 2882
208 2482 2930
240 2562 3042
1105 1457 993
1121 1457 993
1105 1457 993
1105 1457 993
1025 1505 1041
993 1553 1153
817 1745 1457
464 1905 1761
272 2082 2130
240 2418 2578
160 2498 2706
176 2530 2802
208 2594 2898
224 2642 2994
240 2674 3074
240 2722 3138
256 2754 3218
1713 1857 1169
1649 1777 1137
1713 1857 1217
1681 1873 1249
1633 1857 1217
1521 2017 1521
1185 2114 1793
849 2178 1969
608 2354 2306
256 2530 2642
224 2642 2818
224 2706 2898
224 2738 2994
240 2770 3058
240 2802 3138
256 2850 3218
272 2898 3330
2274 2194 1441
2258 2178 1425
2274 2210 1441
2258 2194 1441
2194 2226 1473
2017 2242 1681
1633 2386 2114
1441 2482 2322
993 2530 2466
528 2642 2690
256 2754 2866
256 2834 2978
256 2866 3074
256 2914 3170
256 2946 3234
272 2978 3298
272 2994 3346
2626 2450 1681
2530 2386 1617
2578 2418 1649
2578 2418 1649
2594 2450 1729
2418 2562 2050
2098 2706 2418
1937 2754 2562
1441 2754 2674
1105 2818 2786
689 2866 2914
352 2898 2994
288 2962 3122
272 3026 3234
256 3026 3298
272 3090 3378
272 3090 3427
2946 2594 1633
2946 2594 1633
2946 2594 1649
2946 2594 1649
2962 2594 1665
2834 2722 2162
2530 2914 2626
2386 2994 2722
2082 2962 2754
1713 2962 2850
1473 2962 2882
1041 2994 2994
480 3010 3122
288 3058 3234
304 3154 3346
256 3170 3427
256 3170 3459
3298 2658 1649
3250 2690 1633
3266 2642 1601
3298 2658 1649
3314 2706 1761
3154 2834 2178
2754 3058 2722
2610 3106 2770
2530 3138 2882
2242 3074 2898
2114 3122 2978
1729 3074 2994
1073 3074 3106
576 3122 3218
304 3154 3330
320 3202 3378
304 3234 3475
3475 2834 1921
3475 2818 1889
3443 2802 1873
3459 2818 1905
3475 2850 1953
3346 2946 2274
2978 3186 2786
2850 3202 2882
2786 3234 2962
2626 3218 2994
2306 3186 3026
2130 3186 3058
1553 3202 3170
1265 3234 3282
737 3234 3330
352 3234 3378
352 3250 3427
368 240 144
400 240 144
384 256 160
384 240 144
368 256 160
288 272 208
272 320 256
208 384 352
160 464 416
128 528 528
96 656 705
32 737 865
0 769 961
0 897 1153
0 1025 1345
0 1121 1521
0 1201 1649
384 256 160
384 240 144
368 240 144
400 240 160
384 256 208
320 272 256
272 304 288
208 400 368
176 480 432
128 560 560
80 624 672
32 737 865
0 817 993
0 865 1105
16 1041 1377
16 1153 1553
