其他预设/【236】赛博朋克风调色预设/【后期菌】视频调色预设/3DL/Tokyo 10.3dl
# LUT by SparkleStock. Enhanced with VOXCOLOR algorithms.
0 64 128 192 256 320 384 448 512 576 640 704 768 832 896 960 1023
464 256 240
496 272 256
480 256 240
480 256 256
448 256 272
400 304 368
368 320 432
384 400 544
400 464 672
464 560 881
496 576 993
608 672 1153
721 801 1281
801 849 1393
913 961 1553
977 1025 1649
1057 1089 1745
496 272 256
496 272 256
480 256 256
480 256 256
464 256 272
384 272 336
368 320 432
384 384 544
400 480 672
464 544 865
528 608 1025
576 640 1105
672 753 1233
801 849 1393
897 945 1537
977 1025 1649
1025 1057 1697
496 272 256
464 256 256
480 256 256
480 272 272
464 272 288
384 272 336
384 336 448
384 400 560
400 464 672
448 528 849
496 576 977
608 672 1137
672 753 1233
801 849 1393
897 945 1553
977 1025 1649
1025 1057 1713
496 272 256
480 256 256
480 256 256
480 256 272
464 272 288
400 304 368
368 320 448
384 400 560
400 464 672
464 560 881
512 592 993
592 656 1121
689 753 1249
801 849 1393
897 945 1537
993 1057 1681
1041 1089 1729
464 256 272
480 272 272
480 272 272
464 256 272
432 272 288
416 304 384
368 336 464
384 416 576
432 528 785
480 592 929
576 672 1089
640 737 1185
753 817 1329
833 897 1457
961 1025 1617
1009 1073 1697
1089 1137 1777
416 320 368
416 304 352
432 320 368
432 336 384
416 336 416
400 352 432
384 448 576
432 528 721
480 624 897
576 721 1057
624 769 1169
753 865 1329
865 961 1473
945 1025 1585
1073 1153 1745
1153 1233 1857
1185 1281 1905
464 416 432
496 432 432
496 432 464
464 416 448
480 448 480
432 480 592
448 592 769
496 721 913
592 817 1073
721 913 1281
817 993 1425
977 1137 1617
1137 1313 1793
1169 1313 1841
1297 1409 1985
1377 1473 2050
1457 1553 2130
592 576 624
640 624 672
624 592 640
624 624 689
624 656 737
592 721 833
624 817 977
672 961 1153
833 1105 1393
945 1217 1553
1105 1361 1729
1233 1473 1889
1329 1521 1969
1473 1649 2130
1585 1729 2226
1665 1793 2306
1713 1841 2354
897 849 865
913 897 897
929 913 929
945 929 945
897 913 929
929 993 1057
897 1073 1185
1057 1377 1521
1121 1505 1697
1281 1633 1889
1425 1729 2050
1505 1761 2114
1649 1905 2242
1745 1969 2338
1873 2050 2434
1937 2098 2514
1985 2146 2562
1233 1185 1137
1233 1185 1137
1233 1201 1153
1249 1201 1153
1297 1281 1233
1297 1313 1313
1345 1441 1457
1393 1617 1665
1489 1937 2050
1585 1969 2146
1681 2017 2242
1809 2098 2370
1921 2162 2450
2001 2242 2546
2114 2338 2674
2162 2370 2738
2226 2434 2850
1633 1585 1473
1633 1585 1473
1713 1649 1505
1665 1617 1505
1681 1633 1521
1601 1649 1569
1665 1777 1713
1697 1921 1905
1761 2098 2146
1873 2274 2370
1937 2290 2434
2050 2370 2546
2130 2418 2658
2130 2402 2690
2226 2498 2818
2274 2562 2898
2354 2626 3010
2098 1905 1585
2098 1905 1585
2130 1937 1633
2130 1937 1617
2130 1953 1649
2082 2001 1761
2066 2066 1921
2017 2130 2050
2017 2258 2226
2050 2370 2434
2130 2498 2594
2194 2546 2674
2210 2562 2722
2306 2642 2850
2370 2706 2930
2386 2738 3010
2450 2786 3122
2434 2162 1777
2402 2146 1761
2434 2178 1793
2402 2146 1761
2370 2146 1777
2402 2242 1921
2290 2226 2033
2258 2306 2162
2226 2402 2354
2242 2530 2514
2290 2658 2690
2306 2706 2786
2354 2738 2882
2370 2786 2930
2418 2834 3010
2466 2882 3090
2530 2914 3218
2642 2306 1873
2674 2338 1889
2642 2306 1873
2642 2306 1873
2642 2322 1905
2578 2370 2050
2466 2402 2178
2402 2434 2258
2434 2578 2434
2354 2626 2562
2370 2722 2706
2402 2850 2882
2402 2882 2946
2434 2898 2994
2530 2978 3138
2546 2978 3186
2562 3010 3266
2930 2450 1905
2930 2450 1905
2930 2434 1889
2914 2418 1889
2930 2450 1905
2850 2514 2098
2754 2642 2354
2674 2642 2402
2626 2642 2450
2626 2754 2594
2530 2770 2674
2530 2882 2834
2546 2946 2978
2546 2994 3090
2562 3042 3186
2610 3074 3250
2626 3074 3298
3154 2530 1905
3122 2498 1857
3138 2514 1873
3138 2514 1873
3186 2562 1937
3106 2642 2114
2946 2754 2402
2914 2818 2514
2898 2850 2594
2802 2834 2626
2754 2850 2706
2674 2898 2802
2626 3010 2978
2642 3058 3090
2642 3106 3218
2658 3154 3298
2690 3154 3362
3282 2626 1953
3282 2626 1953
3330 2658 1985
3330 2658 1985
3330 2674 2001
3218 2706 2146
3058 2834 2450
3058 2898 2578
3010 2914 2642
2898 2898 2674
2898 2946 2754
2882 2994 2866
2818 3058 2994
2722 3090 3090
2754 3186 3234
2738 3186 3266
2786 3250 3378
496 256 256
464 256 240
496 272 256
480 272 272
448 256 272
400 304 368
368 336 448
368 384 528
400 480 672
464 560 881
512 592 1009
608 672 1153
672 753 1233
801 865 1409
897 945 1537
945 977 1617
1041 1089 1729
480 256 256
480 256 256
496 272 256
480 256 256
448 256 272
384 272 336
384 336 448
384 416 560
400 480 672
448 528 849
512 592 993
608 672 1137
672 753 1233
801 865 1409
897 945 1553
977 1025 1649
1025 1057 1713
496 272 256
480 256 256
480 256 256
480 256 256
480 272 272
400 272 352
384 336 448
384 384 544
416 480 689
464 560 881
512 608 1009
592 656 1121
721 785 1281
817 865 1409
881 929 1521
977 1025 1665
1025 1057 1697
480 256 256
480 256 256
480 256 256
480 256 272
448 256 272
384 288 368
384 352 464
384 416 560
400 464 672
464 560 897
528 608 1009
576 656 1105
689 753 1249
817 865 1409
913 977 1569
961 993 1633
1025 1073 1729
480 272 272
480 272 272
464 256 272
480 272 272
448 288 304
416 304 384
384 368 496
384 416 576
432 544 785
464 576 913
576 672 1089
640 737 1185
737 801 1313
833 897 1457
961 1025 1617
1009 1073 1697
1073 1121 1761
416 320 368
432 320 368
416 320 368
416 320 368
400 320 384
400 352 432
400 464 576
416 512 689
464 592 865
576 721 1057
624 769 1169
737 849 1313
849 945 1473
961 1041 1601
1057 1137 1713
1153 1249 1873
1185 1281 1905
496 432 464
480 416 432
480 416 432
464 416 448
480 448 480
464 512 624
432 576 753
464 672 881
592 801 1073
753 945 1313
865 1041 1473
945 1105 1585
1121 1313 1793
1233 1393 1921
1297 1409 1969
1377 1473 2050
1473 1569 2146
608 576 624
608 576 624
624 592 640
592 592 640
608 624 721
576 689 817
640 833 993
656 961 1153
833 1105 1393
945 1217 1553
1121 1393 1745
1169 1409 1841
1329 1521 1969
1489 1665 2146
1537 1681 2194
1665 1793 2306
1713 1841 2354
897 865 881
961 929 929
929 913 929
897 865 881
913 913 945
929 977 1025
929 1089 1185
1009 1313 1457
1137 1521 1713
1297 1649 1905
1377 1681 2001
1489 1761 2114
1633 1873 2226
1745 1969 2338
1873 2050 2434
1905 2066 2482
2050 2210 2642
1233 1201 1153
1233 1185 1137
1297 1249 1185
1233 1201 1153
1249 1233 1201
1297 1345 1329
1377 1473 1489
1377 1617 1681
1489 1921 2017
1617 2001 2162
1697 2033 2258
1809 2098 2370
1905 2162 2450
2001 2242 2546
2082 2306 2658
2130 2354 2706
2242 2450 2866
1681 1617 1489
1633 1585 1473
1633 1585 1473
1665 1617 1505
1617 1585 1473
1585 1617 1537
1633 1745 1681
1697 1921 1905
1793 2130 2162
1809 2226 2322
1905 2258 2402
2033 2370 2546
2082 2370 2610
2178 2466 2738
2226 2498 2818
2290 2562 2914
2370 2658 3042
2098 1905 1585
2130 1953 1633
2130 1937 1617
2130 1953 1633
2130 1953 1649
2066 1969 1729
2001 2017 1873
2017 2130 2033
2001 2210 2178
2082 2402 2466
2114 2466 2562
2194 2546 2674
2242 2594 2770
2290 2610 2834
2370 2706 2946
2386 2738 3026
2466 2818 3154
2434 2178 1793
2434 2162 1793
2434 2162 1777
2402 2146 1761
2386 2146 1793
2338 2162 1857
2274 2226 2033
2274 2306 2162
2226 2386 2322
2242 2546 2514
2290 2658 2690
2290 2690 2770
2338 2722 2834
2370 2754 2914
2418 2834 3010
2466 2882 3090
2514 2898 3186
2674 2322 1889
2626 2290 1857
2626 2290 1857
2674 2338 1905
2690 2370 1937
2546 2354 2001
2514 2450 2210
2434 2466 2290
2418 2530 2386
2338 2626 2562
2370 2722 2690
2402 2818 2834
2402 2882 2930
2450 2914 3026
2514 2978 3122
2546 2994 3202
2578 3010 3266
2946 2450 1905
2914 2418 1873
2930 2450 1905
2930 2450 1905
2946 2466 1921
2866 2546 2130
2754 2642 2354
2674 2642 2402
2626 2658 2450
2594 2738 2578
2530 2770 2674
2498 2850 2802
2514 2914 2930
2514 2978 3058
2546 3026 3170
2626 3090 3282
2642 3090 3314
3122 2498 1857
3154 2514 1873
3138 2514 1873
3138 2514 1873
3138 2514 1889
3090 2642 2114
2914 2738 2402
2882 2786 2498
2850 2834 2578
2802 2834 2626
2770 2882 2722
2690 2898 2802
2626 2994 2978
2610 3026 3074
2642 3106 3218
2642 3138 3298
2690 3186 3362
3314 2658 1985
3314 2658 1985
3314 2658 1985
3282 2626 1953
3346 2690 2017
3202 2706 2146
3106 2882 2482
3074 2898 2562
3010 2898 2626
2930 2930 2706
2898 2946 2754
2866 2978 2850
2770 3042 2994
2706 3058 3058
2722 3138 3186
2754 3202 3298
2786 3250 3378
480 256 256
480 256 256
496 272 272
480 256 256
480 272 272
400 272 352
368 320 432
384 384 528
384 448 656
448 544 865
496 576 977
624 689 1153
721 801 1281
801 849 1393
913 961 1553
977 1025 1649
1041 1089 1745
480 256 256
480 256 256
480 256 256
448 256 256
480 272 272
400 304 368
384 336 448
368 384 528
416 496 721
448 544 849
512 592 993
576 640 1105
672 753 1233
785 833 1377
897 945 1553
993 1057 1665
1041 1089 1729
496 272 256
480 256 256
496 272 256
480 256 256
448 256 272
384 272 336
384 336 448
384 400 544
400 480 672
448 528 849
512 592 993
608 672 1137
672 753 1233
817 865 1409
881 929 1521
961 993 1633
1025 1057 1713
480 256 256
480 272 272
480 272 272
480 272 272
464 272 288
384 288 368
368 320 432
384 400 560
400 464 672
464 560 897
496 592 993
576 656 1121
672 753 1233
833 881 1441
929 993 1585
961 993 1633
1057 1121 1745
480 272 272
480 272 272
480 256 272
480 256 272
448 288 304
416 304 384
384 352 464
400 448 608
432 528 785
464 576 913
544 640 1057
640 737 1185
737 801 1313
833 897 1441
961 1025 1617
1025 1089 1697
1089 1153 1793
432 320 368
416 320 368
416 320 368
432 320 384
416 336 400
416 368 448
400 464 576
416 512 672
464 592 865
544 689 1041
656 801 1201
737 849 1313
849 945 1473
993 1073 1633
1025 1121 1697
1153 1249 1873
1233 1329 1953
480 416 432
480 416 432
496 432 448
496 432 464
464 432 480
480 512 608
432 560 737
512 737 929
624 849 1121
689 897 1249
817 993 1425
961 1137 1601
1073 1233 1729
1233 1393 1921
1313 1425 2001
1361 1457 2033
1489 1585 2178
608 592 656
608 592 656
608 592 656
592 592 640
608 624 721
608 737 865
592 801 945
656 961 1153
881 1153 1425
993 1281 1601
1089 1361 1729
1201 1441 1873
1329 1537 1985
1489 1665 2146
1585 1713 2226
1665 1793 2306
1713 1841 2354
913 897 897
913 897 929
913 897 929
913 897 929
913 913 945
945 1009 1073
897 1073 1185
1041 1377 1505
1137 1521 1729
1281 1633 1889
1409 1697 2017
1505 1761 2114
1633 1889 2242
1697 1905 2306
1809 2001 2386
1937 2098 2514
1985 2146 2562
1233 1185 1137
1281 1233 1185
1281 1233 1185
1297 1249 1217
1281 1281 1233
1313 1345 1345
1313 1425 1457
1393 1617 1665
1457 1905 2017
1569 1969 2130
1713 2050 2274
1777 2082 2338
1905 2162 2450
2001 2242 2546
2098 2338 2658
2146 2370 2722
2226 2434 2866
1633 1585 1473
1633 1585 1473
1633 1585 1473
1633 1585 1473
1617 1585 1473
1585 1617 1537
1633 1745 1681
1665 1905 1905
1745 2098 2146
1873 2274 2370
1905 2258 2402
2001 2322 2498
2114 2402 2642
2178 2466 2738
2226 2498 2818
2274 2546 2898
2354 2626 3010
2130 1953 1633
2098 1905 1585
2130 1953 1633
2146 1953 1633
2130 1953 1649
2066 1969 1729
2001 2017 1873
1985 2098 2001
2017 2242 2194
2082 2418 2466
2130 2498 2594
2194 2546 2674
2226 2562 2738
2306 2626 2850
2354 2690 2930
2386 2738 3010
2466 2818 3154
2418 2146 1761
2402 2146 1761
2434 2162 1793
2402 2146 1761
2370 2146 1777
2338 2162 1857
2290 2242 2050
2290 2338 2194
2226 2386 2322
2194 2514 2498
2274 2626 2642
2306 2706 2786
2338 2722 2834
2370 2770 2914
2418 2834 3010
2466 2882 3090
2514 2898 3186
2674 2322 1889
2626 2290 1857
2658 2306 1873
2658 2322 1873
2674 2338 1905
2562 2370 2017
2514 2450 2210
2434 2450 2274
2418 2546 2402
2370 2658 2578
2402 2754 2722
2386 2818 2834
2418 2898 2962
2466 2930 3042
2498 2946 3106
2562 2994 3218
2562 3010 3266
2930 2434 1905
2930 2450 1905
2930 2450 1905
2930 2450 1905
2946 2450 1905
2850 2530 2098
2770 2642 2370
2690 2674 2418
2626 2658 2450
2626 2754 2594
2562 2786 2690
2498 2850 2802
2530 2930 2930
2530 2978 3058
2578 3058 3202
2594 3058 3250
2626 3074 3298
3138 2514 1873
3138 2514 1873
3122 2498 1857
3138 2514 1873
3170 2562 1937
3090 2642 2114
2962 2786 2434
2882 2786 2498
2882 2850 2594
2786 2818 2610
2770 2882 2722
2674 2898 2802
2578 2962 2930
2610 3026 3074
2642 3106 3202
2642 3138 3298
2690 3154 3362
3330 2658 1985
3282 2626 1953
3266 2610 1937
3282 2642 1969
3314 2674 2001
3202 2706 2146
3106 2866 2466
3058 2898 2562
3026 2914 2626
2898 2898 2674
2882 2930 2754
2866 2978 2850
2770 3042 2994
2738 3122 3122
2738 3170 3234
2754 3202 3298
2786 3250 3378
480 256 256
496 272 256
496 272 272
496 272 272
480 272 288
400 304 368
384 352 464
384 384 544
400 480 672
448 528 849
512 592 993
608 672 1137
672 753 1233
801 865 1409
881 945 1537
945 993 1617
1009 1041 1697
496 272 272
480 256 256
480 256 256
480 256 256
480 272 288
400 304 368
368 320 448
384 416 560
416 496 721
464 560 897
496 576 993
608 672 1137
721 785 1281
785 833 1377
913 961 1553
961 1009 1633
