其他预设/【236】赛博朋克风调色预设/【后期菌】视频调色预设/3DL/Tokyo 04.3dl
# LUT by SparkleStock. Enhanced with VOXCOLOR algorithms.
0 256 512 768 1023
368 224 144
352 240 144
160 464 416
0 817 993
16 1265 1745
368 240 144
320 240 160
144 528 464
0 865 1057
16 1313 1793
480 705 384
448 753 432
80 1505 1521
144 2082 2498
176 2322 2818
2274 2194 1441
2226 2194 1473
993 2562 2530
256 2898 3122
272 3010 3378
3475 2802 1873
3475 2850 1953
2754 3234 2962
1905 3234 3170
352 3250 3427
416 240 128
400 256 160
160 448 416
0 817 993
16 1265 1745
448 256 144
432 256 160
176 544 512
0 929 1153
16 1345 1857
544 672 352
528 817 480
112 1617 1633
144 2098 2514
208 2370 2866
2466 2194 1313
2338 2322 1633
1105 2578 2530
256 2898 3122
272 3026 3394
3587 2738 1601
3587 2802 1777
2818 3266 2978
1857 3218 3154
400 3266 3443
1809 480 80
1777 528 112
721 560 448
96 961 1153
64 1297 1793
1921 560 96
2001 608 160
769 672 592
96 1041 1297
64 1345 1873
3074 1201 16
3122 1249 32
1105 1633 1585
208 2450 2850
256 2658 3186
3811 2178 96
3811 2178 112
2994 3106 2802
769 3090 3218
304 3202 3523
4051 2946 1633
4035 2946 1633
4003 3234 2482
3122 3555 3378
2546 3587 3603
3106 993 16
3074 1009 32
2306 993 560
320 1329 1601
128 1601 2178
3154 1041 32
3122 1041 32
2418 1057 592
352 1425 1713
160 1729 2290
3539 1521 16
3587 1601 32
3186 2098 1585
1105 2434 2674
304 2578 2994
4051 2530 368
4035 2514 320
4051 2818 1425
3843 3362 2962
1441 3427 3635
4095 3218 2162
4095 3234 2210
4067 3459 2722
4051 3603 3122
3587 3731 3619
3491 1281 16
3491 1297 32
2978 1313 592
1217 1601 1873
240 1825 2386
3539 1329 16
3507 1313 16
3026 1409 705
1313 1665 1937
256 1905 2450
3763 1729 0
3779 1761 16
3587 2402 1793
2706 2706 2786
560 2738 3106
4067 2706 817
4051 2738 913
4051 2994 1825
4051 3266 2674
3314 3587 3587
4095 3410 2594
4095 3459 2658
4051 3587 2978
4051 3699 3346
3891 3779 3619
