其他预设/【236】赛博朋克风调色预设/【后期菌】视频调色预设/3DL/Tokyo 08.3dl
# LUT by SparkleStock. Enhanced with VOXCOLOR algorithms.
0 256 512 768 1023
400 288 400
400 304 416
112 624 1073
112 1121 1793
144 1345 2082
416 320 432
400 336 432
128 705 1169
112 1137 1825
144 1377 2114
256 1025 1121
256 1089 1201
272 1537 1825
336 1889 2386
272 2033 2690
1601 2322 2146
1553 2306 2146
1153 2466 2498
496 2642 2946
384 2754 3282
2738 2930 2418
2754 2962 2450
2050 3026 2866
1649 3090 3138
961 3106 3346
448 320 416
480 352 432
128 624 1105
96 1089 1777
144 1345 2098
528 384 464
528 384 480
144 737 1201
144 1169 1841
176 1425 2162
304 1041 1089
304 1153 1249
320 1617 1905
352 1905 2402
288 2082 2754
1905 2434 2162
1697 2402 2226
1169 2482 2514
528 2642 2946
432 2770 3298
2946 2914 2290
2930 2962 2370
2114 3074 2898
1601 3042 3106
1137 3122 3362
2066 1217 1201
2050 1249 1249
1585 1409 1681
1265 1505 2001
1345 1633 2290
2146 1297 1265
2226 1393 1377
1809 1569 1809
1409 1601 2082
1457 1681 2338
2914 1665 1009
2962 1777 1137
2338 2146 2290
753 2226 2738
705 2402 3122
3603 2466 1473
3571 2450 1489
2530 2946 2754
1601 2914 3106
1585 2994 3427
3827 3010 1921
3811 3010 1921
3763 3234 2418
2786 3410 3314
2626 3459 3539
3330 1857 1665
3314 1889 1713
3042 2066 2194
2338 1969 2354
2402 2066 2562
3378 1905 1697
3362 1921 1729
3058 2033 2162
2418 2033 2402
2482 2130 2626
3619 1905 977
3635 1969 1073
3394 2370 2386
2978 2498 2706
2834 2562 3010
4035 2626 1361
4003 2610 1345
4003 2802 1729
3683 3250 2930
2834 3314 3603
4051 3106 1761
4051 3122 1793
4035 3330 2274
3939 3523 2914
3523 3603 3539
3699 1969 1665
3699 2017 1745
3443 2146 2226
2930 2210 2514
2802 2242 2690
3731 2001 1713
3715 1985 1697
3459 2146 2226
2994 2242 2530
2834 2274 2722
3875 2017 881
3875 2033 945
3699 2450 2354
3427 2658 2802
3218 2738 3122
4095 2674 1249
4051 2658 1233
4035 2866 1713
4035 3090 2450
3699 3394 3459
4095 3266 1905
4095 3282 1953
4051 3427 2530
4003 3587 3138
3891 3699 3555
