其他预设/【236】赛博朋克风调色预设/【后期菌】视频调色预设/3DL/Tokyo 08.3dl
# LUT by SparkleStock. Enhanced with VOXCOLOR algorithms.
0 128 256 384 512 640 768 896 1023
400 288 400
416 304 400
400 304 416
256 384 608
112 624 1073
80 897 1489
112 1121 1793
128 1201 1937
144 1345 2082
432 320 416
416 288 400
432 336 448
272 400 608
112 624 1073
64 881 1473
80 1089 1761
112 1201 1937
112 1313 2066
416 320 432
432 336 432
400 336 432
256 400 640
128 705 1169
112 977 1537
112 1137 1825
144 1249 1969
144 1377 2114
240 480 608
272 512 640
256 512 640
144 689 977
128 1025 1441
176 1249 1793
224 1409 2017
208 1489 2146
208 1617 2306
256 1025 1121
288 1089 1185
256 1089 1201
240 1217 1425
272 1537 1825
336 1761 2178
336 1889 2386
304 1969 2578
272 2033 2690
656 1777 1777
721 1841 1825
705 1841 1841
624 1937 2001
496 2050 2242
416 2242 2562
384 2338 2786
320 2386 2946
304 2498 3154
1601 2322 2146
1601 2322 2162
1553 2306 2146
1313 2338 2306
1153 2466 2498
672 2562 2722
496 2642 2946
400 2690 3122
384 2754 3282
2306 2706 2338
2306 2706 2322
2306 2706 2354
1889 2754 2594
1697 2770 2706
1393 2786 2818
993 2850 2994
608 2882 3186
432 2930 3314
2738 2930 2418
2754 2962 2434
2754 2962 2450
2194 2994 2722
2050 3026 2866
1873 3058 2994
1649 3090 3138
1185 3106 3266
961 3106 3346
416 304 400
432 320 416
432 336 432
256 384 608
96 592 1057
64 881 1473
112 1121 1793
128 1201 1937
144 1345 2082
432 320 416
432 320 416
400 304 416
272 400 608
112 624 1073
96 897 1489
80 1089 1777
112 1185 1921
112 1313 2066
448 336 448
432 336 432
400 352 464
256 416 640
128 705 1169
96 945 1521
96 1105 1793
144 1249 1953
144 1377 2130
256 496 624
256 512 640
240 512 656
128 656 929
144 1041 1473
160 1249 1793
192 1361 1985
224 1521 2178
224 1633 2338
272 1073 1169
288 1089 1185
288 1105 1217
272 1249 1425
288 1553 1841
336 1745 2162
336 1873 2370
304 1937 2530
272 2033 2690
656 1777 1777
656 1777 1777
640 1777 1793
608 1905 1985
480 2050 2226
400 2210 2514
368 2322 2754
320 2386 2946
304 2498 3154
1601 2322 2146
1601 2322 2162
1553 2306 2146
1345 2370 2322
1153 2450 2482
656 2530 2706
496 2610 2898
384 2690 3122
368 2738 3250
2306 2706 2338
2306 2706 2338
2306 2722 2354
1889 2754 2610
1697 2770 2706
1457 2818 2850
945 2834 2994
576 2898 3218
432 2930 3330
2754 2962 2434
2722 2930 2402
2754 2962 2450
2226 3026 2754
2082 3042 2882
1857 3026 2962
1489 3042 3122
1233 3090 3250
1009 3106 3330
448 320 416
448 320 400
480 352 432
288 400 640
128 624 1105
96 913 1505
96 1089 1777
128 1217 1937
144 1345 2098
448 320 416
464 336 432
464 336 432
304 416 656
160 689 1153
96 913 1505
112 1121 1809
128 1217 1937
144 1345 2098
528 384 464
528 384 448
528 384 480
320 464 705
144 737 1201
112 993 1569
144 1169 1841
160 1265 1985
176 1425 2162
304 560 689
320 576 705
288 544 689
208 721 993
176 1073 1489
176 1265 1809
224 1409 2017
256 1553 2194
240 1633 2322
304 1041 1089
320 1057 1105
304 1153 1249
336 1345 1537
320 1617 1905
352 1777 2194
352 1905 2402
336 2017 2610
288 2082 2754
913 1873 1793
913 1873 1793
689 1841 1841
624 1921 2001
528 2098 2274
416 2226 2546
400 2354 2802
352 2450 3010
320 2514 3170
1905 2434 2162
1777 2338 2098
1697 2402 2226
1345 2370 2338
1169 2482 2514
640 2530 2690
528 2642 2946
400 2706 3138
432 2770 3298
2498 2738 2274
2498 2738 2274
2386 2738 2338
1969 2786 2610
1777 2818 2738
1505 2818 2834
1089 2834 2978
705 2930 3218
496 2962 3346
2946 2914 2290
2978 2930 2306
2930 2962 2370
2354 3042 2706
2114 3074 2898
1953 3090 2994
1601 3042 3106
1297 3106 3250
1137 3122 3362
865 512 592
897 544 640
881 560 656
753 640 865
400 721 1153
336 993 1569
272 1217 1873
256 1329 2033
256 1441 2178
881 544 624
913 560 640
913 592 689
721 656 897
448 801 1233
352 1025 1585
288 1233 1889
272 1345 2050
256 1441 2178
977 624 721
1009 640 737
977 656 769
897 801 1025
448 865 1297
368 1089 1665
288 1281 1937
272 1377 2066
272 1489 2210
1713 1169 1201
1697 1185 1233
1681 1185 1249
1425 1281 1473
368 1265 1681
336 1473 1985
320 1553 2130
352 1697 2338
320 1761 2450
1345 1297 1057
1377 1329 1073
1297 1441 1297
448 1537 1697
400 1761 2050
400 1905 2306
432 2033 2530
416 2146 2738
336 2178 2898
2626 2001 1393
2546 1953 1313
2386 2050 1537
1073 2130 2178
721 2194 2370
512 2306 2626
528 2402 2834
464 2514 3058
400 2562 3218
3058 2386 1649
3074 2402 1681
2898 2466 1873
2033 2658 2466
1649 2626 2626
1297 2642 2770
849 2722 2978
753 2818 3202
640 2818 3314
3378 2690 1857
3330 2642 1841
3234 2738 2017
2850 2994 2514
2050 2914 2786
1873 2930 2898
1585 2962 3058
1073 2994 3250
1009 3042 3394
3539 2898 1969
3539 2898 1969
3491 2930 2050
3427 3058 2322
2418 3170 2946
2242 3186 3058
2146 3234 3218
1889 3234 3314
1777 3250 3410
2066 1217 1201
2082 1233 1217
2050 1249 1249
1857 1297 1425
1585 1409 1681
1297 1473 1889
1265 1505 2001
1281 1569 2162
1345 1633 2290
2098 1249 1233
2114 1265 1249
2082 1281 1297
1889 1329 1457
1585 1409 1681
1249 1441 1873
1265 1505 2001
1249 1537 2130
1393 1665 2306
2146 1297 1265
2242 1361 1329
2226 1393 1377
2033 1441 1553
1809 1569 1809
1393 1537 1937
1409 1601 2082
1409 1633 2226
1457 1681 2338
2690 1665 1585
2754 1729 1633
2754 1761 1681
2578 1793 1825
2338 1873 2050
1761 1809 2162
1361 1745 2242
1281 1889 2482
1105 1985 2674
2914 1665 1009
2930 1697 1057
2962 1777 1137
3042 2066 1873
2338 2146 2290
881 2082 2482
753 2226 2738
705 2338 2978
705 2402 3122
3314 2114 1265
3330 2130 1297
3330 2130 1297
3330 2306 1585
1537 2482 2546
1073 2562 2818
1073 2578 2962
1041 2674 3154
1121 2722 3298
3603 2466 1473
3603 2466 1473
3571 2450 1489
3587 2562 1665
2530 2946 2754
2017 2898 2930
1601 2914 3106
1489 2962 3314
1585 2994 3427
3795 2786 1729
3779 2786 1729
3779 2818 1777
3779 2882 1873
3346 3218 2706
2514 3170 3058
2354 3202 3234
2017 3202 3362
1953 3234 3491
3827 3010 1921
3811 2994 1905
3811 3010 1921
3827 3106 2066
3763 3234 2418
2834 3346 3154
2786 3410 3314
2626 3394 3394
2626 3459 3539
2914 1665 1537
2914 1665 1537
2898 1697 1601
2786 1777 1777
2626 1937 2082
2258 1889 2194
2001 1825 2242
2050 1905 2370
2162 1985 2514
2914 1665 1537
2946 1713 1585
2914 1713 1617
2754 1745 1761
2642 1905 2050
2194 1825 2146
1937 1793 2226
2082 1905 2386
2162 1985 2530
3026 1745 1617
2994 1729 1601
2978 1777 1665
2882 1809 1809
2706 1953 2098
2354 1921 2226
2066 1857 2274
2114 1921 2386
2210 2017 2546
3282 1969 1793
3266 1953 1777
3234 1953 1793
3106 1985 1937
2978 2114 2242
2562 2082 2338
2290 2050 2434
2354 2130 2562
2386 2162 2674
3362 1841 1057
3378 1873 1089
3394 1921 1169
3394 2178 1873
3154 2290 2338
2898 2370 2514
2530 2354 2674
2434 2434 2866
2418 2546 3106
3731 2242 1217
3731 2258 1233
3715 2242 1233
3715 2306 1377
3715 2482 1825
2546 2706 2802
1905 2754 3058
1777 2834 3266
1905 2930 3443
3907 2594 1441
3891 2562 1409
3891 2578 1441
3907 2674 1633
3923 2786 1841
3122 3154 2962
2418 3074 3202
2178 3090 3346
2290 3170 3523
3971 2850 1649
3955 2834 1633
3971 2866 1681
3987 2978 1825
3971 3074 2033
3683 3362 2850
3026 3330 3234
2818 3378 3459
2690 3394 3555
3987 3074 1825
3987 3074 1825
3987 3074 1841
4003 3170 1985
3987 3250 2162
3939 3394 2562
3475 3523 3250
3314 3587 3475
3250 3587 3555
3330 1857 1665
3330 1857 1665
3314 1889 1713
3218 1953 1905
3042 2066 2194
2770 2082 2306
2338 1969 2354
2322 2001 2450
2402 2066 2562
3330 1873 1665
3330 1857 1665
3346 1921 1729
3234 1969 1921
3010 2001 2130
2690 2033 2290
2306 1937 2338
2322 2001 2450
2402 2066 2562
3378 1905 1697
3378 1921 1713
3362 1921 1729
3250 1953 1921
3058 2033 2162
2754 2066 2306
2418 2033 2402
2418 2082 2530
2482 2130 2626
3491 2017 1777
3507 2033 1777
3539 2066 1825
3378 2082 1985
3186 2178 2258
2930 2210 2418
2514 2162 2498
2562 2210 2626
2642 2306 2786
3619 1905 977
3651 1953 1025
3635 1969 1073
3603 2242 1889
3394 2370 2386
3314 2498 2594
2978 2498 2706
2834 2514 2866
2834 2562 3010
3891 2274 1105
3907 2306 1137
3907 2306 1185
3891 2370 1345
3907 2482 1569
3539 2818 2738
3250 2850 2946
2850 2866 3170
2882 2978 3362
4035 2626 1361
4035 2626 1345
4003 2610 1345
4003 2690 1505
4003 2802 1729
4003 2962 2130
3683 3250 2930
3218 3250 3202
2834 3314 3603
4067 2898 1553
4051 2882 1553
4051 2898 1569
4035 3010 1777
4019 3106 2017
3971 3266 2450
3811 3427 2978
3587 3491 3330
3282 3507 3571
4051 3106 1761
4051 3122 1777
4051 3122 1793
4051 3218 2017
4035 3330 2274
4019 3443 2610
3939 3523 2914
3683 3587 3362
3523 3603 3539
3571 1953 1697
3571 1969 1697
3571 2001 1761
3443 1985 1905
3266 2098 2194
3058 2162 2370
2722 2146 2482
2642 2162 2562
2690 2210 2674
3571 1969 1697
3571 1969 1697
3523 1953 1713
3443 2001 1937
3282 2114 2210
3058 2162 2370
2674 2098 2434
2594 2130 2546
2690 2210 2674
3619 2001 1729
3587 1985 1729
3587 2001 1761
3443 2001 1937
3330 2146 2242
3090 2178 2386
2738 2130 2466
2674 2194 2610
2722 2242 2706
3699 2098 1809
3699 2082 1793
3635 2082 1825
3523 2098 2001
3378 2226 2306
3202 2306 2482
2818 2242 2546
2786 2322 2690
2866 2386 2834
3811 2017 1009
3811 2017 1009
3795 2017 1009
3779 2178 1569
3523 2402 2354
3443 2530 2610
3218 2546 2738
3026 2594 2914
3106 2690 3074
3971 2338 1089
3971 2338 1089
3955 2306 1057
3955 2386 1233
3971 2530 1537
3763 2802 2626
3603 2946 2962
3394 2962 3154
3234 3058 3410
4067 2658 1281
4035 2626 1249
4035 2626 1281
4051 2754 1473
4035 2866 1729
4035 2978 2082
4003 3090 2546
3779 3314 3170
3475 3346 3491
4095 2994 1697
4095 2994 1681
4067 2994 1697
4035 3090 1889
4035 3154 2130
4035 3234 2370
3987 3378 2802
3843 3475 3186
3555 3523 3523
4067 3186 1841
4067 3170 1809
4067 3202 1873
4051 3266 2050
4051 3410 2434
4035 3475 2722
3987 3555 3010
3955 3619 3266
3763 3651 3539
3699 1969 1665
3715 1985 1681
3699 2017 1745
3587 2033 1905
3443 2146 2226
3298 2242 2434
2930 2210 2514
2738 2178 2578
2802 2242 2690
3683 1953 1649
3683 1953 1649
3683 1985 1713
3603 2066 1953
3443 2146 2226
3266 2226 2418
2978 2210 2498
2786 2210 2594
2818 2242 2706
3731 2001 1713
3731 2017 1729
3715 1985 1697
3619 2066 1937
3459 2146 2226
3282 2226 2418
2994 2242 2530
2818 2242 2626
2834 2274 2722
3795 2098 1745
3795 2098 1761
3763 2130 1825
3683 2178 2033
3539 2258 2290
3394 2354 2514
3122 2370 2626
2946 2370 2738
2994 2434 2866
3875 2017 881
3875 2017 897
3875 2033 945
3891 2226 1441
3699 2450 2354
3555 2594 2626
3427 2658 2802
3186 2658 2930
3218 2738 3122
4003 2338 1025
4019 2370 1041
4003 2354 1041
4003 2450 1265
4019 2562 1521
3907 2850 2594
3731 3026 2962
3523 3010 3138
3459 3106 3378
4095 2674 1249
4067 2690 1297
4051 2658 1233
4051 2786 1473
4035 2866 1713
4019 2994 2082
4035 3090 2450
3955 3250 2962
3699 3394 3459
4095 3010 1617
4095 3010 1649
4067 3010 1649
4051 3090 1857
4035 3186 2114
4035 3266 2386
4051 3394 2722
4051 3443 2946
3843 3571 3507
4095 3266 1905
4067 3250 1889
4095 3282 1953
4067 3330 2162
4051 3427 2530
4035 3507 2866
4003 3587 3138
3955 3619 3330
3891 3699 3555
