其他预设/【236】赛博朋克风调色预设/【后期菌】视频调色预设/3DL/Tokyo 05_S.3dl
# LUT by SparkleStock. Enhanced with VOXCOLOR algorithms.
0 128 256 384 512 640 768 896 1023
592 240 160
608 240 160
544 240 192
368 288 368
368 432 640
480 576 945
769 865 1425
929 993 1633
1073 1137 1841
608 256 176
592 240 160
576 256 208
384 288 384
368 432 624
480 560 945
721 801 1377
913 977 1617
1041 1089 1793
560 240 176
592 240 192
528 240 192
368 304 384
400 496 705
560 672 1073
817 913 1489
1009 1089 1729
1105 1185 1937
480 368 336
528 368 352
528 368 352
416 512 624
624 833 1121
945 1153 1585
1249 1409 1953
1329 1441 2066
1489 1617 2258
897 672 592
945 721 656
913 769 672
913 1041 1121
1393 1777 1953
1729 2017 2306
1905 2146 2498
2017 2242 2690
2098 2306 2802
1889 1729 1505
1921 1777 1569
1905 1841 1617
1953 2050 1953
2033 2402 2434
2162 2562 2706
2258 2690 2930
2386 2738 3090
2482 2834 3266
2690 2306 1873
2706 2306 1873
2594 2322 1873
2546 2482 2242
2482 2722 2610
2402 2866 2946
2482 2978 3138
2546 3010 3250
2626 3074 3410
3106 2610 1985
3122 2594 1953
3122 2610 2017
3010 2850 2514
2850 2946 2706
2706 3042 2946
2626 3138 3202
2610 3170 3346
2738 3218 3475
3491 2754 2017
3523 2786 2050
3507 2802 2066
3218 2994 2594
3218 3106 2866
3170 3218 3106
3042 3282 3282
2946 3362 3475
2962 3410 3555
592 240 176
608 256 176
592 256 192
368 288 368
368 416 608
480 560 929
769 865 1425
929 993 1633
1073 1137 1841
608 256 176
608 256 176
544 240 192
384 288 368
368 432 640
496 576 961
721 801 1377
897 977 1601
1041 1089 1793
608 256 192
592 256 192
544 288 240
368 336 448
400 496 705
544 656 1057
785 881 1457
1009 1089 1729
1121 1201 1953
528 368 336
528 384 352
512 432 384
432 496 592
672 881 1201
929 1137 1569
1185 1345 1905
1377 1473 2098
1553 1665 2306
945 705 608
961 721 640
929 785 672
929 1041 1121
1425 1809 1969
1697 1985 2274
1889 2130 2482
2001 2210 2642
2098 2306 2802
1889 1729 1505
1889 1729 1505
1825 1761 1553
1937 2017 1905
2017 2386 2434
2130 2530 2674
2258 2674 2930
2386 2738 3090
2482 2834 3266
2690 2306 1873
2690 2306 1873
2610 2322 1873
2546 2498 2258
2498 2690 2562
2402 2850 2898
2450 2946 3090
2546 3010 3250
2610 3058 3362
3122 2610 1985
3122 2610 2001
3138 2610 2017
3026 2866 2530
2866 2962 2722
2770 3074 2994
2626 3138 3170
2610 3186 3362
2738 3218 3475
3523 2786 2050
3475 2754 2017
3507 2786 2066
3250 3026 2626
3218 3122 2866
3138 3218 3106
2978 3266 3266
2930 3346 3459
2946 3410 3539
656 256 160
640 240 160
640 256 208
432 304 384
368 448 656
512 608 1009
753 833 1409
945 1009 1649
1089 1153 1857
656 256 160
689 304 208
705 304 320
512 336 544
464 496 785
512 608 1009
801 897 1473
945 1025 1649
1089 1153 1857
737 336 176
769 432 256
769 448 400
592 496 656
496 592 913
624 737 1201
881 977 1553
1041 1121 1761
1185 1233 1985
624 496 336
672 656 416
672 672 544
608 753 833
737 993 1345
961 1185 1633
1265 1409 1969
1393 1489 2114
1553 1649 2306
993 737 544
1025 897 576
1009 1025 769
1041 1329 1313
1441 1889 2033
1729 2033 2306
1937 2178 2530
2050 2290 2722
2146 2354 2850
2082 1697 1409
2050 1745 1377
1889 1857 1601
1889 2082 1921
2050 2434 2450
2146 2562 2690
2290 2722 2962
2434 2802 3154
2498 2850 3282
2850 2338 1809
2786 2258 1729
2722 2434 2001
2546 2514 2290
2498 2738 2626
2386 2850 2914
2482 2978 3138
2562 3026 3266
2642 3090 3427
3218 2578 1825
3218 2546 1793
3154 2610 1985
3074 2882 2530
2930 2978 2754
2786 3074 2994
2642 3138 3170
2658 3202 3378
2754 3250 3491
3571 2690 1825
3587 2706 1841
3555 2738 1937
3298 2994 2546
3266 3154 2898
3202 3234 3122
3026 3250 3234
2994 3346 3443
2994 3427 3555
1137 368 144
1169 368 176
1201 352 272
1073 336 384
672 400 544
592 672 1089
1009 1105 1697
1169 1233 1889
1281 1345 2033
1217 416 160
1249 432 256
1297 464 464
1153 448 624
833 480 833
656 672 1201
1025 1121 1713
1185 1249 1905
1281 1345 2033
1345 560 160
1393 672 320
1377 689 544
1297 672 769
881 656 1041
769 817 1377
1105 1217 1793
1217 1313 1937
1345 1393 2114
1793 849 192
1713 993 336
1681 1057 624
1457 1009 865
1105 1265 1665
1313 1489 2033
1457 1617 2130
1633 1745 2306
1777 1873 2482
1905 1105 304
1873 1265 416
1729 1345 689
1393 1697 1553
1633 2033 2162
1857 2162 2466
2066 2338 2690
2210 2466 2898
2290 2546 3042
2882 1569 464
2690 1649 464
2562 1761 705
2114 2370 2066
2098 2530 2482
2306 2722 2882
2402 2850 3074
2498 2898 3250
2578 2946 3362
3314 2033 961
3314 2082 977
3314 2162 1153
2898 2722 2338
2674 2850 2738
2530 2946 2994
2562 3058 3218
2674 3154 3378
2754 3186 3507
3571 2498 1377
3539 2450 1345
3555 2498 1473
3491 2866 2226
3090 3074 2834
2978 3170 3042
2850 3234 3250
2834 3282 3443
2930 3362 3587
3715 2754 1745
3715 2738 1729
3731 2786 1809
3763 2914 2050
3346 3202 2962
3346 3314 3186
3330 3378 3330
3250 3443 3475
3202 3475 3571
2001 640 176
2017 592 224
1985 544 320
1825 544 448
1265 576 672
865 961 1297
1057 1121 1633
1201 1233 1825
1329 1345 1985
2017 640 160
2050 640 320
2017 608 560
1889 608 737
1473 608 977
993 897 1425
1057 1121 1633
1185 1233 1809
1377 1393 2033
2050 785 128
2082 865 352
2066 881 624
1953 865 897
1569 833 1201
1121 1025 1601
1169 1217 1761
1249 1281 1889
1409 1409 2066
2226 1057 176
2210 1201 400
2162 1217 672
2098 1233 977
1713 1249 1489
1457 1473 1969
1617 1697 2194
1937 2017 2530
2033 2098 2722
2578 1377 176
2482 1537 368
2466 1601 624
2370 1617 1009
1985 2130 2178
2130 2370 2674
2306 2610 2962
2418 2706 3154
2482 2754 3266
3026 1825 528
2898 1937 576
2850 1985 721
2930 2098 1025
2370 2722 2610
2482 2930 3042
2562 2994 3266
2706 3090 3443
2770 3122 3523
3555 2290 1121
3443 2338 1073
3410 2338 1105
3459 2466 1329
3186 3026 2706
2914 3138 3122
2818 3234 3362
2946 3346 3603
2994 3378 3651
3715 2722 1601
3699 2690 1569
3715 2738 1649
3763 2770 1761
3651 3090 2466
3330 3314 3170
3314 3443 3427
3186 3475 3587
3202 3523 3699
3843 2962 1969
3843 2946 1953
3843 2962 1985
3875 3074 2162
3907 3154 2370
3539 3378 3202
3555 3507 3410
3491 3539 3523
3491 3587 3619
2418 817 192
2450 737 256
2434 721 368
2290 721 496
1777 833 865
1201 1281 1633
1313 1393 1857
1425 1457 1985
1601 1617 2162
2450 785 160
2498 753 336
2482 721 560
2370 721 785
1953 785 1073
1297 1169 1681
1313 1377 1857
1441 1473 2001
1633 1633 2194
2514 945 176
2514 961 368
2498 961 640
2434 961 913
2098 993 1297
1553 1361 1889
1393 1441 1937
1457 1489 2017
1697 1665 2258
2594 1217 208
2594 1297 416
2594 1313 689
2498 1329 1009
2258 1473 1617
1857 1761 2178
1825 1857 2274
1937 2001 2402
2017 2033 2546
2866 1553 240
2818 1649 400
2786 1713 672
2754 1761 1073
2514 2050 1937
2306 2386 2578
2370 2498 2802
2514 2722 3074
2642 2850 3298
3298 2066 672
3186 2130 705
3122 2162 849
3154 2242 1121
3266 2322 1409
2674 2962 3042
2754 3090 3346
2882 3250 3571
2994 3314 3651
3715 2530 1361
3619 2530 1249
3603 2562 1313
3571 2690 1505
3603 2834 1841
3250 3186 2930
3090 3314 3378
3106 3475 3667
3186 3491 3731
3795 2898 1761
3795 2882 1729
3811 2930 1825
3827 3010 1985
3779 3154 2242
3715 3282 2642
3523 3459 3346
3427 3539 3619
3427 3587 3683
3907 3074 2114
3907 3074 2114
3907 3090 2130
3939 3170 2274
3971 3266 2434
3955 3362 2674
3731 3491 3218
3667 3603 3539
3635 3635 3603
2642 961 224
2658 913 240
2674 881 352
2546 897 480
2082 1073 929
1409 1473 1697
1537 1617 2017
1649 1681 2146
1761 1777 2258
2706 929 208
2754 865 304
2786 865 528
2690 897 721
2306 993 1089
1521 1409 1761
1521 1601 1985
1649 1697 2162
1761 1761 2258
2754 1041 192
2834 1057 368
2850 1025 592
2754 1041 865
2418 1153 1297
1681 1505 1905
1649 1713 2098
1761 1809 2242
1905 1889 2402
2882 1281 288
2946 1361 448
2962 1393 689
2882 1441 1105
2610 1569 1649
2130 1905 2258
2130 2066 2482
2098 2194 2546
2226 2258 2722
3090 1617 304
3106 1713 448
3106 1777 672
3106 1873 1153
2914 2146 2001
2658 2450 2658
2578 2546 2914
2610 2738 3106
2642 2866 3218
3491 2146 817
3475 2242 849
3410 2290 945
3362 2386 1265
3427 2482 1633
3202 2818 2674
2914 3010 3250
2994 3202 3523
3106 3346 3651
3779 2674 1521
3763 2658 1489
3651 2706 1409
3555 2818 1585
3571 2914 1889
3619 3026 2290
3555 3186 2882
3475 3378 3410
3362 3587 3747
3875 3010 1921
3875 3010 1905
3811 3074 1873
3747 3154 1985
3715 3250 2258
3763 3346 2578
3779 3410 2898
3699 3523 3346
3587 3619 3683
3939 3170 2226
3955 3186 2242
3955 3186 2258
3939 3298 2386
3907 3443 2594
3955 3523 2850
3955 3523 2962
3795 3587 3362
3715 3651 3603
2834 1137 272
2850 1121 272
2850 1121 304
2706 1137 416
2242 1249 913
1697 1633 1777
1809 1889 2210
1873 1905 2322
1969 1985 2434
2866 1121 256
2930 1089 336
2946 1009 400
2834 1057 592
2386 1249 1073
1697 1633 1777
1761 1825 2162
1857 1905 2306
1969 1985 2434
2962 1185 272
3026 1153 352
3058 1153 512
2946 1169 737
2530 1313 1233
1921 1697 1953
1905 1889 2274
1969 2001 2386
2066 2033 2514
3026 1361 400
3138 1409 480
3186 1409 656
3138 1505 1041
2930 1697 1697
2466 2001 2370
2386 2114 2610
2306 2338 2738
2338 2386 2834
3234 1681 448
3266 1729 480
3330 1793 656
3443 1937 1105
3250 2226 2050
3074 2418 2578
2850 2578 2994
2786 2770 3218
2786 2994 3330
3651 2306 1057
3651 2338 993
3603 2354 1025
3635 2466 1329
3651 2530 1697
3507 2754 2530
3314 2930 3122
3202 3186 3523
3218 3427 3683
3811 2738 1585
3779 2738 1457
3747 2802 1441
3715 2898 1633
3731 2978 1969
3763 3058 2370
3795 3106 2674
3619 3282 3218
3491 3571 3699
3955 3106 2066
3923 3106 2050
3859 3154 1905
3843 3282 2050
3811 3362 2322
3827 3427 2594
3891 3443 2882
3827 3491 3170
3667 3635 3651
4003 3282 2402
3987 3266 2370
3987 3330 2402
3923 3443 2434
3939 3571 2690
3939 3603 2914
3955 3603 3106
3987 3619 3250
3827 3699 3587
2930 1233 304
2946 1265 320
2930 1249 320
2818 1233 432
2434 1425 1041
1969 1777 1841
1969 2033 2338
1985 2017 2386
2066 2082 2498
2914 1233 304
2914 1233 304
2930 1217 320
2866 1265 496
2434 1425 1041
1937 1745 1809
2017 2001 2322
2017 2050 2402
2098 2114 2530
2962 1297 336
3010 1281 352
3026 1249 384
2962 1265 576
2706 1441 1233
2242 1745 1953
2098 2050 2402
2066 2114 2466
2130 2162 2578
3090 1457 464
3106 1457 496
3202 1457 592
3266 1569 1025
3122 1793 1729
2850 2098 2386
2594 2210 2690
2434 2418 2818
2434 2498 2930
3282 1745 496
3330 1777 512
3507 1825 672
3651 1969 1057
3555 2274 2050
3378 2434 2562
3106 2642 3074
2946 2834 3266
2866 3074 3410
3699 2370 1121
3731 2402 1057
3811 2418 1089
3875 2514 1409
3891 2578 1745
3811 2770 2514
3651 2898 3042
3362 3154 3507
3234 3427 3683
3843 2786 1649
3875 2818 1521
3891 2850 1457
3939 2930 1681
3971 3010 2017
3971 3074 2402
3987 3106 2674
3843 3250 3074
3587 3571 3683
3971 3138 2114
3955 3122 2066
3955 3170 1905
4003 3314 2033
4019 3378 2322
4003 3459 2642
4003 3475 2914
4003 3507 3042
3763 3635 3603
4019 3362 2498
4019 3362 2514
4019 3427 2498
4019 3539 2562
4003 3635 2786
3987 3651 3010
3971 3667 3218
3955 3651 3362
3859 3699 3571
