其他预设/【236】赛博朋克风调色预设/【后期菌】视频调色预设/3DL/Tokyo 04_S.3dl
# LUT by SparkleStock. Enhanced with VOXCOLOR algorithms.
0 256 512 768 1023
368 224 144
352 240 144
160 464 416
0 817 993
16 1265 1745
368 240 144
320 240 160
144 528 464
0 865 1057
16 1313 1857
480 705 384
448 801 448
80 1505 1521
144 2082 2498
176 2322 2818
2274 2194 1441
2194 2210 1473
993 2562 2530
256 2898 3122
272 3010 3378
3475 2802 1873
3475 2850 1953
2754 3234 2962
1905 3234 3170
352 3250 3427
416 240 128
416 256 176
160 448 416
0 817 993
16 1265 1745
512 320 128
608 464 400
304 624 753
0 929 1153
32 1345 1905
560 721 320
624 1057 592
224 1681 1713
144 2098 2514
208 2370 2866
2466 2194 1313
2322 2338 1617
1105 2578 2530
256 2898 3122
272 3026 3394
3587 2738 1601
3587 2802 1777
2818 3266 2978
1857 3218 3154
400 3266 3443
1825 464 80
1873 432 288
865 512 608
96 961 1153
64 1297 1793
2033 737 80
2130 865 656
1345 849 1249
128 1041 1329
96 1345 1921
2882 1473 16
2754 1729 544
1489 1857 1809
208 2450 2850
256 2658 3186
3811 2178 96
3683 2274 208
2978 3106 2786
769 3090 3218
304 3202 3523
4051 2946 1633
4035 2946 1633
4003 3234 2482
3122 3555 3378
2546 3587 3603
3106 977 16
3090 881 176
2338 961 608
320 1329 1601
128 1601 2178
3170 1057 32
3154 1105 528
2658 1105 1121
352 1425 1713
240 1713 2322
3475 1649 16
3410 1921 544
3186 2194 1921
1553 2402 2770
304 2578 2994
4051 2530 368
3891 2626 464
3763 2946 1729
3699 3330 3010
1441 3427 3635
4095 3218 2162
4095 3234 2210
4019 3491 2690
4035 3619 3122
3587 3731 3619
3491 1281 16
3491 1297 32
2978 1313 592
1217 1601 1873
240 1825 2386
3539 1329 16
3555 1297 96
3154 1361 897
1425 1649 2001
256 1905 2450
3763 1745 0
3859 1905 304
3811 2354 2017
3122 2578 2914
560 2738 3106
4067 2706 817
4067 2866 993
4051 3090 2050
4051 3234 2866
3346 3571 3603
4095 3443 2626
4095 3475 2594
4067 3667 2882
4051 3715 3330
3891 3779 3619
