其他预设/【236】赛博朋克风调色预设/【后期菌】视频调色预设/3DL/Tokyo 05.3dl
# LUT by SparkleStock. Enhanced with VOXCOLOR algorithms.
0 256 512 768 1023
592 240 160
544 240 192
368 432 640
769 865 1425
1073 1137 1841
560 240 176
528 240 192
400 496 705
817 913 1489
1121 1185 1889
897 672 592
929 737 672
1393 1777 1953
1905 2146 2498
2098 2306 2802
2690 2306 1873
2642 2306 1889
2482 2722 2610
2482 2978 3138
2626 3074 3410
3491 2754 2017
3507 2802 2066
3218 3106 2866
3042 3282 3282
2962 3410 3555
656 256 160
640 256 192
368 448 656
753 833 1409
1089 1153 1857
721 288 192
689 272 192
416 528 737
881 977 1553
1185 1233 1937
993 689 560
1009 817 721
1489 1873 2033
1937 2178 2530
2146 2354 2850
2850 2338 1809
2754 2418 2017
2498 2738 2626
2482 2978 3138
2642 3090 3427
3571 2690 1825
3555 2738 1937
3266 3154 2898
3026 3250 3234
2994 3427 3555
2001 656 176
1969 656 176
1201 624 560
1057 1121 1633
1329 1345 1985
2050 689 192
2098 753 256
1297 737 689
1153 1217 1729
1393 1409 2033
2754 1169 240
2818 1249 304
1953 2178 2258
2306 2610 2962
2482 2754 3266
3555 2290 1121
3539 2274 1121
3234 3026 2738
2818 3234 3362
2994 3378 3651
3843 2962 1969
3843 2962 1985
3907 3154 2370
3555 3507 3410
3491 3587 3619
2626 977 224
2626 1009 256
2050 1121 881
1537 1617 2017
1761 1777 2258
2674 1041 256
2690 1041 272
2130 1217 977
1649 1713 2098
1889 1905 2370
3106 1521 368
3138 1569 416
2786 2258 1969
2466 2674 2882
2642 2866 3218
3779 2674 1521
3763 2642 1489
3827 2834 1825
3699 3218 2834
3362 3587 3747
3939 3170 2226
3955 3186 2258
3971 3378 2642
3971 3507 2962
3715 3651 3603
2930 1233 304
2930 1249 320
2434 1425 1041
1969 2033 2338
2066 2082 2498
2962 1297 336
2946 1265 336
2514 1505 1121
2017 2082 2370
2130 2162 2578
3266 1745 512
3282 1745 544
3138 2450 2050
2674 2914 3090
2866 3074 3410
3843 2786 1649
3811 2770 1633
3875 2978 2001
3939 3138 2450
3571 3587 3667
4019 3362 2514
4019 3410 2546
3987 3539 2898
3971 3651 3266
3859 3699 3571
