其他预设/【236】赛博朋克风调色预设/【后期菌】视频调色预设/3DL/Tokyo 06.3dl
# LUT by SparkleStock. Enhanced with VOXCOLOR algorithms.
0 128 256 384 512 640 768 896 1023
400 160 272
416 160 272
368 192 320
240 288 480
208 480 769
80 737 1329
0 1121 2066
0 1233 2386
16 1313 2546
432 176 288
400 160 272
368 208 352
256 320 496
208 480 769
80 737 1313
0 1057 1985
0 1217 2370
0 1265 2498
384 192 304
400 192 304
336 208 352
240 320 496
208 576 849
64 929 1617
0 1169 2146
16 1313 2466
16 1345 2578
320 416 496
336 432 512
320 448 528
256 721 801
16 1185 1649
0 1473 2322
32 1633 2658
32 1649 2754
48 1713 2866
656 897 753
689 945 801
608 961 849
304 1361 1521
48 2001 2514
96 2162 2834
176 2242 3026
256 2322 3170
336 2370 3266
1041 1777 1617
1089 1825 1665
1025 1873 1761
672 2162 2290
432 2466 2738
480 2674 3090
689 2738 3250
961 2786 3362
1313 2914 3523
2210 2338 1841
2210 2338 1841
2162 2322 1873
1649 2610 2546
1297 2802 2882
1281 2978 3154
1329 3074 3346
1537 3106 3443
1777 3186 3587
2882 2706 1793
2914 2690 1713
2882 2722 1825
2226 2946 2770
2098 3042 2962
2001 3122 3138
1921 3234 3346
1809 3266 3475
1969 3330 3571
3443 3010 1921
3475 3042 1937
3459 3042 1953
2546 3122 2850
2466 3218 3074
2386 3298 3202
2338 3362 3346
2226 3427 3507
2162 3443 3571
400 176 288
416 192 304
400 192 320
240 288 480
208 464 737
80 737 1313
0 1121 2066
0 1233 2386
16 1313 2546
432 176 288
432 192 288
368 192 320
256 304 496
208 496 769
80 737 1329
0 1057 1985
0 1217 2338
0 1265 2498
416 208 320
400 192 304
352 224 352
256 320 496
208 576 849
64 881 1553
0 1121 2082
0 1313 2466
16 1361 2594
320 416 496
336 432 512
320 448 544
240 656 753
16 1217 1729
0 1473 2322
16 1601 2626
48 1665 2770
64 1745 2898
689 913 785
672 929 801
640 977 849
304 1377 1521
48 2017 2514
80 2162 2818
176 2226 3010
208 2274 3138
336 2370 3266
1041 1777 1617
1041 1777 1617
961 1825 1713
656 2130 2258
400 2450 2738
448 2642 3058
656 2738 3234
961 2786 3362
1313 2914 3523
2210 2338 1841
2210 2338 1841
2162 2338 1873
1665 2626 2578
1265 2770 2866
1217 2930 3138
1297 3042 3314
1537 3106 3443
1745 3154 3571
2882 2706 1793
2882 2706 1793
2882 2722 1825
2290 2962 2770
2098 3042 2962
2033 3154 3154
1921 3218 3330
1825 3282 3507
1969 3330 3571
3475 3042 1937
3443 2994 1857
3459 3042 1953
2610 3154 2882
2482 3218 3090
2386 3282 3186
2274 3346 3346
2210 3410 3491
2162 3427 3571
464 176 288
480 160 272
448 208 320
272 320 496
208 496 785
64 801 1425
0 1073 2033
0 1233 2386
16 1313 2546
464 176 288
480 192 304
464 192 304
272 336 512
240 544 849
64 801 1425
0 1137 2098
0 1233 2386
16 1313 2546
576 192 288
592 208 304
496 208 336
288 352 544
224 608 897
48 945 1649
16 1233 2258
16 1329 2514
32 1361 2626
384 448 528
400 464 544
352 448 576
288 705 801
32 1249 1745
0 1489 2322
32 1633 2674
48 1697 2786
64 1729 2882
769 849 689
801 881 721
689 1057 913
352 1505 1665
64 2082 2578
96 2162 2850
192 2258 3042
304 2338 3186
448 2418 3314
1505 1697 1345
1505 1697 1345
1057 1873 1745
672 2162 2274
480 2498 2770
480 2658 3074
721 2754 3250
1137 2866 3410
1377 2930 3539
2482 2354 1601
2418 2290 1521
2258 2450 2033
1697 2658 2594
1345 2818 2898
1233 2946 3138
1393 3090 3346
1601 3122 3475
1873 3218 3603
3282 2754 1585
3298 2754 1521
2962 2722 1745
2386 2994 2786
2178 3090 3010
2050 3138 3154
1921 3234 3346
1937 3314 3507
2017 3346 3587
3683 2978 1569
3683 3010 1617
3603 3058 1873
2738 3154 2802
2530 3266 3122
2434 3314 3234
2322 3346 3330
2274 3427 3491
2274 3475 3587
1137 176 224
1121 192 240
1089 224 288
721 288 480
352 400 705
160 785 1473
16 1297 2370
16 1377 2578
32 1425 2690
1137 208 256
1153 192 240
1105 240 304
689 304 496
384 464 785
176 801 1489
16 1297 2402
32 1393 2594
32 1409 2690
1233 224 272
1249 240 272
1185 256 320
849 352 544
368 544 865
96 945 1713
32 1377 2466
16 1425 2610
32 1473 2738
1937 384 368
1873 384 384
1841 400 416
1201 480 656
48 1409 2098
64 1729 2610
48 1761 2770
80 1841 2930
80 1841 2994
1921 849 400
1953 865 400
1697 897 576
368 1713 1953
80 2178 2690
224 2322 2962
416 2418 3154
721 2562 3330
929 2610 3410
3427 1745 80
3378 1681 64
3266 1841 240
1153 2418 2514
705 2610 2850
849 2818 3170
1265 2898 3330
1649 3026 3507
1793 3074 3603
3795 2226 144
3811 2258 160
3731 2402 224
2370 2786 2530
1937 2946 2962
1809 3106 3202
1745 3170 3394
2033 3282 3555
2146 3330 3635
3971 2562 192
3955 2546 176
3923 2674 336
3459 3138 2354
2498 3202 3090
2418 3266 3218
2322 3362 3410
2290 3427 3571
2290 3475 3651
4003 2850 304
4003 2850 304
3987 2882 400
3923 3138 1697
2850 3378 3154
2770 3427 3282
2754 3507 3459
2690 3555 3555
2674 3587 3635
2402 320 208
2402 320 208
2322 336 272
1889 352 464
1089 496 849
352 961 1761
160 1121 2178
64 1233 2418
80 1281 2562
2418 336 224
2418 336 224
2338 352 272
1921 368 480
1105 512 865
368 929 1697
160 1121 2178
48 1217 2402
96 1313 2594
2450 368 224
2482 384 224
2418 384 272
2033 416 544
1201 672 1089
368 1025 1825
176 1185 2274
80 1249 2450
128 1329 2610
2754 640 304
2770 672 320
2754 672 416
2434 608 656
1857 801 1201
384 1425 2322
224 1617 2658
544 1889 2962
737 2050 3138
3282 1137 16
3298 1169 16
3330 1233 48
3154 1361 592
1569 2146 2610
913 2562 3138
1345 2738 3362
1649 2882 3523
1793 2946 3603
3699 1777 32
3715 1777 48
3715 1793 48
3811 2017 80
1713 2898 3042
1745 3090 3346
2066 3186 3507
2210 3282 3635
2290 3314 3715
3955 2290 96
3955 2290 96
3955 2290 96
3987 2370 144
2994 3250 3058
2610 3346 3330
2482 3427 3523
2418 3491 3683
2482 3507 3731
4051 2658 192
4051 2626 176
4051 2690 192
4051 2738 208
3683 3394 2818
3042 3491 3346
3010 3571 3555
2834 3603 3651
2706 3603 3715
4051 2914 256
4051 2898 240
4051 2914 256
4035 3074 961
3971 3346 2338
3218 3571 3394
3218 3635 3539
3154 3651 3587
3122 3699 3683
2978 608 96
2978 608 96
2994 640 144
2706 528 400
2194 592 897
929 1025 1969
400 1265 2338
496 1345 2498
656 1393 2642
2978 608 96
3042 656 96
2994 640 160
2690 496 400
2226 544 881
993 977 1889
384 1249 2322
496 1345 2498
689 1409 2674
3074 705 80
3042 672 96
3010 672 176
2802 592 416
2274 592 913
1137 1073 2033
512 1329 2402
544 1361 2514
801 1473 2706
3202 929 192
3218 945 208
3170 929 272
2962 817 544
2562 897 1217
1425 1585 2418
1233 1745 2674
1441 1873 2850
1473 1889 2930
3539 1265 16
3571 1297 32
3571 1329 32
3539 1697 496
3058 1665 1825
2530 2402 2850
2338 2770 3218
2434 2962 3475
2530 3074 3603
3875 1953 48
3891 1953 48
3875 1953 48
3923 2066 80
3987 2210 160
3042 3362 3410
2562 3410 3603
2562 3459 3715
2642 3491 3779
4035 2402 144
4003 2370 128
4019 2402 144
4035 2498 144
4067 2674 208
3394 3443 3234
3074 3571 3571
2850 3587 3715
2786 3619 3811
4067 2738 176
4067 2706 176
4067 2738 176
4095 2898 240
4051 3026 785
3843 3507 2962
3378 3619 3507
3298 3699 3683
3138 3699 3747
4067 2978 224
4067 2978 224
4067 2994 224
4067 3106 368
4051 3250 1585
3987 3555 2738
3619 3651 3346
3507 3747 3635
3491 3763 3683
3250 833 48
3234 817 48
3202 817 80
3026 705 352
2610 576 849
2114 897 1649
1057 1473 2498
1041 1489 2578
1185 1553 2738
3266 849 64
3250 833 48
3234 865 128
3058 769 384
2690 544 833
2082 929 1681
1057 1473 2466
1041 1489 2594
1185 1553 2738
3282 881 80
3298 897 96
3282 897 96
3106 801 400
2706 576 865
2066 1041 1825
1265 1569 2562
1281 1601 2674
1377 1681 2802
3410 1169 176
3443 1201 192
3427 1217 240
3250 1121 528
2866 929 1169
2258 1521 2322
1825 2050 2818
1857 2098 2946
1969 2178 3074
3635 1393 16
3667 1425 16
3667 1441 32
3699 1825 400
3346 1937 1889
3122 2338 2722
2690 2914 3266
2658 3010 3427
2738 3106 3555
3923 1969 32
3955 2050 64
3955 2050 64
3987 2178 80
4003 2290 128
3555 3074 2994
3298 3298 3378
3026 3491 3651
2962 3539 3763
4095 2482 160
4067 2482 160
4051 2450 128
4051 2562 144
4051 2690 176
4051 2994 1329
3763 3475 3122
3475 3603 3539
3138 3683 3827
4095 2802 192
4095 2786 176
4067 2818 176
4067 2914 224
4051 3090 913
4019 3394 2578
3907 3571 3106
3651 3651 3507
3475 3731 3747
4095 3010 224
4095 3026 224
4095 3026 224
4067 3138 544
4067 3394 2146
4051 3571 2770
3987 3635 3090
3747 3699 3475
3635 3763 3667
3427 977 48
3427 993 48
3410 993 64
3218 913 288
2898 624 785
2466 897 1601
1697 1665 2578
1633 1745 2754
1681 1809 2866
3427 993 48
3443 1025 64
3394 961 64
3234 945 304
2930 656 801
2450 913 1649
1633 1553 2482
1601 1745 2738
1681 1809 2866
3475 1073 64
3459 1057 80
3443 1057 80
3266 977 336
2946 689 865
2530 993 1729
1761 1649 2562
1761 1841 2802
1825 1921 2930
3571 1329 128
3603 1361 144
3571 1345 192
3410 1297 480
3138 1105 1137
2722 1505 2210
2258 2178 2866
2274 2354 3090
2306 2402 3154
3747 1537 16
3763 1553 32
3763 1553 32
3859 1777 96
3507 2146 2017
3314 2482 2738
2978 2818 3154
2834 3122 3491
2882 3186 3603
3971 2066 64
3971 2066 64
3955 2066 64
3987 2162 64
4019 2354 128
3715 3042 2818
3523 3202 3234
3330 3410 3555
3154 3571 3763
4095 2514 144
4095 2498 144
4067 2530 144
4051 2626 160
4035 2754 176
4051 2994 1233
4003 3330 2738
3731 3475 3314
3523 3651 3731
4095 2898 224
4095 2898 224
4067 2898 208
4051 3010 512
4035 3202 1681
4035 3378 2482
3987 3523 2946
3859 3603 3282
3619 3731 3715
4095 3106 256
4095 3106 256
4095 3138 336
4035 3234 1153
4051 3507 2498
4019 3619 2914
3987 3651 3154
3971 3715 3346
3795 3763 3635
3555 1137 48
3555 1137 48
3539 1153 64
3346 1025 224
3090 737 769
2786 945 1601
2130 1665 2594
1841 1841 2786
1889 1921 2914
3539 1089 32
3539 1089 32
3523 1105 48
3362 1073 272
3106 769 737
2770 913 1553
2210 1569 2498
1921 1873 2802
1937 1953 2930
3571 1185 64
3571 1185 64
3555 1153 48
3394 1105 256
3154 833 785
2834 993 1649
2194 1713 2626
2017 1985 2866
2033 2033 2978
3667 1409 128
3667 1441 144
3635 1409 176
3555 1441 496
3298 1281 1169
3010 1569 2162
2578 2242 2866
2450 2514 3154
2466 2514 3218
3747 1537 16
3747 1537 16
3779 1569 32
3907 1793 96
3667 2338 2130
3459 2562 2722
3250 2898 3154
2962 3154 3491
2962 3250 3619
3987 2114 64
3987 2130 64
3987 2146 64
4019 2290 80
4019 2370 96
3843 3154 2802
3603 3186 3154
3443 3394 3491
3330 3539 3715
4095 2562 144
4067 2578 144
4051 2546 128
4051 2690 176
4035 2786 192
4035 2994 1153
4035 3266 2546
3891 3443 3154
3619 3619 3667
4095 2930 224
4095 2930 224
4067 2914 208
4051 3010 288
4051 3202 1553
4035 3394 2450
4051 3523 2882
4035 3587 3106
3763 3699 3651
4095 3170 416
4095 3170 448
4067 3170 496
4051 3346 1825
4051 3571 2706
4035 3651 3042
4003 3683 3282
3987 3699 3427
3891 3763 3619
