其他预设/【236】赛博朋克风调色预设/【后期菌】视频调色预设/3DL/Tokyo 07.3dl
# LUT by SparkleStock. Enhanced with VOXCOLOR algorithms.
0 64 128 192 256 320 384 448 512 576 640 704 768 832 896 960 1023
769 192 240
785 208 256
801 192 240
785 208 256
721 208 272
512 256 384
320 352 512
288 432 624
224 624 961
112 785 1345
32 929 1681
0 1137 2130
0 1233 2338
0 1249 2418
16 1297 2514
16 1329 2610
32 1393 2706
785 208 256
785 208 256
785 208 256
785 192 256
721 208 288
512 240 352
320 352 512
288 432 624
240 624 961
112 769 1329
32 977 1729
0 1089 2050
0 1201 2306
0 1249 2418
16 1281 2498
16 1329 2610
16 1377 2674
785 208 256
769 192 240
769 192 240
785 224 272
737 224 288
512 240 352
336 352 528
304 448 640
224 624 961
112 705 1233
32 913 1665
0 1121 2066
0 1201 2306
0 1249 2418
16 1281 2514
32 1345 2626
32 1377 2690
785 208 256
785 192 256
785 208 256
769 208 272
737 224 288
512 256 384
320 352 512
288 448 640
224 624 961
112 769 1329
32 945 1681
0 1089 2050
0 1201 2306
0 1249 2418
16 1281 2498
32 1361 2642
32 1393 2706
769 208 272
769 208 272
769 208 272
769 208 272
656 224 304
496 288 416
320 368 528
288 464 656
192 721 1105
80 865 1473
0 1089 1905
0 1185 2178
0 1281 2402
0 1297 2466
32 1361 2594
16 1361 2642
32 1425 2722
544 272 368
560 256 352
592 272 368
576 288 384
496 304 416
352 368 512
304 496 640
256 656 929
96 913 1377
32 1105 1825
0 1201 2098
16 1329 2370
16 1409 2530
16 1425 2610
32 1489 2706
32 1537 2754
32 1537 2786
416 432 496
448 448 512
448 464 528
416 448 528
416 480 544
336 560 640
224 849 993
96 1153 1537
16 1313 1921
0 1441 2274
16 1601 2530
32 1649 2658
48 1697 2754
48 1665 2754
48 1681 2818
64 1729 2866
64 1745 2914
496 689 656
480 785 753
464 737 705
432 801 785
384 849 865
320 961 1009
176 1345 1553
32 1777 2242
32 1825 2466
48 1873 2626
64 1873 2722
80 1953 2850
80 1985 2898
96 1985 2978
112 2017 3042
128 2017 3074
128 2017 3090
640 1137 1057
672 1169 1089
656 1201 1137
656 1233 1169
576 1249 1217
448 1441 1537
256 1697 1969
112 2130 2578
80 2162 2706
96 2210 2866
112 2226 2946
176 2210 2994
224 2290 3090
272 2322 3138
288 2322 3202
304 2338 3250
304 2354 3266
721 1601 1553
721 1601 1553
721 1617 1569
721 1617 1569
705 1729 1729
576 1841 1937
464 2017 2210
304 2258 2594
272 2450 2866
272 2466 2962
320 2466 3026
384 2498 3106
416 2514 3154
448 2514 3186
544 2594 3298
512 2578 3330
528 2610 3378
1153 2066 2001
1201 2082 2017
1313 2162 2082
1137 2114 2098
1137 2162 2178
865 2226 2338
833 2418 2578
544 2514 2738
464 2626 2914
576 2706 3090
576 2738 3170
624 2754 3234
721 2786 3298
689 2754 3314
801 2786 3362
881 2802 3427
913 2818 3475
2098 2370 2114
2098 2370 2114
2146 2450 2194
2098 2402 2162
2050 2434 2226
1921 2562 2466
1521 2642 2674
1185 2706 2818
833 2770 2946
769 2834 3074
897 2930 3234
945 2930 3266
1057 2930 3298
1169 2978 3362
1169 2978 3427
1137 2962 3475
1217 2978 3507
2610 2706 2322
2610 2690 2274
2626 2706 2322
2610 2690 2274
2594 2690 2322
2482 2802 2578
2033 2818 2738
1729 2850 2866
1569 2930 2994
1345 2978 3122
1377 3042 3234
1297 3058 3314
1313 3106 3378
1345 3106 3427
1425 3106 3475
1409 3122 3507
1409 3122 3555
2914 2866 2370
2962 2898 2402
2914 2866 2370
2914 2866 2370
2898 2882 2418
2706 3010 2722
2370 3042 2882
2242 3058 2978
2082 3106 3090
1761 3074 3138
1649 3122 3234
1633 3170 3314
1569 3186 3362
1505 3186 3427
1553 3202 3507
1585 3218 3539
1569 3202 3555
3346 3026 2322
3330 3010 2306
3346 3010 2290
3314 2994 2274
3346 3026 2306
3106 3106 2658
2770 3234 2978
2610 3218 3058
2482 3218 3106
2370 3250 3186
2162 3218 3218
2082 3266 3298
1889 3298 3378
1777 3298 3443
1745 3298 3507
1729 3298 3539
1729 3298 3571
3571 3106 2226
3571 3074 2162
3555 3074 2194
3555 3090 2194
3587 3138 2290
3410 3202 2578
2962 3298 2978
2882 3314 3074
2770 3346 3170
2626 3314 3218
2530 3314 3234
2370 3314 3298
2130 3346 3394
2001 3378 3475
1953 3378 3523
1905 3378 3539
1825 3362 3587
3667 3170 2242
3667 3170 2258
3667 3202 2354
3667 3202 2354
3667 3202 2370
3475 3250 2594
3090 3346 3010
3026 3394 3122
2930 3410 3170
2818 3394 3234
2754 3427 3282
2658 3410 3314
2514 3443 3410
2258 3427 3459
2098 3459 3539
2050 3443 3555
2066 3475 3619
785 208 256
753 192 240
785 208 256
785 208 272
705 208 288
512 256 384
320 352 528
288 432 624
240 624 961
112 785 1329
32 945 1713
0 1137 2130
0 1217 2306
0 1249 2418
16 1281 2498
16 1297 2578
32 1393 2706
785 208 256
769 192 240
785 208 256
785 192 256
721 208 272
512 240 352
320 352 528
304 448 656
240 624 961
112 769 1297
32 929 1681
0 1121 2066
0 1201 2306
0 1249 2418
16 1281 2514
16 1345 2626
32 1377 2690
785 208 256
769 192 240
785 192 256
785 192 256
769 208 272
496 256 368
336 352 528
288 432 624
240 640 961
112 785 1329
32 945 1697
0 1089 2050
0 1233 2338
16 1265 2418
16 1281 2498
32 1361 2626
16 1377 2674
785 208 256
785 208 256
785 208 256
769 208 272
721 208 288
496 256 384
336 368 528
304 448 656
224 624 961
112 785 1361
32 961 1729
0 1089 2050
0 1201 2306
0 1249 2434
16 1313 2530
16 1313 2610
16 1377 2690
769 208 272
769 208 272
769 208 272
753 224 288
672 240 320
496 288 416
336 384 560
288 464 656
176 737 1137
80 849 1425
0 1089 1921
0 1185 2178
0 1249 2354
16 1313 2466
16 1361 2578
16 1361 2642
16 1425 2706
560 272 368
576 272 368
560 272 368
560 272 368
496 288 400
368 352 496
304 512 656
256 624 897
96 865 1313
32 1105 1825
0 1217 2114
16 1313 2354
16 1393 2514
16 1441 2626
16 1489 2706
48 1537 2786
32 1537 2786
448 464 528
416 432 496
432 448 512
416 448 528
416 480 560
352 608 689
224 833 961
96 1105 1473
16 1297 1921
0 1489 2322
32 1601 2546
32 1601 2626
48 1697 2738
64 1729 2802
48 1681 2818
64 1729 2866
80 1793 2930
496 721 672
512 705 656
464 737 705
448 737 705
416 833 833
320 929 993
192 1345 1553
16 1745 2194
32 1825 2450
48 1873 2626
64 1905 2738
64 1905 2802
80 1985 2898
112 2017 2994
96 1969 2994
112 2017 3074
128 2017 3090
640 1169 1089
689 1217 1121
656 1201 1137
656 1169 1105
592 1249 1217
448 1441 1537
272 1697 1953
96 2082 2530
80 2194 2722
112 2242 2866
96 2178 2914
176 2210 2978
208 2258 3074
272 2322 3138
320 2338 3202
272 2322 3218
320 2370 3298
721 1617 1569
721 1601 1553
785 1649 1601
721 1601 1553
656 1681 1697
560 1873 2001
480 2033 2226
304 2258 2594
256 2450 2850
288 2498 2978
336 2482 3026
384 2498 3106
400 2498 3154
464 2530 3202
496 2546 3282
528 2578 3314
560 2626 3394
1313 2098 2017
1153 2066 2001
1153 2066 2001
1137 2114 2098
1057 2114 2130
801 2162 2274
769 2386 2546
528 2514 2738
496 2642 2946
544 2706 3058
528 2706 3138
624 2754 3234
672 2770 3282
721 2786 3330
801 2786 3362
881 2802 3427
945 2834 3491
2082 2370 2114
2178 2466 2194
2098 2402 2162
2162 2466 2242
2050 2434 2226
1873 2530 2434
1377 2594 2658
1169 2706 2818
737 2738 2930
833 2866 3122
881 2898 3186
977 2946 3282
1073 2946 3314
1121 2946 3362
1153 2978 3427
1137 2962 3475
1233 2994 3523
2626 2706 2322
2626 2706 2322
2610 2706 2322
2610 2690 2274
2578 2706 2354
2434 2738 2498
2033 2818 2738
1793 2866 2866
1537 2914 2978
1345 2978 3122
1377 3042 3234
1281 3058 3298
1281 3090 3346
1281 3074 3410
1425 3106 3459
1409 3122 3507
1409 3106 3523
2962 2898 2402
2930 2850 2354
2930 2850 2354
2946 2914 2434
2946 2930 2482
2658 2946 2690
2450 3074 2914
2290 3090 2978
2033 3074 3058
1761 3074 3138
1585 3106 3218
1649 3170 3314
1569 3186 3362
1505 3186 3427
1553 3202 3491
1601 3218 3539
1569 3202 3555
3346 3010 2290
3330 2978 2242
3330 3010 2306
3330 3010 2306
3346 3026 2322
3122 3138 2706
2770 3234 2978
2626 3234 3058
2482 3218 3106
2354 3234 3186
2162 3218 3218
2001 3234 3282
1873 3282 3362
1777 3266 3427
1713 3282 3491
1745 3314 3555
1761 3314 3587
3571 3074 2162
3571 3090 2210
3571 3090 2194
3555 3090 2194
3523 3090 2242
3394 3186 2578
2930 3298 2978
2834 3314 3074
2754 3330 3154
2626 3330 3218
2530 3330 3250
2434 3330 3298
2114 3346 3394
1953 3346 3443
1953 3378 3523
1873 3362 3539
1873 3378 3587
3683 3186 2290
3667 3186 2290
3683 3186 2290
3667 3170 2258
3667 3218 2402
3459 3234 2594
3154 3378 3026
3026 3394 3106
2930 3410 3170
2834 3410 3250
2754 3427 3282
2642 3394 3314
2418 3427 3394
2210 3394 3443
2082 3427 3507
2082 3475 3587
2050 3459 3587
785 192 256
785 208 256
801 208 256
785 192 256
785 208 272
496 256 368
320 352 512
288 432 624
224 592 929
96 769 1329
16 913 1665
0 1153 2114
0 1233 2338
0 1249 2418
16 1297 2514
32 1361 2626
32 1393 2706
785 208 256
785 192 256
785 208 256
705 192 256
785 208 272
512 256 384
336 352 528
288 432 624
224 656 1009
112 769 1313
32 929 1681
0 1089 2050
0 1201 2306
0 1217 2386
16 1281 2514
32 1377 2642
32 1393 2706
785 208 256
785 192 256
785 208 256
785 192 256
721 208 272
512 240 352
320 352 528
304 448 640
240 624 961
112 705 1233
32 929 1681
0 1137 2130
0 1201 2306
16 1265 2418
16 1281 2498
16 1329 2610
32 1377 2690
785 208 256
785 208 272
785 208 272
769 208 272
737 224 288
496 256 384
320 352 512
304 448 640
224 624 961
96 801 1377
32 929 1681
0 1089 2050
0 1185 2306
16 1281 2434
32 1313 2546
16 1313 2610
32 1409 2706
769 224 288
769 224 288
769 208 272
769 208 272
672 240 320
496 288 416
320 368 528
288 496 689
192 721 1105
80 849 1425
0 1057 1841
0 1185 2178
0 1249 2354
0 1281 2450
32 1361 2594
16 1377 2642
32 1425 2722
576 272 368
544 272 368
560 272 368
544 288 384
496 304 416
368 384 528
304 512 656
256 608 865
96 881 1329
32 1057 1745
0 1249 2162
0 1313 2354
16 1393 2514
32 1473 2658
16 1441 2690
48 1537 2786
48 1585 2818
416 432 496
416 432 496
432 464 528
448 464 528
416 464 544
368 592 672
208 801 961
80 1185 1585
16 1345 2001
0 1441 2274
16 1569 2514
32 1633 2658
48 1665 2722
64 1729 2802
64 1713 2834
48 1713 2866
80 1793 2946
464 737 705
464 737 705
464 737 705
448 737 705
384 833 833
320 1025 1089
176 1281 1489
16 1761 2210
48 1857 2498
64 1889 2642
48 1857 2706
64 1937 2818
80 2001 2914
112 2017 2994
112 2017 3026
112 2017 3074
128 2017 3090
672 1169 1089
640 1201 1137
640 1201 1137
640 1201 1137
592 1249 1233
448 1489 1569
256 1713 1969
96 2130 2594
80 2194 2722
96 2210 2850
96 2226 2930
176 2210 2994
208 2274 3074
208 2258 3106
272 2306 3170
304 2338 3250
304 2354 3266
721 1601 1553
753 1649 1601
753 1649 1601
737 1665 1649
689 1713 1729
544 1889 2033
400 2001 2226
304 2258 2594
256 2434 2850
256 2450 2946
336 2482 3042
368 2482 3090
416 2498 3154
464 2530 3202
544 2578 3282
512 2578 3314
544 2610 3394
1153 2066 2001
1201 2082 2017
1153 2066 2001
1153 2066 2001
1057 2114 2130
801 2162 2274
769 2386 2562
496 2498 2738
464 2594 2898
576 2706 3090
528 2706 3138
576 2738 3202
705 2770 3282
721 2786 3330
801 2802 3362
865 2786 3410
913 2818 3475
2178 2466 2194
2082 2370 2114
2178 2466 2194
2162 2482 2242
2050 2434 2226
1873 2530 2434
1377 2594 2658
1185 2674 2770
833 2754 2930
849 2866 3122
913 2930 3234
977 2930 3282
1041 2930 3314
1153 2962 3362
1153 2962 3427
1137 2962 3475
1233 2994 3523
2610 2706 2322
2610 2674 2274
2626 2706 2322
2610 2690 2274
2594 2690 2322
2434 2738 2498
2017 2834 2770
1841 2882 2866
1521 2914 2978
1249 2962 3122
1361 3026 3202
1297 3058 3314
1297 3090 3362
1313 3106 3410
1409 3106 3459
1409 3122 3507
1425 3122 3539
2962 2898 2402
2930 2850 2354
2930 2866 2370
2946 2866 2370
2930 2898 2434
2706 2978 2690
2450 3090 2914
2290 3074 2978
2017 3074 3074
1889 3122 3170
1745 3138 3218
1649 3170 3298
1617 3202 3378
1537 3202 3443
1521 3186 3475
1601 3218 3539
1569 3202 3555
3314 3010 2306
3330 3010 2306
3346 3026 2322
3330 3010 2306
3346 3026 2306
3122 3122 2674
2786 3250 2978
2642 3234 3058
2482 3218 3106
2370 3250 3186
2194 3250 3234
1985 3234 3266
1873 3282 3362
1793 3282 3427
1713 3298 3523
1697 3282 3523
1729 3298 3571
3571 3090 2194
3571 3090 2194
3571 3074 2162
3571 3090 2194
3571 3122 2290
3394 3186 2578
3010 3314 3010
2834 3314 3074
2770 3346 3170
2610 3314 3202
2546 3330 3266
2370 3314 3298
2082 3314 3346
1969 3346 3443
1921 3378 3523
1873 3362 3539
1825 3362 3587
3667 3202 2354
3667 3170 2258
3651 3154 2242
3667 3186 2274
3667 3202 2370
3475 3234 2594
3138 3362 3026
3026 3394 3090
2962 3427 3170
2818 3394 3234
2754 3410 3266
2642 3394 3314
2402 3410 3394
2242 3427 3459
2098 3443 3523
2098 3475 3571
2066 3459 3603
785 192 256
833 208 256
801 208 272
801 208 272
769 224 288
512 256 384
336 368 528
288 432 624
224 624 961
112 737 1265
32 929 1681
0 1105 2066
0 1201 2306
0 1249 2418
16 1281 2498
16 1297 2578
16 1361 2674
801 208 272
833 208 256
785 192 256
801 192 256
769 224 288
512 272 384
320 336 512
304 464 656
224 656 993
112 785 1361
32 929 1665
0 1121 2066
0 1233 2338
0 1217 2386
16 1297 2514
16 1329 2610
