其他预设/【236】赛博朋克风调色预设/【后期菌】视频调色预设/3DL/Tokyo 02_S.3dl
# LUT by SparkleStock. Enhanced with VOXCOLOR algorithms.
0 256 512 768 1023
336 160 368
320 176 416
160 256 977
224 256 1649
416 256 1985
336 176 416
304 192 448
144 304 1009
224 288 1681
400 304 2066
32 672 785
32 737 849
0 833 1377
96 1009 2082
240 1089 2386
785 2434 1985
689 2386 1953
192 2050 2162
224 2033 2354
512 2258 2610
3106 3314 2498
3122 3314 2546
1985 3026 2866
1121 2818 2818
833 2706 2818
368 160 384
384 176 432
176 240 977
224 240 1633
432 256 1985
496 256 368
592 416 592
304 416 1201
224 304 1713
448 320 2098
112 753 737
240 1009 945
144 1057 1521
112 1009 2082
256 1121 2402
1425 2674 1969
1025 2562 2130
192 2066 2178
240 2066 2370
576 2290 2642
3250 3234 2242
3202 3282 2386
2242 3122 2946
961 2754 2770
1025 2754 2850
2050 624 737
2050 544 849
1281 288 1169
1121 224 1601
1265 208 1985
2146 817 576
2194 929 1009
1665 640 1585
1217 256 1697
1377 240 2082
2658 1649 737
2578 1841 1057
1665 1665 2194
432 1537 2434
1233 1953 2850
3427 2386 464
3314 2450 544
2834 3282 2946
1377 2690 2802
2482 3042 3186
3619 3058 1377
3619 3058 1393
3683 3378 2466
3330 3555 3346
3282 3539 3443
3010 1153 1217
3042 1041 1265
2754 801 1553
1921 528 1953
2082 448 2194
3090 1201 993
3122 1201 1233
2914 993 1809
2017 592 2017
2194 576 2290
3186 1809 801
3186 1953 1041
3298 2322 2418
2946 2178 2850
3042 2290 3010
3603 2594 448
3491 2674 544
3491 2946 1537
3635 3378 3138
3619 3555 3571
3683 3090 1233
3683 3122 1297
3715 3427 2322
3795 3603 3042
3747 3683 3491
3202 1473 1425
3202 1489 1457
3106 1297 1841
2514 785 2162
2482 672 2322
3234 1521 1457
3266 1457 1425
3266 1377 1937
2626 865 2226
2530 801 2370
3314 1809 721
3507 1905 833
3811 2514 2514
3619 2514 3058
3459 2690 3186
3651 2642 432
3747 2770 608
3859 3026 1681
3907 3218 2834
3843 3539 3539
3747 3234 1617
3779 3298 1697
3859 3571 2578
3891 3667 3170
3875 3683 3475
