其他预设/【236】赛博朋克风调色预设/【后期菌】视频调色预设/3DL/Tokyo 10_S.3dl
# LUT by SparkleStock. Enhanced with VOXCOLOR algorithms.
0 256 512 768 1023
464 256 240
448 256 272
400 464 672
721 801 1281
1057 1089 1745
464 256 272
432 272 288
432 528 785
753 817 1329
1073 1137 1841
897 849 865
881 929 929
1121 1505 1697
1649 1905 2242
1985 2146 2562
2434 2162 1777
2338 2162 1761
2226 2402 2354
2354 2738 2882
2530 2914 3218
3282 2626 1953
3330 2674 2001
3010 2914 2642
2818 3058 2994
2786 3250 3378
528 256 240
512 272 288
400 480 672
721 769 1281
1073 1105 1761
576 320 240
672 480 480
544 624 1009
801 881 1393
1121 1185 1889
945 897 801
977 1137 977
1185 1649 1809
1681 1921 2258
2050 2210 2626
2546 2178 1729
2450 2258 1857
2242 2418 2354
2354 2754 2882
2546 2946 3250
3410 2578 1777
3346 2626 1889
3058 2930 2642
2802 3026 2946
2818 3266 3394
1857 656 256
1841 576 448
1121 656 1009
1041 1105 1521
1329 1329 1889
1953 833 224
2017 929 721
1537 961 1473
1121 1185 1649
1393 1377 1969
2578 1441 208
2498 1665 656
1873 1969 2033
2146 2338 2658
2370 2562 3026
3459 2210 1009
3346 2274 1025
2946 2802 2482
2546 2978 3074
2866 3234 3523
3795 2882 1841
3795 2882 1857
3859 3074 2258
3394 3346 3218
3378 3507 3555
2722 1137 384
2722 1025 512
2033 1153 1137
1521 1569 1905
1665 1665 2098
2850 1201 352
2898 1169 753
2418 1217 1457
1585 1649 1969
1777 1729 2210
3138 1681 352
3154 1857 721
2898 2098 1953
2370 2290 2610
2370 2466 2786
3731 2546 1329
3587 2626 1249
3539 2882 1857
3555 3138 2786
3250 3523 3747
3939 3106 2098
3939 3138 2130
3923 3378 2482
3971 3475 2882
3683 3603 3555
3042 1425 496
3042 1457 544
2530 1601 1249
1841 1889 2066
1889 1873 2242
3074 1473 544
3138 1425 576
2786 1585 1409
1953 1873 2114
1937 1937 2290
3330 1793 512
3523 1905 689
3539 2274 2017
2962 2402 2770
2498 2658 2930
3811 2706 1505
3875 2818 1377
3955 2978 1985
3955 3090 2610
3459 3523 3667
4019 3314 2402
4019 3346 2370
4019 3571 2690
3971 3603 3138
3875 3683 3539
