其他预设/【236】赛博朋克风调色预设/【后期菌】视频调色预设/3DL/Tokyo 03.3dl
# LUT by SparkleStock. Enhanced with VOXCOLOR algorithms.
0 128 256 384 512 640 768 896 1023
801 160 192
817 176 192
753 176 224
464 224 448
480 352 977
640 384 1329
865 496 1633
1009 528 1793
1169 640 1953
817 192 224
801 160 192
817 192 256
480 224 464
464 352 977
640 384 1329
849 480 1617
993 528 1793
1137 608 1937
801 192 224
801 192 224
721 192 256
448 240 464
480 400 1025
656 464 1393
865 544 1681
1009 608 1841
1153 672 1969
304 400 448
320 432 480
304 448 480
288 608 865
448 753 1329
705 849 1681
961 945 1921
1089 961 2033
1313 1073 2178
304 1185 1153
320 1233 1201
304 1217 1217
400 1377 1537
705 1601 1953
1025 1681 2178
1281 1761 2370
1553 1857 2514
1713 1905 2594
849 2017 1889
961 2114 1953
961 2098 1969
1057 2226 2178
1025 2242 2354
1361 2354 2562
1617 2418 2706
1793 2450 2802
1969 2482 2898
1969 2658 2226
1969 2658 2226
1921 2642 2210
1633 2642 2418
1457 2674 2578
1505 2706 2722
1681 2738 2818
1841 2738 2898
2033 2786 2994
2402 2914 2290
2402 2914 2274
2402 2930 2306
2130 2978 2610
1969 2946 2690
1841 2930 2770
1793 2962 2866
1809 2946 2946
2033 2978 3026
2626 3074 2242
2642 3090 2274
2642 3090 2306
2306 3122 2674
2306 3154 2818
2258 3170 2898
2162 3170 2978
2033 3154 3010
2098 3170 3074
817 176 208
833 192 224
833 192 240
464 224 448
464 320 961
624 384 1329
865 496 1633
1009 528 1793
1169 640 1953
817 192 208
817 192 224
753 176 224
480 224 448
480 352 977
656 400 1329
849 480 1617
977 512 1777
1137 608 1937
817 208 240
801 192 224
737 192 272
464 240 480
480 400 1025
624 464 1361
833 512 1649
1009 608 1841
1169 672 1985
320 416 448
320 432 480
304 448 496
272 576 833
464 769 1361
705 833 1681
929 897 1889
1121 977 2050
1361 1137 2226
304 1201 1169
320 1217 1201
320 1217 1217
400 1377 1537
705 1633 1953
1009 1681 2162
1281 1761 2354
1505 1825 2498
1713 1889 2594
849 2033 1889
849 2033 1889
881 2050 1937
1041 2210 2162
1009 2226 2354
1329 2322 2530
1585 2402 2690
1793 2450 2802
1969 2482 2914
1969 2658 2226
1969 2658 2226
1937 2642 2226
1649 2658 2434
1457 2658 2562
1473 2690 2706
1649 2706 2802
1841 2738 2882
2001 2786 2978
2386 2914 2274
2402 2914 2290
2402 2930 2306
2146 2978 2626
1969 2962 2690
1873 2962 2786
1761 2930 2850
1841 2946 2962
2033 2978 3026
2642 3090 2274
2610 3058 2242
2642 3090 2306
2354 3154 2690
2338 3170 2818
2226 3154 2882
2082 3138 2946
2033 3138 2994
2082 3138 3058
945 176 208
929 176 208
945 192 240
512 224 480
512 320 977
705 384 1361
865 480 1633
1009 544 1809
1185 640 1969
945 176 224
961 192 240
945 192 240
528 240 496
544 368 1041
705 384 1361
897 512 1665
1009 544 1809
1185 640 1969
1137 224 256
1137 224 256
1089 224 272
560 272 528
512 416 1073
672 480 1425
881 576 1713
1041 640 1873
1217 705 2001
384 464 512
400 480 528
384 448 528
352 608 897
480 785 1377
721 849 1697
993 929 1921
1153 1041 2066
1361 1137 2210
320 1169 1105
336 1185 1121
352 1265 1265
480 1489 1649
769 1681 2001
1057 1697 2194
1329 1809 2386
1601 1889 2546
1761 1937 2642
1249 2130 1889
1249 2146 1889
945 2114 1985
1057 2226 2178
1073 2290 2386
1361 2338 2546
1649 2434 2706
1825 2482 2818
2001 2514 2930
2178 2722 2194
2146 2690 2130
2017 2706 2290
1681 2674 2450
1505 2706 2594
1473 2674 2706
1697 2738 2818
1873 2770 2898
2082 2834 3026
2498 2898 2162
2514 2898 2146
2434 2930 2274
2226 3010 2610
2050 2994 2722
1905 2962 2786
1809 2946 2866
1889 2978 2962
2082 3010 3058
2786 3010 2033
2802 3042 2082
2738 3058 2194
2450 3170 2642
2370 3186 2834
2306 3186 2898
2146 3154 2946
2098 3154 3010
2146 3186 3074
1905 192 240
1905 224 272
1905 256 304
1713 256 528
1217 272 1025
1201 384 1457
1089 608 1777
1201 705 1937
1329 753 2033
1921 224 272
1921 208 256
1921 256 320
1649 272 528
1281 320 1089
1217 416 1489
1121 608 1793
1233 705 1953
1329 737 2033
2017 240 304
2017 224 288
2001 240 320
1793 320 608
1201 352 1137
1233 480 1537
1121 672 1841
1217 737 1953
1345 785 2082
2418 352 464
2370 352 464
2370 368 528
1985 496 945
817 913 1601
1009 1121 1937
1169 1121 2050
1425 1249 2242
1569 1313 2338
1809 1201 576
1857 1201 560
1601 1297 865
656 1649 1793
945 1809 2114
1313 1905 2338
1569 1969 2498
1777 2050 2658
1953 2098 2754
2786 1793 512
2738 1729 464
2578 1985 993
1409 2402 2338
1313 2434 2498
1553 2466 2642
1777 2530 2754
1969 2562 2866
2130 2578 2978
3090 2274 1009
3090 2322 1073
2962 2498 1457
2290 2914 2530
1921 2850 2674
1761 2802 2754
1825 2818 2834
2066 2882 2962
2242 2898 3058
3218 2722 1457
3202 2690 1425
3122 2786 1649
2770 3090 2402
2306 3074 2770
2226 3074 2850
2098 3042 2914
2130 3058 2994
2258 3090 3106
3266 2962 1681
3266 2962 1681
3250 3010 1793
3154 3138 2114
2562 3234 2850
2530 3266 2930
2530 3282 3026
2434 3266 3074
2418 3266 3122
2690 288 320
2690 272 320
2674 272 368
2546 304 705
2130 384 1281
1969 528 1713
1953 512 1841
1985 576 2001
2050 640 2114
2690 272 320
2706 288 336
2690 304 384
2562 336 721
2146 400 1249
1953 512 1713
1953 512 1841
1985 560 1969
2082 656 2130
2706 288 320
2738 320 368
2754 320 400
2594 352 785
2194 480 1393
1985 544 1745
1985 544 1873
2033 624 2033
2082 672 2146
2866 448 464
2898 480 496
2882 528 608
2770 592 993
2354 737 1585
2066 897 1937
1905 1025 2098
2017 1393 2386
2066 1521 2514
2914 1025 96
2930 1057 128
2962 1089 128
3010 1249 1073
2082 1825 2194
1713 2050 2466
1889 2178 2674
2098 2274 2818
2242 2322 2914
3186 1729 272
3186 1745 272
3186 1761 304
3250 1985 640
1729 2610 2578
1873 2674 2754
2050 2674 2850
2274 2722 2962
2418 2754 3058
3378 2370 897
3378 2370 897
3346 2370 913
3394 2514 1217
2642 3074 2738
2322 2994 2866
2210 2978 2914
2402 3010 3058
2514 3026 3122
3443 2818 1473
3427 2770 1425
3443 2866 1537
3443 2914 1681
3154 3250 2594
2690 3234 2930
2690 3266 3042
2562 3218 3090
2610 3218 3154
3443 3074 1745
3443 3058 1729
3443 3074 1761
3475 3170 1985
3410 3266 2306
2898 3346 2962
2914 3394 3074
2866 3378 3122
2898 3410 3186
2978 336 336
2978 336 336
2962 368 400
2898 432 737
2706 544 1361
2386 640 1857
2274 640 1969
2322 753 2130
2386 817 2242
2978 336 336
2994 384 368
2994 384 416
2914 416 672
2722 496 1313
2402 624 1841
2258 640 1953
2338 769 2146
2402 817 2258
2994 384 384
3010 368 368
2994 416 448
2962 480 769
2738 560 1377
2434 705 1905
2306 721 2001
2338 801 2146
2418 849 2274
3058 592 528
3074 608 544
3074 640 624
3010 753 1025
2834 977 1617
2466 1153 2082
2386 1185 2210
2450 1265 2338
2482 1265 2402
3106 1121 96
3154 1169 144
3154 1185 160
3202 1393 1009
3090 1793 2050
2738 1969 2418
2674 2050 2578
2738 2178 2754
2850 2290 2914
3410 1921 336
3410 1921 336
3410 1921 336
3443 2066 592
3507 2226 1265
2514 2706 2754
2434 2770 2898
2562 2850 3026
2706 2898 3138
3555 2530 1057
3555 2514 1009
3539 2530 1073
3555 2642 1297
3555 2786 1633
3074 3122 2850
2690 3074 2978
2674 3106 3090
2834 3138 3186
3571 2914 1505
3571 2898 1489
3571 2914 1537
3587 3026 1777
3587 3138 2033
3410 3298 2690
3090 3314 3026
2978 3314 3154
2994 3314 3202
3587 3122 1793
3587 3122 1793
3571 3122 1809
3587 3202 1969
3603 3298 2162
3539 3394 2466
3362 3427 2994
3266 3459 3170
3266 3459 3218
3090 416 352
3090 416 352
3074 432 416
3026 512 737
2914 656 1329
2674 817 1873
2466 865 2082
2482 881 2194
2514 913 2290
3090 416 352
3090 416 352
3090 464 416
3058 576 801
2946 656 1313
2642 785 1873
2466 849 2050
2482 897 2194
2514 897 2274
3106 480 416
3122 496 432
3106 480 416
3074 624 849
2962 721 1361
2690 881 1921
2530 961 2114
2530 993 2242
2578 1025 2354
3170 753 576
3186 801 608
3186 817 705
3170 1025 1185
3042 1169 1665
2770 1377 2178
2594 1425 2290
2642 1441 2418
2722 1521 2546
3250 1233 96
3266 1281 128
3282 1297 144
3378 1569 1105
3314 1985 2146
3186 2146 2498
2946 2162 2626
2994 2194 2738
3042 2242 2834
3523 1969 336
3555 2033 400
3555 2033 416
3571 2194 672
3571 2322 1089
3410 2690 2674
3202 2690 2834
3106 2818 3010
3202 2882 3122
3667 2610 1121
3667 2610 1121
3635 2594 1089
3635 2690 1297
3635 2802 1585
3619 2994 2082
3475 3154 2786
3234 3202 2978
3154 3234 3218
3699 2978 1569
3699 2978 1569
3683 2994 1601
3651 3058 1809
3619 3106 2050
3603 3250 2418
3555 3346 2802
3459 3362 3058
3346 3362 3218
3667 3154 1825
3651 3170 1857
3651 3170 1857
3651 3234 2033
3667 3346 2306
3651 3410 2514
3635 3410 2770
3507 3443 3074
3443 3459 3186
3186 528 368
3186 544 400
3186 544 432
3122 640 801
3026 753 1313
2866 929 1857
2658 1025 2146
2690 1073 2290
2738 1089 2370
3186 544 384
3186 544 400
3170 512 400
3138 656 817
3042 785 1345
2866 929 1873
2642 977 2114
2658 1057 2258
2738 1089 2370
3218 592 400
3218 592 416
3218 592 464
3154 737 897
3074 865 1409
2898 1009 1921
2658 1073 2146
2706 1169 2322
2754 1153 2386
3282 913 608
3298 913 608
3298 929 721
3234 1121 1185
3202 1345 1729
2994 1553 2178
2818 1585 2370
2866 1665 2498
2914 1681 2594
3378 1361 112
3394 1377 128
3362 1361 144
3443 1441 512
3410 2082 2178
3346 2242 2498
3074 2226 2642
3122 2274 2786
3234 2322 2898
3635 2066 416
3635 2082 416
3635 2066 416
3651 2226 672
3635 2386 1137
3555 2690 2546
3443 2706 2802
3378 2786 2978
3362 2898 3122
3731 2642 1121
3715 2610 1089
3699 2642 1137
3699 2722 1329
3699 2882 1665
3715 2962 2033
3715 3058 2482
3619 3122 2946
3459 3170 3186
3747 3058 1745
3747 3058 1745
3699 3042 1745
3699 3122 1985
3683 3154 2178
3683 3250 2402
3683 3298 2674
3635 3362 2962
3507 3362 3218
3715 3234 1969
3715 3218 1937
3731 3250 1985
3715 3282 2130
3715 3394 2418
3699 3410 2610
3699 3427 2818
3731 3459 2978
3635 3491 3218
3266 576 352
3266 592 368
3266 608 416
3202 721 817
3122 865 1377
3026 1105 1889
2834 1153 2226
2770 1137 2290
2818 1169 2386
3250 560 352
3250 560 352
3234 592 416
3218 785 881
3122 865 1361
3010 1089 1889
2866 1137 2194
2802 1185 2306
2834 1185 2402
3282 640 384
3282 640 400
3266 608 416
3218 801 881
3154 945 1425
3058 1169 1937
2818 1217 2226
2818 1281 2354
2850 1265 2434
3346 977 608
3346 1009 640
3346 1009 737
3346 1249 1233
3282 1457 1761
3186 1649 2210
3010 1745 2466
3010 1777 2562
3058 1761 2626
3410 1393 112
3410 1393 112
3427 1425 128
3507 1553 368
3475 2146 2162
3394 2274 2498
3282 2322 2690
3234 2338 2818
3314 2402 2930
3699 2162 496
3715 2194 528
3715 2194 528
3699 2322 833
3683 2450 1169
3667 2722 2482
3539 2754 2770
3459 2818 2978
3459 2882 3090
3779 2690 1153
3779 2690 1185
3747 2674 1153
3747 2786 1409
3715 2882 1665
3731 2962 2033
3763 3026 2354
3715 3106 2802
3603 3170 3186
3779 3058 1729
3779 3074 1745
3747 3042 1745
3747 3122 1937
3715 3186 2146
3715 3250 2386
3715 3282 2594
3779 3330 2786
3715 3330 3170
3779 3282 2050
3779 3298 2050
3763 3298 2066
3763 3362 2274
3731 3410 2514
3747 3427 2738
3747 3443 2898
3779 3459 3026
3747 3459 3186
