其他预设/【236】赛博朋克风调色预设/【后期菌】视频调色预设/3DL/Tokyo 06_S.3dl
# LUT by SparkleStock. Enhanced with VOXCOLOR algorithms.
0 128 256 384 512 640 768 896 1023
400 160 272
416 160 272
368 192 320
240 288 480
208 480 769
80 737 1329
0 1121 2066
0 1233 2386
16 1313 2546
432 176 288
400 160 272
368 208 352
256 320 512
208 480 769
80 737 1313
0 1057 1985
0 1217 2370
0 1265 2498
384 192 304
400 192 304
336 208 352
240 320 496
208 576 849
64 929 1617
0 1169 2146
16 1313 2466
16 1345 2610
320 432 480
336 432 512
320 448 528
256 737 817
16 1185 1649
0 1473 2322
32 1633 2658
32 1649 2754
48 1713 2898
656 897 753
689 945 801
592 977 849
304 1361 1521
48 2001 2514
96 2162 2834
176 2242 3026
256 2322 3170
336 2370 3266
1041 1777 1617
1089 1825 1665
993 1889 1745
672 2162 2290
432 2466 2738
480 2674 3090
672 2738 3250
961 2786 3362
1313 2914 3523
2210 2338 1841
2210 2338 1841
2114 2338 1857
1649 2610 2546
1297 2802 2882
1281 2978 3154
1329 3074 3346
1537 3106 3443
1777 3186 3587
2834 2722 1761
2850 2706 1697
2834 2738 1809
2226 2946 2770
2066 3058 2946
1969 3138 3122
1873 3234 3346
1777 3266 3475
1969 3330 3571
3443 3010 1921
3475 3042 1937
3459 3042 1953
2546 3122 2850
2466 3218 3074
2386 3298 3202
2338 3362 3346
2226 3427 3507
2162 3443 3571
400 176 288
416 192 304
400 192 320
240 288 480
208 464 737
80 737 1313
0 1121 2066
0 1233 2386
16 1313 2546
432 176 288
432 192 288
368 192 320
256 304 496
208 496 769
80 737 1329
0 1057 1985
0 1217 2338
0 1265 2498
416 208 320
400 208 304
352 256 384
272 352 528
208 576 849
64 881 1553
0 1121 2082
0 1313 2466
32 1361 2626
320 432 480
336 448 512
336 512 592
240 672 769
16 1217 1729
0 1473 2322
16 1601 2626
48 1665 2770
80 1745 2930
689 913 785
672 929 801
640 993 849
304 1377 1521
48 2017 2514
80 2162 2818
176 2226 3010
208 2274 3138
336 2370 3266
1041 1777 1617
1041 1777 1617
945 1841 1697
656 2130 2258
400 2450 2738
448 2642 3058
656 2738 3234
961 2786 3362
1313 2914 3523
2210 2338 1841
2210 2338 1841
2130 2354 1857
1665 2626 2578
1265 2770 2866
1217 2930 3138
1297 3042 3314
1537 3106 3443
1745 3154 3571
2834 2722 1761
2834 2722 1777
2834 2738 1809
2290 2962 2770
2066 3058 2946
2001 3154 3154
1873 3218 3330
1793 3282 3507
1969 3330 3571
3475 3042 1937
3443 2994 1857
3459 3042 1953
2610 3154 2882
2482 3218 3090
2386 3282 3186
2274 3346 3346
2210 3410 3491
2162 3427 3571
464 176 288
480 160 272
464 208 336
288 320 512
208 496 785
64 801 1425
0 1073 2033
0 1233 2386
16 1313 2546
480 176 288
544 224 320
576 240 416
384 368 672
304 544 929
64 801 1425
0 1137 2098
0 1233 2386
16 1313 2546
608 256 272
689 368 352
640 416 512
464 512 785
336 672 1073
80 945 1681
16 1233 2258
16 1329 2514
48 1361 2658
448 544 480
528 705 544
528 753 705
464 897 977
192 1297 1793
32 1489 2338
32 1633 2674
48 1697 2786
80 1729 2914
785 897 672
833 1057 689
753 1233 945
464 1617 1649
176 2082 2530
96 2162 2850
192 2258 3042
304 2338 3186
448 2418 3314
1505 1697 1345
1489 1729 1313
1057 1921 1713
705 2194 2226
496 2498 2754
480 2658 3074
721 2754 3250
1137 2866 3410
1377 2930 3539
2482 2354 1601
2418 2290 1521
2242 2466 2017
1697 2658 2594
1345 2818 2898
1233 2946 3138
1393 3090 3346
1601 3122 3475
1873 3218 3603
3234 2770 1553
3250 2770 1505
2930 2738 1729
2386 2994 2786
2162 3106 2994
2033 3154 3138
1889 3234 3346
1921 3314 3507
2017 3346 3587
3683 2978 1569
3683 3010 1617
3603 3058 1873
2738 3154 2802
2530 3266 3122
2434 3314 3234
2322 3346 3330
2274 3427 3491
2274 3475 3587
1153 176 224
1137 176 256
1137 208 368
817 256 608
400 384 753
160 785 1473
16 1297 2370
16 1377 2578
32 1425 2690
1185 240 224
1265 272 304
1249 336 528
929 368 801
624 480 1057
240 785 1553
16 1297 2402
32 1393 2594
32 1409 2690
1313 400 224
1377 528 368
1345 592 640
1153 640 961
737 705 1233
288 961 1825
32 1377 2466
16 1425 2610
64 1473 2754
1857 640 288
1777 849 432
1729 929 721
1361 945 1057
528 1473 2114
288 1713 2610
48 1761 2770
80 1841 2930
128 1841 3010
1857 1073 336
1841 1233 432
1665 1345 753
801 1857 1825
448 2162 2546
336 2306 2930
416 2418 3154
721 2562 3330
929 2610 3410
3330 1793 80
3106 1825 144
2930 2017 400
1233 2450 2338
801 2610 2770
849 2818 3170
1265 2898 3330
1649 3026 3507
1793 3074 3603
3795 2226 144
3763 2274 160
3683 2418 240
2338 2802 2498
1937 2946 2962
1809 3106 3202
1745 3170 3394
2033 3282 3555
2146 3330 3635
3923 2578 192
3907 2562 176
3875 2690 352
3459 3138 2354
2482 3218 3074
2402 3266 3202
2322 3362 3410
2274 3427 3571
2290 3475 3651
4003 2850 304
4003 2850 304
3987 2882 400
3923 3138 1697
2850 3378 3154
2770 3427 3282
2754 3507 3459
2690 3555 3555
2674 3587 3635
2386 304 208
2370 288 240
2306 288 400
1937 304 656
1169 448 961
352 961 1761
160 1121 2178
64 1233 2418
80 1281 2562
2354 368 192
2322 400 336
2258 432 608
2001 432 897
1377 512 1217
592 881 1809
160 1121 2178
48 1217 2402
96 1313 2594
2354 576 160
2322 689 368
2290 721 656
2082 737 1057
1553 817 1489
705 1041 2001
208 1185 2290
80 1249 2450
160 1329 2642
2578 913 224
2466 1105 416
2434 1137 753
2290 1089 1105
1969 1121 1569
753 1473 2386
288 1617 2674
544 1889 2962
769 2033 3154
3010 1377 16
2834 1553 224
2786 1633 512
2722 1697 1025
1745 2146 2450
1105 2498 3058
1345 2738 3362
1649 2882 3523
1793 2946 3603
3523 1873 32
3330 2001 176
3250 2050 352
3346 2194 496
1777 2850 2882
1761 3058 3314
2066 3170 3507
2210 3282 3635
2290 3314 3715
3955 2290 96
3827 2338 144
3795 2354 192
3779 2450 288
2962 3250 3026
2610 3346 3330
2482 3427 3523
2418 3491 3683
2482 3507 3731
4019 2674 192
4019 2642 176
4019 2706 208
4051 2738 208
3651 3394 2802
3026 3491 3330
2994 3571 3539
2818 3603 3651
2706 3603 3715
4051 2914 256
4051 2898 240
4051 2914 256
4035 3074 961
3971 3346 2338
3218 3571 3394
3218 3635 3539
3154 3651 3587
3122 3699 3683
2962 592 96
2930 512 176
2930 512 304
2690 448 592
2226 528 993
961 993 1985
400 1265 2338
496 1345 2498
656 1393 2642
2898 592 80
2898 624 256
2834 608 528
2658 512 881
2322 544 1233
1201 929 2001
384 1249 2322
496 1345 2498
689 1409 2674
2930 801 64
2850 849 304
2818 865 608
2722 817 977
2402 769 1393
1425 1073 2146
576 1329 2418
544 1361 2514
833 1473 2738
3026 1137 144
2946 1249 352
2898 1265 672
2786 1201 1057
2594 1185 1601
1681 1585 2466
1281 1745 2690
1441 1873 2850
1489 1889 2946
3314 1489 16
3186 1633 240
3138 1697 512
3106 1921 1041
2882 1841 1953
2546 2354 2802
2354 2738 3218
2434 2962 3475
2530 3074 3603
3715 2033 48
3571 2114 176
3491 2162 368
3491 2258 592
3619 2322 672
2962 3234 3266
2562 3330 3571
2562 3459 3715
2642 3491 3779
4035 2402 144
3923 2418 160
3907 2466 224
3843 2578 336
3827 2738 528
3266 3394 3154
3026 3523 3539
2850 3587 3715
2786 3619 3811
4035 2738 176
4035 2722 176
4035 2754 192
4003 2930 304
3907 3090 929
3715 3523 2930
3362 3619 3507
3282 3699 3683
3138 3699 3747
4067 2978 224
4067 2978 224
4067 2994 224
4067 3106 368
4051 3250 1585
3987 3555 2738
3619 3651 3346
3507 3747 3635
3491 3763 3683
3250 817 48
3218 769 80
3186 721 208
3042 640 480
2626 544 897
2114 897 1649
1057 1473 2498
1041 1489 2578
1185 1553 2738
3250 801 48
3218 753 192
3186 753 432
3074 705 737
2770 544 1105
2162 897 1745
1057 1473 2466
1041 1489 2594
1185 1553 2738
3250 913 64
3234 961 256
3202 961 512
3106 913 897
2818 721 1265
2194 1041 1937
1265 1569 2562
1281 1601 2674
1409 1665 2834
3346 1265 144
3314 1361 320
3282 1393 624
3186 1345 1057
2962 1201 1553
2434 1537 2370
1953 2017 2850
1857 2098 2946
1985 2162 3090
3555 1537 16
3507 1649 192
3427 1745 496
3410 1985 993
3234 2033 2017
3122 2290 2690
2754 2754 3234
2690 2946 3443
2738 3106 3555
3859 2017 32
3811 2146 160
3699 2226 368
3603 2370 737
3635 2418 945
3394 2914 2866
3250 3138 3314
3042 3394 3651
2962 3539 3763
4095 2482 160
4051 2498 160
3891 2562 288
3779 2738 576
3731 2834 849
3763 3026 1745
3619 3394 3122
3443 3571 3539
3138 3683 3827
4067 2818 192
4067 2802 176
3971 2898 272
3891 3058 480
3827 3202 1217
3827 3443 2594
3795 3571 3106
3635 3651 3507
3475 3731 3747
4095 3010 224
4095 3026 224
4095 3026 224
4035 3154 592
4003 3443 2146
4003 3603 2754
3971 3651 3090
3747 3699 3475
3635 3763 3667
3427 977 48
3427 977 64
3410 977 80
3218 897 320
2898 624 785
2466 897 1601
1697 1665 2578
1633 1745 2754
1681 1809 2866
3427 977 48
3459 945 128
3427 897 240
3298 881 496
2994 640 913
2450 913 1649
1633 1553 2482
1601 1745 2738
1681 1809 2866
3491 1073 64
3491 1057 192
3491 1057 336
3362 993 672
3058 753 1089
2626 993 1809
1825 1633 2578
1761 1841 2802
1857 1889 2946
3571 1345 96
3603 1409 224
3571 1425 464
3491 1409 881
3298 1281 1505
2946 1537 2322
2482 2082 2914
2322 2322 3106
2322 2386 3170
3747 1569 16
3731 1633 128
3715 1745 368
3747 1953 801
3555 2146 2066
3427 2338 2706
3154 2626 3138
2946 2978 3507
2882 3186 3603
3971 2066 64
3939 2130 128
3843 2242 384
3811 2370 753
3843 2482 1041
3667 2850 2738
3555 3010 3186
3378 3266 3571
3154 3555 3763
4095 2514 144
4035 2546 176
3955 2690 368
3891 2818 721
3859 2914 1025
3875 3042 1825
3875 3250 2850
3715 3410 3362
3523 3651 3731
4067 2914 224
4067 2930 240
3987 3026 352
3923 3170 833
3891 3346 1825
3907 3459 2530
3907 3539 2978
3827 3603 3314
3619 3731 3715
4095 3106 256
4095 3106 256
4067 3154 352
3987 3330 1201
3987 3571 2450
3987 3683 2882
3987 3667 3154
3971 3715 3346
3795 3763 3635
3555 1137 48
3555 1137 48
3539 1153 64
3346 1025 224
3090 737 769
2786 945 1601
2130 1665 2594
1841 1841 2786
1889 1921 2914
3539 1089 32
3539 1089 32
3539 1089 64
3378 1057 304
3106 769 737
2770 913 1553
2242 1553 2514
1921 1873 2802
1937 1953 2930
3571 1185 64
3571 1185 80
3571 1153 128
3459 1105 368
3250 865 945
2978 993 1745
2258 1697 2642
2017 1985 2866
2033 2033 2978
3683 1409 128
3683 1441 160
3715 1441 304
3683 1489 785
3555 1377 1473
3298 1585 2290
2866 2130 2914
2530 2466 3170
2498 2498 3234
3747 1553 16
3779 1585 64
3859 1713 304
3987 1937 672
3859 2258 2130
3699 2386 2690
3523 2674 3138
3138 2994 3507
2962 3250 3619
3987 2114 64
3987 2194 128
4019 2306 384
4051 2418 737
4051 2482 1025
3955 2914 2738
3795 2978 3154
3571 3234 3523
3346 3523 3715
4095 2562 144
4067 2642 192
4067 2706 384
4067 2866 769
4051 2930 1073
4051 3042 1793
4051 3202 2738
3923 3378 3250
3635 3603 3683
4095 2946 208
4095 2962 224
4067 3058 368
4067 3202 721
4051 3346 1745
4051 3491 2530
4067 3555 2930
4035 3587 3154
3763 3699 3651
4095 3154 400
4095 3170 448
4095 3218 576
4051 3443 1777
4035 3635 2610
4035 3699 2978
4019 3731 3266
3987 3699 3427
3891 3763 3619
