其他预设/【236】赛博朋克风调色预设/【后期菌】视频调色预设/3DL/Tokyo 03.3dl
# LUT by SparkleStock. Enhanced with VOXCOLOR algorithms.
0 256 512 768 1023
801 160 192
753 176 224
480 352 977
865 496 1633
1169 640 1953
801 192 224
721 192 256
480 400 1025
865 544 1681
1153 672 1969
304 1185 1153
304 1217 1217
705 1601 1953
1281 1761 2370
1713 1905 2594
1969 2658 2226
1921 2642 2210
1457 2674 2578
1681 2738 2818
2033 2786 2994
2626 3074 2242
2642 3090 2306
2306 3154 2818
2162 3170 2978
2098 3170 3074
945 176 208
945 192 240
512 320 977
865 480 1633
1185 640 1969
1137 224 256
1089 224 272
512 416 1073
881 576 1713
1217 705 2001
320 1169 1105
352 1265 1265
769 1681 2001
1329 1809 2386
1761 1937 2642
2178 2722 2194
2017 2706 2290
1505 2706 2594
1697 2738 2818
2082 2834 3026
2786 3010 2033
2738 3058 2194
2370 3186 2834
2146 3154 2946
2146 3186 3074
2690 288 320
2674 272 368
2130 384 1281
1953 512 1841
2050 640 2114
2706 288 320
2754 320 400
2194 480 1393
1985 544 1873
2082 672 2146
2914 1025 96
2962 1089 128
2082 1825 2194
1889 2178 2674
2242 2322 2914
3378 2370 897
3346 2370 913
2642 3074 2738
2210 2978 2914
2514 3026 3122
3443 3074 1745
3443 3074 1761
3410 3266 2306
2914 3394 3074
2898 3410 3186
3090 416 352
3074 432 416
2914 656 1329
2466 865 2082
2514 913 2290
3106 480 416
3106 480 416
2962 721 1361
2530 961 2114
2578 1025 2354
3250 1233 96
3282 1297 144
3314 1985 2146
2946 2162 2626
3042 2242 2834
3667 2610 1121
3635 2594 1089
3635 2802 1585
3475 3154 2786
3154 3234 3218
3667 3154 1825
3651 3170 1857
3667 3346 2306
3635 3410 2770
3443 3459 3186
3266 576 352
3266 608 416
3122 865 1377
2834 1153 2226
2818 1169 2386
3282 640 384
3266 608 416
3154 945 1425
2818 1217 2226
2850 1265 2434
3410 1393 112
3427 1425 128
3475 2146 2162
3282 2322 2690
3314 2402 2930
3779 2690 1153
3747 2674 1153
3715 2882 1665
3763 3026 2354
3603 3170 3186
3779 3282 2050
3763 3298 2066
3731 3410 2514
3747 3443 2898
3747 3459 3186
