其他预设/【236】赛博朋克风调色预设/【后期菌】视频调色预设/3DL/Tokyo 08_S.3dl
# LUT by SparkleStock. Enhanced with VOXCOLOR algorithms.
0 64 128 192 256 320 384 448 512 576 640 704 768 832 896 960 1023
400 288 400
432 320 416
416 304 400
432 320 400
400 304 416
352 352 496
256 384 608
176 496 849
112 624 1073
96 801 1329
80 897 1489
96 1041 1681
112 1121 1793
96 1137 1841
128 1201 1937
112 1265 2001
144 1345 2082
432 320 416
432 320 416
432 304 400
416 304 400
400 320 432
336 320 480
256 384 608
176 496 849
112 624 1073
80 769 1329
96 929 1521
80 993 1633
80 1089 1761
96 1137 1841
112 1201 1921
112 1265 2001
112 1313 2066
432 320 416
416 288 400
416 288 400
432 320 432
432 336 448
336 320 480
272 400 624
176 512 881
112 624 1073
80 753 1297
64 881 1473
96 1025 1665
80 1089 1761
96 1137 1841
112 1201 1937
128 1265 2017
112 1313 2066
432 320 416
416 304 400
432 320 400
416 320 416
416 336 432
352 352 512
256 400 608
176 512 865
112 608 1073
96 785 1329
80 897 1489
80 1009 1649
80 1089 1777
96 1137 1841
112 1185 1921
128 1281 2017
128 1329 2082
416 320 432
432 336 432
432 336 432
416 336 432
400 336 432
352 400 560
256 400 640
160 528 913
128 705 1169
96 833 1377
112 977 1537
96 1073 1713
112 1137 1825
112 1169 1873
144 1249 1969
128 1297 2066
144 1377 2146
352 384 496
352 368 496
368 400 528
368 400 544
352 400 544
288 400 592
208 528 801
160 640 1025
112 817 1281
112 945 1473
96 1041 1617
128 1137 1761
144 1217 1873
128 1265 1937
144 1345 2050
160 1393 2114
160 1441 2162
240 496 592
272 496 624
272 512 640
240 496 624
256 512 640
176 560 769
144 705 993
144 881 1249
128 1025 1441
144 1137 1617
176 1249 1793
192 1329 1905
224 1409 2017
192 1425 2050
208 1489 2146
208 1553 2242
208 1617 2338
208 689 801
240 769 865
224 705 833
224 753 897
208 769 929
208 817 993
176 929 1153
160 1105 1409
176 1265 1649
224 1377 1825
256 1505 2001
288 1569 2130
272 1617 2178
272 1681 2274
288 1761 2370
272 1793 2450
256 1825 2530
256 1025 1121
272 1073 1169
288 1089 1185
304 1121 1185
256 1105 1201
272 1185 1313
240 1217 1425
288 1425 1665
272 1537 1825
320 1681 2050
336 1761 2178
336 1809 2274
336 1889 2386
336 1937 2466
304 1969 2578
272 2017 2658
272 2033 2690
368 1409 1457
368 1409 1457
384 1425 1457
384 1441 1441
400 1489 1537
400 1521 1585
400 1601 1697
384 1681 1841
400 1809 2066
384 1889 2226
384 1985 2338
400 2066 2466
368 2098 2578
336 2146 2690
352 2226 2802
320 2242 2866
288 2306 2962
656 1777 1777
656 1793 1793
721 1841 1825
640 1793 1793
689 1857 1825
672 1873 1905
624 1937 2001
576 2001 2114
496 2050 2242
496 2178 2402
416 2242 2562
400 2290 2674
384 2338 2786
352 2338 2834
320 2386 2946
320 2450 3058
304 2498 3154
1105 2066 1921
1121 2050 1953
1169 2066 1985
1153 2066 1969
1105 2082 1969
1073 2146 2082
1009 2178 2146
897 2210 2226
849 2258 2354
640 2290 2450
496 2370 2626
448 2434 2738
400 2466 2834
400 2530 2962
384 2546 3042
352 2578 3122
336 2610 3218
1601 2322 2146
1553 2290 2130
1601 2322 2162
1553 2290 2130
1521 2322 2130
1553 2370 2242
1313 2338 2306
1185 2370 2370
1153 2466 2498
897 2498 2594
672 2562 2722
576 2594 2802
496 2642 2946
448 2690 3042
400 2690 3122
384 2722 3186
384 2754 3282
1905 2530 2274
2001 2578 2322
1905 2530 2274
1905 2530 2274
1937 2546 2290
1777 2546 2386
1505 2546 2434
1457 2578 2530
1425 2642 2642
1073 2626 2674
945 2658 2754
801 2722 2866
753 2722 2946
496 2738 3042
432 2818 3202
400 2834 3266
400 2850 3314
2258 2722 2290
2258 2722 2290
2258 2722 2290
2242 2706 2290
2258 2722 2322
2114 2738 2450
1889 2754 2594
1697 2754 2626
1665 2786 2690
1617 2834 2770
1361 2802 2818
1249 2834 2914
977 2866 2994
689 2866 3106
592 2898 3186
496 2930 3282
432 2930 3314
2594 2834 2354
2514 2818 2258
2562 2802 2322
2562 2802 2322
2610 2850 2386
2466 2930 2530
2050 2882 2674
1969 2914 2706
1921 2962 2802
1825 2930 2850
1697 2914 2898
1537 2914 2946
1313 2962 3074
1121 2994 3154
929 2994 3218
769 2994 3282
576 3010 3346
2738 2930 2418
2738 2930 2418
2754 2962 2434
2754 2962 2434
2754 2962 2450
2594 2994 2562
2194 2994 2722
2146 3026 2818
2050 3026 2866
1937 3010 2914
1873 3058 2994
1777 3042 3026
1649 3090 3138
1361 3058 3186
1185 3106 3266
1009 3074 3282
961 3106 3346
432 320 400
400 288 400
432 320 416
432 320 416
400 304 416
352 352 496
272 400 608
160 496 849
112 624 1073
96 785 1329
96 913 1505
96 1041 1681
96 1089 1777
96 1153 1857
128 1201 1921
96 1249 1985
128 1345 2082
432 304 400
416 288 400
432 320 416
416 304 400
400 304 416
336 320 480
272 400 608
176 528 897
112 624 1073
80 769 1313
80 897 1489
96 1025 1665
80 1089 1777
96 1153 1857
112 1201 1937
128 1265 2017
112 1313 2066
432 320 416
416 288 400
416 304 400
416 304 400
432 336 432
336 336 480
272 400 640
176 496 849
112 640 1089
96 785 1329
96 913 1505
80 1009 1649
96 1105 1777
112 1153 1857
112 1185 1921
128 1265 2017
112 1313 2066
432 320 400
432 320 400
432 320 400
416 320 416
400 320 432
336 336 480
272 400 640
176 528 897
112 608 1073
96 801 1345
96 913 1505
80 1009 1649
80 1089 1777
96 1137 1857
128 1201 1937
112 1249 2001
112 1313 2082
432 336 432
448 336 432
416 320 432
432 336 432
400 352 480
352 400 560
272 432 672
160 528 913
128 705 1169
96 833 1361
112 977 1553
96 1057 1697
96 1105 1793
112 1169 1873
144 1249 1953
128 1297 2066
128 1345 2130
352 384 512
368 400 528
352 384 512
352 384 512
336 384 528
288 400 592
208 544 833
160 624 993
112 785 1233
112 945 1473
96 1041 1617
112 1137 1777
144 1201 1857
144 1281 1953
144 1329 2033
176 1425 2130
160 1441 2162
272 528 624
256 480 624
256 496 624
240 496 624
240 528 672
208 592 801
144 689 977
128 849 1201
128 1025 1441
144 1169 1649
176 1281 1825
176 1313 1889
192 1393 2017
224 1473 2098
208 1489 2146
208 1553 2242
224 1633 2354
224 705 801
224 721 785
224 705 833
208 705 817
208 753 897
192 801 993
176 945 1185
160 1089 1409
176 1265 1649
224 1377 1841
272 1521 2017
256 1537 2098
272 1617 2178
304 1697 2290
272 1713 2322
272 1793 2450
256 1825 2530
272 1057 1153
288 1105 1185
288 1089 1185
272 1073 1153
288 1121 1217
272 1185 1297
272 1249 1425
256 1377 1633
288 1553 1841
320 1697 2066
320 1729 2146
320 1793 2258
336 1873 2370
336 1937 2466
304 1985 2594
272 2001 2626
272 2066 2754
384 1425 1457
368 1409 1457
400 1457 1489
368 1441 1441
384 1441 1489
400 1521 1601
400 1617 1713
384 1681 1841
400 1793 2050
400 1921 2242
384 1985 2338
400 2066 2466
368 2098 2578
336 2146 2690
336 2178 2754
320 2226 2834
304 2322 2978
656 1793 1793
656 1777 1777
656 1777 1777
640 1793 1793
640 1793 1777
640 1825 1841
608 1905 1985
592 2001 2114
512 2082 2258
464 2146 2370
400 2210 2530
400 2290 2658
384 2306 2738
368 2386 2882
320 2386 2946
320 2466 3058
320 2514 3170
1105 2066 1905
1169 2082 1985
1153 2066 1969
1137 2066 1985
1105 2082 1969
1073 2146 2066
897 2130 2114
897 2194 2226
801 2242 2338
640 2338 2498
496 2338 2594
448 2434 2738
432 2514 2866
368 2498 2946
368 2546 3074
368 2578 3122
352 2642 3250
1601 2322 2162
1601 2322 2162
1601 2322 2146
1553 2290 2130
1521 2322 2146
1441 2290 2194
1297 2338 2306
1233 2386 2386
1185 2450 2482
897 2498 2594
672 2562 2722
512 2562 2802
496 2610 2898
400 2658 3042
384 2674 3122
368 2722 3186
368 2738 3250
2001 2578 2306
1921 2530 2274
1921 2530 2274
1985 2578 2322
2001 2594 2338
1713 2514 2354
1553 2594 2482
1521 2610 2562
1425 2626 2626
1073 2626 2674
881 2642 2754
801 2722 2866
753 2722 2946
512 2770 3074
432 2802 3170
400 2834 3266
400 2850 3330
2290 2738 2306
2258 2706 2258
2258 2722 2306
2258 2722 2306
2258 2738 2322
2162 2770 2482
1889 2754 2594
1713 2770 2642
1665 2786 2690
1601 2818 2754
1393 2802 2818
1233 2802 2898
945 2850 2978
737 2850 3090
608 2882 3170
464 2962 3314
448 2930 3330
2562 2802 2306
2514 2834 2274
2562 2818 2322
2562 2802 2322
2530 2802 2338
2450 2914 2530
2001 2850 2658
1905 2898 2706
1873 2930 2770
1825 2930 2850
1697 2930 2914
1537 2930 2962
1297 2962 3074
1057 2962 3122
929 2994 3218
705 2994 3298
640 3026 3362
2754 2962 2434
2754 2962 2434
2754 2962 2434
2738 2930 2418
2786 2978 2450
2594 2994 2562
2242 3042 2770
2130 3026 2818
2050 3026 2866
1969 3042 2930
1873 3058 2994
1777 3026 2994
1489 3042 3122
1345 3042 3154
1153 3058 3218
1105 3106 3314
961 3090 3330
416 304 400
432 304 400
432 320 416
416 304 400
432 336 432
336 336 480
256 384 608
176 496 849
96 592 1057
80 769 1329
64 881 1473
96 1041 1681
112 1121 1793
96 1153 1857
128 1201 1937
128 1265 2017
144 1345 2082
416 304 400
416 304 400
416 304 400
400 288 400
432 336 432
352 352 496
272 400 624
160 496 849
128 656 1105
80 769 1313
96 897 1489
80 993 1633
80 1089 1777
80 1121 1841
112 1201 1937
128 1281 2017
128 1345 2082
432 320 416
416 304 400
432 320 416
416 304 400
400 304 416
336 320 480
272 400 608
176 512 881
112 624 1073
80 753 1297
96 897 1489
96 1041 1681
80 1089 1777
112 1153 1857
112 1185 1921
112 1265 2001
112 1313 2066
432 320 400
432 336 432
432 336 432
416 336 416
432 352 464
336 352 512
256 384 624
176 528 897
112 608 1073
96 801 1345
80 897 1489
80 1009 1649
80 1089 1777
112 1169 1873
128 1217 1953
112 1249 2001
144 1345 2098
448 336 448
432 336 448
432 352 432
432 368 448
400 368 480
336 384 560
272 432 672
176 560 945
128 705 1169
96 817 1361
96 945 1521
96 1057 1697
96 1105 1793
112 1169 1857
144 1249 1953
128 1313 2066
144 1377 2162
368 400 528
352 384 496
352 400 512
368 416 528
352 448 560
320 464 640
224 576 865
160 640 1009
112 801 1249
96 929 1441
112 1073 1649
96 1137 1761
144 1201 1857
160 1281 1969
144 1313 2017
176 1425 2130
192 1489 2210
256 512 608
256 480 624
256 528 640
288 544 640
256 560 672
224 624 785
128 672 945
144 897 1249
144 1041 1473
128 1137 1617
160 1249 1793
192 1329 1905
192 1361 1985
224 1473 2098
224 1521 2178
192 1553 2226
224 1633 2370
224 705 833
224 721 817
224 705 833
240 737 833
208 769 897
224 881 1041
176 929 1153
160 1105 1409
208 1313 1697
240 1393 1857
256 1505 2001
272 1569 2114
288 1617 2194
304 1697 2290
272 1745 2354
272 1793 2450
256 1825 2530
272 1073 1169
272 1089 1185
288 1089 1185
272 1105 1169
288 1121 1217
288 1201 1329
272 1249 1425
288 1409 1665
288 1553 1841
320 1681 2050
336 1745 2162
336 1809 2258
336 1873 2370
304 1889 2434
304 1937 2530
272 2017 2658
272 2033 2690
368 1409 1457
400 1457 1489
400 1441 1489
400 1489 1489
400 1489 1537
400 1521 1617
384 1585 1697
384 1681 1857
400 1793 2033
384 1889 2194
400 2001 2354
384 2033 2450
368 2098 2578
336 2146 2690
336 2210 2786
320 2242 2850
288 2306 2962
656 1777 1777
640 1777 1777
656 1777 1777
656 1777 1777
640 1793 1777
640 1825 1841
608 1905 1985
512 1953 2098
480 2050 2226
496 2178 2402
400 2210 2514
400 2258 2626
368 2322 2754
368 2386 2882
320 2386 2946
304 2450 3058
304 2498 3154
1153 2098 1953
1121 2050 1937
1169 2082 1985
1137 2066 1985
1105 2082 1969
1057 2130 2066
929 2130 2114
833 2162 2194
849 2258 2354
640 2338 2498
496 2370 2626
448 2434 2738
416 2482 2834
384 2514 2962
368 2530 3042
352 2578 3122
352 2626 3250
1601 2322 2146
1553 2290 2130
1601 2322 2162
1553 2290 2130
1537 2322 2130
1441 2290 2194
1345 2370 2322
1233 2402 2402
1153 2450 2482
801 2466 2578
656 2530 2706
592 2594 2802
496 2610 2898
416 2674 3042
384 2690 3122
384 2722 3186
368 2738 3250
2001 2578 2306
1921 2530 2274
1953 2546 2290
1953 2546 2290
1969 2562 2322
1761 2530 2354
1601 2594 2482
1521 2610 2546
1409 2626 2642
1169 2674 2706
977 2674 2786
849 2706 2850
672 2738 2978
496 2770 3106
416 2802 3170
400 2834 3266
400 2850 3314
2274 2722 2290
2274 2722 2290
2274 2722 2306
2274 2722 2306
2274 2738 2322
2178 2770 2466
1889 2754 2610
1777 2802 2658
1681 2786 2690
1649 2834 2770
1441 2834 2850
1201 2802 2882
929 2850 2994
737 2850 3090
576 2914 3218
496 2930 3266
432 2930 3330
2562 2818 2322
2514 2834 2274
2562 2802 2306
2562 2818 2322
2578 2850 2370
2450 2914 2530
2066 2914 2690
1905 2898 2706
1905 2962 2802
1793 2898 2834
1745 2946 2930
1537 2914 2946
1233 2914 3010
1057 2962 3122
913 2978 3218
721 2994 3298
592 3010 3346
2754 2962 2434
2738 2930 2418
2722 2930 2402
2738 2946 2418
2754 2962 2450
2594 2994 2562
2226 3026 2754
2130 3026 2802
2082 3042 2882
1937 3026 2914
1857 3026 2962
1777 3026 2994
1489 3042 3122
1345 3074 3202
1233 3090 3250
1105 3106 3314
1009 3106 3330
416 304 400
432 320 416
432 336 432
432 336 416
432 352 464
352 336 496
272 400 640
176 496 849
112 624 1073
80 753 1297
96 897 1489
96 1025 1665
96 1073 1761
96 1153 1857
112 1185 1921
96 1249 2001
112 1313 2066
432 336 432
432 320 400
416 304 400
432 304 400
448 352 464
384 352 544
272 384 624
176 528 897
128 656 1121
112 801 1345
80 897 1489
96 1025 1665
112 1105 1777
80 1121 1841
128 1201 1937
112 1249 2001
