其他预设/【236】赛博朋克风调色预设/【后期菌】视频调色预设/3DL/Tokyo 01.3dl
# LUT by SparkleStock. Enhanced with VOXCOLOR algorithms.
0 256 512 768 1023
288 160 288
272 160 336
112 336 705
112 512 1153
144 705 1537
288 160 336
272 160 368
96 368 785
112 528 1185
144 721 1585
416 496 705
400 528 753
112 1105 1441
320 1441 1969
464 1729 2322
2402 2146 1969
2386 2130 1969
1873 2418 2402
1425 2642 2802
1937 2834 3106
3459 2738 2370
3491 2786 2402
3058 3026 2802
2898 3186 3106
2722 3250 3282
320 160 320
320 176 336
112 336 721
112 480 1137
144 721 1553
352 176 320
352 176 336
128 384 801
112 576 1217
160 753 1617
464 480 656
432 592 833
144 1185 1537
336 1457 1985
560 1825 2402
2610 2194 1969
2498 2258 2082
1857 2434 2402
1473 2658 2802
2017 2866 3122
3507 2642 2194
3507 2722 2306
3106 3058 2818
2866 3170 3090
2770 3266 3314
1697 416 352
1681 448 400
705 432 753
176 705 1313
240 865 1633
1841 480 416
1873 560 480
865 528 865
192 753 1361
256 913 1681
2770 897 448
2850 993 576
1073 1537 1777
672 2033 2434
1649 2434 2898
3571 2226 1521
3571 2210 1505
3090 2914 2690
2354 3026 3074
2546 3154 3314
3811 2914 2370
3795 2898 2354
3811 3074 2578
3491 3427 3266
3410 3491 3410
2818 849 624
2786 881 672
2098 977 1201
368 1185 1681
480 1297 1921
2882 913 689
2866 945 753
2210 1089 1281
400 1281 1745
608 1441 2050
3202 1377 721
3250 1457 801
2818 2194 2130
1665 2386 2578
2050 2578 2882
3731 2610 1937
3699 2562 1889
3731 2770 2242
3667 3202 2882
3074 3410 3459
3827 3106 2530
3827 3106 2530
3827 3266 2738
3859 3410 3010
3667 3555 3427
3090 1121 817
3106 1153 881
2594 1345 1441
817 1665 2001
913 1729 2210
3122 1169 865
3090 1153 865
2674 1441 1521
833 1729 2033
1057 1825 2290
3394 1633 913
3427 1681 961
3282 2434 2322
2306 2642 2754
2402 2802 3058
3763 2722 2082
3731 2706 2082
3731 2882 2354
3779 3058 2610
3427 3443 3459
3843 3250 2674
3843 3250 2674
3827 3378 2882
3843 3539 3218
3843 3619 3427
