其他预设/【236】赛博朋克风调色预设/【后期菌】视频调色预设/3DL/Tokyo 06.3dl
# LUT by SparkleStock. Enhanced with VOXCOLOR algorithms.
0 64 128 192 256 320 384 448 512 576 640 704 768 832 896 960 1023
400 160 272
432 192 288
416 160 272
432 176 288
368 192 320
272 256 432
240 288 480
240 368 592
208 480 769
160 624 1041
80 737 1329
0 1025 1825
0 1121 2066
0 1153 2210
0 1233 2386
0 1249 2450
16 1313 2546
432 176 288
432 176 288
400 176 288
400 176 288
352 192 336
256 240 400
240 288 480
240 368 592
208 496 769
160 608 1025
80 817 1441
0 961 1761
0 1057 1985
0 1153 2210
0 1217 2354
0 1249 2450
0 1265 2498
432 176 288
400 160 272
400 160 272
416 192 304
368 208 352
256 240 400
256 320 496
240 368 608
208 480 769
160 592 977
80 737 1313
0 993 1793
0 1057 1985
0 1153 2210
0 1217 2370
0 1249 2450
0 1265 2498
432 176 288
400 176 272
416 176 288
400 192 288
368 208 336
288 256 432
256 304 480
240 368 608
208 480 769
160 624 1041
80 753 1329
0 977 1777
0 1073 2017
0 1137 2210
0 1217 2354
0 1265 2482
16 1281 2530
384 192 304
400 192 304
400 192 304
384 192 304
336 208 352
304 272 432
240 320 496
240 400 624
208 576 849
128 721 1169
64 929 1617
0 1073 1937
0 1169 2146
0 1201 2274
16 1313 2466
0 1313 2514
16 1345 2578
320 272 400
320 256 384
336 272 416
336 288 416
320 304 432
256 352 480
256 448 592
240 544 769
176 753 1089
80 929 1441
16 1089 1825
0 1265 2210
16 1361 2402
16 1377 2482
16 1441 2626
16 1473 2674
16 1473 2706
320 416 496
320 432 512
336 432 512
304 432 512
320 448 528
256 528 624
256 721 801
176 913 1121
16 1185 1649
16 1297 2017
0 1473 2322
16 1569 2530
32 1633 2658
32 1617 2674
32 1649 2754
48 1681 2802
48 1713 2866
448 624 608
480 672 640
464 656 624
464 689 640
432 721 689
336 833 849
256 961 1041
32 1489 1809
16 1665 2226
32 1713 2418
32 1777 2594
48 1841 2738
48 1889 2802
64 1953 2898
96 1985 2994
96 1985 3042
96 1985 3090
656 897 753
689 913 785
689 945 801
689 961 817
608 961 849
528 1153 1105
304 1361 1521
176 1825 2178
48 2001 2514
64 2098 2706
96 2162 2834
128 2162 2898
176 2242 3026
208 2274 3090
256 2322 3170
288 2338 3250
336 2370 3266
801 1297 1137
801 1297 1137
817 1313 1137
817 1313 1153
769 1425 1297
608 1553 1521
496 1761 1873
320 2001 2258
192 2306 2690
192 2354 2834
208 2386 2946
304 2434 3042
320 2450 3122
400 2482 3170
608 2594 3298
672 2626 3346
849 2674 3410
1041 1777 1617
1057 1777 1633
1089 1825 1665
1025 1809 1681
1025 1873 1761
833 2001 1985
672 2162 2290
512 2322 2562
432 2466 2738
432 2610 2962
480 2674 3090
592 2722 3170
689 2738 3250
672 2706 3250
961 2786 3362
1105 2834 3443
1313 2914 3523
1697 2017 1617
1681 2017 1617
1761 2082 1665
1713 2066 1665
1697 2098 1745
1409 2242 2114
1217 2402 2418
1137 2546 2642
929 2642 2786
801 2690 2946
833 2834 3138
913 2882 3186
977 2882 3250
1169 2946 3346
1345 2994 3427
1409 3010 3491
1553 3058 3539
2210 2338 1841
2210 2322 1793
2210 2338 1841
2210 2322 1793
2162 2322 1873
2001 2498 2258
1649 2610 2546
1537 2722 2738
1297 2802 2882
1281 2866 2994
1281 2978 3154
1201 3010 3250
1329 3074 3346
1441 3090 3394
1537 3106 3443
1649 3138 3507
1777 3186 3587
2418 2514 1937
2466 2562 1969
2418 2514 1937
2386 2498 1937
2402 2530 2017
2194 2674 2386
1921 2770 2674
1825 2850 2786
1793 2946 2962
1681 2978 3026
1649 3042 3138
1633 3106 3250
1585 3138 3314
1537 3154 3410
1729 3218 3491
1809 3234 3555
1921 3250 3571
2882 2706 1793
2882 2706 1793
2914 2690 1713
2882 2674 1713
2882 2722 1825
2546 2770 2338
2226 2946 2770
2146 3010 2882
2098 3042 2962
2098 3122 3106
2001 3122 3138
2001 3186 3234
1921 3234 3346
1825 3250 3410
1809 3266 3475
1873 3314 3555
1969 3330 3571
3362 2882 1697
3362 2850 1617
3346 2850 1649
3346 2850 1649
3362 2898 1761
2962 2978 2322
2402 3042 2818
2386 3122 2946
2370 3170 3058
2306 3186 3122
2242 3202 3170
2178 3234 3234
2162 3314 3362
2066 3330 3443
2082 3346 3475
2033 3362 3523
2050 3394 3587
3443 3010 1921
3443 3010 1921
3475 3042 1937
3475 3042 1937
3459 3042 1953
3074 3058 2386
2546 3122 2850
2514 3186 3010
2466 3218 3074
2402 3234 3138
2386 3298 3202
2386 3314 3266
2338 3362 3346
2258 3362 3394
2226 3427 3507
2146 3394 3507
2162 3443 3571
432 176 288
400 160 272
432 192 288
400 192 304
368 192 320
272 256 432
256 304 480
240 352 592
208 496 769
160 624 1041
80 785 1393
0 1025 1825
0 1105 2033
0 1153 2226
0 1217 2354
0 1217 2418
16 1313 2546
400 176 288
400 160 272
432 176 288
400 176 288
368 192 320
256 240 400
256 320 496
256 384 608
208 496 769
160 592 977
80 737 1329
0 993 1793
0 1073 2017
0 1153 2226
0 1217 2370
0 1249 2450
0 1265 2498
432 192 288
400 160 272
400 176 288
400 176 288
400 192 320
272 240 400
256 320 496
240 368 592
208 496 769
160 624 1041
80 785 1377
0 961 1761
0 1121 2066
0 1153 2242
0 1217 2338
0 1249 2466
0 1265 2498
416 176 288
432 176 272
432 176 288
400 192 288
368 192 336
272 240 416
256 320 496
256 384 608
208 480 769
160 640 1073
80 801 1425
0 977 1777
0 1073 2017
0 1153 2242
0 1233 2386
0 1233 2450
0 1281 2514
400 192 304
400 192 304
384 192 304
400 208 320
352 224 352
304 272 432
256 336 528
240 400 624
208 592 865
128 689 1137
64 929 1617
0 1073 1921
0 1121 2082
0 1201 2274
0 1297 2450
0 1313 2514
16 1329 2562
320 272 400
336 272 400
320 272 400
320 272 400
304 288 416
256 336 480
256 448 608
224 528 753
176 705 993
80 913 1441
0 1105 1889
0 1233 2162
16 1345 2402
16 1393 2514
16 1441 2610
32 1489 2690
16 1473 2722
336 432 528
320 416 496
320 416 512
304 432 512
320 448 544
288 576 656
256 689 769
176 849 1057
16 1169 1617
16 1329 2066
16 1489 2354
16 1553 2498
32 1633 2658
48 1665 2738
32 1649 2754
48 1681 2802
64 1729 2882
448 640 608
448 624 608
464 656 624
432 640 624
464 689 656
320 801 817
256 961 1041
16 1441 1777
16 1649 2226
32 1713 2418
48 1809 2610
32 1809 2690
48 1889 2802
80 2001 2930
80 1953 2962
96 1985 3042
96 1985 3090
656 913 785
705 945 801
689 945 801
656 913 785
640 961 849
544 1121 1057
320 1377 1505
144 1777 2146
48 2017 2514
80 2114 2722
80 2114 2802
128 2146 2898
160 2210 2994
208 2274 3090
272 2322 3154
272 2322 3218
368 2386 3298
817 1313 1137
801 1297 1137
849 1345 1185
817 1313 1137
769 1393 1249
640 1569 1521
496 1825 1969
320 2001 2258
208 2274 2658
224 2370 2850
240 2402 2946
304 2434 3042
320 2450 3122
400 2498 3170
528 2546 3266
656 2610 3330
897 2722 3427
1073 1793 1633
1041 1777 1617
1041 1777 1617
1025 1809 1681
961 1825 1713
913 1937 1857
656 2130 2242
512 2322 2546
432 2482 2770
384 2578 2946
448 2642 3058
576 2706 3154
640 2706 3202
785 2754 3298
961 2786 3362
1137 2850 3443
1345 2930 3539
1681 2017 1617
1761 2098 1713
1713 2066 1665
1713 2082 1713
1697 2098 1745
1425 2226 2066
1057 2354 2402
1073 2530 2642
817 2610 2770
849 2722 2978
753 2802 3122
945 2882 3202
1089 2930 3298
1073 2914 3330
1361 2994 3443
1425 3026 3491
1633 3090 3571
2210 2338 1841
2210 2338 1841
2210 2338 1841
2210 2322 1793
2194 2338 1873
1921 2418 2178
1649 2610 2546
1553 2738 2738
1281 2770 2866
1281 2866 3010
1265 2978 3154
1201 2994 3234
1297 3042 3314
1393 3058 3362
1537 3106 3443
1649 3138 3507
1745 3154 3571
2450 2546 1985
2402 2482 1889
2402 2482 1889
2434 2562 2017
2450 2594 2098
2098 2626 2354
1985 2802 2690
1857 2882 2818
1761 2914 2914
1665 2978 3026
1585 3026 3138
1601 3090 3234
1585 3138 3314
1553 3154 3410
1713 3202 3475
1825 3234 3555
1921 3250 3571
2898 2738 1841
2914 2674 1665
2882 2706 1793
2882 2706 1793
2882 2722 1825
2562 2802 2370
2242 2946 2770
2178 3010 2882
2098 3042 2962
2098 3106 3074
1985 3138 3154
1969 3170 3218
1857 3202 3314
1793 3218 3394
1777 3266 3475
1889 3330 3571
1985 3346 3587
3362 2850 1617
3362 2866 1665
3362 2866 1649
3346 2850 1649
3330 2850 1665
2930 2946 2322
2354 3026 2818
2370 3122 2946
2322 3154 3042
2322 3186 3122
2290 3234 3186
2210 3250 3234
2162 3298 3362
2050 3314 3410
2082 3346 3475
2017 3346 3523
2066 3410 3587
3459 3026 1921
3459 3026 1921
3459 3026 1921
3443 3010 1921
3459 3058 1985
3090 3058 2370
2610 3170 2898
2514 3186 3010
2450 3218 3074
2466 3266 3154
2386 3298 3202
2354 3298 3234
2274 3346 3346
2242 3362 3394
2194 3394 3459
2162 3427 3555
2162 3427 3571
400 176 288
400 176 288
416 192 304
400 176 288
400 192 320
272 240 416
240 288 480
240 368 592
208 464 737
160 608 1025
80 737 1313
0 1041 1873
0 1121 2066
0 1153 2226
0 1233 2386
0 1249 2466
16 1313 2546
400 176 288
400 176 288
400 176 288
384 176 288
400 192 320
272 256 432
256 320 496
240 352 592
208 496 785
160 592 993
96 753 1329
0 961 1761
0 1057 1985
0 1121 2210
0 1217 2370
0 1265 2466
16 1297 2530
432 176 288
400 176 288
432 192 288
400 176 288
368 192 320
256 240 400
256 304 496
240 368 592
208 496 769
160 592 977
80 737 1329
0 993 1825
0 1057 1985
0 1153 2242
0 1217 2338
0 1249 2450
0 1265 2498
416 176 288
416 192 304
416 192 304
400 192 288
368 208 352
272 256 416
240 288 480
256 384 608
208 480 753
160 640 1073
80 753 1329
0 977 1777
0 1073 2017
0 1185 2258
0 1249 2402
0 1233 2450
16 1313 2546
416 208 320
416 208 320
400 192 304
400 192 304
352 224 352
288 272 432
256 320 496
256 432 640
208 576 849
128 689 1137
64 881 1553
0 1073 1921
0 1121 2082
0 1201 2274
0 1313 2466
0 1313 2530
16 1361 2594
336 272 400
320 272 400
320 272 400
336 288 416
320 304 432
272 368 496
256 448 608
224 528 737
176 705 993
80 865 1361
0 1169 1985
0 1233 2162
16 1345 2402
32 1409 2530
0 1409 2578
32 1489 2690
32 1505 2738
320 416 496
320 416 496
336 432 512
336 432 528
320 448 544
288 544 640
240 656 753
176 929 1169
16 1217 1729
16 1297 2001
0 1473 2322
16 1569 2530
16 1601 2626
48 1665 2738
48 1665 2770
32 1665 2786
64 1745 2898
448 656 624
464 656 624
448 640 624
432 640 624
432 689 656
320 849 881
240 929 993
16 1473 1793
16 1713 2306
32 1745 2466
32 1777 2594
48 1841 2722
64 1889 2818
80 2001 2930
96 1985 2978
96 1985 3042
96 1985 3090
689 913 785
672 929 801
672 929 801
672 929 801
640 977 849
528 1153 1105
304 1377 1521
176 1809 2178
48 2017 2514
64 2066 2706
80 2162 2818
128 2162 2898
176 2226 3010
160 2242 3074
208 2274 3138
272 2338 3234
336 2370 3266
801 1297 1137
833 1345 1185
833 1345 1185
817 1377 1217
753 1425 1297
624 1585 1569
464 1761 1873
320 2001 2274
192 2258 2642
176 2338 2818
240 2402 2962
288 2434 3026
320 2450 3122
400 2498 3170
592 2594 3282
672 2610 3346
849 2690 3427
1041 1777 1617
1057 1777 1617
1041 1777 1617
1041 1777 1617
961 1825 1713
913 1937 1857
656 2130 2258
496 2306 2514
400 2450 2738
432 2610 2962
448 2642 3058
496 2658 3138
656 2738 3234
785 2754 3298
961 2786 3362
1105 2834 3443
1313 2914 3523
1761 2098 1713
1681 2017 1617
1761 2098 1713
1713 2082 1713
1697 2098 1745
1425 2226 2066
1057 2354 2402
977 2482 2610
865 2626 2786
849 2738 2978
833 2834 3138
929 2882 3202
1057 2914 3266
1169 2946 3346
1313 2978 3427
1409 2994 3491
1633 3090 3571
2210 2338 1841
2210 2322 1793
2210 2338 1841
2210 2322 1793
2162 2338 1873
1921 2418 2178
1665 2626 2578
1601 2738 2738
1265 2770 2866
1169 2834 3010
1217 2930 3138
1201 3010 3250
1297 3042 3314
1393 3074 3378
1537 3106 3443
1649 3138 3507
1745 3154 3571
2450 2546 1985
2402 2482 1889
2418 2530 1985
2418 2530 1985
2418 2562 2050
2146 2642 2354
1985 2802 2690
1857 2866 2786
1745 2930 2946
1761 3010 3058
1697 3074 3154
1601 3090 3218
1601 3138 3314
1601 3186 3427
1697 3186 3475
1825 3234 3555
1921 3250 3571
2882 2706 1793
2882 2706 1793
2882 2706 1793
2882 2706 1793
2882 2722 1825
2578 2786 2338
2290 2962 2770
2194 3026 2898
2098 3042 2962
2098 3122 3106
2033 3154 3154
1921 3154 3218
1921 3218 3330
1793 3234 3394
1825 3282 3507
1841 3298 3539
1969 3330 3571
3362 2866 1649
3362 2866 1649
3362 2850 1617
3362 2866 1649
3346 2898 1761
2930 2946 2322
2434 3090 2850
2370 3122 2946
2354 3170 3058
2306 3170 3106
2306 3234 3186
2178 3234 3234
2066 3266 3330
2050 3314 3410
2050 3346 3475
2017 3346 3523
2050 3394 3587
3475 3042 1937
3443 3010 1921
3443 2994 1857
3443 3026 1937
3459 3042 1953
3090 3058 2370
2610 3154 2882
2498 3186 2978
2482 3218 3090
2402 3234 3138
2386 3282 3186
2354 3298 3234
2274 3346 3346
2274 3378 3427
2210 3410 3491
2162 3427 3539
2162 3427 3571
400 176 288
448 176 288
432 192 304
432 192 288
400 208 352
272 240 416
256 304 496
240 368 592
208 480 769
160 592 977
80 753 1329
0 977 1777
0 1057 1985
0 1153 2226
0 1201 2338
0 1217 2434
0 1265 2498
432 192 304
416 176 288
400 176 288
416 176 288
384 208 336
288 256 432
256 304 480
256 384 608
208 496 785
160 640 1073
80 737 1329
0 993 1793
0 1121 2066
0 1121 2210
0 1233 2386
0 1249 2450
