其他预设/【236】赛博朋克风调色预设/【后期菌】视频调色预设/3DL/Tokyo 01_S.3dl
# LUT by SparkleStock. Enhanced with VOXCOLOR algorithms.
0 256 512 768 1023
288 160 288
272 160 336
112 336 705
112 512 1153
144 705 1537
288 160 336
272 160 368
96 368 785
112 528 1185
144 721 1633
416 496 705
400 576 753
112 1105 1441
320 1441 1969
464 1729 2322
2402 2146 1969
2338 2146 1937
1873 2418 2402
1425 2642 2802
1937 2834 3106
3459 2738 2370
3491 2786 2402
3058 3026 2802
2898 3186 3106
2722 3250 3282
320 160 320
336 176 352
112 336 721
112 480 1137
144 721 1553
400 240 288
528 400 512
256 480 977
112 576 1217
176 753 1665
480 560 640
560 865 881
240 1297 1601
336 1457 1985
560 1825 2402
2610 2194 1969
2466 2274 2066
1857 2434 2402
1473 2658 2802
2017 2866 3122
3507 2642 2194
3507 2722 2306
3106 3058 2818
2866 3170 3090
2770 3266 3314
1729 400 336
1777 384 512
849 400 881
176 705 1313
240 865 1633
1937 672 288
2033 817 785
1377 753 1377
224 753 1393
288 913 1745
2626 1201 352
2562 1553 817
1441 1761 1905
672 2033 2434
1649 2434 2898
3571 2226 1521
3443 2290 1457
3058 2930 2674
2354 3026 3074
2546 3154 3314
3811 2914 2370
3795 2898 2354
3811 3074 2578
3491 3427 3266
3410 3491 3410
2818 833 608
2818 785 721
2130 945 1233
368 1185 1681
480 1297 1921
2946 945 528
2994 1025 913
2514 1089 1569
400 1281 1745
656 1441 2098
3186 1521 608
3218 1793 929
2978 2194 2162
1985 2354 2674
2050 2578 2882
3731 2610 1937
3619 2658 1761
3539 2898 2226
3555 3186 2946
3074 3410 3459
3827 3106 2530
3827 3106 2530
3795 3330 2690
3843 3427 3010
3667 3555 3427
3090 1121 817
3106 1153 881
2594 1345 1441
817 1665 2001
913 1729 2210
3122 1169 865
3170 1153 881
2850 1409 1601
945 1697 2082
1057 1825 2290
3410 1649 897
3603 1825 993
3619 2338 2274
2850 2514 2866
2402 2802 3058
3763 2722 2082
3827 2818 1809
3891 3010 2274
3891 3090 2802
3443 3427 3475
3843 3250 2674
3859 3282 2626
3859 3491 2802
3859 3587 3218
3843 3619 3427
