其他预设/【236】赛博朋克风调色预设/【后期菌】视频调色预设/3DL/Tokyo 09_S.3dl
# LUT by SparkleStock. Enhanced with VOXCOLOR algorithms.
0 256 512 768 1023
352 400 448
352 400 464
208 689 945
320 1265 1633
432 1697 2210
368 416 464
352 416 480
224 753 1009
336 1313 1665
432 1713 2274
560 833 929
560 913 977
849 1521 1729
1489 2498 2706
1681 2834 2962
2722 2690 2530
2594 2658 2466
2770 2978 2882
3042 3186 3154
3298 3282 3218
3555 3202 3042
3571 3218 3074
3491 3234 3122
3507 3298 3186
3507 3314 3218
384 432 480
416 432 512
224 721 977
304 1265 1633
432 1697 2210
480 512 512
544 592 640
336 785 1137
352 1377 1729
512 1777 2322
624 897 913
689 1089 1009
1009 1665 1841
1537 2530 2722
1793 2898 3010
2978 2818 2610
2802 2802 2594
2834 3010 2898
3074 3186 3154
3330 3282 3218
3571 3202 3010
3571 3218 3058
3507 3266 3154
3459 3266 3170
3507 3314 3218
1969 1633 1601
1841 1345 1505
1329 1457 1793
1313 2050 2386
1361 2482 2770
1953 1473 1185
1905 1329 1313
1569 1409 1905
1409 2146 2498
1441 2530 2850
2834 2194 1489
2530 2082 1473
2402 2482 2434
2626 3106 3122
3074 3266 3218
3619 3122 2802
3427 3090 2578
3507 3266 3106
3507 3298 3202
3555 3378 3266
3683 3282 3058
3683 3266 3058
3683 3330 3122
3651 3427 3266
3635 3427 3298
3378 2770 2594
3314 2418 2418
3266 2882 2898
2610 2962 2994
2642 3074 3122
3266 2306 1905
3154 1825 1713
3154 2210 2514
2834 3042 3042
2882 3074 3202
3410 2690 1937
3218 2354 1633
3218 2482 2418
3410 2978 3122
3555 3378 3266
3699 3234 2978
3523 3122 2514
3394 3106 2578
3507 3282 3122
3683 3491 3346
3763 3298 3074
3779 3314 3090
3747 3427 3058
3763 3491 3234
3747 3507 3330
3539 3074 2850
3555 3074 2882
3491 3122 3058
3427 3202 3186
3314 3218 3218
3555 3090 2882
3555 2866 2706
3555 2818 2882
3459 3106 3170
3394 3234 3218
3619 3042 2626
3683 2658 2098
3747 2578 2498
3731 2818 3106
3603 3410 3282
3747 3266 2994
3795 3122 2290
3859 3074 2418
3859 3202 3074
3763 3491 3394
3843 3346 3106
3843 3378 3010
3875 3523 2962
3811 3507 3234
3843 3555 3410
