其他预设/【236】赛博朋克风调色预设/【后期菌】视频调色预设/3DL/Tokyo 01.3dl
# LUT by SparkleStock. Enhanced with VOXCOLOR algorithms.
0 128 256 384 512 640 768 896 1023
288 160 288
320 160 288
272 160 336
144 224 512
112 336 705
96 400 929
112 512 1153
128 608 1345
144 705 1537
320 176 320
288 160 288
288 176 352
160 240 528
112 336 705
96 400 929
112 480 1121
128 608 1345
144 672 1505
288 160 336
288 176 352
272 160 368
160 240 528
96 368 785
96 464 993
112 528 1185
144 656 1409
144 721 1585
224 256 480
240 272 512
240 272 512
144 400 753
80 560 977
96 672 1233
128 849 1537
160 913 1649
224 993 1777
416 496 705
448 528 737
400 528 753
288 672 961
112 1105 1441
208 1313 1761
320 1441 1969
400 1585 2162
464 1729 2322
1057 1169 1281
1121 1233 1345
1089 1265 1361
945 1537 1617
464 1761 1905
496 2033 2290
624 2130 2466
993 2290 2658
1361 2418 2834
2402 2146 1969
2418 2162 1969
2386 2130 1969
2130 2274 2194
1873 2418 2402
1297 2530 2610
1425 2642 2802
1697 2722 2946
1937 2834 3106
3106 2530 2242
3122 2530 2210
3106 2546 2242
2818 2738 2530
2690 2802 2642
2482 2850 2770
2370 3010 3010
2178 3010 3106
2242 3026 3202
3459 2738 2370
3475 2770 2402
3491 2786 2402
3138 2946 2642
3058 3026 2802
3010 3106 2962
2898 3186 3106
2802 3234 3234
2722 3250 3282
288 160 320
320 176 336
288 176 352
144 224 512
96 320 689
80 400 929
112 512 1153
128 608 1345
144 705 1537
320 176 320
320 176 336
272 160 336
160 240 528
112 336 721
96 416 945
112 480 1121
128 592 1329
144 672 1505
320 176 352
288 176 352
272 176 384
176 240 528
96 368 785
96 448 977
96 512 1153
144 656 1409
160 737 1585
224 272 496
240 272 512
224 272 512
128 384 737
80 576 1025
96 672 1233
112 817 1473
176 929 1665
240 1041 1809
448 512 721
432 528 737
400 528 785
288 672 961
112 1105 1441
208 1297 1745
288 1409 1921
368 1537 2114
464 1729 2322
1057 1185 1297
1057 1169 1281
1057 1201 1313
881 1473 1601
464 1761 1905
448 1985 2242
608 2130 2450
1025 2290 2658
1393 2418 2850
2402 2146 1969
2418 2162 1969
2402 2146 1969
2114 2274 2210
1809 2386 2370
1281 2498 2578
1313 2610 2770
1697 2722 2946
1905 2818 3074
3106 2530 2242
3106 2530 2242
3106 2546 2242
2834 2754 2546
2690 2802 2642
2546 2882 2802
2322 2978 2978
2162 3010 3138
2242 3026 3202
3475 2770 2402
3459 2738 2354
3475 2770 2386
3170 2962 2658
3074 3026 2802
2962 3090 2946
2834 3170 3090
2754 3218 3218
2722 3234 3282
320 160 320
320 160 320
320 176 336
160 240 560
112 336 721
96 432 945
112 480 1137
128 624 1361
144 721 1553
320 160 320
320 160 320
336 176 336
176 256 576
112 368 753
96 432 961
112 512 1169
128 624 1361
144 721 1553
352 176 320
368 192 320
352 176 336
176 272 592
128 384 801
96 480 1025
112 576 1217
144 672 1425
160 753 1617
272 320 528
272 320 528
240 320 560
160 400 753
96 592 1041
96 689 1281
128 849 1537
192 961 1681
240 1041 1809
464 480 656
480 496 672
432 592 833
368 785 1073
144 1185 1537
224 1345 1777
336 1457 1985
432 1665 2210
560 1825 2402
1425 1313 1345
1425 1313 1345
1089 1297 1393
977 1553 1633
528 1841 2001
480 2033 2274
705 2178 2498
1137 2354 2722
1457 2466 2882
2610 2194 1969
2530 2114 1873
2498 2258 2082
2098 2290 2226
1857 2434 2402
1217 2482 2578
1473 2658 2802
1793 2770 2978
2017 2866 3122
3218 2514 2178
3218 2498 2162
3154 2546 2242
2882 2770 2546
2754 2850 2674
2562 2882 2786
2402 3010 3010
2274 3058 3154
2274 3058 3218
3507 2642 2194
3523 2674 2242
3507 2722 2306
3234 2946 2642
3106 3058 2818
3026 3122 2962
2866 3170 3090
2818 3234 3218
2770 3266 3314
592 192 256
608 208 272
592 224 320
416 240 448
176 336 721
128 432 945
128 624 1313
160 737 1537
176 849 1665
592 208 288
608 208 272
608 240 336
400 240 464
208 368 785
128 432 961
144 640 1329
160 753 1553
176 833 1665
672 240 320
689 240 320
640 240 336
464 272 480
192 400 817
144 496 1041
144 689 1393
160 785 1553
192 865 1681
1297 432 448
1265 448 480
1265 448 496
737 416 656
160 705 1169
144 881 1505
176 961 1649
256 1121 1841
288 1185 1969
1265 608 592
1297 624 592
1169 672 689
432 945 1217
224 1393 1697
336 1585 1969
416 1681 2162
592 1905 2402
897 2050 2594
2786 1281 833
2722 1217 801
2562 1281 945
1473 1921 1937
817 2050 2178
689 2226 2434
1073 2370 2658
1505 2498 2834
1825 2626 3010
3282 1857 1297
3298 1889 1329
3266 2001 1473
2690 2514 2386
2386 2674 2594
1857 2690 2690
1777 2818 2898
2098 2946 3106
2226 2978 3202
3619 2370 1745
3603 2338 1697
3571 2402 1857
3459 2818 2482
2978 2994 2786
2914 3042 2914
2690 3106 3058
2514 3154 3218
2450 3170 3298
3715 2642 2098
3715 2642 2098
3715 2706 2162
3731 2850 2402
3250 3122 2866
3218 3218 3026
3170 3298 3202
3058 3330 3282
3010 3362 3330
1697 416 352
1745 432 352
1681 448 400
1281 432 560
705 432 753
240 608 1105
176 705 1313
208 817 1537
240 865 1633
1729 432 368
1777 464 384
1729 464 416
1313 464 592
721 448 753
240 592 1089
176 705 1313
192 801 1521
240 881 1649
1841 480 416
1889 512 448
1873 560 480
1505 560 656
865 528 865
240 640 1137
192 753 1361
224 865 1585
256 913 1681
2290 753 672
2306 801 705
2290 817 753
1937 801 897
1201 833 1137
272 961 1441
256 1073 1697
432 1393 2066
592 1601 2274
2770 897 448
2786 929 480
2850 993 576
2642 1265 1153
1073 1537 1777
464 1809 2162
672 2033 2434
1217 2242 2690
1649 2434 2898
3218 1569 945
3234 1585 961
3234 1601 977
3330 1793 1233
1761 2418 2434
1313 2530 2674
1585 2610 2818
1969 2770 3026
2194 2850 3170
3571 2226 1521
3587 2226 1521
3571 2210 1505
3619 2354 1681
3090 2914 2690
2738 3010 2946
2354 3026 3074
2402 3106 3234
2546 3154 3314
3731 2610 2017
3715 2594 1985
3731 2626 2050
3747 2690 2162
3635 3074 2674
3234 3202 3026
3202 3298 3218
2962 3346 3346
2834 3362 3410
3811 2914 2370
3795 2882 2354
3795 2898 2354
3827 3010 2482
3811 3074 2578
3475 3314 3106
3491 3427 3266
3410 3427 3346
3410 3491 3410
2434 672 480
2450 689 496
2434 705 560
2210 721 737
1585 737 993
672 737 1201
256 945 1521
288 1041 1665
368 1121 1809
2450 689 496
2498 721 528
2450 737 576
2226 737 737
1633 753 977
689 705 1153
240 945 1505
320 1041 1681
384 1137 1825
2546 753 576
2530 753 576
2514 801 640
2338 833 833
1761 833 1057
785 865 1297
272 1025 1569
320 1073 1697
416 1185 1873
2738 977 865
2754 993 881
2738 1025 913
2514 1073 1089
2033 1217 1441
785 1265 1649
416 1377 1841
560 1521 2033
672 1569 2146
3042 1153 592
3090 1217 640
3122 1265 689
3106 1521 1281
2482 1921 1937
1041 2033 2210
1121 2114 2386
1569 2322 2658
1937 2546 2930
3459 1921 1185
3459 1921 1185
3459 1905 1185
3539 2066 1377
3587 2226 1649
2322 2786 2802
2114 2850 3010
2306 2962 3186
2482 3042 3298
3683 2450 1761
3667 2418 1729
3667 2434 1761
3715 2578 1969
3731 2674 2162
3362 3138 2914
2802 3202 3218
2642 3234 3330
2770 3266 3394
3779 2802 2226
3763 2786 2178
3779 2818 2242
3779 2914 2370
3811 3010 2514
3779 3218 2786
3475 3346 3202
3378 3443 3378
3234 3459 3443
3811 3042 2466
3811 3042 2466
3811 3042 2482
3827 3106 2562
3843 3202 2642
3843 3282 2786
3667 3410 3170
3603 3507 3378
3587 3539 3427
2818 849 624
2802 849 608
2786 881 672
2578 913 881
2098 977 1201
1233 993 1377
368 1185 1681
384 1201 1809
480 1297 1921
2834 865 640
2802 849 624
2834 913 705
2610 977 929
2178 1025 1201
1233 993 1377
352 1169 1649
400 1201 1825
464 1281 1905
2882 913 689
2898 961 737
2866 945 753
2626 993 961
2210 1089 1281
1265 1105 1457
400 1281 1745
464 1329 1889
608 1441 2050
2978 1121 945
3010 1153 961
3010 1201 1057
2850 1345 1297
2370 1425 1585
1505 1569 1857
640 1665 2033
801 1729 2162
1073 1873 2354
3202 1377 721
3218 1425 753
3250 1457 801
3282 1681 1377
2818 2194 2130
2402 2370 2418
1665 2386 2578
1825 2466 2722
2050 2578 2882
3555 2082 1297
3603 2146 1377
3603 2146 1377
3619 2274 1537
3635 2386 1761
3218 2850 2706
2578 2898 2962
2514 3026 3186
2690 3122 3330
3731 2610 1937
3715 2594 1921
3699 2562 1889
3715 2658 2066
3731 2770 2242
3779 2930 2482
3667 3202 2882
3427 3314 3218
3074 3410 3459
3795 2914 2338
3795 2914 2338
3795 2930 2354
3795 2994 2434
3795 3058 2546
3827 3218 2722
3827 3298 2930
3651 3443 3250
3555 3523 3459
3827 3106 2530
3827 3106 2530
3827 3106 2530
3827 3186 2610
3827 3266 2738
3843 3362 2898
3859 3410 3010
3731 3491 3266
3667 3555 3427
3010 993 737
3010 993 753
3010 1025 817
2850 1073 977
2402 1153 1313
1697 1233 1553
592 1457 1841
624 1505 1985
753 1585 2130
3010 993 737
3026 1025 785
3010 993 785
2866 1089 1025
2434 1201 1361
1697 1233 1553
592 1393 1809
592 1473 1969
753 1585 2130
3058 1089 833
3042 1073 817
3042 1089 881
2898 1153 1089
2450 1281 1409
1745 1361 1649
592 1521 1873
672 1585 2033
833 1649 2178
3154 1329 1089
3170 1329 1089
3154 1329 1121
3074 1473 1361
2674 1729 1793
1985 1873 2066
977 1889 2178
1137 1969 2322
1361 2066 2466
3346 1585 881
3362 1601 897
3362 1601 897
3427 1777 1265
3090 2354 2258
2658 2498 2498
2001 2514 2658
2114 2610 2834
2274 2722 2994
3619 2226 1457
3619 2226 1457
3619 2210 1441
3619 2322 1601
3651 2466 1857
3443 2850 2626
3026 2978 2930
2722 3090 3218
2802 3186 3362
3731 2642 2001
3715 2626 1985
3715 2642 2017
3715 2738 2130
3731 2834 2290
3795 2978 2514
3795 3074 2626
3603 3282 3122
3250 3427 3443
3827 3010 2450
3827 3010 2450
3795 2994 2418
3795 3106 2562
3795 3122 2610
3811 3234 2738
3827 3298 2898
3827 3410 3106
3619 3539 3459
3827 3202 2610
3827 3186 2610
3827 3218 2626
3827 3250 2674
3827 3346 2818
3843 3427 2994
3843 3443 3090
3859 3523 3218
3827 3603 3427
3090 1121 817
3090 1121 833
3106 1153 881
3010 1201 1089
2594 1345 1441
2114 1521 1761
817 1665 2001
753 1633 2050
913 1729 2210
3074 1105 817
3074 1105 817
3074 1105 833
3010 1265 1121
2594 1345 1425
2098 1505 1745
897 1633 1985
801 1681 2082
961 1777 2226
3122 1169 865
3122 1185 897
3090 1153 865
3058 1297 1153
2674 1441 1521
2146 1617 1841
833 1729 2033
865 1761 2130
1057 1825 2290
3250 1441 1121
3266 1457 1153
3250 1473 1185
3202 1617 1441
2866 1889 1873
2386 2082 2178
1281 2082 2322
1409 2130 2434
1553 2194 2562
3394 1633 913
3394 1633 913
3427 1681 961
3523 1905 1329
3282 2434 2322
2866 2578 2530
2306 2642 2754
2274 2706 2930
2402 2802 3058
3651 2322 1569
3635 2338 1569
3635 2338 1569
3651 2418 1729
3667 2530 1937
3587 2898 2626
3266 3010 2930
2802 3122 3218
2818 3202 3346
3763 2722 2082
3747 2722 2098
3731 2706 2082
3731 2802 2226
3731 2882 2354
3779 3010 2514
3779 3058 2610
3731 3218 2978
3427 3443 3459
3827 3010 2434
3827 3042 2466
3811 3010 2450
3795 3122 2562
3795 3170 2626
3795 3250 2770
3827 3330 2898
3859 3410 3010
3715 3555 3443
3843 3250 2674
3843 3250 2658
3843 3250 2674
3827 3330 2754
3827 3378 2882
3843 3475 3058
3843 3539 3218
3859 3555 3282
3843 3619 3427
