其他预设/【236】赛博朋克风调色预设/【后期菌】视频调色预设/3DL/Tokyo 02.3dl
# LUT by SparkleStock. Enhanced with VOXCOLOR algorithms.
0 64 128 192 256 320 384 448 512 576 640 704 768 832 896 960 1023
336 160 368
352 176 400
336 160 368
352 176 384
320 176 416
288 208 528
224 208 608
208 240 785
160 256 977
176 256 1169
176 240 1297
208 256 1489
224 256 1649
256 240 1713
336 256 1841
368 240 1921
416 256 1985
352 176 384
352 176 384
336 176 384
336 160 384
320 176 432
256 208 512
224 208 608
208 240 785
160 256 977
160 240 1169
192 256 1329
192 224 1457
224 240 1601
256 240 1713
320 256 1825
368 240 1921
400 240 1953
352 176 384
336 160 368
336 160 368
352 192 416
336 192 448
256 208 512
224 224 624
208 256 785
160 256 961
160 240 1121
176 240 1281
192 256 1473
224 240 1601
256 240 1713
320 256 1841
368 240 1921
400 240 1953
352 176 384
336 160 384
336 176 384
336 176 400
336 176 432
288 208 528
224 224 608
192 240 785
160 240 961
160 256 1169
176 240 1297
192 240 1457
224 240 1617
240 240 1713
320 240 1841
368 256 1921
400 256 1985
336 176 416
352 176 416
336 176 416
336 176 416
304 192 448
288 224 560
208 224 640
192 256 817
144 304 1009
160 288 1185
176 288 1393
192 304 1521
224 288 1681
240 288 1745
320 304 1889
352 288 1921
400 288 2017
256 224 528
256 224 512
288 240 528
288 240 544
256 240 560
208 256 608
176 304 737
160 320 929
112 352 1105
128 336 1297
144 320 1441
160 352 1617
192 352 1745
224 320 1841
304 336 1953
336 352 2033
384 352 2082
144 320 560
160 336 560
160 336 592
144 320 576
144 336 592
112 336 656
80 384 801
48 432 1009
80 464 1233
80 464 1425
112 464 1617
128 496 1809
160 528 1921
176 464 1953
224 448 2050
288 464 2130
352 496 2194
96 432 656
112 496 689
96 448 672
96 464 721
96 496 721
48 528 801
16 544 881
0 592 1105
0 640 1361
16 656 1585
48 656 1761
96 689 1921
96 672 1969
128 672 2098
208 753 2226
240 769 2274
256 785 2322
32 672 785
48 689 817
48 721 833
48 737 849
32 689 849
32 753 945
0 753 1025
16 833 1217
0 833 1377
0 929 1665
32 977 1857
48 961 1953
96 1009 2082
128 1041 2162
176 1041 2290
208 1057 2370
240 1089 2386
32 993 1025
32 993 1025
48 1009 1041
48 1009 1041
48 1041 1105
32 1057 1169
32 1121 1281
16 1153 1409
32 1185 1585
0 1185 1729
0 1201 1857
96 1281 2033
112 1281 2114
144 1297 2210
208 1409 2322
224 1409 2386
256 1473 2450
96 1425 1377
112 1441 1393
128 1473 1425
112 1457 1409
128 1473 1441
112 1489 1505
96 1521 1633
48 1489 1697
48 1505 1793
48 1601 1953
80 1537 2033
112 1585 2130
160 1633 2210
160 1585 2242
224 1665 2354
288 1729 2418
336 1793 2482
304 1825 1601
304 1825 1601
336 1889 1649
336 1873 1633
304 1841 1633
224 1809 1713
192 1841 1857
144 1841 1921
112 1841 1985
80 1761 2050
112 1825 2162
144 1841 2242
160 1825 2242
224 1873 2338
288 1921 2402
336 1937 2450
416 2033 2530
785 2434 1985
769 2418 1953
801 2434 1985
769 2418 1953
721 2386 1969
592 2306 2098
352 2130 2082
208 2050 2082
192 2050 2162
144 1985 2194
176 2017 2258
192 2017 2290
224 2033 2354
288 2082 2402
336 2114 2466
384 2178 2530
512 2258 2610
1457 2754 2210
1649 2818 2242
1457 2754 2210
1457 2754 2210
1457 2738 2258
1121 2642 2370
528 2386 2322
400 2322 2306
336 2290 2338
240 2178 2306
224 2162 2338
240 2162 2386
256 2162 2402
288 2178 2434
384 2274 2546
464 2338 2626
544 2370 2658
2530 3122 2418
2530 3122 2418
2578 3138 2434
2546 3122 2402
2562 3138 2434
2033 2978 2514
1297 2754 2578
865 2658 2578
592 2546 2514
512 2498 2530
384 2386 2466
368 2386 2498
368 2354 2514
352 2338 2530
416 2386 2578
496 2418 2642
608 2482 2706
2962 3250 2450
2914 3218 2402
2914 3218 2418
2930 3218 2418
2978 3266 2482
2674 3298 2610
1889 2946 2706
1793 2930 2754
1489 2866 2754
1153 2770 2722
849 2706 2674
608 2642 2658
464 2530 2610
512 2530 2642
544 2562 2690
576 2562 2706
721 2578 2738
3106 3314 2498
3106 3314 2498
3122 3314 2530
3122 3314 2530
3122 3314 2546
2914 3362 2690
2258 3122 2802
2162 3090 2866
1985 3026 2866
1857 2962 2866
1681 2930 2850
1425 2866 2834
1121 2818 2818
560 2642 2706
592 2674 2754
656 2658 2754
833 2706 2818
352 176 384
336 160 368
352 176 384
336 176 400
320 176 416
288 208 528
224 224 608
192 240 769
160 256 977
176 256 1169
192 240 1329
208 256 1489
224 256 1617
256 240 1729
320 256 1825
352 224 1889
400 256 1985
336 176 384
336 160 368
352 176 384
336 160 384
320 176 416
256 208 512
224 224 624
208 256 801
160 256 977
160 240 1121
176 240 1297
192 256 1473
224 240 1601
256 240 1729
320 256 1841
368 240 1921
400 240 1953
352 176 400
336 160 368
336 160 384
336 160 384
336 176 416
288 208 512
224 224 624
192 240 769
160 256 993
176 256 1169
176 256 1313
192 240 1457
224 256 1633
288 240 1729
304 256 1809
368 256 1921
400 240 1953
336 176 384
336 176 384
336 176 384
336 176 384
320 192 432
256 208 528
224 224 624
208 256 801
160 240 961
176 256 1185
176 256 1329
192 240 1457
224 240 1617
288 240 1729
320 288 1857
352 240 1905
400 240 1969
336 176 416
336 176 416
336 176 416
336 192 432
320 192 464
288 224 560
224 240 656
192 256 817
160 304 1025
160 256 1169
176 304 1393
192 288 1521
208 256 1649
240 288 1745
320 304 1889
352 288 1937
400 288 1985
256 224 528
288 240 528
256 224 528
256 224 528
240 224 544
208 240 608
176 320 753
160 304 897
112 336 1057
128 336 1297
144 336 1441
176 336 1617
192 336 1745
224 336 1841
304 336 1937
368 368 2050
384 352 2082
160 336 592
144 320 560
144 320 560
144 320 576
144 336 608
112 368 689
80 384 785
48 400 961
48 464 1233
96 496 1441
112 464 1649
112 464 1761
160 512 1921
176 512 1985
224 448 2050
288 496 2130
352 512 2210
96 432 656
96 432 656
96 448 672
80 448 656
96 464 721
48 512 785
16 544 897
0 576 1089
0 640 1361
16 656 1585
48 689 1793
80 656 1889
96 672 1969
144 689 2114
176 689 2178
240 769 2274
256 785 2322
32 672 817
80 737 849
48 721 833
32 672 817
48 689 865
16 753 945
0 769 1041
0 801 1185
0 849 1393
0 945 1665
0 929 1825
32 961 1953
96 977 2066
128 1041 2162
176 1057 2290
192 1041 2338
240 1105 2402
48 1009 1041
32 993 1025
80 1041 1073
32 1009 1041
32 1025 1073
48 1073 1185
48 1153 1297
16 1153 1409
32 1185 1553
16 1233 1761
16 1201 1873
96 1281 2033
112 1265 2114
144 1313 2210
176 1361 2306
208 1393 2370
288 1489 2466
112 1441 1393
96 1441 1377
96 1441 1377
112 1457 1409
96 1441 1409
96 1441 1441
96 1505 1601
48 1489 1697
80 1537 1825
32 1537 1921
48 1505 1985
112 1553 2114
144 1585 2194
192 1633 2274
224 1665 2354
288 1729 2418
352 1825 2514
304 1825 1601
352 1889 1665
336 1873 1633
336 1873 1649
304 1841 1633
224 1809 1697
160 1809 1809
128 1825 1905
96 1793 1969
96 1809 2082
96 1809 2130
144 1841 2242
192 1873 2274
208 1857 2322
288 1921 2402
336 1937 2450
464 2082 2578
801 2434 1985
801 2434 1985
785 2434 1985
769 2418 1953
721 2386 1985
512 2210 1969
352 2130 2082
240 2098 2114
176 2050 2146
160 1985 2194
176 2017 2258
160 1985 2274
192 2017 2322
256 2050 2386
320 2114 2450
384 2162 2530
464 2210 2578
1521 2770 2226
1457 2754 2178
1457 2754 2178
1521 2770 2242
1649 2834 2322
929 2578 2306
608 2466 2386
432 2354 2338
304 2242 2306
240 2178 2290
208 2146 2322
240 2162 2370
240 2146 2386
288 2178 2450
384 2274 2546
464 2338 2626
544 2370 2658
2594 3138 2450
2578 3122 2418
2530 3122 2418
2530 3122 2418
2562 3138 2450
2066 2994 2546
1297 2754 2578
865 2658 2578
592 2546 2514
512 2498 2514
384 2402 2466
352 2370 2482
352 2338 2498
352 2322 2514
384 2354 2562
528 2450 2658
608 2498 2722
2930 3218 2402
2930 3218 2434
2930 3218 2418
2930 3218 2418
2930 3234 2450
2642 3266 2578
1873 2946 2706
1729 2898 2738
1377 2818 2738
1169 2770 2722
977 2738 2706
624 2658 2674
464 2514 2594
464 2482 2610
544 2562 2690
544 2530 2690
689 2578 2754
3122 3314 2530
3106 3314 2514
3122 3314 2530
3106 3314 2498
3122 3330 2578
2914 3362 2690
2354 3170 2834
2162 3090 2866
1985 3026 2866
1857 2978 2882
1681 2930 2850
1457 2850 2818
817 2754 2754
544 2610 2690
560 2626 2722
769 2690 2786
817 2690 2802
336 160 384
336 176 384
352 176 400
336 160 384
336 176 416
288 208 512
224 208 608
192 240 769
160 240 961
160 240 1169
176 240 1281
208 256 1489
224 256 1649
256 240 1729
336 256 1841
368 256 1921
416 256 1985
336 160 384
336 160 384
336 160 384
320 160 384
336 176 416
288 208 528
224 224 624
192 240 769
160 288 1009
160 240 1121
176 240 1313
192 224 1457
224 240 1601
256 224 1697
320 256 1841
368 256 1921
400 256 1985
352 176 384
336 160 384
352 176 384
336 160 384
320 176 416
256 208 512
224 224 624
208 240 785
160 256 977
160 240 1121
176 240 1297
192 256 1489
224 240 1601
288 240 1729
304 240 1809
368 240 1921
400 240 1953
336 176 384
352 192 416
352 192 416
336 176 400
336 192 448
256 208 528
224 208 608
208 240 801
160 240 961
176 256 1185
160 240 1297
192 240 1457
224 240 1617
256 256 1745
336 288 1873
352 240 1905
416 288 1985
352 192 416
352 192 416
336 176 416
336 176 416
320 192 448
288 224 544
224 224 640
192 288 833
144 304 1025
144 256 1169
160 288 1377
192 304 1521
208 256 1649
240 256 1729
320 304 1889
368 288 1937
416 288 2033
288 240 528
256 224 528
256 224 528
288 240 544
256 240 560
208 256 640
176 320 753
160 304 881
112 336 1057
128 320 1265
144 352 1473
160 336 1617
192 336 1745
240 352 1873
304 320 1921
368 368 2050
416 384 2114
144 320 560
144 320 560
160 336 576
160 336 592
128 336 608
112 352 656
48 384 785
48 432 1025
80 496 1249
80 448 1425
112 464 1617
128 496 1793
144 496 1889
192 512 2017
224 496 2082
288 464 2130
368 528 2226
96 448 672
96 448 672
96 448 672
96 448 672
80 464 721
48 528 817
0 528 881
0 592 1105
16 656 1377
32 672 1601
48 656 1761
80 672 1905
112 672 1985
144 689 2114
192 737 2210
240 753 2274
256 785 2322
48 689 817
48 689 833
48 689 833
48 689 833
48 689 865
32 769 961
0 753 1041
0 833 1217
0 849 1393
0 897 1665
16 961 1825
48 961 1953
96 993 2066
112 961 2146
160 1025 2242
208 1057 2354
224 1089 2386
32 993 1025
80 1041 1073
80 1025 1057
48 1041 1073
48 1041 1105
48 1073 1201
16 1089 1249
16 1153 1425
16 1169 1537
0 1185 1713
32 1217 1889
80 1265 1985
112 1265 2114
144 1313 2210
192 1409 2322
208 1409 2386
256 1473 2466
96 1441 1377
96 1441 1393
96 1441 1377
96 1441 1377
96 1441 1409
96 1441 1441
96 1505 1601
32 1457 1665
48 1473 1761
48 1601 1953
48 1505 1985
96 1521 2082
144 1601 2194
192 1633 2274
224 1665 2354
256 1697 2402
336 1793 2498
352 1889 1649
304 1809 1585
352 1889 1665
336 1873 1649
304 1841 1633
224 1809 1697
160 1809 1809
128 1809 1889
112 1825 1985
96 1809 2082
112 1825 2162
144 1841 2242
176 1841 2258
224 1873 2338
256 1905 2386
336 1937 2450
464 2082 2578
785 2434 1985
769 2418 1953
801 2434 1985
769 2418 1953
721 2386 1969
512 2210 1969
336 2130 2082
256 2114 2130
176 2050 2146
128 1953 2162
160 1985 2242
192 2017 2290
192 2017 2322
256 2066 2386
336 2114 2466
384 2178 2530
464 2226 2578
1649 2818 2242
1457 2754 2178
1505 2754 2226
1505 2754 2226
1521 2754 2258
1057 2626 2338
608 2466 2386
416 2354 2322
304 2258 2322
320 2274 2370
240 2194 2354
240 2146 2370
256 2178 2402
320 2210 2466
368 2258 2530
464 2338 2626
544 2370 2658
2530 3122 2418
2530 3122 2418
2530 3122 2418
2530 3122 2418
2562 3138 2434
2066 2994 2514
1377 2754 2594
945 2674 2578
592 2546 2514
512 2498 2530
400 2418 2498
336 2354 2466
352 2338 2498
352 2322 2514
432 2386 2594
464 2402 2626
608 2482 2706
2930 3218 2418
2930 3218 2418
2914 3218 2402
2930 3218 2418
2946 3266 2482
2642 3266 2578
1969 2994 2754
1729 2898 2738
1489 2866 2754
1025 2754 2690
977 2738 2722
608 2642 2658
416 2450 2562
464 2482 2610
528 2546 2674
544 2530 2690
721 2578 2738
3122 3314 2530
3106 3314 2498
3074 3298 2482
3106 3314 2514
3122 3314 2546
2914 3362 2690
2354 3154 2834
2130 3074 2850
2082 3058 2898
1857 2962 2866
1665 2930 2834
1457 2850 2818
817 2754 2754
560 2642 2706
592 2658 2738
769 2690 2770
817 2706 2802
336 160 384
352 176 384
352 176 400
352 176 400
352 192 432
288 208 528
240 224 624
192 240 785
160 256 961
160 240 1121
176 240 1297
208 240 1473
224 240 1601
288 240 1729
320 240 1809
352 224 1889
400 224 1953
352 176 400
352 176 384
336 160 384
336 160 384
352 192 432
288 224 544
224 208 608
208 240 801
160 256 993
176 256 1169
176 240 1297
192 256 1473
224 256 1633
256 224 1697
336 256 1841
352 240 1905
