其他预设/【236】赛博朋克风调色预设/【后期菌】视频调色预设/3DL/Tokyo 10_S.3dl
# LUT by SparkleStock. Enhanced with VOXCOLOR algorithms.
0 128 256 384 512 640 768 896 1023
464 256 240
480 256 240
448 256 272
368 320 432
400 464 672
496 576 993
721 801 1281
913 961 1553
1057 1089 1745
496 272 256
480 256 256
464 272 288
384 336 464
400 464 672
496 576 977
672 753 1233
897 945 1553
1025 1057 1713
464 256 272
480 272 272
432 272 288
368 336 464
432 528 785
576 672 1089
753 817 1329
961 1025 1617
1073 1137 1841
448 432 416
496 432 464
480 448 480
432 608 785
592 817 1073
817 993 1425
1137 1313 1793
1297 1409 1985
1425 1553 2162
897 849 865
929 913 929
881 929 929
897 1073 1185
1121 1505 1697
1425 1729 2050
1649 1905 2242
1873 2050 2434
1985 2146 2562
1633 1585 1473
1713 1649 1505
1649 1649 1505
1665 1777 1713
1761 2098 2146
1937 2290 2434
2082 2418 2674
2226 2498 2818
2354 2626 3010
2434 2162 1777
2434 2178 1793
2338 2162 1761
2290 2226 2033
2226 2402 2354
2290 2658 2690
2354 2738 2882
2418 2834 3010
2530 2914 3218
2882 2466 1873
2882 2450 1857
2882 2466 1889
2754 2642 2354
2578 2658 2450
2482 2786 2674
2498 2962 2978
2514 3058 3202
2626 3074 3298
3282 2626 1953
3330 2658 1985
3330 2674 2001
3058 2834 2450
3010 2914 2642
2898 2946 2754
2818 3058 2994
2754 3186 3234
2786 3250 3378
480 256 256
496 272 272
480 272 272
368 320 432
384 448 656
496 576 977
721 801 1281
913 961 1553
1041 1089 1745
496 272 256
496 272 256
448 256 272
384 336 448
400 480 672
512 592 993
672 753 1233
881 929 1521
1025 1057 1713
480 272 272
480 272 272
448 320 336
384 384 496
432 528 785
544 640 1057
737 801 1313
961 1025 1617
1073 1153 1857
480 432 416
496 448 448
464 496 512
432 576 753
624 849 1121
817 993 1425
1073 1233 1729
1313 1425 2001
1473 1585 2210
913 897 897
913 897 929
913 929 945
897 1073 1185
1137 1521 1729
1409 1697 2017
1633 1889 2242
1809 2001 2386
1985 2146 2562
1633 1585 1473
1633 1585 1473
1601 1601 1473
1633 1745 1681
1745 2098 2146
1905 2258 2402
2082 2402 2658
2226 2498 2818
2354 2626 3010
2418 2146 1761
2434 2162 1793
2354 2162 1761
2290 2242 2050
2226 2386 2322
2274 2626 2642
2338 2722 2834
2418 2834 3010
2514 2898 3186
2898 2450 1873
2898 2466 1873
2898 2466 1889
2770 2642 2370
2578 2674 2450
2530 2802 2690
2498 2946 2930
2546 3074 3218
2626 3074 3298
3330 2658 1985
3266 2610 1937
3314 2674 2001
3106 2866 2466
3026 2914 2626
2882 2930 2754
2770 3042 2994
2738 3170 3234
2786 3250 3378
528 256 240
512 256 224
512 272 288
400 352 496
400 480 672
528 608 1025
721 769 1281
929 993 1585
1073 1105 1761
528 256 240
576 304 288
592 320 384
480 384 640
496 528 849
528 608 1025
753 817 1313
929 993 1585
1073 1105 1761
576 320 240
656 432 320
672 480 480
560 544 785
544 624 1009
608 721 1153
801 881 1393
993 1057 1665
1121 1185 1889
576 560 432
640 721 512
640 769 656
624 849 961
721 977 1297
849 1041 1505
1137 1313 1809
1329 1457 2001
1473 1569 2194
945 897 801
993 1041 817
977 1137 977
1009 1345 1345
1185 1649 1809
1441 1729 2050
1681 1921 2258
1905 2082 2450
2050 2210 2626
1793 1633 1425
1761 1681 1393
1649 1697 1505
1633 1873 1713
1809 2162 2178
1937 2290 2418
2130 2434 2690
2290 2578 2882
2370 2674 3042
2546 2178 1729
2482 2130 1681
2450 2258 1857
2306 2258 2066
2242 2418 2354
2274 2626 2658
2354 2754 2882
2450 2866 3042
2546 2946 3250
3026 2466 1777
3010 2450 1761
2930 2466 1873
2802 2658 2354
2658 2738 2498
2530 2786 2658
2498 2946 2946
2562 3090 3234
2658 3106 3330
3410 2578 1777
3427 2594 1793
3346 2626 1889
3154 2866 2418
3058 2930 2642
2930 2962 2754
2802 3026 2946
2770 3170 3218
2818 3266 3394
929 336 224
945 336 240
961 336 352
833 352 528
512 480 785
608 672 1073
929 993 1505
1105 1169 1761
1217 1281 1905
1009 384 208
1089 400 320
1121 432 528
961 448 753
737 560 1041
689 672 1169
945 1009 1537
1121 1185 1777
1217 1281 1905
1121 544 224
1217 640 368
1217 672 624
1137 721 945
865 737 1185
817 785 1361
993 1073 1601
1137 1217 1809
1281 1329 2017
1505 849 304
1521 1025 464
1505 1089 737
1297 1057 1089
1121 1281 1649
1201 1393 1905
1345 1489 1985
1553 1649 2178
1649 1729 2322
1617 1089 416
1633 1249 512
1537 1393 817
1361 1649 1537
1441 1857 1985
1649 1937 2242
1889 2098 2418
2114 2290 2674
2194 2354 2802
2770 1585 512
2626 1681 528
2498 1857 881
1905 2146 1873
1937 2290 2258
2098 2434 2578
2210 2530 2770
2354 2658 2962
2450 2754 3154
3250 2001 929
3250 2050 945
3186 2162 1201
2594 2466 2130
2386 2514 2402
2386 2754 2738
2418 2850 2930
2562 2978 3170
2610 3010 3314
3475 2386 1233
3443 2370 1217
3475 2434 1425
3314 2722 2146
2818 2818 2562
2706 2898 2754
2610 2994 2994
2642 3154 3282
2786 3234 3443
3651 2642 1585
3651 2642 1585
3667 2674 1649
3667 2818 1937
3218 3026 2690
3138 3074 2850
2994 3154 3074
2914 3282 3298
2962 3362 3459
1857 656 256
1873 592 304
1841 576 448
1569 576 672
1121 656 1009
929 1009 1361
1041 1105 1521
1169 1217 1713
1329 1329 1889
1921 672 256
1953 640 384
1937 640 640
1745 656 945
1361 672 1233
1073 961 1505
1041 1105 1521
1153 1201 1697
1329 1329 1889
1953 833 224
2050 913 432
2017 929 721
1873 945 1073
1537 961 1473
1185 1073 1649
1121 1185 1649
1233 1281 1761
1393 1377 1969
2178 1169 336
2194 1313 528
2162 1345 833
2017 1313 1185
1713 1329 1617
1457 1457 1921
1441 1489 2001
1745 1793 2290
1905 1953 2498
2578 1441 208
2498 1601 400
2498 1665 656
2386 1793 1281
1873 1969 2033
1953 2162 2418
2146 2338 2658
2322 2498 2914
2370 2562 3026
3058 1873 544
2914 2001 608
2882 2050 769
2962 2146 1057
2226 2498 2370
2290 2674 2754
2370 2706 2898
2498 2834 3122
2642 2946 3346
3459 2210 1009
3378 2274 977
3346 2274 1025
3362 2386 1217
2946 2802 2482
2594 2866 2818
2546 2978 3074
2706 3122 3330
2866 3234 3523
3635 2578 1393
3619 2546 1377
3667 2626 1473
3731 2690 1633
3555 2994 2370
3106 3058 2866
2994 3202 3138
2898 3298 3427
3042 3427 3635
3795 2882 1841
3795 2866 1809
3795 2882 1857
3843 2962 2017
3859 3074 2258
3427 3234 2946
3394 3346 3218
3314 3394 3362
3378 3507 3555
2386 897 288
2418 817 352
2402 801 464
2162 833 753
1761 961 1153
1345 1233 1537
1329 1409 1761
1393 1425 1873
1537 1553 2017
2434 865 256
2498 833 416
2466 801 640
2322 817 1009
1985 913 1329
1473 1153 1633
1313 1393 1761
1409 1441 1889
1569 1569 2050
2514 1041 272
2530 1041 448
2514 1057 753
2418 1073 1121
2130 1089 1505
1633 1313 1809
1409 1457 1857
1425 1457 1905
1617 1585 2130
2658 1393 432
2658 1441 576
2610 1457 865
2498 1473 1249
2290 1505 1697
1857 1665 2050
1665 1713 2082
1761 1809 2210
1889 1873 2338
2914 1617 256
2866 1713 432
2850 1777 689
2786 1937 1313
2498 2017 1889
2146 2146 2306
2130 2226 2466
2274 2370 2674
2370 2498 2898
3298 2098 656
3202 2178 721
3138 2210 849
3170 2290 1105
3266 2338 1457
2498 2738 2754
2530 2818 3026
2642 2946 3234
2818 3122 3459
3651 2418 1185
3539 2434 1089
3539 2466 1169
3539 2578 1361
3555 2770 1729
3154 2994 2706
2754 3122 3186
2866 3250 3443
3042 3394 3651
3763 2770 1601
3731 2738 1585
3763 2802 1649
3779 2946 1873
3731 3058 2066
3715 3234 2546
3362 3282 3122
3250 3443 3523
3250 3539 3699
3875 3010 1969
3875 3010 1969
3875 3010 2001
3907 3090 2146
3955 3186 2322
3971 3330 2594
3715 3378 3010
3587 3523 3459
3555 3571 3587
2722 1137 384
2722 1073 400
2722 1025 512
2514 1041 769
2033 1153 1137
1649 1377 1537
1521 1569 1905
1553 1601 2001
1665 1665 2098
2770 1089 352
2818 993 416
2850 993 672
2674 1025 977
2322 1089 1297
1745 1313 1601
1505 1553 1889
1569 1601 2001
1665 1649 2098
2850 1201 352
2898 1201 512
2898 1169 753
2754 1153 1089
2418 1217 1457
1889 1393 1729
1585 1649 1969
1649 1697 2082
1777 1729 2210
2914 1473 512
2978 1521 608
2994 1537 897
2898 1585 1329
2626 1585 1697
2162 1745 2050
1937 1873 2226
1873 1937 2258
2001 2001 2402
3138 1681 352
3154 1777 464
3154 1857 721
3138 2017 1345
2898 2098 1953
2642 2210 2354
2370 2290 2610
2370 2386 2722
2370 2466 2786
3443 2146 769
3427 2226 817
3394 2290 929
3362 2386 1249
3410 2466 1569
3074 2658 2514
2690 2754 2930
2738 2914 3218
2882 3138 3427
3731 2546 1329
3699 2546 1297
3587 2626 1249
3539 2770 1489
3539 2882 1857
3603 2978 2210
3555 3138 2786
3282 3234 3202
3250 3523 3747
3843 2898 1761
3827 2882 1745
3763 2962 1729
3715 3106 1889
3715 3218 2162
3747 3298 2498
3811 3362 2786
3635 3427 3218
3475 3587 3683
3939 3106 2098
3939 3122 2130
3939 3138 2130
3923 3234 2258
3923 3378 2482
3955 3475 2754
3971 3475 2882
3811 3507 3218
3683 3603 3555
2914 1329 432
2930 1297 432
2930 1329 496
2674 1313 737
2290 1377 1121
1937 1457 1537
1729 1761 2017
1729 1761 2114
1841 1841 2226
2946 1297 416
3010 1233 464
3026 1201 560
2834 1233 865
2434 1361 1281
1921 1473 1553
1681 1729 1985
1729 1761 2114
1841 1841 2226
3026 1361 448
3106 1329 496
3122 1329 656
2946 1345 1025
2578 1425 1393
2146 1505 1697
1793 1745 2050
1793 1841 2162
1905 1857 2274
3106 1569 624
3202 1601 672
3234 1601 865
3138 1649 1297
2930 1713 1729
2546 1793 2082
2242 1953 2386
2114 2082 2402
2130 2114 2466
3282 1761 480
3314 1793 512
3378 1873 672
3459 2017 1169
3218 2178 1985
3010 2258 2370
2658 2338 2690
2514 2434 2834
2434 2578 2850
3555 2226 897
3555 2274 865
3571 2338 945
3603 2450 1297
3651 2514 1633
3475 2722 2482
3154 2754 2866
2866 2882 3202
2930 3138 3443
3779 2626 1409
3731 2658 1329
3715 2738 1329
3683 2866 1569
3715 2946 1937
3763 3026 2322
3811 3074 2610
3587 3202 3042
3346 3539 3747
3923 3026 1953
3907 3026 1937
3843 3106 1809
3811 3218 1969
3811 3314 2242
3843 3378 2546
3891 3394 2786
3859 3427 3042
3619 3603 3635
3971 3218 2274
3971 3202 2258
3971 3250 2290
3939 3378 2338
3955 3523 2626
3955 3571 2850
3971 3555 3010
3987 3587 3186
3811 3667 3539
3042 1425 496
3042 1441 496
3042 1457 544
2834 1457 785
2530 1601 1249
2194 1601 1585
1841 1889 2066
1777 1793 2114
1889 1873 2242
3026 1409 480
3026 1409 480
3042 1409 512
2866 1473 865
2530 1585 1249
2178 1585 1569
1921 1809 2033
1793 1841 2146
1921 1905 2258
3074 1473 544
3122 1473 576
3138 1425 576
2978 1489 929
2786 1585 1409
2434 1617 1729
1953 1873 2114
1873 1889 2194
1937 1937 2290
3218 1681 753
3234 1681 785
3314 1665 865
3282 1745 1281
3138 1809 1729
2866 1873 2098
2482 2066 2482
2258 2162 2498
2178 2162 2498
3330 1793 512
3378 1841 528
3523 1905 689
3667 2050 1105
3539 2274 2017
3314 2290 2386
2962 2402 2770
2690 2498 2898
2498 2658 2930
3587 2258 929
3667 2322 897
3763 2386 993
3859 2498 1345
3891 2546 1681
3795 2754 2466
3571 2786 2850
3058 2946 3282
2930 3138 3427
3811 2706 1505
3843 2770 1425
3875 2818 1377
3923 2914 1617
3955 2978 1985
3955 3042 2338
3955 3090 2610
3859 3202 2914
3459 3523 3667
3955 3074 2001
3955 3074 1985
3955 3138 1809
3971 3266 1969
3987 3378 2274
4019 3427 2594
4019 3443 2866
4003 3443 2978
3715 3587 3555
4019 3314 2402
4003 3298 2370
4019 3346 2370
4019 3459 2450
4019 3571 2690
4003 3619 2946
3971 3603 3138
3971 3619 3314
3875 3683 3539
