其他预设/【236】赛博朋克风调色预设/【后期菌】视频调色预设/3DL/Tokyo 08_S.3dl
# LUT by SparkleStock. Enhanced with VOXCOLOR algorithms.
0 256 512 768 1023
400 288 400
400 304 416
112 624 1073
112 1121 1793
144 1345 2082
416 320 432
400 336 432
128 705 1169
112 1137 1825
144 1377 2146
256 1025 1121
256 1105 1201
272 1537 1825
336 1889 2386
272 2033 2690
1601 2322 2146
1521 2322 2130
1153 2466 2498
496 2642 2946
384 2754 3282
2738 2930 2418
2754 2962 2450
2050 3026 2866
1649 3090 3138
961 3106 3346
448 320 416
496 352 448
128 624 1105
96 1089 1777
144 1345 2098
560 416 432
640 528 608
272 769 1313
144 1169 1841
192 1409 2194
336 1073 1057
416 1297 1201
400 1665 1921
352 1905 2402
288 2082 2754
1905 2434 2162
1681 2418 2210
1169 2482 2514
528 2642 2946
432 2770 3298
2946 2914 2290
2930 2962 2370
2114 3074 2898
1601 3042 3106
1137 3122 3362
2066 1169 1153
2050 1025 1201
1617 1281 1713
1265 1505 2001
1345 1633 2290
2114 1217 881
2130 1201 1201
1889 1361 1889
1425 1585 2098
1473 1665 2370
2706 1761 753
2546 1889 1073
2242 2114 2210
753 2226 2738
705 2402 3122
3603 2466 1473
3443 2498 1441
2514 2946 2722
1601 2914 3106
1585 2994 3427
3827 3010 1921
3811 3010 1921
3763 3234 2418
2786 3410 3314
2626 3459 3539
3330 1825 1633
3282 1665 1633
3042 1985 2194
2338 1969 2354
2402 2066 2562
3314 1697 1313
3234 1521 1425
3058 1713 2130
2418 2033 2402
2498 2114 2658
3523 1921 801
3378 2001 1041
3234 2210 2226
2994 2402 2770
2834 2562 3010
4035 2626 1361
3843 2690 1281
3683 2898 1841
3539 3202 2962
2834 3314 3603
4051 3106 1761
4051 3122 1793
3971 3378 2258
3923 3539 2914
3523 3603 3539
3699 1969 1665
3699 2017 1745
3443 2146 2226
2930 2210 2514
2802 2242 2690
3731 2001 1713
3747 1921 1649
3539 2001 2210
3026 2194 2546
2834 2274 2722
3875 2017 865
3923 2033 961
3859 2274 2210
3619 2466 2882
3218 2738 3122
4095 2674 1249
4067 2770 1169
4051 2946 1857
4051 3074 2674
3715 3378 3475
4095 3250 1905
4095 3282 1889
4051 3539 2466
4003 3619 3154
3891 3699 3555
