其他预设/【236】赛博朋克风调色预设/【后期菌】视频调色预设/3DL/Tokyo 02_S.3dl
# LUT by SparkleStock. Enhanced with VOXCOLOR algorithms.
0 128 256 384 512 640 768 896 1023
336 160 368
336 160 368
320 176 416
224 208 608
160 256 977
176 240 1297
224 256 1649
336 256 1841
416 256 1985
352 176 384
336 160 368
336 192 448
224 224 640
160 256 961
176 240 1281
224 240 1601
320 256 1841
400 240 1953
336 176 416
336 176 416
304 192 448
208 224 640
144 304 1009
176 288 1393
224 288 1681
320 304 1889
400 304 2066
144 352 544
160 336 592
144 336 592
80 400 817
80 464 1233
112 464 1617
160 528 1921
224 448 2050
352 512 2242
32 672 785
48 721 833
32 737 849
0 753 1025
0 833 1377
32 977 1857
96 1009 2082
176 1041 2290
240 1089 2386
96 1425 1377
128 1473 1425
128 1489 1441
96 1521 1633
48 1505 1793
80 1537 2033
160 1649 2226
224 1665 2354
336 1793 2482
785 2434 1985
801 2434 1985
689 2386 1953
352 2130 2082
192 2050 2162
176 2017 2258
224 2033 2354
336 2114 2466
512 2258 2610
2482 3138 2386
2546 3154 2402
2514 3154 2402
1297 2754 2578
576 2562 2514
384 2418 2466
368 2386 2530
416 2418 2594
608 2482 2706
3106 3314 2498
3122 3314 2530
3122 3314 2546
2258 3122 2802
1985 3026 2866
1681 2930 2850
1121 2818 2818
592 2674 2754
833 2706 2818
336 160 384
352 176 400
336 176 416
224 208 608
160 240 961
176 240 1281
224 256 1649
336 256 1841
416 256 1985
352 176 384
352 176 384
320 176 416
224 224 624
160 256 977
176 240 1297
224 240 1601
304 240 1809
400 240 1953
352 192 416
336 192 416
320 224 464
240 256 672
144 304 1025
160 288 1377
208 256 1649
320 304 1889
416 304 2082
144 352 544
160 368 576
144 400 624
80 400 801
80 496 1249
112 464 1617
144 496 1889
224 496 2082
368 544 2258
48 689 817
48 689 833
80 737 865
0 753 1041
0 849 1393
16 961 1825
96 993 2066
160 1025 2242
224 1089 2386
96 1441 1377
96 1441 1377
112 1473 1409
96 1505 1601
48 1473 1761
48 1505 1985
144 1617 2210
224 1665 2354
336 1793 2498
785 2434 1985
801 2434 1985
721 2386 1953
336 2130 2082
176 2050 2146
160 1985 2242
192 2017 2322
336 2114 2466
464 2226 2578
2498 3138 2386
2498 3138 2386
2530 3154 2402
1377 2754 2594
592 2562 2514
400 2450 2498
352 2370 2514
432 2418 2610
608 2482 2706
3122 3314 2530
3074 3298 2482
3122 3314 2546
2354 3154 2834
2082 3058 2898
1665 2930 2834
817 2754 2754
592 2658 2738
817 2706 2802
368 160 384
368 160 368
384 176 432
256 224 656
176 240 977
192 240 1329
224 240 1633
336 256 1857
432 256 1985
384 176 384
448 224 416
512 224 512
384 288 801
256 304 1105
192 240 1329
240 256 1665
336 256 1857
432 256 1985
496 256 368
576 384 448
592 416 592
448 448 897
304 416 1201
208 336 1441
224 304 1713
352 304 1921
448 320 2098
288 464 560
384 640 592
416 689 769
336 672 1025
224 656 1409
128 512 1665
160 512 1921
240 512 2098
368 528 2242
112 753 737
224 929 753
240 1009 945
224 1041 1201
144 1057 1521
32 977 1857
112 1009 2082
192 1089 2290
256 1121 2402
240 1585 1409
288 1617 1377
192 1585 1457
176 1617 1633
96 1601 1841
48 1553 2033
192 1665 2258
256 1729 2386
368 1841 2514
1425 2674 1969
1297 2578 1889
1025 2562 2130
352 2146 2114
192 2066 2178
160 1985 2242
240 2066 2370
352 2146 2482
576 2290 2642
2818 3154 2274
2802 3138 2258
2690 3186 2450
1649 2850 2626
769 2658 2578
496 2514 2530
384 2370 2514
512 2482 2642
689 2546 2754
3250 3234 2242
3250 3250 2258
3202 3282 2386
2514 3250 2802
2242 3122 2946
1873 2994 2914
961 2754 2770
737 2706 2770
1025 2754 2850
833 240 400
849 240 416
897 224 512
753 208 721
496 208 929
432 192 1297
384 320 1761
432 320 1969
528 288 2082
945 304 384
1041 352 464
1089 368 656
929 336 897
689 304 1169
512 208 1377
384 320 1809
448 320 1985
528 288 2082
1073 496 384
1217 608 512
1217 640 753
1105 608 1041
817 512 1313
592 336 1553
384 352 1841
432 352 1985
544 336 2162
1553 785 560
1553 977 656
1553 1041 897
1313 929 1201
640 897 1697
368 769 1969
208 576 2050
368 608 2210
528 624 2338
1217 1121 592
1313 1313 672
1201 1457 945
656 1409 1409
432 1329 1793
240 1217 2050
192 1217 2226
288 1297 2418
400 1329 2530
2818 1873 592
2658 1905 560
2498 2146 881
464 1953 1825
304 1825 1985
160 1761 2194
320 1857 2338
416 1937 2498
608 2114 2674
3250 2354 672
3234 2402 689
3154 2594 1169
1761 2802 2498
464 2354 2402
336 2178 2354
384 2242 2482
656 2418 2674
1025 2498 2786
3394 2754 929
3346 2690 865
3362 2882 1393
3266 3346 2674
1937 2946 2802
1377 2802 2754
833 2610 2706
881 2674 2786
1457 2786 2930
3507 2978 1361
3507 2978 1361
3507 3042 1505
3523 3250 2194
2738 3314 3074
2562 3234 3090
2418 3202 3122
2130 3074 3058
2162 3074 3090
2050 624 737
2082 576 753
2050 544 849
1745 416 961
1281 288 1169
1025 288 1377
1121 224 1601
1217 224 1841
1265 208 1985
2114 656 640
2130 640 737
2130 640 961
1889 544 1169
1489 368 1377
1185 304 1521
1121 224 1601
1201 208 1809
1313 224 2017
2146 817 576
2194 897 737
2194 929 1009
2050 849 1281
1665 640 1585
1313 448 1665
1217 256 1697
1265 240 1889
1377 240 2082
2482 1233 833
2450 1361 929
2418 1377 1169
2290 1265 1457
1937 993 1729
1489 753 1953
1153 512 2098
1217 656 2338
1169 689 2434
2658 1649 737
2578 1793 817
2578 1841 1057
2690 2017 1745
1665 1665 2194
656 1537 2338
432 1537 2434
737 1713 2658
1233 1953 2850
3106 1985 464
2978 2114 544
2946 2178 721
2994 2290 1009
672 2194 2242
528 2146 2434
689 2258 2594
1441 2482 2834
1921 2658 3026
3427 2386 464
3330 2450 464
3314 2450 544
3314 2594 817
2834 3282 2946
1313 2690 2738
1377 2690 2802
2017 2882 3010
2482 3042 3186
3539 2802 833
3507 2754 785
3539 2834 945
3587 2898 1201
3555 3491 2882
2930 3362 3170
2770 3314 3218
2642 3250 3234
2834 3314 3298
3619 3058 1377
3603 3026 1329
3619 3058 1393
3651 3186 1745
3683 3378 2466
3314 3555 3266
3330 3555 3346
3218 3507 3378
3282 3539 3443
2770 961 1041
2770 865 1025
2754 833 1121
2610 785 1281
2258 464 1393
1617 352 1553
1585 336 1761
1681 320 1969
1809 336 2114
2770 929 865
2770 865 945
2754 833 1121
2626 753 1393
2370 560 1537
1729 368 1665
1537 320 1761
1713 336 1985
1809 336 2130
2818 1089 817
2786 1073 881
2770 1089 1169
2722 1057 1489
2466 801 1697
1937 576 1857
1665 384 1857
1729 352 2017
1873 384 2210
2946 1441 977
2882 1489 1025
2866 1521 1281
2818 1489 1633
2658 1265 1937
2146 961 2098
1921 769 2146
2050 753 2274
2098 737 2370
2962 1761 769
2930 1857 833
2914 1921 1057
2994 2146 1793
2962 2098 2306
2578 1857 2546
2514 1873 2706
2594 2050 2898
2786 2274 3090
3298 2130 416
3218 2226 496
3138 2242 656
3170 2354 945
3298 2498 1585
2578 2866 2946
2242 2754 2978
2498 2946 3170
2946 3170 3394
3539 2530 400
3475 2546 416
3459 2578 464
3475 2722 833
3491 2914 1473
3378 3394 3122
2866 3234 3218
2914 3266 3298
3250 3394 3443
3603 2850 817
3587 2818 785
3619 2866 865
3635 3042 1313
3587 3186 1793
3619 3507 2962
3491 3587 3362
3427 3539 3459
3443 3523 3491
3667 3090 1281
3667 3090 1281
3667 3090 1313
3683 3170 1633
3731 3314 2050
3763 3491 2690
3683 3651 3330
3651 3683 3459
3635 3683 3491
3010 1153 1217
3026 1073 1185
3042 1041 1265
2962 1025 1441
2754 801 1553
2274 544 1681
1921 528 1953
1969 464 2098
2082 448 2194
3042 1089 1073
3058 1025 1073
3090 1009 1249
3026 1009 1521
2850 833 1697
2306 512 1745
1921 528 1937
1969 464 2098
2066 448 2194
3090 1201 993
3106 1217 1057
3122 1201 1233
3058 1185 1585
2914 993 1809
2418 656 1889
2017 592 2017
2082 560 2178
2194 576 2290
3170 1553 1185
3170 1601 1153
3186 1633 1377
3170 1649 1745
3058 1473 2066
2610 1105 2210
2338 1041 2338
2290 929 2338
2386 977 2450
3186 1809 801
3186 1873 817
3186 1953 1041
3266 2210 1809
3298 2322 2418
3202 2258 2690
2946 2178 2850
3010 2274 2962
3042 2290 3010
3410 2146 352
3410 2258 416
3362 2322 608
3346 2466 1009
3394 2562 1441
3491 3026 2978
3362 3026 3234
3427 3154 3427
3555 3314 3491
3603 2594 448
3587 2594 432
3491 2674 544
3475 2818 977
3491 2946 1537
3539 3122 2274
3635 3378 3138
3587 3491 3394
3619 3555 3571
3651 2930 849
3651 2898 833
3603 2994 961
3571 3122 1361
3571 3298 1921
3635 3427 2610
3699 3539 3122
3731 3619 3394
3699 3651 3523
3683 3090 1233
3683 3122 1297
3683 3122 1297
3683 3250 1697
3715 3427 2322
3763 3539 2738
3795 3603 3042
3763 3651 3362
3747 3683 3491
3122 1329 1329
3122 1297 1313
3138 1313 1377
3106 1297 1521
2946 1089 1681
2658 689 1793
2322 672 2098
2338 672 2242
2354 592 2290
3122 1297 1281
3186 1249 1249
3202 1185 1313
3186 1233 1553
3042 1057 1761
2658 689 1793
2258 608 2033
2306 656 2242
2354 592 2290
3202 1377 1249
3266 1329 1217
3282 1313 1329
3250 1313 1617
3122 1153 1857
2770 817 1937
2386 721 2146
2386 721 2290
2434 689 2370
3298 1713 1489
3346 1697 1393
3394 1697 1473
3410 1761 1841
3362 1681 2194
3106 1393 2354
2754 1281 2514
2626 1201 2498
2610 1153 2530
3298 1809 785
3330 1857 785
3410 1937 961
3491 2162 1585
3571 2418 2482
3523 2386 2754
3314 2370 2962
3266 2386 3090
3314 2530 3122
3491 2194 368
3491 2242 384
3507 2354 592
3555 2466 993
3603 2594 1473
3683 2994 2930
3667 3042 3202
3619 3122 3394
3683 3314 3491
3635 2610 416
3603 2626 400
3619 2754 592
3619 2882 1057
3667 3010 1665
3699 3122 2322
3747 3266 2946
3763 3443 3427
3763 3523 3507
3699 3010 1121
3699 3026 1121
3683 3106 1153
3683 3266 1601
3683 3346 2114
3731 3443 2578
3779 3507 3010
3795 3571 3314
3779 3651 3523
3715 3170 1441
3715 3154 1441
3731 3202 1505
3715 3346 1889
3763 3539 2450
3795 3603 2834
3827 3635 3090
3859 3635 3266
3843 3683 3475
3202 1473 1425
3202 1489 1425
3202 1489 1457
3170 1457 1617
3106 1297 1841
2930 961 1953
2514 785 2162
2450 737 2274
2482 672 2322
3186 1457 1409
3186 1457 1409
3202 1425 1425
3202 1489 1665
3106 1297 1841
2914 929 1921
2578 817 2178
2482 785 2290
2482 721 2338
3234 1521 1457
3266 1521 1441
3266 1457 1425
3298 1505 1681
3266 1377 1937
3058 1009 2066
2626 865 2226
2514 849 2338
2530 801 2370
3330 1841 1633
3362 1841 1649
3459 1809 1633
3539 1873 1921
3571 1841 2258
3410 1553 2434
3090 1473 2610
2866 1441 2626
2850 1393 2642
3314 1809 721
3378 1841 721
3507 1905 833
3667 2146 1393
3811 2514 2514
3779 2514 2818
3619 2514 3058
3475 2530 3138
3459 2690 3186
3507 2242 352
3603 2322 368
3683 2386 592
3779 2514 977
3827 2610 1457
3891 2994 2914
3859 3058 3202
3763 3138 3410
3715 3314 3475
3651 2642 432
3699 2722 464
3747 2770 608
3843 2946 1169
3859 3026 1681
3875 3122 2354
3907 3218 2834
3859 3410 3346
3843 3539 3539
3715 3010 1057
3731 3026 1089
3763 3106 1105
3843 3282 1553
3859 3378 2114
3891 3459 2578
3907 3491 2930
3891 3539 3154
3859 3667 3539
3747 3234 1617
3763 3234 1617
3779 3298 1697
3827 3443 2098
3859 3571 2578
3875 3635 2930
3891 3667 3170
3875 3651 3330
3875 3683 3475
