其他预设/【236】赛博朋克风调色预设/【后期菌】视频调色预设/3DL/Tokyo 10.3dl
# LUT by SparkleStock. Enhanced with VOXCOLOR algorithms.
0 128 256 384 512 640 768 896 1023
464 256 240
480 256 240
448 256 272
368 320 432
400 464 672
496 576 993
721 801 1281
913 961 1553
1057 1089 1745
496 272 256
480 256 256
464 272 288
384 336 448
400 464 672
496 576 977
672 753 1233
897 945 1553
1025 1057 1713
464 256 272
480 272 272
432 272 288
368 336 464
432 528 785
576 672 1089
753 817 1329
961 1025 1617
1089 1137 1777
464 416 432
496 432 464
480 448 480
448 592 769
592 817 1073
817 993 1425
1137 1313 1793
1297 1409 1985
1457 1553 2130
897 849 865
929 913 929
897 913 929
897 1073 1185
1121 1505 1697
1425 1729 2050
1649 1905 2242
1873 2050 2434
1985 2146 2562
1633 1585 1473
1713 1649 1505
1681 1633 1521
1665 1777 1713
1761 2098 2146
1937 2290 2434
2130 2418 2658
2226 2498 2818
2354 2626 3010
2434 2162 1777
2434 2178 1793
2370 2146 1777
2290 2226 2033
2226 2402 2354
2290 2658 2690
2354 2738 2882
2418 2834 3010
2530 2914 3218
2930 2450 1905
2930 2434 1889
2930 2450 1905
2754 2642 2354
2626 2642 2450
2530 2770 2674
2546 2946 2978
2562 3042 3186
2626 3074 3298
3282 2626 1953
3330 2658 1985
3330 2674 2001
3058 2834 2450
3010 2914 2642
2898 2946 2754
2818 3058 2994
2754 3186 3234
2786 3250 3378
480 256 256
496 272 272
480 272 272
368 320 432
384 448 656
496 576 977
721 801 1281
913 961 1553
1041 1089 1745
496 272 256
496 272 256
448 256 272
384 336 448
400 480 672
512 592 993
672 753 1233
881 929 1521
1025 1057 1713
480 272 272
480 256 272
448 288 304
384 352 464
432 528 785
544 640 1057
737 801 1313
961 1025 1617
1089 1153 1793
480 416 432
496 432 448
464 432 480
432 560 737
624 849 1121
817 993 1425
1073 1233 1729
1313 1425 2001
1489 1585 2178
913 897 897
913 897 929
913 913 945
897 1073 1185
1137 1521 1729
1409 1697 2017
1633 1889 2242
1809 2001 2386
1985 2146 2562
1633 1585 1473
1633 1585 1473
1617 1585 1473
1633 1745 1681
1745 2098 2146
1905 2258 2402
2114 2402 2642
2226 2498 2818
2354 2626 3010
2418 2146 1761
2434 2162 1793
2370 2146 1777
2290 2242 2050
2226 2386 2322
2274 2626 2642
2338 2722 2834
2418 2834 3010
2514 2898 3186
2930 2434 1905
2930 2450 1905
2946 2450 1905
2770 2642 2370
2626 2658 2450
2562 2786 2690
2530 2930 2930
2578 3058 3202
2626 3074 3298
3330 2658 1985
3266 2610 1937
3314 2674 2001
3106 2866 2466
3026 2914 2626
2882 2930 2754
2770 3042 2994
2738 3170 3234
2786 3250 3378
528 256 240
512 256 224
496 272 272
384 352 480
400 480 672
528 608 1025
721 769 1281
929 993 1585
1073 1105 1761
512 256 240
528 272 256
512 272 256
400 368 496
448 528 753
528 608 1025
753 817 1313
929 993 1585
1073 1105 1761
544 272 256
560 288 272
544 304 304
416 400 544
464 560 833
592 689 1105
801 881 1393
993 1057 1665
1121 1185 1841
528 464 480
544 480 512
496 464 528
496 624 785
656 881 1153
849 1025 1457
1137 1313 1809
1329 1457 2001
1489 1569 2162
945 849 833
977 881 865
961 945 961
993 1169 1297
1201 1601 1777
1441 1729 2050
1681 1921 2258
1905 2082 2450
2050 2210 2626
1793 1633 1425
1793 1649 1425
1681 1649 1521
1681 1793 1729
1841 2146 2178
1937 2290 2418
2146 2434 2674
2290 2578 2882
2370 2674 3042
2546 2178 1729
2482 2130 1681
2482 2242 1873
2306 2258 2066
2242 2418 2354
2274 2626 2658
2354 2754 2882
2450 2866 3042
2546 2946 3250
3058 2450 1809
3042 2434 1793
2962 2450 1889
2802 2658 2354
2690 2722 2514
2562 2770 2658
2530 2930 2946
2594 3074 3234
2658 3106 3330
3410 2578 1777
3427 2594 1793
3346 2626 1889
3154 2866 2418
3058 2930 2642
2930 2962 2754
2802 3026 2946
2770 3170 3218
2818 3266 3394
913 336 224
913 352 224
897 368 272
753 400 400
480 496 737
608 672 1073
929 993 1505
1105 1169 1761
1217 1281 1905
929 368 240
945 368 256
929 400 304
737 416 432
528 560 801
640 689 1089
945 1009 1537
1121 1185 1777
1217 1281 1905
1009 416 288
1025 416 288
977 416 320
849 496 512
544 592 817
689 753 1169
993 1073 1601
1137 1217 1809
1281 1329 1969
1489 640 384
1473 672 416
1441 672 464
1089 689 753
913 1121 1457
1137 1361 1777
1345 1489 1985
1553 1649 2178
1649 1729 2290
1617 881 496
1649 913 512
1521 961 672
1233 1425 1505
1393 1761 1953
1649 1921 2210
1889 2098 2418
2114 2290 2674
2194 2354 2802
2834 1537 544
2818 1505 528
2738 1649 833
1969 2033 1937
1969 2258 2274
2098 2434 2578
2226 2530 2770
2354 2658 2962
2450 2754 3154
3250 2001 929
3282 2033 961
3218 2146 1201
2626 2434 2146
2386 2514 2402
2386 2754 2738
2418 2850 2930
2562 2978 3170
2610 3010 3314
3507 2370 1281
3475 2338 1233
3507 2418 1425
3314 2722 2146
2850 2802 2578
2722 2882 2754
2626 2978 2994
2658 3138 3282
2786 3234 3443
3651 2642 1585
3651 2642 1585
3667 2674 1649
3667 2818 1937
3218 3026 2690
3138 3074 2850
2994 3154 3074
2914 3282 3298
2962 3362 3459
1841 672 272
1841 672 272
1761 689 320
1473 689 512
1025 737 913
929 1009 1361
1041 1105 1521
1169 1217 1713
1329 1329 1889
1873 721 304
1873 721 304
1809 737 368
1521 753 544
1057 753 897
929 1025 1361
1041 1105 1521
1153 1201 1697
1329 1329 1889
1889 737 320
1985 801 352
1937 801 400
1633 833 608
1169 897 1073
977 1073 1425
1105 1185 1617
1233 1281 1761
1377 1377 1921
2210 993 480
2274 1057 528
2226 1073 592
1921 1057 817
1457 1153 1313
1297 1425 1729
1409 1489 1953
1745 1793 2290
1905 1953 2466
2738 1217 272
2770 1249 304
2818 1313 336
2594 1569 1041
1729 1889 2001
1921 2162 2386
2146 2338 2658
2322 2498 2914
2370 2562 3026
3186 1761 608
3186 1777 624
3202 1793 640
3298 1953 865
2242 2466 2434
2306 2674 2754
2370 2706 2898
2498 2834 3122
2642 2946 3346
3459 2210 1009
3459 2210 1009
3459 2194 1025
3507 2306 1169
2978 2786 2498
2594 2866 2818
2546 2978 3074
2706 3122 3330
2866 3234 3523
3667 2562 1425
3651 2530 1393
3699 2610 1489
3731 2690 1633
3587 2978 2370
3122 3042 2866
3010 3186 3138
2898 3298 3427
3042 3427 3635
3795 2882 1841
3795 2866 1809
3795 2882 1857
3843 2962 2017
3859 3074 2258
3427 3234 2946
3394 3346 3218
3314 3394 3362
3378 3507 3555
2370 929 304
2386 945 320
2370 961 352
2082 977 592
1681 1057 1057
1313 1281 1521
1329 1409 1761
1393 1425 1873
1537 1553 2017
2386 945 320
2434 977 352
2370 977 368
2114 993 624
1729 1057 1025
1313 1233 1489
1313 1393 1761
1409 1441 1889
1569 1569 2050
2466 1025 384
2450 1025 384
2434 1057 448
2242 1073 672
1777 1121 1105
1409 1377 1617
1377 1457 1809
1425 1457 1905
1601 1601 2082
2674 1297 608
2690 1313 624
2626 1313 656
2402 1361 945
2050 1457 1425
1633 1681 1889
1633 1713 2050
1761 1809 2210
1873 1873 2306
3010 1457 336
3026 1473 368
3042 1489 368
2946 1761 1041
2434 1953 1745
2050 2162 2242
2098 2226 2418
2274 2370 2674
2370 2498 2898
3394 2017 753
3394 2033 769
3378 2017 753
3427 2114 881
3491 2242 1217
2466 2770 2786
2514 2850 3010
2642 2946 3234
2818 3122 3459
3651 2418 1185
3619 2386 1137
3635 2402 1185
3683 2498 1329
3763 2690 1649
3250 2978 2722
2770 3122 3202
2866 3250 3443
3042 3394 3651
3779 2754 1633
3747 2722 1601
3779 2786 1665
3843 2914 1889
3875 2994 2066
3843 3186 2530
3378 3282 3122
3266 3443 3523
3250 3539 3699
3875 3010 1969
3875 3010 1969
3875 3010 2001
3907 3090 2146
3955 3186 2322
3971 3330 2594
3715 3378 3010
3587 3523 3459
3555 3571 3587
2706 1153 384
2690 1153 384
2658 1169 448
2434 1169 656
1985 1201 1105
1649 1377 1537
1521 1569 1905
1553 1601 2001
1665 1665 2098
2722 1169 400
2706 1153 384
2706 1217 480
2482 1217 721
2098 1233 1073
1649 1377 1521
1505 1553 1889
1569 1601 2001
1665 1649 2098
2770 1233 448
2802 1297 496
2770 1281 512
2482 1233 737
2114 1297 1153
1697 1441 1601
1585 1649 1969
1649 1697 2082
1745 1745 2178
2866 1441 656
2898 1473 672
2898 1505 753
2674 1585 1073
2322 1585 1425
1905 1777 1889
1809 1905 2146
1873 1937 2258
1985 2017 2370
3154 1601 416
3170 1633 432
3186 1633 432
3186 1905 1073
2706 2098 1793
2434 2258 2226
2210 2322 2482
2306 2402 2658
2370 2466 2786
3475 2114 833
3491 2146 865
3491 2146 865
3555 2242 993
3619 2370 1185
3058 2690 2466
2546 2802 2882
2690 2946 3170
2882 3138 3427
3731 2546 1329
3715 2530 1313
3699 2514 1297
3731 2626 1457
3779 2754 1697
3827 2914 2033
3683 3154 2690
3298 3250 3154
3250 3523 3747
3859 2898 1793
3843 2866 1761
3843 2898 1809
3859 2978 1953
3907 3090 2178
3939 3202 2466
3923 3314 2738
3651 3427 3218
3475 3587 3683
3939 3106 2098
3939 3122 2130
3939 3138 2130
3955 3202 2290
3971 3314 2514
4003 3443 2770
3987 3459 2882
3811 3507 3218
3683 3603 3555
2914 1329 432
2914 1329 432
2914 1361 480
2658 1345 721
2290 1377 1121
1937 1457 1537
1729 1761 2017
1729 1761 2114
1841 1841 2226
2914 1329 432
2930 1345 448
2898 1345 464
2690 1377 737
2338 1441 1185
1921 1473 1553
1681 1729 1985
1729 1761 2114
1841 1841 2226
2962 1393 496
2962 1393 496
2946 1409 528
2722 1441 833
2370 1489 1233
2001 1553 1617
1729 1777 2017
1793 1841 2162
1873 1873 2242
3058 1569 689
3090 1601 737
3042 1601 769
2882 1697 1105
2546 1793 1521
2178 1873 1889
1953 2033 2242
2050 2098 2370
2098 2130 2434
3266 1745 512
3266 1745 512
3250 1729 496
3346 1937 833
2898 2242 1873
2642 2338 2226
2290 2418 2530
2354 2482 2706
2434 2578 2850
3555 2226 897
3555 2226 897
3555 2210 897
3603 2322 1041
3683 2434 1249
3394 2802 2386
2914 2834 2738
2706 2930 3122
2914 3154 3427
3779 2626 1409
3747 2610 1393
3747 2610 1409
3747 2690 1553
3811 2834 1777
3875 2962 2098
3907 3058 2370
3587 3218 2930
3346 3539 3747
3923 3010 1985
3923 3010 1985
3891 2994 1969
3907 3058 2114
3923 3154 2306
3955 3266 2514
3955 3330 2690
3891 3410 2978
3619 3603 3635
3971 3218 2274
3971 3202 2258
3971 3234 2306
3971 3298 2418
3987 3427 2706
3987 3491 2882
3987 3523 3010
3987 3587 3186
3811 3667 3539
3042 1425 496
3042 1441 496
3042 1457 544
2834 1457 785
2530 1601 1249
2194 1601 1585
1841 1889 2066
1777 1793 2114
1889 1873 2242
3026 1409 480
3026 1409 480
3026 1425 496
2834 1489 849
2530 1585 1249
2178 1585 1569
1873 1857 2017
1793 1841 2146
1921 1905 2258
3074 1473 544
3090 1489 576
3058 1457 544
2882 1521 865
2594 1649 1313
2258 1681 1617
1873 1905 2082
1873 1889 2194
1937 1937 2290
3202 1681 769
3202 1681 801
3170 1681 833
2994 1809 1169
2706 1937 1569
2386 1985 1889
2114 2178 2338
2162 2194 2434
2146 2178 2466
3314 1793 528
3314 1793 528
3330 1809 560
3427 2017 833
3122 2370 1953
2802 2402 2242
2450 2546 2610
2418 2578 2770
2498 2658 2930
3587 2258 929
3603 2274 945
3603 2290 961
3667 2402 1137
3715 2498 1329
3539 2866 2370
3250 2898 2690
2802 3042 3202
2914 3154 3410
3811 2706 1505
3811 2722 1537
3779 2690 1489
3795 2786 1649
3843 2898 1873
3875 2994 2130
3907 3074 2338
3811 3234 2770
3443 3539 3651
3939 3042 2001
3955 3058 2033
3923 3026 2001
3923 3090 2146
3955 3234 2386
3971 3314 2578
3987 3394 2770
3987 3443 2898
3715 3587 3555
4003 3298 2370
4003 3298 2370
4003 3314 2418
4019 3410 2578
4003 3475 2818
4003 3555 3010
3955 3587 3186
3971 3619 3314
3875 3683 3539
