其他预设/【236】赛博朋克风调色预设/【后期菌】视频调色预设/3DL/Tokyo 09_S.3dl
# LUT by SparkleStock. Enhanced with VOXCOLOR algorithms.
0 64 128 192 256 320 384 448 512 576 640 704 768 832 896 960 1023
352 400 448
368 416 464
352 400 448
368 416 464
352 400 464
336 448 528
256 480 608
256 592 801
208 689 945
256 849 1137
256 929 1265
288 1121 1473
320 1265 1633
320 1377 1745
352 1521 2001
368 1601 2098
432 1697 2210
368 416 464
368 416 464
368 416 464
352 400 464
352 416 464
320 432 512
256 480 608
256 592 785
208 689 945
240 833 1121
256 961 1297
272 1089 1425
288 1249 1585
320 1377 1777
352 1505 1953
368 1601 2098
400 1665 2162
368 416 464
352 400 448
352 400 448
368 432 480
368 432 480
320 432 512
272 496 640
256 592 801
208 672 929
224 801 1089
256 929 1249
288 1105 1441
288 1249 1585
320 1377 1777
352 1521 2001
368 1601 2098
400 1665 2178
368 416 464
352 400 448
368 416 464
368 416 464
368 416 480
336 448 528
272 480 608
256 592 817
208 672 929
256 833 1121
256 929 1265
272 1089 1425
288 1249 1585
320 1377 1745
352 1505 1969
416 1633 2146
432 1697 2210
368 416 464
384 432 480
368 416 464
368 416 464
352 416 480
336 496 592
272 496 624
256 608 817
224 753 1009
256 865 1169
272 1009 1329
304 1169 1521
336 1313 1665
352 1409 1825
416 1585 2050
384 1617 2146
432 1713 2274
352 464 528
352 448 512
368 480 560
352 480 576
352 496 592
304 496 608
272 592 753
256 689 929
272 833 1089
304 993 1265
304 1105 1409
320 1281 1601
368 1441 1825
400 1537 1969
480 1665 2146
512 1777 2258
496 1841 2322
336 512 576
352 512 592
352 528 624
336 528 608
352 544 640
320 592 705
288 705 865
320 833 1041
336 977 1233
384 1169 1457
432 1313 1617
448 1505 1857
576 1681 2098
592 1745 2194
656 1905 2322
672 2017 2418
705 2130 2594
400 656 753
416 705 785
416 672 769
416 689 801
432 721 833
416 753 881
416 833 993
448 993 1169
512 1233 1473
592 1409 1649
672 1585 1921
769 1777 2162
833 1921 2322
929 2082 2498
1089 2322 2642
1153 2418 2722
1169 2498 2802
560 833 929
592 881 961
608 897 977
592 929 977
560 913 977
592 993 1073
640 1089 1217
833 1409 1569
849 1521 1729
1089 1809 2082
1265 2082 2354
1345 2274 2530
1489 2498 2706
1537 2626 2802
1585 2722 2866
1617 2770 2930
1681 2834 2962
929 1217 1265
929 1217 1265
929 1233 1265
929 1249 1249
1025 1329 1393
1009 1345 1425
1105 1537 1601
1281 1729 1857
1473 2066 2194
1553 2258 2402
1665 2466 2610
1825 2690 2802
1889 2818 2882
1905 2866 2946
2130 2978 3058
2146 2994 3058
2306 3058 3106
1473 1713 1729
1489 1729 1745
1569 1809 1825
1537 1793 1809
1537 1841 1825
1617 1937 1953
1729 2130 2178
1841 2322 2354
1953 2466 2514
2162 2706 2738
2258 2866 2866
2306 2946 2962
2466 3010 3042
2514 3058 3058
2626 3106 3106
2706 3122 3154
2802 3170 3170
1937 2162 2050
2001 2162 2098
2098 2242 2178
2066 2194 2146
2050 2258 2146
2130 2386 2306
2178 2514 2466
2242 2626 2578
2402 2754 2722
2466 2866 2834
2626 3010 2978
2658 3058 3010
2658 3074 3058
2866 3122 3106
2898 3170 3170
3042 3202 3202
3010 3218 3218
2722 2690 2530
2706 2658 2514
2738 2690 2530
2706 2658 2514
2594 2658 2466
2642 2722 2594
2610 2770 2642
2642 2866 2754
2770 2978 2882
2834 3042 2962
2946 3106 3058
2898 3154 3074
3042 3186 3154
3106 3202 3170
3186 3218 3186
3234 3234 3202
3298 3282 3218
3090 2930 2706
3154 2962 2738
3090 2930 2706
3090 2930 2706
3106 2946 2738
3042 2978 2818
2850 2978 2802
2994 3042 2930
3058 3090 2994
2962 3090 2994
3106 3122 3058
3106 3186 3106
3202 3186 3154
3202 3202 3154
3298 3234 3186
3330 3266 3202
3282 3282 3218
3330 3106 2818
3330 3106 2834
3330 3106 2818
3330 3090 2818
3346 3106 2850
3346 3074 2930
3282 3122 2994
3186 3122 2978
3170 3122 3010
3202 3170 3058
3170 3154 3058
3314 3202 3122
3266 3218 3170
3330 3234 3170
3298 3266 3186
3298 3266 3218
3410 3282 3202
3539 3170 2962
3443 3186 2882
3523 3170 2962
3523 3170 2962
3539 3186 2994
3507 3186 3058
3394 3170 3042
3330 3202 3042
3378 3234 3090
3427 3218 3122
3410 3218 3122
3410 3218 3154
3410 3266 3170
3427 3266 3186
3443 3282 3202
3378 3298 3218
3394 3314 3218
3555 3202 3042
3571 3218 3058
3571 3218 3058
3571 3218 3058
3571 3218 3074
3539 3218 3090
3459 3202 3074
3491 3234 3122
3491 3234 3122
3459 3234 3154
3491 3266 3170
3491 3282 3186
3507 3298 3186
3459 3282 3170
3491 3298 3202
3459 3282 3186
3507 3314 3218
368 416 464
352 400 448
368 416 464
368 416 480
352 400 464
336 448 528
272 480 608
240 576 769
208 689 945
256 849 1153
256 945 1281
288 1121 1457
304 1249 1585
336 1393 1777
352 1505 1953
352 1585 2082
432 1697 2210
352 416 464
352 400 448
368 416 464
352 416 464
352 400 464
320 432 512
272 496 624
256 608 817
208 689 945
240 817 1089
256 929 1265
288 1105 1441
288 1249 1585
336 1393 1777
352 1521 2001
368 1601 2098
400 1665 2178
368 416 464
352 400 448
352 416 464
352 416 464
368 416 464
320 432 512
272 496 640
256 592 785
224 705 961
256 849 1137
256 945 1281
272 1089 1425
304 1265 1617
336 1393 1777
336 1505 1953
368 1601 2098
400 1665 2162
368 416 464
368 416 464
368 416 464
368 416 464
352 416 464
336 432 528
272 496 640
256 608 817
208 672 929
256 849 1153
256 961 1281
272 1089 1409
288 1249 1585
320 1393 1793
368 1537 2001
352 1585 2082
416 1665 2178
368 416 464
384 416 480
368 416 464
368 432 480
352 432 512
352 496 592
288 512 672
256 608 817
240 753 1009
256 865 1169
272 1009 1345
288 1153 1505
304 1281 1633
352 1409 1825
400 1585 2050
400 1617 2146
432 1681 2258
352 464 528
352 480 560
352 464 544
352 464 544
336 464 560
288 496 624
272 592 769
256 672 913
256 785 1057
304 993 1265
304 1105 1409
304 1249 1585
352 1425 1825
416 1553 2001
464 1665 2130
544 1809 2274
512 1841 2322
352 544 608
352 512 592
352 512 608
336 528 608
352 544 640
336 608 753
288 672 849
288 801 1009
320 961 1217
416 1169 1473
432 1345 1665
432 1457 1809
560 1665 2098
672 1841 2274
656 1905 2322
672 2017 2418
769 2162 2610
416 656 753
416 672 753
416 672 769
384 656 753
432 705 833
400 737 865
416 833 993
432 993 1169
512 1217 1457
592 1409 1649
721 1617 1953
705 1697 2098
833 1921 2322
1009 2146 2514
1009 2242 2578
1153 2418 2722
1169 2498 2802
560 833 929
608 897 977
608 897 977
544 849 929
592 929 1009
592 993 1073
672 1089 1233
769 1329 1505
897 1537 1745
1121 1825 2082
1201 2001 2274
1345 2274 2514
1425 2434 2658
1537 2626 2802
1585 2738 2882
1601 2754 2898
1697 2866 2978
929 1233 1265
929 1217 1249
1009 1281 1329
929 1233 1249
945 1249 1313
1009 1361 1441
1169 1585 1649
1281 1729 1857
1473 2050 2178
1585 2306 2434
1665 2482 2610
1841 2690 2802
1857 2802 2882
1921 2866 2946
2033 2946 3010
2098 2978 3058
2370 3074 3122
1521 1777 1793
1473 1713 1729
1473 1713 1729
1537 1793 1809
1489 1793 1777
1537 1841 1889
1665 2066 2130
1809 2290 2322
1969 2498 2546
2066 2642 2706
2210 2834 2850
2290 2930 2962
2370 2978 3010
2578 3074 3090
2626 3106 3106
2706 3154 3170
2818 3186 3186
1953 2146 2050
2130 2258 2178
2082 2210 2162
2098 2258 2194
2050 2242 2146
2066 2322 2258
2098 2434 2386
2210 2626 2578
2354 2722 2690
2514 2898 2866
2578 2994 2946
2690 3058 3042
2738 3090 3074
2818 3106 3090
2882 3170 3170
3042 3218 3202
3074 3234 3234
2738 2690 2530
2738 2690 2530
2722 2690 2530
2706 2658 2514
2610 2658 2482
2514 2610 2498
2594 2770 2642
2658 2866 2754
2770 2978 2866
2834 3058 2962
2946 3106 3058
2882 3122 3074
2994 3170 3122
3090 3186 3154
3170 3202 3170
3234 3234 3186
3266 3266 3202
3154 2962 2738
3090 2898 2706
3090 2898 2706
3154 2962 2754
3170 2994 2802
2962 2946 2754
2930 3010 2834
3042 3074 2946
3010 3074 2962
2946 3090 2994
3074 3122 3058
3074 3170 3090
3202 3186 3154
3218 3202 3170
3282 3234 3186
3330 3266 3202
3282 3282 3234
3346 3106 2834
3330 3090 2802
3330 3106 2834
3330 3106 2834
3346 3106 2850
3378 3090 2946
3282 3122 2994
3202 3122 2978
3170 3154 3010
3186 3170 3058
3170 3170 3058
3298 3186 3106
3234 3202 3122
3314 3218 3170
3266 3234 3186
3314 3282 3218
3427 3298 3218
3523 3170 2946
3459 3186 2882
3523 3170 2962
3523 3170 2962
3523 3170 2962
3507 3186 3042
3394 3170 3042
3314 3202 3010
3330 3218 3074
3427 3218 3122
3427 3218 3154
3410 3234 3154
3410 3234 3170
3410 3234 3170
3443 3282 3202
3346 3298 3202
3394 3314 3218
3571 3218 3058
3571 3218 3058
3571 3218 3058
3571 3218 3042
3571 3234 3074
3539 3202 3074
3507 3218 3106
3491 3234 3122
3491 3234 3122
3491 3266 3170
3491 3266 3170
3459 3266 3170
3491 3282 3186
3443 3266 3170
3443 3282 3186
3491 3298 3202
3491 3298 3202
352 416 464
368 416 464
368 416 464
352 400 464
368 416 464
336 432 512
256 480 608
240 592 785
192 672 929
240 833 1121
256 929 1249
288 1137 1489
320 1265 1633
336 1393 1777
352 1521 2001
368 1601 2098
432 1697 2210
352 416 464
352 416 464
352 416 464
352 400 448
368 432 480
336 448 528
272 496 624
240 592 785
224 721 977
240 817 1089
256 929 1265
272 1089 1409
288 1249 1585
304 1361 1745
352 1521 2001
384 1617 2098
432 1697 2210
368 416 464
352 416 464
368 416 464
352 416 464
352 400 464
320 432 512
272 480 608
256 592 801
208 689 945
224 801 1089
256 929 1265
288 1121 1457
288 1249 1585
336 1393 1777
336 1489 1937
368 1601 2098
400 1665 2178
368 416 464
368 416 480
368 416 480
368 416 464
368 432 496
336 448 544
272 480 624
256 592 817
208 672 929
256 849 1153
256 929 1249
272 1089 1425
288 1249 1585
352 1409 1809
368 1553 2017
352 1585 2082
432 1697 2210
384 432 480
384 432 480
368 432 464
368 432 464
352 432 512
336 496 592
272 512 672
256 640 849
240 753 1009
256 865 1169
256 993 1329
288 1153 1505
304 1281 1633
352 1409 1809
416 1585 2050
416 1617 2162
448 1713 2274
352 480 560
352 464 528
352 480 544
352 512 560
368 512 592
336 560 672
272 608 785
256 689 929
256 785 1057
288 961 1249
320 1153 1473
304 1249 1585
352 1425 1825
432 1585 2033
464 1649 2098
544 1809 2274
560 1921 2370
352 512 592
352 512 592
352 544 624
352 560 624
352 592 672
352 656 753
272 672 833
320 833 1073
352 1009 1265
368 1153 1441
400 1297 1617
432 1489 1857
512 1633 2050
672 1841 2274
689 1937 2370
656 2001 2418
785 2194 2626
416 672 769
416 672 753
416 672 769
400 689 769
416 721 817
432 801 913
384 833 961
448 1009 1169
528 1249 1489
656 1441 1697
672 1569 1905
753 1729 2146
865 1937 2354
1009 2146 2530
1057 2290 2626
1153 2418 2722
1169 2498 2802
592 881 961
576 865 961
592 881 977
576 881 961
592 929 1009
608 1009 1089
656 1089 1233
817 1377 1537
897 1553 1745
1057 1777 2050
1249 2050 2306
1345 2274 2530
1473 2482 2690
1441 2546 2754
1521 2658 2834
1617 2770 2930
1681 2834 2962
929 1217 1265
993 1281 1329
993 1281 1329
993 1313 1345
1025 1329 1377
1057 1409 1473
1057 1505 1585
1281 1745 1857
1425 2001 2146
1537 2242 2386
1697 2498 2642
1825 2658 2770
1857 2818 2882
1921 2866 2946
2130 2978 3042
2146 2978 3058
2306 3074 3122
1473 1713 1729
1489 1713 1745
1473 1713 1729
1473 1713 1729
1489 1793 1777
1537 1841 1889
1665 2066 2130
1697 2210 2274
1921 2434 2514
2162 2706 2738
2210 2834 2850
2258 2898 2930
2418 2994 3042
2578 3074 3090
2626 3106 3106
2706 3122 3154
2802 3170 3170
2082 2258 2130
2001 2146 2098
2130 2258 2178
2130 2258 2194
2066 2258 2146
2082 2322 2258
2130 2434 2402
2178 2578 2530
2386 2754 2706
2514 2930 2866
2626 3010 2978
2690 3058 3010
2690 3074 3058
2866 3122 3106
2882 3154 3170
3042 3202 3202
3090 3234 3234
2722 2690 2530
2658 2642 2498
2738 2690 2530
2706 2658 2514
2610 2658 2482
2514 2610 2498
2626 2818 2690
2706 2882 2770
2738 2962 2866
2818 3042 2962
2898 3090 3042
2930 3154 3074
2994 3170 3122
3090 3186 3154
3170 3218 3186
3234 3234 3202
3282 3266 3202
3154 2962 2738
3090 2898 2706
3106 2930 2722
3106 2946 2722
3122 2962 2754
2978 2946 2770
2946 3010 2834
3042 3058 2930
3042 3090 2978
3074 3122 3042
3154 3154 3074
3090 3170 3090
3218 3202 3154
3234 3218 3170
3266 3218 3170
3330 3266 3202
3282 3282 3234
3330 3106 2818
3330 3106 2834
3330 3106 2834
3330 3106 2834
3346 3106 2850
3378 3090 2946
3298 3122 2994
3202 3154 2994
3186 3154 3010
3202 3170 3058
3186 3170 3074
3282 3186 3106
3234 3202 3154
3314 3218 3170
3298 3266 3186
3298 3266 3202
3410 3282 3202
3539 3170 2962
3459 3186 2882
3523 3170 2946
3539 3170 2962
3539 3186 2978
3507 3186 3042
3427 3186 3058
3314 3202 3010
3378 3234 3090
3410 3202 3106
3443 3234 3154
3410 3218 3154
3378 3218 3122
3410 3234 3170
3443 3282 3186
3346 3298 3202
3378 3298 3218
3571 3218 3058
3571 3218 3042
3555 3202 3042
3571 3218 3058
3571 3218 3058
3539 3202 3074
3507 3218 3090
3491 3218 3106
3491 3266 3154
3491 3234 3154
3491 3266 3170
3459 3266 3170
3459 3282 3186
3459 3282 3186
3459 3282 3202
3491 3298 3202
3491 3298 3202
352 400 464
384 416 464
368 432 480
368 432 480
368 432 480
336 448 528
288 512 656
256 592 785
224 705 961
240 817 1105
256 929 1265
272 1105 1441
304 1249 1601
336 1393 1777
336 1505 1953
352 1585 2082
400 1665 2162
368 432 480
368 416 464
352 400 464
352 400 464
384 416 496
352 432 544
272 480 624
256 608 817
224 721 977
256 865 1153
256 929 1265
288 1105 1441
304 1265 1617
304 1361 1745
352 1521 2001
352 1585 2082
