其他预设/【236】赛博朋克风调色预设/【后期菌】视频调色预设/3DL/Tokyo 02.3dl
# LUT by SparkleStock. Enhanced with VOXCOLOR algorithms.
0 256 512 768 1023
336 160 368
320 176 416
160 256 977
224 256 1649
416 256 1985
336 176 416
304 192 448
144 304 1009
224 288 1681
400 288 2017
32 672 785
32 689 849
0 833 1377
96 1009 2082
240 1089 2386
785 2434 1985
721 2386 1969
192 2050 2162
224 2033 2354
512 2258 2610
3106 3314 2498
3122 3314 2546
1985 3026 2866
1121 2818 2818
833 2706 2818
368 160 384
368 176 416
176 240 977
224 240 1633
432 256 1985
432 192 400
416 192 432
176 320 1041
224 304 1713
432 304 2050
80 689 769
80 753 897
16 929 1441
112 1009 2082
256 1121 2402
1425 2674 1969
1025 2546 2146
192 2066 2178
240 2066 2370
576 2290 2642
3250 3234 2242
3202 3282 2386
2242 3122 2946
961 2754 2770
1025 2754 2850
2050 640 769
2017 640 801
1201 304 1057
1121 224 1601
1265 208 1985
2130 689 817
2178 753 897
1313 368 1185
1201 240 1665
1361 224 2033
2802 1457 961
2866 1521 1009
1409 1409 2194
432 1537 2434
1233 1953 2850
3427 2386 464
3410 2386 496
2866 3282 2978
1377 2690 2802
2482 3042 3186
3619 3058 1377
3619 3058 1393
3683 3378 2466
3330 3555 3346
3282 3539 3443
3010 1169 1233
3026 1185 1281
2738 833 1537
1921 528 1953
2082 448 2194
3058 1217 1281
3074 1249 1329
2802 945 1617
2017 592 2017
2178 560 2258
3186 1713 977
3218 1745 993
3394 2418 2594
2914 2178 2770
3042 2290 3010
3603 2594 448
3571 2578 416
3667 2850 1201
3763 3443 3138
3619 3555 3571
3683 3090 1233
3683 3122 1297
3763 3378 2322
3811 3587 3042
3747 3683 3491
3202 1473 1425
3202 1489 1457
3106 1297 1841
2514 785 2162
2482 672 2322
3234 1521 1457
3202 1489 1441
3138 1409 1905
2578 865 2194
2530 801 2370
3314 1809 737
3314 1809 753
3587 2754 2754
3410 2642 3010
3459 2690 3186
3651 2642 432
3619 2626 416
3683 2914 1233
3811 3266 2658
3827 3555 3523
3763 3250 1633
3763 3266 1697
3811 3475 2610
3859 3619 3154
3875 3683 3475
