其他预设/【236】赛博朋克风调色预设/【后期菌】视频调色预设/3DL/Tokyo 04.3dl
# LUT by SparkleStock. Enhanced with VOXCOLOR algorithms.
0 128 256 384 512 640 768 896 1023
368 224 144
384 240 144
352 240 144
256 304 256
160 464 416
80 656 705
0 817 993
16 1041 1377
16 1265 1745
400 240 144
368 224 144
368 256 160
256 320 256
160 464 416
80 624 689
0 769 961
0 1041 1361
0 1217 1665
368 240 144
384 240 144
320 240 160
240 320 256
144 528 464
64 737 801
0 865 1057
16 1137 1473
16 1313 1793
288 384 240
304 416 256
288 416 272
208 560 416
64 833 769
0 1137 1265
16 1377 1713
16 1505 2001
64 1665 2242
480 705 384
512 753 432
448 753 432
288 929 737
80 1505 1521
80 1889 2178
144 2082 2498
160 2242 2706
176 2322 2818
1105 1457 977
1137 1521 1057
1073 1521 1073
833 1777 1489
304 2098 2130
208 2530 2754
224 2626 2914
240 2674 3074
256 2754 3202
2274 2194 1441
2290 2210 1441
2226 2194 1473
1649 2370 2082
993 2562 2530
256 2770 2882
256 2898 3122
256 2946 3234
272 3010 3378
2994 2562 1665
2994 2546 1633
2994 2578 1681
2530 2898 2594
2098 2946 2754
1441 2914 2866
512 3026 3122
304 3122 3330
256 3170 3459
3475 2802 1873
3475 2834 1921
3475 2850 1953
2946 3154 2754
2754 3234 2962
2386 3218 3042
1905 3234 3170
849 3234 3330
352 3250 3427
384 240 144
400 240 160
368 240 160
256 304 256
160 448 416
80 624 672
0 817 993
16 1041 1377
16 1265 1745
400 240 144
400 240 144
352 240 144
256 320 256
160 464 432
80 656 705
0 769 961
0 1025 1345
0 1217 1665
384 256 160
368 240 144
352 256 160
256 352 272
160 528 464
64 705 753
0 833 1009
16 1137 1473
16 1313 1793
288 400 240
288 416 256
272 416 272
208 544 400
64 865 817
0 1121 1265
0 1329 1633
32 1553 2033
80 1713 2306
512 737 400
480 737 416
480 769 448
304 961 721
96 1553 1553
80 1873 2130
128 2066 2482
144 2194 2642
176 2322 2818
1105 1457 993
1105 1457 993
1041 1473 1041
817 1745 1457
272 2082 2130
160 2498 2706
208 2594 2898
240 2674 3074
256 2754 3218
2274 2194 1441
2274 2210 1441
2226 2210 1473
1633 2386 2114
993 2530 2466
256 2754 2866
256 2866 3074
256 2946 3234
272 2994 3346
2994 2562 1665
2994 2562 1665
2994 2578 1681
2530 2914 2626
2114 2946 2754
1489 2946 2882
480 2994 3122
304 3138 3346
256 3170 3459
3475 2834 1921
3443 2802 1873
3475 2850 1953
2978 3186 2786
2786 3234 2962
2306 3186 3026
1553 3202 3170
737 3234 3330
352 3250 3427
416 240 128
400 240 128
400 256 160
256 320 272
160 448 416
80 672 737
0 817 993
0 1057 1377
16 1265 1745
400 240 144
416 256 160
416 256 160
288 352 272
176 480 448
80 672 737
0 849 1025
16 1057 1425
16 1265 1745
448 256 144
464 272 160
432 256 160
272 368 304
176 544 512
64 737 817
0 929 1153
16 1169 1553
16 1345 1857
368 432 272
352 432 288
320 448 304
256 576 448
80 881 849
0 1137 1281
16 1377 1729
64 1569 2050
80 1681 2290
544 672 352
576 689 368
528 817 480
400 1057 833
112 1617 1633
96 1905 2194
144 2098 2514
160 2274 2722
208 2370 2866
1441 1505 881
1441 1505 881
1137 1553 1121
801 1793 1521
288 2178 2242
176 2514 2738
224 2642 2946
256 2738 3122
256 2770 3234
2466 2194 1313
2386 2066 1201
2338 2322 1633
1713 2418 2162
1105 2578 2530
240 2754 2866
256 2898 3122
256 2962 3250
272 3026 3394
3122 2530 1489
3138 2530 1457
3026 2578 1665
2610 2930 2594
2306 3010 2818
1569 2962 2882
592 3010 3106
384 3138 3346
272 3186 3475
3587 2738 1601
3619 2754 1633
3587 2802 1777
3090 3138 2690
2818 3266 2978
2530 3250 3058
1857 3218 3154
1041 3250 3330
400 3266 3443
721 256 112
721 272 112
705 304 144
528 352 240
240 448 400
128 656 689
0 1057 1313
16 1265 1681
32 1377 1921
721 288 128
737 272 128
721 320 160
512 368 256
256 480 432
128 656 705
0 1073 1345
32 1281 1713
32 1377 1921
833 320 160
849 352 160
769 320 160
592 416 288
256 528 464
128 753 817
0 1153 1441
16 1313 1745
32 1441 2001
1409 512 160
1329 512 176
1329 528 224
865 560 384
96 1073 1105
32 1425 1649
32 1569 2001
96 1761 2306
96 1857 2450
1553 769 176
1569 801 176
1361 833 272
560 1249 1009
160 1857 1921
128 2082 2402
160 2274 2674
208 2386 2834
224 2466 2994
3106 1505 64
3090 1489 64
2882 1521 160
1169 2098 1857
368 2338 2402
208 2642 2850
240 2690 2994
256 2786 3170
272 2834 3298
3507 1969 112
3555 2033 128
3459 2098 320
2514 2642 2226
1649 2754 2658
576 2818 2882
368 2946 3122
288 3058 3346
272 3074 3443
3827 2402 368
3795 2354 320
3747 2450 689
3475 2914 2210
2642 3122 2882
2226 3122 2994
1153 3122 3122
432 3170 3346
272 3234 3475
3939 2722 1073
3939 2706 1073
3923 2722 1185
3891 2946 1889
3026 3346 3026
2850 3346 3138
2498 3378 3298
1569 3346 3362
977 3346 3475
1809 480 80
1809 512 96
1777 528 112
1329 480 224
721 560 448
208 817 881
96 961 1153
32 1169 1521
64 1297 1793
1825 528 112
1857 544 128
1809 544 128
1361 528 256
721 560 464
208 801 849
96 961 1153
32 1137 1473
64 1313 1809
1921 560 96
2001 592 128
2001 608 160
1505 608 288
769 672 592
224 849 913
96 1041 1297
64 1217 1617
64 1345 1873
2482 817 128
2530 865 160
2434 849 208
2082 833 320
1265 897 753
256 1201 1361
80 1489 1889
144 1873 2434
160 2050 2642
3074 1201 16
3074 1201 16
3122 1249 32
2898 1345 320
1105 1633 1585
160 2274 2578
208 2450 2850
256 2578 3042
256 2658 3186
3507 1729 32
3523 1745 32
3523 1745 32
3619 1905 96
1121 2626 2610
288 2786 2978
256 2802 3106
288 2914 3266
288 2962 3394
3811 2178 96
3811 2178 96
3811 2178 112
3875 2306 240
2994 3106 2802
1633 3010 2994
769 3090 3218
304 3154 3410
304 3202 3523
4003 2594 608
3971 2546 528
4003 2626 689
4003 2706 1105
3747 3234 2642
2866 3330 3138
2498 3362 3298
1505 3346 3443
705 3346 3571
4051 2946 1633
4035 2930 1585
4035 2946 1633
4051 3090 2001
4003 3234 2482
3314 3507 3218
3122 3555 3378
2850 3555 3475
2546 3587 3603
2754 817 16
2754 817 16
2738 833 64
2354 769 208
1681 801 528
576 897 977
160 1137 1377
112 1313 1729
112 1489 2050
2754 833 32
2770 849 32
2754 849 80
2322 753 176
1729 801 512
656 865 897
160 1121 1377
128 1345 1761
112 1505 2066
2834 881 32
2786 849 32
2802 897 96
2514 881 240
1825 865 560
737 993 1057
176 1185 1473
128 1345 1745
128 1569 2114
3042 1105 96
3042 1105 96
3010 1073 96
2754 1105 304
2242 1249 929
881 1329 1441
224 1585 1921
176 1809 2290
160 1857 2434
3346 1409 16
3362 1425 16
3394 1457 32
3314 1553 224
2754 1857 1441
1889 2066 2114
304 2274 2594
272 2466 2866
304 2626 3122
3763 1953 64
3763 1953 64
3763 1937 32
3827 2050 80
3891 2194 272
1873 2866 2930
288 2914 3170
304 3010 3346
320 3090 3475
4019 2402 208
3987 2386 176
4019 2402 208
4035 2514 448
4051 2738 1265
3330 3298 3026
1889 3250 3282
448 3234 3459
448 3282 3571
4067 2770 1041
4051 2754 993
4067 2818 1153
4095 2978 1665
4067 3106 2098
3939 3394 2850
3250 3491 3314
2690 3539 3539
1729 3491 3603
4095 3090 1873
4095 3090 1873
4095 3106 1921
4095 3218 2226
4095 3330 2498
4051 3491 2834
3715 3619 3298
3443 3699 3555
3266 3699 3619
3106 993 16
3090 993 16
3074 1009 32
2866 977 128
2306 993 560
1425 1073 1057
320 1329 1601
144 1489 1921
128 1601 2178
3122 1009 32
3106 1009 32
3090 1025 64
2898 1009 160
2402 1025 544
1425 1057 1041
304 1297 1569
144 1505 1937
128 1601 2178
3154 1041 32
3170 1105 80
3122 1041 32
2946 1057 176
2418 1057 592
1457 1153 1137
352 1425 1713
160 1633 2082
160 1729 2290
3282 1265 64
3346 1313 80
3330 1313 96
3122 1329 320
2658 1441 977
1729 1553 1585
384 1761 2098
224 1921 2402
224 2033 2562
3539 1521 16
3571 1569 16
3587 1601 32
3619 1761 224
3186 2098 1585
2802 2434 2402
1105 2434 2674
320 2514 2866
304 2578 2994
3875 2050 32
3923 2114 80
3907 2114 80
3955 2226 112
3987 2338 256
3427 2946 2754
2578 2978 3010
833 2994 3250
384 3074 3427
4051 2530 368
4051 2530 352
4035 2514 320
4051 2642 769
4051 2818 1425
4051 3074 2226
3843 3362 2962
3234 3475 3314
1441 3427 3635
4095 2946 1457
4095 2930 1441
4067 2978 1569
4067 3074 1905
4051 3234 2354
4051 3346 2706
3987 3491 3010
3699 3635 3378
3106 3667 3667
4095 3218 2162
4095 3234 2194
4095 3234 2210
4095 3314 2418
4067 3459 2722
4067 3587 2978
4051 3603 3122
3811 3699 3427
3587 3731 3619
3330 1153 16
3330 1153 32
3314 1153 32
3138 1169 112
2674 1121 528
2066 1265 1153
849 1441 1665
272 1681 2130
176 1761 2338
3330 1153 16
3346 1169 64
3314 1137 32
3154 1185 128
2738 1185 592
2066 1265 1153
849 1377 1617
256 1681 2130
176 1761 2338
3378 1201 32
3378 1201 32
3346 1201 64
3170 1217 160
2754 1249 672
2194 1361 1265
929 1457 1713
288 1761 2226
176 1825 2402
3475 1409 64
3507 1425 80
3475 1409 96
3330 1457 304
3010 1633 1025
2402 1857 1793
689 1905 2242
352 2082 2530
256 2162 2642
3683 1665 16
3683 1665 16
3683 1665 32
3795 1793 80
3427 2290 1713
3122 2578 2514
2178 2546 2722
672 2594 2898
416 2658 3058
3955 2194 80
3955 2194 80
3939 2178 80
3971 2290 96
4035 2482 480
3763 2962 2610
3314 3106 3010
2130 3090 3234
897 3138 3459
4051 2642 576
4051 2626 544
4051 2642 656
4051 2754 1105
4051 2930 1681
4035 3106 2290
4051 3250 2690
3779 3459 3218
2994 3539 3603
4095 3106 1937
4095 3106 1937
4067 3106 1969
4051 3218 2306
4051 3330 2578
4051 3410 2770
4051 3491 2994
3939 3587 3234
3427 3699 3667
4095 3346 2450
4095 3346 2434
4095 3346 2482
4067 3427 2642
4051 3539 2882
4051 3603 3058
4051 3651 3218
4019 3699 3362
3811 3763 3619
3491 1281 16
3507 1297 16
3491 1297 32
3314 1265 112
2978 1313 592
2530 1441 1265
1217 1601 1873
400 1745 2194
240 1825 2386
3475 1265 16
3475 1265 16
3475 1265 16
3314 1297 160
2946 1297 592
2514 1425 1249
1409 1601 1825
416 1777 2242
256 1873 2402
3539 1329 16
3539 1345 32
3507 1313 16
3346 1313 144
3026 1409 705
2626 1521 1313
1313 1665 1937
400 1825 2290
256 1905 2450
3635 1489 64
3635 1505 64
3603 1505 96
3475 1601 368
3234 1777 1073
2754 1969 1825
1633 2050 2306
432 2194 2594
288 2226 2690
3763 1729 0
3763 1729 0
3779 1761 16
3891 1921 80
3587 2402 1793
3314 2658 2546
2706 2706 2786
1217 2706 2962
560 2738 3106
3987 2258 96
4003 2290 96
4003 2290 112
4035 2418 256
4051 2546 656
3891 2994 2546
3619 3186 3010
2898 3186 3234
1953 3218 3443
4067 2706 817
4067 2754 929
4051 2738 913
4051 2882 1441
4051 2994 1825
4035 3154 2402
4051 3266 2674
3987 3410 3026
3314 3587 3587
4095 3170 2114
4095 3154 2098
4067 3154 2114
4051 3250 2402
4051 3362 2658
4051 3475 2818
4051 3523 2994
4051 3587 3122
3763 3699 3587
4095 3410 2594
4095 3427 2610
4095 3459 2658
4067 3523 2802
4051 3587 2978
4051 3651 3170
4051 3699 3346
4003 3715 3443
3891 3779 3619
