其他预设/【236】赛博朋克风调色预设/【后期菌】视频调色预设/3DL/Tokyo 05_S.3dl
# LUT by SparkleStock. Enhanced with VOXCOLOR algorithms.
0 64 128 192 256 320 384 448 512 576 640 704 768 832 896 960 1023
592 240 160
608 256 176
608 240 160
608 256 176
544 240 192
464 256 256
368 288 368
352 352 480
368 432 640
432 544 817
480 576 945
656 737 1233
769 865 1425
833 897 1505
929 993 1633
993 1057 1729
1073 1137 1841
608 256 176
608 256 176
592 240 176
592 240 176
560 240 192
448 240 240
368 288 368
352 352 480
368 448 640
432 528 801
528 624 1009
624 705 1201
721 801 1377
833 897 1505
913 977 1617
993 1057 1729
1041 1089 1793
608 256 176
592 240 160
592 240 160
592 256 192
576 256 208
448 240 240
384 288 384
368 368 496
368 432 624
416 512 769
480 560 945
640 721 1217
721 801 1377
833 897 1505
913 977 1617
1009 1057 1729
1041 1089 1793
608 256 176
592 240 176
608 240 176
592 240 176
576 256 192
464 256 256
384 288 368
352 368 480
368 432 624
432 544 817
480 576 945
624 705 1217
737 801 1377
817 897 1505
913 977 1617
1025 1089 1761
1073 1137 1841
560 240 176
592 256 192
592 240 192
560 240 192
528 240 192
448 272 288
368 304 384
352 384 512
400 496 705
464 576 881
560 672 1073
705 817 1313
817 913 1489
881 961 1569
1009 1089 1729
1009 1105 1825
1105 1185 1937
496 272 272
512 272 256
528 288 272
528 304 288
512 304 288
416 304 352
384 368 464
400 480 624
448 608 849
528 672 1041
672 817 1249
833 977 1489
977 1105 1665
1025 1121 1745
1137 1217 1873
1201 1281 1953
1233 1297 1985
480 368 336
544 368 336
528 368 352
480 368 368
528 368 352
464 400 416
416 512 624
464 672 817
624 833 1121
753 977 1377
945 1153 1585
1089 1265 1793
1249 1409 1953
1265 1393 1985
1329 1441 2066
1425 1505 2130
1489 1617 2258
672 480 416
689 544 448
672 496 432
672 512 464
672 512 480
656 560 576
624 672 769
672 929 1121
961 1297 1585
1137 1441 1793
1233 1521 1937
1377 1633 2082
1441 1681 2178
1521 1745 2258
1665 1825 2338
1761 1889 2434
1793 1937 2514
897 672 592
945 705 608
945 721 656
945 785 672
913 769 672
945 881 849
913 1041 1121
1169 1537 1665
1393 1777 1953
1601 1937 2178
1729 2017 2306
1793 2050 2370
1905 2146 2498
1969 2210 2594
2017 2242 2690
2066 2274 2754
2098 2306 2802
1345 1137 977
1345 1121 977
1377 1137 977
1345 1153 977
1377 1249 1153
1361 1313 1265
1409 1569 1553
1521 1825 1857
1777 2162 2274
1841 2210 2370
1985 2322 2530
2033 2418 2658
2050 2434 2722
2082 2434 2786
2226 2530 2898
2258 2546 2962
2306 2610 3058
1889 1729 1505
1905 1729 1505
1921 1777 1569
1889 1761 1569
1905 1841 1617
1889 1873 1729
1953 2050 1953
1905 2210 2178
2033 2402 2434
2130 2530 2610
2162 2562 2706
2178 2626 2818
2258 2690 2930
2290 2674 2962
2386 2738 3090
2434 2786 3186
2482 2834 3266
2290 2050 1649
2338 2017 1681
2370 2066 1713
2338 2050 1697
2306 2098 1745
2338 2274 1985
2290 2338 2130
2210 2434 2306
2226 2546 2498
2226 2626 2674
2306 2770 2866
2338 2818 2946
2338 2850 3026
2434 2882 3106
2418 2914 3170
2482 2914 3250
2482 2930 3330
2690 2306 1873
2674 2306 1873
2706 2306 1873
2674 2306 1873
2594 2322 1873
2674 2450 2114
2546 2482 2242
2482 2578 2418
2482 2722 2610
2402 2786 2770
2402 2866 2946
2370 2914 3042
2482 2978 3138
2530 3010 3202
2546 3010 3250
2562 3026 3298
2626 3074 3410
2930 2498 2017
2962 2546 2066
2930 2498 2017
2930 2498 2017
2946 2546 2082
2882 2642 2274
2738 2722 2418
2754 2770 2562
2722 2866 2722
2498 2898 2802
2514 2930 2930
2450 2994 3074
2514 3010 3138
2530 3042 3218
2610 3106 3330
2642 3106 3362
2626 3138 3443
3106 2610 1985
3106 2610 1985
3122 2594 1953
3090 2578 1953
3122 2610 2017
3106 2738 2274
3010 2850 2514
2898 2914 2610
2850 2946 2706
2786 3026 2850
2706 3042 2946
2706 3090 3106
2626 3138 3202
2642 3138 3266
2610 3170 3346
2642 3202 3443
2738 3218 3475
3362 2674 1969
3282 2642 1873
3330 2642 1937
3330 2642 1937
3378 2706 2017
3346 2818 2242
3138 2930 2546
3074 3010 2674
3026 3074 2818
3026 3090 2930
2994 3122 3010
2914 3154 3106
2834 3202 3234
2818 3266 3346
2786 3266 3427
2738 3298 3459
2754 3298 3507
3491 2754 2017
3491 2754 2033
3523 2786 2050
3523 2786 2050
3507 2802 2066
3427 2850 2258
3218 2994 2594
3234 3058 2754
3218 3106 2866
3202 3154 2962
3170 3218 3106
3090 3234 3170
3042 3282 3282
2914 3266 3314
2946 3362 3475
2914 3362 3507
2962 3410 3555
608 256 176
592 240 160
608 256 176
592 256 192
544 240 192
464 256 256
384 288 368
352 352 480
368 448 640
448 544 817
512 608 993
656 737 1233
737 817 1377
849 929 1537
913 977 1617
961 1009 1681
1073 1137 1841
592 240 176
592 240 160
608 256 176
592 240 176
544 240 192
448 240 240
384 288 368
368 368 496
368 432 640
416 512 785
480 576 961
640 721 1217
737 801 1377
849 929 1537
913 977 1617
1009 1057 1729
1041 1089 1793
608 256 176
592 240 160
592 240 176
592 240 176
592 256 192
464 240 240
384 288 384
352 352 480
384 448 656
432 544 817
496 592 977
624 705 1217
769 849 1425
849 929 1537
897 977 1601
1009 1057 1729
1041 1089 1793
592 240 176
608 256 176
608 256 176
592 240 176
560 240 192
464 240 256
400 304 384
368 368 496
368 432 624
448 544 833
528 624 1009
624 705 1201
737 817 1377
849 929 1537
945 1009 1649
977 1041 1713
1057 1121 1809
592 256 192
592 256 192
560 240 176
592 256 192
544 256 208
464 272 288
384 320 416
352 384 512
400 512 705
448 560 865
576 672 1105
705 801 1313
785 881 1457
881 961 1569
993 1073 1713
1025 1105 1825
1089 1169 1921
496 272 272
528 288 272
496 272 272
496 272 272
496 272 272
400 304 352
400 384 480
384 464 608
432 576 801
528 672 1041
672 817 1265
817 961 1457
977 1089 1665
1041 1153 1761
1121 1201 1841
1233 1297 1969
1233 1297 1985
544 400 352
512 352 336
528 352 336
496 368 368
528 384 352
496 432 464
432 512 624
448 624 769
624 833 1105
785 1009 1409
961 1169 1617
1057 1233 1761
1233 1377 1937
1313 1441 2033
1329 1441 2050
1425 1505 2130
1521 1649 2290
689 496 416
672 512 416
672 496 432
672 480 416
672 512 464
640 544 544
656 689 769
656 913 1105
961 1297 1585
1137 1441 1793
1281 1553 1969
1329 1569 2033
1441 1681 2178
1553 1761 2274
1601 1761 2290
1761 1889 2434
1793 1937 2514
945 689 608
977 737 656
945 721 656
929 721 608
929 785 672
929 865 833
929 1041 1121
1105 1441 1585
1409 1793 1969
1601 1953 2178
1649 1937 2242
1777 2033 2370
1857 2114 2466
1969 2210 2594
2033 2258 2690
2050 2258 2722
2130 2338 2850
1377 1137 977
1345 1121 977
1393 1201 1041
1329 1153 977
1361 1201 1073
1377 1329 1265
1441 1601 1585
1521 1825 1857
1761 2146 2258
1873 2242 2402
2001 2322 2530
2050 2418 2658
2066 2434 2706
2098 2434 2786
2194 2482 2866
2242 2530 2946
2338 2642 3090
1889 1745 1553
1889 1729 1505
1889 1729 1505
1889 1761 1569
1841 1777 1553
1857 1825 1681
1937 2001 1905
1905 2194 2178
2050 2418 2450
2082 2482 2578
2130 2546 2674
2194 2626 2818
2242 2658 2898
2338 2722 3010
2370 2738 3090
2434 2786 3186
2498 2850 3282
2290 2033 1649
2386 2082 1713
2338 2050 1697
2370 2082 1761
2306 2098 1745
2354 2258 1953
2258 2290 2082
2226 2418 2306
2194 2514 2466
2258 2674 2722
2274 2722 2818
2354 2818 2962
2370 2882 3058
2418 2866 3090
2418 2898 3186
2498 2914 3250
2514 2962 3362
2706 2306 1873
2690 2306 1873
2690 2306 1873
2674 2306 1873
2626 2338 1905
2610 2386 2050
2546 2482 2242
2514 2594 2418
2482 2706 2594
2402 2786 2770
2402 2866 2946
2354 2898 3010
2450 2946 3090
2498 2978 3186
2546 3010 3250
2562 3026 3298
2610 3058 3362
2978 2530 2033
2946 2498 2001
2946 2498 2001
2962 2546 2082
2978 2578 2114
2850 2610 2242
2786 2754 2450
2802 2802 2578
2706 2834 2690
2498 2882 2770
2498 2930 2930
2450 2978 3042
2514 3010 3138
2546 3042 3234
2610 3090 3314
2642 3106 3362
2626 3138 3443
3122 2610 1985
3106 2578 1937
3106 2610 1985
3106 2610 1985
3122 2626 2017
3122 2770 2306
3010 2850 2514
2914 2914 2610
2866 2962 2722
2802 3026 2850
2722 3042 2962
2690 3074 3074
2626 3122 3170
2626 3122 3250
2594 3170 3330
2674 3218 3443
2754 3234 3475
3346 2642 1921
3298 2674 1921
3330 2642 1937
3330 2642 1937
3330 2658 1969
3330 2802 2242
3122 2914 2546
3058 2994 2658
3026 3042 2786
3042 3090 2930
3010 3154 3042
2930 3170 3138
2834 3202 3234
2786 3234 3314
2802 3282 3427
2722 3282 3443
2770 3330 3523
3491 2770 2033
3491 2770 2033
3491 2770 2033
3491 2754 2017
3523 2818 2098
3410 2850 2258
3266 3026 2626
3234 3058 2754
3218 3106 2866
3218 3186 3010
3170 3218 3106
3090 3218 3154
2994 3266 3266
2898 3250 3298
2914 3314 3410
2962 3378 3523
2946 3378 3539
592 240 176
592 240 176
608 256 176
592 240 176
592 256 192
464 240 240
368 288 368
352 352 480
368 416 608
432 528 801
480 560 929
672 753 1265
769 865 1425
833 913 1521
929 993 1633
1009 1057 1729
1073 1137 1841
592 240 176
592 240 176
592 240 176
560 240 176
592 256 192
464 256 256
384 288 368
352 352 480
384 464 656
416 528 785
496 592 961
624 705 1201
721 801 1377
801 881 1473
913 977 1617
1025 1089 1761
1073 1137 1841
608 256 176
592 240 176
608 256 176
592 240 176
544 240 192
448 240 240
384 288 368
352 368 496
368 432 640
416 512 769
496 576 961
640 721 1233
721 801 1377
849 929 1537
897 977 1601
993 1041 1713
1041 1089 1793
592 240 176
592 256 192
592 256 192
592 272 208
576 272 240
464 256 288
384 304 384
368 368 496
368 432 624
448 544 833
480 576 945
624 705 1217
737 801 1377
865 945 1553
945 1025 1649
977 1041 1713
1089 1153 1857
608 256 192
608 256 192
592 256 192
592 272 208
544 288 240
448 272 288
368 336 448
368 416 560
400 496 705
448 560 865
544 656 1057
705 801 1313
785 881 1457
881 961 1569
1009 1089 1729
1025 1105 1825
1121 1201 1953
528 288 272
496 272 272
496 288 272
528 320 288
496 336 320
448 368 400
400 416 512
384 496 640
432 576 801
512 656 1009
721 865 1313
817 961 1457
977 1089 1665
1057 1169 1777
1089 1185 1825
1233 1297 1969
1281 1361 2033
528 368 336
528 352 336
528 384 352
544 432 368
512 432 384
480 480 464
432 496 592
480 672 833
672 881 1201
753 961 1361
929 1137 1569
1089 1265 1777
1185 1345 1905
1313 1441 2033
1377 1473 2098
1393 1489 2114
1553 1665 2306
672 496 432
672 528 432
672 496 432
672 544 448
672 560 480
672 624 624
608 689 785
672 945 1137
977 1329 1617
1169 1473 1825
1233 1505 1937
1377 1601 2082
1473 1697 2194
1569 1777 2274
1649 1793 2322
1761 1889 2434
1793 1937 2514
945 705 608
961 721 640
961 721 640
945 753 640
929 785 672
961 897 865
929 1041 1121
1169 1521 1665
1425 1809 1969
1601 1937 2178
1697 1985 2274
1777 2033 2370
1889 2130 2482
1921 2162 2562
2001 2210 2642
2050 2258 2738
2098 2306 2802
1345 1121 977
1393 1185 1041
1393 1185 1041
1393 1217 1057
1377 1233 1137
1361 1345 1313
1377 1521 1505
1521 1825 1857
1761 2146 2258
1825 2194 2354
2017 2354 2562
2033 2402 2642
2066 2434 2706
2098 2434 2786
2226 2514 2882
2258 2546 2962
2306 2610 3058
1889 1729 1505
1889 1729 1505
1889 1729 1505
1889 1729 1505
1825 1761 1553
1857 1825 1681
1937 2017 1905
1857 2178 2162
2017 2386 2434
2130 2530 2610
2130 2530 2674
2162 2578 2786
2258 2674 2930
2338 2722 3010
2386 2738 3090
2418 2770 3170
2482 2834 3266
2354 2098 1681
2338 2017 1681
2386 2082 1713
2370 2098 1761
2322 2098 1745
2370 2258 1953
2274 2306 2082
2178 2386 2258
2226 2530 2498
2274 2690 2738
2306 2770 2882
2354 2818 2962
2370 2850 3042
2434 2882 3106
2418 2898 3170
2482 2914 3250
2514 2962 3362
2690 2306 1873
2674 2306 1873
2690 2306 1873
2674 2306 1873
2610 2322 1873
2610 2386 2050
2546 2498 2258
2530 2594 2418
2498 2690 2562
2370 2770 2754
2402 2850 2898
2386 2914 3042
2450 2946 3090
2514 2994 3186
2546 3010 3250
2562 3026 3298
2610 3058 3362
2978 2530 2033
2946 2498 2001
2946 2514 2033
2946 2514 2033
2962 2546 2082
2882 2626 2242
2786 2754 2450
2786 2786 2562
2706 2850 2722
2562 2914 2834
2546 2962 2962
2466 2978 3042
2514 3026 3138
2562 3074 3250
2578 3058 3298
2642 3122 3378
2626 3138 3443
3122 2610 1985
3122 2610 1985
3122 2610 2001
3122 2610 1985
3138 2610 2017
3122 2738 2274
3026 2866 2530
2930 2930 2626
2866 2962 2722
2802 3026 2866
2770 3074 2994
2690 3058 3042
2626 3138 3170
2626 3138 3250
2610 3186 3362
2642 3186 3427
2738 3218 3475
3330 2642 1937
3298 2674 1921
3346 2642 1921
3330 2642 1937
3378 2706 2017
3330 2802 2242
3154 2962 2594
3074 2994 2658
3042 3074 2818
3010 3074 2914
3042 3154 3042
2914 3154 3106
2770 3154 3170
2786 3234 3314
2786 3250 3378
2722 3282 3443
2754 3298 3507
3523 2786 2050
3491 2754 2033
3475 2754 2017
3475 2770 2033
3507 2786 2066
3410 2850 2258
3250 3026 2626
3234 3058 2722
3218 3122 2866
3202 3154 2962
3138 3218 3106
3090 3218 3154
2978 3266 3266
2914 3298 3346
2930 3346 3459
2946 3378 3523
2946 3410 3539
592 240 176
624 256 176
608 256 192
608 256 192
592 256 192
464 240 240
400 304 384
352 352 480
368 448 640
416 512 785
496 576 961
640 721 1217
737 817 1377
849 929 1537
913 977 1601
961 1009 1697
1041 1089 1793
608 256 192
608 240 176
592 240 176
592 240 192
592 256 224
496 256 272
368 288 384
368 368 496
384 464 656
448 560 833
480 576 945
640 721 1217
769 849 1425
801 881 1473
929 993 1633
993 1057 1729
