其他预设/【236】赛博朋克风调色预设/【后期菌】视频调色预设/3DL/Tokyo 06.3dl
# LUT by SparkleStock. Enhanced with VOXCOLOR algorithms.
0 256 512 768 1023
400 160 272
368 192 320
208 480 769
0 1121 2066
16 1313 2546
384 192 304
336 208 352
208 576 849
0 1169 2146
16 1345 2578
656 897 753
608 961 849
48 2001 2514
176 2242 3026
336 2370 3266
2210 2338 1841
2162 2322 1873
1297 2802 2882
1329 3074 3346
1777 3186 3587
3443 3010 1921
3459 3042 1953
2466 3218 3074
2338 3362 3346
2162 3443 3571
464 176 288
448 208 320
208 496 785
0 1073 2033
16 1313 2546
576 192 288
496 208 336
224 608 897
16 1233 2258
32 1361 2626
769 849 689
689 1057 913
64 2082 2578
192 2258 3042
448 2418 3314
2482 2354 1601
2258 2450 2033
1345 2818 2898
1393 3090 3346
1873 3218 3603
3683 2978 1569
3603 3058 1873
2530 3266 3122
2322 3346 3330
2274 3475 3587
2402 320 208
2322 336 272
1089 496 849
160 1121 2178
80 1281 2562
2450 368 224
2418 384 272
1201 672 1089
176 1185 2274
128 1329 2610
3282 1137 16
3330 1233 48
1569 2146 2610
1345 2738 3362
1793 2946 3603
3955 2290 96
3955 2290 96
2994 3250 3058
2482 3427 3523
2482 3507 3731
4051 2914 256
4051 2914 256
3971 3346 2338
3218 3635 3539
3122 3699 3683
3250 833 48
3202 817 80
2610 576 849
1057 1473 2498
1185 1553 2738
3282 881 80
3282 897 96
2706 576 865
1265 1569 2562
1377 1681 2802
3635 1393 16
3667 1441 32
3346 1937 1889
2690 2914 3266
2738 3106 3555
4095 2482 160
4051 2450 128
4051 2690 176
3763 3475 3122
3138 3683 3827
4095 3010 224
4095 3026 224
4067 3394 2146
3987 3635 3090
3635 3763 3667
3555 1137 48
3539 1153 64
3090 737 769
2130 1665 2594
1889 1921 2914
3571 1185 64
3555 1153 48
3154 833 785
2194 1713 2626
2033 2033 2978
3747 1537 16
3779 1569 32
3667 2338 2130
3250 2898 3154
2962 3250 3619
4095 2562 144
4051 2546 128
4035 2786 192
4035 3266 2546
3619 3619 3667
4095 3170 416
4067 3170 496
4051 3571 2706
4003 3683 3282
3891 3763 3619
