其他预设/【236】赛博朋克风调色预设/【后期菌】视频调色预设/3DL/Tokyo 01.3dl
# LUT by SparkleStock. Enhanced with VOXCOLOR algorithms.
0 64 128 192 256 320 384 448 512 576 640 704 768 832 896 960 1023
288 160 288
320 176 336
320 160 288
320 176 320
272 160 336
240 192 416
144 224 512
128 272 624
112 336 705
112 384 849
96 400 929
112 448 1057
112 512 1153
112 528 1217
128 608 1345
128 640 1425
144 705 1537
320 176 320
320 176 320
320 160 320
288 160 320
272 160 352
224 176 400
144 224 512
128 272 624
112 336 721
96 368 833
96 432 961
96 432 1025
112 480 1121
112 528 1217
128 608 1329
128 640 1425
144 672 1505
320 176 320
288 160 288
288 160 288
320 176 352
288 176 352
224 176 400
160 240 528
128 288 640
112 336 705
96 368 817
96 400 929
96 464 1041
112 480 1121
112 528 1217
128 608 1345
144 640 1425
144 672 1505
320 176 320
288 160 320
320 160 320
320 176 336
288 176 352
240 192 416
160 240 512
112 288 640
96 336 705
96 384 833
96 416 929
96 448 1041
112 480 1137
112 528 1201
112 608 1345
144 672 1441
144 705 1537
288 160 336
288 176 352
288 176 352
288 160 336
272 160 368
224 224 464
160 240 528
112 288 656
96 368 785
96 400 865
96 464 993
112 496 1105
112 528 1185
112 576 1265
144 656 1409
128 656 1457
144 721 1585
240 224 432
240 208 416
256 224 432
256 224 448
224 240 496
176 240 528
128 288 640
96 368 737
96 432 865
96 448 945
80 496 1057
96 576 1185
96 624 1313
112 656 1393
144 721 1521
160 801 1585
160 817 1633
224 256 480
240 272 496
240 272 512
224 272 496
240 272 512
192 320 592
144 400 753
96 480 881
80 560 977
96 608 1121
96 672 1233
112 737 1377
128 849 1537
128 849 1569
160 913 1649
192 961 1729
224 993 1777
272 368 592
320 400 608
272 384 624
272 400 640
288 416 656
240 448 721
192 496 833
112 624 993
80 753 1169
96 881 1361
112 913 1473
160 1025 1617
160 1025 1649
208 1105 1761
272 1217 1889
320 1281 1969
320 1265 2001
416 496 705
448 512 721
448 528 737
448 560 753
400 528 753
384 592 865
288 672 961
208 865 1201
112 1105 1441
176 1217 1633
208 1313 1761
256 1361 1841
320 1441 1969
352 1521 2033
400 1585 2162
448 1681 2274
464 1729 2322
689 817 961
689 817 961
705 817 961
705 817 961
721 881 1057
672 913 1105
528 993 1201
352 1121 1393
272 1457 1697
272 1585 1873
320 1649 1985
368 1697 2082
400 1761 2162
432 1809 2242
560 1937 2402
624 2001 2482
865 2130 2610
1057 1169 1281
1057 1201 1313
1121 1233 1345
1073 1217 1329
1089 1265 1361
1041 1377 1457
945 1537 1617
656 1649 1761
464 1761 1905
448 1937 2130
496 2033 2290
528 2066 2370
624 2130 2466
721 2146 2514
993 2290 2658
1185 2354 2754
1361 2418 2834
1857 1697 1617
1825 1665 1601
1889 1761 1649
1889 1729 1633
1857 1761 1665
1777 1873 1825
1585 1969 1969
1409 2066 2082
1217 2146 2178
753 2146 2274
656 2274 2434
721 2306 2498
881 2338 2594
1233 2482 2754
1425 2562 2834
1505 2578 2882
1633 2610 2962
2402 2146 1969
2402 2146 1937
2418 2162 1969
2402 2146 1937
2386 2130 1969
2338 2226 2098
2130 2274 2194
2050 2322 2258
1873 2418 2402
1569 2450 2482
1297 2530 2610
1185 2562 2658
1425 2642 2802
1617 2706 2882
1697 2722 2946
1809 2786 3010
1937 2834 3106
2706 2386 2162
2802 2418 2194
2706 2386 2162
2706 2386 2162
2722 2402 2178
2626 2466 2306
2450 2514 2402
2466 2594 2466
2418 2690 2594
2098 2658 2610
1921 2706 2690
1873 2786 2802
1761 2802 2866
1761 2818 2946
1937 2898 3026
2082 2930 3106
2114 2946 3138
3106 2530 2242
3106 2530 2242
3122 2530 2210
3074 2498 2194
3106 2546 2242
2946 2626 2402
2818 2738 2530
2738 2770 2594
2690 2802 2642
2626 2866 2738
2482 2850 2770
2498 2946 2898
2370 3010 3010
2226 2994 3058
2178 3010 3106
2194 3026 3154
2242 3026 3202
3378 2642 2306
3346 2610 2258
3362 2626 2274
3362 2626 2274
3378 2674 2338
3298 2786 2466
2994 2834 2594
2962 2898 2658
2930 2978 2770
2882 2994 2802
2802 2994 2850
2706 3010 2930
2690 3106 3058
2610 3138 3138
2530 3138 3186
2450 3138 3218
2402 3138 3234
3459 2738 2370
3475 2738 2370
3475 2770 2402
3475 2770 2402
3491 2786 2402
3410 2850 2530
3138 2946 2642
3090 3010 2738
3058 3026 2802
3010 3058 2866
3010 3106 2962
2930 3138 3010
2898 3186 3106
2802 3186 3154
2802 3234 3234
2722 3218 3234
2722 3250 3282
320 176 320
288 160 288
320 176 336
320 176 336
288 160 336
240 192 416
160 240 512
112 272 624
112 336 721
112 384 849
96 432 961
112 448 1057
112 496 1137
112 560 1233
128 608 1329
128 624 1409
144 705 1537
320 160 320
288 160 288
320 176 320
288 160 320
272 160 336
224 176 400
160 240 528
128 288 656
112 336 705
96 368 817
96 416 929
112 464 1041
112 480 1121
112 560 1233
128 608 1345
144 640 1425
144 672 1505
320 176 336
288 160 288
320 160 320
320 160 320
288 176 352
224 192 416
160 240 528
112 272 624
112 336 721
112 384 849
96 432 945
96 432 1041
112 496 1137
112 560 1233
128 592 1329
144 656 1441
144 672 1505
320 160 320
320 160 320
320 176 320
288 176 336
288 176 352
224 192 416
176 240 528
128 288 656
96 336 705
112 384 849
96 432 961
96 448 1041
112 480 1137
112 560 1217
128 624 1361
128 640 1409
128 672 1505
288 176 352
288 176 352
288 160 336
320 176 336
272 176 384
224 224 464
176 256 560
112 288 656
112 368 785
96 384 865
96 464 993
96 480 1089
96 512 1153
112 576 1265
128 640 1393
128 656 1457
144 721 1569
240 224 432
256 224 432
240 224 432
240 224 432
224 224 448
176 240 528
128 320 656
96 352 721
80 400 817
96 448 945
96 512 1073
96 560 1169
96 624 1297
112 672 1409
128 721 1505
160 801 1601
160 817 1633
240 288 512
224 256 496
224 272 496
224 272 496
240 272 512
192 352 640
144 384 737
80 448 865
48 528 977
96 640 1153
112 689 1281
96 721 1361
112 833 1521
144 881 1601
160 913 1649
192 961 1729
224 1025 1793
272 368 608
272 368 592
272 384 624
272 368 592
272 400 640
240 432 705
192 496 833
96 624 993
80 753 1169
96 881 1361
128 945 1505
128 961 1585
160 1025 1649
224 1121 1793
240 1153 1841
320 1281 1969
320 1265 2001
400 496 721
464 528 737
448 528 737
400 496 721
400 528 785
384 592 865
320 689 977
176 833 1169
112 1105 1441
176 1233 1649
192 1233 1729
224 1329 1809
288 1393 1905
352 1521 2033
400 1617 2178
416 1601 2210
512 1809 2386
705 817 961
689 817 961
737 865 1025
705 817 961
689 849 1025
689 929 1105
528 1025 1217
352 1121 1393
256 1441 1681
288 1617 1889
336 1649 1985
368 1697 2066
400 1761 2146
432 1809 2242
496 1889 2354
592 1969 2434
897 2146 2610
1089 1201 1313
1057 1169 1281
1057 1185 1297
1073 1217 1329
1073 1201 1313
961 1281 1377
881 1473 1585
656 1633 1761
496 1793 1937
416 1905 2114
448 1985 2258
528 2066 2370
592 2114 2434
833 2226 2578
993 2290 2658
1201 2370 2754
1441 2450 2866
1825 1665 1601
1889 1777 1665
1889 1745 1633
1873 1761 1665
1857 1761 1665
1729 1841 1793
1505 1889 1889
1441 2050 2066
1057 2066 2114
849 2194 2322
624 2242 2402
737 2306 2514
961 2386 2626
1153 2434 2706
1409 2546 2834
1521 2578 2898
1745 2674 3010
2418 2162 1969
2418 2162 1969
2402 2146 1969
2402 2146 1937
2402 2146 1969
2258 2130 2017
2130 2258 2194
2066 2338 2274
1905 2402 2386
1569 2466 2482
1297 2530 2610
1089 2530 2642
1313 2610 2770
1537 2642 2850
1681 2722 2946
1809 2786 3010
1905 2818 3074
2786 2402 2178
2738 2370 2146
2738 2370 2146
2802 2418 2194
2802 2450 2242
2594 2418 2258
2530 2562 2418
2498 2610 2498
2434 2674 2562
2098 2658 2610
1889 2690 2690
1873 2786 2802
1761 2802 2866
1809 2850 2962
1937 2898 3026
2082 2930 3106
2130 2962 3154
3122 2546 2242
3074 2482 2178
3106 2530 2242
3106 2530 2242
3122 2562 2258
2994 2658 2418
2818 2738 2546
2738 2770 2594
2690 2802 2642
2658 2850 2738
2482 2850 2770
2466 2930 2866
2306 2978 2978
2194 2978 3026
2130 2994 3090
2226 3042 3186
2258 3058 3218
3346 2610 2258
3362 2642 2290
3362 2626 2290
3362 2626 2274
3346 2626 2290
3266 2770 2466
2962 2834 2594
2946 2898 2642
2898 2946 2738
2882 2994 2802
2802 3010 2882
2706 3026 2962
2674 3106 3058
2594 3106 3106
2562 3138 3186
2418 3122 3202
2434 3154 3250
3475 2770 2386
3475 2770 2386
3475 2770 2386
3459 2738 2370
3491 2802 2402
3410 2834 2514
3154 2978 2674
3090 3010 2738
3058 3026 2802
3042 3074 2898
3010 3106 2962
2882 3106 3010
2834 3170 3090
2786 3170 3138
2738 3202 3202
2738 3234 3266
2706 3234 3282
288 160 320
320 160 320
320 176 336
288 160 320
288 176 352
224 192 416
144 224 512
112 272 624
96 320 689
96 368 833
80 400 929
112 480 1073
112 512 1153
112 560 1217
128 608 1345
144 656 1441
144 705 1537
320 160 320
320 160 320
320 160 320
272 160 336
288 176 352
240 192 416
160 240 528
112 272 624
112 352 737
96 368 817
96 416 945
96 432 1025
112 480 1121
112 528 1201
128 608 1345
144 672 1441
144 705 1537
320 176 320
320 160 320
320 176 336
288 160 320
272 160 336
224 176 400
160 240 528
128 288 640
112 336 721
96 368 817
96 416 945
112 448 1057
112 480 1121
112 560 1233
128 592 1329
128 640 1425
144 672 1505
320 160 320
320 176 336
320 176 336
320 176 336
288 176 352
224 192 416
144 224 512
128 288 656
96 336 705
112 384 849
96 416 929
96 448 1041
96 480 1137
112 576 1265
128 624 1377
128 640 1409
144 721 1553
320 176 352
320 176 352
288 176 352
288 176 352
272 176 384
208 208 464
176 240 528
128 336 689
96 368 785
96 384 865
96 448 977
96 480 1089
96 512 1153
112 576 1265
144 656 1409
128 672 1457
160 737 1585
256 224 432
240 208 432
240 224 432
256 224 448
240 240 464
192 256 560
128 320 656
96 352 721
80 400 833
80 432 929
96 528 1105
96 560 1169
96 624 1297
128 689 1425
128 705 1473
160 801 1601
176 849 1665
224 272 496
224 272 496
240 272 512
240 288 512
224 272 512
192 336 608
128 384 737
96 480 897
80 576 1025
80 608 1121
96 672 1233
112 737 1377
112 817 1473
144 881 1601
176 929 1665
192 945 1697
240 1041 1809
272 384 624
272 384 624
272 384 624
272 368 592
272 400 624
240 464 737
176 496 833
112 624 993
96 817 1217
96 897 1393
112 913 1473
144 977 1601
176 1041 1665
224 1137 1793
272 1201 1873
320 1281 1969
320 1265 2001
448 512 721
432 512 737
432 528 737
432 512 737
400 528 785
384 608 881
288 672 961
208 865 1201
112 1105 1441
176 1217 1633
208 1297 1745
240 1345 1841
288 1409 1921
320 1425 2001
368 1537 2114
448 1681 2258
464 1729 2322
689 817 961
737 865 1025
721 849 1025
705 865 1041
721 881 1041
656 929 1121
480 961 1201
352 1137 1393
256 1441 1681
272 1585 1841
336 1665 2001
352 1697 2050
400 1761 2162
432 1809 2242
528 1921 2386
608 1985 2450
865 2130 2610
1057 1185 1297
1057 1185 1297
1057 1169 1281
1057 1185 1297
1057 1201 1313
961 1281 1377
881 1473 1601
624 1601 1729
464 1761 1905
448 1937 2130
448 1985 2242
496 2033 2338
608 2130 2450
833 2226 2578
1025 2290 2658
1185 2354 2738
1393 2418 2850
1873 1761 1665
1809 1665 1601
1889 1777 1665
1873 1761 1665
1857 1761 1665
1729 1841 1793
1505 1889 1889
1361 2001 2017
1153 2114 2162
849 2194 2322
656 2274 2434
737 2306 2514
913 2354 2610
1185 2450 2738
1361 2530 2802
1505 2562 2882
1745 2674 3010
2402 2146 1969
2402 2146 1937
2418 2162 1969
2402 2146 1937
2402 2146 1969
2258 2130 2017
2114 2274 2210
2066 2354 2290
1809 2386 2370
1425 2402 2450
1281 2498 2578
1185 2562 2658
1313 2610 2770
1585 2690 2866
1697 2722 2946
1809 2786 3010
1905 2818 3074
2786 2418 2194
2738 2370 2146
2754 2402 2178
2754 2402 2178
2786 2418 2210
2610 2450 2290
2530 2562 2418
2498 2610 2482
2402 2674 2562
2194 2722 2658
2066 2754 2738
1857 2754 2786
1793 2802 2882
1841 2866 2994
1905 2866 3010
2082 2946 3106
2130 2946 3154
3106 2530 2242
3106 2530 2242
3106 2530 2242
3106 2530 2242
3106 2546 2242
2994 2658 2418
2834 2754 2546
2770 2786 2610
2690 2802 2642
2626 2866 2738
2546 2882 2802
2434 2914 2866
2322 2978 2978
2194 2978 3026
2162 3010 3138
2162 3010 3138
2242 3026 3202
3362 2626 2290
3362 2626 2290
3346 2610 2258
3362 2626 2290
3378 2674 2322
3266 2770 2466
3010 2882 2626
2946 2898 2642
2930 2962 2754
2866 2962 2802
2802 3010 2898
2706 3010 2930
2578 3042 3010
2594 3106 3106
2498 3122 3170
2434 3122 3202
2354 3122 3234
3475 2770 2402
3475 2738 2370
3459 2738 2354
3459 2754 2386
3475 2770 2386
3410 2834 2514
3170 2962 2658
3090 2994 2722
3074 3026 2802
3010 3058 2866
2962 3090 2946
2882 3106 3010
2834 3170 3090
2818 3202 3170
2754 3218 3218
2738 3234 3266
2722 3234 3282
288 160 320
320 176 320
320 176 336
320 176 336
320 176 352
224 192 416
160 240 560
112 272 624
112 336 721
96 368 817
96 416 945
96 448 1041
96 480 1121
112 560 1233
112 592 1329
128 624 1409
128 656 1473
320 176 336
320 160 320
288 160 320
288 160 320
320 176 352
240 192 432
144 224 528
128 320 656
112 352 737
112 384 849
96 400 929
96 464 1041
112 496 1153
112 528 1201
128 608 1345
128 640 1425
