其他预设/【236】赛博朋克风调色预设/【后期菌】视频调色预设/3DL/Tokyo 09_S.3dl
# LUT by SparkleStock. Enhanced with VOXCOLOR algorithms.
0 128 256 384 512 640 768 896 1023
352 400 448
352 400 448
352 400 464
256 480 608
208 689 945
256 929 1265
320 1265 1633
352 1521 2001
432 1697 2210
368 416 464
352 400 448
368 432 480
272 496 640
208 672 929
256 929 1249
288 1249 1585
352 1521 2001
400 1665 2178
368 416 464
368 416 464
352 416 480
272 496 624
224 753 1009
272 1009 1329
336 1313 1665
416 1585 2050
432 1713 2274
336 512 576
352 528 624
352 544 640
288 705 865
336 977 1233
432 1313 1617
576 1681 2098
656 1905 2322
705 2130 2594
560 833 929
608 897 977
560 913 977
640 1089 1217
849 1521 1729
1265 2082 2354
1489 2498 2706
1585 2722 2866
1681 2834 2962
1473 1713 1729
1569 1809 1825
1537 1841 1825
1729 2130 2178
1953 2466 2514
2258 2866 2866
2466 3010 3042
2626 3106 3106
2802 3170 3170
2722 2690 2530
2738 2690 2530
2594 2658 2466
2610 2770 2642
2770 2978 2882
2946 3106 3058
3042 3186 3154
3186 3218 3186
3298 3282 3218
3330 3106 2818
3330 3106 2818
3346 3106 2850
3282 3122 2994
3170 3122 3010
3170 3154 3058
3266 3218 3170
3298 3266 3186
3410 3282 3202
3555 3202 3042
3571 3218 3058
3571 3218 3074
3459 3202 3074
3491 3234 3122
3491 3266 3170
3507 3298 3186
3491 3298 3202
3507 3314 3218
352 416 464
368 416 464
368 416 464
256 480 608
192 672 929
256 929 1249
320 1265 1633
352 1521 2001
432 1697 2210
368 416 464
368 416 464
352 400 464
272 480 608
208 689 945
256 929 1265
288 1249 1585
336 1489 1937
400 1665 2178
384 432 480
368 432 464
352 432 512
272 512 672
240 753 1009
256 993 1329
304 1281 1633
416 1585 2050
448 1713 2274
352 512 592
352 544 624
352 592 672
272 672 833
352 1009 1265
400 1297 1617
512 1633 2050
689 1937 2370
785 2194 2626
592 881 961
592 881 977
592 929 1009
656 1089 1233
897 1553 1745
1249 2050 2306
1473 2482 2690
1521 2658 2834
1681 2834 2962
1473 1713 1729
1473 1713 1729
1489 1793 1777
1665 2066 2130
1921 2434 2514
2210 2834 2850
2418 2994 3042
2626 3106 3106
2802 3170 3170
2722 2690 2530
2738 2690 2530
2610 2658 2482
2626 2818 2690
2738 2962 2866
2898 3090 3042
2994 3170 3122
3170 3218 3186
3282 3266 3202
3330 3106 2818
3330 3106 2834
3346 3106 2850
3298 3122 2994
3186 3154 3010
3186 3170 3074
3234 3202 3154
3298 3266 3186
3410 3282 3202
3571 3218 3058
3555 3202 3042
3571 3218 3058
3507 3218 3090
3491 3266 3154
3491 3266 3170
3459 3282 3186
3459 3282 3202
3491 3298 3202
384 432 480
368 416 480
416 432 512
320 496 672
224 721 977
256 961 1313
304 1265 1633
368 1553 2017
432 1697 2210
400 432 464
448 432 480
480 448 576
384 512 753
304 753 1089
256 961 1313
336 1329 1665
368 1553 2033
432 1697 2210
480 512 512
544 560 512
544 592 640
448 640 833
336 785 1137
304 1041 1409
352 1377 1729
432 1617 2082
512 1777 2322
400 640 608
464 737 640
496 753 737
448 865 1009
432 1057 1329
432 1329 1665
592 1697 2130
737 2001 2402
817 2194 2626
624 897 913
672 1009 897
689 1089 1009
801 1313 1361
1009 1665 1841
1281 2098 2370
1537 2530 2722
1665 2770 2898
1793 2898 3010
1633 1809 1793
1601 1825 1713
1537 1889 1809
1649 2130 2066
2017 2546 2578
2274 2850 2866
2530 3042 3058
2754 3154 3170
2850 3186 3186
2978 2818 2610
2866 2722 2530
2802 2802 2594
2690 2850 2722
2834 3010 2898
2882 3090 3042
3074 3186 3154
3218 3218 3186
3330 3282 3218
3443 3122 2834
3443 3122 2850
3394 3106 2850
3314 3154 3010
3266 3170 3058
3218 3170 3074
3282 3218 3154
3330 3266 3202
3443 3298 3218
3571 3202 3010
3603 3202 3042
3571 3218 3058
3523 3218 3090
3507 3266 3154
3507 3282 3170
3459 3266 3170
3491 3282 3186
3507 3314 3218
672 624 689
705 640 737
753 608 785
705 721 977
448 849 1137
448 1217 1505
448 1537 1953
576 1745 2242
608 1953 2418
753 672 672
833 608 672
897 640 833
833 721 1057
640 849 1265
512 1201 1553
448 1553 1969
592 1793 2274
608 1953 2418
881 785 672
961 817 689
1009 833 881
961 913 1153
721 961 1377
624 1249 1665
496 1585 2033
624 1825 2290
672 1953 2482
1457 1393 1153
1377 1329 1025
1361 1329 1169
1233 1345 1425
833 1345 1665
753 1585 2066
865 2001 2370
1073 2322 2642
1137 2466 2802
1313 1297 961
1329 1377 961
1249 1393 1089
1121 1553 1505
1329 1921 2066
1617 2402 2610
1889 2818 2898
2130 2978 3058
2274 3074 3106
3186 2546 2050
2882 2434 1777
2722 2498 1841
2033 2498 2242
2210 2722 2626
2626 3042 3010
2850 3122 3122
3042 3202 3186
3170 3234 3218
3555 3042 2642
3523 3058 2610
3523 3074 2706
3202 3090 2882
3154 3106 2994
3202 3170 3090
3298 3218 3170
3427 3282 3218
3443 3314 3218
3555 3186 2818
3555 3186 2818
3539 3186 2882
3571 3234 3106
3410 3218 3106
3427 3234 3154
3427 3266 3170
3443 3298 3202
3523 3314 3218
3635 3218 2978
3635 3218 2978
3635 3234 2994
3635 3282 3106
3555 3298 3186
3555 3314 3202
3571 3346 3218
3555 3330 3218
3555 3346 3218
1969 1633 1601
1921 1457 1489
1841 1345 1505
1601 1329 1601
1329 1457 1793
1281 1825 2146
1313 2050 2386
1329 2274 2594
1361 2482 2770
1921 1441 1329
1857 1233 1201
1825 1153 1313
1633 1169 1537
1409 1265 1777
1297 1585 2098
1313 2050 2386
1329 2258 2578
1409 2530 2818
1953 1473 1185
1937 1345 1137
1905 1329 1313
1777 1329 1569
1569 1409 1905
1409 1633 2194
1409 2146 2498
1457 2370 2690
1441 2530 2850
2530 2017 1505
2354 1809 1329
2290 1777 1505
2178 1777 1777
1969 1841 2162
1793 2082 2514
1681 2514 2754
1969 2882 2994
2001 2930 3090
2834 2194 1489
2610 2098 1329
2530 2082 1473
2626 2386 2017
2402 2482 2434
2274 2722 2834
2626 3106 3122
2898 3202 3202
3074 3266 3218
3314 2850 2082
3074 2754 1841
2962 2722 1889
3042 2818 2210
2818 2946 2754
3106 3122 3090
3282 3218 3186
3443 3298 3218
3459 3314 3234
3619 3122 2802
3459 3090 2578
3427 3090 2578
3394 3122 2690
3507 3266 3106
3491 3266 3170
3507 3298 3202
3539 3346 3234
3555 3378 3266
3619 3218 2882
3603 3202 2866
3635 3218 2930
3651 3234 3010
3603 3346 3154
3539 3330 3186
3555 3378 3234
3539 3378 3266
3571 3394 3266
3683 3282 3058
3683 3266 3058
3683 3266 3058
3699 3298 3090
3683 3330 3122
3619 3394 3218
3651 3427 3266
3619 3410 3266
3635 3427 3298
3090 2418 2306
2978 2066 2050
2978 2001 2130
2882 2082 2306
2658 2370 2610
2162 2498 2690
1969 2610 2770
2050 2754 2898
2098 2898 3010
2930 1953 1745
2834 1649 1585
2754 1505 1649
2642 1537 1905
2530 1825 2354
2130 2162 2594
1969 2594 2754
2050 2770 2930
2130 2930 3042
2898 1969 1585
2738 1649 1409
2722 1601 1569
2690 1649 1841
2578 1809 2274
2306 2258 2658
2082 2642 2834
2178 2834 2946
2258 2898 3090
2994 2306 1665
2834 2033 1457
2770 1953 1601
2770 2017 1953
2818 2178 2386
2738 2546 2802
2722 2962 3042
2882 3122 3122
2818 3090 3186
3154 2466 1617
2978 2306 1457
2882 2258 1553
2898 2386 2001
2994 2578 2514
3234 2930 2978
3394 3122 3170
3507 3314 3234
3507 3330 3234
3443 2994 2306
3266 2882 2017
3186 2834 2017
3154 2818 2194
3234 2946 2642
3330 3122 3042
3394 3202 3170
3555 3346 3266
3555 3394 3282
3667 3202 2898
3555 3154 2658
3539 3170 2706
3491 3186 2722
3427 3186 2834
3378 3266 3058
3459 3330 3202
3603 3394 3266
3603 3427 3282
3683 3266 2946
3683 3266 2962
3699 3266 2978
3651 3314 2978
3571 3330 2962
3539 3410 3106
3651 3427 3282
3651 3459 3298
3651 3443 3298
3747 3298 3074
3747 3298 3074
3747 3298 3074
3763 3314 3090
3779 3330 3122
3779 3410 3186
3699 3443 3266
3731 3491 3298
3731 3491 3314
3378 2770 2594
3330 2578 2434
3314 2418 2418
3298 2546 2610
3266 2882 2898
3154 3042 2994
2610 2962 2994
2610 2994 3042
2642 3074 3122
3298 2418 2178
3218 2033 1905
3186 1857 1937
3202 2033 2274
3170 2322 2626
3058 2770 2930
2610 2946 2962
2610 3010 3058
2642 3058 3122
3266 2306 1905
3186 2001 1665
3154 1825 1713
3122 1921 2066
3154 2210 2514
3106 2738 2930
2834 3042 3042
2770 3074 3090
2882 3074 3202
3330 2578 2017
3202 2210 1665
3170 2082 1729
3154 2082 2017
3170 2274 2466
3218 2706 2898
3202 2962 3090
3218 3186 3186
3314 3202 3234
3410 2690 1937
3314 2514 1697
3218 2354 1633
3202 2402 2033
3218 2482 2418
3330 2770 2882
3410 2978 3122
3507 3202 3234
3555 3378 3266
3555 3058 2530
3491 2978 2290
3394 2866 2130
3282 2754 2082
3298 2802 2418
3346 2962 2850
3394 3090 3106
3539 3298 3298
3635 3443 3330
3699 3234 2978
3683 3218 2930
3523 3122 2514
3427 3106 2418
3394 3106 2578
3443 3170 2850
3507 3282 3122
3603 3378 3266
3683 3491 3346
3747 3298 2962
3731 3282 2978
3651 3298 2770
3571 3314 2706
3523 3330 2738
3555 3410 2962
3635 3443 3202
3731 3491 3314
3699 3491 3314
3763 3298 3074
3779 3298 3074
3779 3314 3090
3747 3330 3042
3747 3427 3058
3763 3443 3154
3763 3491 3234
3747 3491 3314
3747 3507 3330
3507 2994 2770
3507 2946 2738
3507 2946 2770
3491 2994 2850
3410 3090 2994
3346 3122 3090
3234 3154 3122
3154 3154 3170
3170 3202 3218
3507 2882 2642
3491 2626 2418
3459 2418 2354
3443 2546 2594
3410 2802 2882
3346 3122 3106
3202 3122 3106
3122 3122 3170
3170 3202 3218
3507 2754 2434
3491 2482 2178
3491 2354 2194
3459 2386 2418
3427 2626 2770
3394 2898 3042
3266 3058 3122
3218 3170 3186
3218 3154 3234
3539 2930 2594
3507 2626 2210
3491 2402 2082
3459 2354 2274
3459 2386 2546
3459 2642 2898
3427 2818 3106
3459 3186 3218
3459 3234 3234
3571 2946 2482
3555 2802 2194
3507 2530 1905
3523 2418 2050
3491 2514 2466
3523 2658 2834
3523 2850 3090
3555 3122 3282
3603 3394 3282
3651 3186 2866
3619 3074 2546
3555 2866 2098
3539 2754 2066
3555 2770 2386
3555 2866 2770
3555 2994 3090
3619 3218 3314
3667 3459 3378
3731 3234 2994
3683 3202 2706
3635 3106 2306
3603 3090 2242
3603 3090 2434
3619 3122 2754
3635 3202 3074
3667 3330 3314
3731 3491 3346
3779 3314 3042
3763 3314 2978
3699 3314 2626
3651 3346 2498
3651 3378 2610
3667 3410 2866
3699 3443 3122
3731 3443 3298
3747 3507 3346
3795 3330 3090
3795 3314 3090
3811 3346 3042
3763 3410 2898
3779 3507 2946
3763 3507 3090
3779 3507 3218
3811 3523 3330
3795 3539 3394
3539 3074 2850
3539 3074 2866
3555 3074 2882
3523 3106 2946
3491 3122 3058
3459 3186 3122
3427 3202 3186
3314 3186 3186
3314 3218 3218
3539 3058 2850
3523 3058 2850
3555 2994 2834
3571 3074 2946
3491 3122 3058
3459 3170 3122
3443 3154 3170
3346 3202 3202
3346 3234 3218
3555 3090 2882
3571 2994 2802
3555 2866 2706
3603 2882 2802
3555 2818 2882
3523 2882 3042
3459 3106 3170
3394 3218 3202
3394 3234 3218
3603 3106 2898
3603 3090 2866
3635 2802 2578
3667 2610 2530
3683 2514 2642
3667 2626 2898
3603 2834 3106
3539 3170 3218
3539 3282 3234
3619 3042 2626
3619 2930 2434
3683 2658 2098
3763 2578 2210
3747 2578 2498
3747 2658 2818
3731 2818 3106
3651 3074 3266
3603 3410 3282
3667 3186 2898
3699 3058 2530
3763 2866 2146
3795 2802 2146
3811 2802 2402
3843 2866 2770
3795 2962 3090
3731 3186 3314
3683 3443 3346
3747 3266 2994
3763 3202 2642
3795 3122 2290
3859 3090 2210
3859 3074 2418
3875 3122 2738
3859 3202 3074
3779 3330 3298
3763 3491 3394
3795 3314 3010
3811 3314 2994
3811 3314 2578
3875 3346 2418
3859 3378 2546
3891 3427 2834
3875 3443 3154
3843 3459 3298
3795 3539 3394
3843 3346 3106
3843 3346 3106
3843 3378 3010
3875 3459 2898
3875 3523 2962
3875 3539 3106
3811 3507 3234
3811 3539 3378
3843 3555 3410
