其他预设/【236】赛博朋克风调色预设/【后期菌】视频调色预设/3DL/Tokyo 01_S.3dl
# LUT by SparkleStock. Enhanced with VOXCOLOR algorithms.
0 64 128 192 256 320 384 448 512 576 640 704 768 832 896 960 1023
288 160 288
320 176 336
320 160 288
320 176 320
272 160 336
240 192 416
144 224 512
128 272 624
112 336 705
112 384 849
96 400 929
112 448 1057
112 512 1153
112 528 1217
128 608 1345
128 640 1425
144 705 1537
320 176 320
320 176 320
320 160 320
288 160 320
272 160 352
224 176 400
144 224 512
128 272 624
112 336 721
96 368 833
96 432 961
96 432 1025
112 480 1121
112 528 1217
128 608 1329
128 640 1425
144 672 1505
320 176 320
288 160 288
288 160 288
320 176 352
288 176 352
224 176 400
160 240 560
128 288 640
112 336 705
96 368 817
96 400 929
96 464 1041
112 480 1121
112 528 1217
128 608 1345
144 640 1425
144 672 1505
320 176 320
288 160 320
320 160 320
320 176 336
288 176 352
240 192 416
160 240 512
112 288 640
96 336 705
96 384 833
96 416 929
96 448 1041
112 480 1137
112 528 1201
112 608 1345
144 672 1441
144 705 1537
288 160 336
288 176 352
288 176 352
288 160 336
272 160 368
224 240 480
160 240 528
112 288 656
96 368 785
96 400 865
96 464 993
112 496 1105
112 528 1185
112 576 1265
144 656 1409
128 672 1521
144 721 1633
240 224 432
240 208 416
256 224 432
256 224 448
224 240 496
176 240 528
128 288 640
96 368 737
96 432 865
96 448 945
80 496 1057
96 576 1185
96 624 1313
112 656 1393
144 721 1521
160 801 1585
160 817 1633
224 288 464
240 272 496
240 272 512
224 320 496
240 272 512
192 320 592
144 416 785
96 496 897
80 560 977
96 608 1121
96 672 1233
112 737 1377
128 849 1537
128 849 1569
160 913 1649
192 961 1729
224 1025 1825
272 368 592
320 432 608
272 384 624
272 400 640
288 416 656
240 448 721
192 496 833
112 624 993
80 785 1185
96 897 1377
112 929 1505
160 1041 1649
160 1041 1681
208 1121 1793
272 1217 1889
320 1281 1969
320 1281 2050
416 496 705
448 512 721
448 528 737
432 592 753
400 576 753
384 624 881
288 672 961
208 865 1201
112 1105 1441
176 1217 1633
208 1313 1761
256 1361 1841
320 1441 1969
352 1521 2033
400 1585 2162
448 1681 2274
464 1729 2322
689 817 961
689 817 961
705 817 961
689 849 961
721 881 1057
672 913 1105
512 1041 1217
352 1121 1393
272 1457 1697
272 1585 1873
320 1649 1985
368 1729 2098
400 1777 2178
432 1825 2274
560 1937 2402
624 2001 2482
865 2130 2610
1057 1169 1281
1057 1201 1313
1121 1233 1345
1073 1217 1329
1073 1297 1361
1041 1377 1457
945 1537 1617
640 1665 1761
464 1761 1905
448 1937 2130
496 2033 2290
512 2082 2386
608 2146 2482
721 2146 2514
993 2290 2658
1185 2354 2754
1361 2418 2834
1825 1745 1585
1825 1665 1601
1889 1761 1649
1889 1729 1633
1825 1777 1649
1745 1889 1809
1553 1985 1969
1377 2082 2082
1217 2146 2178
753 2146 2274
656 2274 2434
721 2306 2498
865 2354 2610
1233 2482 2754
1393 2562 2850
1505 2578 2882
1601 2610 2978
2402 2146 1969
2402 2146 1937
2418 2162 1969
2402 2146 1937
2338 2146 1937
2338 2226 2098
2130 2274 2194
2050 2322 2258
1873 2418 2402
1569 2450 2482
1297 2530 2610
1169 2578 2658
1425 2642 2802
1617 2706 2882
1697 2722 2946
1809 2786 3010
1937 2834 3106
2706 2386 2162
2802 2418 2194
2706 2386 2162
2706 2386 2162
2722 2402 2178
2626 2466 2306
2402 2530 2386
2466 2594 2466
2418 2690 2594
2066 2674 2610
1921 2706 2690
1841 2802 2802
1761 2802 2866
1761 2818 2946
1937 2898 3026
2082 2930 3106
2082 2962 3154
3042 2546 2194
3042 2546 2210
3058 2546 2178
3010 2514 2162
3042 2562 2226
2946 2626 2402
2818 2738 2530
2690 2786 2578
2642 2818 2626
2594 2882 2738
2434 2866 2770
2498 2946 2898
2322 3010 3010
2226 2994 3058
2146 3026 3122
2146 3042 3170
2242 3026 3202
3378 2642 2306
3282 2642 2226
3362 2626 2274
3362 2626 2274
3378 2674 2338
3298 2786 2466
2994 2834 2594
2898 2914 2642
2882 2994 2754
2882 2994 2802
2802 2994 2850
2706 3010 2930
2690 3106 3058
2610 3138 3138
2530 3138 3186
2402 3154 3218
2354 3154 3250
3459 2738 2370
3475 2738 2370
3475 2770 2402
3475 2770 2402
3491 2786 2402
3410 2850 2530
3138 2946 2642
3090 3010 2738
3058 3026 2802
3010 3058 2866
3010 3106 2962
2930 3138 3010
2898 3186 3106
2802 3186 3154
2802 3234 3234
2722 3218 3234
2722 3250 3282
320 176 320
288 160 288
320 176 336
320 176 336
288 160 336
240 192 416
160 240 512
112 272 624
112 336 721
112 384 849
96 432 961
112 448 1057
112 496 1137
112 560 1233
128 608 1329
128 624 1409
144 705 1537
320 160 320
288 160 288
320 176 320
288 160 320
272 160 336
224 176 400
160 240 528
128 288 656
112 336 705
96 368 817
96 416 929
112 464 1041
112 480 1121
112 560 1233
128 608 1345
144 640 1425
144 672 1505
320 176 336
288 160 288
320 160 320
320 160 320
288 176 352
224 192 416
160 240 560
112 272 624
112 336 721
112 384 849
96 432 945
96 432 1041
112 496 1137
112 560 1233
128 592 1329
144 656 1441
144 672 1505
320 160 320
320 160 320
320 176 320
288 176 336
288 176 352
224 192 416
176 240 528
128 288 656
96 336 705
112 384 849
96 432 961
96 448 1041
112 480 1137
112 560 1217
128 624 1361
128 640 1409
128 672 1505
288 176 352
288 176 352
288 160 336
320 176 336
272 176 384
224 240 480
176 256 560
112 288 656
112 368 785
96 384 865
96 464 993
96 480 1089
96 512 1153
112 576 1265
128 640 1393
128 672 1521
144 721 1617
240 224 432
256 224 432
240 224 432
240 224 432
224 224 448
176 240 528
128 320 656
96 352 721
80 400 817
96 448 945
96 512 1073
96 560 1169
96 624 1297
112 672 1409
128 721 1505
160 801 1601
160 817 1633
240 336 496
224 256 496
224 272 496
224 320 496
240 272 512
192 352 640
144 400 753
80 464 881
48 528 977
96 640 1153
112 689 1281
96 721 1361
112 833 1521
144 881 1601
160 913 1649
192 961 1729
224 1041 1841
272 368 608
272 400 592
272 384 624
272 368 592
272 400 640
240 432 705
192 496 833
96 624 993
80 785 1185
96 897 1377
128 961 1521
128 977 1617
160 1041 1681
224 1137 1825
240 1153 1841
320 1281 1969
320 1281 2050
400 496 721
464 528 737
448 528 737
400 528 721
400 576 785
384 624 881
320 689 977
176 833 1169
112 1105 1441
176 1233 1649
192 1233 1729
224 1329 1809
288 1393 1905
352 1521 2033
400 1617 2178
416 1601 2210
512 1809 2386
705 817 961
689 817 961
737 865 1025
705 849 961
689 849 1025
689 929 1105
528 1057 1217
352 1121 1393
256 1441 1681
288 1617 1889
336 1649 1985
368 1729 2082
400 1777 2162
432 1825 2274
496 1889 2354
592 1969 2434
897 2146 2610
1089 1201 1313
1057 1169 1281
1057 1185 1297
1073 1217 1329
1057 1233 1313
961 1281 1377
881 1473 1585
656 1649 1761
496 1793 1937
416 1905 2114
448 1985 2258
528 2082 2386
592 2130 2450
833 2226 2578
993 2290 2658
1201 2370 2754
1441 2450 2866
1793 1697 1569
1889 1777 1665
1889 1745 1633
1873 1761 1665
1825 1777 1649
1681 1857 1793
1473 1905 1889
1425 2066 2066
1057 2066 2114
849 2194 2322
624 2242 2402
737 2306 2514
945 2402 2642
1153 2434 2706
1393 2546 2850
1521 2578 2898
1697 2674 3010
2418 2162 1969
2418 2162 1969
2402 2146 1969
2402 2146 1937
2370 2162 1937
2258 2130 2017
2130 2258 2194
2066 2338 2274
1905 2402 2386
1569 2466 2482
1297 2530 2610
1073 2546 2642
1313 2610 2770
1537 2642 2850
1681 2722 2946
1809 2786 3010
1905 2818 3074
2786 2402 2178
2738 2370 2146
2738 2370 2146
2802 2418 2194
2802 2450 2242
2594 2418 2258
2482 2578 2402
2498 2610 2498
2434 2674 2562
2066 2674 2610
1889 2690 2690
1841 2802 2802
1761 2802 2866
1809 2850 2962
1937 2898 3026
2082 2930 3106
2098 2978 3170
3074 2562 2194
3026 2514 2146
3058 2546 2210
3058 2546 2210
3074 2578 2242
2994 2658 2418
2818 2738 2546
2690 2786 2578
2642 2818 2626
2610 2866 2738
2434 2866 2770
2466 2930 2866
2274 2994 2978
2194 2978 3026
2098 3010 3106
2194 3058 3202
2258 3058 3218
3346 2610 2258
3298 2674 2258
3362 2626 2290
3362 2626 2274
3346 2626 2290
3266 2770 2466
2962 2834 2594
2898 2914 2626
2850 2962 2722
2882 2994 2802
2802 3010 2882
2706 3026 2962
2674 3106 3058
2594 3106 3106
2562 3138 3186
2402 3138 3218
2402 3170 3266
3475 2770 2386
3475 2770 2386
3475 2770 2386
3459 2738 2370
3491 2802 2402
3410 2834 2514
3154 2978 2674
3090 3010 2738
3058 3026 2802
3042 3074 2898
3010 3106 2962
2882 3106 3010
2834 3170 3090
2786 3170 3138
2738 3202 3202
2738 3234 3266
2706 3234 3282
288 160 320
320 160 320
320 176 336
288 160 320
288 176 352
224 192 416
144 224 512
112 272 624
96 320 689
96 368 833
80 400 929
112 480 1073
112 512 1153
112 560 1217
128 608 1345
144 656 1441
144 705 1537
320 160 320
320 160 320
320 160 320
272 160 336
288 176 352
240 192 416
160 240 528
112 272 624
112 352 737
96 368 817
96 416 945
96 432 1025
112 480 1121
112 528 1201
128 608 1345
144 672 1441
144 705 1537
320 176 320
320 160 320
320 176 336
288 160 320
272 160 336
224 176 400
160 240 528
128 288 640
112 336 721
96 368 817
96 416 945
112 448 1057
112 480 1121
112 560 1233
128 592 1329
128 640 1425
144 672 1505
320 160 320
320 176 336
320 176 336
320 192 352
320 192 384
240 208 448
144 240 528
128 288 656
96 336 705
112 384 849
96 416 929
96 448 1041
96 480 1137
112 576 1265
128 624 1377
128 640 1409
144 721 1553
320 176 352
320 176 352
288 192 352
320 208 368
288 208 400
208 224 480
192 272 576
128 352 705
96 368 785
96 384 865
96 448 977
96 480 1089
96 512 1153
112 576 1265
144 656 1409
128 672 1521
160 737 1633
256 224 432
240 208 432
240 240 432
272 256 464
256 288 496
208 320 592
144 352 689
112 384 753
80 400 833
80 432 929
96 528 1105
96 560 1169
96 624 1297
128 689 1425
128 705 1473
160 801 1601
176 849 1665
224 320 480
224 272 496
240 320 512
256 352 528
240 352 560
208 400 640
128 400 753
112 496 913
80 576 1025
80 608 1121
96 672 1233
112 737 1377
112 817 1473
144 881 1601
176 929 1665
192 945 1697
240 1057 1857
272 384 624
272 416 624
272 384 624
288 416 592
288 448 640
256 512 753
192 560 865
128 640 1025
112 833 1233
112 913 1409
128 929 1505
144 993 1633
176 1057 1697
224 1153 1825
272 1201 1873
320 1281 1969
320 1281 2050
448 512 721
432 512 737
432 528 737
432 560 737
400 576 785
384 640 897
288 672 961
208 865 1201
112 1105 1441
176 1217 1633
208 1297 1745
240 1345 1841
288 1409 1921
320 1425 2001
368 1537 2114
448 1681 2258
464 1729 2322
689 817 961
737 865 1025
721 849 1025
705 897 1041
721 881 1041
656 929 1121
480 993 1217
352 1137 1393
256 1441 1681
272 1585 1841
336 1665 2001
352 1729 2066
400 1777 2178
432 1825 2274
528 1921 2386
608 1985 2450
865 2130 2610
1057 1185 1297
1057 1185 1297
1057 1169 1281
1057 1185 1297
1041 1233 1313
961 1281 1377
881 1473 1601
624 1617 1729
464 1761 1905
448 1937 2130
448 1985 2242
496 2050 2354
608 2146 2466
833 2226 2578
1025 2290 2658
1185 2354 2738
1393 2418 2850
1841 1777 1633
1809 1665 1601
1889 1777 1665
1873 1761 1665
1841 1777 1649
1697 1857 1793
1473 1905 1889
1345 2017 2017
1153 2114 2162
849 2194 2322
656 2274 2434
737 2306 2514
913 2370 2610
1185 2450 2738
1345 2546 2818
1505 2562 2882
1729 2674 3010
2402 2146 1969
2402 2146 1937
2418 2162 1969
2402 2146 1937
2370 2162 1937
2258 2130 2017
2114 2274 2210
2066 2354 2290
1809 2386 2370
1425 2402 2450
1281 2498 2578
1169 2578 2658
1313 2610 2770
1585 2690 2866
1697 2722 2946
1809 2786 3010
1905 2818 3074
2786 2418 2194
2738 2370 2146
2754 2402 2178
2754 2402 2178
2786 2418 2210
2610 2450 2290
2498 2578 2402
2498 2610 2482
2402 2674 2562
2162 2738 2658
2066 2754 2738
1841 2770 2786
1793 2802 2882
1841 2866 2994
1905 2866 3010
2082 2946 3106
2098 2962 3170
3058 2546 2194
3058 2546 2210
3058 2546 2210
3058 2546 2210
3058 2562 2226
2994 2658 2418
2834 2754 2546
2722 2802 2594
2642 2818 2626
2610 2882 2738
2514 2898 2802
2434 2914 2866
2290 2994 2978
2194 2978 3026
2130 3026 3154
2130 3010 3154
2242 3026 3202
3362 2626 2290
3314 2658 2258
3346 2610 2258
3362 2626 2290
3378 2674 2322
3266 2770 2466
3010 2882 2626
2898 2914 2626
2882 2978 2738
2866 2962 2802
2802 3010 2898
2706 3010 2930
2578 3042 3010
2594 3106 3106
2498 3122 3170
2402 3138 3218
2322 3138 3250
3475 2770 2402
3475 2738 2370
3459 2738 2354
3459 2754 2386
3475 2770 2386
3410 2834 2514
3170 2962 2658
3090 2994 2722
3074 3026 2802
3010 3058 2866
2962 3090 2946
2882 3106 3010
2834 3170 3090
2818 3202 3170
2754 3218 3218
2738 3234 3266
2722 3234 3282
288 160 320
320 176 320
320 176 336
320 176 336
320 176 352
224 192 416
160 240 560
112 272 624
112 336 721
96 368 817
96 416 945
96 448 1041
96 480 1121
112 560 1233
112 592 1329
128 624 1409
128 656 1473
320 176 336
320 160 320
288 160 320
320 160 336
336 176 384
256 192 464
160 224 560
128 320 656
112 352 737
112 384 849
96 400 929
96 464 1041
112 496 1153
112 528 1201
128 608 1345
128 640 1425
