其他预设/【240】TEZZA调色预设合集24款/3.XMP格式(PS)预设/Tezza自然[]-3.xmp
<x:xmpmeta xmlns:x="adobe:ns:meta/" x:xmptk="Adobe XMP Core 5.6-c140 79.160451, 2017/05/06-01:08:21        ">
 <rdf:RDF xmlns:rdf="http://www.w3.org/1999/02/22-rdf-syntax-ns#">
  <rdf:Description rdf:about=""
    xmlns:crs="http://ns.adobe.com/camera-raw-settings/1.0/"
   crs:PresetType="Normal"
   crs:Cluster=""
   crs:UUID="9E0CC28ABAD103569525CCE2476BE583"
   crs:SupportsAmount="False"
   crs:SupportsColor="True"
   crs:SupportsMonochrome="True"
   crs:SupportsHighDynamicRange="True"
   crs:SupportsNormalDynamicRange="True"
   crs:SupportsSceneReferred="True"
   crs:SupportsOutputReferred="True"
   crs:CameraModelRestriction=""
   crs:Copyright=""
   crs:ContactInfo=""
   crs:Version="10.5"
   crs:ProcessVersion="6.7"
   crs:WhiteBalance="Custom"
   crs:Temperature="6048"
   crs:Tint="-11"
   crs:Saturation="-2"
   crs:Sharpness="60"
   crs:LuminanceSmoothing="20"
   crs:ColorNoiseReduction="21"
   crs:VignetteAmount="+51"
   crs:VignetteMidpoint="32"
   crs:ShadowTint="0"
   crs:RedHue="+10"
   crs:RedSaturation="-5"
   crs:GreenHue="+50"
   crs:GreenSaturation="-20"
   crs:BlueHue="0"
   crs:BlueSaturation="+20"
   crs:Vibrance="-7"
   crs:HueAdjustmentRed="+36"
   crs:HueAdjustmentOrange="+12"
   crs:HueAdjustmentYellow="-5"
   crs:HueAdjustmentGreen="+10"
   crs:HueAdjustmentAqua="0"
   crs:HueAdjustmentBlue="+10"
   crs:HueAdjustmentPurple="-67"
   crs:HueAdjustmentMagenta="0"
   crs:SaturationAdjustmentRed="-30"
   crs:SaturationAdjustmentOrange="+5"
   crs:SaturationAdjustmentYellow="+18"
   crs:SaturationAdjustmentGreen="-46"
   crs:SaturationAdjustmentAqua="-25"
   crs:SaturationAdjustmentBlue="+10"
   crs:SaturationAdjustmentPurple="-30"
   crs:SaturationAdjustmentMagenta="+7"
   crs:LuminanceAdjustmentRed="-30"
   crs:LuminanceAdjustmentOrange="-12"
   crs:LuminanceAdjustmentYellow="+23"
   crs:LuminanceAdjustmentGreen="-10"
   crs:LuminanceAdjustmentAqua="0"
   crs:LuminanceAdjustmentBlue="-25"
   crs:LuminanceAdjustmentPurple="0"
   crs:LuminanceAdjustmentMagenta="-15"
   crs:SplitToningShadowHue="0"
   crs:SplitToningShadowSaturation="0"
   crs:SplitToningHighlightHue="0"
   crs:SplitToningHighlightSaturation="0"
   crs:SplitToningBalance="0"
   crs:ParametricShadows="0"
   crs:ParametricDarks="0"
   crs:ParametricLights="0"
   crs:ParametricHighlights="0"
   crs:ParametricShadowSplit="14"
   crs:ParametricMidtoneSplit="60"
   crs:ParametricHighlightSplit="75"
   crs:SharpenRadius="+1.5"
   crs:SharpenDetail="40"
   crs:SharpenEdgeMasking="30"
   crs:PostCropVignetteAmount="0"
   crs:GrainAmount="27"
   crs:GrainSize="38"
   crs:GrainFrequency="39"
   crs:LuminanceNoiseReductionDetail="50"
   crs:ColorNoiseReductionDetail="50"
   crs:LuminanceNoiseReductionContrast="0"
   crs:ColorNoiseReductionSmoothness="50"
   crs:LensManualDistortionAmount="0"
   crs:AutoLateralCA="0"
   crs:Exposure2012="0.00"
   crs:Contrast2012="0"
   crs:Highlights2012="-92"
   crs:Shadows2012="+70"
   crs:Whites2012="-10"
   crs:Blacks2012="+61"
   crs:Clarity2012="0"
   crs:DefringePurpleAmount="0"
   crs:DefringePurpleHueLo="30"
   crs:DefringePurpleHueHi="70"
   crs:DefringeGreenAmount="0"
   crs:DefringeGreenHueLo="40"
   crs:DefringeGreenHueHi="60"
   crs:Dehaze="0"
   crs:ConvertToGrayscale="False"
   crs:OverrideLookVignette="False"
   crs:ToneCurveName2012="Custom"
   crs:CameraProfile="Embedded"
   crs:HasSettings="True">
   <crs:Name>
    <rdf:Alt>
     <rdf:li xml:lang="x-default">Tezza自然[素锦印象]-3</rdf:li>
    </rdf:Alt>
   </crs:Name>
   <crs:ShortName>
    <rdf:Alt>
     <rdf:li xml:lang="x-default"/>
    </rdf:Alt>
   </crs:ShortName>
   <crs:SortName>
    <rdf:Alt>
     <rdf:li xml:lang="x-default"/>
    </rdf:Alt>
   </crs:SortName>
   <crs:Group>
    <rdf:Alt>
     <rdf:li xml:lang="x-default">Tezza调色预设合集[sujinyinxiang.taobao.com]</rdf:li>
    </rdf:Alt>
   </crs:Group>
   <crs:Description>
    <rdf:Alt>
     <rdf:li xml:lang="x-default"/>
    </rdf:Alt>
   </crs:Description>
   <crs:ToneCurvePV2012>
    <rdf:Seq>
     <rdf:li>0, 8</rdf:li>
     <rdf:li>35, 38</rdf:li>
     <rdf:li>121, 123</rdf:li>
     <rdf:li>255, 251</rdf:li>
    </rdf:Seq>
   </crs:ToneCurvePV2012>
   <crs:ToneCurvePV2012Red>
    <rdf:Seq>
     <rdf:li>0, 0</rdf:li>
     <rdf:li>25, 5</rdf:li>
     <rdf:li>52, 23</rdf:li>
     <rdf:li>114, 123</rdf:li>
     <rdf:li>185, 210</rdf:li>
     <rdf:li>255, 255</rdf:li>
    </rdf:Seq>
   </crs:ToneCurvePV2012Red>
   <crs:ToneCurvePV2012Green>
    <rdf:Seq>
     <rdf:li>0, 0</rdf:li>
     <rdf:li>25, 5</rdf:li>
     <rdf:li>50, 23</rdf:li>
     <rdf:li>115, 118</rdf:li>
     <rdf:li>186, 208</rdf:li>
     <rdf:li>255, 255</rdf:li>
    </rdf:Seq>
   </crs:ToneCurvePV2012Green>
   <crs:ToneCurvePV2012Blue>
    <rdf:Seq>
     <rdf:li>0, 0</rdf:li>
     <rdf:li>25, 5</rdf:li>
     <rdf:li>49, 23</rdf:li>
     <rdf:li>114, 122</rdf:li>
     <rdf:li>187, 210</rdf:li>
     <rdf:li>255, 255</rdf:li>
    </rdf:Seq>
   </crs:ToneCurvePV2012Blue>
   <crs:Look
    crs:Name=""/>
  </rdf:Description>
 </rdf:RDF>
</x:xmpmeta>
