其他预设/【240】TEZZA调色预设合集24款/3.XMP格式(PS)预设/Tezza万事达-Tezza04.xmp
<x:xmpmeta xmlns:x="adobe:ns:meta/" x:xmptk="Adobe XMP Core 5.6-c140 79.160451, 2017/05/06-01:08:21        ">
 <rdf:RDF xmlns:rdf="http://www.w3.org/1999/02/22-rdf-syntax-ns#">
  <rdf:Description rdf:about=""
    xmlns:crs="http://ns.adobe.com/camera-raw-settings/1.0/"
   crs:PresetType="Normal"
   crs:Cluster=""
   crs:UUID="D46B955A464FC07A22ECEA92743D10AD"
   crs:SupportsAmount="False"
   crs:SupportsColor="True"
   crs:SupportsMonochrome="True"
   crs:SupportsHighDynamicRange="True"
   crs:SupportsNormalDynamicRange="True"
   crs:SupportsSceneReferred="True"
   crs:SupportsOutputReferred="True"
   crs:CameraModelRestriction=""
   crs:Copyright=""
   crs:ContactInfo=""
   crs:Version="10.5"
   crs:ProcessVersion="10.0"
   crs:WhiteBalance="Custom"
   crs:Temperature="10336"
   crs:Tint="+3"
   crs:Saturation="-43"
   crs:Sharpness="60"
   crs:LuminanceSmoothing="0"
   crs:ColorNoiseReduction="25"
   crs:VignetteAmount="+40"
   crs:VignetteMidpoint="50"
   crs:ShadowTint="-2"
   crs:RedHue="+26"
   crs:RedSaturation="+50"
   crs:GreenHue="+44"
   crs:GreenSaturation="0"
   crs:BlueHue="-11"
   crs:BlueSaturation="0"
   crs:Vibrance="+24"
   crs:HueAdjustmentRed="+10"
   crs:HueAdjustmentOrange="-3"
   crs:HueAdjustmentYellow="0"
   crs:HueAdjustmentGreen="+29"
   crs:HueAdjustmentAqua="+10"
   crs:HueAdjustmentBlue="-14"
   crs:HueAdjustmentPurple="-44"
   crs:HueAdjustmentMagenta="+20"
   crs:SaturationAdjustmentRed="0"
   crs:SaturationAdjustmentOrange="-4"
   crs:SaturationAdjustmentYellow="-62"
   crs:SaturationAdjustmentGreen="-75"
   crs:SaturationAdjustmentAqua="0"
   crs:SaturationAdjustmentBlue="+1"
   crs:SaturationAdjustmentPurple="-78"
   crs:SaturationAdjustmentMagenta="-35"
   crs:LuminanceAdjustmentRed="+8"
   crs:LuminanceAdjustmentOrange="-16"
   crs:LuminanceAdjustmentYellow="+72"
   crs:LuminanceAdjustmentGreen="+100"
   crs:LuminanceAdjustmentAqua="-12"
   crs:LuminanceAdjustmentBlue="+42"
   crs:LuminanceAdjustmentPurple="0"
   crs:LuminanceAdjustmentMagenta="0"
   crs:SplitToningShadowHue="0"
   crs:SplitToningShadowSaturation="0"
   crs:SplitToningHighlightHue="0"
   crs:SplitToningHighlightSaturation="0"
   crs:SplitToningBalance="0"
   crs:ParametricShadows="0"
   crs:ParametricDarks="0"
   crs:ParametricLights="0"
   crs:ParametricHighlights="0"
   crs:ParametricShadowSplit="25"
   crs:ParametricMidtoneSplit="50"
   crs:ParametricHighlightSplit="75"
   crs:SharpenRadius="+1.0"
   crs:SharpenDetail="25"
   crs:SharpenEdgeMasking="0"
   crs:PostCropVignetteAmount="0"
   crs:GrainAmount="19"
   crs:GrainSize="25"
   crs:GrainFrequency="50"
   crs:ColorNoiseReductionDetail="50"
   crs:ColorNoiseReductionSmoothness="50"
   crs:LensProfileEnable="0"
   crs:LensManualDistortionAmount="0"
   crs:AutoLateralCA="0"
   crs:Exposure2012="-0.30"
   crs:Contrast2012="-29"
   crs:Highlights2012="-79"
   crs:Shadows2012="+85"
   crs:Whites2012="+68"
   crs:Blacks2012="+9"
   crs:Clarity2012="+19"
   crs:DefringePurpleAmount="0"
   crs:DefringePurpleHueLo="30"
   crs:DefringePurpleHueHi="70"
   crs:DefringeGreenAmount="0"
   crs:DefringeGreenHueLo="40"
   crs:DefringeGreenHueHi="60"
   crs:Dehaze="0"
   crs:ConvertToGrayscale="False"
   crs:OverrideLookVignette="False"
   crs:ToneCurveName2012="Custom"
   crs:CameraProfile="Adobe Standard"
   crs:LensProfileSetup="LensDefaults"
   crs:HasSettings="True">
   <crs:Name>
    <rdf:Alt>
     <rdf:li xml:lang="x-default">Tezza万事达-Tezza04</rdf:li>
    </rdf:Alt>
   </crs:Name>
   <crs:ShortName>
    <rdf:Alt>
     <rdf:li xml:lang="x-default"/>
    </rdf:Alt>
   </crs:ShortName>
   <crs:SortName>
    <rdf:Alt>
     <rdf:li xml:lang="x-default"/>
    </rdf:Alt>
   </crs:SortName>
   <crs:Group>
    <rdf:Alt>
     <rdf:li xml:lang="x-default">Tezza调色预设合集[sujinyinxiang.taobao.com]</rdf:li>
    </rdf:Alt>
   </crs:Group>
   <crs:Description>
    <rdf:Alt>
     <rdf:li xml:lang="x-default"/>
    </rdf:Alt>
   </crs:Description>
   <crs:ToneCurvePV2012>
    <rdf:Seq>
     <rdf:li>0, 0</rdf:li>
     <rdf:li>54, 62</rdf:li>
     <rdf:li>177, 168</rdf:li>
     <rdf:li>255, 214</rdf:li>
    </rdf:Seq>
   </crs:ToneCurvePV2012>
   <crs:ToneCurvePV2012Red>
    <rdf:Seq>
     <rdf:li>0, 0</rdf:li>
     <rdf:li>40, 12</rdf:li>
     <rdf:li>84, 58</rdf:li>
     <rdf:li>123, 125</rdf:li>
     <rdf:li>186, 196</rdf:li>
     <rdf:li>255, 255</rdf:li>
    </rdf:Seq>
   </crs:ToneCurvePV2012Red>
   <crs:ToneCurvePV2012Green>
    <rdf:Seq>
     <rdf:li>0, 0</rdf:li>
     <rdf:li>40, 14</rdf:li>
     <rdf:li>83, 59</rdf:li>
     <rdf:li>123, 126</rdf:li>
     <rdf:li>172, 185</rdf:li>
     <rdf:li>255, 255</rdf:li>
    </rdf:Seq>
   </crs:ToneCurvePV2012Green>
   <crs:ToneCurvePV2012Blue>
    <rdf:Seq>
     <rdf:li>0, 0</rdf:li>
     <rdf:li>39, 13</rdf:li>
     <rdf:li>87, 65</rdf:li>
     <rdf:li>123, 124</rdf:li>
     <rdf:li>183, 199</rdf:li>
     <rdf:li>255, 255</rdf:li>
    </rdf:Seq>
   </crs:ToneCurvePV2012Blue>
   <crs:Look
    crs:Name=""/>
  </rdf:Description>
 </rdf:RDF>
</x:xmpmeta>
