其他预设/【240】TEZZA调色预设合集24款/3.XMP格式(PS)预设/Tezza万事达-Cole01.xmp
<x:xmpmeta xmlns:x="adobe:ns:meta/" x:xmptk="Adobe XMP Core 5.6-c140 79.160451, 2017/05/06-01:08:21        ">
 <rdf:RDF xmlns:rdf="http://www.w3.org/1999/02/22-rdf-syntax-ns#">
  <rdf:Description rdf:about=""
    xmlns:crs="http://ns.adobe.com/camera-raw-settings/1.0/"
   crs:PresetType="Normal"
   crs:Cluster=""
   crs:UUID="F282D6ECFFCE00F57743203071366250"
   crs:SupportsAmount="False"
   crs:SupportsColor="True"
   crs:SupportsMonochrome="True"
   crs:SupportsHighDynamicRange="True"
   crs:SupportsNormalDynamicRange="True"
   crs:SupportsSceneReferred="True"
   crs:SupportsOutputReferred="True"
   crs:CameraModelRestriction=""
   crs:Copyright=""
   crs:ContactInfo=""
   crs:Version="10.5"
   crs:ProcessVersion="6.7"
   crs:WhiteBalance="As Shot"
   crs:Saturation="-15"
   crs:Sharpness="41"
   crs:LuminanceSmoothing="0"
   crs:ColorNoiseReduction="25"
   crs:VignetteAmount="0"
   crs:ShadowTint="-4"
   crs:RedHue="+30"
   crs:RedSaturation="+30"
   crs:GreenHue="+55"
   crs:GreenSaturation="-20"
   crs:BlueHue="-10"
   crs:BlueSaturation="-10"
   crs:Vibrance="0"
   crs:HueAdjustmentRed="+39"
   crs:HueAdjustmentOrange="0"
   crs:HueAdjustmentYellow="-17"
   crs:HueAdjustmentGreen="0"
   crs:HueAdjustmentAqua="-4"
   crs:HueAdjustmentBlue="-23"
   crs:HueAdjustmentPurple="-100"
   crs:HueAdjustmentMagenta="0"
   crs:SaturationAdjustmentRed="-22"
   crs:SaturationAdjustmentOrange="-18"
   crs:SaturationAdjustmentYellow="-38"
   crs:SaturationAdjustmentGreen="-51"
   crs:SaturationAdjustmentAqua="-27"
   crs:SaturationAdjustmentBlue="-22"
   crs:SaturationAdjustmentPurple="-69"
   crs:SaturationAdjustmentMagenta="-57"
   crs:LuminanceAdjustmentRed="-25"
   crs:LuminanceAdjustmentOrange="-12"
   crs:LuminanceAdjustmentYellow="+24"
   crs:LuminanceAdjustmentGreen="-3"
   crs:LuminanceAdjustmentAqua="+15"
   crs:LuminanceAdjustmentBlue="-18"
   crs:LuminanceAdjustmentPurple="-12"
   crs:LuminanceAdjustmentMagenta="0"
   crs:SplitToningShadowHue="240"
   crs:SplitToningShadowSaturation="0"
   crs:SplitToningHighlightHue="0"
   crs:SplitToningHighlightSaturation="0"
   crs:SplitToningBalance="+75"
   crs:ParametricShadows="0"
   crs:ParametricDarks="0"
   crs:ParametricLights="0"
   crs:ParametricHighlights="0"
   crs:ParametricShadowSplit="20"
   crs:ParametricMidtoneSplit="48"
   crs:ParametricHighlightSplit="75"
   crs:SharpenRadius="+1.0"
   crs:SharpenDetail="25"
   crs:SharpenEdgeMasking="0"
   crs:PostCropVignetteAmount="0"
   crs:GrainAmount="27"
   crs:GrainSize="18"
   crs:GrainFrequency="85"
   crs:ColorNoiseReductionDetail="50"
   crs:ColorNoiseReductionSmoothness="50"
   crs:LensProfileEnable="0"
   crs:AutoLateralCA="0"
   crs:Exposure2012="-0.27"
   crs:Contrast2012="0"
   crs:Highlights2012="-40"
   crs:Shadows2012="+30"
   crs:Whites2012="+2"
   crs:Blacks2012="+22"
   crs:Clarity2012="-10"
   crs:DefringePurpleAmount="0"
   crs:DefringePurpleHueLo="30"
   crs:DefringePurpleHueHi="70"
   crs:DefringeGreenAmount="0"
   crs:DefringeGreenHueLo="40"
   crs:DefringeGreenHueHi="60"
   crs:Dehaze="0"
   crs:ConvertToGrayscale="False"
   crs:OverrideLookVignette="False"
   crs:ToneCurveName2012="Custom"
   crs:CameraProfile="Agfa Vista 800 - C"
   crs:LensProfileSetup="LensDefaults"
   crs:HasSettings="True">
   <crs:Name>
    <rdf:Alt>
     <rdf:li xml:lang="x-default">Tezza万事达-Cole01</rdf:li>
    </rdf:Alt>
   </crs:Name>
   <crs:ShortName>
    <rdf:Alt>
     <rdf:li xml:lang="x-default"/>
    </rdf:Alt>
   </crs:ShortName>
   <crs:SortName>
    <rdf:Alt>
     <rdf:li xml:lang="x-default"/>
    </rdf:Alt>
   </crs:SortName>
   <crs:Group>
    <rdf:Alt>
     <rdf:li xml:lang="x-default">Tezza调色预设合集[sujinyinxiang.taobao.com]</rdf:li>
    </rdf:Alt>
   </crs:Group>
   <crs:Description>
    <rdf:Alt>
     <rdf:li xml:lang="x-default"/>
    </rdf:Alt>
   </crs:Description>
   <crs:ToneCurvePV2012>
    <rdf:Seq>
     <rdf:li>0, 48</rdf:li>
     <rdf:li>77, 76</rdf:li>
     <rdf:li>133, 133</rdf:li>
     <rdf:li>189, 187</rdf:li>
     <rdf:li>255, 245</rdf:li>
    </rdf:Seq>
   </crs:ToneCurvePV2012>
   <crs:ToneCurvePV2012Red>
    <rdf:Seq>
     <rdf:li>0, 0</rdf:li>
     <rdf:li>30, 16</rdf:li>
     <rdf:li>75, 64</rdf:li>
     <rdf:li>113, 122</rdf:li>
     <rdf:li>174, 197</rdf:li>
     <rdf:li>255, 255</rdf:li>
    </rdf:Seq>
   </crs:ToneCurvePV2012Red>
   <crs:ToneCurvePV2012Green>
    <rdf:Seq>
     <rdf:li>0, 0</rdf:li>
     <rdf:li>32, 11</rdf:li>
     <rdf:li>114, 120</rdf:li>
     <rdf:li>178, 200</rdf:li>
     <rdf:li>255, 255</rdf:li>
    </rdf:Seq>
   </crs:ToneCurvePV2012Green>
   <crs:ToneCurvePV2012Blue>
    <rdf:Seq>
     <rdf:li>0, 0</rdf:li>
     <rdf:li>80, 49</rdf:li>
     <rdf:li>121, 119</rdf:li>
     <rdf:li>174, 194</rdf:li>
     <rdf:li>255, 255</rdf:li>
    </rdf:Seq>
   </crs:ToneCurvePV2012Blue>
   <crs:Look
    crs:Name=""/>
  </rdf:Description>
 </rdf:RDF>
</x:xmpmeta>
