其他预设/【213】赛博朋克科幻预设52款/3.XMP格式(PS)预设/赛博朋克科幻-8 强度4.xmp
<x:xmpmeta xmlns:x="adobe:ns:meta/" x:xmptk="Adobe XMP Core 5.6-c140 79.160451, 2017/05/06-01:08:21        ">
 <rdf:RDF xmlns:rdf="http://www.w3.org/1999/02/22-rdf-syntax-ns#">
  <rdf:Description rdf:about=""
    xmlns:crs="http://ns.adobe.com/camera-raw-settings/1.0/"
   crs:PresetType="Normal"
   crs:Cluster=""
   crs:UUID="2976C07F0459C0A7D46A4462055FA2AF"
   crs:SupportsAmount="False"
   crs:SupportsColor="True"
   crs:SupportsMonochrome="True"
   crs:SupportsHighDynamicRange="True"
   crs:SupportsNormalDynamicRange="True"
   crs:SupportsSceneReferred="True"
   crs:SupportsOutputReferred="True"
   crs:CameraModelRestriction=""
   crs:Copyright=""
   crs:ContactInfo=""
   crs:Version="10.5"
   crs:ProcessVersion="6.7"
   crs:ShadowTint="0"
   crs:RedHue="-80"
   crs:RedSaturation="+60"
   crs:GreenHue="+60"
   crs:GreenSaturation="+40"
   crs:BlueHue="0"
   crs:BlueSaturation="0"
   crs:HueAdjustmentRed="-80"
   crs:HueAdjustmentOrange="-80"
   crs:HueAdjustmentYellow="+32"
   crs:HueAdjustmentGreen="+64"
   crs:HueAdjustmentAqua="+48"
   crs:HueAdjustmentBlue="-16"
   crs:HueAdjustmentPurple="0"
   crs:HueAdjustmentMagenta="-32"
   crs:SaturationAdjustmentRed="-48"
   crs:SaturationAdjustmentOrange="-16"
   crs:SaturationAdjustmentYellow="0"
   crs:SaturationAdjustmentGreen="-32"
   crs:SaturationAdjustmentAqua="-16"
   crs:SaturationAdjustmentBlue="0"
   crs:SaturationAdjustmentPurple="-16"
   crs:SaturationAdjustmentMagenta="-32"
   crs:LuminanceAdjustmentRed="0"
   crs:LuminanceAdjustmentOrange="0"
   crs:LuminanceAdjustmentYellow="0"
   crs:LuminanceAdjustmentGreen="0"
   crs:LuminanceAdjustmentAqua="-48"
   crs:LuminanceAdjustmentBlue="-32"
   crs:LuminanceAdjustmentPurple="+32"
   crs:LuminanceAdjustmentMagenta="+48"
   crs:ParametricShadows="0"
   crs:ParametricDarks="0"
   crs:ParametricLights="0"
   crs:ParametricHighlights="0"
   crs:ParametricShadowSplit="25"
   crs:ParametricMidtoneSplit="50"
   crs:ParametricHighlightSplit="75"
   crs:Clarity2012="+54"
   crs:Dehaze="0"
   crs:ConvertToGrayscale="False"
   crs:ToneCurveName2012="Custom"
   crs:CameraProfile="Embedded"
   crs:HasSettings="True">
   <crs:Name>
    <rdf:Alt>
     <rdf:li xml:lang="x-default">赛博朋克科幻[素锦印象]-8 强度4</rdf:li>
    </rdf:Alt>
   </crs:Name>
   <crs:ShortName>
    <rdf:Alt>
     <rdf:li xml:lang="x-default"/>
    </rdf:Alt>
   </crs:ShortName>
   <crs:SortName>
    <rdf:Alt>
     <rdf:li xml:lang="x-default"/>
    </rdf:Alt>
   </crs:SortName>
   <crs:Group>
    <rdf:Alt>
     <rdf:li xml:lang="x-default">赛博朋克科幻风[sujinyinxiang.taobao.com]</rdf:li>
    </rdf:Alt>
   </crs:Group>
   <crs:Description>
    <rdf:Alt>
     <rdf:li xml:lang="x-default"/>
    </rdf:Alt>
   </crs:Description>
   <crs:ToneCurvePV2012>
    <rdf:Seq>
     <rdf:li>0, 0</rdf:li>
     <rdf:li>60, 39</rdf:li>
     <rdf:li>128, 128</rdf:li>
     <rdf:li>187, 196</rdf:li>
     <rdf:li>255, 255</rdf:li>
    </rdf:Seq>
   </crs:ToneCurvePV2012>
   <crs:ToneCurvePV2012Red>
    <rdf:Seq>
     <rdf:li>0, 0</rdf:li>
     <rdf:li>190, 172</rdf:li>
     <rdf:li>255, 255</rdf:li>
    </rdf:Seq>
   </crs:ToneCurvePV2012Red>
   <crs:ToneCurvePV2012Green>
    <rdf:Seq>
     <rdf:li>0, 5</rdf:li>
     <rdf:li>255, 255</rdf:li>
    </rdf:Seq>
   </crs:ToneCurvePV2012Green>
   <crs:ToneCurvePV2012Blue>
    <rdf:Seq>
     <rdf:li>0, 0</rdf:li>
     <rdf:li>255, 232</rdf:li>
    </rdf:Seq>
   </crs:ToneCurvePV2012Blue>
   <crs:Look
    crs:Name=""/>
  </rdf:Description>
 </rdf:RDF>
</x:xmpmeta>
