其他预设/【213】赛博朋克科幻预设52款/3.XMP格式(PS)预设/赛博朋克科幻-7 强度4.xmp
<x:xmpmeta xmlns:x="adobe:ns:meta/" x:xmptk="Adobe XMP Core 5.6-c140 79.160451, 2017/05/06-01:08:21        ">
 <rdf:RDF xmlns:rdf="http://www.w3.org/1999/02/22-rdf-syntax-ns#">
  <rdf:Description rdf:about=""
    xmlns:crs="http://ns.adobe.com/camera-raw-settings/1.0/"
   crs:PresetType="Normal"
   crs:Cluster=""
   crs:UUID="BE4C88E21ECC4CDEB9766DDF980018B5"
   crs:SupportsAmount="False"
   crs:SupportsColor="True"
   crs:SupportsMonochrome="True"
   crs:SupportsHighDynamicRange="True"
   crs:SupportsNormalDynamicRange="True"
   crs:SupportsSceneReferred="True"
   crs:SupportsOutputReferred="True"
   crs:CameraModelRestriction=""
   crs:Copyright=""
   crs:ContactInfo=""
   crs:Version="10.5"
   crs:ProcessVersion="6.7"
   crs:ShadowTint="0"
   crs:RedHue="+80"
   crs:RedSaturation="0"
   crs:GreenHue="+80"
   crs:GreenSaturation="-40"
   crs:BlueHue="-60"
   crs:BlueSaturation="+40"
   crs:HueAdjustmentRed="+32"
   crs:HueAdjustmentOrange="-32"
   crs:HueAdjustmentYellow="-48"
   crs:HueAdjustmentGreen="+16"
   crs:HueAdjustmentAqua="-48"
   crs:HueAdjustmentBlue="-32"
   crs:HueAdjustmentPurple="0"
   crs:HueAdjustmentMagenta="+16"
   crs:SaturationAdjustmentRed="0"
   crs:SaturationAdjustmentOrange="0"
   crs:SaturationAdjustmentYellow="0"
   crs:SaturationAdjustmentGreen="0"
   crs:SaturationAdjustmentAqua="0"
   crs:SaturationAdjustmentBlue="0"
   crs:SaturationAdjustmentPurple="0"
   crs:SaturationAdjustmentMagenta="0"
   crs:LuminanceAdjustmentRed="+16"
   crs:LuminanceAdjustmentOrange="+16"
   crs:LuminanceAdjustmentYellow="+32"
   crs:LuminanceAdjustmentGreen="+16"
   crs:LuminanceAdjustmentAqua="0"
   crs:LuminanceAdjustmentBlue="+48"
   crs:LuminanceAdjustmentPurple="+8"
   crs:LuminanceAdjustmentMagenta="0"
   crs:ParametricShadows="0"
   crs:ParametricDarks="0"
   crs:ParametricLights="0"
   crs:ParametricHighlights="0"
   crs:ParametricShadowSplit="25"
   crs:ParametricMidtoneSplit="50"
   crs:ParametricHighlightSplit="75"
   crs:Clarity2012="0"
   crs:Dehaze="0"
   crs:ConvertToGrayscale="False"
   crs:ToneCurveName2012="Custom"
   crs:CameraProfile="Embedded"
   crs:HasSettings="True">
   <crs:Name>
    <rdf:Alt>
     <rdf:li xml:lang="x-default">赛博朋克科幻[素锦印象]-7 强度4</rdf:li>
    </rdf:Alt>
   </crs:Name>
   <crs:ShortName>
    <rdf:Alt>
     <rdf:li xml:lang="x-default"/>
    </rdf:Alt>
   </crs:ShortName>
   <crs:SortName>
    <rdf:Alt>
     <rdf:li xml:lang="x-default"/>
    </rdf:Alt>
   </crs:SortName>
   <crs:Group>
    <rdf:Alt>
     <rdf:li xml:lang="x-default">赛博朋克科幻风[sujinyinxiang.taobao.com]</rdf:li>
    </rdf:Alt>
   </crs:Group>
   <crs:Description>
    <rdf:Alt>
     <rdf:li xml:lang="x-default"/>
    </rdf:Alt>
   </crs:Description>
   <crs:ToneCurvePV2012>
    <rdf:Seq>
     <rdf:li>12, 11</rdf:li>
     <rdf:li>55, 40</rdf:li>
     <rdf:li>126, 126</rdf:li>
     <rdf:li>191, 199</rdf:li>
     <rdf:li>255, 255</rdf:li>
    </rdf:Seq>
   </crs:ToneCurvePV2012>
   <crs:ToneCurvePV2012Red>
    <rdf:Seq>
     <rdf:li>0, 0</rdf:li>
     <rdf:li>255, 255</rdf:li>
    </rdf:Seq>
   </crs:ToneCurvePV2012Red>
   <crs:ToneCurvePV2012Green>
    <rdf:Seq>
     <rdf:li>0, 6</rdf:li>
     <rdf:li>255, 255</rdf:li>
    </rdf:Seq>
   </crs:ToneCurvePV2012Green>
   <crs:ToneCurvePV2012Blue>
    <rdf:Seq>
     <rdf:li>0, 5</rdf:li>
     <rdf:li>255, 237</rdf:li>
    </rdf:Seq>
   </crs:ToneCurvePV2012Blue>
   <crs:Look
    crs:Name=""/>
  </rdf:Description>
 </rdf:RDF>
</x:xmpmeta>
