其他预设/【233】日式怀旧街道调色预设208款/2.LR预设文件/3.日式城市街拍预设 (自动曝光预设)/JA – Cine Night 4 (Auto-Exposure).lrtemplate
s = {
	id = "097EFAAA-8371-4C4D-AD5A-37ECDC712779",
	internalName = "JA – Cine Night 4 (Auto-Exposure)",
	title = "JA – Cine Night 4 (Auto-Exposure)",
	type = "Develop",
	value = {
		settings = {
			AutoBrightness = false,
			AutoContrast = false,
			AutoExposure = false,
			AutoShadows = false,
			AutoTone = true,
			BlueHue = -27,
			BlueSaturation = -12,
			CameraProfile = "Adobe Standard",
			Clarity2012 = 10,
			ConvertToGrayscale = false,
			Dehaze = 0,
			EnableCalibration = true,
			EnableCircularGradientBasedCorrections = true,
			EnableColorAdjustments = true,
			EnableEffects = true,
			EnableGradientBasedCorrections = true,
			EnableSplitToning = true,
			GrainAmount = 13,
			GrainFrequency = 31,
			GrainSize = 25,
			GreenHue = 60,
			GreenSaturation = -26,
			HueAdjustmentAqua = 0,
			HueAdjustmentBlue = -13,
			HueAdjustmentGreen = 0,
			HueAdjustmentMagenta = -18,
			HueAdjustmentOrange = 12,
			HueAdjustmentPurple = -5,
			HueAdjustmentRed = 26,
			HueAdjustmentYellow = 10,
			LuminanceAdjustmentAqua = 8,
			LuminanceAdjustmentBlue = -15,
			LuminanceAdjustmentGreen = 0,
			LuminanceAdjustmentMagenta = -17,
			LuminanceAdjustmentOrange = 10,
			LuminanceAdjustmentPurple = -23,
			LuminanceAdjustmentRed = -5,
			LuminanceAdjustmentYellow = 9,
			ParametricDarks = 0,
			ParametricHighlightSplit = 75,
			ParametricHighlights = 0,
			ParametricLights = 0,
			ParametricMidtoneSplit = 50,
			ParametricShadowSplit = 25,
			ParametricShadows = 0,
			PostCropVignetteAmount = 0,
			PostCropVignetteFeather = 50,
			PostCropVignetteHighlightContrast = 0,
			PostCropVignetteMidpoint = 50,
			PostCropVignetteRoundness = 0,
			PostCropVignetteStyle = 1,
			ProcessVersion = "10.0",
			RedHue = 26,
			RedSaturation = 0,
			SaturationAdjustmentAqua = -32,
			SaturationAdjustmentBlue = -38,
			SaturationAdjustmentGreen = 0,
			SaturationAdjustmentMagenta = -36,
			SaturationAdjustmentOrange = -20,
			SaturationAdjustmentPurple = -24,
			SaturationAdjustmentRed = -30,
			SaturationAdjustmentYellow = -21,
			ShadowTint = -3,
			SplitToningBalance = 78,
			SplitToningHighlightHue = 54,
			SplitToningHighlightSaturation = 9,
			SplitToningShadowHue = 220,
			SplitToningShadowSaturation = 19,
			ToneCurveName2012 = "Custom",
			ToneCurvePV2012 = {
				0,
				8,
				43,
				33,
				93,
				94,
				128,
				153,
				181,
				212,
				224,
				242,
				255,
				247,
			},
			ToneCurvePV2012Blue = {
				0,
				12,
				53,
				63,
				125,
				129,
				197,
				196,
				255,
				245,
			},
			ToneCurvePV2012Green = {
				9,
				1,
				61,
				64,
				125,
				126,
				195,
				194,
				255,
				245,
			},
			ToneCurvePV2012Red = {
				0,
				0,
				53,
				46,
				119,
				122,
				204,
				209,
				255,
				255,
			},
			orientation = "DA",
		},
		uuid = "B1E21BF6-7AA0-47EA-A9A9-1DFB787FEE45",
	},
	version = 0,
}
