其他预设/【233】日式怀旧街道调色预设208款/2.LR预设文件/3.日式城市街拍预设 (自动曝光预设)/JA_–_Cityscape_Pop_1_(Auto-Exposure).lrtemplate
s = {
	id = "77F806E0-D8EC-46DA-B2AA-0F5E451D1F21",
	internalName = "JA Urban — Cityscape Pop 1 (Auto)",
	title = "JA – Cityscape Pop 1 (Auto-Exposure)",
	type = "Develop",
	value = {
		settings = {
			AutoBrightness = false,
			AutoContrast = false,
			AutoExposure = false,
			AutoShadows = false,
			AutoTone = true,
			BlueHue = -24,
			BlueSaturation = 0,
			CameraProfile = "Adobe Standard",
			Clarity2012 = 16,
			ConvertToGrayscale = false,
			Dehaze = 0,
			EnableCalibration = true,
			EnableCircularGradientBasedCorrections = true,
			EnableColorAdjustments = true,
			EnableEffects = true,
			EnableGradientBasedCorrections = true,
			EnableSplitToning = true,
			GrainAmount = 10,
			GrainFrequency = 50,
			GrainSize = 25,
			GreenHue = -17,
			GreenSaturation = 17,
			HueAdjustmentAqua = 6,
			HueAdjustmentBlue = 23,
			HueAdjustmentGreen = -18,
			HueAdjustmentMagenta = 0,
			HueAdjustmentOrange = -2,
			HueAdjustmentPurple = 0,
			HueAdjustmentRed = 5,
			HueAdjustmentYellow = -22,
			LuminanceAdjustmentAqua = 6,
			LuminanceAdjustmentBlue = 28,
			LuminanceAdjustmentGreen = -7,
			LuminanceAdjustmentMagenta = 0,
			LuminanceAdjustmentOrange = 2,
			LuminanceAdjustmentPurple = -5,
			LuminanceAdjustmentRed = 0,
			LuminanceAdjustmentYellow = 2,
			ParametricDarks = 0,
			ParametricHighlightSplit = 75,
			ParametricHighlights = 0,
			ParametricLights = 0,
			ParametricMidtoneSplit = 50,
			ParametricShadowSplit = 25,
			ParametricShadows = 0,
			ProcessVersion = "6.7",
			RedHue = 18,
			RedSaturation = 4,
			Saturation = -3,
			SaturationAdjustmentAqua = 15,
			SaturationAdjustmentBlue = 24,
			SaturationAdjustmentGreen = -9,
			SaturationAdjustmentMagenta = -24,
			SaturationAdjustmentOrange = 5,
			SaturationAdjustmentPurple = -22,
			SaturationAdjustmentRed = 3,
			SaturationAdjustmentYellow = -10,
			ShadowTint = 0,
			SplitToningBalance = 0,
			SplitToningHighlightHue = 26,
			SplitToningHighlightSaturation = 5,
			SplitToningShadowHue = 214,
			SplitToningShadowSaturation = 3,
			ToneCurveName2012 = "Custom",
			ToneCurvePV2012 = {
				0,
				23,
				37,
				31,
				72,
				67,
				106,
				115,
				140,
				158,
				179,
				197,
				255,
				239,
			},
			ToneCurvePV2012Blue = {
				0,
				0,
				255,
				255,
			},
			ToneCurvePV2012Green = {
				0,
				0,
				255,
				255,
			},
			ToneCurvePV2012Red = {
				0,
				0,
				255,
				255,
			},
			Vibrance = 11,
			orientation = "DA",
		},
		uuid = "B5037E70-3CDF-4E04-8C4A-B110C948C841",
	},
	version = 0,
}
