其他预设/【222】ins时尚旅拍KATIE-ONE1预设10款/3.XMP格式(PS)预设/ins时尚旅拍-7 PIZZA.xmp
<x:xmpmeta xmlns:x="adobe:ns:meta/" x:xmptk="Adobe XMP Core 5.6-c140 79.160451, 2017/05/06-01:08:21        ">
 <rdf:RDF xmlns:rdf="http://www.w3.org/1999/02/22-rdf-syntax-ns#">
  <rdf:Description rdf:about=""
    xmlns:crs="http://ns.adobe.com/camera-raw-settings/1.0/"
   crs:PresetType="Normal"
   crs:Cluster=""
   crs:UUID="2712CF9EC7113EBD63082FDD44CDEFE8"
   crs:SupportsAmount="False"
   crs:SupportsColor="True"
   crs:SupportsMonochrome="True"
   crs:SupportsHighDynamicRange="True"
   crs:SupportsNormalDynamicRange="True"
   crs:SupportsSceneReferred="True"
   crs:SupportsOutputReferred="True"
   crs:CameraModelRestriction=""
   crs:Copyright=""
   crs:ContactInfo=""
   crs:Version="10.5"
   crs:ProcessVersion="6.7"
   crs:WhiteBalance="As Shot"
   crs:Saturation="0"
   crs:Sharpness="0"
   crs:LuminanceSmoothing="0"
   crs:ColorNoiseReduction="25"
   crs:VignetteAmount="0"
   crs:ShadowTint="0"
   crs:RedHue="+16"
   crs:RedSaturation="+17"
   crs:GreenHue="+65"
   crs:GreenSaturation="+21"
   crs:BlueHue="0"
   crs:BlueSaturation="+41"
   crs:Vibrance="+34"
   crs:HueAdjustmentRed="+2"
   crs:HueAdjustmentOrange="-13"
   crs:HueAdjustmentYellow="-44"
   crs:HueAdjustmentGreen="+24"
   crs:HueAdjustmentAqua="+8"
   crs:HueAdjustmentBlue="-42"
   crs:HueAdjustmentPurple="+41"
   crs:HueAdjustmentMagenta="+13"
   crs:SaturationAdjustmentRed="-21"
   crs:SaturationAdjustmentOrange="-26"
   crs:SaturationAdjustmentYellow="-33"
   crs:SaturationAdjustmentGreen="-50"
   crs:SaturationAdjustmentAqua="-41"
   crs:SaturationAdjustmentBlue="-41"
   crs:SaturationAdjustmentPurple="-73"
   crs:SaturationAdjustmentMagenta="-45"
   crs:LuminanceAdjustmentRed="-15"
   crs:LuminanceAdjustmentOrange="+71"
   crs:LuminanceAdjustmentYellow="+26"
   crs:LuminanceAdjustmentGreen="-36"
   crs:LuminanceAdjustmentAqua="+23"
   crs:LuminanceAdjustmentBlue="+25"
   crs:LuminanceAdjustmentPurple="0"
   crs:LuminanceAdjustmentMagenta="+22"
   crs:SplitToningShadowHue="91"
   crs:SplitToningShadowSaturation="3"
   crs:SplitToningHighlightHue="205"
   crs:SplitToningHighlightSaturation="5"
   crs:SplitToningBalance="+70"
   crs:ParametricShadows="0"
   crs:ParametricDarks="0"
   crs:ParametricLights="0"
   crs:ParametricHighlights="0"
   crs:ParametricShadowSplit="14"
   crs:ParametricMidtoneSplit="43"
   crs:ParametricHighlightSplit="75"
   crs:SharpenRadius="+1.0"
   crs:SharpenDetail="25"
   crs:SharpenEdgeMasking="0"
   crs:PostCropVignetteAmount="0"
   crs:GrainAmount="0"
   crs:ColorNoiseReductionDetail="50"
   crs:ColorNoiseReductionSmoothness="50"
   crs:LensProfileEnable="1"
   crs:LensManualDistortionAmount="0"
   crs:PerspectiveVertical="0"
   crs:PerspectiveHorizontal="0"
   crs:PerspectiveRotate="0.0"
   crs:PerspectiveScale="100"
   crs:PerspectiveAspect="0"
   crs:PerspectiveUpright="0"
   crs:PerspectiveX="0.00"
   crs:PerspectiveY="0.00"
   crs:AutoLateralCA="1"
   crs:Exposure2012="0.00"
   crs:Contrast2012="-30"
   crs:Highlights2012="-100"
   crs:Shadows2012="+84"
   crs:Whites2012="+64"
   crs:Blacks2012="+95"
   crs:Clarity2012="+10"
   crs:DefringePurpleAmount="0"
   crs:DefringePurpleHueLo="30"
   crs:DefringePurpleHueHi="70"
   crs:DefringeGreenAmount="0"
   crs:DefringeGreenHueLo="40"
   crs:DefringeGreenHueHi="60"
   crs:Dehaze="0"
   crs:ConvertToGrayscale="False"
   crs:OverrideLookVignette="False"
   crs:ToneCurveName2012="Custom"
   crs:CameraProfile="Embedded"
   crs:LensProfileSetup="LensDefaults"
   crs:HasSettings="True">
   <crs:Name>
    <rdf:Alt>
     <rdf:li xml:lang="x-default">ins时尚旅拍[素锦印象]-7 PIZZA</rdf:li>
    </rdf:Alt>
   </crs:Name>
   <crs:ShortName>
    <rdf:Alt>
     <rdf:li xml:lang="x-default"/>
    </rdf:Alt>
   </crs:ShortName>
   <crs:SortName>
    <rdf:Alt>
     <rdf:li xml:lang="x-default"/>
    </rdf:Alt>
   </crs:SortName>
   <crs:Group>
    <rdf:Alt>
     <rdf:li xml:lang="x-default">ins时尚旅拍Katieone1[sujinyinxiang.taobao.com]</rdf:li>
    </rdf:Alt>
   </crs:Group>
   <crs:Description>
    <rdf:Alt>
     <rdf:li xml:lang="x-default"/>
    </rdf:Alt>
   </crs:Description>
   <crs:ToneCurvePV2012>
    <rdf:Seq>
     <rdf:li>0, 16</rdf:li>
     <rdf:li>57, 68</rdf:li>
     <rdf:li>131, 129</rdf:li>
     <rdf:li>190, 183</rdf:li>
     <rdf:li>255, 250</rdf:li>
    </rdf:Seq>
   </crs:ToneCurvePV2012>
   <crs:ToneCurvePV2012Red>
    <rdf:Seq>
     <rdf:li>4, 8</rdf:li>
     <rdf:li>63, 27</rdf:li>
     <rdf:li>106, 93</rdf:li>
     <rdf:li>173, 201</rdf:li>
     <rdf:li>255, 255</rdf:li>
    </rdf:Seq>
   </crs:ToneCurvePV2012Red>
   <crs:ToneCurvePV2012Green>
    <rdf:Seq>
     <rdf:li>0, 0</rdf:li>
     <rdf:li>55, 20</rdf:li>
     <rdf:li>128, 133</rdf:li>
     <rdf:li>178, 198</rdf:li>
     <rdf:li>255, 255</rdf:li>
    </rdf:Seq>
   </crs:ToneCurvePV2012Green>
   <crs:ToneCurvePV2012Blue>
    <rdf:Seq>
     <rdf:li>0, 0</rdf:li>
     <rdf:li>64, 34</rdf:li>
     <rdf:li>119, 117</rdf:li>
     <rdf:li>169, 191</rdf:li>
     <rdf:li>255, 255</rdf:li>
    </rdf:Seq>
   </crs:ToneCurvePV2012Blue>
   <crs:Look
    crs:Name=""/>
  </rdf:Description>
 </rdf:RDF>
</x:xmpmeta>
