其他预设/【222】ins时尚旅拍KATIE-ONE1预设10款/3.XMP格式(PS)预设/ins时尚旅拍-5 WINE.xmp
<x:xmpmeta xmlns:x="adobe:ns:meta/" x:xmptk="Adobe XMP Core 5.6-c140 79.160451, 2017/05/06-01:08:21        ">
 <rdf:RDF xmlns:rdf="http://www.w3.org/1999/02/22-rdf-syntax-ns#">
  <rdf:Description rdf:about=""
    xmlns:crs="http://ns.adobe.com/camera-raw-settings/1.0/"
   crs:PresetType="Normal"
   crs:Cluster=""
   crs:UUID="73D665085403BBB13CA52FFCE4BD0DDB"
   crs:SupportsAmount="False"
   crs:SupportsColor="True"
   crs:SupportsMonochrome="True"
   crs:SupportsHighDynamicRange="True"
   crs:SupportsNormalDynamicRange="True"
   crs:SupportsSceneReferred="True"
   crs:SupportsOutputReferred="True"
   crs:CameraModelRestriction=""
   crs:Copyright=""
   crs:ContactInfo=""
   crs:Version="10.5"
   crs:ProcessVersion="6.7"
   crs:WhiteBalance="As Shot"
   crs:Saturation="0"
   crs:Sharpness="55"
   crs:LuminanceSmoothing="13"
   crs:ColorNoiseReduction="25"
   crs:VignetteAmount="0"
   crs:ShadowTint="0"
   crs:RedHue="+22"
   crs:RedSaturation="+19"
   crs:GreenHue="+58"
   crs:GreenSaturation="+24"
   crs:BlueHue="0"
   crs:BlueSaturation="+38"
   crs:Vibrance="+12"
   crs:HueAdjustmentRed="+4"
   crs:HueAdjustmentOrange="0"
   crs:HueAdjustmentYellow="-22"
   crs:HueAdjustmentGreen="-12"
   crs:HueAdjustmentAqua="-14"
   crs:HueAdjustmentBlue="-8"
   crs:HueAdjustmentPurple="+7"
   crs:HueAdjustmentMagenta="-10"
   crs:SaturationAdjustmentRed="-20"
   crs:SaturationAdjustmentOrange="-2"
   crs:SaturationAdjustmentYellow="-6"
   crs:SaturationAdjustmentGreen="-66"
   crs:SaturationAdjustmentAqua="-49"
   crs:SaturationAdjustmentBlue="-22"
   crs:SaturationAdjustmentPurple="-19"
   crs:SaturationAdjustmentMagenta="-21"
   crs:LuminanceAdjustmentRed="-7"
   crs:LuminanceAdjustmentOrange="+34"
   crs:LuminanceAdjustmentYellow="+8"
   crs:LuminanceAdjustmentGreen="-3"
   crs:LuminanceAdjustmentAqua="+17"
   crs:LuminanceAdjustmentBlue="+26"
   crs:LuminanceAdjustmentPurple="+26"
   crs:LuminanceAdjustmentMagenta="+42"
   crs:SplitToningShadowHue="0"
   crs:SplitToningShadowSaturation="0"
   crs:SplitToningHighlightHue="225"
   crs:SplitToningHighlightSaturation="5"
   crs:SplitToningBalance="-24"
   crs:ParametricShadows="0"
   crs:ParametricDarks="0"
   crs:ParametricLights="+16"
   crs:ParametricHighlights="0"
   crs:ParametricShadowSplit="14"
   crs:ParametricMidtoneSplit="43"
   crs:ParametricHighlightSplit="75"
   crs:SharpenRadius="+1.0"
   crs:SharpenDetail="9"
   crs:SharpenEdgeMasking="79"
   crs:PostCropVignetteAmount="0"
   crs:GrainAmount="0"
   crs:LuminanceNoiseReductionDetail="50"
   crs:ColorNoiseReductionDetail="50"
   crs:LuminanceNoiseReductionContrast="0"
   crs:ColorNoiseReductionSmoothness="50"
   crs:LensProfileEnable="1"
   crs:LensManualDistortionAmount="0"
   crs:PerspectiveVertical="0"
   crs:PerspectiveHorizontal="0"
   crs:PerspectiveRotate="0.0"
   crs:PerspectiveScale="100"
   crs:PerspectiveAspect="0"
   crs:PerspectiveUpright="0"
   crs:PerspectiveX="0.00"
   crs:PerspectiveY="0.00"
   crs:AutoLateralCA="1"
   crs:Exposure2012="0.00"
   crs:Contrast2012="0"
   crs:Highlights2012="-100"
   crs:Shadows2012="+100"
   crs:Whites2012="+52"
   crs:Blacks2012="+52"
   crs:Clarity2012="+24"
   crs:DefringePurpleAmount="0"
   crs:DefringePurpleHueLo="30"
   crs:DefringePurpleHueHi="70"
   crs:DefringeGreenAmount="0"
   crs:DefringeGreenHueLo="40"
   crs:DefringeGreenHueHi="60"
   crs:Dehaze="0"
   crs:ConvertToGrayscale="False"
   crs:OverrideLookVignette="False"
   crs:ToneCurveName2012="Custom"
   crs:CameraProfile="Embedded"
   crs:LensProfileSetup="LensDefaults"
   crs:HasSettings="True">
   <crs:Name>
    <rdf:Alt>
     <rdf:li xml:lang="x-default">ins时尚旅拍[素锦印象]-5 WINE</rdf:li>
    </rdf:Alt>
   </crs:Name>
   <crs:ShortName>
    <rdf:Alt>
     <rdf:li xml:lang="x-default"/>
    </rdf:Alt>
   </crs:ShortName>
   <crs:SortName>
    <rdf:Alt>
     <rdf:li xml:lang="x-default"/>
    </rdf:Alt>
   </crs:SortName>
   <crs:Group>
    <rdf:Alt>
     <rdf:li xml:lang="x-default">ins时尚旅拍Katieone1[sujinyinxiang.taobao.com]</rdf:li>
    </rdf:Alt>
   </crs:Group>
   <crs:Description>
    <rdf:Alt>
     <rdf:li xml:lang="x-default"/>
    </rdf:Alt>
   </crs:Description>
   <crs:ToneCurvePV2012>
    <rdf:Seq>
     <rdf:li>0, 0</rdf:li>
     <rdf:li>62, 46</rdf:li>
     <rdf:li>88, 82</rdf:li>
     <rdf:li>169, 176</rdf:li>
     <rdf:li>221, 223</rdf:li>
     <rdf:li>255, 255</rdf:li>
    </rdf:Seq>
   </crs:ToneCurvePV2012>
   <crs:ToneCurvePV2012Red>
    <rdf:Seq>
     <rdf:li>0, 0</rdf:li>
     <rdf:li>65, 58</rdf:li>
     <rdf:li>255, 255</rdf:li>
    </rdf:Seq>
   </crs:ToneCurvePV2012Red>
   <crs:ToneCurvePV2012Green>
    <rdf:Seq>
     <rdf:li>0, 0</rdf:li>
     <rdf:li>69, 57</rdf:li>
     <rdf:li>255, 255</rdf:li>
    </rdf:Seq>
   </crs:ToneCurvePV2012Green>
   <crs:ToneCurvePV2012Blue>
    <rdf:Seq>
     <rdf:li>0, 0</rdf:li>
     <rdf:li>66, 60</rdf:li>
     <rdf:li>255, 255</rdf:li>
    </rdf:Seq>
   </crs:ToneCurvePV2012Blue>
   <crs:Look
    crs:Name=""/>
  </rdf:Description>
 </rdf:RDF>
</x:xmpmeta>
