其他预设/【233】日式怀旧街道调色预设208款/2.LR预设文件/2.富士胶片风-日式城市街拍预设/JA – Cine Night 3 (Classic Chrome).lrtemplate
s = {
	id = "4BB76701-3B66-4B66-9F23-EEF5930E728D",
	internalName = "JA — Cine Night 3",
	title = "JA – Cine Night 3 (Classic Chrome)",
	type = "Develop",
	value = {
		settings = {
			Blacks2012 = -9,
			BlueHue = -21,
			BlueSaturation = 11,
			CameraProfile = "Camera CLASSIC CHROME",
			Clarity2012 = 6,
			Contrast2012 = -39,
			ConvertToGrayscale = false,
			Dehaze = 0,
			EnableCalibration = true,
			EnableCircularGradientBasedCorrections = true,
			EnableColorAdjustments = true,
			EnableEffects = true,
			EnableGradientBasedCorrections = true,
			EnableSplitToning = true,
			Exposure2012 = 0,
			GrainAmount = 19,
			GrainFrequency = 39,
			GrainSize = 25,
			GreenHue = 26,
			GreenSaturation = -20,
			Highlights2012 = -52,
			HueAdjustmentAqua = 0,
			HueAdjustmentBlue = 0,
			HueAdjustmentGreen = 0,
			HueAdjustmentMagenta = 0,
			HueAdjustmentOrange = -5,
			HueAdjustmentPurple = 0,
			HueAdjustmentRed = 0,
			HueAdjustmentYellow = -6,
			LuminanceAdjustmentAqua = -16,
			LuminanceAdjustmentBlue = -38,
			LuminanceAdjustmentGreen = 0,
			LuminanceAdjustmentMagenta = -10,
			LuminanceAdjustmentOrange = 22,
			LuminanceAdjustmentPurple = 0,
			LuminanceAdjustmentRed = 0,
			LuminanceAdjustmentYellow = 24,
			ParametricDarks = 0,
			ParametricHighlightSplit = 75,
			ParametricHighlights = 0,
			ParametricLights = 0,
			ParametricMidtoneSplit = 50,
			ParametricShadowSplit = 25,
			ParametricShadows = 0,
			PostCropVignetteAmount = 0,
			PostCropVignetteFeather = 50,
			PostCropVignetteHighlightContrast = 0,
			PostCropVignetteMidpoint = 50,
			PostCropVignetteRoundness = 0,
			PostCropVignetteStyle = 1,
			ProcessVersion = "10.0",
			RedHue = 6,
			RedSaturation = -13,
			Saturation = 0,
			SaturationAdjustmentAqua = -3,
			SaturationAdjustmentBlue = -33,
			SaturationAdjustmentGreen = -20,
			SaturationAdjustmentMagenta = -26,
			SaturationAdjustmentOrange = 0,
			SaturationAdjustmentPurple = -21,
			SaturationAdjustmentRed = -7,
			SaturationAdjustmentYellow = -6,
			ShadowTint = -1,
			Shadows2012 = 43,
			SplitToningBalance = 79,
			SplitToningHighlightHue = 30,
			SplitToningHighlightSaturation = 0,
			SplitToningShadowHue = 247,
			SplitToningShadowSaturation = 6,
			ToneCurveName2012 = "Custom",
			ToneCurvePV2012 = {
				0,
				5,
				27,
				21,
				59,
				49,
				120,
				123,
				179,
				198,
				218,
				235,
				255,
				246,
			},
			ToneCurvePV2012Blue = {
				0,
				0,
				51,
				48,
				127,
				127,
				200,
				207,
				250,
				255,
			},
			ToneCurvePV2012Green = {
				0,
				0,
				53,
				34,
				119,
				116,
				194,
				207,
				255,
				255,
			},
			ToneCurvePV2012Red = {
				0,
				0,
				50,
				28,
				115,
				116,
				200,
				205,
				255,
				255,
			},
			Vibrance = 31,
			Whites2012 = 24,
			orientation = "AB",
		},
		uuid = "9876DDD5-3E0B-4EB7-9844-DE836E6124C7",
	},
	version = 0,
}
