其他预设/【233】日式怀旧街道调色预设208款/2.LR预设文件/2.富士胶片风-日式城市街拍预设/JA – Controlled Contrast 4 (Classic Chrome).lrtemplate
s = {
	id = "61AABDA4-9129-4FA7-93DD-F0790FD59473",
	internalName = "JA — Controlled Contrast 4",
	title = "JA – Controlled Contrast 4 (Classic Chrome)",
	type = "Develop",
	value = {
		settings = {
			Blacks2012 = -59,
			BlueHue = -16,
			BlueSaturation = -9,
			CameraProfile = "Camera CLASSIC CHROME",
			Clarity2012 = 19,
			Contrast2012 = -18,
			ConvertToGrayscale = false,
			Dehaze = 0,
			EnableCalibration = true,
			EnableCircularGradientBasedCorrections = true,
			EnableColorAdjustments = true,
			EnableEffects = true,
			EnableGradientBasedCorrections = true,
			EnableSplitToning = true,
			Exposure2012 = -0.35,
			GrainAmount = 13,
			GrainFrequency = 38,
			GrainSize = 13,
			GreenHue = 1,
			GreenSaturation = 29,
			Highlights2012 = -66,
			HueAdjustmentAqua = 0,
			HueAdjustmentBlue = -10,
			HueAdjustmentGreen = -16,
			HueAdjustmentMagenta = 0,
			HueAdjustmentOrange = -7,
			HueAdjustmentPurple = -3,
			HueAdjustmentRed = -1,
			HueAdjustmentYellow = -8,
			LuminanceAdjustmentAqua = -20,
			LuminanceAdjustmentBlue = 6,
			LuminanceAdjustmentGreen = 27,
			LuminanceAdjustmentMagenta = -26,
			LuminanceAdjustmentOrange = 15,
			LuminanceAdjustmentPurple = -12,
			LuminanceAdjustmentRed = 3,
			LuminanceAdjustmentYellow = -13,
			ParametricDarks = 0,
			ParametricHighlightSplit = 75,
			ParametricHighlights = 0,
			ParametricLights = 0,
			ParametricMidtoneSplit = 50,
			ParametricShadowSplit = 25,
			ParametricShadows = 0,
			PostCropVignetteAmount = 0,
			PostCropVignetteFeather = 50,
			PostCropVignetteHighlightContrast = 0,
			PostCropVignetteMidpoint = 50,
			PostCropVignetteRoundness = 0,
			PostCropVignetteStyle = 1,
			ProcessVersion = "10.0",
			RedHue = -11,
			RedSaturation = 19,
			Saturation = 12,
			SaturationAdjustmentAqua = -54,
			SaturationAdjustmentBlue = -41,
			SaturationAdjustmentGreen = 18,
			SaturationAdjustmentMagenta = -21,
			SaturationAdjustmentOrange = 28,
			SaturationAdjustmentPurple = -13,
			SaturationAdjustmentRed = 18,
			SaturationAdjustmentYellow = 7,
			ShadowTint = -3,
			Shadows2012 = 2,
			SplitToningBalance = 0,
			SplitToningHighlightHue = 217,
			SplitToningHighlightSaturation = 5,
			SplitToningShadowHue = 34,
			SplitToningShadowSaturation = 8,
			ToneCurveName2012 = "Custom",
			ToneCurvePV2012 = {
				0,
				0,
				21,
				17,
				46,
				39,
				81,
				103,
				140,
				169,
				185,
				205,
				227,
				236,
				255,
				246,
			},
			ToneCurvePV2012Blue = {
				0,
				0,
				255,
				255,
			},
			ToneCurvePV2012Green = {
				0,
				0,
				255,
				255,
			},
			ToneCurvePV2012Red = {
				0,
				0,
				255,
				255,
			},
			Vibrance = -32,
			Whites2012 = 44,
			orientation = "AB",
		},
		uuid = "AF59729D-5FBF-46B0-83BC-EDBA75C0BC4D",
	},
	version = 0,
}
