其他预设/【233】日式怀旧街道调色预设208款/2.LR预设文件/2.富士胶片风-日式城市街拍预设/JA_–_Chrome_3_(Classic_Chrome).lrtemplate
s = {
	id = "C6C911FE-7C74-4F72-B620-8AF33B98E454",
	internalName = "JA Urban Chrome 3 (Classic Chrome)",
	title = "JA – Chrome 3 (Classic Chrome)",
	type = "Develop",
	value = {
		settings = {
			Blacks2012 = -35,
			BlueHue = 3,
			BlueSaturation = 13,
			CameraProfile = "Camera CLASSIC CHROME",
			Clarity2012 = 10,
			Contrast2012 = -11,
			ConvertToGrayscale = false,
			Dehaze = 0,
			EnableCalibration = true,
			EnableCircularGradientBasedCorrections = true,
			EnableColorAdjustments = true,
			EnableEffects = true,
			EnableGradientBasedCorrections = true,
			EnableSplitToning = true,
			Exposure2012 = 0,
			GradientBasedCorrections = {
				{
					CorrectionActive = true,
					CorrectionAmount = 1,
					CorrectionID = "2FA1AD51-186D-4E0E-B291-55AD9B37E603",
					CorrectionMasks = {
						{
							FullX = 0.536885,
							FullY = 1.0461,
							MaskID = "B01A68A8-015B-4036-8770-FD35F2D7B8B9",
							MaskValue = 1,
							What = "Mask/Gradient",
							ZeroX = 0.537078,
							ZeroY = 0.607682,
						},
					},
					CorrectionReferenceX = 0.173109,
					CorrectionReferenceY = 0.536982,
					LocalBlacks2012 = 0.137449,
					LocalBrightness = 0,
					LocalClarity = 0,
					LocalClarity2012 = 0,
					LocalContrast = 0,
					LocalContrast2012 = 0.031758,
					LocalDefringe = 0,
					LocalDehaze = 0,
					LocalExposure = 0,
					LocalExposure2012 = -0.078637,
					LocalHighlights2012 = -0.401994,
					LocalLuminanceNoise = 0,
					LocalMoire = 0,
					LocalSaturation = 0,
					LocalShadows2012 = -0.236916,
					LocalSharpness = 0.002096,
					LocalTemperature = -0.019817,
					LocalTint = 0,
					LocalToningHue = 0,
					LocalToningSaturation = 0,
					LocalWhites2012 = 0.185658,
					What = "Correction",
				},
			},
			GrainAmount = 13,
			GrainFrequency = 41,
			GrainSize = 24,
			GreenHue = 6,
			GreenSaturation = -11,
			Highlights2012 = -6,
			HueAdjustmentAqua = 5,
			HueAdjustmentBlue = -9,
			HueAdjustmentGreen = -20,
			HueAdjustmentMagenta = -5,
			HueAdjustmentOrange = 16,
			HueAdjustmentPurple = 8,
			HueAdjustmentRed = -8,
			HueAdjustmentYellow = -10,
			LuminanceAdjustmentAqua = -13,
			LuminanceAdjustmentBlue = -26,
			LuminanceAdjustmentGreen = -17,
			LuminanceAdjustmentMagenta = -2,
			LuminanceAdjustmentOrange = 24,
			LuminanceAdjustmentPurple = 11,
			LuminanceAdjustmentRed = 6,
			LuminanceAdjustmentYellow = 16,
			ParametricDarks = 0,
			ParametricHighlightSplit = 75,
			ParametricHighlights = 0,
			ParametricLights = 0,
			ParametricMidtoneSplit = 50,
			ParametricShadowSplit = 25,
			ParametricShadows = 0,
			ProcessVersion = "6.7",
			RedHue = 7,
			RedSaturation = 11,
			Saturation = -9,
			SaturationAdjustmentAqua = 5,
			SaturationAdjustmentBlue = -30,
			SaturationAdjustmentGreen = 13,
			SaturationAdjustmentMagenta = -6,
			SaturationAdjustmentOrange = 23,
			SaturationAdjustmentPurple = 9,
			SaturationAdjustmentRed = 13,
			SaturationAdjustmentYellow = 27,
			ShadowTint = 0,
			Shadows2012 = 40,
			SplitToningBalance = 5,
			SplitToningHighlightHue = 47,
			SplitToningHighlightSaturation = 8,
			SplitToningShadowHue = 270,
			SplitToningShadowSaturation = 4,
			ToneCurveName2012 = "Custom",
			ToneCurvePV2012 = {
				0,
				24,
				35,
				33,
				70,
				60,
				95,
				106,
				135,
				159,
				198,
				211,
				255,
				240,
			},
			ToneCurvePV2012Blue = {
				0,
				0,
				255,
				255,
			},
			ToneCurvePV2012Green = {
				0,
				0,
				255,
				255,
			},
			ToneCurvePV2012Red = {
				0,
				0,
				255,
				255,
			},
			Vibrance = 1,
			Whites2012 = 3,
			orientation = "AB",
		},
		uuid = "516EB7CE-370B-4022-8C3F-17AC7B55E0F9",
	},
	version = 0,
}
