其他预设/【233】日式怀旧街道调色预设208款/3.XMP格式(PS 19LR用)预设/1.日式城市街拍预设/日式城市街拍预设-17.xmp
<x:xmpmeta xmlns:x="adobe:ns:meta/" x:xmptk="Adobe XMP Core 5.6-c140 79.160451, 2017/05/06-01:08:21        ">
 <rdf:RDF xmlns:rdf="http://www.w3.org/1999/02/22-rdf-syntax-ns#">
  <rdf:Description rdf:about=""
    xmlns:crs="http://ns.adobe.com/camera-raw-settings/1.0/"
   crs:PresetType="Normal"
   crs:Cluster=""
   crs:UUID="DF940F6240C80FE1B34FFCA27B03047A"
   crs:SupportsAmount="False"
   crs:SupportsColor="True"
   crs:SupportsMonochrome="True"
   crs:SupportsHighDynamicRange="True"
   crs:SupportsNormalDynamicRange="True"
   crs:SupportsSceneReferred="True"
   crs:SupportsOutputReferred="True"
   crs:CameraModelRestriction=""
   crs:Copyright=""
   crs:ContactInfo=""
   crs:Version="10.5"
   crs:ProcessVersion="10.0"
   crs:Saturation="+8"
   crs:ShadowTint="+8"
   crs:RedHue="+19"
   crs:RedSaturation="-1"
   crs:GreenHue="+18"
   crs:GreenSaturation="+20"
   crs:BlueHue="-30"
   crs:BlueSaturation="+58"
   crs:Vibrance="+11"
   crs:HueAdjustmentRed="-5"
   crs:HueAdjustmentOrange="0"
   crs:HueAdjustmentYellow="0"
   crs:HueAdjustmentGreen="0"
   crs:HueAdjustmentAqua="0"
   crs:HueAdjustmentBlue="+2"
   crs:HueAdjustmentPurple="-4"
   crs:HueAdjustmentMagenta="-7"
   crs:SaturationAdjustmentRed="+32"
   crs:SaturationAdjustmentOrange="-62"
   crs:SaturationAdjustmentYellow="-24"
   crs:SaturationAdjustmentGreen="-10"
   crs:SaturationAdjustmentAqua="+5"
   crs:SaturationAdjustmentBlue="+9"
   crs:SaturationAdjustmentPurple="+7"
   crs:SaturationAdjustmentMagenta="-2"
   crs:LuminanceAdjustmentRed="+10"
   crs:LuminanceAdjustmentOrange="+13"
   crs:LuminanceAdjustmentYellow="0"
   crs:LuminanceAdjustmentGreen="+18"
   crs:LuminanceAdjustmentAqua="+34"
   crs:LuminanceAdjustmentBlue="+46"
   crs:LuminanceAdjustmentPurple="+8"
   crs:LuminanceAdjustmentMagenta="+13"
   crs:SplitToningShadowHue="222"
   crs:SplitToningShadowSaturation="11"
   crs:SplitToningHighlightHue="20"
   crs:SplitToningHighlightSaturation="6"
   crs:SplitToningBalance="-62"
   crs:ParametricShadows="0"
   crs:ParametricDarks="0"
   crs:ParametricLights="0"
   crs:ParametricHighlights="0"
   crs:ParametricShadowSplit="25"
   crs:ParametricMidtoneSplit="50"
   crs:ParametricHighlightSplit="75"
   crs:PostCropVignetteAmount="0"
   crs:GrainAmount="14"
   crs:GrainSize="9"
   crs:GrainFrequency="50"
   crs:Exposure2012="-0.55"
   crs:Contrast2012="-19"
   crs:Highlights2012="+6"
   crs:Shadows2012="-17"
   crs:Whites2012="+40"
   crs:Blacks2012="-24"
   crs:Clarity2012="+12"
   crs:Dehaze="0"
   crs:ConvertToGrayscale="False"
   crs:OverrideLookVignette="False"
   crs:ToneCurveName2012="Custom"
   crs:CameraProfile="Adobe Standard"
   crs:HasSettings="True">
   <crs:Name>
    <rdf:Alt>
     <rdf:li xml:lang="x-default">JA – Night Pop 2</rdf:li>
    </rdf:Alt>
   </crs:Name>
   <crs:ShortName>
    <rdf:Alt>
     <rdf:li xml:lang="x-default"/>
    </rdf:Alt>
   </crs:ShortName>
   <crs:SortName>
    <rdf:Alt>
     <rdf:li xml:lang="x-default"/>
    </rdf:Alt>
   </crs:SortName>
   <crs:Group>
    <rdf:Alt>
     <rdf:li xml:lang="x-default">日式城市街拍预设</rdf:li>
    </rdf:Alt>
   </crs:Group>
   <crs:Description>
    <rdf:Alt>
     <rdf:li xml:lang="x-default"/>
    </rdf:Alt>
   </crs:Description>
   <crs:ToneCurvePV2012>
    <rdf:Seq>
     <rdf:li>0, 6</rdf:li>
     <rdf:li>32, 21</rdf:li>
     <rdf:li>66, 44</rdf:li>
     <rdf:li>88, 63</rdf:li>
     <rdf:li>114, 109</rdf:li>
     <rdf:li>160, 175</rdf:li>
     <rdf:li>215, 231</rdf:li>
     <rdf:li>255, 245</rdf:li>
    </rdf:Seq>
   </crs:ToneCurvePV2012>
   <crs:ToneCurvePV2012Red>
    <rdf:Seq>
     <rdf:li>0, 0</rdf:li>
     <rdf:li>255, 255</rdf:li>
    </rdf:Seq>
   </crs:ToneCurvePV2012Red>
   <crs:ToneCurvePV2012Green>
    <rdf:Seq>
     <rdf:li>0, 0</rdf:li>
     <rdf:li>255, 255</rdf:li>
    </rdf:Seq>
   </crs:ToneCurvePV2012Green>
   <crs:ToneCurvePV2012Blue>
    <rdf:Seq>
     <rdf:li>0, 0</rdf:li>
     <rdf:li>255, 255</rdf:li>
    </rdf:Seq>
   </crs:ToneCurvePV2012Blue>
   <crs:Look
    crs:Name=""/>
  </rdf:Description>
 </rdf:RDF>
</x:xmpmeta>
