其他预设/【233】日式怀旧街道调色预设208款/3.XMP格式(PS 19LR用)预设/1.日式城市街拍预设/日式城市街拍预设-2.xmp
<x:xmpmeta xmlns:x="adobe:ns:meta/" x:xmptk="Adobe XMP Core 5.6-c140 79.160451, 2017/05/06-01:08:21        ">
 <rdf:RDF xmlns:rdf="http://www.w3.org/1999/02/22-rdf-syntax-ns#">
  <rdf:Description rdf:about=""
    xmlns:crs="http://ns.adobe.com/camera-raw-settings/1.0/"
   crs:PresetType="Normal"
   crs:Cluster=""
   crs:UUID="ABA64E6720474900F0D27C0637BD4BDF"
   crs:SupportsAmount="False"
   crs:SupportsColor="True"
   crs:SupportsMonochrome="True"
   crs:SupportsHighDynamicRange="True"
   crs:SupportsNormalDynamicRange="True"
   crs:SupportsSceneReferred="True"
   crs:SupportsOutputReferred="True"
   crs:CameraModelRestriction=""
   crs:Copyright=""
   crs:ContactInfo=""
   crs:Version="10.5"
   crs:ProcessVersion="10.0"
   crs:Saturation="+5"
   crs:ShadowTint="-4"
   crs:RedHue="+23"
   crs:RedSaturation="+8"
   crs:GreenHue="+42"
   crs:GreenSaturation="-19"
   crs:BlueHue="-8"
   crs:BlueSaturation="-13"
   crs:Vibrance="+15"
   crs:HueAdjustmentRed="0"
   crs:HueAdjustmentOrange="0"
   crs:HueAdjustmentYellow="0"
   crs:HueAdjustmentGreen="0"
   crs:HueAdjustmentAqua="+9"
   crs:HueAdjustmentBlue="-2"
   crs:HueAdjustmentPurple="+17"
   crs:HueAdjustmentMagenta="+24"
   crs:SaturationAdjustmentRed="-27"
   crs:SaturationAdjustmentOrange="-16"
   crs:SaturationAdjustmentYellow="-16"
   crs:SaturationAdjustmentGreen="-39"
   crs:SaturationAdjustmentAqua="-49"
   crs:SaturationAdjustmentBlue="-48"
   crs:SaturationAdjustmentPurple="-38"
   crs:SaturationAdjustmentMagenta="-49"
   crs:LuminanceAdjustmentRed="+6"
   crs:LuminanceAdjustmentOrange="+27"
   crs:LuminanceAdjustmentYellow="+29"
   crs:LuminanceAdjustmentGreen="0"
   crs:LuminanceAdjustmentAqua="+18"
   crs:LuminanceAdjustmentBlue="+9"
   crs:LuminanceAdjustmentPurple="+4"
   crs:LuminanceAdjustmentMagenta="-2"
   crs:SplitToningShadowHue="215"
   crs:SplitToningShadowSaturation="15"
   crs:SplitToningHighlightHue="43"
   crs:SplitToningHighlightSaturation="12"
   crs:SplitToningBalance="+54"
   crs:ParametricShadows="0"
   crs:ParametricDarks="0"
   crs:ParametricLights="0"
   crs:ParametricHighlights="0"
   crs:ParametricShadowSplit="25"
   crs:ParametricMidtoneSplit="50"
   crs:ParametricHighlightSplit="75"
   crs:PostCropVignetteAmount="0"
   crs:GrainAmount="12"
   crs:GrainSize="26"
   crs:GrainFrequency="42"
   crs:Exposure2012="0.00"
   crs:Contrast2012="-14"
   crs:Highlights2012="-44"
   crs:Shadows2012="+28"
   crs:Whites2012="+36"
   crs:Blacks2012="-14"
   crs:Clarity2012="0"
   crs:Dehaze="0"
   crs:ConvertToGrayscale="False"
   crs:OverrideLookVignette="False"
   crs:ToneCurveName2012="Custom"
   crs:CameraProfile="Adobe Standard"
   crs:HasSettings="True">
   <crs:Name>
    <rdf:Alt>
     <rdf:li xml:lang="x-default">JA – Cine Night 2</rdf:li>
    </rdf:Alt>
   </crs:Name>
   <crs:ShortName>
    <rdf:Alt>
     <rdf:li xml:lang="x-default"/>
    </rdf:Alt>
   </crs:ShortName>
   <crs:SortName>
    <rdf:Alt>
     <rdf:li xml:lang="x-default"/>
    </rdf:Alt>
   </crs:SortName>
   <crs:Group>
    <rdf:Alt>
     <rdf:li xml:lang="x-default">日式城市街拍预设</rdf:li>
    </rdf:Alt>
   </crs:Group>
   <crs:Description>
    <rdf:Alt>
     <rdf:li xml:lang="x-default"/>
    </rdf:Alt>
   </crs:Description>
   <crs:ToneCurvePV2012>
    <rdf:Seq>
     <rdf:li>0, 5</rdf:li>
     <rdf:li>27, 21</rdf:li>
     <rdf:li>59, 49</rdf:li>
     <rdf:li>120, 123</rdf:li>
     <rdf:li>179, 198</rdf:li>
     <rdf:li>218, 235</rdf:li>
     <rdf:li>255, 246</rdf:li>
    </rdf:Seq>
   </crs:ToneCurvePV2012>
   <crs:ToneCurvePV2012Red>
    <rdf:Seq>
     <rdf:li>0, 0</rdf:li>
     <rdf:li>50, 28</rdf:li>
     <rdf:li>116, 112</rdf:li>
     <rdf:li>200, 205</rdf:li>
     <rdf:li>255, 255</rdf:li>
    </rdf:Seq>
   </crs:ToneCurvePV2012Red>
   <crs:ToneCurvePV2012Green>
    <rdf:Seq>
     <rdf:li>0, 0</rdf:li>
     <rdf:li>53, 34</rdf:li>
     <rdf:li>119, 116</rdf:li>
     <rdf:li>194, 207</rdf:li>
     <rdf:li>255, 255</rdf:li>
    </rdf:Seq>
   </crs:ToneCurvePV2012Green>
   <crs:ToneCurvePV2012Blue>
    <rdf:Seq>
     <rdf:li>0, 0</rdf:li>
     <rdf:li>51, 48</rdf:li>
     <rdf:li>127, 127</rdf:li>
     <rdf:li>200, 207</rdf:li>
     <rdf:li>250, 255</rdf:li>
    </rdf:Seq>
   </crs:ToneCurvePV2012Blue>
   <crs:Look
    crs:Name=""/>
  </rdf:Description>
 </rdf:RDF>
</x:xmpmeta>
