其他预设/【233】日式怀旧街道调色预设208款/1.3D LUT预设（视频调色-PR-AE-PS-FCPX-达芬奇用）/3.日式城市街拍预设 (自动曝光预设)/JA – Shaded Light 1 (Auto-Exposure).cube
# Created by Adobe Lightroom plugin Export LUT (1.17.0)
# www.johnrellis.com/lightroom/exportlut.htm
# Preset: JA – Shaded Light 1 (Auto-Exposure)
# Color profile: /Library/Application Support/Adobe/Color/Profiles/Recommended/AdobeRGB1998.icc
LUT_3D_SIZE 32
0.049928 0.057069 0.064027
0.058564 0.058259 0.064271
0.065187 0.059174 0.064912
0.078004 0.060365 0.066407
0.091951 0.062562 0.068086
0.107576 0.064454 0.070405
0.125216 0.066835 0.072267
0.144747 0.069490 0.074189
0.165621 0.071748 0.076173
0.186618 0.074037 0.077485
0.207034 0.076631 0.079591
0.227176 0.079408 0.081422
0.251530 0.082246 0.083223
0.285679 0.085756 0.084749
0.331975 0.089754 0.084321
0.386725 0.093568 0.082643
0.444373 0.097444 0.079377
0.499489 0.102571 0.075837
0.549950 0.106905 0.072633
0.597833 0.111940 0.070222
0.642542 0.117159 0.069459
0.684993 0.122774 0.069642
0.725978 0.128298 0.072084
0.766293 0.134035 0.075990
0.806668 0.139376 0.080842
0.846555 0.144869 0.086885
0.885130 0.150698 0.094728
0.921874 0.156741 0.104097
0.955993 0.162875 0.115114
0.986603 0.170108 0.127871
1.000000 0.179232 0.143435
1.000000 0.192081 0.164401
0.049073 0.062989 0.064912
0.057740 0.063630 0.065126
0.064851 0.064393 0.065309
0.077333 0.066011 0.066377
0.091432 0.067536 0.068116
0.106874 0.069337 0.070436
0.124636 0.071565 0.072297
0.144015 0.074067 0.074586
0.164858 0.076600 0.076173
0.185916 0.078706 0.077821
0.206424 0.081147 0.079591
0.226505 0.084138 0.081727
0.250919 0.086793 0.083497
0.284825 0.090639 0.084718
0.331029 0.094820 0.084596
0.385809 0.099611 0.082521
0.443214 0.104585 0.079500
0.498451 0.109560 0.075929
0.548943 0.114778 0.072572
0.596918 0.119875 0.070069
0.641779 0.125002 0.068849
0.684260 0.130465 0.069398
0.725307 0.135378 0.071534
0.765774 0.140505 0.075471
0.806149 0.146273 0.080262
0.846036 0.151827 0.086580
0.884703 0.156924 0.094240
0.921508 0.162936 0.103853
0.955627 0.168643 0.114717
0.986358 0.175662 0.127474
1.000000 0.184146 0.142947
1.000000 0.196689 0.164126
0.049653 0.069856 0.065522
0.057130 0.070497 0.066133
0.064485 0.071534 0.066285
0.076814 0.072236 0.067048
0.090608 0.074098 0.068727
0.106264 0.075349 0.070680
0.123873 0.077394 0.072908
0.143191 0.079774 0.074830
0.164004 0.082490 0.076051
0.185031 0.084535 0.077729
0.205631 0.087037 0.079805
0.225803 0.089509 0.081636
0.250065 0.092683 0.083680
0.283757 0.096468 0.084901
0.329656 0.101717 0.084718
0.384314 0.107118 0.082582
0.441718 0.113313 0.079408
0.496986 0.119051 0.075715
0.547723 0.124147 0.072267
0.595727 0.129671 0.069612
0.640772 0.134615 0.068299
0.683314 0.139620 0.068849
0.724422 0.144717 0.070954
0.764920 0.149660 0.074495
0.805417 0.154788 0.079713
0.845335 0.159945 0.085817
0.884092 0.165164 0.093721
0.920989 0.170596 0.103151
0.955230 0.176181 0.114260
0.986023 0.182528 0.126925
1.000000 0.190555 0.142611
1.000000 0.202426 0.163973
0.050050 0.081849 0.068269
0.058564 0.082307 0.068879
0.064118 0.082612 0.069886
0.075227 0.084443 0.069795
0.089204 0.083803 0.069795
0.104372 0.086275 0.071534
0.121828 0.088502 0.073365
0.141451 0.090791 0.075288
0.162173 0.093294 0.076478
0.183444 0.095583 0.078065
0.203952 0.097871 0.080171
0.224186 0.100099 0.081971
0.248112 0.103395 0.084016
0.281132 0.108156 0.085451
0.326696 0.114351 0.085176
0.380896 0.121645 0.082918
0.438544 0.128939 0.079530
0.493965 0.135775 0.075257
0.544793 0.141939 0.071901
0.593133 0.147616 0.068605
0.638422 0.152987 0.067445
0.681239 0.157809 0.067842
0.722530 0.162631 0.069886
0.763180 0.167208 0.073396
0.803799 0.172091 0.078279
0.843900 0.176699 0.084504
0.882841 0.181369 0.092195
0.919890 0.186374 0.101991
0.954314 0.191409 0.112978
0.985290 0.196750 0.125795
1.000000 0.204013 0.141634
1.000000 0.214633 0.163027
0.051301 0.095949 0.071595
0.059083 0.096345 0.072877
0.064118 0.096376 0.073823
0.073793 0.097200 0.075257
0.088472 0.099611 0.073854
0.102937 0.098146 0.072786
0.119875 0.100740 0.074220
0.138643 0.104524 0.075959
0.159396 0.107454 0.077058
0.180667 0.110231 0.078889
0.201389 0.112459 0.080629
0.221653 0.114412 0.082734
0.245121 0.117739 0.084779
0.277379 0.122988 0.086152
0.321904 0.130922 0.085756
0.375647 0.140017 0.083314
0.433265 0.149386 0.079561
0.489052 0.158022 0.074800
0.540398 0.165103 0.071046
0.589105 0.171328 0.067720
0.634791 0.176699 0.065919
0.678004 0.181857 0.065980
0.719570 0.186526 0.067811
0.760433 0.191135 0.071351
0.801236 0.195560 0.075959
0.841611 0.199771 0.082551
0.880766 0.204044 0.090364
0.918151 0.208103 0.099886
0.952819 0.212528 0.111055
0.984070 0.217136 0.124056
1.000000 0.222934 0.140139
1.000000 0.232212 0.162051
0.050782 0.112001 0.075624
0.058106 0.112337 0.076478
0.063416 0.112612 0.076997
0.073823 0.112795 0.078065
0.086152 0.113680 0.079591
0.103151 0.117494 0.077546
0.119295 0.116335 0.075380
0.136873 0.117220 0.076753
0.156802 0.121492 0.078340
0.177096 0.125673 0.079713
0.198062 0.128206 0.081605
0.218265 0.130373 0.083986
0.241215 0.133577 0.086000
0.272404 0.139437 0.087373
0.315679 0.148806 0.086549
0.368811 0.160037 0.084108
0.426246 0.171695 0.079622
0.482338 0.182010 0.074647
0.534203 0.190372 0.070344
0.583520 0.197635 0.066407
0.629847 0.203708 0.063539
0.673610 0.208743 0.063294
0.715511 0.213413 0.065064
0.756680 0.218051 0.068391
0.797757 0.222293 0.073091
0.838437 0.226322 0.079500
0.878019 0.230320 0.087190
0.915740 0.233921 0.096956
0.950835 0.237644 0.108186
0.982452 0.241398 0.121523
1.000000 0.246189 0.138094
1.000000 0.253758 0.160342
0.048890 0.130587 0.079286
0.054627 0.130953 0.079164
0.062501 0.131319 0.079988
0.072206 0.131533 0.080995
0.085908 0.132357 0.082063
0.101198 0.133669 0.082948
0.120424 0.137453 0.080751
0.139803 0.138827 0.077668
0.154665 0.135378 0.079347
0.175174 0.139620 0.080903
0.195010 0.143374 0.082948
0.214145 0.146853 0.085176
0.236545 0.149874 0.087465
0.266361 0.156283 0.088533
0.308171 0.166842 0.087892
0.360204 0.180148 0.084871
0.417273 0.194003 0.080262
0.473915 0.206332 0.074586
0.526513 0.216342 0.069062
0.576471 0.224796 0.064363
0.623590 0.231662 0.061036
0.667933 0.237430 0.059724
0.710323 0.242344 0.061097
0.751858 0.246830 0.064149
0.793332 0.251225 0.068818
0.834409 0.255161 0.075135
0.874449 0.258946 0.083375
0.912657 0.262181 0.093202
0.948272 0.265385 0.104768
0.980377 0.268467 0.118288
1.000000 0.272068 0.135348
1.000000 0.278233 0.158206
0.042512 0.151278 0.083558
0.049531 0.151766 0.082795
0.059327 0.152071 0.083253
0.070527 0.152377 0.083894
0.085267 0.152834 0.085267
0.100679 0.153475 0.086732
0.118257 0.155459 0.086976
0.138552 0.158999 0.084352
0.159213 0.160433 0.081453
0.172671 0.154208 0.082063
0.192752 0.157900 0.084352
0.211704 0.161227 0.086458
0.232425 0.165469 0.088655
0.259342 0.172793 0.090272
0.299199 0.184176 0.089631
0.349859 0.199405 0.086366
0.406470 0.215518 0.081270
0.463600 0.230320 0.074769
0.516991 0.242283 0.068208
0.567834 0.252018 0.062440
0.615900 0.260075 0.057679
0.660975 0.266514 0.053864
0.703944 0.271946 0.054505
0.745998 0.276616 0.059083
0.787900 0.281071 0.063447
0.829496 0.285191 0.069917
0.870054 0.288884 0.077882
0.908873 0.292149 0.087861
0.945098 0.294957 0.100008
0.977813 0.297276 0.114137
1.000000 0.300298 0.131716
1.000000 0.304967 0.155550
0.034516 0.173465 0.088197
0.042603 0.173739 0.087495
0.050660 0.174258 0.086488
0.068208 0.174380 0.088228
0.083528 0.174777 0.089235
0.100191 0.175235 0.090608
0.117433 0.175601 0.092714
0.136049 0.177676 0.091890
0.156985 0.180636 0.089021
0.177951 0.182193 0.085786
0.190524 0.174380 0.085603
0.209049 0.175875 0.087770
0.229679 0.180026 0.090150
0.255619 0.187503 0.091707
0.290929 0.200137 0.091402
0.338018 0.217258 0.088716
0.393896 0.235691 0.082826
0.451331 0.253025 0.075532
0.505669 0.267124 0.067811
0.557397 0.278691 0.060273
0.606500 0.288121 0.051392
0.652613 0.295567 0.044160
0.696407 0.301549 0.043183
0.738949 0.306859 0.047852
0.781369 0.311620 0.055055
0.823606 0.315770 0.062928
0.864805 0.319860 0.070985
0.904356 0.323003 0.081605
0.941283 0.325597 0.093965
0.974762 0.327611 0.108583
1.000000 0.329747 0.127260
1.000000 0.333318 0.152346
0.026734 0.195651 0.093294
0.033234 0.195895 0.092927
0.044129 0.196323 0.091707
0.065003 0.196445 0.093080
0.081758 0.196628 0.094270
0.099153 0.196780 0.095613
0.117128 0.196933 0.097597
0.134737 0.197055 0.099916
0.153994 0.199100 0.097993
0.174685 0.201389 0.094484
0.195499 0.202548 0.090852
0.207767 0.194583 0.090059
0.226505 0.194705 0.091371
0.252049 0.202274 0.092836
0.286717 0.215427 0.092592
0.330999 0.233524 0.089723
0.381262 0.253819 0.084688
0.437018 0.273625 0.076875
0.492439 0.290318 0.067872
0.545190 0.304082 0.058717
0.595636 0.315312 0.043885
0.642817 0.324010 0.032044
0.687465 0.330999 0.028473
0.730739 0.336828 0.029511
0.773800 0.342077 0.036316
0.816617 0.346868 0.049165
0.858640 0.351019 0.061799
0.899016 0.354345 0.072816
0.936889 0.356878 0.086000
0.971160 0.358648 0.101778
1.000000 0.360357 0.121706
1.000000 0.362982 0.148043
0.018189 0.217136 0.099641
0.026429 0.217227 0.099062
0.037476 0.217502 0.097963
0.062287 0.217716 0.099184
0.079835 0.217777 0.100343
0.097932 0.217777 0.101839
0.116091 0.217899 0.103914
0.134310 0.217990 0.106050
0.152224 0.218112 0.108492
0.172030 0.220523 0.105165
0.193057 0.222812 0.101015
0.214694 0.224674 0.096559
0.228702 0.218540 0.094087
0.248264 0.217105 0.093904
0.281987 0.230655 0.093477
0.325444 0.249821 0.090730
0.375250 0.271244 0.084840
0.427253 0.292485 0.077211
0.478096 0.311528 0.068452
0.531151 0.327703 0.057008
0.582971 0.341039 0.035767
0.631434 0.351385 0.019806
0.677211 0.359655 0.011658
0.721279 0.366308 0.011322
0.764981 0.372290 0.014954
0.808621 0.377569 0.024262
0.851469 0.382177 0.041596
0.892821 0.385870 0.061128
0.931670 0.388586 0.076173
0.966949 0.390295 0.093263
0.997650 0.391547 0.114992
1.000000 0.393469 0.143221
0.007752 0.241001 0.106355
0.015839 0.241154 0.105806
0.026673 0.241398 0.105013
0.054902 0.241825 0.104982
0.077607 0.241947 0.107118
0.096742 0.242191 0.108461
0.116091 0.242435 0.110323
0.135042 0.242741 0.112459
0.153964 0.243198 0.115053
0.172946 0.244297 0.116335
0.194308 0.247715 0.111727
0.217105 0.251225 0.106630
0.241032 0.254551 0.100710
0.259037 0.251316 0.095857
0.276707 0.245762 0.094667
0.319341 0.265629 0.091310
0.368566 0.288518 0.085298
0.420325 0.311162 0.076417
0.471412 0.331487 0.066316
0.520592 0.349340 0.052888
0.568383 0.364996 0.029541
0.618372 0.377447 0.008301
0.665339 0.387091 0.000000
0.710475 0.394903 0.000000
0.754971 0.401709 0.000000
0.799466 0.407813 0.000000
0.843290 0.413123 0.009125
0.885710 0.417395 0.032410
0.925689 0.420447 0.062135
0.962158 0.422278 0.082185
0.993896 0.423346 0.106538
1.000000 0.424475 0.137118
0.000000 0.274235 0.112673
0.000000 0.274540 0.112337
0.000000 0.274815 0.111147
0.024781 0.275608 0.109529
0.070314 0.276005 0.112703
0.093385 0.276493 0.113863
0.115480 0.277134 0.115663
0.137087 0.277806 0.117525
0.158389 0.278599 0.119783
0.179294 0.279698 0.122225
0.201083 0.282322 0.121614
0.225589 0.287205 0.115602
0.251621 0.292271 0.108827
0.278996 0.297154 0.100649
0.301335 0.295842 0.093355
0.316106 0.285679 0.092317
0.361181 0.305241 0.085298
0.412665 0.329290 0.075410
0.464057 0.351232 0.064363
0.513878 0.370306 0.044526
0.561944 0.386999 0.015839
0.607691 0.401221 0.000000
0.652033 0.413153 0.000000
0.698360 0.422370 0.000000
0.743740 0.430213 0.000000
0.789090 0.437354 0.000000
0.834043 0.443519 0.000000
0.877653 0.448524 0.000000
0.918944 0.452064 0.027131
0.956695 0.454261 0.067201
0.989654 0.455268 0.095705
1.000000 0.455940 0.129702
0.000000 0.322545 0.118715
0.000000 0.322850 0.117586
0.000000 0.323217 0.116213
0.000000 0.324193 0.112886
0.031983 0.324956 0.115175
0.082338 0.325505 0.116365
0.112184 0.326268 0.117739
0.138521 0.327214 0.119539
0.164034 0.328130 0.121523
0.188602 0.329290 0.123842
0.212741 0.330419 0.126162
0.238499 0.334325 0.122805
0.266392 0.339544 0.115175
0.295567 0.344701 0.106020
0.325475 0.349340 0.095552
0.349981 0.347631 0.085481
0.362249 0.333135 0.085237
0.404303 0.346990 0.074769
0.456001 0.370550 0.061372
0.506249 0.391119 0.032715
0.554803 0.408911 0.002289
0.601251 0.424018 0.000000
0.645167 0.436774 0.000000
0.687617 0.447822 0.000000
0.731136 0.457588 0.000000
0.777462 0.465766 0.000000
0.823575 0.473030 0.000000
0.868559 0.479072 0.000000
0.911284 0.483467 0.000000
0.950500 0.486122 0.030915
0.984863 0.487404 0.081239
1.000000 0.487739 0.120485
0.000000 0.382177 0.123018
0.000000 0.382544 0.121706
0.000000 0.382818 0.119417
0.000000 0.383825 0.114260
0.000000 0.384833 0.113497
0.043397 0.385443 0.114717
0.100038 0.385931 0.116243
0.135805 0.386511 0.117891
0.167269 0.387243 0.119722
0.196658 0.388067 0.121675
0.224674 0.388830 0.124025
0.252079 0.389654 0.126314
0.281498 0.393713 0.119783
0.312413 0.398291 0.110079
0.343786 0.402411 0.098421
0.375402 0.405768 0.084413
0.401556 0.403113 0.070344
0.410864 0.383917 0.072114
0.447150 0.389105 0.057191
0.497871 0.411322 0.021149
0.546960 0.430396 0.000000
0.594110 0.446723 0.000000
0.638666 0.460151 0.000000
0.681575 0.471748 0.000000
0.723842 0.482277 0.000000
0.766415 0.492531 0.000000
0.811887 0.501579 0.000000
0.858366 0.508873 0.000000
0.902678 0.514305 0.000000
0.943572 0.517784 0.000000
0.979522 0.519402 0.059876
1.000000 0.519646 0.108980
0.000000 0.445991 0.127169
0.000000 0.446296 0.124788
0.000000 0.446632 0.121736
0.000000 0.447425 0.114687
0.000000 0.448402 0.105196
0.000000 0.448798 0.110140
0.072053 0.448951 0.111421
0.125277 0.449195 0.113100
0.165225 0.449409 0.114931
0.200290 0.449622 0.116915
0.232914 0.449775 0.119112
0.263737 0.449928 0.121584
0.293462 0.450080 0.123842
0.325933 0.453498 0.113619
0.358404 0.456428 0.101503
0.391028 0.458839 0.086824
0.423255 0.460517 0.067933
0.450904 0.457099 0.034272
0.465064 0.440681 0.025635
0.489479 0.431739 0.006622
0.538445 0.451484 0.000000
0.586358 0.469062 0.000000
0.631586 0.483375 0.000000
0.675013 0.495583 0.000000
0.717769 0.506615 0.000000
0.760861 0.517205 0.000000
0.804440 0.527520 0.000000
0.847929 0.537316 0.000000
0.893065 0.544457 0.000000
0.935760 0.549035 0.000000
0.973541 0.551202 0.000000
1.000000 0.551659 0.093385
0.000000 0.506615 0.131136
0.000000 0.506828 0.128664
0.000000 0.507073 0.125002
0.000000 0.507774 0.116182
0.000000 0.508598 0.100130
0.000000 0.508843 0.104372
0.000000 0.508629 0.105745
0.104829 0.508446 0.107118
0.156527 0.508141 0.109102
0.198123 0.507744 0.111269
0.235172 0.507347 0.113375
0.269383 0.506798 0.115877
0.302007 0.506218 0.118288
0.333898 0.506096 0.117983
0.367651 0.507927 0.106203
0.400977 0.509331 0.091554
0.434089 0.510185 0.073579
0.466865 0.510521 0.035828
0.496529 0.507500 0.000000
0.517754 0.496498 0.000000
0.535210 0.479866 0.000000
0.577752 0.490822 0.000000
0.623713 0.506310 0.000000
0.667903 0.519341 0.000000
0.711177 0.530968 0.000000
0.754726 0.541955 0.000000
0.798886 0.552758 0.000000
0.843046 0.562890 0.000000
0.886259 0.571954 0.000000
0.927306 0.579522 0.000000
0.966888 0.582818 0.000000
1.000000 0.583551 0.071351
0.000000 0.561547 0.136110
0.000000 0.561639 0.132784
0.000000 0.561944 0.129030
0.000000 0.562402 0.118868
0.000000 0.563043 0.100740
0.000000 0.563348 0.098512
0.000000 0.563012 0.100008
0.064485 0.562463 0.101472
0.140627 0.561883 0.103395
0.190249 0.561273 0.105440
0.232029 0.560540 0.107668
0.269780 0.559655 0.110140
0.305089 0.558740 0.112459
0.338964 0.557702 0.114961
0.372534 0.557458 0.111391
0.407019 0.558343 0.097505
0.441291 0.558679 0.080201
0.475013 0.558587 0.052216
0.508141 0.557855 0.000000
0.539513 0.555322 0.000000
0.566613 0.548882 0.000000
0.579492 0.527001 0.000000
0.615259 0.528801 0.000000
0.660060 0.542809 0.000000
0.703975 0.555077 0.000000
0.748104 0.566735 0.000000
0.792844 0.578027 0.000000
0.837705 0.588678 0.000000
0.881682 0.598108 0.000000
0.923583 0.605951 0.000000
0.961730 0.611841 0.000000
0.994720 0.615351 0.009308
0.000000 0.612421 0.141543
0.000000 0.612482 0.138705
0.000000 0.612665 0.133822
0.000000 0.613031 0.123964
0.000000 0.613550 0.104860
0.000000 0.613916 0.089876
0.000000 0.613550 0.094301
0.000000 0.612909 0.096162
0.115663 0.612238 0.097902
0.176761 0.611414 0.099886
0.224247 0.610468 0.102296
0.265934 0.609400 0.104616
0.304295 0.608270 0.107118
0.340246 0.606958 0.109316
0.374609 0.605554 0.111940
0.409491 0.605066 0.104646
0.444678 0.605005 0.088319
0.479225 0.604517 0.066529
0.513329 0.603540 0.008972
0.546868 0.602075 0.000000
0.579400 0.599756 0.000000
0.612177 0.597681 0.000000
0.621576 0.572259 0.000000
0.651667 0.565820 0.000000
0.696193 0.578912 0.000000
0.740902 0.591211 0.000000
0.786343 0.603204 0.000000
0.831968 0.614527 0.000000
0.876799 0.624506 0.000000
0.919554 0.632746 0.000000
0.958526 0.638788 0.000000
0.992004 0.642512 0.000000
0.000000 0.659205 0.147982
0.000000 0.659297 0.144808
0.000000 0.659419 0.140383
0.000000 0.659724 0.129854
0.000000 0.660212 0.110506
0.000000 0.660700 0.079103
0.000000 0.660212 0.090181
0.000000 0.659541 0.091859
0.072755 0.658808 0.093446
0.157900 0.657832 0.095827
0.212589 0.656825 0.098054
0.258549 0.655665 0.100526
0.299748 0.654353 0.103120
0.337926 0.653040 0.106050
0.374365 0.651484 0.108949
0.409094 0.649775 0.112245
0.444862 0.649134 0.099306
0.480293 0.648402 0.080018
0.515251 0.647242 0.044770
0.549584 0.645655 0.000000
0.583368 0.643580 0.000000
0.616846 0.641413 0.000000
0.651301 0.640162 0.000000
0.662867 0.616663 0.000000
0.689601 0.604974 0.000000
0.733089 0.615534 0.000000
0.779263 0.628290 0.000000
0.825742 0.640314 0.000000
0.871519 0.650965 0.000000
0.915160 0.659693 0.000000
0.955077 0.666041 0.000000
0.989349 0.669703 0.000000
0.000000 0.703090 0.154726
0.000000 0.703120 0.151583
0.000000 0.703273 0.147097
0.000000 0.703548 0.136873
0.000000 0.703914 0.118135
0.000000 0.704372 0.082582
0.000000 0.704097 0.088746
0.000000 0.703395 0.090700
0.000000 0.702541 0.092927
0.132784 0.701625 0.095216
0.197635 0.700587 0.097719
0.248447 0.699397 0.100649
0.292729 0.698085 0.103914
0.333440 0.696620 0.107301
0.371679 0.695033 0.111208
0.407996 0.693355 0.115358
0.443122 0.691524 0.118929
0.479377 0.690730 0.100282
0.514977 0.689509 0.076234
0.550103 0.687922 0.020996
0.584649 0.685969 0.000000
0.618799 0.683558 0.000000
0.653071 0.681361 0.000000
0.689265 0.681086 0.000000
0.707851 0.663844 0.000000
0.731106 0.648402 0.000000
0.771633 0.653071 0.000000
0.819028 0.665980 0.000000
0.865782 0.677455 0.000000
0.910460 0.686885 0.000000
0.951354 0.693568 0.000000
0.986511 0.697261 0.000000
0.000000 0.745113 0.161501
0.000000 0.745235 0.158602
0.000000 0.745266 0.154269
0.000000 0.745541 0.144167
0.000000 0.745876 0.126955
0.000000 0.746273 0.097017
0.000000 0.746181 0.092866
0.000000 0.745480 0.096223
0.000000 0.744717 0.098939
0.099245 0.743740 0.101839
0.180697 0.742702 0.105257
0.237186 0.741543 0.108766
0.284886 0.740230 0.112978
0.327916 0.738796 0.117220
0.367895 0.737240 0.122042
0.405951 0.735531 0.127199
0.442237 0.733730 0.132631
0.477790 0.732082 0.132662
0.513787 0.731014 0.111269
0.549462 0.729549 0.083680
0.584863 0.727810 0.021973
0.619776 0.725612 0.000000
0.654292 0.723079 0.000000
0.689204 0.720882 0.000000
0.727443 0.721736 0.000000
0.753597 0.711055 0.000000
0.774136 0.692653 0.000000
0.811795 0.691524 0.000000
0.859617 0.703944 0.000000
0.905455 0.714107 0.000000
0.947448 0.721309 0.000000
0.983520 0.725154 0.000000
0.000000 0.786191 0.169375
0.000000 0.786252 0.166690
0.000000 0.786374 0.162814
0.000000 0.786557 0.153719
0.000000 0.786801 0.138949
0.000000 0.787137 0.114595
0.000000 0.787289 0.099550
0.000000 0.786587 0.112520
0.000000 0.785794 0.115816
0.039826 0.784878 0.119387
0.163851 0.783871 0.123323
0.226658 0.782712 0.127871
0.277653 0.781430 0.132723
0.322972 0.780056 0.138186
0.364721 0.778561 0.143984
0.404089 0.776944 0.150118
0.441718 0.775174 0.156680
0.477913 0.773342 0.163729
0.513298 0.771817 0.158785
0.548943 0.770626 0.135073
0.584588 0.769100 0.106447
0.619959 0.767178 0.065248
0.655146 0.764950 0.000000
0.690150 0.762325 0.000000
0.725490 0.760037 0.000000
0.765957 0.762203 0.000000
0.799222 0.757229 0.000000
0.818204 0.737301 0.000000
0.852995 0.730343 0.000000
0.900114 0.741421 0.000000
0.943267 0.749203 0.000000
0.980377 0.753262 0.000000
0.000000 0.825956 0.179782
0.000000 0.826047 0.177615
0.000000 0.826078 0.174197
0.000000 0.826230 0.167025
0.000000 0.826444 0.154910
0.000000 0.826719 0.137942
0.000000 0.826963 0.117922
0.000000 0.826169 0.141756
0.000000 0.825376 0.145205
0.000000 0.824460 0.149416
0.152285 0.823484 0.154177
0.219944 0.822385 0.159487
0.273594 0.821134 0.165103
0.320500 0.819760 0.171481
0.363561 0.818326 0.178195
0.403967 0.816739 0.185183
0.442451 0.815061 0.192844
0.479347 0.813291 0.200900
0.515038 0.811460 0.209171
0.549828 0.810117 0.197910
0.584680 0.808896 0.173373
0.619806 0.807370 0.144472
0.655085 0.805509 0.108461
0.690486 0.803250 0.041535
0.725734 0.800717 0.000000
0.761440 0.798215 0.000000
0.803983 0.801602 0.000000
0.844419 0.802274 0.000000
0.862150 0.781277 0.000000
0.896361 0.772091 0.000000
0.938842 0.777340 0.000000
0.977081 0.781643 0.000000
0.000000 0.863584 0.194400
0.000000 0.863615 0.192569
0.000000 0.863706 0.190219
0.000000 0.863798 0.184939
0.000000 0.863890 0.177432
0.000000 0.864073 0.167849
0.000000 0.864103 0.158846
0.000000 0.863340 0.183871
0.000000 0.862547 0.187900
0.000000 0.861692 0.192325
0.154238 0.860716 0.197391
0.222232 0.859648 0.202823
0.276005 0.858427 0.209171
0.323064 0.857115 0.215549
0.366339 0.855711 0.222660
0.406867 0.854246 0.230167
0.445533 0.852628 0.238376
0.482704 0.850950 0.246616
0.518578 0.849180 0.255253
0.553399 0.847349 0.264378
0.586755 0.846250 0.247349
0.620569 0.845090 0.222629
0.654932 0.843656 0.194766
0.689754 0.841886 0.161807
0.725032 0.839841 0.120516
0.760586 0.837430 0.043244
0.796353 0.834745 0.000000
0.840513 0.839109 0.000000
0.887358 0.844541 0.000000
0.905669 0.824247 0.000000
0.937835 0.812894 0.000000
0.973632 0.810269 0.000000
0.000000 0.898344 0.215213
0.000000 0.898375 0.214176
0.000000 0.898375 0.213016
0.000000 0.898436 0.210605
0.000000 0.898436 0.207858
0.000000 0.898405 0.205844
0.000000 0.898253 0.206149
0.000000 0.897429 0.228031
0.000000 0.896513 0.238956
0.074311 0.895689 0.243381
0.174350 0.894743 0.248539
0.235843 0.893675 0.254185
0.286870 0.892515 0.260380
0.332403 0.891264 0.267216
0.374456 0.889952 0.274327
0.414221 0.888518 0.281987
0.452277 0.886961 0.290227
0.488899 0.885344 0.298711
0.524376 0.883665 0.307439
0.558892 0.881895 0.316564
0.592462 0.880156 0.324804
0.623865 0.879393 0.303471
0.656184 0.878355 0.279698
0.689387 0.877104 0.253086
0.723415 0.875517 0.222751
0.758175 0.873625 0.187655
0.793576 0.871489 0.144259
0.829465 0.869017 0.076600
0.873960 0.873411 0.000000
0.921782 0.879271 0.000000
0.946441 0.864500 0.000000
0.973266 0.849210 0.000000
0.000000 0.929473 0.244236
0.000000 0.929442 0.244175
0.000000 0.929412 0.244175
0.000000 0.929381 0.244663
0.000000 0.929229 0.246098
0.000000 0.929015 0.249851
0.000000 0.928649 0.256748
0.000000 0.927825 0.274723
0.000000 0.926574 0.295567
0.145510 0.925780 0.300023
0.210391 0.924865 0.305089
0.262211 0.923857 0.310674
0.307683 0.922759 0.316777
0.349767 0.921508 0.323369
0.389349 0.920195 0.330449
0.427192 0.918791 0.337896
0.463661 0.917357 0.345892
0.498909 0.915831 0.354223
0.533318 0.914183 0.363043
0.566766 0.912535 0.371923
0.599512 0.910826 0.381109
0.630823 0.909361 0.383917
0.660273 0.908690 0.364019
0.690822 0.907805 0.341863
0.722530 0.906645 0.317357
0.755215 0.905272 0.289799
0.788968 0.903593 0.258518
0.823667 0.901640 0.222202
0.859251 0.899413 0.178347
0.902708 0.903197 0.133181
0.949859 0.908598 0.059358
0.978851 0.897978 0.000000
0.000000 0.956298 0.281010
0.000000 0.956268 0.281773
0.000000 0.956207 0.283024
0.000000 0.956054 0.285649
0.000000 0.955749 0.290532
0.000000 0.955322 0.298436
0.000000 0.954742 0.309728
0.000000 0.953857 0.325048
0.156497 0.952148 0.354864
0.210880 0.951324 0.359350
0.256687 0.950439 0.364111
0.298528 0.949462 0.369360
0.337591 0.948363 0.375189
0.375067 0.947204 0.381628
0.410986 0.945922 0.388312
