其他预设/【233】日式怀旧街道调色预设208款/1.3D LUT预设（视频调色-PR-AE-PS-FCPX-达芬奇用）/3.日式城市街拍预设 (自动曝光预设)/JA – Night Candy 1 (Auto-Exposure).cube
# Created by Adobe Lightroom plugin Export LUT (1.17.0)
# www.johnrellis.com/lightroom/exportlut.htm
# Preset: JA – Night Candy 1 (Auto-Exposure)
# Color profile: /Library/Application Support/Adobe/Color/Profiles/Recommended/AdobeRGB1998.icc
LUT_3D_SIZE 8
DOMAIN_MIN 0.000000 0.000000 0.000000
DOMAIN_MAX 0.903226 0.903226 0.903226
0.079255 0.087068 0.087587
0.141848 0.075868 0.087404
0.339666 0.000000 0.079316
0.503990 0.000000 0.065339
0.617975 0.000000 0.049866
0.702235 0.000000 0.034394
0.808133 0.000000 0.000000
0.974334 0.000000 0.000000
0.065400 0.138460 0.089296
0.119081 0.125765 0.094850
0.346349 0.118624 0.073671
0.512902 0.000000 0.054719
0.624109 0.000000 0.036133
0.706905 0.000000 0.026581
0.813626 0.000000 0.000000
0.977752 0.000000 0.000000
0.000000 0.317144 0.120180
0.058289 0.317815 0.030488
0.281682 0.284062 0.106447
0.498421 0.284306 0.159030
0.640833 0.179660 0.064332
0.723476 0.000000 0.046113
0.833555 0.000000 0.019745
0.989014 0.000000 0.000000
0.000000 0.481727 0.162600
0.000000 0.483955 0.082795
0.245884 0.477577 0.000000
0.452064 0.449134 0.202701
0.597192 0.452918 0.374823
0.721035 0.375006 0.283116
0.863523 0.261021 0.166537
1.000000 0.082643 0.113375
0.000000 0.596490 0.197482
0.000000 0.597650 0.152926
0.046357 0.596246 0.000000
0.388373 0.586053 0.000000
0.568109 0.563317 0.338415
0.678218 0.566644 0.504387
0.836271 0.558068 0.503868
0.992676 0.490242 0.421912
0.000000 0.681758 0.224704
0.000000 0.682551 0.194705
0.000000 0.683711 0.072786
0.289158 0.676753 0.092409
0.509056 0.674250 0.178042
0.659541 0.655238 0.468147
0.805234 0.689174 0.612024
0.953704 0.706783 0.671107
0.000000 0.791989 0.259037
0.000000 0.793057 0.234958
0.000000 0.795865 0.148806
0.172000 0.794797 0.153414
0.441230 0.791043 0.174777
0.657191 0.805356 0.297307
0.802457 0.790158 0.579736
0.936126 0.809049 0.702083
0.000000 0.954223 0.281254
0.000000 0.954894 0.281743
0.000000 0.957214 0.192782
0.000000 0.955474 0.197726
0.378820 0.951232 0.216190
0.604913 0.944213 0.240116
0.807767 0.938903 0.441749
0.939605 0.918242 0.679469
0.065400 0.090791 0.137026
0.140475 0.075593 0.143923
0.337957 0.000000 0.167361
0.500206 0.000000 0.149905
0.612848 0.000000 0.117220
0.696559 0.000000 0.094514
0.802029 0.000000 0.086397
0.970672 0.000000 0.059876
0.032776 0.142977 0.138979
0.126619 0.139193 0.141176
0.332128 0.014923 0.126284
0.501244 0.000000 0.112093
0.616571 0.000000 0.103243
0.701137 0.000000 0.098482
0.807431 0.000000 0.090822
0.974151 0.000000 0.066621
0.000000 0.319249 0.186709
0.000000 0.321660 0.151888
0.289006 0.296239 0.183566
0.499092 0.285679 0.211856
0.635004 0.171969 0.142733
0.716884 0.000000 0.130129
0.826932 0.000000 0.118288
0.985565 0.000000 0.099886
0.000000 0.482521 0.219791
0.000000 0.484596 0.181582
0.230625 0.480720 0.110201
0.452247 0.453773 0.270207
0.593866 0.461799 0.413397
0.717983 0.379919 0.315343
0.860929 0.261814 0.206271
1.000000 0.107179 0.179629
0.000000 0.596735 0.240818
0.000000 0.597833 0.210269
0.000000 0.597406 0.123751
0.384924 0.585595 0.144961
0.566278 0.565209 0.381628
0.675990 0.572320 0.529778
0.835569 0.559838 0.517266
0.991974 0.490578 0.436805
0.000000 0.681880 0.257115
0.000000 0.682643 0.233860
0.000000 0.683375 0.170230
0.290929 0.676936 0.181064
0.508751 0.673365 0.242283
0.658137 0.656519 0.494789
0.805661 0.692195 0.626276
0.954314 0.706844 0.676234
0.000000 0.792142 0.285649
0.000000 0.793210 0.264988
0.000000 0.795834 0.202304
0.178744 0.794827 0.217044
0.442664 0.791165 0.234745
0.656916 0.805570 0.336034
0.802365 0.791531 0.594812
0.936126 0.810513 0.711482
0.000000 0.954437 0.308782
0.000000 0.955077 0.309087
0.000000 0.957427 0.232609
0.000000 0.955352 0.248936
0.379431 0.951141 0.264378
0.604517 0.944182 0.285008
0.806821 0.939055 0.462837
0.939086 0.918608 0.688411
0.000000 0.106874 0.327825
0.109499 0.068788 0.337438
0.340795 0.000000 0.351171
0.512779 0.000000 0.330968
0.620386 0.000000 0.291264
0.700435 0.000000 0.261173
0.804044 0.000000 0.237888
0.969116 0.000000 0.219730
0.000000 0.195560 0.324437
0.000000 0.147555 0.334081
0.332341 0.011627 0.346197
0.507988 0.000000 0.315312
0.617182 0.000000 0.278416
0.697963 0.000000 0.250401
0.801144 0.000000 0.227878
0.967041 0.000000 0.209171
0.000000 0.330205 0.330236
0.000000 0.331579 0.333898
0.294438 0.321477 0.344793
0.488167 0.233341 0.294896
0.607568 0.138033 0.267430
0.694118 0.000000 0.250248
0.803250 0.000000 0.236759
0.972320 0.000000 0.225467
0.000000 0.485634 0.351263
0.000000 0.487221 0.339879
0.196658 0.486336 0.324468
0.449592 0.465461 0.409247
0.592889 0.461707 0.458656
0.709682 0.378943 0.381872
0.835569 0.289921 0.333318
0.988861 0.150668 0.304356
0.000000 0.597833 0.349889
0.000000 0.598596 0.336889
0.000000 0.597559 0.319982
0.381903 0.587182 0.336858
0.560266 0.570611 0.485176
0.671107 0.587793 0.594934
0.833707 0.558831 0.549645
0.990875 0.482765 0.472145
0.000000 0.682399 0.346899
0.000000 0.682948 0.334905
0.000000 0.682551 0.319005
0.305058 0.676722 0.346807
0.506615 0.670008 0.380682
0.654047 0.660670 0.565393
0.808194 0.700893 0.666926
0.956664 0.704524 0.690150
0.000000 0.792844 0.364324
0.000000 0.793851 0.350927
0.000000 0.795956 0.320745
0.202609 0.794797 0.358007
0.447181 0.791684 0.371405
0.653498 0.804318 0.440131
0.802609 0.796048 0.637781
0.936095 0.815488 0.742428
0.000000 0.955291 0.388464
0.000000 0.955962 0.386664
0.000000 0.958312 0.334691
0.000000 0.956329 0.341711
0.377630 0.951110 0.381170
0.601709 0.944274 0.396521
0.802976 0.939666 0.521904
0.937285 0.919860 0.717586
0.000000 0.129732 0.523705
0.000000 0.084749 0.530968
0.293187 0.000000 0.553338
0.508629 0.000000 0.541222
0.630701 0.000000 0.477516
0.712337 0.000000 0.422980
0.822599 0.000000 0.399054
0.981720 0.000000 0.385382
0.000000 0.218814 0.518608
0.000000 0.167025 0.527123
0.269291 0.093080 0.549371
0.504082 0.000000 0.539727
0.627008 0.000000 0.473457
0.709071 0.000000 0.420691
0.819333 0.000000 0.396155
0.980194 0.000000 0.379522
0.000000 0.355261 0.515007
0.000000 0.345464 0.517937
0.201755 0.313878 0.533196
0.484291 0.263676 0.538598
0.610712 0.186709 0.469978
0.695430 0.083680 0.422370
0.806363 0.000000 0.392462
0.972747 0.000000 0.369329
0.000000 0.494881 0.516808
0.000000 0.495613 0.519127
0.095094 0.492470 0.526909
0.444068 0.480140 0.541100
0.578424 0.412238 0.488991
0.673640 0.352148 0.450874
0.792386 0.273136 0.419654
0.966857 0.059968 0.397498
0.000000 0.599542 0.491585
0.000000 0.600000 0.487800
0.000000 0.597986 0.487160
0.379278 0.589227 0.515618
0.552514 0.577844 0.590723
0.669978 0.588067 0.633661
0.829587 0.534874 0.575402
0.984070 0.455970 0.519554
0.000000 0.683314 0.467872
0.000000 0.683650 0.462745
0.000000 0.682429 0.461463
0.308019 0.676265 0.495338
0.502922 0.668269 0.524224
0.650141 0.666835 0.642237
0.815030 0.711818 0.720180
0.961486 0.690974 0.702937
0.000000 0.794278 0.474891
0.000000 0.795163 0.467231
0.000000 0.796780 0.453956
0.147219 0.795712 0.476143
0.446845 0.793637 0.514031
0.640742 0.799313 0.550317
0.804013 0.803098 0.692103
0.935668 0.824308 0.792142
0.000000 0.956664 0.506706
0.000000 0.957397 0.505089
0.000000 0.959960 0.465400
0.000000 0.959472 0.447578
0.356176 0.952300 0.507225
0.589227 0.945434 0.518608
0.792996 0.941375 0.589715
0.934173 0.921782 0.764034
0.000000 0.155245 0.660792
0.000000 0.114046 0.665278
0.153658 0.015045 0.678920
0.445747 0.000000 0.697963
0.618250 0.000000 0.666896
0.727352 0.000000 0.608209
0.849424 0.000000 0.579217
0.993164 0.000000 0.560449
0.000000 0.230716 0.656886
0.000000 0.194278 0.661921
0.118654 0.149477 0.675898
0.440040 0.073518 0.697536
0.614740 0.000000 0.666835
0.724514 0.000000 0.608606
0.846311 0.000000 0.578393
0.991882 0.000000 0.558373
0.000000 0.355535 0.647028
0.000000 0.348363 0.648615
0.064302 0.324163 0.663386
0.416815 0.309453 0.687098
0.601221 0.252567 0.667720
0.710750 0.182101 0.611200
0.834379 0.000000 0.578058
0.986725 0.000000 0.552239
0.000000 0.479866 0.645716
0.000000 0.476936 0.647150
0.000000 0.471046 0.651545
0.388647 0.470588 0.665064
0.576928 0.446143 0.669917
0.684932 0.385534 0.616632
0.811582 0.285252 0.575250
0.976928 0.000000 0.535912
0.000000 0.605463 0.644343
0.000000 0.605249 0.645533
0.000000 0.601831 0.649561
0.344274 0.592828 0.657343
0.545647 0.584680 0.670680
0.651148 0.526207 0.623957
0.783413 0.457588 0.581140
0.962158 0.364599 0.548699
0.000000 0.684657 0.603174
0.000000 0.684565 0.602289
0.000000 0.682643 0.604791
0.267552 0.676783 0.621027
0.491218 0.672511 0.646693
0.647181 0.673548 0.708492
0.823545 0.703975 0.752560
0.970214 0.643793 0.698634
0.000000 0.796231 0.601587
0.000000 0.796994 0.598352
0.000000 0.798123 0.594598
0.000000 0.797391 0.606104
0.407172 0.797910 0.625513
0.612604 0.797177 0.640009
0.805661 0.811551 0.752834
0.933898 0.839048 0.854887
0.000000 0.958770 0.637507
0.000000 0.959503 0.633753
0.000000 0.961944 0.610346
0.000000 0.962737 0.588891
0.217746 0.958099 0.598718
0.549584 0.949584 0.622339
0.770382 0.941680 0.658717
0.929473 0.924254 0.825040
0.000000 0.187869 0.761624
0.000000 0.152224 0.765133
0.000000 0.132937 0.775570
0.354162 0.081300 0.794583
0.574151 0.000000 0.806394
0.724605 0.000000 0.779690
0.872923 0.000000 0.764309
0.998901 0.000000 0.732723
0.000000 0.251255 0.758450
0.000000 0.227329 0.762020
0.000000 0.195743 0.772976
0.350195 0.177554 0.792020
0.571893 0.120882 0.806058
0.721736 0.000000 0.779782
0.870970 0.000000 0.764950
0.997711 0.000000 0.732753
0.000000 0.358648 0.747860
0.000000 0.354040 0.750973
0.000000 0.342626 0.762417
0.343175 0.332158 0.782345
0.565667 0.323003 0.805020
0.711574 0.253300 0.780453
0.864103 0.051118 0.767697
0.993347 0.000000 0.732906
0.000000 0.466438 0.744015
0.000000 0.464637 0.744778
0.000000 0.464515 0.747219
0.342901 0.472023 0.763394
0.547051 0.473487 0.795529
0.694545 0.427710 0.781491
0.851438 0.336431 0.769009
0.985992 0.123018 0.728939
0.000000 0.579980 0.742916
0.000000 0.578729 0.743648
0.000000 0.576257 0.746090
0.293431 0.575525 0.750698
0.502586 0.576074 0.767819
0.673426 0.554162 0.781430
0.826688 0.473793 0.753841
0.975586 0.349554 0.709255
0.000000 0.695003 0.741878
0.000000 0.694545 0.742580
0.000000 0.691585 0.744839
0.204532 0.684840 0.749508
0.458106 0.678401 0.758297
0.640131 0.678218 0.777340
0.786160 0.595605 0.718349
0.959258 0.514488 0.678096
0.000000 0.800656 0.731106
0.000000 0.800992 0.730678
0.000000 0.801022 0.731624
0.000000 0.799344 0.738277
0.350439 0.800046 0.748928
0.561242 0.808591 0.748074
0.804593 0.820310 0.830228
0.935943 0.842893 0.893584
0.000000 0.961669 0.764797
0.000000 0.962402 0.761685
0.000000 0.964630 0.750698
0.000000 0.965270 0.740658
0.000000 0.961975 0.738125
0.456703 0.956970 0.725368
0.726558 0.943053 0.734798
0.924102 0.927245 0.893797
0.000000 0.237034 0.886534
0.000000 0.202060 0.889860
0.000000 0.193851 0.899168
0.287205 0.173434 0.914946
0.552605 0.128176 0.935302
0.744411 0.000000 0.935821
0.884886 0.000000 0.912261
0.994202 0.000000 0.874235
0.000000 0.294499 0.883452
0.000000 0.273045 0.886778
0.000000 0.241917 0.896849
0.285283 0.230259 0.912932
0.550011 0.206332 0.933654
0.742885 0.095674 0.935698
0.883177 0.000000 0.912444
0.993194 0.000000 0.874846
0.000000 0.382635 0.874052
0.000000 0.381201 0.876890
0.000000 0.371862 0.887419
0.280064 0.354650 0.905303
0.540002 0.347662 0.927733
0.737514 0.305547 0.935332
0.877562 0.190219 0.913176
0.989776 0.000000 0.876768
0.000000 0.482033 0.864286
0.000000 0.480476 0.864805
0.000000 0.480415 0.869596
0.274479 0.483650 0.889189
0.512902 0.475074 0.916106
0.726497 0.456458 0.935546
0.868742 0.378851 0.914305
0.984619 0.257786 0.878477
0.000000 0.592157 0.864988
0.000000 0.590661 0.865507
0.000000 0.587579 0.867216
0.156222 0.583856 0.870542
0.447822 0.576471 0.893767
0.690547 0.569085 0.931792
0.857969 0.507347 0.915282
0.978729 0.422858 0.876677
0.000000 0.709773 0.866117
0.000000 0.708644 0.866545
0.000000 0.705348 0.868132
0.000000 0.700221 0.871031
0.372534 0.691066 0.876890
0.584009 0.667323 0.901305
0.840208 0.635340 0.914672
0.969390 0.540887 0.860288
0.000000 0.831540 0.867613
0.000000 0.831418 0.868009
0.000000 0.829923 0.869261
0.000000 0.825620 0.871580
0.269230 0.819974 0.876097
0.512688 0.818784 0.885649
0.794797 0.822293 0.908110
0.945098 0.692134 0.829404
0.000000 0.967376 0.875395
0.000000 0.967956 0.874540
0.000000 0.969635 0.871763
0.000000 0.969482 0.869718
0.000000 0.965179 0.869902
0.375647 0.960296 0.864408
0.677668 0.948455 0.860990
0.921294 0.930663 0.947936
0.000000 0.306981 0.995941
0.000000 0.280705 0.997070
0.000000 0.265721 0.998901
0.244755 0.253025 1.000000
0.514580 0.231235 1.000000
0.719875 0.195163 1.000000
0.884154 0.000000 1.000000
0.989105 0.000000 0.974090
0.000000 0.357549 0.994293
0.000000 0.336370 0.995422
0.000000 0.302129 0.997955
0.245762 0.292302 1.000000
0.513970 0.275181 1.000000
0.718502 0.248234 1.000000
0.882506 0.000000 1.000000
0.988067 0.000000 0.974212
0.000000 0.425391 0.991272
0.000000 0.426551 0.991699
0.000000 0.415991 0.993866
0.239231 0.389868 0.997498
0.508598 0.380011 1.000000
0.712276 0.364630 1.000000
0.876646 0.280583 1.000000
0.984558 0.093721 0.974517
0.000000 0.511559 0.986175
0.000000 0.509728 0.986755
0.000000 0.510857 0.988434
0.220920 0.508080 0.991791
0.482765 0.488411 0.996368
0.694148 0.478248 0.999481
0.865293 0.427863 0.999084
0.979156 0.330724 0.975006
0.000000 0.623316 0.983948
0.000000 0.619959 0.984100
0.000000 0.610834 0.984405
0.000000 0.596735 0.984771
0.407904 0.587427 0.990173
0.647028 0.571435 0.995453
0.845518 0.547814 0.996735
0.972503 0.469581 0.975586
0.000000 0.745174 0.981262
0.000000 0.742306 0.981445
0.000000 0.733944 0.981842
0.000000 0.721828 0.982086
0.229252 0.701717 0.982513
0.547265 0.668666 0.988251
0.815122 0.682704 0.992126
0.962860 0.606409 0.976074
0.000000 0.871336 0.977447
0.000000 0.869718 0.977600
0.000000 0.864012 0.978058
0.000000 0.854673 0.978271
0.000000 0.840818 0.978241
0.424964 0.814603 0.979126
0.750759 0.806394 0.981018
0.942107 0.803220 0.975952
0.000000 0.996460 0.972442
0.000000 0.996674 0.972503
0.000000 0.996857 0.972656
0.000000 0.994476 0.972717
0.000000 0.985412 0.972351
0.283513 0.973053 0.971893
0.631983 0.954467 0.971466
0.919554 0.931640 0.973541
