其他预设/【233】日式怀旧街道调色预设208款/1.3D LUT预设（视频调色-PR-AE-PS-FCPX-达芬奇用）/3.日式城市街拍预设 (自动曝光预设)/JA – Night Candy 1 (Auto-Exposure).cube
# Created by Adobe Lightroom plugin Export LUT (1.17.0)
# www.johnrellis.com/lightroom/exportlut.htm
# Preset: JA – Night Candy 1 (Auto-Exposure)
# Color profile: /Library/Application Support/Adobe/Color/Profiles/Recommended/AdobeRGB1998.icc
LUT_3D_SIZE 5
DOMAIN_MIN 0.000000 0.000000 0.000000
DOMAIN_MAX 0.903226 0.903226 0.903226
0.079255 0.087068 0.087587
0.290288 0.000000 0.082490
0.566491 0.000000 0.058991
0.724300 0.000000 0.029023
0.974334 0.000000 0.000000
0.000000 0.269474 0.108858
0.233982 0.237766 0.099672
0.587701 0.164462 0.043366
0.740597 0.000000 0.027619
0.985534 0.000000 0.000000
0.000000 0.544823 0.181521
0.000000 0.545556 0.000000
0.516991 0.512474 0.270451
0.733028 0.485481 0.421942
1.000000 0.313573 0.226841
0.000000 0.704433 0.231632
0.000000 0.706630 0.130220
0.382422 0.697047 0.125582
0.687770 0.682673 0.498329
0.945922 0.740139 0.701717
0.000000 0.954223 0.281254
0.000000 0.956603 0.225223
0.217685 0.953613 0.206210
0.657862 0.943938 0.267674
0.939605 0.918242 0.679469
0.000000 0.101534 0.273930
0.290074 0.000000 0.296178
0.568963 0.000000 0.265476
0.720180 0.000000 0.213230
0.966705 0.000000 0.174014
0.000000 0.280949 0.277409
0.250065 0.273686 0.288701
0.559167 0.078584 0.224826
0.719570 0.000000 0.201328
0.973144 0.000000 0.183780
0.000000 0.546593 0.317815
0.000000 0.548425 0.274571
0.512413 0.520928 0.414282
0.727474 0.491341 0.474769
1.000000 0.325811 0.331334
0.000000 0.704891 0.323095
0.000000 0.706203 0.286046
0.389624 0.697230 0.316075
0.684627 0.687068 0.567163
0.946319 0.745632 0.729702
0.000000 0.955016 0.363928
0.000000 0.957366 0.325780
0.220096 0.953429 0.342657
0.653346 0.942504 0.374945
0.937865 0.919463 0.708461
0.000000 0.142123 0.600031
0.137911 0.000000 0.617975
0.569238 0.000000 0.611078
0.744045 0.000000 0.503014
0.987823 0.000000 0.472175
0.000000 0.324102 0.587976
0.000000 0.277562 0.604791
0.554986 0.184939 0.610468
0.731472 0.000000 0.503288
0.982727 0.000000 0.460731
0.000000 0.556176 0.587854
0.000000 0.554833 0.593500
0.500084 0.538231 0.613855
0.687953 0.432410 0.533440
0.964080 0.264988 0.476967
0.000000 0.706569 0.530724
0.000000 0.706508 0.525902
0.392676 0.698451 0.571618
0.681147 0.698817 0.687343
0.956512 0.725978 0.749020
0.000000 0.957641 0.571588
0.000000 0.960143 0.547539
0.000000 0.958831 0.524743
0.626886 0.944701 0.575341
0.932067 0.922972 0.792477
0.000000 0.198459 0.788754
0.000000 0.153750 0.799374
0.461646 0.074495 0.835294
0.761410 0.000000 0.814237
0.999084 0.000000 0.772457
0.000000 0.334691 0.778470
0.000000 0.316899 0.789517
0.452094 0.298589 0.826749
0.752468 0.187320 0.814694
0.995056 0.000000 0.773434
0.000000 0.521874 0.769558
0.000000 0.519280 0.771817
0.420447 0.528344 0.792844
0.725368 0.486000 0.815824
0.982483 0.285222 0.766934
0.000000 0.721523 0.768734
0.000000 0.719478 0.770718
0.312993 0.709194 0.778958
0.671992 0.708797 0.808988
0.958251 0.549401 0.709346
0.000000 0.962524 0.794400
0.000000 0.964813 0.785946
0.000000 0.964752 0.774502
0.501671 0.956573 0.753811
0.923064 0.928069 0.909483
0.000000 0.306981 0.995941
0.000000 0.267704 0.998413
0.395727 0.243503 1.000000
0.763668 0.168399 1.000000
0.989105 0.000000 0.974090
0.000000 0.406470 0.992187
0.000000 0.393530 0.994324
0.393042 0.358129 0.999939
0.760800 0.326543 1.000000
0.985657 0.000000 0.974426
0.000000 0.565576 0.984955
0.000000 0.555444 0.985260
0.331060 0.549920 0.990875
0.726070 0.523674 0.998260
0.975982 0.404273 0.975311
0.000000 0.776486 0.980407
0.000000 0.768276 0.980926
0.000000 0.746670 0.981353
0.589258 0.695521 0.987213
0.958953 0.650294 0.976165
0.000000 0.996460 0.972442
0.000000 0.996887 0.972625
0.000000 0.990692 0.972595
0.375097 0.969818 0.971832
0.919554 0.931640 0.973541
