其他预设/【233】日式怀旧街道调色预设208款/1.3D LUT预设（视频调色-PR-AE-PS-FCPX-达芬奇用）/3.日式城市街拍预设 (自动曝光预设)/JA – Cine Night 5 (Auto-Exposure).cube
# Created by Adobe Lightroom plugin Export LUT (1.17.0)
# www.johnrellis.com/lightroom/exportlut.htm
# Preset: JA – Cine Night 5 (Auto-Exposure)
# Color profile: /Library/Application Support/Adobe/Color/Profiles/Recommended/AdobeRGB1998.icc
LUT_3D_SIZE 5
DOMAIN_MIN 0.000000 0.000000 0.000000
DOMAIN_MAX 0.903226 0.903226 0.903226
0.000000 0.030060 0.060395
0.101503 0.069123 0.070680
0.623804 0.000000 0.000000
0.996551 0.000000 0.000000
1.000000 0.000000 0.000000
0.000000 0.112398 0.123201
0.061219 0.137362 0.095644
0.667384 0.179324 0.000000
1.000000 0.120729 0.000000
1.000000 0.098482 0.000000
0.000000 0.394812 0.310674
0.000000 0.420356 0.274601
0.440101 0.499245 0.120180
1.000000 0.560204 0.000000
1.000000 0.465614 0.000000
0.000000 0.794736 0.564996
0.000000 0.802213 0.552575
0.344488 0.793332 0.489754
0.865507 0.822049 0.296239
1.000000 0.755520 0.063935
0.000000 0.984558 0.753353
0.000000 0.985718 0.753262
0.664668 0.957214 0.813230
0.819760 0.941772 0.786984
0.982818 0.948882 0.661341
0.000000 0.063233 0.166629
0.000580 0.080842 0.174929
0.537591 0.000000 0.222232
0.980133 0.000000 0.213443
1.000000 0.000000 0.156649
0.000000 0.116793 0.196780
0.000000 0.141909 0.222324
0.581384 0.077485 0.227115
0.987579 0.000000 0.203403
1.000000 0.132967 0.138399
0.000000 0.410468 0.402777
0.000000 0.437354 0.397345
0.436622 0.501061 0.293919
0.992920 0.545434 0.228458
1.000000 0.454994 0.000000
0.000000 0.802182 0.629969
0.000000 0.808865 0.626001
0.385992 0.801511 0.589563
0.859831 0.822141 0.447639
1.000000 0.763394 0.376135
0.000000 0.984894 0.777005
0.000000 0.986023 0.776547
0.671077 0.957275 0.828428
0.830381 0.941344 0.815061
0.977722 0.948669 0.719966
0.000000 0.087922 0.433082
0.000000 0.091218 0.470558
0.385840 0.081270 0.486702
0.898192 0.106294 0.602075
1.000000 0.492653 0.706874
0.000000 0.155154 0.439368
0.000000 0.170382 0.492409
0.393500 0.217258 0.522484
0.898833 0.304601 0.633326
1.000000 0.514794 0.700404
0.000000 0.389441 0.560174
0.000000 0.418860 0.578424
0.403113 0.501061 0.629389
0.920653 0.574060 0.681422
1.000000 0.614557 0.689540
0.000000 0.822232 0.776669
0.000000 0.827207 0.777737
0.508751 0.817868 0.773861
0.843076 0.821469 0.715877
1.000000 0.813046 0.752346
0.000000 0.985901 0.848203
0.000000 0.986847 0.845457
0.649348 0.961730 0.864164
0.858213 0.941833 0.878752
0.967987 0.948363 0.829801
0.000000 0.132845 0.751461
0.000000 0.126436 0.770962
0.584649 0.000000 0.827054
0.831418 0.312139 0.781613
0.990967 0.655512 0.851560
0.000000 0.212192 0.754788
0.000000 0.224338 0.773556
0.560082 0.250706 0.828580
0.829923 0.414710 0.794736
0.988037 0.691127 0.860899
0.000000 0.428779 0.765652
0.000000 0.434760 0.767819
0.430884 0.511528 0.819486
0.825956 0.628901 0.831388
0.981659 0.779019 0.885893
0.000000 0.747768 0.849393
0.000000 0.757839 0.852476
0.454200 0.781308 0.860868
0.829221 0.816007 0.877379
0.982849 0.864042 0.905791
0.000000 0.984833 0.925689
0.000000 0.983368 0.925719
0.691920 0.961913 0.932586
0.880003 0.946746 0.934508
0.961181 0.948547 0.917815
0.193240 0.326635 0.958587
0.372717 0.336065 0.960662
0.696101 0.388556 0.966369
0.926940 0.534813 0.967437
0.974487 0.731899 0.927306
0.151186 0.404700 0.956756
0.354772 0.416358 0.958740
0.687129 0.470649 0.964324
0.922210 0.603326 0.967132
0.972137 0.755795 0.930755
0.000000 0.541283 0.946685
0.000000 0.546014 0.950011
0.626307 0.624475 0.957275
0.905303 0.738399 0.966155
0.966217 0.816159 0.940948
0.000000 0.771572 0.960449
0.000000 0.772519 0.959380
0.463203 0.769711 0.954620
0.837522 0.815610 0.957580
0.959655 0.886656 0.956085
0.181643 0.933165 0.971618
0.188571 0.934783 0.971618
0.597345 0.931304 0.970031
0.851621 0.932860 0.969024
0.956481 0.947539 0.973205
