其他预设/【233】日式怀旧街道调色预设208款/1.3D LUT预设（视频调色-PR-AE-PS-FCPX-达芬奇用）/3.日式城市街拍预设 (自动曝光预设)/JA – Cityscape Pop 1 (Auto-Exposure).cube
# Created by Adobe Lightroom plugin Export LUT (1.17.0)
# www.johnrellis.com/lightroom/exportlut.htm
# Preset: JA – Cityscape Pop 1 (Auto-Exposure)
# Color profile: /Library/Application Support/Adobe/Color/Profiles/Recommended/AdobeRGB1998.icc
LUT_3D_SIZE 5
DOMAIN_MIN 0.000000 0.000000 0.000000
DOMAIN_MAX 0.903226 0.903226 0.903226
0.112947 0.115755 0.117494
0.189181 0.118807 0.114504
0.506676 0.160128 0.067353
0.794064 0.217716 0.000000
0.971832 0.231815 0.000000
0.122499 0.166812 0.112306
0.188296 0.171084 0.109346
0.514977 0.269535 0.000000
0.796750 0.308537 0.000000
0.971801 0.303746 0.000000
0.204807 0.423713 0.000000
0.302953 0.411231 0.000000
0.509636 0.426703 0.000000
0.805417 0.490242 0.000000
0.971618 0.466224 0.000000
0.313664 0.688228 0.000000
0.400397 0.679408 0.000000
0.595972 0.676112 0.000000
0.801450 0.661646 0.000000
0.971099 0.633539 0.000000
0.398322 0.889281 0.000000
0.466072 0.884764 0.000000
0.633265 0.870603 0.000000
0.825162 0.868345 0.000000
0.972290 0.808347 0.000000
0.095735 0.112215 0.234806
0.178500 0.111940 0.193576
0.509545 0.000000 0.162478
0.796475 0.113344 0.083558
0.973571 0.200015 0.000000
0.049531 0.196994 0.217441
0.191928 0.195773 0.198520
0.515709 0.217594 0.158419
0.799069 0.256260 0.037598
0.973510 0.282658 0.000000
0.000000 0.460853 0.167849
0.252598 0.452125 0.147982
0.519036 0.441596 0.136995
0.807401 0.478248 0.000000
0.973175 0.457588 0.000000
0.201541 0.710811 0.000000
0.345342 0.701106 0.000000
0.581964 0.684779 0.000000
0.803403 0.668330 0.000000
0.972442 0.632990 0.000000
0.329534 0.897246 0.000000
0.415900 0.892332 0.000000
0.614405 0.875822 0.000000
0.821897 0.869718 0.000000
0.972686 0.809476 0.000000
0.000000 0.065736 0.616205
0.224369 0.016846 0.586816
0.456550 0.137087 0.484932
0.763668 0.170260 0.480110
0.959045 0.275822 0.434791
0.000000 0.168276 0.622156
0.159030 0.209598 0.589807
0.467079 0.256138 0.488930
0.772244 0.278752 0.476356
0.959350 0.335088 0.429175
0.000000 0.509819 0.567437
0.000000 0.505821 0.554284
0.502342 0.497292 0.497078
0.786801 0.498726 0.464637
0.962005 0.471992 0.394720
0.000000 0.752438 0.492714
0.076143 0.749264 0.473610
0.531487 0.723049 0.448615
0.791257 0.699611 0.455482
0.962554 0.651911 0.352636
0.040223 0.914794 0.383490
0.279118 0.910674 0.381231
0.546532 0.893095 0.364660
0.790951 0.874327 0.354864
0.961242 0.823850 0.345525
0.000000 0.097475 0.845304
0.206302 0.157168 0.836728
0.482643 0.206241 0.802335
0.707637 0.322332 0.733364
0.906798 0.526024 0.733669
0.000000 0.195132 0.847929
0.199435 0.274083 0.838376
0.497475 0.322148 0.805722
0.713069 0.395636 0.733944
0.907836 0.557794 0.735286
0.000000 0.449348 0.842557
0.000000 0.460182 0.839902
0.556420 0.561578 0.811734
0.731075 0.566796 0.736141
0.913695 0.638422 0.734829
0.000000 0.733577 0.808438
0.000000 0.737728 0.804776
0.509941 0.750820 0.790188
0.760525 0.747372 0.743282
0.923430 0.741390 0.718776
0.000000 0.928557 0.730922
0.175509 0.924651 0.725399
0.524163 0.909880 0.712642
0.760739 0.884215 0.698848
0.925933 0.860533 0.708644
0.167605 0.275303 0.941863
0.365270 0.373999 0.937438
0.523735 0.417884 0.930175
0.710780 0.517021 0.909606
0.866758 0.605341 0.885985
0.114534 0.307347 0.942504
0.362158 0.406806 0.937713
0.564141 0.497932 0.928069
0.723934 0.562371 0.909300
0.868803 0.632502 0.885435
0.000000 0.361578 0.946075
0.133181 0.415656 0.943053
0.640070 0.645014 0.925292
0.760433 0.675288 0.910185
0.875242 0.705562 0.884276
0.000000 0.615747 0.934966
0.227268 0.633967 0.933379
0.572381 0.702296 0.927398
0.814694 0.808286 0.913085
0.885405 0.798215 0.883879
0.000000 0.839536 0.918486
0.288457 0.844816 0.917266
0.575921 0.863218 0.912840
0.789792 0.886503 0.906401
0.900175 0.890959 0.887785
