其他预设/【233】日式怀旧街道调色预设208款/1.3D LUT预设（视频调色-PR-AE-PS-FCPX-达芬奇用）/3.日式城市街拍预设 (自动曝光预设)/JA – Chrome 2 (Auto-Exposure).cube
# Created by Adobe Lightroom plugin Export LUT (1.17.0)
# www.johnrellis.com/lightroom/exportlut.htm
# Preset: JA – Chrome 2 (Auto-Exposure)
# Color profile: /Library/Application Support/Adobe/Color/Profiles/Recommended/AdobeRGB1998.icc
LUT_3D_SIZE 32
0.109712 0.106752 0.111879
0.113619 0.107057 0.111757
0.118807 0.107332 0.111604
0.129305 0.107942 0.111238
0.142184 0.108980 0.110933
0.156252 0.110140 0.110536
0.172091 0.111788 0.109743
0.190707 0.114137 0.108858
0.216709 0.117891 0.107301
0.253941 0.123415 0.104433
0.307774 0.132509 0.099184
0.375555 0.145418 0.090578
0.448127 0.160922 0.076600
0.515770 0.176425 0.055085
0.574182 0.190799 0.003723
0.624903 0.203677 0.000000
0.669764 0.215122 0.000000
0.709957 0.226078 0.000000
0.745907 0.236301 0.000000
0.779110 0.245335 0.000000
0.810330 0.254429 0.000000
0.839475 0.263035 0.000000
0.866484 0.271153 0.000000
0.891447 0.278630 0.000000
0.914397 0.285679 0.000000
0.935454 0.292058 0.000000
0.954620 0.297948 0.000000
0.972076 0.303349 0.000000
0.988067 0.307927 0.000000
1.000000 0.312413 0.000000
1.000000 0.316136 0.000000
1.000000 0.317052 0.000000
0.110170 0.110506 0.112215
0.114046 0.110536 0.112123
0.118990 0.111086 0.111727
0.129458 0.112154 0.111116
0.142336 0.112917 0.110842
0.156619 0.113741 0.110231
0.172549 0.115297 0.109621
0.191379 0.117464 0.108736
0.217533 0.121218 0.106935
0.255253 0.127352 0.104189
0.309300 0.136995 0.099001
0.377295 0.150637 0.090089
0.449744 0.166445 0.075807
0.517113 0.182071 0.053590
0.575250 0.196353 0.000397
0.625635 0.208530 0.000000
0.670375 0.220035 0.000000
0.710536 0.231083 0.000000
0.746365 0.240818 0.000000
0.779629 0.249821 0.000000
0.810666 0.258213 0.000000
0.839719 0.266728 0.000000
0.866697 0.274571 0.000000
0.891600 0.281651 0.000000
0.914549 0.288640 0.000000
0.935607 0.295079 0.000000
0.954711 0.300725 0.000000
0.972137 0.305882 0.000000
0.988098 0.310430 0.000000
1.000000 0.314672 0.000000
1.000000 0.318395 0.000000
1.000000 0.319219 0.000000
0.110597 0.115877 0.112398
0.115267 0.115785 0.112062
0.119875 0.115908 0.112154
0.129671 0.116579 0.111574
0.142733 0.117952 0.110811
0.156985 0.118502 0.110231
0.172885 0.119783 0.109438
0.191989 0.121767 0.108522
0.218570 0.126009 0.107088
0.256565 0.132265 0.104250
0.311162 0.143221 0.098756
0.379309 0.157504 0.089570
0.451789 0.173861 0.075105
0.518639 0.189975 0.049714
0.576226 0.203830 0.000000
0.626795 0.216190 0.000000
0.671321 0.227298 0.000000
0.711330 0.237613 0.000000
0.746914 0.246220 0.000000
0.780026 0.255222 0.000000
0.811185 0.263676 0.000000
0.840116 0.271702 0.000000
0.867033 0.279423 0.000000
0.891905 0.286076 0.000000
0.914794 0.292668 0.000000
0.935760 0.298558 0.000000
0.954833 0.304417 0.000000
0.972259 0.309178 0.000000
0.988190 0.313603 0.000000
1.000000 0.317632 0.000000
1.000000 0.320928 0.000000
1.000000 0.322210 0.000000
0.111635 0.125978 0.112947
0.115724 0.125978 0.112856
0.121614 0.125673 0.112703
0.131044 0.125917 0.112398
0.142977 0.125765 0.111574
0.157748 0.127962 0.110597
0.173892 0.129030 0.109804
0.193362 0.131136 0.109102
0.220645 0.135683 0.107301
0.259861 0.143465 0.104097
0.315129 0.155795 0.098390
0.383886 0.172244 0.088014
0.455818 0.189792 0.072755
0.521813 0.205570 0.044892
0.579065 0.219242 0.000000
0.628962 0.230930 0.000000
0.673091 0.241093 0.000000
0.712856 0.250553 0.000000
0.748287 0.259190 0.000000
0.781186 0.266941 0.000000
0.812100 0.274754 0.000000
0.840909 0.282200 0.000000
0.867765 0.289067 0.000000
0.892454 0.295567 0.000000
0.915251 0.301457 0.000000
0.936095 0.306798 0.000000
0.955108 0.311833 0.000000
0.972442 0.316289 0.000000
0.988312 0.320623 0.000000
1.000000 0.323949 0.000000
1.000000 0.326970 0.000000
1.000000 0.328435 0.000000
0.112795 0.138064 0.114015
0.116854 0.137881 0.113954
0.121981 0.137545 0.113832
0.131716 0.137179 0.113375
0.144167 0.138003 0.112886
0.157595 0.137331 0.112032
0.174502 0.140139 0.111025
0.195651 0.144869 0.109682
0.224063 0.150332 0.107820
0.264652 0.160159 0.104372
0.322057 0.175082 0.097444
0.390906 0.193790 0.086061
0.462318 0.212680 0.069032
0.526909 0.228641 0.031189
0.583337 0.241733 0.000000
0.632380 0.252873 0.000000
0.676020 0.261906 0.000000
0.715267 0.270268 0.000000
0.750362 0.277562 0.000000
0.783047 0.284733 0.000000
0.813626 0.291325 0.000000
0.842283 0.297673 0.000000
0.868772 0.303593 0.000000
0.893339 0.309117 0.000000
0.915953 0.314214 0.000000
0.936645 0.318975 0.000000
0.955505 0.323278 0.000000
0.972717 0.327245 0.000000
0.988525 0.330724 0.000000
1.000000 0.333623 0.000000
1.000000 0.336248 0.000000
1.000000 0.338079 0.000000
0.114717 0.150851 0.115480
0.118227 0.150729 0.115419
0.123079 0.150454 0.115114
0.132296 0.150027 0.114656
0.144564 0.150301 0.114229
0.159243 0.151583 0.113344
0.174472 0.151186 0.112551
0.195926 0.156527 0.111086
0.227268 0.166934 0.108370
0.272099 0.181979 0.104005
0.331243 0.200595 0.095552
0.400427 0.221378 0.082307
0.470771 0.241367 0.061921
0.533898 0.257389 0.008942
0.588708 0.269993 0.000000
0.637079 0.280095 0.000000
0.679866 0.288029 0.000000
0.718471 0.295018 0.000000
0.753170 0.301213 0.000000
0.785489 0.307073 0.000000
0.815671 0.312322 0.000000
0.843961 0.317571 0.000000
0.870237 0.322454 0.000000
0.894530 0.327031 0.000000
0.916899 0.331273 0.000000
0.937407 0.334997 0.000000
0.956085 0.338537 0.000000
0.973144 0.341527 0.000000
0.988830 0.344121 0.000000
1.000000 0.346471 0.000000
1.000000 0.348394 0.000000
1.000000 0.349828 0.000000
0.116243 0.165255 0.116793
0.119722 0.165011 0.116732
0.124269 0.164797 0.116426
0.132937 0.164462 0.116213
0.145876 0.163729 0.115694
0.159792 0.165255 0.115175
0.176883 0.167727 0.113954
0.195834 0.169009 0.112673
0.227420 0.180331 0.109957
0.274388 0.199863 0.104250
0.340826 0.228702 0.092683
0.412299 0.254795 0.075319
0.480964 0.275578 0.041505
0.542290 0.290990 0.000000
0.595758 0.302861 0.000000
0.642695 0.311498 0.000000
0.684749 0.318181 0.000000
0.722530 0.324132 0.000000
0.756619 0.329046 0.000000
0.788418 0.333135 0.000000
0.818204 0.337346 0.000000
0.846098 0.341253 0.000000
0.872007 0.344945 0.000000
0.895964 0.348333 0.000000
0.918090 0.351415 0.000000
0.938323 0.354192 0.000000
0.956756 0.356573 0.000000
0.973632 0.358587 0.000000
0.989166 0.360296 0.000000
1.000000 0.361883 0.000000
1.000000 0.363195 0.000000
1.000000 0.364050 0.000000
0.118074 0.182040 0.117769
0.121187 0.181979 0.117678
0.125612 0.181918 0.117586
0.134615 0.181552 0.117372
0.147311 0.181186 0.117006
0.162509 0.181308 0.116213
0.179904 0.185061 0.115175
0.201480 0.190127 0.113375
0.227054 0.195102 0.111147
0.274693 0.216312 0.104616
0.340459 0.247166 0.092317
0.417487 0.282261 0.069093
0.493141 0.314427 0.000000
0.552056 0.329259 0.000000
0.603601 0.339483 0.000000
0.649195 0.346838 0.000000
0.690455 0.352575 0.000000
0.727230 0.356298 0.000000
0.760708 0.359899 0.000000
0.791958 0.362890 0.000000
0.821164 0.365484 0.000000
0.848600 0.368200 0.000000
0.874144 0.370306 0.000000
0.897734 0.372656 0.000000
0.919463 0.374578 0.000000
0.939391 0.376196 0.000000
0.957580 0.377417 0.000000
0.974212 0.378424 0.000000
0.989532 0.379248 0.000000
1.000000 0.379767 0.000000
1.000000 0.380133 0.000000
1.000000 0.380194 0.000000
0.119417 0.204959 0.118135
0.122713 0.204990 0.118044
0.127504 0.204990 0.117891
0.137179 0.204746 0.117647
0.150637 0.204746 0.117189
0.167330 0.204379 0.116426
0.185977 0.207279 0.115358
0.209018 0.214450 0.112978
0.238163 0.223972 0.109651
0.272984 0.233890 0.104829
0.340215 0.267369 0.090700
0.416297 0.304051 0.065248
0.491524 0.337438 0.000000
0.557427 0.363287 0.000000
0.612482 0.380072 0.000000
0.656733 0.385718 0.000000
0.696834 0.389685 0.000000
0.732815 0.392248 0.000000
0.765377 0.393927 0.000000
0.795926 0.395056 0.000000
0.824643 0.396612 0.000000
0.851530 0.397894 0.000000
0.876524 0.398627 0.000000
0.899687 0.399451 0.000000
0.921019 0.400153 0.000000
0.940581 0.400519 0.000000
0.958526 0.400763 0.000000
0.974884 0.400610 0.000000
0.989990 0.400427 0.000000
1.000000 0.399908 0.000000
1.000000 0.399420 0.000000
1.000000 0.398596 0.000000
0.119417 0.237217 0.116701
0.123507 0.237034 0.116640
0.128939 0.237064 0.116274
0.139986 0.237186 0.115908
0.155825 0.237217 0.115328
0.174441 0.237278 0.114565
0.195560 0.237339 0.113375
0.220706 0.245518 0.110292
0.252781 0.258000 0.105562
0.292485 0.273747 0.098329
0.335668 0.287327 0.089418
0.415167 0.327184 0.058717
0.489418 0.361456 0.000000
0.555047 0.387579 0.000000
0.612207 0.407538 0.000000
0.662379 0.423468 0.000000
0.704005 0.429969 0.000000
0.738857 0.430549 0.000000
0.770565 0.430518 0.000000
0.800412 0.430274 0.000000
0.828458 0.430030 0.000000
0.854765 0.429816 0.000000
0.879210 0.429236 0.000000
0.901915 0.428687 0.000000
0.922789 0.428016 0.000000
0.941955 0.427070 0.000000
0.959503 0.426093 0.000000
0.975616 0.424872 0.000000
0.990509 0.423438 0.000000
1.000000 0.422065 0.000000
1.000000 0.420447 0.000000
1.000000 0.418921 0.000000
0.117739 0.280522 0.111666
0.122652 0.280766 0.111452
0.129915 0.280766 0.111025
0.143435 0.280735 0.110597
0.161837 0.280980 0.110048
0.184207 0.281376 0.108461
0.208804 0.281621 0.107088
0.235904 0.283696 0.104585
0.269932 0.298405 0.098146
0.311559 0.316197 0.088045
0.360510 0.336248 0.072389
0.406928 0.349218 0.051392
0.487129 0.386511 0.000000
0.552148 0.413062 0.000000
0.609216 0.432868 0.000000
0.659541 0.448310 0.000000
0.704677 0.460578 0.000000
0.744747 0.470619 0.000000
0.776303 0.469642 0.000000
0.805325 0.467597 0.000000
0.832639 0.465705 0.000000
0.858244 0.463813 0.000000
0.882170 0.461921 0.000000
0.904265 0.459785 0.000000
0.924681 0.457801 0.000000
0.943420 0.455268 0.000000
0.960571 0.453101 0.000000
0.976349 0.450782 0.000000
0.991028 0.448280 0.000000
1.000000 0.445808 0.000000
1.000000 0.443275 0.000000
1.000000 0.440742 0.000000
0.112184 0.334203 0.101350
0.119448 0.334203 0.101137
0.128176 0.334264 0.100832
0.145418 0.334264 0.099947
0.168154 0.334386 0.098848
0.194705 0.334447 0.097139
0.223209 0.334905 0.094820
0.253513 0.334936 0.092103
0.287236 0.342382 0.086030
0.329412 0.360601 0.071748
0.377508 0.380591 0.039368
0.431678 0.401831 0.000000
0.479652 0.413153 0.000000
0.549279 0.439490 0.000000
0.605890 0.459174 0.000000
0.656153 0.474067 0.000000
0.701442 0.485969 0.000000
0.741756 0.495003 0.000000
0.777951 0.502495 0.000000
0.810452 0.507042 0.000000
0.837064 0.503410 0.000000
0.861936 0.499611 0.000000
0.885191 0.496162 0.000000
0.906767 0.492683 0.000000
0.926696 0.489113 0.000000
0.944945 0.485573 0.000000
0.961700 0.482002 0.000000
0.977173 0.478218 0.000000
0.991516 0.474678 0.000000
1.000000 0.471046 0.000000
1.000000 0.467567 0.000000
1.000000 0.464057 0.000000
0.105257 0.391394 0.083955
0.113008 0.391485 0.083619
0.125460 0.391302 0.082918
0.146059 0.391424 0.081880
0.172885 0.391211 0.080446
0.203616 0.391211 0.077790
0.236027 0.391028 0.074556
0.269169 0.390784 0.070527
0.303532 0.390448 0.065309
0.343603 0.403784 0.035950
0.390051 0.422400 0.000000
0.440833 0.441444 0.000000
0.495369 0.460517 0.000000
0.543694 0.470863 0.000000
0.602350 0.486091 0.000000
0.652552 0.500664 0.000000
0.697963 0.511894 0.000000
0.738247 0.520378 0.000000
0.774716 0.527062 0.000000
0.808499 0.532738 0.000000
0.839445 0.537774 0.000000
0.865873 0.537407 0.000000
0.888426 0.532219 0.000000
0.909392 0.527062 0.000000
0.928740 0.522026 0.000000
0.946502 0.517082 0.000000
0.962860 0.512016 0.000000
0.977996 0.507103 0.000000
0.992035 0.502312 0.000000
1.000000 0.497719 0.000000
1.000000 0.493019 0.000000
1.000000 0.488502 0.000000
0.093263 0.446815 0.052918
0.106325 0.446662 0.051240
0.118685 0.446693 0.050752
0.144350 0.446509 0.047120
0.175509 0.445991 0.040894
0.209049 0.445594 0.032105
0.244327 0.444953 0.021485
0.280247 0.444282 0.008576
0.317021 0.443275 0.000000
0.354314 0.443549 0.000000
0.397864 0.460029 0.000000
0.445380 0.477058 0.000000
0.495949 0.494057 0.000000
0.549493 0.510857 0.000000
0.597345 0.520226 0.000000
0.648463 0.527733 0.000000
0.693874 0.538476 0.000000
0.734463 0.546410 0.000000
0.771267 0.552361 0.000000
0.805356 0.557366 0.000000
0.836576 0.561547 0.000000
0.865110 0.564904 0.000000
0.890959 0.567529 0.000000
0.912047 0.562829 0.000000
0.930816 0.556176 0.000000
0.948089 0.549676 0.000000
0.963989 0.543328 0.000000
0.978759 0.537102 0.000000
0.992523 0.531243 0.000000
1.000000 0.525353 0.000000
1.000000 0.519768 0.000000
1.000000 0.514153 0.000000
0.081331 0.495979 0.000000
0.097078 0.495674 0.000000
0.111604 0.495552 0.000000
0.140536 0.495247 0.000000
0.174685 0.494759 0.000000
0.211368 0.493935 0.000000
0.248386 0.493050 0.000000
0.286137 0.491859 0.000000
0.324193 0.490578 0.000000
0.362249 0.488960 0.000000
0.402136 0.493629 0.000000
0.446540 0.508873 0.000000
0.494087 0.524132 0.000000
0.544182 0.539513 0.000000
0.596368 0.554650 0.000000
0.644007 0.563714 0.000000
0.688136 0.565545 0.000000
0.730312 0.572839 0.000000
0.767483 0.578332 0.000000
0.801907 0.582788 0.000000
0.833463 0.586297 0.000000
0.862333 0.588861 0.000000
0.888426 0.590692 0.000000
0.912016 0.591669 0.000000
0.932860 0.591547 0.000000
0.949615 0.583551 0.000000
0.965087 0.575647 0.000000
0.979492 0.568261 0.000000
0.992920 0.561028 0.000000
1.000000 0.554070 0.000000
1.000000 0.547356 0.000000
1.000000 0.540703 0.000000
0.064790 0.538903 0.000000
0.085664 0.538720 0.000000
0.105501 0.538445 0.000000
0.135317 0.538170 0.000000
0.172122 0.537377 0.000000
0.210910 0.536461 0.000000
0.248569 0.535454 0.000000
0.287633 0.534112 0.000000
0.326757 0.532494 0.000000
0.365728 0.530602 0.000000
0.404425 0.528527 0.000000
0.445869 0.537499 0.000000
0.490394 0.551415 0.000000
0.537560 0.565545 0.000000
0.586694 0.579553 0.000000
0.637781 0.593591 0.000000
0.685115 0.602777 0.000000
0.723018 0.599817 0.000000
0.763424 0.604761 0.000000
0.798154 0.608637 0.000000
0.830106 0.611536 0.000000
0.859312 0.613489 0.000000
0.885710 0.614496 0.000000
0.909514 0.614771 0.000000
0.930785 0.614313 0.000000
0.949737 0.613245 0.000000
0.966125 0.609186 0.000000
0.980133 0.600305 0.000000
0.993256 0.591913 0.000000
1.000000 0.583703 0.000000
1.000000 0.575860 0.000000
1.000000 0.568109 0.000000
0.041840 0.576776 0.000000
0.075135 0.576623 0.000000
0.095918 0.576379 0.000000
0.129366 0.576013 0.000000
0.168399 0.575219 0.000000
0.207736 0.574334 0.000000
0.247196 0.573144 0.000000
0.287022 0.571679 0.000000
0.326482 0.569940 0.000000
0.365972 0.567803 0.000000
0.405005 0.565637 0.000000
0.443641 0.563348 0.000000
0.485756 0.576196 0.000000
0.530175 0.589349 0.000000
0.576776 0.602533 0.000000
0.624994 0.615625 0.000000
0.674281 0.628443 0.000000
0.721645 0.638025 0.000000
0.755093 0.631830 0.000000
0.794125 0.634943 0.000000
0.826413 0.637293 0.000000
0.855985 0.638605 0.000000
0.882750 0.638941 0.000000
0.906828 0.638575 0.000000
0.928405 0.637354 0.000000
0.947570 0.635492 0.000000
0.964721 0.633265 0.000000
0.980133 0.630732 0.000000
0.993469 0.623529 0.000000
1.000000 0.614191 0.000000
1.000000 0.605158 0.000000
1.000000 0.596399 0.000000
0.009613 0.610834 0.000000
0.061219 0.610651 0.000000
0.087160 0.610498 0.000000
0.124025 0.610010 0.000000
0.164675 0.609308 0.000000
0.204288 0.608362 0.000000
0.244358 0.607141 0.000000
0.284276 0.605585 0.000000
0.324010 0.603937 0.000000
0.363684 0.601923 0.000000
0.402930 0.599695 0.000000
0.441749 0.597192 0.000000
0.480995 0.599329 0.000000
0.523308 0.611872 0.000000
0.567407 0.624292 0.000000
0.613214 0.636713 0.000000
0.660334 0.648981 0.000000
0.708400 0.660945 0.000000
0.755367 0.670863 0.000000
0.784848 0.662104 0.000000
0.822477 0.663416 0.000000
0.852415 0.664149 0.000000
0.879545 0.663905 0.000000
0.903990 0.662806 0.000000
0.925750 0.660945 0.000000
0.945190 0.658442 0.000000
0.962585 0.655421 0.000000
0.978210 0.652155 0.000000
0.992340 0.648646 0.000000
1.000000 0.644953 0.000000
1.000000 0.635248 0.000000
1.000000 0.625391 0.000000
0.000000 0.643030 0.000000
0.037354 0.642847 0.000000
0.077394 0.642664 0.000000
0.117037 0.642267 0.000000
0.158877 0.641535 0.000000
0.200290 0.640589 0.000000
0.240909 0.639429 0.000000
0.280949 0.638056 0.000000
0.321141 0.636378 0.000000
0.360540 0.634577 0.000000
0.399878 0.632441 0.000000
0.438911 0.630060 0.000000
0.477455 0.627497 0.000000
0.517510 0.633906 0.000000
0.559472 0.645686 0.000000
0.602991 0.657465 0.000000
0.647852 0.669184 0.000000
0.693690 0.680598 0.000000
0.740169 0.691646 0.000000
0.786923 0.701991 0.000000
0.812680 0.690608 0.000000
0.848569 0.690059 0.000000
0.876097 0.689235 0.000000
0.900877 0.687526 0.000000
0.923003 0.684962 0.000000
0.942657 0.681819 0.000000
0.960266 0.678126 0.000000
0.976104 0.674189 0.000000
0.990387 0.670039 0.000000
1.000000 0.665705 0.000000
1.000000 0.661158 0.000000
1.000000 0.655146 0.000000
0.000000 0.673762 0.000000
0.007507 0.673671 0.000000
0.065949 0.673518 0.000000
0.110323 0.673121 0.000000
0.154086 0.672450 0.000000
0.195682 0.671595 0.000000
0.237186 0.670466 0.000000
0.277134 0.669154 0.000000
0.317388 0.667628 0.000000
0.357061 0.665858 0.000000
0.396582 0.663752 0.000000
0.435401 0.661524 0.000000
0.474128 0.659052 0.000000
0.512230 0.656458 0.000000
0.552392 0.666835 0.000000
0.593988 0.678004 0.000000
0.636774 0.689052 0.000000
0.680629 0.699977 0.000000
0.725032 0.710475 0.000000
0.769894 0.720546 0.000000
0.814786 0.729946 0.000000
0.838193 0.717586 0.000000
0.872404 0.714931 0.000000
0.897520 0.712612 0.000000
0.919982 0.709468 0.000000
0.939971 0.705653 0.000000
0.957794 0.701320 0.000000
0.973816 0.696712 0.000000
0.988312 0.691951 0.000000
1.000000 0.686976 0.000000
1.000000 0.681910 0.000000
1.000000 0.676600 0.000000
0.000000 0.703578 0.000000
0.000000 0.703365 0.000000
0.054139 0.703243 0.000000
0.104311 0.702907 0.000000
0.149172 0.702266 0.000000
0.191379 0.701442 0.000000
0.232364 0.700465 0.000000
0.273167 0.699184 0.000000
0.313573 0.697658 0.000000
0.353155 0.696010 0.000000
0.392523 0.694087 0.000000
0.431617 0.691981 0.000000
0.470100 0.689601 0.000000
0.508232 0.687129 0.000000
0.546441 0.687892 0.000000
0.586267 0.698451 0.000000
0.627161 0.708827 0.000000
0.668971 0.719142 0.000000
0.711574 0.729061 0.000000
0.754452 0.738552 0.000000
0.797360 0.747524 0.000000
0.840269 0.755886 0.000000
0.861845 0.742702 0.000000
0.893706 0.738094 0.000000
0.916838 0.734188 0.000000
0.937102 0.729763 0.000000
0.955169 0.724849 0.000000
0.971374 0.719692 0.000000
0.986053 0.714290 0.000000
0.999359 0.708797 0.000000
1.000000 0.703182 0.000000
1.000000 0.697322 0.000000
0.000000 0.732296 0.000000
0.000000 0.732174 0.000000
0.031220 0.731991 0.000000
0.098756 0.731624 0.000000
0.144442 0.731075 0.000000
0.187442 0.730373 0.000000
0.228916 0.729397 0.000000
0.269261 0.728176 0.000000
0.309667 0.726802 0.000000
0.349493 0.725216 0.000000
0.388464 0.723445 0.000000
0.427375 0.721462 0.000000
0.466011 0.719265 0.000000
0.503929 0.716884 0.000000
0.541741 0.714290 0.000000
0.579614 0.718807 0.000000
0.618799 0.728603 0.000000
0.658930 0.738247 0.000000
0.699580 0.747555 0.000000
0.740658 0.756435 0.000000
0.781827 0.764889 0.000000
0.822873 0.772702 0.000000
0.863615 0.779934 0.000000
0.883757 0.766445 0.000000
0.912444 0.759884 0.000000
0.934020 0.754208 0.000000
0.952392 0.748684 0.000000
0.968841 0.742885 0.000000
0.983673 0.737026 0.000000
0.997101 0.731014 0.000000
1.000000 0.724880 0.000000
1.000000 0.718563 0.000000
0.000000 0.760098 0.000000
0.000000 0.759945 0.000000
0.017945 0.759884 0.000000
0.094881 0.759487 0.000000
0.141146 0.758999 0.000000
0.184512 0.758297 0.000000
0.225711 0.757412 0.000000
0.266331 0.756313 0.000000
0.306004 0.755032 0.000000
0.345586 0.753536 0.000000
0.384741 0.751827 0.000000
0.423163 0.749996 0.000000
0.461433 0.747951 0.000000
0.499489 0.745693 0.000000
0.536980 0.743313 0.000000
0.574273 0.740719 0.000000
0.611749 0.748501 0.000000
0.650141 0.757412 0.000000
0.689052 0.766049 0.000000
0.728389 0.774319 0.000000
0.767819 0.782132 0.000000
0.807126 0.789334 0.000000
0.846220 0.796017 0.000000
0.884703 0.802060 0.000000
0.904387 0.789181 0.000000
0.929259 0.780056 0.000000
0.949432 0.772732 0.000000
0.966094 0.766445 0.000000
0.981140 0.759945 0.000000
0.994720 0.753475 0.000000
1.000000 0.746883 0.000000
1.000000 0.740200 0.000000
0.000000 0.787076 0.000000
0.000000 0.787015 0.000000
0.019135 0.786831 0.000000
0.093629 0.786557 0.000000
0.139467 0.786069 0.000000
0.182437 0.785397 0.000000
0.223148 0.784573 0.000000
0.263096 0.783566 0.000000
0.302861 0.782376 0.000000
0.341924 0.781003 0.000000
0.380804 0.779416 0.000000
0.419135 0.777676 0.000000
0.457008 0.775814 0.000000
0.494728 0.773709 0.000000
0.532189 0.771420 0.000000
0.569207 0.769039 0.000000
0.605951 0.768643 0.000000
0.642603 0.776822 0.000000
0.680079 0.784726 0.000000
0.717647 0.792264 0.000000
0.755367 0.799374 0.000000
0.793057 0.805966 0.000000
0.830411 0.812039 0.000000
0.867399 0.817502 0.000000
0.903807 0.822293 0.000000
0.922789 0.809873 0.000000
0.944366 0.798825 0.000000
0.963287 0.790036 0.000000
0.978454 0.783139 0.000000
0.992218 0.776120 0.000000
1.000000 0.769162 0.000000
1.000000 0.762081 0.000000
0.000000 0.813230 0.000000
0.000000 0.813138 0.000000
0.034516 0.812985 0.000000
0.095796 0.812741 0.000000
0.140810 0.812284 0.000000
0.181765 0.811673 0.000000
0.222324 0.810880 0.000000
0.261784 0.809934 0.000000
0.300420 0.808865 0.000000
0.339147 0.807553 0.000000
0.377295 0.806119 0.000000
0.415290 0.804501 0.000000
0.453010 0.802731 0.000000
0.490455 0.800778 0.000000
0.527550 0.798672 0.000000
0.564263 0.796475 0.000000
0.600763 0.794064 0.000000
0.636530 0.796597 0.000000
0.672358 0.803708 0.000000
0.708339 0.810483 0.000000
0.744442 0.816800 0.000000
0.780545 0.822690 0.000000
0.816464 0.828061 0.000000
0.851865 0.832883 0.000000
0.886717 0.837095 0.000000
0.920928 0.840848 0.000000
0.939239 0.828977 0.000000
0.958068 0.816373 0.000000
0.975708 0.806332 0.000000
0.989563 0.798947 0.000000
1.000000 0.791531 0.000000
1.000000 0.784146 0.000000
0.000000 0.838499 0.000000
0.006043 0.838437 0.000000
0.064179 0.838315 0.000000
0.104524 0.838041 0.000000
0.145571 0.837613 0.000000
0.184390 0.837095 0.000000
0.222873 0.836362 0.000000
0.261173 0.835508 0.000000
0.299321 0.834470 0.000000
0.337194 0.833280 0.000000
0.374975 0.831907 0.000000
0.412238 0.830442 0.000000
0.449592 0.828794 0.000000
0.486397 0.827024 0.000000
0.522972 0.825101 0.000000
0.559625 0.822995 0.000000
0.595727 0.820768 0.000000
0.631495 0.818448 0.000000
0.666072 0.823148 0.000000
0.700557 0.829038 0.000000
0.735195 0.834562 0.000000
0.769741 0.839628 0.000000
0.804044 0.844236 0.000000
0.837949 0.848386 0.000000
0.871397 0.852018 0.000000
0.904173 0.855161 0.000000
0.936309 0.857877 0.000000
0.954284 0.846738 0.000000
0.970459 0.832883 0.000000
0.986847 0.821683 0.000000
0.999603 0.813931 0.000000
1.000000 0.806241 0.028199
0.034943 0.862882 0.000000
0.067353 0.862760 0.000000
0.087922 0.862669 0.000000
0.117708 0.862455 0.000000
0.154635 0.862058 0.000000
0.190372 0.861570 0.000000
0.226932 0.860899 0.000000
0.263493 0.860105 0.000000
0.300267 0.859159 0.000000
0.337133 0.858061 0.000000
0.373816 0.856809 0.000000
0.410285 0.855467 0.000000
0.446754 0.853941 0.000000
0.482887 0.852323 0.000000
0.519097 0.850492 0.000000
0.555016 0.848569 0.000000
0.590784 0.846494 0.000000
0.626246 0.844327 0.000000
0.661189 0.843076 0.000000
0.694118 0.848051 0.000000
0.727291 0.852628 0.000000
0.760403 0.856870 0.000000
0.793301 0.860655 0.000000
0.825803 0.864042 0.000000
0.857847 0.867063 0.000000
0.889281 0.869627 0.000000
0.920104 0.871824 0.000000
0.950256 0.873625 0.000000
0.967864 0.863310 0.000000
0.981720 0.848417 0.000000
0.996948 0.836210 0.058991
1.000000 0.828214 0.107179
0.092134 0.886168 0.000000
0.104036 0.886076 0.000000
0.116091 0.885985 0.000000
0.139651 0.885740 0.000000
0.169345 0.885435 0.000000
0.201572 0.884947 0.000000
0.234745 0.884337 0.000000
0.269108 0.883604 0.000000
0.304112 0.882719 0.000000
0.339269 0.881743 0.000000
0.374487 0.880644 0.000000
0.409888 0.879332 0.000000
0.445472 0.877928 0.000000
0.480812 0.876402 0.000000
0.516167 0.874723 0.000000
