其他预设/【233】日式怀旧街道调色预设208款/1.3D LUT预设（视频调色-PR-AE-PS-FCPX-达芬奇用）/3.日式城市街拍预设 (自动曝光预设)/JA – Controlled Contrast 3 (Auto-Exposure).cube
# Created by Adobe Lightroom plugin Export LUT (1.17.0)
# www.johnrellis.com/lightroom/exportlut.htm
# Preset: JA – Controlled Contrast 3 (Auto-Exposure)
# Color profile: /Library/Application Support/Adobe/Color/Profiles/Recommended/AdobeRGB1998.icc
LUT_3D_SIZE 5
DOMAIN_MIN 0.000000 0.000000 0.000000
DOMAIN_MAX 0.903226 0.903226 0.903226
0.064149 0.059663 0.054932
0.217258 0.000000 0.041566
0.487861 0.000000 0.000000
0.792996 0.000000 0.015534
0.946044 0.000000 0.214206
0.075837 0.162173 0.023896
0.213382 0.194095 0.000000
0.490883 0.173678 0.000000
0.793820 0.000000 0.000000
0.945159 0.000000 0.213199
0.165591 0.394171 0.041291
0.254948 0.387396 0.077028
0.444221 0.414038 0.000000
0.790707 0.467384 0.000000
0.942473 0.411841 0.202640
0.301793 0.625696 0.189273
0.355352 0.620813 0.197086
0.485664 0.606287 0.217319
0.710506 0.678584 0.081056
0.921386 0.651240 0.152926
0.401770 0.846036 0.266361
0.441810 0.843717 0.270970
0.556207 0.835752 0.288029
0.702968 0.834226 0.285771
0.889433 0.853300 0.180240
0.000000 0.061433 0.235050
0.260594 0.000000 0.246098
0.496101 0.000000 0.254154
0.791806 0.000000 0.300206
0.943725 0.000000 0.320226
0.000000 0.242527 0.219425
0.267155 0.253880 0.245121
0.498390 0.223026 0.252262
0.794614 0.131533 0.274998
0.943145 0.117342 0.316716
0.208072 0.417182 0.227634
0.312139 0.416846 0.270756
0.462776 0.438849 0.255467
0.795651 0.479011 0.250645
0.941253 0.419959 0.302861
0.306310 0.657130 0.275151
0.365087 0.652949 0.281041
0.501030 0.634852 0.288029
0.720485 0.691218 0.235843
0.924041 0.654810 0.264561
0.403479 0.850797 0.333410
0.443915 0.848325 0.337743
0.558770 0.839933 0.353307
0.704707 0.835538 0.357031
0.889616 0.855161 0.262516
0.000000 0.176791 0.506798
0.286687 0.207065 0.518212
0.527520 0.238407 0.529564
0.767025 0.212406 0.558312
0.933593 0.162600 0.540856
0.221164 0.342962 0.494301
0.298253 0.321904 0.508995
0.528161 0.314336 0.528588
0.777493 0.287358 0.555444
0.932250 0.282872 0.542473
0.258762 0.493477 0.469581
0.320317 0.502037 0.481788
0.527977 0.522942 0.520958
0.792721 0.495796 0.527916
0.923644 0.522911 0.572137
0.282383 0.716793 0.475807
0.351171 0.720058 0.479377
0.544457 0.717708 0.513268
0.742916 0.725277 0.488563
0.922148 0.699092 0.557580
0.430610 0.862699 0.509270
0.478920 0.860166 0.524315
0.598993 0.849912 0.560723
0.722072 0.836332 0.569543
0.885466 0.860655 0.500450
0.182956 0.330602 0.791165
0.316320 0.333165 0.794247
0.557488 0.350744 0.803738
0.774289 0.383185 0.800381
0.891600 0.540276 0.779080
0.239200 0.422431 0.786099
0.314824 0.403357 0.790402
0.562158 0.430579 0.799771
0.773678 0.465431 0.797879
0.887663 0.590661 0.784268
0.275700 0.601984 0.770199
0.366827 0.603052 0.772610
0.588556 0.617029 0.784054
0.771664 0.650538 0.789975
0.886656 0.683833 0.794125
0.354376 0.778775 0.752621
0.432776 0.777310 0.755337
0.619562 0.772061 0.763790
0.767880 0.774624 0.780697
0.902983 0.767361 0.787228
0.561395 0.873960 0.734401
0.597498 0.871977 0.741726
0.681361 0.867643 0.758419
0.765621 0.860868 0.767025
0.878630 0.872129 0.750820
0.486030 0.559869 0.919219
0.533165 0.573419 0.919585
0.659693 0.618189 0.920958
0.800168 0.679347 0.924376
0.900633 0.697108 0.920745
0.537011 0.620142 0.915557
0.574060 0.629358 0.916167
0.681270 0.662898 0.918273
0.805509 0.706874 0.923003
0.901091 0.716640 0.920470
0.595239 0.723873 0.907073
0.637598 0.734920 0.907561
0.708888 0.741939 0.912505
0.810575 0.761318 0.920256
0.903166 0.762539 0.920623
0.619196 0.816159 0.900084
0.645533 0.818204 0.900633
0.709010 0.820645 0.903471
0.795468 0.816556 0.914763
0.906859 0.826719 0.921355
0.666194 0.909758 0.893187
0.682521 0.909117 0.893889
0.728542 0.908019 0.896544
0.797604 0.907744 0.902342
0.906310 0.911864 0.916503
