其他预设/【233】日式怀旧街道调色预设208款/1.3D LUT预设（视频调色-PR-AE-PS-FCPX-达芬奇用）/3.日式城市街拍预设 (自动曝光预设)/JA – Chrome 2 (Auto-Exposure).cube
# Created by Adobe Lightroom plugin Export LUT (1.17.0)
# www.johnrellis.com/lightroom/exportlut.htm
# Preset: JA – Chrome 2 (Auto-Exposure)
# Color profile: /Library/Application Support/Adobe/Color/Profiles/Recommended/AdobeRGB1998.icc
LUT_3D_SIZE 5
DOMAIN_MIN 0.000000 0.000000 0.000000
DOMAIN_MAX 0.903226 0.903226 0.903226
0.109712 0.106752 0.111879
0.190707 0.114137 0.108858
0.574182 0.190799 0.003723
0.839475 0.263035 0.000000
0.988067 0.307927 0.000000
0.118074 0.182040 0.117769
0.201480 0.190127 0.113375
0.603601 0.339483 0.000000
0.848600 0.368200 0.000000
0.989532 0.379248 0.000000
0.081331 0.495979 0.000000
0.286137 0.491859 0.000000
0.596368 0.554650 0.000000
0.862333 0.588861 0.000000
0.992920 0.561028 0.000000
0.000000 0.732296 0.000000
0.269261 0.728176 0.000000
0.541741 0.714290 0.000000
0.822873 0.772702 0.000000
0.983673 0.737026 0.000000
0.135317 0.908141 0.000000
0.279942 0.905791 0.000000
0.514733 0.897642 0.000000
0.746517 0.892302 0.000000
0.948272 0.901762 0.058808
0.110292 0.109712 0.175875
0.186862 0.105196 0.184207
0.546929 0.000000 0.175051
0.830137 0.122744 0.125917
0.986786 0.243290 0.000000
0.118563 0.176577 0.183291
0.189364 0.183322 0.189456
0.578851 0.237705 0.163729
0.839689 0.298375 0.119020
0.988067 0.336034 0.000000
0.000000 0.500908 0.227146
0.167575 0.511315 0.143191
0.588861 0.548730 0.083192
0.860624 0.580011 0.125368
0.989532 0.548943 0.123018
0.000000 0.737819 0.102846
0.169680 0.736355 0.099306
0.520562 0.720699 0.000000
0.819730 0.771115 0.051148
0.978149 0.744564 0.243503
0.000000 0.911315 0.083436
0.279210 0.905760 0.205447
0.509270 0.898009 0.169863
0.743709 0.890471 0.137667
0.945769 0.901183 0.283421
0.111269 0.089998 0.434607
0.280491 0.000000 0.475135
0.560601 0.000000 0.496651
0.794919 0.000000 0.447700
0.963256 0.247044 0.429450
0.000000 0.217136 0.415442
0.183322 0.164157 0.459083
0.565728 0.000000 0.501488
0.797421 0.163607 0.451850
0.955047 0.424903 0.479133
0.000000 0.472786 0.455543
0.081514 0.485420 0.465980
0.555138 0.527306 0.498939
0.810666 0.574701 0.512535
0.959258 0.603815 0.514580
0.000000 0.739956 0.451637
0.000000 0.740749 0.442542
0.525109 0.734463 0.461433
0.806119 0.764553 0.481575
0.957824 0.782742 0.559686
0.000000 0.910979 0.403632
0.195346 0.908232 0.408515
0.534661 0.895781 0.458167
0.740352 0.884337 0.424445
0.939086 0.899657 0.513359
0.123293 0.000000 0.656611
0.273320 0.000000 0.673610
0.560388 0.000000 0.725124
0.810910 0.000000 0.719051
0.942809 0.000000 0.648463
0.000000 0.166751 0.647578
0.187198 0.138582 0.664790
0.531884 0.000000 0.720333
0.808316 0.000000 0.718196
0.939330 0.303319 0.655451
0.000000 0.443061 0.598444
0.240574 0.452796 0.602136
0.526848 0.494301 0.676448
0.794705 0.525597 0.712795
0.932036 0.568231 0.675868
0.000000 0.689448 0.653681
0.236423 0.693111 0.656703
0.533684 0.707790 0.669062
0.779843 0.749416 0.707393
0.931182 0.788785 0.731136
0.000000 0.907347 0.659693
0.257633 0.904479 0.658991
0.512413 0.897032 0.654475
0.742489 0.885649 0.662928
0.928161 0.897612 0.708431
0.000000 0.000000 0.846708
0.242679 0.000000 0.852689
0.480507 0.000000 0.869413
0.749111 0.000000 0.890227
0.952728 0.000000 0.877134
0.000000 0.164157 0.844144
0.185275 0.133181 0.849393
0.456367 0.000000 0.866728
0.741756 0.000000 0.888426
0.948241 0.000000 0.875090
0.335210 0.513970 0.817288
0.391028 0.512505 0.823972
0.511955 0.480507 0.846311
0.748348 0.484657 0.875639
0.935271 0.521508 0.869627
0.365545 0.683894 0.808591
0.421088 0.686152 0.807523
0.558129 0.691798 0.803311
0.744442 0.715450 0.844419
0.920562 0.753170 0.864958
0.322637 0.862882 0.838254
0.388128 0.863096 0.838132
0.549432 0.864103 0.837980
0.736446 0.867521 0.839292
0.909606 0.890837 0.862608
