其他预设/【233】日式怀旧街道调色预设208款/1.3D LUT预设（视频调色-PR-AE-PS-FCPX-达芬奇用）/3.日式城市街拍预设 (自动曝光预设)/JA – Controlled Contrast 1 (Auto-Exposure).cube
# Created by Adobe Lightroom plugin Export LUT (1.17.0)
# www.johnrellis.com/lightroom/exportlut.htm
# Preset: JA – Controlled Contrast 1 (Auto-Exposure)
# Color profile: /Library/Application Support/Adobe/Color/Profiles/Recommended/AdobeRGB1998.icc
LUT_3D_SIZE 8
DOMAIN_MIN 0.000000 0.000000 0.000000
DOMAIN_MAX 0.903226 0.903226 0.903226
0.089021 0.087709 0.087587
0.127779 0.089357 0.086122
0.232212 0.100038 0.078370
0.427344 0.134981 0.011048
0.639399 0.186618 0.000000
0.804623 0.230442 0.000000
0.932433 0.260716 0.000000
1.000000 0.276249 0.000000
0.090700 0.115236 0.084840
0.118715 0.111574 0.090852
0.219150 0.125490 0.079957
0.410376 0.166567 0.011902
0.626734 0.216495 0.000000
0.797269 0.255009 0.000000
0.928649 0.281285 0.000000
1.000000 0.293675 0.000000
0.102296 0.183352 0.078492
0.136995 0.186404 0.075624
0.196414 0.176394 0.092683
0.370886 0.229007 0.032654
0.584039 0.280095 0.000000
0.770840 0.319127 0.000000
0.914824 0.340215 0.000000
1.000000 0.346838 0.000000
0.132692 0.320928 0.003632
0.175296 0.324773 0.000000
0.277043 0.332799 0.000000
0.361822 0.315007 0.064698
0.566857 0.374701 0.000000
0.727260 0.389502 0.000000
0.888945 0.415412 0.000000
1.000000 0.421149 0.000000
0.177798 0.503288 0.000000
0.224063 0.505425 0.000000
0.338323 0.512932 0.000000
0.466316 0.509056 0.000000
0.568322 0.487678 0.000000
0.738582 0.515007 0.000000
0.872038 0.511833 0.000000
0.990234 0.503136 0.000000
0.223301 0.670069 0.000000
0.265904 0.671015 0.000000
0.376806 0.674434 0.000000
0.516686 0.681544 0.000000
0.646387 0.667720 0.000000
0.751431 0.645106 0.000000
0.879149 0.640467 0.000000
0.986267 0.617853 0.000000
0.262516 0.815274 0.000000
0.299687 0.815427 0.000000
0.401648 0.816037 0.000000
0.532708 0.817014 0.000000
0.672267 0.815000 0.000000
0.798886 0.801663 0.000000
0.894438 0.775998 0.000000
0.982544 0.746731 0.087434
0.290440 0.933196 0.000000
0.322606 0.932921 0.000000
0.414160 0.931914 0.000000
0.535546 0.930053 0.000000
0.664149 0.927855 0.000000
0.792966 0.919799 0.000000
0.912993 0.907164 0.000000
0.988861 0.879088 0.347356
0.082673 0.098207 0.127169
0.125795 0.094362 0.124819
0.237949 0.095918 0.112062
0.435431 0.125124 0.086702
0.646540 0.174960 0.000000
0.808377 0.222965 0.000000
0.932921 0.263066 0.000000
1.000000 0.285679 0.000000
0.082612 0.124727 0.124361
0.124117 0.121889 0.122194
0.228580 0.130404 0.114015
0.422614 0.161288 0.085054
0.635615 0.206729 0.000000
0.801846 0.247623 0.000000
0.929381 0.282414 0.000000
1.000000 0.302068 0.000000
0.084047 0.191470 0.111360
0.129976 0.195468 0.113008
0.207370 0.189120 0.123720
0.379889 0.228305 0.087404
0.596826 0.277104 0.000000
0.777859 0.313176 0.000000
0.916350 0.339605 0.000000
1.000000 0.352575 0.000000
0.079866 0.331060 0.072541
0.151919 0.335027 0.075410
0.276829 0.346166 0.057710
0.373602 0.326848 0.108919
0.572412 0.374945 0.000000
0.732052 0.385748 0.000000
0.891478 0.414313 0.000000
1.000000 0.424628 0.000000
0.125673 0.510979 0.000000
0.191287 0.512902 0.000000
0.325444 0.519402 0.000000
0.467353 0.517388 0.000000
0.575189 0.495155 0.033082
0.741421 0.515526 0.000000
0.873198 0.510307 0.000000
0.990387 0.505089 0.000000
0.179294 0.674922 0.000000
0.233341 0.675837 0.000000
0.359808 0.678737 0.000000
0.508507 0.684565 0.000000
0.646784 0.672389 0.000000
0.754421 0.649348 0.000000
0.880217 0.641627 0.000000
0.986847 0.619471 0.000000
0.225406 0.818173 0.000000
0.269810 0.818296 0.000000
0.383459 0.818723 0.000000
0.522545 0.819333 0.000000
0.667964 0.817655 0.000000
0.798459 0.803983 0.000000
0.894926 0.777676 0.000000
0.983032 0.747799 0.093263
0.258122 0.934997 0.000000
0.294987 0.934691 0.000000
0.395605 0.933593 0.000000
0.524102 0.931518 0.000000
0.660456 0.928679 0.000000
0.793118 0.920317 0.000000
0.913115 0.907652 0.000000
0.989075 0.879545 0.347936
0.000000 0.132174 0.237766
0.070497 0.103090 0.238743
0.231815 0.096162 0.231632
0.439216 0.000000 0.231846
0.682307 0.000000 0.181186
0.830198 0.149447 0.141878
0.946441 0.210849 0.000000
1.000000 0.247837 0.000000
0.000000 0.163302 0.231266
0.075380 0.145663 0.232944
0.230045 0.130190 0.229343
0.447883 0.042420 0.219699
0.672847 0.119570 0.181399
0.825101 0.192508 0.137026
0.943633 0.237461 0.000000
1.000000 0.268070 0.000000
0.000000 0.229648 0.229007
0.065064 0.228061 0.227756
0.226963 0.221988 0.223301
0.430762 0.235813 0.204929
0.639887 0.261784 0.172030
0.804166 0.288945 0.121798
0.931243 0.312291 0.000000
1.000000 0.328466 0.000000
0.000000 0.352209 0.224369
0.000000 0.358038 0.216068
0.234989 0.371038 0.197055
0.400641 0.360113 0.229587
0.587274 0.372412 0.169650
0.759945 0.385657 0.104219
0.906798 0.403052 0.000000
1.000000 0.410742 0.000000
0.000000 0.528771 0.185336
0.000000 0.532982 0.157290
0.258793 0.539147 0.150149
0.461494 0.542657 0.150820
0.592187 0.518242 0.236393
0.748623 0.518578 0.160678
0.876524 0.499672 0.000000
0.996643 0.499489 0.000000
0.000000 0.690425 0.000000
0.000000 0.691157 0.000000
0.287938 0.692348 0.000000
0.478096 0.695003 0.000000
0.645380 0.686885 0.102968
0.760616 0.663722 0.256901
0.882109 0.646937 0.178592
0.988312 0.617670 0.000000
0.000000 0.827817 0.000000
0.099153 0.827298 0.000000
0.311833 0.827176 0.000000
0.485512 0.826749 0.000000
0.651362 0.826352 0.000000
0.795926 0.811276 0.000000
0.893797 0.786191 0.295964
0.982483 0.753506 0.231632
0.000000 0.940856 0.000000
0.158511 0.940490 0.000000
0.321569 0.939086 0.000000
0.480659 0.936522 0.000000
0.634516 0.932769 0.000000
0.782773 0.924407 0.000000
0.911223 0.909972 0.000000
0.989929 0.881163 0.349737
0.000000 0.201907 0.428870
0.000000 0.164279 0.432074
0.204288 0.089784 0.436744
0.428717 0.000000 0.429358
0.617090 0.000000 0.406592
0.837369 0.000000 0.372900
0.956298 0.284550 0.383886
1.000000 0.299657 0.326604
0.000000 0.234073 0.422278
0.000000 0.209415 0.426368
0.179568 0.128298 0.433692
0.428016 0.105623 0.428199
0.624689 0.074952 0.406500
0.839322 0.133120 0.374731
0.953613 0.303563 0.380774
1.000000 0.308721 0.317784
0.000000 0.311162 0.417670
0.000000 0.301915 0.417426
0.084169 0.251133 0.424353
0.426276 0.242802 0.424384
0.650355 0.253941 0.406104
0.832395 0.334844 0.401221
0.944488 0.357000 0.365545
1.000000 0.347051 0.292851
0.000000 0.419165 0.421332
0.000000 0.418738 0.420966
0.000000 0.416968 0.419989
0.424353 0.410254 0.417243
0.633875 0.418463 0.397681
0.797726 0.427253 0.372351
0.925536 0.430518 0.334447
1.000000 0.419867 0.267369
0.000000 0.550500 0.400488
0.000000 0.554711 0.396460
0.074037 0.564111 0.379614
0.428626 0.567346 0.389563
0.606287 0.553979 0.437201
0.752407 0.531090 0.363684
0.889250 0.512016 0.297429
1.000000 0.507317 0.240299
0.000000 0.703853 0.361944
0.000000 0.705867 0.352453
0.000000 0.710994 0.324681
0.437720 0.709316 0.357000
0.638392 0.707118 0.374487
0.763180 0.686793 0.461891
0.879881 0.662074 0.389014
0.987152 0.617029 0.257725
0.000000 0.838865 0.280705
0.000000 0.839689 0.267277
0.000000 0.841001 0.234470
0.440711 0.835111 0.305394
0.625818 0.833219 0.290135
0.790097 0.821653 0.372107
0.888396 0.800381 0.491035
0.976715 0.768307 0.425635
0.000000 0.950927 0.070710
0.000000 0.951019 0.000000
0.145602 0.946777 0.162417
0.421027 0.942046 0.181857
0.598474 0.937804 0.124147
0.763577 0.930724 0.124605
0.903441 0.914366 0.342260
0.980774 0.889220 0.515251
0.000000 0.274937 0.611902
0.000000 0.248051 0.615137
0.000000 0.129549 0.622065
0.388067 0.039582 0.629633
0.619562 0.000000 0.620996
0.753841 0.181582 0.567468
0.926543 0.309117 0.569116
1.000000 0.490364 0.607691
0.000000 0.302342 0.607660
0.000000 0.280735 0.610925
0.000000 0.158938 0.620081
0.378271 0.122499 0.627893
0.618982 0.132753 0.620111
0.753445 0.227726 0.567895
0.927642 0.341375 0.573114
1.000000 0.514366 0.617182
0.000000 0.377203 0.596490
0.000000 0.365576 0.598444
0.000000 0.309789 0.610346
0.340459 0.243870 0.622034
0.617700 0.286564 0.617029
0.765133 0.341863 0.577783
0.929625 0.439338 0.590082
1.000000 0.576928 0.640650
0.000000 0.475319 0.600793
0.000000 0.470314 0.600793
0.000000 0.450080 0.601068
0.294408 0.411933 0.609583
0.616297 0.445533 0.611994
0.789425 0.484993 0.598077
0.928893 0.575799 0.628870
1.000000 0.564233 0.586969
0.000000 0.600641 0.606561
0.000000 0.600549 0.606500
0.000000 0.599939 0.606409
0.308385 0.597711 0.606317
0.616571 0.593896 0.607172
0.780514 0.598871 0.591424
0.907744 0.598810 0.567926
1.000000 0.585260 0.527001
0.000000 0.716243 0.568505
0.000000 0.718746 0.566888
0.000000 0.725673 0.561913
0.358068 0.728084 0.560143
0.616632 0.722591 0.583581
0.762997 0.713527 0.628107
0.874022 0.678462 0.550286
0.984497 0.640284 0.472847
0.000000 0.848783 0.521721
0.000000 0.849363 0.517815
0.000000 0.850095 0.508446
0.357305 0.847196 0.510521
0.612268 0.838254 0.550927
0.779751 0.833860 0.571069
0.881071 0.817807 0.650019
0.968688 0.786801 0.580987
0.000000 0.955688 0.445563
0.000000 0.955657 0.440650
0.000000 0.954467 0.431006
0.331212 0.949218 0.440131
0.589227 0.938476 0.489967
0.746273 0.933623 0.469825
0.892912 0.919646 0.558679
0.968627 0.899870 0.666743
0.000000 0.336309 0.756954
0.000000 0.317082 0.758877
0.000000 0.213626 0.764858
0.225742 0.148501 0.770443
0.560113 0.160037 0.776974
0.764157 0.233188 0.766629
0.874479 0.356085 0.717067
0.983581 0.504631 0.725307
0.000000 0.358343 0.754513
0.000000 0.341405 0.756466
0.000000 0.257481 0.762936
0.205600 0.181613 0.769375
0.557702 0.205173 0.775753
0.763882 0.272282 0.765896
0.873777 0.379644 0.717708
0.983612 0.520562 0.728176
0.000000 0.423682 0.746944
0.000000 0.412055 0.748836
0.000000 0.365637 0.755886
0.099306 0.270390 0.765591
0.549645 0.314733 0.771725
0.763058 0.375586 0.763668
0.871336 0.450202 0.720058
0.984039 0.571374 0.737789
0.000000 0.511467 0.744045
0.000000 0.505333 0.743954
0.000000 0.482124 0.743801
0.137270 0.441169 0.755032
0.533715 0.440925 0.764767
0.762264 0.500267 0.760403
0.871580 0.548089 0.727474
0.985473 0.646540 0.753994
0.000000 0.618677 0.748165
0.000000 0.615839 0.748104
0.000000 0.605463 0.747951
0.000000 0.588190 0.747524
0.505913 0.577020 0.753323
0.762478 0.623194 0.757351
0.891936 0.663905 0.750484
0.983612 0.748806 0.788296
0.000000 0.746212 0.752926
0.000000 0.746059 0.752865
0.000000 0.745418 0.752651
0.157046 0.743618 0.752224
0.519188 0.740932 0.752163
0.764401 0.741146 0.755550
0.887907 0.744930 0.743130
0.979583 0.740383 0.722133
0.000000 0.852720 0.712551
0.000000 0.853666 0.711513
0.000000 0.855802 0.708705
0.272831 0.856321 0.706996
0.558923 0.851713 0.711971
0.763119 0.842954 0.737209
0.875853 0.837400 0.774838
0.959991 0.802945 0.705928
0.000000 0.961730 0.652888
0.000000 0.961578 0.650904
0.000000 0.960143 0.646021
0.263157 0.955138 0.645747
0.547784 0.945006 0.663478
0.751888 0.932219 0.706081
0.881804 0.926360 0.722896
0.957458 0.912413 0.789242
0.000000 0.390631 0.875090
0.000000 0.377569 0.875975
0.000000 0.317418 0.879301
0.000000 0.228122 0.883452
0.450446 0.254917 0.885466
0.713710 0.344762 0.887083
0.873167 0.414343 0.876738
0.958801 0.537957 0.840116
0.000000 0.408148 0.873747
0.000000 0.396033 0.874693
0.000000 0.345922 0.878019
0.000000 0.250614 0.882719
0.448798 0.281224 0.884672
0.713802 0.368353 0.886290
0.872953 0.434638 0.876219
0.958190 0.550286 0.840513
0.000000 0.462226 0.869627
0.000000 0.452644 0.870512
0.000000 0.419257 0.873747
0.000000 0.335576 0.879637
0.442634 0.357427 0.881956
0.713680 0.437476 0.883635
0.872313 0.497292 0.874510
0.956237 0.589166 0.841764
0.000000 0.542504 0.863310
0.000000 0.536400 0.863371
0.000000 0.511559 0.866575
0.000000 0.481636 0.871672
0.424262 0.454932 0.877317
0.711330 0.528283 0.879301
0.871580 0.582025 0.872129
0.953491 0.645258 0.843259
0.000000 0.633021 0.864897
0.000000 0.629358 0.864775
0.000000 0.616083 0.864378
0.000000 0.592706 0.863249
0.420691 0.585351 0.868070
0.699245 0.617975 0.873686
0.871214 0.671504 0.869780
0.950256 0.711360 0.845151
0.000000 0.740932 0.866575
0.000000 0.739193 0.866453
0.000000 0.733150 0.866026
0.000000 0.723232 0.864836
0.359503 0.711177 0.862425
0.674708 0.718318 0.863645
0.871366 0.764614 0.867521
0.960418 0.803311 0.863951
0.000000 0.863523 0.867887
0.000000 0.863340 0.867765
0.000000 0.862486 0.867277
0.000000 0.860533 0.866239
0.425666 0.856992 0.864530
0.687251 0.853330 0.863127
0.873381 0.856138 0.867094
0.959442 0.858396 0.857450
0.000000 0.962341 0.828672
0.000000 0.962402 0.827634
0.000000 0.962005 0.824399
0.000000 0.959045 0.820340
0.488838 0.951415 0.820615
0.717739 0.940734 0.830533
0.871153 0.930999 0.853147
0.950347 0.926238 0.881865
0.000000 0.444099 0.966033
0.000000 0.437812 0.966278
0.000000 0.415106 0.967071
0.000000 0.340337 0.969604
0.387549 0.377447 0.968048
0.650233 0.450019 0.965209
0.840299 0.551080 0.961334
0.949523 0.601434 0.953796
0.000000 0.457008 0.965515
0.000000 0.450965 0.965728
0.000000 0.436591 0.966247
0.000000 0.368719 0.968750
0.389502 0.394110 0.967559
0.651637 0.464729 0.964691
0.840757 0.562799 0.960876
0.949401 0.611231 0.953491
0.000000 0.498329 0.963867
0.000000 0.492653 0.964111
0.000000 0.478798 0.964660
0.000000 0.452338 0.965728
0.392432 0.444678 0.965972
0.655268 0.510277 0.963043
0.841947 0.599512 0.959442
0.948974 0.642878 0.952483
0.000000 0.563317 0.961242
0.000000 0.557855 0.961547
0.000000 0.541650 0.962310
0.000000 0.538018 0.962219
0.382635 0.513329 0.963531
0.656428 0.573724 0.960571
0.842100 0.650965 0.957366
0.948486 0.689754 0.951080
0.000000 0.644221 0.959136
0.000000 0.640589 0.959197
0.000000 0.627649 0.959228
0.000000 0.603815 0.960113
0.401953 0.621546 0.958373
0.642695 0.638392 0.957855
0.838865 0.707759 0.954925
0.947967 0.746883 0.949340
0.000000 0.735134 0.958007
0.000000 0.732906 0.958007
0.000000 0.725032 0.957977
0.000000 0.712001 0.957549
0.155917 0.697566 0.955932
0.626978 0.725582 0.952544
0.829648 0.768093 0.951659
0.947417 0.810178 0.947387
0.000000 0.838590 0.956115
0.000000 0.837522 0.956054
0.000000 0.833829 0.955871
0.000000 0.828122 0.955138
0.232151 0.822507 0.953216
0.563745 0.819913 0.949371
0.809262 0.836912 0.945281
0.946929 0.875242 0.945312
0.000000 0.952911 0.953063
0.000000 0.952789 0.952972
0.000000 0.952117 0.952605
0.000000 0.950378 0.951629
0.308629 0.947021 0.949645
0.616602 0.942229 0.946654
0.816861 0.937835 0.943450
0.947845 0.939147 0.944762
