其他预设/【233】日式怀旧街道调色预设208款/1.3D LUT预设（视频调色-PR-AE-PS-FCPX-达芬奇用）/3.日式城市街拍预设 (自动曝光预设)/JA – Cine Night 1 (Auto-Exposure).cube
# Created by Adobe Lightroom plugin Export LUT (1.17.0)
# www.johnrellis.com/lightroom/exportlut.htm
# Preset: JA – Cine Night 1 (Auto-Exposure)
# Color profile: /Library/Application Support/Adobe/Color/Profiles/Recommended/AdobeRGB1998.icc
LUT_3D_SIZE 5
DOMAIN_MIN 0.000000 0.000000 0.000000
DOMAIN_MAX 0.903226 0.903226 0.903226
0.004669 0.027771 0.052949
0.100313 0.068147 0.081849
0.442725 0.000000 0.107424
0.838193 0.000000 0.154940
1.000000 0.347967 0.345006
0.000000 0.114748 0.121798
0.082979 0.132052 0.099397
0.465614 0.172610 0.070344
0.847501 0.240818 0.069062
1.000000 0.398749 0.302770
0.000000 0.389227 0.285771
0.000000 0.408545 0.264714
0.381903 0.453529 0.175875
0.857176 0.549096 0.000000
1.000000 0.567864 0.173465
0.000000 0.789273 0.526940
0.000000 0.795682 0.515831
0.350866 0.790494 0.454108
0.758236 0.816037 0.347539
1.000000 0.806699 0.326238
0.000000 1.000000 0.771206
0.000000 1.000000 0.776608
0.597681 0.984436 0.829374
0.767849 0.970245 0.811124
0.938903 0.967071 0.756069
0.000000 0.057069 0.145022
0.072175 0.071687 0.150637
0.416785 0.000000 0.224094
0.828611 0.094728 0.267308
1.000000 0.357336 0.347601
0.000000 0.114199 0.178317
0.047364 0.135103 0.196750
0.434668 0.163149 0.227909
0.835019 0.251041 0.263249
1.000000 0.417273 0.347173
0.000000 0.396094 0.350744
0.000000 0.415717 0.346593
0.383490 0.454536 0.279850
0.851621 0.540520 0.237003
1.000000 0.585290 0.344091
0.000000 0.793790 0.585443
0.000000 0.799588 0.580468
0.378973 0.797574 0.537011
0.757229 0.816129 0.442603
1.000000 0.809995 0.439826
0.000000 1.000000 0.796658
0.000000 1.000000 0.801053
0.600610 0.984497 0.846098
0.777005 0.969696 0.839231
0.937133 0.966613 0.793149
0.000000 0.071687 0.336095
0.000000 0.066682 0.362402
0.352697 0.037903 0.369970
0.782040 0.225010 0.507286
0.996551 0.579919 0.703914
0.000000 0.135683 0.352209
0.000000 0.147097 0.387335
0.363439 0.180850 0.404211
0.784939 0.352209 0.546746
0.998779 0.597284 0.697719
0.000000 0.354620 0.459174
0.000000 0.379004 0.473579
0.378485 0.453254 0.517632
0.802121 0.563226 0.594690
1.000000 0.675013 0.685908
0.000000 0.803037 0.738827
0.000000 0.812253 0.744442
0.441016 0.811307 0.734096
0.750240 0.815213 0.668635
0.998138 0.823087 0.693416
0.000000 1.000000 0.872526
0.000000 1.000000 0.872587
0.572992 0.987945 0.885466
0.807492 0.968872 0.903380
0.935027 0.965515 0.872343
0.000000 0.080018 0.628656
0.000000 0.023072 0.655024
0.512352 0.000000 0.733791
0.737514 0.184665 0.678157
0.969451 0.618280 0.827359
0.000000 0.162753 0.640650
0.000000 0.163790 0.665980
0.501305 0.142397 0.750637
0.737911 0.312383 0.701442
0.965850 0.665187 0.844663
0.000000 0.370153 0.662104
0.000000 0.373449 0.664881
0.380377 0.444862 0.753841
0.735164 0.566735 0.773068
0.957824 0.782345 0.890166
0.000000 0.716732 0.818387
0.000000 0.727138 0.823453
0.354437 0.757656 0.838712
0.738857 0.808011 0.866392
0.959808 0.871550 0.913939
0.000000 1.000000 0.945800
0.000000 1.000000 0.946624
0.594202 0.988006 0.951781
0.829892 0.970947 0.953246
0.937987 0.964172 0.943053
0.000000 0.203922 0.956390
0.303288 0.176822 0.961242
0.624353 0.091249 0.974731
0.885527 0.248997 0.977234
0.965545 0.613947 0.920592
0.000000 0.255009 0.958190
0.270085 0.254765 0.962188
0.605127 0.275792 0.974243
0.879759 0.388464 0.978820
0.962371 0.656153 0.926299
0.000000 0.460365 0.948638
0.000000 0.455390 0.954681
0.508232 0.516960 0.968933
0.859068 0.645136 0.982147
0.953918 0.762234 0.942412
0.000000 0.753109 0.971252
0.000000 0.751431 0.970275
0.277165 0.738521 0.965026
0.749416 0.791867 0.973053
0.943999 0.881254 0.965087
0.000000 0.947906 0.987427
0.000000 0.949340 0.987335
0.473762 0.950072 0.985931
0.778744 0.953155 0.983978
0.942168 0.962188 0.985077
