其他预设/【233】日式怀旧街道调色预设208款/1.3D LUT预设（视频调色-PR-AE-PS-FCPX-达芬奇用）/3.日式城市街拍预设 (自动曝光预设)/JA – Cityscape Pop 3 (Auto-Exposure).cube
# Created by Adobe Lightroom plugin Export LUT (1.17.0)
# www.johnrellis.com/lightroom/exportlut.htm
# Preset: JA – Cityscape Pop 3 (Auto-Exposure)
# Color profile: /Library/Application Support/Adobe/Color/Profiles/Recommended/AdobeRGB1998.icc
LUT_3D_SIZE 5
DOMAIN_MIN 0.000000 0.000000 0.000000
DOMAIN_MAX 0.903226 0.903226 0.903226
0.106172 0.108827 0.110536
0.223148 0.110445 0.105287
0.528191 0.137453 0.042451
0.824186 0.169955 0.000000
0.985657 0.176730 0.000000
0.087007 0.209323 0.120699
0.208774 0.212314 0.102937
0.512505 0.263401 0.000000
0.815702 0.289555 0.000000
0.982238 0.282292 0.000000
0.000000 0.473365 0.158785
0.149355 0.466560 0.054047
0.476631 0.475532 0.000000
0.789975 0.505241 0.000000
0.971221 0.471870 0.000000
0.000000 0.744900 0.224063
0.000000 0.742916 0.029023
0.407996 0.718441 0.000000
0.742641 0.734554 0.000000
0.956939 0.688716 0.000000
0.000000 0.924010 0.302617
0.000000 0.922210 0.272313
0.322454 0.914427 0.163210
0.628046 0.899718 0.119936
0.897185 0.890379 0.000000
0.122591 0.112459 0.218662
0.208438 0.108644 0.208621
0.541863 0.000000 0.193118
0.834287 0.000000 0.141421
0.989471 0.000000 0.000000
0.059113 0.219669 0.235813
0.218662 0.222477 0.225345
0.528923 0.223026 0.195010
0.825284 0.232181 0.137179
0.986145 0.226078 0.000000
0.000000 0.489082 0.283909
0.162539 0.484749 0.252476
0.484932 0.483558 0.201572
0.793118 0.493263 0.124300
0.973999 0.454444 0.000000
0.000000 0.752438 0.330846
0.000000 0.748836 0.303532
0.409277 0.727932 0.212802
0.745418 0.737209 0.166842
0.956664 0.684779 0.000000
0.000000 0.925872 0.365698
0.000000 0.922454 0.365179
0.333776 0.915465 0.279545
0.629236 0.899413 0.253758
0.897307 0.890379 0.177584
0.192935 0.109743 0.496468
0.281163 0.114748 0.479988
0.476661 0.117861 0.457923
0.799985 0.000000 0.481849
0.983764 0.073487 0.424811
0.131380 0.223209 0.517723
0.288670 0.254765 0.499947
0.484291 0.251774 0.468208
0.810697 0.209415 0.480903
0.979339 0.303075 0.453742
0.000000 0.498970 0.532647
0.179995 0.499001 0.526085
0.499702 0.494759 0.494606
0.804898 0.500755 0.481849
0.968963 0.478920 0.440406
0.000000 0.777310 0.553582
0.000000 0.773037 0.542992
0.461494 0.751949 0.510979
0.752682 0.742641 0.473640
0.948333 0.686671 0.427527
0.000000 0.931334 0.534142
0.000000 0.928344 0.529534
0.451911 0.913176 0.542168
0.647456 0.897337 0.487770
0.897520 0.889738 0.468391
0.318853 0.194217 0.759762
0.383337 0.201083 0.752316
0.531060 0.207187 0.723140
0.751492 0.210971 0.709987
0.929473 0.401221 0.696040
0.335882 0.317815 0.767056
0.395483 0.316533 0.759915
0.539361 0.308659 0.731411
0.753262 0.310399 0.713832
0.929717 0.458137 0.702510
0.198337 0.472328 0.785214
0.334661 0.484016 0.782956
0.583154 0.547509 0.756283
0.755673 0.532067 0.724849
0.932036 0.600305 0.722713
0.000000 0.737575 0.781888
0.223545 0.740047 0.779812
0.534630 0.748562 0.770809
0.760769 0.747616 0.743526
0.926268 0.757473 0.744076
0.000000 0.938811 0.746029
0.000000 0.935607 0.742977
0.475898 0.921141 0.740139
0.741421 0.895109 0.751034
0.897551 0.888243 0.731411
0.480629 0.388891 0.904509
0.513939 0.394995 0.902647
0.610346 0.410742 0.895750
0.736446 0.420874 0.881926
0.912535 0.478279 0.873045
0.516106 0.469123 0.904021
0.544305 0.472389 0.902251
0.628962 0.480385 0.895628
0.743832 0.480690 0.882170
0.910491 0.526787 0.873198
0.530663 0.577569 0.907561
0.591882 0.610956 0.904204
0.692775 0.650904 0.895811
0.769863 0.632013 0.883757
0.904997 0.645411 0.874113
0.471778 0.691249 0.909300
0.537530 0.705989 0.907774
0.687190 0.747555 0.903441
0.815122 0.792294 0.891508
0.899107 0.778195 0.877379
0.343999 0.859922 0.906188
0.431312 0.863096 0.905241
0.623407 0.873411 0.902312
0.792782 0.886534 0.898314
0.899657 0.890379 0.887205
