其他预设/【233】日式怀旧街道调色预设208款/1.3D LUT预设（视频调色-PR-AE-PS-FCPX-达芬奇用）/3.日式城市街拍预设 (自动曝光预设)/JA – Gritty Contrast 4 (Auto-Exposure).cube
# Created by Adobe Lightroom plugin Export LUT (1.17.0)
# www.johnrellis.com/lightroom/exportlut.htm
# Preset: JA – Gritty Contrast 4 (Auto-Exposure)
# Color profile: /Library/Application Support/Adobe/Color/Profiles/Recommended/AdobeRGB1998.icc
LUT_3D_SIZE 5
DOMAIN_MIN 0.000000 0.000000 0.000000
DOMAIN_MAX 0.903226 0.903226 0.903226
0.070192 0.076143 0.083955
0.230594 0.061982 0.096529
0.602899 0.000000 0.027253
0.823789 0.000000 0.000000
1.000000 0.000000 0.000000
0.116487 0.179995 0.110842
0.216312 0.186709 0.115969
0.634150 0.254154 0.049958
0.847044 0.135836 0.000000
1.000000 0.000000 0.000000
0.228672 0.412757 0.110231
0.322972 0.412299 0.093996
0.607660 0.473365 0.070863
0.863584 0.514366 0.276463
1.000000 0.412085 0.236301
0.363470 0.662837 0.090425
0.436622 0.656794 0.062165
0.625086 0.665614 0.029450
0.840970 0.656703 0.232975
0.971344 0.737087 0.573266
0.492531 0.859983 0.295995
0.540764 0.857053 0.297765
0.680659 0.848386 0.306889
0.872435 0.862913 0.384497
0.972137 0.819150 0.555535
0.101198 0.129305 0.216129
0.183047 0.148074 0.222293
0.522881 0.000000 0.231754
0.801236 0.000000 0.164981
1.000000 0.000000 0.000000
0.104494 0.192691 0.219913
0.206241 0.219791 0.237827
0.580316 0.198886 0.216800
0.825620 0.147524 0.171817
1.000000 0.000000 0.000000
0.135225 0.443122 0.246372
0.291173 0.437873 0.246159
0.583032 0.477058 0.260960
0.846128 0.547906 0.394385
1.000000 0.436530 0.262394
0.334783 0.671534 0.281621
0.415229 0.665278 0.277531
0.609766 0.665736 0.257969
0.832181 0.666041 0.320745
0.971374 0.739132 0.572992
0.500237 0.861936 0.354589
0.543297 0.859464 0.340368
0.677699 0.850584 0.310307
0.869413 0.864652 0.387366
0.972045 0.820523 0.554559
0.107057 0.203433 0.464363
0.262516 0.264958 0.486244
0.473884 0.279576 0.513756
0.737362 0.316350 0.519158
0.951263 0.000000 0.443702
0.107912 0.267216 0.469764
0.249760 0.294102 0.472786
0.487404 0.361913 0.516411
0.743130 0.344701 0.510338
0.955413 0.136904 0.430274
0.000000 0.459754 0.500481
0.248356 0.472358 0.504326
0.558312 0.553460 0.551598
0.772946 0.540887 0.540734
0.977203 0.510552 0.512810
0.311223 0.698726 0.531395
0.427802 0.692073 0.540246
0.601678 0.678279 0.553582
0.791318 0.712856 0.598810
0.955169 0.789151 0.692409
0.556115 0.869810 0.591455
0.596826 0.866880 0.596277
0.685878 0.858701 0.574304
0.844877 0.865812 0.564660
0.966400 0.832822 0.595911
0.290043 0.357946 0.658869
0.395636 0.417456 0.661738
0.558862 0.506737 0.676814
0.697353 0.544244 0.695857
0.893065 0.668727 0.762081
0.298528 0.390692 0.657862
0.401709 0.438636 0.655818
0.576196 0.541375 0.673762
0.702327 0.573907 0.696010
0.898619 0.668086 0.759518
0.336278 0.502983 0.667048
0.419287 0.523461 0.664149
0.581170 0.583398 0.661830
0.719783 0.642969 0.701900
0.918395 0.650843 0.735073
0.384009 0.663935 0.686366
0.460060 0.669947 0.685908
0.602594 0.689876 0.690761
0.767971 0.750912 0.733333
0.943175 0.746578 0.728389
0.531823 0.893858 0.758816
0.574517 0.891539 0.757687
0.679530 0.885863 0.751308
0.805753 0.873869 0.734676
0.936034 0.879698 0.793759
0.613519 0.634577 0.859586
0.644068 0.652613 0.859892
0.736660 0.712490 0.862913
0.796109 0.724636 0.871366
0.881376 0.745174 0.877165
0.608392 0.638727 0.859007
0.639551 0.655665 0.858549
0.732052 0.713893 0.861784
0.800595 0.737209 0.870603
0.883268 0.757626 0.877195
0.589044 0.665644 0.865019
0.611963 0.671015 0.863645
0.703975 0.709346 0.858366
0.811978 0.771969 0.868498
0.889311 0.793881 0.877806
0.586908 0.740322 0.872099
0.610437 0.743893 0.871214
0.679957 0.754665 0.868254
0.795926 0.789731 0.861601
0.899351 0.846586 0.880095
0.579583 0.852293 0.879850
0.605249 0.854398 0.879484
0.688289 0.862181 0.878294
0.809384 0.876951 0.877348
0.916197 0.903990 0.890593
