其他预设/【233】日式怀旧街道调色预设208款/1.3D LUT预设（视频调色-PR-AE-PS-FCPX-达芬奇用）/3.日式城市街拍预设 (自动曝光预设)/JA – Night Pop 2 (Auto-Exposure).cube
# Created by Adobe Lightroom plugin Export LUT (1.17.0)
# www.johnrellis.com/lightroom/exportlut.htm
# Preset: JA – Night Pop 2 (Auto-Exposure)
# Color profile: /Library/Application Support/Adobe/Color/Profiles/Recommended/AdobeRGB1998.icc
LUT_3D_SIZE 5
DOMAIN_MIN 0.000000 0.000000 0.000000
DOMAIN_MAX 0.903226 0.903226 0.903226
0.049531 0.057221 0.062287
0.202029 0.065217 0.057252
0.621942 0.112612 0.000000
0.932708 0.136385 0.000000
1.000000 0.152926 0.000000
0.000000 0.171664 0.071748
0.166445 0.159426 0.075715
0.527092 0.266209 0.110353
0.906065 0.300237 0.000000
1.000000 0.289799 0.000000
0.000000 0.515221 0.096040
0.207126 0.500206 0.000000
0.470069 0.431922 0.000000
0.773800 0.557275 0.420813
1.000000 0.597253 0.461707
0.000000 0.855772 0.130892
0.000000 0.846830 0.000000
0.555627 0.811612 0.000000
0.816526 0.725856 0.000000
0.968170 0.787869 0.646601
0.000000 1.000000 0.151858
0.000000 1.000000 0.063508
0.455360 0.996429 0.102266
0.789487 0.962890 0.164645
1.000000 0.906249 0.312200
0.000000 0.055055 0.198367
0.165011 0.041291 0.183230
0.594903 0.000000 0.144228
0.933227 0.000000 0.066224
1.000000 0.000000 0.000000
0.000000 0.178225 0.198215
0.150820 0.163058 0.175631
0.570550 0.189639 0.163790
0.918639 0.209537 0.120851
1.000000 0.223148 0.085634
0.000000 0.528588 0.307225
0.000000 0.504143 0.198154
0.464637 0.432532 0.164279
0.794705 0.567224 0.460060
1.000000 0.598810 0.497993
0.000000 0.861540 0.341680
0.000000 0.852842 0.226688
0.524346 0.817502 0.141970
0.813169 0.726986 0.143435
0.962127 0.803067 0.694240
0.000000 1.000000 0.303563
0.000000 1.000000 0.253147
0.480690 0.993835 0.370275
0.790188 0.962249 0.371954
1.000000 0.908476 0.424537
0.000000 0.020874 0.630793
0.000000 0.000000 0.596307
0.494942 0.000000 0.517754
0.903380 0.000000 0.493538
1.000000 0.000000 0.394141
0.000000 0.329534 0.650690
0.000000 0.211887 0.610254
0.482612 0.000000 0.507927
0.898924 0.000000 0.462257
1.000000 0.000000 0.406622
0.000000 0.592493 0.633906
0.000000 0.567315 0.608026
0.422095 0.442664 0.467964
0.861540 0.507469 0.518425
1.000000 0.539910 0.542321
0.000000 0.878599 0.635096
0.000000 0.873381 0.605035
0.481819 0.821103 0.573053
0.786679 0.735470 0.520775
0.948333 0.845884 0.803220
0.000000 1.000000 0.556909
0.000000 1.000000 0.525750
0.515099 0.990784 0.625605
0.800443 0.960388 0.645136
0.986908 0.914794 0.619471
0.000000 0.000000 0.903380
0.000000 0.000000 0.899443
0.410376 0.000000 0.848753
0.836301 0.000000 0.812436
1.000000 0.153750 0.725063
0.000000 0.315679 0.911681
0.000000 0.257145 0.905180
0.367987 0.000000 0.855253
0.831327 0.000000 0.809537
1.000000 0.336156 0.733547
0.000000 0.600275 0.909880
0.000000 0.575769 0.907530
0.427253 0.567773 0.873503
0.804410 0.478950 0.795285
1.000000 0.566979 0.749569
0.000000 0.863890 0.893919
0.000000 0.860929 0.890318
0.338018 0.848875 0.869108
0.746944 0.747494 0.760037
0.983673 0.801053 0.803189
0.000000 1.000000 0.798642
0.000000 1.000000 0.791318
0.000000 1.000000 0.766812
0.830655 0.957061 0.845151
0.962219 0.924163 0.801663
0.000000 0.000000 0.991821
0.000000 0.000000 0.991821
0.000000 0.000000 0.987884
0.625910 0.000000 0.975219
1.000000 0.000000 0.959564
0.000000 0.000000 0.992126
0.000000 0.111269 0.991974
0.000000 0.000000 0.988342
0.612909 0.000000 0.975769
0.996338 0.184512 0.957580
0.000000 0.394903 0.990234
0.000000 0.393378 0.990265
0.000000 0.439429 0.985931
0.666407 0.524743 0.969024
0.981537 0.548577 0.951812
0.000000 0.667048 0.981170
0.000000 0.667811 0.981140
0.000000 0.653590 0.981689
0.820432 0.846220 0.957763
0.959869 0.801297 0.943542
0.000000 0.916320 0.966674
0.000000 0.919982 0.966400
0.000000 0.933776 0.965393
0.735775 0.944060 0.954131
0.938689 0.932219 0.932341
