其他预设/【233】日式怀旧街道调色预设208款/1.3D LUT预设（视频调色-PR-AE-PS-FCPX-达芬奇用）/3.日式城市街拍预设 (自动曝光预设)/JA – Night Pop 4 (Auto-Exposure).cube
# Created by Adobe Lightroom plugin Export LUT (1.17.0)
# www.johnrellis.com/lightroom/exportlut.htm
# Preset: JA – Night Pop 4 (Auto-Exposure)
# Color profile: /Library/Application Support/Adobe/Color/Profiles/Recommended/AdobeRGB1998.icc
LUT_3D_SIZE 8
DOMAIN_MIN 0.000000 0.000000 0.000000
DOMAIN_MAX 0.903226 0.903226 0.903226
0.064302 0.069642 0.075319
0.159823 0.070192 0.071077
0.435492 0.082612 0.000000
0.596277 0.106325 0.000000
0.746304 0.117159 0.000000
0.873381 0.125185 0.000000
0.975647 0.128664 0.000000
1.000000 0.123629 0.000000
0.034791 0.133333 0.075715
0.133211 0.129732 0.079438
0.420111 0.201572 0.000000
0.592828 0.195132 0.000000
0.744198 0.191684 0.000000
0.872282 0.187778 0.000000
0.975006 0.182254 0.000000
1.000000 0.172976 0.000000
0.000000 0.346838 0.082582
0.147250 0.355016 0.000000
0.349279 0.324773 0.026734
0.556634 0.346105 0.048554
0.725521 0.333867 0.000000
0.865904 0.316503 0.000000
0.972747 0.297185 0.000000
1.000000 0.275883 0.000000
0.000000 0.513329 0.099550
0.000000 0.515343 0.000000
0.344671 0.515587 0.000000
0.505058 0.464454 0.100069
0.676783 0.474769 0.185946
0.834684 0.474891 0.188663
0.957519 0.443671 0.032837
1.000000 0.400610 0.000000
0.000000 0.632746 0.124178
0.000000 0.634211 0.000000
0.275578 0.639216 0.000000
0.497963 0.626276 0.000000
0.616876 0.566644 0.229099
0.788113 0.594141 0.307836
0.922667 0.609003 0.366247
1.000000 0.574060 0.312352
0.000000 0.757229 0.156893
0.000000 0.757687 0.143343
0.221744 0.760616 0.151858
0.466590 0.766629 0.138705
0.643336 0.734188 0.205936
0.742824 0.678859 0.330358
0.891356 0.698268 0.391821
0.991058 0.698543 0.439246
0.000000 0.875425 0.185550
0.000000 0.874876 0.202823
0.191043 0.873899 0.252018
0.432776 0.875944 0.246189
0.624567 0.872679 0.232151
0.775845 0.836088 0.311437
0.869780 0.789914 0.403357
0.972747 0.783719 0.458869
0.000000 0.970825 0.174807
0.000000 0.969360 0.212833
0.166934 0.963867 0.317937
0.399115 0.961822 0.311467
0.579339 0.957824 0.299504
0.739559 0.945739 0.265995
0.881010 0.917845 0.382238
0.971435 0.883360 0.473671
0.016052 0.070954 0.144076
0.131380 0.059815 0.147127
0.413123 0.000000 0.120394
0.581872 0.000000 0.093874
0.735714 0.000000 0.014679
0.867948 0.064210 0.000000
0.973602 0.083864 0.000000
1.000000 0.085206 0.000000
0.000000 0.131228 0.146822
0.122499 0.132631 0.143069
0.402869 0.141299 0.122957
0.579034 0.150210 0.094728
0.733944 0.156741 0.015412
0.866911 0.159976 0.000000
0.972961 0.158236 0.000000
1.000000 0.148653 0.000000
0.000000 0.337865 0.204013
0.000000 0.345892 0.147738
0.343725 0.325658 0.151644
0.549859 0.342077 0.174624
0.719936 0.326452 0.115663
0.863127 0.306035 0.000000
0.970550 0.288243 0.000000
1.000000 0.264652 0.000000
0.000000 0.509361 0.214786
0.000000 0.511162 0.162509
0.325963 0.513603 0.127291
0.499611 0.465705 0.206851
0.669429 0.482460 0.276951
0.829709 0.483284 0.269383
0.954528 0.451759 0.193545
1.000000 0.400580 0.000000
0.000000 0.629297 0.217044
0.000000 0.630457 0.190463
0.270390 0.634089 0.186679
0.494606 0.626398 0.188937
0.612055 0.567864 0.294316
0.784146 0.598810 0.355200
0.920562 0.613336 0.396918
1.000000 0.580438 0.351080
0.000000 0.754757 0.230808
0.000000 0.755032 0.226963
0.238254 0.756161 0.255528
0.468605 0.762875 0.251743
0.642390 0.734401 0.282078
0.739986 0.679622 0.365454
0.889586 0.700740 0.417609
0.989685 0.701747 0.459693
0.000000 0.874144 0.242344
0.000000 0.873564 0.255558
0.213413 0.871183 0.314000
0.438697 0.873625 0.310735
0.626673 0.872160 0.302708
0.774807 0.836515 0.350927
0.868223 0.790494 0.423102
0.971771 0.785214 0.474586
0.000000 0.970611 0.218631
0.000000 0.969360 0.243076
0.187869 0.962493 0.358373
0.405829 0.960601 0.353796
0.582361 0.956786 0.345159
0.740536 0.945373 0.320867
0.879911 0.918090 0.404822
0.970397 0.883787 0.486519
0.000000 0.071443 0.368750
0.000000 0.019684 0.373632
0.348638 0.000000 0.375647
0.555474 0.000000 0.332891
0.708339 0.000000 0.296971
0.846067 0.149996 0.307958
0.960235 0.183932 0.294408
1.000000 0.164706 0.245212
0.000000 0.185367 0.358862
0.000000 0.145968 0.363592
0.341955 0.065370 0.370794
0.549126 0.060945 0.327459
0.704250 0.150393 0.307683
0.844358 0.215000 0.315801
0.959228 0.229862 0.300175
1.000000 0.207950 0.250736
0.000000 0.337011 0.371862
0.000000 0.334936 0.368658
0.313451 0.333715 0.356329
0.528649 0.338476 0.351019
0.692805 0.344488 0.347417
0.839078 0.347021 0.339361
0.955566 0.340826 0.320317
1.000000 0.312413 0.271031
0.000000 0.498726 0.377264
0.000000 0.500847 0.364721
0.292851 0.495918 0.366979
0.479652 0.470771 0.383124
0.652491 0.501518 0.421485
0.818143 0.498360 0.401038
0.945647 0.477424 0.368231
1.000000 0.434791 0.305119
0.000000 0.620417 0.361913
0.000000 0.621180 0.353246
0.277867 0.616480 0.384161
0.486976 0.623255 0.391760
0.598657 0.571221 0.415564
0.775296 0.609461 0.451698
0.916350 0.620081 0.464546
1.000000 0.592920 0.434028
0.000000 0.748104 0.361913
0.000000 0.747921 0.362890
0.251347 0.744381 0.402441
0.466926 0.750790 0.411017
0.637629 0.736263 0.414099
0.732082 0.681971 0.445228
0.885435 0.707179 0.482338
0.985870 0.711116 0.517418
0.000000 0.870390 0.359564
0.000000 0.869780 0.366308
0.197543 0.865873 0.413977
0.441505 0.866972 0.428931
0.625116 0.870268 0.427527
0.770504 0.838529 0.438636
0.863523 0.792264 0.476783
0.968780 0.790158 0.523095
0.000000 0.969879 0.325628
0.000000 0.969574 0.322881
0.000000 0.962829 0.404303
0.411353 0.957580 0.445655
0.583856 0.954345 0.442176
0.740200 0.945037 0.430335
0.875822 0.919188 0.465858
0.966735 0.885313 0.528435
0.000000 0.072877 0.526238
0.000000 0.068208 0.526238
0.232181 0.000000 0.527001
0.504601 0.000000 0.527337
0.678614 0.094850 0.499306
0.822049 0.211063 0.483558
0.940551 0.262425 0.470161
1.000000 0.300633 0.459388
0.000000 0.204013 0.518944
0.000000 0.165988 0.521965
0.212375 0.098116 0.525750
0.499977 0.052613 0.524743
0.672572 0.206088 0.501030
0.818540 0.258488 0.485451
0.940276 0.283635 0.467903
1.000000 0.319860 0.459846
0.000000 0.333043 0.518425
0.000000 0.323156 0.517418
0.250950 0.337774 0.513970
0.482002 0.333928 0.515435
0.654932 0.352605 0.500664
0.809445 0.353246 0.481605
0.936675 0.375982 0.479316
1.000000 0.384405 0.465187
0.000000 0.479957 0.521477
0.000000 0.479286 0.520165
0.211765 0.479103 0.513664
0.457008 0.476753 0.502068
0.634974 0.483680 0.503105
0.800961 0.489143 0.501854
0.931487 0.489754 0.495613
1.000000 0.479530 0.478340
0.000000 0.606775 0.503929
0.000000 0.607172 0.499153
0.179873 0.602655 0.502098
0.447608 0.599481 0.511070
0.583459 0.575219 0.513390
0.768154 0.618616 0.543786
0.913756 0.618280 0.535241
1.000000 0.594965 0.511345
0.000000 0.736629 0.497078
0.000000 0.737148 0.494270
0.148623 0.733669 0.510918
0.430518 0.732967 0.520439
0.619928 0.740291 0.521477
0.722133 0.685206 0.526390
0.881254 0.716915 0.564843
0.981353 0.723781 0.592523
0.000000 0.863951 0.488899
0.000000 0.864103 0.487282
0.000000 0.860533 0.510796
0.403540 0.858640 0.526726
0.602228 0.862699 0.532464
0.761135 0.843534 0.531456
0.856321 0.795193 0.548302
0.963836 0.799893 0.598077
0.000000 0.967346 0.461097
0.000000 0.967803 0.452155
0.000000 0.964294 0.470558
0.357702 0.956329 0.520714
0.574701 0.951110 0.543633
0.735470 0.945830 0.542290
0.868772 0.921447 0.549767
0.960357 0.887999 0.593042
0.000000 0.076905 0.638087
0.000000 0.090425 0.637079
0.000000 0.000000 0.641901
0.382849 0.000000 0.636530
0.629023 0.000000 0.640528
0.799527 0.235660 0.633570
0.925322 0.290532 0.610224
1.000000 0.355138 0.593652
0.000000 0.191226 0.633295
0.000000 0.183658 0.633539
0.000000 0.122530 0.639002
0.381262 0.097841 0.635187
0.624659 0.181125 0.638178
0.796353 0.280217 0.633478
0.923888 0.316411 0.610193
1.000000 0.372778 0.594354
0.000000 0.324529 0.626825
0.000000 0.317571 0.626032
0.145480 0.337987 0.626978
0.401129 0.338598 0.628717
0.611292 0.351324 0.630732
0.786862 0.375830 0.630091
0.919768 0.385504 0.607874
1.000000 0.429267 0.597345
0.000000 0.452796 0.629358
0.000000 0.449409 0.628504
0.167514 0.464942 0.622583
0.427131 0.484047 0.615900
0.592279 0.472755 0.619501
0.773526 0.471107 0.616297
0.913725 0.474525 0.599390
1.000000 0.486275 0.586328
0.000000 0.591272 0.632532
0.000000 0.590753 0.631525
0.000000 0.590326 0.626490
0.404425 0.587732 0.617243
0.565423 0.580011 0.603174
0.759274 0.593133 0.610437
0.908476 0.600671 0.612299
1.000000 0.594934 0.601770
0.000000 0.725734 0.628382
0.000000 0.726192 0.626062
0.000000 0.721492 0.624384
0.363897 0.716670 0.623560
0.562371 0.719844 0.617212
0.708766 0.689631 0.614832
0.878477 0.733303 0.661128
0.980835 0.725154 0.654719
0.000000 0.853483 0.618616
0.000000 0.854429 0.615045
0.000000 0.852689 0.618555
0.313909 0.850217 0.625818
0.553094 0.850309 0.628656
0.746700 0.851469 0.638575
0.846128 0.799496 0.632837
0.958618 0.813748 0.682246
0.000000 0.962890 0.593774
0.000000 0.963745 0.589349
0.000000 0.964202 0.576501
0.169100 0.956909 0.599268
0.529412 0.948608 0.627832
0.725795 0.942412 0.653010
0.859861 0.925231 0.647578
0.952087 0.891722 0.666529
0.000000 0.082704 0.751369
0.000000 0.082765 0.751095
0.000000 0.030121 0.752895
0.265812 0.000000 0.754299
0.531701 0.000000 0.747921
0.760586 0.184512 0.753079
0.907836 0.299382 0.739712
0.997772 0.360449 0.705898
0.000000 0.168154 0.749111
0.000000 0.184604 0.748196
0.000000 0.141878 0.751156
0.266392 0.107607 0.753414
0.533989 0.153109 0.746670
0.758114 0.244480 0.751797
0.906676 0.327062 0.739895
0.997009 0.379004 0.706386
0.000000 0.322087 0.740902
0.000000 0.319463 0.741299
0.000000 0.331792 0.743496
0.323552 0.342321 0.747890
0.541924 0.341863 0.742611
0.750515 0.359655 0.747738
0.902831 0.399817 0.738888
0.994293 0.438331 0.708522
0.000000 0.446479 0.740963
0.000000 0.443061 0.740566
0.000000 0.467720 0.736507
0.375189 0.489479 0.735531
0.542168 0.473243 0.737697
0.739010 0.466987 0.741299
0.896147 0.494911 0.734981
0.989807 0.523308 0.712032
0.000000 0.574365 0.743221
0.000000 0.572351 0.742855
0.000000 0.580804 0.739406
0.358862 0.592798 0.733272
0.540032 0.592096 0.727687
0.721401 0.579431 0.731258
0.887388 0.595605 0.726528
0.984161 0.617548 0.715419
0.000000 0.708949 0.745724
0.000000 0.708736 0.745235
0.000000 0.709102 0.742489
0.292576 0.708980 0.737026
0.507378 0.705837 0.728786
0.689876 0.695033 0.711635
0.876127 0.715145 0.725582
0.978393 0.719020 0.725216
0.000000 0.847959 0.747341
0.000000 0.848814 0.745602
0.000000 0.848600 0.740749
0.099153 0.841520 0.736904
0.454414 0.838315 0.726497
0.697078 0.836667 0.731563
0.832517 0.804898 0.724544
0.953002 0.834653 0.773739
0.000000 0.956146 0.717311
0.000000 0.957122 0.715816
0.000000 0.960235 0.706691
0.000000 0.956298 0.704372
0.383246 0.949859 0.705043
0.692866 0.937072 0.740230
0.852781 0.930419 0.755154
0.941405 0.896544 0.747951
0.000000 0.096376 0.856718
0.000000 0.096376 0.856596
0.000000 0.069551 0.857145
0.000000 0.000000 0.860807
0.436133 0.000000 0.857939
0.674281 0.121889 0.852476
0.881865 0.241276 0.855100
0.983612 0.350927 0.816983
0.000000 0.100252 0.856870
0.000000 0.118868 0.856413
0.000000 0.144015 0.856291
0.000000 0.073060 0.859831
0.442420 0.128634 0.857084
0.675135 0.205020 0.851652
0.880644 0.276951 0.854582
0.982879 0.371679 0.817350
0.000000 0.281956 0.852415
0.000000 0.288731 0.851987
0.000000 0.301823 0.852262
0.189639 0.340917 0.853941
0.468788 0.337896 0.853971
0.675624 0.338872 0.849241
0.876951 0.363348 0.852934
0.980133 0.438270 0.818997
0.000000 0.419501 0.846952
0.000000 0.422980 0.846799
0.000000 0.444465 0.845365
0.277165 0.484260 0.846372
0.482979 0.473976 0.850858
0.671290 0.456977 0.846952
0.870848 0.466865 0.850248
0.975372 0.534630 0.822660
0.000000 0.544976 0.847929
0.000000 0.547478 0.847807
0.000000 0.555413 0.846708
0.240146 0.583459 0.842496
0.492256 0.594873 0.842161
0.665095 0.579461 0.843809
0.861082 0.584497 0.845823
0.969024 0.635218 0.824949
0.000000 0.676692 0.848844
0.000000 0.678553 0.848692
0.000000 0.680751 0.848112
0.000000 0.693477 0.844541
0.449165 0.697688 0.840543
0.672511 0.711086 0.834745
0.845396 0.703975 0.837675
0.961273 0.734127 0.826841
0.000000 0.812467 0.849302
0.000000 0.814206 0.849180
0.000000 0.817777 0.848753
0.000000 0.820005 0.846098
0.364660 0.821469 0.842283
0.635370 0.821042 0.835050
0.814603 0.810300 0.817746
0.952605 0.831296 0.833310
0.000000 0.954101 0.849485
0.000000 0.954955 0.848417
0.000000 0.957946 0.844297
0.000000 0.960662 0.834287
0.000000 0.949554 0.825345
0.567254 0.936828 0.817014
0.827481 0.924376 0.839139
0.928588 0.902190 0.831693
0.000000 0.133211 0.941894
0.000000 0.133211 0.941894
0.000000 0.133211 0.941863
0.000000 0.000000 0.943908
0.271885 0.000000 0.944884
0.566094 0.000000 0.941375
0.786465 0.172305 0.936553
0.968719 0.277653 0.932525
0.000000 0.133364 0.942107
0.000000 0.133364 0.942107
0.000000 0.133150 0.942077
0.000000 0.000000 0.943786
0.266209 0.000000 0.944732
0.570977 0.099062 0.940642
0.786618 0.225803 0.936095
0.968017 0.303075 0.932280
0.000000 0.189944 0.942016
0.000000 0.199344 0.941833
0.000000 0.229557 0.941100
0.000000 0.301946 0.940246
0.312505 0.267491 0.942412
0.585260 0.312963 0.938445
0.785794 0.333043 0.934722
0.965637 0.375525 0.931518
0.000000 0.346563 0.938994
0.000000 0.351080 0.938811
0.000000 0.366705 0.938109
0.000000 0.437476 0.935943
0.388251 0.459968 0.936797
0.591974 0.446876 0.936248
0.780911 0.438422 0.933135
0.961151 0.478492 0.930114
0.000000 0.503532 0.933867
0.000000 0.503502 0.933898
0.000000 0.502525 0.933989
0.000000 0.498695 0.934112
0.389746 0.569726 0.931853
0.596033 0.570367 0.933745
0.776364 0.560296 0.930632
0.954162 0.597253 0.927855
0.000000 0.619867 0.933837
0.000000 0.620081 0.933867
0.000000 0.620142 0.933959
0.000000 0.618006 0.934173
0.251682 0.649805 0.930022
0.623621 0.702663 0.926085
0.782071 0.698848 0.926513
0.944793 0.718288 0.924712
0.000000 0.746670 0.932982
0.000000 0.747219 0.933013
0.000000 0.748867 0.933013
0.000000 0.751156 0.933104
0.000000 0.766323 0.930022
0.547417 0.785855 0.925170
0.802731 0.824125 0.919249
0.933440 0.827268 0.920409
0.000000 0.882658 0.930785
0.000000 0.883696 0.930755
0.000000 0.887480 0.930632
0.000000 0.894682 0.930388
0.000000 0.902434 0.928832
0.422797 0.906950 0.924651
0.761959 0.910826 0.919005
0.914244 0.907012 0.908080
