其他预设/【233】日式怀旧街道调色预设208款/1.3D LUT预设（视频调色-PR-AE-PS-FCPX-达芬奇用）/3.日式城市街拍预设 (自动曝光预设)/JA – Shaded Light 3 (Auto-Exposure).cube
# Created by Adobe Lightroom plugin Export LUT (1.17.0)
# www.johnrellis.com/lightroom/exportlut.htm
# Preset: JA – Shaded Light 3 (Auto-Exposure)
# Color profile: /Library/Application Support/Adobe/Color/Profiles/Recommended/AdobeRGB1998.icc
LUT_3D_SIZE 8
DOMAIN_MIN 0.000000 0.000000 0.000000
DOMAIN_MAX 0.903226 0.903226 0.903226
0.093355 0.090913 0.086610
0.124422 0.090761 0.086702
0.198489 0.089082 0.087098
0.322576 0.078218 0.082887
0.469245 0.024353 0.068971
0.587884 0.000000 0.041108
0.705318 0.000000 0.000000
0.869413 0.000000 0.000000
0.098268 0.114504 0.092836
0.121859 0.119234 0.090974
0.207218 0.122164 0.087373
0.336126 0.123293 0.080629
0.481056 0.113558 0.063539
0.595880 0.091981 0.028779
0.712825 0.047913 0.000000
0.875486 0.000000 0.000000
0.105776 0.166690 0.105745
0.125887 0.167208 0.108003
0.199832 0.197024 0.096437
0.371923 0.238560 0.064240
0.519005 0.239445 0.014008
0.622980 0.222995 0.000000
0.740169 0.210269 0.000000
0.895750 0.201144 0.000000
0.109102 0.254368 0.123598
0.130953 0.258824 0.122744
0.199161 0.260258 0.137484
0.340551 0.337316 0.091035
0.533837 0.384222 0.000000
0.669825 0.372473 0.000000
0.790066 0.359564 0.000000
0.927062 0.354284 0.000000
0.105013 0.362982 0.146700
0.130770 0.369696 0.144686
0.213291 0.373632 0.156374
0.311528 0.390021 0.176944
0.482887 0.479591 0.100435
0.656947 0.510979 0.000000
0.829496 0.524193 0.000000
0.959380 0.513390 0.000000
0.106538 0.470100 0.176577
0.136721 0.474769 0.176425
0.221744 0.480842 0.186099
0.325628 0.485908 0.218051
0.435645 0.521172 0.231815
0.601495 0.598749 0.164492
0.809628 0.663874 0.060456
0.957916 0.665583 0.133150
0.143679 0.573571 0.222110
0.173312 0.576440 0.225772
0.251865 0.582757 0.239963
0.353155 0.587549 0.273716
0.456062 0.595209 0.323430
0.571832 0.657160 0.322332
0.757076 0.755886 0.255894
0.941039 0.803830 0.207401
0.229099 0.717617 0.305364
0.254704 0.720302 0.311620
0.324773 0.729152 0.330297
0.419348 0.738369 0.362341
0.522759 0.752102 0.405280
0.627527 0.770108 0.456519
0.752590 0.847318 0.432837
0.891508 0.891844 0.385138
0.097047 0.092805 0.112764
0.120027 0.100099 0.109957
0.192599 0.096315 0.117647
0.318639 0.058320 0.110903
0.464210 0.000000 0.101228
0.583551 0.000000 0.089265
0.700893 0.000000 0.071839
0.865812 0.000000 0.000000
0.096071 0.119814 0.114290
0.125795 0.122438 0.116396
0.204288 0.119539 0.115328
0.331365 0.109651 0.110140
0.475746 0.087037 0.099214
0.591485 0.048920 0.087251
0.708309 0.000000 0.070222
0.871977 0.000000 0.000000
0.107057 0.172763 0.122927
0.131930 0.179446 0.127810
0.204837 0.201480 0.123812
0.375402 0.231968 0.102663
0.513542 0.227420 0.090517
0.618555 0.211582 0.081605
0.735561 0.198764 0.063996
0.892668 0.187137 0.000000
0.111330 0.260319 0.142824
0.135592 0.268132 0.144442
0.207919 0.272709 0.157229
0.344823 0.341161 0.126497
0.535393 0.381170 0.078340
0.665248 0.366094 0.074952
0.785641 0.353521 0.061524
0.924620 0.348730 0.007324
0.109102 0.367529 0.166751
0.134585 0.374060 0.165957
0.217014 0.382971 0.174899
0.317388 0.393530 0.201114
0.485115 0.481514 0.142275
0.657710 0.510307 0.091981
0.830594 0.523400 0.091188
0.957397 0.512047 0.116701
0.110536 0.472206 0.193881
0.140200 0.476753 0.194308
0.224369 0.486030 0.203037
0.330602 0.490761 0.235264
0.439277 0.522301 0.255070
0.602960 0.599908 0.200259
0.810300 0.664424 0.141848
0.957702 0.666407 0.187686
0.144656 0.574243 0.234928
0.174380 0.577081 0.238437
0.254887 0.585199 0.253788
0.356725 0.589960 0.287053
0.459876 0.597681 0.335790
0.574060 0.657496 0.340215
0.758053 0.756710 0.282780
0.940673 0.804074 0.246403
0.224918 0.717891 0.312810
0.250584 0.720516 0.318791
0.329473 0.730159 0.343084
0.419409 0.739956 0.370123
0.523247 0.753750 0.411994
0.628473 0.771847 0.462348
0.752987 0.847318 0.443214
0.891722 0.891966 0.399542
0.106630 0.096834 0.173129
0.134798 0.101717 0.171176
0.188174 0.118105 0.170748
0.293339 0.113527 0.197452
0.440711 0.000000 0.198215
0.562707 0.000000 0.167361
0.682826 0.000000 0.159274
0.850797 0.000000 0.147005
0.098573 0.122225 0.179477
0.131991 0.123781 0.181979
0.195987 0.140597 0.178836
0.306645 0.130526 0.200259
0.450752 0.000000 0.189975
0.572747 0.000000 0.168978
0.690181 0.000000 0.161746
0.857420 0.000000 0.149416
0.094423 0.190372 0.182589
0.121584 0.195529 0.187350
0.217716 0.212222 0.202274
0.353704 0.201236 0.194461
0.491615 0.187991 0.186069
0.600671 0.175937 0.179385
0.717220 0.160739 0.172274
0.879698 0.132784 0.160220
0.096407 0.272099 0.194064
0.125673 0.280308 0.197879
0.220737 0.306798 0.215549
0.356878 0.351781 0.218387
0.539910 0.370703 0.204746
0.647303 0.348302 0.203952
0.768063 0.336584 0.196902
0.914092 0.331853 0.188724
0.091829 0.374517 0.215152
0.126192 0.382269 0.217960
0.223270 0.406653 0.233005
0.339147 0.415076 0.265354
0.491829 0.487129 0.246159
0.659480 0.509972 0.234440
0.833616 0.524285 0.246067
0.949279 0.509270 0.247623
0.097993 0.475868 0.238468
0.136080 0.481056 0.241337
0.233127 0.496834 0.256931
0.346563 0.505730 0.288853
0.452522 0.524987 0.324254
0.607507 0.603510 0.296269
0.812100 0.666987 0.276951
0.956512 0.670161 0.308659
0.134768 0.575586 0.271397
0.168154 0.578515 0.275120
0.259007 0.588281 0.293553
0.367468 0.597925 0.328252
0.471351 0.606073 0.373510
0.580713 0.658167 0.392157
0.761379 0.759426 0.356817
0.939574 0.804746 0.343114
0.204227 0.718563 0.337011
0.229953 0.721096 0.340887
0.313573 0.730739 0.361761
0.415991 0.745296 0.393500
0.522698 0.759457 0.432776
0.630579 0.777615 0.480842
0.753811 0.847013 0.475654
0.892485 0.892424 0.443091
0.120150 0.096407 0.272251
0.152651 0.099031 0.273838
0.232853 0.119417 0.277134
0.306584 0.142123 0.277653
0.409827 0.161929 0.303990
0.540368 0.090944 0.310613
0.655116 0.000000 0.295354
0.813260 0.000000 0.268254
0.101228 0.120058 0.282658
0.142916 0.122621 0.283787
0.235447 0.142336 0.286381
0.314305 0.166049 0.285466
0.419318 0.179477 0.309331
0.545830 0.121614 0.310399
0.658869 0.000000 0.291814
0.817899 0.000000 0.258274
0.034791 0.199893 0.280339
0.086763 0.198276 0.286778
0.219608 0.205753 0.311131
0.338140 0.242741 0.310460
0.450324 0.238285 0.323735
0.564416 0.198245 0.306889
0.674098 0.127687 0.275181
0.848264 0.000000 0.263310
0.000000 0.298314 0.287541
0.077821 0.304540 0.293400
0.196475 0.326452 0.314183
0.375128 0.367071 0.351904
0.504204 0.349676 0.337133
0.608026 0.334508 0.324895
0.728237 0.318730 0.312963
0.889128 0.301976 0.302464
0.000000 0.384924 0.290043
0.083803 0.392340 0.294163
0.202976 0.416571 0.309667
0.367864 0.452186 0.355138
0.502190 0.495491 0.376501
0.660456 0.514946 0.380438
0.804776 0.511955 0.375677
0.932097 0.499458 0.364416
0.015717 0.480140 0.303044
0.101442 0.485115 0.305669
0.217227 0.501091 0.319127
0.365057 0.525414 0.362829
0.477089 0.534874 0.408484
0.614984 0.609705 0.408728
0.816037 0.671046 0.408453
0.955688 0.673060 0.429572
0.094545 0.576745 0.325109
0.137697 0.579675 0.327764
0.238956 0.589502 0.341009
0.370520 0.606897 0.380041
0.484230 0.620691 0.424353
0.588800 0.657893 0.457923
0.766903 0.764187 0.442725
0.939147 0.804257 0.445808
0.168093 0.719875 0.382361
0.197330 0.722408 0.384985
0.278691 0.731350 0.395666
0.394018 0.749142 0.423987
0.513207 0.768887 0.461952
0.629664 0.787259 0.508354
0.753658 0.845701 0.524193
0.893767 0.893248 0.504814
0.137728 0.091249 0.388312
0.170809 0.091951 0.390967
0.257786 0.104860 0.399237
0.368017 0.165133 0.409125
0.441413 0.184543 0.402472
0.520287 0.238102 0.412268
0.633509 0.226017 0.427375
0.798093 0.154391 0.445533
0.116243 0.116304 0.394995
0.156680 0.117708 0.397284
0.253819 0.131533 0.404791
0.372015 0.190951 0.415076
0.446296 0.209842 0.407721
0.522881 0.258640 0.416175
0.636866 0.240757 0.428962
0.801358 0.169741 0.443671
0.000000 0.192111 0.397009
0.023682 0.187289 0.406317
0.224247 0.198581 0.419593
0.375525 0.256565 0.430274
0.461311 0.288029 0.425025
0.532982 0.320195 0.430365
0.649104 0.286259 0.433478
0.813169 0.211948 0.434394
0.000000 0.300023 0.390173
0.000000 0.301244 0.395575
0.149905 0.304723 0.413977
0.360906 0.346075 0.449989
0.483955 0.398718 0.452399
0.561730 0.392554 0.451820
0.673152 0.348425 0.433661
0.835813 0.259892 0.401221
0.000000 0.408179 0.395636
0.000000 0.413184 0.400519
0.163302 0.430823 0.417517
0.343023 0.461585 0.446632
0.515343 0.506615 0.489448
0.616541 0.487434 0.472023
0.743893 0.466468 0.453803
0.899809 0.446784 0.438087
0.000000 0.486336 0.385534
0.000000 0.490181 0.388190
0.175082 0.504692 0.399176
0.337407 0.529046 0.425910
0.496223 0.563622 0.478950
0.625391 0.618769 0.506645
0.826291 0.667720 0.516350
0.946044 0.652705 0.514855
0.000000 0.577264 0.393927
0.026429 0.580194 0.395850
0.197482 0.589929 0.404547
0.337102 0.606989 0.427955
0.478920 0.637507 0.473793
0.596948 0.660914 0.521538
0.774411 0.771023 0.528130
0.939818 0.801022 0.546868
0.063325 0.720912 0.443946
0.123171 0.723415 0.445686
0.229282 0.732357 0.452796
0.346685 0.748867 0.467109
0.475227 0.776547 0.492897
0.617548 0.800137 0.541131
0.751339 0.841398 0.586542
0.895415 0.894316 0.584497
0.155306 0.085389 0.493812
0.185946 0.086793 0.496071
0.268956 0.100710 0.503349
0.380591 0.156985 0.514488
0.487007 0.243992 0.520256
0.552758 0.270420 0.509789
0.628962 0.335088 0.523735
0.777279 0.354437 0.579309
0.136080 0.111727 0.496742
0.171664 0.113710 0.498848
0.262608 0.127749 0.505913
0.379644 0.180301 0.516899
0.490486 0.268162 0.523552
0.555016 0.290867 0.512718
0.630396 0.348974 0.526360
0.780362 0.360662 0.580194
0.000000 0.174624 0.501946
0.075380 0.176638 0.505516
0.230961 0.193271 0.512596
0.373266 0.244602 0.523796
0.502617 0.340673 0.534661
0.562646 0.353643 0.522850
0.635737 0.391760 0.535424
0.791623 0.379828 0.582025
0.000000 0.282292 0.480415
0.000000 0.281346 0.486854
0.142336 0.284398 0.509422
0.348943 0.326879 0.532525
0.511131 0.416876 0.548455
0.576471 0.436774 0.540826
0.646143 0.450813 0.550103
0.812528 0.406653 0.579309
0.000000 0.393927 0.484535
0.000000 0.395209 0.487800
0.082612 0.400580 0.499306
0.281346 0.415564 0.519677
0.489845 0.476326 0.560540
0.599329 0.522484 0.568383
0.682521 0.501427 0.567864
0.845426 0.438300 0.557122
0.000000 0.500237 0.487556
0.000000 0.503288 0.490547
0.110780 0.514214 0.501091
0.301640 0.534386 0.520409
0.464302 0.567559 0.552300
0.640253 0.632502 0.616083
0.771206 0.601343 0.586786
0.911864 0.575189 0.563195
0.000000 0.583642 0.479896
0.000000 0.585748 0.481361
0.109133 0.592798 0.486915
0.279210 0.605188 0.498787
0.435492 0.634180 0.528191
0.598993 0.695766 0.586358
0.784604 0.780392 0.640314
0.936095 0.803372 0.679896
0.000000 0.720485 0.519951
0.000000 0.722988 0.521263
0.107973 0.731960 0.526238
0.277714 0.748226 0.536309
0.417548 0.774319 0.551751
0.574426 0.813382 0.581872
0.751186 0.834745 0.664820
0.897276 0.895445 0.694148
0.176089 0.082765 0.606165
0.204623 0.086000 0.608087
0.284886 0.106142 0.614862
0.395819 0.164645 0.626490
0.524681 0.278691 0.641840
0.614923 0.352087 0.642298
0.673304 0.371527 0.629664
0.797391 0.426825 0.684565
0.158511 0.109834 0.607263
0.190799 0.113344 0.609216
0.277470 0.131197 0.616022
0.393133 0.185672 0.627710
0.525017 0.294255 0.643427
0.617609 0.367590 0.645136
0.675196 0.383703 0.632013
0.798703 0.434394 0.686000
0.000000 0.169741 0.609552
0.112795 0.173587 0.611597
0.243412 0.191775 0.618769
0.380987 0.242466 0.631189
0.524132 0.339666 0.648341
0.626673 0.414313 0.655360
0.682094 0.421607 0.640650
0.803372 0.459205 0.690761
0.000000 0.266178 0.596643
0.000000 0.264286 0.601617
0.128481 0.265843 0.617914
0.343542 0.311620 0.634394
0.513756 0.396216 0.654810
0.641566 0.478553 0.674311
0.695094 0.476295 0.656458
0.811490 0.498329 0.697993
0.000000 0.376440 0.578637
0.000000 0.374914 0.580621
0.000000 0.369909 0.587976
0.237766 0.382971 0.616754
0.466133 0.445350 0.658259
0.645136 0.535515 0.694392
0.715877 0.543114 0.680934
0.822507 0.553979 0.707149
0.000000 0.490639 0.584588
0.000000 0.491188 0.586419
0.000000 0.493721 0.593103
0.187381 0.500420 0.606073
0.370703 0.516350 0.629755
0.593286 0.579400 0.701564
0.747707 0.644282 0.719387
0.853239 0.614832 0.715785
0.000000 0.600275 0.589014
0.000000 0.601984 0.590723
0.000000 0.608392 0.596979
0.200992 0.621118 0.609308
0.379919 0.645350 0.633021
0.543938 0.694423 0.681910
0.799100 0.794247 0.782589
0.907195 0.754360 0.743191
0.000000 0.734707 0.621912
0.000000 0.736477 0.622950
0.000000 0.742763 0.626642
0.131380 0.753872 0.633173
0.326574 0.770718 0.642847
0.495125 0.807889 0.663264
0.739528 0.853147 0.734615
0.899626 0.897337 0.811765
0.209689 0.082673 0.797330
0.240299 0.090852 0.798642
0.327184 0.125093 0.803037
0.447181 0.198947 0.810147
0.583062 0.311925 0.818509
0.711238 0.431281 0.827420
0.786038 0.455940 0.821408
0.852720 0.464546 0.811063
0.189670 0.112062 0.797818
0.224216 0.118532 0.799130
0.317632 0.147555 0.803586
0.442573 0.215793 0.810758
0.581170 0.323491 0.819242
0.710506 0.438331 0.828367
0.786923 0.464637 0.822904
0.853605 0.471748 0.812314
0.000000 0.172946 0.798917
0.134218 0.178439 0.800290
0.274205 0.203006 0.804898
0.421576 0.261814 0.812406
0.571679 0.356817 0.821500
0.706630 0.460029 0.831540
0.789914 0.493446 0.828122
0.856565 0.496345 0.816587
0.000000 0.246769 0.794156
0.000000 0.249088 0.797055
0.093874 0.263401 0.805447
0.361181 0.314946 0.813931
0.543145 0.397436 0.824491
0.694331 0.489479 0.836301
0.794308 0.540826 0.837003
0.861631 0.538018 0.824002
0.000000 0.389868 0.769467
0.000000 0.386297 0.772824
0.000000 0.375525 0.785061
0.138003 0.364446 0.807584
0.462104 0.430426 0.825864
0.660822 0.518212 0.840909
0.799985 0.610010 0.848905
0.867948 0.602258 0.834379
0.000000 0.526787 0.771695
0.000000 0.524559 0.772519
0.000000 0.516136 0.775479
0.000000 0.499306 0.781064
0.262821 0.491524 0.804105
0.566583 0.544366 0.841978
0.798032 0.684871 0.859953
0.874723 0.694820 0.847807
0.000000 0.665492 0.786221
0.000000 0.664912 0.786862
0.000000 0.662776 0.789212
0.000000 0.658991 0.793668
0.166720 0.653834 0.801266
0.403265 0.642939 0.815366
0.726040 0.714656 0.860777
0.883268 0.806638 0.865782
0.000000 0.802060 0.798734
0.000000 0.802579 0.799252
0.000000 0.804471 0.801114
0.000000 0.808286 0.804715
0.152132 0.814755 0.810788
0.396674 0.826139 0.821653
0.644953 0.849271 0.843565
0.904875 0.902617 0.896330
