其他预设/【233】日式怀旧街道调色预设208款/1.3D LUT预设（视频调色-PR-AE-PS-FCPX-达芬奇用）/3.日式城市街拍预设 (自动曝光预设)/JA – Subdued 3 (Auto-Exposure).cube
# Created by Adobe Lightroom plugin Export LUT (1.17.0)
# www.johnrellis.com/lightroom/exportlut.htm
# Preset: JA – Subdued 3 (Auto-Exposure)
# Color profile: /Library/Application Support/Adobe/Color/Profiles/Recommended/AdobeRGB1998.icc
LUT_3D_SIZE 5
DOMAIN_MIN 0.000000 0.000000 0.000000
DOMAIN_MAX 0.903226 0.903226 0.903226
0.088197 0.088136 0.087861
0.197330 0.076509 0.083467
0.339391 0.059785 0.067597
0.619501 0.000000 0.000000
0.931670 0.000000 0.000000
0.105653 0.195224 0.103578
0.193393 0.192203 0.087312
0.343084 0.181857 0.065003
0.623621 0.200290 0.000000
0.932280 0.146700 0.000000
0.130312 0.357855 0.123415
0.205783 0.359258 0.115694
0.372198 0.367437 0.061158
0.639124 0.416724 0.000000
0.934203 0.445075 0.000000
0.061677 0.661402 0.000000
0.224186 0.662745 0.000000
0.443275 0.667109 0.000000
0.690547 0.677974 0.000000
0.937621 0.682063 0.000000
0.000000 0.934813 0.000000
0.209598 0.934081 0.000000
0.453101 0.931395 0.000000
0.690822 0.927031 0.000000
0.928801 0.917235 0.000000
0.126497 0.122805 0.190311
0.189090 0.125551 0.185306
0.344823 0.098024 0.183902
0.638148 0.000000 0.139681
0.938537 0.000000 0.000000
0.138430 0.194980 0.194858
0.195346 0.194553 0.193851
0.355993 0.179019 0.175509
0.641718 0.146548 0.131258
0.939117 0.002136 0.000000
0.121096 0.363500 0.201358
0.190616 0.369085 0.184726
0.380133 0.375219 0.157107
0.654108 0.411048 0.086152
0.940734 0.421241 0.000000
0.000000 0.668788 0.154086
0.155367 0.671778 0.125887
0.430152 0.675044 0.069642
0.695735 0.683162 0.000000
0.942779 0.675929 0.000000
0.000000 0.937652 0.082551
0.145144 0.936889 0.039338
0.434485 0.933959 0.000000
0.682490 0.928862 0.000000
0.929625 0.918090 0.000000
0.180240 0.165011 0.355291
0.231876 0.158663 0.348394
0.330785 0.144961 0.318914
0.544091 0.000000 0.337591
0.940276 0.000000 0.345190
0.171054 0.227604 0.371954
0.227665 0.216373 0.365118
0.346044 0.190738 0.333837
0.591791 0.068788 0.349187
0.952087 0.000000 0.319615
0.124819 0.389807 0.387121
0.198611 0.389654 0.386725
0.387182 0.381964 0.377478
0.688869 0.342565 0.334356
0.959777 0.268132 0.248051
0.000000 0.677638 0.421118
0.000000 0.682765 0.409461
0.380957 0.693721 0.362066
0.706966 0.694179 0.295781
0.956268 0.644984 0.201999
0.000000 0.939300 0.417395
0.039857 0.939879 0.405005
0.408453 0.938476 0.378058
0.664546 0.932311 0.314733
0.931426 0.920195 0.071015
0.254276 0.200748 0.659419
0.317388 0.186801 0.652827
0.462257 0.111940 0.626215
0.602380 0.000000 0.569177
0.818875 0.000000 0.562066
0.234958 0.276524 0.673671
0.304112 0.262455 0.666712
0.460670 0.202457 0.639673
0.614923 0.121096 0.581353
0.832486 0.074189 0.566461
0.249516 0.495460 0.702235
0.329717 0.495949 0.702449
0.469978 0.445686 0.681117
0.652186 0.357671 0.619623
0.895842 0.306523 0.589990
0.063691 0.712520 0.705226
0.227024 0.712551 0.705013
0.463722 0.711238 0.702754
0.711299 0.698116 0.686976
0.949310 0.645319 0.630213
0.098360 0.937957 0.684901
0.247013 0.937499 0.683772
0.476814 0.934844 0.681666
0.718868 0.927276 0.690761
0.930785 0.920256 0.611048
0.434333 0.384375 0.912016
0.468147 0.374701 0.910765
0.571710 0.330694 0.905852
0.727474 0.195895 0.894804
0.907927 0.000000 0.868376
0.464393 0.460182 0.913115
0.491859 0.449928 0.911955
0.581384 0.406256 0.907347
0.727291 0.289158 0.896757
0.908934 0.197543 0.870329
0.575463 0.651179 0.915770
0.596185 0.648615 0.915038
0.637263 0.608545 0.911437
0.736812 0.514519 0.902098
0.910582 0.422797 0.875853
0.615045 0.787839 0.918669
0.646876 0.792630 0.918486
0.736690 0.808225 0.918151
0.797024 0.779690 0.911925
0.909941 0.686488 0.884092
0.559808 0.921294 0.920409
0.591943 0.921447 0.920348
0.688014 0.922087 0.920195
0.811826 0.923339 0.919982
0.926909 0.920317 0.914733
