其他预设/【233】日式怀旧街道调色预设208款/1.3D LUT预设（视频调色-PR-AE-PS-FCPX-达芬奇用）/3.日式城市街拍预设 (自动曝光预设)/JA – Cityscape Pop 3 (Auto-Exposure).cube
# Created by Adobe Lightroom plugin Export LUT (1.17.0)
# www.johnrellis.com/lightroom/exportlut.htm
# Preset: JA – Cityscape Pop 3 (Auto-Exposure)
# Color profile: /Library/Application Support/Adobe/Color/Profiles/Recommended/AdobeRGB1998.icc
LUT_3D_SIZE 32
0.106172 0.108827 0.110536
0.108888 0.108858 0.110445
0.113130 0.108644 0.110353
0.122408 0.108858 0.110079
0.137270 0.108705 0.109621
0.158328 0.108949 0.108797
0.187503 0.109407 0.107424
0.223148 0.110445 0.105287
0.263310 0.111910 0.102235
0.305211 0.114351 0.098177
0.348455 0.117311 0.092958
0.391882 0.121187 0.086244
0.435950 0.126528 0.077485
0.481300 0.132631 0.065461
0.528191 0.137453 0.042451
0.576287 0.142824 0.000000
0.624842 0.147250 0.000000
0.671931 0.151492 0.000000
0.714717 0.156527 0.000000
0.754116 0.161013 0.000000
0.790555 0.165499 0.000000
0.824186 0.169955 0.000000
0.854917 0.173495 0.000000
0.882658 0.177432 0.000000
0.907713 0.180026 0.000000
0.930175 0.183017 0.000000
0.950347 0.185733 0.000000
0.968811 0.182559 0.000000
0.985657 0.176730 0.000000
1.000000 0.169345 0.000000
1.000000 0.160098 0.000000
1.000000 0.148959 0.000000
0.105989 0.111452 0.110750
0.108522 0.111269 0.110475
0.112978 0.111482 0.110353
0.122316 0.111696 0.109865
0.137118 0.112032 0.109346
0.157992 0.112795 0.108492
0.186893 0.113771 0.107088
0.222507 0.115480 0.104860
0.262547 0.117861 0.101747
0.304845 0.120607 0.097566
0.347784 0.124056 0.092256
0.391241 0.128084 0.085481
0.435431 0.133272 0.076570
0.480751 0.139071 0.064790
0.527672 0.143526 0.039612
0.575769 0.148653 0.000000
0.624323 0.152926 0.000000
0.671351 0.157656 0.000000
0.714168 0.162631 0.000000
0.753750 0.166690 0.000000
0.790311 0.170871 0.000000
0.823850 0.175143 0.000000
0.854643 0.178347 0.000000
0.882506 0.181643 0.000000
0.907530 0.184482 0.000000
0.930053 0.187076 0.000000
0.950225 0.189487 0.000000
0.968688 0.186862 0.000000
0.985565 0.180911 0.000000
1.000000 0.173617 0.000000
1.000000 0.164492 0.000000
1.000000 0.153231 0.000000
0.105806 0.115084 0.111299
0.108095 0.115206 0.110811
0.112367 0.115206 0.110475
0.121981 0.115846 0.109743
0.136660 0.116182 0.109010
0.157565 0.117342 0.108125
0.186465 0.119173 0.106630
0.221622 0.122042 0.104311
0.261784 0.124880 0.101076
0.303929 0.128389 0.096834
0.346990 0.132357 0.091341
0.390631 0.136782 0.084382
0.434638 0.142061 0.075624
0.480140 0.146395 0.064210
0.526940 0.150698 0.039307
0.575280 0.156039 0.000000
0.623774 0.160769 0.000000
0.670832 0.165286 0.000000
0.713802 0.169589 0.000000
0.753262 0.174105 0.000000
0.789944 0.178012 0.000000
0.823575 0.181491 0.000000
0.854368 0.184726 0.000000
0.882231 0.187625 0.000000
0.907317 0.190188 0.000000
0.929839 0.192172 0.000000
0.950103 0.194339 0.000000
0.968536 0.192325 0.000000
0.985412 0.186709 0.000000
1.000000 0.179232 0.000000
1.000000 0.170047 0.000000
1.000000 0.158938 0.000000
0.104952 0.123690 0.112062
0.107088 0.123629 0.111147
0.111147 0.123476 0.111055
0.120699 0.123659 0.110353
0.136141 0.124941 0.108858
0.156527 0.126711 0.107698
0.184939 0.130129 0.105837
0.220157 0.134249 0.103365
0.260105 0.138796 0.099641
0.302312 0.143679 0.095338
0.345495 0.147860 0.089662
0.388952 0.152285 0.082795
0.433234 0.157076 0.074128
0.478676 0.161501 0.062257
0.525689 0.166018 0.032868
0.573846 0.170596 0.000000
0.622492 0.175387 0.000000
0.669612 0.180545 0.000000
0.712673 0.184573 0.000000
0.752255 0.188602 0.000000
0.789029 0.192111 0.000000
0.822873 0.194583 0.000000
0.853727 0.197269 0.000000
0.881682 0.199893 0.000000
0.906828 0.202121 0.000000
0.929442 0.203799 0.000000
0.949737 0.205081 0.000000
0.968170 0.204105 0.000000
0.985107 0.198154 0.000000
1.000000 0.190829 0.000000
1.000000 0.181796 0.000000
1.000000 0.171115 0.000000
0.103273 0.136385 0.113405
0.104860 0.136416 0.111238
0.109590 0.136019 0.111147
0.118563 0.135744 0.110933
0.133272 0.136294 0.109804
0.155550 0.140169 0.107668
0.183536 0.144686 0.105623
0.218082 0.150057 0.102754
0.257969 0.156039 0.098787
0.299962 0.161868 0.094240
0.343175 0.167208 0.088533
0.386725 0.172091 0.081361
0.431159 0.177096 0.071931
0.476722 0.181796 0.059358
0.523552 0.186587 0.026429
0.571710 0.191928 0.000000
0.620356 0.196689 0.000000
0.667659 0.201083 0.000000
0.710933 0.204929 0.000000
0.750759 0.208621 0.000000
0.787716 0.211093 0.000000
0.821744 0.213748 0.000000
0.852781 0.215732 0.000000
0.880858 0.217594 0.000000
0.906126 0.218875 0.000000
0.928801 0.219974 0.000000
0.949157 0.220920 0.000000
0.967651 0.220615 0.000000
0.984619 0.214847 0.000000
1.000000 0.207492 0.000000
1.000000 0.198581 0.000000
1.000000 0.188266 0.000000
0.101076 0.154086 0.115023
0.102693 0.154147 0.112917
0.106172 0.154116 0.111147
0.116579 0.153292 0.110964
0.131746 0.153567 0.110262
0.151644 0.154849 0.108736
0.181827 0.162234 0.105287
0.216770 0.169619 0.101778
0.255039 0.176089 0.097932
0.297063 0.183108 0.092805
0.340124 0.189395 0.086671
0.383825 0.194675 0.079103
0.428168 0.200015 0.069490
0.473732 0.205142 0.054139
0.520562 0.210636 0.016602
0.568811 0.215793 0.000000
0.617578 0.220676 0.000000
0.664851 0.225650 0.000000
0.708461 0.229496 0.000000
0.748623 0.232425 0.000000
0.785855 0.234714 0.000000
0.820157 0.236240 0.000000
0.851316 0.238346 0.000000
0.879667 0.239261 0.000000
0.905089 0.239780 0.000000
0.927916 0.239933 0.000000
0.948425 0.240208 0.000000
0.966979 0.239689 0.000000
0.983978 0.235355 0.000000
0.999664 0.227726 0.000000
1.000000 0.219028 0.000000
1.000000 0.208835 0.000000
0.095827 0.178683 0.117556
0.098543 0.178775 0.115023
0.099580 0.178927 0.110353
0.112795 0.178134 0.110353
0.129610 0.176791 0.110292
0.151400 0.178317 0.108827
0.177249 0.180667 0.106722
0.214054 0.190585 0.101869
0.254154 0.199802 0.096529
0.294926 0.207004 0.091157
0.336400 0.213230 0.084718
0.380133 0.219425 0.076509
0.424475 0.225315 0.066102
0.469978 0.230930 0.046265
0.516991 0.236301 0.005951
0.565118 0.242130 0.000000
0.613947 0.247532 0.000000
0.661616 0.252445 0.000000
0.705440 0.256168 0.000000
0.746090 0.258488 0.000000
0.783566 0.260838 0.000000
0.818143 0.262272 0.000000
0.849607 0.263310 0.000000
0.878141 0.263554 0.000000
0.903807 0.263462 0.000000
0.926787 0.262943 0.000000
0.947478 0.262150 0.000000
0.966125 0.260960 0.000000
0.983154 0.258305 0.000000
0.998962 0.250645 0.000000
1.000000 0.241855 0.000000
1.000000 0.232120 0.000000
0.087007 0.209323 0.120699
0.090425 0.209476 0.118074
0.091890 0.209506 0.112490
0.105104 0.209018 0.108400
0.126497 0.207462 0.108278
0.149508 0.206699 0.107820
0.177981 0.209323 0.105653
0.208774 0.212314 0.102937
0.250523 0.223392 0.096956
0.293950 0.233707 0.088746
0.335393 0.240177 0.081727
0.376715 0.245548 0.073243
0.420111 0.251347 0.061830
0.465553 0.257420 0.033387
0.512505 0.263401 0.000000
0.560876 0.269444 0.000000
0.609613 0.275486 0.000000
0.657496 0.280674 0.000000
0.701747 0.284367 0.000000
0.742824 0.286992 0.000000
0.780697 0.288823 0.000000
0.815702 0.289555 0.000000
0.847440 0.290379 0.000000
0.876280 0.290013 0.000000
0.902251 0.288731 0.000000
0.925444 0.287999 0.000000
0.946288 0.286320 0.000000
0.965118 0.284337 0.000000
0.982238 0.282292 0.000000
0.998108 0.275364 0.000000
1.000000 0.266575 0.000000
1.000000 0.256687 0.000000
0.072663 0.244633 0.124422
0.076234 0.244724 0.121492
0.079561 0.244938 0.115877
0.089448 0.244602 0.105623
0.118471 0.243076 0.105226
0.146242 0.241032 0.105165
0.175967 0.241337 0.103578
0.209262 0.244572 0.100496
0.244480 0.248020 0.096651
0.289372 0.259129 0.088624
0.333898 0.268925 0.077577
0.375738 0.274907 0.067506
0.417884 0.279942 0.051911
0.460609 0.284367 0.018677
0.507286 0.290990 0.000000
0.555627 0.297642 0.000000
0.604517 0.303777 0.000000
0.652644 0.309728 0.000000
0.697505 0.313451 0.000000
0.738979 0.316106 0.000000
0.777432 0.317662 0.000000
0.812711 0.318700 0.000000
0.844968 0.318517 0.000000
0.874144 0.317601 0.000000
0.900359 0.316167 0.000000
0.923827 0.314305 0.000000
0.944915 0.312169 0.000000
0.963928 0.309545 0.000000
0.981201 0.306798 0.000000
0.997101 0.301701 0.000000
1.000000 0.292729 0.000000
1.000000 0.282933 0.000000
0.033783 0.282048 0.128725
0.046509 0.282261 0.125338
0.056306 0.282353 0.119509
0.064027 0.282383 0.102937
0.103853 0.281010 0.100587
0.139284 0.278782 0.100313
0.171359 0.276280 0.100313
0.206516 0.278477 0.097169
0.243717 0.281773 0.092683
0.281956 0.285405 0.087037
0.328985 0.295781 0.076905
0.373724 0.304540 0.061036
0.417029 0.310765 0.030365
0.459724 0.315435 0.000000
0.503532 0.320470 0.000000
0.549645 0.325994 0.000000
0.598688 0.332769 0.000000
0.647120 0.338750 0.000000
0.692409 0.343236 0.000000
0.734493 0.345953 0.000000
0.773556 0.347601 0.000000
0.809323 0.348180 0.000000
0.842039 0.347784 0.000000
0.871580 0.346624 0.000000
0.898161 0.344579 0.000000
0.921965 0.342046 0.000000
0.943297 0.339239 0.000000
0.962524 0.335821 0.000000
0.980011 0.332219 0.000000
0.995941 0.328649 0.000000
1.000000 0.319860 0.000000
1.000000 0.309789 0.000000
0.000000 0.320165 0.133974
0.000000 0.320348 0.130037
0.000000 0.320317 0.124117
0.004028 0.320378 0.107027
0.078584 0.319371 0.094911
0.126223 0.317266 0.094514
0.164858 0.314763 0.094209
0.200046 0.312596 0.093202
0.239475 0.315557 0.088319
0.279271 0.319188 0.082338
0.319799 0.322789 0.074495
0.368383 0.332830 0.057923
0.413977 0.341039 0.012848
0.458991 0.347662 0.000000
0.502861 0.352667 0.000000
0.547753 0.357610 0.000000
0.593042 0.362341 0.000000
0.640681 0.368200 0.000000
0.686610 0.372992 0.000000
0.729519 0.376165 0.000000
0.769100 0.377783 0.000000
0.805447 0.378149 0.000000
0.838682 0.377630 0.000000
0.868620 0.376135 0.000000
0.895628 0.373693 0.000000
0.919768 0.370764 0.000000
0.941405 0.367163 0.000000
0.960937 0.363073 0.000000
0.978607 0.358923 0.000000
0.994751 0.354498 0.000000
1.000000 0.347601 0.000000
1.000000 0.337499 0.000000
0.000000 0.358160 0.138979
0.000000 0.358129 0.135103
0.000000 0.358373 0.129915
0.000000 0.358190 0.113741
0.000000 0.357763 0.087984
0.105165 0.355627 0.087587
0.153536 0.353002 0.087251
0.193088 0.350164 0.086732
0.231968 0.349584 0.083955
0.273899 0.352850 0.076783
0.315557 0.356451 0.067811
0.358007 0.360143 0.051820
0.408270 0.370428 0.002167
0.454994 0.378515 0.000000
0.502037 0.385962 0.000000
0.546929 0.391211 0.000000
0.592340 0.396063 0.000000
0.637140 0.400000 0.000000
0.680049 0.402960 0.000000
0.723659 0.406561 0.000000
0.763973 0.408362 0.000000
0.801022 0.408850 0.000000
0.834806 0.408118 0.000000
0.865354 0.406287 0.000000
0.892760 0.403601 0.000000
0.917296 0.400000 0.000000
0.939330 0.395789 0.000000
0.959075 0.391302 0.000000
0.977050 0.386450 0.000000
0.993408 0.381353 0.000000
1.000000 0.375860 0.000000
1.000000 0.365545 0.000000
0.000000 0.396094 0.145174
0.000000 0.396277 0.141268
0.000000 0.396216 0.136110
0.000000 0.396246 0.120638
0.000000 0.396002 0.085695
0.068513 0.394049 0.079530
0.136263 0.391547 0.079133
0.183200 0.388434 0.078340
0.223301 0.384863 0.077668
0.265812 0.386358 0.071473
0.309026 0.390021 0.060761
0.352392 0.393774 0.035370
0.396490 0.397894 0.000000
0.448829 0.408698 0.000000
0.496895 0.416968 0.000000
0.545281 0.424964 0.000000
0.591577 0.430365 0.000000
0.636255 0.434424 0.000000
0.678859 0.436896 0.000000
0.719142 0.438117 0.000000
0.758297 0.438880 0.000000
0.796048 0.439490 0.000000
0.830503 0.438666 0.000000
0.861692 0.436591 0.000000
0.889555 0.433631 0.000000
0.914549 0.429694 0.000000
0.936950 0.425116 0.000000
0.957061 0.419867 0.000000
0.975311 0.414252 0.000000
0.991882 0.408698 0.000000
1.000000 0.402930 0.000000
1.000000 0.393957 0.000000
0.000000 0.434394 0.151797
0.000000 0.434546 0.148104
0.000000 0.434455 0.143099
0.000000 0.434516 0.128969
0.000000 0.434211 0.097017
0.000000 0.432776 0.070100
0.110872 0.430335 0.069245
0.169009 0.427192 0.068330
0.214847 0.423529 0.067659
0.255406 0.420264 0.065705
0.300603 0.423743 0.050019
0.345525 0.427619 0.015259
0.390326 0.431739 0.000000
0.435950 0.436225 0.000000
0.489601 0.447395 0.000000
0.540063 0.456580 0.000000
0.589075 0.464332 0.000000
0.635401 0.469642 0.000000
0.677913 0.471931 0.000000
0.718135 0.472816 0.000000
0.755917 0.472358 0.000000
0.791043 0.470619 0.000000
0.825711 0.469581 0.000000
0.857511 0.467353 0.000000
0.886015 0.464088 0.000000
0.911528 0.459663 0.000000
0.934356 0.454536 0.000000
0.954803 0.448951 0.000000
0.973388 0.442908 0.000000
0.990234 0.436561 0.000000
1.000000 0.430243 0.000000
1.000000 0.422553 0.000000
0.000000 0.473365 0.158785
0.000000 0.473396 0.155337
0.000000 0.473365 0.150423
0.000000 0.473396 0.138186
0.000000 0.472908 0.108095
0.000000 0.472175 0.056519
0.064973 0.469764 0.056519
0.149355 0.466560 0.054047
0.202457 0.463020 0.052613
0.247410 0.458991 0.049104
0.290501 0.457801 0.036103
0.336858 0.461738 0.000580
0.383001 0.466072 0.000000
0.429419 0.470649 0.000000
0.476631 0.475532 0.000000
0.530419 0.485939 0.000000
0.583429 0.496590 0.000000
0.631800 0.503563 0.000000
0.676875 0.507469 0.000000
0.717098 0.508232 0.000000
0.754849 0.507317 0.000000
0.789975 0.505241 0.000000
0.822477 0.502098 0.000000
0.852934 0.498177 0.000000
0.882109 0.494667 0.000000
0.908110 0.490089 0.000000
0.931456 0.484443 0.000000
0.952361 0.478340 0.000000
0.971221 0.471870 0.000000
0.988373 0.465034 0.000000
1.000000 0.458045 0.000000
1.000000 0.450874 0.000000
0.000000 0.513268 0.166079
0.000000 0.513298 0.163455
0.000000 0.513207 0.158755
0.000000 0.513176 0.149111
0.000000 0.512657 0.121004
0.000000 0.512169 0.061067
0.000000 0.509789 0.025360
0.121584 0.506828 0.023926
0.187045 0.503319 0.021088
0.237583 0.499184 0.017029
0.281041 0.494697 0.013428
0.327092 0.496315 0.000000
0.374640 0.500603 0.000000
0.421973 0.505303 0.000000
0.469612 0.510338 0.000000
0.517937 0.515404 0.000000
0.570306 0.524010 0.000000
0.626184 0.536248 0.000000
0.672633 0.541527 0.000000
0.715938 0.544060 0.000000
0.753689 0.542870 0.000000
0.788815 0.540368 0.000000
0.821347 0.536614 0.000000
0.851225 0.531884 0.000000
0.878599 0.526055 0.000000
0.904448 0.520470 0.000000
0.928283 0.514580 0.000000
0.949584 0.508080 0.000000
0.968872 0.501091 0.000000
0.986358 0.493751 0.000000
1.000000 0.486152 0.000000
1.000000 0.478492 0.000000
0.000000 0.553643 0.175021
0.000000 0.553613 0.172213
0.000000 0.553521 0.167636
0.000000 0.553399 0.158663
0.000000 0.553033 0.134676
0.000000 0.552453 0.086213
0.000000 0.550805 0.000000
0.074678 0.547662 0.000000
0.166659 0.544091 0.000000
0.224430 0.540154 0.000000
0.272709 0.535576 0.000000
0.315740 0.530877 0.000000
0.364782 0.535332 0.000000
0.413092 0.539910 0.000000
0.461494 0.544854 0.000000
0.509941 0.550011 0.000000
0.559045 0.555352 0.000000
0.610071 0.561913 0.000000
0.667231 0.575036 0.000000
0.711208 0.578088 0.000000
0.751736 0.578485 0.000000
0.787503 0.575921 0.000000
0.820035 0.571679 0.000000
0.850034 0.566247 0.000000
0.877317 0.560052 0.000000
0.902190 0.552819 0.000000
0.924834 0.545068 0.000000
0.946654 0.538048 0.000000
0.966308 0.530571 0.000000
0.984192 0.522576 0.000000
1.000000 0.514611 0.000000
1.000000 0.506401 0.000000
0.000000 0.594018 0.184390
0.000000 0.593835 0.181186
0.000000 0.593774 0.177249
0.000000 0.593591 0.168399
0.000000 0.593164 0.148287
0.000000 0.592584 0.105898
0.000000 0.591669 0.000000
0.000000 0.588556 0.000000
0.136995 0.585199 0.000000
0.207492 0.581353 0.000000
0.261753 0.576898 0.000000
0.308171 0.572137 0.000000
0.353552 0.570153 0.000000
0.403357 0.574884 0.000000
0.452491 0.579889 0.000000
0.501671 0.585016 0.000000
0.550958 0.590204 0.000000
0.600366 0.595361 0.000000
0.649958 0.600336 0.000000
0.706050 0.611902 0.000000
0.747097 0.612879 0.000000
0.784878 0.611261 0.000000
0.818631 0.607111 0.000000
0.848600 0.601221 0.000000
0.875914 0.594202 0.000000
0.900816 0.586389 0.000000
0.923491 0.577874 0.000000
0.944244 0.568963 0.000000
0.963561 0.560174 0.000000
0.981811 0.551843 0.000000
0.998444 0.543267 0.000000
1.000000 0.534569 0.000000
0.000000 0.634333 0.193668
0.000000 0.634333 0.190829
0.000000 0.634150 0.187045
0.000000 0.634028 0.179812
0.000000 0.633631 0.162478
0.000000 0.633051 0.125856
0.000000 0.632410 0.010132
0.000000 0.630030 0.000000
0.092958 0.626795 0.000000
0.186130 0.623163 0.000000
0.247990 0.618921 0.000000
0.299321 0.614282 0.000000
0.344640 0.609339 0.000000
0.392798 0.610529 0.000000
0.442786 0.615198 0.000000
0.492195 0.619867 0.000000
0.541497 0.624537 0.000000
0.590661 0.629145 0.000000
0.639765 0.633661 0.000000
0.688838 0.637934 0.000000
0.742061 0.646937 0.000000
0.780514 0.645747 0.000000
0.815518 0.642145 0.000000
0.847013 0.636439 0.000000
0.874357 0.628779 0.000000
0.899290 0.620325 0.000000
0.922026 0.611017 0.000000
0.942779 0.601526 0.000000
0.961852 0.591608 0.000000
0.979522 0.581567 0.000000
0.996277 0.572198 0.000000
1.000000 0.563073 0.000000
0.000000 0.673304 0.202945
0.000000 0.673243 0.201022
0.000000 0.673243 0.197726
0.000000 0.673030 0.191257
0.000000 0.672602 0.177310
0.000000 0.672175 0.143679
0.000000 0.671504 0.080293
0.000000 0.670039 0.000000
0.000000 0.667018 0.000000
0.158297 0.663569 0.000000
0.230259 0.659907 0.000000
0.287266 0.655573 0.000000
0.336492 0.650843 0.000000
0.380804 0.645899 0.000000
0.431617 0.649744 0.000000
0.481605 0.653864 0.000000
0.530877 0.657954 0.000000
0.579675 0.662013 0.000000
0.628290 0.665888 0.000000
0.676661 0.669703 0.000000
0.724819 0.673121 0.000000
0.775326 0.680049 0.000000
0.811215 0.676631 0.000000
0.843442 0.671077 0.000000
0.872465 0.663783 0.000000
0.897612 0.654566 0.000000
0.920378 0.644648 0.000000
0.941253 0.634241 0.000000
0.960388 0.623682 0.000000
0.978058 0.612940 0.000000
0.994507 0.602258 0.000000
1.000000 0.591699 0.000000
0.000000 0.710231 0.213413
0.000000 0.710231 0.211795
0.000000 0.710140 0.208743
0.000000 0.709865 0.202243
0.000000 0.709438 0.192264
0.000000 0.709102 0.163363
0.000000 0.708614 0.112459
0.000000 0.707790 0.000000
0.000000 0.705104 0.000000
0.118898 0.701961 0.000000
0.209079 0.698512 0.000000
0.272251 0.694545 0.000000
0.325200 0.690272 0.000000
0.372564 0.685634 0.000000
0.418769 0.683101 0.000000
0.469306 0.686702 0.000000
0.518914 0.690211 0.000000
0.567590 0.693721 0.000000
0.615778 0.697108 0.000000
0.663600 0.700282 0.000000
0.710903 0.703304 0.000000
0.757992 0.706081 0.000000
0.805966 0.710903 0.000000
0.839231 0.705409 0.000000
0.868742 0.697932 0.000000
0.895293 0.688899 0.000000
0.918547 0.678492 0.000000
0.939483 0.667445 0.000000
0.958740 0.656123 0.000000
0.976532 0.644617 0.000000
0.993011 0.633204 0.000000
1.000000 0.621881 0.000000
0.000000 0.744900 0.224063
0.000000 0.744839 0.222049
0.000000 0.744656 0.219791
0.000000 0.744533 0.214359
0.000000 0.744137 0.205325
0.000000 0.743771 0.181460
0.000000 0.743404 0.140169
0.000000 0.742916 0.029023
0.000000 0.740871 0.000000
0.031220 0.737972 0.000000
0.182650 0.734890 0.000000
0.254643 0.731228 0.000000
0.312047 0.727321 0.000000
0.362158 0.723049 0.000000
0.407996 0.718441 0.000000
0.455940 0.718349 0.000000
0.505638 0.721340 0.000000
0.554467 0.724300 0.000000
0.602289 0.727138 0.000000
0.649622 0.729824 0.000000
0.696437 0.732296 0.000000
0.742641 0.734554 0.000000
0.788388 0.736568 0.000000
0.834012 0.739681 0.000000
0.864683 0.731991 0.000000
0.891600 0.722835 0.000000
0.915892 0.712306 0.000000
0.937621 0.700771 0.000000
0.956939 0.688716 0.000000
0.974823 0.676509 0.000000
0.991455 0.664363 0.000000
1.000000 0.652369 0.000000
0.000000 0.777218 0.234531
0.000000 0.777188 0.233341
0.000000 0.777096 0.231083
0.000000 0.776822 0.226261
0.000000 0.776455 0.218967
0.000000 0.776150 0.199466
0.000000 0.775875 0.164828
0.000000 0.775540 0.101808
0.000000 0.774258 0.000000
0.000000 0.771695 0.000000
0.150637 0.768826 0.000000
0.234073 0.765530 0.000000
0.296330 0.761929 0.000000
0.349767 0.758022 0.000000
0.397681 0.753872 0.000000
0.442115 0.749386 0.000000
0.491707 0.751217 0.000000
0.540429 0.753689 0.000000
0.588159 0.755978 0.000000
0.635035 0.758114 0.000000
0.681209 0.760098 0.000000
0.726711 0.761868 0.000000
0.771664 0.763363 0.000000
0.815976 0.764584 0.000000
0.859403 0.766232 0.000000
0.887541 0.756649 0.000000
0.912230 0.745907 0.000000
0.934630 0.734127 0.000000
0.954955 0.721675 0.000000
0.972930 0.708736 0.000000
0.989715 0.695796 0.000000
1.000000 0.683101 0.000000
0.000000 0.807340 0.245335
0.000000 0.807279 0.244358
0.000000 0.807126 0.242496
0.000000 0.806912 0.238529
0.000000 0.806546 0.232425
0.000000 0.806180 0.218173
0.000000 0.805966 0.187716
0.000000 0.805753 0.139223
0.000000 0.805264 0.003113
0.000000 0.802945 0.000000
0.108431 0.800290 0.000000
0.211337 0.797330 0.000000
0.279393 0.794095 0.000000
0.335607 0.790616 0.000000
0.385840 0.786801 0.000000
0.431830 0.782742 0.000000
0.476814 0.779843 0.000000
0.525689 0.781765 0.000000
0.573327 0.783536 0.000000
0.619867 0.785183 0.000000
0.665461 0.786618 0.000000
0.710323 0.787900 0.000000
0.754513 0.788907 0.000000
0.798001 0.789609 0.000000
0.840757 0.790097 0.000000
0.882383 0.790646 0.000000
0.908263 0.779232 0.000000
0.930999 0.767330 0.000000
0.951751 0.754482 0.000000
0.970794 0.741085 0.000000
0.987823 0.727535 0.000000
1.000000 0.714076 0.000000
0.000000 0.835050 0.256382
0.000000 0.834928 0.255558
0.000000 0.834867 0.254154
0.000000 0.834623 0.250675
0.000000 0.834226 0.245914
0.000000 0.833799 0.235935
0.000000 0.833646 0.209201
0.000000 0.833524 0.170779
0.000000 0.833280 0.100893
0.000000 0.831662 0.061097
0.000000 0.829374 0.054047
0.186160 0.826688 0.041321
0.261112 0.823758 0.022065
0.320806 0.820584 0.006134
0.372839 0.817197 0.000000
0.420294 0.813504 0.000000
0.464668 0.809598 0.000000
0.510460 0.808530 0.000000
0.557977 0.809812 0.000000
0.604150 0.810910 0.000000
0.649256 0.811856 0.000000
0.693568 0.812619 0.000000
0.737057 0.813138 0.000000
0.779751 0.813443 0.000000
0.821775 0.813504 0.000000
0.863035 0.813321 0.000000
0.903258 0.813230 0.000000
0.927062 0.800229 0.000000
0.948119 0.787228 0.000000
0.967498 0.773556 0.000000
0.985443 0.759457 0.000000
1.000000 0.745327 0.000000
0.000000 0.860349 0.267582
0.000000 0.860288 0.266789
0.000000 0.860166 0.265629
0.000000 0.859922 0.263218
0.000000 0.859525 0.259434
0.000000 0.859037 0.254612
0.000000 0.858915 0.231113
0.000000 0.858854 0.197452
0.000000 0.858762 0.147250
0.000000 0.857908 0.092988
0.000000 0.855802 0.089876
0.158785 0.853452 0.085451
0.242252 0.850889 0.080171
0.305486 0.848020 0.074434
0.359319 0.844968 0.066957
0.408148 0.841672 0.055940
0.453437 0.838193 0.034028
0.496071 0.834501 0.009339
0.542565 0.834653 0.000000
0.588281 0.835325 0.000000
0.633051 0.835813 0.000000
0.676722 0.836118 0.000000
0.719539 0.836210 0.000000
0.761440 0.836149 0.000000
0.802731 0.835813 0.000000
0.843259 0.835264 0.000000
0.883116 0.834440 0.000000
0.922606 0.834318 0.000000
0.944182 0.819730 0.000000
0.963897 0.805875 0.000000
0.982177 0.791470 0.000000
0.999237 0.776822 0.000000
0.000000 0.883482 0.279057
0.000000 0.883421 0.278447
0.000000 0.883299 0.277836
0.000000 0.883055 0.275853
0.000000 0.882658 0.273198
0.000000 0.882109 0.270054
0.000000 0.881956 0.251774
0.000000 0.881956 0.223545
0.000000 0.881956 0.183078
0.000000 0.881834 0.121401
0.000000 0.879973 0.118532
0.129458 0.877897 0.115755
0.223850 0.875578 0.111666
0.290196 0.873045 0.107820
0.346014 0.870298 0.102419
0.395636 0.867369 0.096895
0.441627 0.864286 0.090944
0.484901 0.860990 0.083925
0.527123 0.858183 0.074128
0.572656 0.858427 0.034668
0.616785 0.858488 0.000000
0.659907 0.858427 0.000000
0.702052 0.858183 0.000000
0.743374 0.857725 0.000000
0.783902 0.857084 0.000000
0.823697 0.856199 0.000000
0.862791 0.855100 0.000000
0.901305 0.853788 0.000000
0.940429 0.854002 0.000000
0.959991 0.837888 0.000000
0.978576 0.823392 0.000000
0.996033 0.808469 0.000000
0.000000 0.904631 0.290684
0.000000 0.904570 0.290501
0.000000 0.904448 0.289769
0.000000 0.904173 0.288792
0.000000 0.903777 0.287297
0.000000 0.903197 0.285313
0.000000 0.902953 0.272709
0.000000 0.903014 0.248020
0.000000 0.903075 0.215244
0.000000 0.903166 0.167269
0.000000 0.902007 0.146212
0.098970 0.900145 0.143099
0.207401 0.898070 0.140383
0.276524 0.895811 0.137453
0.333196 0.893400 0.133242
