其他预设/【233】日式怀旧街道调色预设208款/1.3D LUT预设（视频调色-PR-AE-PS-FCPX-达芬奇用）/3.日式城市街拍预设 (自动曝光预设)/JA – Cool Normal 1 (Auto-Exposure).cube
# Created by Adobe Lightroom plugin Export LUT (1.17.0)
# www.johnrellis.com/lightroom/exportlut.htm
# Preset: JA – Cool Normal 1 (Auto-Exposure)
# Color profile: /Library/Application Support/Adobe/Color/Profiles/Recommended/AdobeRGB1998.icc
LUT_3D_SIZE 8
DOMAIN_MIN 0.000000 0.000000 0.000000
DOMAIN_MAX 0.903226 0.903226 0.903226
0.092317 0.109651 0.111635
0.130159 0.109194 0.111757
0.253117 0.100587 0.110292
0.410559 0.065492 0.104463
0.563561 0.000000 0.095735
0.703639 0.000000 0.084993
0.831876 0.000000 0.078340
0.941924 0.000000 0.088716
0.089845 0.146365 0.111543
0.130617 0.151064 0.107973
0.248386 0.159579 0.106142
0.406256 0.155306 0.099550
0.559808 0.125216 0.089631
0.700710 0.028931 0.078553
0.829923 0.000000 0.070497
0.940795 0.000000 0.081910
0.063844 0.267063 0.104189
0.130190 0.267552 0.103639
0.262821 0.292088 0.081910
0.404974 0.291966 0.071626
0.546715 0.279271 0.063416
0.690486 0.258488 0.033722
0.823056 0.226780 0.013581
0.936797 0.186709 0.049683
0.000000 0.416815 0.075715
0.104280 0.416815 0.075166
0.250797 0.416144 0.072938
0.424170 0.452796 0.000000
0.572534 0.441047 0.000000
0.672328 0.402899 0.000000
0.810605 0.384649 0.000000
0.929656 0.358618 0.000000
0.000000 0.553216 0.000000
0.000000 0.552911 0.000000
0.236820 0.551812 0.000000
0.390753 0.560937 0.000000
0.576837 0.596643 0.000000
0.723049 0.580194 0.000000
0.816403 0.532982 0.000000
0.919219 0.502251 0.000000
0.000000 0.679042 0.000000
0.000000 0.678828 0.000000
0.216037 0.678004 0.000000
0.373510 0.676234 0.000000
0.531334 0.694209 0.000000
0.711421 0.721889 0.000000
0.852811 0.705043 0.000000
0.934600 0.648554 0.000000
0.000000 0.798917 0.000000
0.000000 0.798703 0.000000
0.196689 0.797940 0.000000
0.361181 0.796353 0.012573
0.508690 0.793637 0.053132
0.661402 0.813077 0.000000
0.823941 0.827543 0.000000
0.946563 0.802365 0.000000
0.000000 0.906126 0.103944
0.000000 0.905852 0.105257
0.192508 0.904723 0.111330
0.353155 0.902556 0.119997
0.495949 0.899046 0.133608
0.630091 0.898039 0.096437
0.762966 0.902800 0.000000
0.901396 0.901884 0.000000
0.088167 0.110201 0.154177
0.131441 0.107881 0.155856
0.259556 0.092317 0.168429
0.420050 0.000000 0.152682
0.570764 0.000000 0.148196
0.708492 0.000000 0.145357
0.834592 0.000000 0.145937
0.942779 0.000000 0.155276
0.084871 0.148196 0.152102
0.128206 0.151003 0.153628
0.258030 0.145296 0.152651
0.415564 0.124239 0.148379
0.566918 0.076814 0.143771
0.705592 0.000000 0.141115
0.832639 0.000000 0.142000
0.941650 0.000000 0.152102
0.020722 0.271641 0.161410
0.110628 0.276860 0.147341
0.263066 0.293309 0.133852
0.403754 0.283024 0.131807
0.553521 0.270481 0.128420
0.695338 0.247745 0.126192
0.825742 0.216403 0.127687
0.937713 0.179232 0.138949
0.000000 0.421271 0.151522
0.055818 0.423529 0.133547
0.246525 0.422278 0.133761
0.424872 0.453590 0.077699
0.572473 0.435950 0.046357
0.676875 0.400031 0.091768
0.813169 0.380804 0.093446
0.930571 0.355413 0.108614
0.000000 0.557061 0.134981
0.000000 0.557122 0.121309
0.229770 0.555779 0.122896
0.388739 0.561791 0.108553
0.577295 0.597162 0.000000
0.722530 0.577386 0.000000
0.815061 0.529656 0.000000
0.920165 0.500328 0.000000
0.000000 0.681483 0.116854
0.000000 0.681239 0.117800
0.210239 0.680232 0.119173
0.372320 0.678279 0.123323
0.530602 0.694423 0.049104
0.711696 0.722103 0.000000
0.852293 0.703487 0.000000
0.933898 0.646296 0.000000
0.000000 0.799985 0.127291
0.000000 0.799771 0.127657
0.192813 0.798978 0.130465
0.360082 0.797299 0.135439
0.508690 0.794491 0.143008
0.661006 0.812955 0.000000
0.823880 0.827604 0.000000
0.946105 0.801358 0.000000
0.000000 0.906371 0.163821
0.000000 0.906096 0.164340
0.191775 0.904967 0.167941
0.353002 0.902739 0.173678
0.496193 0.899168 0.182956
0.630579 0.897673 0.165194
0.762844 0.902617 0.000000
0.901305 0.901884 0.000000
0.043915 0.108614 0.289097
0.130312 0.102571 0.294591
0.267460 0.071565 0.302251
0.429206 0.000000 0.307591
0.578820 0.000000 0.314794
0.714107 0.000000 0.333043
0.840574 0.000000 0.295689
0.943694 0.000000 0.298497
0.000000 0.158968 0.286503
0.104402 0.147402 0.292760
0.266056 0.135073 0.301122
0.427405 0.117250 0.303746
0.576806 0.123201 0.315221
0.714260 0.048432 0.311345
0.838712 0.000000 0.293248
0.942657 0.000000 0.295903
0.000000 0.276921 0.283696
0.075654 0.280766 0.287114
0.256168 0.290349 0.293462
0.417487 0.280735 0.291020
0.568780 0.263890 0.287510
0.706416 0.241764 0.284916
0.831937 0.215335 0.284062
0.938872 0.191318 0.287175
0.000000 0.425238 0.292180
0.000000 0.428717 0.289006
0.236240 0.436316 0.281010
0.423560 0.453620 0.269566
0.559289 0.423011 0.265141
0.688075 0.400214 0.265476
0.819638 0.379950 0.265812
0.932036 0.357488 0.270268
0.000000 0.559350 0.285405
0.000000 0.561517 0.282750
0.217014 0.566461 0.272831
0.387274 0.562890 0.275029
0.577020 0.597528 0.244816
0.717250 0.569512 0.230655
0.807431 0.523308 0.235599
0.921996 0.499489 0.241947
0.000000 0.683314 0.282048
0.000000 0.684596 0.280766
0.199985 0.686976 0.269017
0.372076 0.684565 0.270909
0.529686 0.693843 0.261234
0.711635 0.722316 0.215824
0.848600 0.698817 0.195315
0.929595 0.642115 0.179507
0.000000 0.800961 0.284977
0.000000 0.801450 0.284489
0.185763 0.802121 0.269139
0.359197 0.800229 0.271244
0.509575 0.797147 0.275059
0.660639 0.812039 0.242954
0.823636 0.827573 0.165743
0.943236 0.798367 0.127626
0.000000 0.905943 0.299962
0.000000 0.905913 0.298589
0.192508 0.905608 0.282475
0.354406 0.903288 0.286198
0.497658 0.899596 0.291295
0.632868 0.896178 0.291539
0.763027 0.901823 0.213809
0.900816 0.901610 0.000000
0.000000 0.103456 0.435920
0.101930 0.095674 0.440528
0.267124 0.025147 0.456092
0.432746 0.000000 0.462348
0.590906 0.000000 0.452766
0.722652 0.000000 0.450324
0.840818 0.088746 0.459297
0.937346 0.204837 0.477760
0.000000 0.146059 0.435401
0.028779 0.142489 0.439582
0.256687 0.124971 0.454261
0.432258 0.081544 0.461921
0.590204 0.005158 0.450935
0.721065 0.109560 0.451331
0.839475 0.174563 0.461769
0.936034 0.249119 0.481788
0.000000 0.282750 0.423896
0.000000 0.280980 0.426642
0.229923 0.275975 0.445258
0.428138 0.275853 0.458228
0.582757 0.279881 0.450111
0.714839 0.295995 0.457069
0.834195 0.320043 0.472908
0.936919 0.280430 0.453712
0.000000 0.421820 0.426856
0.000000 0.424842 0.429236
0.225040 0.434119 0.436774
0.416236 0.447578 0.447578
0.566857 0.435645 0.443610
0.703365 0.420356 0.438972
0.827665 0.402411 0.434089
0.932067 0.385992 0.431098
0.000000 0.562799 0.429145
0.000000 0.564660 0.429084
0.212192 0.570306 0.429694
0.395880 0.577203 0.431769
0.574945 0.595331 0.427832
0.697658 0.558953 0.414984
0.810147 0.530114 0.406897
0.923064 0.509667 0.406104
0.000000 0.685115 0.419318
0.000000 0.686275 0.419043
0.205020 0.689876 0.419471
0.377630 0.693874 0.418647
0.532219 0.690394 0.420050
0.711238 0.721523 0.406775
0.839475 0.691402 0.386999
0.919371 0.639307 0.372076
0.000000 0.801663 0.413519
0.000000 0.802121 0.413428
0.201846 0.803464 0.413977
0.362280 0.804623 0.408453
0.513756 0.801144 0.410895
0.661616 0.809323 0.404150
0.823331 0.827024 0.378302
0.936675 0.794064 0.358343
0.000000 0.906004 0.414221
0.000000 0.905821 0.414527
0.221653 0.905119 0.416602
0.359533 0.903960 0.409186
0.501884 0.900114 0.412757
0.637110 0.894804 0.417639
0.764858 0.899901 0.385077
0.900023 0.900816 0.320226
0.000000 0.097017 0.564813
0.011444 0.088380 0.568322
0.246342 0.017029 0.580896
0.422766 0.000000 0.602564
0.589136 0.000000 0.603479
0.729366 0.000000 0.584375
0.847562 0.000000 0.571069
0.939605 0.162875 0.568902
0.000000 0.142733 0.563958
0.000000 0.138979 0.567407
0.234592 0.123445 0.579461
0.418158 0.078523 0.600793
0.588525 0.000000 0.603021
0.728756 0.000000 0.583642
0.846372 0.118105 0.572015
0.938415 0.216648 0.571191
0.000000 0.278416 0.554101
0.000000 0.276768 0.559197
0.206485 0.266819 0.572259
0.405554 0.268986 0.593286
0.585901 0.262699 0.600336
0.726009 0.268437 0.581842
0.841978 0.295201 0.576501
0.934142 0.338445 0.579858
0.000000 0.411200 0.545190
0.000000 0.412299 0.547112
0.200595 0.416602 0.553338
0.389197 0.426734 0.577569
0.579889 0.434577 0.594476
0.717494 0.439429 0.582879
0.833402 0.451881 0.586938
0.926146 0.474495 0.597223
0.000000 0.550011 0.550347
0.000000 0.552178 0.552117
0.200381 0.559319 0.558190
0.390936 0.571618 0.568841
0.569207 0.588373 0.583886
0.701534 0.574884 0.577996
0.822141 0.559228 0.571191
0.922210 0.544427 0.565423
0.000000 0.687495 0.555627
0.000000 0.688502 0.555901
0.190127 0.691646 0.556756
0.380377 0.696162 0.559228
0.544732 0.701198 0.563195
0.710048 0.719051 0.565789
0.819181 0.680262 0.543542
0.911803 0.645228 0.528618
0.000000 0.802609 0.542535
0.000000 0.803006 0.542504
0.188235 0.804135 0.542473
0.368811 0.805570 0.543664
0.521416 0.806577 0.544091
0.664118 0.803098 0.546136
0.823117 0.825681 0.542779
0.926574 0.788266 0.518090
0.000000 0.906035 0.532891
0.000000 0.905852 0.532982
0.210300 0.905089 0.533379
0.371008 0.903349 0.535180
0.510002 0.900572 0.535210
0.643275 0.895048 0.539300
0.769284 0.896300 0.532464
0.899413 0.899443 0.503410
0.000000 0.090974 0.683711
0.000000 0.083040 0.686183
0.222751 0.024689 0.694667
0.392432 0.000000 0.709529
0.567803 0.000000 0.728267
0.724178 0.000000 0.725368
0.848264 0.000000 0.700374
0.941314 0.044404 0.670893
0.000000 0.141543 0.682643
0.000000 0.138125 0.685084
0.211429 0.125551 0.693477
0.388251 0.097292 0.708156
0.566949 0.001587 0.727840
0.723720 0.000000 0.724910
0.847654 0.030243 0.700130
0.940307 0.157504 0.671992
0.000000 0.260075 0.677028
0.000000 0.260349 0.679377
0.185458 0.261540 0.687800
0.378332 0.262943 0.702724
0.562310 0.264805 0.723903
0.722072 0.258122 0.723201
0.845335 0.271061 0.699397
0.936584 0.305486 0.676051
0.000000 0.404761 0.656275
0.000000 0.405463 0.659724
0.186343 0.409277 0.672450
0.365606 0.409705 0.691066
0.552758 0.423316 0.713649
0.718776 0.425452 0.719692
0.841001 0.430884 0.698695
0.929717 0.452003 0.684596
0.000000 0.534264 0.659571
0.000000 0.534997 0.660609
0.171695 0.537987 0.664149
0.356817 0.543908 0.670405
0.535851 0.560113 0.695613
0.713832 0.575830 0.714229
0.832700 0.579644 0.701350
0.919005 0.593957 0.700679
0.000000 0.669276 0.665492
0.000000 0.670466 0.666529
0.175113 0.674617 0.670069
0.365789 0.681971 0.676570
0.536828 0.693263 0.686976
0.705379 0.712581 0.705379
0.817380 0.698726 0.698024
0.909758 0.686091 0.691585
0.000000 0.802304 0.670832
0.000000 0.802853 0.671199
0.164614 0.804593 0.672724
0.358190 0.806210 0.673121
0.524285 0.807095 0.674525
0.678584 0.808591 0.681849
0.822293 0.823331 0.690394
0.908415 0.783627 0.663966
0.000000 0.906096 0.654994
0.000000 0.905882 0.654810
0.190707 0.905058 0.654017
0.361028 0.903288 0.653101
0.518059 0.899565 0.656947
0.659358 0.894652 0.665248
0.777920 0.889738 0.668940
0.898650 0.897429 0.666835
0.000000 0.094118 0.798062
0.000000 0.088746 0.799435
0.199680 0.062379 0.804227
0.367987 0.000000 0.812741
0.530297 0.000000 0.824552
0.691096 0.000000 0.833829
0.837156 0.000000 0.831266
0.935058 0.000000 0.793149
0.000000 0.146548 0.797024
0.000000 0.143954 0.798398
0.189822 0.134768 0.803250
0.364752 0.117037 0.811734
0.528923 0.091157 0.823606
0.691005 0.064912 0.833433
0.836851 0.020996 0.830869
0.934386 0.138766 0.793027
0.000000 0.261997 0.792569
0.000000 0.261875 0.793973
0.167483 0.261967 0.798947
0.357458 0.262058 0.807767
0.525597 0.263767 0.820005
0.690852 0.268711 0.832029
0.835538 0.265354 0.829465
0.931914 0.290196 0.792721
0.000000 0.405524 0.780453
0.000000 0.405341 0.782437
0.138827 0.393774 0.789609
0.346349 0.398199 0.799252
0.520317 0.408240 0.812619
0.690944 0.425147 0.828946
0.833158 0.422248 0.826902
0.927550 0.434089 0.792416
0.000000 0.525231 0.768521
0.000000 0.524956 0.768826
0.126894 0.523888 0.769833
0.334417 0.528008 0.781216
0.505303 0.535332 0.799588
0.683680 0.560845 0.819059
0.829709 0.568109 0.823178
0.920653 0.576440 0.793973
0.000000 0.651667 0.772335
0.000000 0.651789 0.772610
0.124056 0.652399 0.773709
0.323003 0.653193 0.775692
0.485817 0.655909 0.778744
0.667597 0.679774 0.800839
0.824918 0.703212 0.818051
0.910491 0.709651 0.800870
0.000000 0.781643 0.776547
0.000000 0.782071 0.776944
0.128878 0.783627 0.778134
0.332586 0.786282 0.780453
0.503319 0.790768 0.784421
0.667781 0.799100 0.792294
0.818204 0.818204 0.811002
0.897490 0.806851 0.803952
0.000000 0.904387 0.776364
0.000000 0.904295 0.776272
0.149874 0.903838 0.775906
0.344640 0.902586 0.775631
0.510430 0.899199 0.776028
0.662470 0.893675 0.778012
0.795102 0.888518 0.789731
0.897368 0.895293 0.800015
0.000000 0.127352 0.896880
0.000000 0.124575 0.897307
0.182376 0.114778 0.898833
0.346471 0.094514 0.901457
0.495064 0.060060 0.905150
0.642115 0.000000 0.909636
0.783230 0.000000 0.910918
0.915618 0.029755 0.908537
0.000000 0.172610 0.896269
0.000000 0.171206 0.896727
0.178714 0.166079 0.898222
0.345617 0.156802 0.900877
0.494972 0.145205 0.904540
0.642237 0.136172 0.909056
0.783352 0.140749 0.910521
0.915282 0.148775 0.908141
0.000000 0.278721 0.893858
0.000000 0.278325 0.894316
0.172488 0.277592 0.895872
0.344488 0.276341 0.898589
0.495460 0.276005 0.902342
0.643153 0.279942 0.906920
0.784024 0.287755 0.909087
0.913909 0.290440 0.906767
0.000000 0.410224 0.888487
0.000000 0.401251 0.889342
0.162661 0.398444 0.891173
0.342931 0.401160 0.894072
0.496437 0.406470 0.898131
0.644892 0.416693 0.902983
0.785733 0.429938 0.906523
0.911589 0.429908 0.904326
0.000000 0.526787 0.879423
0.000000 0.526482 0.880003
0.174166 0.525963 0.882139
0.349310 0.527794 0.886137
0.490944 0.525994 0.891478
0.645319 0.542840 0.896971
0.789914 0.568902 0.902770
0.907927 0.570245 0.900633
0.000000 0.641596 0.876555
0.000000 0.641260 0.876524
0.125246 0.639796 0.876432
0.306828 0.636683 0.876219
0.476539 0.641138 0.879301
0.641657 0.658503 0.887358
0.790951 0.690120 0.895354
0.903502 0.701411 0.896025
0.000000 0.759396 0.876188
0.000000 0.759335 0.876158
0.126925 0.758907 0.876097
0.315435 0.758358 0.875883
0.472511 0.759060 0.875273
0.621393 0.762051 0.874174
0.784360 0.788205 0.882750
0.898894 0.813382 0.891295
0.000000 0.878660 0.875242
0.000000 0.878721 0.875242
0.136477 0.878843 0.875181
0.330449 0.878965 0.875029
0.491585 0.879057 0.874815
0.643244 0.879362 0.874693
0.784817 0.881224 0.876005
0.894774 0.892515 0.887053
