其他预设/【233】日式怀旧街道调色预设208款/1.3D LUT预设（视频调色-PR-AE-PS-FCPX-达芬奇用）/3.日式城市街拍预设 (自动曝光预设)/JA – Controlled Contrast 1 (Auto-Exposure).cube
# Created by Adobe Lightroom plugin Export LUT (1.17.0)
# www.johnrellis.com/lightroom/exportlut.htm
# Preset: JA – Controlled Contrast 1 (Auto-Exposure)
# Color profile: /Library/Application Support/Adobe/Color/Profiles/Recommended/AdobeRGB1998.icc
LUT_3D_SIZE 5
DOMAIN_MIN 0.000000 0.000000 0.000000
DOMAIN_MAX 0.903226 0.903226 0.903226
0.089021 0.087709 0.087587
0.198459 0.095918 0.081697
0.538384 0.161135 0.000000
0.839719 0.239384 0.000000
1.000000 0.276249 0.000000
0.097597 0.160922 0.080446
0.169894 0.154086 0.092561
0.488350 0.238376 0.000000
0.818173 0.308141 0.000000
1.000000 0.330907 0.000000
0.154269 0.412329 0.000000
0.281010 0.422889 0.000000
0.467903 0.403510 0.000000
0.768948 0.452399 0.000000
0.999969 0.461799 0.000000
0.233921 0.708888 0.000000
0.353155 0.711330 0.000000
0.591882 0.714870 0.000000
0.791226 0.680415 0.000000
0.986145 0.649805 0.000000
0.290440 0.933196 0.000000
0.387335 0.932219 0.000000
0.600000 0.928832 0.000000
0.824063 0.916777 0.000000
0.988861 0.879088 0.347356
0.027558 0.120363 0.202182
0.196933 0.098146 0.196475
0.574975 0.000000 0.154391
0.856718 0.187137 0.000000
1.000000 0.262242 0.000000
0.032563 0.195193 0.194522
0.192447 0.188540 0.189303
0.538872 0.223545 0.148928
0.838773 0.279179 0.000000
1.000000 0.320470 0.000000
0.000000 0.436103 0.162570
0.218173 0.447852 0.132235
0.493996 0.432898 0.189731
0.775540 0.440650 0.000000
1.000000 0.458503 0.000000
0.000000 0.722499 0.000000
0.274784 0.723964 0.000000
0.576196 0.728511 0.000000
0.796628 0.692744 0.210697
0.987671 0.652003 0.000000
0.148379 0.939117 0.000000
0.310582 0.937865 0.000000
0.569238 0.933349 0.000000
0.819974 0.919585 0.000000
0.989654 0.880674 0.349065
0.000000 0.239933 0.525719
0.000000 0.119661 0.533898
0.529992 0.000000 0.531060
0.846830 0.144686 0.480629
1.000000 0.437995 0.511467
0.000000 0.326238 0.511650
0.000000 0.266789 0.523400
0.528527 0.218845 0.527947
0.853574 0.312261 0.491920
1.000000 0.444648 0.485389
0.000000 0.515251 0.519493
0.000000 0.514427 0.519127
0.526452 0.507195 0.517845
0.824521 0.517144 0.483925
1.000000 0.501976 0.408576
0.000000 0.746975 0.458534
0.000000 0.751186 0.441596
0.530571 0.747646 0.470069
0.796475 0.729152 0.556756
0.982544 0.662257 0.393194
0.000000 0.953155 0.314824
0.000000 0.952636 0.291478
0.502739 0.940917 0.356207
0.795254 0.929381 0.353857
0.974762 0.894285 0.594873
0.000000 0.350408 0.788876
0.000000 0.277379 0.794186
0.380133 0.164889 0.803738
0.794583 0.279210 0.797360
0.972839 0.510674 0.752804
0.000000 0.414923 0.782254
0.000000 0.370306 0.787930
0.357305 0.267521 0.800351
0.793820 0.376806 0.795254
0.973632 0.558831 0.760311
0.000000 0.568322 0.777523
0.000000 0.552239 0.777249
0.330083 0.509361 0.785428
0.792752 0.576776 0.790066
0.978546 0.686061 0.784390
0.000000 0.778103 0.784451
0.000000 0.777493 0.784207
0.340368 0.773983 0.783169
0.795132 0.772915 0.786801
0.973938 0.773465 0.760983
0.000000 0.962921 0.699336
0.000000 0.962371 0.694575
0.406165 0.952544 0.695277
0.785977 0.931212 0.748714
0.955169 0.915740 0.815213
0.000000 0.444099 0.966033
0.000000 0.426978 0.966644
0.154482 0.352667 0.969055
0.703151 0.472938 0.964324
0.949523 0.601434 0.953796
0.000000 0.485542 0.964385
0.000000 0.469154 0.965057
0.158022 0.406043 0.967498
0.706844 0.517723 0.962676
0.949126 0.633173 0.952789
0.000000 0.604211 0.959503
0.000000 0.587030 0.960388
0.258030 0.577661 0.960449
0.705989 0.622980 0.958465
0.948241 0.717250 0.950256
0.000000 0.759945 0.957610
0.000000 0.753384 0.957580
0.000000 0.734371 0.956390
0.675929 0.753262 0.950805
0.947295 0.826413 0.946868
0.000000 0.952911 0.953063
0.000000 0.952361 0.952758
0.000000 0.948974 0.950774
0.673487 0.941009 0.945830
0.947845 0.939147 0.944762
