其他预设/【233】日式怀旧街道调色预设208款/1.3D LUT预设（视频调色-PR-AE-PS-FCPX-达芬奇用）/3.日式城市街拍预设 (自动曝光预设)/JA – Controlled Contrast 2 (Auto-Exposure).cube
# Created by Adobe Lightroom plugin Export LUT (1.17.0)
# www.johnrellis.com/lightroom/exportlut.htm
# Preset: JA – Controlled Contrast 2 (Auto-Exposure)
# Color profile: /Library/Application Support/Adobe/Color/Profiles/Recommended/AdobeRGB1998.icc
LUT_3D_SIZE 5
DOMAIN_MIN 0.000000 0.000000 0.000000
DOMAIN_MAX 0.903226 0.903226 0.903226
0.096010 0.089631 0.085206
0.220005 0.057374 0.080415
0.563745 0.000000 0.000000
0.787533 0.000000 0.000000
0.997375 0.000000 0.000000
0.105867 0.162814 0.080110
0.209964 0.185458 0.064179
0.574060 0.203799 0.000000
0.796139 0.000000 0.000000
1.000000 0.000000 0.000000
0.189822 0.453651 0.013001
0.290532 0.439734 0.000000
0.514458 0.463081 0.000000
0.822995 0.457527 0.000000
1.000000 0.356634 0.000000
0.325505 0.620508 0.223972
0.367773 0.612146 0.213657
0.482429 0.593103 0.163210
0.706355 0.645533 0.000000
0.993957 0.647944 0.000000
0.477852 0.845823 0.383459
0.505577 0.842313 0.378576
0.592248 0.829984 0.360876
0.732174 0.842466 0.286412
0.953765 0.874449 0.000000
0.011902 0.107790 0.223636
0.240909 0.000000 0.226902
0.560937 0.000000 0.241154
0.781369 0.000000 0.204410
0.994324 0.000000 0.173007
0.064668 0.227756 0.208499
0.254093 0.240970 0.232303
0.566796 0.149264 0.208133
0.788540 0.000000 0.201114
0.996521 0.000000 0.178225
0.190951 0.481788 0.239445
0.328557 0.475868 0.276188
0.524651 0.481147 0.199527
0.812345 0.471901 0.238102
1.000000 0.381750 0.203311
0.371344 0.639765 0.348425
0.408911 0.631922 0.345434
0.500572 0.602167 0.313115
0.710048 0.655818 0.179507
0.992187 0.663996 0.197543
0.485634 0.854459 0.439033
0.512200 0.850828 0.434058
0.596277 0.838071 0.415778
0.732204 0.843900 0.362066
0.951202 0.876616 0.000000
0.000000 0.235508 0.547356
0.244419 0.207340 0.551171
0.537682 0.183566 0.543786
0.739773 0.237308 0.529656
0.977203 0.000000 0.508843
0.223972 0.389471 0.536278
0.336614 0.381262 0.541161
0.537987 0.347265 0.540215
0.748348 0.331121 0.537652
0.976104 0.184146 0.512627
0.298344 0.533196 0.513573
0.388586 0.532708 0.518547
0.539361 0.535088 0.533593
0.772976 0.500938 0.523949
0.979217 0.454902 0.512718
0.401831 0.684352 0.520836
0.444587 0.684657 0.525414
0.552300 0.676631 0.528618
0.720638 0.689387 0.485695
0.985443 0.711757 0.549004
0.488716 0.879850 0.567376
0.516258 0.878630 0.566766
0.604913 0.867155 0.561059
0.725704 0.848203 0.511620
0.943694 0.883421 0.414984
0.298466 0.446143 0.783505
0.349157 0.425330 0.786435
0.546136 0.409613 0.793545
0.753872 0.382483 0.780972
0.931884 0.420264 0.766842
0.376989 0.527947 0.777890
0.409766 0.508598 0.781552
0.555474 0.476631 0.790097
0.754574 0.444099 0.780087
0.930663 0.469398 0.767544
0.407965 0.641596 0.765255
0.458228 0.642878 0.768124
0.585595 0.630915 0.778073
0.756527 0.593591 0.777066
0.939696 0.574548 0.766720
0.440528 0.760952 0.743923
0.483650 0.761166 0.746487
0.602686 0.761227 0.754330
0.754177 0.760586 0.766537
0.953185 0.739040 0.763394
0.562310 0.907836 0.765682
0.587945 0.907195 0.767056
0.658686 0.904601 0.766751
0.752499 0.890501 0.745602
0.929320 0.896544 0.682734
0.525963 0.641474 0.949096
0.532586 0.624201 0.950530
0.625025 0.615686 0.951873
0.763790 0.592889 0.954376
0.922789 0.564782 0.948943
0.582147 0.696681 0.945861
0.585626 0.680934 0.947326
0.646357 0.658442 0.949859
0.772122 0.635859 0.952636
0.923156 0.603784 0.947936
0.587335 0.762203 0.941924
0.618585 0.763577 0.942351
0.708370 0.767880 0.943877
0.794247 0.741360 0.947906
0.924498 0.706294 0.945220
0.615412 0.850401 0.935302
0.642481 0.851530 0.935698
0.721279 0.854917 0.937407
0.829801 0.858549 0.941192
0.927092 0.832609 0.941497
0.649928 0.945068 0.926818
0.671290 0.944060 0.927184
0.738705 0.940734 0.928618
0.835538 0.935851 0.931456
0.927306 0.931975 0.935851
