其他预设/【233】日式怀旧街道调色预设208款/1.3D LUT预设（视频调色-PR-AE-PS-FCPX-达芬奇用）/3.日式城市街拍预设 (自动曝光预设)/JA – Static Pop 1 (Auto-Exposure).cube
# Created by Adobe Lightroom plugin Export LUT (1.17.0)
# www.johnrellis.com/lightroom/exportlut.htm
# Preset: JA – Static Pop 1 (Auto-Exposure)
# Color profile: /Library/Application Support/Adobe/Color/Profiles/Recommended/AdobeRGB1998.icc
LUT_3D_SIZE 32
0.082673 0.085573 0.088777
0.090822 0.085481 0.088563
0.101991 0.085908 0.088197
0.124788 0.086366 0.087343
0.157076 0.087495 0.085756
0.196139 0.089296 0.083436
0.240574 0.092348 0.079988
0.289403 0.095766 0.074678
0.342412 0.100282 0.067292
0.398718 0.105898 0.053376
0.458198 0.111299 0.020203
0.519036 0.117494 0.000000
0.580224 0.124147 0.000000
0.640131 0.130465 0.000000
0.697414 0.136812 0.000000
0.751034 0.142763 0.000000
0.798611 0.147524 0.000000
0.840330 0.152499 0.000000
0.876829 0.156985 0.000000
0.909819 0.161440 0.000000
0.939696 0.165896 0.000000
0.966674 0.170077 0.000000
0.990814 0.174014 0.000000
1.000000 0.177768 0.000000
1.000000 0.181155 0.000000
1.000000 0.184207 0.000000
1.000000 0.187076 0.000000
1.000000 0.189578 0.000000
1.000000 0.191226 0.000000
1.000000 0.192386 0.000000
1.000000 0.193118 0.000000
1.000000 0.192752 0.000000
0.082277 0.092317 0.088808
0.090425 0.092531 0.088563
0.101930 0.093172 0.088167
0.124910 0.094392 0.086946
0.157290 0.096223 0.085267
0.196323 0.099153 0.083070
0.240818 0.102327 0.079225
0.289616 0.106569 0.074067
0.342504 0.111330 0.066499
0.398932 0.116854 0.051484
0.458350 0.122560 0.017334
0.519219 0.128664 0.000000
0.580285 0.134920 0.000000
0.640253 0.141299 0.000000
0.697566 0.147372 0.000000
0.751034 0.152682 0.000000
0.798550 0.157778 0.000000
0.840299 0.161715 0.000000
0.876799 0.165805 0.000000
0.909789 0.169711 0.000000
0.939666 0.173495 0.000000
0.966644 0.176913 0.000000
0.990784 0.180575 0.000000
1.000000 0.183505 0.000000
1.000000 0.186648 0.000000
1.000000 0.189639 0.000000
1.000000 0.191897 0.000000
1.000000 0.193973 0.000000
1.000000 0.195590 0.000000
1.000000 0.196628 0.000000
1.000000 0.196963 0.000000
1.000000 0.196475 0.000000
0.082063 0.101900 0.088472
0.091554 0.102144 0.088228
0.101778 0.102113 0.088197
0.125124 0.104189 0.086854
0.157534 0.107027 0.085054
0.196628 0.110292 0.082460
0.241062 0.114443 0.078737
0.289769 0.119051 0.073396
0.342718 0.124422 0.065156
0.399084 0.130098 0.049195
0.458503 0.136385 0.013611
0.519341 0.142641 0.000000
0.580407 0.148836 0.000000
0.640375 0.154849 0.000000
0.697505 0.160647 0.000000
0.751156 0.165286 0.000000
0.798611 0.169955 0.000000
0.840330 0.173495 0.000000
0.876829 0.176699 0.000000
0.909758 0.180148 0.000000
0.939666 0.183139 0.000000
0.966613 0.186130 0.000000
0.990753 0.189090 0.000000
1.000000 0.191409 0.000000
1.000000 0.194034 0.000000
1.000000 0.196292 0.000000
1.000000 0.198276 0.000000
1.000000 0.200015 0.000000
1.000000 0.201114 0.000000
1.000000 0.201907 0.000000
1.000000 0.201999 0.000000
1.000000 0.201175 0.000000
0.081849 0.121981 0.087984
0.091707 0.122133 0.087709
0.103395 0.122133 0.087373
0.123995 0.121889 0.087526
0.157229 0.126558 0.084504
0.197208 0.131716 0.081483
0.241520 0.136751 0.077424
0.290379 0.142336 0.071626
0.343175 0.148531 0.062593
0.399603 0.154971 0.043366
0.458839 0.161837 0.006012
0.519738 0.168460 0.000000
0.580652 0.174899 0.000000
0.640406 0.180789 0.000000
0.697780 0.185672 0.000000
0.751247 0.190188 0.000000
0.798642 0.193271 0.000000
0.840330 0.196231 0.000000
0.876799 0.198337 0.000000
0.909667 0.200381 0.000000
0.939574 0.202457 0.000000
0.966522 0.204105 0.000000
0.990661 0.206088 0.000000
1.000000 0.207553 0.000000
1.000000 0.209201 0.000000
1.000000 0.210422 0.000000
1.000000 0.211460 0.000000
1.000000 0.212467 0.000000
1.000000 0.213077 0.000000
1.000000 0.213046 0.000000
1.000000 0.212497 0.000000
1.000000 0.211307 0.000000
0.080934 0.148806 0.087160
0.091524 0.149050 0.086854
0.104341 0.149264 0.086427
0.126864 0.149142 0.085908
0.153140 0.148379 0.085969
0.195499 0.157382 0.080232
0.241520 0.165072 0.075563
0.291264 0.172213 0.068757
0.344121 0.179355 0.058595
0.400305 0.186954 0.032715
0.459510 0.194369 0.000000
0.520226 0.201602 0.000000
0.581079 0.208133 0.000000
0.640803 0.214023 0.000000
0.697993 0.218753 0.000000
0.751369 0.222751 0.000000
0.798703 0.225040 0.000000
0.840269 0.226505 0.000000
0.876707 0.227329 0.000000
0.909606 0.228153 0.000000
0.939452 0.228794 0.000000
0.966430 0.229465 0.000000
0.990509 0.229862 0.000000
1.000000 0.230198 0.000000
1.000000 0.230533 0.000000
1.000000 0.230533 0.000000
1.000000 0.230838 0.000000
1.000000 0.230472 0.000000
1.000000 0.230167 0.000000
1.000000 0.229374 0.000000
1.000000 0.227848 0.000000
1.000000 0.226108 0.000000
0.079469 0.181430 0.085481
0.091218 0.181796 0.085084
0.105135 0.182254 0.084565
0.129976 0.183200 0.083375
0.158663 0.181918 0.083406
0.188113 0.180270 0.082795
0.237156 0.193088 0.075013
0.288914 0.203677 0.066194
0.344884 0.213931 0.050874
0.401190 0.222385 0.020142
0.460182 0.230808 0.000000
0.520897 0.238499 0.000000
0.581476 0.245396 0.000000
0.641321 0.251133 0.000000
0.698451 0.256016 0.000000
0.751644 0.259068 0.000000
0.798825 0.260655 0.000000
0.840208 0.261326 0.000000
0.876646 0.260960 0.000000
0.909514 0.260594 0.000000
0.939330 0.259770 0.000000
0.966247 0.258824 0.000000
0.990295 0.258030 0.000000
1.000000 0.257267 0.000000
1.000000 0.256291 0.000000
1.000000 0.255131 0.000000
1.000000 0.254002 0.000000
1.000000 0.252659 0.000000
1.000000 0.251255 0.000000
1.000000 0.249363 0.000000
1.000000 0.247135 0.000000
1.000000 0.244541 0.000000
0.076722 0.219577 0.082673
0.090333 0.219791 0.082246
0.105440 0.220310 0.081636
0.132265 0.221256 0.080598
0.164462 0.221530 0.079347
0.196597 0.219303 0.079347
0.227787 0.216800 0.078950
0.281804 0.232395 0.067384
0.338964 0.245792 0.047364
0.399420 0.258305 0.008728
0.461097 0.269169 0.000000
0.521721 0.277623 0.000000
0.582300 0.284947 0.000000
0.642023 0.291020 0.000000
0.699062 0.295415 0.000000
0.752010 0.298192 0.000000
0.799008 0.299168 0.000000
0.840299 0.298680 0.000000
0.876555 0.297368 0.000000
0.909392 0.295506 0.000000
0.939147 0.293675 0.000000
0.966033 0.291447 0.000000
0.990021 0.289464 0.000000
1.000000 0.287083 0.000000
1.000000 0.284947 0.000000
1.000000 0.282414 0.000000
1.000000 0.280217 0.000000
1.000000 0.277714 0.000000
1.000000 0.275120 0.000000
1.000000 0.272435 0.000000
1.000000 0.269230 0.000000
1.000000 0.265812 0.000000
0.072114 0.262303 0.077943
0.087892 0.262669 0.077394
0.105074 0.263066 0.076997
0.134707 0.264073 0.075319
0.169894 0.265507 0.073274
0.205325 0.263859 0.072450
0.239353 0.260746 0.072358
0.271672 0.257328 0.071962
0.329412 0.274632 0.052979
0.391821 0.290715 0.001892
0.455604 0.304723 0.000000
0.521935 0.317571 0.000000
0.583398 0.325963 0.000000
0.642908 0.332219 0.000000
0.699794 0.336553 0.000000
0.752529 0.339025 0.000000
0.799252 0.339269 0.000000
0.840330 0.337835 0.000000
0.876493 0.335607 0.000000
0.909239 0.332586 0.000000
0.938933 0.329442 0.000000
0.965728 0.326177 0.000000
0.989715 0.322789 0.000000
1.000000 0.319371 0.000000
1.000000 0.315770 0.000000
1.000000 0.312352 0.000000
1.000000 0.308721 0.000000
1.000000 0.305119 0.000000
1.000000 0.301579 0.000000
1.000000 0.297673 0.000000
1.000000 0.293614 0.000000
1.000000 0.289128 0.000000
0.064454 0.309514 0.070527
0.084199 0.309819 0.069825
0.103548 0.310216 0.069245
0.136019 0.311009 0.067567
0.174228 0.312535 0.064424
0.213535 0.313542 0.061097
0.250645 0.310063 0.060487
0.286137 0.306096 0.059480
0.319829 0.301610 0.059052
0.380041 0.319615 0.009888
0.446723 0.338018 0.000000
0.512871 0.352575 0.000000
0.579828 0.365423 0.000000
0.644068 0.374823 0.000000
0.700618 0.379187 0.000000
0.753017 0.381292 0.000000
0.799527 0.380774 0.000000
0.840421 0.378637 0.000000
0.876402 0.375097 0.000000
0.909087 0.371069 0.000000
0.938689 0.366949 0.000000
0.965423 0.362341 0.000000
0.989319 0.357885 0.000000
1.000000 0.353216 0.000000
1.000000 0.348486 0.000000
1.000000 0.343603 0.000000
1.000000 0.338994 0.000000
1.000000 0.334234 0.000000
1.000000 0.329534 0.000000
1.000000 0.324681 0.000000
1.000000 0.319677 0.000000
1.000000 0.314305 0.000000
0.048493 0.360815 0.053895
0.076783 0.361089 0.052277
0.100069 0.361395 0.050141
0.136568 0.362188 0.046815
0.177615 0.363531 0.038453
0.220218 0.365179 0.026490
0.261692 0.363775 0.019409
0.300175 0.359411 0.016754
0.336919 0.354528 0.014282
0.371435 0.348974 0.011627
0.432776 0.366217 0.000000
0.502098 0.385687 0.000000
0.569726 0.400732 0.000000
0.635981 0.412573 0.000000
0.699611 0.421393 0.000000
0.753780 0.424414 0.000000
0.799985 0.423285 0.000000
0.840543 0.420020 0.000000
0.876310 0.415625 0.000000
0.908843 0.410437 0.000000
0.938415 0.405249 0.000000
0.965026 0.399664 0.000000
0.988891 0.393896 0.000000
1.000000 0.388098 0.000000
1.000000 0.382147 0.000000
1.000000 0.376226 0.000000
1.000000 0.370397 0.000000
1.000000 0.364630 0.000000
1.000000 0.358801 0.000000
1.000000 0.353002 0.000000
1.000000 0.347051 0.000000
1.000000 0.340856 0.000000
0.005463 0.415106 0.006744
0.064607 0.415381 0.004303
0.093751 0.415778 0.000946
0.135042 0.416541 0.000000
0.179995 0.417487 0.000000
0.225284 0.419104 0.000000
0.271489 0.420996 0.000000
0.313146 0.416541 0.000000
0.352850 0.410895 0.000000
0.390387 0.404883 0.000000
0.425605 0.398199 0.000000
0.486976 0.414038 0.000000
0.557305 0.433509 0.000000
0.625299 0.448157 0.000000
0.689357 0.458564 0.000000
0.748623 0.464851 0.000000
0.800351 0.466407 0.000000
0.840574 0.462318 0.000000
0.876219 0.456794 0.000000
0.908659 0.450752 0.000000
0.938079 0.444312 0.000000
0.964630 0.437629 0.000000
0.988373 0.430854 0.000000
1.000000 0.423865 0.000000
1.000000 0.416754 0.000000
1.000000 0.409735 0.000000
1.000000 0.402838 0.000000
1.000000 0.395972 0.000000
1.000000 0.389075 0.000000
1.000000 0.382330 0.000000
1.000000 0.375402 0.000000
1.000000 0.368353 0.000000
0.000000 0.471626 0.000000
0.030549 0.471870 0.000000
0.084443 0.472114 0.000000
0.132113 0.472602 0.000000
0.180819 0.473640 0.000000
0.229252 0.475013 0.000000
0.277592 0.476600 0.000000
0.324498 0.475990 0.000000
0.367132 0.470069 0.000000
0.407538 0.463478 0.000000
0.445563 0.456153 0.000000
0.481117 0.448371 0.000000
0.541131 0.461891 0.000000
0.611444 0.480537 0.000000
0.678035 0.493996 0.000000
0.738399 0.501732 0.000000
0.791653 0.504601 0.000000
0.837980 0.503593 0.000000
0.876097 0.498604 0.000000
0.908385 0.491585 0.000000
0.937713 0.484077 0.000000
0.964080 0.476326 0.000000
0.987732 0.468330 0.000000
1.000000 0.460304 0.000000
1.000000 0.452094 0.000000
1.000000 0.444007 0.000000
1.000000 0.435920 0.000000
1.000000 0.428016 0.000000
1.000000 0.420233 0.000000
1.000000 0.412451 0.000000
1.000000 0.404639 0.000000
1.000000 0.396674 0.000000
0.000000 0.528862 0.000000
0.000000 0.529107 0.000000
0.070344 0.529320 0.000000
0.127138 0.529778 0.000000
0.180606 0.530602 0.000000
0.231632 0.531670 0.000000
0.282261 0.533074 0.000000
0.332616 0.534478 0.000000
0.379095 0.530327 0.000000
0.422217 0.523461 0.000000
0.462959 0.515770 0.000000
0.501183 0.507378 0.000000
0.536919 0.498573 0.000000
0.594415 0.508812 0.000000
0.662989 0.525780 0.000000
0.727077 0.537133 0.000000
0.781552 0.541222 0.000000
0.829038 0.540856 0.000000
0.870603 0.537560 0.000000
0.907683 0.532494 0.000000
0.937255 0.524254 0.000000
0.963561 0.515343 0.000000
0.987030 0.506371 0.000000
1.000000 0.497108 0.000000
1.000000 0.487892 0.000000
1.000000 0.478676 0.000000
1.000000 0.469612 0.000000
1.000000 0.460700 0.000000
1.000000 0.451850 0.000000
1.000000 0.443122 0.000000
1.000000 0.434424 0.000000
1.000000 0.425544 0.000000
0.000000 0.585687 0.000000
0.000000 0.585840 0.000000
0.039948 0.586053 0.000000
0.120363 0.586419 0.000000
0.178347 0.586908 0.000000
0.232670 0.587701 0.000000
0.285344 0.588739 0.000000
0.337255 0.589899 0.000000
0.388342 0.590082 0.000000
0.433875 0.583124 0.000000
0.476997 0.575189 0.000000
0.517906 0.566705 0.000000
0.556115 0.557366 0.000000
0.591913 0.547601 0.000000
0.644984 0.553491 0.000000
0.711482 0.568566 0.000000
0.769986 0.576135 0.000000
0.819181 0.577081 0.000000
0.862058 0.574304 0.000000
0.900298 0.569482 0.000000
0.934142 0.563043 0.000000
0.962860 0.554772 0.000000
0.986236 0.544640 0.000000
1.000000 0.534356 0.000000
1.000000 0.524041 0.000000
1.000000 0.513725 0.000000
1.000000 0.503624 0.000000
1.000000 0.493721 0.000000
1.000000 0.483986 0.000000
1.000000 0.474311 0.000000
1.000000 0.464759 0.000000
1.000000 0.455055 0.000000
0.000000 0.640528 0.000000
0.000000 0.640650 0.000000
0.000000 0.640681 0.000000
0.112825 0.641016 0.000000
0.175845 0.641413 0.000000
0.232547 0.642023 0.000000
0.286717 0.642603 0.000000
0.339849 0.643336 0.000000
0.392462 0.644190 0.000000
0.442267 0.640864 0.000000
0.487404 0.632990 0.000000
0.530358 0.624384 0.000000
0.570916 0.615015 0.000000
0.609155 0.605127 0.000000
0.644770 0.594507 0.000000
0.693141 0.596002 0.000000
0.754788 0.607416 0.000000
0.807584 0.611292 0.000000
0.852720 0.609979 0.000000
0.892241 0.605646 0.000000
0.927214 0.599329 0.000000
0.957916 0.591608 0.000000
0.984558 0.582727 0.000000
1.000000 0.571832 0.000000
1.000000 0.560388 0.000000
1.000000 0.549126 0.000000
1.000000 0.537987 0.000000
1.000000 0.527123 0.000000
1.000000 0.516411 0.000000
1.000000 0.505852 0.000000
1.000000 0.495460 0.000000
1.000000 0.484871 0.000000
0.000000 0.692470 0.000000
0.000000 0.692531 0.000000
0.000000 0.692561 0.000000
0.104250 0.692714 0.000000
0.171939 0.692836 0.000000
0.231235 0.693172 0.000000
0.286473 0.693416 0.000000
0.340246 0.693812 0.000000
0.393652 0.694057 0.000000
0.446357 0.694423 0.000000
0.493690 0.687373 0.000000
0.538567 0.679103 0.000000
0.580987 0.669978 0.000000
0.621424 0.660212 0.000000
0.659236 0.649744 0.000000
0.694667 0.638758 0.000000
0.736782 0.634913 0.000000
0.792996 0.642512 0.000000
0.841306 0.643641 0.000000
0.883513 0.640772 0.000000
0.919707 0.634913 0.000000
0.951446 0.627253 0.000000
0.979034 0.618128 0.000000
1.000000 0.608026 0.000000
1.000000 0.597070 0.000000
1.000000 0.584741 0.000000
1.000000 0.572595 0.000000
1.000000 0.560815 0.000000
1.000000 0.549187 0.000000
1.000000 0.537713 0.000000
1.000000 0.526360 0.000000
1.000000 0.515038 0.000000
0.000000 0.739162 0.000000
0.000000 0.739162 0.000000
0.000000 0.739162 0.000000
0.098024 0.739193 0.000000
0.168734 0.739132 0.000000
0.228672 0.739132 0.000000
0.284489 0.739040 0.000000
0.338781 0.738949 0.000000
0.392035 0.738796 0.000000
0.444648 0.738491 0.000000
0.495308 0.735927 0.000000
0.541283 0.728054 0.000000
0.585290 0.719448 0.000000
0.627161 0.710109 0.000000
0.666926 0.700191 0.000000
0.704341 0.689631 0.000000
0.739467 0.678584 0.000000
0.775723 0.670039 0.000000
0.827756 0.674891 0.000000
0.872435 0.674006 0.000000
0.911528 0.669581 0.000000
0.944457 0.662165 0.000000
0.973083 0.653071 0.000000
0.997742 0.642756 0.000000
1.000000 0.631556 0.000000
1.000000 0.619867 0.000000
1.000000 0.607385 0.000000
1.000000 0.594629 0.000000
1.000000 0.582116 0.000000
1.000000 0.569818 0.000000
1.000000 0.557610 0.000000
1.000000 0.545434 0.000000
0.000000 0.780270 0.000000
0.000000 0.780179 0.000000
0.000000 0.780179 0.000000
0.095247 0.780087 0.000000
0.167086 0.779904 0.000000
0.226108 0.779690 0.000000
0.282017 0.779355 0.000000
0.335790 0.778958 0.000000
0.388769 0.778470 0.000000
0.440742 0.777859 0.000000
0.492348 0.777188 0.000000
0.540154 0.771725 0.000000
0.585077 0.763729 0.000000
0.628260 0.755184 0.000000
0.669398 0.745998 0.000000
0.708614 0.736263 0.000000
0.745785 0.726040 0.000000
0.780819 0.715389 0.000000
0.811948 0.702907 0.000000
0.859861 0.705165 0.000000
0.900908 0.702388 0.000000
0.936706 0.696254 0.000000
0.966644 0.687434 0.000000
0.992248 0.676997 0.000000
1.000000 0.665492 0.000000
1.000000 0.653437 0.000000
1.000000 0.641016 0.000000
1.000000 0.628504 0.000000
1.000000 0.615198 0.000000
1.000000 0.601953 0.000000
1.000000 0.588983 0.000000
1.000000 0.576013 0.000000
0.000000 0.817411 0.000000
0.000000 0.817380 0.000000
0.000000 0.817288 0.000000
0.097292 0.817136 0.000000
0.166293 0.816922 0.000000
0.224857 0.816526 0.000000
0.279850 0.816129 0.000000
0.332830 0.815549 0.000000
0.384894 0.814939 0.000000
0.436133 0.814115 0.000000
0.486976 0.813169 0.000000
0.536858 0.811460 0.000000
0.582361 0.804257 0.000000
0.626215 0.796445 0.000000
0.668391 0.788052 0.000000
0.708766 0.779110 0.000000
0.747463 0.769711 0.000000
0.784207 0.759823 0.000000
0.819089 0.749599 0.000000
0.846708 0.734615 0.000000
0.889403 0.733425 0.000000
0.926848 0.728756 0.000000
0.959258 0.720943 0.000000
0.986358 0.710750 0.000000
1.000000 0.699062 0.000000
1.000000 0.686610 0.000000
1.000000 0.673762 0.000000
1.000000 0.660761 0.000000
1.000000 0.647669 0.000000
1.000000 0.634272 0.000000
1.000000 0.620417 0.000000
1.000000 0.606714 0.000000
0.000000 0.851408 0.000000
0.000000 0.851316 0.000000
0.000000 0.851255 0.000000
0.104494 0.851072 0.000000
0.169009 0.850767 0.000000
0.225101 0.850370 0.000000
0.278721 0.849760 0.000000
0.330327 0.849119 0.000000
0.381231 0.848295 0.000000
0.431495 0.847349 0.000000
0.481209 0.846250 0.000000
0.530632 0.844938 0.000000
0.577752 0.840909 0.000000
0.621820 0.833860 0.000000
0.664607 0.826230 0.000000
0.705715 0.818112 0.000000
0.745388 0.809537 0.000000
0.783352 0.800504 0.000000
0.819730 0.791073 0.000000
0.854276 0.781277 0.000000
0.878996 0.764462 0.000000
0.916289 0.759762 0.000000
0.950256 0.753170 0.000000
0.979309 0.743801 0.000000
1.000000 0.732204 0.000000
1.000000 0.719509 0.000000
1.000000 0.706264 0.000000
1.000000 0.692836 0.000000
1.000000 0.679225 0.000000
1.000000 0.665583 0.000000
1.000000 0.651820 0.000000
1.000000 0.637476 0.000000
0.000000 0.882261 0.000000
0.000000 0.882170 0.000000
0.031891 0.882078 0.000000
0.116884 0.881895 0.000000
0.174350 0.881498 0.000000
0.227695 0.881010 0.000000
0.278691 0.880369 0.000000
0.328496 0.879637 0.000000
0.378058 0.878691 0.000000
0.427039 0.877592 0.000000
0.475471 0.876371 0.000000
0.523674 0.874937 0.000000
0.571466 0.873350 0.000000
0.615747 0.867430 0.000000
0.658564 0.860533 0.000000
0.700099 0.853178 0.000000
0.740261 0.845396 0.000000
0.779080 0.837217 0.000000
0.816373 0.828641 0.000000
0.852140 0.819669 0.000000
0.886320 0.810483 0.000000
0.908507 0.792172 0.000000
0.940703 0.784054 0.000000
0.971221 0.775631 0.000000
0.997223 0.764675 0.000000
1.000000 0.752010 0.000000
1.000000 0.738460 0.000000
1.000000 0.724636 0.000000
1.000000 0.710567 0.000000
1.000000 0.696437 0.000000
1.000000 0.682246 0.000000
1.000000 0.667811 0.000000
0.000000 0.909972 0.000000
0.021576 0.909911 0.000000
0.082582 0.909758 0.000000
0.132509 0.909545 0.000000
0.183017 0.909148 0.000000
0.232273 0.908598 0.000000
0.280369 0.907897 0.000000
0.328161 0.907042 0.000000
0.375738 0.906065 0.000000
0.422980 0.904875 0.000000
0.470008 0.903532 0.000000
0.516930 0.902007 0.000000
0.563378 0.900298 0.000000
0.608576 0.897246 0.000000
0.651026 0.891051 0.000000
0.692500 0.884459 0.000000
0.732753 0.877409 0.000000
0.771908 0.870024 0.000000
0.809751 0.862272 0.000000
0.846342 0.854154 0.000000
0.881559 0.845823 0.000000
0.915312 0.837186 0.000000
0.935180 0.817685 0.000000
0.962554 0.806455 0.000000
0.989837 0.796292 0.000000
1.000000 0.784054 0.000000
1.000000 0.770382 0.000000
1.000000 0.756191 0.000000
1.000000 0.741756 0.000000
1.000000 0.727230 0.000000
1.000000 0.712520 0.000000
1.000000 0.697627 0.000000
0.069673 0.934600 0.004883
0.092439 0.934508 0.005493
0.114870 0.934417 0.003204
0.152468 0.934142 0.000000
0.194949 0.933715 0.000000
0.239353 0.933104 0.000000
0.284123 0.932433 0.000000
0.329015 0.931518 0.000000
0.374548 0.930449 0.000000
0.419959 0.929168 0.000000
0.465248 0.927764 0.000000
0.510338 0.926146 0.000000
0.555261 0.924376 0.000000
0.599969 0.922362 0.000000
0.642542 0.917876 0.000000
0.683558 0.911955 0.000000
0.723568 0.905669 0.000000
0.762631 0.898985 0.000000
0.800656 0.891997 0.000000
0.837613 0.884764 0.000000
0.873411 0.877195 0.000000
0.907958 0.869413 0.000000
0.941253 0.861479 0.000000
0.959045 0.840940 0.000000
0.982055 0.826902 0.000000
1.000000 0.815305 0.000000
1.000000 0.801999 0.000000
1.000000 0.787564 0.000000
1.000000 0.772702 0.000000
1.000000 0.757748 0.000000
1.000000 0.742672 0.000000
1.000000 0.727352 0.000000
0.116518 0.956268 0.101259
0.129213 0.956176 0.100954
0.145144 0.956023 0.100526
0.173526 0.955749 0.100038
0.209598 0.955322 0.098756
0.248814 0.954742 0.097414
0.289921 0.953979 0.095705
0.332036 0.953063 0.093080
0.374945 0.951934 0.090272
0.418006 0.950652 0.086976
0.461341 0.949187 0.083101
0.504509 0.947509 0.077577
0.547784 0.945678 0.071748
0.590936 0.943633 0.064393
0.633539 0.941192 0.050538
0.673732 0.935882 0.003113
0.713222 0.930266 0.000000
0.751919 0.924285 0.000000
0.789761 0.918059 0.000000
0.826688 0.911528 0.000000
0.862638 0.904753 0.000000
0.897520 0.897765 0.000000
0.931426 0.890593 0.000000
0.964202 0.883238 0.000000
0.980163 0.862028 0.000000
0.999451 0.845640 0.000000
1.000000 0.832853 0.000000
1.000000 0.818723 0.000000
1.000000 0.803677 0.000000
1.000000 0.788083 0.000000
1.000000 0.772610 0.000000
1.000000 0.756924 0.000000
0.152712 0.975158 0.144076
0.161807 0.975067 0.144045
0.173648 0.974945 0.143740
0.196017 0.974640 0.143526
0.226444 0.974212 0.142611
0.260838 0.973632 0.141848
0.298100 0.972839 0.140932
0.336919 0.971893 0.139498
0.376867 0.970794 0.138033
0.417548 0.969482 0.136141
0.458473 0.968017 0.133883
0.499886 0.966339 0.131197
0.541253 0.964508 0.128206
0.582635 0.962463 0.124361
0.623865 0.960235 0.120760
0.663874 0.956725 0.113222
0.702419 0.951690 0.101534
0.740414 0.946349 0.086030
0.777737 0.940734 0.065003
0.814328 0.934905 0.008637
0.850095 0.928801 0.000000
0.885069 0.922515 0.000000
0.919127 0.916075 0.000000
0.952239 0.909514 0.000000
0.984375 0.902831 0.000000
0.998932 0.881193 0.000000
1.000000 0.862974 0.000000
1.000000 0.849180 0.000000
1.000000 0.834348 0.000000
1.000000 0.818723 0.000000
1.000000 0.802457 0.000000
1.000000 0.786374 0.000000
0.185306 0.991730 0.180423
0.192477 0.991608 0.180270
0.201328 0.991485 0.180087
0.219638 0.991211 0.179812
0.244846 0.990784 0.179202
0.274907 0.990173 0.178592
0.308141 0.989410 0.177768
0.343572 0.988495 0.176791
0.380682 0.987396 0.175692
0.418494 0.986114 0.174105
0.457252 0.984649 0.172366
0.496376 0.983032 0.170718
0.535760 0.981201 0.168154
0.575372 0.979187 0.165835
0.614801 0.977020 0.163058
0.654200 0.974640 0.159945
0.691859 0.970397 0.152102
0.728878 0.965637 0.142092
0.765347 0.960632 0.130617
0.801328 0.955383 0.117433
0.836667 0.949920 0.101045
0.871397 0.944274 0.080690
0.905333 0.938506 0.041291
0.938506 0.932555 0.000000
0.970825 0.926543 0.000000
1.000000 0.920470 0.000000
1.000000 0.898680 0.000000
1.000000 0.879301 0.000000
1.000000 0.864469 0.000000
1.000000 0.849027 0.000000
1.000000 0.832822 0.000000
1.000000 0.815854 0.000000
0.215488 1.000000 0.212833
0.221073 1.000000 0.212741
0.228275 1.000000 0.212619
0.242985 1.000000 0.212314
0.264591 1.000000 0.211826
0.290623 1.000000 0.211307
0.320104 1.000000 0.210483
0.352178 1.000000 0.209689
0.386236 1.000000 0.208927
0.421424 1.000000 0.207553
0.457588 0.999451 0.206180
0.494362 0.997864 0.204410
0.531640 0.996094 0.202640
0.569207 0.994171 0.200412
0.606958 0.992035 0.198123
0.644587 0.989746 0.195377
0.681880 0.986847 0.191318
0.717617 0.982605 0.183261
0.753201 0.978119 0.174350
0.788327 0.973419 0.164187
0.822965 0.968536 0.153079
0.857145 0.963500 0.140261
0.890745 0.958251 0.125002
0.923705 0.952941 0.107057
0.955962 0.947509 0.084901
0.987488 0.942016 0.044312
1.000000 0.936492 0.000000
1.000000 0.914733 0.014435
1.000000 0.894530 0.062776
1.000000 0.878752 0.015686
1.000000 0.862791 0.000000
1.000000 0.846006 0.000000
0.243748 1.000000 0.242741
0.248173 1.000000 0.242679
0.254246 1.000000 0.242710
0.266545 1.000000 0.242496
0.284794 1.000000 0.241947
0.307408 1.000000 0.241642
0.333562 1.000000 0.241001
0.362280 1.000000 0.240055
0.393194 1.000000 0.238865
0.425757 1.000000 0.238071
0.459358 1.000000 0.236576
0.493812 1.000000 0.234928
0.528923 1.000000 0.233219
0.564446 1.000000 0.231327
0.600244 1.000000 0.228916
