其他预设/【233】日式怀旧街道调色预设208款/1.3D LUT预设（视频调色-PR-AE-PS-FCPX-达芬奇用）/3.日式城市街拍预设 (自动曝光预设)/JA – Cool Normal 1 (Auto-Exposure).cube
# Created by Adobe Lightroom plugin Export LUT (1.17.0)
# www.johnrellis.com/lightroom/exportlut.htm
# Preset: JA – Cool Normal 1 (Auto-Exposure)
# Color profile: /Library/Application Support/Adobe/Color/Profiles/Recommended/AdobeRGB1998.icc
LUT_3D_SIZE 32
0.092317 0.109651 0.111635
0.096162 0.109590 0.111543
0.101564 0.109529 0.111666
0.113283 0.109285 0.111818
0.130159 0.109194 0.111757
0.152987 0.108064 0.111696
0.182010 0.106661 0.111635
0.215793 0.104158 0.111116
0.253117 0.100587 0.110292
0.291752 0.095644 0.108919
0.331456 0.088350 0.107698
0.371160 0.078096 0.106477
0.410559 0.065492 0.104463
0.449714 0.034211 0.102388
0.488411 0.000000 0.100649
0.526360 0.000000 0.097871
0.563561 0.000000 0.095735
0.599634 0.000000 0.093050
0.634791 0.000000 0.090608
0.669673 0.000000 0.087892
0.703639 0.000000 0.084993
0.736812 0.000000 0.082521
0.769314 0.000000 0.080385
0.800992 0.000000 0.078950
0.831876 0.000000 0.078340
0.861662 0.000000 0.078889
0.890074 0.000000 0.079927
0.916930 0.000000 0.083558
0.941924 0.000000 0.088716
0.964782 0.000000 0.095033
0.985412 0.000000 0.103914
1.000000 0.000000 0.113649
0.092256 0.113375 0.111543
0.096071 0.113558 0.111452
0.101228 0.113497 0.111330
0.113191 0.113710 0.111452
0.130098 0.113619 0.111391
0.152468 0.113344 0.111482
0.181704 0.112673 0.111147
0.215366 0.111086 0.110811
0.252506 0.108644 0.109926
0.291569 0.104463 0.108492
0.331151 0.098878 0.107240
0.370703 0.090883 0.105745
0.410254 0.079469 0.104005
0.449439 0.065614 0.102083
0.488045 0.028504 0.099794
0.526024 0.000000 0.097505
0.563104 0.000000 0.095094
0.599207 0.000000 0.092164
0.634485 0.000000 0.089693
0.669368 0.000000 0.087190
0.703273 0.000000 0.084260
0.736599 0.000000 0.082246
0.769039 0.000000 0.080049
0.800748 0.000000 0.078676
0.831662 0.000000 0.077333
0.861479 0.000000 0.077821
0.889982 0.000000 0.080018
0.916808 0.000000 0.083009
0.941772 0.000000 0.087526
0.964660 0.000000 0.094301
0.985351 0.000000 0.103273
1.000000 0.000000 0.113497
0.091829 0.118502 0.111757
0.096040 0.118410 0.111666
0.101137 0.119234 0.111055
0.113130 0.119631 0.110933
0.129519 0.119631 0.111299
0.152255 0.120180 0.111330
0.180941 0.119936 0.110994
0.214542 0.119600 0.110353
0.251804 0.118257 0.109133
0.290929 0.114961 0.108125
0.330510 0.110780 0.106569
0.370031 0.104952 0.104982
0.409613 0.095918 0.103456
0.448859 0.084657 0.101595
0.487373 0.070588 0.099184
0.525597 0.032776 0.096681
0.562676 0.000000 0.094423
0.598749 0.000000 0.091554
0.634028 0.000000 0.089082
0.668910 0.000000 0.086183
0.702876 0.000000 0.083284
0.736172 0.000000 0.080842
0.768734 0.000000 0.079286
0.800534 0.000000 0.077638
0.831388 0.000000 0.076661
0.861265 0.000000 0.077546
0.889738 0.000000 0.078614
0.916594 0.000000 0.082338
0.941650 0.000000 0.087282
0.964538 0.000000 0.094087
0.985229 0.000000 0.102602
1.000000 0.000000 0.112764
0.091279 0.129946 0.111757
0.095460 0.130037 0.111666
0.100954 0.129976 0.111543
0.112947 0.131899 0.109987
0.130739 0.132479 0.109407
0.150973 0.133150 0.110353
0.179721 0.134676 0.109834
0.213291 0.136110 0.109010
0.250431 0.136538 0.108095
0.289372 0.135225 0.106722
0.328954 0.133059 0.105257
0.368811 0.128939 0.103578
0.408301 0.123629 0.101869
0.447608 0.116091 0.099947
0.486275 0.106203 0.097566
0.524437 0.093385 0.095186
0.561547 0.076905 0.092378
0.597681 0.046845 0.089662
0.632959 0.000000 0.087190
0.667903 0.000000 0.084016
0.702083 0.000000 0.081361
0.735439 0.000000 0.079133
0.767941 0.000000 0.076814
0.799863 0.000000 0.075532
0.830838 0.000000 0.074556
0.860716 0.000000 0.074800
0.889281 0.000000 0.076081
0.916228 0.000000 0.080262
0.941314 0.000000 0.085084
0.964233 0.000000 0.092134
0.984985 0.000000 0.100710
1.000000 0.000000 0.111727
0.089845 0.146365 0.111543
0.094362 0.146426 0.111666
0.100221 0.146334 0.111757
0.111788 0.147219 0.110964
0.130617 0.151064 0.107973
0.154574 0.153628 0.106996
0.181094 0.155367 0.107149
0.211246 0.157321 0.107515
0.248386 0.159579 0.106142
0.287388 0.160861 0.104891
0.327031 0.160372 0.103487
0.366674 0.158389 0.101656
0.406256 0.155306 0.099550
0.445655 0.150240 0.097230
0.484474 0.143496 0.095003
0.522454 0.135561 0.092256
0.559808 0.125216 0.089631
0.596002 0.113130 0.086824
0.631403 0.097230 0.083955
0.666529 0.075929 0.081331
0.700710 0.028931 0.078553
0.734218 0.000000 0.075990
0.766903 0.000000 0.073213
0.798917 0.000000 0.072236
0.829923 0.000000 0.070497
0.859953 0.000000 0.071229
0.888579 0.000000 0.074006
0.915618 0.000000 0.076814
0.940795 0.000000 0.081910
0.963806 0.000000 0.089631
0.984619 0.000000 0.098787
1.000000 0.000000 0.109712
0.087312 0.168582 0.110994
0.092287 0.168612 0.111299
0.099245 0.168460 0.111177
0.111452 0.168582 0.111299
0.129580 0.171939 0.109010
0.155673 0.178347 0.104616
0.185702 0.183078 0.102907
0.217502 0.185855 0.101991
0.247623 0.186343 0.103365
0.284672 0.188571 0.102541
0.324224 0.189914 0.100587
0.364080 0.189609 0.098726
0.403723 0.187594 0.096498
0.443122 0.184573 0.093965
0.481941 0.180056 0.091554
0.520165 0.174441 0.088624
0.557458 0.167269 0.085542
0.593652 0.158663 0.082673
0.629206 0.148562 0.079957
0.664546 0.136782 0.076814
0.698939 0.123140 0.073487
0.732540 0.106691 0.070741
0.765347 0.085145 0.068208
0.797513 0.046876 0.067231
0.828733 0.000000 0.066224
0.858854 0.000000 0.066224
0.887602 0.000000 0.068177
0.914794 0.000000 0.072816
0.940063 0.000000 0.078706
0.963226 0.000000 0.086000
0.984100 0.000000 0.095674
1.000000 0.000000 0.106630
0.082399 0.197177 0.109834
0.088808 0.197238 0.109926
0.096345 0.197208 0.109773
0.111086 0.197238 0.109834
0.130220 0.197360 0.109895
0.155337 0.204257 0.105776
0.187198 0.212436 0.099886
0.222202 0.218784 0.097078
0.257389 0.221592 0.094972
0.289250 0.221195 0.095979
0.320897 0.220096 0.097261
0.360723 0.221195 0.094789
0.400275 0.220920 0.092195
0.439765 0.218997 0.089448
0.478859 0.215732 0.086793
0.517021 0.211551 0.083650
0.554437 0.206058 0.080385
0.590906 0.199527 0.077211
0.626490 0.192325 0.073823
0.662013 0.183627 0.070497
0.696681 0.173648 0.067231
0.730465 0.162905 0.064210
0.763485 0.150698 0.061402
0.795804 0.136416 0.059937
0.827207 0.119936 0.059449
0.857481 0.100893 0.059571
0.886442 0.077333 0.062196
0.913725 0.025147 0.066712
0.939178 0.000000 0.072999
0.962432 0.000000 0.081331
0.983429 0.000000 0.090669
1.000000 0.000000 0.102693
0.074830 0.230503 0.107576
0.082795 0.230442 0.107454
0.092073 0.230625 0.107668
0.109163 0.230655 0.107454
0.131014 0.230838 0.107454
0.155947 0.233249 0.106020
0.187045 0.242008 0.100221
0.223667 0.251225 0.092744
0.262699 0.258671 0.088106
0.298772 0.259861 0.085603
0.331884 0.258244 0.085512
0.362371 0.255009 0.087465
0.396490 0.253208 0.087068
0.435950 0.252567 0.083619
0.475074 0.250492 0.080598
0.513420 0.247440 0.077028
0.550896 0.243381 0.072938
0.587427 0.238254 0.069398
0.623255 0.232090 0.066072
0.658991 0.225284 0.061646
0.693812 0.217899 0.057282
0.727962 0.209049 0.053101
0.761196 0.200076 0.046906
0.793729 0.189517 0.042573
0.825315 0.178347 0.040528
0.855802 0.166934 0.043000
0.884916 0.154147 0.048554
0.912474 0.140108 0.056886
0.938079 0.126131 0.065034
0.961517 0.110384 0.074037
0.982666 0.094850 0.085420
1.000000 0.079561 0.098116
0.063844 0.267063 0.104189
0.072969 0.267338 0.104219
0.085237 0.267369 0.103975
0.105287 0.267369 0.104189
0.130190 0.267552 0.103639
0.156863 0.267735 0.103487
0.186954 0.273259 0.099580
0.222446 0.282444 0.092012
0.262821 0.292088 0.081910
0.303960 0.299260 0.075013
0.341192 0.299626 0.070832
0.375341 0.296971 0.068696
0.404974 0.291966 0.071626
0.433997 0.286656 0.074800
0.470497 0.284764 0.072419
0.508965 0.282597 0.067842
0.546715 0.279271 0.063416
0.583368 0.275181 0.059174
0.619409 0.270207 0.052552
0.655421 0.264469 0.044251
0.690486 0.258488 0.033722
0.724941 0.251164 0.025971
0.758450 0.243595 0.019165
0.791226 0.235355 0.014649
0.823056 0.226780 0.013581
0.853819 0.217075 0.014801
0.883207 0.207309 0.022217
0.910979 0.196994 0.032624
0.936797 0.186709 0.049683
0.960449 0.176028 0.065339
0.981720 0.166079 0.077455
1.000000 0.156954 0.091768
0.031800 0.305303 0.099092
0.059022 0.305241 0.099184
0.074006 0.305211 0.099184
0.098665 0.305425 0.099062
0.126925 0.305516 0.098665
0.156558 0.305638 0.098421
0.186557 0.305577 0.098146
0.221134 0.314000 0.090394
0.260075 0.323613 0.079438
0.302861 0.333135 0.064607
0.345434 0.339513 0.049561
0.384009 0.339666 0.034455
0.418006 0.335668 0.027405
0.447608 0.329137 0.034791
0.475563 0.322393 0.047120
0.504051 0.316503 0.054780
0.541894 0.314031 0.044068
0.578820 0.310643 0.033356
0.614923 0.306432 0.024018
0.651270 0.301793 0.013428
0.686854 0.296452 0.004028
0.721431 0.290593 0.000000
0.755276 0.284062 0.000000
0.788357 0.276921 0.000000
0.820462 0.269413 0.000000
0.851530 0.261448 0.000000
0.881163 0.253178 0.000000
0.909239 0.244419 0.000610
0.935332 0.235447 0.019379
0.959167 0.226444 0.048371
0.980621 0.218021 0.066896
1.000000 0.209873 0.083101
0.000000 0.343175 0.092744
0.011780 0.343206 0.092805
0.057740 0.343023 0.092561
0.088441 0.343175 0.092683
0.121706 0.343175 0.092470
0.153872 0.343206 0.091890
0.186160 0.343389 0.091402
0.219150 0.345769 0.088411
0.256870 0.354528 0.076875
0.298650 0.364385 0.059724
0.343389 0.373846 0.014710
0.387182 0.379644 0.000000
0.427192 0.380011 0.000000
0.460212 0.374212 0.000000
0.490242 0.366796 0.000000
0.516960 0.358526 0.000000
0.542840 0.350439 0.000000
0.573480 0.344915 0.000000
0.609949 0.341436 0.000000
0.646571 0.337743 0.000000
0.682460 0.333257 0.000000
0.717494 0.328099 0.000000
0.751736 0.322240 0.000000
0.785061 0.316167 0.000000
0.817563 0.309514 0.000000
0.848905 0.302586 0.000000
0.878935 0.295018 0.000000
0.907256 0.287297 0.000000
0.933623 0.279088 0.000000
0.957733 0.270939 0.010712
0.979431 0.262974 0.047486
0.999054 0.255375 0.071748
0.000000 0.380468 0.085115
0.000000 0.380499 0.085176
0.004791 0.380407 0.085176
0.075624 0.380346 0.084749
0.114168 0.380316 0.084474
0.149569 0.380285 0.084108
0.184176 0.380163 0.083284
0.217929 0.380224 0.082826
0.254002 0.385534 0.074464
0.294072 0.394507 0.054749
0.337652 0.404395 0.001007
0.383917 0.413672 0.000000
0.428656 0.419135 0.000000
0.470405 0.420264 0.000000
0.502251 0.412726 0.000000
0.532341 0.404547 0.000000
0.557763 0.394507 0.000000
0.582391 0.385168 0.000000
0.606714 0.376471 0.000000
0.641321 0.372320 0.000000
0.677668 0.368597 0.000000
0.713039 0.364172 0.000000
0.747616 0.359258 0.000000
0.781369 0.353613 0.000000
0.814267 0.347784 0.000000
0.846006 0.341466 0.000000
0.876341 0.334722 0.000000
0.905058 0.327428 0.000000
0.931731 0.319860 0.000000
0.956115 0.312108 0.000000
0.978058 0.304295 0.008515
0.997894 0.296666 0.055726
0.000000 0.416815 0.075715
0.000000 0.416815 0.075441
0.000000 0.416846 0.075715
0.052155 0.416846 0.075532
0.104280 0.416815 0.075166
0.143404 0.416693 0.074403
0.180301 0.416541 0.074128
0.215763 0.416449 0.073579
0.250797 0.416144 0.072938
0.289586 0.424353 0.050965
0.331579 0.433722 0.000000
0.376715 0.443427 0.000000
0.424170 0.452796 0.000000
0.469642 0.458015 0.000000
0.513146 0.459876 0.000000
0.543542 0.450538 0.000000
0.572534 0.441047 0.000000
0.597833 0.430243 0.000000
0.621546 0.419745 0.000000
0.645991 0.410529 0.000000
0.672328 0.402899 0.000000
0.708186 0.399084 0.000000
0.743130 0.394812 0.000000
0.777310 0.389899 0.000000
0.810605 0.384649 0.000000
0.842741 0.378882 0.000000
0.873503 0.372503 0.000000
0.902586 0.365850 0.000000
0.929656 0.358618 0.000000
0.954345 0.351080 0.000000
0.976562 0.343359 0.000000
0.996643 0.335637 0.011139
0.000000 0.452461 0.064912
0.000000 0.452369 0.064576
0.000000 0.452491 0.064820
0.000000 0.452369 0.064698
0.091218 0.452247 0.064332
0.135927 0.452094 0.063752
0.175479 0.451911 0.062959
0.212375 0.451820 0.062684
0.248661 0.451514 0.061830
0.285252 0.453773 0.051301
0.325689 0.462440 0.000000
0.369146 0.471809 0.000000
0.415503 0.481514 0.000000
0.463813 0.490639 0.000000
0.510033 0.495796 0.000000
0.554986 0.498756 0.000000
0.584039 0.487770 0.000000
0.611749 0.476905 0.000000
0.637446 0.465797 0.000000
0.660761 0.454475 0.000000
0.684443 0.444434 0.000000
0.708431 0.435401 0.000000
0.738247 0.429206 0.000000
0.772793 0.425116 0.000000
0.806516 0.420417 0.000000
0.839170 0.414984 0.000000
0.870390 0.409186 0.000000
0.899870 0.402747 0.000000
0.927367 0.395911 0.000000
0.952392 0.388586 0.000000
0.974945 0.380896 0.000000
0.995270 0.373083 0.000000
0.000000 0.486976 0.046021
0.000000 0.487007 0.047211
0.000000 0.487007 0.047852
0.000000 0.486976 0.046418
0.074800 0.486793 0.045533
0.126741 0.486824 0.044831
0.169162 0.486580 0.043946
0.208255 0.486305 0.041413
0.245487 0.485939 0.040467
0.282048 0.485603 0.038483
0.320287 0.490547 0.000061
0.362036 0.499336 0.000000
0.406561 0.508690 0.000000
0.453742 0.518364 0.000000
0.502678 0.527184 0.000000
0.549248 0.532433 0.000000
0.596094 0.536706 0.000000
0.623621 0.524315 0.000000
0.650019 0.512047 0.000000
0.676020 0.500816 0.000000
0.698817 0.488655 0.000000
0.721889 0.477913 0.000000
0.745480 0.468360 0.000000
0.769589 0.459815 0.000000
0.802152 0.454902 0.000000
0.835264 0.450202 0.000000
0.866972 0.444739 0.000000
0.896971 0.438788 0.000000
0.924865 0.432136 0.000000
0.950286 0.424994 0.000000
0.973175 0.417273 0.000000
0.993774 0.409247 0.000000
0.000000 0.520714 0.019867
0.000000 0.520623 0.020172
0.000000 0.520653 0.018891
0.000000 0.520623 0.019287
0.041505 0.520378 0.019715
0.116426 0.520256 0.018097
0.161837 0.520073 0.017151
0.202731 0.519799 0.015686
0.241489 0.519402 0.016938
0.278782 0.519005 0.015106
0.315526 0.518456 0.013733
0.355749 0.526421 0.000000
0.398383 0.535180 0.000000
0.443549 0.544396 0.000000
0.491402 0.553979 0.000000
0.540429 0.562585 0.000000
0.587213 0.567742 0.000000
0.633906 0.571954 0.000000
0.661494 0.559533 0.000000
0.687068 0.546441 0.000000
0.712337 0.534478 0.000000
0.735744 0.522393 0.000000
0.758389 0.511009 0.000000
0.781613 0.500969 0.000000
0.805234 0.491920 0.000000
0.831052 0.484443 0.000000
0.863310 0.479500 0.000000
0.893736 0.474006 0.000000
0.922148 0.467628 0.000000
0.948028 0.460456 0.000000
0.971252 0.452674 0.000000
0.992157 0.444617 0.000000
0.000000 0.553216 0.000000
0.000000 0.553094 0.000000
0.000000 0.553124 0.000000
0.000000 0.553033 0.000000
0.000000 0.552911 0.000000
0.103334 0.552789 0.000000
0.154116 0.552514 0.000000
0.196933 0.552178 0.000000
0.236820 0.551812 0.000000
0.274784 0.551354 0.000000
0.312230 0.550774 0.000000
0.349798 0.552575 0.000000
0.390753 0.560937 0.000000
0.434211 0.569726 0.000000
0.479988 0.578882 0.000000
0.527947 0.588342 0.000000
0.576837 0.596643 0.000000
0.623377 0.601556 0.000000
0.669032 0.604822 0.000000
0.698268 0.593927 0.000000
0.723049 0.580194 0.000000
0.747585 0.567529 0.000000
0.771542 0.555413 0.000000
0.793729 0.543633 0.000000
0.816403 0.532982 0.000000
0.839475 0.523430 0.000000
0.862974 0.514916 0.000000
0.890349 0.508354 0.000000
0.919219 0.502251 0.000000
0.945586 0.495277 0.000000
0.969207 0.487495 0.000000
0.990448 0.479225 0.000000
0.000000 0.584680 0.000000
0.000000 0.584619 0.000000
0.000000 0.584527 0.000000
0.000000 0.584466 0.000000
0.000000 0.584344 0.000000
0.089357 0.584283 0.000000
0.145998 0.583948 0.000000
0.190829 0.583612 0.000000
0.231937 0.583276 0.000000
0.270603 0.582849 0.000000
0.308385 0.582361 0.000000
0.345464 0.581781 0.000000
0.384436 0.586511 0.000000
0.426154 0.595117 0.000000
0.470039 0.603906 0.000000
0.515953 0.612818 0.000000
0.563775 0.621820 0.000000
0.612116 0.629419 0.000000
0.658137 0.633967 0.000000
0.702907 0.636683 0.000000
0.733761 0.627344 0.000000
0.757778 0.613123 0.000000
0.781796 0.599878 0.000000
0.805722 0.587549 0.000000
0.827543 0.575280 0.000000
0.849546 0.564172 0.000000
0.871824 0.554009 0.000000
0.894377 0.544854 0.000000
0.916838 0.536492 0.000000
0.942962 0.529503 0.000000
0.966979 0.521721 0.000000
0.988617 0.513298 0.000000
0.000000 0.616175 0.000000
0.000000 0.616114 0.000000
0.000000 0.616114 0.000000
0.000000 0.616052 0.000000
0.000000 0.615930 0.000000
0.071839 0.615900 0.000000
0.136538 0.615686 0.000000
0.184390 0.615351 0.000000
0.226688 0.615167 0.000000
0.266331 0.614832 0.000000
0.304906 0.614374 0.000000
0.342504 0.613825 0.000000
0.379583 0.613275 0.000000
0.419776 0.620874 0.000000
0.461769 0.629084 0.000000
0.505730 0.637446 0.000000
0.551263 0.645838 0.000000
0.598535 0.654108 0.000000
0.646174 0.661158 0.000000
0.691737 0.665370 0.000000
0.735775 0.667750 0.000000
0.767910 0.659815 0.000000
0.791287 0.645075 0.000000
0.814481 0.631312 0.000000
0.837552 0.618250 0.000000
0.859495 0.605829 0.000000
0.880613 0.593988 0.000000
0.901823 0.583185 0.000000
0.923064 0.573236 0.000000
0.943816 0.563989 0.000000
0.964721 0.555444 0.000000
0.986694 0.546960 0.000000
0.000000 0.647883 0.000000
0.000000 0.647883 0.000000
0.000000 0.647852 0.000000
0.000000 0.647791 0.000000
0.000000 0.647730 0.000000
0.040162 0.647578 0.000000
0.127687 0.647364 0.000000
0.177646 0.647120 0.000000
0.221256 0.646906 0.000000
0.262089 0.646509 0.000000
0.301244 0.646174 0.000000
0.339239 0.645624 0.000000
0.376745 0.645045 0.000000
0.414405 0.646723 0.000000
0.454902 0.654322 0.000000
0.496895 0.662074 0.000000
0.540612 0.669978 0.000000
0.585931 0.677821 0.000000
0.632563 0.685512 0.000000
0.679438 0.691981 0.000000
0.724147 0.695888 0.000000
0.767391 0.697963 0.000000
0.800595 0.691310 0.000000
0.823056 0.675898 0.000000
0.845335 0.661433 0.000000
0.867430 0.647852 0.000000
0.889067 0.634791 0.000000
0.909087 0.622278 0.000000
0.928985 0.610620 0.000000
0.948516 0.599725 0.000000
0.967498 0.589502 0.000000
0.985901 0.580102 0.000000
0.000000 0.679042 0.000000
0.000000 0.679011 0.000000
0.000000 0.679011 0.000000
0.000000 0.678950 0.000000
0.000000 0.678828 0.000000
0.000000 0.678645 0.000000
0.116701 0.678492 0.000000
0.170718 0.678309 0.000000
0.216037 0.678004 0.000000
0.257633 0.677638 0.000000
0.297307 0.677241 0.000000
0.335760 0.676814 0.000000
0.373510 0.676234 0.000000
0.410681 0.675624 0.000000
0.449073 0.679652 0.000000
0.489448 0.686915 0.000000
0.531334 0.694209 0.000000
0.574792 0.701625 0.000000
0.619593 0.708919 0.000000
0.665553 0.715999 0.000000
0.711421 0.721889 0.000000
0.755550 0.725307 0.000000
0.797818 0.727077 0.000000
0.831357 0.721157 0.000000
0.852811 0.705043 0.000000
0.874022 0.690028 0.000000
0.894957 0.675685 0.000000
0.915587 0.661952 0.000000
0.934600 0.648554 0.000000
0.952941 0.635950 0.000000
0.970886 0.624018 0.000000
0.988434 0.613001 0.000000
0.000000 0.709621 0.000000
0.000000 0.709560 0.000000
0.000000 0.709560 0.000000
0.000000 0.709529 0.000000
0.000000 0.709438 0.000000
0.000000 0.709285 0.000000
0.105562 0.709071 0.000000
0.164096 0.708827 0.000000
0.210788 0.708614 0.000000
0.253300 0.708278 0.000000
0.293553 0.707912 0.000000
0.332280 0.707424 0.000000
0.370489 0.706874 0.000000
0.407752 0.706264 0.000000
0.444526 0.705592 0.000000
0.483345 0.711879 0.000000
0.523766 0.718685 0.000000
0.565393 0.725582 0.000000
0.608362 0.732418 0.000000
0.652430 0.739071 0.000000
0.697505 0.745480 0.000000
0.742214 0.750668 0.000000
0.785306 0.753597 0.000000
0.826719 0.755001 0.000000
0.859892 0.749294 0.000000
0.880217 0.732631 0.000000
0.900206 0.716823 0.000000
0.919860 0.701595 0.000000
0.939025 0.686915 0.000000
0.957031 0.672694 0.000000
0.974029 0.659144 0.000000
0.990784 0.646479 0.000000
0.000000 0.739742 0.000000
0.000000 0.739742 0.000000
0.000000 0.739712 0.000000
0.000000 0.739620 0.000000
0.000000 0.739559 0.000000
0.000000 0.739437 0.000000
0.094636 0.739223 0.000000
0.156802 0.739101 0.000000
0.205753 0.738796 0.000000
0.248844 0.738491 0.000000
0.289769 0.738094 0.000000
0.329015 0.737667 0.000000
0.367193 0.737118 0.000000
0.404730 0.736538 0.000000
0.441596 0.735897 0.000000
0.478523 0.737087 0.000000
0.517418 0.743404 0.000000
0.557366 0.749752 0.000000
0.598596 0.756039 0.000000
0.640864 0.762203 0.000000
0.684047 0.768093 0.000000
0.727932 0.773709 0.000000
0.771481 0.778042 0.000000
0.813352 0.780362 0.000000
0.853819 0.781430 0.000000
0.885283 0.774960 0.000000
0.904997 0.758114 0.000000
0.923705 0.741451 0.000000
0.941894 0.725399 0.000000
0.959655 0.709743 0.000000
0.976867 0.694728 0.000000
0.992828 0.680568 0.000000
0.000000 0.769619 0.000000
0.000000 0.769558 0.000000
0.000000 0.769497 0.000000
0.000000 0.769436 0.000000
0.000000 0.769375 0.000000
0.000000 0.769284 0.000000
0.081514 0.769070 0.000000
0.150729 0.768887 0.000000
0.201175 0.768612 0.000000
0.244999 0.768276 0.000000
0.286290 0.767941 0.000000
0.325566 0.767544 0.000000
0.363989 0.767025 0.000000
0.401587 0.766476 0.000000
0.438697 0.765805 0.001556
0.475349 0.765103 0.009369
0.512383 0.768276 0.000000
0.550774 0.774014 0.000000
0.590265 0.779782 0.000000
0.630732 0.785306 0.000000
0.672053 0.790646 0.000000
0.714046 0.795682 0.000000
0.756649 0.800351 0.000000
0.798825 0.803708 0.000000
0.839231 0.805356 0.000000
0.878874 0.806180 0.000000
0.907591 0.797818 0.000000
0.927092 0.781308 0.000000
0.944427 0.763851 0.000000
0.961364 0.746975 0.000000
0.977996 0.730800 0.000000
0.994324 0.715236 0.000000
0.000000 0.798917 0.000000
0.000000 0.798886 0.000000
0.000000 0.798856 0.000000
0.000000 0.798795 0.000000
0.000000 0.798703 0.000000
0.000000 0.798611 0.000000
0.070130 0.798398 0.000000
0.144778 0.798184 0.000000
0.196689 0.797940 0.000000
0.241642 0.797604 0.000000
0.282994 0.797269 0.000000
0.322698 0.796811 0.004089
0.361181 0.796353 0.012573
0.398779 0.795743 0.020508
0.435889 0.795132 0.031739
0.472450 0.794430 0.040070
0.508690 0.793637 0.053132
0.545556 0.798398 0.000000
0.583246 0.803433 0.000000
0.621912 0.808377 0.000000
0.661402 0.813077 0.000000
0.701564 0.817502 0.000000
0.742306 0.821530 0.000000
0.783413 0.825162 0.000000
0.823941 0.827543 0.000000
0.862943 0.828397 0.000000
0.901549 0.828916 0.000000
0.927703 0.818753 0.000000
0.946563 0.802365 0.000000
0.962799 0.784237 0.000000
0.978759 0.766903 0.000000
0.994537 0.750240 0.000000
0.000000 0.827543 0.003021
0.000000 0.827543 0.002045
0.000000 0.827512 0.002045
0.000000 0.827451 0.004852
0.000000 0.827359 0.006317
0.000000 0.827237 0.006165
0.057801 0.827054 0.011231
0.140780 0.826841 0.015534
0.193454 0.826535 0.021790
0.238468 0.826230 0.026276
0.280308 0.825803 0.034516
0.320012 0.825376 0.045167
0.358434 0.824887 0.049897
0.396124 0.824308 0.059388
0.433143 0.823667 0.062745
0.469612 0.822934 0.069306
0.505669 0.822141 0.073426
0.541375 0.822660 0.063844
0.577447 0.827024 0.000000
0.614405 0.831266 0.000000
0.652033 0.835264 0.000000
0.690303 0.838987 0.000000
0.729091 0.842374 0.000000
0.768307 0.845365 0.000000
0.807767 0.847868 0.000000
0.846616 0.849210 0.000000
0.884154 0.849210 0.000000
0.921141 0.848905 0.000000
0.945708 0.837888 0.000000
0.963897 0.821439 0.000000
0.979278 0.802914 0.000000
0.994507 0.785245 0.000000
0.000000 0.855222 0.048432
0.000000 0.855222 0.048554
0.000000 0.855161 0.048585
0.000000 0.855100 0.049989
0.000000 0.855009 0.051087
0.000000 0.854887 0.055177
0.048035 0.854673 0.058289
0.138033 0.854459 0.060273
0.191135 0.854154 0.063722
0.236393 0.853819 0.065919
0.278141 0.853391 0.069368
0.317693 0.852934 0.072755
0.356146 0.852415 0.075105
0.393561 0.851774 0.079438
0.430335 0.851072 0.083650
0.466590 0.850309 0.087373
0.502525 0.849485 0.091798
0.538018 0.848569 0.095369
0.572930 0.850278 0.070497
0.607904 0.853788 0.000000
0.643702 0.857023 0.000000
0.680110 0.860044 0.000000
0.717006 0.862669 0.000000
0.754299 0.864988 0.000000
0.791867 0.866819 0.000000
0.829618 0.868223 0.000000
0.866880 0.868589 0.000000
0.902922 0.867857 0.000000
0.938537 0.866850 0.000000
0.962066 0.855406 0.000000
0.979461 0.838895 0.000000
0.994263 0.820157 0.000000
0.000000 0.881590 0.079377
0.000000 0.881559 0.079805
0.000000 0.881559 0.079438
0.000000 0.881468 0.080995
0.000000 0.881346 0.080507
0.000000 0.881193 0.082734
0.051850 0.880980 0.083345
0.137819 0.880705 0.085023
0.190585 0.880369 0.086549
0.235660 0.880003 0.089601
0.276890 0.879545 0.091859
0.316289 0.879026 0.093935
0.354223 0.878447 0.097810
0.391363 0.877775 0.101198
0.427802 0.877012 0.104311
