其他预设/【233】日式怀旧街道调色预设208款/1.3D LUT预设（视频调色-PR-AE-PS-FCPX-达芬奇用）/3.日式城市街拍预设 (自动曝光预设)/JA – Gritty Contrast 2 (Auto-Exposure).cube
# Created by Adobe Lightroom plugin Export LUT (1.17.0)
# www.johnrellis.com/lightroom/exportlut.htm
# Preset: JA – Gritty Contrast 2 (Auto-Exposure)
# Color profile: /Library/Application Support/Adobe/Color/Profiles/Recommended/AdobeRGB1998.icc
LUT_3D_SIZE 8
DOMAIN_MIN 0.000000 0.000000 0.000000
DOMAIN_MAX 0.903226 0.903226 0.903226
0.070192 0.076143 0.083955
0.140291 0.106905 0.120943
0.273198 0.124605 0.152010
0.471260 0.130861 0.185153
0.630762 0.185672 0.246494
0.745571 0.278264 0.333013
0.855650 0.397742 0.440986
0.942077 0.514946 0.543664
0.095796 0.136172 0.105501
0.152377 0.139223 0.112459
0.299504 0.166842 0.147005
0.497017 0.184543 0.181094
0.644373 0.225040 0.246769
0.755550 0.301732 0.335546
0.861814 0.412177 0.443732
0.944427 0.523339 0.545373
0.139437 0.242222 0.109865
0.188113 0.242985 0.105806
0.332250 0.270268 0.105959
0.571038 0.336004 0.156374
0.688746 0.336034 0.244694
0.789456 0.377630 0.343603
0.882109 0.460456 0.452491
0.951995 0.552483 0.551110
0.215702 0.400610 0.041291
0.259709 0.400000 0.017151
0.386267 0.419257 0.000000
0.573693 0.444465 0.000000
0.745327 0.478737 0.217197
0.842252 0.495491 0.352941
0.912291 0.538659 0.465095
0.962554 0.601251 0.560754
0.291936 0.548180 0.000000
0.326818 0.546593 0.000000
0.427649 0.546410 0.000000
0.579217 0.568231 0.000000
0.733608 0.562737 0.066377
0.873075 0.597559 0.315160
0.942962 0.636896 0.477882
0.972656 0.664485 0.573419
0.344549 0.655329 0.000000
0.371710 0.653986 0.000000
0.453529 0.649073 0.000000
0.579065 0.662379 0.000000
0.742367 0.689174 0.000000
0.871489 0.671962 0.188663
0.951476 0.697108 0.438697
0.979828 0.735256 0.587549
0.394141 0.773861 0.000000
0.416907 0.772915 0.000000
0.488624 0.769314 0.000000
0.597223 0.767178 0.000000
0.738888 0.788907 0.000000
0.890623 0.804685 0.097169
0.957275 0.758663 0.360235
0.982849 0.767391 0.550011
0.448493 0.891295 0.191318
0.467018 0.890501 0.187961
0.527642 0.887724 0.174868
0.622187 0.882444 0.147646
0.740169 0.882902 0.171298
0.866911 0.886961 0.258000
0.967895 0.869108 0.354040
0.988312 0.817899 0.521202
0.091798 0.110658 0.174716
0.134188 0.115602 0.164767
0.240635 0.154055 0.187594
0.456489 0.178225 0.211398
0.640589 0.225284 0.243656
0.752865 0.299657 0.333074
0.859495 0.408148 0.441840
0.943114 0.519127 0.544182
0.084565 0.143282 0.166537
0.138491 0.149477 0.163485
0.260075 0.180819 0.190646
0.481270 0.216037 0.209018
0.652613 0.256931 0.243595
0.762234 0.320958 0.335424
0.865354 0.421790 0.444465
0.945434 0.527398 0.545892
0.117830 0.238468 0.169100
0.171847 0.236759 0.171633
0.297612 0.257511 0.167056
0.555993 0.345281 0.192050
0.693965 0.355047 0.240909
0.794247 0.391241 0.342870
0.884764 0.468177 0.452918
0.952728 0.555871 0.551568
0.180392 0.386114 0.159762
0.231388 0.385626 0.156649
0.363256 0.404883 0.128145
0.563592 0.443183 0.088258
0.741665 0.481910 0.208408
0.844877 0.504051 0.351446
0.913878 0.544182 0.465095
0.963012 0.603815 0.561151
0.266514 0.540978 0.137362
0.305516 0.540002 0.125765
0.415045 0.539391 0.071412
0.577173 0.568475 0.000000
0.731991 0.564660 0.048859
0.871763 0.598962 0.309453
0.943694 0.640467 0.477638
0.972869 0.666316 0.573693
0.334539 0.652491 0.101717
0.363134 0.651637 0.082673
0.450538 0.648463 0.000000
0.581231 0.664149 0.000000
0.742367 0.690761 0.000000
0.870756 0.673335 0.183749
0.951263 0.697963 0.436469
0.979919 0.736477 0.587793
0.397436 0.774899 0.000000
0.419837 0.773953 0.000000
0.490578 0.770382 0.000000
0.598077 0.768276 0.000000
0.738766 0.789822 0.000000
0.890959 0.806638 0.096529
0.957153 0.759518 0.357824
0.982879 0.767880 0.549523
0.447059 0.891997 0.193149
0.465583 0.891234 0.189731
0.526146 0.888457 0.176822
0.620752 0.883177 0.149905
0.738735 0.883330 0.171786
0.865537 0.887358 0.258183
0.967864 0.870512 0.353918
0.988342 0.818296 0.520439
0.012238 0.128969 0.330419
0.145846 0.160433 0.312902
0.242557 0.167544 0.291783
0.408637 0.205570 0.316411
0.550439 0.287266 0.360906
0.701350 0.376959 0.423438
0.849454 0.448219 0.474708
0.945525 0.528252 0.545708
0.047059 0.169253 0.312322
0.144442 0.180209 0.297581
0.242252 0.198428 0.286809
0.400122 0.239506 0.317021
0.565209 0.308507 0.366949
0.711574 0.393744 0.428412
0.856077 0.459510 0.476417
0.947662 0.536095 0.547326
0.076905 0.253513 0.296056
0.145571 0.251041 0.286900
0.276585 0.290166 0.309209
0.438575 0.324926 0.336675
0.611017 0.390723 0.393469
0.747890 0.449073 0.442451
0.878141 0.498848 0.481483
0.954498 0.563561 0.552911
0.089998 0.398810 0.317296
0.163973 0.394903 0.309453
0.304417 0.395117 0.296818
0.492714 0.428077 0.317845
0.684443 0.514946 0.422034
0.807614 0.542901 0.459480
0.911345 0.565209 0.485176
0.964141 0.610101 0.562371
0.177951 0.542229 0.305699
0.233066 0.538231 0.303075
0.366613 0.530449 0.304204
0.519463 0.544671 0.293614
0.685267 0.563226 0.335729
0.847318 0.624781 0.430945
0.945678 0.650996 0.478035
0.973510 0.671138 0.574853
0.311772 0.644923 0.325689
0.341283 0.643488 0.324346
0.422248 0.639612 0.309575
0.541161 0.642878 0.276371
0.708949 0.678676 0.268376
0.856199 0.680354 0.298161
0.950866 0.700771 0.429816
0.980224 0.740139 0.588952
0.393957 0.766995 0.322759
0.414527 0.766415 0.317174
0.478370 0.764584 0.289036
0.580529 0.761227 0.223239
0.728237 0.787778 0.169955
0.890318 0.812253 0.095460
0.956695 0.762295 0.349676
0.983062 0.769528 0.548486
0.445716 0.892851 0.260105
0.459937 0.892851 0.239384
0.517693 0.891295 0.184543
0.613275 0.886046 0.159152
0.731960 0.884886 0.171878
0.860014 0.888731 0.258457
0.967620 0.875547 0.353063
0.988373 0.819669 0.517967
0.000000 0.158694 0.503960
0.115145 0.189181 0.493782
0.284428 0.236118 0.476600
0.412238 0.238804 0.461433
0.576959 0.313390 0.468574
0.655604 0.417700 0.494697
0.767910 0.493538 0.542443
0.919188 0.567224 0.599329
0.000000 0.191196 0.491066
0.119478 0.214206 0.482002
0.290837 0.268162 0.468513
0.411444 0.269230 0.457130
0.571130 0.341558 0.468849
0.650690 0.433326 0.497688
0.777859 0.498848 0.543633
0.922820 0.573907 0.600671
0.000000 0.296391 0.479805
0.106691 0.295995 0.470741
0.284794 0.317815 0.454719
0.420630 0.351324 0.453834
0.554986 0.412757 0.472938
0.645350 0.474220 0.507683
0.808469 0.536065 0.558831
0.933898 0.599084 0.606287
0.000000 0.413733 0.467292
0.116609 0.411170 0.460365
0.288060 0.416388 0.450294
0.477150 0.479133 0.485542
0.585321 0.503960 0.504356
0.717800 0.552941 0.544121
0.855619 0.600916 0.581598
0.948791 0.643275 0.615900
0.129274 0.559564 0.477211
0.207431 0.555383 0.473457
0.352972 0.547234 0.467659
0.486366 0.545373 0.469520
0.627405 0.574334 0.502861
0.801724 0.661219 0.578302
0.903960 0.689448 0.608392
0.963409 0.697719 0.622980
0.288121 0.656519 0.468238
0.329381 0.652857 0.470161
0.429236 0.643732 0.477882
0.525750 0.635828 0.475319
0.652430 0.658045 0.479316
0.805051 0.696529 0.524132
0.925292 0.744350 0.587457
0.976196 0.753353 0.615564
0.403021 0.768429 0.483406
0.428229 0.765805 0.486244
0.506310 0.757626 0.499825
0.575219 0.754849 0.473945
0.688197 0.764309 0.452888
0.842527 0.801297 0.462287
0.938476 0.783108 0.494850
0.983429 0.772122 0.548363
0.514427 0.881926 0.515831
0.528923 0.881102 0.515312
0.557122 0.881437 0.491707
0.615412 0.881193 0.444678
0.714046 0.878294 0.375799
0.844968 0.889433 0.333349
0.966979 0.885252 0.350713
0.988495 0.822049 0.513725
0.000000 0.210391 0.613123
0.135958 0.239933 0.608087
0.341039 0.335821 0.594446
0.440345 0.354223 0.587945
0.552819 0.369085 0.579522
0.690486 0.443244 0.587976
0.791135 0.517723 0.611566
0.887755 0.603571 0.660456
0.000000 0.238254 0.606500
0.151644 0.262943 0.601953
0.341772 0.348211 0.590448
0.447089 0.377752 0.584314
0.553246 0.390448 0.576989
0.689754 0.459113 0.588708
0.788174 0.526696 0.611841
0.885954 0.609857 0.661433
0.000000 0.319707 0.598566
0.160037 0.328649 0.593408
0.332128 0.374212 0.580529
0.468238 0.439002 0.575250
0.557183 0.448554 0.571588
0.686519 0.502922 0.590234
0.778347 0.553979 0.612604
0.879850 0.629725 0.664210
0.091768 0.422980 0.592157
0.186038 0.427283 0.587701
0.338231 0.446509 0.575525
0.477211 0.487404 0.567132
0.571527 0.518914 0.572564
0.671534 0.552575 0.587640
0.761532 0.589563 0.612390
0.907988 0.665339 0.676204
0.154025 0.536248 0.583612
0.223545 0.536614 0.580102
0.361547 0.541100 0.571191
0.488838 0.556359 0.568353
0.614191 0.604944 0.597528
0.712856 0.628870 0.616083
0.843259 0.681910 0.660761
0.933288 0.733516 0.706600
0.272160 0.668849 0.595789
0.320165 0.666194 0.594385
0.429877 0.660822 0.592340
0.529259 0.657679 0.588678
0.618372 0.659236 0.580865
0.764767 0.704524 0.621973
0.899657 0.787045 0.711940
0.948363 0.801968 0.737209
0.396948 0.783291 0.608270
0.422400 0.781003 0.607996
0.489998 0.774502 0.606012
0.570031 0.767788 0.599359
0.654536 0.760159 0.579889
0.790982 0.787564 0.589593
0.908751 0.808408 0.647211
0.959564 0.824521 0.704128
0.485115 0.891814 0.616114
0.502556 0.890379 0.616419
0.555505 0.885740 0.616541
0.633387 0.878294 0.618158
0.696040 0.876555 0.573388
0.810147 0.879942 0.549981
0.935180 0.889830 0.552605
0.982422 0.833921 0.559533
0.119539 0.283726 0.716182
0.214084 0.312566 0.712398
0.385595 0.400610 0.700984
0.506340 0.463813 0.691859
0.581720 0.475502 0.688167
0.673823 0.486885 0.682307
0.811185 0.540337 0.704067
0.909422 0.634546 0.735775
0.152102 0.306126 0.711543
0.230381 0.331762 0.708186
0.389441 0.411414 0.697841
0.513298 0.478248 0.688808
0.584833 0.488136 0.685817
0.674098 0.498054 0.680812
0.811124 0.550072 0.704189
0.908110 0.641260 0.736294
0.176883 0.364874 0.705074
0.235508 0.375860 0.701381
0.390021 0.435126 0.689631
0.529747 0.515404 0.680812
0.594079 0.524102 0.679561
0.675807 0.531426 0.676905
0.811856 0.580896 0.705013
0.903838 0.662409 0.737667
0.219547 0.451514 0.700771
0.273350 0.460151 0.696925
0.392340 0.487068 0.685237
0.511406 0.527306 0.671931
0.607477 0.570733 0.673274
0.681636 0.578119 0.674434
0.815427 0.628168 0.707973
0.896666 0.691951 0.738155
0.259342 0.547417 0.696284
0.304784 0.551751 0.692958
0.410224 0.564721 0.683131
0.510948 0.580285 0.672053
0.605768 0.604578 0.668055
0.697169 0.635462 0.679377
0.802853 0.671809 0.700587
0.885435 0.723659 0.736324
0.303868 0.649928 0.691402
0.341283 0.650599 0.688869
0.431128 0.652888 0.681422
0.524071 0.657954 0.673793
0.614832 0.672572 0.674281
0.740169 0.723842 0.707271
0.839780 0.758419 0.737484
0.921172 0.809171 0.785794
0.358862 0.792050 0.721950
0.388647 0.790524 0.720302
0.467292 0.786984 0.715877
0.561273 0.785885 0.711452
0.655116 0.785672 0.704311
0.744839 0.782742 0.688960
0.879637 0.827024 0.751797
0.936797 0.872190 0.824857
0.466163 0.901518 0.734524
0.485237 0.900145 0.733852
0.542321 0.895872 0.731136
0.620935 0.889586 0.726436
0.706752 0.882200 0.720851
0.779599 0.875944 0.693690
0.893217 0.886442 0.709346
0.950042 0.877195 0.761440
0.304601 0.401495 0.827573
0.338659 0.418524 0.825620
0.459998 0.485389 0.817899
0.583307 0.560693 0.808011
0.643366 0.571618 0.805295
0.709895 0.579644 0.803281
0.794919 0.588037 0.799344
0.906706 0.661616 0.817136
0.299016 0.407752 0.825986
0.346319 0.429847 0.823667
0.461189 0.491432 0.816373
0.581811 0.563470 0.806943
0.646357 0.579919 0.803891
0.711635 0.587427 0.802121
0.795346 0.595514 0.798550
0.906523 0.668666 0.817258
0.292912 0.436683 0.823209
0.342565 0.454322 0.820371
0.456733 0.505303 0.812406
0.574273 0.570794 0.803738
0.655634 0.605615 0.799557
0.717281 0.612360 0.798703
0.797147 0.620050 0.796262
0.906218 0.691585 0.817716
0.313603 0.501274 0.820737
0.348394 0.509545 0.818479
0.435645 0.532250 0.811063
0.553368 0.577691 0.799405
0.668879 0.643214 0.793698
0.726223 0.649775 0.794156
0.800900 0.657465 0.793668
0.906462 0.726589 0.819059
0.334813 0.579583 0.818235
0.365698 0.584680 0.816220
0.444648 0.598444 0.809842
0.532891 0.613764 0.800504
0.638849 0.645838 0.788876
0.737118 0.693538 0.790219
0.807706 0.703426 0.792447
0.907683 0.770138 0.822477
0.358068 0.667994 0.815488
0.384863 0.670497 0.813748
0.456458 0.677638 0.808347
0.541527 0.686519 0.800443
0.630640 0.697780 0.791501
0.731106 0.723873 0.784756
0.820584 0.760250 0.795712
0.901854 0.805722 0.819944
0.381231 0.764309 0.812528
0.404517 0.765103 0.811246
0.469581 0.767697 0.806882
0.552636 0.771908 0.800626
0.645716 0.779355 0.793973
0.743557 0.794034 0.792081
0.850889 0.834470 0.816861
0.914641 0.866239 0.848173
0.393378 0.900725 0.841642
0.416175 0.901579 0.841733
0.485420 0.902251 0.840208
0.585290 0.897337 0.832486
0.697414 0.891936 0.825803
0.793210 0.887205 0.821042
0.858213 0.882017 0.807340
0.929870 0.899443 0.856352
0.506981 0.552667 0.908354
0.505608 0.552422 0.908232
0.565545 0.589410 0.904875
0.667109 0.657465 0.898436
0.742000 0.704402 0.893462
0.781491 0.711330 0.891905
0.827085 0.719783 0.890227
0.885100 0.729274 0.887388
0.501884 0.553338 0.908232
0.500603 0.553063 0.908110
0.564294 0.591516 0.904662
0.665705 0.658656 0.898314
0.745327 0.710323 0.892912
0.783841 0.716793 0.891447
0.828550 0.724849 0.889860
0.885618 0.734005 0.887114
0.485267 0.556023 0.908141
0.483558 0.555871 0.908080
0.554498 0.595026 0.904387
0.657679 0.660426 0.898131
0.755734 0.729000 0.891264
0.791470 0.734432 0.889982
0.833433 0.741360 0.888670
0.887358 0.749325 0.886259
0.460121 0.571313 0.908782
0.459541 0.571832 0.908659
0.513542 0.593561 0.905852
0.634028 0.657038 0.898741
0.747280 0.733181 0.891051
0.802365 0.760433 0.888029
0.840726 0.766110 0.887022
0.890227 0.772793 0.885130
0.452674 0.619532 0.907652
0.452522 0.619257 0.907652
0.495613 0.630121 0.905943
0.578973 0.653986 0.902159
0.712612 0.721370 0.892882
0.814176 0.790097 0.886046
0.849332 0.795407 0.885313
0.894072 0.802121 0.883909
0.441444 0.680995 0.905913
0.441230 0.680873 0.905882
0.500481 0.692348 0.903807
0.583825 0.710780 0.900359
0.678401 0.737057 0.895354
0.787716 0.785611 0.886809
0.859220 0.827695 0.883421
0.898863 0.834928 0.882872
0.426429 0.754299 0.903471
0.445991 0.756619 0.902922
0.504936 0.764431 0.901091
0.590387 0.777859 0.897917
0.687404 0.797086 0.893309
0.777615 0.819150 0.887755
0.855192 0.845762 0.881163
0.904631 0.868223 0.882902
0.429725 0.840146 0.899596
0.449104 0.841489 0.899138
0.509026 0.845884 0.897551
0.598688 0.853819 0.894713
0.698939 0.864500 0.890837
0.790555 0.876158 0.886412
0.862150 0.886992 0.882902
0.915312 0.903014 0.889555
