其他预设/【233】日式怀旧街道调色预设208款/1.3D LUT预设（视频调色-PR-AE-PS-FCPX-达芬奇用）/3.日式城市街拍预设 (自动曝光预设)/JA – Shaded Light 5 (Auto-Exposure).cube
# Created by Adobe Lightroom plugin Export LUT (1.17.0)
# www.johnrellis.com/lightroom/exportlut.htm
# Preset: JA – Shaded Light 5 (Auto-Exposure)
# Color profile: /Library/Application Support/Adobe/Color/Profiles/Recommended/AdobeRGB1998.icc
LUT_3D_SIZE 32
0.061799 0.074098 0.088899
0.064454 0.074128 0.088869
0.067720 0.074403 0.089052
0.075776 0.074281 0.088930
0.087068 0.074830 0.088899
0.101320 0.075471 0.089021
0.119478 0.075898 0.088930
0.139284 0.076295 0.088624
0.159731 0.077485 0.088380
0.179538 0.078767 0.088014
0.198947 0.079438 0.088106
0.219120 0.080964 0.087648
0.241428 0.082307 0.087373
0.267369 0.083742 0.086549
0.297826 0.085603 0.085145
0.332982 0.086854 0.082612
0.372503 0.088441 0.078920
0.416266 0.089448 0.073640
0.463996 0.090303 0.065156
0.517205 0.089784 0.047028
0.574426 0.089143 0.007172
0.632258 0.086854 0.000000
0.688289 0.082612 0.000000
0.740108 0.077638 0.000000
0.785641 0.072114 0.000000
0.824949 0.064485 0.000000
0.858976 0.056153 0.000000
0.888792 0.041077 0.000000
0.915465 0.024689 0.000000
0.940307 0.005554 0.000000
0.964599 0.000000 0.000000
0.989837 0.000000 0.000000
0.061250 0.076387 0.089326
0.063905 0.076783 0.088991
0.067292 0.077058 0.088899
0.075685 0.077577 0.088960
0.087037 0.078096 0.088655
0.101595 0.078645 0.088777
0.119631 0.079774 0.088655
0.139590 0.080476 0.088624
0.160159 0.081483 0.088350
0.180026 0.082643 0.087984
0.199374 0.083955 0.087739
0.219638 0.084993 0.087587
0.242100 0.086458 0.087282
0.268101 0.088319 0.086397
0.298802 0.090150 0.084932
0.333989 0.092042 0.082612
0.373571 0.093660 0.078889
0.417548 0.095125 0.072755
0.465309 0.096834 0.064790
0.518639 0.097383 0.045502
0.575769 0.097261 0.004273
0.633478 0.095735 0.000000
0.689326 0.092988 0.000000
0.741024 0.088777 0.000000
0.786343 0.084443 0.000000
0.825498 0.078889 0.000000
0.859373 0.073335 0.000000
0.889097 0.066468 0.000000
0.915709 0.059876 0.000000
0.940490 0.046937 0.000000
0.964752 0.028229 0.000000
0.989960 0.004273 0.000000
0.060945 0.079988 0.089631
0.063630 0.080720 0.088991
0.067597 0.080537 0.088930
0.075532 0.081453 0.088685
0.086763 0.082277 0.088930
0.101595 0.083375 0.088991
0.119905 0.084413 0.088563
0.139925 0.085939 0.088472
0.160647 0.087160 0.087892
0.180423 0.088228 0.087800
0.199893 0.089082 0.087587
0.220249 0.090517 0.087648
0.242863 0.092073 0.087037
0.269139 0.093874 0.086366
0.299931 0.096010 0.084871
0.335424 0.098299 0.082124
0.375219 0.100771 0.078157
0.419165 0.102998 0.072175
0.467109 0.104402 0.063569
0.520500 0.106111 0.041779
0.577661 0.107118 0.000000
0.635126 0.106569 0.000000
0.690852 0.105074 0.000000
0.742214 0.102602 0.000000
0.787320 0.098726 0.000000
0.826200 0.094423 0.000000
0.859953 0.090211 0.000000
0.889494 0.085115 0.000000
0.916045 0.079805 0.000000
0.940764 0.073854 0.000000
0.964965 0.066346 0.000000
0.990143 0.054658 0.000000
0.060487 0.088106 0.090394
0.062257 0.088899 0.089204
0.066896 0.089296 0.088533
0.074983 0.089204 0.088655
0.085664 0.089418 0.088960
0.101930 0.092561 0.088502
0.120760 0.094728 0.088228
0.140993 0.096559 0.088075
0.161807 0.098054 0.087739
0.181613 0.098939 0.087617
0.201022 0.100160 0.087343
0.221622 0.101534 0.087373
0.244541 0.103182 0.086976
0.271153 0.105501 0.086213
0.302464 0.108125 0.084199
0.338323 0.111055 0.081544
0.378546 0.114260 0.076967
0.422827 0.117586 0.070863
0.471077 0.120699 0.060975
0.524651 0.123598 0.034028
0.581567 0.125978 0.000000
0.638758 0.127352 0.000000
0.694057 0.127504 0.000000
0.744839 0.126162 0.000000
0.789334 0.124208 0.000000
0.827787 0.121096 0.000000
0.861112 0.117311 0.000000
0.890410 0.113588 0.000000
0.916747 0.109590 0.000000
0.941283 0.104952 0.000000
0.965393 0.100130 0.000000
0.990570 0.093538 0.000000
0.058350 0.100160 0.092134
0.060121 0.100587 0.089876
0.064363 0.101259 0.089204
0.074067 0.102083 0.088350
0.086061 0.102144 0.088350
0.099123 0.102022 0.088289
0.119753 0.106966 0.087953
0.142519 0.111971 0.087587
0.163424 0.113649 0.087190
0.183230 0.114992 0.087282
0.202853 0.115633 0.087312
0.223789 0.117067 0.086976
0.247288 0.118990 0.086458
0.274693 0.121706 0.085176
0.306523 0.125093 0.083131
0.342992 0.129335 0.080049
0.383642 0.133669 0.075227
0.428412 0.138064 0.067933
0.477211 0.142397 0.056184
0.531090 0.147158 0.022675
0.587762 0.150973 0.000000
0.644617 0.154330 0.000000
0.699062 0.155825 0.000000
0.748959 0.156069 0.000000
0.792477 0.154940 0.000000
0.830198 0.152926 0.000000
0.862974 0.150027 0.000000
0.891783 0.146700 0.000000
0.917815 0.143313 0.000000
0.942138 0.139254 0.000000
0.966125 0.134890 0.000000
0.991211 0.129946 0.000000
0.052003 0.116426 0.094026
0.053712 0.117098 0.090455
0.060731 0.117861 0.089754
0.071443 0.119173 0.088563
0.086458 0.119814 0.087556
0.101442 0.119844 0.087709
0.115633 0.118410 0.087984
0.138766 0.124788 0.087678
0.163241 0.130678 0.087098
0.185306 0.133700 0.087098
0.205295 0.134646 0.086732
0.226749 0.135958 0.086610
0.250950 0.138125 0.085908
0.279240 0.141512 0.084291
0.312139 0.146059 0.081758
0.349401 0.151186 0.078035
0.390875 0.156771 0.072358
0.436316 0.162570 0.063813
0.485603 0.168612 0.045319
0.539757 0.174838 0.005982
0.596155 0.180209 0.000000
0.652125 0.184451 0.000000
0.705653 0.187381 0.000000
0.754269 0.188754 0.000000
0.796689 0.188418 0.000000
0.833402 0.186587 0.000000
0.865415 0.184360 0.000000
0.893645 0.181003 0.000000
0.919249 0.177646 0.000000
0.943297 0.173800 0.000000
0.967102 0.169894 0.000000
0.992065 0.165560 0.000000
0.041230 0.136782 0.096437
0.042237 0.137545 0.092683
0.051179 0.138247 0.090333
0.067048 0.139254 0.089174
0.084443 0.140902 0.087129
0.102205 0.140871 0.086915
0.119722 0.140963 0.086854
0.134371 0.138094 0.087526
0.158145 0.144106 0.087221
0.182376 0.149630 0.086946
0.207126 0.155154 0.086397
0.230533 0.157839 0.085817
0.255772 0.160739 0.085084
0.285374 0.164858 0.082948
0.319402 0.170382 0.079774
0.357733 0.176761 0.074830
0.400153 0.183688 0.067781
0.446387 0.190921 0.055909
0.496376 0.198245 0.026429
0.550683 0.205692 0.000000
0.606531 0.212680 0.000000
0.661555 0.217899 0.000000
0.713710 0.221744 0.000000
0.760800 0.223423 0.000000
0.801724 0.223362 0.000000
0.837278 0.221714 0.000000
0.868376 0.219486 0.000000
0.895933 0.216251 0.000000
0.921019 0.212650 0.000000
0.944732 0.208713 0.000000
0.968292 0.204776 0.000000
0.993133 0.200870 0.000000
0.023560 0.159030 0.099519
0.026307 0.159487 0.095674
0.030518 0.160403 0.090730
0.059602 0.161044 0.089601
0.079652 0.162387 0.087831
0.100801 0.163485 0.085908
0.120089 0.163088 0.086183
0.138796 0.163119 0.086244
0.155367 0.160647 0.087007
0.176608 0.163394 0.087068
0.201328 0.169253 0.086397
0.228946 0.176577 0.085481
0.261875 0.186099 0.083406
0.293004 0.191379 0.080903
0.328344 0.198154 0.076722
0.367956 0.205722 0.070436
0.411444 0.214023 0.061280
0.458717 0.222507 0.038911
0.509636 0.231449 0.000702
0.563867 0.240146 0.000000
0.618891 0.247745 0.000000
0.672694 0.253849 0.000000
0.723201 0.258000 0.000000
0.768307 0.259831 0.000000
0.807614 0.259678 0.000000
0.841825 0.258244 0.000000
0.871855 0.255406 0.000000
0.898619 0.251987 0.000000
0.923125 0.248081 0.000000
0.946410 0.243931 0.000000
0.969757 0.239902 0.000000
0.994446 0.235813 0.000000
0.003021 0.181491 0.103395
0.006134 0.181765 0.099519
0.010254 0.182437 0.093538
0.040772 0.183078 0.090517
0.072602 0.183932 0.088869
0.095644 0.184909 0.086946
0.118074 0.184878 0.085328
0.137545 0.184726 0.085420
0.157168 0.184512 0.085359
0.175570 0.182956 0.086061
0.194827 0.182773 0.086580
0.221714 0.190219 0.085359
0.254002 0.200717 0.083650
0.294713 0.215274 0.079133
0.339208 0.229740 0.072419
0.380285 0.238682 0.064027
0.425177 0.248325 0.047547
0.473823 0.258366 0.010956
0.525353 0.268284 0.000000
0.579156 0.277653 0.000000
0.633082 0.286046 0.000000
0.685359 0.292271 0.000000
0.733883 0.296452 0.000000
0.776791 0.298192 0.000000
0.814237 0.297612 0.000000
0.846921 0.295384 0.000000
0.875761 0.292302 0.000000
0.901640 0.288334 0.000000
0.925475 0.284123 0.000000
0.948363 0.279606 0.000000
0.971435 0.275120 0.000000
0.995972 0.270970 0.000000
0.000000 0.203067 0.107637
0.000000 0.203403 0.103700
0.000000 0.203891 0.097780
0.013184 0.204501 0.091249
0.062104 0.205173 0.089906
0.088472 0.205905 0.088075
0.113008 0.206760 0.085389
0.135470 0.206180 0.084291
0.155581 0.205997 0.084230
0.175692 0.205753 0.084291
0.195102 0.204685 0.084749
0.213901 0.203159 0.085451
0.244785 0.213840 0.083467
0.283574 0.228611 0.079347
0.331548 0.248081 0.071351
0.388800 0.271031 0.056580
0.441566 0.286961 0.019104
0.491310 0.298131 0.000000
0.543328 0.309026 0.000000
0.596338 0.318822 0.000000
0.648981 0.327153 0.000000
0.699336 0.333288 0.000000
0.745388 0.336828 0.000000
0.785916 0.337682 0.000000
0.821378 0.336431 0.000000
0.852445 0.333623 0.000000
0.880064 0.329839 0.000000
0.904967 0.325322 0.000000
0.928130 0.320348 0.000000
0.950561 0.315343 0.000000
0.973327 0.310643 0.000000
0.997681 0.306188 0.000000
0.000000 0.225650 0.112123
0.000000 0.225956 0.108827
0.000000 0.226474 0.103273
0.000000 0.227207 0.092805
0.038209 0.227787 0.090913
0.078920 0.228519 0.088808
0.106325 0.229282 0.086397
0.131746 0.230106 0.083101
0.154269 0.229191 0.082521
0.175296 0.229191 0.082490
0.196323 0.229221 0.082246
0.216770 0.228763 0.082307
0.235508 0.226169 0.083192
0.271794 0.240665 0.079347
0.317601 0.260716 0.071748
0.372747 0.284855 0.057984
0.437232 0.312200 0.007324
0.510155 0.341863 0.000000
0.563256 0.353857 0.000000
0.615290 0.363561 0.000000
0.666133 0.371374 0.000000
0.714137 0.376593 0.000000
0.757534 0.379156 0.000000
0.795529 0.378882 0.000000
0.828885 0.376593 0.000000
0.858335 0.372839 0.000000
0.884611 0.368109 0.000000
0.908568 0.362768 0.000000
0.931029 0.357214 0.000000
0.952972 0.351659 0.000000
0.975494 0.346349 0.000000
0.999603 0.341711 0.000000
0.000000 0.251286 0.117983
0.000000 0.251652 0.114626
0.000000 0.252079 0.108980
0.000000 0.252934 0.095705
0.000000 0.253666 0.092287
0.066346 0.254368 0.089601
0.098543 0.255344 0.086549
0.126711 0.256291 0.082856
0.153201 0.256321 0.079652
0.175967 0.256168 0.078889
0.198184 0.256382 0.078798
0.220371 0.256840 0.078401
0.242527 0.256931 0.077852
0.261967 0.254185 0.078676
0.302831 0.271458 0.072297
0.355657 0.296330 0.059083
0.417853 0.325078 0.011139
0.489082 0.356664 0.000000
0.565759 0.388373 0.000000
0.635554 0.411872 0.000000
0.684291 0.418433 0.000000
0.729549 0.422309 0.000000
0.769863 0.423133 0.000000
0.805356 0.421485 0.000000
0.836667 0.417792 0.000000
0.864408 0.412970 0.000000
0.889372 0.407141 0.000000
0.912322 0.400855 0.000000
0.934081 0.394507 0.000000
0.955596 0.388342 0.000000
0.977813 0.382544 0.000000
1.000000 0.377447 0.000000
0.000000 0.281987 0.124483
0.000000 0.282261 0.121340
0.000000 0.282689 0.115694
0.000000 0.283574 0.102235
0.000000 0.284520 0.092653
0.032563 0.285374 0.089601
0.088380 0.286442 0.085817
0.121004 0.287633 0.081270
0.150851 0.288853 0.076051
0.178134 0.287907 0.072816
0.201907 0.288548 0.072358
0.225895 0.289189 0.071229
0.249699 0.290013 0.070466
0.273991 0.290959 0.069123
0.293126 0.286748 0.070954
0.337621 0.305547 0.059937
0.397345 0.335485 0.015747
0.466255 0.368658 0.000000
0.543053 0.403479 0.000000
0.620661 0.435279 0.000000
0.692927 0.460639 0.000000
0.744991 0.470161 0.000000
0.782315 0.468940 0.000000
0.815305 0.465309 0.000000
0.844480 0.460182 0.000000
0.870573 0.453834 0.000000
0.894255 0.446876 0.000000
0.916258 0.439551 0.000000
0.937346 0.432227 0.000000
0.958404 0.425360 0.000000
0.980346 0.419104 0.000000
1.000000 0.413428 0.000000
0.000000 0.318853 0.132113
0.000000 0.319188 0.128664
0.000000 0.319585 0.123171
0.000000 0.320592 0.109255
0.000000 0.321630 0.091798
0.000000 0.322545 0.088289
0.071717 0.323674 0.083650
0.113436 0.324865 0.078065
0.147524 0.326238 0.071199
0.179232 0.327642 0.062440
0.207004 0.326024 0.060578
0.232883 0.326940 0.059083
0.258671 0.327947 0.055787
0.284550 0.329107 0.052674
0.310613 0.330358 0.048493
0.329107 0.323980 0.055695
0.375799 0.342992 0.019867
0.442206 0.377478 0.000000
0.518029 0.415229 0.000000
0.597498 0.451240 0.000000
0.672938 0.480995 0.000000
0.738705 0.501976 0.000000
0.792020 0.513970 0.000000
0.825010 0.510430 0.000000
0.852232 0.503471 0.000000
0.876707 0.495552 0.000000
0.899168 0.487221 0.000000
0.920256 0.478798 0.000000
0.940734 0.470588 0.000000
0.961395 0.462867 0.000000
0.983032 0.455909 0.000000
1.000000 0.449775 0.000000
0.000000 0.361883 0.140261
0.000000 0.362188 0.137057
0.000000 0.362554 0.130922
0.000000 0.363531 0.116060
0.000000 0.364813 0.088502
0.000000 0.365759 0.084352
0.014496 0.366796 0.078981
0.100984 0.367864 0.072023
0.142550 0.369177 0.062715
0.178592 0.370611 0.045502
0.211734 0.370733 0.021515
0.240726 0.369787 0.016358
0.268589 0.370886 0.011017
0.296391 0.372229 0.003906
0.324407 0.373632 0.000000
0.352636 0.374975 0.000000
0.374975 0.370581 0.000000
0.417060 0.383215 0.000000
0.490944 0.423011 0.000000
0.571649 0.463661 0.000000
0.650233 0.498299 0.000000
0.720394 0.523980 0.000000
0.777798 0.539391 0.000000
0.823789 0.546746 0.000000
0.859678 0.547570 0.000000
0.882719 0.538018 0.000000
0.904021 0.528252 0.000000
0.924285 0.518608 0.000000
0.944213 0.509361 0.000000
0.964508 0.500877 0.000000
0.985962 0.493233 0.000000
1.000000 0.486458 0.000000
0.000000 0.410681 0.149081
0.000000 0.411048 0.145724
0.000000 0.411353 0.139590
0.000000 0.412238 0.123873
0.000000 0.413489 0.092531
0.000000 0.414496 0.076936
0.000000 0.415473 0.070314
0.077546 0.416571 0.060822
0.133547 0.417792 0.039155
0.175784 0.419013 0.006714
0.213870 0.420203 0.000000
0.248508 0.418524 0.000000
0.278843 0.418677 0.000000
0.308934 0.419989 0.000000
0.338933 0.421454 0.000000
0.369207 0.423041 0.000000
0.399603 0.424567 0.000000
0.425574 0.421790 0.000000
0.464851 0.429664 0.000000
0.543420 0.471870 0.000000
0.624720 0.511955 0.000000
0.699336 0.543023 0.000000
0.761501 0.562860 0.000000
0.811093 0.572992 0.000000
0.850950 0.576562 0.000000
0.883757 0.576043 0.000000
0.908843 0.569848 0.000000
0.928374 0.559045 0.000000
0.947784 0.548699 0.000000
0.967742 0.539330 0.000000
0.988952 0.530877 0.000000
1.000000 0.523522 0.000000
0.000000 0.464851 0.158419
0.000000 0.465126 0.154910
0.000000 0.465492 0.148104
0.000000 0.466285 0.131685
0.000000 0.467506 0.098604
0.000000 0.468696 0.062837
0.000000 0.469581 0.048096
0.000000 0.470466 0.020478
0.117159 0.471473 0.000000
0.169802 0.472572 0.000000
0.213687 0.473671 0.000000
0.253849 0.474678 0.000000
0.289128 0.471046 0.000000
0.321508 0.472297 0.000000
0.353765 0.473762 0.000000
0.385992 0.475319 0.000000
0.418433 0.476905 0.000000
0.451362 0.478859 0.000000
0.481025 0.477546 0.000000
0.520684 0.483894 0.000000
0.596307 0.521324 0.000000
0.675196 0.558495 0.000000
0.742702 0.583795 0.000000
0.796597 0.597559 0.000000
0.839628 0.603296 0.000000
0.874601 0.603876 0.000000
0.904234 0.601465 0.000000
0.930663 0.597742 0.000000
0.951446 0.588525 0.000000
0.971160 0.578180 0.000000
0.992096 0.569055 0.000000
1.000000 0.560845 0.000000
0.000000 0.523674 0.168032
0.000000 0.523827 0.163973
0.000000 0.524254 0.157198
0.000000 0.524956 0.139620
0.000000 0.526116 0.104952
0.000000 0.527459 0.010803
0.000000 0.528130 0.000000
0.000000 0.528893 0.000000
0.086702 0.529717 0.000000
0.158572 0.530602 0.000000
0.210269 0.531456 0.000000
0.255650 0.532250 0.000000
0.297215 0.531975 0.000000
0.333776 0.528771 0.000000
0.368444 0.530297 0.000000
0.402930 0.531853 0.000000
0.437537 0.533532 0.000000
0.472267 0.535241 0.000000
0.507225 0.537011 0.000000
0.540917 0.537224 0.000000
0.578607 0.540063 0.000000
0.647791 0.569635 0.000000
0.721096 0.601556 0.000000
0.780056 0.620111 0.000000
0.826780 0.628717 0.000000
0.864408 0.630884 0.000000
0.895842 0.629206 0.000000
0.923491 0.625666 0.000000
0.949279 0.621515 0.000000
0.974670 0.617548 0.000000
0.995300 0.607507 0.000000
1.000000 0.598505 0.000000
0.000000 0.584985 0.177279
0.000000 0.585290 0.173648
0.000000 0.585534 0.165805
0.000000 0.586175 0.148074
0.000000 0.587243 0.112123
0.000000 0.588586 0.000000
0.000000 0.589227 0.000000
0.000000 0.589685 0.000000
0.000000 0.590326 0.000000
0.137972 0.590875 0.000000
0.201938 0.591394 0.000000
0.253605 0.591791 0.000000
0.300450 0.592126 0.000000
0.342931 0.589776 0.000000
0.380804 0.588159 0.000000
0.417365 0.589380 0.000000
0.453803 0.590845 0.000000
0.490181 0.592187 0.000000
0.526787 0.593683 0.000000
0.563470 0.595087 0.000000
0.600000 0.596094 0.000000
0.635676 0.595514 0.000000
0.696101 0.615259 0.000000
0.761013 0.640040 0.000000
0.812161 0.652491 0.000000
0.852995 0.656916 0.000000
0.886625 0.656336 0.000000
0.915679 0.653223 0.000000
0.942473 0.649165 0.000000
0.968658 0.645167 0.000000
0.995026 0.641688 0.000000
1.000000 0.636469 0.000000
0.000000 0.645441 0.186648
0.000000 0.645624 0.182681
0.000000 0.645899 0.175051
0.000000 0.646448 0.156741
0.000000 0.647395 0.120241
0.000000 0.648615 0.000000
0.000000 0.649195 0.000000
0.000000 0.649500 0.000000
0.000000 0.649744 0.000000
0.100649 0.650019 0.000000
0.186130 0.650172 0.000000
0.246433 0.650233 0.000000
0.298314 0.650202 0.000000
0.345892 0.649989 0.000000
0.388983 0.645686 0.000000
0.427771 0.645441 0.000000
0.465827 0.646448 0.000000
0.503593 0.647364 0.000000
0.541253 0.648188 0.000000
0.579004 0.649104 0.000000
0.616754 0.649866 0.000000
0.655085 0.650996 0.000000
0.689235 0.647700 0.000000
0.738949 0.656489 0.000000
0.795499 0.674098 0.000000
0.840116 0.681575 0.000000
0.876310 0.682673 0.000000
0.907164 0.680323 0.000000
0.935088 0.676539 0.000000
0.962097 0.672541 0.000000
0.989319 0.669123 0.000000
1.000000 0.665888 0.000000
0.000000 0.701930 0.195895
0.000000 0.702113 0.191714
0.000000 0.702327 0.184176
0.000000 0.702815 0.165896
0.000000 0.703517 0.129610
0.000000 0.704494 0.006561
0.000000 0.705226 0.000000
0.000000 0.705257 0.000000
0.000000 0.705196 0.000000
0.000000 0.705104 0.000000
0.160433 0.704921 0.000000
0.232425 0.704616 0.000000
0.290227 0.704128 0.000000
0.341955 0.703426 0.000000
0.389899 0.702296 0.000000
0.433112 0.697475 0.000000
0.472389 0.697780 0.000000
0.511162 0.698116 0.000000
0.549676 0.698360 0.000000
0.587884 0.698451 0.000000
0.626001 0.698512 0.000000
0.664118 0.698329 0.000000
0.702937 0.698817 0.000000
0.738003 0.695583 0.000000
0.778470 0.695308 0.000000
0.825559 0.704524 0.000000
0.864897 0.708003 0.000000
0.897795 0.706874 0.000000
0.927123 0.703517 0.000000
0.955077 0.699763 0.000000
0.983154 0.696437 0.000000
1.000000 0.693355 0.000000
0.000000 0.751522 0.204440
0.000000 0.751644 0.200259
0.000000 0.751827 0.193454
0.000000 0.752224 0.175723
0.000000 0.752804 0.141115
0.000000 0.753567 0.061585
0.000000 0.754452 0.000000
0.000000 0.754147 0.000000
0.000000 0.753872 0.000000
0.000000 0.753353 0.000000
0.118959 0.752834 0.000000
0.211032 0.752193 0.000000
0.276188 0.751339 0.000000
0.331792 0.750301 0.000000
0.382696 0.749020 0.000000
0.430060 0.746304 0.000000
0.472847 0.742824 0.000000
0.512352 0.742489 0.000000
0.551232 0.742092 0.000000
0.589807 0.741482 0.000000
0.628077 0.740871 0.000000
0.666041 0.740047 0.000000
0.703944 0.739101 0.000000
0.742489 0.738705 0.000000
0.781765 0.738735 0.000000
0.813382 0.730678 0.000000
0.852140 0.731960 0.000000
0.887572 0.732540 0.000000
0.918486 0.730037 0.000000
0.947539 0.726589 0.000000
0.976562 0.723537 0.000000
1.000000 0.720790 0.000000
0.000000 0.793057 0.212741
0.000000 0.793149 0.208865
0.000000 0.793301 0.202518
0.000000 0.793545 0.185306
0.000000 0.794034 0.154147
0.000000 0.794644 0.088899
0.000000 0.795468 0.000000
0.000000 0.795285 0.000000
0.000000 0.794766 0.000000
0.000000 0.794095 0.000000
0.000000 0.793332 0.000000
0.180941 0.792416 0.000000
0.255680 0.791287 0.000000
0.316289 0.790005 0.000000
0.369970 0.788540 0.000000
0.419776 0.786831 0.000000
0.466285 0.783017 0.000000
0.507927 0.780606 0.000000
0.547265 0.779690 0.000000
0.585931 0.778744 0.000000
0.624231 0.777584 0.000000
0.662165 0.776272 0.000000
0.699825 0.774838 0.000000
0.737240 0.773251 0.000000
0.775113 0.772000 0.000000
0.817136 0.774258 0.000000
0.843534 0.761807 0.000000
0.876249 0.757229 0.000000
0.909117 0.755978 0.000000
0.939483 0.753109 0.000000
0.969574 0.750423 0.000000
0.999939 0.748104 0.000000
0.000000 0.827787 0.221378
0.000000 0.827848 0.217502
0.000000 0.827939 0.211582
0.000000 0.828183 0.195895
0.000000 0.828550 0.167025
0.000000 0.829068 0.113344
0.000000 0.829709 0.000000
0.000000 0.829770 0.000000
0.000000 0.829129 0.000000
0.000000 0.828367 0.000000
0.000000 0.827451 0.000000
0.138827 0.826413 0.000000
0.229953 0.825193 0.000000
0.296056 0.823758 0.000000
0.353002 0.822171 0.000000
0.404669 0.820371 0.000000
0.453376 0.818326 0.000000
0.498939 0.813931 0.000000
0.539055 0.812222 0.000000
0.577874 0.810880 0.000000
0.616144 0.809445 0.000000
0.653895 0.807858 0.000000
0.691402 0.806119 0.000000
0.728573 0.804227 0.000000
0.765438 0.802152 0.000000
0.802426 0.800198 0.000000
0.844205 0.802304 0.000000
0.870268 0.789944 0.000000
0.898985 0.781125 0.000000
0.930846 0.779171 0.000000
0.962066 0.777005 0.000000
0.993744 0.775296 0.000000
0.000000 0.857053 0.229862
0.000000 0.857115 0.226474
0.000000 0.857206 0.221012
0.000000 0.857389 0.206790
0.000000 0.857694 0.180941
0.000000 0.858122 0.135164
0.000000 0.858640 0.000000
0.000000 0.859007 0.000000
0.000000 0.858335 0.000000
0.000000 0.857511 0.000000
0.000000 0.856596 0.000000
0.066957 0.855467 0.000000
0.198154 0.854215 0.000000
0.272190 0.852750 0.000000
0.332677 0.851164 0.000000
0.386633 0.849332 0.000000
0.436561 0.847318 0.000000
0.483742 0.844602 0.000000
0.528038 0.840665 0.000000
0.566888 0.839170 0.000000
0.605097 0.837522 0.000000
0.642847 0.835782 0.000000
0.680110 0.833890 0.000000
0.716976 0.831876 0.000000
0.753597 0.829679 0.000000
0.789975 0.827359 0.000000
0.826139 0.824857 0.000000
0.867643 0.826993 0.000000
0.894957 0.816037 0.000000
0.921630 0.804623 0.000000
0.954131 0.803189 0.000000
0.987182 0.802274 0.000000
0.000000 0.882292 0.238743
0.000000 0.882322 0.235569
0.000000 0.882383 0.231174
0.000000 0.882567 0.217960
0.000000 0.882841 0.194797
0.000000 0.883238 0.156039
0.000000 0.883696 0.072267
0.000000 0.884276 0.000000
0.000000 0.883635 0.000000
0.000000 0.882841 0.000000
0.000000 0.881895 0.000000
0.000000 0.880858 0.000000
0.158206 0.879606 0.000000
0.244816 0.878202 0.000000
0.309972 0.876646 0.000000
0.366308 0.874876 0.000000
0.417731 0.872953 0.000000
0.465980 0.870848 0.000000
0.511955 0.867643 0.000000
0.554162 0.864500 0.000000
0.592340 0.862852 0.000000
0.629969 0.861051 0.000000
0.667079 0.859159 0.000000
0.703822 0.857145 0.000000
0.740261 0.854948 0.000000
0.776364 0.852628 0.000000
0.812253 0.850217 0.000000
0.847990 0.847654 0.000000
0.889250 0.849821 0.000000
0.919127 0.841489 0.000000
0.946654 0.830625 0.000000
0.980224 0.829038 0.000000
0.000000 0.904814 0.248112
0.000000 0.904814 0.245701
0.000000 0.904845 0.241703
0.000000 0.905028 0.229953
0.000000 0.905303 0.208896
0.000000 0.905638 0.175631
0.000000 0.906096 0.114656
0.000000 0.906615 0.000000
0.000000 0.906371 0.000000
0.000000 0.905638 0.000000
0.000000 0.904753 0.000000
0.000000 0.903746 0.000000
0.101564 0.902617 0.000000
0.213352 0.901335 0.000000
0.285039 0.899870 0.000000
0.344366 0.898253 0.000000
0.397498 0.896513 0.000000
0.446876 0.894560 0.000000
0.493690 0.892424 0.000000
0.538537 0.888945 0.000000
0.578729 0.886503 0.000000
0.616358 0.884794 0.000000
0.653437 0.882994 0.000000
0.690120 0.881071 0.000000
0.726467 0.879026 0.000000
0.762478 0.876890 0.000000
0.798276 0.874632 0.000000
0.833951 0.872313 0.000000
0.869474 0.869841 0.000000
0.910979 0.872496 0.000000
0.944640 0.867704 0.000000
0.974731 0.858885 0.000000
0.000000 0.925811 0.258488
0.000000 0.925841 0.256260
0.000000 0.925872 0.253178
0.000000 0.926024 0.242588
0.000000 0.926268 0.223850
0.000000 0.926635 0.194583
0.000000 0.927092 0.146304
0.000000 0.927642 0.000000
0.000000 0.927794 0.000000
0.000000 0.927123 0.000000
0.000000 0.926360 0.000000
0.000000 0.925475 0.000000
0.000000 0.924468 0.000000
0.176699 0.923339 0.000000
0.258061 0.922057 0.000000
