其他预设/【233】日式怀旧街道调色预设208款/1.3D LUT预设（视频调色-PR-AE-PS-FCPX-达芬奇用）/3.日式城市街拍预设 (自动曝光预设)/JA – Night Pop 3 (Auto-Exposure).cube
# Created by Adobe Lightroom plugin Export LUT (1.17.0)
# www.johnrellis.com/lightroom/exportlut.htm
# Preset: JA – Night Pop 3 (Auto-Exposure)
# Color profile: /Library/Application Support/Adobe/Color/Profiles/Recommended/AdobeRGB1998.icc
LUT_3D_SIZE 32
0.066712 0.081422 0.094789
0.076570 0.081056 0.094636
0.088685 0.080385 0.094392
0.115785 0.079194 0.093690
0.160861 0.075441 0.092042
0.219028 0.067781 0.088838
0.285893 0.052094 0.083162
0.357855 0.006531 0.074098
0.432441 0.000000 0.059541
0.506035 0.000000 0.016449
0.574670 0.000000 0.000000
0.635920 0.000000 0.000000
0.690913 0.000000 0.000000
0.740780 0.000000 0.000000
0.784665 0.000000 0.000000
0.823819 0.000000 0.000000
0.859709 0.000000 0.000000
0.892454 0.000000 0.000000
0.922057 0.000000 0.000000
0.949523 0.000000 0.000000
0.974945 0.000000 0.000000
0.998322 0.000000 0.000000
1.000000 0.000000 0.000000
1.000000 0.000000 0.000000
1.000000 0.000000 0.000000
1.000000 0.000000 0.000000
1.000000 0.000000 0.000000
1.000000 0.000000 0.000000
1.000000 0.000000 0.000000
1.000000 0.000000 0.000000
1.000000 0.000000 0.000000
1.000000 0.000000 0.000000
0.065827 0.087648 0.095125
0.072084 0.086488 0.096651
0.080262 0.089235 0.099794
0.108888 0.090852 0.097963
0.155245 0.090517 0.094423
0.216037 0.087373 0.088808
0.284733 0.081331 0.081544
0.356725 0.071260 0.071901
0.431525 0.042725 0.054719
0.505333 0.000000 0.008270
0.573938 0.000000 0.000000
0.635401 0.000000 0.000000
0.690425 0.000000 0.000000
0.740322 0.000000 0.000000
0.784329 0.000000 0.000000
0.823514 0.000000 0.000000
0.859373 0.000000 0.000000
0.892180 0.000000 0.000000
0.921843 0.000000 0.000000
0.949340 0.000000 0.000000
0.974792 0.000000 0.000000
0.998169 0.000000 0.000000
1.000000 0.000000 0.000000
1.000000 0.000000 0.000000
1.000000 0.000000 0.000000
1.000000 0.000000 0.000000
1.000000 0.000000 0.000000
1.000000 0.000000 0.000000
1.000000 0.000000 0.000000
1.000000 0.000000 0.000000
1.000000 0.000000 0.000000
1.000000 0.000000 0.000000
0.063447 0.096895 0.095735
0.073640 0.096345 0.094820
0.080079 0.093416 0.098970
0.096529 0.100252 0.107485
0.140902 0.105440 0.103456
0.201724 0.108370 0.097261
0.272770 0.108248 0.088045
0.348974 0.104891 0.075471
0.427497 0.096010 0.054505
0.503990 0.079164 0.000000
0.572900 0.046571 0.000000
0.634516 0.000000 0.000000
0.689662 0.000000 0.000000
0.739712 0.000000 0.000000
0.783719 0.000000 0.000000
0.823117 0.000000 0.000000
0.858976 0.000000 0.000000
0.891844 0.000000 0.000000
0.921538 0.000000 0.000000
0.949035 0.000000 0.000000
0.974578 0.000000 0.000000
0.998016 0.000000 0.000000
1.000000 0.000000 0.000000
1.000000 0.000000 0.000000
1.000000 0.000000 0.000000
1.000000 0.000000 0.000000
1.000000 0.000000 0.000000
1.000000 0.000000 0.000000
1.000000 0.000000 0.000000
1.000000 0.000000 0.000000
1.000000 0.000000 0.000000
1.000000 0.000000 0.000000
0.057557 0.116365 0.096315
0.069306 0.116396 0.094331
0.083436 0.114717 0.095247
0.095888 0.108675 0.105226
0.120394 0.118288 0.116487
0.170779 0.130922 0.116091
0.243198 0.140902 0.106325
0.322515 0.147494 0.093904
0.404730 0.149050 0.076722
0.485359 0.145785 0.044617
0.559777 0.137148 0.000000
0.625330 0.123537 0.000000
0.682856 0.106630 0.000000
0.734707 0.084627 0.000000
0.780484 0.037629 0.000000
0.820798 0.000000 0.000000
0.857481 0.000000 0.000000
0.891051 0.000000 0.000000
0.920928 0.000000 0.000000
0.948516 0.000000 0.000000
0.974151 0.000000 0.000000
0.997589 0.000000 0.000000
1.000000 0.000000 0.000000
1.000000 0.000000 0.000000
1.000000 0.000000 0.000000
1.000000 0.000000 0.000000
1.000000 0.000000 0.000000
1.000000 0.000000 0.000000
1.000000 0.000000 0.000000
1.000000 0.000000 0.000000
1.000000 0.000000 0.000000
1.000000 0.000000 0.000000
0.034058 0.145785 0.098573
0.057465 0.145754 0.093294
0.078431 0.145083 0.093019
0.104128 0.139376 0.097505
0.116640 0.128634 0.112123
0.150881 0.142977 0.124056
0.198154 0.160037 0.133516
0.281224 0.178500 0.120119
0.368688 0.191257 0.104311
0.454475 0.198489 0.084627
0.535180 0.198734 0.054932
0.605554 0.194095 0.000000
0.667018 0.185397 0.000000
0.721736 0.174166 0.000000
0.769924 0.159915 0.000000
0.812039 0.143740 0.000000
0.850095 0.124117 0.000000
0.884703 0.100618 0.000000
0.916014 0.067048 0.000000
0.944915 0.000000 0.000000
0.971618 0.000000 0.000000
0.996063 0.000000 0.000000
1.000000 0.000000 0.000000
1.000000 0.000000 0.000000
1.000000 0.000000 0.000000
1.000000 0.000000 0.000000
1.000000 0.000000 0.000000
1.000000 0.000000 0.000000
1.000000 0.000000 0.000000
1.000000 0.000000 0.000000
1.000000 0.000000 0.000000
1.000000 0.000000 0.000000
0.000000 0.185061 0.102937
0.010407 0.185092 0.093568
0.063355 0.184512 0.090578
0.104005 0.183047 0.090150
0.132265 0.169680 0.101472
0.143862 0.154757 0.117830
0.187167 0.173922 0.131411
0.239261 0.194827 0.145480
0.317021 0.218570 0.143526
0.410712 0.237034 0.124514
0.499367 0.247471 0.103090
0.577630 0.249546 0.077394
0.644526 0.246128 0.028016
0.703456 0.238590 0.000000
0.755276 0.228550 0.000000
0.800046 0.216312 0.000000
0.839902 0.202548 0.000000
0.876005 0.187411 0.000000
0.908598 0.170901 0.000000
0.938689 0.151614 0.000000
0.966369 0.129305 0.000000
0.991730 0.099123 0.000000
1.000000 0.041688 0.000000
1.000000 0.000000 0.000000
1.000000 0.000000 0.000000
1.000000 0.000000 0.000000
1.000000 0.000000 0.000000
1.000000 0.000000 0.000000
1.000000 0.000000 0.000000
1.000000 0.000000 0.000000
1.000000 0.000000 0.000000
1.000000 0.000000 0.000000
0.000000 0.233463 0.110262
0.000000 0.233005 0.099336
0.000000 0.232792 0.085969
0.093416 0.231327 0.085695
0.141604 0.226658 0.087678
0.166903 0.205417 0.105074
0.177676 0.186862 0.123842
0.228214 0.210269 0.139162
0.287205 0.235111 0.156283
0.351965 0.261143 0.179049
0.450019 0.284001 0.159731
0.539055 0.295933 0.138430
0.614160 0.298497 0.117189
0.679011 0.295232 0.093324
0.735714 0.287785 0.062623
0.784054 0.277867 0.000000
0.826444 0.266056 0.000000
0.864652 0.252995 0.000000
0.898985 0.239078 0.000000
0.930602 0.223789 0.000000
0.959594 0.207218 0.000000
0.986084 0.188479 0.000000
1.000000 0.167361 0.000000
1.000000 0.141848 0.000000
1.000000 0.109682 0.000000
1.000000 0.053437 0.000000
1.000000 0.000000 0.000000
1.000000 0.000000 0.000000
1.000000 0.000000 0.000000
1.000000 0.000000 0.000000
1.000000 0.000000 0.000000
1.000000 0.000000 0.000000
0.000000 0.288853 0.120302
0.000000 0.288548 0.107515
0.000000 0.288365 0.079652
0.065644 0.286839 0.076875
0.138613 0.284672 0.075715
0.184207 0.271550 0.087007
0.207034 0.246555 0.108919
0.217807 0.225620 0.132387
0.274723 0.252049 0.151492
0.338659 0.279362 0.171603
0.406195 0.306523 0.197360
0.486763 0.331121 0.208164
0.573846 0.343359 0.188266
0.646845 0.345953 0.169162
0.709499 0.342596 0.150332
0.763119 0.335058 0.130892
0.809018 0.325048 0.110445
0.849790 0.313176 0.085969
0.886381 0.300542 0.047395
0.919982 0.286717 0.000000
0.950713 0.272129 0.000000
0.978607 0.256077 0.000000
1.000000 0.238804 0.000000
1.000000 0.219577 0.000000
1.000000 0.197848 0.000000
1.000000 0.173648 0.000000
1.000000 0.143954 0.000000
1.000000 0.104219 0.000000
1.000000 0.000000 0.000000
1.000000 0.000000 0.000000
1.000000 0.000000 0.000000
1.000000 0.000000 0.000000
0.000000 0.350011 0.133669
0.000000 0.349493 0.119142
0.000000 0.348882 0.094301
0.000000 0.347845 0.061738
0.122805 0.345830 0.059724
0.190646 0.342779 0.056611
0.231449 0.320439 0.085695
0.252995 0.292973 0.113466
0.263890 0.269596 0.143282
0.325322 0.297704 0.168276
0.392859 0.326390 0.193454
0.460914 0.353185 0.224155
0.525200 0.377813 0.260105
0.604456 0.390600 0.248386
0.675135 0.393042 0.230747
0.735531 0.389715 0.213687
0.786435 0.381903 0.196963
0.830594 0.371771 0.180667
0.870054 0.360113 0.163455
0.906157 0.347478 0.145876
0.939025 0.334020 0.127108
0.968872 0.319219 0.105043
0.995453 0.303532 0.077455
1.000000 0.286809 0.010681
1.000000 0.268467 0.000000
1.000000 0.248051 0.000000
1.000000 0.225895 0.000000
1.000000 0.200351 0.000000
1.000000 0.170199 0.000000
1.000000 0.132265 0.000000
1.000000 0.072267 0.000000
1.000000 0.000000 0.000000
0.000000 0.414038 0.147372
0.000000 0.413550 0.132937
0.000000 0.412909 0.107301
0.000000 0.412238 0.006806
0.085328 0.410010 0.002533
0.181643 0.407050 0.000000
0.245060 0.398260 0.014862
0.282444 0.371374 0.084596
0.303166 0.341985 0.121065
0.314305 0.317205 0.157382
0.378119 0.345068 0.188876
0.446632 0.373144 0.218997
0.512352 0.398352 0.254765
0.571344 0.420508 0.294408
0.632563 0.436896 0.315129
0.699947 0.439643 0.297185
0.757534 0.436194 0.281041
0.806241 0.428534 0.265476
0.849180 0.418830 0.250431
0.888396 0.407599 0.235508
0.924010 0.395422 0.221225
0.956054 0.382177 0.206577
0.984619 0.367620 0.191684
1.000000 0.352178 0.175906
1.000000 0.335515 0.158724
1.000000 0.317601 0.138643
1.000000 0.297948 0.114321
1.000000 0.276524 0.079957
1.000000 0.252628 0.000000
1.000000 0.225315 0.000000
1.000000 0.193545 0.000000
1.000000 0.153780 0.000000
0.000000 0.478096 0.163027
0.000000 0.477699 0.148409
0.000000 0.477058 0.123110
0.000000 0.476478 0.000000
0.000000 0.474098 0.000000
0.160311 0.471199 0.000000
0.242344 0.467475 0.000000
0.299596 0.450538 0.000000
0.335485 0.422370 0.088746
0.355901 0.391852 0.132692
0.367315 0.366278 0.175235
0.431037 0.392157 0.212894
0.497993 0.418158 0.248081
0.558862 0.440345 0.287755
0.612940 0.460426 0.329747
0.661006 0.480049 0.372625
0.721767 0.485023 0.365606
0.775479 0.482002 0.349401
0.822995 0.475013 0.334752
0.866056 0.466224 0.320745
0.904875 0.456092 0.307958
0.939727 0.444465 0.295262
0.970581 0.431891 0.283299
0.997711 0.418006 0.271000
1.000000 0.403113 0.258457
1.000000 0.386877 0.244846
1.000000 0.369421 0.230289
1.000000 0.350652 0.213840
1.000000 0.329961 0.194644
1.000000 0.307103 0.170718
1.000000 0.281437 0.140200
1.000000 0.252171 0.095644
0.000000 0.538567 0.177676
0.000000 0.538262 0.164065
0.000000 0.537530 0.141085
0.000000 0.536431 0.043305
0.000000 0.534905 0.000000
0.119570 0.531853 0.000000
0.226291 0.528222 0.000000
0.302892 0.523644 0.000000
0.353857 0.499397 0.000000
0.388922 0.471351 0.100435
0.409033 0.440558 0.149569
0.420966 0.414710 0.196262
0.482185 0.437110 0.240330
0.544854 0.459907 0.279789
0.600549 0.479438 0.322118
0.650233 0.497688 0.365393
0.694697 0.515984 0.408026
0.739742 0.528710 0.431250
0.791409 0.526329 0.415900
0.838590 0.521233 0.402594
0.881346 0.513939 0.390509
0.919371 0.505058 0.379492
0.953063 0.494484 0.368750
0.982483 0.482887 0.358709
1.000000 0.469917 0.348486
1.000000 0.456031 0.338262
1.000000 0.440925 0.327489
1.000000 0.424659 0.315770
1.000000 0.407172 0.303075
1.000000 0.387976 0.287999
1.000000 0.367041 0.270939
1.000000 0.343267 0.249790
0.000000 0.592767 0.191714
0.000000 0.592462 0.179171
0.000000 0.591852 0.158541
0.000000 0.590509 0.098756
0.000000 0.589624 0.000000
0.000000 0.586694 0.000000
0.199191 0.582971 0.000000
0.287816 0.578485 0.000000
0.357183 0.567712 0.000000
0.405493 0.543450 0.026490
0.440162 0.516197 0.120943
0.460578 0.486213 0.171023
0.473030 0.460670 0.221286
0.529107 0.478431 0.270695
0.586908 0.497963 0.313115
0.638270 0.515404 0.356847
0.684321 0.532464 0.400244
0.724392 0.549187 0.441688
0.759609 0.566247 0.481086
0.806760 0.569360 0.478248
0.853361 0.566278 0.466804
0.895293 0.560723 0.456825
0.932128 0.553399 0.447791
0.964263 0.544366 0.439246
0.992065 0.534020 0.431098
1.000000 0.522545 0.423163
1.000000 0.510094 0.415381
1.000000 0.496742 0.407294
1.000000 0.482338 0.398596
1.000000 0.466987 0.389227
1.000000 0.450355 0.378546
1.000000 0.432074 0.366125
0.000000 0.641199 0.205173
0.000000 0.640833 0.192660
0.000000 0.640314 0.175845
0.000000 0.639155 0.128817
0.000000 0.638422 0.000000
0.000000 0.635523 0.000000
0.158816 0.631983 0.000000
0.265446 0.627649 0.000000
0.345769 0.622583 0.000000
0.407874 0.606073 0.000000
0.454017 0.582147 0.083009
0.487861 0.555901 0.148318
0.508568 0.527459 0.197391
0.521324 0.502617 0.249241
0.571099 0.515587 0.302586
0.625086 0.533074 0.346990
0.672602 0.548974 0.391180
0.714565 0.564508 0.433753
0.751247 0.580163 0.474067
0.785122 0.597009 0.511833
0.821958 0.609979 0.533989
0.867643 0.609003 0.524804
0.908263 0.605463 0.517144
0.943450 0.599847 0.510155
0.973754 0.592554 0.503838
0.999695 0.583856 0.497963
1.000000 0.574212 0.492439
1.000000 0.563714 0.487221
1.000000 0.552605 0.482033
1.000000 0.540856 0.476753
1.000000 0.528496 0.471138
1.000000 0.515312 0.465034
0.000000 0.684810 0.217075
0.000000 0.684474 0.206882
0.000000 0.683955 0.191897
0.000000 0.682887 0.153597
0.000000 0.681941 0.000000
0.000000 0.679774 0.000000
0.090547 0.676356 0.000000
0.235813 0.672175 0.000000
0.325231 0.667353 0.000000
0.399939 0.661189 0.000000
0.455390 0.640040 0.000000
0.499336 0.616663 0.122316
0.531945 0.591302 0.179843
0.552605 0.564294 0.227268
0.565179 0.540246 0.280217
0.609461 0.549554 0.335424
0.659815 0.565423 0.380835
0.703670 0.579980 0.424384
0.742031 0.594415 0.465888
0.777218 0.609918 0.505058
0.810239 0.626551 0.540764
0.841154 0.643793 0.573053
0.881895 0.648371 0.575097
0.920714 0.646632 0.569360
0.953948 0.642664 0.564324
0.982177 0.637140 0.560082
1.000000 0.630304 0.556359
1.000000 0.622705 0.553307
1.000000 0.614496 0.550622
1.000000 0.605982 0.548302
1.000000 0.597162 0.546197
1.000000 0.588098 0.544244
0.000000 0.724239 0.228946
0.000000 0.723964 0.219791
0.000000 0.723476 0.207034
0.000000 0.722469 0.176333
0.000000 0.721035 0.099855
0.000000 0.719722 0.000000
0.000000 0.716548 0.000000
0.198093 0.712673 0.000000
0.300084 0.708034 0.000000
0.380316 0.702754 0.000000
0.447883 0.691463 0.000000
0.500145 0.670649 0.089754
0.541680 0.647761 0.161563
0.572869 0.623194 0.214389
0.592859 0.597253 0.259861
0.604944 0.574182 0.312413
0.644434 0.580713 0.368353
0.691554 0.595453 0.413642
0.731930 0.608942 0.456733
0.768521 0.623224 0.497261
0.802731 0.638666 0.534142
0.834836 0.654902 0.567651
0.864347 0.671473 0.597955
0.895995 0.684596 0.618860
0.932708 0.684413 0.614710
0.963714 0.682033 0.611353
0.989746 0.678035 0.608759
1.000000 0.673060 0.607050
1.000000 0.667384 0.605890
1.000000 0.661433 0.605341
1.000000 0.655329 0.605341
1.000000 0.649439 0.605982
0.000000 0.758999 0.239872
0.000000 0.758755 0.232029
0.000000 0.758297 0.221622
0.000000 0.757412 0.196201
0.000000 0.755764 0.151156
0.000000 0.755062 0.000000
0.000000 0.752071 0.000000
0.148959 0.748440 0.000000
0.270542 0.744106 0.000000
0.356939 0.739101 0.000000
0.431128 0.733455 0.000000
0.492134 0.717830 0.018738
0.541497 0.697658 0.141970
0.581323 0.675715 0.200839
0.611017 0.652155 0.250034
0.630091 0.627314 0.293462
0.641352 0.605158 0.345220
0.676753 0.609827 0.400885
0.720760 0.623529 0.446052
0.758999 0.636805 0.488136
0.794553 0.651179 0.526726
0.827878 0.666377 0.561425
0.858579 0.682124 0.592859
0.886412 0.698665 0.623163
0.911223 0.716609 0.654170
0.944030 0.719448 0.654902
0.972656 0.718471 0.653010
0.996429 0.716060 0.651972
1.000000 0.712703 0.651789
1.000000 0.709010 0.652399
1.000000 0.705226 0.653681
1.000000 0.701656 0.655848
0.000000 0.790463 0.250675
0.000000 0.790158 0.243839
0.000000 0.789822 0.234745
0.000000 0.788907 0.214481
0.000000 0.787381 0.181155
0.000000 0.786709 0.010742
0.000000 0.784146 0.000000
0.064912 0.780758 0.000000
0.237308 0.776791 0.000000
0.331395 0.772152 0.000000
0.408942 0.766964 0.000000
0.477638 0.759731 0.000000
0.533410 0.741573 0.121370
0.580316 0.721950 0.188479
0.618097 0.701076 0.240818
0.646693 0.678981 0.286442
0.665522 0.655787 0.328130
0.676234 0.634791 0.378576
0.707424 0.637446 0.433387
0.748592 0.650599 0.477821
0.785550 0.663935 0.518181
0.820218 0.678279 0.554406
0.852232 0.693172 0.587030
0.881224 0.708309 0.616632
0.907073 0.724971 0.647700
0.929564 0.742367 0.677485
0.954589 0.752041 0.691005
0.980774 0.752407 0.690455
1.000000 0.751461 0.690791
1.000000 0.749813 0.691981
1.000000 0.747951 0.694057
1.000000 0.746273 0.697017
0.000000 0.820493 0.260716
0.000000 0.820249 0.255283
0.000000 0.819852 0.247440
0.000000 0.819089 0.231479
0.000000 0.817655 0.206516
0.000000 0.816434 0.144289
0.000000 0.814847 0.061830
0.000000 0.811765 0.054810
0.199924 0.808133 0.041566
0.304265 0.803922 0.025574
0.386236 0.799069 0.002655
0.457893 0.793637 0.000000
0.520989 0.782528 0.095735
0.573449 0.764584 0.174960
0.617609 0.745510 0.231724
0.653498 0.725338 0.280217
0.680751 0.704402 0.323705
0.699001 0.682795 0.363043
0.709346 0.662959 0.412451
0.736660 0.664149 0.465949
0.775784 0.676967 0.508507
0.811856 0.690455 0.546502
0.845274 0.704585 0.580560
0.875547 0.719020 0.611322
0.902495 0.733944 0.640650
0.926055 0.750576 0.671778
0.946319 0.767056 0.699916
0.964508 0.782040 0.723232
0.988251 0.783627 0.723873
1.000000 0.784085 0.725399
1.000000 0.784085 0.727962
1.000000 0.784146 0.731502
0.000000 0.849638 0.270695
0.000000 0.849424 0.266117
0.000000 0.849119 0.259739
0.000000 0.848356 0.246769
0.000000 0.847013 0.228122
0.000000 0.845335 0.198245
0.000000 0.844541 0.111269
0.000000 0.841733 0.108034
0.155093 0.838407 0.104402
0.276738 0.834501 0.100069
0.363226 0.830076 0.095399
0.437324 0.825132 0.088685
0.504601 0.819608 0.081514
0.562799 0.804837 0.159915
0.612512 0.787228 0.222324
0.654170 0.768551 0.274083
0.688014 0.749142 0.319432
0.713649 0.729122 0.360967
0.731075 0.708675 0.398535
0.740810 0.689937 0.446509
0.765225 0.690211 0.497658
0.802731 0.702846 0.537469
0.837644 0.716365 0.573175
0.869322 0.730129 0.605249
0.897520 0.743984 0.634485
0.922210 0.759304 0.665522
0.943420 0.775113 0.694972
0.961303 0.790890 0.721889
0.976043 0.806973 0.747341
0.994873 0.813260 0.755367
1.000000 0.815244 0.758236
1.000000 0.817044 0.762234
0.000000 0.877623 0.280095
0.000000 0.877409 0.276371
0.000000 0.877104 0.271153
0.000000 0.876402 0.260807
0.000000 0.875120 0.247227
0.000000 0.873136 0.235447
0.000000 0.872923 0.148531
0.000000 0.870390 0.145998
0.093324 0.867277 0.143587
0.247654 0.863706 0.140444
0.340032 0.859678 0.136446
0.416754 0.855100 0.132265
0.485328 0.850004 0.126802
0.548486 0.842496 0.140871
0.603235 0.826474 0.211215
0.650294 0.809384 0.266697
0.689845 0.791348 0.315190
0.721767 0.772732 0.358587
0.745937 0.753536 0.397955
0.762325 0.734035 0.433783
0.771328 0.716365 0.479835
0.793637 0.716152 0.527977
0.829313 0.728298 0.564813
0.862516 0.741512 0.598474
0.892149 0.754849 0.628962
0.918029 0.768673 0.658656
0.940246 0.783810 0.689601
0.959014 0.798825 0.717647
0.974456 0.814145 0.743984
0.986999 0.830198 0.769497
1.000000 0.841825 0.786007
1.000000 0.845426 0.790280
0.000000 0.904112 0.288609
0.000000 0.903929 0.285496
0.000000 0.903624 0.281468
0.000000 0.903014 0.273533
0.000000 0.901793 0.264012
0.000000 0.899901 0.258244
0.000000 0.899138 0.209415
0.000000 0.897368 0.180301
0.000000 0.894591 0.177615
0.217472 0.891295 0.174899
0.316930 0.887572 0.171908
0.396277 0.883330 0.168215
0.466346 0.878630 0.163851
0.530571 0.873503 0.159304
0.589990 0.862821 0.198154
0.642084 0.847288 0.258305
0.686824 0.830838 0.309636
0.724453 0.813657 0.355383
0.754665 0.795987 0.396826
0.777615 0.777768 0.434211
0.793149 0.759396 0.468299
0.801694 0.742763 0.512016
0.821958 0.742000 0.556786
0.855100 0.753292 0.590875
0.886229 0.766079 0.622766
0.913451 0.778805 0.651942
0.936797 0.793057 0.683772
0.956512 0.807370 0.713100
0.972717 0.821866 0.740414
0.985809 0.837156 0.766751
0.996429 0.853208 0.792294
1.000000 0.869169 0.815854
0.000000 0.928893 0.296117
0.000000 0.928710 0.293614
0.000000 0.928496 0.290593
0.000000 0.927825 0.284611
0.000000 0.926696 0.278904
0.000000 0.924895 0.277867
0.000000 0.923461 0.257450
0.000000 0.922545 0.211551
0.000000 0.919982 0.209598
0.185855 0.916960 0.206912
0.294285 0.913512 0.204044
0.376043 0.909667 0.200687
0.447089 0.905303 0.196719
0.512230 0.900542 0.192630
0.572961 0.895384 0.187625
0.629572 0.882048 0.247684
0.679133 0.867155 0.302647
0.721859 0.851530 0.351110
0.757626 0.835294 0.394842
0.786465 0.818692 0.434150
0.808347 0.801755 0.469612
0.823331 0.784634 0.501427
0.831601 0.769039 0.542718
0.849699 0.767636 0.584314
0.879759 0.777646 0.615808
0.908476 0.789914 0.646326
0.933074 0.802823 0.677485
0.953796 0.816464 0.708156
0.970825 0.830198 0.736568
0.984558 0.844633 0.763912
0.995605 0.859922 0.790311
1.000000 0.876036 0.815915
0.000000 0.951843 0.302312
0.000000 0.951659 0.300450
0.000000 0.951415 0.298100
0.000000 0.950805 0.294163
0.000000 0.949737 0.291295
0.000000 0.947997 0.294316
0.000000 0.945830 0.298161
0.000000 0.945678 0.241459
0.000000 0.943297 0.239170
0.152712 0.940551 0.236820
0.272221 0.937377 0.234195
0.356390 0.933806 0.230808
0.428504 0.929839 0.227176
0.493843 0.925444 0.222965
0.554742 0.920623 0.218418
0.612940 0.913359 0.233951
0.666987 0.899992 0.293614
0.714321 0.885893 0.345281
0.755062 0.871275 0.391302
0.789181 0.856199 0.432746
0.816770 0.840787 0.469947
0.837797 0.825223 0.503136
0.852506 0.809537 0.532830
0.860624 0.794919 0.571893
0.876493 0.792874 0.610895
0.903044 0.801389 0.640040
0.929015 0.813260 0.670588
0.950866 0.826139 0.702876
0.968780 0.839078 0.732479
0.983185 0.852628 0.760830
0.994720 0.867155 0.788205
1.000000 0.882506 0.814725
0.000000 0.972778 0.306828
0.000000 0.972625 0.305303
0.000000 0.972412 0.303563
0.000000 0.971832 0.301213
0.000000 0.970794 0.300938
0.000000 0.969085 0.307622
0.000000 0.966522 0.325322
0.000000 0.966308 0.280583
0.000000 0.964477 0.267674
0.117037 0.961944 0.265476
0.251041 0.959075 0.262455
0.338048 0.955779 0.259190
0.410681 0.952117 0.255619
0.475929 0.948058 0.251408
0.536706 0.943633 0.246983
0.594171 0.938872 0.242069
0.650629 0.929320 0.280949
0.702266 0.916716 0.336736
0.747494 0.903563 0.385992
0.786343 0.890013 0.429908
0.818875 0.876158 0.469123
0.845304 0.862119 0.504021
0.865721 0.848020 0.534936
0.880369 0.833890 0.562676
0.888334 0.820462 0.600061
0.901915 0.817685 0.637049
0.924681 0.824521 0.664118
0.947692 0.836423 0.697200
0.966552 0.848569 0.728115
0.981720 0.861204 0.757565
0.993805 0.874876 0.786007
1.000000 0.889464 0.813504
0.000000 0.991821 0.309178
0.000000 0.991669 0.308110
0.000000 0.991424 0.306950
0.000000 0.990906 0.305852
0.000000 0.989899 0.307897
0.000000 0.988251 0.317632
0.000000 0.985687 0.338964
0.000000 0.984588 0.321416
0.000000 0.983551 0.294224
0.072786 0.981262 0.291752
0.231724 0.978576 0.288731
0.320531 0.975616 0.285588
0.393347 0.972229 0.281682
0.458656 0.968505 0.277806
0.518883 0.964446 0.273075
0.575891 0.960052 0.268162
0.630304 0.955291 0.262760
0.685939 0.943969 0.324163
0.735317 0.932158 0.377417
0.778439 0.920012 0.424567
0.815518 0.907622 0.466407
0.846586 0.895109 0.503380
0.871946 0.882567 0.536065
0.891875 0.870085 0.565209
0.906554 0.857603 0.591516
0.914244 0.845304 0.627588
0.925536 0.841917 0.663050
0.944732 0.847959 0.691798
0.964172 0.858640 0.723445
0.980163 0.870390 0.754086
0.992828 0.883116 0.783658
1.000000 0.896910 0.812253
0.000000 1.000000 0.309148
0.000000 1.000000 0.308354
0.000000 1.000000 0.307439
0.000000 1.000000 0.307225
0.000000 1.000000 0.311009
0.000000 1.000000 0.323522
0.000000 1.000000 0.348577
0.000000 1.000000 0.355657
0.000000 1.000000 0.318730
0.000000 0.998535 0.316045
0.214115 0.996124 0.313146
0.304356 0.993378 0.309514
0.377020 0.990295 0.305669
0.441657 0.986877 0.301244
0.501366 0.983154 0.296483
0.557671 0.979095 0.291112
0.611536 0.974731 0.285344
0.665431 0.968078 0.304906
0.718807 0.957397 0.364202
0.766018 0.946410 0.415686
0.807187 0.935271 0.460975
0.842496 0.924132 0.500755
0.872129 0.912993 0.535576
0.896513 0.901976 0.566552
0.915892 0.891081 0.594507
0.930510 0.880339 0.619837
0.937774 0.869291 0.656764
0.946899 0.866087 0.693996
0.962585 0.870573 0.720058
0.978485 0.880186 0.750454
0.991821 0.891905 0.781247
1.000000 0.904784 0.811002
0.000000 1.000000 0.306096
0.000000 1.000000 0.305272
0.000000 1.000000 0.304692
0.000000 1.000000 0.304845
0.000000 1.000000 0.309728
0.000000 1.000000 0.324620
0.000000 1.000000 0.353246
0.000000 1.000000 0.384802
0.000000 1.000000 0.343053
0.000000 1.000000 0.337682
0.197024 1.000000 0.334417
0.288792 1.000000 0.330663
0.361273 1.000000 0.326452
0.425177 1.000000 0.321935
0.484077 1.000000 0.316716
