其他预设/【233】日式怀旧街道调色预设208款/1.3D LUT预设（视频调色-PR-AE-PS-FCPX-达芬奇用）/3.日式城市街拍预设 (自动曝光预设)/JA – Controlled Contrast 2 (Auto-Exposure).cube
# Created by Adobe Lightroom plugin Export LUT (1.17.0)
# www.johnrellis.com/lightroom/exportlut.htm
# Preset: JA – Controlled Contrast 2 (Auto-Exposure)
# Color profile: /Library/Application Support/Adobe/Color/Profiles/Recommended/AdobeRGB1998.icc
LUT_3D_SIZE 8
DOMAIN_MIN 0.000000 0.000000 0.000000
DOMAIN_MAX 0.903226 0.903226 0.903226
0.096010 0.089631 0.085206
0.112428 0.087556 0.084840
0.281834 0.000000 0.076234
0.493812 0.000000 0.025818
0.625422 0.000000 0.000000
0.754543 0.000000 0.000000
0.884154 0.000000 0.000000
0.997375 0.000000 0.000000
0.097566 0.100038 0.085084
0.112703 0.102907 0.083650
0.292912 0.121523 0.065431
0.498207 0.000000 0.000000
0.628382 0.000000 0.000000
0.757290 0.000000 0.000000
0.886046 0.000000 0.000000
0.998230 0.000000 0.000000
0.113008 0.204105 0.074250
0.147433 0.199832 0.073274
0.265751 0.234348 0.019043
0.511955 0.280522 0.000000
0.638849 0.226169 0.000000
0.766781 0.151095 0.000000
0.892515 0.000000 0.000000
1.000000 0.000000 0.000000
0.160616 0.388647 0.000000
0.203861 0.383886 0.000000
0.302953 0.373938 0.000000
0.454261 0.406500 0.000000
0.628504 0.405127 0.000000
0.782834 0.374640 0.000000
0.903258 0.320867 0.000000
1.000000 0.246952 0.000000
0.224033 0.504448 0.092195
0.251225 0.501030 0.087404
0.325933 0.488838 0.068055
0.426825 0.489937 0.000000
0.564355 0.510460 0.000000
0.741085 0.522179 0.000000
0.916747 0.511315 0.000000
1.000000 0.450233 0.000000
0.303838 0.594293 0.199313
0.318822 0.591730 0.195865
0.365515 0.582635 0.184115
0.433448 0.566003 0.160555
0.533654 0.586450 0.000000
0.674708 0.615564 0.000000
0.854582 0.635584 0.000000
1.000000 0.613550 0.000000
0.389868 0.709255 0.292973
0.399908 0.707332 0.290623
0.433387 0.700404 0.282383
0.486336 0.687678 0.266392
0.555779 0.681147 0.231510
0.664912 0.713100 0.094850
0.808377 0.741482 0.000000
0.962432 0.739834 0.000000
0.477852 0.845823 0.383459
0.486183 0.844785 0.382116
0.514611 0.841123 0.376989
0.562341 0.834501 0.367498
0.625544 0.824674 0.352972
0.707179 0.836057 0.307530
0.817777 0.860472 0.177584
0.953765 0.874449 0.000000
0.094057 0.091981 0.103120
0.115267 0.087098 0.104036
0.288212 0.000000 0.131899
0.494759 0.000000 0.103975
0.625147 0.000000 0.060914
0.753872 0.000000 0.000000
0.883757 0.000000 0.000000
0.997467 0.000000 0.000000
0.095308 0.108156 0.101076
0.118471 0.110689 0.105379
0.298192 0.048219 0.096345
0.499123 0.000000 0.074067
0.627893 0.000000 0.037598
0.756497 0.000000 0.000000
0.885618 0.000000 0.000000
0.998260 0.000000 0.000000
0.085389 0.229740 0.107301
0.146761 0.236301 0.108186
0.286076 0.254154 0.076173
0.511406 0.263035 0.000000
0.637842 0.202152 0.000000
0.765805 0.111788 0.000000
0.891966 0.000000 0.000000
1.000000 0.000000 0.000000
0.143740 0.407904 0.111971
0.200595 0.403967 0.115572
0.307744 0.386969 0.100618
0.461982 0.414801 0.000000
0.633387 0.403449 0.000000
0.781308 0.368475 0.000000
0.902342 0.314214 0.000000
1.000000 0.237949 0.000000
0.241489 0.512932 0.178195
0.265629 0.509697 0.173983
0.334752 0.497932 0.159731
0.430243 0.495003 0.111391
0.567864 0.515038 0.000000
0.744594 0.524071 0.000000
0.915099 0.512566 0.000000
1.000000 0.450782 0.000000
0.323552 0.600092 0.253910
0.336675 0.597559 0.250889
0.378546 0.588556 0.239506
0.441413 0.572076 0.217838
0.536492 0.589746 0.145815
0.676905 0.618982 0.000000
0.856596 0.637842 0.000000
1.000000 0.616510 0.000000
0.400031 0.713741 0.324895
0.409552 0.711818 0.322698
0.441535 0.704891 0.314641
0.492531 0.692103 0.299474
0.559045 0.682612 0.270207
0.666041 0.714778 0.177401
0.808896 0.743313 0.000000
0.963256 0.740932 0.000000
0.480720 0.848264 0.401312
0.488808 0.847257 0.399969
0.516869 0.843595 0.394812
0.564050 0.836881 0.385260
0.626734 0.826963 0.370672
0.707515 0.836484 0.330785
0.817502 0.860960 0.224338
0.953185 0.875059 0.000000
0.000000 0.118990 0.286809
0.119814 0.085267 0.291508
0.302556 0.000000 0.289738
0.476844 0.000000 0.295598
0.619745 0.000000 0.275273
0.746304 0.000000 0.266911
0.875517 0.000000 0.256992
0.991272 0.000000 0.240665
0.000000 0.189212 0.281621
0.095064 0.155306 0.289708
0.305669 0.095033 0.291722
0.485359 0.000000 0.292271
0.620111 0.000000 0.271702
0.746609 0.000000 0.265263
0.876341 0.000000 0.254246
0.991882 0.000000 0.242618
0.002930 0.289921 0.266880
0.137789 0.294774 0.274144
0.315160 0.301732 0.293095
0.497902 0.261448 0.277104
0.623346 0.228031 0.271305
0.752834 0.181186 0.268467
0.881987 0.079164 0.263493
0.994018 0.000000 0.249729
0.147066 0.434424 0.277562
0.213260 0.435370 0.283909
0.347265 0.433082 0.309606
0.472358 0.438361 0.272801
0.638331 0.432837 0.295964
0.766903 0.398444 0.289128
0.891447 0.358068 0.280461
0.997192 0.300053 0.263188
0.259068 0.530571 0.297276
0.295384 0.529961 0.308110
0.381659 0.523033 0.335088
0.449714 0.507958 0.312108
0.572107 0.530205 0.262669
0.749691 0.549126 0.282841
0.903655 0.540032 0.304845
1.000000 0.488075 0.282628
0.340856 0.619287 0.340734
0.371496 0.617945 0.357977
0.418982 0.610071 0.364904
0.469581 0.593378 0.347601
0.547784 0.600153 0.315190
0.680171 0.630945 0.248722
0.859068 0.655268 0.251987
0.998596 0.642420 0.292210
0.423011 0.730220 0.405005
0.433295 0.728328 0.404700
0.463020 0.721370 0.398322
0.509911 0.708339 0.384710
0.568780 0.688563 0.363134
0.669520 0.720363 0.315404
0.808713 0.749783 0.214450
0.962646 0.750637 0.172519
0.488441 0.857450 0.456519
0.495308 0.856352 0.453803
0.522332 0.852567 0.448432
0.568139 0.845609 0.438514
0.629389 0.835294 0.423346
0.707515 0.837919 0.394537
0.815976 0.862699 0.326665
0.950225 0.877317 0.138399
0.000000 0.182742 0.479957
0.000000 0.150088 0.482063
0.299321 0.116487 0.486183
0.477882 0.027558 0.478065
0.584527 0.163485 0.447883
0.725551 0.065278 0.450385
0.866148 0.000000 0.444343
0.982361 0.000000 0.426703
0.000000 0.266423 0.475563
0.123232 0.244694 0.478187
0.306889 0.209445 0.483253
0.478309 0.181064 0.477028
0.582879 0.234684 0.451667
0.727718 0.166659 0.454444
0.865476 0.000000 0.448493
0.981811 0.000000 0.429694
0.144686 0.374365 0.465492
0.223453 0.377173 0.467140
0.352575 0.372930 0.473426
0.479316 0.350072 0.473274
0.590295 0.350042 0.464424
0.733577 0.307256 0.462531
0.864927 0.260533 0.454536
0.980102 0.190768 0.439338
0.212741 0.473121 0.450324
0.266300 0.472724 0.452369
0.378393 0.472206 0.459113
0.481483 0.473732 0.469703
0.608057 0.453986 0.462257
0.741787 0.432044 0.457740
0.872496 0.404334 0.452979
0.983246 0.369177 0.444617
0.319036 0.553491 0.443885
0.345647 0.553155 0.447852
0.413611 0.552758 0.458778
0.491127 0.550256 0.470802
0.579004 0.556909 0.449928
0.762020 0.586786 0.475502
0.887541 0.561334 0.469398
0.987884 0.524041 0.457160
0.373541 0.643122 0.454902
0.390417 0.643122 0.458167
0.438148 0.643305 0.466133
0.505547 0.636042 0.474891
0.564691 0.618555 0.452796
0.686366 0.651575 0.426001
0.866026 0.681788 0.447913
0.991394 0.668544 0.473701
0.419043 0.751766 0.477424
0.430335 0.751522 0.478279
0.465095 0.750576 0.478889
0.528618 0.739254 0.485176
0.585657 0.718166 0.464057
0.673152 0.730312 0.436561
0.809262 0.760830 0.392248
0.961944 0.766659 0.402655
0.476600 0.872862 0.515312
0.484962 0.872526 0.514916
0.531579 0.868956 0.531731
0.572839 0.861692 0.518181
0.631312 0.850736 0.499641
0.704768 0.840177 0.474556
0.811978 0.865782 0.430213
0.945800 0.881041 0.346990
0.097536 0.299413 0.614801
0.133425 0.279850 0.616510
0.309606 0.279271 0.619532
0.466712 0.266423 0.625422
0.598016 0.262638 0.610590
0.703365 0.299504 0.596643
0.831662 0.289189 0.605829
0.965850 0.156100 0.593744
0.237522 0.368200 0.610559
0.245975 0.351904 0.612421
0.334386 0.331243 0.616693
0.472755 0.316167 0.622980
0.598016 0.306493 0.609644
0.702754 0.330816 0.597833
0.833677 0.311101 0.607019
0.966918 0.193301 0.593042
0.293400 0.450263 0.602228
0.327672 0.451850 0.603296
0.391516 0.439673 0.608484
0.485664 0.419257 0.615778
0.598260 0.403510 0.607141
0.701503 0.408667 0.600519
0.841306 0.370886 0.608606
0.970367 0.280644 0.588586
0.321691 0.522362 0.590661
0.349615 0.524041 0.591943
0.421393 0.528038 0.596399
0.499580 0.519249 0.604730
0.598779 0.500175 0.604028
0.709926 0.490639 0.603845
0.856535 0.445014 0.600885
0.972076 0.391455 0.577478
0.354772 0.592706 0.575280
0.376562 0.592889 0.576654
0.436042 0.593744 0.581353
0.511315 0.595850 0.589166
0.598505 0.597833 0.598962
0.735866 0.579767 0.593439
0.866728 0.559777 0.589075
0.974121 0.536156 0.581933
0.411292 0.678248 0.583032
0.424903 0.678523 0.584344
0.466529 0.679469 0.587701
0.526879 0.680507 0.590906
0.599573 0.674189 0.589593
0.699977 0.681270 0.564843
0.880369 0.716548 0.615900
0.977295 0.686549 0.609827
0.445594 0.778836 0.593408
0.456123 0.778805 0.593957
0.490150 0.778378 0.594965
0.542596 0.776272 0.593835
0.608850 0.763699 0.586725
0.675868 0.744045 0.551019
0.813046 0.776822 0.524224
0.963012 0.786282 0.568078
0.504631 0.887480 0.623194
0.513176 0.887175 0.623499
0.540795 0.885985 0.623499
0.581933 0.883360 0.618280
0.641444 0.873106 0.608576
0.705715 0.856931 0.575647
0.804562 0.869749 0.538598
0.941222 0.886259 0.481605
0.270726 0.419440 0.751034
0.279149 0.407507 0.752285
0.360021 0.398474 0.754940
0.479103 0.390539 0.759182
0.610956 0.372198 0.765621
0.723171 0.362676 0.748043
0.829770 0.377935 0.738216
0.931884 0.402197 0.736660
0.321386 0.458595 0.748623
0.326024 0.447364 0.749935
0.375830 0.426673 0.753353
0.485481 0.416968 0.757809
0.612512 0.398260 0.764370
0.723293 0.385565 0.747677
0.829618 0.396307 0.738277
0.932982 0.413611 0.736904
0.368170 0.525597 0.743008
0.386175 0.524224 0.743984
0.423102 0.505791 0.748104
0.498695 0.484016 0.753628
0.615229 0.467018 0.760525
0.723934 0.448951 0.746639
0.829160 0.451972 0.738155
0.936980 0.450813 0.737026
0.385809 0.591974 0.735348
0.403601 0.592676 0.736263
0.457282 0.593225 0.739620
0.523308 0.575402 0.746059
0.617151 0.554711 0.753872
0.724910 0.534478 0.744839
0.827848 0.533837 0.737514
0.944518 0.507622 0.734646
0.403052 0.659297 0.724605
0.418555 0.659693 0.725521
0.467506 0.660731 0.728756
0.542657 0.662226 0.734340
0.625818 0.652766 0.742641
0.725612 0.631006 0.741665
0.831662 0.621149 0.737087
0.956268 0.578180 0.724605
0.423499 0.727382 0.710628
0.437110 0.727535 0.711513
0.481392 0.728023 0.714565
0.551080 0.728481 0.719539
0.632837 0.728786 0.726101
0.723293 0.728756 0.734127
0.855375 0.715358 0.732235
0.957946 0.700618 0.728634
0.484627 0.810971 0.718929
0.496468 0.811154 0.720302
0.533471 0.811307 0.723568
0.586389 0.810758 0.725795
0.647974 0.808530 0.724971
0.715236 0.796658 0.715084
0.818418 0.802365 0.687556
0.957671 0.829618 0.757870
0.548852 0.903716 0.737789
0.556878 0.903532 0.738308
0.583062 0.902739 0.739376
0.622766 0.901183 0.738796
0.671351 0.897948 0.733303
0.728206 0.886748 0.716640
0.798642 0.873777 0.673091
0.932219 0.894011 0.640650
0.375769 0.521386 0.870573
0.379583 0.512840 0.871427
0.420417 0.499001 0.873320
0.508995 0.492164 0.875731
0.615595 0.479194 0.879271
0.734066 0.458717 0.882475
0.839353 0.443427 0.869352
0.935729 0.466957 0.856077
0.402258 0.546227 0.869261
0.405127 0.537987 0.870115
0.430274 0.516716 0.872557
0.514611 0.509331 0.874998
0.618280 0.496345 0.878630
0.735348 0.475837 0.882292
0.839536 0.459754 0.869169
0.935332 0.481819 0.856046
0.442512 0.601526 0.865812
0.457832 0.601434 0.866361
0.480385 0.584222 0.868986
0.532952 0.562921 0.872557
0.627924 0.550958 0.876341
0.739742 0.531853 0.881254
0.840330 0.513115 0.868406
0.933959 0.529381 0.855955
0.457801 0.661677 0.861204
0.472389 0.661585 0.861723
0.520592 0.661677 0.863523
0.577234 0.650294 0.867369
0.644709 0.630213 0.872282
0.745266 0.614191 0.877623
0.841703 0.590997 0.867185
0.931914 0.597650 0.855375
0.472908 0.722713 0.854856
0.486824 0.723445 0.855344
0.531884 0.725887 0.857145
0.598596 0.729183 0.860563
0.670100 0.718410 0.866056
0.750179 0.699916 0.872587
0.843565 0.676967 0.865629
0.928985 0.677577 0.854337
0.491676 0.788540 0.846525
0.504173 0.788815 0.847013
0.544915 0.789731 0.848722
0.606012 0.790890 0.851865
0.680140 0.792172 0.856748
0.759548 0.786435 0.863767
0.844877 0.766384 0.862730
0.927977 0.758816 0.853819
0.513054 0.854276 0.836179
0.524071 0.854124 0.836667
0.560021 0.853574 0.838132
0.614954 0.852720 0.840726
0.684230 0.851621 0.844450
0.762173 0.850309 0.849302
0.841459 0.848539 0.854643
0.939269 0.841855 0.855985
0.597742 0.919585 0.838865
0.605982 0.919432 0.839689
0.633082 0.919097 0.842374
0.676692 0.918517 0.846921
0.726131 0.917266 0.848966
0.779141 0.914366 0.847929
0.829770 0.903563 0.834012
0.921172 0.906462 0.806516
0.525963 0.641474 0.949096
0.527672 0.636347 0.949523
0.542290 0.623560 0.950652
0.593164 0.619196 0.951385
0.660639 0.611078 0.952453
0.741573 0.597436 0.953948
0.832334 0.579736 0.954070
0.922789 0.564782 0.948943
0.544701 0.659480 0.948058
0.546105 0.654536 0.948486
0.553094 0.637629 0.949950
0.601251 0.632868 0.950713
0.666041 0.624567 0.951873
0.744686 0.610834 0.953399
0.833707 0.592828 0.953704
0.922911 0.576898 0.948608
0.584070 0.704189 0.945434
0.596674 0.706874 0.945373
0.601801 0.691981 0.946868
0.626032 0.674800 0.948669
0.683162 0.666316 0.949920
0.754696 0.653071 0.951598
0.838346 0.634455 0.952514
0.923247 0.615717 0.947601
0.581537 0.737362 0.943511
0.594110 0.739376 0.943511
0.635523 0.746700 0.943542
0.672663 0.741939 0.944823
0.707942 0.725002 0.947021
0.769680 0.712978 0.948882
0.845609 0.694911 0.950774
0.923980 0.672969 0.946105
0.594720 0.786404 0.940215
0.604150 0.787350 0.940337
0.635096 0.790555 0.940703
0.681727 0.791135 0.941772
0.742916 0.793332 0.943084
0.786618 0.777432 0.945708
0.853574 0.763333 0.948089
0.925139 0.741726 0.944213
0.610986 0.837064 0.936370
0.619471 0.837552 0.936492
0.647547 0.839048 0.936919
0.691890 0.841306 0.937804
0.749233 0.845212 0.939269
0.812711 0.845640 0.941558
0.863615 0.832975 0.944549
0.926665 0.814786 0.942046
0.629633 0.891051 0.931853
0.637110 0.891112 0.931975
0.661982 0.891173 0.932433
0.702693 0.891325 0.933288
0.756283 0.891997 0.934691
0.817655 0.894072 0.936797
0.877958 0.895079 0.940093
0.928344 0.882261 0.939910
0.649928 0.945068 0.926818
0.656397 0.944762 0.926909
0.678309 0.943725 0.927337
0.715358 0.941924 0.928099
0.764492 0.939422 0.929259
0.820951 0.936553 0.930938
0.878508 0.933928 0.933288
0.927306 0.931975 0.935851
