其他预设/【233】日式怀旧街道调色预设208款/1.3D LUT预设（视频调色-PR-AE-PS-FCPX-达芬奇用）/3.日式城市街拍预设 (自动曝光预设)/JA – Faded Soft 1 (Auto-Exposure).cube
# Created by Adobe Lightroom plugin Export LUT (1.17.0)
# www.johnrellis.com/lightroom/exportlut.htm
# Preset: JA – Faded Soft 1 (Auto-Exposure)
# Color profile: /Library/Application Support/Adobe/Color/Profiles/Recommended/AdobeRGB1998.icc
LUT_3D_SIZE 8
DOMAIN_MIN 0.000000 0.000000 0.000000
DOMAIN_MAX 0.903226 0.903226 0.903226
0.087770 0.083711 0.080781
0.143099 0.081392 0.078706
0.300542 0.076356 0.062867
0.501152 0.088869 0.000000
0.661280 0.106111 0.000000
0.783719 0.120821 0.000000
0.888518 0.127596 0.000000
0.988983 0.122621 0.000000
0.100984 0.127535 0.085023
0.142367 0.129397 0.081239
0.314641 0.155459 0.042054
0.510613 0.174319 0.000000
0.666804 0.181979 0.000000
0.787076 0.183841 0.000000
0.890745 0.181674 0.000000
0.990265 0.173556 0.000000
0.137575 0.242100 0.087739
0.176364 0.233249 0.088106
0.292851 0.264561 0.066072
0.529534 0.331579 0.000000
0.685359 0.329046 0.000000
0.798581 0.313878 0.000000
0.898436 0.298924 0.000000
0.994629 0.283574 0.000000
0.192508 0.399084 0.077790
0.228702 0.389319 0.077272
0.314977 0.379187 0.067750
0.475837 0.438880 0.000000
0.679164 0.480568 0.000000
0.817166 0.464332 0.000000
0.911467 0.434882 0.000000
1.000000 0.408942 0.000000
0.248173 0.531853 0.092592
0.275212 0.523705 0.089021
0.341314 0.494759 0.077852
0.453040 0.517144 0.030854
0.615473 0.574578 0.000000
0.787045 0.595392 0.000000
0.913390 0.574304 0.000000
1.000000 0.540429 0.000000
0.301335 0.636378 0.141482
0.320012 0.630243 0.136416
0.372625 0.608179 0.118776
0.439643 0.576898 0.090181
0.574395 0.632990 0.087160
0.731838 0.686366 0.089967
0.878691 0.693629 0.000000
0.999329 0.667872 0.000000
0.359289 0.738857 0.204746
0.372503 0.734585 0.199313
0.413733 0.718990 0.180575
0.470466 0.689509 0.144717
0.560632 0.696132 0.132052
0.696376 0.747219 0.162295
0.840665 0.788144 0.194095
0.969207 0.786007 0.079683
0.435676 0.848539 0.302068
0.445289 0.846098 0.297856
0.477363 0.837339 0.282292
0.528283 0.821286 0.253422
0.590570 0.797421 0.209812
0.703883 0.833036 0.245640
0.832517 0.871214 0.283696
0.957488 0.893706 0.309087
0.077333 0.093904 0.143679
0.141970 0.088350 0.136019
0.296880 0.025696 0.132052
0.498268 0.000000 0.106447
0.658473 0.000000 0.062440
0.781674 0.058747 0.000000
0.887297 0.080598 0.000000
0.988495 0.074311 0.000000
0.089815 0.145327 0.140902
0.147738 0.141390 0.137362
0.311131 0.138308 0.126314
0.507103 0.141207 0.099916
0.663844 0.148714 0.044709
0.785000 0.155215 0.000000
0.889494 0.156344 0.000000
0.989807 0.146853 0.000000
0.108919 0.268833 0.136843
0.179232 0.265721 0.142000
0.305180 0.279820 0.132692
0.533196 0.323339 0.065278
0.682002 0.315618 0.000000
0.796384 0.301884 0.000000
0.897093 0.287663 0.000000
0.994202 0.270848 0.000000
0.177615 0.424994 0.143618
0.227054 0.415839 0.145785
0.319005 0.391302 0.134066
0.482429 0.448066 0.117739
0.680812 0.479469 0.000000
0.814694 0.459602 0.000000
0.909941 0.430426 0.000000
1.000000 0.402991 0.000000
0.247715 0.549187 0.166659
0.276280 0.541100 0.161990
0.346715 0.512413 0.146212
0.455146 0.523125 0.134463
0.617914 0.579461 0.132235
0.788266 0.597223 0.000000
0.913817 0.575036 0.000000
1.000000 0.538964 0.000000
0.305669 0.647578 0.201663
0.324102 0.641566 0.196567
0.376837 0.619623 0.178042
0.439918 0.579889 0.145510
0.575036 0.635706 0.159823
0.732113 0.689021 0.180819
0.878691 0.696345 0.083986
0.999054 0.669276 0.000000
0.364508 0.745510 0.251011
0.377264 0.741268 0.245609
0.417304 0.725887 0.226322
0.473396 0.696651 0.190555
0.559747 0.696712 0.176150
0.695796 0.748043 0.211521
0.839719 0.789487 0.249454
0.968292 0.788357 0.187015
0.439918 0.851865 0.334386
0.449134 0.849424 0.329870
0.480110 0.840726 0.313878
0.529778 0.824643 0.284306
0.591211 0.800626 0.239658
0.702571 0.832700 0.272343
0.831510 0.871366 0.314092
0.956023 0.894255 0.344518
0.000000 0.137240 0.369451
0.097993 0.098177 0.353796
0.306065 0.064393 0.314977
0.491798 0.000000 0.309239
0.641444 0.000000 0.281041
0.766293 0.084596 0.264378
0.877073 0.104646 0.236698
0.982849 0.033753 0.183688
0.000000 0.225162 0.369360
0.086030 0.183291 0.352819
0.309361 0.152285 0.316136
0.494881 0.124056 0.306218
0.641657 0.142580 0.282597
0.770535 0.165469 0.265263
0.879149 0.172641 0.239017
0.984070 0.141878 0.185946
0.000000 0.343603 0.344060
0.141512 0.337255 0.337591
0.320806 0.318181 0.317723
0.512383 0.314061 0.303227
0.662501 0.312932 0.288548
0.781552 0.311162 0.272709
0.886381 0.302831 0.247776
0.988067 0.277379 0.194522
0.125734 0.478737 0.325017
0.200351 0.475593 0.320867
0.344182 0.457069 0.316869
0.493324 0.474220 0.317235
0.681209 0.488869 0.298131
0.799527 0.468116 0.287205
0.898589 0.446052 0.265446
0.994293 0.416022 0.212802
0.216129 0.592554 0.308110
0.259586 0.589075 0.309270
0.370764 0.566522 0.321935
0.460975 0.539666 0.294102
0.621424 0.595270 0.327977
0.785855 0.610651 0.308476
0.910796 0.592462 0.293034
1.000000 0.555047 0.243595
0.303410 0.682856 0.328527
0.346593 0.677882 0.350011
0.400000 0.657282 0.334813
0.460273 0.617853 0.293400
0.576837 0.644038 0.305180
0.730861 0.697963 0.350011
0.876677 0.708949 0.330053
0.994232 0.684077 0.274205
0.389044 0.767605 0.381750
0.400855 0.763607 0.377569
0.435889 0.748959 0.357549
0.486519 0.720851 0.317876
0.556207 0.697688 0.281163
0.693385 0.750484 0.330968
0.835813 0.794095 0.383886
0.964385 0.797513 0.362860
0.458900 0.863767 0.434546
0.465400 0.861387 0.427955
0.492378 0.852689 0.410986
0.536980 0.836576 0.379217
0.594202 0.812253 0.330632
0.697353 0.831205 0.347326
0.827665 0.871611 0.398840
0.951141 0.896208 0.440284
0.000000 0.200443 0.618952
0.000000 0.143008 0.609979
0.288487 0.126955 0.574517
0.488502 0.104494 0.533165
0.637293 0.120272 0.494331
0.752132 0.200504 0.466743
0.850553 0.280552 0.462531
0.956207 0.306828 0.454292
0.000000 0.291539 0.615839
0.000000 0.255406 0.606500
0.290654 0.213046 0.574640
0.489784 0.195285 0.532830
0.637079 0.205173 0.495674
0.750881 0.257725 0.471962
0.849027 0.319005 0.469795
0.958862 0.320806 0.451514
0.000000 0.438239 0.613764
0.000000 0.433478 0.608392
0.323552 0.394232 0.576715
0.494240 0.359197 0.530724
0.635248 0.364080 0.503349
0.746334 0.388312 0.490883
0.854063 0.399725 0.480964
0.965728 0.380926 0.451270
0.000000 0.559777 0.576257
0.173770 0.555718 0.571862
0.357427 0.541497 0.556481
0.500999 0.514763 0.527276
0.645228 0.512932 0.518608
0.763088 0.510826 0.509819
0.869474 0.504509 0.496132
0.972656 0.485908 0.467842
0.238895 0.649256 0.531487
0.286717 0.645472 0.529625
0.396582 0.632319 0.523278
0.503655 0.603906 0.512413
0.623407 0.621149 0.521691
0.777462 0.640009 0.527520
0.888487 0.628138 0.519493
0.980621 0.603021 0.491341
0.326299 0.725521 0.504326
0.353918 0.722377 0.505547
0.426825 0.711208 0.507256
0.509300 0.682063 0.500511
0.580011 0.656489 0.465583
0.727626 0.713008 0.521508
0.872374 0.732509 0.526299
0.982513 0.717708 0.513970
0.396002 0.800412 0.507958
0.412543 0.797757 0.508904
0.463203 0.787686 0.512169
0.521172 0.761471 0.494728
0.565942 0.718593 0.430243
0.688136 0.753597 0.465461
0.829770 0.801999 0.527977
0.958495 0.812650 0.528801
0.468238 0.886992 0.541619
0.481025 0.884733 0.543847
0.527855 0.874968 0.555962
0.555016 0.858915 0.514061
0.603449 0.833860 0.463081
0.685145 0.827146 0.437934
0.820066 0.871641 0.500084
0.943694 0.899382 0.552789
0.000000 0.276280 0.781949
0.000000 0.240391 0.777829
0.198062 0.236759 0.759426
0.457404 0.246464 0.723659
0.623865 0.246189 0.691341
0.745907 0.280034 0.649195
0.845335 0.339086 0.623590
0.943420 0.394018 0.619440
0.000000 0.364843 0.778622
0.000000 0.339727 0.774746
0.231998 0.305699 0.758297
0.464332 0.304662 0.723476
0.624384 0.298528 0.690333
0.744839 0.322911 0.650355
0.844083 0.370428 0.626978
0.942412 0.416266 0.622889
0.000000 0.500908 0.781521
0.185855 0.499550 0.775204
0.346929 0.475074 0.755428
0.488655 0.442634 0.723354
0.626459 0.423316 0.687037
0.741268 0.430579 0.654353
0.840360 0.455390 0.637385
0.939330 0.480812 0.633021
0.169223 0.614771 0.766415
0.255009 0.615656 0.763973
0.410254 0.617060 0.755245
0.529259 0.588403 0.724788
0.629572 0.550225 0.682277
0.737270 0.548272 0.661250
0.835630 0.555291 0.649989
0.939666 0.554376 0.638300
0.272435 0.711421 0.734127
0.319921 0.709133 0.731716
0.430640 0.700771 0.723018
0.542718 0.684627 0.706172
0.632563 0.656306 0.676692
0.747158 0.655360 0.671473
0.854063 0.651881 0.663569
0.955779 0.640650 0.647242
0.379339 0.775204 0.694362
0.406012 0.773007 0.694423
0.476081 0.764309 0.690303
0.555566 0.748135 0.678218
0.621180 0.715572 0.650019
0.727596 0.733730 0.664118
0.869230 0.759243 0.680934
0.966278 0.747738 0.672511
0.445716 0.837949 0.671107
0.461372 0.835843 0.671015
0.507042 0.828214 0.668971
0.563928 0.813321 0.658808
0.613245 0.779751 0.624292
0.677668 0.755642 0.583032
0.824704 0.813291 0.655116
0.954101 0.830594 0.666896
0.509117 0.912200 0.677333
0.518700 0.910674 0.676844
0.547967 0.905089 0.673365
0.585748 0.893858 0.658625
0.626642 0.868742 0.618494
0.671717 0.831266 0.542199
0.806973 0.870481 0.595636
0.935180 0.903807 0.661036
0.000000 0.376013 0.886381
0.000000 0.361639 0.884215
0.184085 0.354528 0.874601
0.434089 0.373938 0.855100
0.595178 0.382635 0.824369
0.730068 0.385382 0.803159
0.841032 0.411383 0.774929
0.937652 0.451606 0.755245
0.000000 0.447456 0.883940
0.000000 0.434455 0.881895
0.250065 0.409033 0.873442
0.451637 0.418524 0.854429
0.601007 0.418708 0.824063
0.730587 0.415717 0.802365
0.840208 0.435828 0.775387
0.936889 0.470130 0.756802
0.263615 0.563500 0.883482
0.314641 0.565545 0.880278
0.403479 0.553521 0.870054
0.499825 0.528527 0.853208
0.618860 0.513695 0.823758
0.732357 0.498573 0.799924
0.837736 0.505516 0.776822
0.934508 0.525750 0.761349
0.339300 0.667750 0.883757
0.383215 0.672114 0.882353
0.486915 0.678126 0.874418
0.571801 0.657862 0.853178
0.644556 0.623285 0.825040
0.735073 0.596368 0.796506
0.834684 0.592462 0.778134
0.931548 0.599329 0.766293
0.390570 0.749966 0.866758
0.422400 0.751064 0.865660
0.508476 0.753902 0.861753
0.607202 0.755428 0.855131
0.675563 0.727230 0.830777
0.738125 0.685542 0.792721
0.832883 0.676570 0.778134
0.929259 0.675013 0.767788
0.437324 0.822293 0.842405
0.460182 0.821134 0.841245
0.525872 0.816953 0.837125
0.605890 0.808835 0.829252
0.678126 0.794736 0.815610
0.739315 0.764981 0.786648
0.846036 0.764675 0.783291
0.942718 0.759670 0.775418
0.502708 0.878111 0.815885
0.518334 0.876768 0.815793
0.565393 0.872221 0.815213
0.624964 0.864317 0.811368
0.677058 0.847868 0.793271
0.717159 0.808835 0.751949
0.825315 0.830869 0.769558
0.948394 0.852262 0.791531
0.565759 0.937804 0.806943
0.574701 0.936767 0.806577
0.602136 0.933043 0.804227
0.639216 0.926177 0.796353
0.677302 0.913787 0.776394
0.710475 0.882994 0.726833
0.785031 0.865537 0.686580
0.926879 0.909941 0.762203
0.169039 0.495674 0.957427
0.201785 0.489815 0.956634
0.306096 0.480140 0.953033
0.463905 0.497230 0.944182
0.599664 0.508873 0.929931
0.716121 0.507347 0.907530
0.828855 0.505364 0.895140
0.932586 0.525444 0.878569
0.287755 0.545434 0.955505
0.302556 0.538994 0.954772
0.352331 0.518303 0.951934
0.484962 0.528923 0.943420
0.609247 0.534844 0.929503
0.719783 0.528618 0.907378
0.829374 0.523644 0.894682
0.932036 0.540246 0.878569
0.406134 0.634272 0.953307
0.437537 0.639704 0.951751
0.484871 0.632837 0.948058
0.542077 0.613519 0.941650
0.638209 0.608118 0.928588
0.731655 0.591547 0.907164
0.831205 0.578576 0.893217
0.930388 0.585840 0.878569
0.465919 0.716640 0.953521
0.491096 0.719844 0.952239
0.561059 0.728145 0.947631
0.625635 0.722560 0.939788
0.676570 0.697383 0.928740
0.749172 0.672602 0.908049
0.834226 0.649866 0.891356
0.928649 0.645930 0.877684
0.504814 0.787137 0.948425
0.527825 0.790280 0.947906
0.592828 0.799344 0.946319
0.670130 0.807767 0.943603
0.721675 0.787747 0.931518
0.767575 0.751949 0.911894
0.838102 0.720485 0.889586
0.927245 0.711238 0.875273
0.541527 0.852384 0.937774
0.558373 0.853300 0.937438
0.608606 0.855924 0.936370
0.674495 0.858671 0.934874
0.745235 0.860288 0.933013
0.796872 0.838773 0.919097
0.841947 0.792020 0.886961
0.925841 0.780911 0.871916
0.569665 0.911681 0.923857
0.582177 0.911315 0.923522
0.620722 0.909972 0.922301
0.674098 0.907530 0.920073
0.734463 0.902892 0.916014
0.794980 0.892973 0.907256
0.841978 0.862699 0.880003
0.931670 0.862486 0.877897
0.615930 0.957366 0.904601
0.624781 0.956664 0.904509
0.653040 0.954437 0.904021
0.695521 0.950713 0.902739
0.746700 0.945251 0.900298
0.788327 0.934752 0.886290
0.809689 0.903716 0.838224
0.920043 0.919219 0.861631
0.427985 0.615198 0.986603
0.436316 0.612604 0.986450
0.462898 0.602869 0.985901
0.545983 0.615717 0.982879
0.636652 0.627527 0.978546
0.727047 0.632593 0.972625
0.815824 0.626062 0.964355
0.909392 0.620539 0.959960
0.470893 0.645441 0.984955
0.477302 0.642664 0.984833
0.497780 0.631983 0.984405
0.564477 0.637232 0.981872
0.647364 0.645441 0.977813
0.732387 0.647364 0.972107
0.817899 0.638178 0.963928
0.909758 0.631098 0.959655
0.547845 0.709560 0.981567
0.570397 0.717342 0.980652
0.586816 0.709651 0.980133
0.614832 0.696315 0.979065
0.678248 0.696651 0.975616
0.748745 0.691371 0.970581
0.824369 0.675349 0.962737
0.911040 0.664027 0.958587
0.557427 0.748653 0.980713
0.578973 0.754726 0.979919
0.640406 0.772580 0.977325
0.689601 0.777584 0.974914
0.718624 0.761593 0.973053
0.771664 0.750332 0.968780
0.834043 0.728328 0.961700
0.913268 0.710842 0.957122
0.600122 0.809415 0.977874
0.615717 0.812955 0.977478
0.659449 0.821378 0.976135
0.711788 0.827146 0.973938
0.773983 0.835355 0.970123
0.799954 0.814450 0.967254
0.846738 0.789273 0.960906
0.916320 0.766629 0.955352
0.626734 0.858579 0.973541
0.639155 0.860380 0.973266
0.677882 0.866056 0.972473
0.735348 0.875212 0.971191
0.804074 0.888731 0.969421
0.847684 0.886320 0.965484
0.867796 0.858549 0.960327
0.920195 0.829435 0.953155
0.657435 0.908843 0.968139
0.667048 0.909422 0.967956
0.697871 0.911345 0.967437
0.746120 0.914672 0.966644
0.805844 0.919829 0.965606
0.866270 0.926879 0.964538
0.902464 0.924041 0.961120
0.924315 0.890990 0.950744
0.681880 0.956115 0.962219
0.689265 0.955993 0.962097
0.713985 0.955566 0.961761
0.754482 0.954772 0.961120
0.805203 0.953613 0.960266
0.857328 0.952026 0.959106
0.901152 0.949462 0.957183
0.925475 0.937224 0.946838
