其他预设/【233】日式怀旧街道调色预设208款/1.3D LUT预设（视频调色-PR-AE-PS-FCPX-达芬奇用）/3.日式城市街拍预设 (自动曝光预设)/JA – Gritty Contrast 3 (Auto-Exposure).cube
# Created by Adobe Lightroom plugin Export LUT (1.17.0)
# www.johnrellis.com/lightroom/exportlut.htm
# Preset: JA – Gritty Contrast 3 (Auto-Exposure)
# Color profile: /Library/Application Support/Adobe/Color/Profiles/Recommended/AdobeRGB1998.icc
LUT_3D_SIZE 8
DOMAIN_MIN 0.000000 0.000000 0.000000
DOMAIN_MAX 0.903226 0.903226 0.903226
0.106477 0.112825 0.121218
0.128573 0.115236 0.123720
0.238285 0.116579 0.124849
0.450690 0.109865 0.111421
0.584985 0.113161 0.094759
0.671260 0.116152 0.085603
0.785550 0.117617 0.096345
0.944152 0.187259 0.198093
0.110170 0.132967 0.124819
0.135378 0.133974 0.120607
0.329442 0.177035 0.106813
0.505425 0.181247 0.090730
0.611933 0.173434 0.076936
0.692897 0.164828 0.068299
0.808957 0.161135 0.080873
0.958618 0.215732 0.192721
0.107851 0.262211 0.118959
0.181979 0.284306 0.108705
0.384070 0.328466 0.062531
0.615503 0.364599 0.000000
0.690333 0.313664 0.000000
0.776730 0.289494 0.000000
0.887938 0.277775 0.000000
1.000000 0.299107 0.163668
0.087404 0.478737 0.066346
0.201633 0.485969 0.021332
0.402533 0.503838 0.000000
0.599298 0.493385 0.000000
0.782895 0.499031 0.000000
0.916045 0.479744 0.000000
0.989319 0.440681 0.000000
1.000000 0.414984 0.000000
0.178042 0.591455 0.165743
0.235080 0.594598 0.154910
0.379431 0.605127 0.097597
0.565179 0.620478 0.000000
0.756374 0.616754 0.000000
0.950591 0.642725 0.000000
1.000000 0.617792 0.000000
1.000000 0.546715 0.000000
0.313787 0.695613 0.289921
0.339727 0.700710 0.284062
0.426886 0.718532 0.260044
0.573053 0.748104 0.196048
0.758022 0.775265 0.000000
0.933684 0.769894 0.000000
1.000000 0.742306 0.000000
1.000000 0.675685 0.000000
0.427649 0.847471 0.368841
0.446357 0.851438 0.365362
0.510948 0.864591 0.352300
0.621088 0.884794 0.323003
0.760922 0.903929 0.255650
0.916258 0.911223 0.149783
1.000000 0.865843 0.000000
1.000000 0.788174 0.000000
0.518029 0.970672 0.429328
0.532189 0.971527 0.427405
0.580011 0.973938 0.420447
0.658625 0.976471 0.405615
0.758816 0.976654 0.376959
0.865080 0.972686 0.309789
0.982727 0.961364 0.237949
1.000000 0.895476 0.143252
0.108553 0.118410 0.139712
0.122683 0.119142 0.139528
0.208438 0.111055 0.142947
0.429114 0.076112 0.131136
0.574670 0.088106 0.115908
0.665797 0.111940 0.109071
0.788968 0.135103 0.108827
0.949218 0.197696 0.195315
0.110658 0.130434 0.140749
0.127413 0.134646 0.144076
0.268589 0.138827 0.139651
0.476814 0.145113 0.122591
0.598474 0.149264 0.109010
0.683894 0.155734 0.103853
0.809323 0.171633 0.102907
0.963073 0.224521 0.190066
0.084016 0.248142 0.169009
0.128450 0.278538 0.141176
0.366888 0.317418 0.105409
0.594720 0.337469 0.054444
0.671473 0.292363 0.067994
0.757321 0.273198 0.070253
0.879545 0.276829 0.069245
1.000000 0.304906 0.160250
0.000000 0.473274 0.173709
0.151736 0.482612 0.150576
0.380591 0.501457 0.092866
0.592981 0.490242 0.000000
0.774746 0.491859 0.000000
0.899779 0.465583 0.000000
0.979248 0.433661 0.000000
1.000000 0.418555 0.000000
0.204013 0.586450 0.249393
0.250401 0.589746 0.242893
0.378088 0.600946 0.214481
0.556786 0.617853 0.125338
0.749538 0.614740 0.000000
0.945403 0.643915 0.000000
1.000000 0.618128 0.000000
1.000000 0.546014 0.000000
0.337163 0.689754 0.334020
0.359289 0.694820 0.330327
0.437079 0.713008 0.314092
0.574670 0.744045 0.273259
0.753353 0.773251 0.185641
0.928618 0.770748 0.102480
1.000000 0.747982 0.135714
1.000000 0.682216 0.000000
0.435340 0.843565 0.393011
0.453162 0.847623 0.390356
0.515526 0.861234 0.379919
0.622889 0.882078 0.357214
0.760983 0.902190 0.308568
0.913634 0.910735 0.240085
1.000000 0.868070 0.198398
1.000000 0.794003 0.187778
0.517235 0.969604 0.442542
0.531395 0.970489 0.440833
0.579309 0.973053 0.434638
0.658167 0.975769 0.421881
0.758785 0.976135 0.398047
0.865110 0.972229 0.345220
0.980896 0.961303 0.290440
1.000000 0.897704 0.233555
0.080964 0.130739 0.229801
0.112917 0.127535 0.238682
0.217563 0.112367 0.242222
0.408484 0.000000 0.266636
0.509117 0.000000 0.216617
0.606226 0.091127 0.218814
0.719448 0.163302 0.240513
0.912932 0.235325 0.285069
0.077211 0.158450 0.240696
0.096345 0.151186 0.256718
0.239078 0.139071 0.262730
0.418708 0.103517 0.264195
0.512963 0.088258 0.220035
0.623102 0.153017 0.231907
0.738582 0.197635 0.249424
0.927672 0.259373 0.288334
0.009094 0.242069 0.260410
0.089387 0.256443 0.273716
0.298131 0.301274 0.308263
0.490974 0.292546 0.292271
0.599451 0.285527 0.279881
0.684413 0.285801 0.274754
0.811795 0.297673 0.277195
0.972839 0.336004 0.298772
0.000000 0.437507 0.324804
0.129244 0.450599 0.328954
0.344488 0.482918 0.337865
0.561242 0.488808 0.309697
0.730983 0.505791 0.353246
0.826322 0.469001 0.328832
0.930785 0.452705 0.312413
1.000000 0.452094 0.310399
0.218723 0.568017 0.357397
0.278996 0.571099 0.364935
0.403937 0.583062 0.378882
0.542260 0.604730 0.360418
0.720241 0.612848 0.334600
0.923980 0.662318 0.362249
1.000000 0.639704 0.344640
1.000000 0.582330 0.317784
0.362921 0.669215 0.407843
0.393774 0.674159 0.414038
0.463050 0.693812 0.416083
0.574762 0.728115 0.401709
0.739010 0.765591 0.369207
0.911498 0.773098 0.347509
1.000000 0.767056 0.371405
1.000000 0.718257 0.363653
0.446082 0.828489 0.451728
0.462959 0.833768 0.450752
0.515221 0.849699 0.441901
0.617700 0.873106 0.430091
0.755459 0.896971 0.407568
0.904692 0.909178 0.375402
1.000000 0.874418 0.362646
1.000000 0.811185 0.375219
0.516991 0.964996 0.487343
0.523522 0.966766 0.480812
0.572015 0.969970 0.476509
0.651942 0.973571 0.467750
0.753780 0.974731 0.451759
0.862058 0.971313 0.420966
0.974945 0.961303 0.390326
1.000000 0.904021 0.369574
0.000000 0.163973 0.408331
0.000000 0.150729 0.417121
0.243046 0.149111 0.425025
0.419928 0.128573 0.419318
0.541588 0.188022 0.401312
0.593164 0.187716 0.354589
0.642359 0.184329 0.320684
0.792721 0.248508 0.352575
0.000000 0.204257 0.413916
0.000000 0.195590 0.421210
0.257633 0.209293 0.430915
0.430365 0.200443 0.425391
0.543145 0.234501 0.403784
0.592737 0.220401 0.357000
0.640986 0.204532 0.320592
0.812497 0.268650 0.359869
0.000000 0.301122 0.419867
0.054597 0.306218 0.425544
0.309483 0.341955 0.440772
0.460792 0.352148 0.441169
0.546899 0.338445 0.411597
0.590692 0.299565 0.364019
0.676722 0.305608 0.357153
0.880766 0.339696 0.384375
0.000000 0.422370 0.425513
0.138064 0.429206 0.429725
0.339605 0.450752 0.442817
0.501305 0.481544 0.462287
0.593744 0.467811 0.447913
0.683223 0.455238 0.434028
0.816922 0.447852 0.421027
0.974182 0.458473 0.418067
0.227390 0.534569 0.437842
0.279149 0.538598 0.442481
0.404364 0.551568 0.458350
0.526299 0.578393 0.475685
0.674403 0.603265 0.468574
0.896696 0.668391 0.491371
0.977356 0.631403 0.468421
1.000000 0.600793 0.449348
0.365332 0.636316 0.467414
0.392981 0.640284 0.472389
0.466560 0.657862 0.485878
0.552941 0.698482 0.487648
0.704524 0.747707 0.476967
0.886564 0.769497 0.464912
1.000000 0.779995 0.490608
1.000000 0.738186 0.486152
0.442359 0.798001 0.514336
0.457435 0.803220 0.515160
0.503685 0.822873 0.513390
0.584741 0.855558 0.499641
0.727810 0.887358 0.490272
0.885466 0.906737 0.471473
1.000000 0.880369 0.466804
1.000000 0.826200 0.488869
0.506157 0.953735 0.550591
0.518730 0.955566 0.549248
0.563714 0.961334 0.545312
0.638605 0.968414 0.536522
0.742000 0.971893 0.527825
0.852628 0.970245 0.507439
0.964324 0.961730 0.482246
1.000000 0.911101 0.469917
0.000000 0.213779 0.507042
0.000000 0.219211 0.509941
0.264927 0.261997 0.513573
0.415656 0.288426 0.516899
0.540764 0.287663 0.507439
0.622644 0.333806 0.489906
0.682399 0.325872 0.462501
0.797543 0.314397 0.456641
0.000000 0.254612 0.507897
0.080842 0.263066 0.510277
0.296849 0.307378 0.514519
0.428962 0.327062 0.517723
0.545098 0.324254 0.508965
0.624079 0.357702 0.492836
0.681727 0.339269 0.462928
0.796109 0.321630 0.454383
0.112398 0.339544 0.508080
0.197940 0.350622 0.509758
0.345708 0.386755 0.515373
0.467475 0.417517 0.520378
0.559319 0.414801 0.514549
0.627955 0.417945 0.499916
0.678920 0.376654 0.462684
0.790311 0.341222 0.443763
0.186587 0.429999 0.507652
0.246403 0.437049 0.509209
0.379400 0.461433 0.514397
0.505119 0.496956 0.525017
0.581872 0.502281 0.525750
0.630976 0.474891 0.501671
0.671138 0.417823 0.454505
0.812467 0.386511 0.437171
0.259800 0.522271 0.507317
0.302373 0.525353 0.508904
0.409064 0.535760 0.514519
0.516533 0.553277 0.525536
0.612665 0.579339 0.544305
0.708003 0.560204 0.524468
0.838132 0.545190 0.505608
0.983185 0.543999 0.494301
0.365148 0.604150 0.515526
0.390265 0.605219 0.517784
0.457771 0.610407 0.525475
0.535637 0.642603 0.545556
0.637201 0.707546 0.556756
0.846494 0.754879 0.557397
0.997284 0.800565 0.625696
1.000000 0.736172 0.573266
0.439979 0.750027 0.568750
0.453040 0.755306 0.571313
0.492836 0.774990 0.578058
0.557488 0.811673 0.582483
0.673640 0.862028 0.577966
0.850828 0.898741 0.578088
0.992798 0.887663 0.581811
1.000000 0.854307 0.633295
0.490974 0.933532 0.625513
0.502159 0.935912 0.624994
0.542260 0.943725 0.622858
0.621180 0.954589 0.622217
0.732296 0.963775 0.627649
0.845609 0.966369 0.626551
0.950011 0.961547 0.607050
1.000000 0.922393 0.598688
0.129793 0.306340 0.577447
0.203006 0.321477 0.579034
0.349828 0.371618 0.583368
0.447333 0.389197 0.587945
0.553918 0.409125 0.595575
0.635279 0.400488 0.578119
0.739193 0.413611 0.585412
0.868650 0.404456 0.597559
0.185916 0.335698 0.577447
0.238407 0.348180 0.579004
0.373663 0.397986 0.584314
0.460670 0.411536 0.589105
0.560693 0.427924 0.596979
0.638849 0.418006 0.580011
0.741573 0.424903 0.587304
0.868620 0.409857 0.595880
0.262852 0.397803 0.577111
0.297826 0.406439 0.578515
0.393622 0.436774 0.584619
0.493904 0.467750 0.593408
0.578912 0.476661 0.602502
0.651209 0.465370 0.587488
0.750149 0.457679 0.593042
0.867979 0.426215 0.588495
0.304784 0.463630 0.577874
0.336675 0.470588 0.579248
0.421851 0.492317 0.584710
0.512535 0.518517 0.598383
0.598474 0.532555 0.612879
0.673182 0.521874 0.602655
0.765499 0.501274 0.600122
0.864317 0.446509 0.569482
0.346075 0.535515 0.579400
0.371618 0.539788 0.580865
0.441444 0.553307 0.586786
0.520317 0.571405 0.599451
0.607294 0.591058 0.623896
0.705623 0.592035 0.626947
0.764309 0.537438 0.582116
0.850492 0.463478 0.527123
0.387030 0.609369 0.582086
0.406531 0.611780 0.583703
0.460975 0.620447 0.589929
0.527855 0.636469 0.602441
0.610071 0.662745 0.624231
0.753933 0.710475 0.664027
0.867979 0.667384 0.616632
0.990509 0.647211 0.589014
0.432136 0.719905 0.618036
0.444373 0.722286 0.619837
0.481636 0.731044 0.625849
0.536034 0.747311 0.634730
0.624292 0.794369 0.658625
0.791714 0.864622 0.696315
0.963958 0.894133 0.726467
0.999969 0.902007 0.807706
0.474556 0.899840 0.697597
0.483680 0.902678 0.698390
0.516747 0.912596 0.700496
0.582269 0.928405 0.703365
0.696498 0.944976 0.713649
0.837980 0.955718 0.746456
0.937346 0.958434 0.759121
1.000000 0.938964 0.766384
0.299046 0.422248 0.701839
0.330144 0.430823 0.703944
0.423499 0.462409 0.711635
0.505119 0.474586 0.718685
0.595056 0.479255 0.728328
0.700099 0.481605 0.741878
0.778805 0.457465 0.709468
0.912566 0.455329 0.737392
0.316228 0.437964 0.702205
0.343877 0.445319 0.704311
0.422858 0.468757 0.712245
0.510826 0.486366 0.720302
0.598352 0.489693 0.730098
0.702327 0.490974 0.743709
0.781491 0.466255 0.711818
0.913939 0.462287 0.738064
0.348119 0.477150 0.702815
0.370489 0.482582 0.704829
0.434028 0.498177 0.712795
0.523186 0.519615 0.725978
0.606409 0.520745 0.735958
0.709010 0.520806 0.749905
0.790890 0.494484 0.720119
0.918608 0.486152 0.740139
0.371435 0.529320 0.705135
0.390295 0.532616 0.706752
0.444190 0.541497 0.712886
0.516472 0.553368 0.728573
0.613764 0.567041 0.745235
0.718441 0.569543 0.759823
0.806638 0.541558 0.734646
0.926207 0.527031 0.742245
0.392432 0.594018 0.709468
0.407904 0.596246 0.711116
0.453193 0.602075 0.717006
0.513939 0.606744 0.728511
0.604242 0.617304 0.750820
0.730770 0.639612 0.771298
0.828519 0.616632 0.754910
0.934966 0.591394 0.743832
0.412207 0.668177 0.715358
0.424598 0.669734 0.716793
0.462593 0.674586 0.722316
0.517784 0.681086 0.732815
0.599603 0.690578 0.749844
0.741238 0.723629 0.779843
0.858244 0.731319 0.783169
0.932677 0.639551 0.711940
0.427985 0.750271 0.722347
0.438056 0.751766 0.723659
0.470100 0.757137 0.728511
0.521599 0.766995 0.737484
0.605432 0.783413 0.752377
0.741268 0.811856 0.777462
0.897398 0.863401 0.826474
0.976684 0.816861 0.766476
0.441840 0.891661 0.782498
0.451087 0.893004 0.783230
0.483223 0.897551 0.785397
0.542321 0.904784 0.788235
0.639277 0.912444 0.791806
0.778164 0.930083 0.811124
0.922850 0.948272 0.862821
0.980194 0.950866 0.888884
0.424750 0.536248 0.881132
0.424537 0.537163 0.880858
0.470253 0.543450 0.884520
0.557671 0.561486 0.888243
0.636744 0.561913 0.891875
0.728969 0.563104 0.896605
0.829862 0.567193 0.902098
0.920623 0.524590 0.881712
0.424292 0.543603 0.880949
0.425208 0.544549 0.880827
0.471534 0.550103 0.884703
0.560296 0.569482 0.888945
0.638758 0.569879 0.892515
0.730648 0.571496 0.897154
0.831296 0.576623 0.902708
0.921477 0.533013 0.882597
0.422919 0.566186 0.880888
0.429236 0.567163 0.881285
0.473823 0.571862 0.885008
0.564538 0.593408 0.890929
0.645960 0.597620 0.894530
0.736995 0.600977 0.898955
0.836149 0.608576 0.904265
0.924407 0.562829 0.885588
0.421241 0.600580 0.882017
0.422766 0.601190 0.881987
0.467414 0.604425 0.885191
0.543755 0.614466 0.891478
0.660090 0.645289 0.897246
0.748836 0.651118 0.901427
0.844602 0.661402 0.906493
0.929259 0.615412 0.890349
0.417456 0.658747 0.884367
0.427466 0.658412 0.885008
0.460578 0.656580 0.887266
0.516167 0.652064 0.891295
0.640070 0.678187 0.898589
0.765164 0.715328 0.903990
0.856748 0.729335 0.908965
0.935668 0.691371 0.896391
0.429541 0.729702 0.888243
0.438849 0.729580 0.888792
0.470527 0.728786 0.890684
0.525658 0.727230 0.894041
0.614984 0.729824 0.898650
0.763638 0.769009 0.905211
0.874510 0.807736 0.911254
0.943389 0.786496 0.903349
0.444343 0.809751 0.892485
0.453162 0.809903 0.892912
0.483833 0.810361 0.894316
0.540764 0.811734 0.896818
0.632074 0.816953 0.900237
0.753475 0.831815 0.904662
0.888518 0.873777 0.912352
0.952087 0.883482 0.912322
0.463905 0.896361 0.896574
0.472572 0.896757 0.896849
0.503746 0.898314 0.897795
0.563592 0.901366 0.899443
0.654170 0.906523 0.901793
0.769009 0.914672 0.905028
0.887541 0.927245 0.911070
0.962860 0.946319 0.927977
