其他预设/【233】日式怀旧街道调色预设208款/1.3D LUT预设（视频调色-PR-AE-PS-FCPX-达芬奇用）/3.日式城市街拍预设 (自动曝光预设)/JA – Static Pop 1 (Auto-Exposure).cube
# Created by Adobe Lightroom plugin Export LUT (1.17.0)
# www.johnrellis.com/lightroom/exportlut.htm
# Preset: JA – Static Pop 1 (Auto-Exposure)
# Color profile: /Library/Application Support/Adobe/Color/Profiles/Recommended/AdobeRGB1998.icc
LUT_3D_SIZE 5
DOMAIN_MIN 0.000000 0.000000 0.000000
DOMAIN_MAX 0.903226 0.903226 0.903226
0.082673 0.085573 0.088777
0.289403 0.095766 0.074678
0.697414 0.136812 0.000000
0.966674 0.170077 0.000000
1.000000 0.191226 0.000000
0.072114 0.262303 0.077943
0.271672 0.257328 0.071962
0.699794 0.336553 0.000000
0.965728 0.326177 0.000000
1.000000 0.301579 0.000000
0.000000 0.640528 0.000000
0.339849 0.643336 0.000000
0.644770 0.594507 0.000000
0.957916 0.591608 0.000000
1.000000 0.516411 0.000000
0.000000 0.909972 0.000000
0.328161 0.907042 0.000000
0.651026 0.891051 0.000000
0.915312 0.837186 0.000000
1.000000 0.741756 0.000000
0.270512 1.000000 0.270756
0.373571 1.000000 0.267857
0.594781 1.000000 0.257053
0.828946 0.995575 0.215640
1.000000 0.964782 0.122774
0.029755 0.112612 0.239872
0.224857 0.074281 0.240330
0.658106 0.000000 0.238437
0.955138 0.000000 0.210239
1.000000 0.166171 0.188205
0.000000 0.243351 0.256657
0.234318 0.241550 0.249973
0.661616 0.258183 0.231144
0.954223 0.282383 0.213443
1.000000 0.294194 0.195254
0.000000 0.628321 0.306523
0.250126 0.622675 0.262821
0.626795 0.585473 0.230961
0.950225 0.585565 0.236698
1.000000 0.521874 0.225650
0.000000 0.905547 0.309361
0.310246 0.900664 0.317388
0.642786 0.889677 0.308080
0.907012 0.835172 0.241459
1.000000 0.747738 0.261295
0.355322 1.000000 0.437507
0.431617 1.000000 0.435676
0.619745 1.000000 0.428443
0.832395 0.993988 0.394324
1.000000 0.964599 0.321416
0.000000 0.188083 0.616266
0.175265 0.106172 0.605310
0.534661 0.000000 0.552972
0.889403 0.000000 0.556756
1.000000 0.349126 0.554162
0.000000 0.370184 0.622461
0.232853 0.335607 0.613245
0.541100 0.216251 0.558373
0.899229 0.272251 0.559503
1.000000 0.447974 0.576410
0.000000 0.615656 0.636652
0.162600 0.607538 0.626032
0.556909 0.559747 0.569970
0.903014 0.587762 0.582696
1.000000 0.602319 0.587121
0.000000 0.899870 0.610651
0.151217 0.892821 0.609766
0.633326 0.867124 0.635309
0.874846 0.828763 0.580529
1.000000 0.794400 0.623590
0.187442 1.000000 0.577478
0.419989 1.000000 0.614862
0.708492 0.998566 0.702419
0.857206 0.987579 0.687312
1.000000 0.964019 0.609216
0.000000 0.351843 0.880461
0.000000 0.302708 0.877928
0.478035 0.000000 0.856077
0.812589 0.000000 0.813138
0.999786 0.481849 0.777798
0.086915 0.457801 0.881529
0.301732 0.459602 0.877989
0.502281 0.325414 0.858366
0.813718 0.213962 0.813443
0.999817 0.539574 0.784909
0.303655 0.665461 0.883421
0.497108 0.696559 0.880644
0.689601 0.714717 0.863554
0.816037 0.562493 0.812802
1.000000 0.677638 0.804105
0.000000 0.864408 0.880186
0.301030 0.864164 0.877623
0.657801 0.859312 0.866484
0.822965 0.813718 0.815518
1.000000 0.841367 0.835050
0.000000 1.000000 0.781674
0.000000 1.000000 0.786313
0.631128 1.000000 0.821897
0.880888 0.978485 0.869780
0.990478 0.963073 0.826444
0.504509 0.613703 0.984802
0.504906 0.613977 0.984863
0.475929 0.450721 0.989227
0.659541 0.000000 0.986999
0.972381 0.105135 0.969970
0.507439 0.615656 0.985199
0.507866 0.615961 0.985260
0.506706 0.492164 0.988373
0.673457 0.245640 0.985504
0.971160 0.310643 0.968353
0.626612 0.740352 0.980072
0.624994 0.738521 0.980285
0.767422 0.796567 0.976318
0.772122 0.662684 0.976562
0.966857 0.591974 0.962799
0.543633 0.820737 0.981476
0.544518 0.820859 0.981537
0.788235 0.878691 0.976165
0.909392 0.912749 0.972992
0.962280 0.819028 0.956725
0.000000 0.961608 0.982483
0.000000 0.963409 0.981811
0.653956 0.966979 0.977874
0.887419 0.971618 0.975280
0.962951 0.957733 0.956939
