其他预设/【233】日式怀旧街道调色预设208款/1.3D LUT预设（视频调色-PR-AE-PS-FCPX-达芬奇用）/3.日式城市街拍预设 (自动曝光预设)/JA – Faded Soft 3 (Auto-Exposure).cube
# Created by Adobe Lightroom plugin Export LUT (1.17.0)
# www.johnrellis.com/lightroom/exportlut.htm
# Preset: JA – Faded Soft 3 (Auto-Exposure)
# Color profile: /Library/Application Support/Adobe/Color/Profiles/Recommended/AdobeRGB1998.icc
LUT_3D_SIZE 8
DOMAIN_MIN 0.000000 0.000000 0.000000
DOMAIN_MAX 0.903226 0.903226 0.903226
0.065095 0.069032 0.076661
0.130037 0.071290 0.074159
0.241611 0.081636 0.063569
0.372595 0.104891 0.008453
0.581292 0.150362 0.000000
0.788510 0.195254 0.000000
0.903044 0.211215 0.000000
0.974914 0.206760 0.000000
0.067109 0.122866 0.079164
0.128237 0.124208 0.070954
0.242222 0.131655 0.052949
0.373419 0.150820 0.000000
0.582879 0.195773 0.000000
0.788846 0.235142 0.000000
0.902892 0.244083 0.000000
0.974701 0.235050 0.000000
0.075776 0.219425 0.090791
0.138949 0.220981 0.078370
0.238193 0.224887 0.064881
0.378668 0.246250 0.000000
0.588952 0.297185 0.000000
0.790188 0.335515 0.000000
0.902251 0.331762 0.000000
0.973938 0.312566 0.000000
0.085328 0.338750 0.101686
0.148409 0.338720 0.090669
0.262333 0.340093 0.047974
0.380774 0.354467 0.000000
0.613031 0.430213 0.000000
0.792996 0.450874 0.000000
0.901305 0.441596 0.000000
0.972625 0.412421 0.000000
0.065309 0.525994 0.079377
0.161868 0.525017 0.057038
0.308141 0.520409 0.000000
0.454749 0.534234 0.000000
0.619409 0.565850 0.000000
0.807034 0.594141 0.000000
0.901762 0.559533 0.000000
0.970733 0.520195 0.000000
0.000000 0.738155 0.000000
0.162325 0.736141 0.000000
0.340368 0.728847 0.000000
0.507774 0.715419 0.000000
0.659846 0.727230 0.000000
0.808225 0.732815 0.000000
0.904234 0.689906 0.000000
0.969970 0.638392 0.000000
0.016876 0.855436 0.000000
0.167605 0.853819 0.000000
0.331823 0.847990 0.000000
0.495644 0.837247 0.000000
0.644465 0.828885 0.000000
0.778866 0.826505 0.000000
0.903807 0.818662 0.000000
0.968536 0.758083 0.000000
0.145418 0.925750 0.148135
0.201236 0.924743 0.131228
0.324376 0.921111 0.000000
0.466651 0.914244 0.000000
0.614954 0.903441 0.000000
0.740993 0.898283 0.000000
0.861784 0.892271 0.000000
0.972534 0.880705 0.000000
0.066987 0.072328 0.143130
0.113283 0.081117 0.133669
0.231693 0.085756 0.125856
0.365942 0.109010 0.108492
0.577478 0.145296 0.006561
0.787198 0.194461 0.000000
0.902525 0.225528 0.000000
0.974853 0.216709 0.000000
0.058259 0.116854 0.142275
0.119478 0.126650 0.140200
0.235233 0.132174 0.127443
0.368963 0.148104 0.105074
0.579614 0.186801 0.000000
0.787716 0.230320 0.000000
0.902403 0.253208 0.000000
0.974640 0.243076 0.000000
0.070832 0.218723 0.159670
0.124269 0.223026 0.146029
0.234745 0.226383 0.132296
0.373999 0.240085 0.097322
0.586816 0.287236 0.000000
0.789578 0.324773 0.000000
0.902007 0.331823 0.000000
0.973968 0.317174 0.000000
0.070680 0.340887 0.170718
0.130343 0.342138 0.153201
0.256077 0.341375 0.122652
0.379644 0.355657 0.107942
0.609613 0.423804 0.000000
0.792630 0.443854 0.000000
0.901244 0.435767 0.000000
0.972686 0.414740 0.000000
0.000000 0.532189 0.152804
0.121309 0.531151 0.141695
0.294255 0.526146 0.094881
0.450324 0.535851 0.000000
0.619226 0.566918 0.000000
0.805966 0.590631 0.000000
0.901427 0.554864 0.000000
0.970916 0.520714 0.000000
0.000000 0.742306 0.115206
0.089815 0.740261 0.098146
0.319646 0.732692 0.000000
0.499489 0.716915 0.000000
0.656306 0.727993 0.000000
0.807645 0.733211 0.000000
0.903777 0.688136 0.000000
0.970001 0.636133 0.000000
0.000000 0.857298 0.136843
0.117525 0.855711 0.121126
0.312932 0.849882 0.000000
0.484962 0.838926 0.000000
0.639582 0.829252 0.000000
0.776516 0.826810 0.000000
0.903105 0.818875 0.000000
0.968475 0.757076 0.000000
0.125765 0.926299 0.208225
0.186160 0.925383 0.195590
0.313329 0.921904 0.143740
0.457954 0.915099 0.000000
0.608515 0.904509 0.000000
0.737942 0.898558 0.000000
0.860166 0.892485 0.000000
0.972015 0.880827 0.000000
0.072175 0.079561 0.269139
0.119966 0.086946 0.259342
0.200992 0.107698 0.234409
0.329747 0.114656 0.237949
0.560510 0.000000 0.212070
0.780789 0.000000 0.171786
0.900969 0.134859 0.094881
0.974945 0.173129 0.000000
0.013428 0.107759 0.273777
0.127230 0.135439 0.263615
0.205783 0.145083 0.239536
0.339727 0.145388 0.239506
0.565942 0.106020 0.212253
0.783078 0.135897 0.166995
0.901549 0.180758 0.084199
0.975097 0.203861 0.000000
0.004120 0.214817 0.265873
0.111513 0.218326 0.262913
0.219272 0.230900 0.253269
0.365026 0.232547 0.234806
0.583612 0.250614 0.202487
0.788663 0.276036 0.149050
0.902037 0.287053 0.039185
0.974548 0.287907 0.000000
0.058778 0.343481 0.298100
0.122683 0.346075 0.293797
0.225193 0.352056 0.259129
0.372686 0.359442 0.241184
0.599695 0.402197 0.185977
0.791531 0.419623 0.122560
0.901061 0.410254 0.000000
0.973266 0.392798 0.000000
0.000000 0.543999 0.340764
0.000000 0.545800 0.325841
0.223056 0.547143 0.253880
0.429725 0.540856 0.210697
0.617090 0.570367 0.193698
0.801602 0.578912 0.097261
0.899840 0.538903 0.000000
0.971252 0.504997 0.000000
0.000000 0.750942 0.348241
0.000000 0.750729 0.324895
0.218051 0.746578 0.241825
0.460121 0.730678 0.178470
0.642206 0.730465 0.134585
0.804715 0.734585 0.106233
0.901335 0.682673 0.000000
0.969543 0.626673 0.000000
0.000000 0.860685 0.340246
0.000000 0.859922 0.323095
0.243290 0.855863 0.263523
0.444800 0.844999 0.193851
0.621027 0.830564 0.069337
0.767636 0.827878 0.000000
0.900145 0.819577 0.000000
0.967437 0.754177 0.000000
0.200595 0.925170 0.384833
0.212100 0.925261 0.364508
0.300603 0.923095 0.320439
0.433448 0.917510 0.244602
0.585626 0.907530 0.085237
0.726955 0.899474 0.000000
0.854215 0.893126 0.000000
0.969512 0.881285 0.000000
0.085939 0.080171 0.440253
0.139925 0.090669 0.428260
0.223423 0.115785 0.390814
0.307500 0.139528 0.350591
0.460670 0.137392 0.367163
0.745327 0.000000 0.373510
0.893950 0.000000 0.313725
0.970153 0.000000 0.265599
0.046235 0.119631 0.445411
0.142947 0.144991 0.433051
0.229374 0.156527 0.396674
0.311833 0.169650 0.354894
0.473915 0.158968 0.372107
0.753689 0.000000 0.365087
0.894438 0.000000 0.312078
0.970581 0.102632 0.259922
0.000000 0.209659 0.454078
0.000000 0.207706 0.449683
0.238956 0.247715 0.418799
0.326390 0.246464 0.369116
0.524041 0.222507 0.380560
0.777920 0.158083 0.342412
0.896330 0.211063 0.303471
0.971618 0.227268 0.242954
0.000000 0.359106 0.440101
0.000000 0.359594 0.436194
0.211856 0.361242 0.422065
0.353399 0.366217 0.394293
0.591699 0.366522 0.364050
0.788815 0.371740 0.327398
0.898528 0.367956 0.284642
0.971832 0.354162 0.221836
0.000000 0.563806 0.510185
0.000000 0.566461 0.506554
0.189487 0.572564 0.485359
0.363287 0.570062 0.400122
0.608820 0.576257 0.372045
0.793332 0.554528 0.313512
0.896605 0.515831 0.266117
0.969696 0.482612 0.203433
0.000000 0.762661 0.542870
0.000000 0.762600 0.534295
0.169284 0.760952 0.499245
0.380835 0.752193 0.411231
0.610010 0.734676 0.340063
0.796506 0.737087 0.344091
0.895537 0.673793 0.278050
0.966949 0.611994 0.183078
0.000000 0.863828 0.526513
0.005768 0.862852 0.520745
0.276921 0.858671 0.502159
0.422889 0.851133 0.447730
0.582879 0.837034 0.338903
0.750423 0.829282 0.314488
0.892210 0.820951 0.316503
0.963439 0.750454 0.202121
0.277379 0.923400 0.541344
0.316899 0.921965 0.543023
0.424353 0.916655 0.551110
0.487648 0.913787 0.506493
0.566339 0.910002 0.386358
0.707851 0.900359 0.276768
0.842985 0.893950 0.261692
0.963226 0.882231 0.233738
0.142977 0.024170 0.687831
0.195071 0.058839 0.679286
0.296361 0.083253 0.647272
0.380377 0.118563 0.579614
0.472023 0.136019 0.515190
0.652369 0.083803 0.528923
0.852049 0.000000 0.521630
0.948577 0.194003 0.492348
0.106538 0.109987 0.692012
0.186404 0.138705 0.683253
0.295262 0.145418 0.652644
0.384710 0.157168 0.586725
0.477668 0.165194 0.520348
0.657069 0.129915 0.530114
0.854917 0.000000 0.520134
0.948730 0.235508 0.495308
0.000000 0.182406 0.710811
0.000000 0.204196 0.702724
0.276219 0.257237 0.671901
0.395727 0.250950 0.611078
0.497383 0.246036 0.537987
0.685084 0.224308 0.538994
0.863767 0.227665 0.517815
0.948272 0.350988 0.512291
0.000000 0.388098 0.702571
0.000000 0.384070 0.700252
0.000000 0.367163 0.691341
0.408942 0.405676 0.649714
0.532067 0.379980 0.567712
0.734463 0.375219 0.553399
0.873259 0.419318 0.535546
0.954223 0.406012 0.484779
0.000000 0.578607 0.686793
0.000000 0.578973 0.684321
0.086641 0.580591 0.674434
0.383124 0.585534 0.651881
0.580011 0.584802 0.605188
0.771572 0.564599 0.564416
0.880705 0.532708 0.512840
0.959930 0.485908 0.439429
0.000000 0.776730 0.713222
0.000000 0.776303 0.710231
0.256901 0.772732 0.700008
0.471077 0.763119 0.677943
0.602533 0.746761 0.620539
0.772671 0.741176 0.592920
0.877928 0.677424 0.513085
0.957671 0.609674 0.421027
0.185275 0.864958 0.692317
0.249790 0.863493 0.690883
0.395789 0.857664 0.687465
0.543145 0.847349 0.682368
0.632654 0.837064 0.644434
0.736721 0.827390 0.559228
0.870268 0.823606 0.579431
0.949828 0.757412 0.467964
0.403540 0.918181 0.689113
0.435492 0.916442 0.691554
0.522118 0.910826 0.699031
0.614252 0.903593 0.703487
0.666957 0.899443 0.673304
0.710384 0.897612 0.552026
0.833188 0.892271 0.530388
0.944335 0.884276 0.530694
0.203372 0.089204 0.816800
0.242008 0.103395 0.813993
0.332219 0.113954 0.803769
0.439582 0.119265 0.782467
0.539269 0.116121 0.741756
0.677729 0.041382 0.703914
0.808743 0.148714 0.669978
0.911955 0.324926 0.653040
0.185916 0.135042 0.818326
0.237797 0.162081 0.815305
0.331060 0.168917 0.805325
0.439551 0.167727 0.784482
0.541375 0.159792 0.744503
0.680446 0.122408 0.706142
0.809598 0.190524 0.670222
0.912016 0.351110 0.655543
0.000000 0.205905 0.824704
0.151492 0.224063 0.821988
0.325566 0.285252 0.810849
0.441993 0.283848 0.791165
0.549615 0.269810 0.753689
0.689784 0.247501 0.713466
0.811490 0.301854 0.672023
0.911711 0.434363 0.666133
0.000000 0.300389 0.829679
0.000000 0.298131 0.829038
0.216892 0.350958 0.824125
0.484718 0.466926 0.800046
0.579431 0.443580 0.766659
0.704219 0.415808 0.723690
0.813107 0.455604 0.681453
0.910826 0.549859 0.688258
0.000000 0.521752 0.820798
0.000000 0.523430 0.820005
0.166140 0.534783 0.816587
0.458534 0.578546 0.807675
0.657832 0.650263 0.781186
0.722255 0.607446 0.734829
0.828000 0.619867 0.711604
0.912505 0.661952 0.717037
0.000000 0.698512 0.809140
0.000000 0.701167 0.808164
0.286473 0.712184 0.804196
0.518029 0.733150 0.795651
0.664057 0.749294 0.782284
0.748440 0.745663 0.753811
0.845579 0.731319 0.729976
0.923125 0.706325 0.695155
0.236484 0.865751 0.821683
0.306737 0.866270 0.821775
0.475563 0.858122 0.815305
0.627131 0.847257 0.808042
0.714839 0.839384 0.797208
0.760311 0.828977 0.762295
0.847593 0.826719 0.747555
0.922087 0.792264 0.697658
0.541772 0.909667 0.809598
0.561761 0.908324 0.809934
0.617395 0.904417 0.810452
0.681086 0.899809 0.808927
0.736721 0.895628 0.801724
0.774014 0.891600 0.773129
0.834012 0.887755 0.722774
0.920409 0.887022 0.732540
0.259678 0.168154 0.883696
0.287877 0.181155 0.882353
0.355993 0.193515 0.877928
0.448981 0.209751 0.869291
0.550500 0.225132 0.854978
0.649470 0.226780 0.831662
0.799069 0.224125 0.813809
0.888823 0.405097 0.774136
0.250675 0.190860 0.884459
0.289555 0.216861 0.882872
0.360967 0.233188 0.878355
0.452918 0.246677 0.869749
0.553796 0.259586 0.855467
0.651789 0.258701 0.832273
0.799649 0.259159 0.814054
0.887907 0.428290 0.775082
0.198032 0.238437 0.887572
0.249302 0.261234 0.886015
0.386572 0.344060 0.879606
0.478065 0.362036 0.870787
0.572473 0.370733 0.856626
0.663233 0.362280 0.833921
0.801541 0.365606 0.814389
0.884672 0.500359 0.779080
0.000000 0.288090 0.893706
0.090913 0.310094 0.892180
0.337224 0.392676 0.885771
0.571527 0.551110 0.869963
0.636530 0.551873 0.856382
0.696620 0.526726 0.835142
0.804349 0.514641 0.813993
0.880064 0.591974 0.785641
0.000000 0.444129 0.890227
0.000000 0.451575 0.889677
0.276127 0.491646 0.886900
0.548974 0.599664 0.878752
0.716182 0.704219 0.859007
0.745541 0.678706 0.838499
0.808865 0.650690 0.814450
0.875883 0.678950 0.793973
0.000000 0.625544 0.881773
0.175937 0.632685 0.880980
0.393622 0.663081 0.877684
0.584802 0.713222 0.871763
0.708949 0.753719 0.865660
0.792050 0.784207 0.850126
0.817411 0.753323 0.819059
0.886412 0.758083 0.809659
0.325505 0.775662 0.871427
0.377050 0.779904 0.870634
0.509148 0.793942 0.867948
0.636439 0.811765 0.864134
0.731014 0.826993 0.859617
0.794400 0.835721 0.852659
0.833829 0.829221 0.832090
0.903349 0.819699 0.815488
0.515404 0.898344 0.877256
0.542412 0.898711 0.877287
0.615106 0.900084 0.877653
0.696590 0.902220 0.878264
0.768093 0.897490 0.872923
0.815640 0.895262 0.865751
0.841276 0.890318 0.837613
0.906737 0.889494 0.826261
0.329015 0.258793 0.931853
0.354864 0.277287 0.930938
0.407324 0.296361 0.928618
0.486061 0.329290 0.924071
0.578210 0.374090 0.916777
0.670710 0.420417 0.906035
0.757076 0.450690 0.891569
0.872526 0.497383 0.879911
0.323095 0.268803 0.932250
0.360693 0.301335 0.930938
0.421637 0.332280 0.928222
0.498848 0.364324 0.923613
0.589105 0.407416 0.916228
0.678218 0.449500 0.905516
0.760189 0.474159 0.891051
0.872526 0.516258 0.879515
0.286290 0.286717 0.933959
0.330694 0.318364 0.932677
0.477638 0.441505 0.926574
0.556909 0.482887 0.921202
0.633326 0.515251 0.913848
0.706538 0.541100 0.903563
0.771206 0.546441 0.889342
0.872618 0.572290 0.878355
0.120638 0.283482 0.938018
0.212894 0.314214 0.936797
0.415717 0.436316 0.930938
0.652308 0.632074 0.917052
0.702907 0.648188 0.910430
0.748135 0.650904 0.901488
0.791989 0.639002 0.888182
0.873198 0.643458 0.877073
0.000000 0.341375 0.940185
0.000000 0.361517 0.939483
0.296971 0.441993 0.936095
0.566247 0.595178 0.925841
0.757168 0.743282 0.910307
0.786435 0.739651 0.902037
0.814939 0.722957 0.889067
0.874784 0.714046 0.876585
0.000000 0.540124 0.933684
0.099184 0.550805 0.932982
0.367987 0.597131 0.929808
0.577111 0.675746 0.923857
0.719875 0.745968 0.918029
0.818662 0.808438 0.906706
0.838041 0.793454 0.893584
0.877897 0.776150 0.877684
0.304143 0.705043 0.924895
0.359319 0.713436 0.924041
0.498634 0.741970 0.921141
0.636408 0.779629 0.917174
0.737545 0.812161 0.913817
0.806210 0.834653 0.911589
0.864012 0.856748 0.903807
0.883513 0.832181 0.881407
0.491524 0.832090 0.915648
0.519982 0.835477 0.915099
0.597681 0.845884 0.913451
0.686854 0.859861 0.911315
0.760433 0.873228 0.909453
0.817685 0.884733 0.907927
0.864927 0.894316 0.905730
0.896117 0.891691 0.892027
