其他预设/【233】日式怀旧街道调色预设208款/1.3D LUT预设（视频调色-PR-AE-PS-FCPX-达芬奇用）/3.日式城市街拍预设 (自动曝光预设)/JA – Night Pop 2 (Auto-Exposure).cube
# Created by Adobe Lightroom plugin Export LUT (1.17.0)
# www.johnrellis.com/lightroom/exportlut.htm
# Preset: JA – Night Pop 2 (Auto-Exposure)
# Color profile: /Library/Application Support/Adobe/Color/Profiles/Recommended/AdobeRGB1998.icc
LUT_3D_SIZE 32
0.049531 0.057221 0.062287
0.062135 0.058167 0.062440
0.071717 0.058412 0.062593
0.089815 0.058656 0.061921
0.114137 0.059327 0.061585
0.142885 0.060609 0.060548
0.173190 0.062562 0.059236
0.202029 0.065217 0.057252
0.229557 0.068452 0.053895
0.265049 0.072969 0.048768
0.321843 0.079255 0.030213
0.397467 0.088441 0.000000
0.478798 0.098909 0.000000
0.554620 0.106325 0.000000
0.621942 0.112612 0.000000
0.680201 0.117342 0.000000
0.731624 0.120760 0.000000
0.777951 0.124422 0.000000
0.820554 0.127352 0.000000
0.860746 0.130220 0.000000
0.898253 0.133211 0.000000
0.932708 0.136385 0.000000
0.963622 0.139345 0.000000
0.990723 0.142794 0.000000
1.000000 0.145754 0.000000
1.000000 0.148745 0.000000
1.000000 0.151736 0.000000
1.000000 0.154208 0.000000
1.000000 0.152926 0.000000
1.000000 0.145571 0.000000
1.000000 0.136507 0.000000
1.000000 0.125429 0.000000
0.048615 0.064057 0.062654
0.060212 0.063386 0.062959
0.065187 0.065583 0.067536
0.084230 0.067933 0.067567
0.108614 0.069368 0.066865
0.137697 0.070863 0.065949
0.168978 0.072969 0.063874
0.198550 0.075135 0.062074
0.226505 0.077638 0.060334
0.261479 0.081910 0.055299
0.317113 0.088594 0.039399
0.392737 0.098207 0.002472
0.474891 0.108400 0.000000
0.551476 0.116335 0.000000
0.619471 0.122499 0.000000
0.678248 0.126925 0.000000
0.729885 0.130526 0.000000
0.776547 0.133608 0.000000
0.819333 0.136324 0.000000
0.859678 0.139223 0.000000
0.897368 0.141939 0.000000
0.931945 0.144198 0.000000
0.963012 0.147158 0.000000
0.990234 0.149722 0.000000
1.000000 0.152529 0.000000
1.000000 0.155428 0.000000
1.000000 0.157870 0.000000
1.000000 0.160189 0.000000
1.000000 0.159243 0.000000
1.000000 0.152010 0.000000
1.000000 0.143099 0.000000
1.000000 0.132509 0.000000
0.045777 0.071778 0.062837
0.060395 0.071412 0.063111
0.068391 0.070619 0.064271
0.077790 0.074128 0.073548
0.101289 0.078187 0.073823
0.130739 0.081025 0.072236
0.162722 0.083467 0.070039
0.193576 0.085908 0.067964
0.222446 0.088014 0.065217
0.256535 0.091707 0.062013
0.310582 0.099062 0.050629
0.385931 0.109621 0.014069
0.469520 0.119539 0.000000
0.547204 0.128023 0.000000
0.615869 0.134554 0.000000
0.675593 0.138766 0.000000
0.727596 0.142702 0.000000
0.774502 0.145541 0.000000
0.817685 0.147677 0.000000
0.858213 0.150027 0.000000
0.896178 0.152407 0.000000
0.930968 0.154604 0.000000
0.962158 0.156985 0.000000
0.989563 0.158999 0.000000
1.000000 0.161624 0.000000
1.000000 0.163729 0.000000
1.000000 0.165927 0.000000
1.000000 0.167880 0.000000
1.000000 0.167056 0.000000
1.000000 0.159915 0.000000
1.000000 0.151186 0.000000
1.000000 0.141085 0.000000
0.041199 0.085725 0.063111
0.057618 0.085145 0.063416
0.068757 0.084504 0.064057
0.083009 0.083650 0.066133
0.094667 0.086061 0.079072
0.116091 0.092500 0.083345
0.149630 0.097719 0.080354
0.183078 0.101381 0.077485
0.213809 0.104280 0.074586
0.247013 0.107668 0.071443
0.298100 0.114839 0.064912
0.373022 0.126528 0.041077
0.457588 0.138949 0.000000
0.537377 0.149233 0.000000
0.608362 0.156344 0.000000
0.669398 0.161532 0.000000
0.722591 0.164920 0.000000
0.770230 0.167483 0.000000
0.813901 0.169619 0.000000
0.855039 0.171298 0.000000
0.893523 0.172885 0.000000
0.928771 0.174502 0.000000
0.960357 0.176333 0.000000
0.988098 0.177584 0.000000
1.000000 0.179324 0.000000
1.000000 0.180911 0.000000
1.000000 0.182101 0.000000
1.000000 0.183291 0.000000
1.000000 0.183169 0.000000
1.000000 0.176150 0.000000
1.000000 0.167880 0.000000
1.000000 0.158389 0.000000
0.032410 0.102724 0.064363
0.051911 0.102480 0.064607
0.065614 0.102022 0.064820
0.083070 0.100526 0.066072
0.100374 0.098939 0.069123
0.114839 0.101503 0.082490
0.130098 0.108309 0.095766
0.166995 0.115724 0.091768
0.201389 0.120607 0.087984
0.234043 0.124605 0.085206
0.280583 0.132204 0.080018
0.352758 0.145846 0.068208
0.438849 0.161532 0.032166
0.522210 0.174777 0.000000
0.595911 0.183932 0.000000
0.659510 0.190066 0.000000
0.714504 0.193668 0.000000
0.763302 0.196262 0.000000
0.808042 0.197726 0.000000
0.850065 0.199191 0.000000
0.889311 0.200381 0.000000
0.925231 0.201663 0.000000
0.957458 0.202548 0.000000
0.985718 0.203372 0.000000
1.000000 0.204074 0.000000
1.000000 0.204501 0.000000
1.000000 0.205020 0.000000
1.000000 0.205112 0.000000
1.000000 0.205081 0.000000
1.000000 0.198856 0.000000
1.000000 0.191043 0.000000
1.000000 0.182376 0.000000
0.020874 0.122896 0.066133
0.041474 0.122530 0.065248
0.061860 0.122072 0.065797
0.081544 0.121187 0.066194
0.101503 0.118776 0.068544
0.120302 0.117342 0.071290
0.138430 0.120150 0.085389
0.155367 0.126162 0.100649
0.182864 0.135103 0.107210
0.217685 0.141085 0.103426
0.259342 0.148928 0.099397
0.326299 0.163851 0.090944
0.412909 0.183352 0.075410
0.500908 0.200443 0.040467
0.578668 0.212711 0.000000
0.645899 0.220523 0.000000
0.703304 0.225223 0.000000
0.753811 0.228000 0.000000
0.799771 0.229740 0.000000
0.843076 0.231052 0.000000
0.883391 0.231937 0.000000
0.920409 0.232334 0.000000
0.953460 0.232700 0.000000
0.982452 0.232944 0.000000
1.000000 0.232883 0.000000
1.000000 0.232700 0.000000
1.000000 0.232364 0.000000
1.000000 0.231510 0.000000
1.000000 0.230564 0.000000
1.000000 0.225772 0.000000
1.000000 0.218265 0.000000
1.000000 0.210147 0.000000
0.003357 0.146548 0.068116
0.023224 0.146120 0.066468
0.052430 0.145541 0.066285
0.078248 0.144686 0.067018
0.102358 0.143069 0.067994
0.123323 0.139528 0.070405
0.142916 0.137636 0.073243
0.163149 0.140902 0.088563
0.180545 0.145998 0.106538
0.197665 0.155581 0.127626
0.236118 0.164370 0.123995
0.294743 0.179324 0.118013
0.379858 0.202090 0.107057
0.472694 0.224521 0.089540
0.556023 0.240787 0.066255
0.627863 0.251469 0.013001
0.688655 0.257816 0.000000
0.741573 0.261234 0.000000
0.789212 0.263279 0.000000
0.834073 0.264561 0.000000
0.875792 0.265476 0.000000
0.914031 0.265751 0.000000
0.948180 0.265873 0.000000
0.978149 0.265293 0.000000
1.000000 0.264652 0.000000
1.000000 0.263645 0.000000
1.000000 0.262425 0.000000
1.000000 0.260929 0.000000
1.000000 0.259129 0.000000
1.000000 0.255558 0.000000
1.000000 0.248142 0.000000
1.000000 0.240391 0.000000
0.000000 0.171664 0.071748
0.001068 0.171359 0.069093
0.029480 0.170840 0.066621
0.072267 0.169894 0.066957
0.100526 0.168490 0.067872
0.125154 0.165652 0.069703
0.146426 0.161654 0.072297
0.166445 0.159426 0.075715
0.187442 0.162142 0.092714
0.204288 0.166415 0.114046
0.222385 0.176181 0.137972
0.260868 0.191592 0.148165
0.340520 0.216220 0.139773
0.436683 0.244175 0.126436
0.527092 0.266209 0.110353
0.604883 0.280919 0.092317
0.670161 0.289616 0.072694
0.726192 0.294499 0.040040
0.776028 0.297368 0.000000
0.822751 0.299016 0.000000
0.866239 0.300053 0.000000
0.906065 0.300237 0.000000
0.941558 0.300175 0.000000
0.972717 0.299321 0.000000
0.999359 0.298039 0.000000
1.000000 0.296544 0.000000
1.000000 0.294530 0.000000
1.000000 0.292302 0.000000
1.000000 0.289799 0.000000
1.000000 0.286992 0.000000
1.000000 0.279728 0.000000
1.000000 0.272038 0.000000
0.000000 0.197177 0.076204
0.000000 0.196841 0.072663
0.000000 0.196292 0.067384
0.062470 0.195438 0.067720
0.095918 0.194034 0.068635
0.124361 0.192233 0.069368
0.148867 0.188388 0.071931
0.170016 0.183963 0.074495
0.189853 0.180941 0.078431
0.210422 0.183017 0.098329
0.229862 0.188510 0.122438
0.256596 0.202396 0.147738
0.297093 0.224491 0.172213
0.392767 0.257237 0.162234
0.490852 0.286687 0.148562
0.575708 0.307042 0.134218
0.647211 0.319463 0.120027
0.707301 0.326696 0.106203
0.759915 0.330571 0.092439
0.808957 0.333104 0.077028
0.854490 0.334630 0.059632
0.896269 0.335271 0.020142
0.933501 0.334966 0.000000
0.966064 0.334051 0.000000
0.993896 0.332525 0.000000
1.000000 0.330144 0.000000
1.000000 0.327611 0.000000
1.000000 0.324681 0.000000
1.000000 0.321477 0.000000
1.000000 0.318273 0.000000
1.000000 0.312047 0.003174
1.000000 0.304479 0.056703
0.000000 0.221988 0.080293
0.000000 0.221714 0.076295
0.000000 0.221134 0.070680
0.041505 0.220249 0.068788
0.088746 0.218997 0.069306
0.120455 0.217227 0.070039
0.148287 0.214511 0.071870
0.172091 0.210056 0.074769
0.192813 0.205142 0.077913
0.212375 0.201755 0.082277
0.237156 0.206821 0.103761
0.266667 0.218418 0.129763
0.309667 0.240055 0.155184
0.364355 0.267094 0.178622
0.446174 0.299077 0.183566
0.540032 0.327214 0.170352
0.619196 0.345403 0.157443
0.684596 0.355840 0.145693
0.740749 0.361822 0.134859
0.792447 0.365545 0.124178
0.840604 0.368109 0.113832
0.884550 0.369360 0.104067
0.923857 0.369360 0.094667
0.958160 0.368475 0.087373
0.987488 0.366705 0.082185
1.000000 0.364294 0.080110
1.000000 0.361303 0.081056
1.000000 0.357885 0.085176
1.000000 0.354253 0.091249
1.000000 0.350744 0.098238
1.000000 0.345922 0.108553
1.000000 0.339208 0.124819
0.000000 0.252171 0.084413
0.000000 0.251835 0.080415
0.000000 0.251286 0.074464
0.000000 0.250217 0.068391
0.078523 0.248966 0.068910
0.116487 0.247349 0.069520
0.148135 0.245396 0.070741
0.175174 0.241276 0.073182
0.198398 0.235416 0.077058
0.218418 0.229313 0.080781
0.239506 0.226841 0.085359
0.276799 0.240848 0.107118
0.322118 0.261692 0.133547
0.377630 0.288304 0.158724
0.438331 0.315587 0.181521
0.497475 0.340185 0.204227
0.584680 0.365820 0.192660
0.657008 0.381353 0.181552
0.718074 0.390387 0.171633
0.773098 0.396246 0.162692
0.824094 0.400366 0.154513
0.870695 0.402686 0.147372
0.912322 0.403754 0.141817
0.948638 0.403479 0.138033
0.979706 0.402136 0.136507
1.000000 0.399908 0.137392
1.000000 0.397131 0.140597
1.000000 0.393988 0.146029
1.000000 0.390631 0.153201
1.000000 0.387457 0.161471
1.000000 0.384527 0.170962
1.000000 0.380224 0.189425
0.000000 0.299046 0.088167
0.000000 0.298497 0.082673
0.000000 0.297734 0.075044
0.000000 0.296178 0.060822
0.056794 0.294926 0.061189
0.111666 0.293248 0.061738
0.151034 0.291356 0.062806
0.185061 0.288914 0.064149
0.212406 0.281163 0.069459
0.235538 0.272801 0.074495
0.254978 0.264073 0.079988
0.280003 0.263554 0.084230
0.334020 0.289036 0.105165
0.390265 0.314641 0.133028
0.449989 0.340703 0.158938
0.507622 0.363439 0.182834
0.560967 0.383948 0.211093
0.623194 0.404456 0.226383
0.690455 0.418097 0.216709
0.749691 0.427100 0.209049
0.804074 0.433326 0.202670
0.853696 0.437751 0.198032
0.898039 0.440314 0.195041
0.936767 0.441382 0.194339
0.969818 0.441199 0.195895
0.997314 0.440101 0.199680
1.000000 0.438392 0.205875
1.000000 0.436347 0.213901
1.000000 0.434302 0.223728
1.000000 0.432593 0.234958
1.000000 0.431556 0.247440
1.000000 0.430945 0.266911
0.000000 0.365911 0.091005
0.000000 0.365301 0.083711
0.000000 0.364355 0.071443
0.000000 0.362310 0.015198
0.000000 0.360723 0.012696
0.099977 0.358862 0.013306
0.154574 0.356512 0.015229
0.197757 0.353735 0.017517
0.234379 0.347997 0.025910
0.263462 0.337469 0.045563
0.287602 0.326177 0.061067
0.307286 0.314122 0.070558
0.336980 0.314611 0.074617
0.401434 0.345373 0.096986
0.460639 0.369787 0.128634
0.516838 0.390692 0.157259
0.569482 0.408331 0.184817
0.616327 0.425147 0.222080
0.656703 0.446326 0.278202
0.720699 0.459968 0.273411
0.779049 0.469551 0.268498
0.832273 0.476692 0.265476
0.879820 0.481666 0.264714
0.921355 0.484810 0.266148
0.956725 0.486519 0.269810
0.986114 0.487129 0.275608
1.000000 0.487068 0.283543
1.000000 0.486610 0.293370
1.000000 0.486152 0.304692
1.000000 0.486275 0.317784
1.000000 0.487221 0.331975
1.000000 0.489448 0.350500
0.000000 0.442390 0.093690
0.000000 0.441627 0.082918
0.000000 0.440650 0.066011
0.000000 0.438575 0.000000
0.000000 0.436286 0.000000
0.063905 0.434089 0.000000
0.151156 0.431342 0.000000
0.206973 0.428016 0.000000
0.253910 0.424231 0.000000
0.292241 0.414496 0.000000
0.323400 0.401709 0.000000
0.349523 0.388190 0.000000
0.370397 0.373846 0.031647
0.403296 0.373510 0.043122
0.468696 0.401587 0.082887
0.525078 0.421118 0.122774
0.576776 0.436500 0.155123
0.623407 0.449561 0.189517
0.664515 0.464179 0.239414
0.701076 0.486152 0.307988
0.747829 0.507500 0.346532
0.805356 0.518303 0.344335
0.856840 0.526329 0.344244
0.901732 0.532128 0.346441
0.939910 0.536156 0.350774
0.971649 0.538659 0.357000
0.997223 0.540307 0.365301
1.000000 0.541466 0.375372
1.000000 0.542504 0.387152
1.000000 0.544030 0.400305
1.000000 0.546441 0.414771
1.000000 0.549859 0.430793
0.000000 0.515221 0.096040
0.000000 0.514580 0.084138
0.000000 0.513664 0.061891
0.000000 0.511894 0.000000
0.000000 0.509270 0.000000
0.000000 0.506981 0.000000
0.134493 0.503929 0.000000
0.207126 0.500206 0.000000
0.263310 0.496040 0.000000
0.312322 0.490700 0.000000
0.351385 0.478187 0.000000
0.384741 0.464485 0.000000
0.412970 0.449928 0.000000
0.436164 0.434546 0.000000
0.470069 0.431922 0.000000
0.530358 0.452979 0.063355
0.582910 0.467506 0.115969
0.629114 0.477729 0.154055
0.670954 0.487709 0.199222
0.708827 0.502617 0.263676
0.742702 0.525963 0.342046
0.773800 0.557275 0.420813
0.828824 0.569909 0.423285
0.877897 0.578790 0.424994
0.919646 0.585199 0.428748
0.954253 0.589746 0.434394
0.982147 0.592920 0.441749
1.000000 0.595300 0.450996
1.000000 0.597253 0.461707
1.000000 0.599542 0.473854
1.000000 0.602441 0.487221
1.000000 0.606317 0.501671
0.000000 0.580316 0.099641
0.000000 0.579706 0.085756
0.000000 0.578943 0.061585
0.000000 0.577295 0.000000
0.000000 0.574670 0.000000
0.000000 0.572107 0.000000
0.097658 0.569024 0.000000
0.196475 0.565301 0.000000
0.263218 0.560845 0.000000
0.319219 0.555962 0.000000
0.367346 0.547387 0.000000
0.407568 0.534447 0.000000
0.442329 0.520409 0.000000
0.472175 0.505425 0.000000
0.497230 0.489601 0.000000
0.530907 0.484627 0.000000
0.585779 0.499153 0.016236
0.633539 0.508721 0.109163
0.675959 0.515587 0.156832
0.715145 0.524895 0.215946
0.750576 0.540917 0.293828
0.782589 0.565728 0.378546
0.811826 0.596521 0.456611
0.850584 0.619471 0.494484
0.896544 0.628931 0.497292
0.934661 0.635767 0.502007
0.965393 0.640589 0.508385
0.989288 0.644312 0.516564
1.000000 0.647242 0.526360
1.000000 0.650019 0.537346
1.000000 0.653315 0.549676
1.000000 0.657496 0.563134
0.000000 0.636683 0.103700
0.000000 0.636255 0.089967
0.000000 0.635584 0.065675
0.000000 0.634150 0.000000
0.000000 0.631739 0.000000
0.000000 0.629297 0.000000
0.000000 0.626123 0.000000
0.175113 0.622339 0.000000
0.254185 0.617975 0.000000
0.316991 0.613001 0.000000
0.372290 0.607568 0.000000
0.419043 0.596582 0.000000
0.459785 0.583581 0.000000
0.495399 0.569574 0.000000
0.526482 0.554681 0.000000
0.553063 0.538994 0.000000
0.585748 0.531579 0.000000
0.634791 0.540124 0.000000
0.679530 0.546410 0.103914
0.719844 0.551965 0.164858
0.757076 0.561761 0.240299
0.790585 0.579339 0.328496
0.820310 0.604639 0.415656
0.847318 0.634028 0.490883
0.871702 0.664790 0.554833
0.913024 0.675257 0.560754
0.947143 0.682246 0.566033
0.973785 0.687343 0.573022
0.993622 0.691157 0.581476
1.000000 0.694453 0.591363
1.000000 0.697993 0.602594
1.000000 0.702296 0.615137
0.000000 0.685756 0.108919
0.000000 0.685267 0.095094
0.000000 0.684779 0.073121
0.000000 0.683467 0.000000
0.000000 0.681392 0.000000
0.000000 0.678920 0.000000
0.000000 0.675929 0.000000
0.141207 0.672297 0.000000
0.237766 0.668086 0.000000
0.308019 0.663264 0.000000
0.367987 0.657984 0.000000
0.421424 0.651148 0.000000
0.466987 0.639216 0.000000
0.507805 0.626398 0.000000
0.544091 0.612848 0.000000
0.576196 0.598474 0.000000
0.604456 0.583520 0.000000
0.636103 0.574304 0.000000
0.680293 0.578058 0.000000
0.723018 0.582452 0.102052
0.761990 0.587732 0.180301
0.797360 0.598627 0.271153
0.828305 0.617243 0.366217
0.855406 0.642115 0.452125
0.879515 0.669673 0.524254
0.900816 0.697871 0.584649
0.927550 0.717006 0.615503
0.957397 0.724056 0.621515
0.979675 0.729213 0.629114
0.995636 0.733333 0.638209
1.000000 0.737392 0.648798
1.000000 0.742092 0.660853
0.000000 0.730953 0.114046
0.000000 0.730617 0.101686
0.000000 0.730098 0.080415
0.000000 0.729000 0.000000
0.000000 0.727260 0.000000
0.000000 0.724880 0.000000
0.000000 0.722103 0.000000
0.082033 0.718654 0.000000
0.214817 0.714748 0.000000
0.293736 0.710231 0.000000
0.359136 0.705165 0.000000
0.417060 0.699580 0.000000
0.468177 0.690761 0.000000
0.513237 0.678950 0.000000
0.553796 0.666407 0.000000
0.590448 0.653101 0.000000
0.623346 0.639155 0.000000
0.652552 0.624720 0.000000
0.683253 0.614069 0.000000
0.724056 0.614496 0.000000
0.765164 0.617670 0.107179
0.802579 0.623285 0.204898
0.835325 0.635035 0.307347
0.863157 0.654017 0.404944
0.887205 0.677394 0.487495
0.908049 0.702937 0.556207
0.925933 0.728634 0.613275
0.940520 0.754299 0.662928
0.964996 0.762203 0.671870
0.982910 0.767605 0.680507
0.995392 0.772580 0.690761
1.000000 0.777951 0.702632
0.000000 0.774533 0.119722
0.000000 0.774258 0.108339
0.000000 0.773831 0.089509
0.000000 0.772915 0.000000
0.000000 0.771359 0.000000
0.000000 0.769192 0.000000
0.000000 0.766506 0.000000
0.000000 0.763333 0.000000
0.183841 0.759609 0.000000
0.275822 0.755306 0.000000
0.346960 0.750546 0.000000
0.408881 0.745296 0.000000
0.465156 0.739528 0.000000
0.514122 0.728847 0.000000
0.558404 0.717067 0.000000
0.598749 0.704555 0.000000
0.635523 0.691524 0.000000
0.668788 0.677913 0.000000
0.698695 0.663813 0.000000
0.728573 0.652094 0.000000
0.766934 0.650172 0.000000
0.805997 0.652399 0.122042
0.840909 0.658228 0.237339
0.870207 0.670466 0.346715
0.894591 0.688808 0.442939
0.915221 0.710567 0.521935
0.932525 0.733700 0.586786
0.946624 0.757198 0.641566
0.957122 0.781277 0.690517
0.969512 0.797879 0.719753
0.983551 0.803922 0.729641
0.993072 0.809964 0.741207
0.000000 0.816464 0.125582
0.000000 0.816220 0.115114
0.000000 0.815824 0.098543
0.000000 0.815030 0.019318
0.000000 0.813657 0.000000
0.000000 0.811765 0.000000
0.000000 0.809323 0.000000
0.000000 0.806363 0.000000
0.140230 0.802823 0.000000
0.252811 0.798856 0.000000
0.331395 0.794339 0.000000
0.397833 0.789334 0.000000
0.457221 0.783932 0.000000
0.511254 0.776699 0.000000
0.559075 0.765743 0.000000
0.602838 0.754147 0.000000
0.643061 0.741817 0.000000
0.679896 0.729000 0.000000
0.713466 0.715663 0.000000
0.743954 0.701869 0.000000
0.773068 0.689387 0.000000
0.808865 0.685420 0.000000
0.844724 0.686091 0.149203
0.876158 0.691981 0.276127
0.901549 0.704189 0.387976
0.922271 0.721279 0.480049
0.939147 0.741146 0.555261
0.952667 0.762020 0.616754
0.962646 0.783688 0.670039
0.968872 0.806485 0.718837
0.972045 0.830045 0.763607
0.982238 0.837705 0.776242
0.000000 0.855772 0.130892
0.000000 0.855589 0.121126
0.000000 0.855222 0.106416
0.000000 0.854551 0.059022
0.000000 0.853422 0.000000
0.000000 0.851835 0.000000
0.000000 0.849638 0.000000
0.000000 0.846830 0.000000
0.052094 0.843626 0.000000
0.224186 0.839780 0.000000
0.312139 0.835599 0.000000
0.383520 0.830900 0.000000
0.446387 0.825803 0.000000
0.503868 0.820249 0.000000
0.555627 0.811612 0.000000
0.602686 0.800931 0.000000
0.646113 0.789609 0.000000
0.686244 0.777737 0.000000
0.723201 0.765408 0.000000
0.757290 0.752499 0.000000
0.788418 0.739345 0.000000
0.816526 0.725856 0.000000
0.849119 0.719509 0.000000
0.880522 0.718532 0.186709
0.907744 0.724208 0.318883
0.928954 0.735775 0.428809
0.945708 0.751308 0.516655
0.958709 0.769009 0.587457
0.968170 0.787869 0.646601
0.973938 0.808194 0.699336
0.976562 0.830106 0.747860
0.976928 0.852598 0.791684
0.000000 0.891691 0.136110
0.000000 0.891539 0.127901
0.000000 0.891295 0.114351
0.000000 0.890654 0.075319
0.000000 0.889738 0.000000
0.000000 0.888457 0.000000
0.000000 0.886625 0.000000
0.000000 0.884031 0.000000
0.000000 0.881010 0.000000
0.187472 0.877501 0.000000
0.288945 0.873625 0.000000
0.365881 0.869230 0.000000
0.432197 0.864439 0.000000
0.492409 0.859220 0.000000
0.548211 0.853605 0.000000
0.598108 0.843961 0.000000
0.644343 0.833707 0.000000
0.687404 0.822934 0.000000
0.727535 0.811612 0.000000
0.764797 0.799954 0.000000
0.799313 0.787869 0.000000
0.831174 0.775357 0.000000
0.857939 0.760891 0.000000
0.886595 0.752041 0.000000
0.912657 0.749142 0.230655
0.935180 0.754360 0.363622
0.952117 0.764675 0.468879
0.964721 0.778500 0.552087
0.973632 0.794095 0.619196
0.978973 0.811490 0.677028
0.981170 0.831144 0.729671
0.980987 0.852323 0.777462
0.000000 0.923735 0.141299
0.000000 0.923583 0.133639
0.000000 0.923369 0.121828
0.000000 0.922881 0.089143
0.000000 0.922148 0.000000
0.000000 0.921111 0.000000
0.000000 0.919646 0.000000
0.000000 0.917266 0.000000
0.000000 0.914458 0.000000
0.137972 0.911223 0.000000
0.261723 0.907622 0.000000
0.345281 0.903563 0.000000
0.415351 0.899107 0.000000
0.478035 0.894255 0.000000
0.535729 0.889067 0.000000
0.589075 0.882322 0.000000
0.637873 0.873198 0.000000
0.683528 0.863554 0.000000
0.726253 0.853483 0.000000
0.766293 0.842954 0.000000
0.803738 0.832059 0.000000
0.838621 0.820890 0.000000
0.871214 0.809445 0.000000
0.896239 0.793759 0.000000
0.920378 0.782467 0.096071
0.940551 0.777615 0.278904
0.958190 0.781949 0.408698
0.970703 0.790860 0.508415
0.979065 0.802609 0.586694
0.984009 0.816648 0.651301
0.985870 0.833494 0.708705
0.985168 0.852842 0.760952
0.000000 0.951446 0.145754
0.000000 0.951293 0.139040
0.000000 0.951141 0.128145
0.000000 0.950774 0.100893
0.000000 0.950134 0.000000
0.000000 0.949310 0.000000
0.000000 0.948180 0.000000
0.000000 0.946044 0.000000
0.000000 0.943450 0.000000
0.031769 0.940490 0.000000
0.230686 0.937163 0.000000
0.322728 0.933410 0.000000
0.396429 0.929290 0.000000
0.461311 0.924804 0.000000
0.520592 0.919982 0.000000
0.576074 0.914824 0.000000
0.627161 0.907439 0.000000
0.674830 0.898955 0.000000
0.719692 0.890074 0.000000
0.761929 0.880797 0.000000
0.801755 0.871153 0.000000
0.839292 0.861234 0.000000
0.874571 0.851102 0.000000
0.907591 0.840818 0.000000
0.930449 0.823911 0.000000
0.949767 0.810300 0.165408
0.963928 0.803647 0.329900
0.976593 0.806577 0.452949
0.984558 0.813840 0.547021
0.989044 0.824063 0.621057
0.990570 0.837491 0.684413
0.989471 0.854368 0.741817
0.000000 0.974701 0.149691
0.000000 0.974578 0.143160
0.000000 0.974426 0.134035
0.000000 0.974121 0.110719
0.000000 0.973632 0.042298
0.000000 0.972961 0.000000
0.000000 0.971954 0.000000
0.000000 0.970123 0.000000
0.000000 0.967773 0.000000
0.000000 0.965057 0.000000
0.197452 0.961975 0.000000
0.298894 0.958526 0.000000
0.376287 0.954742 0.000000
0.443214 0.950591 0.000000
0.503777 0.946136 0.000000
0.560082 0.941375 0.000000
0.613123 0.936065 0.000000
0.662135 0.928710 0.000000
0.708583 0.920928 0.000000
0.752499 0.912840 0.000000
0.794125 0.904417 0.000000
0.833616 0.895750 0.000000
0.870939 0.886900 0.000000
0.906188 0.877928 0.000000
0.939513 0.868833 0.000000
0.959686 0.850706 0.000000
0.974060 0.835111 0.229740
0.982635 0.826932 0.381964
0.990082 0.828061 0.496651
0.994079 0.833951 0.584741
0.995331 0.843503 0.656031
0.993957 0.857206 0.719295
0.000000 0.993439 0.152224
0.000000 0.993347 0.146914
0.000000 0.993225 0.138735
0.000000 0.992981 0.118929
0.000000 0.992554 0.073976
0.000000 0.991974 0.000000
0.000000 0.991028 0.000000
0.000000 0.989410 0.000000
0.000000 0.987243 0.000000
0.000000 0.984771 0.000000
0.163790 0.981933 0.000000
0.276310 0.978790 0.000000
0.356664 0.975311 0.000000
0.424872 0.971496 0.000000
0.486305 0.967376 0.000000
0.542992 0.962982 0.000000
0.596429 0.958251 0.000000
0.646632 0.952605 0.000000
0.694026 0.945892 0.000000
0.738949 0.938842 0.000000
0.781674 0.931548 0.000000
0.822477 0.924041 0.000000
0.861204 0.916381 0.000000
0.898039 0.908568 0.000000
0.932982 0.900725 0.000000
0.966064 0.892882 0.009613
0.983124 0.873533 0.148562
0.992554 0.856229 0.294041
0.996216 0.846860 0.433112
0.999268 0.846677 0.539300
1.000000 0.851896 0.622400
0.998535 0.861784 0.692805
0.000000 1.000000 0.153079
0.000000 1.000000 0.148531
0.000000 1.000000 0.141726
0.000000 1.000000 0.125124
0.000000 1.000000 0.090608
0.000000 1.000000 0.000000
0.000000 1.000000 0.000000
0.000000 1.000000 0.000000
0.000000 1.000000 0.000000
0.000000 0.999847 0.000000
0.135348 0.997253 0.000000
0.257816 0.994354 0.000000
0.339910 0.991150 0.000000
0.408453 0.987640 0.000000
0.469673 0.983856 0.000000
