其他预设/【233】日式怀旧街道调色预设208款/1.3D LUT预设（视频调色-PR-AE-PS-FCPX-达芬奇用）/3.日式城市街拍预设 (自动曝光预设)/JA – Neon 2 (Auto-Exposure).cube
# Created by Adobe Lightroom plugin Export LUT (1.17.0)
# www.johnrellis.com/lightroom/exportlut.htm
# Preset: JA – Neon 2 (Auto-Exposure)
# Color profile: /Library/Application Support/Adobe/Color/Profiles/Recommended/AdobeRGB1998.icc
LUT_3D_SIZE 5
DOMAIN_MIN 0.000000 0.000000 0.000000
DOMAIN_MAX 0.903226 0.903226 0.903226
0.118349 0.118349 0.118349
0.205295 0.116640 0.115114
0.520806 0.118868 0.072908
0.854307 0.134463 0.000000
1.000000 0.088594 0.000000
0.113344 0.179202 0.114015
0.171389 0.165652 0.121462
0.515099 0.248447 0.012055
0.852567 0.275212 0.000000
1.000000 0.233433 0.000000
0.035279 0.396918 0.055848
0.217655 0.393072 0.033417
0.364233 0.340276 0.092439
0.818753 0.493385 0.000000
1.000000 0.444770 0.000000
0.000000 0.703700 0.000000
0.196384 0.700038 0.000000
0.487526 0.682429 0.000000
0.671321 0.619562 0.000000
0.976043 0.664149 0.000000
0.000000 0.932525 0.000000
0.000000 0.929717 0.000000
0.444099 0.920897 0.000000
0.711086 0.899413 0.000000
0.924529 0.865049 0.221042
0.099458 0.119478 0.198947
0.197055 0.110567 0.193912
0.502770 0.000000 0.156222
0.850828 0.000000 0.046143
1.000000 0.121553 0.000000
0.099458 0.186007 0.190707
0.183536 0.182742 0.183200
0.499641 0.198611 0.154818
0.849638 0.230869 0.000000
1.000000 0.244205 0.000000
0.000000 0.406897 0.210208
0.145632 0.407721 0.148592
0.383246 0.360327 0.168246
0.832090 0.483436 0.000000
1.000000 0.447456 0.000000
0.000000 0.711208 0.143282
0.000000 0.710567 0.000000
0.469032 0.696101 0.000000
0.679500 0.628138 0.084443
0.977905 0.664118 0.000000
0.000000 0.936675 0.000000
0.000000 0.934600 0.000000
0.417578 0.923735 0.000000
0.711147 0.899962 0.000000
0.925658 0.865263 0.224338
0.000000 0.120363 0.451453
0.182284 0.080049 0.470588
0.478859 0.000000 0.465400
0.786740 0.000000 0.413062
1.000000 0.000000 0.366033
0.000000 0.229984 0.418097
0.000000 0.169009 0.443366
0.468696 0.059388 0.456550
0.800290 0.000000 0.403601
1.000000 0.201663 0.380957
0.000000 0.415900 0.434089
0.000000 0.414710 0.431312
0.419715 0.413397 0.417487
0.816861 0.454597 0.424170
1.000000 0.415290 0.334539
0.000000 0.727993 0.493355
0.000000 0.728328 0.469001
0.377905 0.719661 0.378332
0.700679 0.659174 0.395544
0.988312 0.660121 0.322393
0.000000 0.941161 0.424140
0.000000 0.940826 0.390784
0.277684 0.934325 0.283970
0.677852 0.911284 0.225101
0.924102 0.868437 0.386755
0.000000 0.115602 0.744930
0.000000 0.053986 0.755245
0.472633 0.000000 0.789792
0.796048 0.000000 0.772671
0.966552 0.000000 0.622766
0.000000 0.247929 0.728298
0.000000 0.162081 0.742123
0.433265 0.000000 0.779995
0.792203 0.000000 0.769772
0.969116 0.000000 0.621027
0.000000 0.455360 0.697963
0.000000 0.436622 0.695491
0.239933 0.359350 0.734676
0.774533 0.362036 0.756893
0.968750 0.418463 0.651850
0.000000 0.695491 0.728939
0.000000 0.695308 0.727962
0.199802 0.697047 0.723964
0.721248 0.707790 0.716487
0.954894 0.749813 0.741909
0.000000 0.949340 0.733089
0.000000 0.949004 0.721309
0.095796 0.941314 0.687251
0.691493 0.913359 0.688289
0.909087 0.877348 0.700984
0.000000 0.115053 0.937560
0.000000 0.070863 0.938842
0.320684 0.000000 0.943297
0.687953 0.000000 0.950225
0.963928 0.000000 0.938750
0.000000 0.225803 0.934905
0.000000 0.163790 0.937072
0.271550 0.074708 0.941680
0.678920 0.000000 0.948608
0.961883 0.000000 0.937652
0.000000 0.455879 0.922667
0.000000 0.425910 0.925597
0.000000 0.338964 0.934203
0.652949 0.392126 0.941192
0.952331 0.406653 0.932341
0.000000 0.659968 0.919646
0.000000 0.650752 0.919524
0.000000 0.617304 0.918120
0.592828 0.638727 0.921233
0.932494 0.715206 0.921172
0.000000 0.879332 0.919402
0.000000 0.879545 0.919188
0.000000 0.881132 0.917540
0.580072 0.887663 0.910307
0.906004 0.897978 0.903197
