其他预设/【233】日式怀旧街道调色预设208款/1.3D LUT预设（视频调色-PR-AE-PS-FCPX-达芬奇用）/3.日式城市街拍预设 (自动曝光预设)/JA – Faded Soft 3 (Auto-Exposure).cube
# Created by Adobe Lightroom plugin Export LUT (1.17.0)
# www.johnrellis.com/lightroom/exportlut.htm
# Preset: JA – Faded Soft 3 (Auto-Exposure)
# Color profile: /Library/Application Support/Adobe/Color/Profiles/Recommended/AdobeRGB1998.icc
LUT_3D_SIZE 32
0.065095 0.069032 0.076661
0.073335 0.069306 0.076448
0.084047 0.069734 0.076143
0.105013 0.070497 0.075380
0.130037 0.071290 0.074159
0.155947 0.072541 0.072541
0.183658 0.074617 0.070375
0.212161 0.078157 0.067353
0.241611 0.081636 0.063569
0.271214 0.086183 0.058778
0.302007 0.091096 0.048219
0.335454 0.097169 0.030976
0.372595 0.104891 0.008453
0.414923 0.113832 0.000000
0.463630 0.125154 0.000000
0.519890 0.137179 0.000000
0.581292 0.150362 0.000000
0.643091 0.164004 0.000000
0.699031 0.176486 0.000000
0.747189 0.186831 0.000000
0.788510 0.195254 0.000000
0.823972 0.201633 0.000000
0.854337 0.206302 0.000000
0.880369 0.209689 0.000000
0.903044 0.211215 0.000000
0.923064 0.211551 0.000000
0.941314 0.210971 0.000000
0.958465 0.209476 0.000000
0.974914 0.206760 0.000000
0.990753 0.203189 0.000000
1.000000 0.198703 0.000000
1.000000 0.193332 0.000000
0.065400 0.075624 0.076814
0.072877 0.076020 0.075959
0.084382 0.076600 0.075624
0.105501 0.077546 0.074769
0.130159 0.078340 0.073548
0.156252 0.079774 0.071901
0.183871 0.081971 0.069642
0.212345 0.084840 0.066651
0.241642 0.088350 0.062776
0.271275 0.092500 0.057374
0.302129 0.097292 0.046509
0.335546 0.103182 0.028748
0.372595 0.110475 0.006256
0.415015 0.119692 0.000000
0.463813 0.130129 0.000000
0.520104 0.142489 0.000000
0.581415 0.155825 0.000000
0.643214 0.169223 0.000000
0.699031 0.181460 0.000000
0.747250 0.191592 0.000000
0.788540 0.199680 0.000000
0.824002 0.205661 0.000000
0.854307 0.210178 0.000000
0.880400 0.213107 0.000000
0.903014 0.214664 0.000000
0.923033 0.214969 0.000000
0.941283 0.214084 0.000000
0.958434 0.212619 0.000000
0.974884 0.209842 0.000000
0.990723 0.206241 0.000000
1.000000 0.201602 0.000000
1.000000 0.196078 0.000000
0.065003 0.084596 0.077394
0.075166 0.085542 0.075746
0.084230 0.085481 0.075166
0.105715 0.086549 0.073915
0.130343 0.087251 0.072724
0.156527 0.088777 0.071015
0.183841 0.090517 0.068727
0.212436 0.093019 0.065705
0.241703 0.096468 0.061677
0.271305 0.100221 0.055360
0.302159 0.104829 0.043732
0.335576 0.110506 0.025879
0.372747 0.117586 0.003143
0.415167 0.126558 0.000000
0.463966 0.137301 0.000000
0.520409 0.149325 0.000000
0.581720 0.162844 0.000000
0.643366 0.175937 0.000000
0.699245 0.187747 0.000000
0.747341 0.197696 0.000000
0.788632 0.205356 0.000000
0.824033 0.211246 0.000000
0.854337 0.215610 0.000000
0.880369 0.218051 0.000000
0.903014 0.219364 0.000000
0.923033 0.219364 0.000000
0.941253 0.218540 0.000000
0.958404 0.216648 0.000000
0.974853 0.213870 0.000000
0.990692 0.210208 0.000000
1.000000 0.205447 0.000000
1.000000 0.199802 0.000000
0.066438 0.102663 0.078126
0.076173 0.103212 0.075868
0.087587 0.103853 0.074434
0.105196 0.103487 0.073121
0.130831 0.104646 0.070710
0.156680 0.104921 0.069032
0.184085 0.106569 0.066621
0.212650 0.108858 0.063447
0.241764 0.111788 0.059327
0.271458 0.115145 0.050843
0.302342 0.119478 0.037537
0.335698 0.124788 0.019501
0.372961 0.131868 0.000000
0.415442 0.140597 0.000000
0.464363 0.150851 0.000000
0.520836 0.163119 0.000000
0.582116 0.176425 0.000000
0.643854 0.189578 0.000000
0.699489 0.201144 0.000000
0.747494 0.210391 0.000000
0.788754 0.217563 0.000000
0.824033 0.222904 0.000000
0.854307 0.226535 0.000000
0.880308 0.228611 0.000000
0.902953 0.229343 0.000000
0.922972 0.228977 0.000000
0.941192 0.227481 0.000000
0.958343 0.225589 0.000000
0.974792 0.222416 0.000000
0.990631 0.218448 0.000000
1.000000 0.213687 0.000000
1.000000 0.207736 0.000000
0.067109 0.122866 0.079164
0.076692 0.123323 0.077241
0.088899 0.123964 0.074769
0.107301 0.124361 0.072602
0.128237 0.124208 0.070954
0.157504 0.127077 0.065522
0.184695 0.127596 0.063081
0.212924 0.129152 0.059754
0.242222 0.131655 0.052949
0.271641 0.135073 0.042634
0.302556 0.138827 0.027893
0.336004 0.144076 0.009339
0.373419 0.150820 0.000000
0.415900 0.159640 0.000000
0.464942 0.169833 0.000000
0.521508 0.182315 0.000000
0.582879 0.195773 0.000000
0.644343 0.208804 0.000000
0.699916 0.219974 0.000000
0.747799 0.228672 0.000000
0.788846 0.235142 0.000000
0.824155 0.239658 0.000000
0.854307 0.242588 0.000000
0.880308 0.243961 0.000000
0.902892 0.244083 0.000000
0.922881 0.242924 0.000000
0.941070 0.241215 0.000000
0.958251 0.238407 0.000000
0.974701 0.235050 0.000000
0.990539 0.230869 0.000000
1.000000 0.225711 0.000000
1.000000 0.219730 0.000000
0.068635 0.144137 0.081636
0.077852 0.144869 0.079713
0.088960 0.145327 0.077028
0.109468 0.146090 0.072328
0.130770 0.146517 0.070527
0.153201 0.146517 0.067964
0.185916 0.152377 0.058228
0.214023 0.153323 0.050538
0.242527 0.154299 0.042237
0.271916 0.156954 0.029969
0.302831 0.160861 0.014771
0.336400 0.165927 0.000000
0.373846 0.172732 0.000000
0.416663 0.181460 0.000000
0.465858 0.191958 0.000000
0.522606 0.204837 0.000000
0.583948 0.218662 0.000000
0.645197 0.231937 0.000000
0.700526 0.242710 0.000000
0.748165 0.250767 0.000000
0.789090 0.256718 0.000000
0.824247 0.260380 0.000000
0.854337 0.262272 0.000000
0.880247 0.262974 0.000000
0.902770 0.262303 0.000000
0.922759 0.260563 0.000000
0.940917 0.258061 0.000000
0.958099 0.254826 0.000000
0.974548 0.250858 0.000000
0.990417 0.246342 0.000000
1.000000 0.241032 0.000000
1.000000 0.234775 0.000000
0.070954 0.167636 0.084199
0.079561 0.167971 0.082399
0.090211 0.168490 0.080476
0.110231 0.169467 0.075288
0.133669 0.170138 0.070832
0.156527 0.170657 0.068849
0.179965 0.171328 0.066072
0.215122 0.178744 0.049744
0.244022 0.179843 0.036439
0.273045 0.181338 0.021546
0.303288 0.183780 0.003937
0.337011 0.189090 0.000000
0.374548 0.196170 0.000000
0.417548 0.205173 0.000000
0.467109 0.216220 0.000000
0.523888 0.229740 0.000000
0.585168 0.244022 0.000000
0.646326 0.257359 0.000000
0.701289 0.268223 0.000000
0.748653 0.275822 0.000000
0.789395 0.281010 0.000000
0.824369 0.283909 0.000000
0.854337 0.285100 0.000000
0.880186 0.284733 0.000000
0.902647 0.283391 0.000000
0.922576 0.280797 0.000000
0.940764 0.277653 0.000000
0.957916 0.273899 0.000000
0.974395 0.269474 0.000000
0.990234 0.264500 0.000000
1.000000 0.258793 0.000000
1.000000 0.252354 0.000000
0.073182 0.192569 0.087343
0.081758 0.193088 0.085908
0.092164 0.193393 0.084077
0.112001 0.194095 0.079530
0.137148 0.194827 0.073091
0.160220 0.195621 0.070375
0.184146 0.196628 0.068177
0.208316 0.197452 0.066041
0.244541 0.205722 0.046937
0.274693 0.207523 0.022492
0.305333 0.209567 0.003571
0.338415 0.213046 0.000000
0.375647 0.219181 0.000000
0.418799 0.228672 0.000000
0.468635 0.240726 0.000000
0.525658 0.255314 0.000000
0.586877 0.270848 0.000000
0.647700 0.284947 0.000000
0.702266 0.295720 0.000000
0.749294 0.302983 0.000000
0.789761 0.307530 0.000000
0.824552 0.309697 0.000000
0.854368 0.310094 0.000000
0.880064 0.308965 0.000000
0.902464 0.306523 0.000000
0.922362 0.303502 0.000000
0.940520 0.299596 0.000000
0.957733 0.295171 0.000000
0.974182 0.290227 0.000000
0.990021 0.284733 0.000000
1.000000 0.278660 0.000000
1.000000 0.272007 0.000000
0.075776 0.219425 0.090791
0.084535 0.219516 0.089479
0.094789 0.219883 0.088014
0.114076 0.220249 0.084382
0.138949 0.220981 0.078370
0.164675 0.221256 0.072999
0.188571 0.222660 0.070405
0.213199 0.223819 0.067628
0.238193 0.224887 0.064881
0.274907 0.233738 0.041047
0.307713 0.236942 0.005646
0.341314 0.240513 0.000000
0.378668 0.246250 0.000000
0.420935 0.254032 0.000000
0.470527 0.265934 0.000000
0.527764 0.281254 0.000000
0.588952 0.297185 0.000000
0.649592 0.312169 0.000000
0.703456 0.323522 0.000000
0.750057 0.331548 0.000000
0.790188 0.335515 0.000000
0.824765 0.337011 0.000000
0.854398 0.336675 0.000000
0.879973 0.334783 0.000000
0.902251 0.331762 0.000000
0.922118 0.327703 0.000000
0.940276 0.323186 0.000000
0.957458 0.318090 0.000000
0.973938 0.312566 0.000000
0.989776 0.306645 0.000000
1.000000 0.300175 0.000000
1.000000 0.293217 0.000000
0.078523 0.247044 0.093812
0.087251 0.247105 0.092805
0.097597 0.247227 0.091402
0.116609 0.247532 0.087953
0.140780 0.247898 0.082673
0.168154 0.248234 0.074800
0.192935 0.248936 0.070863
0.217716 0.250187 0.068330
0.243229 0.251743 0.064820
0.268803 0.253056 0.061433
0.307744 0.263554 0.027436
0.344640 0.269413 0.000000
0.382788 0.275486 0.000000
0.425727 0.283970 0.000000
0.474922 0.295140 0.000000
0.530388 0.308598 0.000000
0.591608 0.325322 0.000000
0.651667 0.340215 0.000000
0.704891 0.351507 0.000000
0.750942 0.359014 0.000000
0.790768 0.363928 0.000000
0.825010 0.365545 0.000000
0.854459 0.364538 0.000000
0.879850 0.361822 0.000000
0.902068 0.358007 0.000000
0.921843 0.353307 0.000000
0.940002 0.348028 0.000000
0.957183 0.342290 0.000000
0.973663 0.336248 0.000000
0.989532 0.329747 0.000000
1.000000 0.322942 0.000000
1.000000 0.315648 0.000000
0.081544 0.275303 0.097078
0.089570 0.275456 0.096101
0.099702 0.275486 0.094514
0.118776 0.275639 0.091493
0.142794 0.275792 0.086244
0.169833 0.275853 0.078859
0.197635 0.275425 0.071443
0.222477 0.277470 0.067292
0.248264 0.279118 0.063844
0.274937 0.281132 0.059327
0.301640 0.283024 0.050660
0.344854 0.296635 0.000000
0.387671 0.306371 0.000000
0.431647 0.315709 0.000000
0.481849 0.327855 0.000000
0.537621 0.342138 0.000000
0.596033 0.356359 0.000000
0.653864 0.369787 0.000000
0.706569 0.380560 0.000000
0.752102 0.387671 0.000000
0.791440 0.391821 0.000000
0.825284 0.393744 0.000000
0.854490 0.393225 0.000000
0.879728 0.389807 0.000000
0.901823 0.385229 0.000000
0.921569 0.379828 0.000000
0.939696 0.373816 0.000000
0.956847 0.367620 0.000000
0.973358 0.360967 0.000000
0.989227 0.353979 0.000000
1.000000 0.346777 0.000000
1.000000 0.339117 0.000000
0.083436 0.305516 0.100160
0.091676 0.305577 0.098939
0.102083 0.305547 0.097688
0.120851 0.305638 0.094270
0.145480 0.305608 0.089235
0.172366 0.305638 0.081849
0.201358 0.305608 0.071656
0.228183 0.305913 0.065309
0.254612 0.308324 0.060060
0.281773 0.310735 0.051789
0.309941 0.313481 0.038575
0.338506 0.316289 0.020905
0.387854 0.334661 0.000000
0.438605 0.349340 0.000000
0.489693 0.362646 0.000000
0.546075 0.377691 0.000000
0.604181 0.392370 0.000000
0.659846 0.404273 0.000000
0.708888 0.411627 0.000000
0.753323 0.417487 0.000000
0.792172 0.420813 0.000000
0.825681 0.421942 0.000000
0.854551 0.421363 0.000000
0.879576 0.418494 0.000000
0.901579 0.413184 0.000000
0.921233 0.407080 0.000000
0.939330 0.400458 0.000000
0.956512 0.393561 0.000000
0.972992 0.386450 0.000000
0.988891 0.378973 0.000000
1.000000 0.371313 0.000000
1.000000 0.363317 0.000000
0.085328 0.338750 0.101686
0.093690 0.338720 0.100801
0.104189 0.338750 0.099275
0.123476 0.338781 0.096162
0.148409 0.338720 0.090669
0.175906 0.338659 0.082826
0.205142 0.338445 0.072419
0.234867 0.337041 0.060426
0.262333 0.340093 0.047974
0.290257 0.343145 0.032532
0.319402 0.346532 0.015259
0.349798 0.350347 0.000000
0.380774 0.354467 0.000000
0.438514 0.378851 0.000000
0.497810 0.398871 0.000000
0.555413 0.415442 0.000000
0.613031 0.430213 0.000000
0.667292 0.441444 0.000000
0.714656 0.447730 0.000000
0.756374 0.450538 0.000000
0.792996 0.450874 0.000000
0.826078 0.451057 0.000000
0.854643 0.449592 0.000000
0.879454 0.446632 0.000000
0.901305 0.441596 0.000000
0.920867 0.434882 0.000000
0.938933 0.427619 0.000000
0.956115 0.420142 0.000000
0.972625 0.412421 0.000000
0.988495 0.404608 0.000000
1.000000 0.396490 0.000000
1.000000 0.388098 0.000000
0.085328 0.376410 0.102296
0.094392 0.376379 0.101167
0.105684 0.376318 0.099702
0.125521 0.376257 0.096101
0.151583 0.376074 0.090303
0.180362 0.375891 0.082033
0.210513 0.375616 0.070710
0.241703 0.375097 0.050843
0.271397 0.374792 0.024720
0.300938 0.379217 0.001434
0.331212 0.383124 0.000000
0.362982 0.387793 0.000000
0.396124 0.393133 0.000000
0.430488 0.398901 0.000000
0.497597 0.429938 0.000000
0.563317 0.453407 0.000000
0.622644 0.469764 0.000000
0.675196 0.480018 0.000000
0.720790 0.484993 0.000000
0.760952 0.486519 0.000000
0.796323 0.485359 0.000000
0.827237 0.482185 0.000000
0.854765 0.478462 0.000000
0.879362 0.474708 0.000000
0.901030 0.470069 0.000000
0.920470 0.463050 0.000000
0.938537 0.455146 0.000000
0.955718 0.447120 0.000000
0.972198 0.439002 0.000000
0.988098 0.430640 0.000000
1.000000 0.422095 0.000000
1.000000 0.413367 0.000000
0.083497 0.419532 0.099977
0.093355 0.419501 0.099001
0.105501 0.419409 0.097017
0.127626 0.419348 0.092927
0.155245 0.419165 0.086763
0.185428 0.418860 0.077363
0.217258 0.418372 0.063661
0.249851 0.417609 0.030396
0.282536 0.415869 0.000000
0.313542 0.419074 0.000000
0.345617 0.424414 0.000000
0.378943 0.429877 0.000000
0.413825 0.436072 0.000000
0.450660 0.443183 0.000000
0.489082 0.450874 0.000000
0.563012 0.486213 0.000000
0.629175 0.508568 0.000000
0.683162 0.519799 0.000000
0.726986 0.523308 0.000000
0.765805 0.523430 0.000000
0.799863 0.520928 0.000000
0.829831 0.516472 0.000000
0.856138 0.510674 0.000000
0.879423 0.503746 0.000000
0.900694 0.497749 0.000000
0.920073 0.491463 0.000000
0.938079 0.483009 0.000000
0.955261 0.474495 0.000000
0.971740 0.465797 0.000000
0.987640 0.457038 0.000000
1.000000 0.448066 0.000000
1.000000 0.438941 0.000000
0.077180 0.469581 0.093355
0.090089 0.469490 0.092042
0.103212 0.469459 0.089754
0.128420 0.469184 0.085298
0.158602 0.468879 0.077699
0.191623 0.468360 0.065827
0.225254 0.467689 0.038270
0.259892 0.466926 0.000000
0.294896 0.465675 0.000000
0.328313 0.463661 0.000000
0.362402 0.470649 0.000000
0.397589 0.477058 0.000000
0.434028 0.483833 0.000000
0.472511 0.491432 0.000000
0.512596 0.499672 0.000000
0.554009 0.508293 0.000000
0.628412 0.542504 0.000000
0.687160 0.557916 0.000000
0.733333 0.562615 0.000000
0.770565 0.561181 0.000000
0.803464 0.557214 0.000000
0.832456 0.551415 0.000000
0.858000 0.544244 0.000000
0.880644 0.536217 0.000000
0.900969 0.527672 0.000000
0.919646 0.519188 0.000000
0.937591 0.511101 0.000000
0.954772 0.502037 0.000000
0.971252 0.492958 0.000000
0.987152 0.483680 0.000000
1.000000 0.474342 0.000000
1.000000 0.464820 0.000000
0.065309 0.525994 0.079377
0.081300 0.525933 0.077394
0.098726 0.525780 0.074983
0.127596 0.525475 0.068879
0.161868 0.525017 0.057038
0.197421 0.524285 0.023682
0.233921 0.523339 0.000000
0.271031 0.521996 0.000000
0.308141 0.520409 0.000000
0.345006 0.517967 0.000000
0.380041 0.519738 0.000000
0.417090 0.527306 0.000000
0.454749 0.534234 0.000000
0.494026 0.541619 0.000000
0.534722 0.549523 0.000000
0.576837 0.557916 0.000000
0.619409 0.565850 0.000000
0.685847 0.592401 0.000000
0.735409 0.599939 0.000000
0.775357 0.599725 0.000000
0.807034 0.594141 0.000000
0.834989 0.586908 0.000000
0.859770 0.578363 0.000000
0.881834 0.569146 0.000000
0.901762 0.559533 0.000000
0.920043 0.549798 0.000000
0.937346 0.540337 0.000000
0.954284 0.529870 0.000000
0.970733 0.520195 0.000000
0.986664 0.510521 0.000000
1.000000 0.500786 0.000000
1.000000 0.490852 0.000000
0.029999 0.584924 0.051484
0.067964 0.584680 0.046876
0.090944 0.584588 0.037537
0.125246 0.584100 0.017273
0.163607 0.583459 0.000000
0.202518 0.582483 0.000000
0.241947 0.581262 0.000000
0.281315 0.579583 0.000000
0.320836 0.577630 0.000000
0.359960 0.575189 0.000000
0.397345 0.570245 0.000000
0.435126 0.577844 0.000000
0.474006 0.585077 0.000000
0.513634 0.591913 0.000000
0.554345 0.598932 0.000000
0.595880 0.605982 0.000000
0.638270 0.613153 0.000000
0.679530 0.618738 0.000000
0.734310 0.635035 0.000000
0.775998 0.636042 0.000000
0.810483 0.631647 0.000000
0.837522 0.622858 0.000000
0.861540 0.612909 0.000000
0.882994 0.602502 0.000000
0.902464 0.591699 0.000000
0.920500 0.580987 0.000000
0.937652 0.570642 0.000000
0.954162 0.559594 0.000000
0.970184 0.547662 0.000000
0.986084 0.537530 0.000000
1.000000 0.527398 0.000000
1.000000 0.517113 0.000000
0.000000 0.642878 0.000000
0.038056 0.642695 0.000000
0.081056 0.642451 0.000000
0.121157 0.641962 0.000000
0.163912 0.641108 0.000000
0.205966 0.640009 0.000000
0.248173 0.638544 0.000000
0.289799 0.636683 0.000000
0.331426 0.634485 0.000000
0.372412 0.631861 0.000000
0.413214 0.628687 0.000000
0.451087 0.627283 0.000000
0.490089 0.633967 0.000000
0.529290 0.639490 0.000000
0.569146 0.644862 0.000000
0.609522 0.650233 0.000000
0.650385 0.655451 0.000000
0.691310 0.660548 0.000000
0.730343 0.663661 0.000000
0.775204 0.671473 0.000000
0.810025 0.666987 0.000000
0.839384 0.658930 0.000000
0.863157 0.647913 0.000000
0.884062 0.636103 0.000000
0.903136 0.624170 0.000000
0.920897 0.612421 0.000000
0.937865 0.601190 0.000000
0.954284 0.590326 0.000000
0.970153 0.577813 0.000000
0.985626 0.565362 0.000000
1.000000 0.554101 0.000000
1.000000 0.543481 0.000000
0.000000 0.694362 0.000000
0.000916 0.694179 0.000000
0.069245 0.693904 0.000000
0.116945 0.693385 0.000000
0.163210 0.692439 0.000000
0.207675 0.691249 0.000000
0.251621 0.689601 0.000000
0.294865 0.687617 0.000000
0.337804 0.685206 0.000000
0.380224 0.682399 0.000000
0.422126 0.679164 0.000000
0.462806 0.673945 0.000000
0.500969 0.677150 0.000000
0.539788 0.682002 0.000000
0.578607 0.685908 0.000000
0.617762 0.689693 0.000000
0.657252 0.693416 0.000000
0.696742 0.697017 0.000000
0.736202 0.700374 0.000000
0.772885 0.701289 0.000000
0.809415 0.702205 0.000000
0.838499 0.693599 0.000000
0.863890 0.682704 0.000000
0.885008 0.670039 0.000000
0.903716 0.656947 0.000000
0.921233 0.644190 0.000000
0.938048 0.632044 0.000000
0.954345 0.620478 0.000000
0.970092 0.608118 0.000000
0.985412 0.595209 0.000000
1.000000 0.582330 0.000000
1.000000 0.569970 0.000000
0.000000 0.738155 0.000000
0.000000 0.738003 0.000000
0.062501 0.737697 0.000000
0.114107 0.737148 0.000000
0.162325 0.736141 0.000000
0.208103 0.734890 0.000000
0.252720 0.733303 0.000000
0.296696 0.731289 0.000000
0.340368 0.728847 0.000000
0.383429 0.726040 0.000000
0.426093 0.722805 0.000000
0.468299 0.719081 0.000000
0.507774 0.715419 0.000000
0.545556 0.719020 0.000000
0.583581 0.722133 0.000000
0.621637 0.724758 0.000000
0.659846 0.727230 0.000000
0.698054 0.729580 0.000000
0.736080 0.731807 0.000000
0.773800 0.733730 0.000000
0.808225 0.732815 0.000000
0.838102 0.728267 0.000000
0.862638 0.716457 0.000000
0.884886 0.703639 0.000000
0.904234 0.689906 0.000000
0.921508 0.676204 0.000000
0.938170 0.663111 0.000000
0.954314 0.650660 0.000000
0.969970 0.638392 0.000000
0.985199 0.625025 0.000000
1.000000 0.611749 0.000000
1.000000 0.598535 0.000000
0.000000 0.775204 0.000000
0.000000 0.775021 0.000000
0.059510 0.774685 0.000000
0.113039 0.774136 0.000000
0.161593 0.773251 0.000000
0.207431 0.772000 0.000000
0.252354 0.770413 0.000000
0.296452 0.768429 0.000000
0.340154 0.766110 0.000000
0.383398 0.763333 0.000000
0.426184 0.760250 0.000000
0.468727 0.756680 0.000000
0.510246 0.751980 0.000000
0.547997 0.751644 0.000000
0.585077 0.754025 0.000000
0.622156 0.755764 0.000000
0.659052 0.757259 0.000000
0.696101 0.758572 0.000000
0.732876 0.759823 0.000000
0.769375 0.760769 0.000000
0.805509 0.761593 0.000000
0.837736 0.759182 0.000000
0.862455 0.750668 0.000000
0.883391 0.736599 0.000000
0.903441 0.722530 0.000000
0.921721 0.708400 0.000000
0.938201 0.694392 0.000000
0.954223 0.681086 0.000000
0.969818 0.668482 0.000000
0.984924 0.654810 0.000000
0.999695 0.641138 0.000000
1.000000 0.627527 0.000000
0.000000 0.806424 0.000000
0.000000 0.806241 0.000000
0.064729 0.805997 0.000000
0.115114 0.805417 0.000000
0.161837 0.804532 0.000000
0.207187 0.803342 0.000000
0.251286 0.801846 0.000000
0.294713 0.799985 0.000000
0.338140 0.797787 0.000000
0.380987 0.795163 0.000000
0.423713 0.792264 0.000000
0.465827 0.788907 0.000000
0.507652 0.785153 0.000000
0.547967 0.780331 0.000000
0.583764 0.781888 0.000000
0.619928 0.783200 0.000000
0.655848 0.783871 0.000000
0.691676 0.784421 0.000000
0.727352 0.784848 0.000000
0.762753 0.785122 0.000000
0.797787 0.785245 0.000000
0.832334 0.785122 0.000000
0.862730 0.781613 0.000000
0.883543 0.770230 0.000000
0.901762 0.754757 0.000000
0.920500 0.740108 0.000000
0.938170 0.725795 0.000000
0.954070 0.711666 0.000000
0.969574 0.698268 0.000000
0.984588 0.684535 0.000000
0.999237 0.670405 0.000000
1.000000 0.656458 0.000000
0.000000 0.832853 0.000000
0.022400 0.832670 0.000000
0.075807 0.832425 0.000000
0.119844 0.831907 0.000000
0.164034 0.831083 0.000000
0.207095 0.830014 0.000000
0.250065 0.828611 0.000000
0.292576 0.826871 0.000000
0.335180 0.824765 0.000000
0.377356 0.822354 0.000000
0.419409 0.819608 0.000000
0.461006 0.816495 0.000000
0.502373 0.813046 0.000000
0.543359 0.808896 0.000000
0.580652 0.806546 0.000000
0.615717 0.807248 0.000000
0.650752 0.807614 0.000000
0.685542 0.807584 0.000000
0.720241 0.807401 0.000000
0.754635 0.807126 0.000000
0.788663 0.806699 0.000000
0.822293 0.806119 0.000000
0.855497 0.805417 0.000000
0.884337 0.801053 0.000000
0.902373 0.787869 0.000000
0.918730 0.771603 0.000000
0.936645 0.756710 0.000000
0.953765 0.742367 0.000000
0.969207 0.728176 0.000000
0.984192 0.714260 0.000000
0.998718 0.699702 0.000000
1.000000 0.685298 0.000000
0.016876 0.855436 0.000000
0.064179 0.855283 0.000000
0.089876 0.855070 0.000000
0.127016 0.854582 0.000000
0.167605 0.853819 0.000000
0.208438 0.852811 0.000000
0.249546 0.851499 0.000000
0.290471 0.849943 0.000000
0.331823 0.847990 0.000000
0.372961 0.845792 0.000000
0.413855 0.843290 0.000000
0.454963 0.840421 0.000000
0.495644 0.837247 0.000000
0.536095 0.833707 0.000000
0.576104 0.829007 0.000000
0.610346 0.828824 0.000000
0.644465 0.828885 0.000000
0.678340 0.828550 0.000000
0.712093 0.827970 0.000000
0.745632 0.827298 0.000000
0.778866 0.826505 0.000000
0.811765 0.825589 0.000000
0.844266 0.824613 0.000000
0.876249 0.823545 0.000000
0.903807 0.818662 0.000000
0.920073 0.804410 0.000000
0.934813 0.787594 0.000000
0.952026 0.772549 0.000000
0.968536 0.758083 0.000000
0.983734 0.743893 0.000000
0.998108 0.728908 0.000000
1.000000 0.714137 0.000000
0.070771 0.875181 0.049561
0.088106 0.875059 0.040925
0.106294 0.874846 0.029084
0.136965 0.874418 0.002808
0.172885 0.873747 0.000000
0.210819 0.872831 0.000000
0.249516 0.871641 0.000000
0.288975 0.870207 0.000000
0.328679 0.868467 0.000000
0.368353 0.866453 0.000000
0.408301 0.864134 0.000000
0.448157 0.861540 0.000000
0.488045 0.858640 0.000000
0.527855 0.855436 0.000000
0.567346 0.851865 0.000000
0.604425 0.848569 0.000000
0.637476 0.848325 0.000000
0.670588 0.847929 0.000000
0.703578 0.847135 0.000000
0.736324 0.846220 0.000000
0.768917 0.845243 0.000000
0.801175 0.844144 0.000000
0.833097 0.843015 0.000000
0.864591 0.841794 0.000000
0.895659 0.840482 0.000000
0.922118 0.835233 0.000000
0.936828 0.820188 0.000000
0.950469 0.803037 0.000000
0.966705 0.787655 0.000000
0.982696 0.773159 0.000000
0.997436 0.758083 0.000000
1.000000 0.742885 0.000000
0.097688 0.893065 0.091066
0.109468 0.892912 0.088685
0.123842 0.892729 0.085237
0.148775 0.892363 0.077028
0.180423 0.891752 0.061830
0.214817 0.890929 0.012451
0.251133 0.889860 0.000000
0.288243 0.888579 0.000000
0.326177 0.887022 0.000000
0.364324 0.885222 0.000000
0.402899 0.883146 0.000000
0.441596 0.880827 0.000000
0.480415 0.878202 0.000000
0.519280 0.875303 0.000000
0.558129 0.872160 0.000000
0.596857 0.868193 0.000000
0.630579 0.866728 0.000000
0.662867 0.866209 0.000000
0.695186 0.865446 0.000000
0.727291 0.864439 0.000000
0.759182 0.863340 0.000000
0.790921 0.862150 0.000000
0.822293 0.860899 0.000000
0.853300 0.859525 0.000000
0.883970 0.858091 0.000000
0.914122 0.856596 0.000000
0.939574 0.851011 0.000000
0.952941 0.835233 0.000000
0.965454 0.817807 0.000000
0.980804 0.802121 0.000000
0.996216 0.787106 0.000000
1.000000 0.771633 0.000000
0.122072 0.909819 0.120668
0.130617 0.909728 0.118959
0.141329 0.909575 0.116396
0.162081 0.909209 0.110292
0.189670 0.908690 0.100160
0.220676 0.907958 0.085145
0.254093 0.907012 0.058412
0.288701 0.905882 0.000000
0.324559 0.904509 0.000000
0.361151 0.902892 0.000000
0.398169 0.901061 0.000000
0.435615 0.898985 0.000000
0.473243 0.896666 0.000000
0.511131 0.894072 0.000000
0.549065 0.891264 0.000000
