其他预设/【233】日式怀旧街道调色预设208款/1.3D LUT预设（视频调色-PR-AE-PS-FCPX-达芬奇用）/3.日式城市街拍预设 (自动曝光预设)/JA – Controlled Contrast 1 (Auto-Exposure).cube
# Created by Adobe Lightroom plugin Export LUT (1.17.0)
# www.johnrellis.com/lightroom/exportlut.htm
# Preset: JA – Controlled Contrast 1 (Auto-Exposure)
# Color profile: /Library/Application Support/Adobe/Color/Profiles/Recommended/AdobeRGB1998.icc
LUT_3D_SIZE 32
0.089021 0.087709 0.087587
0.093324 0.087892 0.087434
0.099214 0.088045 0.087251
0.111482 0.088624 0.086824
0.127779 0.089357 0.086122
0.146975 0.090669 0.085420
0.170291 0.092958 0.083925
0.198459 0.095918 0.081697
0.232212 0.100038 0.078370
0.271946 0.106142 0.073610
0.319036 0.113558 0.065614
0.371649 0.123476 0.049042
0.427344 0.134981 0.011048
0.483803 0.147768 0.000000
0.538384 0.161135 0.000000
0.590295 0.174014 0.000000
0.639399 0.186618 0.000000
0.685756 0.198672 0.000000
0.727932 0.210178 0.000000
0.767422 0.220737 0.000000
0.804623 0.230442 0.000000
0.839719 0.239384 0.000000
0.872770 0.247349 0.000000
0.903593 0.254643 0.000000
0.932433 0.260716 0.000000
0.959228 0.266117 0.000000
0.983948 0.270451 0.000000
1.000000 0.273808 0.000000
1.000000 0.276249 0.000000
1.000000 0.277745 0.000000
1.000000 0.278141 0.000000
1.000000 0.277775 0.000000
0.089296 0.090700 0.087312
0.092256 0.090181 0.087861
0.098482 0.090883 0.087617
0.110811 0.091737 0.087129
0.126741 0.092561 0.086458
0.145937 0.093874 0.085481
0.169131 0.095888 0.084016
0.197208 0.099123 0.081788
0.230838 0.103487 0.078462
0.270695 0.109407 0.073701
0.317449 0.117311 0.065675
0.369940 0.127321 0.049195
0.425696 0.138766 0.010132
0.482124 0.151797 0.000000
0.536950 0.164767 0.000000
0.588891 0.177676 0.000000
0.638087 0.190036 0.000000
0.684596 0.201907 0.000000
0.726986 0.213138 0.000000
0.766537 0.223514 0.000000
0.803891 0.233005 0.000000
0.839078 0.241794 0.000000
0.872221 0.249607 0.000000
0.903197 0.256748 0.000000
0.932067 0.262913 0.000000
0.958923 0.268040 0.000000
0.983703 0.272374 0.000000
1.000000 0.275761 0.000000
1.000000 0.278111 0.000000
1.000000 0.279576 0.000000
1.000000 0.279820 0.000000
1.000000 0.279332 0.000000
0.089357 0.095003 0.086946
0.093568 0.095186 0.087098
0.097261 0.093965 0.088533
0.109712 0.095644 0.087709
0.125643 0.096193 0.086763
0.144625 0.097566 0.085786
0.167514 0.099916 0.084321
0.195438 0.103120 0.082124
0.228916 0.107485 0.078828
0.268498 0.113710 0.073732
0.315160 0.121950 0.065705
0.367559 0.132174 0.049195
0.423346 0.143709 0.011139
0.479927 0.156680 0.000000
0.534752 0.169802 0.000000
0.587091 0.182162 0.000000
0.636378 0.194461 0.000000
0.682979 0.206302 0.000000
0.725643 0.217258 0.000000
0.765377 0.227329 0.000000
0.802853 0.236667 0.000000
0.838285 0.245090 0.000000
0.871489 0.252873 0.000000
0.902586 0.259678 0.000000
0.931548 0.265782 0.000000
0.958495 0.270878 0.000000
0.983337 0.275029 0.000000
1.000000 0.278233 0.000000
1.000000 0.280491 0.000000
1.000000 0.281773 0.000000
1.000000 0.282170 0.000000
1.000000 0.281468 0.000000
0.089937 0.104219 0.086030
0.094179 0.104372 0.085908
0.100008 0.104250 0.086305
0.107210 0.102205 0.089418
0.122713 0.103639 0.088472
0.141756 0.104280 0.086427
0.164309 0.106661 0.084718
0.191928 0.110414 0.082490
0.225071 0.115236 0.079194
0.264225 0.122042 0.074128
0.310369 0.130831 0.066133
0.362676 0.141482 0.049134
0.418158 0.153567 0.010925
0.474861 0.166720 0.000000
0.530327 0.179355 0.000000
0.582849 0.191775 0.000000
0.632654 0.203647 0.000000
0.679591 0.214939 0.000000
0.722652 0.225589 0.000000
0.762753 0.235233 0.000000
0.800717 0.244053 0.000000
0.836393 0.252293 0.000000
0.869902 0.259831 0.000000
0.901183 0.266300 0.000000
0.930449 0.271824 0.000000
0.957549 0.276768 0.000000
0.982574 0.280552 0.000000
1.000000 0.283787 0.000000
1.000000 0.285863 0.000000
1.000000 0.286870 0.000000
1.000000 0.286961 0.000000
1.000000 0.286137 0.000000
0.090700 0.115236 0.084840
0.094942 0.115389 0.084688
0.100130 0.115572 0.084504
0.110414 0.114443 0.086030
0.118715 0.111574 0.090852
0.137484 0.114595 0.089235
0.160037 0.116518 0.086183
0.186526 0.119570 0.083284
0.219150 0.125490 0.079957
0.257603 0.132906 0.074617
0.303105 0.142336 0.066651
0.354742 0.153841 0.051026
0.410376 0.166567 0.011902
0.467323 0.179721 0.000000
0.523186 0.192721 0.000000
0.576410 0.204868 0.000000
0.626734 0.216495 0.000000
0.674159 0.227359 0.000000
0.718044 0.237430 0.000000
0.758877 0.246586 0.000000
0.797269 0.255009 0.000000
0.833463 0.262760 0.000000
0.867369 0.269902 0.000000
0.899107 0.275975 0.000000
0.928649 0.281285 0.000000
0.956023 0.285710 0.000000
0.981323 0.289311 0.000000
1.000000 0.291875 0.000000
1.000000 0.293675 0.000000
1.000000 0.294530 0.000000
1.000000 0.294408 0.000000
1.000000 0.293309 0.000000
0.092317 0.127626 0.083162
0.096101 0.127962 0.083009
0.101198 0.128145 0.082826
0.111391 0.128573 0.082399
0.123323 0.125917 0.086183
0.132143 0.122866 0.091798
0.154726 0.128145 0.090150
0.181521 0.132235 0.086091
0.212131 0.136538 0.081147
0.249210 0.144106 0.075715
0.293614 0.154635 0.067872
0.344671 0.167056 0.052674
0.399817 0.180636 0.013977
0.457221 0.194461 0.000000
0.513878 0.207706 0.000000
0.567864 0.220188 0.000000
0.618891 0.231632 0.000000
0.666926 0.242252 0.000000
0.711696 0.251926 0.000000
0.753414 0.260746 0.000000
0.792538 0.268925 0.000000
0.829465 0.276066 0.000000
0.863981 0.282475 0.000000
0.896239 0.288212 0.000000
0.926238 0.293126 0.000000
0.954009 0.297215 0.000000
0.979675 0.300420 0.000000
1.000000 0.302617 0.000000
1.000000 0.304051 0.000000
1.000000 0.304540 0.000000
1.000000 0.304051 0.000000
1.000000 0.302770 0.000000
0.094423 0.142672 0.081819
0.098421 0.142947 0.081636
0.103456 0.143099 0.081147
0.113588 0.143771 0.080659
0.127138 0.143496 0.081056
0.139345 0.139986 0.086183
0.148867 0.136568 0.092622
0.175906 0.144808 0.090333
0.207340 0.151797 0.084901
0.242985 0.159030 0.078248
0.282719 0.166598 0.069856
0.332280 0.179751 0.056336
0.387213 0.194491 0.018433
0.444892 0.209323 0.000000
0.502220 0.223392 0.000000
0.557000 0.236332 0.000000
0.608972 0.247868 0.000000
0.657923 0.258518 0.000000
0.703853 0.268162 0.000000
0.746578 0.276616 0.000000
0.786679 0.284489 0.000000
0.824399 0.291264 0.000000
0.859617 0.297520 0.000000
0.892576 0.302586 0.000000
0.923125 0.307164 0.000000
0.951446 0.310765 0.000000
0.977539 0.313664 0.000000
1.000000 0.315587 0.000000
1.000000 0.316564 0.000000
1.000000 0.316777 0.000000
1.000000 0.315831 0.000000
1.000000 0.314244 0.000000
0.097597 0.160922 0.080446
0.101747 0.161135 0.080262
0.106538 0.161563 0.079683
0.116854 0.162264 0.078798
0.131350 0.163638 0.077546
0.146456 0.161379 0.080781
0.159396 0.157595 0.086152
0.169894 0.154086 0.092561
0.201724 0.165286 0.089631
0.238376 0.175387 0.082155
0.279271 0.185855 0.072908
0.324437 0.196109 0.059907
0.372992 0.206943 0.024842
0.430396 0.223117 0.000000
0.488350 0.238376 0.000000
0.544213 0.252323 0.000000
0.597192 0.264530 0.000000
0.647089 0.275425 0.000000
0.694148 0.285222 0.000000
0.738186 0.293797 0.000000
0.779446 0.301366 0.000000
0.818173 0.308141 0.000000
0.854368 0.313970 0.000000
0.888060 0.318914 0.000000
0.919341 0.323003 0.000000
0.948302 0.326360 0.000000
0.974914 0.328710 0.000000
0.999359 0.330205 0.000000
1.000000 0.330907 0.000000
1.000000 0.330602 0.000000
1.000000 0.329534 0.000000
1.000000 0.327489 0.000000
0.102296 0.183352 0.078492
0.106508 0.183627 0.077943
0.111757 0.184054 0.077638
0.121950 0.185000 0.076997
0.136995 0.186404 0.075624
0.154879 0.187839 0.074556
0.170657 0.184054 0.080079
0.184268 0.179843 0.085847
0.196414 0.176394 0.092683
0.233433 0.190463 0.088655
0.275517 0.203799 0.078340
0.321935 0.216770 0.064912
0.370886 0.229007 0.032654
0.420630 0.239750 0.000000
0.473487 0.251926 0.000000
0.530205 0.267063 0.000000
0.584039 0.280095 0.000000
0.634821 0.291814 0.000000
0.682795 0.302251 0.000000
0.728328 0.311376 0.000000
0.770840 0.319127 0.000000
0.810849 0.325780 0.000000
0.848081 0.331548 0.000000
0.882719 0.336400 0.000000
0.914824 0.340215 0.000000
0.944518 0.343297 0.000000
0.971862 0.345342 0.000000
0.996826 0.346532 0.000000
1.000000 0.346838 0.000000
1.000000 0.346258 0.000000
1.000000 0.344701 0.000000
1.000000 0.342382 0.000000
0.108248 0.210513 0.074372
0.112398 0.210849 0.074098
0.117800 0.211276 0.073732
0.128695 0.212284 0.072908
0.144381 0.213748 0.071260
0.163363 0.215885 0.068910
0.183017 0.215366 0.070588
0.199802 0.211185 0.077058
0.214755 0.207034 0.083558
0.228580 0.203433 0.091005
0.271092 0.220432 0.085145
0.318944 0.236728 0.070497
0.369329 0.251499 0.041505
0.420111 0.264256 0.000000
0.469917 0.274754 0.000000
0.517296 0.282780 0.000000
0.569390 0.294865 0.000000
0.621241 0.307286 0.000000
0.670344 0.318364 0.000000
0.717098 0.328405 0.000000
0.760952 0.336980 0.000000
0.802243 0.343908 0.000000
0.840726 0.349767 0.000000
0.876463 0.354650 0.000000
0.909575 0.358495 0.000000
0.940154 0.361212 0.000000
0.968231 0.363134 0.000000
0.993896 0.363958 0.000000
1.000000 0.364050 0.000000
1.000000 0.363104 0.000000
1.000000 0.361242 0.000000
1.000000 0.358526 0.000000
0.115145 0.242222 0.067292
0.119448 0.242679 0.066896
0.125124 0.243168 0.066407
0.136904 0.244236 0.065339
0.153292 0.245884 0.063050
0.173190 0.248173 0.059968
0.196384 0.251499 0.054170
0.216373 0.248142 0.062440
0.234592 0.243595 0.070192
0.250980 0.239048 0.077913
0.267094 0.235721 0.087037
0.315343 0.255802 0.078309
0.367224 0.273777 0.053620
0.419593 0.288945 0.000000
0.470466 0.301183 0.000000
0.518639 0.310399 0.000000
0.563439 0.316838 0.000000
0.605737 0.321782 0.000000
0.656153 0.333745 0.000000
0.704677 0.344671 0.000000
0.749813 0.354253 0.000000
0.792355 0.362036 0.000000
0.832273 0.368292 0.000000
0.869261 0.373327 0.000000
0.903532 0.377203 0.000000
0.935119 0.380072 0.000000
0.964080 0.381750 0.000000
0.990509 0.382513 0.000000
1.000000 0.382300 0.000000
1.000000 0.381018 0.000000
1.000000 0.378973 0.000000
1.000000 0.376074 0.000000
0.123171 0.279362 0.050629
0.127626 0.279698 0.049805
0.133913 0.280217 0.048554
0.146151 0.281254 0.045686
0.163668 0.283055 0.038911
0.184817 0.285496 0.029908
0.208774 0.288640 0.018494
0.234409 0.290440 0.014893
0.255772 0.286015 0.033906
0.275547 0.281376 0.053071
0.293400 0.276371 0.066743
0.311925 0.273228 0.079194
0.364416 0.295232 0.066255
0.418402 0.313451 0.005097
0.470558 0.327764 0.000000
0.519677 0.338262 0.000000
0.565332 0.345739 0.000000
0.607630 0.350744 0.000000
0.647639 0.354284 0.000000
0.690425 0.360296 0.000000
0.737484 0.370703 0.000000
0.781186 0.379706 0.000000
0.822660 0.386603 0.000000
0.861112 0.392096 0.000000
0.896696 0.396338 0.000000
0.929381 0.399237 0.000000
0.959350 0.401068 0.000000
0.986694 0.401831 0.000000
1.000000 0.401434 0.000000
1.000000 0.399969 0.000000
1.000000 0.397711 0.000000
1.000000 0.394446 0.000000
0.132692 0.320928 0.003632
0.137331 0.321386 0.002228
0.143832 0.321965 0.000214
0.156985 0.323033 0.000000
0.175296 0.324773 0.000000
0.197696 0.327123 0.000000
0.222873 0.330266 0.000000
0.251011 0.334264 0.000000
0.277043 0.332799 0.000000
0.300084 0.328222 0.000000
0.321630 0.323278 0.000488
0.341100 0.317967 0.033387
0.361822 0.315007 0.064698
0.416449 0.337072 0.033753
0.470222 0.354101 0.000000
0.520500 0.366339 0.000000
0.566857 0.374701 0.000000
0.609827 0.380316 0.000000
0.650324 0.384192 0.000000
0.689754 0.387396 0.000000
0.727260 0.389502 0.000000
0.769100 0.396307 0.000000
0.811826 0.404517 0.000000
0.851896 0.410742 0.000000
0.888945 0.415412 0.000000
0.922942 0.418647 0.000000
0.954070 0.420752 0.000000
0.982391 0.421576 0.000000
1.000000 0.421149 0.000000
1.000000 0.419654 0.000000
1.000000 0.417151 0.000000
1.000000 0.413672 0.000000
0.142885 0.366003 0.000000
0.148287 0.366278 0.000000
0.154788 0.366796 0.000000
0.168460 0.367895 0.000000
0.187655 0.369451 0.000000
0.211002 0.371679 0.000000
0.237400 0.374517 0.000000
0.266117 0.377905 0.000000
0.297459 0.381964 0.000000
0.323369 0.377630 0.000000
0.347997 0.372808 0.000000
0.371160 0.367742 0.000000
0.392218 0.362280 0.000000
0.414496 0.358953 0.020081
0.468605 0.379431 0.000000
0.520867 0.394293 0.000000
0.568170 0.404059 0.000000
0.611810 0.410437 0.000000
0.652979 0.414771 0.000000
0.692653 0.418067 0.000000
0.730282 0.420081 0.000000
0.765988 0.421393 0.000000
0.800229 0.421942 0.000000
0.841642 0.428840 0.000000
0.880278 0.434272 0.000000
0.915740 0.438148 0.000000
0.948180 0.440497 0.000000
0.977600 0.441566 0.000000
1.000000 0.441321 0.000000
1.000000 0.439857 0.000000
1.000000 0.437293 0.000000
1.000000 0.433722 0.000000
0.154269 0.412329 0.000000
0.159487 0.412757 0.000000
0.166354 0.413092 0.000000
0.180453 0.414069 0.000000
0.200443 0.415564 0.000000
0.224369 0.417578 0.000000
0.251560 0.420050 0.000000
0.281010 0.422889 0.000000
0.312779 0.426825 0.000000
0.344244 0.427466 0.000000
0.371496 0.422950 0.000000
0.397406 0.418036 0.000000
0.421912 0.412879 0.000000
0.444587 0.407446 0.000000
0.467903 0.403510 0.000000
0.519432 0.421027 0.000000
0.568994 0.433295 0.000000
0.613489 0.440650 0.000000
0.655360 0.445624 0.000000
0.695491 0.449256 0.000000
0.733150 0.451392 0.000000
0.768948 0.452399 0.000000
0.803067 0.452766 0.000000
0.835813 0.451575 0.000000
0.870665 0.452674 0.000000
0.907744 0.457374 0.000000
0.941619 0.460334 0.000000
0.972320 0.461891 0.000000
0.999969 0.461799 0.000000
1.000000 0.460548 0.000000
1.000000 0.457954 0.000000
1.000000 0.454200 0.000000
0.166110 0.458686 0.000000
0.171542 0.458991 0.000000
0.177981 0.459266 0.000000
0.192447 0.460121 0.000000
0.212497 0.461311 0.000000
0.237125 0.463020 0.000000
0.264561 0.465095 0.000000
0.294438 0.467628 0.000000
0.326329 0.470436 0.000000
0.361028 0.474922 0.000000
0.391211 0.471595 0.000000
0.419593 0.467079 0.000000
0.446601 0.462135 0.000000
0.472297 0.456916 0.000000
0.496040 0.451453 0.000000
0.519432 0.446632 0.000000
0.567620 0.460883 0.000000
0.614618 0.470863 0.000000
0.657496 0.476753 0.000000
0.698054 0.480781 0.000000
0.735988 0.482948 0.000000
0.771817 0.483925 0.000000
0.805875 0.483986 0.000000
0.838468 0.482918 0.000000
0.869688 0.480385 0.000000
0.899687 0.476997 0.000000
0.934356 0.479896 0.000000
0.966461 0.482033 0.000000
0.995331 0.482490 0.000000
1.000000 0.481392 0.000000
1.000000 0.478950 0.000000
1.000000 0.475288 0.000000
0.177798 0.503288 0.000000
0.183017 0.503502 0.000000
0.189822 0.503807 0.000000
0.203922 0.504540 0.000000
0.224063 0.505425 0.000000
0.248569 0.506889 0.000000
0.276280 0.508537 0.000000
0.306371 0.510552 0.000000
0.338323 0.512932 0.000000
0.372168 0.515801 0.000000
0.407111 0.517967 0.000000
0.437171 0.513664 0.000000
0.466316 0.509056 0.000000
0.494179 0.504082 0.000000
0.520500 0.498817 0.000000
0.545098 0.493446 0.000000
0.568322 0.487678 0.000000
0.613519 0.499336 0.000000
0.659144 0.507958 0.000000
0.700282 0.512596 0.000000
0.738582 0.515007 0.000000
0.774502 0.515831 0.000000
0.808499 0.515709 0.000000
0.840940 0.514641 0.000000
0.872038 0.511833 0.000000
0.901732 0.508263 0.000000
0.930297 0.503929 0.000000
0.960021 0.502129 0.000000
0.990234 0.503136 0.000000
1.000000 0.502495 0.000000
1.000000 0.500206 0.000000
1.000000 0.496712 0.000000
0.189151 0.545800 0.000000
0.194247 0.545983 0.000000
0.200961 0.546258 0.000000
0.214878 0.546746 0.000000
0.234989 0.547601 0.000000
0.259159 0.548730 0.000000
0.286656 0.550103 0.000000
0.316747 0.551720 0.000000
0.348882 0.553765 0.000000
0.382300 0.555962 0.000000
0.418097 0.559503 0.000000
0.451514 0.558282 0.000000
0.482277 0.554009 0.000000
0.512108 0.549493 0.000000
0.540612 0.544762 0.000000
0.567712 0.539788 0.000000
0.593317 0.534722 0.000000
0.616297 0.528313 0.000000
0.658839 0.537682 0.000000
0.702083 0.544335 0.000000
0.740749 0.547112 0.000000
0.776883 0.548089 0.000000
0.811002 0.547753 0.000000
0.843320 0.546624 0.000000
0.874174 0.543664 0.000000
0.903655 0.539910 0.000000
0.931884 0.535241 0.000000
0.958953 0.529961 0.000000
0.984771 0.523919 0.000000
1.000000 0.523583 0.000000
1.000000 0.521752 0.000000
1.000000 0.518425 0.000000
0.200565 0.587610 0.000000
0.205722 0.587732 0.000000
0.212406 0.587945 0.000000
0.225559 0.588464 0.000000
0.245274 0.589136 0.000000
0.269291 0.590143 0.000000
0.296757 0.591333 0.000000
0.326757 0.592798 0.000000
0.358770 0.594568 0.000000
0.392065 0.596490 0.000000
0.426947 0.598749 0.000000
0.464179 0.602380 0.000000
0.496437 0.598505 0.000000
0.527672 0.594446 0.000000
0.558038 0.590082 0.000000
0.587243 0.585565 0.000000
0.615015 0.580896 0.000000
0.641260 0.576135 0.000000
0.663844 0.568872 0.000000
0.702632 0.575219 0.000000
0.742519 0.579248 0.000000
0.779019 0.580499 0.000000
0.813199 0.580194 0.000000
0.845457 0.578729 0.000000
0.876127 0.575769 0.000000
0.905425 0.571679 0.000000
0.933349 0.566857 0.000000
0.960052 0.561242 0.000000
0.985504 0.554894 0.000000
1.000000 0.547692 0.000000
1.000000 0.543420 0.000000
1.000000 0.540459 0.000000
0.212131 0.629450 0.000000
0.216861 0.629572 0.000000
0.223484 0.629725 0.000000
0.236576 0.630121 0.000000
0.255863 0.630762 0.000000
0.279637 0.631586 0.000000
0.306798 0.632532 0.000000
0.336553 0.633753 0.000000
0.368322 0.635157 0.000000
0.401617 0.636774 0.000000
0.436011 0.638575 0.000000
0.472480 0.641291 0.000000
0.508202 0.641657 0.000000
0.540673 0.637964 0.000000
0.572473 0.633997 0.000000
0.603174 0.629816 0.000000
0.632807 0.625513 0.000000
0.661128 0.621057 0.000000
0.687861 0.616541 0.000000
0.709071 0.607935 0.000000
0.743862 0.611200 0.000000
0.780575 0.612848 0.000000
0.814969 0.612696 0.000000
0.847227 0.611048 0.000000
0.877836 0.608087 0.000000
0.906889 0.603876 0.000000
0.934539 0.598718 0.000000
0.960937 0.592889 0.000000
0.986023 0.586206 0.000000
1.000000 0.578759 0.000000
1.000000 0.570520 0.000000
1.000000 0.562646 0.000000
0.223301 0.670069 0.000000
0.227878 0.670161 0.000000
0.234134 0.670283 0.000000
0.247105 0.670619 0.000000
0.265904 0.671015 0.000000
0.289250 0.671656 0.000000
0.315862 0.672419 0.000000
0.345159 0.673365 0.000000
0.376806 0.674434 0.000000
0.409735 0.675624 0.000000
0.443977 0.676997 0.000000
0.479103 0.678492 0.000000
0.516686 0.681544 0.000000
0.550713 0.679133 0.000000
0.583459 0.675532 0.000000
0.615442 0.671717 0.000000
0.646387 0.667720 0.000000
0.676204 0.663630 0.000000
0.704768 0.659419 0.000000
0.731838 0.655085 0.000000
0.751431 0.645106 0.000000
0.782650 0.645777 0.000000
0.816190 0.644984 0.000000
0.848631 0.643427 0.000000
0.879149 0.640467 0.000000
0.908049 0.636225 0.000000
0.935454 0.630915 0.000000
0.961517 0.624781 0.000000
0.986267 0.617853 0.000000
1.000000 0.610163 0.000000
1.000000 0.601709 0.000000
1.000000 0.592462 0.000000
0.233921 0.708888 0.000000
0.238437 0.708980 0.000000
0.244327 0.709041 0.000000
0.256809 0.709285 0.000000
0.275303 0.709621 0.000000
0.297978 0.710109 0.000000
0.324285 0.710658 0.000000
0.353155 0.711330 0.000000
0.384253 0.712123 0.000000
0.416876 0.713039 0.000000
0.450660 0.714107 0.000000
0.485573 0.715175 0.000000
0.521691 0.716976 0.000000
0.558404 0.718257 0.000000
0.591882 0.714870 0.000000
0.624720 0.711391 0.000000
0.656641 0.707668 0.000000
0.687678 0.703853 0.000000
0.717556 0.699947 0.000000
0.746151 0.695857 0.000000
0.773342 0.691829 0.000000
0.791226 0.680415 0.000000
0.818967 0.678737 0.000000
0.849454 0.675685 0.000000
0.880034 0.672816 0.000000
0.908812 0.668605 0.000000
0.935973 0.663264 0.000000
0.961730 0.656977 0.000000
0.986145 0.649805 0.000000
1.000000 0.641962 0.000000
1.000000 0.633356 0.000000
1.000000 0.624079 0.000000
0.244022 0.745998 0.000000
0.248295 0.746029 0.000000
0.254063 0.746120 0.000000
0.266331 0.746273 0.000000
0.284031 0.746517 0.000000
0.306126 0.746853 0.000000
0.331884 0.747311 0.000000
0.360204 0.747738 0.000000
0.390845 0.748348 0.000000
0.423041 0.748959 0.000000
0.456458 0.749691 0.000000
0.490791 0.750484 0.000000
0.525841 0.751339 0.000000
0.562829 0.753323 0.000000
0.598047 0.752224 0.000000
0.631464 0.748928 0.000000
0.664118 0.745541 0.000000
0.695979 0.741909 0.000000
0.726864 0.738216 0.000000
0.756710 0.734463 0.000000
0.785183 0.730648 0.000000
0.812222 0.726741 0.000000
0.828367 0.713924 0.000000
0.852750 0.710201 0.000000
0.880278 0.705013 0.000000
0.908965 0.700954 0.000000
0.936004 0.695613 0.000000
0.961486 0.689265 0.000000
0.985565 0.682033 0.000000
1.000000 0.674006 0.000000
1.000000 0.665400 0.000000
1.000000 0.656275 0.000000
0.253513 0.781460 0.000000
0.257542 0.781521 0.000000
0.263218 0.781521 0.000000
0.274907 0.781643 0.000000
0.292119 0.781827 0.000000
0.313725 0.782040 0.000000
0.338720 0.782315 0.000000
0.366522 0.782650 0.000000
0.396765 0.782986 0.000000
0.428321 0.783383 0.000000
0.461311 0.783871 0.000000
0.495125 0.784360 0.000000
0.529747 0.784878 0.000000
0.565270 0.785824 0.000000
0.602258 0.787503 0.000000
0.636042 0.784482 0.000000
0.669184 0.781277 0.000000
0.701656 0.777920 0.000000
0.733303 0.774472 0.000000
0.763973 0.770871 0.000000
0.793515 0.767208 0.000000
0.821805 0.763516 0.000000
0.848661 0.759854 0.000000
0.862791 0.745693 0.000000
0.883970 0.740383 0.076326
0.908507 0.732967 0.000000
0.935363 0.727840 0.000000
0.960662 0.721584 0.000000
0.984405 0.714382 0.000000
1.000000 0.706416 0.000000
1.000000 0.697902 0.000000
1.000000 0.689021 0.000000
0.262516 0.815274 0.000000
0.266331 0.815274 0.000000
0.271763 0.815305 0.000000
0.282902 0.815335 0.000000
0.299687 0.815427 0.000000
0.320592 0.815549 0.000000
0.345037 0.815702 0.000000
0.372137 0.815854 0.000000
0.401648 0.816037 0.000000
0.432868 0.816220 0.000000
0.465217 0.816495 0.000000
0.498634 0.816739 0.000000
0.532708 0.817014 0.000000
0.567285 0.817288 0.000000
0.603326 0.818418 0.000000
0.638819 0.818021 0.000000
0.672267 0.815000 0.000000
0.705165 0.811856 0.000000
0.737270 0.808591 0.000000
0.768551 0.805203 0.000000
0.798886 0.801663 0.000000
0.828122 0.798123 0.000000
0.856016 0.794675 0.000000
0.882444 0.791379 0.000000
0.894438 0.775998 0.000000
0.912352 0.769162 0.159457
0.934112 0.759731 0.123659
0.959045 0.753658 0.102785
0.982544 0.746731 0.087434
1.000000 0.738979 0.081697
1.000000 0.730739 0.090913
1.000000 0.722377 0.112947
0.270665 0.847379 0.000000
0.274418 0.847349 0.000000
0.279545 0.847349 0.000000
0.290471 0.847379 0.000000
0.306493 0.847410 0.000000
0.326787 0.847440 0.000000
0.350591 0.847471 0.000000
0.377111 0.847501 0.000000
0.406012 0.847532 0.000000
0.436378 0.847562 0.000000
0.468330 0.847593 0.000000
0.501183 0.847654 0.000000
0.534722 0.847684 0.000000
0.568872 0.847684 0.000000
0.603510 0.847929 0.000000
0.639551 0.848875 0.000000
0.673548 0.846738 0.000000
0.706661 0.843748 0.000000
0.739162 0.840635 0.000000
0.770871 0.837400 0.000000
0.801724 0.834073 0.000000
0.831388 0.830838 0.000000
0.860044 0.827604 0.000000
0.887510 0.824338 0.000000
0.912749 0.820554 0.000000
0.923003 0.804501 0.093751
0.937652 0.796475 0.228244
0.957214 0.785672 0.202487
0.979828 0.778622 0.193698
1.000000 0.771298 0.193088
1.000000 0.763546 0.199710
1.000000 0.755886 0.215183
0.278111 0.877775 0.000000
0.281773 0.877775 0.000000
0.286839 0.877745 0.000000
0.297154 0.877745 0.000000
0.312627 0.877684 0.000000
0.332280 0.877653 0.000000
0.355383 0.877562 0.000000
0.381292 0.877501 0.000000
0.409522 0.877379 0.000000
0.439399 0.877256 0.000000
0.470649 0.877104 0.000000
0.502953 0.876982 0.000000
0.535943 0.876768 0.000000
0.569451 0.876585 0.000000
0.603418 0.876341 0.000000
0.638270 0.876616 0.000000
0.673365 0.876524 0.000000
0.706508 0.873655 0.000000
0.739132 0.870695 0.000000
0.770779 0.867674 0.000000
0.801480 0.864683 0.000000
0.831662 0.861570 0.000000
0.861051 0.858396 0.000000
0.889403 0.855161 0.000000
0.916320 0.851926 0.000000
0.939910 0.847501 0.000000
0.948363 0.831113 0.188907
0.959808 0.822324 0.296239
0.977325 0.810575 0.275090
0.997559 0.802762 0.272099
1.000000 0.795682 0.279179
1.000000 0.788846 0.294133
0.284825 0.906401 0.000000
0.288304 0.906401 0.000000
0.292851 0.906401 0.000000
0.302983 0.906310 0.000000
0.318059 0.906218 0.000000
0.337102 0.906126 0.000000
0.359503 0.905974 0.000000
0.384710 0.905791 0.000000
0.412207 0.905577 0.000000
0.441474 0.905303 0.000000
0.472084 0.904997 0.000000
0.503807 0.904662 0.000000
0.536248 0.904295 0.000000
0.569207 0.903868 0.000000
0.602594 0.903410 0.000000
