其他预设/【233】日式怀旧街道调色预设208款/1.3D LUT预设（视频调色-PR-AE-PS-FCPX-达芬奇用）/3.日式城市街拍预设 (自动曝光预设)/JA – Chrome 4 (Auto-Exposure).cube
# Created by Adobe Lightroom plugin Export LUT (1.17.0)
# www.johnrellis.com/lightroom/exportlut.htm
# Preset: JA – Chrome 4 (Auto-Exposure)
# Color profile: /Library/Application Support/Adobe/Color/Profiles/Recommended/AdobeRGB1998.icc
LUT_3D_SIZE 32
0.102937 0.100343 0.105287
0.106203 0.100526 0.105623
0.110872 0.100984 0.106142
0.120760 0.101869 0.107149
0.133059 0.103029 0.108888
0.147494 0.104585 0.110445
0.164584 0.105715 0.112032
0.185519 0.106966 0.113344
0.211551 0.107851 0.114443
0.244175 0.108095 0.115175
0.285435 0.107088 0.115389
0.335393 0.105440 0.114717
0.391424 0.102480 0.113222
0.449744 0.099550 0.111482
0.505547 0.094636 0.110292
0.557214 0.092683 0.109071
0.604944 0.090730 0.108919
0.648981 0.089326 0.110567
0.689723 0.092012 0.113008
0.727504 0.095827 0.117769
0.762448 0.103182 0.124514
0.794644 0.113008 0.133944
0.824430 0.126070 0.144900
0.851682 0.141573 0.159487
0.876616 0.159548 0.176272
0.899351 0.181491 0.195865
0.919890 0.205692 0.218967
0.938384 0.233646 0.244785
0.954925 0.263828 0.273320
0.969726 0.296757 0.303929
0.982879 0.331609 0.336400
0.994537 0.368353 0.370489
0.103334 0.104097 0.106111
0.106752 0.103761 0.106050
0.110872 0.104280 0.106569
0.120333 0.105959 0.107973
0.132937 0.107027 0.109468
0.147189 0.108309 0.111238
0.164492 0.109560 0.112367
0.185763 0.110689 0.113680
0.211856 0.111513 0.114961
0.244572 0.112367 0.115633
0.285893 0.112490 0.115755
0.336126 0.111666 0.114992
0.392279 0.109895 0.113588
0.450385 0.107240 0.111879
0.506218 0.105440 0.110475
0.557794 0.103243 0.109529
0.605402 0.102388 0.109316
0.649378 0.101747 0.110933
0.690089 0.104311 0.113527
0.727840 0.108095 0.118441
0.762661 0.114199 0.125368
0.794888 0.123568 0.134157
0.824552 0.134493 0.146304
0.851774 0.149294 0.160555
0.876707 0.167117 0.177157
0.899382 0.187594 0.197238
0.919921 0.211215 0.220157
0.938354 0.238621 0.246036
0.954833 0.268406 0.274784
0.969604 0.300694 0.305486
0.982757 0.334997 0.337682
0.994415 0.371283 0.371771
0.104158 0.109071 0.106600
0.107698 0.109194 0.106722
0.112184 0.109163 0.106813
0.120882 0.109926 0.108736
0.132357 0.111818 0.110842
0.147066 0.113191 0.112123
0.164706 0.114321 0.113466
0.185794 0.115633 0.114717
0.212131 0.116793 0.115541
0.244999 0.118166 0.116152
0.286534 0.119020 0.116213
0.337011 0.119753 0.115267
0.393317 0.119203 0.113954
0.451362 0.118471 0.112306
0.507103 0.118166 0.110567
0.558526 0.116518 0.109834
0.606256 0.116426 0.109957
0.649989 0.117006 0.111513
0.690669 0.118257 0.114565
0.728267 0.121950 0.119234
0.763027 0.128450 0.126009
0.795163 0.136233 0.135500
0.824826 0.146365 0.147463
0.851957 0.159518 0.161807
0.876799 0.176303 0.179232
0.899443 0.195590 0.198734
0.919860 0.218540 0.222019
0.938293 0.244999 0.248173
0.954772 0.273869 0.276493
0.969482 0.305791 0.307500
0.982574 0.339513 0.339757
0.994202 0.375433 0.373907
0.105867 0.119722 0.108492
0.109438 0.119631 0.108431
0.113832 0.119600 0.108522
0.123232 0.119326 0.108919
0.133639 0.119295 0.111208
0.146883 0.121859 0.114321
0.164492 0.123720 0.115358
0.186099 0.125582 0.116304
0.212955 0.127474 0.117006
0.246342 0.130037 0.117250
0.288304 0.132418 0.117281
0.339300 0.135225 0.116274
0.395300 0.138155 0.114839
0.453437 0.140139 0.112886
0.508904 0.140902 0.111482
0.560235 0.141970 0.110689
0.607752 0.142275 0.111208
0.651423 0.143862 0.112581
0.691798 0.145571 0.115999
0.729213 0.148745 0.120974
0.763821 0.153292 0.128267
0.795834 0.160739 0.137819
0.825284 0.168368 0.150454
0.852232 0.180423 0.165225
0.877012 0.194583 0.182315
0.899535 0.212589 0.202792
0.919860 0.233677 0.226230
0.938201 0.258427 0.252354
0.954528 0.286076 0.281224
0.969146 0.316655 0.311833
0.982208 0.349187 0.343938
0.993774 0.383978 0.377752
0.107851 0.132540 0.111116
0.111360 0.132479 0.111055
0.115724 0.132448 0.110933
0.124269 0.132296 0.111116
0.136538 0.131991 0.111635
0.148959 0.131380 0.113375
0.165499 0.134707 0.116732
0.186831 0.139071 0.119020
0.213993 0.142519 0.119509
0.248142 0.146853 0.119631
0.290806 0.151797 0.119295
0.342351 0.157351 0.118074
0.398993 0.163119 0.116121
0.456886 0.167697 0.114382
0.511833 0.170748 0.112886
0.562829 0.173922 0.112001
0.610010 0.175448 0.112795
0.653468 0.177371 0.114687
0.693568 0.178927 0.118410
0.730617 0.181491 0.124269
0.765011 0.185306 0.132052
0.796841 0.190951 0.142000
0.826047 0.198154 0.154879
0.852842 0.207736 0.170169
0.877348 0.220432 0.187961
0.899687 0.236057 0.208927
0.919799 0.255589 0.232822
0.937926 0.278141 0.259190
0.954192 0.304173 0.287846
0.968719 0.332830 0.318334
0.981628 0.363775 0.350378
0.993103 0.396918 0.383825
0.109926 0.147372 0.113527
0.113100 0.147341 0.113466
0.117372 0.147311 0.113344
0.125795 0.147372 0.113313
0.137942 0.147250 0.113344
0.152621 0.147341 0.114076
0.167514 0.146731 0.115633
0.188571 0.151492 0.118410
0.215610 0.158816 0.121553
0.250797 0.166903 0.122835
0.294499 0.174929 0.122133
0.346777 0.183780 0.120638
0.403357 0.192203 0.118715
0.461219 0.199222 0.116457
0.515892 0.204868 0.114656
0.566491 0.208713 0.114382
0.613001 0.211307 0.115816
0.656123 0.213748 0.118105
0.695888 0.215640 0.122255
0.732631 0.218204 0.128573
0.766598 0.221256 0.137453
0.798032 0.225132 0.148501
0.826963 0.231571 0.161410
0.853483 0.239719 0.177890
0.877745 0.250736 0.196414
0.899779 0.264897 0.217533
0.919707 0.282322 0.241764
0.937621 0.302800 0.268284
0.953643 0.326970 0.297185
0.967987 0.353582 0.327611
0.980804 0.382696 0.359289
0.992187 0.413886 0.392065
0.111238 0.165103 0.115328
0.114595 0.165042 0.115236
0.118746 0.165164 0.115328
0.127535 0.165133 0.115267
0.139925 0.165286 0.114870
0.155245 0.165682 0.115297
0.172610 0.166415 0.115755
0.190005 0.165652 0.117098
0.216800 0.173342 0.120333
0.252354 0.184573 0.122988
0.298711 0.200046 0.125765
0.352148 0.213321 0.124422
0.409491 0.224735 0.122042
0.466804 0.234379 0.119722
0.520836 0.241398 0.118318
0.570703 0.246006 0.118593
0.616815 0.249577 0.119875
0.659510 0.252079 0.122988
0.698878 0.254215 0.127932
0.735012 0.256046 0.135256
0.768460 0.258946 0.144930
0.799619 0.262791 0.156283
0.828092 0.267704 0.170718
0.854246 0.274998 0.187472
0.878172 0.284733 0.206912
0.899901 0.297124 0.228794
0.919524 0.312810 0.253513
0.937133 0.331640 0.280552
0.952941 0.353521 0.309117
0.967102 0.378180 0.339086
0.979736 0.405066 0.370367
0.991028 0.433875 0.402197
0.112337 0.186130 0.117128
0.115663 0.186069 0.117067
0.120027 0.186282 0.116915
0.129091 0.186496 0.116823
0.142245 0.186770 0.116579
0.158175 0.187228 0.116548
0.176761 0.188388 0.117067
0.197330 0.189944 0.117494
0.217624 0.189731 0.118868
0.252476 0.201358 0.121370
0.298100 0.218082 0.123445
0.354253 0.238773 0.125185
0.416083 0.260136 0.127230
0.473182 0.271794 0.124575
0.526452 0.280095 0.124025
0.575708 0.285710 0.124117
0.621393 0.289616 0.126589
0.663386 0.292363 0.130312
0.702113 0.294408 0.136141
0.737728 0.296208 0.144381
0.770779 0.298375 0.154482
0.801266 0.301640 0.167422
0.829374 0.305974 0.182467
0.855100 0.312261 0.200351
0.878538 0.321019 0.220951
0.899870 0.332280 0.243595
0.919188 0.346410 0.268345
0.936492 0.363348 0.295018
0.951995 0.383307 0.323583
0.965911 0.405768 0.353094
0.978424 0.430488 0.383307
0.989624 0.456794 0.414282
0.112795 0.211612 0.118624
0.116304 0.211765 0.118502
0.121096 0.212009 0.118349
0.131136 0.212284 0.118196
0.145174 0.212741 0.117891
0.162081 0.213413 0.117556
0.181918 0.214786 0.117525
0.204166 0.216922 0.117922
0.228489 0.219760 0.118288
0.252323 0.220371 0.119509
0.296513 0.236973 0.120882
0.351537 0.259007 0.121981
0.413123 0.282780 0.123812
0.476204 0.305303 0.127657
0.532921 0.320897 0.131899
0.581415 0.327306 0.132998
0.626246 0.331456 0.135988
0.667933 0.334386 0.140566
0.705776 0.336309 0.147494
0.740780 0.337530 0.156619
0.773159 0.339696 0.167971
0.803128 0.342016 0.181704
0.830655 0.346014 0.197971
0.855894 0.351751 0.216770
0.878874 0.359472 0.237858
0.899779 0.369482 0.260960
0.918669 0.382238 0.285954
0.935668 0.397375 0.312139
0.950835 0.415473 0.340307
0.964538 0.435798 0.369085
0.976837 0.458076 0.398413
0.987915 0.482155 0.428290
0.112032 0.242954 0.119387
0.116091 0.243046 0.119265
0.121614 0.243198 0.119112
0.132631 0.243656 0.118898
0.148104 0.244327 0.118471
0.166812 0.245396 0.117952
0.188144 0.246342 0.117250
0.212100 0.249302 0.117281
0.238743 0.253117 0.117189
0.267857 0.257450 0.117189
0.295354 0.258732 0.118288
0.347326 0.279088 0.118074
0.407996 0.304265 0.118929
0.470283 0.328069 0.121798
0.529900 0.348791 0.129152
0.585290 0.366949 0.141512
0.631891 0.375036 0.148867
0.672755 0.377661 0.154757
0.709804 0.379187 0.162753
0.743984 0.380377 0.172732
0.775723 0.381964 0.185367
0.804990 0.384192 0.200504
0.831937 0.387427 0.217136
0.856565 0.392493 0.236545
0.879026 0.399329 0.258030
0.899413 0.408423 0.281590
0.917906 0.419684 0.306188
0.934508 0.433356 0.332250
0.949432 0.449439 0.359228
0.962921 0.467475 0.386847
0.975067 0.487343 0.414984
0.985962 0.509087 0.443824
0.109194 0.280522 0.118654
0.113863 0.280583 0.118532
0.120027 0.281132 0.118441
0.133150 0.281529 0.117983
0.150881 0.282292 0.117403
0.172030 0.283421 0.116762
0.195438 0.285039 0.115908
0.221012 0.287083 0.115084
0.250004 0.291630 0.114626
0.281468 0.297063 0.113893
0.315068 0.303014 0.113313
0.345068 0.303716 0.114473
0.401129 0.324834 0.113161
0.463050 0.350347 0.114748
0.522606 0.372168 0.121004
0.578241 0.390753 0.133516
0.629999 0.407111 0.150759
0.677699 0.422431 0.173983
0.713893 0.423682 0.182834
0.747219 0.424414 0.193729
0.778195 0.425666 0.207004
0.806790 0.427344 0.222934
0.833036 0.430365 0.240757
0.857053 0.434760 0.260716
0.878965 0.440620 0.282017
0.898894 0.448371 0.304814
0.916869 0.458412 0.329107
0.933135 0.470405 0.354253
0.947814 0.484382 0.379980
0.961028 0.500114 0.406256
0.972992 0.517754 0.433112
0.983734 0.537499 0.461006
0.103212 0.324041 0.116182
0.109529 0.324163 0.115999
0.116793 0.324468 0.115938
0.132143 0.324956 0.115541
0.152651 0.325933 0.114565
0.176303 0.327153 0.113893
0.202365 0.328557 0.112856
0.230137 0.330419 0.111330
0.260410 0.333806 0.110170
0.293828 0.339483 0.108797
0.329168 0.345830 0.107637
0.366918 0.352758 0.106172
0.400549 0.354528 0.106905
0.453925 0.371160 0.106447
0.513542 0.394446 0.111574
0.569604 0.413733 0.123354
0.621881 0.430549 0.140688
0.670192 0.445624 0.164218
0.713313 0.459419 0.192813
0.750423 0.469764 0.220371
0.780514 0.470283 0.234073
0.808316 0.471626 0.250523
0.833860 0.473915 0.267948
0.857298 0.477272 0.287816
0.878660 0.482338 0.308751
0.898100 0.489143 0.330785
0.915618 0.497627 0.354131
0.931518 0.507836 0.377874
0.945922 0.519860 0.402197
0.958953 0.533501 0.427161
0.970672 0.549126 0.452918
0.981292 0.566552 0.479286
0.093660 0.370550 0.112093
0.100984 0.370642 0.111910
0.111452 0.370794 0.111391
0.128542 0.371435 0.111116
0.152529 0.372290 0.110201
0.179110 0.373236 0.109133
0.207736 0.374731 0.107973
0.237827 0.376104 0.106050
0.269078 0.377996 0.104128
0.303777 0.383215 0.102022
0.340215 0.389441 0.100710
0.378759 0.396155 0.098787
0.419104 0.403265 0.096956
0.456703 0.406683 0.097475
0.502708 0.414954 0.100313
0.559197 0.435767 0.110872
0.612055 0.453162 0.128634
0.661158 0.468299 0.151614
0.705501 0.481849 0.181155
0.745327 0.495186 0.215885
0.780667 0.509361 0.255009
0.809659 0.516075 0.281346
0.834501 0.517754 0.298894
0.857267 0.520378 0.317662
0.878080 0.524315 0.337682
0.896971 0.529747 0.358862
0.914122 0.536919 0.380865
0.929656 0.545403 0.403143
0.943786 0.555322 0.425818
0.956573 0.567102 0.449348
0.968139 0.580652 0.473579
0.978607 0.596002 0.498604
0.081270 0.417243 0.106386
0.090974 0.417487 0.106325
0.102998 0.417578 0.106020
0.123629 0.418036 0.105684
0.151003 0.418708 0.104402
0.180362 0.419593 0.103151
0.211093 0.420569 0.101900
0.243320 0.421912 0.099794
0.276219 0.423285 0.097383
0.310369 0.425788 0.094545
0.347753 0.431342 0.092866
0.386389 0.437537 0.090974
0.426459 0.444007 0.089326
0.467933 0.450813 0.087434
0.507897 0.455207 0.087800
0.546807 0.455818 0.095369
0.600488 0.474434 0.113100
0.650507 0.490211 0.137514
0.696407 0.503929 0.166873
0.737453 0.516686 0.202823
0.774105 0.529686 0.242802
0.806394 0.543725 0.285710
0.834501 0.559533 0.329595
0.856962 0.562982 0.349920
0.877195 0.565911 0.368750
0.895659 0.569970 0.388190
0.912444 0.575341 0.408270
0.927642 0.582147 0.428870
0.941497 0.590478 0.450324
0.954040 0.600458 0.472389
0.965362 0.612177 0.495430
0.975677 0.625666 0.519280
0.064515 0.461860 0.100496
0.077516 0.462074 0.100649
0.092836 0.462104 0.099825
0.117922 0.462440 0.099428
0.147646 0.462928 0.098543
0.179965 0.463539 0.097169
0.212528 0.464363 0.095491
0.246220 0.465248 0.093507
0.280064 0.466255 0.090852
0.314977 0.467414 0.087709
0.351385 0.470649 0.084962
0.390112 0.476204 0.083131
0.429786 0.482002 0.081910
0.470710 0.488106 0.080873
0.512749 0.494453 0.080293
0.554528 0.499977 0.081147
0.588434 0.495857 0.096345
0.638087 0.510552 0.119539
0.685603 0.525200 0.149874
0.728450 0.537865 0.187106
0.766567 0.550103 0.228305
0.800107 0.562737 0.271733
0.829374 0.576654 0.316869
0.854704 0.592187 0.361913
0.876188 0.606104 0.400244
0.894194 0.608850 0.418036
0.910552 0.612818 0.436500
0.925475 0.618189 0.455634
0.938964 0.624994 0.475685
0.951263 0.633326 0.496407
0.962432 0.643305 0.518059
0.972503 0.655177 0.540887
0.026947 0.503258 0.095857
0.062470 0.503258 0.095308
0.081361 0.503349 0.095155
0.110384 0.503441 0.094575
0.143587 0.503838 0.093629
0.177554 0.504234 0.092470
0.212222 0.504845 0.090364
0.246738 0.505394 0.088319
0.281987 0.506096 0.085237
0.317174 0.506981 0.082155
0.352758 0.507774 0.078279
0.390906 0.512078 0.076631
0.430213 0.517266 0.075837
0.470649 0.523003 0.075380
0.511742 0.528710 0.076753
0.553796 0.534600 0.078309
0.596368 0.540612 0.081666
0.626551 0.533593 0.101686
0.673304 0.545098 0.130282
0.717952 0.558404 0.168215
0.757748 0.570245 0.210208
0.792874 0.581994 0.256168
0.823514 0.594446 0.302647
0.849912 0.608118 0.349187
0.872679 0.623011 0.393683
0.892180 0.638880 0.435767
0.908568 0.649012 0.465248
0.923095 0.653040 0.483040
0.936309 0.658503 0.501701
0.948363 0.665248 0.521080
0.959258 0.673823 0.541680
0.969177 0.684016 0.563134
0.000000 0.541192 0.092531
0.038758 0.541283 0.091890
0.069429 0.541375 0.092317
0.104524 0.541497 0.091066
0.139864 0.541741 0.090150
0.175326 0.542046 0.089235
0.210605 0.542412 0.087434
0.246159 0.542809 0.085054
0.281743 0.543267 0.082765
0.317449 0.543816 0.079103
0.353277 0.544366 0.075532
0.389654 0.545495 0.071382
0.428565 0.550378 0.071626
0.468238 0.555413 0.072694
0.508751 0.560723 0.075105
0.549889 0.566186 0.078676
0.591577 0.571771 0.083284
0.633783 0.577508 0.090059
0.662776 0.569726 0.113588
0.705653 0.577813 0.145144
0.747555 0.590051 0.189731
0.784451 0.601160 0.236912
0.816648 0.612421 0.285740
0.844511 0.624567 0.333898
0.868345 0.637842 0.380957
0.888823 0.651972 0.424781
0.906096 0.667292 0.466499
0.920653 0.683619 0.506249
0.933532 0.690639 0.528130
0.945251 0.696193 0.546471
0.955932 0.703304 0.565667
0.965759 0.711696 0.585473
0.000000 0.576654 0.092195
0.013123 0.576562 0.091951
0.059693 0.576715 0.091768
0.098573 0.576776 0.091157
0.136202 0.576959 0.089937
0.172671 0.577111 0.088838
0.208560 0.577478 0.087312
0.244968 0.577600 0.084749
0.280644 0.578027 0.082795
0.316655 0.578363 0.080262
0.352483 0.578851 0.075746
0.388525 0.579278 0.071565
0.425727 0.581659 0.070436
0.465034 0.586511 0.072999
0.504875 0.591485 0.076631
0.545342 0.596704 0.081575
0.586481 0.602136 0.088106
0.627741 0.607568 0.096071
0.669215 0.612909 0.105776
0.696590 0.604242 0.131502
0.735775 0.608881 0.165530
0.774746 0.620111 0.215396
0.808804 0.630579 0.265812
0.838224 0.641474 0.316686
0.863432 0.653132 0.365789
0.884947 0.665736 0.411841
0.903197 0.679408 0.455238
0.918517 0.694087 0.496559
0.931334 0.709895 0.535912
0.942107 0.725673 0.572137
0.952697 0.731136 0.589319
0.962371 0.737942 0.607446
0.000000 0.610620 0.093965
0.000000 0.610620 0.093935
0.051789 0.610712 0.094057
0.095796 0.610834 0.093141
0.133669 0.610956 0.092836
0.170657 0.611017 0.091829
0.207614 0.611322 0.089784
0.244053 0.611414 0.088167
0.279789 0.611841 0.086336
0.315801 0.612146 0.083314
0.351659 0.612482 0.080140
0.387671 0.612848 0.076295
0.423438 0.613306 0.072847
0.461799 0.617090 0.074342
0.501091 0.621820 0.079652
0.540826 0.626581 0.086549
0.580957 0.631495 0.095247
0.621363 0.636347 0.104921
0.661677 0.641230 0.116243
0.702235 0.646021 0.128359
0.728084 0.636866 0.154391
0.763577 0.638300 0.189456
0.799741 0.648646 0.242863
0.831052 0.658534 0.296361
0.857847 0.668910 0.348211
0.880613 0.680079 0.396857
0.899931 0.692134 0.442390
0.916106 0.705348 0.485695
0.929656 0.719631 0.526543
0.940856 0.735042 0.565698
0.950347 0.750698 0.601801
0.959014 0.762692 0.629175
0.000000 0.644068 0.099641
0.000000 0.644068 0.099367
0.051301 0.644160 0.099458
0.095033 0.644190 0.098909
0.133364 0.644343 0.098329
0.170840 0.644465 0.097322
0.207431 0.644617 0.096071
0.243687 0.644770 0.094575
0.279484 0.645014 0.092500
0.315190 0.645197 0.090913
0.351080 0.645472 0.088380
0.386786 0.645747 0.085420
0.422492 0.646021 0.082002
0.458473 0.646845 0.080629
0.497169 0.651026 0.086793
0.536065 0.655360 0.095308
0.575402 0.659724 0.104311
0.614832 0.664118 0.115328
0.654231 0.668482 0.127840
0.693507 0.672847 0.141299
0.732570 0.677058 0.156222
0.757046 0.667720 0.182162
0.789303 0.666285 0.215579
0.822782 0.675776 0.271946
0.851377 0.685054 0.327153
0.875700 0.694942 0.379278
0.896208 0.705470 0.427344
0.913390 0.717159 0.472602
0.927703 0.730007 0.515770
0.939574 0.744045 0.556725
0.949554 0.758694 0.594629
0.957977 0.773556 0.629480
0.000000 0.676265 0.109194
0.013001 0.676234 0.109224
0.063661 0.676265 0.109102
0.098909 0.676326 0.108858
0.136324 0.676356 0.108186
0.172885 0.676448 0.107546
0.208865 0.676509 0.106508
0.244358 0.676631 0.105715
0.279698 0.676753 0.103975
0.315282 0.676844 0.102693
0.350561 0.677058 0.100862
0.385779 0.677211 0.099763
0.421241 0.677302 0.097353
0.456611 0.677424 0.094087
0.493019 0.679194 0.097108
0.531365 0.683070 0.106111
0.569879 0.686885 0.117189
0.608362 0.690822 0.128939
0.646845 0.694728 0.142153
0.685084 0.698604 0.156558
0.723079 0.702419 0.172000
0.760769 0.706203 0.188113
0.783963 0.696864 0.213474
0.813535 0.693660 0.245579
0.843992 0.701564 0.303014
0.869993 0.710323 0.358709
0.891966 0.719570 0.410224
0.910307 0.729732 0.458106
0.925597 0.741024 0.503258
0.938170 0.753689 0.546349
0.948669 0.767269 0.586603
0.957488 0.781277 0.623407
0.025269 0.706844 0.123293
0.060761 0.706874 0.122683
0.080598 0.706844 0.122805
0.109133 0.706905 0.123171
0.143435 0.706966 0.122774
0.177798 0.706966 0.122103
0.212192 0.706996 0.121462
0.246921 0.706996 0.121248
0.281651 0.707057 0.120058
0.316472 0.707088 0.118868
0.351141 0.707179 0.118257
0.385901 0.707210 0.117037
0.420661 0.707240 0.115846
0.455360 0.707240 0.114412
0.490059 0.707240 0.112947
0.527031 0.709834 0.120607
0.564691 0.713222 0.132174
0.602319 0.716701 0.144686
0.639857 0.720180 0.158633
0.677302 0.723598 0.173129
0.714321 0.726955 0.188876
0.750851 0.730251 0.205509
0.786893 0.733455 0.222538
0.809293 0.724666 0.246921
0.836301 0.720760 0.280491
0.863493 0.726192 0.334508
0.887144 0.734249 0.389715
0.906859 0.743008 0.440955
0.923186 0.752834 0.488930
0.936645 0.764004 0.534356
0.947723 0.776394 0.577081
0.957031 0.789425 0.616083
0.079591 0.736019 0.141634
0.090303 0.736080 0.141787
0.103731 0.736049 0.141238
0.127504 0.735988 0.141115
0.156130 0.736049 0.141146
0.187472 0.736019 0.140902
0.219089 0.736080 0.141054
0.252323 0.736019 0.140108
0.285740 0.735988 0.139834
0.319341 0.735958 0.139773
0.352911 0.735958 0.139712
0.386938 0.735927 0.138613
0.420905 0.735866 0.138277
0.455055 0.735805 0.137728
0.488991 0.735683 0.137057
0.523156 0.735866 0.137667
0.560143 0.738827 0.149752
0.596979 0.741848 0.162356
0.633631 0.744839 0.176577
0.670161 0.747829 0.191623
0.706233 0.750698 0.207126
0.741787 0.753567 0.224186
0.776761 0.756374 0.241459
0.810971 0.759091 0.259220
0.833524 0.751766 0.282170
0.857267 0.746365 0.316167
0.881621 0.749538 0.366064
0.902892 0.757046 0.421271
0.920500 0.765438 0.472358
0.934936 0.775143 0.520714
0.946746 0.786191 0.566125
0.956542 0.798245 0.607843
0.114992 0.763973 0.164034
0.122560 0.763973 0.163760
0.131380 0.763943 0.164279
0.149813 0.763912 0.163882
0.174075 0.763882 0.164218
0.201053 0.763882 0.163943
0.230686 0.763821 0.163821
0.261234 0.763821 0.163729
0.292638 0.763729 0.164004
0.324743 0.763668 0.163973
0.357427 0.763577 0.163851
0.389960 0.763485 0.163638
0.422950 0.763333 0.163699
0.456001 0.763180 0.163912
0.489082 0.763027 0.164126
0.522240 0.762844 0.164645
0.556634 0.763760 0.169711
0.592706 0.766293 0.182498
0.628504 0.768856 0.196658
0.664057 0.771389 0.211582
0.699184 0.773831 0.227390
0.733730 0.776272 0.243931
0.767758 0.778622 0.261112
0.800992 0.780880 0.279057
0.833310 0.783169 0.297032
0.855711 0.777035 0.318761
0.876646 0.770657 0.352361
0.898436 0.771908 0.398199
0.917449 0.778927 0.453559
0.933013 0.787076 0.504692
0.945708 0.796719 0.553216
0.956115 0.807645 0.598138
0.150942 0.790677 0.189853
0.155673 0.790677 0.190097
0.163058 0.790616 0.189975
0.177218 0.790616 0.189761
0.196597 0.790585 0.190402
0.220279 0.790524 0.190188
0.246281 0.790494 0.190249
0.274266 0.790402 0.190555
0.303502 0.790280 0.190585
0.333684 0.790188 0.191531
0.364385 0.790066 0.191592
0.395789 0.789883 0.191836
0.427283 0.789731 0.192599
0.459113 0.789517 0.192569
0.491035 0.789273 0.193729
0.523095 0.789029 0.194491
0.555291 0.788754 0.194919
0.589654 0.790249 0.204898
0.624567 0.792325 0.219028
0.659205 0.794400 0.234165
0.693385 0.796414 0.249546
0.727077 0.798367 0.265904
0.760128 0.800320 0.282780
0.792386 0.802182 0.300084
0.823758 0.804013 0.317906
0.854154 0.805814 0.335698
0.876188 0.800717 0.355810
0.894530 0.793637 0.388891
0.914031 0.793332 0.431189
0.930907 0.799985 0.486366
0.944579 0.808133 0.538537
0.955688 0.817777 0.586969
0.188205 0.816251 0.219516
0.192172 0.816251 0.219425
0.197421 0.816220 0.219303
0.208438 0.816190 0.219547
0.224643 0.816129 0.219791
0.244511 0.816098 0.219821
0.267185 0.816037 0.220188
0.292210 0.815885 0.220401
0.318914 0.815763 0.220920
0.346471 0.815640 0.221592
0.375189 0.815457 0.222080
0.404578 0.815274 0.222965
0.434516 0.815061 0.223545
0.464912 0.814817 0.224765
0.495491 0.814572 0.225711
0.526299 0.814237 0.226444
0.557244 0.813901 0.228183
0.588403 0.813657 0.230137
0.622400 0.815335 0.243931
0.656123 0.816953 0.258885
0.689296 0.818540 0.274205
0.722011 0.820096 0.290166
0.753964 0.821561 0.306767
0.785275 0.823026 0.323400
0.815640 0.824460 0.340459
0.845029 0.825803 0.357855
0.873442 0.827146 0.374914
0.895201 0.823362 0.393927
0.910948 0.815488 0.425788
0.928527 0.813993 0.465461
0.943359 0.820554 0.521447
0.955291 0.828824 0.573999
0.228183 0.840787 0.252232
0.231388 0.840757 0.252171
0.235569 0.840757 0.252140
0.244205 0.840726 0.252262
0.257298 0.840635 0.252598
0.274022 0.840604 0.252720
0.293370 0.840482 0.253208
0.315221 0.840360 0.253819
0.338903 0.840208 0.254368
0.364019 0.840024 0.255222
0.390356 0.839811 0.256168
0.417670 0.839628 0.256809
0.445655 0.839353 0.257969
0.474189 0.839109 0.259220
0.503136 0.838804 0.260716
0.532311 0.838468 0.261997
0.561913 0.838102 0.263920
0.591455 0.837705 0.265507
0.622339 0.837888 0.272129
0.654994 0.839048 0.286503
0.687221 0.840208 0.301152
0.718837 0.841306 0.316991
0.749722 0.842374 0.332494
0.779934 0.843412 0.348638
0.809201 0.844388 0.365087
0.837583 0.845335 0.381689
0.865019 0.846311 0.398444
0.891386 0.847227 0.415137
0.912688 0.844572 0.433051
0.926055 0.836240 0.464210
0.942046 0.834134 0.501701
0.954894 0.840879 0.558953
0.271244 0.864164 0.288304
0.273747 0.864134 0.288365
0.276890 0.864103 0.288426
0.284092 0.864073 0.288823
0.294713 0.864012 0.288945
0.308598 0.863920 0.289220
0.325017 0.863798 0.290135
0.343694 0.863676 0.290623
0.364416 0.863523 0.291325
0.386969 0.863340 0.291997
0.410742 0.863066 0.293126
0.435523 0.862852 0.294469
0.461250 0.862577 0.295476
0.487648 0.862272 0.297063
0.514702 0.861936 0.298680
