其他预设/【233】日式怀旧街道调色预设208款/1.3D LUT预设（视频调色-PR-AE-PS-FCPX-达芬奇用）/3.日式城市街拍预设 (自动曝光预设)/JA – Night Pop 2 (Auto-Exposure).cube
# Created by Adobe Lightroom plugin Export LUT (1.17.0)
# www.johnrellis.com/lightroom/exportlut.htm
# Preset: JA – Night Pop 2 (Auto-Exposure)
# Color profile: /Library/Application Support/Adobe/Color/Profiles/Recommended/AdobeRGB1998.icc
LUT_3D_SIZE 8
DOMAIN_MIN 0.000000 0.000000 0.000000
DOMAIN_MAX 0.903226 0.903226 0.903226
0.049531 0.057221 0.062287
0.114137 0.059327 0.061585
0.229557 0.068452 0.053895
0.478798 0.098909 0.000000
0.731624 0.120760 0.000000
0.898253 0.133211 0.000000
1.000000 0.145754 0.000000
1.000000 0.152926 0.000000
0.032410 0.102724 0.064363
0.100374 0.098939 0.069123
0.201389 0.120607 0.087984
0.438849 0.161532 0.032166
0.714504 0.193668 0.000000
0.889311 0.200381 0.000000
1.000000 0.204074 0.000000
1.000000 0.205081 0.000000
0.000000 0.197177 0.076204
0.095918 0.194034 0.068635
0.189853 0.180941 0.078431
0.297093 0.224491 0.172213
0.647211 0.319463 0.120027
0.854490 0.334630 0.059632
0.993896 0.332525 0.000000
1.000000 0.321477 0.000000
0.000000 0.365911 0.091005
0.000000 0.360723 0.012696
0.234379 0.347997 0.025910
0.336980 0.314611 0.074617
0.569482 0.408331 0.184817
0.779049 0.469551 0.268498
0.956725 0.486519 0.269810
1.000000 0.486152 0.304692
0.000000 0.636683 0.103700
0.000000 0.631739 0.000000
0.254185 0.617975 0.000000
0.459785 0.583581 0.000000
0.585748 0.531579 0.000000
0.757076 0.561761 0.240299
0.871702 0.664790 0.554833
0.993622 0.691157 0.581476
0.000000 0.816464 0.125582
0.000000 0.813657 0.000000
0.140230 0.802823 0.000000
0.457221 0.783932 0.000000
0.643061 0.741817 0.000000
0.773068 0.689387 0.000000
0.901549 0.704189 0.387976
0.962646 0.783688 0.670039
0.000000 0.951446 0.145754
0.000000 0.950134 0.000000
0.000000 0.943450 0.000000
0.396429 0.929290 0.000000
0.627161 0.907439 0.000000
0.801755 0.871153 0.000000
0.930449 0.823911 0.000000
0.984558 0.813840 0.547021
0.000000 1.000000 0.151858
0.000000 1.000000 0.100984
0.000000 1.000000 0.079988
0.327489 1.000000 0.092714
0.563012 0.988647 0.112642
0.748135 0.968688 0.151247
0.903075 0.944945 0.206455
1.000000 0.906249 0.312200
0.012421 0.056672 0.114168
0.098634 0.055390 0.111360
0.220035 0.000000 0.095766
0.466621 0.000000 0.073304
0.733272 0.000000 0.000000
0.900267 0.000000 0.000000
1.000000 0.075654 0.000000
1.000000 0.112367 0.000000
0.000000 0.102876 0.114961
0.092958 0.100740 0.108827
0.210025 0.108156 0.108309
0.446632 0.126741 0.089052
0.717433 0.145968 0.000000
0.891691 0.157626 0.000000
1.000000 0.169223 0.000000
1.000000 0.178103 0.000000
0.000000 0.198276 0.129305
0.075196 0.193912 0.116335
0.185916 0.181613 0.117617
0.316991 0.231296 0.182803
0.655238 0.308324 0.142763
0.858579 0.319371 0.103944
0.996185 0.317327 0.068086
1.000000 0.308080 0.063508
0.000000 0.369268 0.163272
0.000000 0.361395 0.128420
0.222721 0.349065 0.108492
0.334539 0.314916 0.119966
0.567468 0.407721 0.216434
0.785183 0.470069 0.288243
0.958984 0.485786 0.293553
1.000000 0.486427 0.326055
0.000000 0.638727 0.206424
0.000000 0.633936 0.141970
0.217563 0.618585 0.000000
0.451942 0.585657 0.000000
0.584527 0.531762 0.002991
0.754482 0.565057 0.288304
0.875242 0.668482 0.564843
0.994446 0.692317 0.588708
0.000000 0.818021 0.219791
0.000000 0.815274 0.161318
0.000000 0.804379 0.000000
0.441932 0.785061 0.000000
0.638666 0.743526 0.000000
0.772396 0.689570 0.000000
0.898894 0.708705 0.425574
0.960784 0.788876 0.684352
0.000000 0.952392 0.224338
0.000000 0.951110 0.178103
0.000000 0.944854 0.000000
0.380957 0.930419 0.000000
0.621424 0.908812 0.000000
0.799374 0.872068 0.000000
0.929229 0.824369 0.038025
0.982513 0.816861 0.567315
0.000000 1.000000 0.211460
0.000000 1.000000 0.182132
0.000000 1.000000 0.209689
0.334203 1.000000 0.213474
0.565301 0.988220 0.220340
0.748196 0.968566 0.237613
0.901671 0.944976 0.269810
1.000000 0.906920 0.351019
0.000000 0.054261 0.227695
0.000000 0.047395 0.221378
0.188174 0.031617 0.208408
0.426215 0.000000 0.250889
0.710536 0.000000 0.164767
0.892485 0.000000 0.133486
1.000000 0.000000 0.090547
1.000000 0.000000 0.000000
0.000000 0.121096 0.230747
0.000000 0.104829 0.221347
0.184146 0.095827 0.205814
0.417914 0.000000 0.229587
0.707790 0.000000 0.155886
0.891386 0.000000 0.135805
1.000000 0.000000 0.091707
1.000000 0.000000 0.000000
0.000000 0.204349 0.227237
0.000000 0.199100 0.220493
0.171572 0.185153 0.199374
0.392096 0.198825 0.199405
0.687739 0.215152 0.182528
0.876066 0.225772 0.165255
1.000000 0.235813 0.150637
1.000000 0.242771 0.142885
0.000000 0.380743 0.291356
0.000000 0.375677 0.276890
0.142367 0.350988 0.213138
0.327092 0.316320 0.201572
0.559991 0.420600 0.337072
0.806607 0.460945 0.337011
0.967773 0.475044 0.352453
1.000000 0.478920 0.377661
0.000000 0.650233 0.372808
0.000000 0.645808 0.349706
0.000000 0.625330 0.227756
0.412726 0.594751 0.176303
0.580346 0.532433 0.173861
0.743435 0.583856 0.428992
0.890654 0.673915 0.585473
0.997894 0.692378 0.607874
0.000000 0.825650 0.383459
0.000000 0.822568 0.360754
0.000000 0.810941 0.251774
0.385138 0.788632 0.204654
0.622553 0.749233 0.192813
0.768185 0.690791 0.186740
0.890654 0.723903 0.525719
0.954772 0.806180 0.728603
0.000000 0.956176 0.374304
0.000000 0.954894 0.354162
0.000000 0.948760 0.285985
0.364050 0.931579 0.306950
0.612696 0.911131 0.301213
0.792508 0.874662 0.286564
0.922942 0.826474 0.290135
0.976287 0.826627 0.626184
0.000000 1.000000 0.338231
0.000000 1.000000 0.321599
0.000000 1.000000 0.300938
0.389960 0.998993 0.423011
0.585870 0.985412 0.419715
0.753048 0.967376 0.416907
0.897398 0.944945 0.418158
1.000000 0.909148 0.453162
0.000000 0.037964 0.492226
0.000000 0.031586 0.484596
0.176577 0.000000 0.410956
0.355657 0.000000 0.382910
0.676417 0.000000 0.460212
0.873991 0.000000 0.386572
1.000000 0.000000 0.268009
1.000000 0.000000 0.255955
0.000000 0.193057 0.511986
0.000000 0.141878 0.488411
0.158663 0.067689 0.414893
0.350835 0.000000 0.378943
0.673060 0.000000 0.447883
0.872801 0.000000 0.367773
1.000000 0.000000 0.259220
1.000000 0.000000 0.260105
0.000000 0.325109 0.511376
0.000000 0.303075 0.498909
0.000000 0.208164 0.438575
0.335912 0.158724 0.366857
0.663325 0.000000 0.392370
0.869352 0.000000 0.289921
1.000000 0.000000 0.299809
1.000000 0.065217 0.284611
0.000000 0.461585 0.502861
0.000000 0.450172 0.490761
0.000000 0.407294 0.444038
0.302434 0.322423 0.344549
0.632502 0.360510 0.369696
0.842069 0.393622 0.394049
0.984710 0.420722 0.414466
1.000000 0.433692 0.423194
0.000000 0.661097 0.544335
0.000000 0.658289 0.534417
0.000000 0.644831 0.490852
0.312993 0.599115 0.405524
0.563317 0.536522 0.370703
0.726131 0.623621 0.582208
0.916075 0.668147 0.608118
1.000000 0.679530 0.626825
0.000000 0.836088 0.553948
0.000000 0.834104 0.542382
0.000000 0.825834 0.494942
0.336400 0.791958 0.467597
0.605188 0.756741 0.453407
0.752926 0.695460 0.415961
0.880674 0.747646 0.637446
0.954437 0.822873 0.770047
0.000000 0.962707 0.533288
0.000000 0.961913 0.522057
0.000000 0.957275 0.481056
0.362585 0.933867 0.518151
0.617975 0.910338 0.528344
0.785672 0.878477 0.504479
0.909972 0.831052 0.478126
0.967224 0.842283 0.704555
0.000000 1.000000 0.483467
0.000000 1.000000 0.471839
0.000000 1.000000 0.434485
0.370001 1.000000 0.538323
0.623407 0.980774 0.592309
0.764309 0.965576 0.582177
0.891691 0.945068 0.565301
0.992493 0.912749 0.567498
0.000000 0.005615 0.728939
0.000000 0.061799 0.729335
0.000000 0.000000 0.697444
0.371160 0.000000 0.630091
0.610559 0.000000 0.622095
0.845670 0.000000 0.619257
0.991730 0.000000 0.553307
1.000000 0.000000 0.515251
0.000000 0.209537 0.737789
0.000000 0.194461 0.733455
0.000000 0.000000 0.699336
0.362524 0.000000 0.633265
0.607691 0.000000 0.619959
0.843931 0.000000 0.613855
0.990509 0.000000 0.551232
1.000000 0.000000 0.519982
0.000000 0.383276 0.747951
0.000000 0.359380 0.743679
0.000000 0.249119 0.711788
0.317967 0.132113 0.644984
0.598047 0.000000 0.612787
0.835599 0.000000 0.599237
0.985138 0.000000 0.549676
1.000000 0.268772 0.534569
0.000000 0.536858 0.739345
0.000000 0.525444 0.734859
0.000000 0.481209 0.717586
0.252995 0.397803 0.665766
0.573266 0.327855 0.596887
0.817380 0.341497 0.581292
0.976440 0.345495 0.544335
1.000000 0.419135 0.545892
0.000000 0.689570 0.727382
0.000000 0.684810 0.722621
0.000000 0.666682 0.704128
0.193698 0.628809 0.662074
0.528557 0.545251 0.569543
0.786221 0.582879 0.599268
0.951843 0.610620 0.620294
1.000000 0.623896 0.629847
0.000000 0.846006 0.720272
0.000000 0.844877 0.715053
0.000000 0.839475 0.694057
0.186007 0.815427 0.663508
0.569421 0.761440 0.627985
0.730953 0.702327 0.590112
0.871977 0.781277 0.743404
0.970642 0.813321 0.775204
0.000000 0.968902 0.690974
0.000000 0.968444 0.684565
0.000000 0.965850 0.660914
0.174990 0.949065 0.654994
0.603418 0.915526 0.673823
0.777737 0.886229 0.658381
0.895018 0.836851 0.618952
0.956451 0.863920 0.788357
0.000000 1.000000 0.626825
0.000000 1.000000 0.621607
0.000000 1.000000 0.595666
0.000000 1.000000 0.594293
0.624048 0.981323 0.697475
0.778286 0.963226 0.713375
0.885924 0.945953 0.689448
0.980743 0.917144 0.671077
0.000000 0.000000 0.876036
0.000000 0.000000 0.875761
0.000000 0.000000 0.864561
0.287327 0.000000 0.831724
0.536278 0.000000 0.770443
0.794888 0.000000 0.777981
0.965087 0.000000 0.746334
1.000000 0.103548 0.687129
0.000000 0.174289 0.879515
0.000000 0.196841 0.880003
0.000000 0.042237 0.866239
0.265568 0.000000 0.833707
0.532189 0.000000 0.772610
0.793484 0.000000 0.777035
0.963226 0.000000 0.747280
1.000000 0.199527 0.690211
0.000000 0.377295 0.890806
0.000000 0.367132 0.888884
0.000000 0.273777 0.874113
0.144198 0.160311 0.841154
0.514366 0.000000 0.780911
0.787076 0.000000 0.773190
0.957610 0.243961 0.750271
1.000000 0.354376 0.699947
0.000000 0.536461 0.887572
0.000000 0.524681 0.886503
0.000000 0.482704 0.881987
0.139742 0.445289 0.853941
0.514458 0.376287 0.792630
0.770291 0.358160 0.763973
0.947784 0.449012 0.751369
1.000000 0.491676 0.710719
0.000000 0.688014 0.879545
0.000000 0.682521 0.878294
0.000000 0.663264 0.873075
0.090120 0.651148 0.858091
0.564599 0.632380 0.813962
0.745480 0.562402 0.750088
0.937652 0.584863 0.741848
1.000000 0.609277 0.717250
0.000000 0.838529 0.869169
0.000000 0.837156 0.867674
0.000000 0.831876 0.861601
0.000000 0.821408 0.846433
0.536736 0.795773 0.813809
0.705531 0.709407 0.724941
0.916350 0.749020 0.756466
0.991272 0.768795 0.772152
0.000000 0.974334 0.846616
0.000000 0.974365 0.843595
0.000000 0.973236 0.832212
0.000000 0.962554 0.815061
0.535973 0.934020 0.804990
0.762020 0.893431 0.785946
0.877501 0.843534 0.742245
0.945129 0.892790 0.868742
0.000000 1.000000 0.763333
0.000000 1.000000 0.761227
0.000000 1.000000 0.749203
0.000000 1.000000 0.723537
0.497169 0.994049 0.760647
0.797910 0.961456 0.820432
0.888701 0.946563 0.810880
0.966155 0.922667 0.776242
0.000000 0.000000 0.959747
0.000000 0.000000 0.959716
0.000000 0.000000 0.958007
0.000000 0.000000 0.948028
0.457679 0.000000 0.928008
0.690822 0.000000 0.894743
0.936553 0.000000 0.898192
1.000000 0.203128 0.826627
0.000000 0.000000 0.960113
0.000000 0.066835 0.960235
0.000000 0.050904 0.958801
0.000000 0.000000 0.948913
0.449012 0.000000 0.929046
0.686824 0.000000 0.894682
0.935363 0.000000 0.897673
1.000000 0.269688 0.828336
0.000000 0.294163 0.962127
0.000000 0.302312 0.962158
0.000000 0.268589 0.960693
0.000000 0.176303 0.951781
0.417304 0.033539 0.932647
0.673457 0.000000 0.894102
0.930022 0.000000 0.895293
1.000000 0.413184 0.834104
0.000000 0.454871 0.963500
0.000000 0.459571 0.963287
0.000000 0.439673 0.963165
0.000000 0.424842 0.954314
0.467567 0.445747 0.934020
0.679072 0.353429 0.897581
0.919677 0.404761 0.890715
0.998901 0.554864 0.842527
0.000000 0.609766 0.957702
0.000000 0.612757 0.957519
0.000000 0.603204 0.957458
0.000000 0.588281 0.955596
0.564538 0.668788 0.937224
0.709773 0.605585 0.904295
0.906767 0.586023 0.884886
0.990021 0.669520 0.848417
0.000000 0.758968 0.950164
0.000000 0.761135 0.949950
0.000000 0.759091 0.949615
0.000000 0.749691 0.947784
0.532067 0.787564 0.937652
0.776577 0.804593 0.916899
0.888609 0.734676 0.875578
0.978759 0.776852 0.856199
0.000000 0.904540 0.940764
0.000000 0.906432 0.940581
0.000000 0.910063 0.939879
0.000000 0.910185 0.937652
0.459663 0.912291 0.929320
0.759396 0.906950 0.915160
0.856229 0.849821 0.854307
0.962707 0.880064 0.879820
0.000000 1.000000 0.910460
0.000000 1.000000 0.908690
0.000000 1.000000 0.902098
0.000000 1.000000 0.886870
0.216129 1.000000 0.875425
0.745052 0.970855 0.886015
0.900633 0.946868 0.900786
0.950530 0.928496 0.870939
0.000000 0.000000 0.991821
0.000000 0.000000 0.991821
0.000000 0.000000 0.991821
0.000000 0.000000 0.989746
0.278050 0.000000 0.985443
0.568017 0.000000 0.977905
0.793118 0.000000 0.968902
1.000000 0.000000 0.959564
0.000000 0.000000 0.991882
0.000000 0.000000 0.991882
0.000000 0.000000 0.991882
0.000000 0.000000 0.989929
0.262547 0.000000 0.985626
0.563073 0.000000 0.978088
0.791073 0.000000 0.968780
0.999847 0.000000 0.958984
0.000000 0.130251 0.992004
0.000000 0.144137 0.991943
0.000000 0.183841 0.991760
0.000000 0.138033 0.990326
0.204501 0.016693 0.985962
0.548608 0.000000 0.978393
0.786496 0.000000 0.967529
0.994690 0.258671 0.956909
0.000000 0.311681 0.991089
0.000000 0.316320 0.991058
0.000000 0.332219 0.990845
0.000000 0.312078 0.990234
0.317876 0.415656 0.981964
0.585168 0.404456 0.974456
0.787564 0.342779 0.963317
0.986450 0.465919 0.953704
0.000000 0.475715 0.988617
0.000000 0.475715 0.988617
0.000000 0.474098 0.988708
0.000000 0.463203 0.989075
0.427008 0.605097 0.977173
0.671015 0.645594 0.967437
0.799191 0.571862 0.958312
0.975952 0.626581 0.949676
0.000000 0.630182 0.982818
0.000000 0.630457 0.982849
0.000000 0.630457 0.982849
0.000000 0.627558 0.983032
0.000000 0.633204 0.980743
0.770626 0.811154 0.961120
0.840726 0.773342 0.953033
0.963134 0.770169 0.944762
0.000000 0.775174 0.975555
0.000000 0.775784 0.975525
0.000000 0.777462 0.975433
0.000000 0.779873 0.975341
0.000000 0.774350 0.974609
0.710872 0.858946 0.961028
0.908751 0.912016 0.950591
0.950896 0.877440 0.939940
0.000000 0.916320 0.966674
0.000000 0.917418 0.966583
0.000000 0.921263 0.966308
0.000000 0.928588 0.965789
0.000000 0.935210 0.964813
0.624750 0.942596 0.956268
0.897581 0.946685 0.949645
0.938689 0.932219 0.932341
