其他预设/【233】日式怀旧街道调色预设208款/1.3D LUT预设（视频调色-PR-AE-PS-FCPX-达芬奇用）/3.日式城市街拍预设 (自动曝光预设)/JA – Controlled Contrast 3 (Auto-Exposure).cube
# Created by Adobe Lightroom plugin Export LUT (1.17.0)
# www.johnrellis.com/lightroom/exportlut.htm
# Preset: JA – Controlled Contrast 3 (Auto-Exposure)
# Color profile: /Library/Application Support/Adobe/Color/Profiles/Recommended/AdobeRGB1998.icc
LUT_3D_SIZE 8
DOMAIN_MIN 0.000000 0.000000 0.000000
DOMAIN_MAX 0.903226 0.903226 0.903226
0.064149 0.059663 0.054932
0.083711 0.055726 0.054139
0.276036 0.000000 0.029877
0.420081 0.000000 0.000000
0.573754 0.000000 0.000000
0.754788 0.000000 0.000000
0.873533 0.000000 0.118959
0.946044 0.000000 0.214206
0.064881 0.072541 0.052766
0.085115 0.078157 0.050416
0.278782 0.102022 0.000458
0.420264 0.000000 0.000000
0.574853 0.000000 0.000000
0.755337 0.000000 0.000000
0.873198 0.000000 0.118044
0.945769 0.000000 0.214023
0.085512 0.209964 0.000000
0.135042 0.209110 0.000000
0.266270 0.243076 0.000000
0.419104 0.235050 0.000000
0.578637 0.207858 0.000000
0.757137 0.163088 0.000000
0.871885 0.106661 0.113985
0.944884 0.130800 0.212375
0.132967 0.351385 0.000000
0.175814 0.349126 0.000000
0.269810 0.341741 0.000000
0.388495 0.359686 0.000000
0.558526 0.375341 0.000000
0.759823 0.385138 0.000000
0.869474 0.353491 0.102846
0.943389 0.333562 0.207370
0.204288 0.445869 0.104128
0.228794 0.444038 0.109529
0.295872 0.437568 0.127199
0.381476 0.442237 0.126101
0.511955 0.481117 0.000000
0.713619 0.530846 0.000000
0.863096 0.520989 0.072480
0.941436 0.485542 0.195560
0.284031 0.584405 0.177646
0.301884 0.582910 0.180453
0.355383 0.577569 0.189975
0.429297 0.568078 0.204501
0.528130 0.594537 0.177798
0.672206 0.640681 0.067170
0.824826 0.651392 0.000000
0.928435 0.620874 0.166354
0.347448 0.743954 0.214450
0.362676 0.742855 0.215763
0.411627 0.739010 0.220615
0.484627 0.732143 0.228519
0.570214 0.723812 0.236790
0.674678 0.747402 0.198154
0.797177 0.763851 0.124636
0.897978 0.735897 0.079225
0.401770 0.846036 0.266361
0.414008 0.845335 0.267796
0.454383 0.842924 0.272679
0.518059 0.838621 0.281773
0.597070 0.832425 0.295720
0.681239 0.831632 0.294774
0.775296 0.842344 0.251774
0.889433 0.853300 0.180240
0.060029 0.059693 0.083406
0.095308 0.050355 0.086427
0.291081 0.000000 0.130465
0.424659 0.000000 0.119417
0.578912 0.000000 0.118746
0.756466 0.000000 0.151797
0.871855 0.000000 0.204471
0.944732 0.000000 0.259312
0.058869 0.087373 0.080201
0.099306 0.092775 0.088289
0.297887 0.000000 0.086976
0.425971 0.000000 0.093721
0.579767 0.000000 0.115145
0.756893 0.000000 0.149599
0.871519 0.000000 0.203494
0.944549 0.000000 0.258396
0.000000 0.239780 0.080385
0.136477 0.246983 0.092805
0.284977 0.261906 0.073121
0.425452 0.230747 0.067842
0.583032 0.209232 0.100130
0.758419 0.179477 0.141268
0.870359 0.154635 0.199557
0.943847 0.160739 0.255039
0.143526 0.361608 0.114961
0.191745 0.359442 0.128023
0.281926 0.351141 0.142947
0.393957 0.366522 0.101076
0.567193 0.383215 0.079042
0.760708 0.391180 0.121004
0.868162 0.364111 0.190585
0.942626 0.341344 0.247715
0.232944 0.456031 0.181399
0.254154 0.454108 0.184390
0.314183 0.447669 0.194736
0.392370 0.449195 0.196780
0.517998 0.488777 0.141817
0.718807 0.537713 0.098299
0.863554 0.525505 0.172183
0.940917 0.488533 0.234775
0.296147 0.594598 0.220401
0.312871 0.593133 0.222141
0.364538 0.587610 0.227726
0.437018 0.577966 0.236728
0.533715 0.600763 0.218723
0.676143 0.645686 0.157290
0.825895 0.654078 0.126925
0.929046 0.622583 0.208591
0.346624 0.749203 0.238590
0.362127 0.748135 0.239597
0.411505 0.744198 0.243046
0.485145 0.737148 0.248997
0.571496 0.726955 0.256931
0.675593 0.749386 0.224125
0.797848 0.765225 0.169314
0.898497 0.736995 0.148226
0.401190 0.847532 0.285863
0.413519 0.846830 0.287144
0.454231 0.844388 0.291997
0.518303 0.839963 0.300999
0.597498 0.833677 0.314702
0.681819 0.832090 0.315984
0.775296 0.842893 0.273594
0.889555 0.853849 0.206424
0.000000 0.064179 0.284062
0.133822 0.011322 0.287907
0.306249 0.000000 0.292271
0.411139 0.095186 0.280583
0.582361 0.000000 0.311376
0.755581 0.000000 0.340154
0.867704 0.000000 0.342565
0.942504 0.000000 0.351446
0.000000 0.165866 0.281376
0.106935 0.135256 0.286656
0.306950 0.136385 0.291173
0.415320 0.172915 0.287297
0.582971 0.129213 0.313512
0.757076 0.000000 0.331212
0.868498 0.000000 0.332647
0.942992 0.000000 0.344549
0.000000 0.292180 0.266697
0.157290 0.293980 0.272648
0.309850 0.296391 0.287724
0.425208 0.280491 0.286900
0.589410 0.252720 0.292027
0.761990 0.203708 0.299443
0.869139 0.173648 0.314031
0.942626 0.182345 0.339422
0.180270 0.377996 0.250492
0.233768 0.377447 0.264195
0.326268 0.377539 0.295079
0.407721 0.387854 0.287938
0.593927 0.411200 0.278874
0.764218 0.398627 0.286534
0.867247 0.367803 0.304356
0.941588 0.348760 0.332921
0.247715 0.481453 0.271153
0.273838 0.483803 0.278660
0.346990 0.484993 0.300542
0.418402 0.473396 0.304082
0.538537 0.514031 0.281956
0.737240 0.553948 0.267460
0.864195 0.526818 0.289036
0.940063 0.492409 0.322362
0.275181 0.625513 0.276432
0.306706 0.626917 0.289311
0.372717 0.623713 0.301091
0.451698 0.612940 0.304204
0.548058 0.621729 0.296757
0.689937 0.662196 0.264591
0.831357 0.659113 0.257694
0.931975 0.626154 0.302281
0.333532 0.766232 0.302892
0.351690 0.765133 0.304662
0.405890 0.760983 0.307805
0.484443 0.753353 0.311650
0.575158 0.742184 0.317052
0.677852 0.755947 0.295628
0.800443 0.769741 0.257969
0.901183 0.739742 0.253025
0.408179 0.852140 0.358404
0.418830 0.851438 0.357519
0.459174 0.848844 0.361791
0.522820 0.844205 0.369696
0.601007 0.837644 0.381537
0.685115 0.833097 0.388586
0.775631 0.844480 0.349523
0.889555 0.855711 0.288334
0.000000 0.121614 0.416358
0.129793 0.129000 0.419196
0.308080 0.163058 0.429175
0.437140 0.204685 0.429175
0.563806 0.227237 0.450568
0.743740 0.145205 0.487953
0.861692 0.000000 0.481788
0.937652 0.000000 0.473060
0.129793 0.220310 0.412360
0.178317 0.213169 0.415747
0.318883 0.232547 0.425635
0.437232 0.248844 0.428199
0.564843 0.254032 0.450599
0.748348 0.173709 0.485176
0.861997 0.098451 0.477790
0.937621 0.113252 0.471443
0.191867 0.327672 0.401984
0.240421 0.332403 0.404822
0.324132 0.326390 0.417578
0.438300 0.326299 0.426917
0.579461 0.313787 0.450629
0.762631 0.252811 0.469795
0.862760 0.241093 0.465248
0.936126 0.270146 0.474586
0.240482 0.411139 0.388769
0.270542 0.412482 0.391974
0.336522 0.419257 0.403693
0.439796 0.429908 0.424262
0.611719 0.406592 0.422827
0.769986 0.385229 0.429908
0.862486 0.386755 0.448615
0.933410 0.411048 0.481819
0.269291 0.523613 0.399390
0.288121 0.526268 0.401373
0.344549 0.535668 0.405524
0.451575 0.543877 0.422766
0.574853 0.557671 0.411261
0.765377 0.567620 0.415106
0.859342 0.537774 0.440162
0.932372 0.529290 0.476173
0.273259 0.662623 0.399359
0.291356 0.664668 0.399054
0.353521 0.670832 0.399725
0.469642 0.669673 0.423468
0.570245 0.654292 0.422034
0.709834 0.687739 0.397009
0.837675 0.669093 0.409949
0.931121 0.649989 0.467048
0.305699 0.784390 0.396521
0.325139 0.784421 0.397711
0.388464 0.783871 0.405219
0.496468 0.775570 0.436866
0.586481 0.763760 0.437812
0.683406 0.765011 0.426123
0.802609 0.776944 0.394354
0.903197 0.748501 0.404242
0.405859 0.860075 0.442969
0.421210 0.859403 0.447639
0.493935 0.854429 0.488472
0.545098 0.849973 0.487434
0.615991 0.843381 0.494545
0.694972 0.835080 0.504021
0.777737 0.846403 0.473976
0.887633 0.858762 0.421576
0.095735 0.233433 0.606806
0.189456 0.240085 0.610010
0.340337 0.254337 0.621698
0.494789 0.259007 0.642390
0.622004 0.247501 0.635676
0.742977 0.250523 0.632654
0.836362 0.291783 0.624628
0.921691 0.296483 0.617334
0.154757 0.285801 0.603693
0.211246 0.285710 0.607080
0.341100 0.288334 0.619104
0.491737 0.285313 0.640223
0.621942 0.272129 0.635309
0.743069 0.278752 0.631952
0.837217 0.314244 0.624964
0.922179 0.317296 0.617700
0.224704 0.396399 0.591791
0.253635 0.391913 0.596094
0.315953 0.358007 0.611200
0.477638 0.358099 0.632593
0.621851 0.352667 0.633600
0.742306 0.367803 0.630152
0.839689 0.385321 0.626642
0.923949 0.381140 0.618921
0.230228 0.490944 0.577691
0.253239 0.490639 0.581018
0.326970 0.487709 0.592523
0.454505 0.471809 0.616449
0.620874 0.480110 0.629053
0.742489 0.491585 0.631159
0.843473 0.487251 0.629206
0.920562 0.492012 0.629084
0.251835 0.587335 0.561425
0.273228 0.589685 0.564721
0.348394 0.596918 0.575952
0.472145 0.607050 0.594903
0.618067 0.618585 0.620478
0.758022 0.604944 0.622248
0.839322 0.607233 0.634363
0.912871 0.621027 0.656580
0.286290 0.708919 0.563836
0.309545 0.710048 0.565301
0.384527 0.712917 0.571099
0.496040 0.715694 0.584375
0.619074 0.712581 0.609552
0.726009 0.717617 0.596094
0.834440 0.707729 0.622827
0.914000 0.703883 0.651301
0.350469 0.801114 0.550866
0.370520 0.800717 0.553155
0.434638 0.798947 0.562310
0.527916 0.794736 0.581689
0.626703 0.785122 0.608240
0.700649 0.773434 0.599390
0.800565 0.786343 0.578393
0.898894 0.775662 0.605707
0.461219 0.865568 0.576379
0.475715 0.864805 0.580499
0.522148 0.862119 0.594751
0.588647 0.857420 0.617304
0.655360 0.850065 0.633936
0.716213 0.842527 0.634760
0.784970 0.847807 0.621973
0.882414 0.862943 0.585443
0.163668 0.314092 0.766537
0.220188 0.315007 0.767788
0.344884 0.316686 0.772152
0.487434 0.319524 0.779477
0.635676 0.334936 0.787991
0.754299 0.338781 0.779843
0.832242 0.407141 0.752438
0.890990 0.516503 0.753109
0.162020 0.338537 0.765255
0.217441 0.338537 0.766506
0.341955 0.338872 0.770962
0.486397 0.343267 0.778286
0.636622 0.362829 0.787350
0.754116 0.366247 0.779141
0.831052 0.430884 0.752743
0.889647 0.533745 0.755215
0.249973 0.444465 0.758328
0.264378 0.434028 0.760311
0.332128 0.408484 0.766415
0.485451 0.419898 0.773739
0.637842 0.446448 0.782895
0.753506 0.451820 0.776638
0.826719 0.505272 0.754208
0.887816 0.580011 0.761288
0.234073 0.543359 0.747433
0.265415 0.542351 0.748531
0.372778 0.540826 0.754086
0.491463 0.530846 0.764187
0.642725 0.560449 0.774044
0.752224 0.570642 0.771878
0.819059 0.604944 0.758145
0.890867 0.631739 0.767971
0.263676 0.648554 0.738033
0.293431 0.648554 0.739132
0.383703 0.649378 0.742947
0.510552 0.653559 0.748928
0.645808 0.663355 0.760494
0.750637 0.678401 0.766232
0.812284 0.690547 0.763027
0.899046 0.683680 0.770657
0.310430 0.753048 0.726009
0.337377 0.753079 0.727199
0.420752 0.752773 0.731197
0.539239 0.751278 0.737789
0.657557 0.749935 0.746792
0.747616 0.753872 0.759701
0.822690 0.748989 0.762234
0.902739 0.746822 0.768643
0.433326 0.815854 0.701259
0.452094 0.815122 0.702998
0.512047 0.812406 0.709316
0.595422 0.807858 0.720760
0.676661 0.803067 0.735073
0.742672 0.797848 0.748470
0.801297 0.800870 0.739834
0.901366 0.813565 0.759518
0.539788 0.872038 0.705196
0.552148 0.871366 0.708003
0.590539 0.869139 0.716915
0.643061 0.865995 0.729183
0.696712 0.862791 0.740444
0.748074 0.857023 0.746914
0.797879 0.850858 0.741176
0.878264 0.869718 0.726375
0.273259 0.394385 0.847318
0.303929 0.397192 0.847745
0.391028 0.407721 0.849241
0.505913 0.429267 0.851896
0.629450 0.466835 0.855650
0.742428 0.513756 0.857664
0.826108 0.534569 0.850980
0.895079 0.609735 0.849180
0.288304 0.418097 0.846189
0.317144 0.420691 0.846616
0.400549 0.430915 0.848081
0.512627 0.452186 0.850736
0.634028 0.489326 0.854520
0.745144 0.535637 0.856931
0.825956 0.553613 0.850340
0.894285 0.622034 0.849546
0.367987 0.507378 0.840970
0.377142 0.502098 0.841855
0.432410 0.501152 0.844053
0.536645 0.522698 0.846677
0.650294 0.558038 0.850553
0.754726 0.601892 0.854490
0.825650 0.610254 0.848234
0.892088 0.658076 0.850706
0.402411 0.593744 0.833616
0.428809 0.597833 0.833951
0.513542 0.616754 0.834897
0.576379 0.616571 0.839353
0.674922 0.645075 0.843961
0.766537 0.678828 0.850858
0.825559 0.678584 0.845701
0.890013 0.701808 0.851713
0.410651 0.672267 0.826719
0.432013 0.674098 0.826871
0.499397 0.681544 0.827420
0.601923 0.698817 0.829129
0.690028 0.713680 0.835782
0.769528 0.734279 0.845151
0.826078 0.735409 0.843992
0.888914 0.743740 0.851438
0.454932 0.756527 0.819638
0.473945 0.757198 0.819852
0.534508 0.759945 0.820615
0.615839 0.765011 0.822202
0.693324 0.771359 0.825498
0.761898 0.776547 0.835721
0.826383 0.782956 0.842252
0.888701 0.783536 0.848264
0.508873 0.832517 0.811826
0.525109 0.831724 0.812131
0.575158 0.829282 0.813291
0.642237 0.826017 0.815488
0.707607 0.823911 0.819303
0.764309 0.824918 0.825650
0.823239 0.830442 0.836667
0.905150 0.826596 0.840757
0.619013 0.880888 0.808530
0.628016 0.880583 0.809903
0.655665 0.879850 0.814267
0.691890 0.879393 0.819150
0.730373 0.879698 0.823087
0.769558 0.880461 0.824521
0.816068 0.876982 0.822873
0.883787 0.882322 0.813931
0.486030 0.559869 0.919219
0.500481 0.563806 0.919341
0.547784 0.577966 0.919707
0.619318 0.602655 0.920409
0.701015 0.635309 0.921630
0.781247 0.670832 0.923674
0.846555 0.692226 0.923949
0.900633 0.697108 0.920745
0.502892 0.579675 0.918090
0.516442 0.583398 0.918212
0.560723 0.596277 0.918639
0.628412 0.618860 0.919493
0.706508 0.648646 0.920867
0.783658 0.680781 0.923156
0.847623 0.700069 0.923735
0.900755 0.703365 0.920653
0.556207 0.640497 0.914153
0.561883 0.639429 0.914611
0.596033 0.647303 0.915404
0.653498 0.664240 0.916625
0.721187 0.686030 0.918639
0.789975 0.708858 0.921691
0.850584 0.723171 0.923369
0.901274 0.722316 0.920409
0.604913 0.707424 0.908782
0.620966 0.713313 0.908721
0.646265 0.716152 0.910033
0.677455 0.715236 0.912902
0.734127 0.728389 0.915831
0.795041 0.742519 0.919890
0.853910 0.752987 0.923369
0.902342 0.748074 0.920439
0.585290 0.744625 0.904875
0.599054 0.747402 0.904997
0.640681 0.755856 0.905699
0.694026 0.765743 0.907805
0.734920 0.764248 0.912718
0.793729 0.773922 0.917876
0.856138 0.784939 0.924010
0.904082 0.778256 0.920867
0.612024 0.801816 0.901091
0.620996 0.802762 0.901213
0.648310 0.805356 0.901793
0.685939 0.807736 0.903197
0.730831 0.808530 0.906401
0.782681 0.805509 0.914275
0.852232 0.817929 0.922026
0.906279 0.815793 0.921324
0.640131 0.857908 0.897124
0.646937 0.858061 0.897307
0.668147 0.858396 0.898039
0.699275 0.858549 0.899504
0.735622 0.857908 0.902159
0.777279 0.855528 0.906340
0.839506 0.854582 0.915984
0.908354 0.862486 0.921080
0.666194 0.909758 0.893187
0.671260 0.909545 0.893400
0.687648 0.908965 0.894102
0.713283 0.908293 0.895537
0.745327 0.907866 0.897826
0.785428 0.907774 0.901244
0.839811 0.908049 0.906554
0.906310 0.911864 0.916503
