其他预设/【233】日式怀旧街道调色预设208款/1.3D LUT预设（视频调色-PR-AE-PS-FCPX-达芬奇用）/3.日式城市街拍预设 (自动曝光预设)/JA – Shaded Light 1 (Auto-Exposure).cube
# Created by Adobe Lightroom plugin Export LUT (1.17.0)
# www.johnrellis.com/lightroom/exportlut.htm
# Preset: JA – Shaded Light 1 (Auto-Exposure)
# Color profile: /Library/Application Support/Adobe/Color/Profiles/Recommended/AdobeRGB1998.icc
LUT_3D_SIZE 8
DOMAIN_MIN 0.000000 0.000000 0.000000
DOMAIN_MAX 0.903226 0.903226 0.903226
0.049928 0.057069 0.064027
0.091951 0.062562 0.068086
0.165621 0.071748 0.076173
0.251530 0.082246 0.083223
0.444373 0.097444 0.079377
0.642542 0.117159 0.069459
0.806668 0.139376 0.080842
0.955993 0.162875 0.115114
0.051301 0.095949 0.071595
0.088472 0.099611 0.073854
0.159396 0.107454 0.077058
0.245121 0.117739 0.084779
0.433265 0.149386 0.079561
0.634791 0.176699 0.065919
0.801236 0.195560 0.075959
0.952819 0.212528 0.111055
0.034516 0.173465 0.088197
0.083528 0.174777 0.089235
0.156985 0.180636 0.089021
0.229679 0.180026 0.090150
0.393896 0.235691 0.082826
0.606500 0.288121 0.051392
0.781369 0.311620 0.055055
0.941283 0.325597 0.093965
0.000000 0.274235 0.112673
0.070314 0.276005 0.112703
0.158389 0.278599 0.119783
0.251621 0.292271 0.108827
0.361181 0.305241 0.085298
0.561944 0.386999 0.015839
0.743740 0.430213 0.000000
0.918944 0.452064 0.027131
0.000000 0.506615 0.131136
0.000000 0.508598 0.100130
0.156527 0.508141 0.109102
0.302007 0.506218 0.118288
0.434089 0.510185 0.073579
0.535210 0.479866 0.000000
0.711177 0.530968 0.000000
0.886259 0.571954 0.000000
0.000000 0.703090 0.154726
0.000000 0.703914 0.118135
0.000000 0.702541 0.092927
0.292729 0.698085 0.103914
0.443122 0.691524 0.118929
0.584649 0.685969 0.000000
0.707851 0.663844 0.000000
0.865782 0.677455 0.000000
0.000000 0.863584 0.194400
0.000000 0.863890 0.177432
0.000000 0.862547 0.187900
0.276005 0.858427 0.209171
0.445533 0.852628 0.238376
0.586755 0.846250 0.247349
0.725032 0.839841 0.120516
0.887358 0.844541 0.000000
0.000000 0.978424 0.324163
0.000000 0.977478 0.339422
0.235386 0.972808 0.412451
0.373785 0.969024 0.432990
0.500114 0.963867 0.458747
0.619715 0.957580 0.490211
0.727413 0.952422 0.487465
0.839445 0.947539 0.410834
0.058717 0.061616 0.102907
0.091218 0.065705 0.107210
0.169467 0.067597 0.119570
0.262974 0.070802 0.121675
0.464485 0.010040 0.124361
0.654658 0.018555 0.124178
0.814969 0.080720 0.132357
0.960571 0.117891 0.153109
0.062196 0.097414 0.106294
0.092714 0.100679 0.111238
0.168582 0.106142 0.115602
0.255894 0.115419 0.122560
0.453437 0.129305 0.123293
0.647150 0.146212 0.121462
0.809598 0.164248 0.128847
0.957488 0.183261 0.149874
0.053162 0.175143 0.121553
0.090974 0.177707 0.124727
0.160342 0.182101 0.124758
0.236240 0.185092 0.125185
0.413825 0.237583 0.121981
0.619409 0.279179 0.112276
0.789822 0.298528 0.115846
0.946136 0.310338 0.136385
0.009796 0.277134 0.146975
0.080598 0.279576 0.146731
0.163607 0.283207 0.151583
0.255711 0.295628 0.141268
0.375097 0.314580 0.118898
0.571710 0.388525 0.097414
0.752224 0.425605 0.087984
0.924010 0.444160 0.105715
0.000000 0.510491 0.181308
0.000000 0.512444 0.162264
0.144503 0.513390 0.143069
0.301549 0.510857 0.147829
0.437110 0.512963 0.115724
0.541100 0.481025 0.067964
0.716976 0.531060 0.000000
0.889891 0.569299 0.000000
0.000000 0.705196 0.203525
0.000000 0.705959 0.179507
0.000000 0.705715 0.135988
0.287755 0.700771 0.145113
0.443183 0.693660 0.158724
0.586267 0.687251 0.075380
0.708461 0.661372 0.000000
0.869322 0.676875 0.000000
0.000000 0.864683 0.238193
0.000000 0.864927 0.227878
0.000000 0.863676 0.241520
0.284337 0.859342 0.259403
0.450965 0.853300 0.284276
0.590173 0.846616 0.293004
0.726314 0.840055 0.180056
0.887816 0.843076 0.000000
0.000000 0.978363 0.351781
0.000000 0.977417 0.366217
0.230472 0.973327 0.423682
0.389349 0.968383 0.462837
0.509667 0.963287 0.485176
0.625544 0.957061 0.513054
0.730861 0.951934 0.510399
0.840726 0.947173 0.435981
0.071931 0.068330 0.180606
0.100954 0.068238 0.180545
0.162905 0.077180 0.189914
0.241276 0.093263 0.210605
0.475257 0.000000 0.266209
0.687922 0.000000 0.237186
0.843900 0.000000 0.229099
0.974487 0.000000 0.268559
0.069947 0.105776 0.189273
0.102541 0.106508 0.188907
0.165194 0.109590 0.193729
0.251896 0.118105 0.215213
0.487434 0.000000 0.249241
0.688106 0.000000 0.216373
0.838590 0.000000 0.226230
0.971588 0.000000 0.266117
0.077882 0.183078 0.197543
0.109621 0.183841 0.199588
0.169894 0.185336 0.204227
0.271397 0.189883 0.207034
0.479194 0.198367 0.206455
0.661402 0.209476 0.206149
0.819242 0.225406 0.215702
0.960784 0.261173 0.256870
0.038056 0.286625 0.222568
0.093111 0.289250 0.224308
0.164248 0.298161 0.219516
0.268467 0.306462 0.211490
0.420783 0.336309 0.195285
0.609949 0.381506 0.188632
0.781949 0.400732 0.195010
0.939727 0.419623 0.236698
0.000000 0.522240 0.285985
0.000000 0.524315 0.277714
0.042817 0.529656 0.232914
0.293309 0.525719 0.224338
0.446845 0.522026 0.197665
0.570001 0.493416 0.163760
0.736904 0.528771 0.163272
0.905028 0.559228 0.197665
0.000000 0.712123 0.313024
0.000000 0.712795 0.302983
0.000000 0.713893 0.271855
0.286137 0.708644 0.277714
0.450111 0.699947 0.288182
0.592432 0.691218 0.217960
0.715663 0.655512 0.129213
0.880522 0.675044 0.149813
0.000000 0.868315 0.348516
0.000000 0.868193 0.348577
0.000000 0.866697 0.362188
0.330236 0.861326 0.400488
0.476204 0.854887 0.413733
0.605219 0.847440 0.421546
0.731533 0.840604 0.324498
0.886839 0.836118 0.176761
0.000000 0.978454 0.430945
0.000000 0.977539 0.440284
0.260716 0.973266 0.486641
0.437201 0.966400 0.547021
0.539696 0.961547 0.560754
0.643854 0.955627 0.578210
0.742061 0.950347 0.576654
0.845243 0.945922 0.509545
0.089326 0.073396 0.279210
0.116793 0.074647 0.276768
0.173159 0.076478 0.267491
0.247105 0.092653 0.286900
0.387671 0.045197 0.358068
0.632929 0.000000 0.436805
0.828092 0.000000 0.441260
0.974426 0.000000 0.474189
0.091341 0.115816 0.292180
0.119142 0.114931 0.288792
0.176822 0.110414 0.275883
0.251164 0.120821 0.292424
0.394324 0.088563 0.361303
0.644007 0.000000 0.431983
0.833066 0.000000 0.435706
0.975158 0.137881 0.480079
0.106081 0.232700 0.336950
0.130404 0.222721 0.331853
0.182864 0.192081 0.314122
0.267308 0.184237 0.313176
0.453376 0.141360 0.382361
0.675380 0.000000 0.408240
0.848051 0.172061 0.431952
0.971344 0.319432 0.488472
0.000000 0.328832 0.350561
0.076112 0.329931 0.352148
0.165957 0.331243 0.355535
0.295933 0.324315 0.354437
0.506279 0.336706 0.362036
0.672480 0.358953 0.380468
0.822751 0.392798 0.413581
0.954009 0.442847 0.467109
0.000000 0.543603 0.428290
0.000000 0.545098 0.424842
0.007141 0.548455 0.412421
0.308110 0.545800 0.405158
0.468086 0.535729 0.378210
0.612909 0.513481 0.340154
0.766751 0.536431 0.367895
0.924743 0.566674 0.427253
0.000000 0.724086 0.453773
0.000000 0.724331 0.451179
0.012665 0.723293 0.451026
0.338384 0.717494 0.469459
0.483467 0.707546 0.476326
0.607385 0.696681 0.421637
0.730007 0.650782 0.319127
0.893004 0.680690 0.373999
0.000000 0.873899 0.490455
0.000000 0.873350 0.494209
0.185885 0.870726 0.511528
0.387304 0.865354 0.542107
0.520958 0.857725 0.560235
0.632227 0.849424 0.562280
0.742611 0.841184 0.489357
0.879759 0.820401 0.375769
0.048676 0.977234 0.552117
0.162936 0.976287 0.558465
0.308629 0.973144 0.578393
0.460304 0.966857 0.618830
0.580377 0.959655 0.652522
0.669917 0.953979 0.660334
0.759213 0.948302 0.660914
0.852781 0.944060 0.601099
0.126864 0.023621 0.502251
0.162295 0.013794 0.496651
0.237156 0.000000 0.474464
0.313420 0.000000 0.454932
0.428016 0.000000 0.489448
0.572778 0.000000 0.539452
0.755581 0.000000 0.585809
0.944091 0.000000 0.620478
0.108370 0.107912 0.518303
0.152010 0.103517 0.512322
0.236667 0.086458 0.489509
0.316869 0.060639 0.463478
0.433326 0.000000 0.495552
0.576684 0.000000 0.540734
0.762234 0.000000 0.586877
0.946624 0.000000 0.621698
0.000000 0.209567 0.564538
0.000000 0.206302 0.558984
0.207279 0.187594 0.536767
0.321843 0.153536 0.491127
0.451698 0.127382 0.516564
0.588891 0.117830 0.545434
0.784390 0.155123 0.594446
0.951263 0.290074 0.632013
0.000000 0.464881 0.619501
0.104219 0.465095 0.619806
0.259159 0.442237 0.606622
0.335271 0.351476 0.565820
0.477150 0.326390 0.549401
0.626062 0.355749 0.574121
0.818448 0.406195 0.616266
0.957031 0.488258 0.654017
0.000000 0.590173 0.611810
0.000000 0.589441 0.611810
0.209018 0.585443 0.610803
0.385443 0.574914 0.605768
0.506340 0.553429 0.591363
0.667750 0.563470 0.598596
0.818296 0.580529 0.613672
0.943236 0.607507 0.640345
0.000000 0.739040 0.622370
0.000000 0.738430 0.623072
0.228489 0.735378 0.626764
0.405005 0.729366 0.632929
0.529747 0.719814 0.633417
0.632929 0.704768 0.603418
0.757717 0.679072 0.556390
0.904936 0.701595 0.582208
0.000000 0.879973 0.646876
0.149386 0.879179 0.650019
0.309361 0.876402 0.659876
0.445808 0.871885 0.671992
0.559442 0.865507 0.678584
0.662318 0.854978 0.678523
0.759274 0.842893 0.629114
0.880186 0.802335 0.527245
0.285283 0.974975 0.679683
0.317266 0.974029 0.683406
0.401190 0.971099 0.694484
0.498238 0.966857 0.707454
0.606989 0.960235 0.728817
0.702968 0.952483 0.746365
0.782376 0.946075 0.748318
0.863127 0.941894 0.692256
0.181704 0.000000 0.698604
0.213840 0.000000 0.694972
0.293675 0.000000 0.680934
0.381903 0.000000 0.651209
0.476387 0.000000 0.646326
0.601587 0.000000 0.669612
0.731807 0.000000 0.694820
0.882750 0.110445 0.736385
0.163577 0.091524 0.706752
0.200015 0.082612 0.703029
0.286931 0.010986 0.688899
0.380835 0.000000 0.659297
0.477333 0.000000 0.650446
0.604395 0.000000 0.672541
0.733211 0.000000 0.695705
0.885588 0.175174 0.738155
0.000000 0.214786 0.732601
0.098634 0.209323 0.728969
0.248234 0.188327 0.715023
0.370428 0.140749 0.686244
0.479133 0.076143 0.664240
0.613214 0.058961 0.682307
0.737148 0.178378 0.699794
0.895476 0.305272 0.744472
0.278874 0.502037 0.768063
0.282048 0.488228 0.765194
0.292363 0.435706 0.754208
0.389288 0.390631 0.727840
0.486397 0.311437 0.684840
0.624506 0.343359 0.697108
0.741878 0.384070 0.709468
0.913115 0.449256 0.755154
0.360296 0.678187 0.793454
0.387884 0.679652 0.793393
0.463600 0.683589 0.792905
0.538476 0.672480 0.783566
0.545892 0.580652 0.739712
0.640040 0.545037 0.717952
0.769955 0.557305 0.735042
0.936645 0.604211 0.769802
0.292485 0.772549 0.785306
0.325231 0.771633 0.785183
0.411170 0.768368 0.784390
0.507897 0.761898 0.781857
0.595880 0.749844 0.774929
0.673182 0.722011 0.754543
0.820035 0.730037 0.760952
0.932982 0.745815 0.775723
0.319677 0.886015 0.790005
0.347845 0.885527 0.791348
0.424994 0.884031 0.795407
0.519951 0.880858 0.797452
0.613947 0.875975 0.796994
0.704005 0.865629 0.791989
0.784695 0.847654 0.757992
0.897063 0.817258 0.710201
0.424079 0.971801 0.796658
0.442420 0.971008 0.798215
0.497414 0.968505 0.802853
0.572045 0.964630 0.809110
0.656184 0.959228 0.817166
0.744991 0.951598 0.830106
0.814145 0.944182 0.832395
0.878233 0.939086 0.790463
0.246769 0.000000 0.851133
0.271855 0.000000 0.848905
0.342748 0.000000 0.840482
0.433906 0.000000 0.823087
0.525597 0.000000 0.795926
0.631434 0.000000 0.800778
0.762142 0.000000 0.817624
0.892149 0.155337 0.841917
0.232242 0.085115 0.855528
0.259312 0.072847 0.853300
0.334508 0.000000 0.844846
0.429664 0.000000 0.827420
0.523888 0.000000 0.798032
0.631769 0.000000 0.802609
0.763088 0.000000 0.818662
0.892058 0.207004 0.842344
0.194705 0.247288 0.869413
0.228458 0.242710 0.867247
0.315404 0.224796 0.858976
0.419257 0.181735 0.842069
0.520562 0.042115 0.811734
0.633570 0.062135 0.808438
0.765896 0.164279 0.822080
0.891752 0.322240 0.843778
0.334356 0.503929 0.887510
0.348455 0.499519 0.885588
0.392309 0.481544 0.878416
0.460121 0.445045 0.863340
0.538231 0.374334 0.835660
0.640345 0.340520 0.816922
0.769833 0.377905 0.827481
0.891539 0.448768 0.846006
0.569268 0.755123 0.907744
0.576013 0.752132 0.906310
0.594781 0.738827 0.900511
0.571038 0.678614 0.891020
0.596460 0.613733 0.868132
0.652979 0.526757 0.828458
0.776944 0.544091 0.836179
0.891814 0.574029 0.848692
0.575952 0.838102 0.911345
0.588830 0.838804 0.911376
0.629847 0.841093 0.911498
0.688685 0.844236 0.911650
0.743587 0.839811 0.908446
0.716793 0.748196 0.874662
0.792020 0.701289 0.851621
0.902892 0.714748 0.859953
0.530663 0.906828 0.905730
0.543755 0.906371 0.905760
0.585412 0.904753 0.905791
0.645350 0.901854 0.905608
0.713771 0.896910 0.904509
0.779080 0.887663 0.900114
0.826749 0.861540 0.881559
0.921660 0.868162 0.887510
0.555444 0.966644 0.891875
0.567437 0.966033 0.892546
0.605768 0.964019 0.894652
0.663264 0.960754 0.898161
0.732631 0.955962 0.901946
0.801114 0.950134 0.905638
0.857816 0.943511 0.907927
0.898375 0.936400 0.884367
0.317082 0.095277 0.959594
0.336248 0.088502 0.958892
0.395514 0.049653 0.956298
0.481575 0.000000 0.950988
0.580224 0.000000 0.941680
0.683558 0.000000 0.934234
0.795132 0.000000 0.934813
0.917357 0.210300 0.941772
0.315221 0.166293 0.960540
0.334569 0.163027 0.959808
0.394446 0.149172 0.957214
0.480629 0.107454 0.951965
0.579065 0.000000 0.942779
0.683009 0.000000 0.934569
0.795285 0.067994 0.934936
0.917113 0.249027 0.941680
0.349676 0.346990 0.962036
0.365698 0.344915 0.961395
0.416785 0.335515 0.958984
0.492775 0.312139 0.954253
0.582666 0.257908 0.945830
0.682795 0.182528 0.935424
0.796048 0.267155 0.935241
0.916136 0.347814 0.941375
0.458198 0.557336 0.961975
0.466743 0.554650 0.961517
0.495583 0.543816 0.959716
0.543847 0.520562 0.955993
0.608148 0.475044 0.949218
0.686793 0.385534 0.936706
0.797421 0.420111 0.935637
0.914794 0.463539 0.941009
0.661219 0.777462 0.958434
0.656519 0.770657 0.958495
0.637598 0.743130 0.958770
0.622095 0.697322 0.957977
0.655360 0.658717 0.953246
0.706905 0.589349 0.943572
0.798825 0.557488 0.936492
0.913176 0.582483 0.940703
0.789059 0.895781 0.958221
0.794339 0.896605 0.958129
0.801755 0.893828 0.957458
0.809262 0.885740 0.956023
0.781430 0.846647 0.954833
0.764218 0.781216 0.950317
0.802914 0.693812 0.937713
0.911009 0.710750 0.940215
0.767514 0.921599 0.956909
0.773709 0.921996 0.956847
0.793759 0.923278 0.956756
0.824552 0.925505 0.956634
0.860349 0.928801 0.956603
0.890196 0.930816 0.956390
0.862058 0.882444 0.948150
0.909514 0.842863 0.940429
0.735256 0.958831 0.954864
0.741634 0.958465 0.954833
0.762753 0.957275 0.954833
0.796201 0.955322 0.954833
0.836027 0.952880 0.954894
0.874418 0.950378 0.954955
0.904448 0.947875 0.954681
0.920958 0.939330 0.949004
