其他预设/【233】日式怀旧街道调色预设208款/1.3D LUT预设（视频调色-PR-AE-PS-FCPX-达芬奇用）/3.日式城市街拍预设 (自动曝光预设)/JA – Night Pop 3 (Auto-Exposure).cube
# Created by Adobe Lightroom plugin Export LUT (1.17.0)
# www.johnrellis.com/lightroom/exportlut.htm
# Preset: JA – Night Pop 3 (Auto-Exposure)
# Color profile: /Library/Application Support/Adobe/Color/Profiles/Recommended/AdobeRGB1998.icc
LUT_3D_SIZE 8
DOMAIN_MIN 0.000000 0.000000 0.000000
DOMAIN_MAX 0.903226 0.903226 0.903226
0.066712 0.081422 0.094789
0.160861 0.075441 0.092042
0.432441 0.000000 0.059541
0.690913 0.000000 0.000000
0.859709 0.000000 0.000000
0.974945 0.000000 0.000000
1.000000 0.000000 0.000000
1.000000 0.000000 0.000000
0.034058 0.145785 0.098573
0.116640 0.128634 0.112123
0.368688 0.191257 0.104311
0.667018 0.185397 0.000000
0.850095 0.124117 0.000000
0.971618 0.000000 0.000000
1.000000 0.000000 0.000000
1.000000 0.000000 0.000000
0.000000 0.350011 0.133669
0.122805 0.345830 0.059724
0.263890 0.269596 0.143282
0.525200 0.377813 0.260105
0.786435 0.381903 0.196963
0.939025 0.334020 0.127108
1.000000 0.268467 0.000000
1.000000 0.170199 0.000000
0.000000 0.592767 0.191714
0.000000 0.589624 0.000000
0.357183 0.567712 0.000000
0.473030 0.460670 0.221286
0.684321 0.532464 0.400244
0.853361 0.566278 0.466804
0.992065 0.534020 0.431098
1.000000 0.482338 0.398596
0.000000 0.758999 0.239872
0.000000 0.755764 0.151156
0.270542 0.744106 0.000000
0.541497 0.697658 0.141970
0.641352 0.605158 0.345220
0.794553 0.651179 0.526726
0.911223 0.716609 0.654170
1.000000 0.712703 0.651789
0.000000 0.877623 0.280095
0.000000 0.875120 0.247227
0.093324 0.867277 0.143587
0.485328 0.850004 0.126802
0.689845 0.791348 0.315190
0.771328 0.716365 0.479835
0.892149 0.754849 0.628962
0.974456 0.814145 0.743984
0.000000 0.972778 0.306828
0.000000 0.970794 0.300938
0.000000 0.964477 0.267674
0.410681 0.952117 0.255619
0.650629 0.929320 0.280949
0.818875 0.876158 0.469123
0.888334 0.820462 0.600061
0.966552 0.848569 0.728115
0.000000 1.000000 0.300175
0.000000 1.000000 0.303319
0.000000 1.000000 0.373724
0.345281 1.000000 0.343877
0.573388 1.000000 0.319982
0.777737 0.981353 0.435279
0.916869 0.945434 0.595819
0.976226 0.914519 0.724636
0.000000 0.089235 0.174685
0.127565 0.069062 0.166934
0.395026 0.000000 0.157626
0.668360 0.000000 0.084108
0.849393 0.000000 0.000000
0.970489 0.000000 0.000000
1.000000 0.000000 0.000000
1.000000 0.000000 0.000000
0.000000 0.146578 0.175143
0.115023 0.139284 0.162081
0.379644 0.141451 0.142794
0.661250 0.128145 0.086000
0.844358 0.088197 0.000000
0.966796 0.000000 0.000000
1.000000 0.000000 0.000000
1.000000 0.000000 0.000000
0.000000 0.346471 0.243259
0.000000 0.338506 0.185855
0.267704 0.281224 0.205661
0.538109 0.381079 0.296880
0.787045 0.375952 0.241032
0.936309 0.336156 0.174746
1.000000 0.283757 0.021302
1.000000 0.178317 0.000000
0.000000 0.590997 0.301518
0.000000 0.585473 0.233097
0.332036 0.569848 0.142397
0.474372 0.467201 0.280430
0.681666 0.541161 0.445045
0.855863 0.568597 0.484230
0.989899 0.538537 0.439002
1.000000 0.484230 0.400732
0.000000 0.758145 0.326390
0.000000 0.754879 0.279881
0.237461 0.742550 0.181094
0.536004 0.700313 0.234775
0.640284 0.608545 0.388037
0.793240 0.656947 0.552087
0.911040 0.719509 0.661311
1.000000 0.712703 0.651728
0.000000 0.877440 0.343847
0.000000 0.874937 0.321355
0.063203 0.865934 0.261845
0.480354 0.848844 0.251164
0.689204 0.792844 0.369116
0.770077 0.718379 0.506310
0.891661 0.758419 0.642878
0.974395 0.814023 0.743893
0.000000 0.972992 0.353033
0.000000 0.971008 0.347753
0.000000 0.963012 0.350561
0.418616 0.950866 0.339849
0.651820 0.929870 0.345739
0.819120 0.876951 0.499611
0.887541 0.821653 0.613642
0.966583 0.848508 0.728115
0.000000 1.000000 0.334752
0.000000 1.000000 0.331975
0.103059 1.000000 0.454627
0.369116 1.000000 0.409125
0.582361 1.000000 0.388220
0.779751 0.981292 0.470710
0.916747 0.945830 0.610681
0.976135 0.914488 0.724331
0.000000 0.137148 0.422370
0.000000 0.054353 0.410529
0.311376 0.000000 0.379644
0.623377 0.000000 0.421546
0.824613 0.000000 0.295689
0.957183 0.000000 0.226993
1.000000 0.000000 0.155428
1.000000 0.000000 0.000000
0.000000 0.243351 0.422187
0.000000 0.178836 0.404456
0.301488 0.086000 0.372137
0.617731 0.000000 0.388098
0.824552 0.000000 0.251499
0.955047 0.000000 0.237491
1.000000 0.000000 0.161013
1.000000 0.000000 0.000000
0.000000 0.364141 0.421454
0.000000 0.349920 0.405524
0.265080 0.309972 0.355322
0.596063 0.308232 0.344366
0.806149 0.291234 0.322972
0.944976 0.261448 0.286992
1.000000 0.207858 0.212497
1.000000 0.097383 0.000000
0.000000 0.590021 0.493202
0.000000 0.586328 0.470375
0.222812 0.561028 0.396460
0.473915 0.485664 0.419745
0.677394 0.567651 0.548638
0.869352 0.563348 0.524193
0.994385 0.533623 0.491402
1.000000 0.477058 0.423804
0.000000 0.760403 0.496193
0.000000 0.756649 0.474647
0.171786 0.736446 0.439521
0.517235 0.709316 0.418708
0.636652 0.618891 0.496681
0.791470 0.674525 0.617395
0.922667 0.722255 0.675959
1.000000 0.710689 0.659754
0.000000 0.879210 0.483680
0.000000 0.876402 0.470954
0.132509 0.861173 0.477668
0.481270 0.843168 0.466865
0.688838 0.797818 0.500145
0.766842 0.724727 0.575708
0.891112 0.769894 0.683131
0.973510 0.822171 0.762387
0.000000 0.974517 0.467445
0.000000 0.972717 0.460700
0.000000 0.960754 0.500114
0.459541 0.945678 0.517082
0.661189 0.929137 0.504540
0.820157 0.880095 0.578180
0.885344 0.825528 0.653498
0.965911 0.854429 0.748714
0.000000 1.000000 0.428412
0.000000 1.000000 0.419043
0.000000 1.000000 0.478157
0.443671 1.000000 0.553429
0.615503 1.000000 0.538872
0.786099 0.981598 0.560235
0.916442 0.947265 0.654139
0.974945 0.915740 0.737026
0.000000 0.205692 0.657557
0.000000 0.204593 0.654688
0.289891 0.000000 0.625177
0.549310 0.000000 0.602808
0.781827 0.000000 0.606561
0.928130 0.000000 0.527184
1.000000 0.000000 0.466804
1.000000 0.000000 0.380621
0.000000 0.297002 0.656886
0.000000 0.264195 0.651667
0.237766 0.000000 0.624567
0.543328 0.000000 0.599207
0.777340 0.000000 0.598138
0.925322 0.000000 0.521630
1.000000 0.000000 0.459327
1.000000 0.000000 0.383612
0.000000 0.459205 0.656977
0.000000 0.441382 0.650721
0.000000 0.340093 0.623987
0.519432 0.279393 0.587274
0.761685 0.247196 0.568841
0.916442 0.212070 0.500847
1.000000 0.241672 0.474861
1.000000 0.166018 0.402655
0.000000 0.598047 0.653742
0.000000 0.591272 0.647364
0.000000 0.566400 0.622705
0.471748 0.512261 0.566308
0.730251 0.516716 0.569848
0.894560 0.510704 0.564294
1.000000 0.487648 0.540063
1.000000 0.420874 0.467109
0.000000 0.758450 0.663416
0.000000 0.756954 0.656336
0.000000 0.742611 0.629114
0.481880 0.699763 0.603510
0.633997 0.634424 0.607813
0.794095 0.700740 0.691707
0.942748 0.713893 0.691524
1.000000 0.694972 0.674159
0.000000 0.882322 0.639307
0.000000 0.880827 0.629419
0.000000 0.867857 0.616571
0.491920 0.835203 0.633600
0.686702 0.808103 0.623590
0.764462 0.734554 0.653193
0.893462 0.787106 0.733944
0.976532 0.834684 0.791226
0.000000 0.977356 0.605493
0.000000 0.976501 0.595911
0.000000 0.967254 0.597559
0.491188 0.941772 0.652277
0.676539 0.924407 0.648676
0.821866 0.886717 0.664179
0.883177 0.831693 0.704036
0.965545 0.865415 0.783566
0.000000 1.000000 0.549584
0.000000 1.000000 0.546044
0.000000 1.000000 0.532494
0.447333 1.000000 0.644099
0.657893 0.997375 0.668177
0.793423 0.983673 0.655512
0.915740 0.950378 0.708186
0.972351 0.918975 0.767666
0.000000 0.253422 0.788022
0.000000 0.252903 0.786923
0.000000 0.000000 0.776547
0.514183 0.000000 0.748775
0.726802 0.000000 0.734768
0.895811 0.000000 0.731899
1.000000 0.000000 0.672969
1.000000 0.232364 0.635065
0.000000 0.281987 0.787381
0.000000 0.302464 0.786526
0.000000 0.000000 0.776425
0.496345 0.000000 0.748898
0.722713 0.000000 0.732876
0.892302 0.000000 0.729732
1.000000 0.141756 0.673884
1.000000 0.280583 0.637964
0.000000 0.490517 0.788083
0.000000 0.485145 0.786069
0.000000 0.372747 0.774075
0.436072 0.245365 0.747982
0.706447 0.261936 0.725826
0.880034 0.333837 0.723262
0.995941 0.341650 0.675685
1.000000 0.390661 0.644739
0.000000 0.611170 0.784237
0.000000 0.607050 0.782132
0.000000 0.579919 0.771786
0.392340 0.538659 0.743648
0.676173 0.505119 0.713069
0.862486 0.501305 0.706508
0.987976 0.481422 0.665888
1.000000 0.466011 0.629725
0.000000 0.744778 0.779110
0.000000 0.742885 0.776791
0.000000 0.731350 0.766049
0.381994 0.705592 0.741634
0.636072 0.652399 0.694850
0.841367 0.661433 0.702449
0.972992 0.658442 0.698756
1.000000 0.630640 0.672572
0.000000 0.878782 0.772305
0.000000 0.878416 0.768734
0.000000 0.871946 0.758572
0.394568 0.845518 0.748745
0.660395 0.805936 0.726192
0.764797 0.746426 0.721218
0.900816 0.809689 0.788449
0.995636 0.822354 0.793210
0.000000 0.978515 0.739773
0.000000 0.979034 0.737087
0.000000 0.975097 0.721492
0.355566 0.952850 0.732815
0.674495 0.923369 0.747738
0.819577 0.899229 0.738827
0.882109 0.839567 0.754360
0.966644 0.879911 0.824369
0.000000 1.000000 0.675105
0.000000 1.000000 0.672511
0.000000 1.000000 0.658991
0.000000 1.000000 0.676692
0.662440 0.997345 0.750118
0.804501 0.982086 0.752041
0.914336 0.955901 0.764584
0.969482 0.923217 0.803616
0.000000 0.288426 0.878996
0.000000 0.288182 0.878508
0.000000 0.072084 0.876616
0.342504 0.000000 0.860502
0.693050 0.000000 0.834592
0.860288 0.000000 0.825498
0.980438 0.132357 0.819120
1.000000 0.260838 0.766598
0.000000 0.288334 0.878752
0.000000 0.288121 0.878264
0.000000 0.094057 0.876219
0.308141 0.000000 0.860899
0.684596 0.000000 0.834653
0.857450 0.000000 0.824308
0.977813 0.242344 0.820432
1.000000 0.310369 0.768185
0.000000 0.459510 0.878904
0.000000 0.467201 0.878477
0.000000 0.391730 0.874113
0.190555 0.236027 0.861051
0.658350 0.167178 0.833677
0.846342 0.269871 0.820035
0.971283 0.407233 0.821897
1.000000 0.425330 0.772244
0.000000 0.602930 0.877714
0.000000 0.607263 0.877043
0.000000 0.585107 0.873411
0.267796 0.550134 0.857053
0.628717 0.486000 0.830655
0.827512 0.502403 0.812772
0.962371 0.546197 0.816464
1.000000 0.541894 0.774472
0.000000 0.721920 0.873838
0.000000 0.724849 0.873228
0.000000 0.713680 0.869383
0.221225 0.711666 0.856992
0.607233 0.684627 0.831174
0.804227 0.649012 0.803006
0.953857 0.650629 0.801266
1.000000 0.640436 0.768185
0.000000 0.849332 0.868833
0.000000 0.851408 0.868254
0.000000 0.848905 0.864317
0.138888 0.839292 0.853086
0.596887 0.817075 0.832517
0.768063 0.760983 0.785275
0.940185 0.776028 0.796201
1.000000 0.768978 0.788327
0.000000 0.974243 0.856138
0.000000 0.975158 0.855100
0.000000 0.976562 0.848905
0.000000 0.962371 0.841672
0.595941 0.935393 0.836790
0.802701 0.902556 0.820066
0.881865 0.849699 0.809506
0.969451 0.899870 0.871977
0.000000 1.000000 0.801846
0.000000 1.000000 0.799832
0.000000 1.000000 0.791867
0.000000 1.000000 0.772152
0.506310 1.000000 0.798032
0.812314 0.981903 0.834714
0.913970 0.964813 0.829496
0.966308 0.928954 0.845975
0.000000 0.314061 0.951446
0.000000 0.314061 0.951263
0.000000 0.313787 0.950561
0.000000 0.000000 0.946136
0.541680 0.000000 0.932891
0.825376 0.000000 0.915709
0.965240 0.000000 0.902831
1.000000 0.215427 0.875151
0.000000 0.314061 0.951476
0.000000 0.314061 0.951293
0.000000 0.313787 0.950622
0.000000 0.000000 0.946105
0.526757 0.000000 0.933349
0.823301 0.000000 0.915160
0.963195 0.000000 0.902190
1.000000 0.287053 0.876432
0.000000 0.372686 0.951476
0.000000 0.380133 0.951232
0.000000 0.405524 0.950408
0.000000 0.169467 0.947509
0.488045 0.061036 0.933654
0.818143 0.000000 0.912169
0.955657 0.264988 0.899992
1.000000 0.434241 0.880735
0.000000 0.554101 0.950622
0.000000 0.558312 0.950408
0.000000 0.571954 0.949676
0.000000 0.515526 0.943664
0.488472 0.465949 0.930816
0.800229 0.432837 0.908507
0.944060 0.492012 0.896666
1.000000 0.576532 0.887175
0.000000 0.677485 0.947845
0.000000 0.679286 0.947601
0.000000 0.684779 0.946838
0.000000 0.672724 0.944060
0.535973 0.688624 0.928893
0.773342 0.633539 0.907805
0.930724 0.642817 0.892668
1.000000 0.682063 0.884947
0.000000 0.793759 0.943664
0.000000 0.795254 0.943450
0.000000 0.800076 0.942687
0.000000 0.794522 0.940246
0.476295 0.809934 0.930266
0.761288 0.799008 0.911254
0.913481 0.765133 0.886076
1.000000 0.778347 0.877989
0.000000 0.917082 0.938323
0.000000 0.918547 0.938109
0.000000 0.923735 0.937285
0.000000 0.926299 0.935058
0.422919 0.921691 0.926665
0.751766 0.908934 0.912718
0.882597 0.862211 0.868833
0.996887 0.878172 0.880095
0.000000 1.000000 0.923125
0.000000 1.000000 0.921752
0.000000 1.000000 0.916594
0.000000 1.000000 0.906462
0.000000 1.000000 0.896483
0.726894 0.993988 0.901549
0.911040 0.969329 0.903441
0.963317 0.936492 0.893706
0.000000 0.330846 1.000000
0.000000 0.330785 1.000000
0.000000 0.330724 1.000000
0.000000 0.174533 1.000000
0.231327 0.000000 1.000000
0.679103 0.000000 0.993011
0.915862 0.000000 0.984802
1.000000 0.000000 0.964294
0.000000 0.330846 1.000000
0.000000 0.330846 1.000000
0.000000 0.330785 1.000000
0.000000 0.178500 1.000000
0.225101 0.000000 1.000000
0.674800 0.000000 0.993256
0.914336 0.000000 0.984619
1.000000 0.000000 0.963989
0.000000 0.331029 1.000000
0.000000 0.330968 1.000000
0.000000 0.330907 1.000000
0.000000 0.210849 1.000000
0.133547 0.000000 1.000000
0.643183 0.000000 0.994018
0.910002 0.000000 0.982971
1.000000 0.111635 0.962890
0.000000 0.407630 1.000000
0.000000 0.411719 1.000000
0.000000 0.425910 1.000000
0.000000 0.432074 1.000000
0.000000 0.317082 1.000000
0.624475 0.313787 0.991547
0.906065 0.308812 0.978119
1.000000 0.440833 0.961364
0.000000 0.596246 1.000000
0.000000 0.595727 1.000000
0.000000 0.592096 1.000000
0.000000 0.578424 1.000000
0.194736 0.608057 0.996490
0.639216 0.592615 0.986969
0.893584 0.562646 0.973205
1.000000 0.619593 0.959869
0.000000 0.716854 0.999664
0.000000 0.716823 0.999634
0.000000 0.716213 0.999603
0.000000 0.712734 0.999695
0.000000 0.700404 0.999359
0.680720 0.779507 0.983703
0.871611 0.743557 0.971038
0.992676 0.760311 0.958312
0.000000 0.831998 0.995239
0.000000 0.832395 0.995178
0.000000 0.833371 0.995087
0.000000 0.834592 0.994934
0.000000 0.831846 0.994720
0.573907 0.868162 0.984680
0.880674 0.893767 0.972015
0.979736 0.872038 0.956023
0.000000 0.953735 0.989563
0.000000 0.954620 0.989471
0.000000 0.957794 0.989197
0.000000 0.963928 0.988647
0.000000 0.973846 0.987701
0.461158 0.974151 0.980896
0.864286 0.969726 0.972503
0.961089 0.946044 0.944854
