其他预设/【233】日式怀旧街道调色预设208款/1.3D LUT预设（视频调色-PR-AE-PS-FCPX-达芬奇用）/3.日式城市街拍预设 (自动曝光预设)/JA – Shaded Light 1 (Auto-Exposure).cube
# Created by Adobe Lightroom plugin Export LUT (1.17.0)
# www.johnrellis.com/lightroom/exportlut.htm
# Preset: JA – Shaded Light 1 (Auto-Exposure)
# Color profile: /Library/Application Support/Adobe/Color/Profiles/Recommended/AdobeRGB1998.icc
LUT_3D_SIZE 5
DOMAIN_MIN 0.000000 0.000000 0.000000
DOMAIN_MAX 0.903226 0.903226 0.903226
0.049928 0.057069 0.064027
0.144747 0.069490 0.074189
0.331975 0.089754 0.084321
0.684993 0.122774 0.069642
0.955993 0.162875 0.115114
0.042512 0.151278 0.083558
0.138552 0.158999 0.084352
0.299199 0.184176 0.089631
0.660975 0.266514 0.053864
0.945098 0.294957 0.100008
0.000000 0.382177 0.123018
0.135805 0.386511 0.117891
0.343786 0.402411 0.098421
0.594110 0.446723 0.000000
0.902678 0.514305 0.000000
0.000000 0.745113 0.161501
0.000000 0.745480 0.096223
0.367895 0.737240 0.122042
0.619776 0.725612 0.000000
0.859617 0.703944 0.000000
0.000000 0.978424 0.324163
0.136812 0.974853 0.381140
0.437812 0.966613 0.445014
0.648554 0.955871 0.499031
0.839445 0.947539 0.410834
0.068147 0.067170 0.158022
0.143587 0.073945 0.167361
0.357977 0.000000 0.214145
0.720882 0.000000 0.194980
0.970703 0.000000 0.227878
0.071412 0.159426 0.172244
0.149630 0.163058 0.179812
0.360479 0.174929 0.186099
0.697597 0.195163 0.185000
0.960296 0.231571 0.218845
0.000000 0.396124 0.230594
0.106538 0.405859 0.206668
0.356298 0.414313 0.185306
0.621424 0.450050 0.151583
0.919554 0.496010 0.177157
0.000000 0.751186 0.288396
0.000000 0.752621 0.251591
0.371252 0.743557 0.265415
0.624994 0.728878 0.192020
0.870909 0.703426 0.060945
0.000000 0.978515 0.405982
0.190738 0.974609 0.452735
0.476631 0.964660 0.530419
0.664790 0.954437 0.564904
0.843778 0.946319 0.487984
0.104707 0.065797 0.379980
0.184268 0.064637 0.361303
0.330236 0.057801 0.381170
0.640284 0.000000 0.501457
0.961608 0.000000 0.549706
0.000000 0.183597 0.437781
0.177462 0.171939 0.415045
0.351080 0.144259 0.406104
0.672267 0.000000 0.501183
0.964294 0.272496 0.564721
0.000000 0.470253 0.493721
0.064912 0.469642 0.495064
0.407935 0.447547 0.483864
0.707393 0.474464 0.504967
0.948119 0.531884 0.562402
0.000000 0.770108 0.541436
0.070375 0.768215 0.547021
0.453529 0.757168 0.573816
0.651667 0.736721 0.527764
0.892790 0.715663 0.471168
0.199893 0.976257 0.616297
0.325200 0.973175 0.632136
0.536034 0.963684 0.675410
0.706111 0.951720 0.703639
0.857511 0.943023 0.646052
0.196933 0.000000 0.739101
0.283604 0.000000 0.727535
0.438483 0.000000 0.681117
0.641047 0.000000 0.707820
0.875975 0.138979 0.760739
0.103792 0.180270 0.761929
0.244694 0.159304 0.750149
0.435157 0.000000 0.700160
0.648310 0.000000 0.715572
0.875853 0.283146 0.763210
0.410651 0.636805 0.821317
0.451392 0.619074 0.810147
0.487129 0.505028 0.768521
0.665034 0.451759 0.737636
0.908629 0.517571 0.782589
0.361944 0.812467 0.821714
0.435096 0.809873 0.821317
0.580377 0.799649 0.817472
0.713863 0.760494 0.790341
0.929900 0.779171 0.806973
0.455665 0.970916 0.823209
0.507225 0.968505 0.826871
0.633082 0.961364 0.836454
0.776669 0.949310 0.852476
0.882872 0.938293 0.815091
0.317082 0.095277 0.959594
0.377600 0.068086 0.957183
0.529931 0.000000 0.946960
0.710780 0.000000 0.934447
0.917357 0.210300 0.941772
0.332616 0.294224 0.961791
0.388769 0.286412 0.959472
0.532250 0.235966 0.949920
0.710597 0.144503 0.935271
0.916442 0.320134 0.941466
0.540612 0.662684 0.961212
0.544213 0.642725 0.960357
0.602075 0.594629 0.954498
0.715267 0.467353 0.936339
0.914031 0.522423 0.940856
0.784451 0.901366 0.957946
0.804013 0.904662 0.957733
0.832883 0.900389 0.956023
0.790829 0.809537 0.949584
0.910399 0.744259 0.940093
0.735256 0.958831 0.954864
0.756130 0.957641 0.954833
0.815824 0.954101 0.954833
0.882902 0.949798 0.954986
0.920958 0.939330 0.949004
