其他预设/【233】日式怀旧街道调色预设208款/1.3D LUT预设（视频调色-PR-AE-PS-FCPX-达芬奇用）/3.日式城市街拍预设 (自动曝光预设)/JA – Subdued 3 (Auto-Exposure).cube
# Created by Adobe Lightroom plugin Export LUT (1.17.0)
# www.johnrellis.com/lightroom/exportlut.htm
# Preset: JA – Subdued 3 (Auto-Exposure)
# Color profile: /Library/Application Support/Adobe/Color/Profiles/Recommended/AdobeRGB1998.icc
LUT_3D_SIZE 8
DOMAIN_MIN 0.000000 0.000000 0.000000
DOMAIN_MAX 0.903226 0.903226 0.903226
0.088197 0.088136 0.087861
0.147585 0.082307 0.086091
0.212039 0.075196 0.082429
0.285252 0.066743 0.075471
0.405249 0.040101 0.049775
0.571435 0.000000 0.000000
0.764889 0.000000 0.000000
0.931670 0.000000 0.000000
0.092439 0.147555 0.091249
0.146761 0.145876 0.082185
0.211490 0.124147 0.077241
0.285924 0.115541 0.070130
0.406409 0.114137 0.031159
0.572686 0.105226 0.000000
0.765652 0.004120 0.000000
0.931853 0.000000 0.000000
0.111299 0.210147 0.109133
0.138552 0.209506 0.106172
0.209171 0.207767 0.091249
0.288609 0.200565 0.080201
0.411048 0.211826 0.035645
0.577813 0.227604 0.000000
0.768490 0.236576 0.000000
0.932464 0.201114 0.000000
0.128115 0.295048 0.123537
0.151400 0.295293 0.121431
0.213901 0.296269 0.113588
0.303471 0.300389 0.086854
0.419593 0.313329 0.030457
0.586664 0.347509 0.000000
0.774136 0.373388 0.000000
0.933532 0.369970 0.000000
0.126101 0.432898 0.114626
0.157961 0.433326 0.111879
0.236759 0.435004 0.102144
0.337255 0.440711 0.071443
0.453498 0.446540 0.000000
0.599512 0.468299 0.000000
0.782010 0.506096 0.000000
0.935088 0.515587 0.000000
0.085298 0.613642 0.000000
0.143557 0.614069 0.000000
0.252934 0.615656 0.000000
0.372473 0.618402 0.000000
0.505974 0.627558 0.000000
0.643519 0.631830 0.000000
0.791440 0.640742 0.000000
0.937163 0.648585 0.000000
0.000000 0.797055 0.000000
0.101900 0.797208 0.000000
0.252659 0.797574 0.000000
0.390417 0.798032 0.000000
0.526177 0.798611 0.000000
0.672938 0.803250 0.000000
0.814054 0.800687 0.000000
0.938689 0.783474 0.000000
0.000000 0.934813 0.000000
0.080659 0.934600 0.000000
0.245792 0.933867 0.000000
0.385199 0.932403 0.000000
0.520317 0.930144 0.000000
0.655756 0.927550 0.000000
0.795377 0.924865 0.000000
0.928801 0.917235 0.000000
0.105776 0.103487 0.144472
0.144259 0.101167 0.142031
0.210117 0.106783 0.135622
0.288579 0.098116 0.127504
0.411536 0.066651 0.110750
0.578027 0.000000 0.071656
0.768978 0.000000 0.000000
0.933257 0.000000 0.000000
0.107210 0.147311 0.147494
0.148043 0.147768 0.147463
0.210117 0.140841 0.139773
0.289189 0.131106 0.128176
0.412665 0.118135 0.110414
0.579431 0.092653 0.068757
0.769894 0.000000 0.000000
0.933410 0.000000 0.000000
0.122469 0.210391 0.145418
0.151797 0.210086 0.150088
0.210849 0.209567 0.140200
0.291569 0.206332 0.129732
0.416602 0.213382 0.108644
0.584100 0.222629 0.052430
0.773007 0.225101 0.000000
0.934112 0.209354 0.000000
0.129732 0.297276 0.150515
0.154513 0.297948 0.150851
0.216587 0.299138 0.144350
0.306249 0.303044 0.125063
0.424903 0.315801 0.098665
0.592126 0.346532 0.000000
0.778164 0.367926 0.000000
0.935424 0.366613 0.000000
0.109895 0.436561 0.138949
0.146975 0.436957 0.136782
0.232486 0.438514 0.129000
0.336339 0.443336 0.108888
0.456489 0.449439 0.055360
0.604608 0.470100 0.000000
0.785519 0.504417 0.000000
0.936919 0.511101 0.000000
0.000000 0.616815 0.081636
0.113161 0.617273 0.076844
0.241245 0.618708 0.053193
0.367742 0.621271 0.000000
0.504631 0.629633 0.000000
0.645502 0.633753 0.000000
0.794491 0.641260 0.000000
0.938750 0.646601 0.000000
0.000000 0.799039 0.000000
0.000000 0.799161 0.000000
0.236118 0.799496 0.000000
0.382483 0.799863 0.000000
0.522484 0.800137 0.000000
0.671534 0.804288 0.000000
0.814878 0.801541 0.000000
0.939971 0.783139 0.000000
0.000000 0.935698 0.000000
0.000000 0.935485 0.000000
0.231846 0.934722 0.000000
0.377844 0.933257 0.000000
0.515892 0.930907 0.000000
0.652827 0.928161 0.000000
0.794095 0.925322 0.000000
0.929107 0.917449 0.000000
0.133669 0.129061 0.205264
0.153475 0.127932 0.204471
0.203006 0.133211 0.198672
0.264073 0.141634 0.196597
0.413916 0.039368 0.202457
0.596490 0.000000 0.169345
0.783505 0.000000 0.131319
0.941070 0.000000 0.000000
0.148074 0.161501 0.207462
0.163760 0.161105 0.207004
0.205570 0.157961 0.201785
0.275456 0.154330 0.201633
0.422705 0.082490 0.198734
0.597559 0.000000 0.167941
0.784237 0.000000 0.127779
0.941222 0.000000 0.000000
0.145846 0.211612 0.211337
0.164736 0.211704 0.211307
0.211917 0.211002 0.210086
0.300237 0.202152 0.199985
0.431098 0.190005 0.185519
0.601221 0.171695 0.161196
0.786648 0.140780 0.113985
0.941741 0.082979 0.000000
0.135256 0.300206 0.218235
0.153475 0.301823 0.216800
0.209598 0.306310 0.205783
0.311803 0.308690 0.191714
0.438788 0.314519 0.176333
0.607568 0.330114 0.146853
0.790738 0.336980 0.080354
0.942504 0.326421 0.000000
0.089021 0.440833 0.223789
0.116396 0.443214 0.217014
0.202579 0.448707 0.194217
0.327489 0.450904 0.181704
0.464210 0.457069 0.152041
0.620478 0.471321 0.105653
0.796597 0.493599 0.000000
0.943267 0.490425 0.000000
0.000000 0.622187 0.207279
0.000000 0.624323 0.192660
0.185245 0.628138 0.164889
0.346593 0.630182 0.146517
0.497414 0.635920 0.101961
0.651270 0.639399 0.000000
0.804562 0.641169 0.000000
0.944213 0.637507 0.000000
0.000000 0.803830 0.158297
0.000000 0.804990 0.131899
0.164675 0.805539 0.119356
0.353094 0.805509 0.084260
0.508873 0.805173 0.000000
0.665675 0.807706 0.000000
0.817411 0.804166 0.000000
0.944549 0.781094 0.000000
0.000000 0.938811 0.119173
0.000000 0.938262 0.138308
0.180758 0.937438 0.120912
0.353613 0.935851 0.075196
0.501457 0.933318 0.000000
0.643153 0.929992 0.000000
0.789425 0.926787 0.000000
0.929870 0.918334 0.000000
0.164096 0.154513 0.291478
0.180697 0.153719 0.289921
0.226261 0.148379 0.284062
0.277775 0.148165 0.269352
0.337804 0.157748 0.259342
0.539940 0.000000 0.296452
0.778103 0.000000 0.298924
0.951568 0.000000 0.244388
0.169619 0.178805 0.296605
0.184604 0.176730 0.294896
0.228672 0.168093 0.288579
0.281987 0.162936 0.273625
0.347295 0.167422 0.264469
0.554986 0.000000 0.297276
0.785336 0.000000 0.291112
0.953582 0.000000 0.212894
0.170138 0.236271 0.305974
0.185733 0.235172 0.306218
0.228855 0.222995 0.302434
0.295323 0.209964 0.287358
0.393835 0.198642 0.284825
0.605127 0.000000 0.291722
0.806424 0.000000 0.243076
0.954528 0.000000 0.187076
0.146487 0.314611 0.313359
0.163912 0.314702 0.313451
0.219699 0.314305 0.312627
0.313451 0.310338 0.307713
0.455726 0.294041 0.289952
0.629938 0.272679 0.265537
0.809232 0.241184 0.227756
0.954284 0.197543 0.169162
0.069398 0.447242 0.331182
0.105440 0.449226 0.329473
0.189242 0.455451 0.321263
0.309728 0.462318 0.300572
0.472297 0.464820 0.274968
0.639063 0.463111 0.249577
0.812100 0.462470 0.210941
0.953582 0.439216 0.138491
0.000000 0.627710 0.348058
0.000000 0.629511 0.343175
0.132113 0.635584 0.323003
0.303532 0.642451 0.287785
0.481514 0.643763 0.266209
0.658747 0.646723 0.217655
0.819364 0.635798 0.156558
0.952667 0.616419 0.062501
0.000000 0.806577 0.344579
0.000000 0.807614 0.337407
0.000000 0.811063 0.310246
0.302464 0.813535 0.277165
0.486275 0.812406 0.252049
0.654810 0.812406 0.199130
0.821073 0.807828 0.094392
0.951537 0.775143 0.000000
0.000000 0.939178 0.335180
0.000000 0.939452 0.329168
0.103273 0.940124 0.308141
0.326879 0.938872 0.293889
0.484413 0.936309 0.265385
0.631312 0.932464 0.220310
0.781704 0.928923 0.012512
0.930968 0.919615 0.000000
0.197330 0.173770 0.431189
0.215976 0.171450 0.428656
0.268254 0.161685 0.420264
0.334630 0.139345 0.404120
0.393194 0.132845 0.376410
0.470130 0.132113 0.361181
0.681849 0.000000 0.408179
0.915282 0.000000 0.426734
0.194247 0.194614 0.437385
0.213260 0.191714 0.435035
0.267033 0.180270 0.425849
0.336278 0.156924 0.409308
0.398077 0.147738 0.381231
0.475227 0.148257 0.363836
0.692988 0.000000 0.410803
0.920806 0.000000 0.422889
0.171298 0.258579 0.455390
0.191379 0.253422 0.453925
0.258030 0.241093 0.444282
0.339391 0.216037 0.426154
0.414252 0.200870 0.396948
0.492439 0.203555 0.373327
0.731960 0.000000 0.417639
0.939788 0.000000 0.406287
0.160403 0.363806 0.467201
0.185122 0.362737 0.467628
0.258579 0.358831 0.467628
0.344671 0.332891 0.454871
0.440864 0.303899 0.423468
0.563012 0.286717 0.410651
0.798062 0.165957 0.418524
0.960998 0.000000 0.380804
0.077485 0.478004 0.473335
0.121462 0.478096 0.473396
0.215885 0.477516 0.472480
0.334600 0.474891 0.469184
0.474006 0.466041 0.459174
0.654170 0.441657 0.433265
0.826993 0.406897 0.395880
0.963104 0.354376 0.338262
0.000000 0.634791 0.487953
0.000000 0.636286 0.486641
0.135103 0.641169 0.482490
0.301579 0.647944 0.471962
0.471077 0.652888 0.451820
0.664942 0.652644 0.414588
0.829618 0.624537 0.378302
0.958923 0.587121 0.329290
0.000000 0.810025 0.500664
0.000000 0.810910 0.498177
0.063355 0.813657 0.488319
0.295140 0.817136 0.469917
0.473976 0.818387 0.448829
0.645716 0.815824 0.419135
0.824399 0.811337 0.355169
0.957336 0.764584 0.282139
0.000000 0.939269 0.495766
0.000000 0.939391 0.493538
0.172549 0.939605 0.485969
0.339208 0.939239 0.474739
0.496040 0.936828 0.466011
0.633570 0.933532 0.434516
0.776516 0.929961 0.367315
0.931853 0.920653 0.265629
0.240330 0.192599 0.612665
0.260990 0.188754 0.610559
0.321263 0.173953 0.602502
0.401495 0.139986 0.587335
0.485603 0.057557 0.562402
0.555596 0.000000 0.525750
0.656580 0.000000 0.510246
0.837491 0.000000 0.540276
0.234623 0.215885 0.617731
0.255711 0.211948 0.615473
0.317754 0.196750 0.607355
0.400366 0.164279 0.591974
0.487312 0.097292 0.566674
0.559899 0.067536 0.529961
0.659846 0.000000 0.511955
0.843320 0.000000 0.541985
0.209842 0.288579 0.633478
0.234562 0.284733 0.631312
0.304906 0.269932 0.623072
0.396094 0.240482 0.607202
0.491981 0.187991 0.581506
0.574395 0.166720 0.543969
0.670985 0.160708 0.517296
0.863859 0.000000 0.547051
0.219577 0.418372 0.652949
0.239933 0.414160 0.651820
0.299931 0.397650 0.647517
0.393622 0.368231 0.632593
0.498573 0.319127 0.606378
0.597711 0.287388 0.567437
0.688167 0.280522 0.525811
0.898039 0.179355 0.552972
0.179446 0.537469 0.658686
0.212039 0.537041 0.658930
0.302037 0.536126 0.659113
0.426123 0.537560 0.658778
0.521233 0.502861 0.640681
0.627161 0.449195 0.598535
0.746883 0.424537 0.563500
0.941070 0.370794 0.562982
0.000000 0.668116 0.660761
0.097475 0.668116 0.660700
0.235080 0.668025 0.660273
0.374762 0.667231 0.658778
0.518853 0.663935 0.654627
0.666011 0.653132 0.642267
0.828061 0.628382 0.615595
0.954437 0.586084 0.570733
0.000000 0.814908 0.657893
0.000000 0.815366 0.657008
0.158999 0.816556 0.653651
0.334783 0.817960 0.648219
0.500206 0.818723 0.643061
0.666133 0.816678 0.639216
0.826291 0.813291 0.601953
0.950469 0.766690 0.558801
0.000000 0.938415 0.647517
0.114870 0.938354 0.646967
0.255985 0.937926 0.645319
0.392767 0.936828 0.642634
0.534630 0.934173 0.642176
0.676722 0.929503 0.647578
0.791592 0.926604 0.616022
0.931212 0.920470 0.546654
0.307988 0.246372 0.788205
0.325811 0.242618 0.786954
0.381476 0.227726 0.782589
0.462928 0.193454 0.774014
0.557855 0.115389 0.759548
0.656367 0.000000 0.737057
0.745144 0.000000 0.704250
0.853758 0.000000 0.683833
0.307042 0.271824 0.790616
0.324834 0.267857 0.789364
0.379950 0.252934 0.785031
0.461616 0.220371 0.776394
0.557183 0.153536 0.762020
0.657038 0.000000 0.739376
0.747189 0.000000 0.706447
0.854887 0.000000 0.684230
0.307958 0.350652 0.798367
0.325017 0.346563 0.797177
0.378393 0.332433 0.792874
0.458808 0.303532 0.784421
0.555200 0.250767 0.770108
0.658900 0.161288 0.747402
0.754391 0.107179 0.714046
0.858610 0.162753 0.685725
0.346044 0.477821 0.809445
0.360845 0.475532 0.808804
0.404791 0.464179 0.805203
0.470985 0.436378 0.797147
0.558007 0.388617 0.783352
0.661555 0.307958 0.760861
0.765560 0.274540 0.726650
0.863767 0.299657 0.687984
0.395392 0.606531 0.817380
0.415137 0.608606 0.817411
0.474861 0.614527 0.817288
0.530419 0.602045 0.812802
0.587823 0.562127 0.800931
0.671199 0.490852 0.778744
0.779019 0.441138 0.743160
0.868284 0.444984 0.692744
0.357610 0.706111 0.818387
0.378363 0.706813 0.818387
0.443946 0.709438 0.818509
0.537896 0.714351 0.818540
0.646509 0.723476 0.818357
0.713710 0.695155 0.803708
0.795590 0.631189 0.765743
0.892485 0.609979 0.723629
0.290257 0.822812 0.817807
0.314611 0.822904 0.817807
0.386877 0.823056 0.817716
0.486549 0.823239 0.817319
0.601801 0.823087 0.816251
0.720302 0.821408 0.813291
0.824979 0.813352 0.803433
0.933837 0.795285 0.783078
0.286229 0.935546 0.800198
0.309331 0.935302 0.799893
0.378027 0.934508 0.798856
0.473610 0.932921 0.796872
0.586419 0.930053 0.794705
0.713588 0.925750 0.798734
0.826505 0.921965 0.803983
0.928954 0.919768 0.775143
0.434333 0.384375 0.912016
0.444495 0.381659 0.911650
0.479042 0.371038 0.910338
0.536034 0.348486 0.907744
0.611536 0.306737 0.903471
0.702480 0.227878 0.896941
0.805295 0.129976 0.885771
0.907927 0.000000 0.868376
0.443000 0.408057 0.912383
0.452491 0.405249 0.912016
0.484993 0.394263 0.910735
0.539544 0.371374 0.908171
0.612909 0.330449 0.904021
0.702510 0.255467 0.897551
0.805234 0.168917 0.886412
0.908263 0.107057 0.868986
0.475227 0.483223 0.913420
0.482734 0.480232 0.913085
0.509087 0.469093 0.911894
0.555322 0.446662 0.909514
0.620356 0.407507 0.905608
0.703822 0.340002 0.899382
0.805051 0.263951 0.888609
0.909209 0.228458 0.870878
0.537896 0.593591 0.915038
0.542687 0.590906 0.914763
0.559930 0.580438 0.913664
0.591913 0.559655 0.911559
0.641108 0.523857 0.907988
0.710719 0.464240 0.902220
0.805234 0.385504 0.892088
0.910246 0.354955 0.873991
0.604730 0.700710 0.916594
0.611170 0.700740 0.916442
0.631556 0.699519 0.915862
0.654383 0.687098 0.914672
0.682551 0.657099 0.911406
0.729915 0.607050 0.905974
0.807095 0.522271 0.896757
0.910704 0.494697 0.877867
0.619806 0.772610 0.918303
0.629694 0.774350 0.918242
0.661769 0.780148 0.917998
0.711574 0.790005 0.917784
0.749386 0.786496 0.916503
0.774929 0.755947 0.911650
0.821164 0.693996 0.902007
0.910063 0.647852 0.882628
0.596643 0.838926 0.919646
0.606378 0.839658 0.919615
0.638422 0.842069 0.919493
0.689570 0.846403 0.919371
0.752987 0.853025 0.919341
0.821073 0.862608 0.919677
0.858610 0.846067 0.913329
0.911254 0.796139 0.890867
0.559808 0.921294 0.920409
0.569574 0.921294 0.920409
0.602289 0.921508 0.920317
0.655726 0.921843 0.920226
0.722438 0.922393 0.920134
0.793942 0.923156 0.920043
0.864134 0.923766 0.919615
0.926909 0.920317 0.914733
