其他预设/【233】日式怀旧街道调色预设208款/1.3D LUT预设（视频调色-PR-AE-PS-FCPX-达芬奇用）/3.日式城市街拍预设 (自动曝光预设)/JA – Night Pop 4 (Auto-Exposure).cube
# Created by Adobe Lightroom plugin Export LUT (1.17.0)
# www.johnrellis.com/lightroom/exportlut.htm
# Preset: JA – Night Pop 4 (Auto-Exposure)
# Color profile: /Library/Application Support/Adobe/Color/Profiles/Recommended/AdobeRGB1998.icc
LUT_3D_SIZE 32
0.064302 0.069642 0.075319
0.073640 0.069337 0.075105
0.086091 0.069764 0.074708
0.113313 0.069825 0.073671
0.159823 0.070192 0.071077
0.227909 0.070985 0.064729
0.306554 0.073915 0.047181
0.377661 0.077699 0.010132
0.435492 0.082612 0.000000
0.483131 0.088167 0.000000
0.524071 0.093111 0.000000
0.560815 0.099489 0.000000
0.596277 0.106325 0.000000
0.633326 0.109438 0.000000
0.671962 0.112612 0.000000
0.709834 0.115145 0.000000
0.746304 0.117159 0.000000
0.780789 0.119722 0.000000
0.812955 0.121706 0.000000
0.843778 0.123384 0.000000
0.873381 0.125185 0.000000
0.901640 0.126101 0.000000
0.928191 0.127260 0.000000
0.952880 0.128237 0.000000
0.975647 0.128664 0.000000
0.996460 0.128756 0.000000
1.000000 0.128603 0.000000
1.000000 0.127840 0.000000
1.000000 0.123629 0.000000
1.000000 0.111940 0.000000
1.000000 0.096620 0.000000
1.000000 0.075288 0.000000
0.063172 0.075990 0.075166
0.071260 0.075563 0.075715
0.082734 0.077241 0.075929
0.111391 0.078950 0.074067
0.159152 0.082155 0.070039
0.226688 0.087709 0.063050
0.305821 0.094331 0.041596
0.376989 0.099977 0.003479
0.434882 0.103944 0.000000
0.482734 0.107820 0.000000
0.523674 0.111086 0.000000
0.560479 0.115175 0.000000
0.595911 0.118898 0.000000
0.633051 0.120943 0.000000
0.671717 0.123507 0.000000
0.709621 0.125185 0.000000
0.746090 0.127230 0.000000
0.780606 0.128939 0.000000
0.812741 0.130373 0.000000
0.843656 0.131655 0.000000
0.873289 0.132937 0.000000
0.901518 0.133608 0.000000
0.928099 0.134463 0.000000
0.952819 0.134798 0.000000
0.975586 0.135042 0.000000
0.996399 0.135103 0.000000
1.000000 0.134585 0.000000
1.000000 0.133883 0.000000
1.000000 0.129702 0.000000
1.000000 0.118532 0.000000
1.000000 0.103914 0.000000
1.000000 0.084504 0.000000
0.061189 0.085084 0.075441
0.071931 0.085389 0.074800
0.081544 0.084260 0.076692
0.106416 0.088808 0.077089
0.153262 0.095277 0.072297
0.223728 0.105562 0.062226
0.304509 0.115785 0.033875
0.375799 0.122652 0.000000
0.434058 0.126467 0.000000
0.481910 0.129061 0.000000
0.523033 0.131228 0.000000
0.559960 0.133242 0.000000
0.595483 0.133700 0.000000
0.632624 0.135164 0.000000
0.671260 0.136599 0.000000
0.709346 0.138033 0.000000
0.745846 0.139345 0.000000
0.780362 0.140719 0.000000
0.812558 0.141421 0.000000
0.843473 0.142458 0.000000
0.873136 0.142855 0.000000
0.901396 0.143282 0.000000
0.927977 0.143709 0.000000
0.952697 0.143496 0.000000
0.975494 0.143496 0.000000
0.996338 0.142702 0.000000
1.000000 0.142245 0.000000
1.000000 0.140993 0.000000
1.000000 0.137301 0.000000
1.000000 0.126711 0.000000
1.000000 0.112703 0.000000
1.000000 0.094850 0.000000
0.054871 0.104860 0.075441
0.069062 0.105257 0.074067
0.083833 0.105837 0.073213
0.102968 0.102724 0.078065
0.142458 0.113161 0.077638
0.207309 0.129702 0.069703
0.291539 0.147585 0.041779
0.369390 0.158938 0.000000
0.431586 0.163210 0.000000
0.480476 0.163638 0.000000
0.521782 0.162936 0.000000
0.558862 0.161929 0.000000
0.594385 0.161013 0.000000
0.631617 0.161013 0.000000
0.670527 0.161501 0.000000
0.708583 0.161898 0.000000
0.745205 0.162112 0.000000
0.779812 0.162203 0.000000
0.812100 0.162417 0.000000
0.843046 0.162417 0.000000
0.872831 0.162051 0.000000
0.901122 0.161685 0.000000
0.927733 0.161410 0.000000
0.952483 0.160739 0.000000
0.975341 0.159792 0.000000
0.996185 0.158633 0.000000
1.000000 0.157259 0.000000
1.000000 0.155703 0.000000
1.000000 0.152773 0.000000
1.000000 0.142336 0.000000
1.000000 0.129763 0.000000
1.000000 0.114199 0.000000
0.034791 0.133333 0.075715
0.061128 0.134157 0.072816
0.079988 0.135134 0.071809
0.109163 0.135500 0.071077
0.133211 0.129732 0.079438
0.192203 0.151431 0.075685
0.269169 0.175723 0.065614
0.352911 0.194400 0.014954
0.420111 0.201572 0.000000
0.473365 0.202548 0.000000
0.517937 0.200473 0.000000
0.557000 0.197604 0.000000
0.592828 0.195132 0.000000
0.630213 0.193637 0.000000
0.669215 0.192996 0.000000
0.707485 0.192599 0.000000
0.744198 0.191684 0.000000
0.778897 0.190982 0.000000
0.811398 0.189914 0.000000
0.842466 0.188815 0.000000
0.872282 0.187778 0.000000
0.900694 0.186587 0.000000
0.927367 0.185183 0.000000
0.952178 0.183932 0.000000
0.975006 0.182254 0.000000
0.995911 0.180423 0.000000
1.000000 0.178225 0.000000
1.000000 0.175631 0.000000
1.000000 0.172976 0.000000
1.000000 0.163760 0.000000
1.000000 0.152163 0.000000
1.000000 0.138186 0.000000
0.000000 0.172488 0.076387
0.025666 0.173770 0.069032
0.070680 0.175326 0.067597
0.110536 0.178775 0.064820
0.147921 0.175296 0.067109
0.175479 0.167758 0.078370
0.253452 0.200992 0.067628
0.333104 0.225620 0.045014
0.403540 0.238468 0.000000
0.461402 0.241672 0.000000
0.508598 0.240085 0.000000
0.549493 0.236301 0.000000
0.587610 0.232609 0.000000
0.627070 0.229648 0.000000
0.667597 0.228000 0.000000
0.706020 0.226474 0.000000
0.742916 0.224735 0.000000
0.777737 0.222965 0.000000
0.810330 0.220981 0.000000
0.841611 0.218997 0.000000
0.871580 0.217075 0.000000
0.900084 0.214755 0.000000
0.926848 0.212772 0.000000
0.951720 0.210605 0.000000
0.974609 0.208164 0.000000
0.995544 0.205570 0.000000
1.000000 0.202762 0.000000
1.000000 0.199405 0.000000
1.000000 0.195895 0.000000
1.000000 0.188296 0.000000
1.000000 0.177249 0.000000
1.000000 0.164675 0.000000
0.000000 0.225620 0.077363
0.000000 0.226932 0.062470
0.029358 0.228794 0.056336
0.105959 0.232670 0.049531
0.159945 0.237461 0.034516
0.199435 0.227146 0.055451
0.230686 0.217838 0.071534
0.315740 0.253330 0.048829
0.387457 0.271153 0.010651
0.445899 0.278416 0.000000
0.496742 0.278447 0.000000
0.539757 0.275059 0.000000
0.579156 0.270695 0.000000
0.619074 0.267399 0.000000
0.660914 0.264958 0.000000
0.701625 0.262547 0.000000
0.740566 0.259953 0.000000
0.776394 0.256962 0.000000
0.809171 0.254063 0.000000
0.840574 0.251194 0.000000
0.870695 0.248447 0.000000
0.899351 0.245487 0.000000
0.926207 0.242679 0.000000
0.951141 0.239536 0.000000
0.974090 0.236393 0.000000
0.995087 0.232914 0.000000
1.000000 0.229374 0.000000
1.000000 0.225376 0.000000
1.000000 0.221012 0.000000
1.000000 0.214817 0.000000
1.000000 0.204135 0.000000
1.000000 0.192142 0.000000
0.000000 0.286534 0.079530
0.000000 0.287999 0.058503
0.000000 0.289586 0.016052
0.088685 0.293004 0.005127
0.159762 0.298131 0.000000
0.218662 0.299992 0.000000
0.257603 0.283696 0.014557
0.291600 0.272892 0.058473
0.370825 0.300908 0.018860
0.432441 0.311254 0.000000
0.483406 0.314366 0.000000
0.527886 0.312810 0.000000
0.568933 0.308659 0.000000
0.609552 0.304814 0.000000
0.652064 0.302190 0.000000
0.693935 0.299565 0.000000
0.733761 0.296544 0.000000
0.771176 0.293004 0.000000
0.805966 0.289128 0.000000
0.839109 0.285039 0.000000
0.869627 0.281407 0.000000
0.898405 0.277653 0.000000
0.925383 0.274113 0.000000
0.950439 0.270115 0.000000
0.973510 0.265995 0.000000
0.994507 0.261967 0.000000
1.000000 0.257603 0.000000
1.000000 0.252903 0.000000
1.000000 0.247959 0.000000
1.000000 0.242496 0.000000
1.000000 0.232059 0.000000
1.000000 0.220432 0.000000
0.000000 0.346838 0.082582
0.000000 0.347784 0.057710
0.000000 0.349310 0.000000
0.016846 0.351415 0.000000
0.147250 0.355016 0.000000
0.217533 0.359136 0.000000
0.273838 0.353429 0.000000
0.314092 0.337255 0.000000
0.349279 0.324773 0.026734
0.416876 0.342168 0.006012
0.470497 0.347082 0.001984
0.515923 0.347173 0.016846
0.556634 0.346105 0.048554
0.598291 0.342229 0.000000
0.641505 0.339605 0.000000
0.684474 0.337041 0.000000
0.725521 0.333867 0.000000
0.763973 0.330144 0.000000
0.799710 0.325719 0.000000
0.833707 0.321111 0.000000
0.865904 0.316503 0.000000
0.896300 0.311559 0.000000
0.924498 0.306462 0.000000
0.949645 0.301946 0.000000
0.972747 0.297185 0.000000
0.993835 0.292088 0.000000
1.000000 0.286992 0.000000
1.000000 0.281559 0.000000
1.000000 0.275883 0.000000
1.000000 0.269932 0.000000
1.000000 0.260563 0.000000
1.000000 0.249119 0.000000
0.000000 0.398932 0.085817
0.000000 0.399664 0.060700
0.000000 0.400671 0.000000
0.000000 0.402197 0.000000
0.122469 0.404273 0.000000
0.204013 0.406897 0.000000
0.270603 0.407630 0.000000
0.323095 0.397681 0.000000
0.363684 0.382177 0.000000
0.398138 0.368597 0.010559
0.455818 0.377691 0.022248
0.503349 0.378943 0.043275
0.545312 0.377905 0.067445
0.585687 0.377508 0.085298
0.628931 0.377264 0.081636
0.673274 0.375128 0.031586
0.715663 0.372015 0.000000
0.755306 0.367987 0.000000
0.792111 0.363378 0.000000
0.827146 0.358373 0.000000
0.860349 0.353185 0.000000
0.891508 0.347662 0.000000
0.920500 0.341772 0.000000
0.947082 0.335760 0.000000
0.971344 0.329442 0.000000
0.993103 0.323064 0.000000
1.000000 0.317205 0.000000
1.000000 0.311009 0.000000
1.000000 0.304509 0.000000
1.000000 0.297887 0.000000
1.000000 0.289616 0.000000
1.000000 0.278019 0.000000
0.000000 0.442878 0.090547
0.000000 0.443427 0.067353
0.000000 0.444221 0.000000
0.000000 0.445289 0.000000
0.078737 0.446509 0.000000
0.183261 0.448066 0.000000
0.255924 0.449836 0.000000
0.317632 0.446998 0.000000
0.366705 0.434607 0.000000
0.406439 0.419837 0.000000
0.439277 0.405402 0.028595
0.489387 0.409003 0.064759
0.532769 0.408515 0.081971
0.573663 0.407904 0.100191
0.615930 0.409705 0.117769
0.659663 0.413611 0.135958
0.703548 0.411200 0.113436
0.744625 0.407385 0.085420
0.782925 0.402533 0.023529
0.819242 0.397223 0.000000
0.853513 0.391577 0.000000
0.885679 0.385351 0.000000
0.915526 0.378973 0.000000
0.942870 0.371954 0.000000
0.967803 0.364752 0.000000
0.990295 0.357122 0.000000
1.000000 0.349340 0.000000
1.000000 0.341497 0.000000
1.000000 0.333989 0.000000
1.000000 0.326543 0.000000
1.000000 0.318822 0.000000
1.000000 0.307225 0.000000
0.000000 0.480446 0.095125
0.000000 0.480903 0.074830
0.000000 0.481422 0.001678
0.000000 0.482338 0.000000
0.000000 0.483040 0.000000
0.155550 0.483925 0.000000
0.235752 0.484962 0.000000
0.302922 0.486000 0.000000
0.359380 0.479347 0.000000
0.405341 0.466102 0.000000
0.443610 0.451820 0.000000
0.474403 0.436805 0.068269
0.519066 0.437324 0.096010
0.560601 0.436957 0.114748
0.602594 0.438514 0.133272
0.646784 0.442481 0.151797
0.689998 0.447028 0.170657
0.731746 0.447852 0.171572
0.771603 0.443519 0.150484
0.809415 0.438300 0.126802
0.845090 0.432410 0.096132
0.878386 0.425910 0.038575
0.909270 0.418585 0.000000
0.937560 0.410834 0.000000
0.963348 0.402411 0.000000
0.986542 0.393622 0.000000
1.000000 0.384527 0.000000
1.000000 0.375280 0.000000
1.000000 0.365972 0.000000
1.000000 0.356817 0.000000
1.000000 0.347570 0.000000
1.000000 0.336431 0.000000
0.000000 0.513329 0.099550
0.000000 0.513634 0.082521
0.000000 0.514031 0.037385
0.000000 0.514824 0.000000
0.000000 0.515343 0.000000
0.120150 0.515923 0.000000
0.212589 0.516594 0.000000
0.282963 0.517327 0.000000
0.344671 0.515587 0.000000
0.396765 0.506889 0.000000
0.440009 0.493751 0.000000
0.476600 0.479713 0.000000
0.505058 0.464454 0.100069
0.546471 0.464057 0.129397
0.588495 0.465461 0.148379
0.632807 0.469734 0.167269
0.676783 0.474769 0.185946
0.718685 0.479469 0.204959
0.758175 0.484108 0.224521
0.797574 0.480171 0.207828
0.834684 0.474891 0.188663
0.869352 0.468513 0.166720
0.901396 0.461250 0.141115
0.930785 0.452888 0.107027
0.957519 0.443671 0.032837
0.981628 0.433600 0.000000
1.000000 0.423011 0.000000
1.000000 0.411902 0.000000
1.000000 0.400610 0.000000
1.000000 0.389654 0.000000
1.000000 0.379156 0.000000
1.000000 0.367437 0.000000
0.000000 0.543236 0.105653
0.000000 0.543481 0.090608
0.000000 0.543816 0.064668
0.000000 0.544457 0.000000
0.000000 0.544945 0.000000
0.067903 0.545434 0.000000
0.187350 0.546075 0.000000
0.262486 0.546838 0.000000
0.327337 0.547631 0.000000
0.383917 0.543236 0.000000
0.431891 0.532433 0.000000
0.472511 0.519158 0.000000
0.506706 0.505211 0.075898
0.532952 0.489906 0.132967
0.573114 0.490181 0.162753
0.617792 0.494881 0.181582
0.662501 0.500481 0.200656
0.705348 0.505913 0.219730
0.746090 0.510826 0.238560
0.785000 0.515801 0.257237
0.822538 0.516533 0.259953
0.858549 0.511345 0.243717
0.891844 0.504814 0.225803
0.922362 0.496986 0.204868
0.950103 0.487831 0.180056
0.975158 0.477363 0.148013
0.997620 0.465736 0.100801
1.000000 0.453010 0.000000
1.000000 0.439582 0.000000
1.000000 0.425879 0.000000
1.000000 0.412787 0.000000
1.000000 0.400305 0.000000
0.000000 0.572045 0.110964
0.000000 0.572259 0.099397
0.000000 0.572534 0.079744
0.000000 0.573144 0.000000
0.000000 0.573693 0.000000
0.000000 0.574365 0.000000
0.160037 0.575158 0.000000
0.241917 0.576074 0.000000
0.308904 0.577264 0.000000
0.370153 0.577874 0.000000
0.422400 0.571099 0.000000
0.466316 0.557977 0.000000
0.504082 0.544091 0.053651
0.535760 0.529808 0.115969
0.559991 0.514672 0.166262
0.600977 0.517235 0.195377
0.647181 0.524224 0.214450
0.691035 0.530327 0.232853
0.733028 0.535943 0.251499
0.773281 0.541466 0.269657
0.811276 0.546502 0.287388
0.846738 0.551019 0.304173
0.881193 0.546380 0.291600
0.912749 0.539910 0.276829
0.941436 0.531792 0.259464
0.967315 0.522240 0.238712
0.990570 0.511009 0.213016
1.000000 0.498329 0.179599
1.000000 0.483864 0.130037
1.000000 0.468055 0.000000
1.000000 0.451514 0.000000
1.000000 0.435340 0.000000
0.000000 0.601648 0.117586
0.000000 0.601862 0.107607
0.000000 0.602106 0.092561
0.000000 0.602655 0.031586
0.000000 0.603235 0.000000
0.000000 0.604150 0.000000
0.129244 0.605219 0.000000
0.221408 0.606592 0.000000
0.292027 0.608118 0.000000
0.354864 0.609918 0.000000
0.411627 0.607782 0.000000
0.460548 0.598962 0.000000
0.501396 0.584710 0.000000
0.536309 0.569879 0.106020
0.565209 0.554894 0.152163
0.587762 0.540093 0.198550
0.629725 0.544732 0.226596
0.675654 0.552636 0.245243
0.719020 0.559289 0.263554
0.760678 0.565484 0.281193
0.800107 0.570977 0.298009
0.836973 0.575738 0.314244
0.870909 0.579675 0.329717
0.902556 0.579065 0.332311
0.932128 0.572656 0.319860
0.958740 0.564630 0.305547
0.982635 0.554986 0.288304
1.000000 0.543694 0.267155
1.000000 0.530388 0.239536
1.000000 0.514855 0.200381
1.000000 0.497078 0.139467
1.000000 0.477485 0.000000
0.000000 0.632746 0.124178
0.000000 0.632929 0.116091
0.000000 0.633173 0.104372
0.000000 0.633692 0.072633
0.000000 0.634211 0.000000
0.000000 0.635157 0.000000
0.090181 0.636255 0.000000
0.201266 0.637659 0.000000
0.275578 0.639216 0.000000
0.340154 0.640955 0.000000
0.400153 0.642878 0.000000
0.452308 0.637263 0.000000
0.497963 0.626276 0.000000
0.536522 0.611658 0.092439
0.569116 0.596460 0.145754
0.595697 0.581140 0.185855
0.616876 0.566644 0.229099
0.658076 0.571771 0.256352
0.704036 0.580621 0.274205
0.747158 0.587823 0.291508
0.788113 0.594141 0.307836
0.826444 0.599329 0.323339
0.861814 0.603510 0.338262
0.893919 0.606775 0.352605
0.922667 0.609003 0.366247
0.949950 0.602930 0.356756
0.974456 0.594903 0.344518
0.996246 0.585382 0.330236
1.000000 0.574060 0.312352
1.000000 0.560754 0.288914
1.000000 0.544976 0.255924
1.000000 0.525963 0.205417
0.000000 0.663691 0.132082
0.000000 0.663813 0.125002
0.000000 0.664057 0.116243
0.000000 0.664485 0.094331
0.000000 0.664881 0.061646
0.000000 0.665614 0.036103
0.000000 0.666682 0.024903
0.181186 0.668025 0.005890
0.260014 0.669551 0.000000
0.326238 0.671229 0.000000
0.386664 0.673121 0.000000
0.443183 0.673335 0.000000
0.491829 0.665858 0.000000
0.534691 0.653010 0.075166
0.571191 0.638392 0.138125
0.601953 0.623346 0.181399
0.627008 0.608087 0.217777
0.647150 0.594018 0.257847
0.687068 0.598932 0.283574
0.732692 0.608301 0.300542
0.775235 0.615656 0.316533
0.815183 0.621729 0.331640
0.852079 0.626459 0.346227
0.885588 0.629999 0.360204
0.915587 0.632288 0.373602
0.942107 0.633600 0.386389
0.966247 0.630854 0.388800
0.988556 0.622827 0.378546
1.000000 0.613245 0.366094
1.000000 0.602075 0.350774
1.000000 0.588952 0.330327
1.000000 0.573236 0.301549
0.000000 0.694697 0.139834
0.000000 0.694850 0.134585
0.000000 0.695033 0.127169
0.000000 0.695369 0.112947
0.000000 0.695674 0.097169
0.000000 0.696101 0.093172
0.000000 0.697200 0.089601
0.162051 0.698482 0.085878
0.245945 0.699947 0.080629
0.313268 0.701595 0.074159
0.374395 0.703365 0.065126
0.432105 0.705257 0.049226
0.484443 0.702144 0.029419
0.530785 0.694026 0.036011
0.571221 0.680110 0.128542
0.606043 0.665583 0.176272
0.635248 0.650782 0.214664
0.659052 0.635767 0.247349
0.678370 0.621942 0.284581
0.716823 0.626368 0.308446
0.761563 0.635584 0.324163
0.803098 0.642786 0.339117
0.841611 0.648310 0.353307
0.876646 0.652338 0.367102
0.908019 0.654963 0.380255
0.935821 0.656306 0.392737
0.960082 0.656672 0.404883
0.981048 0.656184 0.416449
1.000000 0.648402 0.408545
1.000000 0.638849 0.397833
1.000000 0.627863 0.384314
1.000000 0.614984 0.366094
0.000000 0.725978 0.148257
0.000000 0.726101 0.144289
0.000000 0.726284 0.138827
0.000000 0.726528 0.129458
0.000000 0.726711 0.122255
0.000000 0.726833 0.126741
0.000000 0.727810 0.124971
0.143832 0.729000 0.122805
0.232914 0.730373 0.119417
0.301976 0.731930 0.115846
0.363561 0.733577 0.111666
0.421332 0.735317 0.106325
0.476844 0.737148 0.099550
0.524773 0.730709 0.093996
0.568933 0.720943 0.116793
0.607538 0.707210 0.170199
0.640864 0.693080 0.210513
0.668818 0.678614 0.244968
0.691768 0.663874 0.274601
0.710414 0.650324 0.308507
0.747036 0.653803 0.330846
0.790188 0.662318 0.345586
0.830350 0.669062 0.359747
0.867033 0.673854 0.373327
0.899962 0.676997 0.386297
0.929076 0.678553 0.398749
0.954467 0.678889 0.410742
0.976410 0.678309 0.422400
0.995148 0.676875 0.433570
1.000000 0.672053 0.435828
1.000000 0.662623 0.426368
1.000000 0.651759 0.414191
0.000000 0.757229 0.156893
0.000000 0.757321 0.153964
0.000000 0.757412 0.150240
0.000000 0.757626 0.144594
0.000000 0.757687 0.143343
0.000000 0.757443 0.155245
0.000000 0.758267 0.155276
0.126131 0.759365 0.153872
0.221744 0.760616 0.151858
0.292149 0.761959 0.149508
0.353887 0.763455 0.146517
0.411566 0.765011 0.143069
0.466590 0.766629 0.138705
0.518517 0.765835 0.134218
0.564019 0.758663 0.127962
0.606195 0.747616 0.161929
0.643336 0.734188 0.205936
0.675257 0.720485 0.241978
0.702358 0.706477 0.272374
0.724788 0.692287 0.299016
0.742824 0.678859 0.330358
0.777371 0.681086 0.351476
0.818418 0.688441 0.365301
0.856840 0.694392 0.378729
0.891356 0.698268 0.391821
0.921874 0.700313 0.404334
0.948486 0.700862 0.416358
0.971466 0.700191 0.428046
0.991058 0.698543 0.439246
1.000000 0.696345 0.450050
1.000000 0.693874 0.460487
1.000000 0.684840 0.452888
0.000000 0.788052 0.165133
0.000000 0.788174 0.162997
0.000000 0.788205 0.160952
0.000000 0.788327 0.158602
0.000000 0.788296 0.161746
0.000000 0.787930 0.176547
0.000000 0.788296 0.183261
0.110689 0.789242 0.182193
0.212131 0.790311 0.180575
0.283604 0.791470 0.178805
0.345403 0.792782 0.176913
0.402808 0.794125 0.174289
0.457496 0.795499 0.171328
0.510338 0.796841 0.167971
0.558190 0.792966 0.162661
0.601984 0.785885 0.155489
0.642542 0.773678 0.199710
0.678279 0.760800 0.237644
0.709194 0.747646 0.269596
0.735714 0.734188 0.296910
0.757900 0.720699 0.320836
0.775418 0.707271 0.350439
0.807584 0.708034 0.370611
0.845884 0.713832 0.383703
0.882170 0.718715 0.396674
0.914214 0.721492 0.409247
0.942229 0.722377 0.421332
0.966339 0.721828 0.433204
0.986786 0.720119 0.444678
1.000000 0.717617 0.455756
1.000000 0.714839 0.466560
1.000000 0.711879 0.476844
0.000000 0.818204 0.172915
0.000000 0.818265 0.171939
0.000000 0.818326 0.171023
0.000000 0.818326 0.171267
0.000000 0.818173 0.177615
0.000000 0.817716 0.194827
0.000000 0.817594 0.208804
0.096407 0.818357 0.207889
0.204105 0.819272 0.207004
0.276249 0.820218 0.205570
0.337987 0.821286 0.203799
0.394751 0.822354 0.201785
0.448737 0.823484 0.199435
0.501152 0.824491 0.196780
0.551995 0.825467 0.193149
0.596155 0.818967 0.186679
0.638514 0.811002 0.191073
0.677638 0.799069 0.231693
0.712154 0.786801 0.265354
0.742367 0.774319 0.293919
0.768490 0.761624 0.318853
0.790707 0.748836 0.341070
0.807645 0.735439 0.369085
0.837278 0.734524 0.388373
0.872343 0.738308 0.400885
0.906096 0.742000 0.413550
0.935546 0.743496 0.425910
0.960876 0.743221 0.437934
0.982300 0.741512 0.449714
1.000000 0.738857 0.461250
1.000000 0.735775 0.472450
1.000000 0.732509 0.483314
0.000000 0.847471 0.180117
0.000000 0.847471 0.179934
0.000000 0.847440 0.180026
0.000000 0.847410 0.182528
0.000000 0.847135 0.191470
0.000000 0.846555 0.210636
0.000000 0.845884 0.232456
0.083955 0.846555 0.231449
0.197330 0.847196 0.230625
0.269596 0.847959 0.229404
0.331151 0.848753 0.228122
0.387243 0.849577 0.226322
0.440620 0.850370 0.224125
0.492103 0.851133 0.221683
0.542229 0.851804 0.218875
0.589441 0.849912 0.214328
0.632105 0.843595 0.207095
0.673365 0.834745 0.224125
0.711147 0.823514 0.259586
0.744808 0.812009 0.289555
0.774441 0.800320 0.315831
0.800443 0.788479 0.338872
0.822965 0.776577 0.359564
0.839261 0.763058 0.386572
0.866056 0.760342 0.405432
0.897459 0.761807 0.417334
0.928496 0.764065 0.429969
0.955138 0.764248 0.442267
0.977630 0.762722 0.454444
0.996521 0.759976 0.466438
1.000000 0.756680 0.478248
1.000000 0.753170 0.489876
0.000000 0.875425 0.185550
0.000000 0.875395 0.185977
0.000000 0.875395 0.186862
0.000000 0.875273 0.191287
0.000000 0.874876 0.202823
0.000000 0.874144 0.223911
0.000000 0.873106 0.251377
0.073030 0.873411 0.252903
0.191043 0.873899 0.252018
0.263401 0.874418 0.251041
0.324285 0.874937 0.249638
0.380163 0.875456 0.247959
0.432776 0.875944 0.246189
0.483284 0.876371 0.243809
0.532586 0.876677 0.241337
0.580743 0.876951 0.238285
0.624567 0.872679 0.232151
0.665858 0.866667 0.223789
0.706203 0.857237 0.251591
0.742916 0.846769 0.283757
0.775845 0.836088 0.311437
0.805234 0.825315 0.335821
0.831296 0.814481 0.357336
0.854185 0.803616 0.376776
0.869780 0.789914 0.403357
0.893614 0.785275 0.421820
0.921111 0.784298 0.433509
0.949096 0.784970 0.446235
0.972747 0.783719 0.458869
0.992493 0.781033 0.471412
1.000000 0.777584 0.483925
1.000000 0.773892 0.496407
0.000000 0.901946 0.189090
0.000000 0.901915 0.190036
0.000000 0.901823 0.191928
0.000000 0.901610 0.197940
0.000000 0.901122 0.211612
0.000000 0.900267 0.234806
0.000000 0.899077 0.263066
0.059449 0.898833 0.272007
0.184970 0.899077 0.271244
0.257023 0.899382 0.270176
0.317723 0.899626 0.268833
0.372717 0.899870 0.267308
0.424567 0.900023 0.265354
0.474525 0.900114 0.263554
0.522789 0.900084 0.260899
0.570001 0.899962 0.257939
0.615930 0.899199 0.254307
0.657221 0.893736 0.246403
0.697475 0.887755 0.240360
0.736995 0.878325 0.275273
0.772824 0.868681 0.305119
0.805234 0.858946 0.331212
0.834409 0.849149 0.354101
0.860594 0.839384 0.374670
0.884031 0.829618 0.393317
0.898741 0.815702 0.419776
0.919524 0.809110 0.438422
0.943297 0.805814 0.449958
0.967651 0.804501 0.462898
0.988342 0.801938 0.476173
1.000000 0.798428 0.489448
1.000000 0.794583 0.502953
0.000000 0.926757 0.189181
0.000000 0.926696 0.190707
0.000000 0.926574 0.193240
0.000000 0.926329 0.200809
0.000000 0.925689 0.217014
0.000000 0.924681 0.242466
0.000000 0.923308 0.272404
0.034668 0.922515 0.289311
0.178988 0.922576 0.288548
0.251102 0.922637 0.287358
0.311009 0.922637 0.286107
0.365362 0.922606 0.284489
0.416358 0.922484 0.282597
0.465339 0.922240 0.280461
0.512749 0.921935 0.278141
0.558984 0.921447 0.275059
0.604425 0.920806 0.271916
0.647242 0.918090 0.265934
0.687282 0.912993 0.256901
0.727138 0.906523 0.263157
0.765560 0.897856 0.296117
0.800748 0.889097 0.324376
0.832700 0.880339 0.349187
0.861753 0.871580 0.371283
0.888121 0.862882 0.391333
0.911955 0.854307 0.409705
0.925628 0.840085 0.436378
0.943359 0.831632 0.455543
0.963409 0.826017 0.467140
0.984039 0.822721 0.480598
1.000000 0.819242 0.495003
1.000000 0.815274 0.509728
0.000000 0.949767 0.185000
0.000000 0.949676 0.186801
0.000000 0.949554 0.190097
0.000000 0.949187 0.199222
0.000000 0.948486 0.217899
0.000000 0.947295 0.246250
0.000000 0.945769 0.278935
0.006409 0.944366 0.304784
0.172488 0.944244 0.303807
0.244785 0.944060 0.302892
0.304112 0.943847 0.301457
0.357733 0.943511 0.299870
0.407935 0.943114 0.297978
0.455970 0.942596 0.295781
0.502434 0.941955 0.293217
