其他预设/【233】日式怀旧街道调色预设208款/1.3D LUT预设（视频调色-PR-AE-PS-FCPX-达芬奇用）/3.日式城市街拍预设 (自动曝光预设)/JA – Controlled Contrast 2 (Auto-Exposure).cube
# Created by Adobe Lightroom plugin Export LUT (1.17.0)
# www.johnrellis.com/lightroom/exportlut.htm
# Preset: JA – Controlled Contrast 2 (Auto-Exposure)
# Color profile: /Library/Application Support/Adobe/Color/Profiles/Recommended/AdobeRGB1998.icc
LUT_3D_SIZE 32
0.096010 0.089631 0.085206
0.096345 0.089570 0.085206
0.097230 0.089693 0.085176
0.101228 0.088960 0.085115
0.112428 0.087556 0.084840
0.133852 0.084016 0.084260
0.169131 0.076387 0.082948
0.220005 0.057374 0.080415
0.281834 0.000000 0.076234
0.345312 0.000000 0.069673
0.402930 0.000000 0.061311
0.451789 0.000000 0.046723
0.493812 0.000000 0.025818
0.530632 0.000000 0.005798
0.563745 0.000000 0.000000
0.594842 0.000000 0.000000
0.625422 0.000000 0.000000
0.656855 0.000000 0.000000
0.689021 0.000000 0.000000
0.721675 0.000000 0.000000
0.754543 0.000000 0.000000
0.787533 0.000000 0.000000
0.820340 0.000000 0.000000
0.852598 0.000000 0.000000
0.884154 0.000000 0.000000
0.914702 0.000000 0.000000
0.943969 0.000000 0.000000
0.971649 0.000000 0.000000
0.997375 0.000000 0.000000
1.000000 0.000000 0.000000
1.000000 0.000000 0.000000
1.000000 0.000000 0.000000
0.095979 0.089937 0.085176
0.096284 0.089876 0.085176
0.097200 0.089998 0.085145
0.101381 0.090120 0.084993
0.112764 0.089326 0.084688
0.134493 0.086702 0.083986
0.170016 0.080629 0.082551
0.221134 0.066346 0.079774
0.282963 0.005982 0.075349
0.346410 0.000000 0.068360
0.403662 0.000000 0.059632
0.452399 0.000000 0.042481
0.494240 0.000000 0.021698
0.531060 0.000000 0.001678
0.564080 0.000000 0.000000
0.595117 0.000000 0.000000
0.625696 0.000000 0.000000
0.657160 0.000000 0.000000
0.689296 0.000000 0.000000
0.721920 0.000000 0.000000
0.754788 0.000000 0.000000
0.787778 0.000000 0.000000
0.820584 0.000000 0.000000
0.852811 0.000000 0.000000
0.884337 0.000000 0.000000
0.914855 0.000000 0.000000
0.944121 0.000000 0.000000
0.971740 0.000000 0.000000
0.997436 0.000000 0.000000
1.000000 0.000000 0.000000
1.000000 0.000000 0.000000
1.000000 0.000000 0.000000
0.096162 0.090486 0.085420
0.096437 0.090730 0.085389
0.097414 0.090852 0.085054
0.101534 0.091279 0.084901
0.113313 0.091279 0.084474
0.135439 0.090425 0.083619
0.171237 0.086366 0.082002
0.222568 0.076875 0.079194
0.284367 0.049683 0.073976
0.347662 0.000000 0.066590
0.404608 0.000000 0.056336
0.453101 0.000000 0.037659
0.494881 0.000000 0.015991
0.531548 0.000000 0.000000
0.564508 0.000000 0.000000
0.595605 0.000000 0.000000
0.626123 0.000000 0.000000
0.657527 0.000000 0.000000
0.689815 0.000000 0.000000
0.722347 0.000000 0.000000
0.755184 0.000000 0.000000
0.788144 0.000000 0.000000
0.820890 0.000000 0.000000
0.853086 0.000000 0.000000
0.884611 0.000000 0.000000
0.915099 0.000000 0.000000
0.944274 0.000000 0.000000
0.971923 0.000000 0.000000
0.997559 0.000000 0.000000
1.000000 0.000000 0.000000
1.000000 0.000000 0.000000
1.000000 0.000000 0.000000
0.096742 0.093324 0.085145
0.097353 0.093202 0.085145
0.098573 0.093294 0.085115
0.101686 0.094423 0.084901
0.113802 0.096345 0.083986
0.137209 0.098207 0.082795
0.173831 0.098512 0.081025
0.225803 0.095979 0.077119
0.287663 0.086397 0.070954
0.350530 0.064302 0.062226
0.406744 0.000000 0.046967
0.454841 0.000000 0.024842
0.496162 0.000000 0.003967
0.532586 0.000000 0.000000
0.565454 0.000000 0.000000
0.596429 0.000000 0.000000
0.627008 0.000000 0.000000
0.658534 0.000000 0.000000
0.690669 0.000000 0.000000
0.723171 0.000000 0.000000
0.756008 0.000000 0.000000
0.788876 0.000000 0.000000
0.821592 0.000000 0.000000
0.853758 0.000000 0.000000
0.885191 0.000000 0.000000
0.915587 0.000000 0.000000
0.944701 0.000000 0.000000
0.972229 0.000000 0.000000
0.997803 0.000000 0.000000
1.000000 0.000000 0.000000
1.000000 0.000000 0.000000
1.000000 0.000000 0.000000
0.097566 0.100038 0.085084
0.098756 0.100130 0.085054
0.100313 0.099855 0.085023
0.104005 0.100832 0.084504
0.112703 0.102907 0.083650
0.136507 0.109224 0.081941
0.178073 0.116426 0.078614
0.231144 0.121126 0.073396
0.292912 0.121523 0.065431
0.354833 0.115023 0.051484
0.410132 0.099977 0.027924
0.457435 0.073915 0.005035
0.498207 0.000000 0.000000
0.534264 0.000000 0.000000
0.566888 0.000000 0.000000
0.597772 0.000000 0.000000
0.628382 0.000000 0.000000
0.659937 0.000000 0.000000
0.692103 0.000000 0.000000
0.724575 0.000000 0.000000
0.757290 0.000000 0.000000
0.790127 0.000000 0.000000
0.822690 0.000000 0.000000
0.854765 0.000000 0.000000
0.886046 0.000000 0.000000
0.916350 0.000000 0.000000
0.945342 0.000000 0.000000
0.972747 0.000000 0.000000
0.998230 0.000000 0.000000
1.000000 0.000000 0.000000
1.000000 0.000000 0.000000
1.000000 0.000000 0.000000
0.098817 0.112825 0.084565
0.100679 0.112581 0.084535
0.103059 0.112215 0.084504
0.107607 0.111757 0.084382
0.116640 0.114626 0.083101
0.132204 0.119112 0.081270
0.172274 0.133242 0.076600
0.232547 0.148562 0.068391
0.299718 0.158450 0.054994
0.360571 0.159670 0.027253
0.414466 0.153597 0.000305
0.460792 0.140688 0.000000
0.500786 0.122652 0.000000
0.536400 0.096956 0.000000
0.568841 0.058259 0.000000
0.599603 0.000000 0.000000
0.630274 0.000000 0.000000
0.661860 0.000000 0.000000
0.693965 0.000000 0.000000
0.726406 0.000000 0.000000
0.758999 0.000000 0.000000
0.791714 0.000000 0.000000
0.824155 0.000000 0.000000
0.856077 0.000000 0.000000
0.887205 0.000000 0.000000
0.917357 0.000000 0.000000
0.946227 0.000000 0.000000
0.973419 0.000000 0.000000
0.998718 0.000000 0.000000
1.000000 0.000000 0.000000
1.000000 0.000000 0.000000
1.000000 0.000000 0.000000
0.101656 0.132876 0.083040
0.104005 0.132601 0.083009
0.107149 0.132204 0.082948
0.113405 0.131350 0.082856
0.122896 0.131716 0.082124
0.139528 0.138125 0.079438
0.164248 0.146029 0.075685
0.221958 0.169711 0.065156
0.293858 0.190982 0.038178
0.367468 0.203769 0.000000
0.419654 0.201602 0.000000
0.464759 0.193393 0.000000
0.504082 0.180880 0.000000
0.539117 0.164920 0.000000
0.571252 0.145693 0.000000
0.601892 0.122774 0.000000
0.632624 0.092317 0.000000
0.664302 0.019318 0.000000
0.696376 0.000000 0.000000
0.728634 0.000000 0.000000
0.761166 0.000000 0.000000
0.793729 0.000000 0.000000
0.825986 0.000000 0.000000
0.857725 0.000000 0.000000
0.888701 0.000000 0.000000
0.918639 0.000000 0.000000
0.947265 0.000000 0.000000
0.974304 0.000000 0.000000
0.999359 0.000000 0.000000
1.000000 0.000000 0.000000
1.000000 0.000000 0.000000
1.000000 0.000000 0.000000
0.105867 0.162814 0.080110
0.109224 0.162478 0.080049
0.113283 0.161898 0.079988
0.121614 0.160800 0.079866
0.133242 0.159335 0.079591
0.149966 0.163546 0.076875
0.175845 0.173739 0.071534
0.209964 0.185458 0.064179
0.279576 0.215305 0.025513
0.353246 0.236515 0.000000
0.419165 0.245365 0.000000
0.469368 0.242100 0.000000
0.507774 0.231815 0.000000
0.542199 0.218784 0.000000
0.574060 0.203799 0.000000
0.604669 0.187198 0.000000
0.635492 0.169039 0.000000
0.667262 0.147799 0.000000
0.699275 0.122408 0.000000
0.731411 0.085939 0.000000
0.763790 0.000000 0.000000
0.796139 0.000000 0.000000
0.828214 0.000000 0.000000
0.859739 0.000000 0.000000
0.890440 0.000000 0.000000
0.920165 0.000000 0.000000
0.948516 0.000000 0.000000
0.975311 0.000000 0.000000
1.000000 0.000000 0.000000
1.000000 0.000000 0.000000
1.000000 0.000000 0.000000
1.000000 0.000000 0.000000
0.113008 0.204105 0.074250
0.117128 0.203647 0.074189
0.122316 0.203189 0.074067
0.132906 0.201724 0.073915
0.147433 0.199832 0.073274
0.164065 0.197086 0.072938
0.190249 0.207858 0.065400
0.224216 0.220706 0.051484
0.265751 0.234348 0.019043
0.336675 0.263096 0.000000
0.404059 0.279393 0.000000
0.461952 0.283818 0.000000
0.511955 0.280522 0.000000
0.545800 0.268498 0.000000
0.577264 0.255070 0.000000
0.607843 0.240940 0.000000
0.638849 0.226169 0.000000
0.670802 0.210880 0.000000
0.702602 0.193393 0.000000
0.734646 0.173800 0.000000
0.766781 0.151095 0.000000
0.798978 0.121431 0.000000
0.830808 0.077790 0.000000
0.862058 0.000000 0.000000
0.892515 0.000000 0.000000
0.921935 0.000000 0.000000
0.950042 0.000000 0.000000
0.976471 0.000000 0.000000
1.000000 0.000000 0.000000
1.000000 0.000000 0.000000
1.000000 0.000000 0.000000
1.000000 0.000000 0.000000
0.122866 0.252323 0.063630
0.127535 0.251987 0.063508
0.133822 0.251164 0.063447
0.146212 0.249699 0.062806
0.163363 0.247501 0.062409
0.182834 0.244572 0.061463
0.206180 0.246372 0.055573
0.238773 0.258579 0.026398
0.278264 0.272374 0.000000
0.322667 0.285557 0.000000
0.386938 0.306920 0.000000
0.446540 0.317510 0.000000
0.498299 0.318730 0.000000
0.543969 0.313939 0.000000
0.580896 0.303716 0.000000
0.611536 0.290501 0.000000
0.642756 0.277501 0.000000
0.674739 0.264195 0.000000
0.706447 0.250187 0.000000
0.738216 0.234806 0.000000
0.770260 0.218448 0.000000
0.802152 0.199802 0.000000
0.833768 0.178012 0.000000
0.864683 0.152102 0.000000
0.894835 0.118013 0.000000
0.923949 0.061219 0.000000
0.951690 0.000000 0.000000
0.977813 0.000000 0.000000
1.000000 0.000000 0.000000
1.000000 0.000000 0.000000
1.000000 0.000000 0.000000
1.000000 0.000000 0.000000
0.134218 0.302373 0.038422
0.139498 0.301884 0.038178
0.146548 0.301122 0.037964
0.160128 0.299504 0.036469
0.178561 0.297093 0.034577
0.199985 0.293950 0.032349
0.222995 0.290074 0.029786
0.252323 0.297093 0.001129
0.288518 0.308904 0.000000
0.329839 0.321355 0.000000
0.374029 0.332219 0.000000
0.429114 0.345342 0.000000
0.482612 0.351507 0.000000
0.529839 0.350439 0.000000
0.573144 0.345403 0.000000
0.615717 0.338628 0.000000
0.647150 0.326238 0.000000
0.679133 0.314214 0.000000
0.710658 0.301457 0.000000
0.742306 0.288243 0.000000
0.774075 0.274357 0.000000
0.805692 0.259342 0.000000
0.837003 0.242985 0.000000
0.867613 0.224735 0.000000
0.897429 0.203861 0.000000
0.926146 0.179324 0.000000
0.953521 0.149538 0.000000
0.979278 0.109316 0.000000
1.000000 0.000000 0.000000
1.000000 0.000000 0.000000
1.000000 0.000000 0.000000
1.000000 0.000000 0.000000
0.147311 0.348669 0.005768
0.152316 0.348119 0.004608
0.159579 0.347356 0.004395
0.173220 0.345861 0.002838
0.192050 0.343511 0.001007
0.214298 0.340398 0.000000
0.238499 0.336400 0.000000
0.263767 0.333349 0.000000
0.296574 0.343206 0.000000
0.333745 0.353338 0.000000
0.374731 0.363622 0.000000
0.417365 0.372168 0.000000
0.464851 0.378698 0.000000
0.513848 0.382055 0.000000
0.558099 0.380041 0.000000
0.600793 0.375494 0.000000
0.645167 0.370794 0.000000
0.684016 0.362615 0.000000
0.715297 0.350469 0.000000
0.746792 0.338262 0.000000
0.778286 0.325689 0.000000
0.809598 0.312474 0.000000
0.840543 0.298405 0.000000
0.870817 0.283116 0.000000
0.900267 0.266300 0.000000
0.928588 0.247837 0.000000
0.955505 0.227024 0.000000
0.980835 0.203281 0.000000
1.000000 0.175204 0.000000
1.000000 0.140352 0.000000
1.000000 0.089815 0.000000
1.000000 0.000000 0.000000
0.160616 0.388647 0.000000
0.165438 0.388281 0.000000
0.172244 0.387549 0.000000
0.185367 0.386175 0.000000
0.203861 0.383886 0.000000
0.225681 0.380926 0.000000
0.249882 0.377111 0.000000
0.274723 0.372595 0.000000
0.302953 0.373938 0.000000
0.336187 0.382422 0.000000
0.373205 0.391272 0.000000
0.413275 0.399878 0.000000
0.454261 0.406500 0.000000
0.495369 0.407965 0.000000
0.541588 0.409827 0.000000
0.584619 0.407874 0.000000
0.628504 0.405127 0.000000
0.674556 0.402594 0.000000
0.720333 0.398383 0.000000
0.751614 0.386542 0.000000
0.782834 0.374640 0.000000
0.813840 0.362219 0.000000
0.844388 0.349371 0.000000
0.874266 0.335607 0.000000
0.903258 0.320867 0.000000
0.931151 0.304784 0.000000
0.957671 0.287449 0.000000
0.982483 0.268376 0.000000
1.000000 0.246952 0.000000
1.000000 0.223087 0.000000
1.000000 0.195621 0.000000
1.000000 0.162844 0.000000
0.174441 0.423407 0.000000
0.179355 0.422950 0.000000
0.185367 0.422339 0.000000
0.197360 0.421057 0.000000
0.214786 0.418952 0.000000
0.235721 0.416114 0.000000
0.258915 0.412634 0.000000
0.283421 0.408392 0.000000
0.308690 0.403326 0.000000
0.338323 0.408850 0.000000
0.371588 0.416266 0.000000
0.407904 0.423774 0.000000
0.446815 0.431220 0.000000
0.486152 0.436500 0.000000
0.521996 0.434028 0.000000
0.567163 0.435889 0.000000
0.610590 0.435096 0.000000
0.656397 0.434760 0.000000
0.703243 0.433478 0.000000
0.749538 0.430518 0.000000
0.787625 0.422309 0.000000
0.818326 0.410315 0.000000
0.848447 0.397894 0.000000
0.877958 0.384955 0.000000
0.906462 0.371130 0.000000
0.933867 0.356390 0.000000
0.959869 0.340551 0.000000
0.984222 0.323522 0.000000
1.000000 0.304967 0.000000
1.000000 0.284733 0.000000
1.000000 0.262608 0.000000
1.000000 0.238071 0.000000
0.189822 0.453651 0.013001
0.193912 0.453223 0.012879
0.199252 0.452613 0.009613
0.210178 0.451484 0.006958
0.225986 0.449561 0.002167
0.245335 0.447028 0.000000
0.267002 0.443824 0.000000
0.290532 0.439734 0.000000
0.314855 0.435157 0.000000
0.340459 0.432624 0.000000
0.370397 0.439063 0.000000
0.403204 0.445655 0.000000
0.438697 0.452277 0.000000
0.476539 0.458839 0.000000
0.514458 0.463081 0.000000
0.546563 0.458137 0.000000
0.591699 0.460914 0.000000
0.636835 0.462348 0.000000
0.684352 0.463966 0.000000
0.731899 0.464027 0.000000
0.778439 0.461952 0.000000
0.822995 0.457527 0.000000
0.852750 0.445289 0.000000
0.881743 0.432502 0.000000
0.909789 0.419104 0.000000
0.936706 0.404974 0.000000
0.962158 0.389899 0.000000
0.985992 0.373877 0.000000
1.000000 0.356634 0.000000
1.000000 0.338170 0.000000
1.000000 0.318181 0.000000
1.000000 0.296574 0.000000
0.206088 0.480415 0.062593
0.209720 0.479988 0.062135
0.214176 0.479561 0.061189
0.223728 0.478431 0.059388
0.237949 0.476692 0.054902
0.255467 0.474281 0.048127
0.275395 0.471351 0.037140
0.297154 0.467781 0.023529
0.320256 0.463447 0.009003
0.343999 0.458503 0.000000
0.370214 0.459907 0.000000
0.399817 0.465827 0.000000
0.431891 0.471778 0.000000
0.466590 0.477821 0.000000
0.503502 0.483742 0.000000
0.540154 0.487465 0.000000
0.570428 0.481453 0.000000
0.616114 0.485725 0.000000
0.663905 0.489937 0.000000
0.712673 0.493141 0.000000
0.760616 0.494148 0.000000
0.806973 0.492744 0.000000
0.850858 0.488563 0.000000
0.885710 0.478981 0.000000
0.913237 0.465705 0.000000
0.939605 0.451728 0.000000
0.964477 0.436866 0.000000
0.987732 0.421332 0.000000
1.000000 0.404669 0.000000
1.000000 0.386847 0.000000
1.000000 0.367834 0.000000
1.000000 0.347692 0.000000
0.224033 0.504448 0.092195
0.226780 0.504082 0.091402
0.230838 0.503593 0.091127
0.239109 0.502586 0.089448
0.251225 0.501030 0.087404
0.266789 0.498939 0.084108
0.284703 0.496193 0.080354
0.304723 0.492805 0.074678
0.325933 0.488838 0.068055
0.348394 0.484260 0.059693
0.371313 0.479103 0.042451
0.397772 0.484352 0.000000
0.426825 0.489937 0.000000
0.458412 0.495552 0.000000
0.492409 0.501244 0.000000
0.528435 0.507012 0.000000
0.564355 0.510460 0.000000
0.593957 0.504479 0.000000
0.641779 0.511467 0.000000
0.691615 0.517815 0.000000
0.741085 0.522179 0.000000
0.789090 0.523919 0.000000
0.834897 0.522667 0.000000
0.877653 0.518486 0.000000
0.916747 0.511315 0.000000
0.942504 0.497230 0.000000
0.966796 0.482368 0.000000
0.989471 0.466835 0.000000
1.000000 0.450233 0.000000
1.000000 0.432715 0.000000
1.000000 0.414130 0.000000
1.000000 0.394385 0.000000
0.242466 0.526513 0.119936
0.245090 0.526207 0.119356
0.248264 0.525872 0.118929
0.255375 0.524926 0.117525
0.266117 0.523400 0.115724
0.279423 0.521508 0.112795
0.295537 0.519005 0.109560
0.313390 0.515892 0.104921
0.332921 0.512261 0.099733
0.353613 0.508110 0.093690
0.374975 0.503349 0.086305
0.397772 0.501884 0.068818
0.424018 0.507164 0.000000
0.452735 0.512718 0.000000
0.483894 0.518364 0.000000
0.517388 0.524163 0.000000
0.553368 0.530175 0.000000
0.589044 0.533959 0.000000
0.618952 0.528771 0.000000
0.668849 0.538109 0.000000
0.719692 0.545953 0.000000
0.769528 0.551019 0.000000
0.817350 0.553002 0.000000
0.862211 0.551812 0.000000
0.903502 0.547234 0.000000
0.940612 0.539483 0.000000
0.969085 0.526787 0.000000
0.991150 0.510857 0.000000
1.000000 0.494179 0.000000
1.000000 0.476509 0.000000
1.000000 0.457923 0.000000
1.000000 0.438392 0.000000
0.262181 0.548119 0.146975
0.264164 0.547845 0.146670
0.267033 0.547478 0.146029
0.273136 0.546593 0.144961
0.282109 0.545281 0.143252
0.293980 0.543511 0.141024
0.308019 0.541222 0.137636
0.324010 0.538415 0.133791
0.341680 0.535119 0.129274
0.360510 0.531243 0.123507
0.380316 0.526818 0.117220
0.400824 0.521935 0.109651
0.423865 0.524376 0.088045
0.449866 0.529900 0.029633
0.478401 0.535668 0.000000
0.509545 0.541650 0.000000
0.543175 0.547967 0.000000
0.579370 0.554589 0.000000
0.615503 0.559197 0.000000
0.646265 0.555077 0.000000
0.696590 0.565240 0.000000
0.748135 0.574090 0.000000
0.798062 0.579614 0.000000
0.845182 0.581598 0.000000
0.888762 0.579919 0.000000
0.928191 0.574670 0.000000
0.962951 0.565942 0.000000
0.992737 0.553979 0.000000
1.000000 0.536889 0.000000
1.000000 0.518853 0.000000
1.000000 0.500008 0.000000
1.000000 0.480293 0.000000
0.282750 0.570397 0.173312
0.284398 0.570153 0.173068
0.286900 0.569757 0.172702
0.291936 0.568963 0.171603
0.299870 0.567742 0.170077
0.310063 0.566064 0.167788
0.322484 0.563928 0.164828
0.336645 0.561273 0.161379
0.352392 0.558190 0.156893
0.369574 0.554589 0.151797
0.387884 0.550500 0.146212
0.406775 0.545892 0.139437
0.426734 0.542016 0.130465
0.450172 0.547631 0.105928
0.476356 0.553521 0.067231
0.505089 0.559838 0.000000
0.536584 0.566613 0.000000
0.570764 0.573816 0.000000
0.607660 0.581323 0.000000
0.644312 0.586633 0.000000
0.675044 0.582696 0.000000
0.724849 0.592767 0.000000
0.776852 0.602228 0.000000
0.826352 0.607874 0.000000
0.872465 0.609491 0.000000
0.914458 0.607050 0.000000
0.951598 0.600702 0.000000
0.983673 0.590661 0.000000
1.000000 0.577295 0.000000
1.000000 0.560113 0.000000
1.000000 0.540764 0.000000
1.000000 0.520653 0.000000
0.303838 0.594293 0.199313
0.305364 0.594018 0.198886
0.307378 0.593683 0.198459
0.311894 0.592920 0.197421
0.318822 0.591730 0.195865
0.327764 0.590112 0.193851
0.338659 0.588067 0.191165
0.351263 0.585565 0.187900
0.365515 0.582635 0.184115
0.381048 0.579187 0.179416
0.397589 0.575341 0.173800
0.415198 0.570916 0.167788
0.433448 0.566003 0.160555
0.453742 0.566247 0.146944
0.477668 0.572503 0.122591
0.504204 0.579278 0.086732
0.533654 0.586450 0.000000
0.565759 0.594171 0.000000
0.600610 0.602075 0.000000
0.637995 0.610101 0.000000
0.674708 0.615564 0.000000
0.704921 0.611139 0.000000
0.753719 0.620630 0.000000
0.805753 0.630335 0.000000
0.854582 0.635584 0.000000
0.899229 0.636469 0.000000
0.939117 0.632929 0.000000
0.973602 0.625147 0.000000
1.000000 0.613550 0.000000
1.000000 0.598505 0.000000
1.000000 0.580468 0.000000
1.000000 0.559838 0.000000
0.325505 0.620508 0.223972
0.326879 0.620294 0.223789
0.328649 0.619928 0.223239
0.332525 0.619196 0.222354
0.338598 0.618067 0.221103
0.346685 0.616541 0.219211
0.356420 0.614527 0.216648
0.367773 0.612146 0.213657
0.380621 0.609339 0.209751
0.394812 0.605951 0.205509
0.410071 0.602258 0.200626
0.426398 0.598047 0.194980
0.443366 0.593286 0.188388
0.460975 0.588128 0.181186
0.482429 0.593103 0.163210
0.507012 0.600336 0.138430
0.534264 0.607874 0.103395
0.564263 0.615717 0.009949
0.596857 0.623743 0.000000
0.631983 0.631922 0.000000
0.669520 0.640192 0.000000
0.706355 0.645533 0.000000
0.735866 0.640558 0.000000
0.783108 0.648768 0.000000
0.834806 0.658259 0.000000
0.882414 0.662928 0.000000
0.925261 0.662593 0.000000
0.962524 0.657465 0.000000
0.993957 0.647944 0.000000
1.000000 0.634424 0.000000
1.000000 0.617517 0.000000
1.000000 0.597803 0.000000
0.347204 0.648676 0.247807
0.348425 0.648432 0.247654
0.349950 0.648157 0.247166
0.353582 0.647425 0.246372
0.359014 0.646357 0.245182
0.366278 0.644923 0.243442
0.375097 0.643122 0.241093
0.385504 0.640864 0.238224
0.397467 0.638178 0.234989
0.410590 0.635096 0.231052
0.424781 0.631617 0.226474
0.439948 0.627588 0.221164
0.455909 0.623133 0.215274
0.472633 0.618158 0.208591
0.490669 0.615778 0.198795
0.513207 0.623011 0.178775
0.538354 0.630640 0.153353
0.566003 0.638483 0.118685
0.596368 0.646571 0.053346
0.629267 0.654871 0.000000
0.664637 0.663172 0.000000
0.702388 0.671412 0.000000
0.739193 0.676600 0.000000
0.767910 0.670710 0.000000
0.812802 0.677058 0.000000
0.863859 0.686061 0.000000
0.909911 0.689479 0.000000
0.950256 0.687556 0.000000
0.984405 0.680476 0.000000
1.000000 0.668757 0.000000
1.000000 0.653101 0.000000
1.000000 0.634302 0.000000
0.368750 0.678248 0.270756
0.369757 0.678065 0.270634
0.371252 0.677729 0.270207
0.374426 0.677150 0.269505
0.379461 0.676143 0.268345
0.386084 0.674830 0.266697
0.394293 0.673121 0.264683
0.403998 0.671077 0.262181
0.415045 0.668544 0.259007
0.427375 0.665705 0.255467
0.440864 0.662409 0.251347
0.455146 0.658747 0.246586
0.470405 0.654597 0.241154
0.486336 0.649989 0.235111
0.502800 0.645014 0.228244
0.522423 0.647364 0.215000
0.545525 0.654963 0.194644
0.571130 0.662806 0.168887
0.599298 0.670863 0.133730
0.629877 0.679072 0.076265
0.663020 0.687343 0.000000
0.698573 0.695613 0.000000
0.736507 0.703761 0.000000
0.773190 0.708553 0.000000
0.800870 0.701625 0.000000
0.842954 0.705440 0.000000
0.892943 0.713497 0.000000
0.936736 0.715267 0.000000
0.973938 0.711116 0.000000
1.000000 0.701595 0.000000
1.000000 0.687556 0.000000
1.000000 0.669703 0.000000
0.389868 0.709255 0.292973
0.390875 0.709071 0.292851
0.392279 0.708797 0.292454
0.395239 0.708248 0.291814
0.399908 0.707332 0.290623
0.406104 0.706111 0.289189
0.413855 0.704585 0.287327
0.422889 0.702663 0.285069
0.433387 0.700404 0.282383
0.445075 0.697810 0.279118
0.457862 0.694850 0.275517
0.471687 0.691432 0.271183
0.486336 0.687678 0.266392
0.501732 0.683497 0.260899
0.517784 0.678889 0.254917
0.534325 0.673915 0.248020
0.555779 0.681147 0.231510
0.579461 0.688930 0.210697
0.605554 0.696864 0.184726
0.633967 0.704982 0.149752
0.664912 0.713100 0.094850
0.698238 0.721248 0.000000
0.733944 0.729335 0.000000
0.771878 0.737179 0.000000
0.808377 0.741482 0.000000
0.834867 0.733242 0.000000
0.873686 0.734096 0.000000
0.921752 0.740475 0.000000
0.962432 0.739834 0.000000
0.995880 0.732998 0.000000
1.000000 0.720760 0.000000
1.000000 0.704097 0.000000
0.411170 0.741665 0.314946
0.412116 0.741482 0.314702
0.413489 0.741268 0.314397
0.416266 0.740719 0.313817
0.420630 0.739956 0.312902
0.426490 0.738857 0.311620
0.433783 0.737484 0.309850
0.442451 0.735805 0.307805
0.452430 0.733730 0.305364
0.463600 0.731411 0.302403
0.475959 0.728725 0.299107
0.489296 0.725704 0.295323
0.503441 0.722347 0.290959
0.518578 0.718624 0.286229
0.534295 0.714504 0.280888
0.550683 0.710079 0.274846
0.568841 0.709651 0.265324
0.590967 0.717159 0.248173
0.615167 0.724910 0.227420
0.641657 0.732784 0.201053
0.670405 0.740780 0.165927
0.701564 0.748714 0.113313
0.734920 0.756558 0.000000
0.770626 0.764218 0.000000
0.808469 0.771542 0.000000
0.844633 0.775113 0.000000
0.869688 0.765255 0.000000
0.905150 0.763180 0.000000
0.949706 0.766506 0.000000
0.986481 0.762814 0.000000
1.000000 0.752834 0.000000
1.000000 0.737636 0.000000
0.432715 0.775418 0.336950
0.433661 0.775265 0.336797
0.434943 0.775051 0.336553
0.437537 0.774594 0.335943
0.441718 0.773892 0.334997
0.447395 0.772946 0.333959
0.454261 0.771756 0.332403
0.462623 0.770260 0.330571
0.472297 0.768490 0.328496
0.483070 0.766476 0.325872
0.495003 0.764126 0.322942
0.507958 0.761532 0.319585
0.521904 0.758633 0.315709
0.536675 0.755398 0.311437
0.552300 0.751827 0.306706
0.568536 0.747951 0.301488
0.585443 0.743771 0.295720
0.605341 0.747951 0.283238
0.628016 0.755337 0.265965
0.652674 0.762875 0.244816
0.679469 0.770474 0.218601
0.708492 0.778073 0.183719
0.739590 0.785580 0.131899
0.772885 0.792905 0.000000
0.808408 0.799893 0.000000
0.845945 0.806516 0.000000
0.881559 0.809049 0.000000
0.904784 0.797238 0.000000
0.936461 0.791775 0.000000
0.976226 0.791043 0.000000
1.000000 0.783780 0.000000
1.000000 0.770291 0.000000
0.454841 0.810239 0.359594
0.455726 0.810117 0.359442
0.456977 0.809934 0.359228
0.459480 0.809598 0.358740
0.463539 0.809018 0.357916
0.468879 0.808194 0.356970
0.475624 0.807187 0.355657
0.483589 0.805966 0.353979
0.492897 0.804471 0.352056
0.503410 0.802762 0.349828
0.515099 0.800778 0.347204
0.527794 0.798611 0.344366
0.541558 0.796139 0.341009
0.556176 0.793454 0.337346
0.571679 0.790463 0.333165
