其他预设/【233】日式怀旧街道调色预设208款/1.3D LUT预设（视频调色-PR-AE-PS-FCPX-达芬奇用）/3.日式城市街拍预设 (自动曝光预设)/JA – Neon 2 (Auto-Exposure).cube
# Created by Adobe Lightroom plugin Export LUT (1.17.0)
# www.johnrellis.com/lightroom/exportlut.htm
# Preset: JA – Neon 2 (Auto-Exposure)
# Color profile: /Library/Application Support/Adobe/Color/Profiles/Recommended/AdobeRGB1998.icc
LUT_3D_SIZE 8
DOMAIN_MIN 0.000000 0.000000 0.000000
DOMAIN_MAX 0.903226 0.903226 0.903226
0.118349 0.118349 0.118349
0.144991 0.117678 0.117586
0.235935 0.116152 0.113405
0.409430 0.115755 0.095857
0.635676 0.123445 0.000000
0.817777 0.134005 0.000000
0.942809 0.127535 0.000000
1.000000 0.088594 0.000000
0.116335 0.138766 0.117128
0.136965 0.134646 0.120302
0.233371 0.143984 0.111055
0.407935 0.160250 0.090242
0.634638 0.180850 0.000000
0.817197 0.189792 0.000000
0.942351 0.181460 0.000000
1.000000 0.150179 0.000000
0.111757 0.199924 0.112795
0.141360 0.198611 0.111696
0.189151 0.181613 0.120821
0.380468 0.245060 0.084138
0.629389 0.295415 0.000000
0.814817 0.307744 0.000000
0.940826 0.294774 0.000000
1.000000 0.263066 0.000000
0.087648 0.319615 0.091707
0.138949 0.318547 0.090059
0.232944 0.311101 0.088014
0.295140 0.277684 0.108736
0.539055 0.376074 0.000000
0.808438 0.436378 0.000000
0.937011 0.420905 0.000000
1.000000 0.383581 0.000000
0.000000 0.482582 0.000000
0.108156 0.481300 0.000000
0.254520 0.477028 0.000000
0.370306 0.453986 0.000000
0.440955 0.409644 0.056916
0.693416 0.510338 0.000000
0.915404 0.547265 0.000000
1.000000 0.506035 0.000000
0.000000 0.661158 0.000000
0.000000 0.659998 0.000000
0.252293 0.656184 0.000000
0.413519 0.649592 0.000000
0.535363 0.616602 0.000000
0.624537 0.576562 0.000000
0.830777 0.636805 0.000000
0.986816 0.633295 0.000000
0.000000 0.818051 0.000000
0.000000 0.817075 0.000000
0.216037 0.813626 0.000000
0.408240 0.807645 0.000000
0.564874 0.794888 0.000000
0.691615 0.769528 0.000000
0.799649 0.740139 0.000000
0.934600 0.744717 0.122713
0.000000 0.932525 0.000000
0.000000 0.931670 0.000000
0.118105 0.928862 0.000000
0.356756 0.924132 0.000000
0.525811 0.917144 0.000000
0.675959 0.903929 0.000000
0.810727 0.884916 0.000000
0.924529 0.865049 0.221042
0.114137 0.118654 0.144045
0.143099 0.117311 0.141878
0.230045 0.108370 0.131472
0.401068 0.109102 0.117128
0.630335 0.126558 0.055604
0.816159 0.159030 0.000000
0.942443 0.160189 0.000000
1.000000 0.112398 0.000000
0.113313 0.139773 0.141573
0.139315 0.138888 0.139101
0.226902 0.141085 0.132967
0.400427 0.152712 0.113466
0.629694 0.178256 0.030152
0.815640 0.204562 0.000000
0.942077 0.202914 0.000000
1.000000 0.162905 0.000000
0.108248 0.202457 0.142123
0.132753 0.202731 0.133272
0.195438 0.188724 0.137392
0.387304 0.242679 0.104646
0.625910 0.289403 0.000000
0.813748 0.311315 0.000000
0.940673 0.304906 0.000000
1.000000 0.268376 0.000000
0.059052 0.323400 0.131868
0.109529 0.323613 0.112398
0.228916 0.318853 0.107027
0.302190 0.284825 0.127260
0.546807 0.377844 0.000000
0.807980 0.435767 0.000000
0.936980 0.425269 0.000000
1.000000 0.386023 0.000000
0.000000 0.487007 0.061524
0.000000 0.486152 0.000000
0.238468 0.481544 0.000000
0.369879 0.460578 0.000000
0.447059 0.415747 0.092226
0.696620 0.511894 0.000000
0.915007 0.548852 0.000000
1.000000 0.506828 0.000000
0.000000 0.664912 0.000000
0.000000 0.663722 0.000000
0.225834 0.659602 0.000000
0.404456 0.652644 0.000000
0.535363 0.621088 0.000000
0.626947 0.578668 0.000000
0.831174 0.637385 0.000000
0.987213 0.633478 0.000000
0.000000 0.820584 0.000000
0.000000 0.819577 0.000000
0.176486 0.816007 0.000000
0.394720 0.809689 0.000000
0.560418 0.797269 0.000000
0.692744 0.769436 0.000000
0.800229 0.740200 0.000000
0.935302 0.744961 0.123079
0.000000 0.934081 0.000000
0.000000 0.933196 0.000000
0.000000 0.930114 0.000000
0.353704 0.924468 0.000000
0.526024 0.917266 0.000000
0.676143 0.904051 0.000000
0.810910 0.885008 0.000000
0.924895 0.865080 0.222080
0.088167 0.119844 0.225650
0.133700 0.116365 0.227909
0.224796 0.102998 0.220371
0.367498 0.000000 0.213718
0.616724 0.000000 0.170352
0.810452 0.000000 0.137667
0.942565 0.000000 0.000000
1.000000 0.000000 0.000000
0.095338 0.150851 0.216495
0.116701 0.136751 0.220005
0.220859 0.125185 0.217075
0.372992 0.070405 0.206760
0.616205 0.000000 0.176608
0.809995 0.000000 0.132876
0.942168 0.070771 0.000000
1.000000 0.122927 0.000000
0.084138 0.209415 0.215244
0.111604 0.208286 0.213474
0.206638 0.205661 0.206210
0.380316 0.213657 0.197330
0.613275 0.228489 0.168521
0.808774 0.243656 0.111971
0.940887 0.251286 0.000000
1.000000 0.250217 0.000000
0.000000 0.331853 0.238407
0.025208 0.332769 0.229557
0.190341 0.332128 0.190982
0.319097 0.304326 0.199588
0.582147 0.379950 0.159762
0.804562 0.404028 0.061402
0.937926 0.396765 0.000000
1.000000 0.376410 0.000000
0.000000 0.495186 0.243626
0.000000 0.495766 0.226719
0.152895 0.495613 0.157290
0.361944 0.482002 0.147677
0.464363 0.434302 0.185183
0.720699 0.520226 0.124239
0.925048 0.537011 0.000000
1.000000 0.502190 0.000000
0.000000 0.671168 0.219883
0.000000 0.671626 0.193515
0.011719 0.670985 0.064576
0.367437 0.662593 0.000000
0.533440 0.635523 0.057801
0.638697 0.591669 0.149722
0.842222 0.642939 0.085847
0.989410 0.632380 0.000000
0.000000 0.824918 0.147372
0.000000 0.825101 0.093355
0.000000 0.823728 0.000000
0.342473 0.816648 0.000000
0.540826 0.806302 0.000000
0.690181 0.776791 0.000000
0.803494 0.744015 0.083345
0.938170 0.745541 0.123903
0.000000 0.936980 0.000000
0.000000 0.937041 0.000000
0.000000 0.935058 0.000000
0.285893 0.929076 0.000000
0.501427 0.920470 0.000000
0.671015 0.905943 0.000000
0.811276 0.885527 0.000000
0.926055 0.865324 0.225528
0.000000 0.120668 0.366125
0.069001 0.113863 0.371069
0.245121 0.069673 0.388373
0.380438 0.000000 0.370428
0.526055 0.000000 0.341100
0.773190 0.000000 0.331487
0.936797 0.000000 0.282811
1.000000 0.000000 0.241215
0.000000 0.159792 0.355962
0.000000 0.135317 0.362158
0.226322 0.106600 0.379980
0.377264 0.000000 0.367712
0.532708 0.000000 0.339330
0.777646 0.000000 0.324865
0.936095 0.000000 0.301610
1.000000 0.000000 0.235325
0.000000 0.237675 0.339727
0.000000 0.230869 0.338933
0.146731 0.192264 0.354131
0.365454 0.170230 0.357733
0.556085 0.115541 0.333165
0.791806 0.007813 0.313024
0.934356 0.177035 0.297917
1.000000 0.159335 0.219364
0.000000 0.337255 0.350866
0.000000 0.336675 0.349676
0.135317 0.335119 0.345678
0.336919 0.333196 0.335576
0.576806 0.353338 0.336461
0.789151 0.368383 0.321996
0.932067 0.365728 0.284855
1.000000 0.331914 0.194278
0.000000 0.510033 0.400580
0.000000 0.510430 0.394507
0.000000 0.510338 0.370123
0.317113 0.503319 0.317296
0.487343 0.463294 0.326024
0.756405 0.532067 0.316869
0.926970 0.523369 0.268101
1.000000 0.476631 0.154147
0.000000 0.681483 0.406470
0.000000 0.681880 0.396826
0.000000 0.682002 0.359869
0.284184 0.677882 0.286351
0.522667 0.658747 0.273869
0.654170 0.611810 0.310796
0.861601 0.655268 0.301396
0.997101 0.621149 0.153872
0.000000 0.830686 0.381292
0.000000 0.830808 0.369146
0.000000 0.830594 0.324285
0.231022 0.827268 0.237278
0.501793 0.815702 0.207187
0.683772 0.788846 0.231998
0.808286 0.753597 0.294865
0.944030 0.751766 0.300511
0.000000 0.939483 0.324102
0.000000 0.939483 0.309270
0.000000 0.938811 0.255283
0.112795 0.935668 0.135378
0.448402 0.926360 0.018830
0.646418 0.912993 0.000000
0.805417 0.889647 0.165499
0.926329 0.866667 0.293980
0.000000 0.119448 0.540978
0.000000 0.108980 0.546441
0.205112 0.013184 0.566064
0.430518 0.000000 0.600427
0.581079 0.000000 0.564080
0.698421 0.000000 0.492500
0.891112 0.000000 0.472145
1.000000 0.000000 0.435065
0.000000 0.158999 0.532189
0.000000 0.132845 0.538384
0.171542 0.090944 0.558556
0.416632 0.000000 0.594018
0.578485 0.000000 0.561669
0.697292 0.000000 0.488106
0.893523 0.000000 0.470283
1.000000 0.000000 0.439887
0.000000 0.264775 0.498787
0.000000 0.252934 0.506249
0.000000 0.185550 0.532860
0.364080 0.144564 0.570642
0.569116 0.000000 0.553796
0.699062 0.000000 0.477180
0.900908 0.000000 0.469886
1.000000 0.235691 0.468666
0.000000 0.367895 0.500786
0.000000 0.363317 0.500008
0.000000 0.345739 0.497017
0.252384 0.305760 0.523796
0.548638 0.294530 0.536889
0.728634 0.278386 0.485695
0.908415 0.369574 0.504143
0.997131 0.422614 0.499886
0.000000 0.499306 0.522454
0.000000 0.499031 0.521874
0.000000 0.498146 0.519524
0.250187 0.497932 0.514763
0.509056 0.499794 0.505791
0.750179 0.534600 0.524865
0.906981 0.548638 0.522240
0.997192 0.516289 0.469154
0.000000 0.687434 0.573968
0.000000 0.689723 0.572442
0.000000 0.696254 0.565911
0.220035 0.691859 0.534691
0.490028 0.678157 0.488014
0.667811 0.636835 0.493080
0.880919 0.680781 0.514611
0.992157 0.637476 0.451026
0.000000 0.838895 0.565820
0.000000 0.839078 0.559899
0.000000 0.838712 0.538842
0.142794 0.835172 0.502861
0.460822 0.825132 0.460060
0.673243 0.804776 0.442359
0.810178 0.765774 0.481422
0.947845 0.766537 0.490608
0.000000 0.943145 0.516106
0.000000 0.943145 0.508843
0.000000 0.942473 0.484199
0.000000 0.939025 0.447211
0.407660 0.930785 0.409247
0.619501 0.918700 0.368566
0.797116 0.895323 0.403296
0.920653 0.870481 0.481819
0.000000 0.116304 0.707454
0.000000 0.103731 0.711025
0.000000 0.000000 0.723537
0.374334 0.000000 0.745754
0.609003 0.000000 0.776059
0.758816 0.000000 0.736294
0.855344 0.000000 0.642481
0.975830 0.000000 0.586267
0.000000 0.145174 0.702266
0.000000 0.129458 0.706081
0.000000 0.081270 0.719234
0.357794 0.000000 0.742031
0.601495 0.000000 0.773129
0.757504 0.000000 0.735286
0.854795 0.000000 0.639857
0.976501 0.000000 0.585809
0.000000 0.279850 0.680415
0.000000 0.261967 0.685725
0.000000 0.180789 0.703090
0.293309 0.136294 0.728206
0.573419 0.000000 0.762081
0.752651 0.000000 0.731289
0.852476 0.000000 0.631098
0.978119 0.000000 0.587579
0.000000 0.392309 0.653468
0.000000 0.385382 0.652552
0.000000 0.359258 0.662928
0.075105 0.288975 0.698634
0.517174 0.287633 0.738338
0.741848 0.247807 0.723232
0.846464 0.153811 0.614832
0.977081 0.329686 0.609033
0.000000 0.515343 0.670619
0.000000 0.512139 0.669978
0.000000 0.500694 0.667781
0.000000 0.478950 0.663447
0.411383 0.455634 0.691249
0.721584 0.474739 0.708034
0.861448 0.474739 0.642695
0.967346 0.593194 0.679652
0.000000 0.659266 0.691096
0.000000 0.659174 0.690791
0.000000 0.659113 0.689570
0.000000 0.659815 0.687282
0.417365 0.662684 0.683345
0.682918 0.669581 0.678187
0.870298 0.709957 0.706996
0.963104 0.711513 0.699214
0.000000 0.835203 0.724025
0.000000 0.836362 0.722835
0.000000 0.839841 0.718196
0.000000 0.843534 0.709712
0.434485 0.834592 0.688106
0.669245 0.815824 0.665583
0.810605 0.782193 0.666072
0.946593 0.799313 0.690211
0.000000 0.947967 0.690333
0.000000 0.947967 0.686244
0.000000 0.947326 0.672175
0.000000 0.943969 0.649470
0.392340 0.933257 0.636072
0.642817 0.917113 0.640101
0.795407 0.901274 0.621393
0.911467 0.875700 0.660853
0.000000 0.113619 0.843442
0.000000 0.101198 0.845029
0.000000 0.000000 0.850614
0.289708 0.000000 0.860472
0.524651 0.000000 0.873930
0.738979 0.000000 0.887999
0.886503 0.000000 0.861509
0.960662 0.000000 0.757137
0.000000 0.136477 0.841276
0.000000 0.127047 0.842893
0.000000 0.080903 0.848722
0.268925 0.000000 0.858854
0.516686 0.000000 0.872618
0.736995 0.000000 0.887785
0.885771 0.000000 0.861051
0.960357 0.000000 0.755978
0.000000 0.276982 0.830961
0.000000 0.257267 0.833463
0.000000 0.178408 0.841428
0.174929 0.138186 0.852598
0.487770 0.000000 0.867582
0.726314 0.000000 0.884703
0.883116 0.000000 0.859464
0.959045 0.000000 0.752102
0.000000 0.405524 0.810483
0.000000 0.395972 0.812985
0.000000 0.358892 0.822171
0.000000 0.278630 0.838804
0.429877 0.275914 0.856535
0.704280 0.301854 0.876127
0.877195 0.241154 0.855711
0.955688 0.146914 0.745785
0.000000 0.523125 0.806851
0.000000 0.518364 0.806332
0.000000 0.500999 0.804379
0.000000 0.466011 0.805722
0.306432 0.424964 0.833982
0.669245 0.483497 0.859709
0.865904 0.475593 0.848661
0.947662 0.402808 0.739651
0.000000 0.650050 0.816892
0.000000 0.647852 0.816556
0.000000 0.640253 0.815244
0.000000 0.626062 0.812467
0.207462 0.605676 0.806760
0.595880 0.621637 0.823697
0.847807 0.663569 0.836637
0.939055 0.662654 0.777981
0.000000 0.789853 0.827085
0.000000 0.789792 0.826932
0.000000 0.789975 0.826169
0.000000 0.790677 0.824674
0.270939 0.792691 0.821622
0.606226 0.797421 0.816678
0.818418 0.806363 0.814176
0.934508 0.836759 0.836912
0.000000 0.943175 0.837552
0.000000 0.943633 0.836271
0.000000 0.944701 0.831540
0.000000 0.944579 0.822721
0.300542 0.937774 0.814450
0.634974 0.921019 0.808621
0.809262 0.903990 0.805814
0.903685 0.883604 0.805417
0.000000 0.115053 0.937560
0.000000 0.104555 0.937926
0.000000 0.033204 0.939269
0.158694 0.000000 0.941711
0.436957 0.000000 0.945098
0.639582 0.000000 0.949187
0.820462 0.000000 0.950408
0.963928 0.000000 0.938750
0.000000 0.136995 0.937011
0.000000 0.128878 0.937407
0.000000 0.092897 0.938811
0.118654 0.000000 0.941222
0.428931 0.000000 0.944671
0.636164 0.000000 0.948730
0.819669 0.000000 0.950195
0.963439 0.000000 0.938415
0.000000 0.266239 0.933623
0.000000 0.242618 0.934508
0.000000 0.181003 0.936889
0.000000 0.150668 0.939452
0.399268 0.098909 0.942931
0.624537 0.020081 0.946990
0.817655 0.108583 0.949096
0.961151 0.000000 0.937224
0.000000 0.390997 0.927398
0.000000 0.380896 0.928161
0.000000 0.346288 0.930816
0.000000 0.276677 0.935515
0.340490 0.274479 0.939178
0.605371 0.294926 0.943206
0.817014 0.366217 0.946441
0.956207 0.296452 0.934508
0.000000 0.518273 0.918395
0.000000 0.512932 0.918334
0.000000 0.489052 0.920623
0.000000 0.441413 0.926299
0.205600 0.410925 0.932219
0.578607 0.455390 0.936309
0.809934 0.536980 0.939788
0.947478 0.505516 0.929686
0.000000 0.630610 0.919463
0.000000 0.627436 0.919432
0.000000 0.615961 0.919249
0.000000 0.594171 0.918608
0.000000 0.562341 0.917479
0.528649 0.591852 0.924071
0.798337 0.675013 0.929778
0.935668 0.677974 0.923003
0.000000 0.751034 0.919982
0.000000 0.749599 0.919951
0.000000 0.744442 0.919768
0.000000 0.735622 0.919158
0.000000 0.725734 0.917113
0.432197 0.724971 0.911315
0.757229 0.768856 0.911650
0.922789 0.810330 0.915496
0.000000 0.879332 0.919402
0.000000 0.879362 0.919341
0.000000 0.879637 0.919066
0.000000 0.880369 0.918334
0.000000 0.882292 0.916258
0.499977 0.886381 0.911711
0.762173 0.891569 0.905882
0.906004 0.897978 0.903197
