其他预设/【233】日式怀旧街道调色预设208款/1.3D LUT预设（视频调色-PR-AE-PS-FCPX-达芬奇用）/3.日式城市街拍预设 (自动曝光预设)/JA – Cityscape Pop 1 (Auto-Exposure).cube
# Created by Adobe Lightroom plugin Export LUT (1.17.0)
# www.johnrellis.com/lightroom/exportlut.htm
# Preset: JA – Cityscape Pop 1 (Auto-Exposure)
# Color profile: /Library/Application Support/Adobe/Color/Profiles/Recommended/AdobeRGB1998.icc
LUT_3D_SIZE 32
0.112947 0.115755 0.117494
0.113222 0.115724 0.117494
0.113710 0.115633 0.117464
0.116213 0.115908 0.117403
0.123629 0.115938 0.117189
0.137453 0.116426 0.116732
0.159457 0.117067 0.115908
0.189181 0.118807 0.114504
0.225315 0.121126 0.112337
0.266087 0.124727 0.109468
0.311009 0.129122 0.105165
0.358618 0.135103 0.099336
0.407843 0.142489 0.091585
0.457527 0.151278 0.081239
0.506676 0.160128 0.067353
0.554131 0.169314 0.038117
0.599664 0.178317 0.000000
0.643397 0.187442 0.000000
0.684138 0.196292 0.000000
0.722744 0.203708 0.000000
0.759335 0.211215 0.000000
0.794064 0.217716 0.000000
0.826566 0.222629 0.000000
0.856718 0.227054 0.000000
0.884367 0.230228 0.000000
0.909483 0.232303 0.000000
0.932250 0.233341 0.000000
0.952941 0.233036 0.000000
0.971832 0.231815 0.000000
0.989136 0.229923 0.000000
1.000000 0.226749 0.000000
1.000000 0.222660 0.000000
0.112917 0.115999 0.117464
0.113161 0.115938 0.117464
0.113649 0.116091 0.117433
0.116396 0.116304 0.117342
0.123751 0.116823 0.117128
0.137697 0.117678 0.116640
0.159792 0.118959 0.115755
0.189700 0.120974 0.114290
0.225345 0.124025 0.112062
0.266514 0.128115 0.109102
0.311284 0.133211 0.104707
0.358953 0.139467 0.098756
0.408209 0.146853 0.090883
0.457893 0.155612 0.080415
0.506981 0.164675 0.066224
0.554284 0.173922 0.034791
0.599847 0.182864 0.000000
0.643458 0.191562 0.000000
0.684260 0.199832 0.000000
0.722835 0.207553 0.000000
0.759457 0.214664 0.000000
0.794156 0.220645 0.000000
0.826627 0.225589 0.000000
0.856748 0.229862 0.000000
0.884398 0.232792 0.000000
0.909514 0.234867 0.000000
0.932280 0.235599 0.000000
0.952972 0.235782 0.000000
0.971832 0.234409 0.000000
0.989136 0.232334 0.000000
1.000000 0.228916 0.000000
1.000000 0.224887 0.000000
0.112856 0.116457 0.117433
0.113375 0.116365 0.117433
0.113619 0.116304 0.117433
0.116793 0.117128 0.117281
0.124056 0.118074 0.117006
0.138125 0.119326 0.116487
0.160220 0.121401 0.115511
0.189975 0.124422 0.113954
0.225986 0.127810 0.111666
0.266911 0.132601 0.108614
0.311864 0.138064 0.104097
0.359472 0.145083 0.097993
0.408515 0.153048 0.089906
0.458381 0.161563 0.079194
0.507225 0.170779 0.064637
0.554589 0.179477 0.030518
0.600122 0.188479 0.000000
0.643732 0.196872 0.000000
0.684504 0.205112 0.000000
0.722927 0.212772 0.000000
0.759640 0.219242 0.000000
0.794217 0.225406 0.000000
0.826719 0.230137 0.000000
0.856840 0.233860 0.000000
0.884459 0.236912 0.000000
0.909545 0.238315 0.000000
0.932311 0.239414 0.000000
0.952941 0.239261 0.000000
0.971801 0.237736 0.000000
0.989136 0.235477 0.000000
1.000000 0.232120 0.000000
1.000000 0.227756 0.000000
0.113069 0.118349 0.117281
0.113863 0.118227 0.117250
0.114870 0.118288 0.117220
0.116579 0.118227 0.117403
0.124880 0.120485 0.116793
0.139071 0.123323 0.116121
0.161227 0.126680 0.115023
0.191196 0.131014 0.113283
0.227176 0.136172 0.110994
0.268070 0.141756 0.107515
0.312993 0.148440 0.102754
0.360327 0.156313 0.096345
0.409400 0.164431 0.087922
0.459052 0.173739 0.076539
0.507958 0.182498 0.061006
0.555230 0.191653 0.020630
0.600702 0.200015 0.000000
0.644221 0.208103 0.000000
0.684962 0.215824 0.000000
0.723293 0.222934 0.000000
0.759884 0.228977 0.000000
0.794522 0.234348 0.000000
0.826871 0.239261 0.000000
0.856962 0.242466 0.000000
0.884581 0.245304 0.000000
0.909606 0.246677 0.000000
0.932341 0.246860 0.000000
0.952941 0.246830 0.000000
0.971832 0.244968 0.000000
0.989105 0.242374 0.000000
1.000000 0.238773 0.000000
1.000000 0.234379 0.000000
0.113649 0.123110 0.116854
0.114900 0.122927 0.117037
0.116213 0.122744 0.117037
0.119295 0.123262 0.116884
0.123812 0.123171 0.116793
0.139834 0.128389 0.115816
0.163241 0.134493 0.114199
0.193118 0.141115 0.112367
0.229129 0.147921 0.109560
0.269810 0.155459 0.105715
0.314519 0.163516 0.100526
0.361913 0.172122 0.093629
0.410864 0.181552 0.084443
0.460395 0.190677 0.072175
0.509087 0.199741 0.052155
0.556146 0.208530 0.005707
0.601526 0.216526 0.000000
0.644923 0.224338 0.000000
0.685512 0.231479 0.000000
0.723873 0.237705 0.000000
0.760311 0.243503 0.000000
0.794919 0.248142 0.000000
0.827176 0.252323 0.000000
0.857206 0.255558 0.000000
0.884733 0.257420 0.000000
0.909728 0.258579 0.000000
0.932372 0.258671 0.000000
0.953002 0.257359 0.000000
0.971801 0.255467 0.000000
0.989105 0.252659 0.000000
1.000000 0.248997 0.000000
1.000000 0.244266 0.000000
0.115297 0.131777 0.116243
0.116793 0.131746 0.116213
0.118563 0.131502 0.116182
0.122805 0.131624 0.116060
0.129244 0.132509 0.115785
0.137209 0.132692 0.115724
0.163119 0.142550 0.113558
0.195224 0.152468 0.110964
0.231357 0.162753 0.107546
0.272251 0.172152 0.103182
0.316655 0.181979 0.097353
0.364080 0.191928 0.089662
0.412696 0.201999 0.079469
0.462104 0.211429 0.065614
0.510521 0.220859 0.033997
0.557702 0.229129 0.000000
0.602716 0.237247 0.000000
0.645960 0.244327 0.000000
0.686275 0.250828 0.000000
0.724544 0.256260 0.000000
0.760922 0.261662 0.000000
0.795407 0.265812 0.000000
0.827604 0.269383 0.000000
0.857511 0.271794 0.000000
0.884947 0.273106 0.000000
0.909850 0.273381 0.000000
0.932494 0.272984 0.000000
0.953063 0.271641 0.000000
0.971801 0.269261 0.000000
0.989075 0.266087 0.000000
1.000000 0.261723 0.000000
1.000000 0.256992 0.000000
0.118074 0.145998 0.114687
0.120302 0.145724 0.114687
0.122683 0.145571 0.114626
0.127810 0.145052 0.114534
0.135714 0.146242 0.114351
0.146487 0.148226 0.113771
0.158663 0.148440 0.113313
0.194095 0.162814 0.109957
0.233707 0.176883 0.105379
0.274968 0.189456 0.100130
0.319707 0.202670 0.093111
0.366583 0.213840 0.084352
0.415137 0.224552 0.072602
0.464302 0.234867 0.053925
0.512627 0.243992 0.009155
0.559197 0.252567 0.000000
0.604181 0.260319 0.000000
0.647242 0.267094 0.000000
0.687465 0.272862 0.000000
0.725490 0.278202 0.000000
0.761685 0.282689 0.000000
0.796017 0.286107 0.000000
0.828092 0.288853 0.000000
0.857908 0.290501 0.000000
0.885252 0.291417 0.000000
0.910063 0.291295 0.000000
0.932555 0.290318 0.000000
0.953094 0.288151 0.000000
0.971801 0.285435 0.000000
0.989014 0.281743 0.000000
1.000000 0.277226 0.000000
1.000000 0.272038 0.000000
0.122499 0.166812 0.112306
0.125093 0.166506 0.112245
0.128267 0.166262 0.112184
0.134859 0.165438 0.112093
0.144198 0.165652 0.111971
0.156802 0.167941 0.111177
0.172610 0.170901 0.110109
0.188296 0.171084 0.109346
0.231235 0.189212 0.103822
0.275853 0.205814 0.096956
0.322545 0.221408 0.088533
0.369543 0.235660 0.077790
0.418280 0.248997 0.062898
0.466896 0.259922 0.027375
0.514977 0.269535 0.000000
0.561303 0.277897 0.000000
0.605921 0.285252 0.000000
0.648859 0.291630 0.000000
0.688655 0.297124 0.000000
0.726558 0.301823 0.000000
0.762661 0.305455 0.000000
0.796750 0.308537 0.000000
0.828733 0.310521 0.000000
0.858366 0.311803 0.000000
0.885557 0.311925 0.000000
0.910277 0.311498 0.000000
0.932677 0.309789 0.000000
0.953124 0.307042 0.000000
0.971801 0.303746 0.000000
0.988983 0.299413 0.000000
1.000000 0.294835 0.000000
1.000000 0.289158 0.000000
0.129061 0.194217 0.108492
0.131960 0.193790 0.108461
0.135805 0.193515 0.108370
0.143557 0.192508 0.108492
0.154879 0.191257 0.108248
0.168917 0.193362 0.107301
0.186221 0.196628 0.105928
0.206516 0.200534 0.104128
0.224857 0.199741 0.103334
0.273625 0.220279 0.095094
0.322210 0.238621 0.084627
0.373144 0.256077 0.070497
0.421485 0.270665 0.047272
0.470222 0.284398 0.000000
0.517815 0.295567 0.000000
0.563745 0.304173 0.000000
0.608118 0.311498 0.000000
0.650752 0.318212 0.000000
0.690272 0.323308 0.000000
0.727871 0.327123 0.000000
0.763729 0.330449 0.000000
0.797665 0.332738 0.000000
0.829465 0.334295 0.000000
0.858946 0.335027 0.000000
0.885954 0.334417 0.000000
0.910521 0.333104 0.000000
0.932860 0.330816 0.000000
0.953155 0.327977 0.000000
0.971771 0.323796 0.000000
0.988922 0.319188 0.000000
1.000000 0.313909 0.000000
1.000000 0.308110 0.000000
0.137606 0.226444 0.102632
0.140932 0.225925 0.102602
0.145449 0.225681 0.102480
0.154452 0.224582 0.102571
0.167056 0.223178 0.102296
0.182315 0.223117 0.101778
0.200900 0.226505 0.100038
0.222263 0.230442 0.097749
0.246647 0.235142 0.094789
0.266911 0.232944 0.093568
0.319860 0.254887 0.081209
0.371252 0.274174 0.064820
0.423926 0.292027 0.021149
0.473243 0.306584 0.000000
0.520653 0.319371 0.000000
0.566735 0.330816 0.000000
0.610712 0.338476 0.000000
0.652918 0.344671 0.000000
0.692042 0.349920 0.000000
0.729397 0.353918 0.000000
0.765011 0.356664 0.000000
0.798734 0.358526 0.000000
0.830289 0.359380 0.000000
0.859586 0.359258 0.000000
0.886412 0.358495 0.000000
0.910826 0.356451 0.000000
0.933013 0.353582 0.000000
0.953246 0.349828 0.000000
0.971801 0.345281 0.000000
0.988830 0.340215 0.000000
1.000000 0.334478 0.000000
1.000000 0.328130 0.000000
0.148135 0.262272 0.094209
0.151919 0.261845 0.094148
0.156985 0.261418 0.094026
0.166598 0.260441 0.093812
0.180484 0.258854 0.093782
0.196597 0.256870 0.093599
0.216159 0.259312 0.091585
0.238346 0.263401 0.088624
0.263554 0.268040 0.085115
0.291264 0.273259 0.080262
0.312871 0.269474 0.078798
0.368872 0.291936 0.058442
0.421485 0.311192 0.000885
0.474006 0.328466 0.000000
0.523705 0.342840 0.000000
0.569360 0.354131 0.000000
0.613367 0.364172 0.000000
0.655238 0.372564 0.000000
0.694118 0.377050 0.000000
0.731167 0.380774 0.000000
0.766476 0.383703 0.000000
0.799893 0.385016 0.000000
0.831266 0.385595 0.000000
0.860258 0.385077 0.000000
0.886900 0.383368 0.000000
0.911131 0.380835 0.000000
0.933196 0.377386 0.000000
0.953307 0.372992 0.000000
0.971771 0.368078 0.000000
0.988739 0.362463 0.000000
1.000000 0.356146 0.000000
1.000000 0.349523 0.000000
0.160281 0.301061 0.081636
0.164401 0.300664 0.081544
0.169741 0.300084 0.081422
0.179751 0.298985 0.081514
0.194644 0.297307 0.081117
0.212131 0.295201 0.080873
0.231785 0.294682 0.079957
0.254917 0.298650 0.075990
0.280400 0.303044 0.070893
0.308782 0.308171 0.063935
0.338415 0.313115 0.052796
0.361273 0.308293 0.049744
0.419043 0.330297 0.000000
0.471839 0.348821 0.000000
0.523033 0.364782 0.000000
0.572290 0.378363 0.000000
0.615778 0.388159 0.000000
0.657435 0.396765 0.000000
0.696223 0.403967 0.000000
0.733150 0.408576 0.000000
0.768063 0.411353 0.000000
0.801175 0.412665 0.000000
0.832242 0.412512 0.000000
0.861112 0.411353 0.000000
0.887480 0.409369 0.000000
0.911498 0.406073 0.000000
0.933410 0.401953 0.000000
0.953399 0.397101 0.000000
0.971740 0.391669 0.000000
0.988647 0.385443 0.000000
1.000000 0.378820 0.000000
1.000000 0.371710 0.000000
0.174350 0.341131 0.062348
0.178195 0.340978 0.062074
0.183627 0.340368 0.061952
0.194034 0.339330 0.062013
0.209506 0.337591 0.061860
0.227756 0.335302 0.061555
0.247837 0.332555 0.061036
0.271092 0.335149 0.054597
0.297063 0.339330 0.040009
0.325536 0.344427 0.019013
0.356542 0.349920 0.000000
0.386481 0.353307 0.000000
0.411170 0.348058 0.000000
0.469276 0.368841 0.000000
0.520653 0.385748 0.000000
0.569940 0.400000 0.000000
0.617212 0.412238 0.000000
0.659785 0.421118 0.000000
0.698116 0.427771 0.000000
0.734890 0.433783 0.000000
0.769833 0.439002 0.000000
0.802701 0.440650 0.000000
0.833402 0.440070 0.000000
0.861967 0.438422 0.000000
0.888121 0.435737 0.000000
0.911925 0.431891 0.000000
0.933654 0.427436 0.000000
0.953491 0.422065 0.000000
0.971710 0.415900 0.000000
0.988556 0.409369 0.000000
1.000000 0.402167 0.000000
1.000000 0.394537 0.000000
0.189212 0.382574 0.002136
0.193362 0.381994 0.002106
0.198550 0.381567 0.001556
0.209232 0.380468 0.001678
0.224552 0.378637 0.001556
0.243626 0.376226 0.000793
0.264286 0.373480 0.000458
0.287205 0.372381 0.000000
0.313329 0.376471 0.000000
0.341741 0.381140 0.000000
0.372625 0.386328 0.000000
0.405493 0.392218 0.000000
0.435218 0.393835 0.000000
0.460914 0.387701 0.000000
0.517418 0.406256 0.000000
0.567681 0.421698 0.000000
0.615045 0.434241 0.000000
0.659785 0.444770 0.000000
0.700252 0.452369 0.000000
0.736629 0.457832 0.000000
0.771359 0.462501 0.000000
0.804074 0.466590 0.000000
0.834653 0.468238 0.000000
0.862882 0.466011 0.000000
0.888731 0.462898 0.000000
0.912352 0.458473 0.000000
0.933867 0.453285 0.000000
0.953552 0.447486 0.000000
0.971679 0.440803 0.000000
0.988434 0.433722 0.000000
1.000000 0.426154 0.000000
1.000000 0.418097 0.000000
0.204807 0.423713 0.000000
0.208713 0.423255 0.000000
0.213901 0.422553 0.000000
0.224643 0.421607 0.000000
0.240208 0.419745 0.000000
0.259068 0.417609 0.000000
0.280644 0.414710 0.000000
0.302953 0.411231 0.000000
0.328801 0.413489 0.000000
0.357336 0.417945 0.000000
0.387671 0.422736 0.000000
0.420142 0.428016 0.000000
0.454505 0.433661 0.000000
0.483467 0.433387 0.000000
0.509636 0.426703 0.000000
0.564080 0.442481 0.000000
0.612543 0.456336 0.000000
0.657465 0.467201 0.000000
0.699062 0.475654 0.000000
0.738430 0.482551 0.000000
0.773007 0.486854 0.000000
0.805417 0.490242 0.000000
0.835721 0.492439 0.000000
0.863859 0.493050 0.000000
0.889464 0.490272 0.000000
0.912779 0.485389 0.000000
0.934112 0.479713 0.000000
0.953643 0.473213 0.000000
0.971618 0.466224 0.000000
0.988251 0.458625 0.000000
1.000000 0.450568 0.000000
1.000000 0.442115 0.000000
0.220554 0.464179 0.000000
0.224430 0.463844 0.000000
0.229282 0.463294 0.000000
0.239933 0.462135 0.000000
0.255497 0.460365 0.000000
0.274601 0.458137 0.000000
0.295811 0.455299 0.000000
0.318944 0.451881 0.000000
0.343664 0.450080 0.000000
0.371557 0.454170 0.000000
0.401801 0.458503 0.000000
0.433845 0.463416 0.000000
0.467414 0.468574 0.000000
0.502739 0.474159 0.000000
0.529900 0.471290 0.000000
0.556390 0.463813 0.000000
0.608545 0.477241 0.000000
0.654963 0.489601 0.000000
0.697047 0.498268 0.000000
0.736538 0.505425 0.000000
0.773617 0.510948 0.000000
0.806882 0.514366 0.000000
0.836851 0.516320 0.000000
0.864652 0.516472 0.000000
0.890105 0.515373 0.000000
0.913237 0.512779 0.000000
0.934356 0.506493 0.000000
0.953735 0.499550 0.000000
0.971588 0.491920 0.000000
0.988098 0.483894 0.000000
1.000000 0.475349 0.000000
1.000000 0.466468 0.000000
0.236027 0.503502 0.000000
0.240116 0.502953 0.000000
0.244633 0.502647 0.000000
0.255436 0.501457 0.000000
0.270115 0.499947 0.000000
0.288884 0.497658 0.000000
0.310307 0.494728 0.000000
0.333654 0.491371 0.000000
0.358038 0.487526 0.000000
0.385199 0.489265 0.000000
0.414527 0.493294 0.000000
0.445899 0.497658 0.000000
0.478798 0.502495 0.000000
0.513298 0.507469 0.000000
0.549340 0.512810 0.000000
0.574517 0.507622 0.000000
0.601038 0.499519 0.000000
0.650813 0.510521 0.000000
0.694820 0.520958 0.000000
0.734615 0.528283 0.000000
0.771939 0.533928 0.000000
0.806546 0.538048 0.000000
0.838010 0.540490 0.000000
0.865537 0.540185 0.000000
0.890715 0.538628 0.000000
0.913634 0.535973 0.000000
0.934600 0.532525 0.000000
0.953796 0.525963 0.000000
0.971496 0.517937 0.000000
0.987915 0.509422 0.000000
1.000000 0.500359 0.000000
1.000000 0.491157 0.000000
0.251347 0.541161 0.000000
0.255344 0.540673 0.000000
0.259770 0.540276 0.000000
0.269932 0.539269 0.000000
0.284642 0.537560 0.000000
0.302983 0.535515 0.000000
0.324132 0.532738 0.000000
0.347265 0.529442 0.000000
0.371618 0.525750 0.000000
0.397681 0.523400 0.000000
0.426520 0.527092 0.000000
0.457221 0.531182 0.000000
0.489631 0.535698 0.000000
0.523430 0.540459 0.000000
0.558709 0.545525 0.000000
0.595178 0.550896 0.000000
0.618738 0.543603 0.000000
0.645075 0.534813 0.000000
0.691127 0.542565 0.000000
0.732540 0.551110 0.000000
0.770138 0.556939 0.000000
0.804929 0.561059 0.000000
0.837003 0.563622 0.000000
0.866270 0.564080 0.000000
0.891356 0.562097 0.000000
0.914061 0.558984 0.000000
0.934813 0.555047 0.000000
0.953857 0.550378 0.000000
0.971405 0.544213 0.000000
0.987732 0.535210 0.000000
1.000000 0.525811 0.000000
1.000000 0.516106 0.000000
0.267033 0.578515 0.000000
0.270603 0.578149 0.000000
0.275181 0.577630 0.000000
0.284642 0.576715 0.000000
0.299138 0.575158 0.000000
0.317113 0.573114 0.000000
0.337896 0.570642 0.000000
0.360967 0.567559 0.000000
0.385290 0.563928 0.000000
0.410834 0.559930 0.000000
0.438697 0.561273 0.000000
0.468818 0.565179 0.000000
0.500786 0.569512 0.000000
0.534112 0.573999 0.000000
0.568688 0.578851 0.000000
0.604395 0.583734 0.000000
0.641016 0.588861 0.000000
0.662074 0.578729 0.000000
0.687434 0.568933 0.000000
0.729854 0.573388 0.000000
0.768276 0.579858 0.000000
0.803342 0.584131 0.000000
0.835477 0.586603 0.000000
0.864927 0.586969 0.000000
0.891417 0.585595 0.000000
0.914488 0.582238 0.000000
0.935088 0.577752 0.000000
0.953948 0.572564 0.000000
0.971374 0.566827 0.000000
0.987488 0.560632 0.000000
1.000000 0.551324 0.000000
1.000000 0.541192 0.000000
0.282780 0.616175 0.000000
0.286229 0.615747 0.000000
0.290532 0.615381 0.000000
0.299748 0.614527 0.000000
0.313634 0.613092 0.000000
0.331121 0.611170 0.000000
0.351904 0.608820 0.000000
0.374670 0.605768 0.000000
0.399023 0.602411 0.000000
0.424720 0.598627 0.000000
0.451545 0.596063 0.000000
0.480964 0.599634 0.000000
0.512108 0.603540 0.000000
0.544518 0.607568 0.000000
0.578302 0.611841 0.000000
0.613123 0.616266 0.000000
0.648829 0.620752 0.000000
0.685206 0.625391 0.000000
0.703517 0.612512 0.000000
0.727840 0.601526 0.000000
0.766476 0.602869 0.000000
0.801602 0.607111 0.000000
0.833951 0.609552 0.000000
0.863462 0.609918 0.000000
0.890135 0.608423 0.000000
0.914092 0.605341 0.000000
0.935302 0.600763 0.000000
0.954040 0.595117 0.000000
0.971313 0.588861 0.000000
0.987366 0.582208 0.000000
1.000000 0.575219 0.000000
1.000000 0.566430 0.000000
0.298405 0.652827 0.000000
0.301732 0.652491 0.000000
0.305943 0.652064 0.000000
0.314672 0.651331 0.000000
0.328344 0.649958 0.000000
0.345495 0.648066 0.000000
0.365423 0.645960 0.000000
0.387732 0.643305 0.000000
0.412055 0.640070 0.000000
0.437659 0.636500 0.000000
0.464149 0.632532 0.000000
0.492622 0.633478 0.000000
0.522881 0.636866 0.000000
0.554559 0.640497 0.000000
0.587427 0.644312 0.000000
0.621363 0.648157 0.000000
0.655970 0.652247 0.000000
0.691524 0.656336 0.000000
0.727504 0.660456 0.000000
0.742947 0.644800 0.000000
0.765866 0.632593 0.000000
0.800778 0.630732 0.000000
0.832364 0.632471 0.000000
0.862028 0.632898 0.000000
0.888762 0.631281 0.000000
0.912810 0.628016 0.000000
0.934539 0.623377 0.000000
0.954131 0.617823 0.000000
0.971283 0.611109 0.000000
0.987243 0.603967 0.000000
1.000000 0.596551 0.000000
1.000000 0.588922 0.000000
0.313664 0.688228 0.000000
0.316777 0.687953 0.000000
0.320500 0.687617 0.000000
0.329198 0.686854 0.000000
0.342199 0.685634 0.000000
0.358831 0.684047 0.000000
0.378363 0.681941 0.000000
0.400397 0.679408 0.000000
0.424353 0.676570 0.000000
0.449836 0.673182 0.000000
0.476478 0.669398 0.000000
0.503868 0.666621 0.000000
0.533379 0.669642 0.000000
0.564172 0.672816 0.000000
0.595972 0.676112 0.000000
0.628931 0.679530 0.000000
0.662745 0.683040 0.000000
0.697230 0.686580 0.000000
0.732174 0.690181 0.000000
0.767483 0.693538 0.000000
0.780117 0.675227 0.000000
0.801450 0.661646 0.000000
0.832547 0.656825 0.000000
0.860472 0.655848 0.000000
0.887327 0.654200 0.000000
0.911498 0.650813 0.000000
0.933257 0.646021 0.000000
0.953033 0.640253 0.000000
0.971099 0.633539 0.000000
0.987060 0.626001 0.000000
1.000000 0.618128 0.000000
1.000000 0.610040 0.000000
0.328161 0.722316 0.000000
0.331029 0.722103 0.000000
0.334691 0.721859 0.000000
0.343236 0.721065 0.000000
0.355901 0.719936 0.000000
0.371740 0.718441 0.000000
0.390753 0.716609 0.000000
0.412482 0.714229 0.000000
0.436194 0.711574 0.000000
0.461311 0.708400 0.000000
0.487739 0.705013 0.000000
0.514855 0.701137 0.000000
0.543206 0.701656 0.000000
0.573205 0.704280 0.000000
0.604150 0.707179 0.000000
0.636225 0.710140 0.000000
0.668910 0.713100 0.000000
0.702419 0.716030 0.000000
0.736355 0.719081 0.000000
0.770626 0.722072 0.000000
0.802884 0.722896 0.000000
0.814633 0.703578 0.000000
0.834257 0.688746 0.000000
0.861570 0.680873 0.000000
0.885801 0.677150 0.000000
0.910033 0.673640 0.000000
0.931914 0.668757 0.000000
0.951781 0.662684 0.000000
0.969940 0.655726 0.000000
0.986603 0.648127 0.000000
1.000000 0.639918 0.000000
1.000000 0.631434 0.000000
0.342046 0.755093 0.000000
0.344701 0.754849 0.000000
0.348608 0.754482 0.000000
0.356725 0.753841 0.000000
0.368597 0.752834 0.000000
0.384253 0.751369 0.000000
0.402594 0.749722 0.000000
0.423651 0.747646 0.000000
0.446967 0.745083 0.000000
0.471870 0.742245 0.000000
0.497932 0.739071 0.000000
0.524895 0.735531 0.000000
0.552544 0.732692 0.000000
0.581720 0.734981 0.000000
0.611780 0.737362 0.000000
0.642847 0.739773 0.000000
0.674556 0.742214 0.000000
0.707027 0.744686 0.000000
0.739834 0.747097 0.000000
0.773068 0.749477 0.000000
0.806455 0.751766 0.000000
0.835447 0.749874 0.000000
0.846342 0.729946 0.000000
0.864012 0.713619 0.000000
0.887694 0.702754 0.000000
0.908537 0.696559 0.000000
0.930510 0.691463 0.000000
0.950439 0.685267 0.000000
0.968688 0.678065 0.000000
0.985412 0.670222 0.000000
1.000000 0.661738 0.000000
1.000000 0.652918 0.000000
0.355474 0.785916 0.000000
0.357946 0.785763 0.000000
0.361364 0.785519 0.000000
0.369207 0.784878 0.000000
0.380865 0.783963 0.000000
0.395636 0.782712 0.000000
0.413611 0.781094 0.000000
0.434241 0.779202 0.000000
0.456977 0.776883 0.000000
0.481239 0.774350 0.000000
0.506981 0.771481 0.000000
0.533867 0.768185 0.000000
0.561608 0.764614 0.000000
0.589715 0.764523 0.000000
0.618677 0.766445 0.000000
0.648798 0.768368 0.000000
0.679591 0.770260 0.000000
0.710872 0.772183 0.000000
0.742672 0.773983 0.000000
0.774716 0.775784 0.000000
0.806851 0.777462 0.000000
0.838926 0.779110 0.000000
0.865019 0.774868 0.000000
0.874876 0.753964 0.000000
0.890715 0.736080 0.000000
0.911162 0.722744 0.000000
0.929046 0.714351 0.000000
0.949004 0.707942 0.000000
0.967285 0.700587 0.000000
0.984100 0.692500 0.000000
0.999695 0.683772 0.000000
1.000000 0.674708 0.000000
0.367712 0.814969 0.000000
0.370062 0.814817 0.000000
0.373602 0.814511 0.000000
0.381018 0.813993 0.000000
0.392065 0.813138 0.000000
0.406287 0.812009 0.000000
0.423621 0.810605 0.000000
0.443702 0.808804 0.000000
0.465766 0.806790 0.000000
0.489754 0.804410 0.000000
0.515190 0.801785 0.000000
0.541680 0.798856 0.000000
0.569055 0.795621 0.000000
0.596887 0.792844 0.000000
0.624964 0.794217 0.000000
0.653925 0.795621 0.000000
0.683711 0.797024 0.000000
0.713954 0.798306 0.000000
0.744625 0.799619 0.000000
0.775082 0.800870 0.000000
0.805905 0.802060 0.000000
0.836942 0.803067 0.000000
0.868101 0.804013 0.000000
0.891539 0.797391 0.000000
0.900511 0.775631 0.000000
0.914580 0.756527 0.000000
0.932250 0.741146 0.000000
0.947814 0.731014 0.000000
0.965728 0.723262 0.000000
0.982635 0.714992 0.000000
0.998291 0.706142 0.000000
1.000000 0.696834 0.000000
0.378912 0.841825 0.000000
0.381140 0.841703 0.000000
0.384436 0.841459 0.000000
0.391577 0.840970 0.000000
0.402289 0.840177 0.000000
0.416114 0.839139 0.000000
0.432624 0.837888 0.000000
0.452094 0.836301 0.000000
0.473640 0.834470 0.000000
0.497169 0.832303 0.000000
0.521996 0.829923 0.000000
0.548058 0.827237 0.000000
0.574945 0.824369 0.000000
0.602716 0.821195 0.000000
0.630335 0.820493 0.000000
0.658259 0.821439 0.000000
0.686976 0.822293 0.000000
0.715541 0.823209 0.000000
0.744564 0.824033 0.000000
0.773983 0.824826 0.000000
0.803799 0.825437 0.000000
0.833890 0.825925 0.000000
0.864073 0.826322 0.000000
0.894377 0.826535 0.000000
0.915312 0.817716 0.000000
0.923430 0.795377 0.000000
0.935912 0.775113 0.000000
0.951171 0.758206 0.000000
0.964904 0.746639 0.000000
0.980926 0.737667 0.000000
0.996674 0.728725 0.000000
1.000000 0.719326 0.000000
0.389227 0.866545 0.000000
0.391363 0.866423 0.000000
0.394629 0.866209 0.000000
0.401129 0.865782 0.000000
0.411505 0.865049 0.000000
0.424720 0.864134 0.000000
0.440742 0.863005 0.000000
0.459571 0.861540 0.000000
0.480476 0.859892 0.000000
0.503227 0.857969 0.000000
0.527550 0.855802 0.000000
0.553124 0.853391 0.000000
0.579736 0.850736 0.000000
0.607019 0.847959 0.000000
0.634272 0.845304 0.000000
