其他预设/【233】日式怀旧街道调色预设208款/1.3D LUT预设（视频调色-PR-AE-PS-FCPX-达芬奇用）/3.日式城市街拍预设 (自动曝光预设)/JA – Cityscape Pop 1 (Auto-Exposure).cube
# Created by Adobe Lightroom plugin Export LUT (1.17.0)
# www.johnrellis.com/lightroom/exportlut.htm
# Preset: JA – Cityscape Pop 1 (Auto-Exposure)
# Color profile: /Library/Application Support/Adobe/Color/Profiles/Recommended/AdobeRGB1998.icc
LUT_3D_SIZE 8
DOMAIN_MIN 0.000000 0.000000 0.000000
DOMAIN_MAX 0.903226 0.903226 0.903226
0.112947 0.115755 0.117494
0.123629 0.115938 0.117189
0.225315 0.121126 0.112337
0.407843 0.142489 0.091585
0.599664 0.178317 0.000000
0.759335 0.211215 0.000000
0.884367 0.230228 0.000000
0.971832 0.231815 0.000000
0.113649 0.123110 0.116854
0.123812 0.123171 0.116793
0.229129 0.147921 0.109560
0.410864 0.181552 0.084443
0.601526 0.216526 0.000000
0.760311 0.243503 0.000000
0.884733 0.257420 0.000000
0.971801 0.255467 0.000000
0.129061 0.194217 0.108492
0.154879 0.191257 0.108248
0.224857 0.199741 0.103334
0.421485 0.270665 0.047272
0.608118 0.311498 0.000000
0.763729 0.330449 0.000000
0.885954 0.334417 0.000000
0.971771 0.323796 0.000000
0.174350 0.341131 0.062348
0.209506 0.337591 0.061860
0.297063 0.339330 0.040009
0.411170 0.348058 0.000000
0.617212 0.412238 0.000000
0.769833 0.439002 0.000000
0.888121 0.435737 0.000000
0.971710 0.415900 0.000000
0.236027 0.503502 0.000000
0.270115 0.499947 0.000000
0.358038 0.487526 0.000000
0.478798 0.502495 0.000000
0.601038 0.499519 0.000000
0.771939 0.533928 0.000000
0.890715 0.538628 0.000000
0.971496 0.517937 0.000000
0.298405 0.652827 0.000000
0.328344 0.649958 0.000000
0.412055 0.640070 0.000000
0.522881 0.636866 0.000000
0.655970 0.652247 0.000000
0.765866 0.632593 0.000000
0.888762 0.631281 0.000000
0.971283 0.611109 0.000000
0.355474 0.785916 0.000000
0.380865 0.783963 0.000000
0.456977 0.776883 0.000000
0.561608 0.764614 0.000000
0.679591 0.770260 0.000000
0.806851 0.777462 0.000000
0.890715 0.736080 0.000000
0.967285 0.700587 0.000000
0.398322 0.889281 0.000000
0.419776 0.887938 0.000000
0.486152 0.883268 0.000000
0.580285 0.875547 0.000000
0.686244 0.869108 0.000000
0.796689 0.868711 0.000000
0.911009 0.866514 0.000000
0.972290 0.808347 0.000000
0.111543 0.115572 0.133974
0.122133 0.115785 0.128450
0.226688 0.095247 0.122805
0.409033 0.112642 0.105165
0.600671 0.152010 0.041657
0.760281 0.192996 0.000000
0.884886 0.228580 0.000000
0.971954 0.242954 0.000000
0.108431 0.126955 0.132174
0.124300 0.127474 0.129488
0.229252 0.134829 0.122316
0.412055 0.160067 0.099763
0.602625 0.194919 0.010559
0.761257 0.227451 0.000000
0.885283 0.255375 0.000000
0.971954 0.264836 0.000000
0.095247 0.208194 0.124910
0.140688 0.208072 0.120363
0.231571 0.207126 0.117037
0.422675 0.263188 0.075654
0.609247 0.297185 0.000000
0.764797 0.317510 0.000000
0.886564 0.331182 0.000000
0.971984 0.329686 0.000000
0.127810 0.357275 0.078950
0.185275 0.353643 0.081788
0.293706 0.348363 0.076875
0.416754 0.353765 0.042451
0.619745 0.409277 0.000000
0.770871 0.431434 0.000000
0.888731 0.432532 0.000000
0.971954 0.419287 0.000000
0.199893 0.515435 0.000000
0.244816 0.511650 0.000000
0.349279 0.498329 0.000000
0.477455 0.507622 0.000000
0.604089 0.503075 0.000000
0.773434 0.532555 0.000000
0.891356 0.537072 0.000000
0.971771 0.519707 0.000000
0.270390 0.660792 0.000000
0.305425 0.657832 0.000000
0.399878 0.647517 0.000000
0.517601 0.640345 0.000000
0.654688 0.655116 0.000000
0.767269 0.634607 0.000000
0.889403 0.631281 0.000000
0.971588 0.611902 0.000000
0.332403 0.790585 0.000000
0.360571 0.788571 0.000000
0.443397 0.781277 0.000000
0.554223 0.768582 0.000000
0.675654 0.771908 0.000000
0.805447 0.778714 0.000000
0.891020 0.736782 0.000000
0.967620 0.701076 0.000000
0.379034 0.891722 0.000000
0.401831 0.890349 0.000000
0.472724 0.885527 0.000000
0.574304 0.877073 0.000000
0.686244 0.869444 0.000000
0.796597 0.869017 0.000000
0.910887 0.866789 0.000000
0.972412 0.808652 0.000000
0.082094 0.109224 0.285100
0.132967 0.105013 0.273289
0.210361 0.109621 0.228885
0.390051 0.018799 0.244785
0.601923 0.000000 0.189120
0.761227 0.000000 0.161105
0.886748 0.127657 0.095796
0.973968 0.174502 0.000000
0.000000 0.123415 0.283635
0.106935 0.125582 0.270359
0.214572 0.137179 0.231388
0.400641 0.097780 0.237430
0.602533 0.003388 0.192905
0.762051 0.129732 0.158022
0.887083 0.177615 0.088746
0.973938 0.207034 0.000000
0.000000 0.234867 0.261662
0.053468 0.232181 0.256138
0.228641 0.232395 0.235294
0.418769 0.239353 0.216007
0.607782 0.254429 0.186252
0.765255 0.271702 0.143069
0.888151 0.285405 0.054597
0.973877 0.291356 0.000000
0.000000 0.385290 0.258213
0.000000 0.387060 0.243137
0.255680 0.381384 0.211154
0.423224 0.372717 0.208164
0.618494 0.402716 0.163485
0.770840 0.410193 0.109682
0.890043 0.407050 0.000000
0.973693 0.395911 0.000000
0.000000 0.545159 0.191714
0.000000 0.545495 0.160494
0.299535 0.532464 0.174594
0.464973 0.522423 0.170535
0.609216 0.516258 0.166018
0.775784 0.532250 0.056794
0.892363 0.528801 0.000000
0.973297 0.506798 0.000000
0.069490 0.686152 0.084138
0.187411 0.682948 0.096407
0.348791 0.671595 0.114229
0.497078 0.651759 0.114900
0.647059 0.663722 0.086397
0.768734 0.643122 0.085542
0.890440 0.632044 0.000000
0.972808 0.607965 0.000000
0.234531 0.805722 0.000000
0.280308 0.803494 0.000000
0.393988 0.795499 0.000000
0.527611 0.781613 0.000000
0.661402 0.776791 0.000000
0.798398 0.782803 0.000000
0.890074 0.741817 0.000000
0.968292 0.702296 0.000000
0.306493 0.899657 0.000000
0.336004 0.898192 0.000000
0.425422 0.892973 0.000000
0.543633 0.883757 0.000000
0.669368 0.872038 0.000000
0.788724 0.870909 0.000000
0.908507 0.868009 0.000000
0.972839 0.809781 0.000000
0.000000 0.085023 0.512230
0.102602 0.078035 0.501091
0.257511 0.060426 0.461463
0.371679 0.113924 0.399268
0.553246 0.134340 0.410040
0.745205 0.000000 0.383062
0.880430 0.072938 0.340948
0.968505 0.176608 0.306218
0.000000 0.110689 0.511101
0.000000 0.117067 0.500053
0.251652 0.117708 0.465492
0.375402 0.156741 0.400916
0.559533 0.173709 0.410376
0.748379 0.080842 0.379034
0.879728 0.171389 0.346349
0.968750 0.204349 0.302007
0.000000 0.255344 0.503593
0.000000 0.238010 0.499641
0.216983 0.239475 0.469947
0.387915 0.265202 0.405951
0.580163 0.271977 0.406561
0.755428 0.255131 0.368139
0.880461 0.288334 0.343877
0.969116 0.286290 0.290623
0.000000 0.419806 0.469062
0.000000 0.417670 0.464546
0.158053 0.412696 0.447486
0.410132 0.409186 0.410651
0.601038 0.411841 0.392218
0.759243 0.414649 0.368566
0.882444 0.410956 0.333593
0.969116 0.392859 0.275853
0.000000 0.575799 0.445014
0.000000 0.575860 0.437751
0.168032 0.573114 0.409613
0.430915 0.555383 0.384924
0.604486 0.543053 0.387518
0.767239 0.549279 0.356298
0.885039 0.536339 0.316899
0.969024 0.505241 0.250919
0.000000 0.709712 0.389654
0.000000 0.709071 0.380621
0.213077 0.705379 0.352514
0.457374 0.686793 0.354894
0.627405 0.675349 0.350744
0.763302 0.661646 0.359319
0.885557 0.646265 0.306706
0.968750 0.614038 0.212955
0.000000 0.824857 0.314672
0.000000 0.823880 0.307286
0.307195 0.817136 0.322240
0.482063 0.802182 0.313664
0.636896 0.782589 0.306950
0.782315 0.788540 0.305699
0.883055 0.754238 0.315984
0.964324 0.711635 0.216678
0.165011 0.910704 0.260807
0.257267 0.908049 0.287877
0.364263 0.903136 0.274022
0.494820 0.893980 0.244785
0.639094 0.880095 0.242008
0.770199 0.873655 0.233524
0.894896 0.870787 0.210330
0.967407 0.816983 0.199008
0.000000 0.041382 0.701472
0.000000 0.065156 0.694392
0.260868 0.025788 0.672480
0.408057 0.110201 0.616693
0.535668 0.175998 0.563378
0.702083 0.244846 0.564782
0.850278 0.281468 0.554406
0.949279 0.326757 0.527581
0.000000 0.100191 0.701808
0.000000 0.117250 0.694911
0.253513 0.132662 0.672511
0.409979 0.162875 0.619806
0.538201 0.213870 0.564446
0.703731 0.278355 0.565942
0.851438 0.305547 0.554376
0.949462 0.345434 0.527733
0.000000 0.193729 0.708980
0.000000 0.193027 0.702724
0.215824 0.261967 0.676478
0.418250 0.283818 0.630518
0.547509 0.315282 0.567102
0.709133 0.371557 0.570520
0.855650 0.375677 0.553674
0.950011 0.403204 0.527581
0.000000 0.416297 0.686915
0.000000 0.411841 0.684474
0.000000 0.401099 0.675563
0.424781 0.433661 0.640040
0.564385 0.445258 0.571252
0.726589 0.469306 0.572259
0.863371 0.467079 0.546349
0.950042 0.477913 0.521691
0.000000 0.587762 0.652064
0.000000 0.587243 0.649348
0.000000 0.586267 0.638666
0.389075 0.585260 0.616510
0.586755 0.577905 0.576013
0.745083 0.578607 0.560632
0.866514 0.573297 0.537896
0.952819 0.552789 0.498421
0.000000 0.739254 0.619074
0.000000 0.738155 0.614954
0.012085 0.733394 0.599420
0.394446 0.723171 0.573114
0.598016 0.700252 0.549767
0.749447 0.688594 0.555810
0.870726 0.679530 0.527337
0.953674 0.649348 0.479469
0.000000 0.840543 0.556146
0.000000 0.839567 0.552728
0.208774 0.835264 0.541344
0.426673 0.825772 0.526390
0.606134 0.805936 0.516197
0.757107 0.794278 0.511284
0.868498 0.774472 0.526909
0.952239 0.738216 0.467811
0.000000 0.918364 0.494545
0.116091 0.917174 0.493385
0.302800 0.912840 0.491005
0.465919 0.904356 0.491890
0.605310 0.891264 0.469429
0.746853 0.875486 0.459815
0.873442 0.873747 0.461311
0.952880 0.832792 0.465126
0.000000 0.078157 0.823209
0.000000 0.113497 0.819883
0.248966 0.135073 0.809476
0.410193 0.150668 0.789090
0.545251 0.234806 0.736782
0.676692 0.288396 0.702785
0.820096 0.383795 0.700862
0.915679 0.489937 0.700038
0.000000 0.125826 0.823728
0.000000 0.151980 0.820523
0.252934 0.193118 0.809537
0.413855 0.204837 0.789303
0.549126 0.266972 0.738399
0.678462 0.314824 0.702998
0.820462 0.404639 0.701595
0.915892 0.501244 0.700679
0.000000 0.205203 0.827665
0.000000 0.225956 0.824582
0.246036 0.301976 0.811826
0.431922 0.333776 0.790341
0.563806 0.359899 0.744381
0.684810 0.392676 0.704036
0.821683 0.469612 0.704158
0.916960 0.536675 0.702052
0.000000 0.367651 0.825101
0.000000 0.367742 0.824308
0.054170 0.378973 0.820798
0.457740 0.472877 0.794553
0.590814 0.484932 0.755154
0.695888 0.497475 0.705715
0.823911 0.559838 0.709377
0.919860 0.586664 0.701381
0.000000 0.548913 0.808225
0.000000 0.550011 0.807187
0.094667 0.557153 0.803159
0.413245 0.575128 0.795010
0.619501 0.616419 0.767483
0.711238 0.608362 0.708675
0.834012 0.638209 0.710964
0.925383 0.644831 0.695369
0.000000 0.710048 0.783566
0.000000 0.710964 0.782284
0.112917 0.714748 0.777371
0.404150 0.720851 0.767544
0.588678 0.726009 0.750240
0.730739 0.717739 0.713863
0.846830 0.718013 0.702235
0.929168 0.708431 0.681209
0.000000 0.860746 0.760037
0.000000 0.859525 0.757382
0.101930 0.854795 0.748043
0.391028 0.845396 0.731136
0.583246 0.831357 0.708888
0.734615 0.809354 0.690272
0.849241 0.799191 0.698726
0.931243 0.782834 0.670893
0.000000 0.926390 0.685969
0.000000 0.925261 0.684474
0.255955 0.921080 0.679530
0.443977 0.913085 0.673091
0.606165 0.900969 0.670619
0.731899 0.885405 0.658656
0.849424 0.875914 0.654322
0.931365 0.854978 0.667811
0.000000 0.163790 0.896696
0.066499 0.197055 0.895018
0.280644 0.243931 0.889921
0.415778 0.267552 0.881315
0.549371 0.311284 0.864622
0.667475 0.387518 0.828611
0.787411 0.434089 0.811704
0.896544 0.546349 0.807767
0.000000 0.191531 0.897002
0.011963 0.221530 0.895323
0.298772 0.286412 0.889586
0.426703 0.305974 0.881041
0.555047 0.339940 0.864927
0.670954 0.406958 0.829129
0.788479 0.450416 0.811521
0.896300 0.558190 0.808042
0.000000 0.250217 0.898833
0.000000 0.275853 0.897124
0.312932 0.362310 0.890318
0.466529 0.413062 0.880186
0.575647 0.424781 0.866026
0.683284 0.468360 0.831205
0.792355 0.502495 0.811185
0.895750 0.596063 0.808927
0.000000 0.326452 0.902434
0.000000 0.338079 0.901274
0.237858 0.408759 0.894957
0.508690 0.524132 0.880980
0.619379 0.549615 0.865660
0.705257 0.558648 0.835355
0.798825 0.576226 0.810788
0.895323 0.650996 0.810575
0.000000 0.496834 0.893950
0.000000 0.502281 0.893462
0.223392 0.525536 0.891447
0.461097 0.571466 0.887510
0.660578 0.660029 0.869047
0.734096 0.657862 0.843259
0.807523 0.657527 0.811032
0.895445 0.715145 0.813931
0.000000 0.647944 0.882200
0.000000 0.651209 0.881621
0.248692 0.663874 0.879667
0.463691 0.688045 0.875914
0.635126 0.721401 0.870512
0.768704 0.760647 0.853513
0.818845 0.742306 0.812314
0.900694 0.770565 0.815915
0.000000 0.789609 0.866361
0.000000 0.791196 0.865782
0.262547 0.796628 0.863737
0.457984 0.806180 0.859800
0.620508 0.818112 0.853391
0.747524 0.827298 0.842741
0.832883 0.820676 0.816617
0.909880 0.820676 0.808530
0.000000 0.936004 0.858610
0.000000 0.934813 0.856718
0.225223 0.930571 0.850095
0.432410 0.922667 0.839231
0.597589 0.911284 0.825772
0.735103 0.898192 0.812497
0.833188 0.883146 0.798123
0.912108 0.875547 0.805295
0.167605 0.275303 0.941863
0.248051 0.309056 0.940551
0.384955 0.379034 0.936736
0.475105 0.403754 0.932860
0.572747 0.432227 0.926940
0.684413 0.497505 0.914153
0.776577 0.565179 0.893217
0.866758 0.605341 0.885985
0.160952 0.288060 0.941955
0.244297 0.320439 0.940642
0.406806 0.410010 0.936004
0.490272 0.431373 0.932189
0.582696 0.456214 0.926360
0.689174 0.513237 0.914000
0.778866 0.575586 0.893248
0.867399 0.613764 0.885771
0.062196 0.313359 0.942840
0.203464 0.343603 0.941527
0.404669 0.440864 0.936339
0.538872 0.512596 0.929961
0.616114 0.529107 0.924376
0.704952 0.562554 0.913603
0.786526 0.608972 0.893462
0.869474 0.640864 0.885252
0.000000 0.321843 0.945556
0.000000 0.351110 0.944274
0.334203 0.447120 0.939147
0.569909 0.582055 0.929168
0.666499 0.625513 0.921752
0.729183 0.632227 0.913573
0.798795 0.658961 0.894438
0.873014 0.681575 0.884581
0.000000 0.439582 0.943450
0.000000 0.449073 0.942962
0.236942 0.485298 0.941070
0.469703 0.560540 0.935515
0.699611 0.699611 0.921599
0.763180 0.715419 0.913176
0.814969 0.718776 0.896788
0.877806 0.731258 0.884031
0.000000 0.582025 0.936889
0.000000 0.587884 0.936431
0.275334 0.609918 0.934691
0.480049 0.651972 0.931334
0.652369 0.711360 0.926513
0.795621 0.790005 0.914702
0.836088 0.785763 0.901335
0.883757 0.784756 0.883818
0.000000 0.713924 0.928588
0.060883 0.717311 0.928191
0.307805 0.729610 0.926696
0.492073 0.753658 0.923796
0.653193 0.787503 0.919829
0.777707 0.823209 0.915892
0.861601 0.853819 0.908080
0.890837 0.838193 0.884489
0.000000 0.839536 0.918486
0.162631 0.841123 0.918120
0.330816 0.846647 0.916838
0.497963 0.856809 0.914427
0.647913 0.870176 0.911101
0.766171 0.883574 0.907378
0.848112 0.893492 0.902892
0.900175 0.890959 0.887785
