其他预设/【233】日式怀旧街道调色预设208款/1.3D LUT预设（视频调色-PR-AE-PS-FCPX-达芬奇用）/3.日式城市街拍预设 (自动曝光预设)/JA – Cine Night 1 (Auto-Exposure).cube
# Created by Adobe Lightroom plugin Export LUT (1.17.0)
# www.johnrellis.com/lightroom/exportlut.htm
# Preset: JA – Cine Night 1 (Auto-Exposure)
# Color profile: /Library/Application Support/Adobe/Color/Profiles/Recommended/AdobeRGB1998.icc
LUT_3D_SIZE 32
0.004669 0.027771 0.052949
0.008942 0.030488 0.055146
0.016876 0.032502 0.058778
0.032227 0.040192 0.062715
0.052064 0.050202 0.068605
0.066712 0.059510 0.073487
0.080629 0.064454 0.077913
0.100313 0.068147 0.081849
0.126314 0.070893 0.085817
0.160555 0.070283 0.089662
0.203525 0.065370 0.093599
0.254520 0.045686 0.097383
0.312566 0.000000 0.100954
0.376135 0.000000 0.104280
0.442725 0.000000 0.107424
0.510002 0.000000 0.110750
0.575952 0.000000 0.114199
0.637659 0.000000 0.118502
0.693324 0.000000 0.124361
0.745174 0.000000 0.132052
0.793484 0.000000 0.142000
0.838193 0.000000 0.154940
0.879240 0.000000 0.170840
0.916442 0.116152 0.189822
0.949767 0.170352 0.212619
0.979034 0.217258 0.239109
1.000000 0.261265 0.269596
1.000000 0.304265 0.304662
1.000000 0.347967 0.345006
1.000000 0.393683 0.391028
1.000000 0.442512 0.443946
1.000000 0.495827 0.504509
0.003143 0.035950 0.058808
0.007141 0.038880 0.057099
0.017700 0.040711 0.055970
0.034058 0.045991 0.059907
0.053590 0.054566 0.065705
0.067353 0.061830 0.071199
0.081422 0.066499 0.076448
0.100893 0.070161 0.080476
0.127230 0.072969 0.084474
0.161532 0.073030 0.088319
0.204501 0.068605 0.092287
0.255558 0.054108 0.095827
0.313512 0.000427 0.099428
0.377050 0.000000 0.102724
0.443610 0.000000 0.105867
0.510826 0.000000 0.108919
0.576623 0.000000 0.112367
0.638178 0.000000 0.116732
0.693843 0.000000 0.122225
0.745632 0.000000 0.130007
0.793820 0.000000 0.140169
0.838468 0.000000 0.153109
0.879454 0.028870 0.169131
0.916655 0.123445 0.188540
0.949950 0.175265 0.211185
0.979156 0.220798 0.237797
1.000000 0.263767 0.268406
1.000000 0.306371 0.303471
1.000000 0.349554 0.343755
1.000000 0.394781 0.389868
1.000000 0.443275 0.442817
1.000000 0.496254 0.503502
0.000458 0.047517 0.063233
0.005402 0.049561 0.063081
0.012543 0.051423 0.061189
0.033600 0.055970 0.059480
0.055940 0.060151 0.062013
0.068391 0.065003 0.068666
0.082673 0.069276 0.073793
0.102022 0.073426 0.078584
0.128267 0.076112 0.082673
0.162631 0.076753 0.086549
0.205722 0.073182 0.090303
0.256809 0.062684 0.094087
0.314794 0.019287 0.097688
0.378393 0.000000 0.100771
0.444770 0.000000 0.103639
0.511986 0.000000 0.106661
0.577691 0.000000 0.109834
0.638941 0.000000 0.114015
0.694545 0.000000 0.119661
0.746181 0.000000 0.127413
0.794308 0.000000 0.137575
0.838895 0.000000 0.150790
0.879789 0.069001 0.166781
0.916960 0.132876 0.186282
0.950195 0.181888 0.209110
0.979400 0.225467 0.235874
1.000000 0.267460 0.266514
1.000000 0.309087 0.301793
1.000000 0.351537 0.342229
1.000000 0.396155 0.388373
1.000000 0.444190 0.441382
1.000000 0.496803 0.502129
0.000000 0.062928 0.071870
0.000244 0.064088 0.072480
0.008270 0.064515 0.072023
0.024140 0.066285 0.068391
0.052003 0.069276 0.065156
0.069886 0.072694 0.064454
0.084474 0.076448 0.068360
0.103914 0.080415 0.073884
0.130526 0.083192 0.078523
0.165255 0.084443 0.082856
0.208255 0.082643 0.086610
0.259525 0.075166 0.089906
0.317540 0.058503 0.093233
0.380896 0.000000 0.095949
0.447333 0.000000 0.098512
0.514305 0.000000 0.101228
0.579736 0.000000 0.104158
0.640681 0.000000 0.108003
0.696010 0.000000 0.113649
0.747311 0.000000 0.121401
0.795315 0.000000 0.131838
0.839750 0.000000 0.145174
0.880522 0.103853 0.161532
0.917510 0.152560 0.181247
0.950713 0.195132 0.204593
0.979797 0.235630 0.231571
1.000000 0.275212 0.262577
1.000000 0.315129 0.298070
1.000000 0.355993 0.338628
1.000000 0.399359 0.385107
1.000000 0.446296 0.438178
1.000000 0.498024 0.499031
0.000000 0.073610 0.082429
0.000000 0.074250 0.082368
0.001709 0.075380 0.082856
0.014710 0.075898 0.080903
0.038880 0.078035 0.076631
0.065187 0.082429 0.072053
0.084962 0.087068 0.069184
0.106355 0.090761 0.071351
0.133730 0.094331 0.074250
0.169009 0.096956 0.076631
0.212528 0.096834 0.079866
0.263859 0.093050 0.083131
0.321935 0.083772 0.085847
0.385168 0.066896 0.088167
0.451240 0.016419 0.089998
0.517723 0.000000 0.092103
0.582788 0.000000 0.094423
0.643244 0.000000 0.097902
0.698177 0.000000 0.103243
0.749264 0.000000 0.111299
0.796902 0.044251 0.122133
0.841093 0.101045 0.135866
0.881621 0.140780 0.153017
0.918486 0.178378 0.173251
0.951476 0.214878 0.197116
0.980438 0.251041 0.224765
1.000000 0.287144 0.256138
1.000000 0.324224 0.292149
1.000000 0.363043 0.333013
1.000000 0.404486 0.379675
1.000000 0.449622 0.433051
1.000000 0.499916 0.494148
0.000000 0.084749 0.093629
0.000000 0.085328 0.093568
0.000000 0.086000 0.093477
0.004883 0.088014 0.090822
0.026246 0.088106 0.088746
0.055329 0.092317 0.083162
0.077455 0.098543 0.078340
0.103639 0.104433 0.075532
0.136110 0.109041 0.073762
0.172305 0.112001 0.076295
0.216403 0.113924 0.077852
0.268284 0.113222 0.079225
0.326574 0.109987 0.079561
0.390204 0.103578 0.079133
0.456306 0.094911 0.077089
0.522423 0.084627 0.077852
0.586938 0.076905 0.078798
0.646693 0.077241 0.081636
0.701015 0.085695 0.087373
0.751675 0.102602 0.095766
0.798978 0.125307 0.107179
0.842863 0.150759 0.122347
0.883085 0.178775 0.140475
0.919707 0.208377 0.161959
0.952483 0.239017 0.186740
0.981262 0.270542 0.215122
1.000000 0.302892 0.247349
1.000000 0.336614 0.283909
1.000000 0.372442 0.325322
1.000000 0.411353 0.372381
1.000000 0.454292 0.426093
1.000000 0.502617 0.487434
0.000000 0.098238 0.106538
0.000000 0.098726 0.106508
0.000000 0.099641 0.105959
0.000000 0.101595 0.104585
0.009918 0.103365 0.099855
0.039460 0.104402 0.096834
0.067506 0.109834 0.090486
0.094911 0.118196 0.085237
0.129366 0.125399 0.081483
0.173312 0.131685 0.077424
0.220737 0.135042 0.077058
0.272831 0.136934 0.077882
0.331273 0.137148 0.077974
0.394781 0.135714 0.077180
0.460731 0.133730 0.074647
0.526635 0.132784 0.071565
0.590906 0.135073 0.067597
0.650477 0.140810 0.064027
0.704555 0.150546 0.061494
0.754696 0.162234 0.070710
0.801541 0.177584 0.084627
0.844999 0.196078 0.102358
0.884886 0.217624 0.122774
0.921202 0.241215 0.146273
0.953735 0.266728 0.172610
0.982300 0.293431 0.202396
1.000000 0.321904 0.235721
1.000000 0.351904 0.273075
1.000000 0.384344 0.315343
1.000000 0.420111 0.362982
1.000000 0.460243 0.417090
1.000000 0.506126 0.478828
0.000000 0.114748 0.121798
0.000000 0.115358 0.121736
0.000000 0.116365 0.120882
0.000000 0.118471 0.119295
0.000000 0.121859 0.115511
0.018372 0.122133 0.110292
0.056275 0.124971 0.106233
0.082979 0.132052 0.099397
0.118410 0.142428 0.092531
0.162570 0.151705 0.088106
0.216678 0.159701 0.082155
0.277989 0.165988 0.075257
0.336675 0.168643 0.074952
0.400061 0.170657 0.073243
0.465614 0.172610 0.070344
0.531182 0.175479 0.065949
0.594903 0.180789 0.060883
0.653742 0.188113 0.054749
0.707301 0.197543 0.048737
0.757321 0.209628 0.049500
0.804135 0.224308 0.055451
0.847501 0.240818 0.069062
0.886961 0.257664 0.096132
0.922972 0.276677 0.124056
0.955169 0.297429 0.153658
0.983520 0.320012 0.185672
1.000000 0.343969 0.220798
1.000000 0.370001 0.259648
1.000000 0.398749 0.302770
1.000000 0.430884 0.351263
1.000000 0.467842 0.405921
1.000000 0.510735 0.468147
0.000000 0.135714 0.139712
0.000000 0.136568 0.139315
0.000000 0.137545 0.138552
0.000000 0.139651 0.136995
0.000000 0.142977 0.133608
0.000000 0.145937 0.125521
0.029694 0.145937 0.122683
0.071351 0.150790 0.117189
0.104402 0.159731 0.108949
0.149844 0.172946 0.100526
0.203799 0.184848 0.094362
0.266880 0.195407 0.086213
0.337682 0.204257 0.074342
0.406043 0.209720 0.066194
0.471260 0.213870 0.062135
0.536278 0.219425 0.054353
0.599390 0.226383 0.042145
0.657496 0.234440 0.029175
0.710353 0.243259 0.023285
0.759976 0.254093 0.024109
0.806302 0.267002 0.031220
0.849393 0.281621 0.048219
0.889006 0.297581 0.065492
0.924926 0.314214 0.090486
0.956817 0.330999 0.127260
0.984833 0.349126 0.163912
1.000000 0.369055 0.201907
1.000000 0.390936 0.242832
1.000000 0.415595 0.287419
1.000000 0.443793 0.336950
1.000000 0.476936 0.392462
1.000000 0.516411 0.455238
0.000000 0.162325 0.159457
0.000000 0.163180 0.158968
0.000000 0.164279 0.158297
0.000000 0.166415 0.156527
0.000000 0.169863 0.153567
0.000000 0.174258 0.148440
0.000000 0.175479 0.139986
0.053651 0.175174 0.136416
0.091951 0.183352 0.129305
0.133547 0.194369 0.119753
0.188754 0.210697 0.108461
0.252232 0.225132 0.100404
0.323369 0.237919 0.089509
0.399603 0.249210 0.073213
0.477394 0.259281 0.036469
0.541894 0.265934 0.021302
0.604334 0.273655 0.003998
0.661524 0.281376 0.000000
0.713710 0.289616 0.000000
0.762753 0.299168 0.000000
0.808682 0.310552 0.000000
0.851316 0.323217 0.014649
0.890593 0.336767 0.048157
0.926329 0.351476 0.071656
0.958465 0.366461 0.092012
0.986267 0.380987 0.134249
1.000000 0.396704 0.177707
1.000000 0.414466 0.221988
1.000000 0.434791 0.268803
1.000000 0.458778 0.319890
1.000000 0.487800 0.376410
1.000000 0.523308 0.440070
0.000000 0.195407 0.181094
0.000000 0.196201 0.180636
0.000000 0.197299 0.179934
0.000000 0.199649 0.178225
0.000000 0.202945 0.175296
0.000000 0.207523 0.170840
0.000000 0.211978 0.159823
0.000000 0.211398 0.155673
0.077241 0.210605 0.151125
0.120851 0.222904 0.142031
0.170565 0.236149 0.130739
0.234714 0.254704 0.116701
0.306859 0.271977 0.105745
0.384161 0.286992 0.091096
0.463416 0.300694 0.069245
0.541283 0.313634 0.007324
0.609369 0.323522 0.000000
0.665675 0.330541 0.000000
0.717342 0.337407 0.000000
0.765805 0.345769 0.000000
0.811246 0.355200 0.000000
0.853422 0.365667 0.000000
0.892302 0.377234 0.009552
0.927642 0.389502 0.057557
0.959380 0.402197 0.083833
0.987396 0.414710 0.107912
1.000000 0.426856 0.145357
1.000000 0.440436 0.195682
1.000000 0.456458 0.246250
1.000000 0.475898 0.299504
1.000000 0.500450 0.357610
1.000000 0.531792 0.422217
0.000000 0.235264 0.204715
0.000000 0.236118 0.204105
0.000000 0.237186 0.203372
0.000000 0.239322 0.201663
0.000000 0.242832 0.198947
0.000000 0.247227 0.194827
0.000000 0.252537 0.188876
0.000000 0.254520 0.176822
0.046052 0.253239 0.171969
0.106874 0.254704 0.165743
0.157687 0.268986 0.155276
0.215000 0.284092 0.141787
0.286625 0.304387 0.124697
0.366369 0.324559 0.110201
0.446815 0.341283 0.092134
0.526177 0.356756 0.064363
0.601709 0.370916 0.000000
0.669429 0.381933 0.000000
0.720974 0.387518 0.000000
0.769039 0.393835 0.000000
0.813901 0.401312 0.000000
0.855589 0.409796 0.000000
0.893980 0.419043 0.000000
0.928954 0.429114 0.018708
0.960327 0.439429 0.072114
0.988006 0.449531 0.100832
1.000000 0.459266 0.127260
1.000000 0.468757 0.161563
1.000000 0.480385 0.218387
1.000000 0.495277 0.275242
1.000000 0.515160 0.335424
1.000000 0.541802 0.401465
0.000000 0.281498 0.229923
0.000000 0.282231 0.229465
0.000000 0.283268 0.228733
0.000000 0.285435 0.227024
0.000000 0.288853 0.224308
0.000000 0.293126 0.220279
0.000000 0.298131 0.214786
0.000000 0.303441 0.206821
0.000000 0.302037 0.194400
0.088716 0.299840 0.188693
0.144381 0.304540 0.180728
0.201846 0.320562 0.168521
0.266239 0.337316 0.153017
0.343267 0.358648 0.132631
0.428046 0.381109 0.114443
0.509026 0.399359 0.092836
0.586542 0.415473 0.058350
0.656275 0.427741 0.000000
0.718654 0.437049 0.000000
0.772213 0.443793 0.000000
0.816648 0.449073 0.000000
0.857847 0.455268 0.000000
0.895811 0.462379 0.000000
0.930358 0.470039 0.000000
0.961303 0.478004 0.049165
0.988556 0.485786 0.091249
1.000000 0.493172 0.121370
1.000000 0.499977 0.150149
1.000000 0.506554 0.183047
1.000000 0.516808 0.246036
1.000000 0.531823 0.309514
1.000000 0.553521 0.377539
0.000000 0.333165 0.257145
0.000000 0.333898 0.256504
0.000000 0.334844 0.255833
0.000000 0.336919 0.254154
0.000000 0.340093 0.251408
0.000000 0.344091 0.247623
0.000000 0.348882 0.242405
0.000000 0.354070 0.235355
0.000000 0.356390 0.218784
0.040467 0.353765 0.212711
0.130617 0.350256 0.205936
0.188846 0.359075 0.195865
0.252140 0.376471 0.181857
0.322271 0.394385 0.164096
0.402045 0.415229 0.140993
0.489998 0.440406 0.118746
0.569451 0.458595 0.094606
0.641444 0.472541 0.060395
0.706050 0.482673 0.000000
0.764858 0.491066 0.000000
0.818051 0.498054 0.000000
0.860075 0.502373 0.000000
0.897581 0.507012 0.000000
0.931670 0.512352 0.000000
0.962249 0.517876 0.000000
0.989075 0.523156 0.078065
1.000000 0.528130 0.114321
1.000000 0.532586 0.146029
1.000000 0.536522 0.176394
1.000000 0.540429 0.209842
1.000000 0.550652 0.278691
1.000000 0.567193 0.349676
0.000000 0.389227 0.285771
0.000000 0.389837 0.285405
0.000000 0.390784 0.284520
0.000000 0.392798 0.282933
0.000000 0.395636 0.280278
0.000000 0.399451 0.276432
0.000000 0.403906 0.271519
0.000000 0.408545 0.264714
0.000000 0.413306 0.255985
0.000000 0.411780 0.238499
0.109560 0.407935 0.231266
0.176944 0.403113 0.223484
0.239139 0.416724 0.211429
0.307591 0.435065 0.195590
0.381903 0.453529 0.175875
0.461891 0.473518 0.149935
0.550286 0.500008 0.125063
0.624872 0.515740 0.101320
0.691859 0.527245 0.070771
0.752834 0.536309 0.000000
0.807797 0.543450 0.000000
0.857176 0.549096 0.000000
0.899351 0.553094 0.000000
0.933013 0.555871 0.000000
0.963104 0.558801 0.000000
0.989532 0.561700 0.058320
1.000000 0.564172 0.105440
1.000000 0.566247 0.141360
1.000000 0.567864 0.173465
1.000000 0.569207 0.205081
1.000000 0.571527 0.241611
1.000000 0.582879 0.317418
0.000000 0.448219 0.316167
0.000000 0.448859 0.315648
0.000000 0.449592 0.314916
0.000000 0.451362 0.313298
0.000000 0.453956 0.310613
0.000000 0.457435 0.306920
0.000000 0.461433 0.302037
0.000000 0.465827 0.295781
0.000000 0.470069 0.287541
0.000000 0.472694 0.267308
0.066163 0.468391 0.258854
0.164370 0.463264 0.250706
0.227359 0.457710 0.241581
0.294316 0.475959 0.227634
0.366247 0.494331 0.210391
0.442267 0.512932 0.188724
0.520409 0.531518 0.160891
0.606317 0.557244 0.135134
0.676204 0.570275 0.114107
0.739406 0.580316 0.089723
0.796414 0.587976 0.053407
0.847471 0.593622 0.000000
0.892821 0.597650 0.000000
0.932769 0.600153 0.000000
0.963867 0.600763 0.000000
0.989899 0.601038 0.000702
1.000000 0.601038 0.093568
1.000000 0.600732 0.135012
1.000000 0.600000 0.170504
1.000000 0.599084 0.203464
1.000000 0.598535 0.236332
1.000000 0.600702 0.279026
0.000000 0.508385 0.347997
0.000000 0.508965 0.347356
0.000000 0.509667 0.346654
0.000000 0.511284 0.345129
0.000000 0.513603 0.342596
0.000000 0.516716 0.339086
0.000000 0.520165 0.334478
0.000000 0.524041 0.328344
0.000000 0.527794 0.320714
0.000000 0.531273 0.311009
0.000000 0.529870 0.289006
0.144442 0.524468 0.280278
0.220432 0.518151 0.270939
0.282872 0.516655 0.260105
0.352483 0.534783 0.245090
0.425727 0.553002 0.226688
0.501244 0.571160 0.203952
0.577600 0.588922 0.175265
0.658717 0.611536 0.150210
0.724575 0.622827 0.133303
0.783780 0.631128 0.115328
0.836667 0.637018 0.095186
0.883635 0.640925 0.071351
0.924895 0.643153 0.019348
0.960571 0.643183 0.000000
0.990173 0.641138 0.000000
1.000000 0.638605 0.078279
1.000000 0.635889 0.127993
1.000000 0.632746 0.166751
1.000000 0.629572 0.202090
1.000000 0.626856 0.235874
1.000000 0.625360 0.269718
0.000000 0.568353 0.381048
0.000000 0.568811 0.380438
0.000000 0.569451 0.379858
0.000000 0.570855 0.378332
0.000000 0.572961 0.375952
0.000000 0.575616 0.372503
0.000000 0.578759 0.368170
0.000000 0.582086 0.362463
0.000000 0.585534 0.355322
0.000000 0.588617 0.346593
0.000000 0.590661 0.331518
0.114260 0.585931 0.312779
0.209934 0.579706 0.303044
0.278416 0.572534 0.292607
0.341802 0.575677 0.280430
0.412360 0.593225 0.264530
0.484962 0.610559 0.245609
0.558251 0.627314 0.222690
0.631769 0.643519 0.194156
0.708217 0.663264 0.170962
0.769863 0.672511 0.158206
0.824826 0.678798 0.145968
0.873564 0.682826 0.133822
0.916228 0.684901 0.122530
0.953124 0.684718 0.111177
0.984405 0.682185 0.100832
1.000000 0.677150 0.089631
1.000000 0.671412 0.119692
1.000000 0.665949 0.162692
1.000000 0.660548 0.200198
1.000000 0.655756 0.235569
1.000000 0.652155 0.270451
0.000000 0.627893 0.415961
0.000000 0.628351 0.415564
0.000000 0.628870 0.414771
0.000000 0.630060 0.413367
0.000000 0.631830 0.411048
0.000000 0.634150 0.408026
0.000000 0.636866 0.403815
0.000000 0.639734 0.398566
0.000000 0.642634 0.392126
0.000000 0.645289 0.384466
0.000000 0.647364 0.374884
0.065705 0.646357 0.349004
0.198032 0.640497 0.339208
0.274754 0.633753 0.328466
0.338293 0.626215 0.316869
0.402411 0.633509 0.303532
0.471687 0.649744 0.287510
0.541863 0.665461 0.268498
0.612726 0.680598 0.245914
0.683192 0.695125 0.218418
0.754696 0.711696 0.197299
0.811948 0.718685 0.188724
0.862486 0.722988 0.181186
0.906767 0.725032 0.174685
0.944945 0.724758 0.169436
0.977356 0.721981 0.164767
1.000000 0.716701 0.161196
1.000000 0.709102 0.158206
1.000000 0.699336 0.158267
1.000000 0.691768 0.198398
1.000000 0.684932 0.235142
1.000000 0.679347 0.271153
0.000000 0.685115 0.452155
0.000000 0.685512 0.451698
0.000000 0.686000 0.451057
0.000000 0.687037 0.449775
0.000000 0.688533 0.447669
0.000000 0.690517 0.444739
0.000000 0.692683 0.441047
0.000000 0.695064 0.436316
0.000000 0.697475 0.430701
0.000000 0.699611 0.424048
0.000000 0.701289 0.416236
0.102052 0.702205 0.406867
0.187778 0.698299 0.380011
0.272160 0.692073 0.369116
0.339391 0.684993 0.357214
0.398260 0.677333 0.344549
0.462287 0.688411 0.330755
0.529137 0.702937 0.314824
0.596796 0.716976 0.296208
0.664485 0.730251 0.274327
0.731380 0.742794 0.248203
0.797543 0.755947 0.229343
0.850492 0.760952 0.224369
0.896483 0.763180 0.220829
0.936095 0.762905 0.218601
0.969665 0.759976 0.217105
0.997436 0.754604 0.216648
1.000000 0.746883 0.216800
1.000000 0.736873 0.216739
1.000000 0.724910 0.216007
1.000000 0.714290 0.234928
1.000000 0.706783 0.271977
0.000000 0.739193 0.489265
0.000000 0.739437 0.488838
0.000000 0.739895 0.488258
0.000000 0.740780 0.487068
0.000000 0.741970 0.485237
0.000000 0.743526 0.482643
0.000000 0.745388 0.479469
0.000000 0.747341 0.475563
0.000000 0.749142 0.470954
0.000000 0.750820 0.465644
0.000000 0.752102 0.459358
0.095521 0.752712 0.452277
0.188693 0.752163 0.427314
0.273625 0.746456 0.414923
0.342473 0.740108 0.402899
0.402472 0.733120 0.389960
0.457221 0.726162 0.376226
0.520317 0.739498 0.362829
0.584405 0.752255 0.347173
0.648859 0.764279 0.329137
0.713039 0.775540 0.308202
0.776181 0.786038 0.283574
0.836576 0.795651 0.267063
0.885466 0.798856 0.264469
0.926604 0.798672 0.264439
0.961334 0.795834 0.265721
0.990082 0.790494 0.267552
1.000000 0.782773 0.270024
1.000000 0.772824 0.272496
1.000000 0.761105 0.274601
1.000000 0.748135 0.275395
1.000000 0.734463 0.274205
0.000000 0.789273 0.526940
0.000000 0.789517 0.526665
0.000000 0.789822 0.526146
0.000000 0.790524 0.525170
0.000000 0.791501 0.523613
0.000000 0.792782 0.521569
0.000000 0.794247 0.518975
0.000000 0.795682 0.515831
0.000000 0.797147 0.512291
0.000000 0.798276 0.508293
0.000000 0.799069 0.504021
0.108125 0.799344 0.499245
0.235172 0.798856 0.493935
0.284092 0.796231 0.466224
0.350866 0.790494 0.454108
0.409705 0.784237 0.441108
0.463600 0.777462 0.427161
0.516320 0.774624 0.413031
0.576318 0.786130 0.400000
0.637110 0.796872 0.384802
0.697963 0.806882 0.367590
0.758236 0.816037 0.347539
0.817319 0.824399 0.324681
0.872099 0.830777 0.309667
0.916411 0.831876 0.309514
0.952453 0.829252 0.312810
0.982238 0.824002 0.316716
1.000000 0.816464 0.321324
1.000000 0.806699 0.326238
1.000000 0.795224 0.330785
1.000000 0.782742 0.334722
1.000000 0.769680 0.337102
0.000000 0.834867 0.564965
0.000000 0.835080 0.564752
0.000000 0.835325 0.564416
0.000000 0.835843 0.563531
0.000000 0.836606 0.562371
0.000000 0.837522 0.560815
0.000000 0.838651 0.558953
0.000000 0.839658 0.556817
0.000000 0.840665 0.554406
0.000000 0.841337 0.551934
0.000000 0.841703 0.549493
0.136568 0.841489 0.547082
0.255039 0.840726 0.544732
0.321904 0.839445 0.532799
0.367864 0.835447 0.511040
0.422858 0.829984 0.497993
0.474220 0.824063 0.483986
0.522698 0.817746 0.469123
0.573419 0.818265 0.455482
0.629877 0.827726 0.442878
0.686854 0.836454 0.428382
0.743771 0.844297 0.411841
0.799832 0.851469 0.393011
0.854520 0.857816 0.371160
0.903624 0.861326 0.356939
0.942931 0.860166 0.359075
0.973754 0.855161 0.365240
0.998413 0.847837 0.371893
1.000000 0.838285 0.379156
1.000000 0.827115 0.386175
1.000000 0.815061 0.392981
1.000000 0.802701 0.399115
0.000000 0.875700 0.602716
0.000000 0.875822 0.602564
0.000000 0.876005 0.602289
0.000000 0.876371 0.601801
0.000000 0.876921 0.600946
0.000000 0.877531 0.600000
0.000000 0.878233 0.598901
0.000000 0.878874 0.597711
0.000000 0.879332 0.596551
0.000000 0.879545 0.595666
0.000000 0.879423 0.595087
0.175814 0.878813 0.595026
0.282383 0.877684 0.595544
0.361547 0.875975 0.596765
0.396155 0.874266 0.573388
0.444495 0.869688 0.560479
0.491035 0.864652 0.546777
0.535973 0.859251 0.532158
0.579706 0.853513 0.516625
0.628168 0.856413 0.503838
0.680537 0.863890 0.491707
0.733242 0.870695 0.477943
0.785611 0.876707 0.462135
0.837095 0.881987 0.444007
0.887022 0.886564 0.423316
0.930785 0.887541 0.408881
0.964752 0.884062 0.413397
0.990204 0.876951 0.422370
1.000000 0.867704 0.431891
1.000000 0.856809 0.441535
1.000000 0.845182 0.451240
1.000000 0.833433 0.460914
0.000000 0.911467 0.639582
0.000000 0.911528 0.639490
0.000000 0.911650 0.639368
0.000000 0.911864 0.639094
0.000000 0.912200 0.638727
0.000000 0.912535 0.638422
0.000000 0.912871 0.638056
0.000000 0.913085 0.637934
0.000000 0.913115 0.638117
0.000000 0.912840 0.638849
0.000000 0.912261 0.640070
0.221500 0.911192 0.642267
0.316960 0.909697 0.645502
0.391943 0.907713 0.649470
0.453346 0.905486 0.652033
0.475441 0.903288 0.625818
0.515831 0.899107 0.613306
0.555840 0.894621 0.599786
0.595270 0.889830 0.585168
0.634363 0.884733 0.569451
0.679988 0.889128 0.558343
0.727657 0.894835 0.546868
0.775418 0.899870 0.533532
0.822660 0.904204 0.518395
0.869078 0.907866 0.500999
0.914336 0.910826 0.481117
0.953155 0.909758 0.466011
0.981445 0.903990 0.472602
1.000000 0.894957 0.484504
1.000000 0.884306 0.496803
1.000000 0.872984 0.509667
1.000000 0.861814 0.522881
0.000000 0.942351 0.675013
0.000000 0.942443 0.674952
0.000000 0.942535 0.674891
0.000000 0.942626 0.674952
0.000000 0.942718 0.675013
0.000000 0.942779 0.675319
0.000000 0.942748 0.675807
0.000000 0.942565 0.676692
0.000000 0.942107 0.678157
0.000000 0.941375 0.680323
0.146517 0.940246 0.683467
0.271000 0.938750 0.687800
0.356542 0.936858 0.693172
0.426398 0.934661 0.699062
0.486275 0.932189 0.704921
0.514824 0.930968 0.690455
0.547265 0.927703 0.678614
0.581445 0.924041 0.666773
0.615961 0.920134 0.654047
0.650629 0.915984 0.640284
0.685817 0.911955 0.625818
0.727718 0.916625 0.616846
0.770016 0.920714 0.606439
0.812222 0.924163 0.594293
0.854032 0.927031 0.580163
0.895232 0.929198 0.563806
0.935790 0.930724 0.544732
0.970520 0.928374 0.528954
0.992462 0.920134 0.536889
1.000000 0.909667 0.551751
1.000000 0.898619 0.567193
1.000000 0.887846 0.583551
0.000000 0.968200 0.708858
0.000000 0.968261 0.708797
0.000000 0.968353 0.708705
0.000000 0.968597 0.708553
0.000000 0.968536 0.708919
0.000000 0.968322 0.709834
0.000000 0.967926 0.711147
0.000000 0.967315 0.713069
0.000000 0.966400 0.715785
0.000000 0.965179 0.719478
0.226566 0.963592 0.724331
0.323827 0.961608 0.730434
0.399725 0.959350 0.737209
0.464240 0.956909 0.744442
0.520653 0.954253 0.751797
0.570703 0.951476 0.759121
0.585199 0.950469 0.740261
0.613031 0.947631 0.730495
0.641810 0.944549 0.719875
0.671382 0.941253 0.708370
0.701564 0.937743 0.695979
0.733608 0.935851 0.684321
0.770016 0.939025 0.676356
0.806668 0.941650 0.667079
0.843198 0.943755 0.656336
0.879454 0.945251 0.643671
0.915496 0.946136 0.628748
0.951263 0.946380 0.611383
0.982025 0.943114 0.595819
0.998016 0.932891 0.603937
1.000000 0.921904 0.621363
1.000000 0.911284 0.639796
0.000000 0.989014 0.740841
0.000000 0.989075 0.740810
0.000000 0.989166 0.740780
0.000000 0.989319 0.740627
0.000000 0.989563 0.740414
0.000000 0.989288 0.741421
0.000000 0.988525 0.743587
0.000000 0.987518 0.746517
0.000000 0.986145 0.750423
0.187778 0.984405 0.755550
0.296666 0.982269 0.761807
0.377386 0.979919 0.768948
0.445411 0.977295 0.776699
0.504997 0.974517 0.784970
0.557977 0.971618 0.793484
