其他预设/【233】日式怀旧街道调色预设208款/1.3D LUT预设（视频调色-PR-AE-PS-FCPX-达芬奇用）/3.日式城市街拍预设 (自动曝光预设)/JA – Subdued 3 (Auto-Exposure).cube
# Created by Adobe Lightroom plugin Export LUT (1.17.0)
# www.johnrellis.com/lightroom/exportlut.htm
# Preset: JA – Subdued 3 (Auto-Exposure)
# Color profile: /Library/Application Support/Adobe/Color/Profiles/Recommended/AdobeRGB1998.icc
LUT_3D_SIZE 32
0.088197 0.088136 0.087861
0.095552 0.087465 0.087709
0.105989 0.086671 0.087434
0.126558 0.084993 0.086824
0.147585 0.082307 0.086091
0.166140 0.080018 0.085267
0.182467 0.078309 0.084382
0.197330 0.076509 0.083467
0.212039 0.075196 0.082429
0.227207 0.073548 0.081239
0.243900 0.071595 0.079805
0.263035 0.069459 0.077913
0.285252 0.066743 0.075471
0.310826 0.063661 0.072084
0.339391 0.059785 0.067597
0.370916 0.053071 0.061555
0.405249 0.040101 0.049775
0.442298 0.020813 0.027955
0.481819 0.000000 0.000916
0.525139 0.000000 0.000000
0.571435 0.000000 0.000000
0.619501 0.000000 0.000000
0.668238 0.000000 0.000000
0.716945 0.000000 0.000000
0.764889 0.000000 0.000000
0.811093 0.000000 0.000000
0.854734 0.000000 0.000000
0.894987 0.000000 0.000000
0.931670 0.000000 0.000000
0.964996 0.000000 0.000000
0.995300 0.000000 0.000000
1.000000 0.000000 0.000000
0.088594 0.095918 0.088319
0.095979 0.095918 0.087251
0.106081 0.095521 0.086671
0.126589 0.094606 0.086000
0.147616 0.091981 0.085298
0.166079 0.089082 0.084535
0.182345 0.086061 0.083772
0.197269 0.083803 0.082887
0.211887 0.081636 0.081941
0.227176 0.079774 0.080781
0.243900 0.077607 0.079347
0.263035 0.075685 0.077455
0.285344 0.073548 0.074922
0.310887 0.071229 0.071504
0.339513 0.068208 0.066957
0.371069 0.063905 0.060822
0.405402 0.058839 0.048280
0.442420 0.046174 0.025818
0.481971 0.025483 0.000000
0.525322 0.000000 0.000000
0.571618 0.000000 0.000000
0.619471 0.000000 0.000000
0.668299 0.000000 0.000000
0.717067 0.000000 0.000000
0.764889 0.000000 0.000000
0.811185 0.000000 0.000000
0.854765 0.000000 0.000000
0.894987 0.000000 0.000000
0.931670 0.000000 0.000000
0.964996 0.000000 0.000000
0.995300 0.000000 0.000000
1.000000 0.000000 0.000000
0.088991 0.106783 0.088685
0.096559 0.106966 0.087861
0.107515 0.107240 0.086061
0.126986 0.105837 0.084901
0.147646 0.102876 0.084230
0.166171 0.099275 0.083558
0.182223 0.095613 0.082887
0.197086 0.092500 0.082124
0.211765 0.089967 0.081239
0.227085 0.087343 0.080171
0.243931 0.085389 0.078676
0.263157 0.083253 0.076814
0.285435 0.081392 0.074220
0.311070 0.079622 0.070771
0.339605 0.077424 0.066102
0.371252 0.074769 0.059785
0.405585 0.071351 0.045930
0.442573 0.065797 0.022858
0.482124 0.056733 0.000000
0.525414 0.034668 0.000000
0.571801 0.000000 0.000000
0.619684 0.000000 0.000000
0.668421 0.000000 0.000000
0.717159 0.000000 0.000000
0.765103 0.000000 0.000000
0.811215 0.000000 0.000000
0.854826 0.000000 0.000000
0.895079 0.000000 0.000000
0.931731 0.000000 0.000000
0.965026 0.000000 0.000000
0.995270 0.000000 0.000000
1.000000 0.000000 0.000000
0.089998 0.127169 0.089143
0.097780 0.127260 0.088350
0.107240 0.127077 0.087190
0.127321 0.126711 0.084169
0.147402 0.122194 0.081941
0.165774 0.117830 0.081483
0.182040 0.112795 0.081056
0.196872 0.108583 0.080476
0.211673 0.104982 0.079683
0.227054 0.101778 0.078676
0.243931 0.099886 0.077211
0.263249 0.097780 0.075349
0.285618 0.096498 0.072633
0.311192 0.095613 0.069001
0.340002 0.093965 0.064179
0.371527 0.092836 0.056703
0.405921 0.090669 0.040253
0.442847 0.087892 0.016815
0.482490 0.084443 0.000000
0.525719 0.078492 0.000000
0.572076 0.068727 0.000000
0.619959 0.044312 0.000000
0.668757 0.000000 0.000000
0.717433 0.000000 0.000000
0.765286 0.000000 0.000000
0.811398 0.000000 0.000000
0.854978 0.000000 0.000000
0.895171 0.000000 0.000000
0.931792 0.000000 0.000000
0.965057 0.000000 0.000000
0.995239 0.000000 0.000000
1.000000 0.000000 0.000000
0.092439 0.147555 0.091249
0.098939 0.147280 0.090303
0.107393 0.147036 0.089509
0.123629 0.146761 0.086397
0.146761 0.145876 0.082185
0.165560 0.139528 0.079988
0.181643 0.133455 0.078859
0.196689 0.128664 0.077790
0.211490 0.124147 0.077241
0.226963 0.120668 0.076326
0.243992 0.117952 0.074952
0.263432 0.116243 0.072938
0.285924 0.115541 0.070130
0.311711 0.114931 0.066224
0.340307 0.114809 0.060914
0.372045 0.114656 0.050233
0.406409 0.114137 0.031159
0.443458 0.113283 0.007111
0.483009 0.111910 0.000000
0.526482 0.109651 0.000000
0.572686 0.105226 0.000000
0.620569 0.098451 0.000000
0.669245 0.087648 0.000000
0.717922 0.067811 0.000000
0.765652 0.004120 0.000000
0.811734 0.000000 0.000000
0.855192 0.000000 0.000000
0.895293 0.000000 0.000000
0.931853 0.000000 0.000000
0.965118 0.000000 0.000000
0.995270 0.000000 0.000000
1.000000 0.000000 0.000000
0.095796 0.165255 0.094301
0.101350 0.165042 0.093935
0.108309 0.164828 0.092988
0.121553 0.164157 0.091005
0.140658 0.163882 0.086030
0.163363 0.162539 0.081758
0.181033 0.155764 0.079683
0.196109 0.149538 0.078676
0.211124 0.144564 0.077333
0.226810 0.140963 0.076204
0.243992 0.138308 0.074525
0.263737 0.136416 0.072572
0.286290 0.135988 0.069276
0.312230 0.135958 0.065248
0.341070 0.136294 0.059693
0.372778 0.137209 0.047486
0.407172 0.137850 0.026886
0.444282 0.138643 0.000824
0.483955 0.138705 0.000000
0.527276 0.139528 0.000000
0.573388 0.139162 0.000000
0.621363 0.135744 0.000000
0.670008 0.130343 0.000000
0.718502 0.122255 0.000000
0.766171 0.108736 0.000000
0.812100 0.087098 0.000000
0.855528 0.036347 0.000000
0.895537 0.000000 0.000000
0.931945 0.000000 0.000000
0.965148 0.000000 0.000000
0.995239 0.000000 0.000000
1.000000 0.000000 0.000000
0.100526 0.180758 0.099001
0.104738 0.180545 0.098177
0.110597 0.180423 0.097505
0.121645 0.179873 0.095979
0.137087 0.179232 0.093965
0.156893 0.179110 0.087587
0.178622 0.177432 0.083101
0.195621 0.171023 0.081056
0.210788 0.165469 0.080354
0.226596 0.161501 0.079377
0.244175 0.158877 0.077516
0.264073 0.157534 0.075257
0.286900 0.157076 0.072419
0.313024 0.157565 0.067659
0.341985 0.158663 0.062104
0.373785 0.160098 0.050813
0.408423 0.161807 0.028199
0.445441 0.163516 0.001465
0.485115 0.165103 0.000000
0.528588 0.166995 0.000000
0.574701 0.168338 0.000000
0.622339 0.169253 0.000000
0.670771 0.168276 0.000000
0.719265 0.163821 0.000000
0.766812 0.156588 0.000000
0.812589 0.145296 0.000000
0.855863 0.129366 0.000000
0.895720 0.105074 0.000000
0.932128 0.061738 0.000000
0.965179 0.000000 0.000000
0.995239 0.000000 0.000000
1.000000 0.000000 0.000000
0.105653 0.195224 0.103578
0.109316 0.195041 0.103273
0.113802 0.195010 0.102907
0.123323 0.194644 0.101472
0.136843 0.194125 0.100130
0.153292 0.193820 0.096773
0.172915 0.193759 0.090517
0.193393 0.192203 0.087312
0.210330 0.186526 0.084993
0.226535 0.182101 0.083650
0.244205 0.179538 0.082277
0.264408 0.178561 0.079469
0.287694 0.179110 0.075593
0.313909 0.180148 0.071229
0.343084 0.181857 0.065003
0.374945 0.183932 0.054108
0.409644 0.186435 0.031647
0.446815 0.188998 0.001678
0.486549 0.192050 0.000000
0.530053 0.194980 0.000000
0.576135 0.197665 0.000000
0.623621 0.200290 0.000000
0.671962 0.201907 0.000000
0.720180 0.202090 0.000000
0.767575 0.198001 0.000000
0.813260 0.191135 0.000000
0.856321 0.181003 0.000000
0.896056 0.166537 0.000000
0.932280 0.146700 0.000000
0.965240 0.117739 0.000000
0.995209 0.068116 0.000000
1.000000 0.000000 0.000000
0.111299 0.210147 0.109133
0.114229 0.210147 0.108614
0.118166 0.210147 0.108705
0.126589 0.209781 0.107851
0.138552 0.209506 0.106172
0.152712 0.209018 0.104341
0.169863 0.209049 0.100496
0.189242 0.209323 0.094087
0.209171 0.207767 0.091249
0.226322 0.203220 0.088777
0.244572 0.200290 0.086397
0.265019 0.199496 0.083406
0.288609 0.200565 0.080201
0.315099 0.202731 0.075135
0.344213 0.205539 0.068452
0.376349 0.208652 0.059083
0.411048 0.211826 0.035645
0.448432 0.215366 0.004211
0.488197 0.219059 0.000000
0.531853 0.223239 0.000000
0.577813 0.227604 0.000000
0.625269 0.231113 0.000000
0.673365 0.234195 0.000000
0.721370 0.236484 0.000000
0.768490 0.236576 0.000000
0.813962 0.232456 0.000000
0.856870 0.225406 0.000000
0.896391 0.215183 0.000000
0.932464 0.201114 0.000000
0.965332 0.182712 0.000000
0.995209 0.157961 0.000000
1.000000 0.123873 0.000000
0.116548 0.226719 0.113863
0.119265 0.226719 0.113558
0.122591 0.226658 0.113497
0.130404 0.226535 0.112642
0.140871 0.226383 0.111696
0.154208 0.226078 0.109987
0.169345 0.225834 0.108064
0.187381 0.226444 0.102968
0.207279 0.226902 0.096803
0.227268 0.225589 0.093385
0.244846 0.221622 0.090730
0.265965 0.220768 0.087007
0.289769 0.222141 0.083192
0.316381 0.224704 0.078126
0.345739 0.228489 0.071015
0.377905 0.232914 0.061738
0.412757 0.237583 0.039033
0.450080 0.241917 0.005127
0.489998 0.246616 0.000000
0.533654 0.252140 0.000000
0.579706 0.257328 0.000000
0.627070 0.262181 0.000000
0.675013 0.266392 0.000000
0.722866 0.269596 0.000000
0.769619 0.271763 0.000000
0.814755 0.271214 0.000000
0.857481 0.266361 0.000000
0.896788 0.258640 0.000000
0.932738 0.247776 0.000000
0.965423 0.233616 0.000000
0.995148 0.215549 0.000000
1.000000 0.192782 0.000000
0.121248 0.245945 0.118379
0.123629 0.245945 0.118105
0.127138 0.245884 0.117617
0.134127 0.245792 0.117220
0.144289 0.245762 0.116121
0.157015 0.245792 0.114626
0.171695 0.245670 0.112581
0.188235 0.245975 0.109590
0.207523 0.247105 0.103792
0.228244 0.247776 0.097932
0.248844 0.246799 0.094026
0.266758 0.242954 0.090455
0.291020 0.244205 0.085603
0.318029 0.247440 0.079744
0.347601 0.251774 0.072694
0.379950 0.256901 0.063172
0.414649 0.262547 0.040864
0.451972 0.268711 0.004120
0.492164 0.274601 0.000000
0.535882 0.281010 0.000000
0.581781 0.287358 0.000000
0.628962 0.293217 0.000000
0.676875 0.298344 0.000000
0.724453 0.302464 0.000000
0.770993 0.305730 0.000000
0.815824 0.307530 0.000000
0.858183 0.305394 0.000000
0.897246 0.299474 0.000000
0.932982 0.290623 0.000000
0.965484 0.278843 0.000000
0.995117 0.264256 0.000000
1.000000 0.246220 0.000000
0.125368 0.268681 0.121645
0.127687 0.268711 0.121187
0.130922 0.268711 0.121279
0.137728 0.268742 0.120485
0.147921 0.268833 0.119356
0.160281 0.268925 0.117891
0.175174 0.269017 0.116091
0.191318 0.269139 0.113893
0.210056 0.270237 0.109438
0.230869 0.271855 0.102724
0.252689 0.272435 0.096284
0.274296 0.271824 0.091890
0.294011 0.268894 0.087373
0.319951 0.270603 0.081239
0.349645 0.275547 0.072877
0.382116 0.281224 0.062318
0.417060 0.287663 0.037812
0.454444 0.294499 0.000000
0.494575 0.301946 0.000000
0.538170 0.310338 0.000000
0.584131 0.317632 0.000000
0.631128 0.324315 0.000000
0.678676 0.330632 0.000000
0.726192 0.335698 0.000000
0.772580 0.339513 0.000000
0.817075 0.341924 0.000000
0.858915 0.343023 0.000000
0.897734 0.338384 0.000000
0.933257 0.330938 0.000000
0.965606 0.320958 0.000000
0.995056 0.308446 0.000000
1.000000 0.293004 0.000000
0.128115 0.295048 0.123537
0.130678 0.295171 0.123415
0.133913 0.295171 0.123140
0.141085 0.295232 0.122530
0.151400 0.295293 0.121431
0.164401 0.295506 0.119936
0.179232 0.295842 0.118471
0.195865 0.295995 0.116457
0.213901 0.296269 0.113588
0.234653 0.298161 0.107057
0.257572 0.300206 0.099367
0.280735 0.300877 0.092470
0.303471 0.300389 0.086854
0.326024 0.299168 0.080537
0.351934 0.299779 0.072847
0.384497 0.306310 0.060609
0.419593 0.313329 0.030457
0.457038 0.320806 0.000000
0.497322 0.329076 0.000000
0.541070 0.338262 0.000000
0.586664 0.347509 0.000000
0.633478 0.355962 0.000000
0.680903 0.363012 0.000000
0.728054 0.368841 0.000000
0.774136 0.373388 0.000000
0.818387 0.376501 0.000000
0.859953 0.377935 0.000000
0.898314 0.376379 0.000000
0.933532 0.369970 0.000000
0.965698 0.361151 0.000000
0.994995 0.349889 0.000000
1.000000 0.336309 0.000000
0.129915 0.324834 0.124636
0.132570 0.324895 0.124178
0.136172 0.324956 0.123659
0.143496 0.325109 0.123415
0.154299 0.325170 0.122286
0.168002 0.325383 0.120760
0.183597 0.325750 0.119234
0.200687 0.326146 0.116915
0.219516 0.326421 0.114199
0.239872 0.327459 0.109865
0.262913 0.329778 0.102235
0.287724 0.332280 0.092287
0.312016 0.332647 0.084901
0.336095 0.332219 0.077699
0.360571 0.331914 0.069520
0.387091 0.331853 0.057496
0.422370 0.339574 0.020600
0.459998 0.347875 0.000000
0.500450 0.356970 0.000000
0.544060 0.366918 0.000000
0.589654 0.376745 0.000000
0.636255 0.386236 0.000000
0.683314 0.394995 0.000000
0.730159 0.402045 0.000000
0.775937 0.407355 0.000000
0.819791 0.410895 0.000000
0.861021 0.412634 0.000000
0.898955 0.412512 0.000000
0.933867 0.407904 0.000000
0.965820 0.399939 0.000000
0.994903 0.389899 0.000000
1.000000 0.377356 0.000000
0.130312 0.357855 0.123415
0.133089 0.357946 0.123110
0.137087 0.357916 0.122835
0.145388 0.357977 0.122164
0.156863 0.358282 0.120912
0.171145 0.358618 0.119692
0.187594 0.358953 0.117891
0.205783 0.359258 0.115694
0.225498 0.359747 0.112795
0.246098 0.360266 0.109346
0.269108 0.362158 0.102846
0.294438 0.364752 0.093538
0.320897 0.367437 0.081147
0.346624 0.367742 0.071656
0.372198 0.367437 0.061158
0.398016 0.367132 0.038056
0.425147 0.366766 0.008484
0.462959 0.375494 0.000000
0.503777 0.385473 0.000000
0.547387 0.396094 0.000000
0.592737 0.406714 0.000000
0.639124 0.416724 0.000000
0.685878 0.426154 0.000000
0.732387 0.434272 0.000000
0.777707 0.441138 0.000000
0.821225 0.445380 0.000000
0.862089 0.447486 0.000000
0.899718 0.447517 0.000000
0.934203 0.445075 0.000000
0.965911 0.437842 0.000000
0.994842 0.428443 0.000000
1.000000 0.416876 0.000000
0.129397 0.393896 0.120119
0.132570 0.394018 0.119997
0.136599 0.394018 0.119478
0.145449 0.394232 0.118746
0.157778 0.394354 0.117861
0.173526 0.394720 0.116304
0.190951 0.394995 0.114382
0.210575 0.395453 0.111940
0.231205 0.395972 0.108980
0.252995 0.396582 0.105226
0.275761 0.397223 0.100771
0.301610 0.399908 0.091402
0.328862 0.402838 0.078431
0.357549 0.405921 0.060273
0.384375 0.405921 0.036500
0.411383 0.405615 0.003357
0.438453 0.405249 0.000000
0.466163 0.404364 0.000000
0.507256 0.414618 0.000000
0.550896 0.426001 0.000000
0.596063 0.437201 0.000000
0.642298 0.447822 0.000000
0.688869 0.457679 0.000000
0.734890 0.466316 0.000000
0.779904 0.473518 0.000000
0.822904 0.478981 0.000000
0.863188 0.482338 0.000000
0.900450 0.482521 0.000000
0.934600 0.480812 0.000000
0.966003 0.474983 0.000000
0.994751 0.466133 0.000000
1.000000 0.455268 0.000000
0.126101 0.432898 0.114626
0.129946 0.432868 0.114107
0.134615 0.432929 0.113954
0.144137 0.433204 0.113100
0.157961 0.433326 0.111879
0.174929 0.433692 0.110170
0.193912 0.434028 0.108217
0.214664 0.434485 0.105470
0.236759 0.435004 0.102144
0.259678 0.435523 0.098177
0.283543 0.436408 0.093263
0.308965 0.437720 0.086152
0.337255 0.440711 0.071443
0.366522 0.443793 0.044343
0.396918 0.446906 0.000000
0.425086 0.446754 0.000000
0.453498 0.446540 0.000000
0.482216 0.446540 0.000000
0.510735 0.445350 0.000000
0.554437 0.456550 0.000000
0.599512 0.468299 0.000000
0.645594 0.479500 0.000000
0.691737 0.489693 0.000000
0.737484 0.498695 0.000000
0.782010 0.506096 0.000000
0.824613 0.511772 0.000000
0.864530 0.515221 0.000000
0.901274 0.516747 0.000000
0.935088 0.515587 0.000000
0.966064 0.511559 0.000000
0.994568 0.503136 0.000000
1.000000 0.492744 0.000000
0.121096 0.474464 0.105531
0.125551 0.474434 0.105165
0.130587 0.474586 0.104707
0.141665 0.474769 0.103761
0.157259 0.475074 0.102266
0.175174 0.475319 0.100801
0.196139 0.475715 0.097932
0.218143 0.476143 0.095003
0.241733 0.476905 0.091157
0.266361 0.477424 0.086305
0.291630 0.478248 0.079896
0.317418 0.479164 0.072633
0.345769 0.481392 0.056336
0.376226 0.484718 0.005707
0.407568 0.488258 0.000000
0.439307 0.490974 0.000000
0.469184 0.491005 0.000000
0.499275 0.491035 0.000000
0.529442 0.490974 0.000000
0.558007 0.488930 0.000000
0.603143 0.500114 0.000000
0.648890 0.511650 0.000000
0.694911 0.522240 0.000000
0.740169 0.531640 0.000000
0.784329 0.539178 0.000000
0.826444 0.544945 0.000000
0.865812 0.548455 0.000000
0.902190 0.549767 0.000000
0.935576 0.549096 0.000000
0.966186 0.546654 0.000000
0.994446 0.539574 0.000000
1.000000 0.529564 0.000000
0.113588 0.519249 0.091127
0.118044 0.519310 0.090944
0.123964 0.519371 0.090425
0.136629 0.519585 0.089479
0.153750 0.519738 0.087984
0.174563 0.520134 0.085389
0.197299 0.520562 0.082033
0.221134 0.520928 0.077852
0.246433 0.521569 0.072328
0.272435 0.522301 0.065675
0.299077 0.523064 0.055818
0.326421 0.523857 0.032319
0.354314 0.524865 0.004730
0.385657 0.527947 0.000000
0.418006 0.531395 0.000000
0.451087 0.534844 0.000000
0.484016 0.537255 0.000000
0.515312 0.537194 0.000000
0.546838 0.537316 0.000000
0.578363 0.537469 0.000000
0.606653 0.533959 0.000000
0.652399 0.544457 0.000000
0.698054 0.555352 0.000000
0.743069 0.564904 0.000000
0.786679 0.572625 0.000000
0.828305 0.578302 0.000000
0.867216 0.581689 0.000000
0.903105 0.582910 0.000000
0.936156 0.582147 0.000000
0.966461 0.579461 0.000000
0.994324 0.574395 0.000000
1.000000 0.565850 0.000000
0.101747 0.565942 0.068574
0.107668 0.565942 0.068299
0.115694 0.566064 0.067384
0.129946 0.566155 0.065370
0.149508 0.566461 0.063264
0.172671 0.566735 0.059297
0.197238 0.567132 0.051270
0.223331 0.567559 0.037629
0.250340 0.568170 0.019409
0.277867 0.568780 0.000000
0.306310 0.569543 0.000000
0.334722 0.570397 0.000000
0.364019 0.571221 0.000000
0.394354 0.572930 0.000000
0.427588 0.576043 0.000000
0.461402 0.579278 0.000000
0.496162 0.582696 0.000000
0.530022 0.584588 0.000000
0.562646 0.584558 0.000000
0.595331 0.584619 0.000000
0.627985 0.584558 0.000000
0.655726 0.579797 0.000000
0.701320 0.589105 0.000000
0.745815 0.598749 0.000000
0.789090 0.606531 0.000000
0.830228 0.612085 0.000000
0.868589 0.615381 0.000000
0.904021 0.616358 0.000000
0.936675 0.615259 0.000000
0.966674 0.612421 0.000000
0.994293 0.607996 0.000000
1.000000 0.599817 0.000000
0.085298 0.613642 0.000000
0.093141 0.613672 0.000000
0.103212 0.613703 0.000000
0.120821 0.613886 0.000000
0.143557 0.614069 0.000000
0.169100 0.614343 0.000000
0.196201 0.614740 0.000000
0.224338 0.615137 0.000000
0.252934 0.615656 0.000000
0.282292 0.616205 0.000000
0.311772 0.616876 0.000000
0.341894 0.617548 0.000000
0.372473 0.618402 0.000000
0.403174 0.619318 0.000000
0.436042 0.621546 0.000000
0.470710 0.624414 0.000000
0.505974 0.627558 0.000000
0.541772 0.630762 0.000000
0.576379 0.631952 0.000000
0.609949 0.631861 0.000000
0.643519 0.631830 0.000000
0.677119 0.631739 0.000000
0.704280 0.625574 0.000000
0.748684 0.633173 0.000000
0.791440 0.640742 0.000000
0.832059 0.646235 0.000000
0.869902 0.649226 0.000000
0.904906 0.649897 0.000000
0.937163 0.648585 0.000000
0.966857 0.645472 0.000000
0.994202 0.640681 0.000000
1.000000 0.633295 0.000000
0.061677 0.661402 0.000000
0.073487 0.661494 0.000000
0.087129 0.661494 0.000000
0.108919 0.661677 0.000000
0.136233 0.661799 0.000000
0.164431 0.662104 0.000000
0.193973 0.662409 0.000000
0.224186 0.662745 0.000000
0.254643 0.663203 0.000000
0.285466 0.663630 0.000000
0.316594 0.664302 0.000000
0.347936 0.664881 0.000000
0.379431 0.665583 0.000000
0.411200 0.666346 0.000000
0.443275 0.667109 0.000000
0.478462 0.669612 0.000000
0.514153 0.672297 0.000000
0.550317 0.675044 0.000000
0.586877 0.677913 0.000000
0.621942 0.678431 0.000000
0.656336 0.678187 0.000000
0.690547 0.677974 0.000000
0.724849 0.677760 0.000000
0.752132 0.671290 0.000000
0.793820 0.675990 0.000000
0.833951 0.680659 0.000000
0.871275 0.683375 0.000000
0.905791 0.683742 0.000000
0.937621 0.682063 0.000000
0.966979 0.678645 0.000000
0.994079 0.673548 0.000000
1.000000 0.666560 0.000000
0.000000 0.708553 0.000000
0.023346 0.708614 0.000000
0.061646 0.708583 0.000000
0.094209 0.708705 0.000000
0.126192 0.708858 0.000000
0.158053 0.708980 0.000000
0.190707 0.709285 0.000000
0.222843 0.709560 0.000000
0.255039 0.709987 0.000000
0.287205 0.710323 0.000000
0.319829 0.710780 0.000000
0.352270 0.711208 0.000000
0.384863 0.711757 0.000000
0.417578 0.712276 0.000000
0.450385 0.712947 0.000000
0.484108 0.714076 0.000000
0.520348 0.716243 0.000000
0.556847 0.718593 0.000000
0.593591 0.720882 0.000000
0.630610 0.723262 0.000000
0.665858 0.723110 0.000000
0.700587 0.722621 0.000000
0.735286 0.722194 0.000000
0.769772 0.721614 0.000000
0.799130 0.716457 0.000000
0.835630 0.716396 0.000000
0.872526 0.717769 0.000000
0.906615 0.717830 0.000000
0.938048 0.715724 0.000000
0.967071 0.711879 0.000000
0.993896 0.706508 0.000000
1.000000 0.699733 0.000000
0.000000 0.754055 0.000000
0.000000 0.754086 0.000000
0.000000 0.754086 0.000000
0.073823 0.754147 0.000000
0.114717 0.754269 0.000000
0.150912 0.754421 0.000000
0.185672 0.754635 0.000000
0.220249 0.754849 0.000000
0.254490 0.755001 0.000000
0.288060 0.755306 0.000000
0.321508 0.755581 0.000000
0.355077 0.755856 0.000000
0.388342 0.756283 0.000000
0.422065 0.756588 0.000000
0.455482 0.756985 0.000000
0.488930 0.757351 0.000000
0.524376 0.758572 0.000000
0.561028 0.760372 0.000000
0.597833 0.762142 0.000000
0.634791 0.763912 0.000000
0.671839 0.765591 0.000000
0.707027 0.764828 0.000000
0.742000 0.764096 0.000000
0.776669 0.763333 0.000000
0.811185 0.762417 0.000000
0.841978 0.758358 0.000000
0.873533 0.753689 0.000000
0.907347 0.751980 0.000000
0.938415 0.749508 0.000000
0.967102 0.745266 0.000000
0.993622 0.739498 0.000000
1.000000 0.732387 0.000000
0.000000 0.797055 0.000000
0.000000 0.797055 0.000000
0.000000 0.797086 0.000000
0.039582 0.797116 0.000000
0.101900 0.797208 0.000000
0.142824 0.797269 0.000000
0.181369 0.797360 0.000000
0.217258 0.797421 0.000000
0.252659 0.797574 0.000000
0.287602 0.797665 0.000000
0.321996 0.797757 0.000000
0.356207 0.797940 0.000000
0.390417 0.798032 0.000000
0.424353 0.798184 0.000000
0.458259 0.798337 0.000000
0.492317 0.798459 0.000000
0.526177 0.798611 0.000000
0.562737 0.799741 0.000000
0.599329 0.801022 0.000000
0.636164 0.802152 0.000000
0.672938 0.803250 0.000000
0.709560 0.803952 0.000000
0.744717 0.802976 0.000000
0.779507 0.801846 0.000000
0.814054 0.800687 0.000000
0.848295 0.799496 0.000000
0.880491 0.796567 0.000000
0.907805 0.788052 0.000000
0.938689 0.783474 0.000000
0.967071 0.778805 0.000000
0.993317 0.772580 0.000000
1.000000 0.765103 0.000000
0.000000 0.836728 0.000000
0.000000 0.836728 0.000000
0.000000 0.836728 0.000000
0.000000 0.836728 0.000000
0.089448 0.836728 0.000000
0.136080 0.836728 0.000000
0.176364 0.836728 0.000000
0.213962 0.836728 0.000000
0.250523 0.836698 0.000000
0.286198 0.836637 0.000000
0.321141 0.836637 0.000000
0.355901 0.836637 0.000000
0.390570 0.836545 0.000000
0.424872 0.836484 0.000000
0.459205 0.836332 0.000000
0.493294 0.836240 0.000000
0.527245 0.836088 0.000000
0.561883 0.836179 0.000000
0.598566 0.836881 0.000000
0.635004 0.837522 0.000000
0.671504 0.838163 0.000000
0.708003 0.838682 0.000000
0.743954 0.838651 0.000000
0.778836 0.837308 0.000000
0.813352 0.835935 0.000000
0.847593 0.834440 0.000000
0.881498 0.832975 0.000000
0.915099 0.831388 0.000000
0.938628 0.819547 0.000000
0.966918 0.812467 0.000000
0.992950 0.805783 0.000000
1.000000 0.797879 0.000000
0.000000 0.872770 0.000000
0.000000 0.872740 0.000000
0.000000 0.872740 0.000000
0.000000 0.872679 0.000000
0.079774 0.872679 0.000000
0.130434 0.872587 0.000000
0.172732 0.872496 0.000000
0.211154 0.872435 0.000000
0.248356 0.872313 0.000000
0.284306 0.872190 0.000000
0.319585 0.872007 0.000000
0.354620 0.871855 0.000000
0.389288 0.871611 0.000000
0.423865 0.871366 0.000000
0.458198 0.871092 0.000000
0.492256 0.870756 0.000000
0.526329 0.870390 0.000000
0.560204 0.869993 0.000000
0.595575 0.869993 0.000000
0.631708 0.870268 0.000000
0.667903 0.870420 0.000000
0.703883 0.870512 0.000000
0.739895 0.870512 0.000000
0.775296 0.869871 0.000000
0.809751 0.868254 0.000000
0.843839 0.866636 0.000000
0.877653 0.864927 0.000000
0.911131 0.863127 0.000000
0.944244 0.861326 0.000000
0.966400 0.848508 0.000000
0.992432 0.839139 0.000000
1.000000 0.830777 0.000000
0.000000 0.905333 0.000000
0.000000 0.905303 0.000000
0.000000 0.905303 0.000000
0.000000 0.905272 0.000000
0.075959 0.905180 0.000000
0.128328 0.905089 0.000000
0.170443 0.904967 0.000000
0.209232 0.904814 0.000000
0.246342 0.904662 0.000000
0.282475 0.904387 0.000000
0.317906 0.904143 0.000000
0.352819 0.903868 0.000000
0.387518 0.903502 0.000000
0.421912 0.903136 0.000000
0.456031 0.902678 0.000000
