其他预设/【233】日式怀旧街道调色预设208款/1.3D LUT预设（视频调色-PR-AE-PS-FCPX-达芬奇用）/3.日式城市街拍预设 (自动曝光预设)/JA – Gritty Contrast 1 (Auto-Exposure).cube
# Created by Adobe Lightroom plugin Export LUT (1.17.0)
# www.johnrellis.com/lightroom/exportlut.htm
# Preset: JA – Gritty Contrast 1 (Auto-Exposure)
# Color profile: /Library/Application Support/Adobe/Color/Profiles/Recommended/AdobeRGB1998.icc
LUT_3D_SIZE 8
DOMAIN_MIN 0.000000 0.000000 0.000000
DOMAIN_MAX 0.903226 0.903226 0.903226
0.112947 0.115755 0.117494
0.149264 0.118410 0.119570
0.242557 0.126162 0.121950
0.423163 0.141604 0.114015
0.627405 0.168765 0.088869
0.785977 0.195804 0.056916
0.904021 0.217655 0.067536
0.981109 0.243809 0.141634
0.121859 0.140597 0.119020
0.149691 0.139376 0.123110
0.244694 0.152529 0.122927
0.425727 0.178378 0.112490
0.628779 0.207156 0.085176
0.786648 0.228763 0.048646
0.904143 0.244450 0.067628
0.980865 0.265171 0.144991
0.146853 0.196933 0.124331
0.173709 0.197452 0.123110
0.247257 0.205478 0.128176
0.435279 0.264836 0.106966
0.633906 0.299870 0.071382
0.788907 0.314336 0.018647
0.904540 0.319738 0.070924
0.980072 0.328527 0.157992
0.197818 0.307958 0.120119
0.227085 0.307897 0.115785
0.304845 0.312200 0.117678
0.443671 0.343114 0.117098
0.643427 0.401831 0.063172
0.793393 0.418921 0.000000
0.905211 0.416724 0.086549
0.978393 0.415808 0.184726
0.276097 0.464393 0.086763
0.304967 0.462409 0.079164
0.387488 0.462043 0.065339
0.502739 0.472267 0.080262
0.646662 0.488228 0.099763
0.798306 0.516350 0.063386
0.905913 0.520348 0.124178
0.975494 0.513481 0.231266
0.356939 0.613092 0.000000
0.382116 0.610773 0.000000
0.457008 0.602411 0.000000
0.568322 0.611109 0.000000
0.687373 0.612757 0.056855
0.804807 0.607294 0.140841
0.905394 0.609491 0.184726
0.970794 0.612970 0.297795
0.436347 0.750576 0.000000
0.457313 0.748562 0.000000
0.523033 0.741360 0.000000
0.622827 0.739986 0.000000
0.742031 0.745815 0.000000
0.835203 0.723354 0.159182
0.910521 0.700526 0.277226
0.964752 0.694636 0.374578
0.507408 0.861784 0.000000
0.523827 0.860410 0.000000
0.578088 0.855558 0.000000
0.664210 0.848661 0.000000
0.768582 0.847501 0.000000
0.874937 0.845365 0.204532
0.929717 0.806638 0.389990
0.964538 0.784451 0.497475
0.112306 0.121798 0.150759
0.139376 0.127077 0.149081
0.238224 0.128389 0.145357
0.417884 0.145876 0.139284
0.623499 0.178073 0.115969
0.783383 0.214389 0.083284
0.902525 0.242039 0.066377
0.980591 0.256931 0.143313
0.116426 0.143923 0.150454
0.145754 0.148989 0.151339
0.239384 0.157229 0.150027
0.421027 0.179141 0.139467
0.625330 0.211215 0.115450
0.784268 0.241978 0.083589
0.902678 0.265049 0.067231
0.980377 0.276921 0.146365
0.132662 0.206332 0.152926
0.167086 0.209720 0.152071
0.246738 0.212802 0.155673
0.432288 0.263188 0.141848
0.631617 0.298314 0.115236
0.787198 0.318944 0.086000
0.903288 0.332738 0.071229
0.979644 0.336522 0.159304
0.177218 0.322454 0.148379
0.215213 0.323095 0.145602
0.306950 0.325078 0.142947
0.444221 0.348150 0.149783
0.642023 0.402533 0.122164
0.792203 0.419898 0.098543
0.904204 0.423987 0.091005
0.978058 0.420874 0.186252
0.256474 0.477821 0.128908
0.289799 0.475715 0.122377
0.381689 0.471168 0.105898
0.504326 0.480507 0.122103
0.646509 0.492042 0.146578
0.797391 0.518608 0.133425
0.905089 0.524285 0.138979
0.975219 0.516686 0.232731
0.340642 0.622431 0.097627
0.367864 0.619928 0.086091
0.448524 0.611139 0.000000
0.564446 0.616205 0.046113
0.690181 0.620325 0.123598
0.803891 0.611017 0.188449
0.904417 0.612665 0.205966
0.970611 0.614740 0.299107
0.423743 0.756161 0.074037
0.445350 0.754116 0.044160
0.513909 0.746670 0.000000
0.616571 0.742733 0.000000
0.738766 0.748226 0.069123
0.835264 0.728206 0.205173
0.909667 0.702693 0.289158
0.964630 0.695949 0.375799
0.499763 0.864103 0.129213
0.516045 0.862760 0.113130
0.570459 0.857969 0.000000
0.657557 0.849943 0.000000
0.764370 0.848600 0.059510
0.873167 0.846098 0.212802
0.929534 0.807889 0.387945
0.964324 0.785214 0.498146
0.085237 0.137118 0.252140
0.124453 0.144900 0.248051
0.209384 0.147921 0.230137
0.390356 0.123171 0.244968
0.619959 0.059876 0.218479
0.780545 0.172091 0.217929
0.900542 0.232181 0.213321
0.978759 0.276860 0.214450
0.097993 0.168887 0.249638
0.130037 0.166934 0.250309
0.215274 0.169558 0.233219
0.402258 0.149783 0.240787
0.620569 0.153506 0.223850
0.781125 0.211856 0.220218
0.900603 0.258213 0.215976
0.978485 0.295720 0.217929
0.111269 0.229191 0.247929
0.144442 0.231357 0.247288
0.234134 0.237858 0.240818
0.422461 0.256748 0.240787
0.624872 0.281987 0.234348
0.783383 0.307866 0.228122
0.900725 0.332891 0.226810
0.977478 0.354070 0.231479
0.119051 0.351873 0.273198
0.156435 0.356573 0.267155
0.277348 0.361608 0.235508
0.439582 0.366522 0.248447
0.634272 0.409003 0.249760
0.787167 0.422705 0.246708
0.900664 0.431830 0.249088
0.975402 0.437690 0.258396
0.143862 0.512047 0.259892
0.186618 0.513512 0.241642
0.341772 0.505852 0.228244
0.496773 0.503868 0.230106
0.641932 0.507317 0.267582
0.791592 0.532616 0.277012
0.900084 0.538445 0.286809
0.972015 0.532677 0.300267
0.267552 0.650446 0.250919
0.308049 0.648188 0.246799
0.411841 0.639521 0.225834
0.544549 0.631434 0.206119
0.690700 0.640864 0.255680
0.798215 0.626184 0.314702
0.898497 0.630671 0.334173
0.967071 0.629084 0.356268
0.386694 0.773159 0.270909
0.410773 0.771176 0.264195
0.483528 0.763973 0.234928
0.591455 0.751064 0.178103
0.724910 0.755825 0.238437
0.833921 0.744625 0.322515
0.903014 0.717556 0.392218
0.961639 0.706294 0.415869
0.486122 0.870726 0.313664
0.499519 0.869596 0.302190
0.550683 0.865202 0.270024
0.635645 0.856748 0.202670
0.748653 0.852140 0.233371
0.861723 0.849363 0.323522
0.925780 0.815244 0.425391
0.963714 0.787808 0.500511
0.000000 0.174533 0.467109
0.000000 0.168185 0.464424
0.222324 0.193057 0.431617
0.347906 0.170626 0.383795
0.557305 0.165225 0.398596
0.758938 0.161318 0.384558
0.890379 0.283146 0.394537
0.968231 0.354711 0.404639
0.000000 0.223575 0.462531
0.000000 0.211521 0.462745
0.228061 0.223148 0.436103
0.353582 0.195346 0.387457
0.564660 0.198245 0.400122
0.762203 0.206363 0.385779
0.889921 0.309972 0.398840
0.968109 0.368048 0.405585
0.000000 0.305638 0.457618
0.000000 0.302617 0.456794
0.222324 0.292149 0.450233
0.373358 0.276066 0.397559
0.588556 0.293675 0.403632
0.768612 0.333410 0.402838
0.888884 0.383917 0.411658
0.966949 0.416358 0.413397
0.000000 0.410163 0.448951
0.042176 0.410590 0.446845
0.247105 0.411810 0.437415
0.408789 0.407935 0.409461
0.610101 0.432959 0.418189
0.770169 0.457038 0.424903
0.887938 0.477943 0.430182
0.964141 0.492683 0.433173
0.074311 0.551843 0.465492
0.158175 0.552850 0.462348
0.299138 0.552941 0.446906
0.454627 0.541222 0.405005
0.623346 0.540642 0.431464
0.774929 0.570947 0.450752
0.886778 0.578271 0.457130
0.960143 0.579492 0.462074
0.223636 0.683192 0.460548
0.263981 0.682582 0.456458
0.367895 0.678767 0.438697
0.506462 0.663264 0.404669
0.666560 0.660609 0.414405
0.784421 0.654963 0.466102
0.885893 0.666560 0.486671
0.955200 0.666957 0.499275
0.362005 0.796109 0.464149
0.385931 0.794797 0.460761
0.472053 0.787778 0.460914
0.562005 0.775509 0.410498
0.695094 0.766232 0.392798
0.828763 0.771023 0.458412
0.891203 0.742184 0.516960
0.950683 0.737148 0.536065
0.518456 0.877531 0.520867
0.535180 0.875944 0.522210
0.558648 0.873411 0.488899
0.615534 0.867155 0.428962
0.718074 0.857176 0.375647
0.840452 0.854307 0.447425
0.917693 0.833799 0.529351
0.954223 0.806058 0.583093
0.000000 0.234806 0.667781
0.000000 0.232059 0.667353
0.169314 0.265476 0.649104
0.376043 0.269566 0.603143
0.507225 0.227573 0.549859
0.695399 0.290227 0.550896
0.855619 0.364080 0.557427
0.945861 0.471199 0.577874
0.000000 0.281559 0.664668
0.000000 0.273320 0.665003
0.174197 0.288762 0.651606
0.384924 0.300145 0.605859
0.511498 0.255253 0.551659
0.697719 0.317906 0.553216
0.856748 0.384955 0.560204
0.945708 0.485725 0.581628
0.000000 0.368170 0.659419
0.000000 0.367407 0.658747
0.211765 0.368414 0.656031
0.420294 0.393927 0.614435
0.526757 0.339849 0.557336
0.708949 0.395392 0.561608
0.860929 0.448737 0.569390
0.944091 0.539330 0.599634
0.000000 0.473060 0.651728
0.000000 0.474464 0.650477
0.267979 0.482063 0.645014
0.455238 0.495766 0.630854
0.553460 0.457588 0.565881
0.731075 0.494301 0.574243
0.867277 0.543023 0.588769
0.946075 0.572168 0.592676
0.000000 0.589075 0.638880
0.124361 0.590234 0.637232
0.313970 0.593408 0.630335
0.471046 0.593683 0.613458
0.587121 0.578271 0.576379
0.751186 0.603113 0.589044
0.869078 0.623896 0.599054
0.944488 0.635920 0.602716
0.225589 0.720058 0.644892
0.275883 0.719356 0.643336
0.397131 0.716060 0.637720
0.517144 0.708217 0.620752
0.621271 0.687984 0.570703
0.763424 0.688777 0.600885
0.869352 0.710170 0.622675
0.940429 0.711269 0.627497
0.399603 0.817197 0.645411
0.422614 0.816190 0.644099
0.489998 0.812253 0.638483
0.572839 0.804257 0.621088
0.657679 0.787167 0.567987
0.796323 0.783627 0.581903
0.875761 0.771511 0.634760
0.937224 0.774197 0.651453
0.539452 0.886870 0.658595
0.552667 0.885924 0.658228
0.592920 0.882597 0.655390
0.648341 0.876432 0.644282
0.694789 0.868681 0.574334
0.807156 0.860258 0.559869
0.907530 0.856260 0.629419
0.941497 0.829618 0.676661
0.000000 0.301457 0.802884
0.000000 0.307927 0.802335
0.147768 0.349828 0.796017
0.446937 0.439368 0.771115
0.533715 0.392584 0.732174
0.647120 0.346197 0.688716
0.811215 0.436316 0.689967
0.914763 0.548241 0.701869
0.000000 0.339269 0.800961
0.000000 0.341894 0.801083
0.180636 0.372808 0.797086
0.462501 0.463569 0.772061
0.542077 0.416144 0.733486
0.650263 0.367254 0.689540
0.812131 0.453468 0.691188
0.914977 0.558923 0.703731
0.000000 0.421607 0.797360
0.000000 0.426307 0.797269
0.271855 0.451026 0.795895
0.480873 0.508904 0.778012
0.570214 0.487251 0.738308
0.660914 0.431647 0.692348
0.815091 0.507622 0.695735
0.915984 0.592859 0.709621
0.000000 0.515740 0.792599
0.126619 0.521660 0.792050
0.342016 0.544305 0.789670
0.513512 0.578576 0.784451
0.617914 0.587213 0.747372
0.678737 0.521477 0.697078
0.820706 0.582940 0.703670
0.918578 0.642664 0.718441
0.181949 0.619806 0.785367
0.248569 0.623804 0.784695
0.391119 0.637079 0.782101
0.536584 0.656580 0.776211
0.655360 0.672023 0.765072
0.701991 0.618341 0.703883
0.836851 0.658961 0.714229
0.923125 0.702205 0.730159
0.299657 0.723873 0.775387
0.338201 0.725582 0.774624
0.440528 0.730678 0.771633
0.558099 0.736843 0.764981
0.657984 0.737972 0.751247
0.730556 0.717525 0.713649
0.850492 0.740627 0.728176
0.924620 0.754513 0.735866
0.411353 0.839445 0.784726
0.438575 0.838407 0.783505
0.516564 0.834836 0.779385
0.611994 0.829068 0.772274
0.693141 0.820645 0.757137
0.754147 0.800870 0.708553
0.857328 0.801236 0.739284
0.922667 0.813321 0.754849
0.581140 0.894499 0.780911
0.593591 0.893706 0.780606
0.631830 0.891081 0.779110
0.683253 0.886992 0.774136
0.735225 0.881071 0.760555
0.777798 0.870817 0.707454
0.880186 0.867033 0.722988
0.927581 0.854582 0.764553
0.000000 0.398840 0.881498
0.000000 0.403082 0.881102
0.292119 0.455421 0.878294
0.524773 0.557885 0.866423
0.628931 0.588220 0.850034
0.673121 0.535424 0.826017
0.763058 0.492470 0.800504
0.887846 0.595605 0.800961
0.000000 0.418647 0.880583
0.000000 0.423072 0.880247
0.323430 0.477028 0.878172
0.532891 0.569085 0.866789
0.638849 0.603601 0.850278
0.678737 0.550286 0.826444
0.764950 0.505394 0.800687
0.887968 0.604944 0.801419
0.000000 0.475166 0.878202
0.175418 0.487037 0.877775
0.377325 0.530571 0.875883
0.555261 0.601984 0.868528
0.670436 0.650843 0.851438
0.697566 0.597192 0.828183
0.771328 0.546715 0.801328
0.888487 0.635157 0.803067
0.216159 0.553277 0.874846
0.278721 0.562493 0.874388
0.422553 0.594263 0.872709
0.583459 0.649531 0.869261
0.701137 0.701442 0.855894
0.727901 0.665248 0.832029
0.781796 0.606622 0.802701
0.889830 0.680018 0.806027
0.321721 0.639734 0.870329
0.362341 0.646082 0.869902
0.471565 0.667628 0.868437
0.596582 0.699733 0.866178
0.714717 0.739925 0.862608
0.766445 0.740261 0.839475
0.795529 0.675502 0.805142
0.892363 0.733516 0.811215
0.413397 0.728145 0.864622
0.442237 0.731991 0.864286
0.524773 0.744564 0.863066
0.625360 0.762966 0.861173
0.719844 0.783139 0.858579
0.797086 0.800412 0.853544
0.812863 0.749935 0.809232
0.901579 0.785946 0.819150
0.493599 0.811276 0.858000
0.513817 0.812894 0.857725
0.574487 0.818173 0.856748
0.653346 0.825895 0.855070
0.732052 0.833982 0.852049
0.795712 0.837858 0.844999
0.833097 0.820859 0.816831
0.910796 0.837552 0.828122
0.574212 0.899901 0.866361
0.588800 0.900420 0.866636
0.633387 0.902007 0.867491
0.697963 0.897887 0.863035
0.764492 0.893400 0.858122
0.816281 0.888975 0.849821
0.847807 0.877165 0.812924
0.915038 0.876707 0.835721
0.391608 0.531243 0.924254
0.391760 0.533013 0.924102
0.439460 0.557610 0.922759
0.618280 0.656245 0.914977
0.745052 0.738277 0.905516
0.768612 0.724971 0.898741
0.788693 0.682460 0.888029
0.850034 0.654475 0.877714
0.393011 0.539361 0.923888
0.392889 0.540856 0.923796
0.449500 0.568231 0.922271
0.622431 0.661891 0.915038
0.746883 0.741787 0.905760
0.773159 0.732479 0.898772
0.791623 0.689967 0.888090
0.851011 0.660883 0.877684
0.398230 0.563653 0.922942
0.398108 0.564935 0.922850
0.468574 0.595270 0.921080
0.632074 0.677516 0.915496
0.751827 0.752468 0.906737
0.787716 0.756008 0.899077
0.801328 0.714473 0.888457
0.854337 0.681697 0.877623
0.407294 0.598840 0.921691
0.407294 0.599939 0.921569
0.467872 0.623346 0.920104
0.635889 0.698116 0.915373
0.755673 0.766262 0.908843
0.809140 0.789914 0.900328
0.816617 0.751339 0.889647
0.859739 0.713558 0.877836
0.421241 0.653742 0.919158
0.421027 0.653651 0.919188
0.479896 0.668940 0.918151
0.600885 0.707240 0.915648
0.749172 0.777707 0.911009
0.826444 0.820249 0.903838
0.835843 0.794369 0.892424
0.867094 0.753231 0.878416
0.444373 0.719081 0.915801
0.470069 0.724147 0.915404
0.544701 0.740749 0.914092
0.640681 0.766201 0.912261
0.736233 0.797116 0.910338
0.825315 0.835355 0.908598
0.859495 0.840696 0.897734
0.876127 0.797482 0.879728
0.534936 0.796902 0.911009
0.552697 0.799741 0.910765
0.606470 0.809079 0.909911
0.681483 0.824002 0.908659
0.758633 0.842039 0.907500
0.824186 0.859648 0.907012
0.877226 0.876402 0.906981
0.886839 0.843656 0.882322
0.610803 0.864744 0.906493
0.623102 0.865995 0.906371
0.662135 0.870085 0.905852
0.719142 0.876768 0.905180
0.779446 0.884825 0.904570
0.833127 0.892851 0.904234
0.876341 0.899351 0.903319
0.900328 0.891112 0.887938
