其他预设/【233】日式怀旧街道调色预设208款/1.3D LUT预设（视频调色-PR-AE-PS-FCPX-达芬奇用）/3.日式城市街拍预设 (自动曝光预设)/JA – Subdued 2 (Auto-Exposure).cube
# Created by Adobe Lightroom plugin Export LUT (1.17.0)
# www.johnrellis.com/lightroom/exportlut.htm
# Preset: JA – Subdued 2 (Auto-Exposure)
# Color profile: /Library/Application Support/Adobe/Color/Profiles/Recommended/AdobeRGB1998.icc
LUT_3D_SIZE 32
0.105257 0.103426 0.114748
0.108278 0.103426 0.114687
0.112428 0.103944 0.114748
0.121492 0.104219 0.114687
0.132601 0.104921 0.114321
0.145907 0.105837 0.114015
0.161959 0.107362 0.113313
0.181399 0.109468 0.112490
0.206882 0.112215 0.111177
0.241154 0.116670 0.108919
0.287755 0.124025 0.104829
0.348699 0.135561 0.097749
0.419226 0.150912 0.085328
0.491249 0.168765 0.066255
0.557733 0.186984 0.013336
0.617578 0.204379 0.000000
0.671015 0.220340 0.000000
0.718318 0.235264 0.000000
0.758389 0.247623 0.000000
0.792966 0.258091 0.000000
0.823026 0.267430 0.000000
0.849393 0.275669 0.000000
0.872526 0.282994 0.000000
0.893187 0.288151 0.000000
0.911864 0.291936 0.000000
0.929107 0.294682 0.000000
0.945312 0.296696 0.000000
0.960998 0.298222 0.000000
0.976287 0.298985 0.000000
0.991211 0.298955 0.000000
1.000000 0.298466 0.000000
1.000000 0.297398 0.000000
0.105592 0.106111 0.115175
0.108675 0.106081 0.114900
0.112825 0.106600 0.114748
0.121584 0.107424 0.114443
0.132906 0.107790 0.114290
0.146181 0.108919 0.113771
0.162203 0.110170 0.113069
0.181796 0.112154 0.112245
0.207156 0.115511 0.110903
0.241672 0.120577 0.108522
0.288212 0.128237 0.104372
0.349462 0.140383 0.096834
0.420081 0.156283 0.084291
0.491951 0.174319 0.064637
0.558251 0.192813 0.008301
0.617884 0.210361 0.000000
0.671168 0.226383 0.000000
0.718502 0.239567 0.000000
0.758480 0.251438 0.000000
0.793027 0.261662 0.000000
0.823026 0.271031 0.000000
0.849363 0.278691 0.000000
0.872557 0.285863 0.000000
0.893217 0.291112 0.000000
0.911864 0.294835 0.000000
0.929046 0.297795 0.000000
0.945312 0.299504 0.000000
0.960967 0.300786 0.000000
0.976226 0.301274 0.000000
0.991211 0.301213 0.000000
1.000000 0.300816 0.000000
1.000000 0.299565 0.000000
0.105684 0.110384 0.115450
0.109590 0.110262 0.115175
0.113771 0.110262 0.115053
0.121614 0.110750 0.114412
0.132876 0.111818 0.113985
0.146395 0.112612 0.113466
0.162356 0.114046 0.112947
0.182040 0.116152 0.111910
0.207614 0.119509 0.110750
0.242100 0.125154 0.108278
0.288914 0.133852 0.103731
0.350378 0.146639 0.096132
0.420935 0.163363 0.083162
0.492561 0.182284 0.062135
0.558618 0.200351 0.001770
0.618555 0.216983 0.000000
0.671656 0.232242 0.000000
0.718685 0.245396 0.000000
0.758663 0.256504 0.000000
0.793057 0.266667 0.000000
0.823087 0.275425 0.000000
0.849393 0.283268 0.000000
0.872557 0.290013 0.000000
0.893187 0.295689 0.000000
0.911864 0.299077 0.000000
0.929076 0.301213 0.000000
0.945281 0.302892 0.000000
0.960937 0.304295 0.000000
0.976226 0.304631 0.000000
0.991150 0.304479 0.000000
1.000000 0.303716 0.000000
1.000000 0.302312 0.000000
0.106691 0.118502 0.115999
0.110231 0.118410 0.115938
0.114961 0.118105 0.115633
0.122988 0.118105 0.115206
0.133455 0.118166 0.114473
0.146822 0.120211 0.113436
0.162936 0.121706 0.112490
0.182773 0.124208 0.111574
0.208591 0.128206 0.109865
0.243381 0.135103 0.107179
0.290593 0.145235 0.102205
0.351995 0.160006 0.093996
0.422675 0.178225 0.079896
0.494087 0.197421 0.056184
0.559991 0.214267 0.000000
0.619440 0.229862 0.000000
0.672358 0.244236 0.000000
0.719234 0.256962 0.000000
0.759030 0.267674 0.000000
0.793301 0.277043 0.000000
0.823209 0.285252 0.000000
0.849454 0.292149 0.000000
0.872587 0.298680 0.000000
0.893156 0.303929 0.000000
0.911803 0.307622 0.000000
0.928985 0.309728 0.000000
0.945220 0.310735 0.000000
0.960876 0.311406 0.000000
0.976165 0.311467 0.000000
0.991089 0.311040 0.000000
1.000000 0.310033 0.000000
1.000000 0.308476 0.000000
0.107668 0.128573 0.116915
0.111208 0.128481 0.116640
0.115602 0.128267 0.116548
0.124086 0.127962 0.116152
0.134676 0.127962 0.115419
0.147005 0.128084 0.114382
0.163577 0.131258 0.113252
0.183780 0.135500 0.111696
0.210056 0.140383 0.109834
0.245426 0.148348 0.106661
0.293156 0.160494 0.101381
0.355169 0.177218 0.092042
0.425422 0.196658 0.077668
0.496620 0.216342 0.048829
0.561822 0.233433 0.000000
0.620691 0.248966 0.000000
0.673457 0.262608 0.000000
0.719997 0.274388 0.000000
0.759548 0.284123 0.000000
0.793729 0.292302 0.000000
0.823453 0.299626 0.000000
0.849607 0.305974 0.000000
0.872648 0.311192 0.000000
0.893156 0.315953 0.000000
0.911711 0.320348 0.000000
0.928893 0.321752 0.000000
0.945098 0.322484 0.000000
0.960784 0.322606 0.000000
0.976013 0.322148 0.000000
0.990967 0.321294 0.000000
1.000000 0.319646 0.000000
1.000000 0.317906 0.000000
0.109071 0.140536 0.118135
0.112337 0.140322 0.117891
0.116701 0.140108 0.117586
0.125124 0.139651 0.117220
0.135988 0.139620 0.116701
0.148867 0.140291 0.115785
0.163851 0.140993 0.114534
0.184207 0.146059 0.112886
0.211521 0.154391 0.110506
0.248051 0.164828 0.107027
0.296513 0.178988 0.100893
0.359075 0.198123 0.090700
0.428992 0.218967 0.074556
0.499428 0.239414 0.037659
0.564202 0.257053 0.000000
0.622522 0.271977 0.000000
0.674891 0.285252 0.000000
0.721004 0.296178 0.000000
0.760159 0.305272 0.000000
0.794095 0.311955 0.000000
0.823728 0.318120 0.000000
0.849760 0.323400 0.000000
0.872679 0.327642 0.000000
0.893126 0.331273 0.000000
0.911650 0.334813 0.000000
0.928740 0.337621 0.000000
0.944945 0.337591 0.000000
0.960601 0.336919 0.000000
0.975891 0.335882 0.000000
0.990845 0.334386 0.000000
1.000000 0.332494 0.000000
1.000000 0.330205 0.000000
0.110048 0.154788 0.118990
0.113527 0.154543 0.118746
0.117586 0.154238 0.118654
0.126375 0.153933 0.118257
0.138430 0.153384 0.117769
0.151156 0.154269 0.116823
0.166293 0.155306 0.115938
0.184482 0.157290 0.114717
0.211856 0.166232 0.112184
0.249546 0.180179 0.107820
0.300938 0.200839 0.100038
0.363775 0.222202 0.088777
0.433722 0.245212 0.069459
0.503288 0.266667 0.017365
0.567346 0.284337 0.000000
0.624903 0.299107 0.000000
0.676661 0.311803 0.000000
0.722347 0.321386 0.000000
0.761135 0.329137 0.000000
0.794705 0.335149 0.000000
0.824094 0.340276 0.000000
0.849943 0.343969 0.000000
0.872709 0.347265 0.000000
0.893126 0.349584 0.000000
0.911559 0.352300 0.000000
0.928618 0.354162 0.000000
0.944793 0.355535 0.000000
0.960449 0.353979 0.000000
0.975708 0.352361 0.000000
0.990631 0.350347 0.000000
1.000000 0.347845 0.000000
1.000000 0.344976 0.000000
0.111513 0.171725 0.119692
0.114595 0.171695 0.119600
0.118898 0.171542 0.119326
0.128023 0.171084 0.119142
0.140719 0.170626 0.118410
0.155093 0.170718 0.117708
0.170596 0.172610 0.116854
0.188907 0.174929 0.115541
0.212467 0.179202 0.113558
0.250034 0.194217 0.108888
0.301244 0.216342 0.100801
0.367254 0.245426 0.086061
0.439338 0.274540 0.061097
0.507897 0.296849 0.000000
0.570825 0.314702 0.000000
0.627619 0.329076 0.000000
0.678737 0.341131 0.000000
0.723812 0.350072 0.000000
0.762081 0.356451 0.000000
0.795438 0.361151 0.000000
0.824491 0.364782 0.000000
0.850156 0.367224 0.000000
0.872770 0.369299 0.000000
0.893065 0.371069 0.000000
0.911467 0.372259 0.000000
0.928496 0.373205 0.000000
0.944579 0.374487 0.000000
0.960204 0.373754 0.000000
0.975494 0.371191 0.000000
0.990417 0.368475 0.000000
1.000000 0.365393 0.000000
1.000000 0.362036 0.000000
0.112154 0.193790 0.119814
0.115816 0.193606 0.119570
0.120668 0.193637 0.119417
0.130312 0.193149 0.119234
0.143893 0.192874 0.118654
0.160220 0.192538 0.117922
0.177340 0.194247 0.116579
0.196933 0.197787 0.115114
0.219760 0.202029 0.113008
0.250706 0.209812 0.109682
0.301884 0.233341 0.100740
0.367407 0.263859 0.084596
0.440101 0.296818 0.053620
0.511864 0.327367 0.000000
0.574762 0.347845 0.000000
0.630854 0.361883 0.000000
0.681178 0.372992 0.000000
0.725643 0.381140 0.000000
0.763333 0.386084 0.000000
0.796139 0.389685 0.000000
0.824949 0.392065 0.000000
0.850340 0.393225 0.000000
0.872862 0.394079 0.000000
0.893004 0.394568 0.000000
0.911315 0.394537 0.000000
0.928313 0.394324 0.000000
0.944396 0.394537 0.000000
0.959930 0.394812 0.000000
0.975189 0.392279 0.000000
0.990143 0.388678 0.000000
1.000000 0.384955 0.000000
1.000000 0.381048 0.000000
0.112490 0.222538 0.118563
0.116518 0.222568 0.118471
0.121859 0.222538 0.118318
0.133059 0.222416 0.117830
0.148623 0.222141 0.116976
0.166812 0.221897 0.116121
0.187167 0.221775 0.115053
0.208530 0.226383 0.113130
0.233402 0.232242 0.110323
0.262394 0.239353 0.106569
0.302434 0.251621 0.100252
0.367163 0.283482 0.082795
0.439185 0.317510 0.044862
0.510307 0.348791 0.000000
0.575616 0.375250 0.000000
0.634333 0.396948 0.000000
0.683955 0.407294 0.000000
0.727596 0.414221 0.000000
0.764584 0.418158 0.000000
0.796963 0.420172 0.000000
0.825437 0.421210 0.000000
0.850553 0.421149 0.000000
0.872892 0.420600 0.000000
0.892912 0.419776 0.000000
0.911162 0.418677 0.000000
0.928069 0.417517 0.000000
0.944152 0.416510 0.000000
0.959716 0.415930 0.000000
0.974914 0.414679 0.000000
0.989837 0.410559 0.000000
1.000000 0.406256 0.000000
1.000000 0.401740 0.000000
0.110994 0.260563 0.114992
0.115633 0.260563 0.114900
0.122438 0.260624 0.114473
0.135866 0.260410 0.114107
0.154147 0.260197 0.113130
0.175448 0.260258 0.112001
0.199130 0.260075 0.110475
0.223636 0.262364 0.108309
0.251102 0.270024 0.104311
0.283055 0.279026 0.099245
0.319432 0.289586 0.092287
0.366705 0.304692 0.080079
0.438331 0.339452 0.029541
0.508659 0.371496 0.000000
0.573480 0.398077 0.000000
0.632197 0.420020 0.000000
0.684718 0.438056 0.000000
0.729580 0.449226 0.000000
0.765927 0.451698 0.000000
0.797757 0.452583 0.000000
0.825864 0.452064 0.000000
0.850736 0.450935 0.000000
0.872923 0.448920 0.000000
0.892790 0.446784 0.000000
0.910918 0.444465 0.000000
0.927825 0.442237 0.000000
0.943877 0.440101 0.000000
0.959411 0.438697 0.000000
0.974609 0.437110 0.000000
0.989441 0.433936 0.000000
1.000000 0.428992 0.000000
1.000000 0.423865 0.000000
0.106874 0.308751 0.107454
0.113436 0.308904 0.107240
0.122438 0.308659 0.106600
0.138247 0.308751 0.106020
0.160830 0.308415 0.105013
0.185672 0.308507 0.103334
0.212955 0.308507 0.101259
0.241428 0.308415 0.098787
0.271763 0.314733 0.093874
0.305852 0.324865 0.086488
0.344335 0.336400 0.076112
0.387182 0.349523 0.059815
0.436194 0.363195 0.011566
0.506828 0.394995 0.000000
0.571099 0.421790 0.000000
0.629389 0.443641 0.000000
0.681880 0.461311 0.000000
0.727749 0.475074 0.000000
0.766506 0.484688 0.000000
0.798611 0.486458 0.000000
0.826322 0.484565 0.000000
0.850919 0.481880 0.000000
0.872831 0.478645 0.000000
0.892576 0.475257 0.000000
0.910674 0.471748 0.000000
0.927489 0.468330 0.000000
0.943511 0.465278 0.000000
0.959075 0.462623 0.000000
0.974243 0.460426 0.000000
0.989075 0.458381 0.000000
1.000000 0.452888 0.000000
1.000000 0.447150 0.000000
0.099763 0.364508 0.093263
0.108797 0.364569 0.092988
0.119783 0.364446 0.092653
0.139895 0.364446 0.091585
0.166842 0.364111 0.089876
0.195804 0.364080 0.087831
0.227024 0.363745 0.085023
0.259434 0.363165 0.081300
0.292699 0.363439 0.076265
0.327886 0.373877 0.064637
0.367132 0.385412 0.037507
0.410193 0.397864 0.000000
0.456794 0.411353 0.000000
0.502953 0.420447 0.000000
0.568200 0.446174 0.000000
0.626429 0.468147 0.000000
0.678828 0.485481 0.000000
0.724636 0.498573 0.000000
0.763729 0.507805 0.000000
0.797482 0.514244 0.000000
0.826780 0.518303 0.000000
0.851072 0.514244 0.000000
0.872770 0.509606 0.000000
0.892332 0.504906 0.000000
0.910338 0.500206 0.000000
0.927123 0.495705 0.000000
0.943145 0.491585 0.000000
0.958709 0.487984 0.000000
0.973846 0.484688 0.000000
0.988678 0.481758 0.000000
1.000000 0.477790 0.000000
1.000000 0.471473 0.000000
0.088594 0.422705 0.070008
0.100465 0.422614 0.069612
0.114778 0.422492 0.068666
0.140169 0.422187 0.067079
0.170779 0.421790 0.064363
0.204349 0.421363 0.060975
0.239322 0.420722 0.053620
0.274418 0.420081 0.042329
0.310765 0.419226 0.025483
0.347265 0.422583 0.000000
0.386236 0.433112 0.000000
0.428534 0.444770 0.000000
0.473579 0.456672 0.000000
0.521080 0.468940 0.000000
0.562310 0.472419 0.000000
0.622827 0.492927 0.000000
0.675288 0.510277 0.000000
0.721187 0.523064 0.000000
0.760586 0.531579 0.000000
0.794675 0.537346 0.000000
0.824369 0.541039 0.000000
0.850278 0.543236 0.000000
0.872618 0.541680 0.000000
0.892088 0.535729 0.000000
0.909972 0.529808 0.000000
0.926696 0.524071 0.000000
0.942687 0.518914 0.000000
0.958251 0.514275 0.000000
0.973419 0.509941 0.000000
0.988220 0.506310 0.000000
1.000000 0.502892 0.000000
1.000000 0.496620 0.000000
0.073884 0.478309 0.000061
0.091218 0.477943 0.000000
0.108339 0.477913 0.000000
0.137514 0.477455 0.000000
0.172244 0.476875 0.000000
0.209903 0.476143 0.000000
0.247379 0.475349 0.000000
0.285588 0.474128 0.000000
0.323796 0.472786 0.000000
0.362097 0.471229 0.000000
0.400793 0.477913 0.000000
0.441749 0.488014 0.000000
0.485115 0.498665 0.000000
0.530877 0.509667 0.000000
0.578668 0.520897 0.000000
0.615381 0.519921 0.000000
0.671168 0.535271 0.000000
0.717433 0.547875 0.000000
0.757076 0.556085 0.000000
0.791592 0.561303 0.000000
0.821561 0.564233 0.000000
0.847807 0.565667 0.000000
0.870848 0.565911 0.000000
0.891417 0.565515 0.000000
0.909483 0.560174 0.000000
0.926177 0.553429 0.000000
0.942199 0.547143 0.000000
0.957763 0.541436 0.000000
0.972930 0.536400 0.000000
0.987701 0.531762 0.000000
1.000000 0.527520 0.000000
1.000000 0.522332 0.000000
0.058228 0.528862 0.000000
0.078004 0.528649 0.000000
0.098726 0.528435 0.000000
0.133486 0.528038 0.000000
0.171969 0.527337 0.000000
0.211826 0.526452 0.000000
0.251713 0.525231 0.000000
0.291814 0.523857 0.000000
0.331853 0.522179 0.000000
0.371832 0.520226 0.000000
0.411353 0.518853 0.000000
0.450996 0.527977 0.000000
0.493019 0.537560 0.000000
0.536919 0.547356 0.000000
0.582544 0.557427 0.000000
0.629755 0.567529 0.000000
0.662684 0.562768 0.000000
0.713130 0.573083 0.000000
0.753292 0.581018 0.000000
0.788266 0.585779 0.000000
0.818570 0.588128 0.000000
0.845090 0.588708 0.000000
0.868437 0.588281 0.000000
0.889220 0.586999 0.000000
0.908171 0.585412 0.000000
0.925597 0.583551 0.000000
0.941588 0.576287 0.000000
0.957153 0.569574 0.000000
0.972351 0.563531 0.000000
0.987121 0.558007 0.000000
1.000000 0.552819 0.000000
1.000000 0.548119 0.000000
0.000275 0.574792 0.000000
0.059419 0.574731 0.000000
0.088930 0.574395 0.000000
0.127657 0.573938 0.000000
0.169833 0.573175 0.000000
0.211704 0.572229 0.000000
0.253178 0.570916 0.000000
0.295140 0.569238 0.000000
0.335973 0.567468 0.000000
0.377356 0.565240 0.000000
0.417731 0.562921 0.000000
0.457496 0.564752 0.000000
0.497871 0.573297 0.000000
0.540093 0.581994 0.000000
0.583734 0.591058 0.000000
0.628717 0.600092 0.000000
0.674708 0.609125 0.000000
0.704189 0.601282 0.000000
0.749020 0.606256 0.000000
0.784512 0.610590 0.000000
0.815274 0.612421 0.000000
0.842100 0.612360 0.000000
0.865782 0.611109 0.000000
0.886870 0.609155 0.000000
0.906004 0.606836 0.000000
0.923735 0.604486 0.000000
0.940551 0.602411 0.000000
0.956512 0.598444 0.000000
0.971679 0.591394 0.000000
0.986481 0.585016 0.000000
1.000000 0.579065 0.000000
1.000000 0.573449 0.000000
0.000000 0.616510 0.000000
0.020722 0.616358 0.000000
0.076234 0.616114 0.000000
0.121279 0.615625 0.000000
0.165805 0.614832 0.000000
0.209232 0.613764 0.000000
0.252598 0.612390 0.000000
0.295445 0.610803 0.000000
0.337316 0.608972 0.000000
0.379095 0.606836 0.000000
0.420447 0.604395 0.000000
0.461158 0.601617 0.000000
0.500725 0.606683 0.000000
0.541436 0.614588 0.000000
0.583490 0.622827 0.000000
0.626520 0.630823 0.000000
0.670405 0.638697 0.000000
0.714565 0.646143 0.000000
0.741115 0.636164 0.000000
0.780331 0.635798 0.000000
0.811582 0.637171 0.000000
0.838926 0.636469 0.000000
0.862974 0.634516 0.000000
0.884337 0.631769 0.000000
0.903746 0.628748 0.000000
0.921691 0.625666 0.000000
0.938720 0.622889 0.000000
0.955108 0.620508 0.000000
0.970825 0.618433 0.000000
0.985748 0.612634 0.000000
1.000000 0.605859 0.000000
1.000000 0.599451 0.000000
0.000000 0.655482 0.000000
0.000000 0.655299 0.000000
0.062867 0.654994 0.000000
0.113649 0.654536 0.000000
0.160800 0.653895 0.000000
0.206424 0.652766 0.000000
0.250797 0.651484 0.000000
0.293858 0.649928 0.000000
0.336828 0.648157 0.000000
0.379492 0.645930 0.000000
0.421088 0.643488 0.000000
0.462470 0.640925 0.000000
0.503136 0.638849 0.000000
0.542168 0.645869 0.000000
0.582300 0.652888 0.000000
0.623346 0.659785 0.000000
0.665064 0.666407 0.000000
0.707088 0.672755 0.000000
0.749325 0.678767 0.000000
0.774441 0.667933 0.000000
0.807523 0.662531 0.000000
0.835447 0.660914 0.000000
0.859861 0.658381 0.000000
0.881590 0.654902 0.000000
0.901274 0.651118 0.000000
0.919493 0.647425 0.000000
0.936767 0.643915 0.000000
0.953338 0.640894 0.000000
0.969299 0.638178 0.000000
0.984649 0.635767 0.000000
0.999390 0.633204 0.000000
1.000000 0.626062 0.000000
0.000000 0.691554 0.000000
0.000000 0.691432 0.000000
0.030976 0.691127 0.000000
0.103670 0.690761 0.000000
0.155825 0.689906 0.000000
0.202792 0.688869 0.000000
0.247745 0.687587 0.000000
0.291814 0.686061 0.000000
0.335149 0.684230 0.000000
0.377966 0.682124 0.000000
0.419776 0.679744 0.000000
0.461219 0.677241 0.000000
0.502464 0.674281 0.000000
0.541802 0.675105 0.000000
0.580194 0.680964 0.000000
0.619379 0.686824 0.000000
0.659113 0.692409 0.000000
0.699153 0.697780 0.000000
0.739406 0.702785 0.000000
0.779660 0.707424 0.000000
0.803342 0.696040 0.000000
0.831327 0.686732 0.000000
0.856535 0.682490 0.000000
0.878660 0.678431 0.000000
0.898650 0.673976 0.000000
0.917144 0.669520 0.000000
0.934661 0.665400 0.000000
0.951507 0.661707 0.000000
0.967681 0.658442 0.000000
0.983215 0.655451 0.000000
0.998169 0.652705 0.000000
1.000000 0.650172 0.000000
0.000000 0.724056 0.000000
0.000000 0.723964 0.000000
0.000000 0.723720 0.000000
0.098085 0.723262 0.000000
0.151217 0.722469 0.000000
0.198337 0.721523 0.000000
0.244022 0.720241 0.000000
0.287999 0.718746 0.000000
0.331487 0.716945 0.000000
0.374517 0.714900 0.000000
0.416541 0.712612 0.000000
0.458198 0.709987 0.000000
0.499092 0.707240 0.000000
0.539666 0.704128 0.000000
0.577203 0.707179 0.000000
0.614588 0.712001 0.000000
0.652583 0.716670 0.000000
0.691005 0.721126 0.000000
0.729397 0.725368 0.000000
0.767788 0.729213 0.000000
0.805966 0.732753 0.000000
0.828641 0.721096 0.000000
0.852384 0.708644 0.000000
0.875456 0.702235 0.000000
0.895811 0.697108 0.000000
0.914641 0.692042 0.000000
0.932433 0.687343 0.000000
0.949493 0.683040 0.000000
0.965911 0.679164 0.000000
0.981689 0.675654 0.000000
0.996857 0.672358 0.000000
1.000000 0.669245 0.000000
0.000000 0.753323 0.000000
0.000000 0.753201 0.000000
0.000000 0.752956 0.000000
0.089479 0.752529 0.000000
0.146059 0.751766 0.000000
0.193881 0.750851 0.000000
0.239384 0.749691 0.000000
0.284123 0.748135 0.000000
0.327184 0.746456 0.000000
0.370092 0.744442 0.000000
0.412024 0.742275 0.000000
0.453285 0.739773 0.000000
0.494179 0.737057 0.000000
0.534417 0.734096 0.000000
0.573724 0.731655 0.000000
0.609583 0.735622 0.000000
0.645899 0.739467 0.000000
0.682673 0.743160 0.000000
0.719356 0.746609 0.000000
0.756222 0.749783 0.000000
0.792874 0.752682 0.000000
0.829374 0.755215 0.000000
0.851072 0.743374 0.000000
0.871336 0.728634 0.000000
0.892790 0.720638 0.000000
0.911955 0.714961 0.000000
0.930053 0.709621 0.000000
0.947417 0.704799 0.000000
0.964050 0.700374 0.000000
0.980072 0.696315 0.000000
0.995453 0.692470 0.000000
1.000000 0.688869 0.000000
0.000000 0.779629 0.000000
0.000000 0.779507 0.000000
0.000000 0.779355 0.000000
0.085451 0.778897 0.000000
0.140810 0.778256 0.000000
0.190280 0.777310 0.000000
0.235538 0.776181 0.000000
0.279423 0.774777 0.000000
0.322332 0.773159 0.000000
0.364874 0.771237 0.000000
0.406317 0.769131 0.000000
0.447272 0.766781 0.000000
0.487831 0.764157 0.000000
0.527886 0.761257 0.000000
0.567254 0.758267 0.000000
0.604425 0.757870 0.000000
0.639246 0.760952 0.000000
0.674342 0.763973 0.000000
0.709651 0.766751 0.000000
0.745113 0.769345 0.000000
0.780362 0.771664 0.000000
0.815488 0.773709 0.000000
0.850309 0.775570 0.000000
0.871183 0.763790 0.000000
0.888670 0.747372 0.000000
0.909056 0.738125 0.000000
0.927489 0.732296 0.000000
0.945159 0.726864 0.000000
0.962127 0.721920 0.000000
0.978393 0.717342 0.000000
0.993988 0.713039 0.000000
1.000000 0.708949 0.000000
0.000000 0.803586 0.000000
0.000000 0.803403 0.000000
0.000000 0.803250 0.000000
0.084535 0.802853 0.000000
0.139559 0.802213 0.000000
0.186831 0.801358 0.000000
0.231937 0.800290 0.000000
0.274846 0.799008 0.000000
0.317754 0.797391 0.000000
0.359167 0.795590 0.000000
0.400488 0.793576 0.000000
0.440833 0.791348 0.000000
0.480903 0.788876 0.000000
0.520531 0.786191 0.000000
0.559472 0.783291 0.000000
0.598169 0.780148 0.000000
0.632654 0.781399 0.000000
0.666529 0.783749 0.000000
0.700404 0.785977 0.000000
0.734493 0.788052 0.000000
0.768521 0.789883 0.000000
0.802426 0.791531 0.000000
0.836027 0.793027 0.000000
0.869444 0.794278 0.000000
0.889708 0.782742 0.000000
0.905028 0.765103 0.000000
0.924804 0.755093 0.000000
0.942779 0.749264 0.000000
0.960021 0.743862 0.000000
0.976562 0.738796 0.000000
0.992432 0.734035 0.000000
1.000000 0.729488 0.000000
0.000000 0.825437 0.000000
0.000000 0.825345 0.000000
0.000000 0.825162 0.000000
0.087098 0.824765 0.000000
0.139803 0.824186 0.000000
0.186038 0.823362 0.000000
0.229526 0.822385 0.000000
0.271366 0.821164 0.000000
0.313207 0.819699 0.000000
0.354284 0.817990 0.000000
0.394263 0.816159 0.000000
0.434241 0.814023 0.000000
0.473976 0.811643 0.000000
0.512902 0.809140 0.000000
0.551385 0.806424 0.000000
0.589471 0.803494 0.000000
0.626612 0.800931 0.000000
0.659113 0.802853 0.000000
0.691798 0.804562 0.000000
0.724605 0.806210 0.000000
0.757412 0.807675 0.000000
0.790219 0.808957 0.000000
0.822904 0.810147 0.000000
0.855253 0.811154 0.000000
0.887449 0.812039 0.000000
0.907317 0.800931 0.000000
0.920928 0.782437 0.000000
0.940246 0.771847 0.000000
0.957794 0.766049 0.000000
0.974670 0.760586 0.000000
0.990784 0.755337 0.000000
1.000000 0.750393 0.000000
0.000000 0.845762 0.000000
0.000000 0.845640 0.000000
0.025025 0.845457 0.000000
0.096925 0.845121 0.000000
0.143679 0.844572 0.000000
0.186618 0.843870 0.000000
0.228183 0.842924 0.000000
0.269200 0.841794 0.000000
0.310002 0.840391 0.000000
0.349798 0.838834 0.000000
0.389105 0.837095 0.000000
0.428138 0.835142 0.000000
0.467018 0.832975 0.000000
0.505425 0.830594 0.000000
0.543267 0.828061 0.000000
0.580865 0.825345 0.000000
0.618036 0.822446 0.000000
0.652338 0.821408 0.000000
0.683986 0.822812 0.000000
0.715724 0.824063 0.000000
0.747494 0.825254 0.000000
0.779263 0.826322 0.000000
0.811002 0.827237 0.000000
0.842527 0.828092 0.000000
0.873838 0.828824 0.000000
0.904936 0.829465 0.000000
0.924529 0.818784 0.000000
0.936858 0.799863 0.000000
0.955474 0.788449 0.000000
0.972625 0.782620 0.000000
0.989044 0.777066 0.000000
1.000000 0.771695 0.000000
0.000000 0.864988 0.000000
0.024109 0.864866 0.000000
0.071138 0.864714 0.000000
0.110109 0.864439 0.000000
0.151583 0.863920 0.000000
0.190677 0.863249 0.000000
0.230320 0.862364 0.000000
0.269200 0.861357 0.000000
0.308202 0.860105 0.000000
0.347021 0.858671 0.000000
0.384985 0.857053 0.000000
0.423194 0.855253 0.000000
0.461067 0.853300 0.000000
0.498482 0.851133 0.000000
0.535851 0.848753 0.000000
0.572656 0.846250 0.000000
0.609400 0.843565 0.000000
0.645533 0.840757 0.000000
0.677241 0.841001 0.000000
0.708003 0.842039 0.000000
0.738857 0.842954 0.000000
0.769741 0.843809 0.000000
0.800565 0.844602 0.000000
0.831327 0.845304 0.000000
0.861875 0.845945 0.000000
0.892241 0.846433 0.000000
0.922301 0.846860 0.000000
0.941588 0.836576 0.000000
0.952728 0.817227 0.000000
0.970520 0.804898 0.000000
0.987243 0.799008 0.000000
1.000000 0.793301 0.000000
0.071107 0.883665 0.000000
0.086610 0.883574 0.000000
0.102480 0.883452 0.000000
0.130373 0.883146 0.000000
0.164462 0.882689 0.000000
0.199619 0.882078 0.000000
0.235416 0.881346 0.000000
0.272129 0.880400 0.000000
0.309239 0.879271 0.000000
0.345953 0.877989 0.000000
0.382818 0.876555 0.000000
0.419806 0.874907 0.000000
0.456489 0.873106 0.000000
0.493172 0.871153 0.000000
0.529473 0.869047 0.000000
