其他预设/【233】日式怀旧街道调色预设208款/1.3D LUT预设（视频调色-PR-AE-PS-FCPX-达芬奇用）/3.日式城市街拍预设 (自动曝光预设)/JA – Cool Normal 1 (Auto-Exposure).cube
# Created by Adobe Lightroom plugin Export LUT (1.17.0)
# www.johnrellis.com/lightroom/exportlut.htm
# Preset: JA – Cool Normal 1 (Auto-Exposure)
# Color profile: /Library/Application Support/Adobe/Color/Profiles/Recommended/AdobeRGB1998.icc
LUT_3D_SIZE 5
DOMAIN_MIN 0.000000 0.000000 0.000000
DOMAIN_MAX 0.903226 0.903226 0.903226
0.092317 0.109651 0.111635
0.215793 0.104158 0.111116
0.488411 0.000000 0.100649
0.736812 0.000000 0.082521
0.941924 0.000000 0.088716
0.074830 0.230503 0.107576
0.223667 0.251225 0.092744
0.475074 0.250492 0.080598
0.727962 0.209049 0.053101
0.938079 0.126131 0.065034
0.000000 0.486976 0.046021
0.208255 0.486305 0.041413
0.502678 0.527184 0.000000
0.721889 0.477913 0.000000
0.924865 0.432136 0.000000
0.000000 0.709621 0.000000
0.164096 0.708827 0.000000
0.444526 0.705592 0.000000
0.742214 0.750668 0.000000
0.939025 0.686915 0.000000
0.000000 0.906126 0.103944
0.141909 0.905089 0.109468
0.425574 0.900938 0.126406
0.662562 0.899626 0.000000
0.901396 0.901884 0.000000
0.066682 0.109407 0.250797
0.227359 0.089601 0.260410
0.502464 0.000000 0.276555
0.748165 0.000000 0.255039
0.943633 0.000000 0.259983
0.000000 0.239567 0.246159
0.217899 0.250126 0.253422
0.495094 0.228916 0.248814
0.739193 0.183352 0.244968
0.939940 0.121889 0.251133
0.000000 0.493233 0.253117
0.180850 0.500542 0.235904
0.502953 0.528252 0.207645
0.714290 0.467475 0.205966
0.927062 0.428748 0.216281
0.000000 0.713008 0.247990
0.143069 0.714870 0.231174
0.444862 0.710811 0.236088
0.742397 0.751003 0.140902
0.936858 0.681453 0.000000
0.000000 0.906218 0.265782
0.139803 0.905821 0.251347
0.426551 0.901488 0.258701
0.663905 0.898466 0.241489
0.900999 0.901732 0.000000
0.000000 0.100160 0.502678
0.215549 0.061616 0.516350
0.513024 0.000000 0.535485
0.758236 0.000000 0.512963
0.938445 0.187228 0.521752
0.000000 0.246677 0.494575
0.170840 0.231632 0.509911
0.510704 0.222568 0.533013
0.753323 0.244724 0.515740
0.934173 0.318303 0.532616
0.000000 0.488197 0.490974
0.155398 0.496437 0.497871
0.494728 0.520378 0.518059
0.734005 0.496315 0.508934
0.927459 0.468086 0.499672
0.000000 0.715724 0.484443
0.138003 0.718563 0.484749
0.456916 0.724971 0.487373
0.741878 0.749538 0.483131
0.918669 0.675441 0.445197
0.000000 0.906035 0.473091
0.170321 0.905364 0.474098
0.434546 0.902586 0.471382
0.671839 0.893462 0.478584
0.899718 0.900237 0.414496
0.000000 0.090822 0.712825
0.170809 0.059388 0.720027
0.471046 0.000000 0.744533
0.755032 0.000000 0.753841
0.940795 0.000000 0.699580
0.000000 0.227115 0.708186
0.124910 0.226383 0.715328
0.463966 0.222904 0.739986
0.753689 0.212161 0.752255
0.938170 0.256077 0.700771
0.000000 0.466682 0.684138
0.094759 0.467414 0.686824
0.444556 0.479896 0.720089
0.748318 0.499641 0.746487
0.925689 0.518517 0.714321
0.000000 0.697902 0.693477
0.089479 0.701198 0.696345
0.442023 0.712642 0.706569
0.736416 0.741268 0.733822
0.906401 0.718868 0.721614
0.000000 0.906096 0.686275
0.123598 0.905333 0.685206
0.437812 0.901701 0.683986
0.695247 0.892973 0.697475
0.898405 0.896880 0.703548
0.000000 0.127352 0.896880
0.129335 0.118410 0.898344
0.421241 0.079805 0.903197
0.678981 0.000000 0.910796
0.915618 0.029755 0.908537
0.000000 0.249729 0.894682
0.114626 0.248203 0.896147
0.420630 0.243931 0.901091
0.679530 0.246372 0.908843
0.914397 0.254734 0.907195
0.000000 0.471321 0.884245
0.156527 0.471534 0.886259
0.418158 0.463783 0.892882
0.681880 0.484901 0.901701
0.909850 0.500938 0.902617
0.000000 0.670863 0.876493
0.000000 0.669856 0.876432
0.385321 0.666102 0.875914
0.678553 0.691585 0.886168
0.902342 0.731868 0.894835
0.000000 0.878660 0.875242
0.000885 0.878813 0.875212
0.413001 0.879026 0.874937
0.680201 0.879606 0.874784
0.894774 0.892515 0.887053
