其他预设/【233】日式怀旧街道调色预设208款/1.3D LUT预设（视频调色-PR-AE-PS-FCPX-达芬奇用）/3.日式城市街拍预设 (自动曝光预设)/JA – Subdued 2 (Auto-Exposure).cube
# Created by Adobe Lightroom plugin Export LUT (1.17.0)
# www.johnrellis.com/lightroom/exportlut.htm
# Preset: JA – Subdued 2 (Auto-Exposure)
# Color profile: /Library/Application Support/Adobe/Color/Profiles/Recommended/AdobeRGB1998.icc
LUT_3D_SIZE 8
DOMAIN_MIN 0.000000 0.000000 0.000000
DOMAIN_MAX 0.903226 0.903226 0.903226
0.105257 0.103426 0.114748
0.132601 0.104921 0.114321
0.206882 0.112215 0.111177
0.419226 0.150912 0.085328
0.671015 0.220340 0.000000
0.823026 0.267430 0.000000
0.911864 0.291936 0.000000
0.976287 0.298985 0.000000
0.107668 0.128573 0.116915
0.134676 0.127962 0.115419
0.210056 0.140383 0.109834
0.425422 0.196658 0.077668
0.673457 0.262608 0.000000
0.823453 0.299626 0.000000
0.911711 0.320348 0.000000
0.976013 0.322148 0.000000
0.112154 0.193790 0.119814
0.143893 0.192874 0.118654
0.219760 0.202029 0.113008
0.440101 0.296818 0.053620
0.681178 0.372992 0.000000
0.824949 0.392065 0.000000
0.911315 0.394537 0.000000
0.975189 0.392279 0.000000
0.099763 0.364508 0.093263
0.166842 0.364111 0.089876
0.292699 0.363439 0.076265
0.456794 0.411353 0.000000
0.678828 0.485481 0.000000
0.826780 0.518303 0.000000
0.910338 0.500206 0.000000
0.973846 0.484688 0.000000
0.000275 0.574792 0.000000
0.169833 0.573175 0.000000
0.335973 0.567468 0.000000
0.497871 0.573297 0.000000
0.674708 0.609125 0.000000
0.815274 0.612421 0.000000
0.906004 0.606836 0.000000
0.971679 0.591394 0.000000
0.000000 0.724056 0.000000
0.151217 0.722469 0.000000
0.331487 0.716945 0.000000
0.499092 0.707240 0.000000
0.652583 0.716670 0.000000
0.805966 0.732753 0.000000
0.895811 0.697108 0.000000
0.965911 0.679164 0.000000
0.000000 0.825437 0.000000
0.139803 0.824186 0.000000
0.313207 0.819699 0.000000
0.473976 0.811643 0.000000
0.626612 0.800931 0.000000
0.757412 0.807675 0.000000
0.887449 0.812039 0.000000
0.957794 0.766049 0.000000
0.116152 0.902342 0.000000
0.183413 0.901488 0.000000
0.313787 0.898436 0.000000
0.454231 0.893034 0.000000
0.595483 0.885252 0.000000
0.726345 0.880125 0.000000
0.842863 0.881712 0.000000
0.956725 0.881743 0.000000
0.102968 0.104494 0.139040
0.129213 0.103853 0.138521
0.203067 0.102022 0.132784
0.418372 0.118990 0.118959
0.670771 0.180484 0.032105
0.823423 0.236423 0.000000
0.912383 0.273594 0.000000
0.976562 0.299168 0.000000
0.105226 0.127810 0.141512
0.130648 0.127749 0.141146
0.207340 0.134493 0.137118
0.423957 0.170504 0.115023
0.673091 0.230900 0.000000
0.823880 0.273716 0.000000
0.912322 0.300694 0.000000
0.976379 0.319585 0.000000
0.102724 0.194675 0.145998
0.131868 0.196811 0.140719
0.218814 0.202548 0.134615
0.442084 0.290867 0.095399
0.680598 0.355077 0.000000
0.825223 0.375219 0.000000
0.911833 0.380194 0.000000
0.975738 0.383429 0.000000
0.000000 0.369757 0.130465
0.120150 0.373449 0.115877
0.283696 0.371191 0.103395
0.457893 0.412909 0.038605
0.680507 0.481971 0.000000
0.826902 0.508782 0.000000
0.910735 0.491341 0.000000
0.974365 0.476539 0.000000
0.000000 0.580438 0.000000
0.075593 0.580224 0.000000
0.315221 0.573785 0.000000
0.492226 0.575158 0.000000
0.675227 0.610010 0.000000
0.816159 0.610498 0.000000
0.906554 0.604059 0.000000
0.972015 0.586328 0.000000
0.000000 0.727779 0.000000
0.000000 0.726558 0.000000
0.306218 0.720699 0.000000
0.488746 0.710414 0.000000
0.649165 0.717403 0.000000
0.806027 0.733059 0.000000
0.896086 0.696284 0.000000
0.966186 0.677882 0.000000
0.000000 0.827390 0.000000
0.026032 0.826078 0.000000
0.291234 0.821469 0.000000
0.462684 0.813291 0.000000
0.621302 0.801694 0.000000
0.755337 0.807858 0.000000
0.887083 0.812131 0.000000
0.957733 0.765896 0.000000
0.080110 0.902861 0.000000
0.164279 0.902037 0.000000
0.303777 0.899016 0.000000
0.447456 0.893614 0.000000
0.590723 0.885832 0.000000
0.724025 0.880125 0.000000
0.841672 0.881743 0.000000
0.956115 0.881804 0.000000
0.093477 0.107454 0.201205
0.127016 0.105379 0.203769
0.198184 0.101015 0.204257
0.399145 0.000000 0.245975
0.665492 0.000000 0.168154
0.822538 0.000000 0.153475
0.913970 0.166995 0.099580
0.978424 0.227970 0.000000
0.100313 0.137301 0.202609
0.121187 0.129061 0.206668
0.202152 0.123690 0.208591
0.410132 0.000000 0.234379
0.666896 0.000000 0.184207
0.824277 0.129915 0.148531
0.913756 0.214511 0.096773
0.978149 0.257176 0.000000
0.089815 0.199008 0.214908
0.116335 0.200198 0.216007
0.209293 0.203098 0.217990
0.441138 0.228275 0.203128
0.679377 0.272190 0.172396
0.825650 0.306340 0.135958
0.912902 0.327031 0.086244
0.977203 0.339391 0.000000
0.000000 0.374609 0.266575
0.000000 0.381262 0.257267
0.199039 0.399573 0.197635
0.459052 0.416876 0.173312
0.685817 0.467384 0.139651
0.826322 0.473732 0.111635
0.911040 0.460853 0.067903
0.975341 0.448981 0.000000
0.000000 0.584924 0.265232
0.000000 0.588708 0.242802
0.185428 0.596185 0.161959
0.466224 0.581079 0.127687
0.675593 0.612482 0.082368
0.817960 0.604822 0.062989
0.907073 0.597589 0.041932
0.972045 0.571099 0.000000
0.000000 0.732204 0.212589
0.000000 0.733761 0.180880
0.186007 0.733333 0.136324
0.447456 0.721614 0.093294
0.635950 0.719509 0.000000
0.804746 0.734035 0.000000
0.895689 0.695064 0.006256
0.965515 0.676783 0.000000
0.000000 0.831540 0.139193
0.000000 0.831724 0.096468
0.217533 0.826749 0.152956
0.427283 0.818357 0.115206
0.601526 0.806088 0.000000
0.748226 0.808194 0.000000
0.884733 0.812436 0.000000
0.955993 0.767422 0.096773
0.000000 0.907317 0.111055
0.000000 0.906126 0.129641
0.296086 0.899626 0.227543
0.437324 0.894560 0.202945
0.579522 0.887144 0.159670
0.717861 0.879698 0.099611
0.838376 0.881437 0.129061
0.953094 0.881865 0.143008
0.000000 0.105806 0.359686
0.117464 0.096559 0.366033
0.278660 0.000000 0.386908
0.414801 0.000000 0.382879
0.637385 0.000000 0.418128
0.811795 0.000000 0.361151
0.908171 0.000000 0.308873
0.968414 0.264652 0.338476
0.000000 0.144564 0.363409
0.050996 0.126802 0.369482
0.265476 0.082246 0.389014
0.421088 0.000000 0.387762
0.642939 0.000000 0.413062
0.813413 0.000000 0.354498
0.904723 0.127413 0.336034
0.969116 0.280980 0.333043
0.000000 0.258915 0.362860
0.000000 0.253391 0.366064
0.180484 0.201724 0.391119
0.437018 0.171206 0.400977
0.658198 0.131746 0.395453
0.814389 0.203738 0.355474
0.900298 0.347936 0.372045
0.970672 0.343694 0.320745
0.000000 0.394354 0.390631
0.000000 0.397162 0.392798
0.142794 0.406439 0.400122
0.443153 0.420691 0.408759
0.671046 0.445045 0.399603
0.812680 0.465034 0.389349
0.899748 0.472755 0.373083
0.967346 0.461952 0.334630
0.000000 0.591455 0.430396
0.000000 0.595026 0.425422
0.000000 0.605066 0.402472
0.422461 0.609796 0.380804
0.668513 0.616205 0.365148
0.810605 0.616358 0.378210
0.896025 0.608759 0.380438
0.962585 0.586267 0.353948
0.000000 0.735744 0.399908
0.000000 0.737087 0.390906
0.000000 0.740078 0.362188
0.415747 0.735622 0.363317
0.620691 0.720302 0.329229
0.797452 0.735500 0.345708
0.887724 0.707088 0.367529
0.956390 0.699367 0.372381
0.000000 0.832700 0.353735
0.000000 0.832670 0.346227
0.000000 0.831327 0.328923
0.424903 0.821927 0.362951
0.587793 0.810758 0.331060
0.741543 0.806882 0.321721
0.877379 0.812741 0.347906
0.948089 0.778836 0.371099
0.000000 0.907317 0.325475
0.000000 0.906676 0.323522
0.194766 0.903624 0.326055
0.464210 0.892851 0.390875
0.584833 0.886748 0.364843
0.714260 0.878233 0.326818
0.835752 0.879881 0.347173
0.946288 0.881895 0.368231
0.000000 0.096040 0.545251
0.008637 0.076112 0.549523
0.293309 0.000000 0.564630
0.504753 0.000000 0.589593
0.655024 0.000000 0.575311
0.791501 0.000000 0.552361
0.891783 0.000000 0.502495
0.958556 0.256870 0.481056
0.000000 0.131380 0.546624
0.000000 0.118929 0.550622
0.268467 0.005585 0.564935
0.495735 0.000000 0.589624
0.657313 0.000000 0.577661
0.791592 0.000000 0.552087
0.890715 0.039368 0.505669
0.956786 0.308965 0.489204
0.000000 0.296178 0.538018
0.000000 0.279057 0.544732
0.125978 0.201236 0.563378
0.460883 0.166964 0.587396
0.661250 0.131868 0.582177
0.789242 0.225620 0.555962
0.885954 0.336400 0.521691
0.950622 0.436561 0.517784
0.000000 0.433692 0.541039
0.000000 0.430671 0.543114
0.076112 0.421851 0.549554
0.424628 0.418250 0.573907
0.658717 0.438514 0.583520
0.788083 0.471351 0.564538
0.877684 0.522545 0.554101
0.939666 0.586084 0.571038
0.000000 0.586572 0.558495
0.000000 0.588312 0.559899
0.000000 0.593988 0.564538
0.428351 0.604364 0.571679
0.652583 0.620630 0.582910
0.788846 0.638605 0.582330
0.874327 0.649073 0.578302
0.942718 0.646601 0.560937
0.000000 0.739925 0.565240
0.000000 0.741024 0.563836
0.000000 0.742519 0.558587
0.408667 0.739345 0.550072
0.627344 0.733547 0.553704
0.784787 0.737575 0.550958
0.872801 0.736568 0.570916
0.940032 0.736385 0.569390
0.000000 0.834012 0.516777
0.000000 0.833707 0.513909
0.070466 0.831327 0.507591
0.403906 0.824613 0.508202
0.610071 0.813291 0.532769
0.738430 0.802731 0.502892
0.865934 0.813260 0.534508
0.935821 0.799496 0.554803
0.000000 0.907103 0.476997
0.000000 0.906310 0.476631
0.214237 0.902861 0.478889
0.423835 0.896239 0.488716
0.615930 0.884001 0.533989
0.718410 0.877775 0.504265
0.833616 0.876951 0.505211
0.936339 0.881926 0.533989
0.000000 0.088319 0.684840
0.000000 0.066743 0.687037
0.251621 0.000000 0.694850
0.458137 0.000000 0.708034
0.661006 0.000000 0.723873
0.797910 0.000000 0.708492
0.877409 0.000000 0.654749
0.942779 0.302678 0.624414
0.000000 0.127626 0.684901
0.000000 0.115206 0.687068
0.222049 0.017609 0.694789
0.446906 0.000000 0.707790
0.659663 0.000000 0.724422
0.797574 0.000000 0.708644
0.875853 0.149966 0.656672
0.941283 0.344884 0.628199
0.000000 0.288548 0.680262
0.000000 0.265446 0.683619
0.000000 0.207553 0.692683
0.414496 0.193698 0.705226
0.650874 0.220310 0.721096
0.794491 0.242618 0.708034
0.869841 0.358312 0.664179
0.936248 0.456062 0.641596
0.000000 0.443977 0.665797
0.000000 0.440253 0.666896
0.108400 0.428107 0.678096
0.411292 0.422156 0.694697
0.645899 0.465492 0.710842
0.787106 0.482399 0.705470
0.859953 0.529381 0.677882
0.929046 0.580865 0.663630
0.000000 0.573602 0.673426
0.000000 0.572961 0.674159
0.094697 0.574517 0.676020
0.427588 0.589136 0.678065
0.636835 0.615808 0.694301
0.778927 0.640314 0.702785
0.854826 0.660121 0.690608
0.923735 0.684596 0.686244
0.000000 0.713588 0.680964
0.000000 0.714290 0.681422
0.124636 0.716304 0.682673
0.434638 0.720333 0.684932
0.632441 0.727749 0.689387
0.772030 0.741604 0.700496
0.856229 0.755062 0.703151
0.924102 0.761837 0.698939
0.000000 0.833616 0.669490
0.000000 0.833066 0.669032
0.143282 0.830228 0.668482
0.424598 0.823667 0.669642
0.611139 0.814878 0.667140
0.750332 0.808438 0.674891
0.853208 0.814633 0.678798
0.924071 0.823026 0.694362
0.000000 0.906462 0.626337
0.000000 0.905455 0.625971
0.237339 0.901732 0.625788
0.436896 0.895140 0.627924
0.600855 0.886229 0.636988
0.738094 0.876677 0.659205
0.829862 0.872007 0.637690
0.924865 0.882231 0.666285
0.000000 0.095888 0.781277
0.000000 0.081209 0.782284
0.185214 0.000000 0.785824
0.398962 0.000000 0.791989
0.585718 0.000000 0.800412
0.756466 0.000000 0.805142
0.876127 0.000000 0.793149
0.933440 0.331579 0.742824
0.000000 0.133272 0.781033
0.000000 0.124575 0.782071
0.151522 0.084993 0.785519
0.389624 0.000000 0.791653
0.583398 0.000000 0.799802
0.757534 0.069917 0.804623
0.874723 0.190097 0.792569
0.931792 0.370550 0.744778
0.000000 0.266636 0.778225
0.000000 0.242161 0.779873
0.000000 0.228397 0.783474
0.374823 0.233646 0.789090
0.586328 0.273381 0.796262
0.763455 0.350042 0.802243
0.869749 0.379004 0.790280
0.926360 0.474464 0.751431
0.000000 0.435004 0.768246
0.000000 0.433356 0.769497
0.226566 0.441169 0.773404
0.412512 0.436622 0.780575
0.608240 0.477699 0.787869
0.772854 0.537987 0.797238
0.861997 0.545464 0.787106
0.918639 0.590875 0.761868
0.000000 0.560113 0.762631
0.000000 0.560906 0.762600
0.200626 0.567956 0.762112
0.447883 0.587457 0.764889
0.627039 0.616144 0.775601
0.771756 0.660182 0.788266
0.854795 0.669306 0.784726
0.911650 0.687251 0.772885
0.000000 0.677089 0.765225
0.000000 0.677790 0.765133
0.229099 0.681910 0.764645
0.446815 0.691646 0.763577
0.620966 0.710018 0.762387
0.759609 0.737026 0.774807
0.849790 0.755612 0.784054
0.910643 0.762997 0.779629
0.000000 0.796445 0.767758
0.000000 0.796567 0.767697
0.258335 0.796963 0.767361
0.457221 0.797971 0.766964
0.625086 0.800381 0.767117
0.750851 0.805692 0.770230
0.844327 0.818662 0.781949
0.915190 0.831022 0.785428
0.000000 0.903258 0.760739
0.000000 0.902281 0.760586
0.271000 0.898894 0.760067
0.453559 0.893034 0.760159
0.612696 0.885039 0.763272
0.731716 0.878874 0.760891
0.824857 0.875822 0.757412
0.914580 0.883085 0.764126
0.000000 0.126131 0.861326
0.000000 0.119539 0.861753
0.103273 0.093080 0.863340
0.349889 0.000000 0.866148
0.528679 0.000000 0.869902
0.699580 0.150942 0.873930
0.835203 0.276768 0.872374
0.932616 0.348394 0.863096
0.000000 0.161471 0.861051
0.000000 0.157504 0.861509
0.067506 0.143954 0.863066
0.347173 0.126986 0.865751
0.531029 0.145052 0.869261
0.702541 0.232395 0.872923
0.836515 0.329412 0.871641
0.931273 0.385840 0.862455
0.000000 0.270695 0.859373
0.000000 0.271458 0.859709
0.084108 0.276371 0.861021
0.365484 0.292973 0.863157
0.550988 0.331487 0.865934
0.715084 0.394720 0.869230
0.841245 0.458595 0.869169
0.926848 0.487434 0.860563
0.000000 0.453864 0.852049
0.155123 0.462135 0.852110
0.313939 0.470588 0.853422
0.437201 0.469734 0.856535
0.592950 0.501884 0.859403
0.734981 0.548089 0.863279
0.848997 0.594720 0.865934
0.920714 0.600824 0.858183
0.000000 0.569451 0.844327
0.120851 0.571374 0.844602
0.318212 0.580407 0.845457
0.493172 0.603082 0.847135
0.629633 0.628321 0.851164
0.750484 0.661280 0.856657
0.856107 0.698207 0.864256
0.915282 0.695338 0.856962
0.004456 0.668116 0.845426
0.163363 0.670130 0.845090
0.324834 0.677546 0.843839
0.479866 0.691737 0.841550
0.630152 0.714717 0.840513
0.751308 0.737881 0.848814
0.850248 0.765682 0.859922
0.911772 0.768551 0.857511
0.137636 0.768612 0.847959
0.205997 0.769528 0.847715
0.342657 0.772854 0.846769
0.490120 0.779538 0.845029
0.628717 0.790219 0.842649
0.737789 0.801205 0.840665
0.832273 0.814572 0.850828
0.909606 0.830320 0.859495
0.188785 0.870573 0.851164
0.240269 0.870512 0.851011
0.360418 0.870573 0.850401
0.501061 0.870817 0.849332
0.631983 0.871397 0.848051
0.735988 0.872587 0.847288
0.820371 0.875303 0.848203
0.905241 0.886656 0.858854
