其他预设/【233】日式怀旧街道调色预设208款/1.3D LUT预设（视频调色-PR-AE-PS-FCPX-达芬奇用）/3.日式城市街拍预设 (自动曝光预设)/JA – Cine Night 4 (Auto-Exposure).cube
# Created by Adobe Lightroom plugin Export LUT (1.17.0)
# www.johnrellis.com/lightroom/exportlut.htm
# Preset: JA – Cine Night 4 (Auto-Exposure)
# Color profile: /Library/Application Support/Adobe/Color/Profiles/Recommended/AdobeRGB1998.icc
LUT_3D_SIZE 8
DOMAIN_MIN 0.000000 0.000000 0.000000
DOMAIN_MAX 0.903226 0.903226 0.903226
0.014038 0.000000 0.121248
0.076478 0.042145 0.126589
0.158999 0.101106 0.137209
0.323766 0.174807 0.142763
0.577203 0.249821 0.139315
0.787839 0.313725 0.143923
0.919982 0.374243 0.182956
1.000000 0.449104 0.256992
0.000000 0.080568 0.136812
0.070008 0.087495 0.137789
0.163180 0.127810 0.143130
0.332006 0.197848 0.147738
0.585412 0.268620 0.144717
0.791592 0.329168 0.150515
0.921508 0.387366 0.189853
1.000000 0.460426 0.264378
0.000000 0.172885 0.172854
0.000000 0.185763 0.166110
0.153506 0.204288 0.166140
0.361975 0.273899 0.166018
0.613336 0.332280 0.163455
0.804227 0.382422 0.173892
0.926665 0.432715 0.214847
1.000000 0.499763 0.291173
0.000000 0.321111 0.229526
0.000000 0.330297 0.223453
0.134401 0.356085 0.193149
0.347631 0.370367 0.205295
0.647883 0.440314 0.201663
0.824186 0.475563 0.215915
0.934905 0.511650 0.260899
1.000000 0.568231 0.342535
0.000000 0.498177 0.307195
0.000000 0.505058 0.301366
0.000000 0.527520 0.266453
0.376745 0.547570 0.221317
0.621790 0.559716 0.256077
0.829770 0.603052 0.281376
0.944396 0.620386 0.335729
1.000000 0.660609 0.425086
0.000000 0.695399 0.395178
0.000000 0.699367 0.389380
0.000000 0.711391 0.365362
0.340307 0.722866 0.316289
0.613306 0.723354 0.294987
0.808774 0.728420 0.363165
0.934813 0.738705 0.438727
1.000000 0.760586 0.537194
0.000000 0.839414 0.476600
0.000000 0.840360 0.473915
0.095613 0.842252 0.467048
0.432258 0.840269 0.470039
0.609613 0.838804 0.442176
0.785245 0.834745 0.459663
0.921263 0.837308 0.553429
0.999145 0.842802 0.634882
0.000000 0.937011 0.567163
0.156161 0.936004 0.570062
0.386877 0.931395 0.585290
0.591760 0.922210 0.622766
0.726894 0.915831 0.650782
0.805112 0.916014 0.617945
0.913848 0.910369 0.662776
0.990814 0.907622 0.725490
0.003876 0.049683 0.151919
0.066407 0.058900 0.157290
0.157290 0.108919 0.166049
0.324804 0.179599 0.177371
0.577661 0.250126 0.178531
0.787167 0.314519 0.185458
0.918944 0.378332 0.219333
1.000000 0.457282 0.287480
0.000000 0.088869 0.161379
0.065156 0.097993 0.166995
0.160372 0.137148 0.174929
0.332433 0.201938 0.181765
0.585412 0.269169 0.182742
0.790829 0.330205 0.190677
0.920470 0.391424 0.225345
1.000000 0.468544 0.294408
0.000000 0.178927 0.193362
0.000000 0.193088 0.196414
0.156985 0.214481 0.193790
0.361028 0.276097 0.198154
0.612512 0.332891 0.199374
0.803220 0.383764 0.210239
0.925444 0.437140 0.247532
1.000000 0.508049 0.319982
0.000000 0.326909 0.248844
0.000000 0.336553 0.247196
0.132448 0.362280 0.223270
0.355077 0.376440 0.231540
0.650355 0.441810 0.232792
0.822751 0.477424 0.248081
0.933410 0.516472 0.290837
1.000000 0.576684 0.369970
0.000000 0.503441 0.326055
0.000000 0.510063 0.321843
0.000000 0.531670 0.296300
0.376928 0.552453 0.248905
0.626032 0.564111 0.281621
0.829740 0.605402 0.309911
0.942473 0.625513 0.363928
1.000000 0.668147 0.450324
0.000000 0.698329 0.412024
0.000000 0.702052 0.407324
0.000000 0.713375 0.387457
0.350103 0.724575 0.344610
0.614710 0.725246 0.319982
0.809293 0.730037 0.388495
0.933623 0.742000 0.463142
1.000000 0.765316 0.557061
0.000000 0.839963 0.490913
0.000000 0.840818 0.488716
0.149599 0.842283 0.483619
0.446876 0.840024 0.489174
0.618921 0.838437 0.467659
0.787320 0.835019 0.480323
0.920745 0.837949 0.570031
0.998230 0.844419 0.646509
0.000000 0.936736 0.577630
0.182925 0.935698 0.580621
0.397833 0.930968 0.595880
0.597345 0.921904 0.632227
0.733425 0.915190 0.662501
0.808499 0.915618 0.631342
0.914336 0.910369 0.671138
0.990387 0.907774 0.731685
0.000000 0.095705 0.206912
0.017273 0.087007 0.210849
0.147250 0.110658 0.228916
0.325017 0.138155 0.233127
0.575799 0.241978 0.252110
0.783810 0.316411 0.272404
0.914916 0.392645 0.306218
1.000000 0.485573 0.370916
0.000000 0.132174 0.217136
0.044099 0.135927 0.223758
0.152010 0.144350 0.236851
0.333501 0.183413 0.241276
0.583307 0.265446 0.259770
0.787259 0.333165 0.277714
0.916258 0.406195 0.311864
1.000000 0.497078 0.377630
0.000000 0.207523 0.243534
0.000000 0.215274 0.248020
0.164431 0.237461 0.260868
0.359503 0.283391 0.270909
0.609094 0.333562 0.279911
0.798947 0.388861 0.296178
0.920745 0.453651 0.333135
1.000000 0.537133 0.402380
0.000000 0.337682 0.295262
0.000000 0.347723 0.300359
0.154879 0.374426 0.305058
0.375006 0.392950 0.301915
0.652674 0.445197 0.314214
0.817319 0.485328 0.333745
0.927672 0.535271 0.375952
1.000000 0.605035 0.450172
0.000000 0.513787 0.376226
0.000000 0.521202 0.377203
0.123812 0.542931 0.373571
0.378759 0.566064 0.336858
0.637507 0.577081 0.358679
0.829068 0.615290 0.395850
0.935393 0.643915 0.447700
1.000000 0.691768 0.523583
0.000000 0.705104 0.461830
0.000000 0.708919 0.460670
0.112490 0.718929 0.453468
0.397436 0.728206 0.433600
0.620325 0.730678 0.397223
0.809873 0.735042 0.466163
0.929747 0.752987 0.536095
1.000000 0.778805 0.611719
0.000000 0.841428 0.535393
0.000000 0.841947 0.535149
0.249363 0.842283 0.535485
0.488380 0.839231 0.546258
0.651148 0.836881 0.545617
0.793851 0.835843 0.542199
0.919280 0.840085 0.617609
0.995666 0.849271 0.680964
0.153628 0.935943 0.611688
0.236576 0.934966 0.613733
0.424903 0.930022 0.628595
0.611566 0.921233 0.660945
0.746975 0.914244 0.692897
0.818631 0.914488 0.671107
0.915618 0.910521 0.696437
0.989014 0.908293 0.751095
0.000000 0.157046 0.289403
0.000000 0.140352 0.294163
0.147066 0.139681 0.302739
0.311162 0.171572 0.330999
0.558770 0.179690 0.349950
0.776181 0.282414 0.355291
0.905119 0.427375 0.415930
1.000000 0.540978 0.486427
0.000000 0.196780 0.299657
0.000000 0.194705 0.306035
0.151308 0.175814 0.313878
0.319951 0.200717 0.337926
0.567834 0.211368 0.353491
0.778286 0.325109 0.370275
0.906096 0.442878 0.423285
1.000000 0.550164 0.490883
0.000000 0.270085 0.324010
0.000000 0.275364 0.328527
0.176699 0.286198 0.344762
0.349096 0.285679 0.361822
0.598474 0.302678 0.366186
0.787930 0.407965 0.404303
0.909545 0.493355 0.447791
1.000000 0.585565 0.511376
0.000000 0.376104 0.368933
0.000000 0.381201 0.372961
0.181643 0.396643 0.386419
0.402502 0.416571 0.408453
0.638544 0.455940 0.424903
0.804440 0.509545 0.449500
0.915373 0.573175 0.490455
1.000000 0.647242 0.553185
0.000000 0.524163 0.442359
0.000000 0.531731 0.447395
0.204898 0.555535 0.463752
0.429114 0.580591 0.471962
0.650935 0.595605 0.474525
0.823972 0.636378 0.515862
0.922789 0.673426 0.555535
1.000000 0.721157 0.609949
0.000000 0.714870 0.539055
0.000000 0.717830 0.539879
0.243198 0.725490 0.542382
0.469154 0.731838 0.545129
0.642145 0.736477 0.527764
0.809628 0.742397 0.570886
0.925444 0.768582 0.624414
0.999695 0.794003 0.673243
0.000000 0.842985 0.604303
0.127810 0.843015 0.605219
0.347265 0.842069 0.609735
0.537377 0.838773 0.621363
0.694087 0.835386 0.639155
0.801083 0.837461 0.618280
0.917967 0.843595 0.676234
0.992798 0.855894 0.725673
0.304204 0.933104 0.671138
0.349798 0.932067 0.673213
0.468727 0.928344 0.680720
0.620264 0.921416 0.700130
0.752682 0.914733 0.726680
0.831876 0.913390 0.723751
0.916533 0.910979 0.730770
0.987060 0.909117 0.779385
0.000000 0.238773 0.395911
0.000000 0.226871 0.400641
0.130831 0.201328 0.408545
0.326360 0.194247 0.417121
0.539300 0.219577 0.461341
0.751034 0.262394 0.485817
0.895109 0.393286 0.499092
0.982300 0.619715 0.614130
0.000000 0.272801 0.405646
0.000000 0.269352 0.411749
0.132967 0.233463 0.420233
0.336034 0.220920 0.427283
0.546929 0.246006 0.467964
0.754910 0.290105 0.490394
0.895720 0.416663 0.506401
0.982086 0.630976 0.620325
0.000000 0.345830 0.430030
0.000000 0.348699 0.434272
0.193729 0.345434 0.452857
0.360174 0.308843 0.461189
0.572442 0.326452 0.491463
0.767300 0.376715 0.508415
0.895384 0.506401 0.543359
0.983978 0.653040 0.630884
0.000000 0.438270 0.475074
0.000000 0.441291 0.479194
0.218082 0.450141 0.492287
0.427680 0.459968 0.517021
0.612879 0.454231 0.535302
0.785122 0.508934 0.547173
0.896117 0.620417 0.601740
0.988403 0.685145 0.643763
0.000000 0.566094 0.540978
0.000000 0.569482 0.544366
0.234562 0.580041 0.555596
0.464698 0.594965 0.573785
0.662043 0.615625 0.597711
0.804105 0.654566 0.616602
0.908171 0.696437 0.642634
0.991333 0.741024 0.677974
0.000000 0.714290 0.610834
0.000000 0.717403 0.613855
0.312291 0.725582 0.624048
0.533806 0.734707 0.642878
0.683406 0.741878 0.652857
0.810208 0.750912 0.662013
0.923766 0.782467 0.698909
0.993164 0.805234 0.726009
0.243473 0.841917 0.681239
0.306432 0.841794 0.683894
0.458991 0.840879 0.694148
0.599115 0.838499 0.702846
0.712612 0.838315 0.708400
0.808530 0.840574 0.698421
0.917449 0.847959 0.731960
0.990631 0.862913 0.771450
0.441718 0.928191 0.742702
0.471443 0.927123 0.744442
0.555352 0.923827 0.750118
0.651362 0.920134 0.756435
0.748714 0.916564 0.763882
0.847776 0.912474 0.779751
0.915343 0.911925 0.767422
0.984802 0.910216 0.812284
0.000000 0.332830 0.537713
0.000000 0.324498 0.542199
0.055360 0.275334 0.548669
0.349157 0.258152 0.553796
0.549126 0.247990 0.562982
0.734615 0.299229 0.604730
0.869596 0.426368 0.626276
0.975586 0.596429 0.674006
0.000000 0.358892 0.545769
0.000000 0.354498 0.550805
0.059205 0.302678 0.559106
0.353399 0.284520 0.563165
0.555993 0.271733 0.571008
0.737606 0.323095 0.609308
0.870329 0.446479 0.630518
0.975647 0.607111 0.677699
0.000000 0.426673 0.565759
0.000000 0.424689 0.570214
0.228733 0.414893 0.585840
0.369329 0.366766 0.592828
0.576440 0.346777 0.597192
0.747189 0.400031 0.625422
0.872892 0.511009 0.645838
0.976196 0.640894 0.689509
0.000000 0.508751 0.604211
0.070497 0.509728 0.606683
0.277317 0.513115 0.614435
0.463691 0.514672 0.632532
0.605005 0.472755 0.636255
0.761349 0.518853 0.653132
0.878355 0.601099 0.671504
0.978485 0.689235 0.706752
0.000000 0.615625 0.651087
0.120668 0.616907 0.652918
0.315465 0.621118 0.658625
0.503410 0.629847 0.667079
0.668208 0.645502 0.680751
0.780270 0.646662 0.690028
0.890379 0.691737 0.702907
0.978759 0.763943 0.745602
0.130404 0.732540 0.698634
0.212558 0.733272 0.699916
0.376684 0.735470 0.704189
0.551049 0.739132 0.711391
0.697078 0.746365 0.721950
0.811795 0.759915 0.738308
0.909758 0.785031 0.752255
0.985901 0.812467 0.772702
0.305760 0.836088 0.743252
0.353094 0.835904 0.744656
0.479255 0.835080 0.749874
0.622278 0.834958 0.759854
0.742092 0.839994 0.774868
0.826444 0.846067 0.779904
0.917571 0.853208 0.787778
0.988067 0.871794 0.820523
0.509758 0.923095 0.800107
0.535760 0.922179 0.801785
0.609461 0.919677 0.807340
0.699397 0.917357 0.815946
0.775998 0.916045 0.820584
0.847715 0.914549 0.821744
0.917052 0.912657 0.818173
0.982269 0.911620 0.848966
0.000000 0.433417 0.694820
0.095888 0.429908 0.697200
0.157931 0.384497 0.700465
0.377081 0.356085 0.701625
0.571527 0.323522 0.701106
0.736904 0.354284 0.706996
0.859983 0.462348 0.725490
0.959136 0.621393 0.762600
0.000000 0.452369 0.698177
0.138216 0.449134 0.700374
0.217746 0.415167 0.704585
0.384070 0.378241 0.705989
0.574121 0.347417 0.705226
0.738918 0.375006 0.710292
0.860349 0.479500 0.727993
0.959380 0.630091 0.764523
0.154543 0.506737 0.707179
0.207309 0.504875 0.709071
0.338750 0.499458 0.715633
0.416144 0.450294 0.719692
0.585870 0.424872 0.718349
0.745357 0.442359 0.721065
0.861723 0.534447 0.736568
0.960449 0.657862 0.771023
0.217166 0.579736 0.724392
0.261936 0.580102 0.724819
0.381140 0.582208 0.726345
0.532677 0.586633 0.735866
0.617975 0.546044 0.737728
0.755520 0.542870 0.737423
0.864988 0.610651 0.750942
0.963195 0.698787 0.781125
0.277134 0.665278 0.750942
0.316411 0.665919 0.751278
0.424659 0.668513 0.752224
0.557305 0.674403 0.752743
0.688991 0.685420 0.759640
0.768582 0.651881 0.758907
0.872099 0.690150 0.770840
0.968170 0.748714 0.795041
0.354345 0.756985 0.780331
0.387304 0.757321 0.780697
0.482582 0.758999 0.781765
0.600763 0.762142 0.783352
0.709133 0.766354 0.785550
0.807431 0.773007 0.792905
0.886992 0.771389 0.799496
0.974945 0.808103 0.815946
0.440833 0.841489 0.811521
0.467659 0.841337 0.811978
0.547112 0.840787 0.813504
0.644709 0.840940 0.816495
0.740627 0.842893 0.821592
0.829984 0.847837 0.829892
0.916381 0.857816 0.843656
0.980468 0.875273 0.856260
0.537865 0.918486 0.849546
0.558373 0.917845 0.850095
0.618433 0.916136 0.852140
0.697871 0.914427 0.855894
0.782254 0.913695 0.861784
0.867277 0.913787 0.870817
0.930938 0.913207 0.875456
0.980011 0.913268 0.884367
0.411475 0.570642 0.822690
0.438788 0.572351 0.823178
0.459937 0.548669 0.824735
0.518853 0.516747 0.825711
0.635950 0.499580 0.824308
0.760830 0.469062 0.821714
0.878172 0.554772 0.823423
0.960998 0.656794 0.838407
0.422095 0.583703 0.823758
0.448188 0.585321 0.824216
0.487495 0.571679 0.825742
0.530602 0.534905 0.827115
0.641382 0.517815 0.825711
0.762173 0.487861 0.823117
0.878386 0.566552 0.824643
0.960998 0.663233 0.839475
0.444465 0.622065 0.827146
0.468818 0.623651 0.827573
0.544335 0.630396 0.829038
0.575067 0.596521 0.831418
0.660670 0.576165 0.830350
0.767575 0.548180 0.827817
0.879240 0.603082 0.828916
0.961120 0.684230 0.843107
0.455299 0.674067 0.833066
0.480079 0.676173 0.832944
0.553735 0.681422 0.834348
0.651362 0.691157 0.837095
0.690028 0.655787 0.838621
0.776883 0.631495 0.836118
0.880369 0.653834 0.836423
0.961669 0.716121 0.849332
0.494606 0.738369 0.849241
0.512627 0.738979 0.848905
0.567498 0.740719 0.847593
0.639490 0.741115 0.844724
0.740658 0.748806 0.848692
0.788785 0.715206 0.848600
0.881132 0.709377 0.847135
0.962890 0.756680 0.858335
0.545373 0.805936 0.867491
0.560723 0.806241 0.867338
0.607446 0.806882 0.866728
0.670954 0.806821 0.865415
0.740505 0.804959 0.862943
0.823026 0.804776 0.864561
0.882261 0.773068 0.862242
0.964996 0.806332 0.870756
0.596521 0.866911 0.885283
0.609064 0.866880 0.885252
0.647883 0.866728 0.885191
0.704341 0.866361 0.885100
0.769162 0.865721 0.884947
0.836912 0.864622 0.884367
0.909758 0.864866 0.884977
0.968658 0.864561 0.887785
0.643915 0.917540 0.899779
0.654139 0.917296 0.899840
0.687129 0.916442 0.900023
0.737819 0.915221 0.900481
0.798795 0.913939 0.901274
0.866484 0.912779 0.902556
0.933043 0.912383 0.904692
0.978424 0.914580 0.908965
