其他预设/【233】日式怀旧街道调色预设208款/1.3D LUT预设（视频调色-PR-AE-PS-FCPX-达芬奇用）/3.日式城市街拍预设 (自动曝光预设)/JA – Faded Soft 1 (Auto-Exposure).cube
# Created by Adobe Lightroom plugin Export LUT (1.17.0)
# www.johnrellis.com/lightroom/exportlut.htm
# Preset: JA – Faded Soft 1 (Auto-Exposure)
# Color profile: /Library/Application Support/Adobe/Color/Profiles/Recommended/AdobeRGB1998.icc
LUT_3D_SIZE 32
0.087770 0.083711 0.080781
0.093843 0.083253 0.080659
0.101808 0.083314 0.080385
0.119570 0.082490 0.079744
0.143099 0.081392 0.078706
0.172183 0.080293 0.077028
0.208865 0.078676 0.074250
0.252262 0.077363 0.069795
0.300542 0.076356 0.062867
0.351080 0.076783 0.048280
0.402533 0.079133 0.018738
0.453010 0.084657 0.000000
0.501152 0.088869 0.000000
0.546105 0.093233 0.000000
0.587396 0.097658 0.000000
0.625666 0.102327 0.000000
0.661280 0.106111 0.000000
0.694484 0.110536 0.000000
0.725765 0.114473 0.000000
0.755459 0.117525 0.000000
0.783719 0.120821 0.000000
0.810910 0.123232 0.000000
0.837278 0.125216 0.000000
0.863066 0.126802 0.000000
0.888518 0.127596 0.000000
0.913939 0.127382 0.000000
0.939452 0.126741 0.000000
0.964660 0.125154 0.000000
0.988983 0.122621 0.000000
1.000000 0.114443 0.000000
1.000000 0.091524 0.000000
1.000000 0.048981 0.000000
0.089113 0.088533 0.080964
0.094087 0.088289 0.080812
0.102632 0.088869 0.079866
0.120455 0.088655 0.079164
0.143954 0.088197 0.078035
0.173312 0.087648 0.076295
0.210300 0.087221 0.073304
0.253758 0.087434 0.068574
0.301946 0.087953 0.061280
0.352605 0.089845 0.044160
0.403876 0.092958 0.013733
0.454108 0.097017 0.000000
0.502098 0.100649 0.000000
0.546929 0.104738 0.000000
0.588190 0.109285 0.000000
0.626307 0.112581 0.000000
0.661799 0.116732 0.000000
0.695033 0.119997 0.000000
0.726162 0.123323 0.000000
0.755825 0.126528 0.000000
0.784024 0.128634 0.000000
0.811215 0.130495 0.000000
0.837552 0.132418 0.000000
0.863310 0.133150 0.000000
0.888731 0.133944 0.000000
0.914153 0.133761 0.000000
0.939635 0.132967 0.000000
0.964782 0.131563 0.000000
0.989105 0.128756 0.000000
1.000000 0.121370 0.000000
1.000000 0.100221 0.000000
1.000000 0.067140 0.000000
0.090913 0.095216 0.081819
0.096132 0.095216 0.081331
0.102419 0.095521 0.081117
0.121035 0.096651 0.078645
0.145205 0.096590 0.077119
0.174838 0.096986 0.075227
0.212192 0.097688 0.071992
0.255680 0.099580 0.066865
0.303929 0.101595 0.059083
0.354406 0.104585 0.038025
0.405432 0.108125 0.008301
0.455634 0.111849 0.000000
0.503471 0.114900 0.000000
0.548058 0.118959 0.000000
0.589105 0.122591 0.000000
0.627222 0.125643 0.000000
0.662623 0.128908 0.000000
0.695674 0.132174 0.000000
0.726802 0.134401 0.000000
0.756313 0.137057 0.000000
0.784512 0.138582 0.000000
0.811612 0.140200 0.000000
0.837919 0.141451 0.000000
0.863645 0.142031 0.000000
0.889067 0.142397 0.000000
0.914427 0.141939 0.000000
0.939879 0.141054 0.000000
0.965026 0.139437 0.000000
0.989288 0.136690 0.000000
1.000000 0.130129 0.000000
1.000000 0.110658 0.000000
1.000000 0.081971 0.000000
0.095277 0.109895 0.083192
0.100557 0.109346 0.083070
0.107149 0.109529 0.082521
0.120180 0.110384 0.080995
0.146609 0.112947 0.076143
0.178439 0.114870 0.073365
0.216129 0.117739 0.069276
0.260044 0.121279 0.063355
0.308141 0.125399 0.052125
0.358343 0.129244 0.028321
0.408942 0.133791 0.000000
0.458778 0.137697 0.000000
0.506279 0.141329 0.000000
0.550469 0.144961 0.000000
0.591241 0.147585 0.000000
0.629084 0.149966 0.000000
0.664240 0.152102 0.000000
0.697169 0.154025 0.000000
0.728145 0.155520 0.000000
0.757473 0.156985 0.000000
0.785519 0.157961 0.000000
0.812497 0.158816 0.000000
0.838712 0.159213 0.000000
0.864347 0.159182 0.000000
0.889708 0.159091 0.000000
0.915038 0.158083 0.000000
0.940398 0.156832 0.000000
0.965484 0.155123 0.000000
0.989685 0.152193 0.000000
1.000000 0.147219 0.000000
1.000000 0.130282 0.000000
1.000000 0.107301 0.000000
0.100984 0.127535 0.085023
0.105959 0.126894 0.084962
0.112490 0.126192 0.085115
0.124147 0.127230 0.083619
0.142367 0.129397 0.081239
0.178134 0.137118 0.073091
0.219944 0.143404 0.066957
0.266575 0.149844 0.059419
0.314641 0.155459 0.042054
0.364294 0.160952 0.015747
0.414435 0.165988 0.000000
0.463813 0.170596 0.000000
0.510613 0.174319 0.000000
0.554223 0.177401 0.000000
0.594537 0.179446 0.000000
0.631922 0.180972 0.000000
0.666804 0.181979 0.000000
0.699458 0.182895 0.000000
0.730190 0.183291 0.000000
0.759304 0.183627 0.000000
0.787076 0.183841 0.000000
0.813931 0.183749 0.000000
0.839963 0.183169 0.000000
0.865507 0.182559 0.000000
0.890745 0.181674 0.000000
0.915984 0.180392 0.000000
0.941253 0.178836 0.000000
0.966217 0.176303 0.000000
0.990265 0.173556 0.000000
1.000000 0.169741 0.000000
1.000000 0.155337 0.000000
1.000000 0.136049 0.000000
0.107698 0.148531 0.087282
0.112581 0.147982 0.087221
0.118776 0.147036 0.087129
0.130007 0.145693 0.086885
0.147158 0.149233 0.084382
0.169863 0.153506 0.081147
0.215640 0.167971 0.069734
0.267643 0.180209 0.053620
0.321019 0.189883 0.025818
0.372137 0.196994 0.000000
0.421820 0.202792 0.000000
0.470253 0.207645 0.000000
0.516289 0.211276 0.000000
0.559197 0.213504 0.000000
0.598840 0.214969 0.000000
0.635767 0.215488 0.000000
0.670253 0.215579 0.000000
0.702510 0.215488 0.000000
0.732906 0.214939 0.000000
0.761654 0.214298 0.000000
0.789212 0.213321 0.000000
0.815793 0.212100 0.000000
0.841642 0.210758 0.000000
0.867002 0.209567 0.000000
0.892119 0.208011 0.000000
0.917235 0.206119 0.000000
0.942412 0.204288 0.000000
0.967193 0.201511 0.000000
0.991058 0.198184 0.000000
1.000000 0.194308 0.000000
1.000000 0.183108 0.000000
1.000000 0.166659 0.000000
0.116091 0.174746 0.088258
0.120882 0.173983 0.088197
0.126864 0.172915 0.088167
0.138308 0.170687 0.088380
0.154391 0.171817 0.087098
0.177005 0.177829 0.083742
0.205142 0.184695 0.079316
0.258091 0.204532 0.063905
0.318639 0.222232 0.018402
0.374548 0.233494 0.000000
0.430610 0.243015 0.000000
0.478218 0.247684 0.000000
0.523308 0.250767 0.000000
0.565301 0.252445 0.000000
0.604303 0.252934 0.000000
0.640528 0.252567 0.000000
0.674495 0.251804 0.000000
0.706386 0.250431 0.000000
0.736294 0.248905 0.000000
0.764645 0.247013 0.000000
0.791806 0.245274 0.000000
0.818143 0.243107 0.000000
0.843748 0.241062 0.000000
0.868925 0.238926 0.000000
0.893858 0.236667 0.000000
0.918822 0.234348 0.000000
0.943877 0.231846 0.000000
0.968444 0.228916 0.000000
0.992065 0.225162 0.000000
1.000000 0.220951 0.000000
1.000000 0.212192 0.000000
1.000000 0.197635 0.000000
0.125734 0.206058 0.088502
0.130617 0.205173 0.088502
0.136965 0.204105 0.088472
0.148562 0.201602 0.088502
0.163607 0.197787 0.088533
0.185550 0.204013 0.085542
0.213687 0.212772 0.081300
0.246830 0.222324 0.074800
0.304417 0.245243 0.051148
0.370703 0.267155 0.000000
0.426917 0.278935 0.000000
0.482460 0.288060 0.000000
0.531518 0.292668 0.000000
0.572381 0.293400 0.000000
0.610620 0.292851 0.000000
0.646143 0.291539 0.000000
0.679500 0.289555 0.000000
0.710933 0.287236 0.000000
0.740322 0.284581 0.000000
0.768215 0.281621 0.000000
0.794949 0.278813 0.000000
0.820951 0.275853 0.000000
0.846281 0.273014 0.000000
0.871214 0.270085 0.000000
0.895964 0.267094 0.000000
0.920775 0.264256 0.000000
0.945556 0.261295 0.000000
0.969909 0.257816 0.000000
0.993256 0.253819 0.000000
1.000000 0.249088 0.000000
1.000000 0.242405 0.000000
1.000000 0.228885 0.000000
0.137575 0.242100 0.087739
0.142214 0.241154 0.087800
0.148623 0.239902 0.087831
0.160525 0.237369 0.087922
0.176364 0.233249 0.088106
0.195468 0.232578 0.087037
0.222690 0.241855 0.082338
0.255680 0.253056 0.075135
0.292851 0.264561 0.066072
0.351659 0.288304 0.017884
0.419745 0.311894 0.000000
0.476967 0.324010 0.000000
0.529534 0.331579 0.000000
0.578637 0.335576 0.000000
0.617792 0.334752 0.000000
0.652583 0.332250 0.000000
0.685359 0.329046 0.000000
0.716304 0.325719 0.000000
0.744930 0.321721 0.000000
0.772244 0.317845 0.000000
0.798581 0.313878 0.000000
0.824216 0.309941 0.000000
0.849210 0.306157 0.000000
0.873899 0.302525 0.000000
0.898436 0.298924 0.000000
0.923033 0.295293 0.000000
0.947601 0.291722 0.000000
0.971618 0.287968 0.000000
0.994629 0.283574 0.000000
1.000000 0.278477 0.000000
1.000000 0.272709 0.000000
1.000000 0.260258 0.000000
0.150484 0.281071 0.085847
0.155428 0.280064 0.085908
0.161471 0.278721 0.086030
0.173587 0.275914 0.085969
0.189761 0.271519 0.086091
0.207492 0.265934 0.086305
0.232120 0.271641 0.082704
0.263462 0.282902 0.075715
0.300267 0.296147 0.065492
0.340337 0.308995 0.043366
0.398688 0.331853 0.000000
0.465736 0.354925 0.000000
0.523156 0.367346 0.000000
0.572107 0.372442 0.000000
0.618006 0.374762 0.000000
0.659876 0.374517 0.000000
0.691951 0.370214 0.000000
0.722194 0.365393 0.000000
0.750088 0.360296 0.000000
0.776791 0.354986 0.000000
0.802640 0.350103 0.000000
0.827848 0.345220 0.000000
0.852537 0.340581 0.000000
0.876921 0.336004 0.000000
0.901183 0.331670 0.000000
0.925597 0.327459 0.000000
0.949859 0.323369 0.000000
0.973541 0.318914 0.000000
0.996216 0.314000 0.000000
1.000000 0.308507 0.000000
1.000000 0.302312 0.000000
1.000000 0.291630 0.000000
0.164096 0.321019 0.083192
0.168643 0.320043 0.083009
0.174960 0.318669 0.083192
0.186893 0.315770 0.083284
0.203067 0.311162 0.083345
0.221225 0.305150 0.083345
0.241276 0.301366 0.082704
0.271000 0.312383 0.075959
0.305638 0.325200 0.065797
0.345373 0.339910 0.042298
0.387488 0.353735 0.000000
0.444251 0.375006 0.000000
0.508568 0.396094 0.000000
0.564965 0.407721 0.000000
0.610956 0.410986 0.000000
0.653956 0.411688 0.000000
0.694484 0.410437 0.000000
0.728511 0.406409 0.000000
0.755673 0.399786 0.000000
0.781765 0.393378 0.000000
0.807126 0.387243 0.000000
0.831876 0.381415 0.000000
0.856229 0.375891 0.000000
0.880308 0.370459 0.000000
0.904326 0.365393 0.000000
0.928435 0.360479 0.000000
0.952361 0.355657 0.000000
0.975677 0.350622 0.000000
0.997925 0.345220 0.000000
1.000000 0.339117 0.000000
1.000000 0.332433 0.000000
1.000000 0.323217 0.000000
0.178195 0.360662 0.080476
0.182620 0.359716 0.080323
0.188449 0.358373 0.080262
0.200107 0.355383 0.080201
0.216098 0.350713 0.080507
0.234257 0.344671 0.080140
0.253086 0.337163 0.080507
0.278050 0.340581 0.076387
0.310613 0.353033 0.066743
0.347875 0.367254 0.046662
0.389776 0.383062 0.001770
0.432990 0.397375 0.000000
0.487007 0.416114 0.000000
0.547723 0.434516 0.000000
0.603052 0.445380 0.000000
0.646387 0.446845 0.000000
0.687190 0.446296 0.000000
0.725368 0.443977 0.000000
0.760159 0.439765 0.000000
0.787198 0.432746 0.000000
0.811978 0.425422 0.000000
0.836271 0.418463 0.000000
0.860227 0.411810 0.000000
0.884001 0.405676 0.000000
0.907744 0.399817 0.000000
0.931609 0.394171 0.000000
0.955138 0.388586 0.000000
0.977996 0.382879 0.000000
0.999756 0.376806 0.000000
1.000000 0.370245 0.000000
1.000000 0.362951 0.000000
1.000000 0.354711 0.000000
0.192508 0.399084 0.077790
0.196719 0.398108 0.077699
0.202121 0.396735 0.077729
0.213199 0.393896 0.077760
0.228702 0.389319 0.077272
0.246494 0.383093 0.077333
0.265354 0.375616 0.077089
0.284184 0.367132 0.076753
0.314977 0.379187 0.067750
0.349920 0.392981 0.051698
0.389014 0.408118 0.012116
0.432197 0.424598 0.000000
0.475837 0.438880 0.000000
0.526146 0.454505 0.000000
0.583551 0.470130 0.000000
0.635828 0.479133 0.000000
0.679164 0.480568 0.000000
0.717739 0.478798 0.000000
0.753231 0.475105 0.000000
0.786587 0.470192 0.000000
0.817166 0.464332 0.000000
0.841032 0.456245 0.000000
0.864561 0.448707 0.000000
0.887999 0.441566 0.000000
0.911467 0.434882 0.000000
0.934966 0.428473 0.000000
0.958099 0.422187 0.000000
0.980438 0.415686 0.000000
1.000000 0.408942 0.000000
1.000000 0.401709 0.000000
1.000000 0.393835 0.000000
1.000000 0.385016 0.000000
0.206546 0.436011 0.077363
0.210666 0.434852 0.077089
0.215946 0.433600 0.076783
0.226047 0.430793 0.076997
0.240635 0.426276 0.076112
0.258122 0.420294 0.075685
0.276829 0.412726 0.074830
0.295415 0.403693 0.074586
0.318791 0.403449 0.070619
0.351537 0.416693 0.058656
0.388098 0.431312 0.025086
0.428443 0.446998 0.000000
0.471992 0.463600 0.000000
0.515343 0.477211 0.000000
0.561944 0.489693 0.000000
0.616419 0.503319 0.000000
0.666285 0.510613 0.000000
0.709377 0.512200 0.000000
0.745632 0.509056 0.000000
0.779599 0.504570 0.000000
0.811856 0.499275 0.000000
0.842618 0.493446 0.000000
0.869169 0.486152 0.000000
0.892271 0.478157 0.000000
0.915465 0.470649 0.000000
0.938537 0.463325 0.000000
0.961212 0.456153 0.000000
0.983032 0.448920 0.000000
1.000000 0.441382 0.000000
1.000000 0.433326 0.000000
1.000000 0.424842 0.000000
1.000000 0.415412 0.000000
0.220798 0.470375 0.079164
0.224338 0.469459 0.079133
0.229160 0.468177 0.078584
0.238926 0.465400 0.078279
0.252750 0.461250 0.077424
0.269291 0.455390 0.076295
0.287144 0.448127 0.075044
0.305669 0.439338 0.073762
0.323705 0.429023 0.072511
0.352941 0.438636 0.063508
0.387030 0.452430 0.042878
0.424659 0.467414 0.003815
0.465248 0.483192 0.000000
0.508873 0.499489 0.000000
0.551507 0.512352 0.000000
0.595270 0.522484 0.000000
0.646723 0.534203 0.000000
0.694514 0.540307 0.000000
0.737179 0.541527 0.000000
0.771969 0.537804 0.000000
0.804868 0.532830 0.000000
0.836271 0.527214 0.000000
0.866453 0.521233 0.000000
0.895811 0.514885 0.000000
0.919646 0.506737 0.000000
0.942290 0.498726 0.000000
0.964416 0.490639 0.000000
0.985687 0.482551 0.000000
1.000000 0.474159 0.000000
1.000000 0.465370 0.000000
1.000000 0.456001 0.000000
1.000000 0.445808 0.000000
0.234745 0.502373 0.084504
0.237949 0.501518 0.084230
0.242130 0.500359 0.083742
0.251255 0.497780 0.082856
0.264012 0.493721 0.081300
0.279850 0.488136 0.080079
0.296880 0.481331 0.078004
0.315038 0.472877 0.076020
0.332952 0.462928 0.073365
0.353887 0.458473 0.069154
0.385931 0.471748 0.058930
0.420996 0.486061 0.031373
0.458869 0.500908 0.000000
0.499702 0.516564 0.000000
0.542992 0.532433 0.000000
0.584710 0.544671 0.000000
0.625940 0.552819 0.000000
0.674952 0.563195 0.000000
0.721096 0.568414 0.000000
0.763149 0.569238 0.000000
0.797269 0.565209 0.000000
0.829282 0.560052 0.000000
0.860105 0.554253 0.000000
0.889952 0.548089 0.000000
0.919158 0.541711 0.000000
0.946166 0.534478 0.000000
0.967742 0.525475 0.000000
0.988373 0.516503 0.000000
1.000000 0.507195 0.000000
1.000000 0.497505 0.000000
1.000000 0.487221 0.000000
1.000000 0.476356 0.000000
0.248173 0.531853 0.092592
0.250980 0.530999 0.092134
0.255009 0.529961 0.091920
0.263310 0.527550 0.090608
0.275212 0.523705 0.089021
0.289830 0.518608 0.087007
0.306279 0.512047 0.084474
0.323552 0.504112 0.081209
0.341314 0.494759 0.077852
0.358465 0.483894 0.074220
0.384771 0.489387 0.067628
0.417578 0.502831 0.056916
0.453040 0.517144 0.030854
0.491157 0.532036 0.000000
0.531731 0.547417 0.000000
0.574609 0.562921 0.000000
0.615473 0.574578 0.000000
0.654658 0.581292 0.000000
0.702083 0.591119 0.000000
0.746426 0.595300 0.000000
0.787045 0.595392 0.000000
0.821744 0.591638 0.000000
0.853178 0.586267 0.000000
0.883635 0.580468 0.000000
0.913390 0.574304 0.000000
0.941985 0.567590 0.000000
0.968780 0.559960 0.000000
0.991058 0.550683 0.000000
1.000000 0.540429 0.000000
1.000000 0.529717 0.000000
1.000000 0.518578 0.000000
1.000000 0.506889 0.000000
0.261357 0.559167 0.102968
0.264012 0.558343 0.102541
0.267430 0.557336 0.102174
0.274998 0.555077 0.100801
0.286046 0.551537 0.098909
0.299626 0.546654 0.096498
0.315160 0.540673 0.093355
0.331762 0.533135 0.089509
0.348852 0.524346 0.085695
0.365911 0.514122 0.080964
0.383825 0.505608 0.075715
0.414588 0.518517 0.069551
0.447913 0.532250 0.061250
0.483833 0.546746 0.042817
0.522026 0.561578 0.015412
0.562432 0.576806 0.000000
0.605097 0.592279 0.000000
0.645258 0.603418 0.000000
0.682826 0.609094 0.000000
0.728145 0.617853 0.000000
0.770779 0.621118 0.000000
0.810300 0.620661 0.000000
0.845762 0.617151 0.000000
0.876829 0.611841 0.000000
0.907164 0.606012 0.000000
0.936461 0.599664 0.000000
0.963928 0.592279 0.000000
0.989075 0.583642 0.000000
1.000000 0.573693 0.000000
1.000000 0.562127 0.000000
1.000000 0.550011 0.000000
1.000000 0.537407 0.000000
0.274601 0.585290 0.115084
0.277043 0.584588 0.114473
0.280247 0.583581 0.113558
0.286992 0.581537 0.112764
0.296880 0.578271 0.110475
0.309483 0.573754 0.108095
0.324102 0.568078 0.104280
0.339910 0.561089 0.100160
0.356481 0.552911 0.095308
0.373083 0.543359 0.089754
0.389288 0.532403 0.083711
0.412512 0.533867 0.078401
0.444068 0.547173 0.073610
0.477943 0.561181 0.067506
0.514092 0.575647 0.059754
0.552392 0.590539 0.043549
0.592828 0.605707 0.020020
0.635065 0.620996 0.000000
0.674800 0.631891 0.000000
0.710506 0.636286 0.025879
0.753140 0.643488 0.000000
0.794491 0.646113 0.000000
0.833188 0.645350 0.000000
0.869505 0.642115 0.000000
0.900481 0.636835 0.000000
0.930480 0.630915 0.000000
0.958740 0.623896 0.000000
0.984588 0.615534 0.000000
1.000000 0.605615 0.000000
1.000000 0.594202 0.000000
1.000000 0.581384 0.000000
1.000000 0.567803 0.000000
0.287755 0.610956 0.127687
0.290043 0.610315 0.127352
0.293065 0.609369 0.126528
0.299016 0.607507 0.125246
0.308232 0.604425 0.123049
0.319951 0.600214 0.120211
0.333471 0.594934 0.116457
0.348455 0.588464 0.111727
0.364355 0.580743 0.106416
0.380468 0.571832 0.099886
0.396582 0.561608 0.093446
0.411994 0.550011 0.085603
0.441291 0.562005 0.082734
0.473426 0.575616 0.080201
0.507774 0.589776 0.076844
0.544152 0.604273 0.072969
0.582605 0.619226 0.068177
0.622950 0.634333 0.062409
0.665126 0.649500 0.052125
0.703914 0.659663 0.053468
0.737118 0.662287 0.081941
0.777310 0.668238 0.042603
0.817655 0.670527 0.000000
0.855863 0.669612 0.000000
0.892485 0.666438 0.000000
0.924102 0.661250 0.000000
0.953155 0.654719 0.000000
0.979828 0.646723 0.000000
1.000000 0.636988 0.000000
1.000000 0.625635 0.000000
1.000000 0.612604 0.000000
1.000000 0.598291 0.000000
0.301335 0.636378 0.141482
0.303258 0.635798 0.140841
0.305974 0.634943 0.140108
0.311498 0.633112 0.138705
0.320012 0.630243 0.136416
0.330663 0.626337 0.133547
0.343297 0.621424 0.129335
0.357458 0.615412 0.124605
0.372625 0.608179 0.118776
0.388312 0.599817 0.112215
0.404028 0.590295 0.104768
0.419440 0.579400 0.096162
0.439643 0.576898 0.090181
0.470253 0.590204 0.089296
0.502983 0.604028 0.088716
0.537713 0.618311 0.087831
0.574395 0.632990 0.087160
0.612940 0.647883 0.086427
0.653132 0.662806 0.085176
0.694514 0.677272 0.084504
0.731838 0.686366 0.089967
0.762966 0.687495 0.112032
0.800992 0.692378 0.101991
0.840726 0.694453 0.000000
0.878691 0.693629 0.000000
0.915221 0.690455 0.000000
0.947204 0.684779 0.000000
0.974762 0.677272 0.000000
0.999329 0.667872 0.000000
1.000000 0.656611 0.000000
1.000000 0.643488 0.000000
1.000000 0.628901 0.000000
0.315190 0.661799 0.155520
0.316869 0.661250 0.155093
0.319219 0.660456 0.154299
0.324407 0.658778 0.152895
0.332158 0.656123 0.150515
0.342168 0.652491 0.147372
0.353918 0.647852 0.143343
0.367132 0.642237 0.138338
0.381598 0.635523 0.132296
0.396704 0.627649 0.125460
0.412055 0.618769 0.117525
0.427253 0.608606 0.108705
0.441993 0.597284 0.098360
0.468421 0.605280 0.096986
0.499672 0.618738 0.097963
0.532860 0.632837 0.099397
0.568017 0.647242 0.101076
0.604974 0.661921 0.102693
0.643214 0.676417 0.104891
0.682704 0.690455 0.107546
0.723079 0.704036 0.110018
0.759121 0.712154 0.117433
0.788418 0.712093 0.139193
0.824460 0.716182 0.138552
0.863798 0.718257 0.051423
0.901793 0.717556 0.000000
0.937774 0.713893 0.000000
0.969360 0.707057 0.000000
0.994812 0.698177 0.000000
1.000000 0.687098 0.000000
1.000000 0.673976 0.000000
1.000000 0.659174 0.000000
0.329320 0.687556 0.170596
0.330999 0.687007 0.169955
0.333074 0.686336 0.169223
0.337743 0.684718 0.167849
0.345006 0.682185 0.165621
0.354101 0.678859 0.162081
0.365118 0.674556 0.158206
0.377569 0.669306 0.153048
0.391302 0.663050 0.147036
0.405768 0.655756 0.139681
0.420752 0.647364 0.131563
0.435676 0.637964 0.122469
0.450416 0.627405 0.112001
0.467903 0.621088 0.103182
0.497902 0.634394 0.105776
0.529839 0.648157 0.108827
0.563622 0.662318 0.112215
0.598901 0.676600 0.115724
0.635401 0.690578 0.120302
0.673060 0.704280 0.125307
0.711696 0.717464 0.130220
0.751186 0.730220 0.135073
0.786069 0.737484 0.143709
0.813779 0.736477 0.164370
0.847990 0.739773 0.170687
0.887297 0.742123 0.109194
0.924956 0.741207 0.000000
0.959594 0.736416 0.000000
0.990051 0.727749 0.000000
1.000000 0.717067 0.000000
1.000000 0.704067 0.000000
1.000000 0.689082 0.000000
0.344091 0.713252 0.186831
0.345495 0.712825 0.186496
0.347539 0.712154 0.185611
0.351751 0.710719 0.184207
0.358434 0.708461 0.181704
0.366979 0.705409 0.178256
0.377173 0.701564 0.174197
0.388983 0.696773 0.168765
0.402014 0.691035 0.162692
0.415930 0.684321 0.155550
0.430488 0.676600 0.147280
0.445197 0.667842 0.137850
0.459846 0.657984 0.127321
0.474159 0.647089 0.115145
0.497871 0.651179 0.112673
0.528649 0.664759 0.117159
0.561059 0.678553 0.122042
0.594873 0.692195 0.127474
0.629755 0.705715 0.133700
0.665766 0.718898 0.140017
0.702724 0.731746 0.146761
0.740597 0.744167 0.153414
0.779263 0.756191 0.159884
0.813107 0.762631 0.169070
0.839475 0.760830 0.189151
0.871946 0.763516 0.200504
0.911131 0.765896 0.147127
0.947631 0.764126 0.000000
0.980194 0.757778 0.000000
1.000000 0.746883 0.000000
1.000000 0.733730 0.000000
1.000000 0.718654 0.000000
0.359289 0.738857 0.204746
0.360662 0.738460 0.204135
0.362554 0.737850 0.203311
0.366522 0.736599 0.201938
0.372503 0.734585 0.199313
0.380407 0.731899 0.196078
0.390234 0.728359 0.191958
0.401312 0.724117 0.186648
0.413733 0.718990 0.180575
0.427131 0.713069 0.173220
0.441169 0.706203 0.165133
0.455756 0.698299 0.155581
0.470466 0.689509 0.144717
0.484962 0.679622 0.132601
0.499977 0.669978 0.119905
0.529625 0.683009 0.125582
0.560632 0.696132 0.132052
0.592950 0.709224 0.138949
0.626398 0.722103 0.146517
0.660945 0.734829 0.154299
0.696376 0.747219 0.162295
0.732784 0.759335 0.170077
0.769863 0.771054 0.177737
0.807797 0.782406 0.184634
0.840665 0.788144 0.194095
0.865965 0.785733 0.213291
0.896574 0.787594 0.229770
0.934722 0.789242 0.180453
0.969207 0.786007 0.079683
0.999054 0.777432 0.000000
1.000000 0.763912 0.000000
1.000000 0.747860 0.000000
0.375708 0.764736 0.224399
0.377050 0.764370 0.223819
0.378668 0.763851 0.223209
0.382330 0.762722 0.221744
0.387854 0.760952 0.219364
0.395270 0.758541 0.216129
0.404150 0.755459 0.211978
0.414679 0.751675 0.206699
0.426490 0.747158 0.200687
0.439307 0.741909 0.193637
0.453010 0.735836 0.185336
0.467292 0.728939 0.176089
0.482033 0.721157 0.165316
0.496834 0.712520 0.153506
0.511437 0.702907 0.140291
0.532647 0.703334 0.135805
0.562554 0.715694 0.143587
0.593469 0.728084 0.151858
0.625666 0.740414 0.160189
0.658778 0.752560 0.169070
0.692958 0.764492 0.177768
0.727871 0.776181 0.186893
0.763607 0.787564 0.195315
0.800168 0.798642 0.203189
0.837369 0.809354 0.210452
0.869383 0.814420 0.219577
0.893492 0.811215 0.238163
0.921721 0.811887 0.259007
0.957305 0.811673 0.212161
0.989044 0.806302 0.126680
1.000000 0.795041 0.000000
1.000000 0.778592 0.000000
0.393500 0.791318 0.246769
0.394629 0.790982 0.246342
0.396246 0.790524 0.245670
0.399542 0.789548 0.243992
0.404608 0.787991 0.241764
0.411475 0.785885 0.238560
0.419867 0.783169 0.234470
0.429755 0.779873 0.229618
0.441016 0.775937 0.223819
0.453254 0.771328 0.216831
0.466468 0.766049 0.209140
0.480568 0.760098 0.199985
0.495033 0.753384 0.189944
0.509972 0.745907 0.178378
0.525017 0.737606 0.165835
0.539940 0.728511 0.151614
0.567254 0.737911 0.157656
0.596979 0.749538 0.166934
0.627893 0.761196 0.176547
0.659785 0.772702 0.186130
0.692561 0.784085 0.195804
0.726253 0.795315 0.205295
0.760708 0.806271 0.214633
0.795956 0.816983 0.223209
0.831907 0.827390 0.231083
0.868406 0.837400 0.238163
0.899199 0.841398 0.246464
0.921294 0.836759 0.263920
0.946624 0.835325 0.284825
0.978271 0.832670 0.243290
1.000000 0.824643 0.163577
1.000000 0.810269 0.000000
0.413214 0.819059 0.272190
0.414282 0.818784 0.271702
0.415625 0.818418 0.271336
0.418677 0.817563 0.269749
0.423560 0.816190 0.267582
0.429877 0.814359 0.264561
0.437781 0.812039 0.260777
0.447028 0.809232 0.256168
0.457588 0.805814 0.250523
0.469459 0.801877 0.244297
0.482185 0.797360 0.236667
0.495827 0.792264 0.228244
0.510216 0.786557 0.218906
0.525109 0.780240 0.208286
0.540398 0.773251 0.196628
