其他预设/【233】日式怀旧街道调色预设208款/1.3D LUT预设（视频调色-PR-AE-PS-FCPX-达芬奇用）/3.日式城市街拍预设 (自动曝光预设)/JA – Cine Night 1 (Auto-Exposure).cube
# Created by Adobe Lightroom plugin Export LUT (1.17.0)
# www.johnrellis.com/lightroom/exportlut.htm
# Preset: JA – Cine Night 1 (Auto-Exposure)
# Color profile: /Library/Application Support/Adobe/Color/Profiles/Recommended/AdobeRGB1998.icc
LUT_3D_SIZE 8
DOMAIN_MIN 0.000000 0.000000 0.000000
DOMAIN_MAX 0.903226 0.903226 0.903226
0.004669 0.027771 0.052949
0.052064 0.050202 0.068605
0.126314 0.070893 0.085817
0.312566 0.000000 0.100954
0.575952 0.000000 0.114199
0.793484 0.000000 0.142000
0.949767 0.170352 0.212619
1.000000 0.347967 0.345006
0.000000 0.073610 0.082429
0.038880 0.078035 0.076631
0.133730 0.094331 0.074250
0.321935 0.083772 0.085847
0.582788 0.000000 0.094423
0.796902 0.044251 0.122133
0.951476 0.214878 0.197116
1.000000 0.363043 0.333013
0.000000 0.135714 0.139712
0.000000 0.142977 0.133608
0.104402 0.159731 0.108949
0.337682 0.204257 0.074342
0.599390 0.226383 0.042145
0.806302 0.267002 0.031220
0.956817 0.330999 0.127260
1.000000 0.415595 0.287419
0.000000 0.281498 0.229923
0.000000 0.288853 0.224308
0.000000 0.302037 0.194400
0.266239 0.337316 0.153017
0.586542 0.415473 0.058350
0.816648 0.449073 0.000000
0.961303 0.478004 0.049165
1.000000 0.506554 0.183047
0.000000 0.508385 0.347997
0.000000 0.513603 0.342596
0.000000 0.527794 0.320714
0.220432 0.518151 0.270939
0.501244 0.571160 0.203952
0.783780 0.631128 0.115328
0.960571 0.643183 0.000000
1.000000 0.632746 0.166751
0.000000 0.739193 0.489265
0.000000 0.741970 0.485237
0.000000 0.749142 0.470954
0.188693 0.752163 0.427314
0.457221 0.726162 0.376226
0.713039 0.775540 0.308202
0.926604 0.798672 0.264439
1.000000 0.772824 0.272496
0.000000 0.911467 0.639582
0.000000 0.912200 0.638727
0.000000 0.913115 0.638117
0.316960 0.909697 0.645502
0.515831 0.899107 0.613306
0.679988 0.889128 0.558343
0.869078 0.907866 0.500999
1.000000 0.894957 0.484504
0.000000 1.000000 0.771206
0.000000 1.000000 0.770932
0.162478 1.000000 0.781735
0.492988 0.990784 0.811337
0.682155 0.978180 0.847349
0.747555 0.972290 0.818814
0.837491 0.968627 0.791104
0.938903 0.967071 0.756069
0.000000 0.042786 0.095735
0.032593 0.054871 0.094148
0.116457 0.074434 0.118807
0.303288 0.037690 0.136080
0.570581 0.000000 0.145296
0.792111 0.000000 0.156008
0.950286 0.190646 0.205814
1.000000 0.351690 0.342931
0.000000 0.073243 0.105379
0.017884 0.079255 0.112520
0.119478 0.093599 0.123140
0.309758 0.086854 0.135714
0.575250 0.000000 0.143526
0.794339 0.094606 0.153872
0.951904 0.230106 0.190402
1.000000 0.366400 0.331121
0.000000 0.136416 0.161868
0.000000 0.144228 0.163912
0.099184 0.160891 0.145846
0.330602 0.196262 0.129274
0.590875 0.219028 0.133181
0.801877 0.265080 0.143191
0.955077 0.337041 0.176333
1.000000 0.417853 0.286198
0.000000 0.283909 0.252262
0.000000 0.291417 0.250095
0.000000 0.308263 0.225986
0.266392 0.338018 0.188907
0.585931 0.411505 0.134066
0.812772 0.444465 0.107332
0.959045 0.478767 0.158968
1.000000 0.512383 0.238041
0.000000 0.511376 0.370184
0.000000 0.516472 0.365942
0.000000 0.530022 0.347601
0.225101 0.523278 0.299413
0.501915 0.571435 0.239841
0.783444 0.629877 0.178073
0.960174 0.642390 0.137118
1.000000 0.635737 0.230747
0.000000 0.740993 0.509087
0.000000 0.743709 0.505608
0.000000 0.750546 0.492927
0.231724 0.753567 0.468238
0.460792 0.728298 0.402106
0.713069 0.775631 0.339940
0.925719 0.798795 0.305241
1.000000 0.773770 0.313359
0.000000 0.912016 0.654749
0.000000 0.912718 0.654139
0.000000 0.913420 0.653803
0.324987 0.909911 0.661280
0.523308 0.899748 0.634028
0.681514 0.888670 0.579492
0.868254 0.907805 0.526177
0.999268 0.895323 0.513359
0.000000 1.000000 0.779141
0.000000 1.000000 0.778805
0.165377 1.000000 0.789212
0.494362 0.990723 0.817441
0.683467 0.978180 0.851896
0.751125 0.972015 0.827634
0.838407 0.968292 0.800534
0.938323 0.966949 0.768002
0.000000 0.060121 0.165927
0.000000 0.060395 0.169986
0.091524 0.076478 0.174807
0.274357 0.071717 0.223453
0.547021 0.000000 0.269200
0.776730 0.075441 0.300511
0.941497 0.245731 0.335668
1.000000 0.376806 0.389990
0.000000 0.082155 0.177462
0.000000 0.084871 0.185946
0.089754 0.097414 0.188846
0.278996 0.107546 0.236515
0.550805 0.063874 0.272557
0.779049 0.143679 0.300145
0.942443 0.274662 0.334997
1.000000 0.393744 0.389868
0.000000 0.134340 0.209384
0.000000 0.140719 0.215335
0.076753 0.163424 0.232486
0.298192 0.189090 0.252781
0.566033 0.213870 0.273106
0.787076 0.272648 0.296422
0.945556 0.361608 0.332647
1.000000 0.450019 0.389593
0.000000 0.286442 0.311162
0.000000 0.296178 0.314885
0.000000 0.316106 0.313298
0.266026 0.339483 0.281132
0.586236 0.398138 0.261936
0.799069 0.436347 0.285740
0.950072 0.488380 0.326574
1.000000 0.538994 0.388830
0.000000 0.517845 0.431830
0.000000 0.523461 0.431495
0.000000 0.537316 0.425147
0.238926 0.540429 0.385992
0.502770 0.571771 0.338750
0.782223 0.626368 0.312718
0.954345 0.642145 0.314641
1.000000 0.650172 0.386999
0.000000 0.746151 0.567956
0.000000 0.748836 0.567163
0.000000 0.755276 0.561639
0.259770 0.757778 0.544335
0.473915 0.737606 0.484657
0.712184 0.775692 0.435340
0.922240 0.799496 0.420905
1.000000 0.777829 0.430610
0.000000 0.914000 0.701381
0.000000 0.914488 0.701717
0.000000 0.914763 0.702846
0.345525 0.910948 0.709926
0.547478 0.902129 0.697383
0.685847 0.887083 0.643610
0.865476 0.907591 0.604059
0.992218 0.896757 0.601892
0.000000 1.000000 0.805020
0.000000 1.000000 0.804105
0.148867 1.000000 0.812406
0.494270 0.990997 0.836301
0.685969 0.978332 0.865934
0.763088 0.971405 0.854246
0.841550 0.967193 0.829160
0.936675 0.966491 0.803738
0.000000 0.067994 0.271824
0.000000 0.068482 0.279088
0.105440 0.062684 0.301671
0.243290 0.075624 0.296330
0.501091 0.003235 0.360266
0.749294 0.174228 0.440742
0.919158 0.361578 0.525811
1.000000 0.494606 0.591241
0.000000 0.090150 0.285588
0.000000 0.091951 0.291966
0.101595 0.091737 0.314672
0.246891 0.106722 0.307530
0.505241 0.113832 0.371710
0.750729 0.225742 0.453010
0.919921 0.379919 0.527214
1.000000 0.502647 0.589197
0.000000 0.147341 0.301701
0.000000 0.151247 0.306615
0.000000 0.169558 0.338964
0.255314 0.196048 0.345373
0.519066 0.247745 0.411475
0.756466 0.337652 0.479927
0.923095 0.437842 0.529473
1.000000 0.536797 0.586603
0.000000 0.263157 0.365454
0.000000 0.270787 0.370184
0.000000 0.296941 0.385870
0.260136 0.340185 0.411200
0.542962 0.391302 0.444068
0.769406 0.454627 0.480995
0.928923 0.529534 0.528008
1.000000 0.600641 0.587091
0.000000 0.501457 0.502647
0.000000 0.512261 0.509300
0.000000 0.547295 0.531914
0.272770 0.557916 0.520867
0.501152 0.571069 0.475685
0.778470 0.621820 0.478767
0.935088 0.654841 0.524254
1.000000 0.686610 0.587823
0.000000 0.754788 0.661585
0.000000 0.757382 0.661494
0.000000 0.763424 0.660060
0.290806 0.765469 0.652094
0.499611 0.753170 0.612970
0.708888 0.775235 0.570397
0.914763 0.801968 0.577966
1.000000 0.786893 0.588739
0.000000 0.917449 0.772396
0.000000 0.917815 0.772702
0.000000 0.917601 0.774075
0.361334 0.913787 0.777829
0.583673 0.905028 0.783017
0.695308 0.888273 0.732509
0.861265 0.907286 0.706020
0.981567 0.898985 0.714809
0.000000 1.000000 0.848020
0.000000 1.000000 0.847105
0.099489 1.000000 0.849393
0.472786 0.992859 0.862119
0.683070 0.979461 0.885649
0.783658 0.970611 0.890288
0.846830 0.965484 0.866606
0.935241 0.965850 0.849943
0.000000 0.075563 0.406378
0.000000 0.075074 0.414466
0.096590 0.051362 0.442817
0.304234 0.000000 0.459937
0.468940 0.000000 0.450355
0.706722 0.169375 0.523003
0.892851 0.394415 0.633783
0.982483 0.628687 0.771328
0.000000 0.099550 0.416236
0.000000 0.099977 0.423682
0.080995 0.092134 0.450782
0.311406 0.009613 0.473915
0.471717 0.100954 0.459815
0.708400 0.216342 0.533318
0.892241 0.423896 0.645014
0.980987 0.644312 0.779568
0.000000 0.160189 0.419532
0.000000 0.163943 0.433875
0.000000 0.177554 0.468086
0.326299 0.188113 0.518090
0.479683 0.232944 0.492714
0.713375 0.337560 0.569726
0.890257 0.512840 0.683162
0.979126 0.678614 0.793576
0.000000 0.271427 0.466011
0.000000 0.275944 0.469612
0.000000 0.291142 0.481117
0.259556 0.339055 0.536614
0.488136 0.391882 0.550317
0.720363 0.495125 0.634882
0.890043 0.623590 0.734585
0.985382 0.693324 0.777646
0.000000 0.455940 0.560388
0.000000 0.462501 0.564294
0.000000 0.484688 0.577600
0.229709 0.520806 0.599847
0.492927 0.567376 0.629999
0.738033 0.629603 0.677943
0.903258 0.690730 0.725399
0.988647 0.739925 0.769711
0.000000 0.717769 0.717525
0.000000 0.724239 0.722164
0.000000 0.744289 0.737423
0.308782 0.771908 0.763210
0.533227 0.770779 0.750759
0.702693 0.773526 0.708827
0.906645 0.804654 0.729824
0.988342 0.811215 0.769619
0.000000 0.919280 0.850278
0.000000 0.920989 0.852750
0.000000 0.921569 0.855009
0.388525 0.918029 0.854704
0.588525 0.911589 0.850156
0.715511 0.897368 0.826963
0.857694 0.906859 0.802182
0.971099 0.901549 0.816709
0.000000 1.000000 0.897520
0.000000 1.000000 0.896757
0.184817 1.000000 0.897917
0.466224 0.994018 0.900237
0.658808 0.982940 0.907103
0.808316 0.970031 0.924834
0.854917 0.963745 0.904234
0.935241 0.965118 0.894194
0.000000 0.080507 0.576593
0.000000 0.075135 0.584802
0.100465 0.000000 0.613489
0.382696 0.000000 0.664515
0.543511 0.000000 0.652705
0.689326 0.133272 0.631800
0.863828 0.376776 0.704829
0.972259 0.620417 0.815885
0.000000 0.108156 0.582849
0.000000 0.105898 0.590631
0.072511 0.086000 0.618738
0.376623 0.000000 0.669123
0.551415 0.000000 0.666560
0.690028 0.187411 0.639338
0.863493 0.404395 0.713069
0.971038 0.635309 0.821775
0.000000 0.178439 0.593133
0.000000 0.181521 0.601129
0.000000 0.187778 0.629480
0.347387 0.190249 0.680110
0.562860 0.199863 0.700679
0.691554 0.313451 0.665614
0.862303 0.489204 0.741207
0.967254 0.682307 0.840848
0.000000 0.282963 0.583642
0.000000 0.283909 0.585046
0.000000 0.298466 0.616358
0.266148 0.342962 0.686061
0.569055 0.404425 0.750088
0.691646 0.466835 0.709957
0.861723 0.603388 0.785122
0.962249 0.749416 0.868956
0.000000 0.461952 0.675929
0.000000 0.464942 0.677790
0.000000 0.475074 0.683711
0.119356 0.489265 0.691615
0.484718 0.553216 0.751369
0.690700 0.622187 0.766476
0.865354 0.723018 0.837095
0.957183 0.824369 0.902525
0.000000 0.667903 0.772702
0.000000 0.671748 0.774746
0.000000 0.684565 0.781613
0.175937 0.704952 0.792844
0.483925 0.732052 0.807950
0.694179 0.767788 0.829587
0.879484 0.816342 0.866880
0.964416 0.848875 0.892912
0.000000 0.887449 0.884092
0.000000 0.889769 0.885649
0.000000 0.896422 0.890806
0.329442 0.904570 0.899504
0.607050 0.914366 0.912871
0.748470 0.909178 0.906584
0.856504 0.905699 0.883268
0.962524 0.907134 0.897856
0.000000 1.000000 0.938140
0.000000 1.000000 0.938231
0.197360 1.000000 0.940063
0.499916 0.993133 0.943359
0.670344 0.983337 0.942748
0.800961 0.973083 0.945190
0.875334 0.964385 0.943908
0.937194 0.964355 0.934234
0.000000 0.090761 0.789059
0.000000 0.070832 0.794736
0.183566 0.000000 0.812741
0.434913 0.000000 0.842496
0.658564 0.000000 0.875273
0.748653 0.000000 0.825040
0.861143 0.355657 0.806973
0.960662 0.612604 0.861357
0.000000 0.117861 0.791897
0.000000 0.112276 0.796933
0.163302 0.080537 0.814420
0.427161 0.000000 0.843992
0.658991 0.000000 0.879667
0.752560 0.099184 0.833127
0.860349 0.383856 0.811704
0.959777 0.626398 0.865110
0.000000 0.206760 0.794400
0.000000 0.207462 0.799435
0.000000 0.208560 0.817014
0.393988 0.210330 0.846738
0.641993 0.242191 0.884092
0.764645 0.290318 0.859037
0.857664 0.469062 0.827787
0.957000 0.670314 0.877379
0.000000 0.317296 0.775509
0.000000 0.318029 0.783444
0.000000 0.324804 0.811856
0.307958 0.362066 0.844480
0.596033 0.420935 0.883604
0.774044 0.475105 0.889708
0.853605 0.581415 0.852415
0.953399 0.733730 0.895781
0.000000 0.482734 0.810330
0.000000 0.482063 0.809873
0.000000 0.477943 0.807462
0.000000 0.474861 0.814176
0.499275 0.552789 0.873045
0.767056 0.648829 0.911803
0.849973 0.696620 0.880980
0.949767 0.806332 0.918608
0.000000 0.675959 0.874784
0.000000 0.677058 0.874968
0.000000 0.680385 0.875334
0.000000 0.683528 0.874632
0.388891 0.684047 0.870359
0.683986 0.746639 0.903471
0.848875 0.807553 0.911620
0.947021 0.879179 0.944457
0.000000 0.844480 0.920592
0.000000 0.846006 0.921050
0.000000 0.850767 0.922454
0.212772 0.858366 0.924712
0.504234 0.868467 0.927977
0.703517 0.881865 0.933013
0.855253 0.900786 0.941741
0.949798 0.926024 0.958618
0.000000 0.984436 0.963226
0.000000 0.985382 0.963928
0.000000 0.987976 0.966186
0.366003 0.988403 0.968750
0.625483 0.980987 0.968872
0.812070 0.972534 0.972137
0.898039 0.966064 0.972534
0.940551 0.963622 0.965881
0.000000 0.203922 0.956390
0.166629 0.196658 0.957855
0.349126 0.166262 0.962768
0.533684 0.091066 0.970550
0.714931 0.119844 0.979156
0.860197 0.225315 0.979950
0.917540 0.357275 0.942199
0.965545 0.613947 0.920592
0.000000 0.205966 0.957580
0.169833 0.198856 0.958984
0.348150 0.172122 0.963653
0.527306 0.164431 0.970550
0.710353 0.194278 0.979004
0.858640 0.278447 0.980438
0.916716 0.386755 0.943877
0.964569 0.627161 0.922332
0.000000 0.282444 0.957946
0.000000 0.283085 0.959136
0.302159 0.285771 0.963256
0.500908 0.297765 0.969970
0.692531 0.337224 0.978088
0.852689 0.412787 0.981811
0.914488 0.474830 0.949981
0.961364 0.668849 0.928069
0.000000 0.384802 0.954345
0.000000 0.386633 0.956268
0.145174 0.410834 0.960571
0.437934 0.434424 0.967376
0.655299 0.482399 0.975372
0.839536 0.565820 0.982818
0.916960 0.596796 0.962768
0.956664 0.728603 0.936980
0.000000 0.540124 0.946288
0.000000 0.536400 0.945495
0.000000 0.530144 0.949798
0.220127 0.531792 0.960479
0.577203 0.598383 0.970214
0.795468 0.675471 0.978882
0.918334 0.718410 0.976196
0.950958 0.796994 0.948425
0.000000 0.714229 0.967285
0.000000 0.713436 0.966979
0.000000 0.709560 0.965606
0.000000 0.698573 0.962371
0.367285 0.677943 0.957214
0.715297 0.755764 0.972412
0.902159 0.833310 0.980255
0.945251 0.865324 0.961669
0.000000 0.853452 0.980438
0.000000 0.853727 0.980285
0.000000 0.854459 0.979706
0.253513 0.855528 0.978363
0.477363 0.855802 0.975891
0.637995 0.851102 0.971099
0.847959 0.885618 0.976013
0.941192 0.924163 0.974884
0.000000 0.947906 0.987427
0.000000 0.948394 0.987427
0.000000 0.949432 0.987213
0.361028 0.949828 0.986450
0.572808 0.950469 0.985382
0.742245 0.952361 0.984222
0.870878 0.956451 0.983581
0.942168 0.962188 0.985077
