其他预设/【233】日式怀旧街道调色预设208款/1.3D LUT预设（视频调色-PR-AE-PS-FCPX-达芬奇用）/3.日式城市街拍预设 (自动曝光预设)/JA – Shaded Light 4 (Auto-Exposure).cube
# Created by Adobe Lightroom plugin Export LUT (1.17.0)
# www.johnrellis.com/lightroom/exportlut.htm
# Preset: JA – Shaded Light 4 (Auto-Exposure)
# Color profile: /Library/Application Support/Adobe/Color/Profiles/Recommended/AdobeRGB1998.icc
LUT_3D_SIZE 8
DOMAIN_MIN 0.000000 0.000000 0.000000
DOMAIN_MAX 0.903226 0.903226 0.903226
0.041871 0.058595 0.070344
0.109133 0.059174 0.072114
0.182284 0.060761 0.077089
0.242649 0.065675 0.086091
0.441505 0.000000 0.080873
0.645930 0.000000 0.050477
0.801846 0.000000 0.000000
0.938415 0.000000 0.000000
0.032044 0.122042 0.073274
0.106203 0.121859 0.071962
0.183017 0.114961 0.080720
0.250217 0.110750 0.090761
0.458076 0.121492 0.079408
0.655726 0.098024 0.035340
0.807706 0.000000 0.000000
0.941558 0.000000 0.000000
0.027741 0.198581 0.091341
0.089723 0.197147 0.089387
0.169100 0.191989 0.092714
0.264683 0.202579 0.104341
0.511833 0.274601 0.069001
0.687373 0.277256 0.000000
0.827329 0.258396 0.000000
0.951965 0.229068 0.000000
0.000000 0.314855 0.108400
0.082826 0.313298 0.105989
0.173861 0.305089 0.099245
0.276982 0.309239 0.100038
0.487037 0.388586 0.060761
0.730892 0.459266 0.000000
0.858457 0.435340 0.000000
0.968353 0.404639 0.000000
0.000000 0.578637 0.000000
0.000000 0.575463 0.000000
0.211948 0.563775 0.000000
0.348699 0.540093 0.000000
0.499641 0.542016 0.000000
0.663020 0.550134 0.000000
0.859037 0.586633 0.000000
0.987243 0.572930 0.000000
0.000000 0.754788 0.000000
0.000000 0.752499 0.000000
0.180179 0.744198 0.000000
0.356268 0.728725 0.000000
0.504601 0.710475 0.000000
0.661616 0.706081 0.000000
0.800168 0.681575 0.000000
0.965026 0.695949 0.000000
0.000000 0.888701 0.000000
0.000000 0.887205 0.000000
0.086122 0.881773 0.000000
0.327642 0.871702 0.000000
0.484352 0.855589 0.000000
0.638148 0.844083 0.000000
0.794583 0.837522 0.000000
0.929381 0.808652 0.000000
0.000000 0.988769 0.000000
0.000000 0.987915 0.000000
0.000000 0.984894 0.000000
0.277836 0.979370 0.000000
0.448829 0.971160 0.000000
0.596582 0.958953 0.000000
0.751827 0.951415 0.000000
0.903319 0.942565 0.000000
0.040436 0.074189 0.134371
0.093141 0.074617 0.135866
0.174777 0.074037 0.148562
0.237125 0.071382 0.133181
0.433722 0.000000 0.129397
0.640497 0.000000 0.114717
0.798367 0.000000 0.095918
0.936645 0.000000 0.071046
0.047395 0.120394 0.140017
0.101778 0.121248 0.145052
0.176486 0.116548 0.140749
0.243839 0.113100 0.139101
0.450050 0.088014 0.130861
0.650385 0.000000 0.113802
0.804288 0.000000 0.094087
0.939818 0.000000 0.067842
0.046204 0.197665 0.143313
0.100893 0.195346 0.153017
0.166720 0.191684 0.149111
0.270329 0.210758 0.159030
0.503838 0.259007 0.135012
0.682521 0.256931 0.110597
0.824247 0.235233 0.086854
0.950469 0.202304 0.054292
0.000000 0.317784 0.154543
0.084413 0.314702 0.159152
0.174899 0.308598 0.150027
0.277165 0.310369 0.147189
0.496590 0.392676 0.126528
0.730800 0.450690 0.097292
0.856016 0.423072 0.065583
0.967285 0.392035 0.000000
0.000000 0.582757 0.089967
0.000000 0.578882 0.104891
0.196597 0.566888 0.092775
0.343755 0.541405 0.076265
0.500237 0.542901 0.050324
0.668452 0.551629 0.000000
0.862577 0.583642 0.000000
0.986694 0.565057 0.000000
0.000000 0.757717 0.000000
0.000000 0.755184 0.000000
0.147677 0.746639 0.000000
0.347387 0.730861 0.000000
0.500969 0.711299 0.000000
0.661860 0.706477 0.000000
0.803586 0.682216 0.000000
0.967010 0.693812 0.000000
0.000000 0.890776 0.000000
0.000000 0.889220 0.000000
0.000000 0.883696 0.000000
0.314214 0.873411 0.000000
0.478828 0.857176 0.000000
0.635584 0.844602 0.000000
0.794675 0.837644 0.000000
0.930571 0.807401 0.000000
0.000000 0.989715 0.000000
0.000000 0.988891 0.000000
0.000000 0.985901 0.000000
0.263554 0.980346 0.000000
0.441657 0.972045 0.000000
0.592798 0.959747 0.000000
0.750027 0.951690 0.000000
0.903380 0.942626 0.000000
0.033692 0.099458 0.217838
0.088441 0.099153 0.218235
0.150210 0.110780 0.216190
0.203769 0.129732 0.232334
0.412085 0.000000 0.284306
0.620478 0.000000 0.258061
0.785092 0.000000 0.180240
0.930175 0.000000 0.165225
0.094118 0.147494 0.219821
0.106447 0.141207 0.220554
0.153628 0.141909 0.219028
0.216281 0.142306 0.237095
0.424689 0.000000 0.266026
0.629999 0.000000 0.204257
0.791501 0.000000 0.179721
0.933654 0.000000 0.163973
0.092073 0.195041 0.225284
0.121096 0.193759 0.225711
0.162173 0.191073 0.226658
0.257816 0.182315 0.218570
0.477607 0.160952 0.206912
0.665431 0.121157 0.192020
0.813352 0.009979 0.176150
0.945464 0.000000 0.158297
0.000000 0.331273 0.263767
0.054383 0.328740 0.258640
0.147189 0.320378 0.223850
0.279515 0.314611 0.215640
0.532250 0.392248 0.204135
0.718013 0.394965 0.188785
0.847990 0.364782 0.168856
0.963836 0.332067 0.150271
0.000000 0.596399 0.296178
0.000000 0.593683 0.274296
0.000000 0.581415 0.188846
0.321233 0.555505 0.172091
0.502708 0.545983 0.160433
0.688685 0.552178 0.154360
0.873808 0.573663 0.194766
0.982940 0.539574 0.193027
0.000000 0.766598 0.256840
0.000000 0.764920 0.227817
0.000000 0.756435 0.163210
0.302922 0.739590 0.126375
0.484108 0.714717 0.085695
0.662959 0.707851 0.040223
0.815915 0.683009 0.055879
0.971618 0.689601 0.180179
0.000000 0.896880 0.198795
0.000000 0.895842 0.170840
0.000000 0.889372 0.185153
0.269413 0.879149 0.124483
0.457588 0.863035 0.000000
0.625574 0.846464 0.000000
0.795041 0.838193 0.000000
0.934325 0.802731 0.000000
0.000000 0.993133 0.156863
0.000000 0.992370 0.151186
0.000000 0.986816 0.253269
0.250828 0.982086 0.194766
0.424445 0.974426 0.028107
0.580591 0.962402 0.000000
0.743893 0.952636 0.000000
0.903349 0.942718 0.000000
0.039490 0.133516 0.308507
0.091127 0.134920 0.308080
0.160159 0.134859 0.304997
0.205661 0.146426 0.288914
0.316167 0.131411 0.359075
0.574914 0.000000 0.458869
0.761501 0.000000 0.448859
0.914702 0.000000 0.391943
0.077485 0.166873 0.318151
0.105196 0.165591 0.317205
0.165499 0.159548 0.312535
0.211246 0.161257 0.295445
0.324590 0.138125 0.364233
0.590661 0.000000 0.454292
0.767086 0.000000 0.431220
0.918761 0.000000 0.364385
0.092927 0.243320 0.340948
0.109407 0.238529 0.342229
0.151125 0.204410 0.340307
0.232639 0.191897 0.320775
0.399359 0.134920 0.395117
0.630396 0.000000 0.407050
0.788693 0.000000 0.339269
0.933928 0.000000 0.228855
0.000000 0.351659 0.385382
0.000000 0.350713 0.385077
0.118929 0.344701 0.382025
0.281407 0.320989 0.369604
0.515831 0.275669 0.329778
0.687007 0.238407 0.303532
0.826932 0.200229 0.283513
0.953521 0.155459 0.268437
0.000000 0.620569 0.472755
0.000000 0.618006 0.464881
0.000000 0.606592 0.436805
0.288212 0.576623 0.392615
0.505791 0.550622 0.350805
0.709621 0.564202 0.410773
0.859709 0.563684 0.436500
0.967773 0.516167 0.397925
0.000000 0.780667 0.451026
0.000000 0.778714 0.444221
0.000000 0.770108 0.428748
0.313085 0.749050 0.426612
0.471260 0.723049 0.354345
0.663935 0.709346 0.338659
0.827359 0.692164 0.381079
0.965820 0.715633 0.492195
0.000000 0.903563 0.429450
0.000000 0.902037 0.429297
0.000000 0.895476 0.437415
0.352636 0.880980 0.467109
0.471778 0.867216 0.402808
0.618372 0.847410 0.333745
0.794858 0.838010 0.330388
0.936004 0.802976 0.342138
0.000000 0.993225 0.423957
0.000000 0.991974 0.429847
0.121248 0.987335 0.452369
0.393927 0.977203 0.504479
0.479622 0.971923 0.450385
0.589502 0.963287 0.362371
0.742031 0.952026 0.322087
0.902800 0.941802 0.320317
0.000000 0.160128 0.549279
0.000000 0.156283 0.547662
0.196048 0.138918 0.540978
0.317540 0.097108 0.525139
0.379156 0.080018 0.489631
0.521508 0.000000 0.548791
0.693965 0.000000 0.596643
0.891020 0.000000 0.603540
0.000000 0.181949 0.557916
0.000000 0.177066 0.555993
0.182345 0.157900 0.548516
0.319371 0.113741 0.532464
0.386419 0.093355 0.496864
0.526574 0.000000 0.550988
0.702785 0.000000 0.595178
0.896483 0.000000 0.595361
0.000000 0.307897 0.579309
0.000000 0.286839 0.578119
0.084779 0.229618 0.571649
0.310063 0.185885 0.554589
0.411017 0.158846 0.520165
0.543023 0.115267 0.557427
0.733608 0.000000 0.585534
0.908446 0.000000 0.560082
0.000000 0.468482 0.602594
0.000000 0.466377 0.601953
0.240146 0.462043 0.598047
0.330327 0.392493 0.586023
0.454353 0.343786 0.554070
0.593286 0.301549 0.573571
0.780972 0.066743 0.545495
0.927825 0.000000 0.476967
0.000000 0.627008 0.631403
0.000000 0.624842 0.630610
0.169131 0.614984 0.626825
0.385718 0.593194 0.617090
0.515404 0.554772 0.594903
0.682124 0.511040 0.559411
0.821469 0.471199 0.528832
0.946197 0.437324 0.505364
0.000000 0.795315 0.642725
0.000000 0.792508 0.643030
0.261021 0.782132 0.644221
0.428809 0.763394 0.641230
0.538659 0.733333 0.617517
0.669368 0.709834 0.578882
0.836149 0.727016 0.627741
0.955169 0.734646 0.654475
0.000000 0.907836 0.627558
0.128786 0.905791 0.630915
0.316381 0.898772 0.640528
0.455604 0.887175 0.647791
0.563561 0.869505 0.640345
0.644068 0.847593 0.578027
0.798093 0.836545 0.564965
0.934081 0.819028 0.592035
0.190372 0.989471 0.619654
0.244511 0.988067 0.624292
0.362188 0.983459 0.637720
0.474647 0.976837 0.649073
0.586084 0.966827 0.660121
0.648890 0.959686 0.608179
0.756405 0.948486 0.556878
0.905058 0.939452 0.552941
0.000000 0.177035 0.721798
0.000000 0.171542 0.720699
0.188724 0.148440 0.716457
0.351476 0.080812 0.707546
0.474647 0.000000 0.690944
0.557275 0.000000 0.663172
0.694545 0.000000 0.703487
0.815244 0.072297 0.739071
0.000000 0.203891 0.725704
0.000000 0.198672 0.724514
0.170443 0.177493 0.720027
0.345800 0.124269 0.710842
0.475746 0.000000 0.694148
0.561028 0.000000 0.666163
0.696010 0.000000 0.703822
0.819699 0.115358 0.738827
0.000000 0.347662 0.735164
0.000000 0.327459 0.734615
0.163943 0.302342 0.730220
0.341375 0.263523 0.720729
0.483436 0.196628 0.704158
0.574304 0.177890 0.675624
0.700099 0.189212 0.704585
0.835874 0.199466 0.736599
0.317205 0.559960 0.744808
0.341253 0.558160 0.743954
0.390845 0.541558 0.740749
0.412177 0.478828 0.733730
0.512688 0.420752 0.717556
0.598535 0.387610 0.689113
0.704768 0.373999 0.705745
0.865751 0.287602 0.725887
0.328649 0.669764 0.760494
0.360662 0.670039 0.759915
0.446296 0.670344 0.757412
0.540459 0.668360 0.751614
0.570245 0.614618 0.737240
0.633051 0.564599 0.707668
0.729854 0.517388 0.712001
0.908812 0.394903 0.688594
0.290105 0.790433 0.778897
0.328130 0.788479 0.778500
0.424323 0.781704 0.776822
0.526696 0.769955 0.772763
0.613581 0.751461 0.763577
0.682979 0.713924 0.738979
0.814939 0.678584 0.710903
0.934051 0.647578 0.687556
0.401404 0.907439 0.788418
0.427985 0.906462 0.790402
0.498726 0.902556 0.794553
0.577020 0.894560 0.794797
0.648554 0.882597 0.787594
0.707973 0.858457 0.760433
0.805905 0.836179 0.723171
0.938079 0.847105 0.766384
0.448249 0.983459 0.774044
0.466987 0.982391 0.775967
0.521172 0.979004 0.781155
0.589624 0.974090 0.785794
0.659571 0.967651 0.785946
0.729183 0.957397 0.778225
0.781277 0.945830 0.720638
0.910002 0.937041 0.710536
0.000000 0.260349 0.847807
0.000000 0.258030 0.847166
0.229862 0.247410 0.844663
0.373999 0.218875 0.839658
0.508324 0.149508 0.831296
0.616693 0.092805 0.816648
0.702968 0.091249 0.794522
0.847990 0.257145 0.843076
0.000000 0.308873 0.848997
0.101595 0.306004 0.848325
0.248997 0.294438 0.845792
0.381628 0.267399 0.840757
0.511070 0.209445 0.832395
0.619501 0.167575 0.817746
0.705013 0.164767 0.795407
0.847959 0.287480 0.842741
0.255009 0.450660 0.851774
0.275517 0.447425 0.851102
0.338048 0.435523 0.848631
0.426825 0.410376 0.843717
0.530480 0.363195 0.835416
0.632044 0.319036 0.821012
0.712551 0.306523 0.798154
0.848081 0.370733 0.841611
0.491005 0.643793 0.854368
0.489784 0.636347 0.854063
0.484321 0.607630 0.852995
0.510613 0.573236 0.848997
0.576104 0.534874 0.840574
0.657374 0.480507 0.826505
0.725948 0.454353 0.802853
0.848356 0.472572 0.839384
0.566461 0.751858 0.862760
0.578576 0.752956 0.862486
0.605768 0.749172 0.861387
0.638453 0.734920 0.858061
0.632074 0.677119 0.851377
0.688167 0.624659 0.836362
0.745388 0.587579 0.810819
0.849058 0.574670 0.835660
0.555993 0.818967 0.874113
0.568627 0.818967 0.873960
0.607965 0.818723 0.873350
0.662623 0.817258 0.871824
0.721492 0.813260 0.868070
0.733883 0.765560 0.854643
0.773953 0.713161 0.825162
0.862394 0.669429 0.831785
0.538659 0.904845 0.885924
0.552087 0.903990 0.885954
0.593774 0.900969 0.885863
0.651942 0.895964 0.885466
0.716518 0.888304 0.883787
0.777310 0.874998 0.877806
0.819883 0.840055 0.853330
0.925139 0.810178 0.829648
0.595789 0.975372 0.881437
0.607691 0.974823 0.882567
0.645472 0.973297 0.886290
0.701015 0.971252 0.892241
0.756649 0.967163 0.894926
0.806363 0.961212 0.892363
0.844266 0.948974 0.873198
0.916838 0.935027 0.839384
0.375097 0.476020 0.939330
0.388647 0.474952 0.939086
0.432441 0.470283 0.938262
0.499611 0.458259 0.936736
0.582391 0.433234 0.934325
0.677180 0.385046 0.930724
0.762264 0.391669 0.922179
0.841093 0.396857 0.910369
0.405310 0.508812 0.938872
0.416663 0.507378 0.938689
0.454261 0.501396 0.937896
0.514458 0.488228 0.936431
0.591180 0.462684 0.934112
0.681422 0.415351 0.930602
0.764767 0.415503 0.922210
0.842222 0.416785 0.910399
0.481971 0.594354 0.938079
0.489326 0.592615 0.937865
0.514855 0.585626 0.937163
0.558862 0.571466 0.935851
0.619471 0.546075 0.933623
0.695918 0.502373 0.930236
0.773251 0.485756 0.922454
0.846067 0.476356 0.910643
0.591882 0.708217 0.937163
0.591211 0.703182 0.937255
0.588159 0.683955 0.937591
0.615778 0.669856 0.936309
0.658412 0.646387 0.934142
0.717494 0.607691 0.930694
0.786282 0.574884 0.923552
0.852720 0.554864 0.911559
0.703151 0.818112 0.937804
0.707454 0.817441 0.937774
0.719966 0.813657 0.937621
0.696620 0.778103 0.937957
0.704585 0.745571 0.936736
0.744381 0.711666 0.933043
0.802823 0.667659 0.926329
0.862242 0.642390 0.913451
0.723934 0.871427 0.942168
0.730159 0.872007 0.942107
0.750546 0.873686 0.941955
0.779446 0.874662 0.941650
0.799588 0.863249 0.940978
0.787991 0.817166 0.938476
0.825589 0.771756 0.931212
0.875456 0.737758 0.916686
0.714321 0.916930 0.948363
0.720821 0.916960 0.948363
0.741939 0.916960 0.948455
0.775021 0.916808 0.948547
0.815702 0.916503 0.948516
0.858366 0.915618 0.947845
0.864683 0.883024 0.941650
0.894072 0.837278 0.922972
0.698329 0.975006 0.954345
0.705226 0.974548 0.954437
0.727932 0.973053 0.954742
0.764279 0.970520 0.955322
0.808896 0.967346 0.956176
0.855894 0.963653 0.957061
0.899779 0.958465 0.956725
0.927733 0.936706 0.941711
