其他预设/【233】日式怀旧街道调色预设208款/1.3D LUT预设（视频调色-PR-AE-PS-FCPX-达芬奇用）/3.日式城市街拍预设 (自动曝光预设)/JA – Gritty Contrast 3 (Auto-Exposure).cube
# Created by Adobe Lightroom plugin Export LUT (1.17.0)
# www.johnrellis.com/lightroom/exportlut.htm
# Preset: JA – Gritty Contrast 3 (Auto-Exposure)
# Color profile: /Library/Application Support/Adobe/Color/Profiles/Recommended/AdobeRGB1998.icc
LUT_3D_SIZE 32
0.106477 0.112825 0.121218
0.109071 0.113100 0.121523
0.112917 0.113375 0.121798
0.120302 0.114107 0.122499
0.128573 0.115236 0.123720
0.138521 0.116121 0.124880
0.156649 0.117159 0.125887
0.189670 0.117372 0.125704
0.238285 0.116579 0.124849
0.294957 0.115297 0.122530
0.352422 0.113558 0.119326
0.404273 0.111574 0.115572
0.450690 0.109865 0.111421
0.492164 0.110048 0.106905
0.528466 0.111666 0.102235
0.558862 0.112245 0.098329
0.584985 0.113161 0.094759
0.607965 0.113985 0.091737
0.629175 0.116060 0.088991
0.649805 0.116396 0.086793
0.671260 0.116152 0.085603
0.694789 0.115999 0.084962
0.721187 0.115999 0.085634
0.751278 0.116213 0.089204
0.785550 0.117617 0.096345
0.822812 0.122835 0.110170
0.862547 0.135195 0.131716
0.903502 0.156497 0.161074
0.944152 0.187259 0.198093
0.982879 0.227024 0.240330
1.000000 0.273167 0.285832
1.000000 0.323339 0.331823
0.106874 0.115236 0.121401
0.109865 0.115450 0.121126
0.114534 0.115602 0.120821
0.122133 0.115846 0.121584
0.130312 0.116487 0.122835
0.141115 0.117372 0.123964
0.161257 0.118502 0.124880
0.196689 0.119631 0.125063
0.247166 0.120241 0.123659
0.304204 0.120211 0.121248
0.359777 0.119295 0.117952
0.410834 0.118074 0.114046
0.457008 0.117983 0.109407
0.497444 0.117891 0.105074
0.532250 0.118288 0.100893
0.562219 0.119234 0.096681
0.587915 0.120363 0.093050
0.610498 0.121004 0.090303
0.631312 0.121798 0.087709
0.651820 0.121767 0.085542
0.673304 0.121401 0.084321
0.696864 0.121340 0.083589
0.723323 0.120912 0.084291
0.753506 0.120638 0.087922
0.787747 0.122042 0.095155
0.825284 0.127657 0.108309
0.864744 0.139528 0.130251
0.905394 0.160220 0.160250
0.945678 0.190341 0.197391
0.984009 0.229465 0.239963
1.000000 0.275151 0.285313
1.000000 0.324773 0.331548
0.107271 0.118654 0.121920
0.110567 0.119051 0.121218
0.114778 0.118837 0.120943
0.123659 0.119081 0.120699
0.132631 0.118715 0.121431
0.145052 0.119814 0.122896
0.168612 0.121645 0.123445
0.207095 0.123812 0.123476
0.259190 0.126070 0.121889
0.315770 0.127779 0.119295
0.370581 0.127962 0.115694
0.419928 0.127932 0.111818
0.464698 0.127901 0.107332
0.504326 0.128664 0.102571
0.537835 0.128756 0.098421
0.566583 0.128908 0.094606
0.591669 0.129152 0.091096
0.613855 0.129610 0.088106
0.634333 0.129610 0.085573
0.654780 0.129702 0.083589
0.676387 0.129274 0.081971
0.699794 0.128084 0.081697
0.726375 0.127718 0.082307
0.756741 0.127199 0.085969
0.790890 0.128603 0.093629
0.828214 0.133791 0.107027
0.867430 0.144991 0.129427
0.907713 0.165042 0.159487
0.947723 0.194217 0.196719
0.985534 0.232761 0.239658
1.000000 0.277623 0.285130
1.000000 0.326726 0.331212
0.108461 0.125490 0.123232
0.110994 0.125765 0.122377
0.115236 0.126192 0.121279
0.123842 0.125460 0.120729
0.135866 0.125826 0.119966
0.157168 0.128389 0.119631
0.187961 0.132387 0.119966
0.233310 0.137819 0.119295
0.286381 0.143038 0.117372
0.341405 0.146517 0.114076
0.392828 0.148409 0.110201
0.439765 0.149203 0.105898
0.481544 0.149722 0.101167
0.518120 0.149538 0.096742
0.549096 0.148684 0.093050
0.576226 0.148440 0.089204
0.599817 0.147890 0.086091
0.620966 0.146609 0.083345
0.640955 0.146151 0.080812
0.661128 0.144900 0.078920
0.682765 0.143893 0.077150
0.706264 0.142458 0.076814
0.733303 0.141817 0.077241
0.763912 0.141024 0.081025
0.797940 0.141939 0.088869
0.834806 0.146120 0.103334
0.873350 0.156588 0.126375
0.912993 0.175326 0.157473
0.952056 0.202823 0.195285
0.988891 0.239445 0.238224
1.000000 0.282933 0.284154
1.000000 0.330846 0.330510
0.110170 0.132967 0.124819
0.112306 0.133425 0.124147
0.115480 0.133791 0.123293
0.123384 0.134554 0.121492
0.135378 0.133974 0.120607
0.164614 0.142824 0.118166
0.224338 0.162600 0.112581
0.277714 0.171511 0.109590
0.329442 0.177035 0.106813
0.379767 0.180789 0.103304
0.426215 0.182162 0.099336
0.468238 0.182406 0.094697
0.505425 0.181247 0.090730
0.538018 0.179995 0.086366
0.565972 0.177981 0.082490
0.590204 0.175540 0.079774
0.611933 0.173434 0.076936
0.631830 0.170901 0.074372
0.651179 0.168887 0.072236
0.671321 0.166720 0.069856
0.692897 0.164828 0.068299
0.716823 0.162692 0.067353
0.744167 0.161044 0.068147
0.775143 0.160433 0.071717
0.808957 0.161135 0.080873
0.845121 0.164767 0.097047
0.882780 0.173861 0.121431
0.920928 0.190249 0.153811
0.958618 0.215732 0.192721
0.994018 0.249943 0.236057
1.000000 0.291264 0.282597
1.000000 0.337194 0.329137
0.111940 0.142885 0.126619
0.113954 0.143679 0.126131
0.116945 0.144503 0.125429
0.125154 0.146853 0.123507
0.139284 0.149813 0.121065
0.161959 0.154299 0.119020
0.228763 0.184878 0.111330
0.312840 0.216190 0.098451
0.382269 0.231296 0.085664
0.426459 0.230869 0.081453
0.466926 0.229191 0.077699
0.502953 0.226078 0.073976
0.534508 0.222080 0.070832
0.562005 0.217746 0.067781
0.586114 0.212955 0.065034
0.607630 0.208469 0.062867
0.627527 0.204318 0.060853
0.646448 0.200565 0.058778
0.665126 0.196689 0.055482
0.685176 0.193271 0.051637
0.707088 0.190433 0.047547
0.731868 0.187808 0.043977
0.759365 0.185336 0.046998
0.790372 0.184390 0.054200
0.823514 0.184512 0.067781
0.858793 0.187503 0.086427
0.895109 0.195254 0.113771
0.931640 0.209476 0.148257
0.967224 0.232151 0.188754
1.000000 0.263523 0.233524
1.000000 0.302007 0.280125
1.000000 0.345617 0.327367
0.112581 0.163790 0.127230
0.115724 0.165072 0.126619
0.120027 0.167056 0.125948
0.130892 0.171572 0.124178
0.150057 0.179171 0.120912
0.176944 0.186099 0.117586
0.220859 0.200473 0.112337
0.313756 0.244480 0.095338
0.395941 0.271458 0.075166
0.467475 0.287449 0.041077
0.506493 0.281376 0.021729
0.536248 0.273045 0.022065
0.562402 0.264836 0.021393
0.585901 0.257328 0.019654
0.607080 0.250095 0.017548
0.626581 0.243748 0.016175
0.645594 0.238376 0.012268
0.664302 0.233433 0.007385
0.683406 0.228946 0.001862
0.703243 0.223819 0.000000
0.725978 0.220249 0.000000
0.751186 0.216678 0.000000
0.779446 0.214328 0.000000
0.809567 0.212192 0.000092
0.841917 0.212039 0.026520
0.875547 0.213809 0.068849
0.909880 0.219974 0.102693
0.944366 0.232181 0.140475
0.977569 0.251804 0.182956
1.000000 0.279820 0.229191
1.000000 0.315129 0.277104
1.000000 0.355871 0.324712
0.111696 0.204013 0.125368
0.116732 0.206149 0.124758
0.123720 0.209110 0.123568
0.139834 0.215640 0.121309
0.166445 0.225925 0.117250
0.202518 0.238773 0.111025
0.242710 0.246769 0.105928
0.302708 0.265141 0.095155
0.395453 0.303563 0.067445
0.467842 0.321752 0.011719
0.529137 0.331212 0.000000
0.567620 0.325963 0.000000
0.590661 0.312688 0.000000
0.610559 0.300694 0.000000
0.629114 0.290013 0.000000
0.647211 0.280949 0.000000
0.665675 0.273381 0.000000
0.684230 0.266758 0.000000
0.703822 0.261326 0.000000
0.725673 0.257420 0.000000
0.750271 0.254520 0.000000
0.775814 0.250462 0.000000
0.803586 0.246983 0.000000
0.832883 0.244511 0.000000
0.863310 0.242741 0.000000
0.895079 0.243748 0.015686
0.927184 0.248112 0.084291
0.958892 0.257786 0.128969
0.989258 0.274205 0.175051
1.000000 0.298863 0.223758
1.000000 0.330602 0.272740
1.000000 0.367864 0.320989
0.107851 0.262211 0.118959
0.116121 0.264622 0.117861
0.126650 0.267704 0.116701
0.148409 0.273960 0.113954
0.181979 0.284306 0.108705
0.223392 0.296452 0.101106
0.272709 0.310063 0.090059
0.320989 0.315862 0.081025
0.384070 0.328466 0.062531
0.465858 0.355688 0.000000
0.526574 0.365087 0.000000
0.575891 0.367102 0.000000
0.615503 0.364599 0.000000
0.637110 0.349523 0.000000
0.654353 0.335515 0.000000
0.672236 0.323735 0.000000
0.690333 0.313664 0.000000
0.709438 0.305547 0.000000
0.729274 0.298466 0.000000
0.751644 0.293034 0.000000
0.776730 0.289494 0.000000
0.803830 0.286961 0.000000
0.831662 0.284001 0.000000
0.859281 0.280278 0.000000
0.887938 0.277775 0.000000
0.916808 0.276768 0.000000
0.946075 0.279088 0.043702
0.974701 0.286015 0.111788
1.000000 0.299107 0.163668
1.000000 0.319799 0.215763
1.000000 0.347784 0.266819
1.000000 0.381353 0.316289
0.102144 0.326177 0.107271
0.113100 0.327794 0.106233
0.127321 0.330327 0.104524
0.155306 0.335637 0.100984
0.193210 0.343755 0.094789
0.238895 0.353948 0.085237
0.288243 0.364263 0.071870
0.342321 0.373510 0.047120
0.395239 0.377813 0.005798
0.454780 0.383062 0.000000
0.524010 0.399237 0.000000
0.573053 0.400580 0.000000
0.614588 0.398566 0.000000
0.653742 0.396399 0.000000
0.682582 0.386877 0.000000
0.702937 0.373114 0.000000
0.721614 0.360662 0.000000
0.740841 0.350195 0.000000
0.761288 0.341680 0.000000
0.783566 0.334844 0.000000
0.807614 0.329412 0.000000
0.833707 0.325719 0.000000
0.860960 0.322942 0.000000
0.888090 0.319890 0.000000
0.914183 0.315862 0.000000
0.940093 0.312840 0.000000
0.966094 0.312657 0.000000
0.991211 0.316442 0.083864
1.000000 0.326024 0.147524
1.000000 0.342535 0.204471
1.000000 0.366339 0.258732
1.000000 0.396063 0.309789
0.092836 0.384344 0.092561
0.108034 0.385657 0.090944
0.126375 0.387762 0.088746
0.158053 0.391760 0.084413
0.198398 0.397650 0.076844
0.246128 0.405280 0.064332
0.297551 0.414099 0.029755
0.351354 0.422400 0.000000
0.406104 0.427649 0.000000
0.460609 0.430091 0.000000
0.513787 0.428107 0.000000
0.569940 0.434394 0.000000
0.611505 0.431373 0.000000
0.650813 0.428168 0.000000
0.692531 0.427832 0.000000
0.735927 0.428626 0.000000
0.759762 0.415564 0.000000
0.779660 0.402899 0.000000
0.799039 0.391577 0.000000
0.819883 0.382208 0.000000
0.842252 0.374640 0.000000
0.866087 0.368719 0.000000
0.890776 0.364050 0.000000
0.916228 0.360571 0.000000
0.941131 0.356909 0.000000
0.963836 0.351476 0.000000
0.986236 0.348425 0.000000
1.000000 0.348943 0.000000
1.000000 0.354498 0.123537
1.000000 0.366735 0.189303
1.000000 0.386053 0.247593
1.000000 0.411810 0.301427
0.087770 0.435370 0.076265
0.103243 0.436469 0.075013
0.124208 0.437720 0.072145
0.158206 0.440681 0.066316
0.200992 0.445167 0.052766
0.248447 0.450965 0.017700
0.300298 0.457649 0.000000
0.353002 0.463935 0.000000
0.407935 0.470039 0.000000
0.461891 0.472206 0.000000
0.515435 0.472694 0.000000
0.560540 0.463874 0.000000
0.608240 0.464332 0.000000
0.647486 0.460395 0.000000
0.689143 0.459205 0.000000
0.735927 0.462013 0.000000
0.786679 0.468025 0.000000
0.819028 0.460792 0.000000
0.840513 0.448005 0.000000
0.859190 0.435462 0.000000
0.878935 0.424750 0.000000
0.899962 0.416327 0.000000
0.921660 0.409033 0.000000
0.943816 0.403052 0.000000
0.966094 0.398230 0.000000
0.986999 0.392523 0.000000
1.000000 0.386328 0.000000
1.000000 0.382971 0.000000
1.000000 0.384375 0.083925
1.000000 0.391852 0.167910
1.000000 0.406744 0.232456
1.000000 0.428290 0.290196
0.087404 0.478737 0.066346
0.104280 0.479500 0.064607
0.125399 0.480537 0.060700
0.159426 0.482643 0.049287
0.201633 0.485969 0.021332
0.248692 0.490181 0.000000
0.298314 0.494759 0.000000
0.350317 0.499611 0.000000
0.402533 0.503838 0.000000
0.456367 0.507530 0.000000
0.508263 0.507500 0.000000
0.560388 0.506706 0.000000
0.599298 0.493385 0.000000
0.643885 0.492500 0.000000
0.685634 0.490700 0.000000
0.732113 0.493324 0.000000
0.782895 0.499031 0.000000
0.833310 0.505241 0.000000
0.876616 0.507225 0.000000
0.897185 0.492805 0.000000
0.916045 0.479744 0.000000
0.933715 0.467567 0.000000
0.952087 0.457435 0.000000
0.970611 0.448371 0.000000
0.989319 0.440681 0.000000
1.000000 0.433722 0.000000
1.000000 0.425360 0.000000
1.000000 0.418128 0.000000
1.000000 0.414984 0.000000
1.000000 0.417731 0.134646
1.000000 0.427893 0.211765
1.000000 0.445258 0.275761
0.096101 0.514549 0.073732
0.112520 0.515129 0.070832
0.130892 0.515892 0.067994
0.162722 0.517479 0.060029
0.202914 0.519707 0.035370
0.247410 0.522667 0.000000
0.294835 0.526024 0.000000
0.344457 0.529625 0.000000
0.394995 0.532891 0.000000
0.446052 0.535760 0.000000
0.497810 0.537560 0.000000
0.548302 0.536767 0.000000
0.598627 0.535637 0.000000
0.634607 0.520592 0.000000
0.680995 0.521935 0.000000
0.728237 0.524468 0.000000
0.778775 0.530114 0.000000
0.829191 0.536431 0.000000
0.877195 0.541650 0.000000
0.921721 0.545892 0.000000
0.947204 0.536034 0.000000
0.965332 0.521691 0.000000
0.980316 0.507836 0.000000
0.995483 0.495644 0.000000
1.000000 0.484535 0.000000
1.000000 0.474556 0.000000
1.000000 0.465431 0.000000
1.000000 0.454139 0.000000
1.000000 0.446479 0.000000
1.000000 0.444343 0.074708
1.000000 0.449592 0.182834
1.000000 0.462654 0.255589
0.117708 0.544091 0.096559
0.129000 0.544549 0.095338
0.143923 0.544976 0.092592
0.171817 0.546197 0.086671
0.207736 0.547906 0.077485
0.248569 0.550225 0.060060
0.292210 0.552819 0.009522
0.338933 0.555657 0.000000
0.387549 0.558618 0.000000
0.435950 0.561151 0.000000
0.485847 0.563653 0.000000
0.535698 0.564416 0.000000
0.585138 0.563684 0.000000
0.635035 0.563104 0.000000
0.671229 0.549065 0.000000
0.722744 0.554955 0.000000
0.774380 0.561364 0.000000
0.824887 0.567559 0.000000
0.873106 0.573083 0.000000
0.918059 0.577234 0.000000
0.958007 0.579370 0.000000
0.988800 0.575738 0.000000
1.000000 0.559106 0.000000
1.000000 0.543511 0.000000
1.000000 0.529015 0.000000
1.000000 0.515801 0.000000
1.000000 0.503380 0.000000
1.000000 0.491035 0.000000
1.000000 0.478798 0.000000
1.000000 0.471717 0.000000
1.000000 0.471717 0.136141
1.000000 0.480110 0.227817
0.144625 0.568994 0.130800
0.154696 0.569421 0.128695
0.165225 0.569848 0.126497
0.187716 0.570764 0.122316
0.218326 0.572259 0.115450
0.254276 0.574182 0.104585
0.293400 0.576532 0.089845
0.335882 0.579187 0.064973
0.381262 0.582086 0.000000
0.427680 0.585046 0.000000
0.475227 0.587915 0.000000
0.524956 0.591058 0.000000
0.573663 0.591730 0.000000
0.623041 0.591913 0.000000
0.670954 0.590600 0.000000
0.711940 0.581018 0.000000
0.767819 0.590997 0.000000
0.820249 0.598718 0.000000
0.868803 0.604547 0.000000
0.914153 0.608881 0.000000
0.954406 0.611017 0.000000
0.988891 0.610101 0.000000
1.000000 0.606317 0.000000
1.000000 0.591241 0.000000
1.000000 0.573449 0.000000
1.000000 0.557000 0.000000
1.000000 0.541711 0.000000
1.000000 0.527459 0.000000
1.000000 0.512352 0.000000
1.000000 0.500206 0.000000
1.000000 0.494606 0.000000
1.000000 0.497902 0.186679
0.178042 0.591455 0.165743
0.184543 0.591852 0.164614
0.192813 0.592126 0.163851
0.210544 0.593194 0.159548
0.235080 0.594598 0.154910
0.265232 0.596521 0.146700
0.299535 0.598901 0.135622
0.337804 0.601770 0.120302
0.379431 0.605127 0.097597
0.423743 0.608911 0.061769
0.468330 0.612482 0.000000
0.515740 0.616388 0.000000
0.565179 0.620478 0.000000
0.613916 0.621668 0.000000
0.663569 0.623011 0.000000
0.709895 0.621241 0.000000
0.756374 0.616754 0.000000
0.813169 0.628199 0.000000
0.864134 0.635889 0.000000
0.909880 0.640650 0.000000
0.950591 0.642725 0.000000
0.985443 0.641810 0.000000
1.000000 0.637415 0.000000
1.000000 0.629999 0.000000
1.000000 0.617792 0.000000
1.000000 0.597986 0.000000
1.000000 0.579706 0.000000
1.000000 0.562951 0.000000
1.000000 0.546715 0.000000
1.000000 0.530266 0.000000
1.000000 0.519127 0.000000
1.000000 0.516411 0.117067
0.212192 0.613306 0.200748
0.217227 0.613703 0.199832
0.223758 0.614160 0.198642
0.237156 0.615137 0.196292
0.257359 0.616754 0.191653
0.282292 0.618830 0.185275
0.311955 0.621546 0.176822
0.345525 0.624842 0.164279
0.382788 0.628687 0.149752
0.423651 0.633204 0.128786
0.466835 0.638178 0.095735
0.511437 0.643153 0.000000
0.559167 0.648768 0.000000
0.609339 0.653742 0.000000
0.658564 0.656306 0.000000
0.708980 0.659205 0.000000
0.753902 0.656641 0.000000
0.803311 0.655299 0.000000
0.857603 0.665858 0.000000
0.905303 0.672114 0.000000
0.946502 0.674464 0.000000
0.981720 0.673518 0.000000
1.000000 0.668971 0.000000
1.000000 0.661006 0.000000
1.000000 0.650111 0.000000
1.000000 0.637415 0.000000
1.000000 0.618372 0.000000
1.000000 0.598657 0.000000
1.000000 0.580774 0.000000
1.000000 0.562127 0.000000
1.000000 0.545708 0.000000
1.000000 0.536492 0.000000
0.247501 0.636774 0.234318
0.250950 0.637171 0.233310
0.256168 0.637720 0.232120
0.266850 0.638880 0.229618
0.282963 0.640711 0.226139
0.304173 0.643153 0.221042
0.329473 0.646357 0.213077
0.359197 0.650141 0.204532
0.392645 0.654932 0.192233
0.429786 0.660334 0.176577
0.471046 0.666773 0.154391
0.513451 0.673121 0.121950
0.558862 0.679835 0.066468
0.607630 0.686976 0.000000
0.657435 0.692164 0.000000
0.707301 0.695674 0.000000
0.757931 0.699458 0.000000
0.800504 0.695308 0.000000
0.850034 0.694911 0.000000
0.899596 0.702815 0.000000
0.942046 0.706111 0.000000
0.977691 0.705318 0.000000
1.000000 0.700618 0.000000
1.000000 0.692256 0.000000
1.000000 0.680720 0.000000
1.000000 0.667140 0.000000
1.000000 0.652277 0.000000
1.000000 0.635370 0.000000
1.000000 0.614862 0.000000
1.000000 0.595148 0.000000
1.000000 0.575280 0.000000
1.000000 0.559625 0.000000
0.281559 0.663783 0.263767
0.284611 0.664271 0.263096
0.288640 0.664851 0.262211
0.297337 0.666255 0.259983
0.311101 0.668330 0.256931
0.329351 0.671321 0.252750
0.351446 0.675013 0.246525
0.377752 0.679530 0.238926
0.407874 0.685023 0.228550
0.442176 0.691188 0.216159
0.480232 0.698360 0.199130
0.521477 0.705928 0.176883
0.563867 0.713130 0.144228
0.609735 0.720851 0.094362
0.658930 0.728756 0.000000
0.707942 0.733333 0.000000
0.757412 0.737453 0.000000
0.807553 0.741512 0.000000
0.847166 0.735286 0.000000
0.894285 0.733761 0.000000
0.937285 0.737514 0.000000
0.973327 0.736873 0.000000
1.000000 0.732174 0.000000
1.000000 0.723568 0.000000
1.000000 0.711604 0.000000
1.000000 0.697261 0.000000
1.000000 0.681514 0.000000
1.000000 0.665003 0.000000
1.000000 0.648371 0.000000
1.000000 0.628656 0.000000
1.000000 0.607019 0.000000
1.000000 0.586633 0.000000
0.313787 0.695613 0.289921
0.316411 0.696132 0.289250
0.319921 0.696834 0.288426
0.327581 0.698390 0.286656
0.339727 0.700710 0.284062
0.355535 0.703914 0.279942
0.375280 0.707942 0.274937
0.399176 0.712764 0.268681
0.426886 0.718532 0.260044
0.458289 0.725032 0.249729
0.493507 0.732357 0.235935
0.532494 0.740322 0.219608
0.573053 0.748104 0.196048
0.615717 0.755764 0.164279
0.661585 0.763699 0.116396
0.710201 0.771359 0.000000
0.758022 0.775265 0.000000
0.806546 0.779171 0.000000
0.855192 0.783108 0.000000
0.891081 0.774258 0.000000
0.933684 0.769894 0.000000
0.969665 0.768826 0.000000
0.998779 0.763424 0.000000
1.000000 0.754665 0.000000
1.000000 0.742306 0.000000
1.000000 0.727565 0.000000
1.000000 0.711116 0.000000
1.000000 0.693568 0.000000
1.000000 0.675685 0.000000
1.000000 0.658289 0.000000
1.000000 0.639857 0.000000
1.000000 0.617639 0.000000
0.344518 0.731350 0.312688
0.346868 0.731899 0.312230
0.349950 0.732509 0.311498
0.356817 0.734157 0.309941
0.367742 0.736507 0.307958
0.382116 0.739712 0.304326
0.400244 0.743832 0.299840
0.422065 0.748684 0.294591
0.447639 0.754299 0.287663
0.476631 0.760800 0.278660
0.509300 0.767941 0.267552
0.545586 0.775631 0.254002
0.585016 0.783841 0.236484
0.624537 0.791135 0.213504
0.667018 0.798581 0.181491
0.712306 0.806088 0.135653
0.759060 0.812222 0.067201
0.805539 0.815640 0.000000
0.852171 0.819089 0.000000
0.898924 0.822263 0.000000
0.931273 0.810971 0.000000
0.967285 0.802060 0.000000
0.995911 0.795621 0.000000
1.000000 0.785397 0.000000
1.000000 0.772793 0.000000
1.000000 0.757626 0.000000
1.000000 0.740719 0.000000
1.000000 0.722591 0.000000
1.000000 0.703731 0.000000
1.000000 0.684779 0.000000
1.000000 0.666896 0.000000
1.000000 0.649592 0.000000
0.373632 0.769528 0.333013
0.375891 0.770016 0.332647
0.378820 0.770718 0.332067
0.385138 0.772183 0.330724
0.394995 0.774411 0.329046
0.408453 0.777523 0.326116
0.425208 0.781399 0.322362
0.445197 0.786038 0.317296
0.468971 0.791470 0.311345
0.496040 0.797543 0.303655
0.526421 0.804105 0.294896
0.559991 0.811246 0.283482
0.596674 0.818784 0.269505
0.634943 0.825986 0.251865
0.674159 0.832700 0.228153
0.715846 0.839414 0.196872
0.759548 0.845975 0.152712
0.804135 0.850187 0.110414
0.848539 0.852781 0.066316
0.892851 0.855222 0.000000
0.936889 0.857359 0.000000
0.965576 0.843503 0.000000
0.994324 0.829007 0.000000
1.000000 0.817319 0.000000
1.000000 0.802884 0.000000
1.000000 0.787411 0.000000
1.000000 0.770108 0.000000
1.000000 0.751522 0.000000
1.000000 0.731960 0.000000
1.000000 0.711910 0.000000
1.000000 0.692409 0.000000
1.000000 0.674464 0.000000
0.401617 0.808682 0.351751
0.403632 0.809140 0.351415
0.406195 0.809751 0.350927
0.412146 0.811093 0.349859
0.421332 0.813260 0.347753
0.433753 0.816068 0.345434
0.449378 0.819547 0.342107
0.468269 0.823758 0.337987
0.490303 0.828550 0.332860
0.515465 0.834043 0.326116
0.543786 0.839902 0.318486
0.575036 0.846189 0.309117
0.608972 0.852720 0.297642
0.645563 0.859495 0.283421
0.681788 0.865263 0.265324
0.719997 0.870878 0.242344
0.760067 0.876310 0.211887
0.801877 0.881407 0.169772
0.843931 0.883574 0.142794
0.885771 0.885008 0.114290
0.927245 0.886198 0.070527
0.968322 0.886961 0.000000
0.992828 0.870146 0.000000
1.000000 0.850065 0.000000
1.000000 0.834104 0.000000
1.000000 0.816648 0.000000
1.000000 0.799039 0.000000
1.000000 0.780117 0.000000
1.000000 0.760250 0.000000
1.000000 0.739528 0.000000
1.000000 0.718654 0.000000
1.000000 0.699367 0.000000
0.427649 0.847471 0.368841
0.429511 0.847837 0.368505
0.432136 0.848417 0.367834
0.437568 0.849546 0.367041
0.446357 0.851438 0.365362
0.458015 0.853849 0.363287
0.472724 0.856931 0.360357
0.490394 0.860502 0.356573
0.510948 0.864591 0.352300
0.534417 0.869200 0.346777
0.560723 0.874144 0.340246
0.589654 0.879393 0.332280
0.621088 0.884794 0.323003
0.654749 0.890227 0.311284
0.689509 0.895354 0.296910
0.724361 0.899779 0.278782
0.760922 0.903929 0.255650
0.798856 0.907713 0.226383
0.837980 0.910704 0.188846
0.877317 0.911162 0.171359
0.916258 0.911223 0.149783
0.954833 0.910918 0.120241
0.992920 0.910216 0.070985
1.000000 0.890074 0.017609
1.000000 0.865843 0.000000
1.000000 0.846860 0.041535
1.000000 0.827359 0.059510
1.000000 0.808255 0.000000
1.000000 0.788174 0.000000
1.000000 0.767117 0.000000
1.000000 0.745357 0.000000
1.000000 0.724178 0.000000
0.452277 0.884428 0.384619
0.453956 0.884764 0.384192
0.456397 0.885222 0.384009
0.461616 0.886168 0.383093
0.469795 0.887663 0.381567
0.480812 0.889647 0.379828
0.494453 0.892088 0.377356
0.511101 0.894987 0.374273
0.530449 0.898283 0.370275
0.552270 0.901915 0.365698
0.576684 0.905791 0.360021
0.603510 0.909819 0.353735
0.632349 0.914000 0.345464
0.663325 0.918059 0.336187
0.695979 0.922026 0.324895
0.728237 0.925261 0.310521
0.761379 0.928038 0.292607
0.795712 0.930449 0.269932
0.831144 0.932372 0.240726
0.867491 0.933043 0.212467
0.903929 0.932128 0.196780
0.940154 0.930877 0.177554
0.975799 0.929259 0.155276
1.000000 0.927337 0.123995
1.000000 0.904173 0.106722
1.000000 0.877348 0.091615
1.000000 0.856474 0.104067
1.000000 0.835813 0.103395
1.000000 0.815518 0.029938
1.000000 0.794339 0.000000
1.000000 0.772183 0.000000
1.000000 0.749752 0.000000
0.475074 0.918242 0.399298
0.476661 0.918456 0.399115
0.478981 0.918791 0.398779
0.483894 0.919524 0.397955
0.491554 0.920653 0.396887
0.501884 0.922148 0.395117
0.514824 0.923949 0.392920
0.530266 0.926116 0.390356
0.548302 0.928466 0.387396
0.568627 0.931060 0.383398
0.591150 0.933806 0.378790
0.615839 0.936645 0.373175
0.642390 0.939422 0.366796
0.670771 0.942107 0.358862
0.700526 0.944579 0.349920
0.731136 0.946685 0.338415
0.761135 0.948119 0.324010
0.792111 0.949248 0.306432
0.824063 0.949950 0.284276
0.856870 0.950225 0.254582
0.890684 0.949126 0.234073
0.924681 0.947143 0.219821
0.958312 0.944915 0.202426
0.991485 0.942351 0.181857
1.000000 0.939513 0.154147
1.000000 0.914000 0.141482
1.000000 0.885649 0.125795
1.000000 0.863615 0.128054
1.000000 0.842252 0.119051
1.000000 0.821012 0.018769
1.000000 0.798886 0.000000
1.000000 0.775814 0.000000
0.496773 0.947387 0.414008
0.498329 0.947570 0.413764
0.500389 0.947784 0.413519
0.504967 0.948302 0.412787
0.512200 0.949004 0.411902
0.521660 0.949981 0.410529
0.533745 0.951141 0.408728
0.547997 0.952544 0.406256
0.564569 0.954009 0.403723
0.583368 0.955596 0.400305
0.604120 0.957214 0.396490
0.626764 0.958801 0.391760
0.651026 0.960296 0.386297
0.676905 0.961639 0.380011
0.704005 0.962799 0.372320
