其他预设/【233】日式怀旧街道调色预设208款/1.3D LUT预设（视频调色-PR-AE-PS-FCPX-达芬奇用）/3.日式城市街拍预设 (自动曝光预设)/JA – Static Pop 1 (Auto-Exposure).cube
# Created by Adobe Lightroom plugin Export LUT (1.17.0)
# www.johnrellis.com/lightroom/exportlut.htm
# Preset: JA – Static Pop 1 (Auto-Exposure)
# Color profile: /Library/Application Support/Adobe/Color/Profiles/Recommended/AdobeRGB1998.icc
LUT_3D_SIZE 8
DOMAIN_MIN 0.000000 0.000000 0.000000
DOMAIN_MAX 0.903226 0.903226 0.903226
0.082673 0.085573 0.088777
0.157076 0.087495 0.085756
0.342412 0.100282 0.067292
0.580224 0.124147 0.000000
0.798611 0.147524 0.000000
0.939696 0.165896 0.000000
1.000000 0.181155 0.000000
1.000000 0.191226 0.000000
0.080934 0.148806 0.087160
0.153140 0.148379 0.085969
0.344121 0.179355 0.058595
0.581079 0.208133 0.000000
0.798703 0.225040 0.000000
0.939452 0.228794 0.000000
1.000000 0.230533 0.000000
1.000000 0.230167 0.000000
0.064454 0.309514 0.070527
0.174228 0.312535 0.064424
0.319829 0.301610 0.059052
0.579828 0.365423 0.000000
0.799527 0.380774 0.000000
0.938689 0.366949 0.000000
1.000000 0.348486 0.000000
1.000000 0.329534 0.000000
0.000000 0.528862 0.000000
0.180606 0.530602 0.000000
0.379095 0.530327 0.000000
0.536919 0.498573 0.000000
0.781552 0.541222 0.000000
0.937255 0.524254 0.000000
1.000000 0.487892 0.000000
1.000000 0.451850 0.000000
0.000000 0.739162 0.000000
0.168734 0.739132 0.000000
0.392035 0.738796 0.000000
0.585290 0.719448 0.000000
0.739467 0.678584 0.000000
0.911528 0.669581 0.000000
1.000000 0.631556 0.000000
1.000000 0.582116 0.000000
0.000000 0.882261 0.000000
0.174350 0.881498 0.000000
0.378058 0.878691 0.000000
0.571466 0.873350 0.000000
0.740261 0.845396 0.000000
0.886320 0.810483 0.000000
0.997223 0.764675 0.000000
1.000000 0.710567 0.000000
0.152712 0.975158 0.144076
0.226444 0.974212 0.142611
0.376867 0.970794 0.138033
0.541253 0.964508 0.128206
0.702419 0.951690 0.101534
0.850095 0.928801 0.000000
0.984375 0.902831 0.000000
1.000000 0.834348 0.000000
0.270512 1.000000 0.270756
0.305241 1.000000 0.269993
0.401648 1.000000 0.267124
0.527428 1.000000 0.261173
0.663142 1.000000 0.251408
0.796323 0.999634 0.224491
0.924743 0.982696 0.183291
1.000000 0.964782 0.122774
0.081147 0.096376 0.140810
0.135042 0.083162 0.144839
0.320867 0.000000 0.141573
0.560021 0.000000 0.118959
0.787686 0.023011 0.068177
0.935180 0.111666 0.000000
1.000000 0.151675 0.000000
1.000000 0.174594 0.000000
0.066438 0.139559 0.146853
0.138003 0.142947 0.148257
0.320348 0.148653 0.139406
0.561791 0.164340 0.115114
0.788205 0.182193 0.057679
0.935027 0.197391 0.000000
1.000000 0.210727 0.000000
1.000000 0.218021 0.000000
0.000000 0.301823 0.165347
0.137240 0.301335 0.147189
0.309239 0.295476 0.139528
0.567834 0.348516 0.101747
0.790158 0.362158 0.000000
0.934539 0.352575 0.000000
1.000000 0.339086 0.000000
1.000000 0.323674 0.000000
0.000000 0.522148 0.148836
0.119234 0.521996 0.126223
0.361456 0.526177 0.111727
0.530266 0.494514 0.093568
0.776730 0.534203 0.000000
0.933318 0.517693 0.000000
1.000000 0.483986 0.000000
1.000000 0.450141 0.000000
0.000000 0.734585 0.101350
0.099062 0.734585 0.096651
0.372595 0.734279 0.077943
0.576928 0.717800 0.002533
0.735531 0.676570 0.000000
0.909209 0.667384 0.000000
1.000000 0.630976 0.000000
1.000000 0.582666 0.000000
0.000000 0.880156 0.144594
0.146212 0.879393 0.142824
0.367742 0.876677 0.135134
0.565270 0.871458 0.121157
0.736629 0.844877 0.073274
0.883848 0.809689 0.000000
0.995727 0.764584 0.000000
1.000000 0.711849 0.000000
0.164523 0.973816 0.234653
0.233585 0.972900 0.234104
0.379919 0.969543 0.231083
0.542168 0.963409 0.225681
0.702266 0.951324 0.211368
0.848539 0.928588 0.172000
0.982513 0.902556 0.106447
1.000000 0.835080 0.112703
0.295415 1.000000 0.329808
0.326390 1.000000 0.329076
0.415930 1.000000 0.326543
0.536095 1.000000 0.321691
0.667781 1.000000 0.313695
0.797665 0.999145 0.289403
0.923949 0.982483 0.251804
1.000000 0.964721 0.204654
0.000000 0.118990 0.284947
0.104768 0.096468 0.287388
0.262882 0.061128 0.280247
0.499245 0.000000 0.311437
0.761074 0.000000 0.277775
0.920958 0.000000 0.263554
1.000000 0.087251 0.259281
1.000000 0.176516 0.247623
0.064363 0.175723 0.283238
0.120363 0.165469 0.289097
0.266453 0.134432 0.283787
0.512779 0.049012 0.305730
0.762844 0.000000 0.265324
0.920653 0.063661 0.265476
1.000000 0.178134 0.260838
1.000000 0.221775 0.249607
0.000000 0.288914 0.304631
0.092531 0.287694 0.302373
0.274723 0.282597 0.292027
0.526726 0.289647 0.283665
0.763058 0.303563 0.275456
0.919982 0.317205 0.270726
1.000000 0.328435 0.267552
1.000000 0.331243 0.257206
0.000000 0.510124 0.349310
0.000000 0.508965 0.338140
0.289189 0.503014 0.305028
0.507378 0.483833 0.286625
0.762234 0.517052 0.284855
0.918425 0.503593 0.283543
1.000000 0.483345 0.282139
1.000000 0.460426 0.272648
0.000000 0.728023 0.355077
0.000000 0.725826 0.343633
0.307225 0.718776 0.320012
0.549706 0.712947 0.310887
0.720272 0.670161 0.278965
0.900267 0.663844 0.283299
1.000000 0.636591 0.308293
1.000000 0.594202 0.298680
0.000000 0.876555 0.349462
0.000000 0.874327 0.349493
0.346258 0.868528 0.355383
0.549920 0.864012 0.351720
0.725948 0.842893 0.329656
0.873960 0.807004 0.288823
0.989380 0.766812 0.296880
1.000000 0.721553 0.319005
0.156130 0.971099 0.384009
0.255802 0.968750 0.398169
0.406134 0.964111 0.412360
0.554437 0.958556 0.409827
0.706813 0.949523 0.403479
0.844388 0.927611 0.367407
0.975158 0.901762 0.321080
1.000000 0.839170 0.323339
0.355200 1.000000 0.459998
0.404608 1.000000 0.478279
0.472938 1.000000 0.476448
0.572900 1.000000 0.473060
0.688502 1.000000 0.467292
0.805447 0.996948 0.446571
0.921874 0.981506 0.408270
1.000000 0.964538 0.363500
0.000000 0.158053 0.503807
0.000000 0.138369 0.502129
0.258854 0.002106 0.489967
0.440711 0.000000 0.461219
0.653895 0.038849 0.478248
0.888029 0.000000 0.469368
1.000000 0.119966 0.455787
1.000000 0.296666 0.467720
0.000000 0.224643 0.505028
0.000000 0.204074 0.504295
0.255711 0.146487 0.492592
0.443397 0.076143 0.463752
0.662959 0.142672 0.481147
0.888518 0.000000 0.469032
1.000000 0.209415 0.461372
1.000000 0.320134 0.467353
0.000000 0.354986 0.514427
0.117678 0.356847 0.512322
0.291630 0.340185 0.500420
0.450752 0.274784 0.470283
0.694026 0.287022 0.485847
0.890623 0.286107 0.468788
1.000000 0.358679 0.474281
1.000000 0.398474 0.471717
0.000000 0.506249 0.527794
0.000000 0.503716 0.524468
0.261295 0.493324 0.510887
0.460975 0.467353 0.478676
0.715694 0.479683 0.479683
0.889097 0.495003 0.484779
0.996826 0.507958 0.489845
1.000000 0.510704 0.486000
0.000000 0.716793 0.548272
0.000000 0.715023 0.542809
0.206485 0.706752 0.526421
0.495003 0.688533 0.508080
0.690181 0.659449 0.479957
0.882567 0.669581 0.503227
0.990784 0.655726 0.514061
1.000000 0.632410 0.508141
0.000000 0.872343 0.530999
0.000000 0.870359 0.529168
0.288487 0.862089 0.530419
0.537926 0.848112 0.545281
0.714412 0.838865 0.536065
0.854612 0.802487 0.488685
0.975616 0.777951 0.508598
1.000000 0.751400 0.533715
0.000000 0.970550 0.517632
0.133516 0.968353 0.524071
0.398230 0.959930 0.553063
0.590234 0.948363 0.592157
0.721675 0.942260 0.590082
0.841733 0.925444 0.559503
0.961120 0.900389 0.507897
1.000000 0.850401 0.514916
0.272343 1.000000 0.532097
0.340612 1.000000 0.546197
0.505211 1.000000 0.596765
0.639185 1.000000 0.636713
0.729244 1.000000 0.632898
0.825437 0.992554 0.621210
0.920806 0.979553 0.580652
1.000000 0.964202 0.531548
0.000000 0.224796 0.714290
0.000000 0.214481 0.713039
0.209354 0.122103 0.700801
0.433417 0.000000 0.671626
0.624323 0.000000 0.637964
0.796994 0.177890 0.626337
0.964691 0.224857 0.622400
1.000000 0.338384 0.609064
0.000000 0.274510 0.715694
0.000000 0.259068 0.713710
0.218082 0.211856 0.702846
0.431891 0.000000 0.674067
0.625696 0.000000 0.639185
0.797055 0.239353 0.627893
0.965789 0.269688 0.624445
1.000000 0.377325 0.616236
0.080903 0.440223 0.720729
0.182742 0.438575 0.719051
0.306767 0.408209 0.708736
0.441810 0.312352 0.681361
0.630213 0.261845 0.642573
0.801144 0.373907 0.636042
0.969421 0.385809 0.632502
1.000000 0.485145 0.641321
0.000000 0.556390 0.725978
0.092927 0.558953 0.724483
0.380529 0.570794 0.717464
0.522576 0.554162 0.691951
0.636835 0.464942 0.646845
0.827878 0.508934 0.652522
0.968383 0.542535 0.654414
1.000000 0.593927 0.665644
0.000000 0.707332 0.726497
0.000000 0.705928 0.724422
0.258488 0.699702 0.715694
0.499153 0.683253 0.695369
0.645533 0.644129 0.652125
0.846921 0.662135 0.662287
0.965942 0.678370 0.672267
1.000000 0.684230 0.673640
0.000000 0.866148 0.706661
0.000000 0.864439 0.704128
0.102937 0.857053 0.696071
0.485451 0.841489 0.691585
0.689906 0.822049 0.689662
0.827543 0.795926 0.656641
0.957977 0.800015 0.687648
1.000000 0.787716 0.695552
0.000000 0.969757 0.662959
0.000000 0.967803 0.664515
0.300328 0.960052 0.674281
0.561547 0.945586 0.700404
0.733303 0.931456 0.727657
0.843046 0.923369 0.717678
0.942443 0.898466 0.667109
1.000000 0.869413 0.683162
0.000000 1.000000 0.628473
0.171969 1.000000 0.635767
0.420539 1.000000 0.665126
0.629419 1.000000 0.717586
0.767941 0.991943 0.758999
0.847044 0.987152 0.755703
0.921965 0.977356 0.726192
1.000000 0.963836 0.680171
0.000000 0.321813 0.854398
0.000000 0.321721 0.854368
0.120882 0.228977 0.848386
0.392096 0.110445 0.834836
0.582361 0.000000 0.805234
0.779812 0.000000 0.782498
0.914824 0.286778 0.751583
1.000000 0.447547 0.747433
0.000000 0.323583 0.854856
0.000000 0.327672 0.854276
0.182803 0.294377 0.848966
0.399481 0.209964 0.835843
0.582269 0.000000 0.806546
0.780331 0.000000 0.782803
0.914061 0.328588 0.752987
1.000000 0.467933 0.749844
0.177859 0.488045 0.856321
0.237888 0.488655 0.855406
0.359930 0.482490 0.850248
0.452003 0.411017 0.838254
0.589532 0.266819 0.810483
0.781918 0.266270 0.783474
0.911131 0.443183 0.758511
1.000000 0.531487 0.758175
0.283299 0.609400 0.858518
0.358221 0.620447 0.857664
0.529259 0.658534 0.854215
0.594018 0.637964 0.841184
0.630152 0.521996 0.815885
0.784024 0.470130 0.783780
0.905943 0.582940 0.770260
1.000000 0.618006 0.770596
0.141726 0.709590 0.859464
0.260105 0.713771 0.858671
0.465034 0.729030 0.855253
0.648280 0.752865 0.848234
0.728054 0.738277 0.826780
0.787106 0.643488 0.784329
0.922210 0.691310 0.787106
1.000000 0.724849 0.792569
0.000000 0.840146 0.856229
0.000000 0.839963 0.855344
0.342077 0.838804 0.851743
0.562921 0.834714 0.843992
0.707546 0.823056 0.828672
0.792905 0.784482 0.787350
0.934813 0.804868 0.801816
1.000000 0.815213 0.808255
0.000000 0.966949 0.822599
0.000000 0.965240 0.821714
0.170260 0.958495 0.819303
0.484352 0.946197 0.816373
0.695857 0.929656 0.819791
0.834195 0.914672 0.824491
0.921416 0.895171 0.792996
0.999756 0.893767 0.818112
0.000000 1.000000 0.747921
0.000000 1.000000 0.749874
0.224002 1.000000 0.760098
0.542351 1.000000 0.785763
0.741848 0.992248 0.821530
0.862425 0.980743 0.851194
0.926421 0.975860 0.841520
0.994446 0.963287 0.800839
0.225956 0.454749 0.939239
0.225956 0.454749 0.939239
0.244785 0.411810 0.938750
0.350866 0.262669 0.935485
0.526543 0.087312 0.926024
0.700099 0.000000 0.905516
0.895659 0.000000 0.892241
0.991699 0.419287 0.848478
0.227207 0.455299 0.939452
0.227176 0.455299 0.939452
0.250431 0.404395 0.938872
0.377447 0.326299 0.935180
0.533440 0.202701 0.926085
0.699916 0.000000 0.905913
0.895598 0.000000 0.892027
0.990539 0.447364 0.849607
0.307469 0.528466 0.938933
0.319921 0.534386 0.938720
0.440192 0.555688 0.936126
0.487526 0.504723 0.933074
0.572564 0.406531 0.925444
0.704341 0.182498 0.906950
0.895232 0.300816 0.891081
0.986419 0.531487 0.853910
0.466011 0.667048 0.936370
0.496681 0.674128 0.935912
0.578729 0.693751 0.934020
0.662135 0.706813 0.929290
0.670619 0.630304 0.923095
0.727932 0.472663 0.907317
0.894377 0.487587 0.889097
0.980255 0.638666 0.861326
0.417853 0.727260 0.937560
0.472267 0.737453 0.936797
0.611200 0.770382 0.934264
0.748531 0.813107 0.931212
0.789822 0.804623 0.924132
0.783902 0.701961 0.908446
0.893462 0.650843 0.886717
0.973327 0.745052 0.872251
0.309361 0.808316 0.937621
0.378119 0.812741 0.937011
0.542046 0.828305 0.934997
0.699428 0.849973 0.932158
0.817319 0.871855 0.929229
0.866026 0.866148 0.917662
0.893797 0.785275 0.885466
0.978912 0.826810 0.886046
0.000000 0.918517 0.934691
0.141604 0.918822 0.934295
0.412696 0.919707 0.932799
0.612970 0.920714 0.930236
0.758083 0.920775 0.926513
0.851957 0.916442 0.918791
0.896666 0.887358 0.887083
0.985229 0.904265 0.900053
0.000000 1.000000 0.898192
0.000000 1.000000 0.897612
0.000000 1.000000 0.896300
0.465339 1.000000 0.896483
0.682673 0.995361 0.899199
0.835386 0.981109 0.907561
0.925353 0.972717 0.915984
0.979126 0.962158 0.891814
0.504509 0.613703 0.984802
0.504570 0.613764 0.984833
0.504997 0.614038 0.984894
0.477028 0.524010 0.987732
0.496010 0.348486 0.990295
0.619684 0.000000 0.988434
0.791135 0.000000 0.980835
0.972381 0.105135 0.969970
0.505333 0.614252 0.984924
0.505394 0.614313 0.984955
0.505913 0.614649 0.984985
0.477546 0.523156 0.987884
0.496681 0.348302 0.990448
0.624781 0.127901 0.987976
0.790768 0.000000 0.980682
0.972045 0.193973 0.969512
0.508507 0.616388 0.985351
0.508568 0.616419 0.985351
0.507805 0.614374 0.985504
0.521050 0.567620 0.986603
0.569390 0.500053 0.986877
0.652277 0.366613 0.985626
0.790799 0.000000 0.979736
0.970703 0.351293 0.967803
0.572808 0.685328 0.982757
0.575006 0.687770 0.982635
0.583032 0.696132 0.982238
0.698817 0.744503 0.978882
0.701808 0.694881 0.979736
0.722011 0.594812 0.980011
0.797482 0.367803 0.977203
0.968353 0.513176 0.964752
0.671412 0.788205 0.977691
0.671717 0.788235 0.977691
0.673579 0.788266 0.977722
0.732265 0.805142 0.977050
0.819638 0.837827 0.974578
0.812406 0.778134 0.974121
0.832822 0.635889 0.971740
0.965332 0.665217 0.960815
0.578119 0.811215 0.980743
0.578302 0.811246 0.980774
0.579858 0.811276 0.980835
0.733455 0.851438 0.977234
0.851621 0.892668 0.974395
0.895262 0.900542 0.973053
0.886564 0.828702 0.967712
0.962707 0.791958 0.957336
0.386358 0.862760 0.983062
0.385840 0.862943 0.983093
0.455512 0.868650 0.982361
0.665553 0.891905 0.979095
0.813993 0.916930 0.976349
0.905180 0.938354 0.975494
0.943236 0.942596 0.972961
0.961639 0.888365 0.955718
0.000000 0.961608 0.982483
0.000000 0.962402 0.982483
0.104097 0.963775 0.981415
0.536034 0.965789 0.979095
0.745113 0.968292 0.976806
0.866758 0.971008 0.975494
0.933837 0.972656 0.974243
0.962951 0.957733 0.956939
