其他预设/【233】日式怀旧街道调色预设208款/1.3D LUT预设（视频调色-PR-AE-PS-FCPX-达芬奇用）/3.日式城市街拍预设 (自动曝光预设)/JA – Night Pop 4 (Auto-Exposure).cube
# Created by Adobe Lightroom plugin Export LUT (1.17.0)
# www.johnrellis.com/lightroom/exportlut.htm
# Preset: JA – Night Pop 4 (Auto-Exposure)
# Color profile: /Library/Application Support/Adobe/Color/Profiles/Recommended/AdobeRGB1998.icc
LUT_3D_SIZE 5
DOMAIN_MIN 0.000000 0.000000 0.000000
DOMAIN_MAX 0.903226 0.903226 0.903226
0.064302 0.069642 0.075319
0.377661 0.077699 0.010132
0.671962 0.112612 0.000000
0.901640 0.126101 0.000000
1.000000 0.123629 0.000000
0.000000 0.286534 0.079530
0.291600 0.272892 0.058473
0.652064 0.302190 0.000000
0.898405 0.277653 0.000000
1.000000 0.247959 0.000000
0.000000 0.572045 0.110964
0.241917 0.576074 0.000000
0.559991 0.514672 0.166262
0.846738 0.551019 0.304173
1.000000 0.483864 0.130037
0.000000 0.788052 0.165133
0.110689 0.789242 0.182193
0.558190 0.792966 0.162661
0.775418 0.707271 0.350439
0.986786 0.720119 0.444678
0.000000 0.970825 0.174807
0.000000 0.964324 0.315831
0.491676 0.960113 0.306493
0.779232 0.938811 0.299351
0.971435 0.883360 0.473671
0.000000 0.071839 0.308629
0.291966 0.000000 0.317632
0.638941 0.000000 0.239963
0.884642 0.114199 0.239811
1.000000 0.097871 0.147219
0.000000 0.283848 0.314488
0.261631 0.280217 0.300328
0.624659 0.289097 0.286900
0.880186 0.292332 0.265599
1.000000 0.251987 0.171969
0.000000 0.562676 0.329351
0.216342 0.559960 0.326390
0.542535 0.518975 0.365789
0.837247 0.564202 0.417029
1.000000 0.512291 0.339605
0.000000 0.781674 0.329900
0.153719 0.779019 0.367041
0.559655 0.788602 0.382177
0.768002 0.709560 0.433448
0.983032 0.728267 0.502525
0.000000 0.970184 0.294316
0.000000 0.964691 0.366461
0.500145 0.957000 0.419989
0.777523 0.939452 0.405829
0.967926 0.884825 0.515312
0.000000 0.074617 0.581415
0.000000 0.000000 0.584527
0.564508 0.000000 0.582788
0.845090 0.239506 0.555535
1.000000 0.333501 0.529564
0.000000 0.294469 0.571496
0.000000 0.284001 0.572717
0.548852 0.300420 0.574395
0.836545 0.344030 0.555230
1.000000 0.378607 0.525444
0.000000 0.533959 0.575952
0.000000 0.533013 0.571130
0.509819 0.527489 0.552239
0.821012 0.542046 0.556329
1.000000 0.535821 0.539940
0.000000 0.762539 0.560967
0.000000 0.761715 0.562860
0.492378 0.760891 0.570703
0.751278 0.715328 0.573419
0.973449 0.755337 0.644465
0.000000 0.965393 0.529198
0.000000 0.965881 0.513603
0.442969 0.953063 0.571832
0.767575 0.941924 0.596674
0.956512 0.889708 0.628626
0.000000 0.085237 0.778958
0.000000 0.079622 0.779141
0.385046 0.000000 0.780148
0.792996 0.202792 0.780209
0.994507 0.361517 0.734371
0.000000 0.279454 0.772244
0.000000 0.274449 0.773617
0.411994 0.297917 0.776120
0.786435 0.333410 0.776822
0.991882 0.422034 0.735927
0.000000 0.505272 0.769406
0.000000 0.511711 0.767208
0.447669 0.541711 0.761685
0.767971 0.521843 0.766812
0.983734 0.573388 0.741268
0.000000 0.737728 0.773037
0.000000 0.737697 0.771450
0.372595 0.738125 0.763058
0.721859 0.724422 0.738796
0.972229 0.749020 0.754208
0.000000 0.955138 0.749233
0.000000 0.958038 0.743862
0.000000 0.952331 0.734188
0.730098 0.933898 0.766812
0.938384 0.897917 0.768978
0.000000 0.133211 0.941894
0.000000 0.133211 0.941863
0.000000 0.000000 0.945220
0.625696 0.000000 0.940093
0.968719 0.277653 0.932525
0.000000 0.139406 0.942596
0.000000 0.177737 0.941924
0.000000 0.209934 0.942901
0.635981 0.281010 0.937987
0.966400 0.354070 0.931792
0.000000 0.430823 0.936126
0.000000 0.429358 0.936278
0.247532 0.511345 0.933654
0.639124 0.503593 0.934478
0.957977 0.536736 0.929076
0.000000 0.650568 0.933715
0.000000 0.651270 0.933806
0.000000 0.663294 0.932311
0.673915 0.735225 0.924407
0.942138 0.747250 0.923766
0.000000 0.882658 0.930785
0.000000 0.886229 0.930694
0.000000 0.899809 0.930175
0.533379 0.908049 0.923339
0.914244 0.907012 0.908080
