其他预设/【233】日式怀旧街道调色预设208款/1.3D LUT预设（视频调色-PR-AE-PS-FCPX-达芬奇用）/3.日式城市街拍预设 (自动曝光预设)/JA – Neon 2 (Auto-Exposure).cube
# Created by Adobe Lightroom plugin Export LUT (1.17.0)
# www.johnrellis.com/lightroom/exportlut.htm
# Preset: JA – Neon 2 (Auto-Exposure)
# Color profile: /Library/Application Support/Adobe/Color/Profiles/Recommended/AdobeRGB1998.icc
LUT_3D_SIZE 32
0.118349 0.118349 0.118349
0.121004 0.118105 0.118288
0.124971 0.118074 0.118196
0.133089 0.118105 0.117952
0.144991 0.117678 0.117586
0.160281 0.117494 0.117067
0.180179 0.116945 0.116304
0.205295 0.116640 0.115114
0.235935 0.116152 0.113405
0.271824 0.115846 0.110903
0.313176 0.115328 0.107424
0.359075 0.115236 0.102602
0.409430 0.115755 0.095857
0.463600 0.116732 0.086488
0.520806 0.118868 0.072908
0.579400 0.120974 0.047333
0.635676 0.123445 0.000000
0.687587 0.126528 0.000000
0.734524 0.129763 0.000000
0.777890 0.132326 0.000000
0.817777 0.134005 0.000000
0.854307 0.134463 0.000000
0.887358 0.133730 0.000000
0.916777 0.131624 0.000000
0.942809 0.127535 0.000000
0.965667 0.122042 0.000000
0.985748 0.113985 0.000000
1.000000 0.103548 0.000000
1.000000 0.088594 0.000000
1.000000 0.068269 0.000000
1.000000 0.007507 0.000000
1.000000 0.000000 0.000000
0.118044 0.120516 0.118166
0.120424 0.120119 0.118532
0.124666 0.120272 0.118196
0.132876 0.120089 0.117800
0.144747 0.119875 0.117433
0.160067 0.119692 0.116884
0.179965 0.119600 0.116091
0.205112 0.119326 0.114900
0.235752 0.119265 0.113130
0.271733 0.119356 0.110597
0.312993 0.119570 0.107057
0.358984 0.120089 0.102144
0.409216 0.121096 0.095308
0.463447 0.122621 0.085817
0.520562 0.125338 0.071992
0.579248 0.128054 0.044282
0.635462 0.130800 0.000000
0.687373 0.133883 0.000000
0.734401 0.136660 0.000000
0.777768 0.139071 0.000000
0.817777 0.140719 0.000000
0.854246 0.141024 0.000000
0.887297 0.140200 0.000000
0.916747 0.137942 0.000000
0.942779 0.133883 0.000000
0.965606 0.128634 0.000000
0.985718 0.120790 0.000000
1.000000 0.111147 0.000000
1.000000 0.097383 0.000000
1.000000 0.077974 0.000000
1.000000 0.038331 0.000000
1.000000 0.000000 0.000000
0.117800 0.123690 0.118105
0.120729 0.123415 0.118044
0.123232 0.122774 0.118837
0.132204 0.123110 0.117952
0.144442 0.122652 0.117189
0.159945 0.122652 0.116640
0.179690 0.122835 0.115816
0.204837 0.123171 0.114565
0.235477 0.123537 0.112764
0.271489 0.124269 0.110170
0.312749 0.124880 0.106569
0.358740 0.126192 0.101534
0.408942 0.127993 0.094575
0.463264 0.130343 0.084840
0.520348 0.133303 0.070741
0.579248 0.136172 0.040162
0.635431 0.139681 0.000000
0.687282 0.143130 0.000000
0.734371 0.145632 0.000000
0.777646 0.148135 0.000000
0.817685 0.149264 0.000000
0.854215 0.149538 0.000000
0.887236 0.148623 0.000000
0.916686 0.146029 0.000000
0.942718 0.142428 0.000000
0.965545 0.136812 0.000000
0.985657 0.129427 0.000000
1.000000 0.119936 0.000000
1.000000 0.107301 0.000000
1.000000 0.090486 0.000000
1.000000 0.065614 0.000000
1.000000 0.000000 0.000000
0.117250 0.130312 0.117739
0.120180 0.130068 0.117678
0.123964 0.129671 0.117800
0.129458 0.128145 0.119570
0.141085 0.128878 0.118563
0.158907 0.129091 0.116304
0.178744 0.129641 0.115450
0.204135 0.130739 0.113893
0.234806 0.132052 0.112001
0.270939 0.133822 0.109255
0.312230 0.135897 0.105470
0.358373 0.138308 0.100221
0.408484 0.141726 0.092927
0.462776 0.145571 0.082643
0.520195 0.149477 0.067628
0.578912 0.153597 0.030610
0.635126 0.157382 0.000000
0.687068 0.160769 0.000000
0.734127 0.163607 0.000000
0.777401 0.165652 0.000000
0.817502 0.166445 0.000000
0.854002 0.166567 0.000000
0.887053 0.165164 0.000000
0.916564 0.162692 0.000000
0.942596 0.158785 0.000000
0.965423 0.153445 0.000000
0.985534 0.145998 0.000000
1.000000 0.137697 0.000000
1.000000 0.126223 0.000000
1.000000 0.111696 0.000000
1.000000 0.092622 0.000000
1.000000 0.063935 0.000000
0.116335 0.138766 0.117128
0.119265 0.138705 0.117067
0.122835 0.138399 0.117189
0.129854 0.137148 0.117922
0.136965 0.134646 0.120302
0.150790 0.136782 0.119478
0.174990 0.139010 0.115724
0.202396 0.141390 0.113344
0.233371 0.143984 0.111055
0.269718 0.147250 0.108095
0.311315 0.151003 0.103761
0.357427 0.155428 0.098085
0.407935 0.160250 0.090242
0.462257 0.165652 0.079164
0.519463 0.170993 0.062684
0.578424 0.176150 0.016144
0.634638 0.180850 0.000000
0.686519 0.184329 0.000000
0.733761 0.186984 0.000000
0.777218 0.188968 0.000000
0.817197 0.189792 0.000000
0.853819 0.189303 0.000000
0.886839 0.187991 0.000000
0.916350 0.185367 0.000000
0.942351 0.181460 0.000000
0.965240 0.175479 0.000000
0.985351 0.168856 0.000000
1.000000 0.159976 0.000000
1.000000 0.150179 0.000000
1.000000 0.137423 0.000000
1.000000 0.121492 0.000000
1.000000 0.101289 0.000000
0.115633 0.149416 0.116243
0.118379 0.149233 0.116182
0.121981 0.148959 0.116335
0.129244 0.148623 0.116365
0.138399 0.145907 0.118166
0.145602 0.142763 0.121187
0.162173 0.146273 0.120638
0.192050 0.152255 0.115969
0.230838 0.158175 0.110170
0.267552 0.163241 0.106691
0.309178 0.168948 0.101930
0.355871 0.175143 0.095460
0.406622 0.181704 0.086885
0.461463 0.188449 0.074250
0.518791 0.195407 0.052857
0.577752 0.201938 0.000000
0.634119 0.207462 0.000000
0.685939 0.211551 0.000000
0.733089 0.214328 0.000000
0.776699 0.216159 0.000000
0.816800 0.216678 0.000000
0.853513 0.216068 0.000000
0.886534 0.214145 0.000000
0.916045 0.211490 0.000000
0.942077 0.207156 0.000000
0.964935 0.201419 0.000000
0.985107 0.194583 0.000000
1.000000 0.186038 0.000000
1.000000 0.176516 0.000000
1.000000 0.164981 0.000000
1.000000 0.151583 0.000000
1.000000 0.135256 0.000000
0.114656 0.162692 0.115114
0.117708 0.162509 0.115053
0.121370 0.162234 0.114992
0.128695 0.161929 0.115023
0.139284 0.160525 0.115694
0.149081 0.156741 0.118410
0.157076 0.152865 0.121492
0.175723 0.157595 0.121431
0.211826 0.168032 0.115694
0.257023 0.178317 0.108217
0.306706 0.188052 0.099825
0.353491 0.196139 0.092683
0.404303 0.204471 0.082887
0.459358 0.213077 0.068513
0.517266 0.221561 0.035340
0.576654 0.229526 0.000000
0.633326 0.236088 0.000000
0.685328 0.240635 0.000000
0.732540 0.243656 0.000000
0.776150 0.245335 0.000000
0.816342 0.245823 0.000000
0.853086 0.244877 0.000000
0.886107 0.242924 0.000000
0.915709 0.239414 0.000000
0.941741 0.234806 0.000000
0.964630 0.229129 0.000000
0.984741 0.222324 0.000000
1.000000 0.214054 0.000000
1.000000 0.204685 0.000000
1.000000 0.193973 0.000000
1.000000 0.181247 0.000000
1.000000 0.166964 0.000000
0.113344 0.179202 0.114015
0.116365 0.179171 0.113924
0.120546 0.178866 0.113863
0.128908 0.178378 0.113680
0.140322 0.177829 0.113191
0.152468 0.174716 0.115053
0.162966 0.170230 0.118074
0.171389 0.165652 0.121462
0.192142 0.171176 0.121828
0.234165 0.186160 0.114809
0.285313 0.201144 0.105623
0.344213 0.215763 0.092348
0.401801 0.227970 0.077974
0.456764 0.238254 0.061250
0.515099 0.248447 0.012055
0.574456 0.257877 0.000000
0.631525 0.265415 0.000000
0.683925 0.270634 0.000000
0.731624 0.273930 0.000000
0.775601 0.275822 0.000000
0.815793 0.276371 0.000000
0.852567 0.275212 0.000000
0.885649 0.272801 0.000000
0.915221 0.269352 0.000000
0.941314 0.264286 0.000000
0.964202 0.258366 0.000000
0.984344 0.251194 0.000000
1.000000 0.242679 0.000000
1.000000 0.233433 0.000000
1.000000 0.223026 0.000000
1.000000 0.211337 0.000000
1.000000 0.197971 0.000000
0.111757 0.199924 0.112795
0.115145 0.199741 0.112734
0.119600 0.199588 0.112642
0.128695 0.199222 0.112215
0.141360 0.198611 0.111696
0.155825 0.197482 0.111543
0.168887 0.192508 0.114107
0.180209 0.187228 0.117067
0.189151 0.181613 0.120821
0.211215 0.187564 0.121645
0.259098 0.206912 0.113222
0.315953 0.226139 0.101381
0.380468 0.245060 0.084138
0.451820 0.263157 0.050599
0.512566 0.275822 0.000000
0.572168 0.286900 0.000000
0.629389 0.295415 0.000000
0.682063 0.301610 0.000000
0.729915 0.305272 0.000000
0.774166 0.307256 0.000000
0.814817 0.307744 0.000000
0.851926 0.306432 0.000000
0.885191 0.304021 0.000000
0.914733 0.299992 0.000000
0.940826 0.294774 0.000000
0.963714 0.288243 0.000000
0.983856 0.280888 0.000000
1.000000 0.272465 0.000000
1.000000 0.263066 0.000000
1.000000 0.252537 0.000000
1.000000 0.241154 0.000000
1.000000 0.228580 0.000000
0.109499 0.224613 0.110414
0.112917 0.224552 0.110323
0.117983 0.224369 0.110231
0.128145 0.223972 0.109773
0.142000 0.223423 0.109407
0.158328 0.222660 0.108705
0.174899 0.219791 0.109651
0.189181 0.213870 0.112398
0.201175 0.207706 0.115572
0.210880 0.201205 0.119295
0.233127 0.206302 0.121218
0.286503 0.229862 0.110567
0.348821 0.253269 0.095430
0.418433 0.276066 0.071534
0.494270 0.297612 0.000000
0.569665 0.315801 0.000000
0.627161 0.325658 0.000000
0.679988 0.332403 0.000000
0.728023 0.336706 0.000000
0.772549 0.338964 0.000000
0.813504 0.339422 0.000000
0.850706 0.338293 0.000000
0.884276 0.335485 0.000000
0.914061 0.331273 0.000000
0.940276 0.325689 0.000000
0.963165 0.319036 0.000000
0.983337 0.311131 0.000000
1.000000 0.302342 0.000000
1.000000 0.292851 0.000000
1.000000 0.282353 0.000000
1.000000 0.271000 0.000000
1.000000 0.258701 0.000000
0.104616 0.253056 0.106538
0.109041 0.252995 0.106416
0.115114 0.252781 0.106294
0.126680 0.252415 0.105806
0.142275 0.251926 0.105379
0.160067 0.251194 0.104829
0.179873 0.250309 0.103883
0.197513 0.245151 0.106172
0.212772 0.238376 0.109224
0.225742 0.231418 0.112856
0.235996 0.223941 0.116915
0.257420 0.227390 0.120302
0.316228 0.254887 0.106752
0.383459 0.282078 0.086946
0.457923 0.308446 0.046784
0.537133 0.332982 0.000000
0.615839 0.352941 0.000000
0.677577 0.363531 0.000000
0.726040 0.368444 0.000000
0.770840 0.370977 0.000000
0.811978 0.371618 0.000000
0.849393 0.370459 0.000000
0.883024 0.367529 0.000000
0.912963 0.363195 0.000000
0.939330 0.357366 0.000000
0.962402 0.350134 0.000000
0.982696 0.341894 0.000000
1.000000 0.332769 0.000000
1.000000 0.322911 0.000000
1.000000 0.312169 0.000000
1.000000 0.300816 0.000000
1.000000 0.288701 0.000000
0.097627 0.285008 0.100587
0.103059 0.284825 0.100496
0.110323 0.284611 0.100374
0.123384 0.284184 0.099825
0.141695 0.283574 0.099336
0.161440 0.282963 0.098634
0.183230 0.282170 0.097505
0.204959 0.279881 0.097139
0.223331 0.273106 0.100771
0.239597 0.265690 0.104616
0.253269 0.257786 0.108705
0.264286 0.249668 0.113558
0.283818 0.250278 0.119112
0.347814 0.281773 0.102174
0.419806 0.312444 0.075288
0.498177 0.341924 0.000000
0.579431 0.368383 0.000000
0.654963 0.387640 0.000000
0.722316 0.399634 0.000000
0.768826 0.403113 0.000000
0.810330 0.403998 0.000000
0.847898 0.402838 0.000000
0.881651 0.399817 0.000000
0.911711 0.395148 0.000000
0.938262 0.389044 0.000000
0.961364 0.381537 0.000000
0.981781 0.372900 0.000000
0.999908 0.363409 0.000000
1.000000 0.353246 0.000000
1.000000 0.342168 0.000000
1.000000 0.330785 0.000000
1.000000 0.318425 0.000000
0.087648 0.319615 0.091707
0.094331 0.319615 0.091524
0.102968 0.319341 0.091371
0.118654 0.319097 0.090944
0.138949 0.318547 0.090059
0.161837 0.317815 0.089235
0.185946 0.316869 0.087892
0.210452 0.315953 0.086244
0.232944 0.311101 0.088014
0.252140 0.303532 0.092622
0.269139 0.295293 0.097414
0.283543 0.286656 0.102815
0.295140 0.277684 0.108736
0.314244 0.276860 0.116152
0.381018 0.310216 0.096315
0.457374 0.344091 0.058778
0.539055 0.376074 0.000000
0.619104 0.402472 0.000000
0.691524 0.420783 0.000000
0.756191 0.432105 0.000000
0.808438 0.436378 0.000000
0.846250 0.435157 0.000000
0.880247 0.432197 0.000000
0.910430 0.427375 0.000000
0.937011 0.420905 0.000000
0.960266 0.413062 0.000000
0.980743 0.404150 0.000000
0.998901 0.394324 0.000000
1.000000 0.383581 0.000000
1.000000 0.372351 0.000000
1.000000 0.360510 0.000000
1.000000 0.348119 0.000000
0.071870 0.357244 0.078645
0.081422 0.357092 0.078462
0.092195 0.356878 0.078248
0.111116 0.356603 0.077394
0.135134 0.355962 0.076631
0.160983 0.355169 0.075227
0.187747 0.354376 0.073304
0.214511 0.353246 0.071199
0.241642 0.351995 0.068574
0.263767 0.344457 0.074434
0.283787 0.336065 0.080751
0.301366 0.327123 0.087251
0.316228 0.317693 0.094545
0.328588 0.307988 0.102113
0.347997 0.306157 0.111208
0.415717 0.339879 0.088685
0.495766 0.376684 0.011231
0.578820 0.410071 0.000000
0.656641 0.435584 0.000000
0.726711 0.453223 0.000000
0.788418 0.463355 0.000000
0.841245 0.467140 0.000000
0.878691 0.464607 0.000000
0.909026 0.459602 0.000000
0.935668 0.452918 0.000000
0.959045 0.444709 0.000000
0.979583 0.435340 0.000000
0.997833 0.425208 0.000000
1.000000 0.414160 0.000000
1.000000 0.402533 0.000000
1.000000 0.390478 0.000000
1.000000 0.377722 0.000000
0.035279 0.396918 0.055848
0.060487 0.396887 0.055268
0.075929 0.396643 0.054780
0.101350 0.396338 0.052430
0.129488 0.395880 0.050172
0.158694 0.395178 0.046265
0.188357 0.394110 0.040497
0.217655 0.393072 0.033417
0.246952 0.391882 0.025208
0.274205 0.388006 0.026703
0.297276 0.379583 0.046693
0.317815 0.370397 0.062074
0.335851 0.360662 0.072450
0.351415 0.350652 0.082399
0.364233 0.340276 0.092439
0.383978 0.337560 0.104250
0.451514 0.370855 0.079713
0.534752 0.410071 0.000000
0.617243 0.443488 0.000000
0.693385 0.468360 0.000000
0.760830 0.484627 0.000000
0.818753 0.493385 0.000000
0.867979 0.495491 0.000000
0.907469 0.491920 0.000000
0.934264 0.484871 0.000000
0.957702 0.476387 0.000000
0.978363 0.466682 0.000000
0.996674 0.456062 0.000000
1.000000 0.444770 0.000000
1.000000 0.432868 0.000000
1.000000 0.420417 0.000000
1.000000 0.407507 0.000000
0.000000 0.438911 0.000000
0.000000 0.438758 0.000000
0.035950 0.438666 0.000000
0.085145 0.438361 0.000000
0.120790 0.437690 0.000000
0.155032 0.436988 0.000000
0.187503 0.436011 0.000000
0.219547 0.434974 0.000000
0.251530 0.433692 0.000000
0.282506 0.432258 0.000000
0.309331 0.425391 0.000000
0.332921 0.416083 0.000000
0.353918 0.406348 0.005035
0.372503 0.396033 0.037415
0.388434 0.385321 0.063722
0.401648 0.374060 0.078828
0.421607 0.370642 0.095430
0.488014 0.402655 0.068452
0.574090 0.443946 0.000000
0.655756 0.477028 0.000000
0.729183 0.500542 0.000000
0.793149 0.515160 0.000000
0.847349 0.521965 0.000000
0.892821 0.522179 0.000000
0.930114 0.517082 0.000000
0.956268 0.508171 0.000000
0.976989 0.498054 0.000000
0.995392 0.487129 0.000000
1.000000 0.475410 0.000000
1.000000 0.463111 0.000000
1.000000 0.450324 0.000000
1.000000 0.437140 0.000000
0.000000 0.482582 0.000000
0.000000 0.482399 0.000000
0.000000 0.482277 0.000000
0.058167 0.481788 0.000000
0.108156 0.481300 0.000000
0.148684 0.480537 0.000000
0.185153 0.479530 0.000000
0.220523 0.478523 0.000000
0.254520 0.477028 0.000000
0.287999 0.475593 0.000000
0.319921 0.472847 0.000000
0.346288 0.463752 0.000000
0.370306 0.453986 0.000000
0.391791 0.443641 0.000000
0.410864 0.432685 0.000000
0.427131 0.421302 0.009430
0.440955 0.409644 0.056916
0.461189 0.405371 0.083284
0.526543 0.436286 0.049256
0.613550 0.478340 0.000000
0.693416 0.510338 0.000000
0.763577 0.532067 0.000000
0.823667 0.544518 0.000000
0.873869 0.549218 0.000000
0.915404 0.547265 0.000000
0.949035 0.540246 0.000000
0.975525 0.529534 0.000000
0.994018 0.518151 0.000000
1.000000 0.506035 0.000000
1.000000 0.493385 0.000000
1.000000 0.480262 0.000000
1.000000 0.466743 0.000000
0.000000 0.527184 0.000000
0.000000 0.526970 0.000000
0.000000 0.526940 0.000000
0.000000 0.526452 0.000000
0.090211 0.525933 0.000000
0.139437 0.525048 0.000000
0.181125 0.524132 0.000000
0.219730 0.522942 0.000000
0.256657 0.521630 0.000000
0.292454 0.520134 0.000000
0.327001 0.518578 0.000000
0.358282 0.512963 0.000000
0.385138 0.503502 0.000000
0.409674 0.493385 0.000000
0.431769 0.482551 0.000000
0.451453 0.471351 0.000000
0.468635 0.459724 0.000000
0.483497 0.448219 0.000000
0.503929 0.443061 0.064881
0.567071 0.471656 0.011810
0.653071 0.513024 0.000000
0.730098 0.543206 0.000000
0.796414 0.562615 0.000000
0.852354 0.572656 0.000000
0.898436 0.574853 0.000000
0.935851 0.570855 0.000000
0.966217 0.561852 0.000000
0.991211 0.549584 0.000000
1.000000 0.536706 0.000000
1.000000 0.523583 0.000000
1.000000 0.510124 0.000000
1.000000 0.496284 0.000000
0.000000 0.572229 0.000000
0.000000 0.572107 0.000000
0.000000 0.571893 0.000000
0.000000 0.571618 0.000000
0.059449 0.571099 0.000000
0.126436 0.570367 0.000000
0.175143 0.569482 0.000000
0.217350 0.568261 0.000000
0.257023 0.566979 0.000000
0.294865 0.565545 0.000000
0.331823 0.563867 0.000000
0.367742 0.562066 0.000000
0.397986 0.553857 0.000000
0.425696 0.544396 0.000000
0.451179 0.534417 0.000000
0.474128 0.523613 0.000000
0.494911 0.512627 0.000000
0.513054 0.501030 0.000000
0.529503 0.489876 0.000000
0.549981 0.483650 0.014099
0.608240 0.507866 0.000000
0.692073 0.547631 0.000000
0.765408 0.575372 0.000000
0.827512 0.592065 0.000000
0.878935 0.599481 0.000000
0.920806 0.599176 0.000000
0.954467 0.592737 0.000000
0.981903 0.582177 0.000000
1.000000 0.568627 0.000000
1.000000 0.553796 0.000000
1.000000 0.539940 0.000000
1.000000 0.525689 0.000000
0.000000 0.617121 0.000000
0.000000 0.617090 0.000000
0.000000 0.616846 0.000000
0.000000 0.616510 0.000000
0.000000 0.616022 0.000000
0.109621 0.615351 0.000000
0.166018 0.614343 0.000000
0.212894 0.613336 0.000000
0.255589 0.612024 0.000000
0.296056 0.610590 0.000000
0.334966 0.609033 0.000000
0.372412 0.607324 0.000000
0.407935 0.603510 0.000000
0.438483 0.594842 0.000000
0.466987 0.585504 0.000000
0.493202 0.575677 0.000000
0.517296 0.565393 0.000000
0.539147 0.554559 0.000000
0.559075 0.543938 0.000000
0.577081 0.533043 0.000000
0.597131 0.525536 0.000000
0.649073 0.544274 0.000000
0.729946 0.581811 0.000000
0.798947 0.606622 0.000000
0.856474 0.620356 0.000000
0.903441 0.624903 0.000000
0.941039 0.621912 0.000000
0.971435 0.613519 0.000000
0.996307 0.601404 0.000000
1.000000 0.586664 0.000000
1.000000 0.570062 0.000000
1.000000 0.555108 0.000000
0.000000 0.661158 0.000000
0.000000 0.661036 0.000000
0.000000 0.660853 0.000000
0.000000 0.660517 0.000000
0.000000 0.659998 0.000000
0.083864 0.659327 0.000000
0.154238 0.658442 0.000000
0.205875 0.657435 0.000000
0.252293 0.656184 0.000000
0.295232 0.654719 0.000000
0.335882 0.653223 0.000000
0.375341 0.651545 0.000000
0.413519 0.649592 0.000000
0.447974 0.643580 0.000000
0.479103 0.635157 0.000000
0.508232 0.626123 0.000000
0.535363 0.616602 0.000000
0.560449 0.606683 0.000000
0.583581 0.596857 0.000000
0.604974 0.586755 0.000000
0.624537 0.576562 0.000000
0.644221 0.567651 0.000000
0.689876 0.580896 0.000000
0.766567 0.615320 0.000000
0.830777 0.636805 0.000000
0.883391 0.647364 0.000000
0.925658 0.648920 0.000000
0.959411 0.643519 0.000000
0.986816 0.633295 0.000000
1.000000 0.619776 0.000000
1.000000 0.603815 0.000000
1.000000 0.586114 0.000000
0.000000 0.703700 0.000000
0.000000 0.703609 0.000000
0.000000 0.703395 0.000000
0.000000 0.703120 0.000000
0.000000 0.702663 0.000000
0.004181 0.701930 0.000000
0.137545 0.701106 0.000000
0.196384 0.700038 0.000000
0.246677 0.698848 0.000000
0.292119 0.697444 0.000000
0.334630 0.695979 0.000000
0.375952 0.694209 0.000000
0.415747 0.692439 0.000000
0.454200 0.689998 0.000000
0.487526 0.682429 0.000000
0.519249 0.674342 0.000000
0.549035 0.665797 0.000000
0.576989 0.656672 0.000000
0.602960 0.647822 0.000000
0.627405 0.638727 0.000000
0.650263 0.629267 0.000000
0.671321 0.619562 0.000000
0.690608 0.609644 0.000000
0.729366 0.617029 0.006134
0.801266 0.647883 0.000000
0.860380 0.665858 0.000000
0.908019 0.673060 0.000000
0.945739 0.671687 0.000000
0.976043 0.664149 0.000000
1.000000 0.652308 0.000000
1.000000 0.637385 0.000000
1.000000 0.620264 0.000000
0.000000 0.744137 0.000000
0.000000 0.744076 0.000000
0.000000 0.743923 0.000000
0.000000 0.743557 0.000000
0.000000 0.743099 0.000000
0.000000 0.742489 0.000000
0.115419 0.741695 0.000000
0.184268 0.740688 0.000000
0.238468 0.739528 0.000000
0.286931 0.738064 0.000000
0.331487 0.736660 0.000000
0.374151 0.734981 0.000000
0.415229 0.733150 0.000000
0.455360 0.731167 0.000000
0.492409 0.726986 0.000000
0.526360 0.719722 0.000000
0.558312 0.711971 0.000000
0.588678 0.703944 0.000000
0.617060 0.696101 0.000000
0.644160 0.687922 0.000000
0.669856 0.679377 0.000000
0.693965 0.670588 0.000000
0.716518 0.661616 0.000000
0.735470 0.650629 0.000000
0.767453 0.652430 0.070558
0.833982 0.679316 0.000000
0.887755 0.693538 0.000000
0.930236 0.697353 0.000000
0.963836 0.693446 0.000000
0.991150 0.684047 0.000000
1.000000 0.670771 0.000000
1.000000 0.654749 0.000000
0.000000 0.782376 0.000000
0.000000 0.782284 0.000000
0.000000 0.782132 0.000000
0.000000 0.781827 0.000000
0.000000 0.781369 0.000000
0.000000 0.780728 0.000000
0.083467 0.779934 0.000000
0.169406 0.778988 0.000000
0.228855 0.777798 0.000000
0.279515 0.776547 0.000000
0.326146 0.775021 0.000000
0.370428 0.773434 0.000000
0.412818 0.771664 0.000000
0.453834 0.769711 0.000000
0.493568 0.767666 0.000000
0.529656 0.761898 0.000000
0.563745 0.755001 0.000000
0.595636 0.748104 0.000000
0.626032 0.741207 0.000000
0.655360 0.733852 0.000000
0.683467 0.726253 0.000000
0.710292 0.718318 0.000000
0.735653 0.710201 0.000000
0.759396 0.701808 0.000000
0.778134 0.690364 0.000000
0.803708 0.686854 0.111482
0.864500 0.709560 0.068635
0.912566 0.719844 0.000000
0.950103 0.720485 0.000000
0.980133 0.714382 0.000000
1.000000 0.703578 0.000000
1.000000 0.689235 0.000000
0.000000 0.818051 0.000000
0.000000 0.817929 0.000000
0.000000 0.817868 0.000000
0.000000 0.817563 0.000000
0.000000 0.817075 0.000000
0.000000 0.816495 0.000000
0.000000 0.815702 0.000000
0.149966 0.814786 0.000000
0.216037 0.813626 0.000000
0.270329 0.812375 0.000000
0.318761 0.810971 0.000000
0.364782 0.809323 0.000000
0.408240 0.807645 0.000000
0.450172 0.805722 0.000000
0.490883 0.803677 0.000000
0.529870 0.800748 0.000000
0.564874 0.794888 0.000000
0.598016 0.789059 0.000000
0.630213 0.782864 0.000000
0.661494 0.776364 0.000000
0.691615 0.769528 0.000000
0.720668 0.762478 0.000000
0.748440 0.755215 0.000000
0.774777 0.747768 0.000000
0.799649 0.740139 0.000000
0.818235 0.728328 0.000000
0.838865 0.720882 0.151705
0.892393 0.738308 0.137819
0.934600 0.744717 0.122713
0.967773 0.742763 0.105287
0.994659 0.735042 0.077638
1.000000 0.723201 0.000000
0.000000 0.851102 0.000000
0.000000 0.850950 0.000000
0.000000 0.850889 0.000000
0.000000 0.850584 0.000000
0.000000 0.850126 0.000000
0.000000 0.849546 0.000000
0.000000 0.848783 0.000000
0.124636 0.847898 0.000000
0.200931 0.846799 0.000000
0.258518 0.845548 0.000000
0.309728 0.844144 0.000000
0.356939 0.842618 0.000000
0.401587 0.840879 0.000000
0.444648 0.838987 0.000000
0.485878 0.837064 0.000000
0.524956 0.835111 0.000000
0.561425 0.831540 0.000000
0.596094 0.826322 0.000000
0.629847 0.820859 0.000000
0.662684 0.815122 0.000000
0.694636 0.809110 0.000000
0.725612 0.802823 0.000000
0.755398 0.796323 0.000000
0.783932 0.789700 0.000000
0.811124 0.782956 0.000000
0.836790 0.776059 0.000000
0.855192 0.764126 0.085908
0.872923 0.754665 0.193881
0.917082 0.765438 0.198428
0.953979 0.768582 0.196048
0.983307 0.764736 0.192294
1.000000 0.756069 0.185306
0.000000 0.881224 0.000000
0.000000 0.881102 0.000000
0.000000 0.880949 0.000000
0.000000 0.880705 0.000000
0.000000 0.880247 0.000000
0.000000 0.879698 0.000000
0.000000 0.878935 0.000000
0.090364 0.878019 0.000000
0.182559 0.876982 0.000000
0.245396 0.875761 0.000000
0.298558 0.874449 0.000000
0.347539 0.872892 0.000000
0.393133 0.871214 0.000000
0.436103 0.869474 0.000000
0.475959 0.867765 0.000000
0.515099 0.865965 0.000000
0.553552 0.864042 0.000000
0.589868 0.859922 0.000000
0.625025 0.855039 0.000000
0.659358 0.849943 0.000000
0.692714 0.844633 0.000000
0.725307 0.839048 0.000000
0.756832 0.833249 0.000000
0.787198 0.827329 0.000000
0.816373 0.821286 0.000000
0.844053 0.815152 0.000000
0.870237 0.809049 0.000000
0.888365 0.797269 0.151492
0.902922 0.785946 0.244602
0.938598 0.791135 0.262028
0.970703 0.791928 0.267796
0.996582 0.787106 0.272160
0.000000 0.908232 0.000000
0.000000 0.908141 0.000000
0.000000 0.908019 0.000000
0.000000 0.907744 0.000000
0.000000 0.907347 0.000000
0.000000 0.906798 0.000000
0.000000 0.906096 0.000000
0.000000 0.905211 0.000000
0.159701 0.904204 0.000000
0.229221 0.903014 0.000000
0.285740 0.901671 0.000000
0.333776 0.900328 0.000000
0.377966 0.898924 0.000000
0.420539 0.897368 0.000000
0.461769 0.895720 0.000000
