其他预设/【233】日式怀旧街道调色预设208款/1.3D LUT预设（视频调色-PR-AE-PS-FCPX-达芬奇用）/3.日式城市街拍预设 (自动曝光预设)/JA – Chrome 3 (Auto-Exposure).cube
# Created by Adobe Lightroom plugin Export LUT (1.17.0)
# www.johnrellis.com/lightroom/exportlut.htm
# Preset: JA – Chrome 3 (Auto-Exposure)
# Color profile: /Library/Application Support/Adobe/Color/Profiles/Recommended/AdobeRGB1998.icc
LUT_3D_SIZE 5
DOMAIN_MIN 0.000000 0.000000 0.000000
DOMAIN_MAX 0.903226 0.903226 0.903226
0.120058 0.117037 0.122683
0.182925 0.118563 0.122347
0.551019 0.135622 0.085512
0.822751 0.161624 0.000000
0.980011 0.184817 0.000000
0.127687 0.178195 0.128786
0.198611 0.188785 0.126406
0.584039 0.327459 0.000000
0.832731 0.326024 0.000000
0.981537 0.310460 0.000000
0.095216 0.493111 0.042267
0.285710 0.491005 0.000000
0.588891 0.556085 0.000000
0.848447 0.590478 0.000000
0.983520 0.555657 0.000000
0.064027 0.731319 0.000000
0.277073 0.727901 0.000000
0.538415 0.716548 0.000000
0.813474 0.775143 0.000000
0.968200 0.754757 0.270268
0.274296 0.902708 0.228061
0.355261 0.900816 0.224826
0.541558 0.894255 0.213748
0.751888 0.890837 0.250309
0.935821 0.902495 0.418677
0.120089 0.118929 0.170626
0.180117 0.116579 0.180209
0.529320 0.000000 0.226535
0.815061 0.000000 0.149142
0.978698 0.000000 0.129061
0.126589 0.174014 0.181918
0.187289 0.182345 0.190036
0.563256 0.191287 0.168307
0.824949 0.218204 0.147494
0.979492 0.248600 0.146487
0.000000 0.498268 0.235111
0.178347 0.509697 0.163516
0.580926 0.550347 0.142245
0.844633 0.586786 0.204837
0.976715 0.554284 0.264622
0.000000 0.736355 0.159426
0.219791 0.734707 0.185702
0.523369 0.722103 0.156619
0.808713 0.773342 0.261753
0.960143 0.766751 0.414008
0.213687 0.904967 0.276219
0.376867 0.899382 0.340185
0.548547 0.893278 0.330297
0.752407 0.888396 0.344335
0.933318 0.901976 0.484260
0.103243 0.103273 0.424384
0.261387 0.000000 0.471748
0.534997 0.000000 0.503258
0.779416 0.000000 0.479438
0.951415 0.182132 0.485389
0.000000 0.211765 0.412848
0.170077 0.164920 0.461646
0.544213 0.000000 0.512535
0.782223 0.146578 0.486946
0.946868 0.354437 0.512902
0.000000 0.470161 0.471717
0.112428 0.484199 0.484382
0.544579 0.530144 0.523247
0.796994 0.553124 0.532830
0.948821 0.579553 0.548211
0.000000 0.737697 0.482490
0.159335 0.737942 0.479805
0.532891 0.734615 0.504662
0.793362 0.767086 0.540856
0.942351 0.795621 0.624994
0.215610 0.903960 0.478523
0.333806 0.901396 0.486702
0.566461 0.891661 0.529961
0.746639 0.882872 0.511528
0.926513 0.900816 0.621729
0.070802 0.026246 0.665553
0.248478 0.000000 0.683955
0.537194 0.000000 0.738491
0.787411 0.000000 0.736233
0.924132 0.193423 0.680964
0.000000 0.165042 0.659113
0.155276 0.140444 0.677424
0.511131 0.000000 0.735164
0.785489 0.072053 0.736568
0.922210 0.342168 0.689296
0.000000 0.441016 0.616419
0.235538 0.452857 0.621241
0.513848 0.498787 0.697108
0.775387 0.538048 0.735073
0.919432 0.567102 0.712093
0.000000 0.689052 0.680140
0.280278 0.693416 0.683742
0.535882 0.710262 0.697871
0.767117 0.753140 0.736782
0.920714 0.780026 0.757168
0.265782 0.900450 0.703365
0.361028 0.898314 0.703151
0.545861 0.893065 0.700404
0.744503 0.885069 0.709895
0.916869 0.899260 0.762264
0.000000 0.000000 0.857267
0.213291 0.000000 0.863523
0.462409 0.000000 0.881132
0.734218 0.000000 0.902525
0.936522 0.000000 0.889830
0.000000 0.157870 0.855192
0.142275 0.130495 0.860685
0.439460 0.000000 0.878691
0.729549 0.000000 0.900481
0.932097 0.244999 0.887999
0.300725 0.506371 0.830167
0.361181 0.505547 0.837064
0.494697 0.481758 0.859648
0.737270 0.503716 0.888548
0.920714 0.551659 0.883635
0.364416 0.684199 0.824186
0.416480 0.686519 0.823362
0.546349 0.692287 0.819913
0.732143 0.719753 0.860319
0.908507 0.762448 0.880705
0.392279 0.862119 0.855863
0.440436 0.862547 0.855924
0.572076 0.864317 0.856382
0.737819 0.869078 0.858854
0.901335 0.893156 0.881407
