其他预设/【233】日式怀旧街道调色预设208款/1.3D LUT预设（视频调色-PR-AE-PS-FCPX-达芬奇用）/3.日式城市街拍预设 (自动曝光预设)/JA – Faded Soft 1 (Auto-Exposure).cube
# Created by Adobe Lightroom plugin Export LUT (1.17.0)
# www.johnrellis.com/lightroom/exportlut.htm
# Preset: JA – Faded Soft 1 (Auto-Exposure)
# Color profile: /Library/Application Support/Adobe/Color/Profiles/Recommended/AdobeRGB1998.icc
LUT_3D_SIZE 5
DOMAIN_MIN 0.000000 0.000000 0.000000
DOMAIN_MAX 0.903226 0.903226 0.903226
0.087770 0.083711 0.080781
0.252262 0.077363 0.069795
0.587396 0.097658 0.000000
0.810910 0.123232 0.000000
0.988983 0.122621 0.000000
0.125734 0.206058 0.088502
0.246830 0.222324 0.074800
0.610620 0.292851 0.000000
0.820951 0.275853 0.000000
0.993256 0.253819 0.000000
0.220798 0.470375 0.079164
0.305669 0.439338 0.073762
0.551507 0.512352 0.000000
0.836271 0.527214 0.000000
1.000000 0.474159 0.000000
0.315190 0.661799 0.155520
0.367132 0.642237 0.138338
0.499672 0.618738 0.097963
0.759121 0.712154 0.117433
0.994812 0.698177 0.000000
0.435676 0.848539 0.302068
0.467323 0.840208 0.287327
0.558526 0.810330 0.233494
0.735195 0.843046 0.255985
0.957488 0.893706 0.309087
0.000000 0.123171 0.301640
0.257939 0.075959 0.260136
0.572686 0.000000 0.238224
0.801358 0.000000 0.195956
0.985595 0.000000 0.095460
0.000000 0.285527 0.282933
0.271550 0.266239 0.263493
0.593988 0.261143 0.235264
0.810880 0.259434 0.201205
0.989654 0.229221 0.101076
0.173007 0.527184 0.258946
0.324834 0.506218 0.270573
0.560815 0.532921 0.268559
0.835996 0.534661 0.226566
1.000000 0.476967 0.138003
0.333532 0.694423 0.315343
0.385931 0.675898 0.301366
0.500053 0.625483 0.244907
0.757687 0.719570 0.314336
0.991394 0.708034 0.203403
0.451453 0.859922 0.403235
0.479103 0.851652 0.387213
0.562463 0.821653 0.328832
0.730922 0.842161 0.338445
0.952636 0.895598 0.413184
0.000000 0.235966 0.711666
0.139315 0.180026 0.687404
0.560967 0.175021 0.619623
0.774746 0.255680 0.553002
0.945983 0.368414 0.547753
0.000000 0.437690 0.711940
0.260685 0.399298 0.684810
0.563897 0.350530 0.616785
0.770443 0.383856 0.566278
0.942504 0.441627 0.562188
0.164401 0.643427 0.664454
0.353643 0.632654 0.652918
0.571466 0.591424 0.608759
0.781094 0.588556 0.596643
0.963653 0.570062 0.566979
0.369512 0.766720 0.595911
0.438880 0.757382 0.595544
0.564874 0.715023 0.572778
0.751217 0.743160 0.594720
0.972534 0.757534 0.601801
0.486854 0.899199 0.609033
0.516991 0.893095 0.605615
0.589563 0.863340 0.565881
0.709285 0.835966 0.497505
0.939605 0.901396 0.607111
0.000000 0.405035 0.908080
0.090791 0.380652 0.901274
0.520256 0.412299 0.869688
0.754940 0.417090 0.827390
0.936187 0.467262 0.787015
0.271336 0.554467 0.904692
0.368383 0.544823 0.896849
0.556085 0.518456 0.868589
0.756649 0.496895 0.825162
0.933959 0.522271 0.790433
0.394720 0.721340 0.900847
0.495125 0.731197 0.897398
0.641566 0.713222 0.871183
0.761654 0.653132 0.819944
0.929564 0.646021 0.795834
0.472297 0.847745 0.866117
0.533440 0.844541 0.863005
0.657069 0.832029 0.851164
0.764767 0.789822 0.810941
0.940002 0.786130 0.802548
0.581781 0.943664 0.836179
0.609064 0.940490 0.834440
0.674037 0.929046 0.820951
0.733120 0.887510 0.753750
0.924987 0.911864 0.786770
0.427985 0.615198 0.986603
0.454841 0.606195 0.986053
0.590997 0.622034 0.980896
0.749355 0.632227 0.970794
0.909392 0.620539 0.959960
0.543664 0.700862 0.981811
0.558648 0.691768 0.981445
0.633845 0.681086 0.978241
0.763149 0.676020 0.969360
0.910643 0.654078 0.958892
0.578637 0.779507 0.979492
0.625086 0.788083 0.977844
0.733730 0.807645 0.972442
0.797269 0.776852 0.966674
0.914672 0.737728 0.956268
0.634913 0.871366 0.972229
0.671992 0.876036 0.971496
0.770016 0.889921 0.969482
0.863584 0.897307 0.964416
0.921233 0.845426 0.952575
0.681880 0.956115 0.962219
0.706172 0.955688 0.961852
0.779049 0.954223 0.960723
0.869474 0.951507 0.958740
0.925475 0.937224 0.946838
