其他预设/【233】日式怀旧街道调色预设208款/1.3D LUT预设（视频调色-PR-AE-PS-FCPX-达芬奇用）/3.日式城市街拍预设 (自动曝光预设)/JA – Cityscape Pop 3 (Auto-Exposure).cube
# Created by Adobe Lightroom plugin Export LUT (1.17.0)
# www.johnrellis.com/lightroom/exportlut.htm
# Preset: JA – Cityscape Pop 3 (Auto-Exposure)
# Color profile: /Library/Application Support/Adobe/Color/Profiles/Recommended/AdobeRGB1998.icc
LUT_3D_SIZE 8
DOMAIN_MIN 0.000000 0.000000 0.000000
DOMAIN_MAX 0.903226 0.903226 0.903226
0.106172 0.108827 0.110536
0.137270 0.108705 0.109621
0.263310 0.111910 0.102235
0.435950 0.126528 0.077485
0.624842 0.147250 0.000000
0.790555 0.165499 0.000000
0.907713 0.180026 0.000000
0.985657 0.176730 0.000000
0.103273 0.136385 0.113405
0.133272 0.136294 0.109804
0.257969 0.156039 0.098787
0.431159 0.177096 0.071931
0.620356 0.196689 0.000000
0.787716 0.211093 0.000000
0.906126 0.218875 0.000000
0.984619 0.214847 0.000000
0.072663 0.244633 0.124422
0.118471 0.243076 0.105226
0.244480 0.248020 0.096651
0.417884 0.279942 0.051911
0.604517 0.303777 0.000000
0.777432 0.317662 0.000000
0.900359 0.316167 0.000000
0.981201 0.306798 0.000000
0.000000 0.396094 0.145174
0.000000 0.396002 0.085695
0.223301 0.384863 0.077668
0.396490 0.397894 0.000000
0.591577 0.430365 0.000000
0.758297 0.438880 0.000000
0.889555 0.433631 0.000000
0.975311 0.414252 0.000000
0.000000 0.553643 0.175021
0.000000 0.553033 0.134676
0.166659 0.544091 0.000000
0.364782 0.535332 0.000000
0.559045 0.555352 0.000000
0.751736 0.578485 0.000000
0.877317 0.560052 0.000000
0.966308 0.530571 0.000000
0.000000 0.710231 0.213413
0.000000 0.709438 0.192264
0.000000 0.705104 0.000000
0.325200 0.690272 0.000000
0.518914 0.690211 0.000000
0.710903 0.703304 0.000000
0.868742 0.697932 0.000000
0.958740 0.656123 0.000000
0.000000 0.835050 0.256382
0.000000 0.834226 0.245914
0.000000 0.833280 0.100893
0.261112 0.823758 0.022065
0.464668 0.809598 0.000000
0.649256 0.811856 0.000000
0.821775 0.813504 0.000000
0.948119 0.787228 0.000000
0.000000 0.924010 0.302617
0.000000 0.923095 0.301457
0.000000 0.922362 0.244633
0.194308 0.918578 0.168704
0.419623 0.909667 0.156191
0.586236 0.900420 0.133639
0.747646 0.896757 0.000000
0.897185 0.890379 0.000000
0.110903 0.111360 0.139132
0.133303 0.111971 0.136751
0.268650 0.073671 0.133028
0.441718 0.070283 0.114900
0.630610 0.086641 0.072145
0.794430 0.113588 0.000000
0.910063 0.140108 0.000000
0.986694 0.157321 0.000000
0.102876 0.136904 0.143282
0.135683 0.138857 0.141146
0.263951 0.140902 0.132326
0.437171 0.149325 0.112184
0.626123 0.163088 0.065583
0.791531 0.178470 0.000000
0.908476 0.189548 0.000000
0.985809 0.196201 0.000000
0.061402 0.251591 0.167086
0.114229 0.252232 0.150973
0.249516 0.253300 0.130800
0.421210 0.272160 0.104128
0.610101 0.291905 0.021576
0.781216 0.302525 0.000000
0.902617 0.300481 0.000000
0.982574 0.291417 0.000000
0.000000 0.401526 0.192294
0.000000 0.401526 0.170840
0.219669 0.392523 0.125338
0.400122 0.401251 0.100832
0.594415 0.427222 0.000000
0.761929 0.433173 0.000000
0.891691 0.425696 0.000000
0.976562 0.405554 0.000000
0.000000 0.558251 0.221073
0.000000 0.557519 0.201205
0.154360 0.550439 0.114717
0.363226 0.538201 0.101595
0.561669 0.557794 0.000000
0.753567 0.577295 0.000000
0.878202 0.556268 0.000000
0.967346 0.525811 0.000000
0.000000 0.712917 0.253605
0.000000 0.712184 0.238590
0.000000 0.708980 0.111391
0.323613 0.693904 0.100008
0.518395 0.691646 0.041260
0.712215 0.704433 0.000000
0.869291 0.697261 0.000000
0.959014 0.653925 0.000000
0.000000 0.836210 0.287541
0.000000 0.835416 0.279240
0.000000 0.833707 0.200137
0.260380 0.825345 0.136049
0.465187 0.811093 0.118166
0.649195 0.812253 0.043061
0.822110 0.813840 0.000000
0.947967 0.786801 0.000000
0.000000 0.924498 0.323308
0.000000 0.923613 0.321996
0.000000 0.921752 0.292180
0.199588 0.918914 0.209873
0.421515 0.909972 0.198428
0.586481 0.900328 0.181552
0.747799 0.896727 0.131197
0.897246 0.890379 0.000000
0.128511 0.111299 0.256046
0.159030 0.109895 0.250095
0.244541 0.104616 0.242802
0.425360 0.000000 0.260838
0.641199 0.000000 0.224002
0.804440 0.000000 0.203983
0.915770 0.000000 0.167453
0.990112 0.000000 0.094148
0.101198 0.135866 0.265751
0.155428 0.144900 0.260136
0.249332 0.143587 0.249058
0.434394 0.089143 0.257328
0.642359 0.000000 0.222843
0.801389 0.000000 0.203983
0.913970 0.079438 0.166567
0.989075 0.097993 0.093019
0.000000 0.256535 0.276310
0.103182 0.256779 0.273747
0.256046 0.259648 0.262547
0.433021 0.257877 0.248295
0.624414 0.260716 0.228214
0.790433 0.264286 0.201450
0.907713 0.263066 0.164920
0.985443 0.250584 0.088777
0.000000 0.418555 0.304753
0.000000 0.417609 0.297124
0.232090 0.410193 0.273533
0.407691 0.408301 0.250156
0.597772 0.419135 0.226383
0.770169 0.422004 0.198337
0.895995 0.410529 0.161074
0.978790 0.386358 0.082246
0.000000 0.573083 0.328252
0.000000 0.571923 0.320317
0.191012 0.566155 0.293980
0.364294 0.548302 0.250706
0.568658 0.564202 0.234806
0.755947 0.573602 0.193454
0.878752 0.549035 0.155306
0.968719 0.517540 0.072358
0.000000 0.722194 0.352636
0.000000 0.721187 0.346075
0.120394 0.716701 0.320439
0.322179 0.705470 0.253483
0.517632 0.695369 0.239994
0.715633 0.707546 0.218296
0.869902 0.695674 0.165927
0.958312 0.650080 0.077272
0.000000 0.840604 0.371862
0.000000 0.839658 0.367071
0.000000 0.835935 0.350347
0.261601 0.830655 0.271122
0.467994 0.815854 0.257542
0.649165 0.813199 0.240330
0.823209 0.814817 0.214084
0.946777 0.785763 0.149660
0.000000 0.926452 0.385107
0.000000 0.925658 0.382727
0.000000 0.921813 0.384466
0.225711 0.919890 0.314397
0.430335 0.910918 0.303166
0.588251 0.899870 0.288548
0.748745 0.896483 0.265660
0.897368 0.890379 0.222263
0.165377 0.106813 0.413916
0.198428 0.106630 0.408911
0.277012 0.109010 0.391730
0.397620 0.102083 0.385657
0.572778 0.094789 0.406897
0.789822 0.000000 0.399359
0.915312 0.000000 0.359350
0.987701 0.089693 0.348638
0.159640 0.156588 0.421180
0.196445 0.156374 0.416175
0.280613 0.156649 0.398627
0.400458 0.155825 0.389532
0.579889 0.149966 0.410040
0.791684 0.000000 0.397589
0.915465 0.000000 0.359594
0.986938 0.147707 0.345983
0.000000 0.246525 0.437446
0.123262 0.245884 0.435615
0.291173 0.276188 0.418372
0.407630 0.274296 0.400214
0.604791 0.261357 0.415015
0.795377 0.217411 0.389380
0.909911 0.266148 0.378637
0.983642 0.266087 0.341833
0.000000 0.413550 0.443366
0.000000 0.413703 0.441382
0.244511 0.414374 0.433417
0.414618 0.413519 0.414954
0.611200 0.415320 0.405463
0.779660 0.417273 0.393256
0.898222 0.413703 0.374823
0.976867 0.395361 0.340246
0.000000 0.598413 0.473030
0.000000 0.597375 0.469093
0.176394 0.590936 0.453651
0.390753 0.574578 0.423957
0.577661 0.571771 0.401190
0.754208 0.568627 0.385534
0.880491 0.551202 0.367285
0.966857 0.522667 0.336095
0.000000 0.738094 0.482002
0.000000 0.736965 0.478218
0.108400 0.732052 0.463752
0.363653 0.720729 0.438270
0.518181 0.700465 0.394049
0.720607 0.711666 0.389227
0.868406 0.693812 0.363409
0.954376 0.649683 0.331121
0.000000 0.848447 0.483833
0.000000 0.847440 0.480659
0.000000 0.843565 0.470436
0.345861 0.834684 0.457465
0.481239 0.823301 0.406104
0.650782 0.813779 0.392126
0.824979 0.815946 0.384771
0.943511 0.784726 0.349065
0.000000 0.929442 0.480049
0.000000 0.928618 0.478248
0.000000 0.925414 0.472694
0.348669 0.917205 0.482612
0.460731 0.911467 0.438636
0.601617 0.900420 0.419989
0.752529 0.895415 0.407446
0.897459 0.890105 0.386175
0.226139 0.120363 0.581353
0.254917 0.122927 0.576867
0.331151 0.130098 0.560571
0.417395 0.139925 0.530816
0.558953 0.135744 0.532586
0.720638 0.182345 0.548028
0.881895 0.124453 0.541741
0.975738 0.137118 0.503960
0.228428 0.180362 0.587091
0.257511 0.180789 0.582483
0.334295 0.181827 0.566155
0.421881 0.184176 0.536126
0.561059 0.182742 0.535332
0.721706 0.222538 0.549554
0.883452 0.178134 0.542351
0.975006 0.200656 0.507561
0.161868 0.263737 0.605859
0.231907 0.282139 0.600946
0.341527 0.298955 0.584283
0.435798 0.292271 0.553979
0.568048 0.291295 0.544427
0.730312 0.318334 0.556847
0.888334 0.296971 0.545556
0.971801 0.337011 0.523857
0.000000 0.409094 0.616419
0.096681 0.409186 0.615045
0.283299 0.409339 0.609552
0.455787 0.433783 0.583429
0.577478 0.425666 0.558587
0.753017 0.440375 0.569940
0.889952 0.452399 0.560113
0.964294 0.490608 0.559167
0.000000 0.581262 0.618647
0.000000 0.581445 0.617121
0.220615 0.581689 0.611383
0.413367 0.581323 0.598932
0.585534 0.576715 0.574884
0.758602 0.583154 0.572320
0.878325 0.584344 0.564813
0.957824 0.568231 0.540215
0.000000 0.756344 0.633387
0.000000 0.755520 0.630640
0.071687 0.752163 0.620508
0.371984 0.741604 0.602777
0.565270 0.719936 0.581323
0.726162 0.715267 0.562860
0.859159 0.698756 0.550591
0.945800 0.669612 0.527520
0.000000 0.859007 0.613581
0.000000 0.858000 0.611536
0.000000 0.853941 0.604425
0.354742 0.845151 0.593957
0.550713 0.828702 0.590814
0.661128 0.811856 0.549279
0.826932 0.816709 0.555261
0.935668 0.787778 0.526604
0.000000 0.933501 0.591608
0.000000 0.932586 0.590417
0.000000 0.929259 0.586755
0.335058 0.922240 0.584161
0.548547 0.907988 0.606043
0.639582 0.899626 0.571679
0.763607 0.892454 0.557794
0.897520 0.889220 0.552514
0.299260 0.174441 0.729274
0.322087 0.177127 0.726711
0.388037 0.183078 0.717250
0.474983 0.188174 0.699153
0.571099 0.187991 0.674983
0.717678 0.188602 0.678035
0.840665 0.287083 0.671656
0.940307 0.356329 0.663142
0.305608 0.225223 0.731960
0.327306 0.225864 0.729458
0.391485 0.227115 0.720241
0.477577 0.226932 0.702205
0.571710 0.223362 0.676722
0.718593 0.225345 0.679530
0.840513 0.314672 0.673121
0.940368 0.376867 0.665126
0.310491 0.330297 0.741329
0.338293 0.335973 0.738735
0.400793 0.333349 0.729763
0.486305 0.327581 0.712276
0.574914 0.317021 0.683253
0.721279 0.322911 0.684504
0.839658 0.398627 0.678767
0.940520 0.441199 0.672267
0.179965 0.394202 0.757443
0.232059 0.397314 0.756741
0.375830 0.433845 0.747341
0.507561 0.465492 0.728450
0.593591 0.447944 0.700649
0.724331 0.452155 0.692134
0.837278 0.516014 0.690822
0.941161 0.532525 0.684840
0.066438 0.554681 0.756802
0.165774 0.555901 0.756100
0.319463 0.561486 0.753231
0.484016 0.576959 0.746975
0.629572 0.604791 0.723995
0.726772 0.592065 0.701625
0.850797 0.623499 0.709194
0.939513 0.642969 0.706813
0.000000 0.711818 0.754971
0.000000 0.712398 0.754330
0.251041 0.714717 0.751492
0.439094 0.718715 0.745754
0.602533 0.722591 0.735409
0.731441 0.718441 0.714534
0.854185 0.728206 0.717983
0.931884 0.726833 0.711208
0.000000 0.866239 0.757961
0.000000 0.865537 0.756313
0.110658 0.862638 0.750210
0.385351 0.855650 0.739803
0.573846 0.841917 0.729458
0.717037 0.821469 0.718410
0.829282 0.817746 0.706172
0.920806 0.801785 0.696071
0.000000 0.938140 0.713863
0.000000 0.937255 0.712947
0.000000 0.933654 0.710048
0.363256 0.926085 0.707912
0.557397 0.913451 0.712490
0.708644 0.897337 0.724849
0.780850 0.887633 0.693568
0.897520 0.888334 0.700252
0.379614 0.263890 0.835111
0.395331 0.265843 0.833921
0.445258 0.271061 0.829374
0.518639 0.276127 0.820768
0.602960 0.277623 0.806729
0.706477 0.278019 0.794553
0.836301 0.301701 0.792233
0.916350 0.447089 0.772915
0.387762 0.299474 0.835996
0.402686 0.300298 0.834806
0.450324 0.303136 0.830381
0.522057 0.305486 0.821836
0.605188 0.304631 0.807919
0.706630 0.303105 0.795071
0.836057 0.326940 0.792782
0.915587 0.465156 0.774289
0.413031 0.393774 0.839170
0.426154 0.393622 0.837980
0.469368 0.393591 0.833677
0.535607 0.392157 0.825437
0.614221 0.386450 0.811795
0.707515 0.379461 0.796445
0.835203 0.404150 0.794369
0.912963 0.521538 0.779171
0.378576 0.454749 0.847166
0.410193 0.467964 0.845548
0.503471 0.511864 0.839414
0.570886 0.519554 0.830961
0.636805 0.508568 0.817960
0.710292 0.488960 0.798276
0.833127 0.513085 0.796902
0.909209 0.598718 0.786954
0.324743 0.544244 0.851438
0.357122 0.549737 0.850858
0.454170 0.570672 0.848753
0.579248 0.612970 0.842039
0.677302 0.643305 0.827115
0.730922 0.618372 0.807187
0.830777 0.625238 0.800656
0.904936 0.683192 0.797971
0.272160 0.669459 0.849393
0.309819 0.672053 0.848936
0.416144 0.682124 0.847196
0.548852 0.700862 0.843931
0.671992 0.723995 0.839261
0.765927 0.744137 0.823331
0.829526 0.730892 0.806485
0.910735 0.759182 0.812467
0.165408 0.800107 0.846281
0.222965 0.801083 0.845914
0.354314 0.804440 0.844541
0.502281 0.810391 0.841886
0.638697 0.817594 0.837766
0.750515 0.823239 0.831174
0.832242 0.820005 0.815976
0.913329 0.829099 0.820890
0.000000 0.937133 0.847379
0.000000 0.936248 0.846189
0.228611 0.932830 0.842161
0.430121 0.926055 0.835904
0.596216 0.916167 0.829282
0.727565 0.904356 0.824430
0.822324 0.890593 0.818479
0.897978 0.888487 0.810147
0.480629 0.388891 0.904509
0.490730 0.390692 0.903960
0.524590 0.396979 0.902007
0.578271 0.406012 0.898314
0.644862 0.415137 0.892638
0.717769 0.420722 0.884459
0.812985 0.436194 0.879484
0.912535 0.478279 0.873045
0.491341 0.414710 0.904356
0.500908 0.416114 0.903807
0.532921 0.421057 0.901884
0.584649 0.428534 0.898283
0.649134 0.436011 0.892638
0.720241 0.439704 0.884520
0.813352 0.453346 0.879332
0.911894 0.493599 0.873136
0.528008 0.492622 0.903807
0.536065 0.493568 0.903319
0.563348 0.496132 0.901457
0.608209 0.500008 0.898009
0.665339 0.502708 0.892576
0.729732 0.501061 0.884703
0.814603 0.508019 0.878752
0.909819 0.541253 0.873228
0.552270 0.566583 0.904997
0.573877 0.580407 0.903777
0.617914 0.602716 0.900786
0.650996 0.601862 0.897642
0.694972 0.598474 0.892668
0.746944 0.589746 0.885283
0.816709 0.583948 0.877989
0.906767 0.608118 0.873686
0.511315 0.594842 0.910185
0.528649 0.602533 0.909392
0.591913 0.634302 0.906065
0.674281 0.677882 0.900450
0.730739 0.694972 0.894285
0.769436 0.682887 0.887297
0.819089 0.664790 0.877501
0.903136 0.684016 0.874693
0.482155 0.670466 0.909575
0.502770 0.675624 0.909056
0.565118 0.692470 0.907439
0.648859 0.718227 0.904936
0.734463 0.750790 0.900877
0.799802 0.774624 0.891905
0.832395 0.754604 0.880949
0.899779 0.760159 0.876677
0.432227 0.758419 0.908293
0.455055 0.761135 0.907927
0.523613 0.770321 0.906615
0.616541 0.785458 0.904540
0.712795 0.804929 0.901884
0.796536 0.825223 0.899138
0.856229 0.839719 0.890715
0.897948 0.829252 0.880247
0.343999 0.859922 0.906188
0.372656 0.860807 0.905913
0.456153 0.864195 0.904936
0.566705 0.869902 0.903288
0.677638 0.877226 0.901213
0.772457 0.884794 0.898924
0.845853 0.890959 0.896117
0.899657 0.890379 0.887205
