其他预设/【233】日式怀旧街道调色预设208款/1.3D LUT预设（视频调色-PR-AE-PS-FCPX-达芬奇用）/3.日式城市街拍预设 (自动曝光预设)/JA – Chrome 2 (Auto-Exposure).cube
# Created by Adobe Lightroom plugin Export LUT (1.17.0)
# www.johnrellis.com/lightroom/exportlut.htm
# Preset: JA – Chrome 2 (Auto-Exposure)
# Color profile: /Library/Application Support/Adobe/Color/Profiles/Recommended/AdobeRGB1998.icc
LUT_3D_SIZE 8
DOMAIN_MIN 0.000000 0.000000 0.000000
DOMAIN_MAX 0.903226 0.903226 0.903226
0.109712 0.106752 0.111879
0.142184 0.108980 0.110933
0.216709 0.117891 0.107301
0.448127 0.160922 0.076600
0.669764 0.215122 0.000000
0.810330 0.254429 0.000000
0.914397 0.285679 0.000000
0.988067 0.307927 0.000000
0.112795 0.138064 0.114015
0.144167 0.138003 0.112886
0.224063 0.150332 0.107820
0.462318 0.212680 0.069032
0.676020 0.261906 0.000000
0.813626 0.291325 0.000000
0.915953 0.314214 0.000000
0.988525 0.330724 0.000000
0.119417 0.204959 0.118135
0.150637 0.204746 0.117189
0.238163 0.223972 0.109651
0.491524 0.337438 0.000000
0.696834 0.389685 0.000000
0.824643 0.396612 0.000000
0.921019 0.400153 0.000000
0.989990 0.400427 0.000000
0.105257 0.391394 0.083955
0.172885 0.391211 0.080446
0.303532 0.390448 0.065309
0.495369 0.460517 0.000000
0.697963 0.511894 0.000000
0.839445 0.537774 0.000000
0.928740 0.522026 0.000000
0.992035 0.502312 0.000000
0.041840 0.576776 0.000000
0.168399 0.575219 0.000000
0.326482 0.569940 0.000000
0.485756 0.576196 0.000000
0.674281 0.628443 0.000000
0.826413 0.637293 0.000000
0.928405 0.637354 0.000000
0.993469 0.623529 0.000000
0.000000 0.703578 0.000000
0.149172 0.702266 0.000000
0.313573 0.697658 0.000000
0.470100 0.689601 0.000000
0.627161 0.708827 0.000000
0.797360 0.747524 0.000000
0.916838 0.734188 0.000000
0.986053 0.714290 0.000000
0.000000 0.813230 0.000000
0.140810 0.812284 0.000000
0.300420 0.808865 0.000000
0.453010 0.802731 0.000000
0.600763 0.794064 0.000000
0.744442 0.816800 0.000000
0.886717 0.837095 0.000000
0.975708 0.806332 0.000000
0.135317 0.908141 0.000000
0.192020 0.907439 0.000000
0.312169 0.904997 0.000000
0.446418 0.900603 0.000000
0.583093 0.894255 0.000000
0.716060 0.889860 0.000000
0.836149 0.898009 0.000000
0.948272 0.901762 0.058808
0.109834 0.108248 0.139010
0.140505 0.104463 0.140658
0.209262 0.109010 0.135164
0.435828 0.116365 0.123262
0.663203 0.169589 0.072999
0.806973 0.221378 0.000000
0.913085 0.261387 0.000000
0.987793 0.290013 0.000000
0.113283 0.135134 0.141146
0.140322 0.136263 0.142031
0.216190 0.143038 0.139345
0.449836 0.178805 0.117922
0.669551 0.226780 0.060212
0.810330 0.263493 0.000000
0.914641 0.293309 0.000000
0.988281 0.314427 0.000000
0.112428 0.204868 0.144289
0.141665 0.206882 0.141451
0.233249 0.220279 0.134676
0.488808 0.327367 0.086915
0.690791 0.368292 0.000000
0.821653 0.378271 0.000000
0.919829 0.385260 0.000000
0.989746 0.388373 0.000000
0.000000 0.394873 0.123110
0.125826 0.398322 0.110231
0.293004 0.396704 0.097658
0.491798 0.457527 0.000000
0.697078 0.506340 0.000000
0.839078 0.531487 0.000000
0.927611 0.512535 0.000000
0.991699 0.494514 0.000000
0.000000 0.580682 0.000000
0.088319 0.580255 0.000000
0.306065 0.574334 0.000000
0.478553 0.575189 0.000000
0.672816 0.627161 0.000000
0.826230 0.634699 0.000000
0.928222 0.635340 0.000000
0.992706 0.619776 0.000000
0.000000 0.706325 0.000000
0.061280 0.705257 0.000000
0.291997 0.700465 0.000000
0.460792 0.692134 0.000000
0.622980 0.708125 0.000000
0.796658 0.747005 0.000000
0.916350 0.733608 0.000000
0.985138 0.715114 0.000000
0.000000 0.814817 0.000000
0.080690 0.813779 0.000000
0.282750 0.810300 0.000000
0.443824 0.804013 0.000000
0.595880 0.795132 0.000000
0.742458 0.816312 0.000000
0.886046 0.836881 0.000000
0.974395 0.807126 0.028717
0.125460 0.908293 0.041566
0.185061 0.907622 0.014923
0.307713 0.905211 0.000000
0.442969 0.900816 0.000000
0.580285 0.894469 0.000000
0.714473 0.889372 0.000000
0.835721 0.897642 0.000000
0.947539 0.901610 0.165896
0.110201 0.109712 0.194034
0.139559 0.104128 0.203738
0.213809 0.100069 0.208774
0.409125 0.000000 0.252964
0.643397 0.000000 0.193057
0.791775 0.000000 0.183352
0.907134 0.156741 0.154818
0.985687 0.224369 0.113985
0.122835 0.140383 0.191348
0.138888 0.135225 0.200809
0.216007 0.126497 0.211490
0.420691 0.000000 0.241550
0.646296 0.000000 0.189425
0.797147 0.123781 0.181064
0.908629 0.212253 0.156771
0.986053 0.259098 0.116609
0.114839 0.199435 0.206149
0.136385 0.202548 0.209140
0.220096 0.212528 0.218143
0.463020 0.241093 0.209628
0.670802 0.279820 0.194858
0.809567 0.312932 0.181949
0.913573 0.339910 0.166384
0.986999 0.354925 0.133303
0.000000 0.395758 0.266697
0.000000 0.402014 0.255741
0.208286 0.419196 0.196323
0.480964 0.449195 0.173312
0.693996 0.488777 0.182254
0.826780 0.498360 0.197208
0.920317 0.492470 0.196902
0.987457 0.482063 0.176974
0.000000 0.582635 0.252140
0.000000 0.585443 0.230289
0.200320 0.589929 0.170077
0.450690 0.576501 0.145113
0.666896 0.622858 0.133883
0.822660 0.630213 0.184360
0.923156 0.641413 0.244968
0.985443 0.623590 0.253147
0.000000 0.709407 0.198154
0.000000 0.710689 0.170260
0.210208 0.709682 0.161837
0.429175 0.700313 0.136446
0.609766 0.704799 0.114199
0.792599 0.744839 0.153750
0.911406 0.736080 0.237095
0.978027 0.727871 0.298955
0.000000 0.818326 0.130800
0.000000 0.818479 0.101381
0.243015 0.813901 0.181369
0.422126 0.807523 0.158297
0.582330 0.798276 0.116121
0.737179 0.813779 0.152071
0.882902 0.835874 0.228611
0.968292 0.812222 0.310185
0.000000 0.912352 0.119142
0.000000 0.910979 0.150759
0.317235 0.904723 0.248203
0.444465 0.900603 0.232425
0.577234 0.894591 0.206668
0.711177 0.887053 0.169314
0.835447 0.896025 0.255283
0.944976 0.900999 0.320867
0.108034 0.102144 0.342657
0.160433 0.089723 0.359380
0.314336 0.000000 0.410285
0.445869 0.000000 0.404547
0.614435 0.000000 0.413275
0.773678 0.000000 0.367468
0.889891 0.000000 0.337102
0.963409 0.334417 0.401312
0.071839 0.134188 0.340032
0.134401 0.126314 0.355505
0.297887 0.025605 0.407904
0.449531 0.000000 0.407721
0.619715 0.000000 0.408515
0.775570 0.000000 0.363867
0.888762 0.103182 0.349767
0.964843 0.350927 0.399725
0.084565 0.230106 0.314855
0.113161 0.229404 0.321141
0.213260 0.201419 0.385626
0.457923 0.155673 0.415290
0.633631 0.159731 0.395789
0.777584 0.249516 0.377478
0.884337 0.385748 0.413031
0.968963 0.412055 0.398962
0.000000 0.380163 0.374365
0.000000 0.385321 0.378943
0.187167 0.403052 0.393683
0.454963 0.432898 0.417243
0.652369 0.463294 0.422614
0.790921 0.492561 0.428962
0.895567 0.516899 0.432502
0.969177 0.527581 0.425422
0.000000 0.584833 0.418585
0.000000 0.587427 0.413489
0.115694 0.593652 0.394629
0.437476 0.593622 0.394049
0.652308 0.614160 0.395331
0.807401 0.643671 0.439643
0.904936 0.661067 0.465126
0.968444 0.651820 0.462562
0.000000 0.710903 0.380957
0.000000 0.711940 0.373968
0.121096 0.713588 0.358129
0.431861 0.709010 0.380591
0.600061 0.696284 0.356664
0.783871 0.740444 0.398718
0.899962 0.748074 0.452186
0.965454 0.754879 0.489876
0.000000 0.818662 0.343999
0.000000 0.818631 0.339452
0.160555 0.817227 0.334936
0.437995 0.809598 0.377447
0.582513 0.801114 0.356603
0.733150 0.807187 0.363226
0.877501 0.833951 0.419257
0.958862 0.821592 0.475166
0.000000 0.911589 0.326848
0.000000 0.910887 0.327764
0.238376 0.907988 0.336278
0.469123 0.898711 0.397101
0.586511 0.893400 0.381079
0.710445 0.886290 0.358343
0.835386 0.892912 0.401251
0.941253 0.900114 0.454505
0.115908 0.076265 0.507286
0.178653 0.038422 0.516472
0.323583 0.000000 0.547021
0.518822 0.000000 0.586786
0.647730 0.000000 0.569024
0.757900 0.000000 0.534691
0.872740 0.000000 0.502159
0.958556 0.214786 0.490059
0.000000 0.118502 0.504723
0.138491 0.104555 0.513512
0.302647 0.000000 0.543359
0.508019 0.000000 0.584985
0.648493 0.000000 0.569787
0.757778 0.000000 0.533867
0.872343 0.000000 0.504997
0.957092 0.275792 0.497108
0.000000 0.247959 0.484993
0.000000 0.233188 0.497475
0.213931 0.187411 0.529015
0.467842 0.116609 0.576776
0.648768 0.064942 0.571069
0.753780 0.189364 0.536339
0.869932 0.310063 0.520500
0.952697 0.409522 0.519493
0.000000 0.378637 0.476539
0.000000 0.378607 0.479561
0.222110 0.385626 0.489387
0.440497 0.413611 0.544091
0.640742 0.429023 0.567926
0.755459 0.452888 0.549126
0.868009 0.496925 0.545281
0.942962 0.574060 0.571557
0.000000 0.544152 0.518395
0.000000 0.546868 0.520745
0.200473 0.556451 0.528496
0.453376 0.573602 0.542077
0.631891 0.600977 0.564569
0.772946 0.628138 0.575128
0.878172 0.652247 0.584222
0.950530 0.665858 0.585718
0.000000 0.711269 0.539940
0.000000 0.712520 0.539971
0.171023 0.713008 0.536797
0.433570 0.710872 0.535637
0.609125 0.710475 0.538689
0.772488 0.734096 0.551171
0.888396 0.762692 0.599237
0.952026 0.774990 0.621302
0.000000 0.818601 0.502770
0.000000 0.818265 0.501671
0.203189 0.816098 0.501274
0.420966 0.811948 0.504570
0.592828 0.806119 0.518303
0.722591 0.795590 0.496345
0.870909 0.831571 0.553979
0.948791 0.832883 0.606989
0.000000 0.910216 0.476936
0.000000 0.909361 0.477668
0.264195 0.906340 0.481880
0.428199 0.901732 0.486915
0.596216 0.892912 0.516014
0.708919 0.886473 0.497658
0.831724 0.888487 0.513390
0.936522 0.899138 0.570794
0.123934 0.009796 0.627863
0.181765 0.000000 0.633539
0.311955 0.000000 0.653132
0.479103 0.000000 0.686397
0.660853 0.000000 0.711086
0.782650 0.000000 0.691066
0.868437 0.000000 0.643336
0.946502 0.082826 0.615503
0.017975 0.096162 0.625483
0.142458 0.077668 0.631067
0.292241 0.000000 0.650629
0.467140 0.000000 0.684108
0.658412 0.000000 0.711666
0.782437 0.000000 0.691157
0.867155 0.000000 0.644129
0.945342 0.196506 0.618372
0.000000 0.202274 0.614221
0.000000 0.195682 0.620050
0.215000 0.175692 0.639887
0.427863 0.115724 0.674067
0.650874 0.000000 0.710933
0.779477 0.115053 0.690364
0.861387 0.252934 0.649256
0.941711 0.361303 0.628046
0.000000 0.380987 0.573144
0.023224 0.382177 0.581079
0.264530 0.393988 0.608179
0.428077 0.396735 0.647852
0.636316 0.421576 0.693843
0.771145 0.435981 0.686854
0.852262 0.458381 0.657465
0.937224 0.509850 0.642786
0.000000 0.509239 0.593133
0.000000 0.510887 0.594385
0.271458 0.520409 0.598383
0.454597 0.544060 0.605249
0.612970 0.580316 0.658228
0.763119 0.599237 0.684108
0.850767 0.608881 0.666957
0.932769 0.644709 0.665431
0.000000 0.662318 0.627405
0.000000 0.663661 0.628534
0.270817 0.668635 0.632502
0.458534 0.678004 0.640345
0.611627 0.693996 0.654200
0.754269 0.722957 0.680659
0.863340 0.750179 0.696590
0.934630 0.767636 0.705409
0.000000 0.813077 0.648219
0.000000 0.812863 0.648829
0.252720 0.811887 0.651453
0.440650 0.810910 0.654322
0.589014 0.808286 0.648280
0.727993 0.806394 0.650599
0.861265 0.827665 0.675349
0.937835 0.847898 0.725124
0.000000 0.907988 0.622400
0.093111 0.907103 0.622583
0.291752 0.904204 0.622797
0.440955 0.899992 0.621485
0.575647 0.894865 0.619409
0.714412 0.887022 0.633387
0.821073 0.880369 0.614099
0.930083 0.897948 0.681971
0.118532 0.000000 0.741421
0.175570 0.000000 0.744778
0.297093 0.000000 0.756527
0.443610 0.000000 0.776730
0.609491 0.000000 0.801297
0.764858 0.000000 0.810605
0.882719 0.000000 0.794797
0.947295 0.000000 0.736324
0.009308 0.064485 0.739528
0.137636 0.011200 0.742947
0.278782 0.000000 0.754788
0.432319 0.000000 0.775174
0.602899 0.000000 0.800534
0.763821 0.000000 0.810758
0.881773 0.000000 0.794461
0.945678 0.000000 0.737606
0.000000 0.193851 0.731319
0.000000 0.188632 0.734829
0.214786 0.167544 0.747127
0.399817 0.110384 0.768399
0.584924 0.000000 0.796506
0.764126 0.082979 0.809628
0.877043 0.192081 0.792447
0.940246 0.299901 0.742153
0.124727 0.398901 0.705989
0.186831 0.401221 0.710414
0.260777 0.381720 0.726040
0.418433 0.384985 0.749325
0.592645 0.397192 0.779995
0.771115 0.437690 0.806027
0.869474 0.444587 0.789303
0.932494 0.470771 0.748531
0.173281 0.515312 0.678584
0.220432 0.517632 0.678614
0.334966 0.527489 0.679286
0.470222 0.550317 0.709895
0.594537 0.561334 0.751583
0.759304 0.595453 0.792813
0.861601 0.601556 0.786679
0.923217 0.608637 0.756435
0.159487 0.634028 0.704616
0.213870 0.635309 0.704738
0.334813 0.640162 0.705257
0.463050 0.648066 0.706355
0.588403 0.660731 0.708705
0.731441 0.700008 0.759213
0.853605 0.725460 0.784237
0.917418 0.730526 0.767300
0.134127 0.767025 0.732418
0.199954 0.767422 0.732784
0.329564 0.769100 0.733913
0.461830 0.772427 0.736538
0.594110 0.778744 0.741848
0.724880 0.791318 0.753353
0.845121 0.818845 0.780819
0.922484 0.841855 0.797604
0.000000 0.900938 0.752499
0.153658 0.900328 0.752560
0.307927 0.898405 0.752895
0.450050 0.895750 0.753689
0.586603 0.892760 0.756130
0.708919 0.887633 0.749386
0.821134 0.882811 0.751125
0.921813 0.896269 0.781857
0.000000 0.000000 0.846708
0.135286 0.000000 0.848478
0.276524 0.000000 0.854490
0.410010 0.000000 0.863584
0.553826 0.000000 0.876066
0.708919 0.000000 0.887602
0.840421 0.000000 0.887846
0.952728 0.000000 0.877134
0.000000 0.016175 0.846891
0.122194 0.000000 0.848386
0.259983 0.000000 0.853635
0.399878 0.000000 0.862821
0.547173 0.000000 0.875456
0.705196 0.000000 0.887327
0.839994 0.000000 0.887633
0.951537 0.000000 0.876616
0.000000 0.206882 0.842527
0.000000 0.201053 0.844053
0.220188 0.177249 0.849577
0.376257 0.114229 0.859190
0.530602 0.000000 0.872435
0.697505 0.000000 0.885161
0.841001 0.000000 0.885679
0.946715 0.194308 0.874388
0.230594 0.420752 0.828733
0.235660 0.411109 0.830930
0.303136 0.398108 0.837369
0.422187 0.390661 0.847776
0.556207 0.376959 0.861997
0.705013 0.368017 0.877806
0.845212 0.423529 0.881651
0.939422 0.435340 0.871305
0.358831 0.569970 0.804654
0.376135 0.570550 0.806607
0.430518 0.572442 0.813596
0.491615 0.561364 0.827451
0.585626 0.554162 0.845304
0.714809 0.562097 0.865080
0.850401 0.599634 0.878050
0.930938 0.598016 0.868009
0.368566 0.661128 0.804318
0.386145 0.661982 0.803983
0.439673 0.664576 0.802670
0.515221 0.668055 0.800137
0.610864 0.676356 0.815274
0.715206 0.685389 0.844297
0.845304 0.721492 0.869932
0.922454 0.726192 0.865385
0.352514 0.756527 0.821561
0.371313 0.756893 0.821378
0.427863 0.757992 0.820706
0.509239 0.759762 0.819455
0.604211 0.762722 0.817441
0.704250 0.768246 0.814359
0.823575 0.798062 0.846647
0.915740 0.822263 0.864286
0.322637 0.862882 0.838254
0.343938 0.862913 0.838224
0.407660 0.863127 0.838132
0.498634 0.863645 0.837980
0.602197 0.864652 0.838041
0.709743 0.866697 0.838804
0.814603 0.871763 0.842527
0.909606 0.890837 0.862608
