其他预设/【233】日式怀旧街道调色预设208款/1.3D LUT预设（视频调色-PR-AE-PS-FCPX-达芬奇用）/3.日式城市街拍预设 (自动曝光预设)/JA – Warm Bright 1 (Auto-Exposure).cube
# Created by Adobe Lightroom plugin Export LUT (1.17.0)
# www.johnrellis.com/lightroom/exportlut.htm
# Preset: JA – Warm Bright 1 (Auto-Exposure)
# Color profile: /Library/Application Support/Adobe/Color/Profiles/Recommended/AdobeRGB1998.icc
LUT_3D_SIZE 32
0.112276 0.101625 0.094667
0.116579 0.101595 0.094545
0.122408 0.101198 0.094362
0.135622 0.100374 0.094209
0.153719 0.098878 0.093812
0.177005 0.096834 0.093050
0.206455 0.093446 0.091463
0.240696 0.089021 0.089479
0.279576 0.082887 0.086213
0.321630 0.074403 0.082094
0.367041 0.062867 0.076295
0.413672 0.038148 0.067964
0.460975 0.003998 0.055451
0.507744 0.000000 0.026184
0.552453 0.000000 0.000000
0.594354 0.000000 0.000000
0.633661 0.000000 0.000000
0.670710 0.000000 0.000000
0.705531 0.000000 0.000000
0.738705 0.000000 0.000000
0.770657 0.000000 0.000000
0.801968 0.000000 0.000000
0.832761 0.000000 0.000000
0.862730 0.000000 0.000000
0.891661 0.000000 0.000000
0.919127 0.000000 0.000000
0.944793 0.000000 0.000000
0.968231 0.000000 0.000000
0.989258 0.000000 0.000000
1.000000 0.000000 0.000000
1.000000 0.000000 0.000000
1.000000 0.000000 0.000000
0.111971 0.105989 0.094301
0.116304 0.105928 0.094148
0.122652 0.105226 0.093996
0.135927 0.104158 0.093599
0.154330 0.102907 0.092897
0.177981 0.101076 0.092073
0.207309 0.098634 0.090425
0.241733 0.094911 0.088319
0.280400 0.089906 0.085267
0.322484 0.083467 0.080964
0.367651 0.074586 0.074983
0.414496 0.062593 0.066773
0.461616 0.041077 0.052003
0.508293 0.010254 0.021241
0.552972 0.000000 0.000000
0.594812 0.000000 0.000000
0.633967 0.000000 0.000000
0.671015 0.000000 0.000000
0.705776 0.000000 0.000000
0.738857 0.000000 0.000000
0.770901 0.000000 0.000000
0.802152 0.000000 0.000000
0.832914 0.000000 0.000000
0.862882 0.000000 0.000000
0.891783 0.000000 0.000000
0.919219 0.000000 0.000000
0.944854 0.000000 0.000000
0.968292 0.000000 0.000000
0.989288 0.000000 0.000000
1.000000 0.000000 0.000000
1.000000 0.000000 0.000000
1.000000 0.000000 0.000000
0.111910 0.111940 0.093965
0.116518 0.112093 0.093538
0.122591 0.111696 0.093385
0.135866 0.110506 0.092988
0.154391 0.108583 0.092348
0.178286 0.107271 0.091188
0.208194 0.105043 0.089479
0.242741 0.102754 0.086915
0.281468 0.099184 0.083680
0.323674 0.094148 0.079164
0.368811 0.087709 0.072847
0.415564 0.080201 0.064118
0.462654 0.070558 0.047364
0.509239 0.060243 0.013672
0.553613 0.040650 0.000000
0.595422 0.012482 0.000000
0.634577 0.000000 0.000000
0.671443 0.000000 0.000000
0.706172 0.000000 0.000000
0.739254 0.000000 0.000000
0.771206 0.000000 0.000000
0.802426 0.000000 0.000000
0.833127 0.000000 0.000000
0.863096 0.000000 0.000000
0.891966 0.000000 0.000000
0.919371 0.000000 0.000000
0.944915 0.000000 0.000000
0.968383 0.000000 0.000000
0.989380 0.000000 0.000000
1.000000 0.000000 0.000000
1.000000 0.000000 0.000000
1.000000 0.000000 0.000000
0.111238 0.124788 0.093141
0.116152 0.124880 0.092714
0.122744 0.124666 0.091951
0.135561 0.124086 0.091524
0.154299 0.122194 0.090883
0.178347 0.119753 0.089845
0.208255 0.119295 0.087922
0.243351 0.118196 0.085176
0.282536 0.116518 0.081300
0.325170 0.114107 0.075959
0.370794 0.110933 0.068513
0.417731 0.106996 0.058656
0.464637 0.102632 0.031922
0.510887 0.098207 0.000000
0.555169 0.092287 0.000000
0.596796 0.085939 0.000000
0.635676 0.078737 0.000000
0.672450 0.068940 0.000000
0.706935 0.058656 0.000000
0.739925 0.028931 0.000000
0.771817 0.000000 0.000000
0.802976 0.000000 0.000000
0.833616 0.000000 0.000000
0.863554 0.000000 0.000000
0.892302 0.000000 0.000000
0.919646 0.000000 0.000000
0.945159 0.000000 0.000000
0.968536 0.000000 0.000000
0.989471 0.000000 0.000000
1.000000 0.000000 0.000000
1.000000 0.000000 0.000000
1.000000 0.000000 0.000000
0.110201 0.142458 0.091737
0.115389 0.142489 0.091279
0.122225 0.142641 0.090455
0.135775 0.142214 0.089418
0.154208 0.141543 0.088380
0.178103 0.141146 0.087068
0.208499 0.139956 0.085176
0.243656 0.139010 0.082277
0.283024 0.139681 0.077852
0.325811 0.140139 0.071778
0.371313 0.139834 0.063294
0.418494 0.138827 0.046204
0.465766 0.137911 0.014008
0.512322 0.135439 0.000000
0.556817 0.132479 0.000000
0.598444 0.128695 0.000000
0.637324 0.124514 0.000000
0.673823 0.119509 0.000000
0.708309 0.112612 0.000000
0.741054 0.105837 0.000000
0.772732 0.096864 0.000000
0.803799 0.084230 0.000000
0.834348 0.067262 0.000000
0.864195 0.022461 0.000000
0.892851 0.000000 0.000000
0.920104 0.000000 0.000000
0.945525 0.000000 0.000000
0.968811 0.000000 0.000000
0.989624 0.000000 0.000000
1.000000 0.000000 0.000000
1.000000 0.000000 0.000000
1.000000 0.000000 0.000000
0.108583 0.165713 0.089815
0.114137 0.165896 0.089082
0.121553 0.165957 0.088197
0.136294 0.166171 0.086976
0.156649 0.165896 0.084871
0.179629 0.165530 0.082948
0.208927 0.166751 0.080568
0.244297 0.167483 0.077089
0.283604 0.166995 0.072541
0.326574 0.168002 0.065644
0.372015 0.170260 0.053010
0.419257 0.171908 0.025299
0.466560 0.172793 0.000000
0.512993 0.172427 0.000000
0.557305 0.171115 0.000000
0.598993 0.168917 0.000000
0.637934 0.165499 0.000000
0.674525 0.161776 0.000000
0.709285 0.156893 0.000000
0.742184 0.151247 0.000000
0.774014 0.144442 0.000000
0.804990 0.136172 0.000000
0.835386 0.126589 0.000000
0.865049 0.114382 0.000000
0.893614 0.098604 0.000000
0.920684 0.076448 0.000000
0.946014 0.019318 0.000000
0.969146 0.000000 0.000000
0.989837 0.000000 0.000000
1.000000 0.000000 0.000000
1.000000 0.000000 0.000000
1.000000 0.000000 0.000000
0.106111 0.194614 0.086030
0.112551 0.194797 0.085481
0.120729 0.194888 0.084871
0.137026 0.195285 0.083131
0.159487 0.196078 0.080537
0.184665 0.195743 0.077943
0.211704 0.195499 0.074464
0.245151 0.198520 0.069398
0.284916 0.200961 0.063142
0.327825 0.202640 0.051667
0.373205 0.202609 0.029541
0.420233 0.204868 0.000000
0.467292 0.207401 0.000000
0.513695 0.208652 0.000000
0.558099 0.208408 0.000000
0.599451 0.207248 0.000000
0.638361 0.204715 0.000000
0.674983 0.201328 0.000000
0.709590 0.197330 0.000000
0.742519 0.192325 0.000000
0.774350 0.186648 0.000000
0.805570 0.180026 0.000000
0.836271 0.172396 0.000000
0.866148 0.162936 0.000000
0.894530 0.152316 0.000000
0.921447 0.138582 0.000000
0.946593 0.121981 0.000000
0.969574 0.099977 0.000000
0.990112 0.065156 0.000000
1.000000 0.000000 0.000000
1.000000 0.000000 0.000000
1.000000 0.000000 0.000000
0.101869 0.228244 0.081117
0.109651 0.228611 0.080110
0.119081 0.228641 0.079408
0.137758 0.229252 0.077668
0.161929 0.230014 0.074678
0.189639 0.230716 0.070954
0.218906 0.230808 0.066926
0.249546 0.231113 0.061769
0.286320 0.235264 0.048463
0.329747 0.238804 0.025910
0.375250 0.241459 0.000000
0.422004 0.242100 0.000000
0.468666 0.240879 0.000000
0.514855 0.243565 0.000000
0.558923 0.244663 0.000000
0.600214 0.244175 0.000000
0.639002 0.242313 0.000000
0.675502 0.239414 0.000000
0.709987 0.235874 0.000000
0.742855 0.231205 0.000000
0.774685 0.226261 0.000000
0.805875 0.220432 0.000000
0.836576 0.213870 0.000000
0.866392 0.205905 0.000000
0.895018 0.196719 0.000000
0.922179 0.185855 0.000000
0.947265 0.173281 0.000000
0.970062 0.158022 0.000000
0.990417 0.139284 0.000000
1.000000 0.114961 0.000000
1.000000 0.080385 0.000000
1.000000 0.000000 0.000000
0.096773 0.266239 0.073030
0.105562 0.266361 0.072297
0.116762 0.266758 0.071290
0.136782 0.267369 0.069612
0.163577 0.268193 0.065888
0.194003 0.269413 0.060853
0.225589 0.270054 0.052247
0.258244 0.270573 0.038087
0.292058 0.271092 0.019928
0.331456 0.275517 0.000000
0.377783 0.280735 0.000000
0.424567 0.282994 0.000000
0.471290 0.283391 0.000000
0.516777 0.281621 0.000000
0.560082 0.279149 0.000000
0.601129 0.279240 0.000000
0.639734 0.278111 0.000000
0.676204 0.276219 0.000000
0.710506 0.273381 0.000000
0.743282 0.269200 0.000000
0.775082 0.264378 0.000000
0.806241 0.258732 0.000000
0.836912 0.252567 0.000000
0.866636 0.245945 0.000000
0.895232 0.237797 0.000000
0.922240 0.228275 0.000000
0.947417 0.217472 0.000000
0.970336 0.204532 0.000000
0.990753 0.189212 0.000000
1.000000 0.171481 0.000000
1.000000 0.149844 0.000000
1.000000 0.123201 0.000000
0.088930 0.307744 0.059236
0.099062 0.307958 0.058686
0.111360 0.308141 0.056580
0.134646 0.308782 0.051667
0.164462 0.309667 0.042054
0.196902 0.310918 0.029389
0.231724 0.312261 0.011963
0.266117 0.313024 0.000000
0.301854 0.313909 0.000000
0.338415 0.314794 0.000000
0.379217 0.318853 0.000000
0.427375 0.324743 0.000000
0.473945 0.326360 0.000000
0.519219 0.325628 0.000000
0.562249 0.322271 0.000000
0.602533 0.316777 0.000000
0.640711 0.313268 0.000000
0.676997 0.311254 0.000000
0.711208 0.308568 0.000000
0.743801 0.305394 0.000000
0.775540 0.301396 0.000000
0.806638 0.296391 0.000000
0.837308 0.290440 0.000000
0.866972 0.284001 0.000000
0.895476 0.276524 0.000000
0.922393 0.268040 0.000000
0.947448 0.257939 0.000000
0.970275 0.246525 0.000000
0.990570 0.233066 0.000000
1.000000 0.217533 0.000000
1.000000 0.199161 0.000000
1.000000 0.178927 0.000000
0.074067 0.351568 0.013886
0.087007 0.351873 0.012268
0.103120 0.352026 0.009186
0.130556 0.352667 0.002075
0.163058 0.353429 0.000000
0.198489 0.354711 0.000000
0.235294 0.356237 0.000000
0.272465 0.357580 0.000000
0.309941 0.358373 0.000000
0.347936 0.359533 0.000000
0.386603 0.360815 0.000000
0.428107 0.363867 0.000000
0.477028 0.369909 0.000000
0.522118 0.369818 0.000000
0.564782 0.367315 0.000000
0.604700 0.362249 0.000000
0.642359 0.355230 0.000000
0.677943 0.347448 0.000000
0.711879 0.343816 0.000000
0.744411 0.340398 0.000000
0.776059 0.336950 0.000000
0.807126 0.332830 0.000000
0.837705 0.327337 0.000000
0.867308 0.321141 0.000000
0.895720 0.314092 0.000000
0.922515 0.306096 0.000000
0.947448 0.296757 0.000000
0.970184 0.285893 0.000000
0.990356 0.273503 0.000000
1.000000 0.259220 0.000000
1.000000 0.243015 0.000000
1.000000 0.225010 0.000000
0.040894 0.396765 0.000000
0.069886 0.397009 0.000000
0.089570 0.397314 0.000000
0.122652 0.397772 0.000000
0.159670 0.398474 0.000000
0.197543 0.399573 0.000000
0.237095 0.400946 0.000000
0.276951 0.402564 0.000000
0.315831 0.403754 0.000000
0.355230 0.404700 0.000000
0.395087 0.406043 0.000000
0.435279 0.407263 0.000000
0.476814 0.409308 0.000000
0.525078 0.414893 0.000000
0.567346 0.412238 0.000000
0.606989 0.407324 0.000000
0.644495 0.400793 0.000000
0.679866 0.393164 0.000000
0.713039 0.384009 0.000000
0.745174 0.375555 0.000000
0.776761 0.371649 0.000000
0.807706 0.368231 0.000000
0.838132 0.363684 0.000000
0.867704 0.357641 0.000000
0.895995 0.350805 0.000000
0.922698 0.343023 0.000000
0.947478 0.333867 0.000000
0.970062 0.323613 0.000000
0.990112 0.311650 0.000000
1.000000 0.298283 0.000000
1.000000 0.283238 0.000000
1.000000 0.266636 0.000000
0.000000 0.441810 0.000000
0.021210 0.441932 0.000000
0.071443 0.442390 0.000000
0.111910 0.442634 0.000000
0.153872 0.443488 0.000000
0.195193 0.444312 0.000000
0.236118 0.445655 0.000000
0.277928 0.446967 0.000000
0.319493 0.448432 0.000000
0.359716 0.449409 0.000000
0.400336 0.450446 0.000000
0.441138 0.451392 0.000000
0.482277 0.452705 0.000000
0.523827 0.453925 0.000000
0.570123 0.457923 0.000000
0.609461 0.453040 0.000000
0.646693 0.446265 0.000000
0.681819 0.438514 0.000000
0.714778 0.429328 0.000000
0.746670 0.419867 0.000000
0.777707 0.410040 0.000000
0.808377 0.402777 0.000000
0.838682 0.399084 0.000000
0.868132 0.393561 0.000000
0.896300 0.386877 0.000000
0.922850 0.379034 0.000000
0.947539 0.370275 0.000000
0.969940 0.360174 0.000000
0.989807 0.348516 0.000000
1.000000 0.335485 0.000000
1.000000 0.321080 0.000000
1.000000 0.305241 0.000000
0.000000 0.485786 0.000000
0.000000 0.486000 0.000000
0.021057 0.486091 0.000000
0.097658 0.486519 0.000000
0.145327 0.486976 0.000000
0.190158 0.487861 0.000000
0.233494 0.488838 0.000000
0.276432 0.489937 0.000000
0.319524 0.491188 0.000000
0.361456 0.492348 0.000000
0.402564 0.493080 0.000000
0.443854 0.493965 0.000000
0.485176 0.494759 0.000000
0.526543 0.495644 0.000000
0.567956 0.496468 0.000000
0.612116 0.499031 0.000000
0.648920 0.492012 0.000000
0.683894 0.483833 0.000000
0.716640 0.474464 0.000000
0.748257 0.464851 0.000000
0.779171 0.454902 0.000000
0.809628 0.445045 0.000000
0.839384 0.435065 0.000000
0.868589 0.429328 0.000000
0.896635 0.422583 0.000000
0.923003 0.414801 0.000000
0.947509 0.405982 0.000000
0.969787 0.395911 0.000000
0.989502 0.384405 0.000000
1.000000 0.371496 0.000000
1.000000 0.357458 0.000000
1.000000 0.342016 0.000000
0.000000 0.527306 0.000000
0.000000 0.527520 0.000000
0.000000 0.527581 0.000000
0.076204 0.527916 0.000000
0.133944 0.528283 0.000000
0.182895 0.528954 0.000000
0.228275 0.529717 0.000000
0.272862 0.530571 0.000000
0.316564 0.531518 0.000000
0.360052 0.532708 0.000000
0.401892 0.533288 0.000000
0.443366 0.533837 0.000000
0.484871 0.534417 0.000000
0.526207 0.535210 0.000000
0.567620 0.535790 0.000000
0.608881 0.536400 0.000000
0.651301 0.538170 0.000000
0.685939 0.529503 0.000000
0.718532 0.519615 0.000000
0.749996 0.509575 0.000000
0.780789 0.499580 0.000000
0.811124 0.489693 0.000000
0.840696 0.479683 0.000000
0.869413 0.469245 0.000000
0.896971 0.457893 0.000000
0.923186 0.450172 0.000000
0.947509 0.441291 0.000000
0.969574 0.431159 0.000000
0.989136 0.419593 0.000000
1.000000 0.406806 0.000000
1.000000 0.392737 0.000000
1.000000 0.377539 0.000000
0.000000 0.566339 0.000000
0.000000 0.566461 0.000000
0.000000 0.566522 0.000000
0.026246 0.566766 0.000000
0.119326 0.567102 0.000000
0.174228 0.567498 0.000000
0.221775 0.568078 0.000000
0.267308 0.568750 0.000000
0.312108 0.569574 0.000000
0.355779 0.570428 0.000000
0.399207 0.571191 0.000000
0.440833 0.571771 0.000000
0.482094 0.572045 0.000000
0.523522 0.572564 0.000000
0.564721 0.573053 0.000000
0.605829 0.573602 0.000000
0.646754 0.573968 0.000000
0.687068 0.574304 0.000000
0.720363 0.565118 0.000000
0.751766 0.554620 0.000000
0.782406 0.544213 0.000000
0.812558 0.534081 0.000000
0.842039 0.523644 0.000000
0.870512 0.513298 0.000000
0.897704 0.502312 0.000000
0.923461 0.488167 0.000000
0.947448 0.476265 0.000000
0.969329 0.466011 0.000000
0.988708 0.454353 0.000000
1.000000 0.441352 0.000000
1.000000 0.427222 0.000000
1.000000 0.412177 0.000000
0.000000 0.603021 0.000000
0.000000 0.603052 0.000000
0.000000 0.603143 0.000000
0.000000 0.603357 0.000000
0.102480 0.603632 0.000000
0.162264 0.603998 0.000000
0.213718 0.604486 0.000000
0.260410 0.605005 0.000000
0.305760 0.605615 0.000000
0.349889 0.606256 0.000000
0.394018 0.607050 0.000000
0.436530 0.607630 0.000000
0.477882 0.608026 0.000000
0.519066 0.608240 0.000000
0.560143 0.608484 0.000000
0.600855 0.608789 0.000000
0.641382 0.609033 0.000000
0.681758 0.609308 0.000000
0.720577 0.608484 0.000000
0.753445 0.599939 0.000000
0.784024 0.589136 0.000000
0.814023 0.578485 0.000000
0.843320 0.567803 0.000000
0.871519 0.557000 0.000000
0.898466 0.545678 0.000000
0.923888 0.532555 0.000000
0.947478 0.517296 0.000000
0.969024 0.500450 0.000000
0.988190 0.488594 0.000000
1.000000 0.475441 0.000000
1.000000 0.461158 0.000000
1.000000 0.445960 0.000000
0.000000 0.637873 0.000000
0.000000 0.637903 0.000000
0.000000 0.637964 0.000000
0.000000 0.638087 0.000000
0.079377 0.638331 0.000000
0.150088 0.638605 0.000000
0.203677 0.638941 0.000000
0.252079 0.639429 0.000000
0.298344 0.639826 0.000000
0.343297 0.640375 0.000000
0.387152 0.640955 0.000000
0.430426 0.641505 0.000000
0.472267 0.641779 0.000000
0.513176 0.642023 0.000000
0.554040 0.642206 0.000000
0.594568 0.642390 0.000000
0.634913 0.642603 0.000000
0.674983 0.642725 0.000000
0.714687 0.642939 0.000000
0.752773 0.641779 0.000000
0.785672 0.634180 0.000000
0.815518 0.622919 0.000000
0.844602 0.611810 0.000000
0.872587 0.600519 0.000000
0.899199 0.588739 0.000000
0.924254 0.576287 0.000000
0.947478 0.560967 0.000000
0.968688 0.544121 0.000000
0.987610 0.525750 0.000000
1.000000 0.509087 0.000000
1.000000 0.494606 0.000000
1.000000 0.479255 0.000000
0.000000 0.671199 0.000000
0.000000 0.671229 0.000000
0.000000 0.671290 0.000000
0.000000 0.671351 0.000000
0.027893 0.671595 0.000000
0.135622 0.671809 0.000000
0.193179 0.672114 0.000000
0.243198 0.672389 0.000000
0.290471 0.672816 0.000000
0.335515 0.673213 0.000000
0.379919 0.673610 0.000000
0.423163 0.674098 0.000000
0.465919 0.674525 0.000000
0.506737 0.674708 0.000000
0.547387 0.674891 0.000000
0.587762 0.675013 0.000000
0.627863 0.675135 0.000000
0.667659 0.675380 0.000000
0.707301 0.675471 0.000000
0.746639 0.675654 0.000000
0.784207 0.674586 0.000000
0.817014 0.667781 0.000000
0.845853 0.656001 0.000000
0.873594 0.644068 0.000000
0.899870 0.631769 0.000000
0.924559 0.618982 0.000000
0.947448 0.603815 0.000000
0.968292 0.586938 0.000000
0.986816 0.568597 0.000000
1.000000 0.548638 0.000000
1.000000 0.527733 0.000000
1.000000 0.512139 0.000000
0.000000 0.703548 0.000000
0.000000 0.703517 0.000000
0.000000 0.703609 0.000000
0.000000 0.703731 0.000000
0.000000 0.703853 0.000000
0.118166 0.704036 0.000000
0.181582 0.704250 0.000000
0.233829 0.704494 0.000000
0.281712 0.704829 0.000000
0.327489 0.705196 0.000000
0.371923 0.705623 0.000000
0.415534 0.705989 0.000000
0.458381 0.706386 0.000000
0.499947 0.706813 0.000000
0.540612 0.706874 0.000000
0.580652 0.707057 0.000000
0.620691 0.707210 0.000000
0.660304 0.707424 0.000000
0.699702 0.707607 0.000000
0.738888 0.707790 0.000000
0.777737 0.707942 0.000000
0.814847 0.706783 0.000000
0.847013 0.700404 0.000000
0.874418 0.687770 0.000000
0.900420 0.674800 0.000000
0.924773 0.661189 0.000000
0.947265 0.646174 0.000000
0.967712 0.628992 0.000000
0.985931 0.610407 0.000000
1.000000 0.590478 0.000000
1.000000 0.569390 0.000000
1.000000 0.547326 0.000000
0.000000 0.735256 0.000000
0.000000 0.735256 0.000000
0.000000 0.735317 0.000000
0.000000 0.735409 0.000000
0.000000 0.735531 0.000000
0.097230 0.735683 0.000000
0.168673 0.735927 0.000000
0.223331 0.736172 0.000000
0.272526 0.736446 0.000000
0.319097 0.736751 0.000000
0.363622 0.737118 0.000000
0.407385 0.737484 0.000000
0.450324 0.737911 0.000000
0.492653 0.738308 0.000000
0.533562 0.738521 0.000000
0.573510 0.738674 0.000000
0.613306 0.738827 0.000000
0.652827 0.738979 0.000000
0.692073 0.739101 0.000000
0.730953 0.739193 0.000000
0.769436 0.739315 0.000000
0.807706 0.739315 0.000000
0.844114 0.738003 0.000000
0.875181 0.731594 0.000000
0.900877 0.717708 0.000000
0.924834 0.703395 0.000000
0.946929 0.688106 0.000000
0.967010 0.670558 0.000000
0.984894 0.651637 0.000000
1.000000 0.631495 0.000000
1.000000 0.610346 0.000000
1.000000 0.588281 0.000000
0.000000 0.766690 0.000000
0.000000 0.766720 0.000000
0.000000 0.766751 0.000000
0.000000 0.766812 0.000000
0.000000 0.766903 0.000000
0.067506 0.767086 0.000000
0.154116 0.767269 0.000000
0.212161 0.767453 0.000000
0.263096 0.767727 0.000000
0.310430 0.768002 0.000000
0.355138 0.768368 0.000000
0.399390 0.768612 0.000000
0.442481 0.769009 0.000000
0.484657 0.769284 0.000000
0.526299 0.769558 0.000000
0.566155 0.769650 0.000000
0.605707 0.769711 0.000000
0.644953 0.769772 0.000000
0.683894 0.769772 0.000000
0.722530 0.769711 0.000000
0.760739 0.769650 0.000000
0.798581 0.769497 0.000000
0.836088 0.769345 0.000000
0.871763 0.767880 0.000000
0.901152 0.760830 0.000000
0.924773 0.745571 0.000000
0.946471 0.729671 0.000000
0.966155 0.711757 0.000000
0.983703 0.692409 0.000000
0.999329 0.671931 0.000000
1.000000 0.650477 0.000000
1.000000 0.628351 0.000000
0.000000 0.797635 0.000000
0.000000 0.797665 0.000000
0.000000 0.797726 0.000000
0.000000 0.797726 0.000000
0.000000 0.797848 0.000000
0.000000 0.797971 0.000000
0.136751 0.798093 0.000000
0.199771 0.798245 0.000000
0.252720 0.798459 0.000000
0.300786 0.798611 0.000000
0.346624 0.798856 0.000000
0.390570 0.799069 0.000000
0.433692 0.799222 0.000000
0.476051 0.799405 0.000000
0.517754 0.799649 0.000000
0.558312 0.799680 0.000000
0.597650 0.799588 0.000000
0.636530 0.799466 0.000000
0.675166 0.799283 0.000000
0.713405 0.799069 0.000000
0.751278 0.798764 0.000000
0.788754 0.798398 0.000000
0.825711 0.797971 0.000000
0.862272 0.797452 0.000000
0.897246 0.795773 0.000000
0.924132 0.787015 0.000000
0.945830 0.770932 0.000000
0.965148 0.752499 0.000000
0.982330 0.732692 0.000000
0.997742 0.711788 0.000000
1.000000 0.690059 0.000000
1.000000 0.667659 0.000000
0.000000 0.827726 0.000000
0.000000 0.827756 0.000000
0.000000 0.827695 0.000000
0.000000 0.827787 0.000000
0.000000 0.827817 0.000000
0.000000 0.827878 0.000000
0.116182 0.827939 0.000000
0.186343 0.828031 0.000000
0.241489 0.828153 0.000000
0.290990 0.828214 0.000000
0.337224 0.828305 0.000000
0.381506 0.828397 0.000000
0.424689 0.828428 0.000000
0.466865 0.828489 0.000000
0.508476 0.828428 0.000000
0.549462 0.828367 0.000000
0.588800 0.828092 0.000000
0.627466 0.827787 0.000000
0.665736 0.827390 0.000000
0.703609 0.826902 0.000000
0.740963 0.826322 0.000000
0.777890 0.825681 0.000000
0.814420 0.824979 0.000000
0.850492 0.824094 0.000000
0.885954 0.823148 0.000000
0.920348 0.821530 0.000000
0.944396 0.810452 0.000000
0.963897 0.792996 0.000000
0.980804 0.772641 0.000000
0.995972 0.751278 0.000000
1.000000 0.729152 0.000000
1.000000 0.706447 0.000000
0.000000 0.856443 0.000000
0.000000 0.856443 0.000000
0.000000 0.856443 0.000000
0.000000 0.856443 0.000000
0.000000 0.856413 0.000000
0.000000 0.856443 0.000000
0.089815 0.856443 0.000000
0.171206 0.856443 0.000000
0.229160 0.856443 0.000000
0.280278 0.856413 0.000000
0.326970 0.856352 0.000000
0.371740 0.856260 0.000000
0.415045 0.856107 0.000000
0.457282 0.855924 0.000000
0.498543 0.855680 0.000000
0.539178 0.855406 0.000000
0.579187 0.854978 0.000000
0.617456 0.854398 0.000000
0.655268 0.853696 0.000000
0.692744 0.852964 0.000000
0.729641 0.852110 0.000000
0.766110 0.851102 0.000000
0.802060 0.850034 0.000000
0.837522 0.848814 0.000000
0.872435 0.847501 0.000000
0.906767 0.846067 0.000000
0.940490 0.844450 0.000000
0.961761 0.831113 0.000000
0.979065 0.812375 0.000000
0.994018 0.790372 0.000000
1.000000 0.767788 0.000000
1.000000 0.744778 0.000000
0.000000 0.883391 0.000000
0.000000 0.883391 0.000000
0.000000 0.883391 0.000000
0.000000 0.883360 0.000000
0.000000 0.883268 0.000000
0.000000 0.883238 0.000000
0.033234 0.883177 0.000000
0.153445 0.883055 0.000000
0.215763 0.882902 0.000000
0.268162 0.882719 0.000000
0.316075 0.882475 0.000000
0.360998 0.882231 0.000000
0.404486 0.881895 0.000000
0.446571 0.881498 0.000000
0.487648 0.881010 0.000000
0.528069 0.880461 0.000000
0.567895 0.879759 0.000000
0.606409 0.878965 0.000000
0.643793 0.877989 0.000000
0.680720 0.876921 0.000000
0.717159 0.875731 0.000000
0.753079 0.874388 0.000000
0.788449 0.872953 0.000000
0.823331 0.871366 0.000000
0.857603 0.869657 0.000000
0.891356 0.867765 0.000000
0.924468 0.865782 0.000000
0.956939 0.863645 0.000000
0.976501 0.849119 0.000000
0.991882 0.829252 0.000000
1.000000 0.806180 0.000000
1.000000 0.782773 0.000000
0.000000 0.908141 0.000000
0.000000 0.908110 0.000000
0.000000 0.908080 0.000000
0.000000 0.908049 0.000000
0.000000 0.907927 0.000000
0.000000 0.907805 0.000000
0.000000 0.907591 0.000000
0.133303 0.907408 0.000000
0.201175 0.907103 0.000000
0.255314 0.906767 0.000000
0.303899 0.906401 0.000000
0.349401 0.905913 0.000000
0.392737 0.905364 0.000000
0.434760 0.904723 0.000000
0.475715 0.903990 0.000000
0.515831 0.903136 0.000000
0.555230 0.902190 0.000000
0.593927 0.901122 0.000000
0.631189 0.899840 0.000000
0.667597 0.898436 0.000000
0.703334 0.896910 0.000000
0.738827 0.895232 0.000000
0.773556 0.893462 0.000000
0.807858 0.891508 0.000000
0.841611 0.889464 0.000000
0.874662 0.887266 0.000000
0.907164 0.884947 0.000000
0.938903 0.882567 0.000000
0.970336 0.880003 0.000000
0.989044 0.864927 0.000000
1.000000 0.844327 0.000000
1.000000 0.820401 0.000000
0.000000 0.930175 0.000000
0.000000 0.930144 0.000000
0.000000 0.930083 0.000000
0.000000 0.930022 0.000000
0.000000 0.929839 0.000000
0.000000 0.929656 0.000000
0.000000 0.929381 0.000000
0.105928 0.929046 0.000000
0.183902 0.928618 0.000000
0.240787 0.928130 0.000000
0.290684 0.927550 0.000000
0.336553 0.926909 0.000000
0.379980 0.926146 0.000000
0.421881 0.925292 0.000000
0.462654 0.924285 0.000000
