其他预设/【233】日式怀旧街道调色预设208款/1.3D LUT预设（视频调色-PR-AE-PS-FCPX-达芬奇用）/3.日式城市街拍预设 (自动曝光预设)/JA – Gritty Contrast 3 (Auto-Exposure).cube
# Created by Adobe Lightroom plugin Export LUT (1.17.0)
# www.johnrellis.com/lightroom/exportlut.htm
# Preset: JA – Gritty Contrast 3 (Auto-Exposure)
# Color profile: /Library/Application Support/Adobe/Color/Profiles/Recommended/AdobeRGB1998.icc
LUT_3D_SIZE 5
DOMAIN_MIN 0.000000 0.000000 0.000000
DOMAIN_MAX 0.903226 0.903226 0.903226
0.106477 0.112825 0.121218
0.189670 0.117372 0.125704
0.528466 0.111666 0.102235
0.694789 0.115999 0.084962
0.944152 0.187259 0.198093
0.111696 0.204013 0.125368
0.302708 0.265141 0.095155
0.629114 0.290013 0.000000
0.775814 0.250462 0.000000
0.989258 0.274205 0.175051
0.117708 0.544091 0.096559
0.338933 0.555657 0.000000
0.671229 0.549065 0.000000
0.988800 0.575738 0.000000
1.000000 0.478798 0.000000
0.344518 0.731350 0.312688
0.422065 0.748684 0.294591
0.667018 0.798581 0.181491
0.967285 0.802060 0.000000
1.000000 0.703731 0.000000
0.518029 0.970672 0.429328
0.564874 0.973236 0.422705
0.706630 0.977020 0.393713
0.893553 0.970825 0.282444
1.000000 0.895476 0.143252
0.100404 0.126436 0.187564
0.172030 0.121096 0.194308
0.458259 0.000000 0.191592
0.650721 0.104921 0.194614
0.930236 0.223514 0.254978
0.089937 0.192874 0.209262
0.232181 0.239048 0.249729
0.553704 0.232944 0.225711
0.711086 0.241459 0.223148
0.973297 0.302892 0.261051
0.105257 0.523644 0.310369
0.328771 0.540429 0.320165
0.645411 0.546044 0.265965
0.949035 0.573388 0.286412
1.000000 0.506126 0.262669
0.388251 0.711727 0.406134
0.453071 0.730861 0.404059
0.663691 0.787655 0.367346
0.952972 0.806363 0.309026
1.000000 0.733272 0.319097
0.512200 0.967010 0.470008
0.559503 0.970123 0.465492
0.703059 0.975158 0.446571
0.891264 0.969848 0.388128
1.000000 0.902281 0.339055
0.000000 0.185031 0.466102
0.194522 0.199496 0.475715
0.489784 0.211398 0.471107
0.619440 0.266545 0.418463
0.766903 0.260441 0.388800
0.000000 0.294530 0.470680
0.265965 0.327001 0.480323
0.510216 0.352026 0.479896
0.617823 0.333043 0.424048
0.764279 0.296605 0.384466
0.155764 0.479774 0.472694
0.335332 0.493996 0.480476
0.560510 0.533227 0.505211
0.721309 0.508904 0.479164
0.977752 0.504753 0.459510
0.390906 0.647852 0.502892
0.456306 0.664393 0.515648
0.599878 0.742031 0.522576
0.916564 0.803952 0.510063
1.000000 0.779141 0.557641
0.499031 0.945006 0.587366
0.539635 0.951781 0.584039
0.682704 0.966552 0.578180
0.875029 0.967956 0.556268
1.000000 0.915740 0.525719
0.186038 0.334874 0.600641
0.341955 0.385840 0.606683
0.511131 0.419776 0.617609
0.666102 0.419532 0.603662
0.886229 0.423804 0.636896
0.272404 0.400366 0.600763
0.372076 0.430182 0.607263
0.535729 0.470771 0.622919
0.678187 0.462440 0.611566
0.886870 0.440314 0.631373
0.343481 0.511498 0.603418
0.418524 0.527611 0.609186
0.558160 0.558984 0.636957
0.718013 0.557092 0.641688
0.883238 0.477363 0.597711
0.404639 0.639307 0.609857
0.453559 0.647272 0.615839
0.563134 0.675807 0.639551
0.793881 0.750301 0.703700
0.989441 0.685176 0.626001
0.471015 0.888518 0.712917
0.500359 0.898589 0.716487
0.620356 0.928466 0.726467
0.862516 0.953552 0.777768
0.995880 0.942809 0.804685
0.424750 0.536248 0.881132
0.455085 0.541283 0.883268
0.595209 0.561608 0.889891
0.753628 0.563775 0.897917
0.920623 0.524590 0.881712
0.423255 0.559228 0.880858
0.459632 0.563714 0.883696
0.602716 0.588128 0.892058
0.759243 0.592767 0.899687
0.923491 0.553246 0.884672
0.418830 0.627558 0.883085
0.446113 0.625757 0.884916
0.588403 0.643305 0.895109
0.779385 0.684077 0.903929
0.932280 0.650477 0.893248
0.432898 0.748959 0.889311
0.463386 0.748592 0.891051
0.568872 0.748287 0.896727
0.796414 0.795071 0.906798
0.945464 0.811582 0.905303
0.463905 0.896361 0.896574
0.493507 0.897795 0.897520
0.605188 0.903655 0.900511
0.799619 0.917296 0.906157
0.962860 0.946319 0.927977
