其他预设/【233】日式怀旧街道调色预设208款/1.3D LUT预设（视频调色-PR-AE-PS-FCPX-达芬奇用）/3.日式城市街拍预设 (自动曝光预设)/JA – Shaded Light 5 (Auto-Exposure).cube
# Created by Adobe Lightroom plugin Export LUT (1.17.0)
# www.johnrellis.com/lightroom/exportlut.htm
# Preset: JA – Shaded Light 5 (Auto-Exposure)
# Color profile: /Library/Application Support/Adobe/Color/Profiles/Recommended/AdobeRGB1998.icc
LUT_3D_SIZE 5
DOMAIN_MIN 0.000000 0.000000 0.000000
DOMAIN_MAX 0.903226 0.903226 0.903226
0.061799 0.074098 0.088899
0.139284 0.076295 0.088624
0.297826 0.085603 0.085145
0.632258 0.086854 0.000000
0.915465 0.024689 0.000000
0.023560 0.159030 0.099519
0.138796 0.163119 0.086244
0.328344 0.198154 0.076722
0.672694 0.253849 0.000000
0.923125 0.248081 0.000000
0.000000 0.361883 0.140261
0.100984 0.367864 0.072023
0.324407 0.373632 0.000000
0.720394 0.523980 0.000000
0.944213 0.509361 0.000000
0.000000 0.751522 0.204440
0.000000 0.754147 0.000000
0.382696 0.749020 0.000000
0.666041 0.740047 0.000000
0.918486 0.730037 0.000000
0.000000 0.946593 0.269718
0.000000 0.948486 0.095827
0.228305 0.944366 0.000000
0.590204 0.932250 0.000000
0.845701 0.921813 0.000000
0.059541 0.078126 0.188357
0.122988 0.085573 0.174044
0.281498 0.014069 0.195346
0.613916 0.000000 0.160678
0.911437 0.000000 0.122408
0.035370 0.158541 0.195438
0.140139 0.166537 0.198337
0.315862 0.163149 0.187594
0.656092 0.159915 0.161715
0.919463 0.141207 0.120424
0.000000 0.364050 0.259342
0.084871 0.373602 0.225895
0.330297 0.380194 0.180148
0.745205 0.520958 0.149233
0.941436 0.479896 0.124331
0.000000 0.754910 0.344518
0.000000 0.758663 0.266972
0.353094 0.754849 0.031617
0.668635 0.742489 0.000000
0.923827 0.725551 0.000000
0.000000 0.946624 0.369757
0.000000 0.946746 0.338659
0.182315 0.946197 0.119387
0.579187 0.934173 0.000000
0.846311 0.922087 0.000000
0.060761 0.082643 0.403601
0.147646 0.100801 0.368597
0.237247 0.125795 0.321874
0.425849 0.000305 0.386816
0.874784 0.000000 0.454200
0.000000 0.178683 0.455085
0.151736 0.177798 0.416083
0.258335 0.177218 0.347021
0.495888 0.003265 0.412573
0.892119 0.000000 0.405951
0.000000 0.397711 0.467323
0.085908 0.398932 0.465614
0.353796 0.399084 0.450507
0.710323 0.367437 0.411139
0.924529 0.341070 0.379614
0.000000 0.765042 0.591363
0.000000 0.767483 0.577966
0.336339 0.767788 0.507012
0.679438 0.748684 0.406531
0.925994 0.736965 0.520226
0.000000 0.943053 0.596307
0.000000 0.942199 0.591699
0.413581 0.936248 0.591058
0.567590 0.937011 0.417090
0.850278 0.921721 0.360296
0.186252 0.017853 0.752956
0.259892 0.011200 0.731228
0.359777 0.063752 0.631861
0.469703 0.000000 0.568414
0.745022 0.000000 0.665095
0.112001 0.175570 0.777401
0.232273 0.166415 0.758511
0.374609 0.146151 0.667872
0.493294 0.111940 0.590448
0.750179 0.000000 0.662501
0.000000 0.484291 0.838865
0.180148 0.480781 0.826963
0.425238 0.429389 0.770077
0.575586 0.340917 0.663752
0.820096 0.191440 0.665705
0.172274 0.757351 0.808438
0.323491 0.759823 0.807095
0.558465 0.765377 0.801236
0.721645 0.755703 0.780270
0.891020 0.722713 0.749447
0.526146 0.921233 0.832486
0.565881 0.920104 0.833524
0.653010 0.919219 0.832120
0.740597 0.920195 0.810300
0.874052 0.915709 0.754421
0.310674 0.178866 0.928344
0.359503 0.182986 0.924071
0.483284 0.189212 0.908080
0.625544 0.160250 0.878904
0.803281 0.000000 0.864622
0.315465 0.281102 0.932372
0.364446 0.282933 0.928069
0.487861 0.282231 0.911894
0.625849 0.246525 0.880583
0.805539 0.166720 0.865934
0.503166 0.604395 0.941558
0.506615 0.585595 0.938354
0.566735 0.555810 0.923095
0.651301 0.479316 0.890227
0.812863 0.406195 0.869108
0.632166 0.806027 0.952331
0.661555 0.812131 0.952178
0.731685 0.822873 0.951965
0.765286 0.777646 0.918669
0.827939 0.690700 0.873777
0.686152 0.916838 0.938964
0.704463 0.918059 0.939086
0.755825 0.921904 0.939727
0.824887 0.927398 0.940703
0.905730 0.919982 0.927977
