其他预设/【233】日式怀旧街道调色预设208款/1.3D LUT预设（视频调色-PR-AE-PS-FCPX-达芬奇用）/3.日式城市街拍预设 (自动曝光预设)/JA – Warm Bright 1 (Auto-Exposure).cube
# Created by Adobe Lightroom plugin Export LUT (1.17.0)
# www.johnrellis.com/lightroom/exportlut.htm
# Preset: JA – Warm Bright 1 (Auto-Exposure)
# Color profile: /Library/Application Support/Adobe/Color/Profiles/Recommended/AdobeRGB1998.icc
LUT_3D_SIZE 8
DOMAIN_MIN 0.000000 0.000000 0.000000
DOMAIN_MAX 0.903226 0.903226 0.903226
0.112276 0.101625 0.094667
0.153719 0.098878 0.093812
0.279576 0.082887 0.086213
0.460975 0.003998 0.055451
0.633661 0.000000 0.000000
0.770657 0.000000 0.000000
0.891661 0.000000 0.000000
0.989258 0.000000 0.000000
0.110201 0.142458 0.091737
0.154208 0.141543 0.088380
0.283024 0.139681 0.077852
0.465766 0.137911 0.014008
0.637324 0.124514 0.000000
0.772732 0.096864 0.000000
0.892851 0.000000 0.000000
0.989624 0.000000 0.000000
0.096773 0.266239 0.073030
0.163577 0.268193 0.065888
0.292058 0.271092 0.019928
0.471290 0.283391 0.000000
0.639734 0.278111 0.000000
0.775082 0.264378 0.000000
0.895232 0.237797 0.000000
0.990753 0.189212 0.000000
0.000000 0.441810 0.000000
0.153872 0.443488 0.000000
0.319493 0.448432 0.000000
0.482277 0.452705 0.000000
0.646693 0.446265 0.000000
0.777707 0.410040 0.000000
0.896300 0.386877 0.000000
0.989807 0.348516 0.000000
0.000000 0.603021 0.000000
0.102480 0.603632 0.000000
0.305760 0.605615 0.000000
0.477882 0.608026 0.000000
0.641382 0.609033 0.000000
0.784024 0.589136 0.000000
0.898466 0.545678 0.000000
0.988190 0.488594 0.000000
0.000000 0.735256 0.000000
0.000000 0.735531 0.000000
0.272526 0.736446 0.000000
0.450324 0.737911 0.000000
0.613306 0.738827 0.000000
0.769436 0.739315 0.000000
0.900877 0.717708 0.000000
0.984894 0.651637 0.000000
0.000000 0.856443 0.000000
0.000000 0.856413 0.000000
0.229160 0.856443 0.000000
0.415045 0.856107 0.000000
0.579187 0.854978 0.000000
0.729641 0.852110 0.000000
0.872435 0.847501 0.000000
0.979065 0.812375 0.000000
0.000000 0.949218 0.000000
0.000000 0.948791 0.000000
0.164279 0.947234 0.000000
0.366003 0.944213 0.000000
0.526390 0.939300 0.000000
0.672755 0.932219 0.000000
0.806760 0.923064 0.000000
0.930480 0.912230 0.000000
0.118074 0.106172 0.131350
0.154421 0.098726 0.131685
0.279088 0.068727 0.125399
0.462989 0.000000 0.101472
0.635309 0.000000 0.035035
0.771969 0.000000 0.000000
0.892882 0.000000 0.000000
0.989899 0.000000 0.000000
0.117159 0.139651 0.130922
0.155245 0.140780 0.131014
0.286107 0.131563 0.119722
0.468849 0.114168 0.091920
0.638636 0.091768 0.000000
0.773892 0.068299 0.000000
0.893980 0.013611 0.000000
0.990234 0.000000 0.000000
0.092653 0.264652 0.136233
0.142123 0.269902 0.115297
0.293645 0.272313 0.093782
0.475227 0.270634 0.045380
0.642817 0.263859 0.000000
0.777066 0.250309 0.000000
0.896391 0.235813 0.000000
0.991302 0.196414 0.000000
0.000000 0.441932 0.103761
0.097627 0.445869 0.042481
0.307012 0.450416 0.000000
0.483650 0.453742 0.000000
0.649165 0.439704 0.000000
0.779416 0.399237 0.000000
0.897581 0.381323 0.000000
0.990387 0.350652 0.000000
0.000000 0.603906 0.000000
0.000000 0.605097 0.000000
0.287755 0.606928 0.000000
0.472175 0.609033 0.000000
0.642115 0.609613 0.000000
0.785611 0.585351 0.000000
0.899657 0.539300 0.000000
0.988769 0.488960 0.000000
0.000000 0.735958 0.000000
0.000000 0.736233 0.000000
0.254520 0.737118 0.000000
0.442329 0.738521 0.000000
0.610346 0.739467 0.000000
0.769986 0.739651 0.000000
0.901915 0.715450 0.000000
0.985443 0.651179 0.000000
0.000000 0.856748 0.000000
0.000000 0.856779 0.000000
0.212314 0.856779 0.000000
0.406928 0.856535 0.000000
0.574762 0.855467 0.000000
0.727626 0.852537 0.000000
0.872679 0.847715 0.000000
0.979614 0.811460 0.000000
0.000000 0.949310 0.000000
0.000000 0.948913 0.000000
0.146700 0.947417 0.000000
0.358526 0.944488 0.000000
0.521172 0.939666 0.000000
0.669245 0.932616 0.000000
0.805447 0.923308 0.000000
0.931304 0.912200 0.000000
0.128237 0.112398 0.247501
0.173281 0.101472 0.249210
0.284276 0.050843 0.245823
0.451820 0.000000 0.248081
0.629358 0.000000 0.217350
0.769589 0.000000 0.186130
0.892851 0.000000 0.130800
0.991241 0.000000 0.000000
0.130922 0.161501 0.246799
0.166842 0.148959 0.250156
0.287663 0.115511 0.248600
0.458747 0.000000 0.242985
0.633814 0.000000 0.208255
0.771542 0.000000 0.181125
0.894072 0.000000 0.122011
0.991608 0.000000 0.000000
0.107301 0.261082 0.247776
0.157382 0.262882 0.249058
0.291569 0.265965 0.248844
0.477485 0.249485 0.228855
0.644312 0.227329 0.198337
0.778531 0.202396 0.157534
0.898222 0.169772 0.081209
0.992859 0.121340 0.000000
0.000000 0.433448 0.266545
0.072816 0.438209 0.259312
0.266423 0.450416 0.221775
0.484230 0.452735 0.179995
0.651240 0.414984 0.158602
0.782162 0.380011 0.121828
0.900786 0.352697 0.000000
0.992981 0.318059 0.000000
0.000000 0.597559 0.250187
0.000000 0.600275 0.238560
0.240452 0.607507 0.190280
0.457191 0.609918 0.158206
0.643030 0.609644 0.060456
0.788418 0.572015 0.000000
0.902220 0.517815 0.000000
0.991150 0.469947 0.000000
0.000000 0.731685 0.217960
0.000000 0.733181 0.206271
0.216709 0.737148 0.157137
0.424781 0.738888 0.115908
0.602960 0.740200 0.000000
0.770901 0.740108 0.000000
0.904326 0.707179 0.000000
0.987610 0.635920 0.000000
0.000000 0.853880 0.180240
0.000000 0.854490 0.170291
0.183810 0.856352 0.103944
0.392584 0.856535 0.000000
0.564843 0.855863 0.000000
0.722866 0.853239 0.000000
0.873320 0.848173 0.000000
0.981231 0.805051 0.000000
0.000000 0.947082 0.138308
0.000000 0.946929 0.125856
0.136599 0.946807 0.000000
0.349798 0.944274 0.000000
0.511345 0.940002 0.000000
0.661067 0.933379 0.000000
0.800626 0.924071 0.000000
0.932433 0.912230 0.000000
0.139712 0.118044 0.414710
0.193729 0.106142 0.415167
0.316625 0.000000 0.415473
0.459419 0.000000 0.405524
0.604395 0.000000 0.386389
0.752468 0.000000 0.362524
0.882414 0.000000 0.335821
0.982605 0.000000 0.322545
0.129854 0.172702 0.416999
0.185611 0.162997 0.417029
0.311070 0.115175 0.417456
0.462531 0.000000 0.408301
0.608484 0.000000 0.385779
0.754818 0.000000 0.362127
0.883452 0.000000 0.338262
0.983490 0.000000 0.316106
0.166140 0.305364 0.412604
0.215793 0.306432 0.413733
0.307317 0.279362 0.420203
0.470130 0.231083 0.413916
0.621210 0.222873 0.387335
0.761685 0.233219 0.368780
0.885832 0.249393 0.354162
0.985931 0.178256 0.295842
0.051423 0.429541 0.413031
0.145937 0.430915 0.414130
0.300175 0.435157 0.416297
0.476051 0.439887 0.416205
0.638025 0.425330 0.397620
0.772732 0.404883 0.371466
0.894438 0.372778 0.330022
0.989349 0.317937 0.259709
0.000000 0.585260 0.414160
0.000000 0.587610 0.412085
0.255467 0.594293 0.405005
0.453040 0.602075 0.392859
0.640711 0.604883 0.358587
0.781460 0.559716 0.340093
0.897704 0.517174 0.306218
0.989044 0.464759 0.225223
0.000000 0.722957 0.394354
0.000000 0.724239 0.391272
0.245762 0.727932 0.383673
0.432197 0.733211 0.370947
0.603845 0.736812 0.349004
0.770840 0.738643 0.297765
0.902647 0.696407 0.242252
0.986267 0.620050 0.168093
0.000000 0.847990 0.371710
0.000000 0.848478 0.368902
0.236759 0.849790 0.363745
0.409339 0.852110 0.346624
0.568872 0.852903 0.320378
0.722774 0.851957 0.273869
0.873838 0.847837 0.189944
0.980529 0.795285 0.000000
0.000000 0.943908 0.344549
0.000000 0.943542 0.343664
0.236210 0.941955 0.342870
0.383001 0.940551 0.318853
0.523796 0.937346 0.280735
0.662806 0.932036 0.210239
0.798245 0.923766 0.000000
0.932677 0.912108 0.000000
0.165927 0.144289 0.569085
0.213870 0.134707 0.568597
0.326818 0.081849 0.567071
0.464302 0.000000 0.563348
0.610132 0.000000 0.550744
0.733272 0.000000 0.516930
0.862150 0.000000 0.493751
0.971801 0.000000 0.471229
0.169863 0.199649 0.570489
0.214694 0.191409 0.570001
0.324315 0.154971 0.568475
0.462196 0.000000 0.564813
0.611780 0.000000 0.552117
0.734188 0.000000 0.516564
0.863371 0.000000 0.494575
0.971649 0.000000 0.473640
0.231998 0.339910 0.570397
0.262852 0.336004 0.571527
0.333349 0.304662 0.571344
0.460578 0.250675 0.568048
0.616510 0.198245 0.556237
0.736263 0.199374 0.517723
0.866728 0.222141 0.501305
0.970550 0.267155 0.484810
0.234379 0.456428 0.565972
0.275883 0.458595 0.566461
0.389837 0.468574 0.568078
0.488380 0.453010 0.570031
0.622644 0.412573 0.560723
0.744625 0.413062 0.531243
0.871763 0.423621 0.520165
0.967102 0.450111 0.514214
0.131411 0.576379 0.561364
0.195285 0.577325 0.562036
0.333471 0.580377 0.563348
0.487587 0.585412 0.565057
0.629511 0.591028 0.565759
0.762173 0.579004 0.549523
0.882689 0.558068 0.522484
0.974701 0.518364 0.475380
0.000000 0.709804 0.550225
0.000000 0.710231 0.549828
0.266941 0.713252 0.548699
0.448585 0.717891 0.549096
0.607477 0.726833 0.543816
0.767330 0.733516 0.517357
0.890410 0.691066 0.493629
0.974578 0.633509 0.449561
0.000000 0.838590 0.532280
0.000000 0.838987 0.531762
0.259861 0.840085 0.530083
0.434180 0.841733 0.529229
0.582971 0.845609 0.519310
0.728389 0.847440 0.500145
0.872862 0.846036 0.457099
0.972503 0.787411 0.394232
0.000000 0.938903 0.505547
0.000000 0.938506 0.504997
0.265782 0.936889 0.504753
0.425330 0.933959 0.505119
0.558434 0.931090 0.494728
0.680598 0.927245 0.466224
0.804318 0.920806 0.417884
0.932097 0.910704 0.336217
0.215946 0.197848 0.700710
0.249790 0.191470 0.700282
0.340368 0.162356 0.698787
0.458564 0.049744 0.695583
0.593042 0.000000 0.689754
0.733944 0.000000 0.677394
0.850950 0.000000 0.644373
0.956420 0.000000 0.613855
0.230655 0.245884 0.701259
0.260288 0.239780 0.700893
0.344457 0.214145 0.699489
0.458930 0.148501 0.696345
0.592462 0.000000 0.690547
0.734707 0.000000 0.678065
0.851102 0.000000 0.644373
0.956390 0.000000 0.614618
0.290318 0.368750 0.702754
0.309514 0.363622 0.702296
0.371557 0.344640 0.701076
0.468330 0.303532 0.698085
0.593194 0.219211 0.692592
0.737118 0.179904 0.680293
0.851164 0.183597 0.645197
0.956023 0.222538 0.618036
0.378393 0.507866 0.699092
0.396765 0.507927 0.699611
0.452064 0.506188 0.701015
0.509911 0.477089 0.700191
0.605066 0.424750 0.694911
0.740322 0.391913 0.683192
0.850309 0.383795 0.647730
0.954986 0.402564 0.626032
0.339971 0.594171 0.696407
0.368658 0.596277 0.696712
0.451972 0.603876 0.697688
0.561303 0.617762 0.699397
0.637201 0.601831 0.699428
0.745327 0.561089 0.688014
0.854978 0.552789 0.658625
0.951965 0.569207 0.646387
0.254673 0.701228 0.691066
0.291203 0.701808 0.691249
0.389746 0.703914 0.692103
0.509728 0.707637 0.693355
0.632013 0.713069 0.695277
0.754360 0.720150 0.697475
0.869078 0.708980 0.681422
0.953429 0.685573 0.652430
0.061982 0.828489 0.683589
0.157229 0.828367 0.683284
0.298009 0.827939 0.681971
0.439246 0.828122 0.679286
0.588312 0.831540 0.677272
0.733028 0.837949 0.675990
0.868620 0.842100 0.657404
0.954437 0.790433 0.627192
0.000000 0.931792 0.655879
0.147341 0.931395 0.655634
0.294774 0.929900 0.654200
0.436347 0.927398 0.651545
0.579614 0.923339 0.651575
0.711818 0.918761 0.654505
0.819089 0.915007 0.634485
0.929320 0.908080 0.591638
0.298405 0.283391 0.821805
0.318456 0.278874 0.821561
0.380133 0.259586 0.820829
0.471168 0.213260 0.819364
0.582483 0.078401 0.816556
0.711299 0.000000 0.811032
0.846799 0.000000 0.801053
0.948241 0.000000 0.760616
0.317937 0.322118 0.821622
0.335210 0.317327 0.821408
0.390661 0.298802 0.820798
0.476173 0.256748 0.819333
0.583825 0.163577 0.816617
0.711177 0.000000 0.811276
0.846952 0.000000 0.801175
0.947845 0.000000 0.760494
0.379614 0.427192 0.821042
0.391241 0.422950 0.820920
0.431006 0.407080 0.820371
0.498726 0.374121 0.819120
0.592248 0.312535 0.816709
0.711788 0.201114 0.811826
0.847288 0.171420 0.801541
0.946258 0.198642 0.760220
0.469978 0.556542 0.818814
0.481880 0.556481 0.819028
0.504662 0.543694 0.819760
0.546227 0.517540 0.818753
0.615290 0.473182 0.816526
0.715877 0.394385 0.812161
0.847501 0.372930 0.802029
0.943328 0.373877 0.759609
0.498878 0.647059 0.816159
0.515312 0.649958 0.816190
0.567987 0.660182 0.816556
0.615900 0.656886 0.817868
0.654994 0.624537 0.817472
0.727230 0.567864 0.812833
0.847990 0.533562 0.802976
0.938384 0.527092 0.759915
0.450935 0.718257 0.814359
0.468666 0.719631 0.814420
0.525170 0.724392 0.814694
0.605432 0.732326 0.815457
0.698024 0.745083 0.817044
0.760281 0.731044 0.816281
0.849607 0.688411 0.805447
0.932250 0.683772 0.770169
0.369665 0.812589 0.810361
0.390723 0.812894 0.810361
0.454505 0.814084 0.810452
0.544121 0.816220 0.810697
0.645960 0.819577 0.811246
0.755612 0.824613 0.812253
0.856748 0.831693 0.814817
0.929015 0.822263 0.801450
0.257877 0.923644 0.799771
0.286168 0.923186 0.799222
0.364721 0.921691 0.797269
0.467475 0.919036 0.793362
0.581262 0.915068 0.787564
0.718135 0.909911 0.786313
0.841337 0.905486 0.798825
0.923735 0.904845 0.786862
0.433448 0.416022 0.905150
0.441932 0.412207 0.905180
0.471382 0.397925 0.905333
0.521874 0.367071 0.905608
0.592920 0.308293 0.905974
0.685389 0.180697 0.906188
0.803220 0.000000 0.904112
0.929839 0.000000 0.898711
0.450935 0.443000 0.904356
0.458473 0.439460 0.904417
0.484749 0.425147 0.904601
0.531182 0.395514 0.904967
0.598108 0.340215 0.905425
0.687160 0.229404 0.905791
0.803311 0.000000 0.903868
0.929564 0.000000 0.898466
0.501915 0.519890 0.901915
0.507134 0.516411 0.902007
0.526268 0.503777 0.902312
0.562066 0.478096 0.902800
0.616999 0.432197 0.903471
0.694972 0.349218 0.904173
0.803952 0.242527 0.902892
0.928557 0.215183 0.897520
0.583337 0.626703 0.897795
0.581415 0.620386 0.898161
0.589899 0.607996 0.898680
0.612238 0.587060 0.899351
0.649989 0.550103 0.900267
0.710445 0.487190 0.901274
0.805447 0.397864 0.901091
0.926726 0.377752 0.895842
0.632258 0.708705 0.893553
0.637781 0.708797 0.893675
0.656031 0.708309 0.894041
0.682918 0.703456 0.894926
0.696132 0.670375 0.896361
0.735500 0.623621 0.897520
0.808377 0.541711 0.898528
0.923888 0.526482 0.893187
0.626001 0.759548 0.892302
0.635554 0.761349 0.892180
0.667201 0.767697 0.891722
0.717281 0.779202 0.891020
0.760678 0.783261 0.891478
0.782345 0.758114 0.892973
0.823575 0.702510 0.893675
0.919921 0.671290 0.889525
0.581109 0.812131 0.891997
0.591241 0.812955 0.891905
0.624598 0.815854 0.891569
0.678828 0.821439 0.891020
0.748318 0.831083 0.890257
0.822599 0.846372 0.889586
0.862028 0.841428 0.889738
0.915343 0.808042 0.885618
0.506554 0.886503 0.890471
0.518029 0.886656 0.890379
0.555749 0.887266 0.890105
0.616785 0.888396 0.889616
0.695247 0.890196 0.888914
0.781277 0.892760 0.888029
0.860075 0.896025 0.887572
0.916777 0.900206 0.888884
