其他预设/【233】日式怀旧街道调色预设208款/1.3D LUT预设（视频调色-PR-AE-PS-FCPX-达芬奇用）/3.日式城市街拍预设 (自动曝光预设)/JA – Cine Night 5 (Auto-Exposure).cube
# Created by Adobe Lightroom plugin Export LUT (1.17.0)
# www.johnrellis.com/lightroom/exportlut.htm
# Preset: JA – Cine Night 5 (Auto-Exposure)
# Color profile: /Library/Application Support/Adobe/Color/Profiles/Recommended/AdobeRGB1998.icc
LUT_3D_SIZE 32
0.000000 0.030060 0.060395
0.000000 0.031800 0.060731
0.004730 0.034272 0.061463
0.017792 0.039033 0.062898
0.037537 0.048066 0.065370
0.060090 0.058473 0.067018
0.076722 0.064302 0.068879
0.101503 0.069123 0.070680
0.138705 0.070344 0.071290
0.191073 0.064973 0.070893
0.260075 0.018982 0.068910
0.342870 0.000000 0.062379
0.434943 0.000000 0.043336
0.530602 0.000000 0.001373
0.623804 0.000000 0.000000
0.709560 0.000000 0.000000
0.782864 0.000000 0.000000
0.843961 0.000000 0.000000
0.893675 0.000000 0.000000
0.934966 0.000000 0.000000
0.968811 0.000000 0.000000
0.996551 0.000000 0.000000
1.000000 0.000000 0.000000
1.000000 0.000000 0.000000
1.000000 0.000000 0.000000
1.000000 0.000000 0.000000
1.000000 0.000000 0.000000
1.000000 0.000000 0.000000
1.000000 0.000000 0.000000
1.000000 0.000000 0.000000
1.000000 0.000000 0.097902
1.000000 0.000000 0.150912
0.000000 0.038453 0.063172
0.000000 0.041413 0.062593
0.005188 0.043671 0.060273
0.019501 0.047150 0.059571
0.039460 0.054231 0.061646
0.061250 0.061738 0.064363
0.077577 0.068086 0.065827
0.102632 0.072511 0.068025
0.140261 0.074098 0.068605
0.193210 0.068849 0.068482
0.262272 0.032868 0.066255
0.345312 0.000000 0.059632
0.437537 0.000000 0.035645
0.533135 0.000000 0.000000
0.625940 0.000000 0.000000
0.711299 0.000000 0.000000
0.784237 0.000000 0.000000
0.845029 0.000000 0.000000
0.894469 0.000000 0.000000
0.935546 0.000000 0.000000
0.969238 0.000000 0.000000
0.996857 0.000000 0.000000
1.000000 0.000000 0.000000
1.000000 0.000000 0.000000
1.000000 0.000000 0.000000
1.000000 0.000000 0.000000
1.000000 0.000000 0.000000
1.000000 0.000000 0.000000
1.000000 0.000000 0.000000
1.000000 0.000000 0.000000
1.000000 0.000000 0.094270
1.000000 0.000000 0.148074
0.000000 0.049409 0.067292
0.000000 0.051789 0.067201
0.000000 0.054566 0.064668
0.016480 0.058778 0.060822
0.040131 0.061982 0.058534
0.062470 0.066682 0.059571
0.079225 0.071962 0.062043
0.104372 0.076722 0.063966
0.142275 0.078950 0.065705
0.195773 0.074647 0.065400
0.265385 0.050538 0.062318
0.348669 0.000000 0.052827
0.440803 0.000000 0.025574
0.536278 0.000000 0.000000
0.628717 0.000000 0.000000
0.713680 0.000000 0.000000
0.786191 0.000000 0.000000
0.846403 0.000000 0.000000
0.895628 0.000000 0.000000
0.936339 0.000000 0.000000
0.969818 0.000000 0.000000
0.997253 0.000000 0.000000
1.000000 0.000000 0.000000
1.000000 0.000000 0.000000
1.000000 0.000000 0.000000
1.000000 0.000000 0.000000
1.000000 0.000000 0.000000
1.000000 0.000000 0.000000
1.000000 0.000000 0.000000
1.000000 0.000000 0.000000
1.000000 0.000000 0.088563
1.000000 0.000000 0.144442
0.000000 0.064118 0.075776
0.000000 0.064881 0.076387
0.000000 0.065431 0.075959
0.005127 0.068605 0.069917
0.031037 0.072206 0.062959
0.060700 0.076387 0.059541
0.080751 0.081300 0.053315
0.108370 0.086152 0.052430
0.147219 0.089296 0.056092
0.201938 0.086854 0.055451
0.272221 0.072724 0.049195
0.356146 0.000000 0.032227
0.448310 0.000000 0.000488
0.543206 0.000000 0.000000
0.634974 0.000000 0.000000
0.718807 0.000000 0.000000
0.790188 0.000000 0.000000
0.849546 0.000000 0.000000
0.897887 0.000000 0.000000
0.938018 0.000000 0.000000
0.971069 0.000000 0.000000
0.998108 0.000000 0.000000
1.000000 0.000000 0.000000
1.000000 0.000000 0.000000
1.000000 0.000000 0.000000
1.000000 0.000000 0.000000
1.000000 0.000000 0.000000
1.000000 0.000000 0.000000
1.000000 0.000000 0.000000
1.000000 0.000000 0.000000
1.000000 0.000000 0.074617
1.000000 0.000000 0.135714
0.000000 0.074250 0.086091
0.000000 0.075044 0.086336
0.000000 0.075898 0.086824
0.000000 0.076905 0.084657
0.012268 0.081086 0.076570
0.050324 0.087343 0.066896
0.076326 0.093538 0.063111
0.106569 0.099947 0.058076
0.150576 0.104585 0.046632
0.210666 0.105562 0.028779
0.283268 0.098054 0.013092
0.367803 0.073823 0.000000
0.459998 0.000000 0.000000
0.553918 0.000000 0.000000
0.644526 0.000000 0.000000
0.726528 0.000000 0.000000
0.796323 0.000000 0.000000
0.854154 0.000000 0.000000
0.901457 0.000000 0.000000
0.940642 0.000000 0.000000
0.972900 0.000000 0.000000
0.999481 0.000000 0.000000
1.000000 0.000000 0.000000
1.000000 0.000000 0.000000
1.000000 0.000000 0.000000
1.000000 0.000000 0.000000
1.000000 0.000000 0.000000
1.000000 0.000000 0.000000
1.000000 0.000000 0.000000
1.000000 0.000000 0.000000
1.000000 0.000000 0.031769
1.000000 0.000000 0.120851
0.000000 0.084749 0.096559
0.000000 0.085084 0.096559
0.000000 0.085847 0.096712
0.000000 0.087739 0.093935
0.000000 0.089021 0.091615
0.023590 0.095125 0.082856
0.065980 0.105837 0.072297
0.098482 0.115053 0.067323
0.146792 0.123323 0.060639
0.208408 0.127687 0.047639
0.286290 0.126558 0.016175
0.377295 0.114931 0.000000
0.470192 0.088106 0.000000
0.564080 0.000000 0.000000
0.654108 0.000000 0.000000
0.734646 0.000000 0.000000
0.802976 0.000000 0.000000
0.859648 0.000000 0.000000
0.905852 0.000000 0.000000
0.943999 0.000000 0.000000
0.975372 0.000000 0.000000
1.000000 0.000000 0.000000
1.000000 0.000000 0.000000
1.000000 0.000000 0.000000
1.000000 0.000000 0.000000
1.000000 0.000000 0.000000
1.000000 0.000000 0.000000
1.000000 0.000000 0.000000
1.000000 0.000000 0.000000
1.000000 0.000000 0.000000
1.000000 0.000000 0.000000
1.000000 0.000000 0.097444
0.000000 0.096956 0.108736
0.000000 0.097230 0.108736
0.000000 0.098238 0.108186
0.000000 0.100404 0.106661
0.000000 0.101778 0.102296
0.000855 0.104982 0.098268
0.040101 0.113649 0.089021
0.083223 0.128878 0.077882
0.131716 0.141970 0.070985
0.202365 0.153628 0.061189
0.283696 0.158877 0.036011
0.375555 0.156985 0.000000
0.474189 0.146365 0.000000
0.573175 0.125643 0.000000
0.663813 0.093599 0.000000
0.742458 0.012207 0.000000
0.809171 0.000000 0.000000
0.864408 0.000000 0.000000
0.909453 0.000000 0.000000
0.946868 0.000000 0.000000
0.977752 0.000000 0.000000
1.000000 0.000000 0.000000
1.000000 0.000000 0.000000
1.000000 0.000000 0.000000
1.000000 0.000000 0.000000
1.000000 0.000000 0.000000
1.000000 0.000000 0.000000
1.000000 0.000000 0.000000
1.000000 0.000000 0.000000
1.000000 0.000000 0.000000
1.000000 0.000000 0.000000
1.000000 0.000000 0.050324
0.000000 0.112398 0.123201
0.000000 0.112612 0.123201
0.000000 0.113649 0.122713
0.000000 0.116213 0.120760
0.000000 0.119020 0.114046
0.000000 0.119936 0.112184
0.008576 0.126009 0.105959
0.061219 0.137362 0.095644
0.110018 0.157382 0.083101
0.178134 0.176333 0.071809
0.268620 0.191714 0.052399
0.373724 0.199924 0.000000
0.473640 0.198459 0.000000
0.573205 0.191257 0.000000
0.667384 0.179324 0.000000
0.749325 0.163821 0.000000
0.816403 0.147494 0.000000
0.869902 0.132082 0.000000
0.913603 0.120974 0.000000
0.949889 0.114717 0.000000
0.979889 0.115267 0.000000
1.000000 0.120729 0.000000
1.000000 0.128695 0.000000
1.000000 0.134340 0.000000
1.000000 0.128908 0.000000
1.000000 0.123018 0.000000
1.000000 0.115511 0.000000
1.000000 0.106294 0.000000
1.000000 0.098482 0.000000
1.000000 0.092897 0.000000
1.000000 0.094820 0.000000
1.000000 0.106935 0.000000
0.000000 0.131960 0.141207
0.000000 0.132540 0.141024
0.000000 0.133761 0.140414
0.000000 0.136049 0.138094
0.000000 0.139986 0.133822
0.000000 0.142092 0.126070
0.000000 0.142977 0.123812
0.024323 0.153567 0.114961
0.083101 0.168521 0.102296
0.147341 0.193851 0.086213
0.237369 0.219547 0.067170
0.345647 0.238102 0.014343
0.467414 0.249912 0.000000
0.573541 0.250919 0.000000
0.667933 0.247013 0.000000
0.750057 0.239658 0.000000
0.818387 0.230930 0.000000
0.874022 0.222660 0.000000
0.918273 0.215061 0.000000
0.953307 0.210025 0.000000
0.982300 0.208286 0.000000
1.000000 0.208286 0.000000
1.000000 0.209232 0.000000
1.000000 0.210788 0.000000
1.000000 0.211978 0.000000
1.000000 0.205814 0.000000
1.000000 0.196963 0.000000
1.000000 0.187259 0.000000
1.000000 0.177432 0.000000
1.000000 0.168612 0.000000
1.000000 0.162844 0.000000
1.000000 0.162264 0.000000
0.000000 0.157443 0.162142
0.000000 0.158175 0.161807
0.000000 0.159365 0.160769
0.000000 0.161990 0.158572
0.000000 0.166232 0.154452
0.000000 0.170993 0.144137
0.000000 0.171786 0.139773
0.000000 0.173617 0.136263
0.060090 0.189761 0.124147
0.116274 0.208591 0.108400
0.196780 0.238437 0.086519
0.308202 0.270054 0.048280
0.429511 0.291234 0.000000
0.555047 0.305058 0.000000
0.668727 0.310979 0.000000
0.750912 0.307500 0.000000
0.819181 0.301427 0.000000
0.874449 0.294285 0.000000
0.918822 0.287694 0.000000
0.955138 0.282139 0.000000
0.984833 0.278569 0.000000
1.000000 0.275456 0.000000
1.000000 0.273289 0.000000
1.000000 0.271153 0.000000
1.000000 0.269017 0.000000
1.000000 0.266453 0.000000
1.000000 0.258946 0.000000
1.000000 0.247532 0.000000
1.000000 0.235874 0.000000
1.000000 0.224521 0.000000
1.000000 0.214908 0.000000
1.000000 0.208560 0.000000
0.000000 0.190372 0.186191
0.000000 0.191318 0.185550
0.000000 0.192630 0.184604
0.000000 0.195438 0.182101
0.000000 0.199649 0.177829
0.000000 0.205417 0.170840
0.000000 0.208743 0.158145
0.000000 0.209415 0.154757
0.000000 0.215030 0.148165
0.093721 0.235203 0.133242
0.161715 0.257389 0.113649
0.257450 0.289921 0.083589
0.386938 0.326390 0.000000
0.514855 0.349035 0.000000
0.638697 0.364172 0.000000
0.745785 0.371221 0.000000
0.819760 0.367773 0.000000
0.874723 0.360876 0.000000
0.918914 0.353368 0.000000
0.955016 0.346838 0.000000
0.984436 0.341375 0.000000
1.000000 0.336248 0.000000
1.000000 0.331518 0.000000
1.000000 0.326726 0.000000
1.000000 0.321721 0.000000
1.000000 0.316472 0.000000
1.000000 0.310887 0.000000
1.000000 0.301427 0.000000
1.000000 0.287999 0.000000
1.000000 0.274540 0.000000
1.000000 0.262303 0.000000
1.000000 0.251926 0.000000
0.000000 0.231540 0.213230
0.000000 0.232609 0.212558
0.000000 0.233951 0.211337
0.000000 0.236728 0.208865
0.000000 0.241062 0.204440
0.000000 0.246738 0.197696
0.000000 0.253513 0.186252
0.000000 0.254063 0.175357
0.000000 0.254154 0.170993
0.061372 0.265385 0.160281
0.138582 0.288640 0.141756
0.219181 0.313390 0.116823
0.326909 0.346380 0.074891
0.469459 0.386358 0.000000
0.597375 0.408850 0.000000
0.712703 0.422431 0.000000
0.805722 0.427283 0.000000
0.875029 0.425269 0.000000
0.918883 0.416602 0.000000
0.954711 0.408606 0.000000
0.983948 0.401190 0.000000
1.000000 0.394263 0.000000
1.000000 0.387274 0.000000
1.000000 0.379950 0.000000
1.000000 0.372351 0.000000
1.000000 0.364660 0.000000
1.000000 0.356817 0.000000
1.000000 0.348730 0.000000
1.000000 0.337102 0.000000
1.000000 0.321996 0.000000
1.000000 0.307500 0.000000
1.000000 0.294011 0.000000
0.000000 0.280217 0.243046
0.000000 0.281224 0.242344
0.000000 0.282597 0.241184
0.000000 0.285435 0.238499
0.000000 0.289799 0.233951
0.000000 0.295262 0.227237
0.000000 0.301976 0.217777
0.000000 0.305821 0.198428
0.000000 0.305547 0.193484
0.000000 0.304753 0.187839
0.111727 0.322576 0.172732
0.194858 0.348058 0.149752
0.286961 0.373999 0.118257
0.402747 0.406012 0.059754
0.549065 0.445869 0.000000
0.673671 0.467506 0.000000
0.775448 0.477302 0.000000
0.854551 0.479347 0.000000
0.914549 0.476783 0.000000
0.954253 0.469001 0.000000
0.983185 0.459846 0.000000
1.000000 0.450690 0.000000
1.000000 0.441657 0.000000
1.000000 0.432258 0.000000
1.000000 0.422705 0.000000
1.000000 0.412696 0.000000
1.000000 0.402289 0.000000
1.000000 0.391882 0.000000
1.000000 0.381537 0.000000
1.000000 0.367956 0.000000
1.000000 0.351629 0.000000
1.000000 0.335882 0.000000
0.000000 0.335271 0.276066
0.000000 0.336278 0.275090
0.000000 0.337499 0.273869
0.000000 0.340246 0.271214
0.000000 0.344121 0.266514
0.000000 0.349462 0.259861
0.000000 0.355993 0.250584
0.000000 0.362982 0.238102
0.000000 0.362768 0.219364
0.000000 0.361547 0.213077
0.074250 0.359380 0.206271
0.169345 0.384649 0.185183
0.260533 0.411048 0.157656
0.361822 0.436896 0.118990
0.480446 0.466011 0.017182
0.624170 0.503471 0.000000
0.739559 0.521874 0.000000
0.827268 0.527855 0.000000
0.894408 0.527611 0.000000
0.945098 0.524132 0.000000
0.982208 0.517571 0.000000
1.000000 0.506432 0.000000
1.000000 0.495247 0.000000
1.000000 0.483986 0.000000
1.000000 0.472358 0.000000
1.000000 0.460365 0.000000
1.000000 0.448188 0.000000
1.000000 0.435706 0.000000
1.000000 0.423346 0.000000
1.000000 0.410651 0.000000
1.000000 0.394995 0.000000
1.000000 0.377722 0.000000
0.000000 0.394812 0.310674
0.000000 0.395636 0.309819
0.000000 0.396704 0.308507
0.000000 0.399298 0.305730
0.000000 0.403113 0.301274
0.000000 0.408148 0.294865
0.000000 0.413977 0.286137
0.000000 0.420356 0.274601
0.000000 0.424079 0.248722
0.000000 0.422248 0.241855
0.000000 0.419623 0.234348
0.141482 0.422400 0.223148
0.234775 0.448554 0.198398
0.333074 0.474678 0.166354
0.440101 0.499245 0.120180
0.557275 0.524498 0.000000
0.691829 0.556970 0.000000
0.794919 0.571405 0.000000
0.870390 0.574456 0.000000
0.927611 0.572930 0.000000
0.970031 0.567956 0.000000
1.000000 0.560204 0.000000
1.000000 0.548577 0.000000
1.000000 0.535119 0.000000
1.000000 0.521508 0.000000
1.000000 0.507805 0.000000
1.000000 0.493782 0.000000
1.000000 0.479683 0.000000
1.000000 0.465614 0.000000
1.000000 0.451789 0.000000
1.000000 0.437720 0.000000
1.000000 0.418738 0.000000
0.000000 0.456825 0.346685
0.000000 0.457649 0.345953
0.000000 0.458534 0.344610
0.000000 0.460853 0.341955
0.000000 0.464210 0.337530
0.000000 0.468696 0.331395
0.000000 0.473976 0.323186
0.000000 0.479866 0.312810
0.000000 0.485725 0.299382
0.000000 0.484932 0.274296
0.000000 0.481788 0.266117
0.111482 0.477882 0.257237
0.209659 0.486305 0.241337
0.306371 0.511772 0.213352
0.408972 0.536004 0.177127
0.517540 0.558709 0.125002
0.629999 0.579950 0.000000
0.749966 0.605341 0.000000
0.842008 0.616876 0.000000
0.906889 0.618036 0.000000
0.954803 0.614801 0.000000
0.990356 0.608087 0.000000
1.000000 0.598322 0.000000
1.000000 0.585931 0.000000
1.000000 0.570581 0.000000
1.000000 0.555047 0.000000
1.000000 0.539269 0.000000
1.000000 0.523583 0.000000
1.000000 0.507897 0.000000
1.000000 0.492470 0.000000
1.000000 0.477363 0.000000
1.000000 0.461250 0.000000
0.000000 0.518914 0.383551
0.000000 0.519585 0.382757
0.000000 0.520500 0.381598
0.000000 0.522576 0.378882
0.000000 0.525566 0.374762
0.000000 0.529473 0.369146
0.000000 0.534081 0.361669
0.000000 0.539025 0.352117
0.000000 0.544121 0.340490
0.000000 0.547021 0.310155
0.000000 0.543694 0.301793
0.039765 0.539300 0.292271
0.189517 0.533959 0.281926
0.281926 0.548028 0.261326
0.380621 0.571710 0.230838
0.484382 0.593866 0.191745
0.591302 0.614130 0.136080
0.695186 0.630457 0.000000
0.800809 0.649866 0.000000
0.882200 0.659236 0.000000
0.936980 0.658320 0.000000
0.977020 0.653101 0.000000
1.000000 0.644343 0.000000
1.000000 0.632593 0.000000
1.000000 0.618402 0.000000
1.000000 0.602014 0.000000
1.000000 0.584710 0.000000
1.000000 0.567498 0.000000
1.000000 0.550225 0.000000
1.000000 0.533196 0.000000
1.000000 0.516625 0.000000
1.000000 0.500542 0.000000
0.000000 0.579278 0.420447
0.000000 0.579858 0.419562
0.000000 0.580682 0.418616
0.000000 0.582422 0.416114
0.000000 0.585046 0.412329
0.000000 0.588403 0.407141
0.000000 0.592340 0.400427
0.000000 0.596551 0.392096
0.000000 0.601007 0.382025
0.000000 0.605219 0.369940
0.000000 0.603998 0.340337
0.000000 0.599512 0.330816
0.169253 0.594018 0.320226
0.263554 0.587457 0.308721
0.357061 0.607263 0.283787
0.455970 0.628840 0.251408
0.558099 0.648280 0.210788
0.660090 0.665278 0.154726
0.754055 0.677089 0.048096
0.845365 0.690974 0.000000
0.915770 0.698024 0.000000
0.961517 0.694972 0.000000
0.995148 0.687617 0.000000
1.000000 0.676844 0.000000
1.000000 0.663203 0.000000
1.000000 0.647364 0.000000
1.000000 0.629755 0.000000
1.000000 0.611170 0.000000
1.000000 0.592615 0.000000
1.000000 0.574151 0.000000
1.000000 0.556023 0.000000
1.000000 0.538415 0.000000
0.000000 0.638483 0.458015
0.000000 0.639002 0.457221
0.000000 0.639643 0.456245
0.000000 0.641230 0.454108
0.000000 0.643427 0.450599
0.000000 0.646418 0.446052
0.000000 0.649866 0.440131
0.000000 0.653529 0.432959
0.000000 0.657374 0.424445
0.000000 0.660853 0.414557
0.000000 0.662715 0.389929
0.000000 0.658747 0.373236
0.143862 0.653437 0.362524
0.255955 0.647059 0.350805
0.340093 0.643458 0.336736
0.433631 0.663539 0.309331
0.529870 0.681727 0.276249
0.627100 0.697719 0.235386
0.722469 0.711696 0.181613
0.806577 0.720058 0.101656
0.883543 0.728634 0.000000
0.942657 0.732662 0.000000
0.981628 0.727779 0.000000
1.000000 0.718441 0.000000
1.000000 0.705776 0.000000
1.000000 0.690517 0.000000
1.000000 0.673182 0.000000
1.000000 0.654383 0.000000
1.000000 0.634791 0.000000
1.000000 0.615137 0.000000
1.000000 0.595697 0.000000
1.000000 0.576532 0.000000
0.000000 0.695186 0.495369
0.000000 0.695644 0.494728
0.000000 0.696254 0.493843
0.000000 0.697505 0.491981
0.000000 0.699336 0.488960
0.000000 0.701717 0.484962
0.000000 0.704494 0.479957
0.000000 0.707515 0.473976
0.000000 0.710597 0.467048
0.000000 0.713222 0.459236
0.000000 0.715328 0.450690
0.000000 0.714015 0.419928
0.114595 0.708949 0.409155
0.248539 0.703029 0.397528
0.337224 0.696040 0.384802
0.417975 0.697536 0.367071
0.507774 0.714382 0.339269
0.599451 0.729183 0.306371
0.690608 0.742123 0.265812
0.777829 0.753353 0.214481
0.852079 0.758938 0.147280
0.915190 0.762722 0.058137
0.964660 0.763790 0.000000
0.997925 0.756985 0.000000
1.000000 0.745632 0.000000
1.000000 0.731380 0.000000
1.000000 0.714687 0.000000
1.000000 0.696284 0.000000
1.000000 0.676661 0.000000
1.000000 0.656001 0.000000
1.000000 0.635431 0.000000
1.000000 0.615015 0.000000
0.000000 0.747402 0.531365
0.000000 0.747738 0.530816
0.000000 0.748196 0.530022
0.000000 0.749294 0.528374
0.000000 0.750759 0.525963
0.000000 0.752651 0.522759
0.000000 0.754849 0.518730
0.000000 0.757229 0.514031
0.000000 0.759487 0.508934
0.000000 0.761440 0.503410
0.000000 0.762905 0.497627
0.000000 0.763272 0.482704
0.095338 0.759426 0.459632
0.245365 0.753902 0.448127
0.337835 0.747433 0.435584
0.414984 0.740200 0.422034
0.493050 0.745693 0.401770
0.578058 0.759365 0.373785
0.663630 0.771176 0.341009
0.747097 0.781247 0.301732
0.825498 0.790066 0.253178
0.890227 0.793729 0.193423
0.941222 0.793027 0.137484
0.982635 0.791226 0.079011
1.000000 0.782467 0.000000
1.000000 0.769528 0.000000
1.000000 0.753902 0.000000
1.000000 0.736263 0.000000
1.000000 0.717098 0.000000
1.000000 0.696773 0.000000
1.000000 0.675441 0.000000
1.000000 0.653620 0.000000
0.000000 0.794736 0.564996
0.000000 0.794949 0.564996
0.000000 0.795285 0.564355
0.000000 0.796109 0.563104
0.000000 0.797330 0.561120
0.000000 0.798825 0.558648
0.000000 0.800504 0.555810
0.000000 0.802213 0.552575
0.000000 0.803830 0.549126
0.000000 0.805112 0.545769
0.000000 0.805783 0.542779
0.000000 0.805631 0.539818
0.114168 0.804288 0.512688
0.253971 0.799191 0.501793
0.344488 0.793332 0.489754
0.420935 0.786679 0.476570
0.489235 0.779324 0.462562
0.564324 0.787930 0.440253
0.643000 0.798611 0.412787
0.721309 0.807645 0.380346
0.796384 0.815305 0.342321
0.865507 0.822049 0.296239
0.921386 0.824277 0.241337
0.962432 0.819730 0.194980
0.997192 0.815244 0.161959
1.000000 0.804776 0.124086
1.000000 0.790433 0.119478
1.000000 0.773831 0.104341
1.000000 0.755520 0.063935
1.000000 0.735866 0.000000
1.000000 0.715023 0.000000
1.000000 0.692988 0.000000
0.000000 0.836881 0.596155
0.000000 0.837034 0.596063
0.000000 0.837278 0.596002
0.000000 0.837858 0.595300
0.000000 0.838682 0.593988
0.000000 0.839811 0.592370
0.000000 0.841093 0.590478
0.000000 0.842222 0.588678
0.000000 0.843229 0.586938
0.000000 0.843778 0.585626
0.000000 0.843778 0.585016
0.000000 0.842985 0.585077
0.216037 0.841459 0.581750
0.279759 0.838437 0.556695
0.361852 0.833219 0.545495
0.433295 0.827329 0.533227
0.498665 0.820768 0.519951
0.559991 0.814511 0.505364
0.630457 0.824063 0.482307
0.701839 0.832090 0.455543
0.771786 0.838773 0.424231
0.838071 0.844419 0.387182
0.897917 0.849638 0.343420
0.946319 0.851011 0.291081
0.979553 0.843107 0.247868
1.000000 0.836332 0.222721
1.000000 0.824155 0.187198
1.000000 0.808743 0.183261
1.000000 0.791470 0.170413
1.000000 0.772763 0.142702
1.000000 0.752804 0.082185
1.000000 0.731533 0.000000
0.000000 0.873686 0.625208
0.000000 0.873838 0.625208
0.000000 0.874022 0.625116
0.000000 0.874418 0.624964
0.000000 0.874998 0.624323
0.000000 0.875761 0.623438
0.000000 0.876524 0.622644
0.000000 0.877165 0.622065
0.000000 0.877501 0.621881
0.000000 0.877379 0.622431
0.000000 0.876677 0.623835
0.090791 0.875212 0.626215
0.270695 0.872892 0.629572
0.324407 0.871427 0.610468
0.392981 0.866850 0.600580
0.456062 0.861692 0.589624
0.515251 0.856016 0.577722
0.571435 0.849821 0.564782
0.627649 0.847257 0.549248
0.690578 0.854368 0.527214
0.753597 0.860258 0.501518
0.814817 0.865141 0.471229
0.872038 0.869413 0.435737
0.923522 0.873411 0.393347
0.966644 0.874723 0.343145
0.993256 0.863523 0.299626
1.000000 0.854734 0.278782
1.000000 0.841062 0.242832
1.000000 0.824887 0.235172
1.000000 0.807218 0.221042
1.000000 0.788357 0.193088
1.000000 0.768154 0.141634
0.000000 0.905180 0.652583
0.000000 0.905272 0.652552
0.000000 0.905455 0.652461
0.000000 0.905760 0.652369
0.000000 0.906249 0.652216
0.000000 0.906615 0.652125
0.000000 0.906920 0.652247
0.000000 0.907042 0.652796
0.000000 0.906767 0.654108
0.000000 0.906004 0.656275
0.000000 0.904631 0.659480
0.187808 0.902464 0.663813
0.320684 0.899596 0.669368
0.415656 0.896025 0.675715
0.439338 0.894316 0.653468
0.491096 0.889952 0.643885
0.541680 0.885100 0.633448
0.590936 0.879881 0.622187
0.638941 0.874205 0.609888
0.689357 0.874357 0.594324
0.743862 0.879606 0.573724
0.798154 0.883970 0.549401
0.850431 0.887633 0.520684
0.898985 0.890898 0.486580
0.943389 0.893919 0.445808
0.982361 0.895293 0.396948
1.000000 0.881712 0.354009
1.000000 0.870817 0.332708
1.000000 0.856046 0.298894
1.000000 0.839261 0.282139
1.000000 0.821469 0.266209
1.000000 0.802487 0.235538
0.000000 0.931670 0.678737
0.000000 0.931762 0.678676
0.000000 0.931884 0.678614
0.000000 0.932128 0.678553
0.000000 0.932525 0.678370
0.000000 0.932952 0.678462
0.000000 0.932830 0.679469
0.000000 0.932403 0.681117
0.000000 0.931548 0.683711
0.000000 0.930144 0.687282
0.000000 0.928069 0.691981
0.262333 0.925353 0.698024
0.374151 0.921874 0.705287
0.462867 0.917784 0.713680
0.500847 0.915862 0.704646
0.538384 0.912535 0.695247
0.578973 0.908537 0.686397
0.619684 0.904234 0.676722
0.660243 0.899626 0.666163
0.700435 0.894743 0.654780
0.744167 0.896818 0.639429
0.790036 0.900755 0.620356
0.835416 0.904051 0.597742
0.878935 0.906828 0.571038
0.919982 0.909300 0.538811
0.958465 0.911437 0.499916
0.994079 0.912871 0.452552
1.000000 0.897734 0.409644
1.000000 0.884947 0.386419
1.000000 0.869474 0.353063
1.000000 0.852262 0.327123
1.000000 0.834501 0.308293
0.000000 0.953613 0.703914
0.000000 0.953674 0.703883
0.000000 0.953765 0.703822
0.000000 0.953979 0.703761
0.000000 0.954284 0.703670
0.000000 0.954711 0.703548
0.000000 0.954681 0.704433
0.000000 0.953765 0.707118
0.000000 0.952331 0.710842
0.000000 0.950286 0.715694
0.197086 0.947601 0.721859
0.331884 0.944213 0.729244
0.430304 0.940185 0.737911
0.511162 0.935790 0.747127
0.579339 0.931243 0.756313
0.592248 0.930327 0.741329
0.623835 0.927153 0.734310
0.656062 0.923705 0.726558
0.688991 0.920012 0.718135
0.722133 0.916136 0.708980
0.755215 0.912047 0.699062
0.791745 0.915404 0.684535
0.828824 0.918486 0.666957
0.865629 0.921050 0.646021
0.901488 0.923156 0.621118
0.936156 0.924895 0.591119
0.969635 0.926268 0.554376
1.000000 0.927306 0.508873
1.000000 0.911498 0.465949
1.000000 0.897490 0.440040
1.000000 0.881682 0.406744
1.000000 0.864225 0.371344
0.000000 0.971191 0.728634
0.000000 0.971252 0.728634
0.000000 0.971313 0.728634
0.000000 0.971466 0.728573
0.000000 0.971710 0.728511
0.000000 0.972015 0.728481
0.000000 0.972412 0.728328
0.000000 0.971496 0.730922
0.000000 0.969512 0.735744
0.110994 0.966827 0.741787
0.290013 0.963470 0.749081
0.398657 0.959442 0.757717
0.486183 0.954986 0.767208
0.559716 0.950317 0.776883
0.622339 0.945708 0.786465
