其他预设/【233】日式怀旧街道调色预设208款/1.3D LUT预设（视频调色-PR-AE-PS-FCPX-达芬奇用）/3.日式城市街拍预设 (自动曝光预设)/JA – Gritty Contrast 1 (Auto-Exposure).cube
# Created by Adobe Lightroom plugin Export LUT (1.17.0)
# www.johnrellis.com/lightroom/exportlut.htm
# Preset: JA – Gritty Contrast 1 (Auto-Exposure)
# Color profile: /Library/Application Support/Adobe/Color/Profiles/Recommended/AdobeRGB1998.icc
LUT_3D_SIZE 32
0.112947 0.115755 0.117494
0.116854 0.115999 0.117769
0.122499 0.116335 0.117983
0.134340 0.117189 0.118776
0.149264 0.118410 0.119570
0.166964 0.120027 0.120363
0.187747 0.121736 0.121096
0.212406 0.123873 0.121675
0.242557 0.126162 0.121950
0.278172 0.128847 0.121492
0.321080 0.132479 0.120150
0.370245 0.136202 0.117769
0.423163 0.141604 0.114015
0.477485 0.147677 0.108949
0.530205 0.154452 0.103029
0.580102 0.161715 0.096162
0.627405 0.168765 0.088869
0.671809 0.175967 0.080659
0.712154 0.182864 0.072328
0.750240 0.189364 0.065064
0.785977 0.195804 0.056916
0.819516 0.201999 0.049104
0.850523 0.206973 0.048768
0.878660 0.212650 0.056214
0.904021 0.217655 0.067536
0.926635 0.222843 0.082002
0.946838 0.228489 0.099550
0.964904 0.235355 0.119509
0.981109 0.243809 0.141634
0.995636 0.254734 0.167147
1.000000 0.269444 0.196597
1.000000 0.289464 0.230930
0.113741 0.118471 0.117647
0.116945 0.118135 0.118196
0.122713 0.119112 0.118349
0.134585 0.119936 0.118959
0.149477 0.121126 0.119753
0.166964 0.122744 0.120729
0.188022 0.124300 0.121462
0.212863 0.126711 0.122011
0.242649 0.129061 0.122072
0.278569 0.132326 0.121553
0.321294 0.135714 0.120241
0.370489 0.140169 0.117739
0.423468 0.145876 0.113710
0.477760 0.152377 0.108797
0.530541 0.158999 0.102815
0.580255 0.166110 0.095949
0.627619 0.172885 0.088350
0.671901 0.180270 0.080385
0.712276 0.186679 0.072389
0.750240 0.193637 0.064179
0.786069 0.199222 0.056306
0.819577 0.205142 0.047852
0.850553 0.210117 0.048280
0.878752 0.215549 0.055787
0.904021 0.220310 0.067811
0.926635 0.225559 0.082490
0.946838 0.230900 0.099733
0.964874 0.237919 0.119448
0.981079 0.245975 0.142092
0.995605 0.256809 0.167514
1.000000 0.271305 0.197024
1.000000 0.291325 0.231632
0.115084 0.122255 0.117891
0.119020 0.122255 0.117983
0.123323 0.122133 0.118898
0.134615 0.123659 0.119417
0.149477 0.125002 0.120180
0.166995 0.126375 0.121187
0.188052 0.128084 0.121706
0.212894 0.130404 0.122255
0.242954 0.133150 0.122072
0.278721 0.136324 0.121736
0.321752 0.140352 0.120150
0.370733 0.145205 0.117586
0.423774 0.151095 0.113710
0.478065 0.157809 0.108492
0.530602 0.165011 0.102419
0.580529 0.171969 0.095430
0.627710 0.178988 0.087739
0.672084 0.185611 0.079744
0.712367 0.192477 0.071565
0.750301 0.198520 0.063416
0.786160 0.203922 0.055695
0.819730 0.209628 0.047181
0.850614 0.214786 0.047517
0.878752 0.219486 0.055451
0.904051 0.224338 0.067597
0.926635 0.229099 0.082429
0.946807 0.234562 0.099916
0.964843 0.241062 0.120027
0.981048 0.249210 0.142397
0.995575 0.259617 0.168460
1.000000 0.273869 0.197482
1.000000 0.293736 0.232181
0.118044 0.130953 0.118044
0.122560 0.130831 0.118135
0.127504 0.130434 0.118837
0.135195 0.129671 0.120638
0.150027 0.132082 0.121492
0.167483 0.133730 0.121859
0.188327 0.135561 0.122560
0.213504 0.138003 0.122683
0.243626 0.141024 0.122621
0.279454 0.144991 0.121614
0.322515 0.149813 0.120089
0.371618 0.155764 0.117159
0.424598 0.162356 0.113100
0.478645 0.169589 0.107729
0.531243 0.176669 0.101717
0.581140 0.183474 0.094606
0.628229 0.190646 0.086671
0.672450 0.197086 0.078187
0.712673 0.202731 0.070436
0.750484 0.209171 0.061830
0.786374 0.214115 0.052796
0.819821 0.219059 0.045106
0.850706 0.223850 0.044526
0.878782 0.228092 0.054932
0.904082 0.232547 0.067414
0.926635 0.236728 0.082399
0.946807 0.241733 0.100435
0.964813 0.247868 0.120882
0.980987 0.255406 0.143618
0.995483 0.265537 0.169467
1.000000 0.279423 0.198764
1.000000 0.298802 0.233677
0.121859 0.140597 0.119020
0.126070 0.140719 0.118471
0.130892 0.140505 0.118746
0.139010 0.139528 0.120577
0.149691 0.139376 0.123110
0.168276 0.142824 0.123262
0.189334 0.145785 0.123445
0.214572 0.148653 0.123476
0.244694 0.152529 0.122927
0.280766 0.157534 0.121736
0.323857 0.163455 0.119814
0.372930 0.170718 0.116793
0.425727 0.178378 0.112490
0.479713 0.186191 0.106630
0.532128 0.193668 0.100130
0.581842 0.200534 0.092988
0.628779 0.207156 0.085176
0.672847 0.213504 0.076692
0.713130 0.218784 0.068238
0.750881 0.224002 0.060060
0.786648 0.228763 0.048646
0.820066 0.233249 0.040742
0.850858 0.237095 0.041993
0.878935 0.241062 0.053864
0.904143 0.244450 0.067628
0.926665 0.248356 0.082918
0.946777 0.252537 0.101717
0.964752 0.258000 0.121981
0.980865 0.265171 0.144991
0.995361 0.274723 0.171267
1.000000 0.287968 0.200900
1.000000 0.306706 0.236149
0.126314 0.151186 0.120119
0.129915 0.151369 0.119631
0.134646 0.151492 0.119081
0.142824 0.150759 0.120089
0.151949 0.149203 0.122835
0.167117 0.150973 0.125124
0.190372 0.156435 0.124910
0.215702 0.161715 0.124453
0.246098 0.166415 0.123354
0.282292 0.172366 0.121981
0.325566 0.179934 0.119722
0.374731 0.188296 0.116243
0.427283 0.197360 0.111299
0.481147 0.205844 0.105531
0.533410 0.213901 0.098390
0.582879 0.221408 0.090517
0.629664 0.227451 0.082704
0.673548 0.233310 0.073884
0.713619 0.238071 0.065126
0.751369 0.242679 0.055695
0.786984 0.246891 0.043091
0.820340 0.250675 0.035035
0.851133 0.253696 0.039033
0.879118 0.256901 0.052918
0.904173 0.260014 0.067659
0.926665 0.263157 0.084047
0.946715 0.266606 0.102968
0.964660 0.271427 0.124208
0.980743 0.277714 0.147341
0.995178 0.286442 0.173648
1.000000 0.299077 0.203922
1.000000 0.317144 0.239506
0.131685 0.163760 0.121675
0.135103 0.163912 0.121157
0.139467 0.164065 0.120424
0.147890 0.163882 0.120760
0.158297 0.163149 0.122225
0.166781 0.159426 0.124788
0.188449 0.165164 0.126253
0.217105 0.173312 0.125643
0.247684 0.180819 0.124331
0.284337 0.189395 0.122286
0.327703 0.198520 0.119478
0.376867 0.208316 0.115328
0.429389 0.218692 0.109895
0.483009 0.228183 0.103609
0.534936 0.236698 0.096010
0.584131 0.243778 0.088075
0.630854 0.249851 0.079744
0.674525 0.255436 0.070436
0.714412 0.260136 0.060792
0.752041 0.264164 0.048524
0.787472 0.267735 0.035126
0.820798 0.270451 0.031189
0.851377 0.273259 0.034333
0.879271 0.275700 0.050752
0.904295 0.277989 0.068452
0.926635 0.280400 0.085176
0.946624 0.283299 0.104860
0.964538 0.287114 0.126467
0.980591 0.292668 0.149874
0.994934 0.300755 0.176852
1.000000 0.312444 0.207736
1.000000 0.329717 0.243503
0.138735 0.178744 0.123079
0.141543 0.178927 0.122591
0.145815 0.179049 0.122042
0.154299 0.179263 0.121340
0.165194 0.178683 0.122744
0.177493 0.178164 0.124239
0.186313 0.173648 0.127382
0.214603 0.183017 0.126955
0.249485 0.194369 0.125399
0.286381 0.204959 0.122957
0.330480 0.217746 0.119326
0.379706 0.229557 0.114534
0.431983 0.241093 0.108797
0.485267 0.251774 0.101411
0.537072 0.260594 0.093751
0.585840 0.268070 0.084993
0.632227 0.274235 0.076020
0.675654 0.279667 0.065888
0.715328 0.283574 0.055207
0.752804 0.287114 0.040467
0.788174 0.290288 0.026612
0.821225 0.292668 0.023163
0.851713 0.294896 0.028992
0.879515 0.296391 0.050874
0.904417 0.297856 0.069245
0.926665 0.299687 0.087129
0.946532 0.301946 0.107240
0.964385 0.304936 0.129397
0.980346 0.309758 0.153689
0.994659 0.316960 0.180667
1.000000 0.328008 0.212192
1.000000 0.344427 0.248325
0.146853 0.196933 0.124331
0.149844 0.197055 0.123842
0.153780 0.197391 0.123445
0.162264 0.197635 0.122560
0.173709 0.197452 0.123110
0.186618 0.197147 0.124300
0.201205 0.196994 0.126101
0.212467 0.192660 0.129610
0.247257 0.205478 0.128176
0.289128 0.220584 0.124453
0.333104 0.234684 0.119844
0.382605 0.249973 0.113893
0.435279 0.264836 0.106966
0.488441 0.276127 0.099123
0.539330 0.285924 0.090761
0.587854 0.293645 0.081178
0.633906 0.299870 0.071382
0.677089 0.304906 0.060700
0.716426 0.308751 0.045686
0.753780 0.311833 0.029511
0.788907 0.314336 0.018647
0.821866 0.316320 0.016602
0.852201 0.317571 0.028107
0.879789 0.318883 0.050446
0.904540 0.319738 0.070924
0.926665 0.320623 0.089845
0.946441 0.322179 0.110872
0.964172 0.324620 0.133272
0.980072 0.328527 0.157992
0.994293 0.334997 0.185580
1.000000 0.345373 0.217716
1.000000 0.360815 0.254459
0.156466 0.218723 0.124819
0.159548 0.218906 0.124697
0.163577 0.219059 0.124147
0.172152 0.219394 0.122805
0.184054 0.219516 0.122316
0.197971 0.219516 0.123598
0.213504 0.219577 0.125277
0.229984 0.219669 0.127169
0.245060 0.216403 0.131319
0.286748 0.232975 0.128084
0.336889 0.252476 0.122316
0.386206 0.268742 0.115602
0.438605 0.285405 0.107301
0.491371 0.301061 0.096895
0.542260 0.311681 0.087221
0.590356 0.319768 0.077668
0.636072 0.326238 0.066468
0.678645 0.331212 0.053529
0.717800 0.334783 0.033692
0.754879 0.337346 0.018128
0.789853 0.339605 0.008484
0.822599 0.340978 0.010681
0.852689 0.342016 0.024811
0.880095 0.342382 0.052399
0.904662 0.342657 0.073548
0.926665 0.342992 0.093202
0.946319 0.343877 0.114504
0.963958 0.345525 0.137575
0.979736 0.348791 0.163088
0.993896 0.354498 0.191348
1.000000 0.364080 0.224033
1.000000 0.378820 0.261326
0.168215 0.244419 0.124666
0.171145 0.244388 0.124178
0.175143 0.244602 0.123781
0.183902 0.244785 0.122652
0.196658 0.244968 0.121065
0.211032 0.245304 0.122042
0.227573 0.245762 0.123568
0.245701 0.246372 0.125063
0.261814 0.244541 0.128084
0.284550 0.244968 0.132052
0.334325 0.266270 0.126375
0.390539 0.288457 0.118013
0.442420 0.305638 0.109651
0.494850 0.321691 0.098970
0.545373 0.335668 0.086519
0.593011 0.346502 0.073060
0.638483 0.353185 0.061585
0.680507 0.358038 0.041962
0.719356 0.361181 0.021393
0.756191 0.363714 0.006836
0.790890 0.365576 0.001038
0.823362 0.366583 0.005035
0.853300 0.367041 0.023499
0.880430 0.367102 0.054505
0.904845 0.366796 0.076234
0.926665 0.366400 0.097841
0.946197 0.366552 0.119051
0.963684 0.367590 0.143160
0.979370 0.370214 0.169223
0.993378 0.375341 0.198215
1.000000 0.384253 0.231724
1.000000 0.398230 0.269566
0.181949 0.273899 0.123171
0.184787 0.274144 0.122988
0.188907 0.274205 0.122408
0.197787 0.274296 0.121035
0.210697 0.274388 0.119203
0.226200 0.274784 0.119081
0.243748 0.275608 0.120027
0.263096 0.276585 0.121675
0.284092 0.278050 0.123720
0.299504 0.273289 0.127687
0.332189 0.279759 0.131014
0.387610 0.303655 0.122652
0.446723 0.326757 0.111818
0.498543 0.343206 0.101350
0.548302 0.357275 0.089204
0.595819 0.369360 0.075196
0.641169 0.379919 0.058228
0.682612 0.385290 0.029541
0.721065 0.388373 0.010040
0.757565 0.390600 0.000000
0.792050 0.392065 0.000000
0.824216 0.392767 0.004242
0.853910 0.392828 0.026978
0.880827 0.392248 0.060609
0.905028 0.391455 0.081025
0.926665 0.390600 0.102663
0.946014 0.390112 0.125399
0.963378 0.390570 0.149508
0.978912 0.392676 0.176547
0.992798 0.397192 0.206149
1.000000 0.405524 0.240330
1.000000 0.418769 0.278996
0.197818 0.307958 0.120119
0.200687 0.308019 0.119753
0.205112 0.307927 0.118990
0.214023 0.308019 0.117678
0.227085 0.307897 0.115785
0.243381 0.308019 0.113924
0.261753 0.309117 0.114656
0.282231 0.310491 0.116274
0.304845 0.312200 0.117678
0.328771 0.314397 0.119814
0.342901 0.306462 0.126070
0.385718 0.318975 0.127687
0.443671 0.343114 0.117098
0.502556 0.365148 0.104280
0.551629 0.379431 0.092378
0.598505 0.391455 0.079408
0.643427 0.401831 0.063172
0.684779 0.410407 0.031128
0.723018 0.415686 0.000336
0.759213 0.417792 0.000000
0.793393 0.418921 0.000000
0.825254 0.419257 0.004028
0.854612 0.419043 0.034241
0.881254 0.417945 0.065766
0.905211 0.416724 0.086549
0.926635 0.415229 0.109468
0.945830 0.414313 0.132418
0.963012 0.414282 0.157259
0.978393 0.415808 0.184726
0.992157 0.419837 0.215579
1.000000 0.427558 0.250004
1.000000 0.440223 0.289250
0.215702 0.345342 0.115206
0.218967 0.345220 0.114443
0.222995 0.345251 0.114199
0.232029 0.345098 0.112673
0.245335 0.344762 0.110414
0.262272 0.344335 0.107332
0.281346 0.345434 0.107240
0.302800 0.346990 0.108431
0.326268 0.348943 0.109773
0.351598 0.351354 0.111391
0.378332 0.353979 0.114015
0.390082 0.341894 0.123476
0.441718 0.359777 0.122957
0.499031 0.382208 0.110689
0.554650 0.401526 0.097169
0.601587 0.414038 0.083986
0.645716 0.424384 0.069612
0.686702 0.432563 0.048127
0.724666 0.439338 0.013001
0.761013 0.445045 0.000000
0.794766 0.446082 0.000000
0.826352 0.446113 0.009705
0.855344 0.445563 0.044373
0.881712 0.444099 0.072053
0.905394 0.442329 0.094057
0.926604 0.440467 0.116518
0.945617 0.438941 0.140169
0.962585 0.438483 0.166079
0.977844 0.439551 0.194491
0.991394 0.443244 0.225834
1.000000 0.450477 0.261204
1.000000 0.462440 0.300633
0.235355 0.384649 0.107942
0.238254 0.384649 0.107546
0.242435 0.384375 0.106691
0.251743 0.384100 0.104952
0.264897 0.383764 0.102663
0.281773 0.383124 0.099306
0.301457 0.383124 0.096925
0.323461 0.384863 0.097871
0.347631 0.386938 0.098939
0.373877 0.389380 0.100832
0.401373 0.392035 0.103059
0.428107 0.392950 0.107332
0.444739 0.382635 0.118898
0.497200 0.399969 0.117678
0.551354 0.419562 0.104799
0.603693 0.436286 0.090455
0.648341 0.447120 0.077272
0.688685 0.455024 0.063783
0.726314 0.461555 0.038697
0.762234 0.467292 0.007324
0.796170 0.471962 0.000946
0.827543 0.473152 0.021363
0.856138 0.472175 0.057404
0.882170 0.470375 0.080415
0.905547 0.468147 0.102571
0.926513 0.466011 0.125154
0.945312 0.463996 0.150149
0.962127 0.463142 0.176211
0.977173 0.463874 0.205325
0.990509 0.467170 0.237644
1.000000 0.473945 0.273289
1.000000 0.485298 0.313359
0.255344 0.424781 0.098726
0.258762 0.424659 0.097993
0.262760 0.424384 0.097047
0.271702 0.424079 0.095125
0.284947 0.423224 0.092164
0.301823 0.422339 0.088319
0.321538 0.421149 0.082734
0.343664 0.422889 0.083528
0.368261 0.424994 0.084718
0.394720 0.427344 0.086580
0.423011 0.430121 0.089174
0.452705 0.433021 0.092378
0.476234 0.429816 0.101045
0.499031 0.422797 0.114595
0.549310 0.437934 0.113619
0.600610 0.454932 0.100557
0.649622 0.469215 0.087007
0.690730 0.477852 0.075135
0.728145 0.484138 0.063813
0.763699 0.489601 0.045380
0.797116 0.494179 0.020905
0.828458 0.497597 0.042115
0.857053 0.498909 0.069184
0.882719 0.496742 0.090547
0.905730 0.494240 0.112825
0.926421 0.491585 0.136080
0.944945 0.489357 0.160769
0.961578 0.488045 0.187778
0.976349 0.488594 0.217655
0.989532 0.491493 0.250309
1.000000 0.497810 0.286717
1.000000 0.508659 0.327001
0.276097 0.464393 0.086763
0.279088 0.464118 0.086336
0.283024 0.463996 0.085420
0.291936 0.463325 0.083009
0.304967 0.462409 0.079164
0.321721 0.461341 0.073518
0.340978 0.459754 0.066651
0.362921 0.460151 0.064485
0.387488 0.462043 0.065339
0.414038 0.464240 0.068177
0.442390 0.466804 0.071260
0.471992 0.469306 0.074769
0.502739 0.472267 0.080262
0.522667 0.464668 0.095827
0.550225 0.460151 0.112581
0.598474 0.473701 0.111482
0.646662 0.488228 0.099763
0.691402 0.499763 0.088136
0.729946 0.506950 0.077638
0.765133 0.512139 0.070558
0.798306 0.516350 0.063386
0.829191 0.519524 0.064363
0.857572 0.521721 0.081819
0.883177 0.523003 0.102480
0.905913 0.520348 0.124178
0.926268 0.517357 0.147738
0.944549 0.514824 0.173312
0.960876 0.513329 0.201083
0.975494 0.513481 0.231266
0.988403 0.516075 0.264439
0.999695 0.521996 0.301122
1.000000 0.532280 0.341833
0.296086 0.502129 0.072541
0.299199 0.501915 0.071565
0.302953 0.501671 0.070527
0.311498 0.501030 0.067384
0.324224 0.500023 0.062013
0.340185 0.498756 0.052552
0.359289 0.497017 0.033631
0.380896 0.495613 0.014221
0.405097 0.497414 0.017945
0.431586 0.499550 0.023621
0.459571 0.501884 0.031739
0.489174 0.504387 0.044282
0.519921 0.507164 0.057435
0.551904 0.510185 0.067689
0.567498 0.497780 0.092958
0.599573 0.496254 0.113130
0.645838 0.508415 0.112276
0.690028 0.520043 0.102632
0.730709 0.528954 0.093233
0.766751 0.534752 0.087221
0.799557 0.538720 0.083223
0.830014 0.541680 0.081666
0.858030 0.543572 0.096559
0.883330 0.544640 0.115969
0.905943 0.545037 0.137606
0.926085 0.543236 0.161166
0.944030 0.540398 0.187289
0.960143 0.538628 0.215213
0.974487 0.538567 0.246250
0.987182 0.540856 0.279728
0.998260 0.546410 0.316869
1.000000 0.556207 0.357733
0.316167 0.539117 0.050111
0.318914 0.538964 0.047791
0.322820 0.538567 0.044129
0.330755 0.537987 0.035401
0.342992 0.537011 0.021210
0.358709 0.535607 0.003784
0.377569 0.533623 0.000000
0.398566 0.531456 0.000000
0.422492 0.532403 0.000000
0.448280 0.534478 0.000000
0.476326 0.536706 0.000000
0.505791 0.539269 0.000000
0.536553 0.541924 0.000000
0.568414 0.544823 0.017182
0.600610 0.547631 0.050599
0.612360 0.530816 0.092531
0.648127 0.531701 0.117067
0.690700 0.541650 0.116915
0.730983 0.550591 0.110323
0.767819 0.557092 0.104433
0.800778 0.561242 0.102602
0.830838 0.563958 0.102510
0.858549 0.565515 0.111360
0.883452 0.566339 0.130678
0.905791 0.566461 0.151797
0.925719 0.566613 0.176150
0.943481 0.566003 0.202701
0.959289 0.564019 0.231205
0.973388 0.563653 0.262242
0.985840 0.565637 0.296178
0.996674 0.570886 0.333532
1.000000 0.580072 0.374151
0.336675 0.576043 0.000000
0.338994 0.575921 0.000000
0.343114 0.575555 0.000000
0.350591 0.574884 0.000000
0.362371 0.573816 0.000000
0.377661 0.572351 0.000000
0.395972 0.570397 0.000000
0.416571 0.568261 0.000000
0.439551 0.567437 0.000000
0.465248 0.569482 0.000000
0.492988 0.571649 0.000000
0.522148 0.574182 0.000000
0.552789 0.576837 0.000000
0.584558 0.579706 0.000000
0.617090 0.582605 0.000000
0.644831 0.580896 0.043610
0.656489 0.563195 0.096407
0.693996 0.565515 0.126497
0.733150 0.573449 0.126162
0.769467 0.579797 0.122713
0.802243 0.583856 0.120821
0.831815 0.586145 0.122377
0.859007 0.587488 0.126741
0.883604 0.588067 0.146029
0.905608 0.588098 0.168124
0.925261 0.587915 0.192050
0.942748 0.588220 0.219089
0.958312 0.589319 0.248264
0.972137 0.588739 0.279423
0.984344 0.590448 0.313512
0.994934 0.595239 0.350683
1.000000 0.603998 0.391760
0.356939 0.613092 0.000000
0.359564 0.612879 0.000000
0.363104 0.612543 0.000000
0.370794 0.611841 0.000000
0.382116 0.610773 0.000000
0.396887 0.609339 0.000000
0.414435 0.607507 0.000000
0.434730 0.605066 0.000000
0.457008 0.602411 0.000000
0.482216 0.604334 0.000000
0.509331 0.606409 0.000000
0.538170 0.608789 0.000000
0.568322 0.611109 0.000000
0.599542 0.613764 0.000000
0.631708 0.616419 0.000000
0.664515 0.619196 0.000000
0.687373 0.612757 0.056855
0.700771 0.595911 0.106538
0.737148 0.597681 0.141329
0.772580 0.603510 0.141207
0.804807 0.607294 0.140841
0.833585 0.609033 0.142184
0.859464 0.609369 0.145632
0.883726 0.609644 0.162722
0.905394 0.609491 0.184726
0.924743 0.609247 0.209110
0.941955 0.609339 0.236271
0.957275 0.610437 0.265660
0.970794 0.612970 0.297795
0.982696 0.615076 0.332036
0.993042 0.619471 0.369177
1.000000 0.627497 0.409430
0.377325 0.649073 0.000000
0.379858 0.648920 0.000000
0.383154 0.648615 0.000000
0.390295 0.647944 0.000000
0.401434 0.646784 0.000000
0.415564 0.645411 0.000000
0.432776 0.643519 0.000000
0.452461 0.641230 0.000000
0.474189 0.638575 0.000000
0.498451 0.638422 0.000000
0.525048 0.640345 0.000000
0.553338 0.642420 0.000000
0.583093 0.644617 0.000000
0.613764 0.646998 0.000000
0.645411 0.649378 0.000000
0.677760 0.651911 0.000000
0.710475 0.654536 0.000000
0.728115 0.643091 0.074311
0.744503 0.628504 0.122316
0.777279 0.628168 0.160494
0.808713 0.631647 0.161166
0.836790 0.632959 0.163241
0.861631 0.632471 0.167056
0.883787 0.631220 0.179965
0.905119 0.630915 0.202457
0.924102 0.630549 0.227268
0.941070 0.630457 0.254124
0.956146 0.631342 0.283848
0.969421 0.633692 0.315984
0.981018 0.638117 0.350866
0.991089 0.643397 0.388281
0.999664 0.650813 0.428046
0.397284 0.684169 0.000000
0.399847 0.683894 0.000000
0.402930 0.683650 0.000000
0.409827 0.682918 0.000000
0.420478 0.681849 0.000000
0.433997 0.680507 0.000000
0.450599 0.678737 0.000000
0.469673 0.676448 0.000000
0.491035 0.673854 0.000000
0.514427 0.671778 0.000000
0.540337 0.673518 0.000000
0.568017 0.675380 0.000000
0.596826 0.677394 0.000000
0.627100 0.679438 0.000000
0.658106 0.681575 0.000000
0.689937 0.683833 0.000000
0.722133 0.686061 0.000000
0.754482 0.688350 0.000000
0.766659 0.671962 0.098634
0.784909 0.658991 0.145693
0.813779 0.656916 0.183230
0.841062 0.657740 0.186282
0.865171 0.656641 0.190585
0.886107 0.654597 0.202792
0.904753 0.652186 0.221164
0.923461 0.651545 0.245823
0.940124 0.651331 0.273106
0.954894 0.652125 0.302922
0.967926 0.654292 0.335149
0.979309 0.658412 0.369787
0.989105 0.665003 0.407080
0.997406 0.673610 0.446784
0.417121 0.718105 0.000000
0.419471 0.717830 0.000000
0.422522 0.717525 0.000000
0.428992 0.716915 0.000000
0.439063 0.715938 0.000000
0.452033 0.714595 0.000000
0.468116 0.712795 0.000000
0.486610 0.710658 0.000000
0.507317 0.708217 0.000000
0.529992 0.705226 0.000000
0.555047 0.705867 0.000000
0.581964 0.707454 0.000000
0.610193 0.709224 0.000000
0.639734 0.710933 0.000000
0.670100 0.712795 0.000000
0.701137 0.714656 0.000000
0.732662 0.716518 0.000000
0.764370 0.718410 0.000000
0.792905 0.717525 0.065126
0.802548 0.698695 0.126467
0.821439 0.686976 0.174197
0.846281 0.683101 0.209995
0.869505 0.681544 0.214755
0.889616 0.679042 0.229801
0.907225 0.675776 0.246677
0.922728 0.672450 0.265507
0.939086 0.672053 0.292699
0.953613 0.672633 0.322515
0.966369 0.674708 0.354894
0.977539 0.678492 0.389197
0.987121 0.684688 0.426001
0.995178 0.693812 0.465583
0.436347 0.750576 0.000000
0.438544 0.750393 0.000000
0.441688 0.750088 0.000000
0.447639 0.749538 0.000000
0.457313 0.748562 0.000000
0.469825 0.747280 0.000000
0.485145 0.745632 0.000000
0.502892 0.743679 0.000000
0.523033 0.741360 0.000000
0.545098 0.738582 0.000000
0.569116 0.737331 0.000000
0.595239 0.738582 0.000000
0.622827 0.739986 0.000000
0.651545 0.741421 0.000000
0.681117 0.742916 0.000000
0.711360 0.744350 0.000000
0.742031 0.745815 0.000000
0.772915 0.747219 0.000000
0.803738 0.748623 0.038788
0.826474 0.742763 0.109529
0.835203 0.723354 0.159182
0.853635 0.712337 0.207950
0.874479 0.707088 0.243565
0.893706 0.704158 0.260044
0.910521 0.700526 0.277226
0.925200 0.696498 0.294926
0.938048 0.692500 0.313298
0.952209 0.692866 0.342779
0.964752 0.694636 0.374578
0.975708 0.698177 0.408698
0.985138 0.703914 0.444770
0.992920 0.712734 0.484443
0.455238 0.781521 0.000000
0.457191 0.781369 0.000000
0.460060 0.781125 0.000000
0.465827 0.780545 0.000000
0.474861 0.779660 0.000000
0.486885 0.778500 0.000000
0.501518 0.776974 0.000000
0.518730 0.775143 0.000000
0.538293 0.772885 0.000000
0.559411 0.770413 0.000000
0.582635 0.767544 0.000000
0.607843 0.768551 0.000000
0.634638 0.769558 0.000000
0.662531 0.770626 0.000000
0.691218 0.771664 0.000000
0.720546 0.772702 0.000000
0.750332 0.773648 0.000000
0.780301 0.774563 0.000000
0.810300 0.775418 0.030610
0.839902 0.776242 0.101717
0.856626 0.765377 0.150454
0.864317 0.745602 0.195132
0.881224 0.735592 0.255009
0.898222 0.729854 0.294102
0.914153 0.725795 0.311345
0.928099 0.721431 0.328740
0.940368 0.717098 0.346349
0.951110 0.713161 0.364446
0.963073 0.714229 0.394842
0.973816 0.717403 0.428382
0.983062 0.722774 0.464088
0.990661 0.731197 0.503502
0.473243 0.810544 0.000000
0.475227 0.810361 0.000000
0.477790 0.810117 0.000000
0.483375 0.809628 0.000000
0.492042 0.808804 0.000000
0.503288 0.807767 0.000000
0.517327 0.806363 0.000000
0.533684 0.804685 0.000000
0.552422 0.802701 0.000000
0.573144 0.800381 0.000000
0.595483 0.797757 0.000000
0.619745 0.797055 0.000000
0.645472 0.797696 0.000000
0.672358 0.798306 0.000000
0.700221 0.798856 0.000000
0.728603 0.799405 0.000000
0.757504 0.799893 0.000000
0.786496 0.800290 0.000000
0.815488 0.800656 0.039673
0.844236 0.800900 0.107118
0.872435 0.801144 0.146761
0.882994 0.785885 0.202335
0.889250 0.766445 0.254765
0.904143 0.757443 0.314977
0.918059 0.751431 0.348791
0.931212 0.746731 0.365911
0.942809 0.742123 0.382971
0.953002 0.737881 0.400000
0.961913 0.734279 0.417792
0.971923 0.736080 0.447913
0.980926 0.741176 0.483589
0.988281 0.749233 0.523033
0.490639 0.837278 0.000000
0.492409 0.837125 0.000000
0.494820 0.836912 0.000000
0.500053 0.836484 0.000000
0.508171 0.835721 0.000000
0.518853 0.834806 0.000000
0.532158 0.833555 0.000000
0.547814 0.832029 0.000000
0.565637 0.830228 0.000000
0.585595 0.828153 0.000000
0.607294 0.825772 0.000000
0.630640 0.823758 0.000000
0.655421 0.824033 0.000000
0.681361 0.824247 0.000000
0.708156 0.824399 0.000000
