其他预设/【233】日式怀旧街道调色预设208款/1.3D LUT预设（视频调色-PR-AE-PS-FCPX-达芬奇用）/3.日式城市街拍预设 (自动曝光预设)/JA – Shaded Light 3 (Auto-Exposure).cube
# Created by Adobe Lightroom plugin Export LUT (1.17.0)
# www.johnrellis.com/lightroom/exportlut.htm
# Preset: JA – Shaded Light 3 (Auto-Exposure)
# Color profile: /Library/Application Support/Adobe/Color/Profiles/Recommended/AdobeRGB1998.icc
LUT_3D_SIZE 32
0.093355 0.090913 0.086610
0.096834 0.090913 0.086519
0.101656 0.090913 0.086366
0.111788 0.090669 0.086610
0.124422 0.090761 0.086702
0.138705 0.090608 0.086976
0.155703 0.090333 0.087037
0.175479 0.089845 0.087098
0.198489 0.089082 0.087098
0.224765 0.088014 0.086610
0.254368 0.085603 0.085939
0.287144 0.082765 0.084840
0.322576 0.078218 0.082887
0.359655 0.072297 0.080446
0.397192 0.064607 0.077119
0.433967 0.051423 0.073335
0.469245 0.024353 0.068971
0.501884 0.001160 0.064393
0.531579 0.000000 0.059632
0.559991 0.000000 0.052003
0.587884 0.000000 0.041108
0.615412 0.000000 0.028779
0.643427 0.000000 0.014343
0.673030 0.000000 0.000000
0.705318 0.000000 0.000000
0.741604 0.000000 0.000000
0.781949 0.000000 0.000000
0.825162 0.000000 0.000000
0.869413 0.000000 0.000000
0.912871 0.000000 0.000000
0.953033 0.000000 0.000000
0.987488 0.000000 0.000000
0.093812 0.093446 0.087251
0.096651 0.094118 0.086824
0.101747 0.094087 0.086671
0.111818 0.094392 0.086854
0.124453 0.094209 0.086976
0.139162 0.093965 0.087251
0.156100 0.093721 0.087282
0.176120 0.093416 0.087312
0.199313 0.092561 0.087312
0.225803 0.091707 0.086793
0.255528 0.089845 0.086061
0.288487 0.086946 0.084627
0.323949 0.083497 0.082582
0.361028 0.078584 0.080079
0.398596 0.071839 0.076661
0.435340 0.063294 0.072816
0.470436 0.048737 0.068299
0.502983 0.024994 0.063691
0.532525 0.000000 0.058961
0.560876 0.000000 0.050721
0.588708 0.000000 0.039521
0.616114 0.000000 0.027192
0.644160 0.000000 0.013855
0.673732 0.000000 0.000000
0.706081 0.000000 0.000000
0.742367 0.000000 0.000000
0.782712 0.000000 0.000000
0.825803 0.000000 0.000000
0.870054 0.000000 0.000000
0.913390 0.000000 0.000000
0.953399 0.000000 0.000000
0.987701 0.000000 0.000000
0.094362 0.097261 0.088045
0.097108 0.097047 0.088533
0.101259 0.098543 0.087404
0.111727 0.099092 0.087007
0.124849 0.098787 0.087129
0.139498 0.098299 0.087404
0.156741 0.098207 0.087404
0.176974 0.097841 0.087434
0.200565 0.097383 0.087068
0.227115 0.096498 0.086854
0.257084 0.095613 0.085969
0.290074 0.093355 0.084474
0.325780 0.090455 0.082368
0.362951 0.086397 0.079744
0.400305 0.080720 0.076631
0.437049 0.073945 0.072328
0.472114 0.066041 0.067689
0.504417 0.054047 0.063081
0.533867 0.031006 0.058106
0.562097 0.008057 0.049500
0.589837 0.000000 0.038087
0.617212 0.000000 0.025635
0.645136 0.000000 0.012329
0.674708 0.000000 0.000000
0.707088 0.000000 0.000000
0.743435 0.000000 0.000000
0.783749 0.000000 0.000000
0.826749 0.000000 0.000000
0.870878 0.000000 0.000000
0.914031 0.000000 0.000000
0.953887 0.000000 0.000000
0.988006 0.000000 0.000000
0.095796 0.105531 0.089998
0.099062 0.105257 0.090761
0.102235 0.104738 0.091524
0.110445 0.108095 0.088746
0.124727 0.108400 0.087587
0.140871 0.107637 0.087556
0.158450 0.107424 0.087556
0.179202 0.107362 0.087495
0.203067 0.107454 0.087343
0.230137 0.107301 0.086671
0.260441 0.106661 0.085725
0.294041 0.105592 0.083986
0.329717 0.104280 0.081971
0.366979 0.101472 0.078828
0.404395 0.097780 0.075166
0.440894 0.093233 0.071046
0.475624 0.087678 0.066621
0.507591 0.080934 0.061463
0.536706 0.073701 0.055055
0.564660 0.065064 0.046540
0.592218 0.052094 0.034180
0.619379 0.027588 0.022980
0.647333 0.000000 0.009552
0.676875 0.000000 0.000000
0.709346 0.000000 0.000000
0.745663 0.000000 0.000000
0.785946 0.000000 0.000000
0.828855 0.000000 0.000000
0.872709 0.000000 0.000000
0.915496 0.000000 0.000000
0.954925 0.000000 0.000000
0.988678 0.000000 0.000000
0.098268 0.114504 0.092836
0.101137 0.114534 0.093507
0.104524 0.114015 0.094240
0.109804 0.114076 0.095399
0.121859 0.119234 0.090974
0.139956 0.121279 0.088350
0.159823 0.121431 0.088197
0.182528 0.121828 0.087953
0.207218 0.122164 0.087373
0.234928 0.123018 0.086488
0.265873 0.123415 0.084993
0.299931 0.123598 0.083223
0.336126 0.123293 0.080629
0.373449 0.122164 0.077089
0.410620 0.120180 0.073426
0.446845 0.117464 0.068971
0.481056 0.113558 0.063539
0.512413 0.109133 0.058595
0.541039 0.103975 0.050721
0.568780 0.098177 0.039734
0.595880 0.091981 0.028779
0.622919 0.085054 0.016449
0.650721 0.076875 0.004120
0.680323 0.066407 0.000000
0.712825 0.047913 0.000000
0.749355 0.007202 0.000000
0.789487 0.000000 0.000000
0.832090 0.000000 0.000000
0.875486 0.000000 0.000000
0.917723 0.000000 0.000000
0.956542 0.000000 0.000000
0.989715 0.000000 0.000000
0.100557 0.124758 0.095796
0.102785 0.124849 0.096254
0.105837 0.124422 0.096956
0.111635 0.123781 0.098116
0.119570 0.125826 0.097871
0.135531 0.133028 0.092866
0.158480 0.137728 0.088991
0.182864 0.139712 0.088136
0.212222 0.141726 0.086946
0.241489 0.143099 0.085756
0.273289 0.144533 0.083864
0.308019 0.145876 0.081392
0.344549 0.146853 0.078584
0.381994 0.146883 0.074617
0.418982 0.146029 0.070497
0.454810 0.144350 0.065187
0.488289 0.141726 0.060151
0.518822 0.138247 0.051637
0.546838 0.134005 0.043091
0.574090 0.129763 0.032136
0.600793 0.125307 0.021302
0.627588 0.120027 0.009277
0.655268 0.114412 0.000000
0.684962 0.108461 0.000000
0.717617 0.101534 0.000000
0.754177 0.093080 0.000000
0.794308 0.082033 0.000000
0.836393 0.067109 0.000000
0.879210 0.037415 0.000000
0.920745 0.000000 0.000000
0.958679 0.000000 0.000000
0.991089 0.000000 0.000000
0.102510 0.136294 0.098939
0.104677 0.136751 0.099062
0.107454 0.136599 0.099245
0.113344 0.136172 0.100587
0.121279 0.135409 0.102327
0.131930 0.140505 0.100191
0.152895 0.150210 0.094240
0.181247 0.158297 0.089082
0.210452 0.162234 0.087251
0.244999 0.166323 0.084810
0.282933 0.170443 0.081544
0.318395 0.172671 0.078462
0.355352 0.174441 0.075074
0.392798 0.175418 0.070741
0.429541 0.175265 0.065553
0.464576 0.174228 0.059998
0.497169 0.172061 0.051728
0.526665 0.169039 0.040803
0.554101 0.165103 0.031250
0.580774 0.161196 0.020813
0.606989 0.157290 0.010437
0.633509 0.152956 0.000000
0.661128 0.148745 0.000000
0.690852 0.144137 0.000000
0.723690 0.139559 0.000000
0.760403 0.134371 0.000000
0.800229 0.129000 0.000000
0.841886 0.122408 0.000000
0.883879 0.114717 0.000000
0.924437 0.106233 0.000000
0.961334 0.097688 0.000000
0.992706 0.090791 0.000000
0.104189 0.150240 0.101961
0.106020 0.150698 0.102113
0.108400 0.151095 0.101991
0.114839 0.150484 0.103059
0.123568 0.149844 0.104952
0.133181 0.149111 0.107454
0.148318 0.159060 0.102632
0.174350 0.171603 0.095583
0.208438 0.183169 0.088380
0.242771 0.189456 0.085145
0.282597 0.196170 0.080720
0.327184 0.202884 0.074617
0.368292 0.206394 0.069001
0.405615 0.207706 0.064118
0.441871 0.207950 0.058167
0.476020 0.206790 0.047700
0.507408 0.204501 0.035004
0.535912 0.201328 0.025574
0.562615 0.197452 0.016754
0.588617 0.193484 0.007202
0.614374 0.189548 0.000000
0.640620 0.185641 0.000000
0.668238 0.181918 0.000000
0.698116 0.178531 0.000000
0.731167 0.175021 0.000000
0.767971 0.171847 0.000000
0.807370 0.168551 0.000000
0.848356 0.164706 0.000000
0.889433 0.160433 0.000000
0.928771 0.155886 0.000000
0.964416 0.151431 0.000000
0.994629 0.147341 0.000000
0.105776 0.166690 0.105745
0.107851 0.167208 0.105623
0.110323 0.167971 0.105684
0.116426 0.167758 0.106203
0.125887 0.167208 0.108003
0.136538 0.166720 0.110384
0.148745 0.169131 0.111330
0.168765 0.181888 0.105104
0.199832 0.197024 0.096437
0.239872 0.212406 0.086336
0.279881 0.221744 0.080476
0.324315 0.230533 0.073487
0.371923 0.238560 0.064240
0.420478 0.244358 0.049805
0.455940 0.244144 0.036469
0.488960 0.242527 0.023194
0.519005 0.239445 0.014008
0.546593 0.235691 0.004822
0.572412 0.231266 0.000000
0.597681 0.227024 0.000000
0.622980 0.222995 0.000000
0.649073 0.218906 0.000000
0.676692 0.215610 0.000000
0.706783 0.212619 0.000000
0.740169 0.210269 0.000000
0.776791 0.207889 0.000000
0.815793 0.205875 0.000000
0.855894 0.203647 0.000000
0.895750 0.201144 0.000000
0.933776 0.198093 0.000000
0.967864 0.194949 0.000000
0.996826 0.192325 0.000000
0.107424 0.185580 0.109590
0.109102 0.186191 0.109682
0.111788 0.187076 0.109468
0.117708 0.187411 0.109712
0.127687 0.187137 0.111391
0.139528 0.186770 0.113802
0.152499 0.186496 0.116884
0.168368 0.193515 0.115419
0.193515 0.208927 0.107637
0.229618 0.226719 0.096803
0.275731 0.245975 0.082002
0.321019 0.258213 0.072877
0.368414 0.268193 0.061860
0.416815 0.275914 0.040833
0.463905 0.281041 0.011810
0.502953 0.281071 0.000000
0.531731 0.276921 0.000000
0.558312 0.271946 0.000000
0.583337 0.267033 0.000000
0.607782 0.261936 0.000000
0.632776 0.257450 0.000000
0.658747 0.253483 0.000000
0.686549 0.250095 0.000000
0.716915 0.247501 0.000000
0.750576 0.245579 0.000000
0.787015 0.244053 0.000000
0.825345 0.242832 0.000000
0.864378 0.241428 0.000000
0.902861 0.239780 0.000000
0.939208 0.237644 0.000000
0.971649 0.235294 0.000000
0.999176 0.232883 0.000000
0.108217 0.206821 0.114046
0.110201 0.207431 0.113893
0.112825 0.208347 0.113680
0.118593 0.209293 0.113161
0.129305 0.209171 0.114931
0.142336 0.208957 0.117403
0.156710 0.208835 0.120485
0.171572 0.208865 0.124331
0.191775 0.221683 0.119478
0.222416 0.239719 0.109682
0.263737 0.260685 0.095766
0.315343 0.283360 0.074830
0.364538 0.297612 0.060365
0.412879 0.307317 0.032471
0.459937 0.313970 0.000000
0.503319 0.316655 0.000000
0.542596 0.316045 0.000000
0.571008 0.310979 0.000000
0.595087 0.304570 0.000000
0.619104 0.298772 0.000000
0.643793 0.293736 0.000000
0.669825 0.289403 0.000000
0.697841 0.286076 0.000000
0.728634 0.283574 0.000000
0.762417 0.282078 0.000000
0.798459 0.281041 0.000000
0.835874 0.280003 0.000000
0.873655 0.279149 0.000000
0.910521 0.277897 0.000000
0.945068 0.276066 0.000000
0.975647 0.273686 0.000000
1.000000 0.271397 0.000000
0.109102 0.229709 0.118563
0.110933 0.230472 0.118593
0.113771 0.231327 0.118349
0.119081 0.232975 0.117311
0.130617 0.233005 0.118776
0.144533 0.233097 0.121279
0.160128 0.233310 0.124331
0.176516 0.233524 0.128450
0.193820 0.235294 0.132082
0.219425 0.253605 0.123445
0.255100 0.274571 0.111330
0.301366 0.298131 0.093660
0.356268 0.322484 0.065370
0.408392 0.338231 0.026246
0.455451 0.346288 0.000000
0.499001 0.350134 0.000000
0.538476 0.350439 0.000000
0.574945 0.348516 0.000000
0.607782 0.344518 0.000000
0.631525 0.337713 0.000000
0.656123 0.331914 0.000000
0.682307 0.327306 0.000000
0.710719 0.323766 0.000000
0.741939 0.321477 0.000000
0.775631 0.320012 0.000000
0.811032 0.319005 0.000000
0.847349 0.318181 0.000000
0.883604 0.317205 0.000000
0.918669 0.315953 0.000000
0.951202 0.314000 0.000000
0.979736 0.311620 0.000000
1.000000 0.308873 0.000000
0.109102 0.254368 0.123598
0.111238 0.255100 0.123415
0.113954 0.256138 0.123140
0.120394 0.258122 0.122591
0.130953 0.258824 0.122744
0.146151 0.258946 0.125093
0.163119 0.259312 0.128298
0.180880 0.259648 0.132387
0.199161 0.260258 0.137484
0.219852 0.267857 0.137728
0.250462 0.288823 0.127260
0.290745 0.312016 0.112703
0.340551 0.337316 0.091035
0.398840 0.363470 0.047883
0.450385 0.378027 0.000000
0.494148 0.383154 0.000000
0.533837 0.384222 0.000000
0.570520 0.382788 0.000000
0.605005 0.379797 0.000000
0.639490 0.376806 0.000000
0.669825 0.372473 0.000000
0.696376 0.367346 0.000000
0.725307 0.363653 0.000000
0.756710 0.361181 0.000000
0.790066 0.359564 0.000000
0.824582 0.358312 0.000000
0.859556 0.357305 0.000000
0.894072 0.356023 0.000000
0.927062 0.354284 0.000000
0.957397 0.351965 0.000000
0.983886 0.349035 0.000000
1.000000 0.345800 0.000000
0.108583 0.280735 0.128969
0.111025 0.281376 0.128603
0.113680 0.282444 0.128328
0.120485 0.284550 0.127718
0.130465 0.285954 0.126986
0.147097 0.286290 0.129519
0.165194 0.286809 0.132692
0.184482 0.287358 0.136812
0.204105 0.288151 0.141787
0.224308 0.289128 0.147768
0.249241 0.303380 0.143709
0.284031 0.326207 0.131350
0.327886 0.350713 0.114351
0.379858 0.376501 0.088777
0.438788 0.402441 0.021698
0.488777 0.415381 0.000000
0.528710 0.417182 0.000000
0.565698 0.416449 0.000000
0.600458 0.413886 0.000000
0.635218 0.411383 0.000000
0.671443 0.409674 0.000000
0.710445 0.409339 0.000000
0.741512 0.406012 0.000000
0.772854 0.403174 0.000000
0.805539 0.401068 0.000000
0.838834 0.399237 0.000000
0.872221 0.397528 0.000000
0.904753 0.395575 0.000000
0.935576 0.393194 0.000000
0.963561 0.390143 0.000000
0.987976 0.386481 0.000000
1.000000 0.382666 0.000000
0.107668 0.307927 0.134524
0.110079 0.308629 0.134157
0.113039 0.309575 0.133883
0.119997 0.311742 0.133242
0.129580 0.313970 0.131441
0.147372 0.314458 0.133974
0.166659 0.315099 0.137118
0.187076 0.315831 0.141299
0.208164 0.316747 0.146304
0.229770 0.317815 0.152255
0.251347 0.319097 0.159213
0.280858 0.340246 0.149813
0.318914 0.364050 0.135958
0.364874 0.388952 0.116945
0.417578 0.414160 0.088472
0.475135 0.438300 0.008057
0.523095 0.449500 0.000000
0.560266 0.449348 0.000000
0.595483 0.447364 0.000000
0.630549 0.445350 0.000000
0.666957 0.444129 0.000000
0.706233 0.444465 0.000000
0.748898 0.446418 0.000000
0.790036 0.447425 0.000000
0.821683 0.444373 0.000000
0.853635 0.441749 0.000000
0.885100 0.439033 0.000000
0.915526 0.436133 0.000000
0.943938 0.432715 0.000000
0.969482 0.428595 0.000000
0.991852 0.424109 0.000000
1.000000 0.419501 0.000000
0.106447 0.335546 0.140261
0.108797 0.336248 0.140047
0.112276 0.337133 0.139773
0.119539 0.339208 0.138979
0.129915 0.342229 0.137667
0.147097 0.342809 0.138735
0.167453 0.343511 0.142000
0.188907 0.344427 0.146090
0.211307 0.345342 0.151095
0.233768 0.346532 0.157015
0.256687 0.347906 0.164004
0.280766 0.354162 0.168124
0.313664 0.377111 0.156771
0.353826 0.401221 0.141787
0.400397 0.425299 0.121492
0.451972 0.448615 0.091920
0.507134 0.470436 0.012940
0.553887 0.480934 0.000000
0.590082 0.480079 0.000000
0.625452 0.478523 0.000000
0.662165 0.477943 0.000000
0.701625 0.478920 0.000000
0.744533 0.481727 0.000000
0.789212 0.485054 0.000000
0.833524 0.487648 0.000000
0.868589 0.485786 0.000000
0.898009 0.481727 0.000000
0.926055 0.477516 0.000000
0.951934 0.472816 0.000000
0.975097 0.467506 0.000000
0.995483 0.461921 0.000000
1.000000 0.456519 0.056977
0.105013 0.362982 0.146700
0.107729 0.363622 0.146334
0.111177 0.364538 0.146212
0.118898 0.366583 0.145571
0.130770 0.369696 0.144686
0.145937 0.371008 0.143954
0.167666 0.371710 0.147341
0.190311 0.372564 0.151369
0.213291 0.373632 0.156374
0.237064 0.374792 0.162417
0.260868 0.376287 0.169406
0.284703 0.377783 0.177462
0.311528 0.390021 0.176944
0.346319 0.412970 0.164981
0.387304 0.436072 0.149294
0.432990 0.458289 0.128878
0.482887 0.479591 0.100435
0.536492 0.500084 0.036500
0.582849 0.510582 0.000000
0.619928 0.511040 0.000000
0.656947 0.510979 0.000000
0.696559 0.512688 0.000000
0.739712 0.516320 0.000000
0.784726 0.520684 0.000000
0.829496 0.524193 0.000000
0.871885 0.525994 0.000000
0.910399 0.525597 0.000000
0.936065 0.519768 0.000000
0.959380 0.513390 0.000000
0.980224 0.506767 0.025605
0.998749 0.500084 0.071046
1.000000 0.493660 0.096986
0.103822 0.389929 0.153231
0.107057 0.390539 0.153048
0.110750 0.391455 0.152895
0.118746 0.393286 0.152285
0.131197 0.396246 0.151553
0.145174 0.398322 0.149630
0.167727 0.399145 0.153109
0.190982 0.400031 0.157198
0.215122 0.401038 0.162325
0.239506 0.402319 0.168399
0.264012 0.403754 0.175326
0.288609 0.405341 0.183566
0.313298 0.407080 0.192874
0.342748 0.424872 0.187015
0.378363 0.446937 0.174807
0.418921 0.468299 0.159365
0.463813 0.489113 0.139651
0.512505 0.509331 0.112215
0.564599 0.528679 0.065919
0.611719 0.540337 0.000000
0.651209 0.543297 0.000000
0.691096 0.545708 0.000000
0.734585 0.550225 0.000000
0.779965 0.555627 0.000000
0.825071 0.560113 0.000000
0.867918 0.562829 0.000000
0.906828 0.562982 0.000000
0.940490 0.560540 0.007996
0.966094 0.554589 0.067933
0.984802 0.546441 0.089448
1.000000 0.538476 0.109529
1.000000 0.531060 0.130068
0.103792 0.416876 0.160311
0.106783 0.417395 0.160128
0.110811 0.418219 0.159854
0.119173 0.419959 0.159518
0.131746 0.422675 0.159121
0.144656 0.425513 0.156100
0.168032 0.426246 0.159670
0.192233 0.427192 0.163882
0.216770 0.428321 0.169100
0.241855 0.429541 0.175113
0.266972 0.430884 0.182284
0.292363 0.432441 0.190433
0.317632 0.434211 0.199924
0.342962 0.437415 0.209140
0.373877 0.458381 0.199435
0.409583 0.478950 0.187442
0.449622 0.499184 0.172366
0.493721 0.519036 0.153048
0.541436 0.538354 0.127138
0.592828 0.557427 0.086915
0.641901 0.571191 0.000000
0.685237 0.577996 0.000000
0.728969 0.583429 0.000000
0.774746 0.589837 0.000000
0.820279 0.595422 0.000000
0.863615 0.598993 0.000000
0.902983 0.599847 0.000000
0.937011 0.597742 0.061372
0.965026 0.592706 0.094636
0.987640 0.585809 0.124117
1.000000 0.577111 0.144106
1.000000 0.568627 0.162142
0.104402 0.443641 0.167971
0.107546 0.444221 0.167910
0.111757 0.444984 0.167788
0.120333 0.446540 0.167483
0.133608 0.449012 0.167239
0.149386 0.452155 0.166842
0.169131 0.453101 0.167269
0.193668 0.453956 0.171511
0.218784 0.455055 0.176822
0.244358 0.456214 0.183078
0.269993 0.457465 0.190402
0.295903 0.458930 0.198764
0.321599 0.460517 0.208316
0.347234 0.462257 0.219028
0.373571 0.470466 0.223850
0.404730 0.490211 0.214389
0.440345 0.509911 0.202579
0.479927 0.529290 0.188144
0.523278 0.548425 0.169650
0.570611 0.567712 0.144778
0.622339 0.587488 0.108125
0.674464 0.604395 0.044312
0.722957 0.615839 0.006073
0.769070 0.623346 0.000000
0.815152 0.630060 0.000000
0.858946 0.634577 0.014405
0.898833 0.636103 0.058412
0.933288 0.634363 0.086244
0.961608 0.629450 0.114137
0.984466 0.622431 0.141421
1.000000 0.614343 0.168460
1.000000 0.606195 0.194339
0.106538 0.470100 0.176577
0.109651 0.470588 0.176516
0.114382 0.471168 0.176303
0.123323 0.472633 0.176364
0.136721 0.474769 0.176425
0.154208 0.477668 0.177005
0.171603 0.479103 0.176089
0.196323 0.479927 0.180636
0.221744 0.480842 0.186099
0.247654 0.481971 0.192416
0.273503 0.483162 0.199863
0.299687 0.484443 0.208438
0.325628 0.485908 0.218051
0.351537 0.487526 0.228916
0.377173 0.489296 0.241062
0.404181 0.502007 0.240879
0.435645 0.521172 0.231815
0.470924 0.540154 0.220554
0.510094 0.559136 0.206485
0.553552 0.578485 0.188510
0.601495 0.598749 0.164492
0.654658 0.620264 0.129610
0.710567 0.640772 0.075502
0.763119 0.656031 0.059449
0.809628 0.663874 0.060456
0.854002 0.669459 0.069581
0.894316 0.671748 0.086580
0.929259 0.670466 0.108644
0.957916 0.665583 0.133150
0.981079 0.658381 0.158846
0.999786 0.650019 0.185153
1.000000 0.641474 0.211948
0.111543 0.495766 0.185916
0.115023 0.496162 0.185885
0.119203 0.496742 0.185885
0.128450 0.497993 0.186099
0.142397 0.499855 0.186618
0.159762 0.502403 0.187869
0.176089 0.504448 0.186618
0.200717 0.505180 0.191348
0.226139 0.506065 0.196841
0.252049 0.507042 0.203372
0.277897 0.508263 0.211002
0.304265 0.509483 0.219638
0.330480 0.510948 0.229526
0.356481 0.512474 0.240452
0.382300 0.514214 0.252445
0.407843 0.516075 0.265660
0.435279 0.533135 0.260380
0.466651 0.551690 0.251713
0.501946 0.570642 0.240879
0.541588 0.590204 0.226993
0.585992 0.610925 0.209354
0.635584 0.633082 0.185306
0.690944 0.656947 0.151705
0.749386 0.679835 0.098848
0.803769 0.696925 0.089357
0.848661 0.703578 0.096559
0.889555 0.706722 0.110201
0.925017 0.705898 0.129061
0.954040 0.701198 0.152102
0.977478 0.693782 0.176547
0.996399 0.685023 0.202243
1.000000 0.675990 0.228580
0.119112 0.521263 0.196414
0.122499 0.521630 0.196567
0.126864 0.522118 0.196597
0.136294 0.523186 0.197147
0.149996 0.524895 0.198062
0.167483 0.527184 0.199863
0.184451 0.529595 0.200046
0.207187 0.530358 0.203555
0.232273 0.531273 0.209354
0.258000 0.532280 0.215976
0.283970 0.533379 0.223728
0.310124 0.534600 0.232547
0.336217 0.535943 0.242405
0.362402 0.537438 0.253422
0.388281 0.539055 0.265476
0.413947 0.540887 0.278630
0.439185 0.545953 0.288762
0.466987 0.564263 0.282109
0.498756 0.583154 0.273808
0.534844 0.603113 0.263066
0.575799 0.624323 0.249271
0.622065 0.647242 0.231113
0.673884 0.671717 0.207279
0.730434 0.696803 0.174411
0.788235 0.719203 0.127810
0.842588 0.736477 0.120089
0.884489 0.740963 0.131838
0.920439 0.740719 0.149264
0.949889 0.736141 0.170687
0.973663 0.728542 0.194461
0.992828 0.719387 0.219364
1.000000 0.709865 0.245579
0.129732 0.547173 0.208469
0.132815 0.547478 0.208652
0.137331 0.547906 0.208957
0.146487 0.548882 0.209659
0.160311 0.550347 0.211032
0.177707 0.552361 0.213413
0.198184 0.554803 0.217014
0.216098 0.555810 0.217746
0.240879 0.556603 0.223575
0.266026 0.557549 0.230411
0.291691 0.558648 0.238254
0.317601 0.559838 0.247196
0.343572 0.561181 0.257115
0.369696 0.562646 0.268040
0.395575 0.564294 0.280095
0.421241 0.566094 0.293248
0.446632 0.568170 0.307256
0.471839 0.578088 0.312413
0.500389 0.597223 0.305852
0.533318 0.617548 0.297398
0.570977 0.639490 0.286534
0.614099 0.663203 0.272313
0.662379 0.688167 0.254124
0.715053 0.713344 0.230411
0.771054 0.737850 0.199496
0.827207 0.758785 0.157839
0.878019 0.773129 0.153140
0.915679 0.774716 0.168612
0.945556 0.770352 0.189120
0.969665 0.762631 0.212131
0.989075 0.753109 0.236851
1.000000 0.743008 0.262577
0.143679 0.573571 0.222110
0.146731 0.573877 0.222538
0.151034 0.574304 0.222934
0.159915 0.575128 0.223972
0.173312 0.576440 0.225772
0.190555 0.578210 0.228794
0.211276 0.580438 0.233249
0.228061 0.581933 0.233951
0.251865 0.582757 0.239963
0.276585 0.583734 0.246952
0.301610 0.584863 0.254826
0.327276 0.586114 0.263706
0.353155 0.587549 0.273716
0.378943 0.589166 0.284611
0.404852 0.590967 0.296635
0.430579 0.592981 0.309575
0.456062 0.595209 0.323430
0.481086 0.597772 0.338140
0.506920 0.613367 0.337774
0.537011 0.634394 0.331151
0.571832 0.657160 0.322332
0.611872 0.681544 0.311070
0.656580 0.706722 0.296605
0.705226 0.731777 0.278538
0.757076 0.755886 0.255894
0.810941 0.778256 0.227085
0.865202 0.797665 0.189456
0.909178 0.806180 0.188266
0.941039 0.803830 0.207401
0.965484 0.796017 0.229801
0.985168 0.786130 0.254032
1.000000 0.775479 0.279515
0.160708 0.601801 0.238193
0.163882 0.602045 0.238590
0.168002 0.602380 0.239109
0.176638 0.603174 0.240482
0.189609 0.604395 0.242741
0.206302 0.606043 0.246220
0.226505 0.608118 0.251255
0.242863 0.610101 0.252537
0.265843 0.611017 0.258610
0.289647 0.612116 0.265599
0.314305 0.613367 0.273442
0.339544 0.614832 0.282414
0.365026 0.616510 0.292332
0.390875 0.618402 0.303227
0.416632 0.620447 0.315099
0.442420 0.622827 0.327794
0.468055 0.625513 0.341405
0.493355 0.628473 0.355627
0.518273 0.632593 0.369543
0.545922 0.654536 0.364141
0.578271 0.678187 0.357031
0.615259 0.702907 0.347967
0.656428 0.727932 0.336584
0.701106 0.752499 0.322515
0.748531 0.775784 0.305333
0.797757 0.797147 0.284184
0.847868 0.815976 0.258274
0.897978 0.831785 0.225376
0.934783 0.834501 0.225376
0.961151 0.828641 0.247135
0.981170 0.818387 0.270848
0.997375 0.807218 0.296086
0.180819 0.633478 0.256931
0.183841 0.633722 0.257359
0.187778 0.634089 0.258061
0.195804 0.634821 0.259617
0.208408 0.636011 0.262242
0.224765 0.637598 0.266087
0.244450 0.639643 0.271489
0.263249 0.641962 0.275669
0.282689 0.643244 0.279667
0.305852 0.644617 0.286717
0.329931 0.646143 0.294530
0.354711 0.647913 0.303410
0.380011 0.649958 0.313237
0.405646 0.652247 0.323980
0.431495 0.654810 0.335576
0.457374 0.657679 0.347906
0.483192 0.660975 0.360998
0.508812 0.664637 0.374548
0.534234 0.668696 0.388586
0.559960 0.679286 0.396490
0.589899 0.703334 0.390692
0.623926 0.727932 0.383307
0.661585 0.752316 0.374243
0.702327 0.775814 0.363165
0.745357 0.797757 0.350042
0.789761 0.817533 0.334264
0.834897 0.834714 0.315343
0.879881 0.848905 0.292393
0.924254 0.860075 0.264164
0.955322 0.858335 0.263615
0.977020 0.849912 0.287266
0.993530 0.838163 0.312200
0.203586 0.671107 0.278996
0.206485 0.671351 0.279576
0.210086 0.671748 0.280430
0.217990 0.672480 0.282078
0.230167 0.673732 0.284947
0.245884 0.675410 0.289067
0.264897 0.677546 0.294682
0.286748 0.680140 0.301976
0.302312 0.682002 0.303441
0.324956 0.683680 0.310399
0.348547 0.685634 0.318181
0.373053 0.687831 0.326940
0.398199 0.690303 0.336584
0.423804 0.693111 0.347021
0.449622 0.696193 0.358129
