其他预设/【233】日式怀旧街道调色预设208款/1.3D LUT预设（视频调色-PR-AE-PS-FCPX-达芬奇用）/3.日式城市街拍预设 (自动曝光预设)/JA – Chrome 3 (Auto-Exposure).cube
# Created by Adobe Lightroom plugin Export LUT (1.17.0)
# www.johnrellis.com/lightroom/exportlut.htm
# Preset: JA – Chrome 3 (Auto-Exposure)
# Color profile: /Library/Application Support/Adobe/Color/Profiles/Recommended/AdobeRGB1998.icc
LUT_3D_SIZE 32
0.120058 0.117037 0.122683
0.122621 0.117006 0.122805
0.126070 0.117067 0.122713
0.133883 0.117128 0.122683
0.143252 0.117403 0.122744
0.153750 0.117494 0.122774
0.166384 0.117952 0.122683
0.182925 0.118563 0.122347
0.206790 0.119387 0.121553
0.241215 0.120546 0.120363
0.290440 0.122194 0.117433
0.353887 0.124666 0.112764
0.423774 0.127810 0.105592
0.491524 0.131502 0.096254
0.551019 0.135622 0.085512
0.602777 0.139773 0.072389
0.648432 0.142123 0.057679
0.689296 0.146853 0.020783
0.726131 0.149813 0.000000
0.760342 0.154208 0.000000
0.792477 0.158053 0.000000
0.822751 0.161624 0.000000
0.850950 0.165469 0.000000
0.877134 0.168887 0.000000
0.901396 0.172793 0.000000
0.923766 0.175509 0.000000
0.944244 0.179202 0.000000
0.962890 0.182559 0.000000
0.980011 0.184817 0.000000
0.995789 0.187991 0.000000
1.000000 0.190249 0.000000
1.000000 0.186862 0.000000
0.120333 0.119570 0.123049
0.123201 0.119509 0.122774
0.126528 0.119997 0.122835
0.134066 0.120516 0.122591
0.143465 0.120577 0.122499
0.154147 0.120638 0.122530
0.166873 0.121035 0.122591
0.183536 0.121584 0.122255
0.207523 0.122713 0.121462
0.242527 0.124422 0.120150
0.292088 0.127108 0.117281
0.355596 0.130404 0.112673
0.425513 0.134615 0.105287
0.493294 0.140200 0.095338
0.552209 0.143496 0.084688
0.603571 0.147097 0.071870
0.649012 0.151217 0.054078
0.689967 0.155520 0.016999
0.726528 0.158816 0.000000
0.760769 0.162264 0.000000
0.792844 0.165927 0.000000
0.823026 0.169131 0.000000
0.851164 0.171725 0.000000
0.877379 0.175631 0.000000
0.901549 0.179141 0.000000
0.923888 0.182315 0.000000
0.944305 0.185000 0.000000
0.962982 0.187747 0.000000
0.980072 0.190463 0.000000
0.995819 0.192844 0.000000
1.000000 0.195041 0.000000
1.000000 0.192142 0.000000
0.120638 0.123262 0.123293
0.123934 0.123323 0.123201
0.127321 0.123384 0.123110
0.134127 0.124025 0.123079
0.143648 0.124666 0.122927
0.154543 0.124666 0.122744
0.167453 0.124819 0.122469
0.184298 0.125460 0.122286
0.208865 0.127169 0.121584
0.243992 0.129610 0.120180
0.293858 0.133242 0.117372
0.357549 0.138430 0.112062
0.427680 0.144442 0.104341
0.494911 0.150515 0.094392
0.553460 0.155215 0.083009
0.604944 0.159518 0.069551
0.650111 0.163424 0.049073
0.690791 0.166232 0.011322
0.727291 0.169039 0.000000
0.761288 0.172427 0.000000
0.793423 0.175753 0.000000
0.823453 0.178195 0.000000
0.851530 0.181704 0.000000
0.877623 0.183963 0.000000
0.901854 0.186770 0.000000
0.924071 0.189517 0.000000
0.944457 0.192599 0.000000
0.963073 0.194797 0.000000
0.980133 0.196841 0.000000
0.995850 0.198672 0.000000
1.000000 0.200809 0.000000
1.000000 0.198520 0.000000
0.121859 0.130739 0.124147
0.124880 0.130678 0.124086
0.128725 0.130434 0.123995
0.135470 0.130831 0.123964
0.144198 0.131014 0.123873
0.155367 0.132845 0.123323
0.168368 0.133150 0.123018
0.185916 0.134096 0.122805
0.211093 0.136538 0.121798
0.247318 0.140627 0.120119
0.298375 0.147097 0.116609
0.362799 0.155184 0.110872
0.432349 0.164370 0.102419
0.498512 0.171359 0.092012
0.556542 0.177188 0.079530
0.607324 0.181552 0.065187
0.652064 0.185153 0.038727
0.692531 0.188418 0.000000
0.728725 0.190860 0.000000
0.762539 0.192691 0.000000
0.794461 0.195071 0.000000
0.824308 0.197330 0.000000
0.852323 0.199557 0.000000
0.878294 0.201907 0.000000
0.902312 0.203922 0.000000
0.924468 0.205447 0.000000
0.944732 0.207034 0.000000
0.963287 0.209415 0.000000
0.980255 0.210636 0.000000
0.995941 0.211734 0.000000
1.000000 0.213138 0.000000
1.000000 0.211795 0.000000
0.123293 0.139681 0.125551
0.125856 0.139498 0.125490
0.129641 0.139467 0.125399
0.136416 0.139284 0.125216
0.145571 0.140047 0.125063
0.155795 0.139986 0.124758
0.169589 0.142702 0.124178
0.188479 0.147158 0.123323
0.215152 0.151125 0.122225
0.252934 0.157809 0.119905
0.305516 0.167361 0.115877
0.370428 0.179568 0.108675
0.439551 0.191226 0.099153
0.504631 0.200961 0.087129
0.561456 0.207858 0.073213
0.611078 0.212406 0.055634
0.655360 0.215427 0.018433
0.695277 0.218357 0.000000
0.731044 0.219638 0.000000
0.764553 0.220920 0.000000
0.796109 0.222507 0.000000
0.825772 0.223545 0.000000
0.853483 0.224887 0.000000
0.879240 0.226291 0.000000
0.903075 0.226963 0.000000
0.925078 0.228031 0.000000
0.945220 0.228580 0.000000
0.963592 0.229313 0.000000
0.980499 0.230320 0.000000
0.996063 0.230564 0.000000
1.000000 0.231113 0.000000
1.000000 0.230655 0.000000
0.125032 0.149874 0.126925
0.127291 0.149905 0.126864
0.130617 0.149783 0.126772
0.137392 0.149447 0.126619
0.146487 0.149996 0.126467
0.157809 0.151339 0.126162
0.170382 0.151766 0.125856
0.190036 0.157443 0.124636
0.219364 0.167453 0.122469
0.260746 0.180270 0.119173
0.315648 0.194583 0.113436
0.380774 0.210117 0.105257
0.449134 0.224979 0.093446
0.512352 0.235935 0.079652
0.567559 0.243809 0.063050
0.616327 0.248325 0.029511
0.659571 0.250980 0.000000
0.698787 0.252689 0.000000
0.734035 0.253727 0.000000
0.767239 0.254551 0.000000
0.798337 0.254490 0.000000
0.827665 0.254582 0.000000
0.855070 0.254856 0.000000
0.880491 0.254856 0.000000
0.904112 0.255009 0.000000
0.925872 0.254551 0.000000
0.945800 0.254398 0.000000
0.964050 0.254368 0.000000
0.980804 0.254002 0.000000
0.996246 0.253605 0.000000
1.000000 0.253056 0.000000
1.000000 0.252811 0.000000
0.126223 0.162051 0.127993
0.128695 0.162051 0.127901
0.131930 0.161929 0.128023
0.138613 0.161654 0.127871
0.148287 0.161593 0.127596
0.159579 0.163241 0.127230
0.173983 0.166201 0.126741
0.191562 0.168673 0.126101
0.221286 0.180056 0.123476
0.265049 0.198337 0.119051
0.326452 0.224949 0.110353
0.393744 0.247379 0.098878
0.460609 0.264439 0.084688
0.521721 0.276280 0.067231
0.575402 0.283848 0.033661
0.622400 0.287449 0.000000
0.664851 0.289830 0.000000
0.703151 0.290959 0.000000
0.737819 0.290898 0.000000
0.770413 0.290227 0.000000
0.801053 0.289647 0.000000
0.829953 0.288762 0.000000
0.856962 0.288334 0.000000
0.882078 0.287175 0.000000
0.905394 0.285954 0.000000
0.926879 0.284977 0.000000
0.946563 0.283879 0.000000
0.964569 0.282536 0.000000
0.981109 0.280766 0.000000
0.996460 0.279789 0.000000
1.000000 0.278416 0.000000
1.000000 0.277043 0.000000
0.127687 0.178195 0.128786
0.130129 0.178164 0.128725
0.133333 0.178195 0.128634
0.140261 0.178164 0.128634
0.150698 0.178256 0.128298
0.163424 0.178836 0.127993
0.178714 0.183108 0.127260
0.198611 0.188785 0.126406
0.222995 0.194583 0.124636
0.267887 0.215030 0.119387
0.329198 0.243839 0.109743
0.401282 0.277134 0.093782
0.474128 0.308751 0.069795
0.532494 0.320531 0.034180
0.584039 0.327459 0.000000
0.629725 0.330968 0.000000
0.670954 0.332341 0.000000
0.708339 0.331762 0.000000
0.742275 0.330846 0.000000
0.774228 0.329412 0.000000
0.804349 0.327855 0.000000
0.832731 0.326024 0.000000
0.859251 0.323827 0.000000
0.883970 0.321813 0.000000
0.906859 0.319646 0.000000
0.928038 0.317571 0.000000
0.947417 0.315221 0.000000
0.965179 0.312810 0.000000
0.981537 0.310460 0.000000
0.996674 0.308110 0.000000
1.000000 0.305852 0.000000
1.000000 0.303593 0.000000
0.128420 0.201083 0.129030
0.131441 0.201266 0.128939
0.135042 0.201236 0.128847
0.143008 0.201419 0.128756
0.154574 0.201816 0.128359
0.168948 0.202029 0.127810
0.186160 0.205478 0.127016
0.207980 0.213138 0.125246
0.235691 0.223087 0.122957
0.269230 0.233555 0.119600
0.332036 0.265110 0.108370
0.403540 0.299901 0.090669
0.475471 0.332677 0.063661
0.539513 0.358923 0.000000
0.593652 0.374853 0.000000
0.637812 0.377142 0.000000
0.677974 0.377264 0.000000
0.714260 0.375982 0.000000
0.747341 0.373510 0.000000
0.778500 0.370550 0.000000
0.808072 0.367834 0.000000
0.835813 0.364813 0.000000
0.861845 0.361975 0.000000
0.886107 0.358465 0.000000
0.908598 0.355291 0.000000
0.929351 0.351873 0.000000
0.948394 0.348486 0.000000
0.965850 0.345281 0.000000
0.981964 0.341833 0.000000
0.996918 0.338476 0.000000
1.000000 0.335546 0.000000
1.000000 0.332311 0.000000
0.128420 0.233524 0.127474
0.131685 0.233463 0.127413
0.136446 0.233738 0.127230
0.145846 0.234012 0.126894
0.160067 0.234440 0.126345
0.176974 0.235019 0.125795
0.196536 0.235904 0.125032
0.220462 0.244297 0.122713
0.251286 0.257298 0.119142
0.289647 0.273289 0.113680
0.331579 0.287205 0.107271
0.405829 0.324712 0.086458
0.476387 0.357824 0.052613
0.539391 0.383886 0.000000
0.595087 0.404273 0.000000
0.644404 0.420508 0.000000
0.685634 0.425086 0.000000
0.720790 0.421942 0.000000
0.752865 0.418036 0.000000
0.783352 0.414038 0.000000
0.812100 0.409552 0.000000
0.839292 0.405432 0.000000
0.864714 0.401099 0.000000
0.888457 0.396918 0.000000
0.910460 0.392370 0.000000
0.930785 0.387976 0.000000
0.949401 0.383459 0.000000
0.966583 0.379156 0.000000
0.982422 0.374578 0.000000
0.997101 0.370459 0.000000
1.000000 0.366491 0.000000
1.000000 0.362371 0.000000
0.126162 0.276921 0.123110
0.130739 0.277104 0.122927
0.137240 0.277195 0.122713
0.148959 0.277562 0.122286
0.166262 0.278050 0.121553
0.186648 0.279057 0.120882
0.210208 0.279942 0.119570
0.236057 0.282994 0.117403
0.268925 0.297917 0.112306
0.309117 0.315709 0.104952
0.356725 0.336034 0.094240
0.402106 0.349310 0.083406
0.477333 0.384771 0.029297
0.539513 0.410651 0.000000
0.594324 0.430396 0.000000
0.643214 0.445930 0.000000
0.687495 0.458564 0.000000
0.727138 0.469001 0.000000
0.758846 0.464607 0.000000
0.788449 0.458869 0.000000
0.816556 0.453407 0.000000
0.842985 0.447669 0.000000
0.867857 0.441962 0.000000
0.890898 0.436347 0.000000
0.912444 0.430823 0.000000
0.932250 0.425086 0.000000
0.950500 0.419745 0.000000
0.967315 0.414374 0.000000
0.982849 0.408942 0.000000
0.997284 0.403601 0.000000
1.000000 0.398810 0.000000
1.000000 0.394079 0.000000
0.122042 0.330266 0.114321
0.128176 0.330327 0.114137
0.135561 0.330480 0.114046
0.150759 0.330816 0.113436
0.172213 0.331395 0.112184
0.196780 0.331975 0.111055
0.224338 0.333104 0.109133
0.253605 0.334112 0.107057
0.286381 0.342016 0.102205
0.327153 0.360266 0.092287
0.373877 0.380316 0.078126
0.426642 0.401801 0.050477
0.473365 0.413581 0.004273
0.539086 0.438575 0.000000
0.593286 0.457618 0.000000
0.641779 0.472389 0.000000
0.685878 0.484352 0.000000
0.725490 0.493690 0.000000
0.761257 0.501579 0.000000
0.793912 0.505760 0.000000
0.821195 0.498665 0.000000
0.846799 0.491249 0.000000
0.870970 0.484504 0.000000
0.893584 0.477424 0.000000
0.914488 0.470466 0.000000
0.933776 0.463874 0.000000
0.951568 0.457130 0.000000
0.967987 0.450416 0.000000
0.983215 0.444221 0.000000
0.997375 0.438056 0.000000
1.000000 0.432349 0.000000
1.000000 0.426703 0.000000
0.114748 0.387640 0.100404
0.122164 0.387884 0.100069
0.132082 0.387762 0.099763
0.151705 0.388098 0.098817
0.176333 0.388312 0.097536
0.205173 0.388769 0.095888
0.236423 0.389227 0.093202
0.268772 0.389776 0.090333
0.302617 0.390234 0.086488
0.341527 0.403662 0.075380
0.386816 0.422461 0.052186
0.436133 0.441688 0.000000
0.489021 0.460914 0.000000
0.536309 0.471717 0.000000
0.591974 0.485969 0.000000
0.640040 0.500023 0.000000
0.683864 0.511070 0.000000
0.723384 0.519615 0.000000
0.759182 0.526482 0.000000
0.792813 0.532555 0.000000
0.823911 0.538140 0.000000
0.850828 0.536492 0.000000
0.874296 0.527855 0.000000
0.896208 0.519677 0.000000
0.916503 0.511376 0.000000
0.935302 0.503288 0.000000
0.952636 0.495430 0.000000
0.968627 0.487861 0.000000
0.983490 0.480385 0.000000
0.997345 0.473487 0.000000
1.000000 0.466773 0.000000
1.000000 0.460334 0.000000
0.104952 0.443519 0.079896
0.115633 0.443397 0.079530
0.127138 0.443549 0.078950
0.150149 0.443427 0.077821
0.178927 0.443336 0.076051
0.210666 0.443336 0.073732
0.244572 0.443336 0.070253
0.279759 0.443275 0.065644
0.315831 0.443091 0.059236
0.352270 0.444038 0.045014
0.394781 0.460517 0.000000
0.441077 0.477607 0.000000
0.490242 0.494759 0.000000
0.542443 0.511864 0.000000
0.589349 0.521538 0.000000
0.638117 0.528405 0.000000
0.681697 0.538628 0.000000
0.720943 0.546349 0.000000
0.757015 0.552300 0.000000
0.790646 0.557733 0.000000
0.821866 0.562310 0.000000
0.850584 0.566217 0.000000
0.876860 0.569665 0.000000
0.898802 0.562707 0.000000
0.918486 0.553094 0.000000
0.936706 0.543725 0.000000
0.953521 0.534630 0.000000
0.969116 0.525841 0.000000
0.983612 0.517754 0.000000
0.997162 0.509697 0.000000
1.000000 0.502281 0.000000
1.000000 0.495094 0.000000
0.095216 0.493111 0.042267
0.107057 0.492988 0.042206
0.120394 0.492927 0.040558
0.146883 0.492714 0.035615
0.178195 0.492622 0.030457
0.212802 0.492226 0.022461
0.248722 0.491737 0.011139
0.285710 0.491005 0.000000
0.322942 0.490333 0.000000
0.360388 0.489509 0.000000
0.399237 0.494606 0.000000
0.442664 0.509850 0.000000
0.488777 0.525170 0.000000
0.537835 0.540703 0.000000
0.588891 0.556085 0.000000
0.635462 0.565454 0.000000
0.677852 0.566888 0.000000
0.718349 0.573724 0.000000
0.754452 0.578973 0.000000
0.788235 0.583520 0.000000
0.819547 0.587335 0.000000
0.848447 0.590478 0.000000
0.874846 0.593103 0.000000
0.898863 0.595026 0.000000
0.920287 0.595727 0.000000
0.937957 0.585016 0.000000
0.954253 0.574670 0.000000
0.969390 0.564935 0.000000
0.983520 0.555657 0.000000
0.996735 0.546868 0.000000
1.000000 0.538720 0.000000
1.000000 0.530877 0.000000
0.081727 0.536645 0.000000
0.097841 0.536553 0.000000
0.113588 0.536400 0.000000
0.141573 0.536187 0.000000
0.175814 0.535668 0.000000
0.212406 0.535088 0.000000
0.249699 0.534386 0.000000
0.287541 0.533410 0.000000
0.325628 0.532403 0.000000
0.363775 0.531121 0.000000
0.401709 0.529808 0.000000
0.442115 0.538842 0.000000
0.485573 0.552758 0.000000
0.531731 0.567071 0.000000
0.579706 0.581201 0.000000
0.629816 0.595483 0.000000
0.676204 0.604852 0.000000
0.712734 0.601709 0.000000
0.751644 0.606195 0.000000
0.785550 0.610101 0.000000
0.817075 0.613184 0.000000
0.846067 0.615595 0.000000
0.872618 0.617304 0.000000
0.896696 0.618585 0.000000
0.918364 0.619257 0.000000
0.937743 0.619532 0.000000
0.954681 0.615656 0.000000
0.969390 0.604822 0.000000
0.983093 0.594659 0.000000
0.995972 0.585077 0.000000
1.000000 0.576074 0.000000
1.000000 0.567742 0.059297
0.073610 0.575067 0.000000
0.089082 0.574945 0.000000
0.106691 0.574792 0.000000
0.137697 0.574426 0.000000
0.173342 0.573907 0.000000
0.210269 0.573205 0.000000
0.248844 0.572381 0.000000
0.287053 0.571221 0.000000
0.325231 0.570001 0.000000
0.364019 0.568475 0.000000
0.402319 0.566796 0.000000
0.440558 0.565179 0.000000
0.481605 0.577996 0.000000
0.524926 0.591119 0.000000
0.570489 0.604395 0.000000
0.617548 0.617578 0.000000
0.666041 0.630610 0.000000
0.712459 0.640406 0.000000
0.744900 0.634119 0.000000
0.782559 0.637018 0.000000
0.814267 0.639460 0.000000
0.843412 0.641199 0.000000
0.870085 0.642237 0.000000
0.894316 0.642786 0.000000
0.916106 0.642786 0.000000
0.935576 0.642420 0.000000
0.952972 0.641932 0.000000
0.968597 0.641505 0.000000
0.982269 0.634272 0.048432
0.994690 0.624079 0.089509
1.000000 0.614496 0.113558
1.000000 0.605646 0.133394
0.061952 0.609491 0.000000
0.081086 0.609277 0.000000
0.100526 0.609247 0.000000
0.132906 0.608820 0.000000
0.169406 0.608301 0.000000
0.207492 0.607568 0.000000
0.246342 0.606592 0.000000
0.284855 0.605402 0.000000
0.323247 0.604150 0.000000
0.362371 0.602533 0.000000
0.400732 0.600855 0.000000
0.438758 0.598932 0.000000
0.477455 0.601465 0.000000
0.518700 0.613886 0.000000
0.561761 0.626398 0.000000
0.606622 0.638819 0.000000
0.652735 0.651179 0.000000
0.699672 0.663264 0.000000
0.745937 0.673335 0.000000
0.774563 0.664820 0.000000
0.811063 0.666163 0.000000
0.840452 0.667170 0.000000
0.867369 0.667597 0.000000
0.891661 0.667506 0.000000
0.913542 0.666835 0.000000
0.933074 0.665980 0.000000
0.950561 0.664942 0.000000
0.966155 0.664057 0.086641
0.980224 0.663355 0.124697
0.992828 0.662959 0.155245
1.000000 0.653559 0.173983
1.000000 0.644312 0.190311
0.052644 0.641779 0.000000
0.077272 0.641718 0.000000
0.097810 0.641566 0.000000
0.129488 0.641291 0.000000
0.166659 0.640742 0.000000
0.205112 0.639979 0.000000
0.243992 0.639033 0.000000
0.282353 0.637934 0.000000
0.321233 0.636713 0.000000
0.359533 0.635248 0.000000
0.398077 0.633570 0.000000
0.436225 0.631678 0.000000
0.474159 0.629664 0.000000
0.513390 0.636225 0.000000
0.554253 0.647913 0.000000
0.596948 0.659785 0.000000
0.640803 0.671534 0.000000
0.685725 0.682979 0.000000
0.731289 0.694118 0.000000
0.777218 0.704585 0.000000
0.802426 0.693782 0.000000
0.837278 0.693446 0.000000
0.864317 0.693263 0.000000
0.888762 0.692561 0.000000
0.910796 0.691341 0.000000
0.930358 0.689906 0.014679
0.947875 0.688380 0.098787
0.963531 0.687098 0.136110
0.977539 0.686091 0.168460
0.990143 0.685359 0.195773
1.000000 0.685084 0.220859
1.000000 0.683253 0.243351
0.049104 0.672877 0.000000
0.073152 0.672786 0.000000
0.096529 0.672572 0.000000
0.127687 0.672297 0.000000
0.165347 0.671748 0.000000
0.202762 0.671107 0.000000
0.241703 0.670161 0.000000
0.280125 0.669062 0.000000
0.318669 0.667872 0.000000
0.357214 0.666438 0.000000
0.395209 0.664820 0.000000
0.433509 0.662989 0.000000
0.471199 0.661006 0.000000
0.508751 0.658930 0.000000
0.547967 0.669245 0.000000
0.588586 0.680385 0.000000
0.630518 0.691463 0.000000
0.673365 0.702358 0.000000
0.716884 0.712917 0.000000
0.760830 0.723079 0.000000
0.804868 0.732631 0.000000
0.827878 0.721065 0.000000
0.860990 0.719112 0.000000
0.885649 0.717769 0.000000
0.907683 0.716091 0.029389
0.927398 0.714137 0.104250
0.944884 0.712154 0.143771
0.960601 0.710384 0.176150
0.974609 0.709010 0.205417
0.987121 0.708125 0.232700
0.998383 0.707668 0.257633
1.000000 0.707668 0.281102
0.053254 0.702663 0.000000
0.076051 0.702480 0.000000
0.095521 0.702388 0.000000
0.127779 0.702113 0.000000
0.164920 0.701595 0.000000
0.202060 0.700923 0.000000
0.239750 0.700069 0.000000
0.278325 0.699062 0.000000
0.316258 0.697841 0.000000
0.354559 0.696498 0.000000
0.392676 0.694911 0.000000
0.430396 0.693202 0.000000
0.467720 0.691371 0.000000
0.505180 0.689265 0.000000
0.542565 0.690364 0.000000
0.581598 0.700801 0.000000
0.621637 0.711208 0.000000
0.662531 0.721523 0.000000
0.704189 0.731441 0.000000
0.746212 0.740993 0.000000
0.788266 0.750027 0.000000
0.830106 0.758541 0.000000
0.851072 0.746548 0.000000
0.881865 0.743191 0.022614
0.904448 0.740780 0.104799
0.924193 0.738338 0.146395
0.941772 0.735897 0.180453
0.957427 0.733822 0.211551
0.971435 0.732021 0.239750
0.984009 0.730800 0.265965
0.995178 0.730098 0.291081
1.000000 0.729915 0.314794
0.064027 0.731319 0.000000
0.084016 0.731197 0.000000
0.101289 0.731044 0.000000
0.131228 0.730770 0.000000
0.165774 0.730343 0.000000
0.202609 0.729732 0.000000
0.239933 0.728878 0.000000
0.277073 0.727901 0.000000
0.315190 0.726772 0.000000
0.352514 0.725490 0.000000
0.390021 0.724056 0.000000
0.427466 0.722408 0.000000
0.464820 0.720577 0.000000
0.501671 0.718654 0.000000
0.538415 0.716548 0.000000
0.575525 0.721187 0.000000
0.613947 0.730892 0.000000
0.653315 0.740505 0.000000
0.693050 0.749844 0.000000
0.733211 0.758724 0.000000
0.773526 0.767208 0.000000
0.813474 0.775143 0.000000
0.852964 0.782559 0.000000
0.872465 0.770596 0.081178
0.899931 0.765927 0.142916
0.920745 0.762417 0.181064
0.938384 0.759548 0.213321
0.954162 0.756924 0.242557
0.968200 0.754757 0.270268
0.980682 0.753201 0.297368
0.991882 0.752132 0.321965
1.000000 0.751614 0.344915
0.082002 0.758968 0.000000
0.095491 0.758877 0.000000
0.110506 0.758724 0.000000
0.138582 0.758450 0.000000
0.169924 0.758053 0.000000
0.205478 0.757412 0.000000
0.241611 0.756680 0.000000
0.277470 0.755856 0.000000
0.314488 0.754757 0.000000
0.351690 0.753506 0.000000
0.388464 0.752102 0.000000
0.425330 0.750576 0.000000
0.461952 0.748898 0.000000
0.498329 0.747036 0.000000
0.534874 0.744991 0.000000
0.570916 0.742916 0.000000
0.607691 0.750607 0.000000
0.645319 0.759487 0.000000
0.683436 0.768124 0.000000
0.721889 0.776394 0.000000
0.760494 0.784237 0.000000
0.798764 0.791531 0.000000
0.836576 0.798367 0.034058
0.873533 0.804593 0.106752
0.892210 0.793576 0.160922
0.915709 0.787167 0.207980
0.934874 0.782803 0.242649
0.950683 0.779721 0.272068
0.964813 0.777096 0.298985
0.977386 0.775021 0.324834
0.988617 0.773526 0.349248
0.998627 0.772671 0.372442
0.103273 0.785641 0.000000
0.113039 0.785580 0.000000
0.125307 0.785428 0.000000
0.149111 0.785183 0.000000
0.178500 0.784787 0.000000
0.210880 0.784207 0.000000
0.245182 0.783536 0.000000
0.280156 0.782681 0.000000
0.315892 0.781674 0.000000
0.351690 0.780514 0.000000
0.387915 0.779202 0.000000
0.423590 0.777829 0.000000
0.459785 0.776242 0.000000
0.495705 0.774472 0.000000
0.531487 0.772580 0.000000
0.567224 0.770596 0.000000
0.602777 0.770474 0.000000
0.638849 0.778622 0.000000
0.675563 0.786496 0.000000
0.712398 0.794034 0.000000
0.749264 0.801144 0.000000
0.785916 0.807797 0.044221
0.822080 0.813993 0.106996
0.857511 0.819638 0.147524
0.891844 0.824735 0.181613
0.909483 0.814511 0.222995
0.929625 0.806851 0.264958
0.947204 0.801938 0.298405
0.961395 0.798856 0.325322
0.974060 0.796292 0.350469
0.985351 0.794339 0.374334
0.995422 0.793027 0.397284
0.127718 0.811337 0.000000
0.135561 0.811276 0.000000
0.146304 0.811124 0.000000
0.165377 0.810880 0.000000
0.191379 0.810513 0.000000
0.220584 0.809995 0.000000
0.252567 0.809323 0.000000
0.285313 0.808560 0.000000
0.319371 0.807645 0.000000
0.353857 0.806577 0.000000
0.388556 0.805386 0.000000
0.423804 0.804013 0.000000
0.458961 0.802548 0.000000
0.494087 0.800931 0.000000
0.529229 0.799161 0.000000
0.564202 0.797299 0.000000
0.599145 0.795315 0.000000
0.633997 0.798001 0.000000
0.669062 0.805051 0.000000
0.704494 0.811826 0.000000
0.739895 0.818173 0.042664
0.774990 0.824125 0.107179
0.809628 0.829587 0.146517
0.843412 0.834531 0.180606
0.876280 0.839048 0.212924
0.908019 0.843137 0.242985
0.924681 0.833707 0.277440
0.941894 0.825284 0.316350
0.958007 0.819944 0.348943
0.970794 0.816861 0.373419
0.982177 0.814389 0.397162
0.992279 0.812650 0.420386
0.157595 0.835996 0.065370
0.163577 0.835904 0.065064
0.172061 0.835782 0.063691
0.187411 0.835569 0.063508
0.209537 0.835233 0.060090
0.235447 0.834775 0.057069
0.263981 0.834165 0.048371
0.294621 0.833433 0.035737
0.326513 0.832578 0.023102
0.359075 0.831601 0.005585
0.392523 0.830472 0.000000
0.426093 0.829282 0.000000
0.460060 0.827909 0.000000
0.494179 0.826413 0.000000
0.528283 0.824796 0.000000
0.562402 0.823087 0.000000
0.596582 0.821225 0.000000
0.630549 0.819272 0.000000
0.664424 0.824002 0.000000
0.698421 0.829862 0.039704
0.732387 0.835416 0.105287
0.766079 0.840482 0.145113
0.799130 0.845182 0.179385
0.831540 0.849485 0.211307
0.862943 0.853330 0.240940
0.893278 0.856809 0.270573
0.922362 0.859983 0.298405
0.938354 0.851560 0.328161
0.952850 0.842496 0.363348
0.967620 0.836698 0.394446
0.979065 0.833768 0.418158
0.989227 0.831571 0.441413
0.192203 0.859556 0.126467
0.196475 0.859495 0.126894
0.202853 0.859373 0.126314
0.215366 0.859190 0.125307
0.233799 0.858854 0.124636
0.256138 0.858427 0.122713
0.281254 0.857908 0.121096
0.308812 0.857237 0.119356
0.338018 0.856443 0.116487
0.368414 0.855558 0.113832
0.399573 0.854551 0.110140
0.431556 0.853391 0.105257
0.463966 0.852171 0.099702
0.496559 0.850828 0.094087
0.529442 0.849302 0.087678
0.562493 0.847745 0.079103
0.595575 0.846036 0.068666
0.628687 0.844236 0.050324
0.661707 0.843290 0.043763
0.694301 0.848234 0.106355
0.726833 0.852842 0.145937
0.759091 0.857053 0.179904
0.790768 0.860929 0.210666
0.821805 0.864469 0.240848
0.851835 0.867674 0.269718
0.880827 0.870573 0.297276
0.908690 0.873167 0.323278
0.935393 0.875517 0.347967
0.950591 0.868070 0.374456
0.962737 0.858488 0.407019
0.976043 0.852476 0.437568
0.986267 0.849821 0.461189
0.230991 0.881865 0.177554
0.234592 0.881804 0.177462
0.239078 0.881712 0.177584
0.249241 0.881529 0.177035
0.264134 0.881285 0.176455
0.282841 0.880858 0.175845
0.304662 0.880369 0.174838
0.328740 0.879759 0.173129
0.355016 0.879057 0.171725
0.382635 0.878233 0.169345
0.411475 0.877317 0.167422
0.441108 0.876280 0.165377
0.471565 0.875151 0.161990
0.502434 0.873869 0.159304
0.533623 0.872526 0.155489
