其他预设/【233】日式怀旧街道调色预设208款/1.3D LUT预设（视频调色-PR-AE-PS-FCPX-达芬奇用）/3.日式城市街拍预设 (自动曝光预设)/JA – Shaded Light 4 (Auto-Exposure).cube
# Created by Adobe Lightroom plugin Export LUT (1.17.0)
# www.johnrellis.com/lightroom/exportlut.htm
# Preset: JA – Shaded Light 4 (Auto-Exposure)
# Color profile: /Library/Application Support/Adobe/Color/Profiles/Recommended/AdobeRGB1998.icc
LUT_3D_SIZE 5
DOMAIN_MIN 0.000000 0.000000 0.000000
DOMAIN_MAX 0.903226 0.903226 0.903226
0.041871 0.058595 0.070344
0.166934 0.059785 0.075563
0.325017 0.058869 0.087343
0.688106 0.000000 0.030488
0.938415 0.000000 0.000000
0.021271 0.184421 0.084108
0.157900 0.179538 0.085145
0.379583 0.212619 0.090944
0.715633 0.229862 0.000000
0.948699 0.178622 0.000000
0.000000 0.453010 0.080964
0.170809 0.442695 0.067659
0.394110 0.432868 0.040925
0.751034 0.518700 0.000000
0.977722 0.488838 0.000000
0.000000 0.791287 0.000000
0.082673 0.784085 0.000000
0.425696 0.756649 0.000000
0.696742 0.741085 0.000000
0.956176 0.723415 0.000000
0.000000 0.988769 0.000000
0.000000 0.985901 0.000000
0.368078 0.975586 0.000000
0.634882 0.956695 0.000000
0.903319 0.942565 0.000000
0.030518 0.092561 0.200412
0.138308 0.100099 0.200137
0.305760 0.059297 0.231296
0.670802 0.000000 0.171664
0.932311 0.000000 0.147036
0.074708 0.181735 0.209781
0.151095 0.178683 0.212222
0.351598 0.160616 0.197818
0.700343 0.085573 0.172702
0.943481 0.000000 0.142336
0.000000 0.468666 0.254307
0.080079 0.456733 0.192081
0.396826 0.436957 0.176883
0.767697 0.506218 0.151858
0.975097 0.451270 0.121584
0.000000 0.799893 0.179568
0.000000 0.792782 0.100160
0.401617 0.764645 0.000000
0.697627 0.742184 0.000000
0.962219 0.718471 0.000000
0.000000 0.992737 0.000000
0.000000 0.987945 0.172152
0.341558 0.978332 0.000000
0.622309 0.958221 0.000000
0.903380 0.942718 0.000000
0.000000 0.148928 0.428504
0.155093 0.142885 0.422736
0.280613 0.136263 0.381537
0.576104 0.000000 0.516533
0.904845 0.000000 0.509789
0.000000 0.249668 0.461707
0.092836 0.199069 0.455238
0.307744 0.164706 0.411231
0.622919 0.000000 0.513603
0.916899 0.000000 0.453925
0.000000 0.506310 0.526207
0.000000 0.499153 0.522820
0.406195 0.447974 0.495735
0.723232 0.367163 0.429511
0.951873 0.302281 0.387518
0.000000 0.821134 0.541009
0.000000 0.812802 0.541588
0.449531 0.777890 0.543206
0.699947 0.743404 0.470588
0.956451 0.754726 0.580468
0.000000 0.991852 0.526726
0.211826 0.987152 0.545586
0.501152 0.971740 0.590631
0.641749 0.958709 0.479744
0.903471 0.940703 0.449775
0.000000 0.186435 0.756130
0.130709 0.167880 0.752621
0.425391 0.000000 0.737545
0.595300 0.000000 0.698268
0.817960 0.170779 0.764767
0.000000 0.307225 0.765377
0.122866 0.291722 0.761532
0.422370 0.217777 0.745754
0.606134 0.148714 0.705562
0.817685 0.282963 0.763668
0.411170 0.646143 0.780911
0.468391 0.644038 0.778653
0.519066 0.572625 0.766232
0.644465 0.489631 0.724971
0.860716 0.416449 0.755612
0.370611 0.823362 0.809476
0.450996 0.817868 0.808438
0.599512 0.800076 0.802487
0.719600 0.748043 0.769833
0.931640 0.690761 0.725124
0.493111 0.982025 0.806088
0.541985 0.978912 0.810452
0.651392 0.970611 0.816739
0.760739 0.955138 0.804288
0.911528 0.936492 0.744991
0.375097 0.476020 0.939330
0.418982 0.471962 0.938537
0.539361 0.447822 0.935637
0.700496 0.378729 0.929168
0.841093 0.396857 0.910369
0.460883 0.570581 0.938231
0.488685 0.564324 0.937560
0.576501 0.536797 0.934966
0.713802 0.462287 0.929198
0.844846 0.458778 0.910552
0.663844 0.773770 0.936828
0.652552 0.754513 0.937194
0.661707 0.708858 0.936370
0.745266 0.647059 0.930419
0.857053 0.597650 0.912352
0.721981 0.881743 0.943694
0.742428 0.883055 0.943572
0.798917 0.886107 0.943023
0.808011 0.834348 0.939147
0.879454 0.762417 0.917845
0.698329 0.975006 0.954345
0.720790 0.973541 0.954650
0.785946 0.968994 0.955718
0.867369 0.962615 0.957214
0.927733 0.936706 0.941711
