其他预设/【233】日式怀旧街道调色预设208款/1.3D LUT预设（视频调色-PR-AE-PS-FCPX-达芬奇用）/3.日式城市街拍预设 (自动曝光预设)/JA – Gritty Contrast 2 (Auto-Exposure).cube
# Created by Adobe Lightroom plugin Export LUT (1.17.0)
# www.johnrellis.com/lightroom/exportlut.htm
# Preset: JA – Gritty Contrast 2 (Auto-Exposure)
# Color profile: /Library/Application Support/Adobe/Color/Profiles/Recommended/AdobeRGB1998.icc
LUT_3D_SIZE 32
0.070192 0.076143 0.083955
0.078584 0.080323 0.088411
0.090364 0.085023 0.094545
0.112764 0.096559 0.107546
0.140291 0.106905 0.120943
0.169223 0.114504 0.130861
0.200351 0.119448 0.139010
0.234562 0.122835 0.145907
0.273198 0.124605 0.152010
0.317174 0.124971 0.157839
0.366522 0.124239 0.164462
0.419226 0.125917 0.173404
0.471260 0.130861 0.185153
0.519707 0.139193 0.198032
0.561822 0.151888 0.212497
0.598322 0.167391 0.228763
0.630762 0.185672 0.246494
0.660670 0.205966 0.265782
0.689052 0.228061 0.286290
0.717128 0.252079 0.308690
0.745571 0.278264 0.333013
0.774075 0.306310 0.358862
0.802243 0.335973 0.385840
0.829557 0.366644 0.413367
0.855650 0.397742 0.440986
0.880278 0.428199 0.467811
0.903258 0.457435 0.493477
0.923980 0.486061 0.518547
0.942077 0.514946 0.543664
0.956909 0.545403 0.569970
0.968200 0.579034 0.598749
0.975921 0.616999 0.631189
0.073152 0.083192 0.086610
0.080171 0.083742 0.087831
0.092164 0.089082 0.094209
0.114900 0.099916 0.107271
0.142153 0.110323 0.120241
0.171328 0.117708 0.130404
0.202640 0.123171 0.138674
0.236881 0.126497 0.145541
0.275822 0.128695 0.151614
0.320012 0.129305 0.157412
0.369574 0.129183 0.163943
0.422004 0.131228 0.173007
0.474006 0.136812 0.184817
0.521996 0.145357 0.197726
0.563592 0.157107 0.212375
0.599939 0.172213 0.228702
0.632166 0.189731 0.246555
0.661982 0.209689 0.265904
0.690242 0.231113 0.286412
0.718196 0.254826 0.308873
0.746517 0.280522 0.333257
0.775021 0.308385 0.359197
0.803067 0.337774 0.386053
0.830228 0.368292 0.413642
0.856260 0.399237 0.441260
0.880797 0.429358 0.468025
0.903624 0.458442 0.493690
0.924315 0.487037 0.518730
0.942321 0.515801 0.543816
0.957092 0.546197 0.570153
0.968292 0.579675 0.598901
0.975982 0.617578 0.631342
0.077150 0.092988 0.090242
0.085084 0.093568 0.090272
0.094423 0.094575 0.093202
0.117220 0.105592 0.106752
0.144961 0.115175 0.119783
0.174289 0.122683 0.129915
0.205692 0.128084 0.138186
0.239994 0.131838 0.145022
0.279088 0.134218 0.151064
0.323827 0.135225 0.156924
0.373510 0.135988 0.163363
0.426001 0.138949 0.172488
0.477485 0.144533 0.184207
0.525017 0.152926 0.197330
0.566155 0.164431 0.212222
0.602014 0.178378 0.228611
0.634119 0.195834 0.246525
0.663752 0.214878 0.265965
0.691768 0.235416 0.286564
0.719692 0.258640 0.309209
0.747951 0.283909 0.333654
0.776303 0.311254 0.359472
0.804227 0.340398 0.386572
0.831235 0.370550 0.414130
0.857115 0.401221 0.441657
0.881498 0.431037 0.468360
0.904234 0.460121 0.493996
0.924743 0.488380 0.518944
0.942657 0.516899 0.544060
0.957305 0.547204 0.570367
0.968414 0.580560 0.599145
0.976043 0.618311 0.631556
0.085939 0.113680 0.097841
0.093996 0.114046 0.097597
0.103609 0.114046 0.097841
0.120912 0.115328 0.103975
0.150607 0.127443 0.117952
0.180453 0.134310 0.128389
0.211948 0.139406 0.136690
0.247196 0.143526 0.143618
0.286839 0.146578 0.149691
0.332219 0.148470 0.155428
0.382300 0.150576 0.161990
0.434546 0.154360 0.171176
0.485389 0.160800 0.183200
0.531548 0.168887 0.196506
0.571496 0.179080 0.211612
0.606622 0.192233 0.228428
0.638117 0.207431 0.246708
0.667353 0.225101 0.266300
0.695247 0.244785 0.287205
0.722774 0.266667 0.309911
0.750942 0.291020 0.334417
0.778988 0.317510 0.360327
0.806668 0.345892 0.387457
0.833371 0.375433 0.414954
0.858915 0.405463 0.442481
0.883055 0.434821 0.469093
0.905455 0.463172 0.494606
0.925750 0.491279 0.519524
0.943359 0.519493 0.544549
0.957794 0.549462 0.570886
0.968719 0.582452 0.599542
0.976196 0.619959 0.631952
0.095796 0.136172 0.105501
0.102998 0.136263 0.105318
0.112032 0.136416 0.104829
0.128481 0.136782 0.105653
0.152377 0.139223 0.112459
0.187808 0.151644 0.124788
0.222721 0.159182 0.134035
0.258762 0.163333 0.140902
0.299504 0.166842 0.147005
0.345892 0.170260 0.152651
0.395972 0.173465 0.159213
0.447608 0.178164 0.168704
0.497017 0.184543 0.181094
0.541344 0.191806 0.195163
0.579767 0.200717 0.210819
0.613611 0.211826 0.228000
0.644373 0.225040 0.246769
0.673030 0.240482 0.266728
0.700404 0.258396 0.287846
0.727810 0.278813 0.310948
0.755550 0.301732 0.335546
0.783291 0.327184 0.361700
0.810513 0.354559 0.388800
0.836728 0.383093 0.416388
0.861814 0.412177 0.443732
0.885466 0.440681 0.470192
0.907408 0.468421 0.495552
0.927214 0.495644 0.520378
0.944427 0.523339 0.545373
0.958495 0.552880 0.571557
0.969146 0.585504 0.600275
0.976440 0.622553 0.632654
0.104952 0.159640 0.110475
0.111482 0.159731 0.110109
0.120089 0.159518 0.109651
0.136294 0.160037 0.109529
0.158145 0.161379 0.110262
0.187594 0.164950 0.117098
0.230198 0.179446 0.127718
0.274815 0.191958 0.136019
0.317205 0.195773 0.142306
0.364385 0.199985 0.147860
0.414435 0.203983 0.154726
0.464820 0.209110 0.164706
0.512169 0.214755 0.177981
0.553887 0.220493 0.192935
0.590356 0.227298 0.209445
0.622827 0.236149 0.227420
0.652552 0.247288 0.246738
0.680598 0.260533 0.267216
0.707454 0.276280 0.288853
0.734554 0.294865 0.312261
0.761807 0.316228 0.337133
0.789029 0.340063 0.363500
0.815518 0.365820 0.390570
0.841184 0.393164 0.418128
0.865629 0.421088 0.445411
0.888640 0.448463 0.471687
0.910033 0.475196 0.496864
0.929198 0.501640 0.521569
0.945861 0.528679 0.546410
0.959472 0.557519 0.572625
0.969757 0.589593 0.601251
0.976776 0.626032 0.633570
0.114351 0.184665 0.112978
0.120790 0.184543 0.112612
0.128878 0.184482 0.111971
0.144747 0.184451 0.110780
0.165866 0.186130 0.111421
0.191257 0.187747 0.112154
0.227756 0.194369 0.118227
0.279301 0.212375 0.126436
0.334661 0.229526 0.133577
0.387884 0.238834 0.140017
0.437354 0.242710 0.147311
0.485664 0.246464 0.158511
0.529992 0.250492 0.173159
0.568811 0.253971 0.189517
0.603174 0.258579 0.207309
0.634058 0.264927 0.226322
0.662654 0.273289 0.246494
0.690059 0.284245 0.267674
0.716365 0.297765 0.289952
0.742855 0.314122 0.313695
0.769589 0.333715 0.339117
0.795987 0.355688 0.365576
0.821775 0.379950 0.392798
0.846647 0.405646 0.420325
0.870298 0.432136 0.447425
0.892576 0.458198 0.473426
0.913176 0.483711 0.498512
0.931640 0.509239 0.522972
0.947662 0.535271 0.547723
0.960632 0.563348 0.573877
0.970489 0.594659 0.602441
0.977142 0.630396 0.634760
0.125704 0.211612 0.112764
0.131441 0.211612 0.112367
0.139193 0.211643 0.111696
0.154513 0.211734 0.110475
0.175570 0.213138 0.109987
0.201297 0.215915 0.109926
0.227176 0.215640 0.111055
0.275212 0.228946 0.114992
0.337804 0.251835 0.120821
0.400641 0.271733 0.126741
0.463783 0.288701 0.135561
0.509056 0.290013 0.149081
0.549676 0.290837 0.166354
0.585565 0.291630 0.184726
0.617670 0.293400 0.204135
0.646967 0.297032 0.224582
0.674830 0.302983 0.245914
0.701259 0.311498 0.267979
0.727047 0.322515 0.291081
0.752865 0.336950 0.315465
0.778866 0.354314 0.341344
0.804349 0.374212 0.368017
0.829252 0.396582 0.395392
0.853117 0.420600 0.422889
0.875822 0.445228 0.449805
0.897215 0.469856 0.475624
0.916838 0.493935 0.500298
0.934508 0.518181 0.524651
0.949706 0.543267 0.549279
0.962005 0.570459 0.575372
0.971313 0.600793 0.603906
0.977600 0.635645 0.636164
0.139437 0.242222 0.109865
0.144961 0.242191 0.109438
0.152224 0.242252 0.108705
0.167117 0.242252 0.107424
0.188113 0.242985 0.105806
0.213321 0.246464 0.105409
0.243565 0.251072 0.104433
0.269902 0.248386 0.106020
0.332250 0.270268 0.105959
0.403265 0.296818 0.109407
0.468177 0.316411 0.117952
0.528862 0.333196 0.135012
0.571038 0.336004 0.156374
0.603998 0.333227 0.177981
0.633875 0.332006 0.199649
0.661952 0.332708 0.222080
0.688746 0.336034 0.244694
0.714382 0.341833 0.268040
0.739437 0.350622 0.292088
0.764462 0.362524 0.317357
0.789456 0.377630 0.343603
0.813962 0.395544 0.370825
0.837766 0.415747 0.398260
0.860533 0.437720 0.425757
0.882109 0.460456 0.452491
0.902373 0.483162 0.477943
0.921050 0.505821 0.502495
0.937713 0.528618 0.526604
0.951995 0.552483 0.551110
0.963531 0.578607 0.577173
0.972229 0.607935 0.605615
0.978088 0.641779 0.637842
0.155612 0.276707 0.103304
0.161013 0.276585 0.102846
0.167910 0.276677 0.102266
0.182437 0.276707 0.100832
0.202884 0.276860 0.098116
0.228244 0.280369 0.096895
0.258579 0.285954 0.094850
0.294041 0.292515 0.092256
0.320745 0.287022 0.095033
0.396735 0.316747 0.089326
0.469703 0.342840 0.095155
0.529320 0.358892 0.113558
0.581048 0.371313 0.139712
0.623438 0.378241 0.168307
0.651698 0.373602 0.193362
0.678614 0.371435 0.218173
0.704311 0.371954 0.242832
0.729213 0.375128 0.267704
0.753353 0.381476 0.292851
0.777401 0.390906 0.318944
0.801297 0.403571 0.346136
0.824552 0.419074 0.373693
0.847135 0.437079 0.401404
0.868650 0.456947 0.428931
0.889036 0.477455 0.455360
0.908141 0.498238 0.480629
0.925597 0.519127 0.504875
0.941192 0.540459 0.528801
0.954498 0.563012 0.553185
0.965209 0.587915 0.579187
0.973266 0.616022 0.607599
0.978637 0.648737 0.639765
0.173678 0.315282 0.092531
0.178836 0.315312 0.091951
0.185794 0.315404 0.091218
0.199985 0.315435 0.089204
0.220066 0.315435 0.086275
0.245457 0.317845 0.083070
0.276158 0.324010 0.079713
0.311559 0.331212 0.075471
0.352544 0.339818 0.069001
0.385016 0.335485 0.071443
0.462501 0.363928 0.064088
0.529961 0.385626 0.084871
0.580957 0.396612 0.115877
0.626246 0.405371 0.148623
0.667994 0.414984 0.183017
0.696864 0.413489 0.212497
0.721675 0.410864 0.239628
0.745693 0.411475 0.266392
0.768734 0.414954 0.293187
0.791623 0.421820 0.320592
0.814145 0.431983 0.348547
0.836118 0.445075 0.376684
0.857328 0.460761 0.404730
0.877440 0.478065 0.432166
0.896513 0.496345 0.458503
0.914244 0.515068 0.483467
0.930449 0.533959 0.507469
0.944884 0.553613 0.531243
0.957122 0.574670 0.555535
0.966949 0.598230 0.581445
0.974365 0.625086 0.609857
0.979217 0.656458 0.641901
0.194247 0.357488 0.075654
0.199069 0.357336 0.074983
0.205966 0.357488 0.073579
0.219486 0.357275 0.071351
0.239597 0.357305 0.067201
0.264256 0.357458 0.061311
0.294530 0.363867 0.052918
0.329686 0.371344 0.037842
0.370214 0.380011 0.014252
0.415320 0.389502 0.000000
0.451637 0.384741 0.000000
0.522698 0.407446 0.014893
0.580865 0.422583 0.082704
0.625788 0.430060 0.122713
0.667384 0.437690 0.160525
0.707271 0.447089 0.198917
0.740749 0.452979 0.235050
0.763516 0.450507 0.264317
0.785275 0.451148 0.293034
0.806821 0.455329 0.321782
0.827909 0.462745 0.350774
0.848356 0.473121 0.379675
0.867948 0.486030 0.408087
0.886717 0.501030 0.435645
0.904265 0.516808 0.461769
0.920653 0.533227 0.486458
0.935546 0.550225 0.510277
0.948730 0.568017 0.533867
0.959838 0.587518 0.558068
0.968750 0.609552 0.583917
0.975433 0.635004 0.612268
0.979797 0.665003 0.644221
0.215702 0.400610 0.041291
0.220279 0.400671 0.038758
0.226719 0.400427 0.036164
0.240146 0.400427 0.028595
0.259709 0.400000 0.017151
0.283696 0.399695 0.003113
0.312779 0.403784 0.000000
0.347173 0.411017 0.000000
0.386267 0.419257 0.000000
0.429664 0.428321 0.000000
0.473793 0.434607 0.000000
0.513146 0.429511 0.000000
0.573693 0.444465 0.000000
0.624964 0.455207 0.087282
0.666682 0.461280 0.133333
0.706447 0.468818 0.175235
0.745327 0.478737 0.217197
0.781613 0.491249 0.260166
0.802670 0.489723 0.291936
0.822690 0.490791 0.322667
0.842252 0.495491 0.352941
0.861082 0.502983 0.382696
0.879118 0.513329 0.411566
0.896208 0.525505 0.439124
0.912291 0.538659 0.465095
0.927184 0.552667 0.489631
0.940703 0.567498 0.513237
0.952575 0.583551 0.536675
0.962554 0.601251 0.560754
0.970550 0.621790 0.586664
0.976532 0.645747 0.614954
0.980346 0.674159 0.646815
0.237156 0.442878 0.000000
0.242191 0.442786 0.000000
0.247807 0.442786 0.000000
0.260685 0.442542 0.000000
0.279271 0.442054 0.000000
0.302831 0.441505 0.000000
0.330480 0.442237 0.000000
0.363226 0.449012 0.000000
0.400519 0.456367 0.000000
0.441779 0.464485 0.000000
0.486427 0.472602 0.000000
0.525322 0.472877 0.000000
0.565087 0.467048 0.000000
0.617823 0.476722 0.000000
0.665034 0.485451 0.096376
0.705562 0.491585 0.147066
0.744350 0.499489 0.192325
0.780911 0.509545 0.237278
0.814603 0.522210 0.283635
0.838895 0.528405 0.322667
0.856779 0.529778 0.354650
0.873991 0.534569 0.385290
0.890318 0.541863 0.414710
0.905852 0.551293 0.442542
0.920348 0.561883 0.468360
0.933715 0.573419 0.492805
0.945800 0.586023 0.516258
0.956359 0.600000 0.539574
0.965240 0.615961 0.563714
0.972351 0.634821 0.589502
0.977600 0.657221 0.617853
0.980865 0.684016 0.649622
0.258000 0.482307 0.000000
0.261997 0.482216 0.000000
0.267735 0.482094 0.000000
0.279820 0.481727 0.000000
0.297765 0.481239 0.000000
0.320165 0.480446 0.000000
0.346288 0.479408 0.000000
0.376959 0.483528 0.000000
0.411841 0.489937 0.000000
0.450446 0.496742 0.000000
0.492073 0.503685 0.000000
0.536828 0.510704 0.000000
0.569757 0.504997 0.000000
0.610040 0.499153 0.000000
0.658137 0.506279 0.000000
0.703334 0.514519 0.110048
0.743160 0.521294 0.163272
0.779965 0.529168 0.211612
0.813993 0.539391 0.260349
0.845335 0.552850 0.309697
0.871336 0.565911 0.355688
0.886778 0.567407 0.387671
0.901457 0.571893 0.417853
0.915282 0.578180 0.445777
0.928222 0.585992 0.471626
0.940093 0.595117 0.495979
0.950774 0.605402 0.519371
0.960052 0.617334 0.542657
0.967834 0.631495 0.566796
0.974090 0.648554 0.592584
0.978637 0.669276 0.620966
0.981384 0.694392 0.652583
0.275975 0.517296 0.000000
0.280186 0.517266 0.000000
0.285161 0.517052 0.000000
0.296513 0.516533 0.000000
0.313451 0.515770 0.000000
0.334691 0.514916 0.000000
0.359503 0.513634 0.000000
0.387823 0.514244 0.000000
0.420722 0.519677 0.000000
0.456611 0.525444 0.000000
0.495796 0.531579 0.000000
0.537713 0.537865 0.000000
0.581781 0.543999 0.000000
0.609064 0.532830 0.000000
0.650752 0.528008 0.000000
0.696559 0.534752 0.027680
0.740383 0.543053 0.126284
0.778714 0.550072 0.182193
0.813260 0.558129 0.234104
0.844968 0.568963 0.286442
0.873228 0.582513 0.337957
0.897734 0.598566 0.387121
0.912291 0.602747 0.420691
0.924468 0.606104 0.448890
0.935821 0.611078 0.474800
0.946197 0.617609 0.499153
0.955474 0.625574 0.522545
0.963561 0.635462 0.545830
0.970336 0.647700 0.570031
0.975738 0.662959 0.595819
0.979614 0.682002 0.624231
0.981842 0.705257 0.655726
0.291936 0.548180 0.000000
0.295598 0.547997 0.000000
0.300725 0.547814 0.000000
0.311284 0.547295 0.000000
0.326818 0.546593 0.000000
0.346899 0.545647 0.000000
0.370550 0.544335 0.000000
0.397131 0.542596 0.000000
0.427649 0.546410 0.000000
0.461463 0.551476 0.000000
0.498268 0.556878 0.000000
0.537499 0.562463 0.000000
0.579217 0.568231 0.000000
0.623224 0.574151 0.000000
0.645289 0.558099 0.000000
0.689448 0.555688 0.000000
0.733608 0.562737 0.066377
0.775662 0.570855 0.145113
0.812161 0.577996 0.204196
0.844388 0.586481 0.260197
0.873075 0.597559 0.315160
0.897887 0.611139 0.367590
0.918791 0.626429 0.415747
0.933135 0.634730 0.451637
0.942962 0.636896 0.477882
0.951904 0.640772 0.502190
0.959869 0.646387 0.525689
0.966827 0.654170 0.549065
0.972656 0.664485 0.573419
0.977264 0.677882 0.599268
0.980499 0.695125 0.627649
0.982208 0.716579 0.659052
0.306523 0.575891 0.000000
0.309850 0.575647 0.000000
0.314488 0.575463 0.000000
0.324132 0.575006 0.000000
0.338903 0.574243 0.000000
0.357519 0.573205 0.000000
0.379980 0.571893 0.000000
0.405219 0.570367 0.000000
0.433509 0.570733 0.000000
0.465400 0.575463 0.000000
0.500114 0.580438 0.000000
0.537469 0.585687 0.000000
0.577050 0.591302 0.000000
0.619257 0.597284 0.000000
0.663020 0.602960 0.000000
0.680812 0.583001 0.000000
0.728328 0.583673 0.000000
0.770535 0.590845 0.092409
0.809720 0.598199 0.168093
0.843534 0.605371 0.230167
0.872740 0.614008 0.289464
0.897917 0.624994 0.345556
0.919066 0.638087 0.397772
0.936431 0.652033 0.443427
0.949493 0.663111 0.480598
0.957122 0.664424 0.505211
0.963897 0.667750 0.528801
0.969848 0.673335 0.552361
0.974762 0.681697 0.576867
0.978637 0.693294 0.602838
0.981262 0.708705 0.631250
0.982544 0.728267 0.662531
0.319615 0.602167 0.000000
0.322850 0.601953 0.000000
0.327123 0.601770 0.000000
0.336217 0.601343 0.000000
0.349767 0.600610 0.000000
0.367803 0.599634 0.000000
0.388739 0.598444 0.000000
0.412787 0.596857 0.000000
0.439490 0.595026 0.000000
0.469490 0.598810 0.000000
0.502647 0.603632 0.000000
0.538323 0.608881 0.000000
0.576471 0.614588 0.000000
0.616876 0.620569 0.000000
0.659419 0.626734 0.000000
0.698848 0.628840 0.000000
0.717342 0.608972 0.000000
0.766781 0.612421 0.000000
0.806394 0.618830 0.121096
0.841886 0.625055 0.195224
0.872221 0.631769 0.260258
0.897856 0.640314 0.320928
0.919341 0.651026 0.377203
0.936797 0.663081 0.427222
0.950713 0.675196 0.469734
0.961456 0.687129 0.506981
0.967559 0.689357 0.531914
0.972534 0.692927 0.555749
0.976715 0.699306 0.580346
0.979889 0.709041 0.606531
0.981933 0.722591 0.635004
0.982757 0.740230 0.666102
0.332311 0.628412 0.000000
0.335241 0.628229 0.000000
0.339208 0.628107 0.000000
0.347692 0.627649 0.000000
0.360754 0.626978 0.000000
0.377508 0.626032 0.000000
0.397711 0.624872 0.000000
0.420691 0.623468 0.000000
0.446204 0.621729 0.000000
0.474464 0.622370 0.000000
0.506126 0.627192 0.000000
0.540337 0.632441 0.000000
0.577111 0.638087 0.000000
0.616205 0.644221 0.000000
0.657435 0.650660 0.000000
0.700557 0.657557 0.000000
0.735805 0.655787 0.000000
0.757839 0.638544 0.000000
0.804440 0.641047 0.008209
0.840391 0.645991 0.153048
0.871519 0.650935 0.227085
0.897581 0.656977 0.292882
0.919432 0.665217 0.353887
0.937102 0.675166 0.408545
0.951080 0.685695 0.455207
0.961913 0.696193 0.495155
0.970001 0.707149 0.531029
0.974945 0.712764 0.559106
0.978363 0.717189 0.583948
0.980957 0.725032 0.610285
0.982483 0.736751 0.638819
0.982910 0.752407 0.669764
0.344549 0.655329 0.000000
0.347417 0.655177 0.000000
0.351232 0.654963 0.000000
0.359319 0.654566 0.000000
0.371710 0.653986 0.000000
0.387610 0.653101 0.000000
0.406653 0.652033 0.000000
0.428687 0.650721 0.000000
0.453529 0.649073 0.000000
0.480049 0.647272 0.000000
0.510430 0.651270 0.000000
0.543572 0.656580 0.000000
0.579065 0.662379 0.000000
0.616907 0.668635 0.000000
0.656916 0.675227 0.000000
0.698756 0.682124 0.000000
0.742367 0.689174 0.000000
0.773007 0.683314 0.000000
0.797635 0.668086 0.000000
0.839902 0.668788 0.093446
0.871489 0.671962 0.188663
0.897856 0.675532 0.262455
0.919432 0.680629 0.327611
0.937407 0.688319 0.387457
0.951476 0.697108 0.438697
0.962310 0.706081 0.481910
0.970489 0.715511 0.520043
0.976318 0.726253 0.555840
0.979828 0.735256 0.587549
0.981811 0.741238 0.614160
0.982879 0.751034 0.642725
0.982971 0.764767 0.673548
0.356939 0.683284 0.000000
0.359503 0.683192 0.000000
0.363012 0.683009 0.000000
0.370672 0.682704 0.000000
0.382422 0.682094 0.000000
0.397803 0.681300 0.000000
0.416297 0.680262 0.000000
0.437598 0.678981 0.000000
0.461463 0.677577 0.000000
0.487312 0.675929 0.000000
0.515862 0.676356 0.000000
0.548058 0.681758 0.000000
0.582574 0.687556 0.000000
0.619104 0.693812 0.000000
0.657740 0.700313 0.000000
0.698268 0.707149 0.000000
0.740322 0.713985 0.000000
0.783749 0.720974 0.000000
0.809354 0.710597 0.000000
0.835416 0.696529 0.000000
0.872404 0.695033 0.141176
0.899168 0.696468 0.228580
0.920592 0.698726 0.300206
0.937621 0.702693 0.363287
0.951812 0.709499 0.419928
0.962707 0.716854 0.467292
0.970977 0.724697 0.507988
0.976928 0.733822 0.545403
0.980743 0.745022 0.582147
0.982513 0.757504 0.618036
0.983154 0.765408 0.646693
0.982910 0.777188 0.677394
0.369299 0.712642 0.000000
0.371740 0.712520 0.000000
0.375128 0.712398 0.000000
0.382513 0.712032 0.000000
0.393805 0.711482 0.000000
0.408545 0.710750 0.000000
0.426368 0.709895 0.000000
0.446906 0.708705 0.000000
0.470192 0.707393 0.000000
0.495491 0.705806 0.000000
0.522667 0.704005 0.000000
0.553338 0.707790 0.000000
0.586694 0.713527 0.000000
0.622248 0.719570 0.000000
0.659632 0.725917 0.000000
0.698726 0.732418 0.000000
0.739193 0.738949 0.000000
0.781003 0.745541 0.000000
0.823575 0.752041 0.000000
0.843961 0.736721 0.000000
0.869902 0.723262 0.103883
0.901152 0.719356 0.188785
0.922759 0.719234 0.271031
0.939422 0.720180 0.339818
0.952178 0.722835 0.398383
0.963134 0.728420 0.450721
0.971435 0.734707 0.494820
0.977508 0.742184 0.534173
0.981445 0.751736 0.572168
0.983368 0.764004 0.610651
0.983368 0.779355 0.650172
0.982757 0.789700 0.681331
0.381872 0.743008 0.000000
0.384253 0.742885 0.000000
0.387427 0.742702 0.000000
0.394537 0.742397 0.000000
0.405341 0.741970 0.000000
0.419409 0.741268 0.000000
0.436774 0.740414 0.000000
0.456703 0.739376 0.000000
0.479408 0.738125 0.000000
0.503990 0.736629 0.000000
0.530694 0.734951 0.000000
0.559319 0.734676 0.000000
0.591669 0.740108 0.000000
0.626001 0.745846 0.000000
0.662135 0.751766 0.000000
0.699855 0.757870 0.000000
0.738796 0.763943 0.000000
0.778958 0.770047 0.000000
0.819791 0.775937 0.000000
0.860624 0.781155 0.000000
0.875792 0.761196 0.086702
0.900359 0.747585 0.160616
0.925566 0.741573 0.237949
0.942138 0.739925 0.315343
0.954376 0.739773 0.379522
0.963531 0.740963 0.431983
0.971893 0.745571 0.480079
0.978058 0.751369 0.521965
0.982147 0.759182 0.561517
0.984222 0.769741 0.601038
0.984344 0.783597 0.641810
0.982757 0.800320 0.683009
0.394141 0.773861 0.000000
0.396582 0.773770 0.000000
0.399725 0.773617 0.000000
0.406439 0.773342 0.000000
0.416907 0.772915 0.000000
0.430579 0.772274 0.000000
0.447272 0.771450 0.000000
0.466682 0.770504 0.000000
0.488624 0.769314 0.000000
0.512810 0.767971 0.000000
0.538842 0.766415 0.000000
0.566705 0.764584 0.000000
0.597223 0.767178 0.000000
0.630274 0.772427 0.000000
0.665126 0.777890 0.000000
0.701411 0.783383 0.000000
0.738888 0.788907 0.000000
0.777310 0.794278 0.000000
0.816342 0.799496 0.000000
0.855772 0.804410 0.027161
0.890623 0.804685 0.097169
0.904082 0.783444 0.153109
0.926207 0.769223 0.215640
0.945342 0.761532 0.288365
0.957275 0.758663 0.360235
0.965911 0.757504 0.418067
0.972381 0.757382 0.463813
0.978607 0.761379 0.508659
0.982849 0.767391 0.550011
0.985077 0.776181 0.590784
0.985321 0.788418 0.632807
0.983764 0.803891 0.675532
0.406836 0.804807 0.000000
0.409094 0.804715 0.000000
0.412055 0.804623 0.000000
0.418677 0.804318 0.000000
0.428504 0.803891 0.000000
0.441779 0.803342 0.000000
0.457771 0.802609 0.000000
0.476631 0.801694 0.000000
0.498085 0.800565 0.000000
0.521630 0.799283 0.000000
0.547051 0.797818 0.000000
0.574243 0.796170 0.000000
0.602899 0.794522 0.000000
0.634974 0.799222 0.000000
0.668452 0.804013 0.000000
0.703304 0.808835 0.000000
0.739254 0.813535 0.000000
0.776028 0.818143 0.000000
0.813291 0.822477 0.065644
0.850736 0.826535 0.103822
0.888212 0.830198 0.134798
0.916777 0.825467 0.170016
0.928252 0.803128 0.211795
0.946899 0.788083 0.270665
0.960540 0.779294 0.339300
0.968719 0.775601 0.403876
0.974792 0.773465 0.454200
0.979278 0.772610 0.494942
0.983490 0.776455 0.537621
0.985901 0.783383 0.579919
0.986297 0.793851 0.623194
0.984802 0.807919 0.667567
0.419501 0.835264 0.086061
0.421698 0.835172 0.084901
0.424506 0.835050 0.083955
0.430732 0.834775 0.081575
0.440436 0.834348 0.077333
0.453010 0.833829 0.071473
0.468544 0.833127 0.063081
0.486793 0.832273 0.045258
0.507530 0.831235 0.012970
0.530327 0.830045 0.000000
0.555169 0.828702 0.000000
0.581720 0.827115 0.000000
0.609583 0.825437 0.000000
0.639551 0.825925 0.000000
0.671870 0.829923 0.000000
0.705257 0.833890 0.000000
0.739681 0.837736 0.049683
0.774655 0.841367 0.091951
0.810208 0.844755 0.121736
0.845762 0.847837 0.149020
0.881193 0.850492 0.175174
0.916197 0.852720 0.201328
0.938445 0.843107 0.233219
0.947784 0.819913 0.269444
0.962554 0.804257 0.325902
0.971832 0.795102 0.389075
0.977386 0.790768 0.444617
0.981476 0.788113 0.488746
0.984344 0.787076 0.526055
0.986694 0.791409 0.568322
0.987274 0.799985 0.612940
0.985840 0.812497 0.659052
0.433143 0.864347 0.139193
0.435065 0.864317 0.138674
0.437720 0.864195 0.138003
0.443763 0.863951 0.136873
0.452857 0.863554 0.134493
0.464912 0.863035 0.131258
0.479713 0.862394 0.127077
0.497200 0.861601 0.121828
0.517113 0.860624 0.115358
0.539178 0.859495 0.107088
0.563104 0.858213 0.096590
0.588800 0.856718 0.083345
0.616022 0.855070 0.064485
0.644495 0.853269 0.015595
0.675196 0.855222 0.060517
