其他预设/【233】日式怀旧街道调色预设208款/1.3D LUT预设（视频调色-PR-AE-PS-FCPX-达芬奇用）/3.日式城市街拍预设 (自动曝光预设)/JA – Shaded Light 3 (Auto-Exposure).cube
# Created by Adobe Lightroom plugin Export LUT (1.17.0)
# www.johnrellis.com/lightroom/exportlut.htm
# Preset: JA – Shaded Light 3 (Auto-Exposure)
# Color profile: /Library/Application Support/Adobe/Color/Profiles/Recommended/AdobeRGB1998.icc
LUT_3D_SIZE 5
DOMAIN_MIN 0.000000 0.000000 0.000000
DOMAIN_MAX 0.903226 0.903226 0.903226
0.093355 0.090913 0.086610
0.175479 0.089845 0.087098
0.397192 0.064607 0.077119
0.615412 0.000000 0.028779
0.869413 0.000000 0.000000
0.104189 0.150240 0.101961
0.174350 0.171603 0.095583
0.441871 0.207950 0.058167
0.640620 0.185641 0.000000
0.889433 0.160433 0.000000
0.107668 0.307927 0.134524
0.187076 0.315831 0.141299
0.417578 0.414160 0.088472
0.706233 0.444465 0.000000
0.943938 0.432715 0.000000
0.111543 0.495766 0.185916
0.200717 0.505180 0.191348
0.382300 0.514214 0.252445
0.635584 0.633082 0.185306
0.954040 0.701198 0.152102
0.229099 0.717617 0.305364
0.309117 0.726741 0.328405
0.470558 0.744656 0.382727
0.655573 0.790158 0.453651
0.891508 0.891844 0.385138
0.103914 0.096132 0.154208
0.166110 0.113039 0.151034
0.375189 0.008545 0.174960
0.599390 0.000000 0.143435
0.856016 0.000000 0.120912
0.097749 0.168612 0.161440
0.187716 0.182986 0.174228
0.420020 0.164614 0.162600
0.624781 0.139559 0.149874
0.877409 0.081483 0.128084
0.100404 0.319738 0.188876
0.194156 0.346410 0.200900
0.427192 0.422705 0.200168
0.709895 0.439246 0.187411
0.935760 0.423072 0.180972
0.110231 0.499672 0.232914
0.210086 0.513512 0.244785
0.398505 0.526818 0.303502
0.640040 0.636713 0.284764
0.952941 0.704036 0.286412
0.210452 0.718318 0.328923
0.294896 0.727413 0.348547
0.470069 0.750057 0.405310
0.657313 0.788327 0.481117
0.892210 0.892271 0.430152
0.128817 0.094301 0.330846
0.223423 0.104097 0.338079
0.375891 0.158694 0.341222
0.556725 0.170993 0.367498
0.806546 0.000000 0.363470
0.000000 0.173068 0.341985
0.197238 0.175204 0.359930
0.396582 0.238376 0.363195
0.571893 0.232334 0.373419
0.818235 0.000000 0.345342
0.000000 0.355566 0.343633
0.141115 0.375463 0.362768
0.452308 0.443641 0.427039
0.637903 0.412543 0.399817
0.893950 0.379858 0.374517
0.000000 0.505089 0.344366
0.171084 0.519097 0.354131
0.430976 0.559747 0.422370
0.653803 0.648432 0.465370
0.952331 0.704921 0.486091
0.134096 0.720485 0.411261
0.232944 0.729030 0.419226
0.433967 0.761685 0.457282
0.656245 0.798123 0.537774
0.894560 0.893797 0.541222
0.160098 0.084596 0.519738
0.247898 0.095003 0.526574
0.444221 0.209873 0.545830
0.579309 0.296178 0.536004
0.771786 0.390906 0.605982
0.051270 0.155154 0.525780
0.214176 0.168154 0.532403
0.444495 0.271641 0.552087
0.585901 0.354589 0.544945
0.782345 0.408179 0.609949
0.000000 0.333288 0.503838
0.000000 0.329992 0.514153
0.416907 0.398108 0.565728
0.611048 0.486122 0.576715
0.820768 0.452277 0.610163
0.000000 0.522515 0.510033
0.000000 0.531518 0.518761
0.368505 0.565667 0.551568
0.678859 0.671595 0.656001
0.913207 0.613428 0.601129
0.000000 0.719936 0.541222
0.000000 0.728481 0.545586
0.327581 0.759182 0.563775
0.608026 0.823453 0.612451
0.897734 0.895781 0.724361
0.209689 0.082673 0.797330
0.301640 0.113252 0.801663
0.514366 0.251774 0.814237
0.736965 0.452857 0.828580
0.852720 0.464546 0.811063
0.116335 0.156802 0.798672
0.257908 0.178714 0.803128
0.502373 0.294377 0.816281
0.737942 0.480018 0.833066
0.855619 0.488533 0.815274
0.000000 0.322667 0.783322
0.000000 0.310124 0.795071
0.412177 0.374273 0.819455
0.718471 0.529046 0.841978
0.864714 0.566674 0.828794
0.000000 0.561456 0.775113
0.000000 0.555352 0.777768
0.000000 0.531334 0.787930
0.597436 0.577539 0.846647
0.876524 0.721736 0.851743
0.000000 0.802060 0.798734
0.000000 0.803861 0.800504
0.000000 0.811093 0.807340
0.448371 0.830411 0.825742
0.904875 0.902617 0.896330
