其他预设/【233】日式怀旧街道调色预设208款/1.3D LUT预设（视频调色-PR-AE-PS-FCPX-达芬奇用）/3.日式城市街拍预设 (自动曝光预设)/JA – Night Pop 3 (Auto-Exposure).cube
# Created by Adobe Lightroom plugin Export LUT (1.17.0)
# www.johnrellis.com/lightroom/exportlut.htm
# Preset: JA – Night Pop 3 (Auto-Exposure)
# Color profile: /Library/Application Support/Adobe/Color/Profiles/Recommended/AdobeRGB1998.icc
LUT_3D_SIZE 5
DOMAIN_MIN 0.000000 0.000000 0.000000
DOMAIN_MAX 0.903226 0.903226 0.903226
0.066712 0.081422 0.094789
0.357855 0.006531 0.074098
0.784665 0.000000 0.000000
0.998322 0.000000 0.000000
1.000000 0.000000 0.000000
0.000000 0.288853 0.120302
0.217807 0.225620 0.132387
0.709499 0.342596 0.150332
0.978607 0.256077 0.000000
1.000000 0.000000 0.000000
0.000000 0.684810 0.217075
0.235813 0.672175 0.000000
0.565179 0.540246 0.280217
0.841154 0.643793 0.573053
1.000000 0.614496 0.550622
0.000000 0.904112 0.288609
0.000000 0.897368 0.180301
0.589990 0.862821 0.198154
0.801694 0.742763 0.512016
0.972717 0.821866 0.740414
0.000000 1.000000 0.300175
0.000000 1.000000 0.398260
0.466499 1.000000 0.333349
0.820890 0.971984 0.484474
0.976226 0.914519 0.724636
0.000000 0.120485 0.351568
0.255528 0.000000 0.318029
0.747341 0.000000 0.259037
0.987945 0.000000 0.136507
1.000000 0.000000 0.000000
0.000000 0.300114 0.350958
0.218357 0.259068 0.298589
0.731044 0.243534 0.262974
0.980377 0.182254 0.180056
1.000000 0.000000 0.000000
0.000000 0.685145 0.452644
0.000000 0.665461 0.369940
0.563134 0.554192 0.423072
0.853239 0.652155 0.606378
1.000000 0.613214 0.556542
0.000000 0.905028 0.444709
0.000000 0.893584 0.439582
0.587335 0.863828 0.423285
0.798489 0.748501 0.578058
0.972137 0.826261 0.751705
0.000000 1.000000 0.401740
0.000000 1.000000 0.431708
0.516167 1.000000 0.509850
0.824949 0.972473 0.565362
0.975494 0.915129 0.730648
0.000000 0.232059 0.732174
0.000000 0.000000 0.719478
0.646265 0.000000 0.677607
0.943145 0.000000 0.622919
1.000000 0.153719 0.547326
0.000000 0.450294 0.732448
0.000000 0.329259 0.717006
0.628595 0.178836 0.669001
0.933593 0.219272 0.617029
1.000000 0.224826 0.526146
0.000000 0.680659 0.725521
0.000000 0.665309 0.711452
0.560327 0.589258 0.638880
0.903929 0.594690 0.643549
1.000000 0.541802 0.591028
0.000000 0.909514 0.705074
0.000000 0.903441 0.685359
0.591089 0.852476 0.692287
0.795285 0.764340 0.698329
0.971405 0.855192 0.816739
0.000000 1.000000 0.612390
0.000000 1.000000 0.597345
0.569024 1.000000 0.702388
0.831083 0.977752 0.706447
0.970977 0.920928 0.784848
0.000000 0.295842 0.899046
0.000000 0.295354 0.897612
0.495888 0.000000 0.874632
0.890074 0.000000 0.846250
1.000000 0.261875 0.797116
0.000000 0.390906 0.898833
0.000000 0.385229 0.897063
0.442420 0.023346 0.875181
0.880766 0.179019 0.842710
1.000000 0.400031 0.800656
0.000000 0.653986 0.896391
0.000000 0.651240 0.894408
0.459113 0.628840 0.870756
0.851530 0.580499 0.831724
1.000000 0.603296 0.802090
0.000000 0.869963 0.888273
0.000000 0.873442 0.886290
0.399786 0.859495 0.869627
0.799069 0.787228 0.806607
1.000000 0.799344 0.813169
0.000000 1.000000 0.833463
0.000000 1.000000 0.828153
0.000000 1.000000 0.807248
0.841978 0.978424 0.853696
0.965515 0.930663 0.857481
0.000000 0.330846 1.000000
0.000000 0.330785 1.000000
0.000000 0.000000 1.000000
0.757351 0.000000 0.990326
1.000000 0.000000 0.964294
0.000000 0.330907 1.000000
0.000000 0.330907 1.000000
0.000000 0.000000 1.000000
0.732631 0.000000 0.991089
1.000000 0.000000 0.963256
0.000000 0.503563 1.000000
0.000000 0.499489 1.000000
0.000000 0.493538 1.000000
0.707881 0.470253 0.986023
1.000000 0.537621 0.960601
0.000000 0.745113 0.998657
0.000000 0.745083 0.998596
0.000000 0.740414 0.998688
0.744411 0.812650 0.980713
0.989410 0.791409 0.957885
0.000000 0.953735 0.989563
0.000000 0.956756 0.989288
0.000000 0.968322 0.988251
0.621363 0.972839 0.978668
0.961089 0.946044 0.944854
