其他预设/【233】日式怀旧街道调色预设208款/1.3D LUT预设（视频调色-PR-AE-PS-FCPX-达芬奇用）/3.日式城市街拍预设 (自动曝光预设)/JA – Gritty Contrast 4 (Auto-Exposure).cube
# Created by Adobe Lightroom plugin Export LUT (1.17.0)
# www.johnrellis.com/lightroom/exportlut.htm
# Preset: JA – Gritty Contrast 4 (Auto-Exposure)
# Color profile: /Library/Application Support/Adobe/Color/Profiles/Recommended/AdobeRGB1998.icc
LUT_3D_SIZE 8
DOMAIN_MIN 0.000000 0.000000 0.000000
DOMAIN_MAX 0.903226 0.903226 0.903226
0.070192 0.076143 0.083955
0.140902 0.079042 0.094850
0.268467 0.028962 0.093904
0.491554 0.000000 0.066499
0.683986 0.000000 0.000000
0.796933 0.000000 0.000000
0.907713 0.000000 0.000000
1.000000 0.000000 0.000000
0.090211 0.123842 0.099672
0.133303 0.124361 0.104768
0.274083 0.133547 0.102449
0.517632 0.095705 0.033936
0.696529 0.000000 0.000000
0.804471 0.000000 0.000000
0.913146 0.000000 0.000000
1.000000 0.000000 0.000000
0.127596 0.201602 0.112490
0.159274 0.200412 0.112215
0.254063 0.214908 0.116335
0.524865 0.306828 0.119326
0.712734 0.283635 0.041627
0.822599 0.224460 0.000000
0.930541 0.127657 0.000000
1.000000 0.000000 0.000000
0.185641 0.324651 0.116854
0.216342 0.323033 0.113283
0.309392 0.338384 0.096376
0.494484 0.391028 0.087404
0.713527 0.453620 0.168490
0.834134 0.426307 0.173281
0.939025 0.371313 0.140200
1.000000 0.298222 0.125948
0.273014 0.500847 0.097810
0.303441 0.498482 0.092348
0.391791 0.498085 0.067323
0.532494 0.526177 0.000000
0.686610 0.532006 0.088899
0.827115 0.559899 0.264103
0.933623 0.585138 0.381811
0.999634 0.530938 0.365515
0.347204 0.635431 0.087556
0.372107 0.633478 0.079591
0.447181 0.626734 0.030457
0.557824 0.635431 0.000000
0.695430 0.650019 0.000000
0.809842 0.629847 0.195102
0.922850 0.673976 0.415106
0.972869 0.724086 0.570916
0.408545 0.740047 0.132845
0.427314 0.738674 0.132113
0.487251 0.733974 0.130617
0.579065 0.730159 0.132448
0.698970 0.744564 0.157321
0.836027 0.760342 0.197391
0.920470 0.736965 0.373144
0.969574 0.764309 0.555596
0.492531 0.859983 0.295995
0.507317 0.859129 0.296513
0.556023 0.856077 0.298344
0.633692 0.850614 0.301915
0.733272 0.852964 0.325994
0.844541 0.861234 0.371710
0.940612 0.854429 0.427802
0.972137 0.819150 0.555535
0.090883 0.105623 0.147402
0.121218 0.109590 0.148318
0.240543 0.089357 0.150057
0.460792 0.000000 0.126497
0.678065 0.000000 0.081178
0.801297 0.000000 0.000000
0.911284 0.000000 0.000000
1.000000 0.000000 0.000000
0.085542 0.129641 0.147799
0.128725 0.139010 0.152224
0.250767 0.138796 0.150851
0.485054 0.115267 0.125216
0.689815 0.047059 0.072267
0.808652 0.000000 0.000000
0.916411 0.000000 0.000000
1.000000 0.000000 0.000000
0.115785 0.209567 0.157046
0.156527 0.208988 0.163546
0.242344 0.217960 0.164553
0.504204 0.303532 0.171176
0.705379 0.295506 0.115663
0.822324 0.257481 0.000000
0.930999 0.174197 0.000000
1.000000 0.000000 0.000000
0.170382 0.332433 0.166110
0.206912 0.330785 0.166873
0.299596 0.338476 0.158145
0.482521 0.388678 0.148470
0.707485 0.458198 0.202609
0.833188 0.440620 0.187808
0.938781 0.385595 0.154055
1.000000 0.309850 0.136751
0.254856 0.507073 0.160311
0.288487 0.504601 0.156649
0.380316 0.497383 0.144076
0.525414 0.526024 0.117128
0.683162 0.533471 0.129549
0.825376 0.561761 0.260380
0.932555 0.593591 0.392035
0.998901 0.537743 0.372992
0.334295 0.638483 0.163363
0.360357 0.636469 0.158816
0.438178 0.629572 0.142947
0.552728 0.635462 0.119020
0.694514 0.651209 0.064729
0.809049 0.631037 0.192966
0.922454 0.674983 0.413458
0.972473 0.726619 0.573602
0.405188 0.741360 0.191043
0.424353 0.740078 0.186648
0.486000 0.735225 0.168338
0.580224 0.731319 0.136172
0.699397 0.745724 0.158633
0.836728 0.762325 0.198398
0.920195 0.737697 0.371771
0.969604 0.764920 0.555474
0.492409 0.860838 0.297459
0.507073 0.859983 0.297917
0.555718 0.856962 0.299779
0.633234 0.851499 0.303380
0.732631 0.853544 0.327062
0.843717 0.861784 0.372656
0.940703 0.855711 0.428443
0.972076 0.819547 0.555291
0.102693 0.137057 0.242222
0.145418 0.157900 0.247929
0.209079 0.161654 0.252262
0.399695 0.122255 0.291112
0.610559 0.000000 0.260349
0.756771 0.000000 0.205539
0.888457 0.000000 0.178744
1.000000 0.000000 0.098726
0.111635 0.159579 0.242039
0.147860 0.171328 0.243015
0.213779 0.184970 0.254215
0.413489 0.132784 0.284916
0.615717 0.000000 0.235691
0.764218 0.000000 0.210941
0.894347 0.000000 0.180758
1.000000 0.000000 0.094026
0.106813 0.218326 0.249180
0.143587 0.222904 0.250858
0.242557 0.256413 0.275425
0.454017 0.243931 0.262638
0.663478 0.231052 0.251499
0.789731 0.209659 0.232639
0.913787 0.163607 0.190066
1.000000 0.000000 0.077516
0.097292 0.363653 0.287785
0.151339 0.365606 0.283665
0.280797 0.370031 0.276982
0.457465 0.397894 0.291783
0.679347 0.487037 0.387243
0.804868 0.453376 0.349798
0.925841 0.407477 0.289860
1.000000 0.335058 0.175540
0.153079 0.533501 0.284977
0.206210 0.533410 0.279057
0.352117 0.524010 0.289433
0.500450 0.530999 0.284062
0.660853 0.544762 0.328649
0.802365 0.604334 0.450507
0.920195 0.626825 0.479072
0.997192 0.555413 0.392523
0.303990 0.650233 0.316472
0.336065 0.648157 0.317967
0.420447 0.641169 0.314275
0.531762 0.634791 0.298894
0.673121 0.651911 0.308873
0.791897 0.646571 0.372320
0.914122 0.695857 0.481514
0.971923 0.731655 0.578027
0.414923 0.745418 0.360632
0.432837 0.744106 0.359442
0.486946 0.739712 0.348913
0.570703 0.731655 0.325322
0.688533 0.744839 0.323156
0.826566 0.764981 0.315770
0.918212 0.741695 0.380926
0.969757 0.766995 0.555627
0.512963 0.861540 0.402808
0.522698 0.861112 0.396094
0.563806 0.858671 0.382513
0.633265 0.854093 0.356634
0.728878 0.855680 0.330236
0.840238 0.863584 0.375586
0.940917 0.860410 0.430243
0.971984 0.820981 0.554284
0.102815 0.177493 0.383948
0.154391 0.195651 0.390906
0.254490 0.223453 0.411292
0.375341 0.224216 0.425269
0.564294 0.291661 0.461524
0.733394 0.000000 0.422614
0.833921 0.000000 0.369940
0.973602 0.000000 0.313329
0.103334 0.195834 0.383398
0.158480 0.210880 0.385321
0.261692 0.248020 0.410376
0.379583 0.249851 0.426795
0.572015 0.299535 0.462013
0.731289 0.092470 0.417578
0.831662 0.000000 0.362402
0.976471 0.000000 0.318700
0.101656 0.262638 0.394690
0.148440 0.265965 0.394995
0.262638 0.292119 0.403723
0.400000 0.329473 0.436011
0.596735 0.322240 0.454261
0.723140 0.200717 0.392279
0.853971 0.150484 0.363592
0.984314 0.109926 0.344366
0.025879 0.372198 0.414649
0.123751 0.375677 0.415717
0.261204 0.395575 0.426368
0.461952 0.465156 0.473091
0.631312 0.448646 0.458534
0.756344 0.448188 0.458534
0.886564 0.433967 0.445808
0.992004 0.381048 0.397467
0.000000 0.566308 0.467323
0.144076 0.565423 0.464698
0.323308 0.563775 0.461067
0.490639 0.560113 0.469429
0.632654 0.577386 0.502342
0.778866 0.655604 0.588556
0.897307 0.647395 0.569696
0.979919 0.607172 0.528893
0.268132 0.668605 0.459602
0.313512 0.666590 0.462806
0.429084 0.660426 0.477943
0.537835 0.649866 0.486610
0.647852 0.655818 0.492317
0.765347 0.675807 0.541650
0.897581 0.739620 0.612909
0.963806 0.753201 0.637659
0.435157 0.756130 0.495613
0.460151 0.754330 0.501671
0.533837 0.748074 0.522820
0.589624 0.741329 0.507012
0.676295 0.740719 0.497169
0.798367 0.766903 0.514244
0.897276 0.771695 0.559594
0.962768 0.787137 0.614069
0.574304 0.862486 0.562463
0.582269 0.861906 0.560510
0.604517 0.860349 0.546960
0.649897 0.857084 0.523980
0.725277 0.851072 0.501915
0.828153 0.863310 0.502983
0.935698 0.870237 0.491432
0.971862 0.823423 0.552636
0.130922 0.234134 0.533471
0.185031 0.251652 0.537224
0.324102 0.320348 0.552361
0.423011 0.335454 0.567803
0.551995 0.356786 0.578485
0.676143 0.467750 0.590082
0.813962 0.426825 0.591882
0.947234 0.302953 0.552697
0.136202 0.250675 0.531273
0.190555 0.266392 0.533715
0.324132 0.331151 0.549340
0.430396 0.358801 0.566613
0.554803 0.380163 0.578271
0.676814 0.484413 0.592523
0.815488 0.430915 0.590082
0.946044 0.317327 0.551171
0.136660 0.310979 0.538384
0.186099 0.316564 0.537682
0.313451 0.353338 0.539208
0.455756 0.424964 0.564141
0.565850 0.447883 0.579126
0.680262 0.532280 0.600946
0.821286 0.440314 0.580621
0.942657 0.350225 0.540642
0.133791 0.404211 0.549981
0.189395 0.408270 0.549767
0.318914 0.428534 0.550408
0.472908 0.483009 0.558282
0.587915 0.531975 0.585962
0.699794 0.541466 0.596063
0.818173 0.456092 0.552178
0.951568 0.395331 0.517113
0.133089 0.529198 0.565393
0.198032 0.531853 0.565454
0.340093 0.543633 0.567590
0.493965 0.569665 0.577691
0.626886 0.616754 0.608179
0.733791 0.606867 0.599390
0.863310 0.605493 0.597925
0.966217 0.593591 0.586511
0.255314 0.683650 0.595270
0.306188 0.683192 0.595972
0.430640 0.681147 0.599145
0.548974 0.676020 0.601404
0.639673 0.672297 0.602502
0.747982 0.697414 0.630579
0.888579 0.775479 0.704616
0.955932 0.759426 0.687037
0.432868 0.774075 0.604425
0.457832 0.772488 0.606500
0.524926 0.768246 0.611902
0.601923 0.764034 0.616144
0.672450 0.755184 0.608270
0.772885 0.769863 0.614466
0.882506 0.793271 0.655177
0.948333 0.825559 0.721431
0.551507 0.876097 0.635584
0.564782 0.875212 0.636805
0.604211 0.872587 0.638819
0.663966 0.868193 0.642206
0.718044 0.862028 0.617304
0.806577 0.861875 0.609186
0.910002 0.874418 0.620325
0.958434 0.845731 0.654414
0.247898 0.325475 0.636683
0.286229 0.343908 0.637751
0.398047 0.408545 0.642420
0.501579 0.465492 0.651728
0.578790 0.487953 0.664576
0.669795 0.513085 0.672175
0.778103 0.587610 0.695949
0.905058 0.615717 0.732448
0.257908 0.339208 0.634302
0.293645 0.356115 0.635492
0.400671 0.416632 0.640436
0.509880 0.480140 0.650446
0.583490 0.501122 0.663630
0.671473 0.524651 0.672053
0.779202 0.595300 0.697139
0.906584 0.615747 0.731106
0.266880 0.380499 0.636866
0.296117 0.388128 0.635767
0.400458 0.434546 0.634150
0.533135 0.520043 0.647089
0.597589 0.538689 0.661341
0.677333 0.559014 0.672236
0.783597 0.619348 0.701259
0.912047 0.614099 0.725124
0.286107 0.448493 0.642573
0.318334 0.455726 0.641596
0.407599 0.481636 0.638697
0.519158 0.529503 0.637659
0.617121 0.586114 0.659449
0.687831 0.604852 0.674800
0.792660 0.654994 0.708583
0.922545 0.604181 0.707454
0.308690 0.534478 0.651087
0.340673 0.539178 0.650446
0.428840 0.555627 0.648707
0.528405 0.580804 0.648188
0.620874 0.615869 0.653864
0.704677 0.653803 0.683009
0.812924 0.658930 0.701442
0.931182 0.587610 0.665248
0.340734 0.637903 0.662593
0.371954 0.639918 0.662409
0.455604 0.647089 0.662348
0.549950 0.659510 0.664790
0.636652 0.679194 0.674281
0.738552 0.722286 0.705806
0.853727 0.714961 0.698665
0.948455 0.715633 0.698726
0.421912 0.780697 0.705623
0.446540 0.780667 0.706050
0.514153 0.781765 0.708156
0.594598 0.787839 0.712703
0.670100 0.789120 0.708156
0.751553 0.784390 0.698451
0.867216 0.815305 0.742061
0.933898 0.866758 0.820035
0.536889 0.890196 0.732815
0.550561 0.889403 0.732845
0.591272 0.887083 0.732052
0.648188 0.883970 0.728817
0.718196 0.879545 0.724941
0.786770 0.871305 0.708797
0.882536 0.877348 0.719997
0.940276 0.873381 0.768978
0.434180 0.475227 0.732937
0.455940 0.488319 0.733272
0.521050 0.529229 0.735622
0.607111 0.586572 0.743404
0.652003 0.597101 0.754696
0.710811 0.609735 0.770626
0.784329 0.622614 0.778744
0.885924 0.689021 0.809262
0.438727 0.482094 0.731167
0.459236 0.494179 0.731594
0.521752 0.532799 0.734127
0.606409 0.588678 0.742123
0.654658 0.603326 0.753964
0.712459 0.615595 0.770230
0.785245 0.628107 0.778897
0.886381 0.694423 0.809781
0.435859 0.497902 0.732235
0.457557 0.507927 0.730648
0.519280 0.540887 0.729305
0.601007 0.592889 0.737636
0.662318 0.622278 0.751705
0.717556 0.634089 0.769070
0.788724 0.646082 0.779660
0.888060 0.712520 0.811795
0.445655 0.538079 0.737240
0.462165 0.543359 0.736110
0.510216 0.559869 0.732448
0.586542 0.595392 0.729610
0.671656 0.648432 0.748287
0.724697 0.661158 0.767605
0.795010 0.674678 0.781643
0.891203 0.741573 0.815457
0.455421 0.592462 0.745418
0.471260 0.596216 0.744503
0.517815 0.607568 0.741695
0.577264 0.622339 0.737789
0.649104 0.648280 0.736172
0.732448 0.693629 0.765743
0.804868 0.713161 0.785824
0.895750 0.779965 0.821775
0.467018 0.662867 0.756863
0.482338 0.665126 0.756222
0.527489 0.672084 0.754574
0.586145 0.681392 0.752560
0.647150 0.691371 0.751431
0.724239 0.714687 0.755367
0.820798 0.764858 0.794308
0.908782 0.786587 0.814481
0.479103 0.750576 0.771633
0.493751 0.751644 0.771450
0.537560 0.755337 0.771054
0.595178 0.761593 0.771481
0.660761 0.771695 0.774350
0.744320 0.790860 0.783871
0.849729 0.833249 0.815640
0.926909 0.832090 0.813993
0.510643 0.890013 0.824125
0.524193 0.889921 0.823819
0.565423 0.890135 0.822995
0.626734 0.891295 0.821836
0.709651 0.892943 0.821958
0.794888 0.889830 0.819791
0.861173 0.883024 0.812345
0.926024 0.894896 0.851041
0.613519 0.634577 0.859586
0.622797 0.639979 0.859648
0.653773 0.658503 0.860105
0.704768 0.690761 0.861601
0.751064 0.715267 0.864958
0.786130 0.722438 0.869932
0.828855 0.732418 0.876036
0.881376 0.745174 0.877165
0.613031 0.636225 0.859068
0.622126 0.641505 0.859159
0.652766 0.659571 0.859648
0.703456 0.691371 0.861204
0.752895 0.719081 0.864622
0.787564 0.726253 0.869688
0.830014 0.736324 0.875883
0.881956 0.748959 0.877165
0.604486 0.639612 0.859709
0.615137 0.644556 0.858885
0.646998 0.661738 0.858366
0.697658 0.692592 0.859983
0.758541 0.731563 0.863523
0.792294 0.738888 0.868864
0.833738 0.749203 0.875364
0.883879 0.761532 0.877226
0.590326 0.651362 0.863310
0.598993 0.654292 0.862699
0.626856 0.663752 0.860624
0.682795 0.691493 0.858122
0.753231 0.737148 0.861631
0.799161 0.758297 0.867552
0.839353 0.769253 0.874662
0.887175 0.781552 0.877531
0.588678 0.683406 0.866819
0.595789 0.684932 0.866453
0.618799 0.689693 0.865171
0.654597 0.696498 0.862974
0.726772 0.728939 0.858946
0.806058 0.781216 0.865629
0.846128 0.793790 0.873747
0.891752 0.807706 0.878264
0.587396 0.727443 0.870970
0.594629 0.728664 0.870695
0.618128 0.732448 0.869718
0.655482 0.738277 0.868040
0.705837 0.747555 0.865293
0.780728 0.776181 0.860868
0.853544 0.821714 0.872099
0.897704 0.838499 0.879606
0.584710 0.783444 0.875517
0.592065 0.784329 0.875303
0.616449 0.787228 0.874632
0.656855 0.792386 0.873472
0.712062 0.800778 0.871611
0.775692 0.812680 0.868894
0.845029 0.834592 0.865476
0.904967 0.870848 0.882383
0.579583 0.852293 0.879850
0.587366 0.852903 0.879728
0.613642 0.855131 0.879332
0.659052 0.859281 0.878691
0.721004 0.865690 0.877836
0.791592 0.874418 0.877317
0.860044 0.885527 0.878630
0.916197 0.903990 0.890593
