其他预设/【233】日式怀旧街道调色预设208款/1.3D LUT预设（视频调色-PR-AE-PS-FCPX-达芬奇用）/3.日式城市街拍预设 (自动曝光预设)/JA – Gritty Contrast 1 (Auto-Exposure).cube
# Created by Adobe Lightroom plugin Export LUT (1.17.0)
# www.johnrellis.com/lightroom/exportlut.htm
# Preset: JA – Gritty Contrast 1 (Auto-Exposure)
# Color profile: /Library/Application Support/Adobe/Color/Profiles/Recommended/AdobeRGB1998.icc
LUT_3D_SIZE 5
DOMAIN_MIN 0.000000 0.000000 0.000000
DOMAIN_MAX 0.903226 0.903226 0.903226
0.112947 0.115755 0.117494
0.212406 0.123873 0.121675
0.530205 0.154452 0.103029
0.819516 0.201999 0.049104
0.981109 0.243809 0.141634
0.138735 0.178744 0.123079
0.214603 0.183017 0.126955
0.537072 0.260594 0.093751
0.821225 0.292668 0.023163
0.980346 0.309758 0.153689
0.235355 0.384649 0.107942
0.323461 0.384863 0.097871
0.551354 0.419562 0.104799
0.827543 0.473152 0.021363
0.977173 0.463874 0.205325
0.377325 0.649073 0.000000
0.452461 0.641230 0.000000
0.645411 0.649378 0.000000
0.836790 0.632959 0.163241
0.969421 0.633692 0.315984
0.507408 0.861784 0.000000
0.561151 0.857084 0.000000
0.715114 0.848264 0.000000
0.900023 0.844785 0.249912
0.964538 0.784451 0.497475
0.100069 0.132418 0.217044
0.186404 0.142123 0.203677
0.523369 0.081727 0.193332
0.815976 0.197116 0.178622
0.979644 0.272679 0.172885
0.117464 0.199802 0.214755
0.204776 0.208530 0.211368
0.529290 0.243137 0.203555
0.817777 0.290654 0.184665
0.978882 0.331273 0.185336
0.136873 0.424964 0.224613
0.288701 0.424537 0.200290
0.549462 0.434333 0.221408
0.823423 0.478889 0.219547
0.975555 0.477241 0.236881
0.319249 0.675074 0.207858
0.414893 0.667109 0.186557
0.633845 0.662501 0.183536
0.831846 0.646845 0.296300
0.967926 0.641596 0.337652
0.487221 0.868894 0.262943
0.538994 0.864591 0.229770
0.696498 0.852079 0.147707
0.891508 0.847623 0.317449
0.963897 0.786984 0.499641
0.000000 0.203738 0.575708
0.123201 0.218875 0.557855
0.430579 0.190555 0.471382
0.772549 0.249180 0.475441
0.957366 0.429267 0.506340
0.000000 0.316228 0.567651
0.131899 0.300999 0.565332
0.447456 0.277226 0.479774
0.781521 0.342931 0.483833
0.957244 0.461524 0.507256
0.000000 0.505394 0.550866
0.221073 0.507469 0.543603
0.503197 0.498085 0.497841
0.794675 0.540154 0.515557
0.954528 0.567254 0.523461
0.271641 0.729519 0.558526
0.375860 0.726192 0.549462
0.575189 0.703120 0.490913
0.807736 0.696071 0.545586
0.946685 0.708827 0.574945
0.521172 0.882872 0.587304
0.563439 0.879301 0.583459
0.653864 0.867979 0.502586
0.853666 0.856687 0.523125
0.948119 0.817441 0.629969
0.000000 0.321691 0.827298
0.000000 0.352667 0.824826
0.514824 0.467323 0.787991
0.678920 0.381323 0.719814
0.905974 0.566461 0.729000
0.000000 0.412268 0.823301
0.209445 0.439704 0.822477
0.555779 0.536156 0.790707
0.688197 0.440528 0.721920
0.907164 0.598047 0.733761
0.152956 0.575067 0.815091
0.347539 0.594934 0.813260
0.610773 0.650141 0.804837
0.716823 0.585443 0.729000
0.913054 0.681483 0.747005
0.354009 0.749905 0.800687
0.450233 0.755398 0.798611
0.631678 0.766751 0.789151
0.760433 0.747280 0.743191
0.920378 0.778836 0.762875
0.589410 0.896483 0.806394
0.630671 0.893828 0.805539
0.719570 0.886992 0.796719
0.797177 0.871855 0.737179
0.924254 0.860502 0.784054
0.391608 0.531243 0.924254
0.391516 0.537011 0.923796
0.689479 0.701595 0.910338
0.773098 0.717128 0.896605
0.850034 0.654475 0.877714
0.396612 0.556329 0.923217
0.418952 0.568841 0.922454
0.697261 0.715084 0.910948
0.786526 0.741085 0.896818
0.853269 0.675227 0.877653
0.413703 0.624537 0.920562
0.414343 0.624170 0.920562
0.698939 0.741482 0.912902
0.821958 0.801694 0.899474
0.863188 0.732601 0.878080
0.468544 0.739315 0.914611
0.540337 0.753841 0.913420
0.697658 0.794430 0.910430
0.840269 0.847074 0.908232
0.878660 0.808927 0.880247
0.610803 0.864744 0.906493
0.650080 0.868803 0.906004
0.749660 0.880705 0.904845
0.845029 0.894774 0.904173
0.900328 0.891112 0.887938
