其他预设/【233】日式怀旧街道调色预设208款/1.3D LUT预设（视频调色-PR-AE-PS-FCPX-达芬奇用）/3.日式城市街拍预设 (自动曝光预设)/JA – Warm Bright 1 (Auto-Exposure).cube
# Created by Adobe Lightroom plugin Export LUT (1.17.0)
# www.johnrellis.com/lightroom/exportlut.htm
# Preset: JA – Warm Bright 1 (Auto-Exposure)
# Color profile: /Library/Application Support/Adobe/Color/Profiles/Recommended/AdobeRGB1998.icc
LUT_3D_SIZE 5
DOMAIN_MIN 0.000000 0.000000 0.000000
DOMAIN_MAX 0.903226 0.903226 0.903226
0.112276 0.101625 0.094667
0.240696 0.089021 0.089479
0.552453 0.000000 0.000000
0.801968 0.000000 0.000000
0.989258 0.000000 0.000000
0.101869 0.228244 0.081117
0.249546 0.231113 0.061769
0.558923 0.244663 0.000000
0.805875 0.220432 0.000000
0.990417 0.139284 0.000000
0.000000 0.527306 0.000000
0.272862 0.530571 0.000000
0.567620 0.535790 0.000000
0.811124 0.489693 0.000000
0.989136 0.419593 0.000000
0.000000 0.766690 0.000000
0.212161 0.767453 0.000000
0.526299 0.769558 0.000000
0.798581 0.769497 0.000000
0.983703 0.692409 0.000000
0.000000 0.949218 0.000000
0.066743 0.947753 0.000000
0.448249 0.942016 0.000000
0.707149 0.930114 0.000000
0.930480 0.912230 0.000000
0.125978 0.111452 0.211368
0.244633 0.077974 0.210544
0.549981 0.000000 0.190982
0.803006 0.000000 0.118837
0.991180 0.000000 0.000000
0.113924 0.223667 0.211673
0.249821 0.227390 0.212345
0.565209 0.194980 0.170199
0.808927 0.151553 0.081941
0.992309 0.085084 0.000000
0.000000 0.522972 0.220401
0.202731 0.533593 0.158022
0.569268 0.536736 0.000000
0.814694 0.464363 0.000000
0.991516 0.404852 0.000000
0.000000 0.764797 0.150362
0.144961 0.768307 0.039918
0.510765 0.770748 0.000000
0.799680 0.770382 0.000000
0.985779 0.683070 0.000000
0.000000 0.948058 0.000000
0.000000 0.947662 0.000000
0.433631 0.942565 0.000000
0.698421 0.931151 0.000000
0.932341 0.912169 0.000000
0.150240 0.127840 0.496162
0.290013 0.075959 0.495430
0.540063 0.000000 0.482307
0.774105 0.000000 0.434668
0.978027 0.000000 0.396338
0.187106 0.290715 0.497536
0.283360 0.256474 0.499580
0.547051 0.152926 0.487953
0.780575 0.155550 0.438422
0.976837 0.236088 0.411994
0.072023 0.507622 0.491371
0.271733 0.511223 0.493416
0.558312 0.520012 0.494972
0.798947 0.493507 0.460304
0.982910 0.423926 0.375525
0.000000 0.749569 0.468910
0.200412 0.752682 0.464973
0.519554 0.761379 0.456031
0.799313 0.767849 0.401099
0.981048 0.663020 0.312596
0.000000 0.941650 0.427008
0.202152 0.940185 0.425910
0.474952 0.936126 0.410773
0.703304 0.928466 0.339300
0.932586 0.911559 0.135500
0.232761 0.216007 0.732631
0.322606 0.193484 0.731350
0.522454 0.000000 0.725795
0.763333 0.000000 0.708736
0.952178 0.000000 0.648798
0.289525 0.346258 0.733852
0.352850 0.328283 0.732692
0.526116 0.243900 0.727474
0.765255 0.091341 0.710567
0.951873 0.147402 0.650538
0.404730 0.565026 0.730037
0.478187 0.576715 0.730831
0.580682 0.547082 0.731228
0.770138 0.472023 0.715358
0.950134 0.474189 0.662379
0.283940 0.731136 0.722744
0.378820 0.732906 0.723384
0.574823 0.739101 0.725368
0.783017 0.750759 0.729274
0.947234 0.723507 0.693233
0.082429 0.929686 0.692561
0.266392 0.928313 0.690974
0.509545 0.923644 0.686152
0.747555 0.915312 0.693263
0.928191 0.907317 0.645624
0.433448 0.416022 0.905150
0.462074 0.402808 0.905272
0.554772 0.342351 0.905791
0.712093 0.107607 0.906218
0.929839 0.000000 0.898711
0.486519 0.497322 0.902678
0.506859 0.485176 0.902922
0.579065 0.433051 0.903777
0.716732 0.280919 0.904814
0.928893 0.164309 0.897826
0.609491 0.669276 0.895689
0.628809 0.668482 0.896025
0.654810 0.629084 0.897826
0.738643 0.536706 0.899779
0.925505 0.452247 0.894682
0.616663 0.770993 0.892302
0.648249 0.776242 0.891905
0.740352 0.795315 0.890684
0.803677 0.780179 0.892058
0.918700 0.707301 0.888487
0.506554 0.886503 0.890471
0.543908 0.887053 0.890196
0.654322 0.889220 0.889281
0.802365 0.893492 0.887877
0.916777 0.900206 0.888884
