其他预设/【233】日式怀旧街道调色预设208款/1.3D LUT预设（视频调色-PR-AE-PS-FCPX-达芬奇用）/3.日式城市街拍预设 (自动曝光预设)/JA – Gritty Contrast 4 (Auto-Exposure).cube
# Created by Adobe Lightroom plugin Export LUT (1.17.0)
# www.johnrellis.com/lightroom/exportlut.htm
# Preset: JA – Gritty Contrast 4 (Auto-Exposure)
# Color profile: /Library/Application Support/Adobe/Color/Profiles/Recommended/AdobeRGB1998.icc
LUT_3D_SIZE 32
0.070192 0.076143 0.083955
0.078920 0.077180 0.085481
0.091127 0.077729 0.087129
0.114199 0.079011 0.091096
0.140902 0.079042 0.094850
0.168887 0.076967 0.097017
0.198062 0.071321 0.097475
0.230594 0.061982 0.096529
0.268467 0.028962 0.093904
0.313787 0.000000 0.089540
0.368536 0.000000 0.083345
0.429175 0.000000 0.075074
0.491554 0.000000 0.066499
0.550927 0.000000 0.053101
0.602899 0.000000 0.027253
0.646632 0.000000 0.003204
0.683986 0.000000 0.000000
0.716518 0.000000 0.000000
0.744717 0.000000 0.000000
0.770932 0.000000 0.000000
0.796933 0.000000 0.000000
0.823789 0.000000 0.000000
0.851774 0.000000 0.000000
0.879973 0.000000 0.000000
0.907713 0.000000 0.000000
0.934508 0.000000 0.000000
0.959686 0.000000 0.000000
0.982666 0.000000 0.000000
1.000000 0.000000 0.000000
1.000000 0.000000 0.000000
1.000000 0.000000 0.045716
1.000000 0.000000 0.082246
0.072297 0.081697 0.085878
0.078004 0.081819 0.086305
0.088777 0.084871 0.089235
0.113436 0.087068 0.092164
0.141878 0.086671 0.094789
0.169802 0.085115 0.096925
0.199466 0.080171 0.097597
0.231998 0.072053 0.096376
0.270085 0.057008 0.093416
0.316014 0.004150 0.088899
0.370947 0.000000 0.082094
0.431922 0.000000 0.074189
0.494270 0.000000 0.065156
0.553552 0.000000 0.048859
0.604852 0.000000 0.023011
0.648188 0.000000 0.000000
0.685359 0.000000 0.000000
0.717647 0.000000 0.000000
0.745571 0.000000 0.000000
0.771725 0.000000 0.000000
0.797635 0.000000 0.000000
0.824521 0.000000 0.000000
0.852384 0.000000 0.000000
0.880522 0.000000 0.000000
0.908293 0.000000 0.000000
0.935027 0.000000 0.000000
0.960082 0.000000 0.000000
0.982971 0.000000 0.000000
1.000000 0.000000 0.000000
1.000000 0.000000 0.000000
1.000000 0.000000 0.045136
1.000000 0.000000 0.082399
0.075471 0.089754 0.088045
0.081666 0.089754 0.088472
0.089265 0.090028 0.089631
0.109621 0.097017 0.096956
0.139590 0.098177 0.098299
0.170504 0.095521 0.098116
0.201053 0.090883 0.097505
0.233982 0.084352 0.096223
0.272618 0.073274 0.093141
0.318975 0.048768 0.088411
0.374487 0.000000 0.080995
0.435645 0.000000 0.072480
0.497719 0.000000 0.062867
0.556664 0.000000 0.043214
0.607355 0.000000 0.016846
0.650324 0.000000 0.000000
0.687129 0.000000 0.000000
0.719020 0.000000 0.000000
0.746822 0.000000 0.000000
0.772824 0.000000 0.000000
0.798672 0.000000 0.000000
0.825559 0.000000 0.000000
0.853361 0.000000 0.000000
0.881376 0.000000 0.000000
0.908995 0.000000 0.000000
0.935607 0.000000 0.000000
0.960571 0.000000 0.000000
0.983337 0.000000 0.000000
1.000000 0.000000 0.000000
1.000000 0.000000 0.000000
1.000000 0.000000 0.043580
1.000000 0.000000 0.082338
0.082368 0.106233 0.093263
0.088808 0.105898 0.093660
0.096193 0.106081 0.093965
0.110170 0.106203 0.097169
0.133394 0.114443 0.107271
0.165408 0.116152 0.106325
0.198489 0.113222 0.103548
0.234867 0.107820 0.099275
0.277256 0.099977 0.092805
0.325597 0.088685 0.086427
0.382300 0.070741 0.078065
0.443610 0.018860 0.067964
0.505821 0.000000 0.054963
0.563378 0.000000 0.028412
0.612879 0.000000 0.001434
0.654902 0.000000 0.000000
0.690944 0.000000 0.000000
0.722133 0.000000 0.000000
0.749447 0.000000 0.000000
0.775174 0.000000 0.000000
0.800961 0.000000 0.000000
0.827695 0.000000 0.000000
0.855436 0.000000 0.000000
0.883207 0.000000 0.000000
0.910613 0.000000 0.000000
0.936980 0.000000 0.000000
0.961608 0.000000 0.000000
0.984161 0.000000 0.000000
1.000000 0.000000 0.000000
1.000000 0.000000 0.000000
1.000000 0.000000 0.042908
1.000000 0.000000 0.082673
0.090211 0.123842 0.099672
0.096010 0.123568 0.100069
0.102907 0.123293 0.100160
0.115450 0.123354 0.100252
0.133303 0.124361 0.104768
0.160189 0.132937 0.113436
0.192020 0.137423 0.114687
0.230228 0.136538 0.109468
0.274083 0.133547 0.102449
0.326421 0.129488 0.093172
0.387884 0.122499 0.080720
0.453651 0.111513 0.064179
0.517632 0.095705 0.033936
0.573632 0.072511 0.003937
0.621180 0.001038 0.000000
0.661616 0.000000 0.000000
0.696529 0.000000 0.000000
0.726802 0.000000 0.000000
0.753506 0.000000 0.000000
0.778866 0.000000 0.000000
0.804471 0.000000 0.000000
0.831205 0.000000 0.000000
0.858610 0.000000 0.000000
0.886137 0.000000 0.000000
0.913146 0.000000 0.000000
0.939055 0.000000 0.000000
0.963348 0.000000 0.000000
0.985382 0.000000 0.000000
1.000000 0.000000 0.000000
1.000000 0.000000 0.000000
1.000000 0.000000 0.042115
1.000000 0.000000 0.082856
0.098665 0.141573 0.104829
0.103395 0.141573 0.104707
0.109529 0.141024 0.104829
0.121035 0.140902 0.104982
0.137270 0.141451 0.105287
0.158114 0.143099 0.110109
0.188998 0.153017 0.117830
0.222995 0.162387 0.123629
0.268894 0.164981 0.115572
0.323613 0.166873 0.105470
0.387213 0.167788 0.092714
0.454871 0.166354 0.076692
0.520439 0.161227 0.057496
0.579278 0.150668 0.011444
0.628107 0.135958 0.000000
0.669215 0.115877 0.000000
0.703975 0.089387 0.000000
0.732998 0.048554 0.000000
0.758846 0.000000 0.000000
0.783841 0.000000 0.000000
0.809293 0.000000 0.000000
0.835782 0.000000 0.000000
0.862913 0.000000 0.000000
0.890013 0.000000 0.000000
0.916472 0.000000 0.000000
0.941833 0.000000 0.000000
0.965545 0.000000 0.000000
0.987030 0.000000 0.000000
1.000000 0.000000 0.000000
1.000000 0.000000 0.000000
1.000000 0.000000 0.040711
1.000000 0.000000 0.083101
0.106905 0.160403 0.108156
0.111269 0.159945 0.108309
0.116915 0.159762 0.108186
0.127962 0.159060 0.108370
0.142672 0.159915 0.108217
0.161196 0.160616 0.108492
0.185092 0.163333 0.113741
0.221897 0.176028 0.120699
0.263279 0.189181 0.126558
0.318547 0.200809 0.122042
0.385046 0.208499 0.107973
0.455268 0.213443 0.092073
0.522881 0.214145 0.074037
0.582116 0.209262 0.047578
0.631250 0.199649 0.000000
0.672175 0.186770 0.000000
0.707210 0.170840 0.000000
0.737209 0.152407 0.000000
0.764004 0.130770 0.000000
0.789975 0.103182 0.000000
0.815274 0.066468 0.000000
0.841520 0.000000 0.000000
0.868193 0.000000 0.000000
0.894713 0.000000 0.000000
0.920592 0.000000 0.000000
0.945251 0.000000 0.000000
0.968231 0.000000 0.000000
0.989044 0.000000 0.000000
1.000000 0.000000 0.000000
1.000000 0.000000 0.000000
1.000000 0.000000 0.037995
1.000000 0.000000 0.083619
0.116487 0.179995 0.110842
0.120394 0.179873 0.110750
0.125582 0.179446 0.110872
0.135897 0.178683 0.110658
0.150088 0.179110 0.110750
0.167422 0.180453 0.110719
0.185214 0.179660 0.111086
0.216312 0.186709 0.115969
0.261601 0.204196 0.121706
0.314183 0.222690 0.126497
0.380835 0.244999 0.128542
0.454566 0.256229 0.111696
0.524559 0.261936 0.093904
0.584894 0.260594 0.074739
0.634150 0.254154 0.049958
0.675196 0.243687 0.007141
0.710079 0.230533 0.000000
0.739834 0.215915 0.000000
0.766567 0.199588 0.000000
0.792660 0.182101 0.000000
0.819455 0.161379 0.000000
0.847044 0.135836 0.000000
0.874510 0.102419 0.000000
0.900359 0.037476 0.000000
0.925353 0.000000 0.000000
0.949218 0.000000 0.000000
0.971344 0.000000 0.000000
0.991363 0.000000 0.000000
1.000000 0.000000 0.000000
1.000000 0.000000 0.000000
1.000000 0.000000 0.036744
1.000000 0.000000 0.084962
0.127596 0.201602 0.112490
0.131167 0.201266 0.112428
0.135866 0.201022 0.112337
0.145632 0.200534 0.112276
0.159274 0.200412 0.112215
0.175784 0.201968 0.111879
0.196017 0.204288 0.111604
0.213535 0.201663 0.112367
0.254063 0.214908 0.116335
0.311467 0.239170 0.120272
0.376989 0.264225 0.123415
0.451606 0.290806 0.127596
0.524865 0.306828 0.119326
0.586755 0.309056 0.101656
0.636622 0.304295 0.084749
0.677821 0.295445 0.068177
0.712734 0.283635 0.041627
0.742458 0.270420 0.006500
0.769253 0.255985 0.000000
0.795560 0.240635 0.000000
0.822599 0.224460 0.000000
0.850217 0.205844 0.000000
0.877775 0.185306 0.000000
0.904753 0.160128 0.000000
0.930541 0.127657 0.000000
0.953704 0.083192 0.000000
0.974884 0.000000 0.000000
0.993927 0.000000 0.000000
1.000000 0.000000 0.000000
1.000000 0.000000 0.000000
1.000000 0.000000 0.036194
1.000000 0.000000 0.086427
0.139528 0.225986 0.114748
0.143099 0.225834 0.114656
0.147585 0.225498 0.114351
0.157198 0.225040 0.113039
0.170474 0.224033 0.112245
0.186801 0.226200 0.111971
0.206638 0.229038 0.111452
0.229770 0.232456 0.110719
0.247349 0.228031 0.112123
0.301457 0.250004 0.113924
0.373022 0.282109 0.115785
0.446723 0.310735 0.118715
0.521416 0.336858 0.125216
0.587304 0.354528 0.132815
0.638331 0.351934 0.117128
0.680049 0.344274 0.103120
0.715023 0.333562 0.089906
0.744839 0.320592 0.076997
0.771786 0.307378 0.063478
0.798489 0.293156 0.037720
0.825834 0.278630 0.000855
0.853483 0.263462 0.000000
0.880888 0.246067 0.000000
0.907530 0.227512 0.000000
0.932921 0.205631 0.000000
0.956603 0.179385 0.000000
0.978210 0.147158 0.000000
0.996674 0.105928 0.000000
1.000000 0.015259 0.000000
1.000000 0.000000 0.000000
1.000000 0.000000 0.037812
1.000000 0.000000 0.088899
0.152590 0.254246 0.117128
0.155947 0.254032 0.116426
0.160464 0.253788 0.116304
0.169711 0.253056 0.115480
0.183139 0.252323 0.113802
0.199832 0.253513 0.111879
0.220249 0.257115 0.109957
0.243534 0.261265 0.108797
0.270573 0.266423 0.107118
0.291051 0.261845 0.108980
0.360174 0.293278 0.107973
0.441688 0.330114 0.108675
0.515862 0.357916 0.114168
0.582605 0.378790 0.125185
0.637812 0.392889 0.142855
0.681422 0.391455 0.140352
0.716701 0.381353 0.127901
0.746731 0.368994 0.116640
0.774105 0.355779 0.105989
0.801297 0.342382 0.094972
0.828977 0.329137 0.083589
0.856779 0.315099 0.070192
0.884031 0.300389 0.052003
0.910338 0.283787 0.015717
0.935210 0.265995 0.000000
0.958373 0.245579 0.000000
0.979339 0.222354 0.000000
0.997925 0.195315 0.000000
1.000000 0.162020 0.000000
1.000000 0.125490 0.000000
1.000000 0.079713 0.040925
1.000000 0.000000 0.092226
0.167941 0.286748 0.117922
0.171176 0.286625 0.117617
0.175753 0.286229 0.117342
0.184787 0.285832 0.116243
0.198215 0.284977 0.114748
0.214817 0.284337 0.112795
0.235813 0.288792 0.109285
0.260533 0.294255 0.105135
0.288548 0.300420 0.102632
0.320592 0.307622 0.099702
0.347753 0.305455 0.101472
0.426581 0.341802 0.098573
0.510094 0.378271 0.101228
0.577081 0.400549 0.111574
0.632624 0.415045 0.129824
0.679072 0.424964 0.153475
0.717220 0.428077 0.170779
0.747860 0.416205 0.158816
0.775814 0.403479 0.147738
0.803738 0.390600 0.137392
0.831907 0.377813 0.127291
0.859770 0.364630 0.117250
0.886900 0.350774 0.107820
0.912932 0.335851 0.098177
0.937346 0.319829 0.089418
0.959869 0.302281 0.080873
0.980224 0.282872 0.073610
0.998169 0.261295 0.067292
1.000000 0.237125 0.063142
1.000000 0.209049 0.060273
1.000000 0.176638 0.060029
1.000000 0.148959 0.096803
0.185641 0.324651 0.116854
0.188998 0.324743 0.116457
0.193393 0.324437 0.115938
0.202701 0.323735 0.115053
0.216342 0.323033 0.113283
0.233433 0.321874 0.110872
0.254124 0.324834 0.107912
0.279545 0.330999 0.103273
0.309392 0.338384 0.096376
0.342168 0.346410 0.092103
0.377630 0.353796 0.087404
0.412634 0.354955 0.089570
0.494484 0.391028 0.087404
0.570886 0.421546 0.095216
0.627100 0.436927 0.114229
0.674067 0.446784 0.139223
0.713527 0.453620 0.168490
0.747250 0.459754 0.200259
0.776608 0.450782 0.195377
0.805447 0.438392 0.183719
0.834134 0.426307 0.173281
0.862242 0.413550 0.163485
0.889342 0.400397 0.154910
0.915038 0.386358 0.147005
0.939025 0.371313 0.140200
0.960967 0.355138 0.134798
0.980682 0.337804 0.130343
0.997986 0.318883 0.127565
1.000000 0.298222 0.125948
1.000000 0.276341 0.126040
1.000000 0.252079 0.127382
1.000000 0.225650 0.129824
0.206119 0.367559 0.114626
0.209598 0.367254 0.113924
0.214145 0.367224 0.113283
0.223423 0.366491 0.112764
0.237125 0.365667 0.110689
0.254459 0.364477 0.108400
0.275120 0.364569 0.105165
0.301061 0.371099 0.099397
0.330907 0.378576 0.091951
0.364752 0.387182 0.082887
0.401801 0.396338 0.075624
0.437293 0.401160 0.071077
0.479835 0.405341 0.073579
0.556054 0.435767 0.075990
0.620478 0.457649 0.095491
0.668788 0.468208 0.122866
0.708766 0.474769 0.153750
0.742977 0.479927 0.186648
0.774685 0.486458 0.222202
0.805722 0.486915 0.238346
0.835264 0.475135 0.225864
0.863706 0.463142 0.215335
0.890867 0.450263 0.205783
0.916350 0.436896 0.198093
0.939910 0.422492 0.191318
0.961334 0.407050 0.186007
0.980468 0.390600 0.182345
0.997131 0.373541 0.180179
1.000000 0.355230 0.179477
1.000000 0.336370 0.180484
1.000000 0.316991 0.183078
1.000000 0.296849 0.187259
0.228672 0.412757 0.110231
0.231815 0.412543 0.110109
0.236149 0.412177 0.109316
0.245853 0.411597 0.107790
0.259709 0.410681 0.105806
0.277134 0.409491 0.103273
0.297429 0.407752 0.100526
0.322972 0.412299 0.093996
0.352514 0.419745 0.085817
0.386542 0.428321 0.073030
0.423011 0.437140 0.061189
0.463264 0.446479 0.039216
0.496376 0.446998 0.033356
0.542260 0.451545 0.048249
0.607660 0.473365 0.070863
0.661982 0.488533 0.102785
0.703578 0.495674 0.136843
0.738308 0.500053 0.171786
0.770535 0.505394 0.208316
0.802762 0.514275 0.248081
0.834440 0.525994 0.289342
0.863584 0.514366 0.276463
0.890929 0.502037 0.265599
0.916320 0.488808 0.256352
0.939574 0.474708 0.248753
0.960540 0.460151 0.243107
0.979065 0.444648 0.238987
0.995178 0.428656 0.236881
1.000000 0.412085 0.236301
1.000000 0.395514 0.237858
1.000000 0.378943 0.241245
1.000000 0.363043 0.246952
0.251041 0.457954 0.104067
0.254368 0.457679 0.103944
0.258732 0.457404 0.103029
0.268284 0.456825 0.101595
0.282048 0.455787 0.099947
0.299657 0.454414 0.096468
0.320165 0.452583 0.092622
0.344182 0.453162 0.086488
0.373327 0.460182 0.076509
0.406165 0.467903 0.062379
0.442145 0.476265 0.027588
0.480598 0.484657 0.000000
0.521569 0.493050 0.000000
0.550347 0.487861 0.000000
0.595117 0.490089 0.017639
0.650507 0.504875 0.075502
0.697017 0.515282 0.116365
0.733364 0.520073 0.154818
0.766049 0.524529 0.193332
0.798672 0.532006 0.233951
0.830930 0.543236 0.278538
0.861295 0.558251 0.326177
0.888975 0.555627 0.333165
0.914427 0.543084 0.322637
0.937499 0.529625 0.314031
0.958068 0.515526 0.307378
0.976135 0.500816 0.302617
0.991699 0.485878 0.300023
1.000000 0.470893 0.299504
1.000000 0.456367 0.301366
1.000000 0.442481 0.305333
1.000000 0.430274 0.312474
0.273014 0.500847 0.097810
0.276463 0.500511 0.096712
0.280613 0.500359 0.096407
0.289891 0.499611 0.094392
0.303441 0.498482 0.092348
0.320897 0.497200 0.088685
0.341161 0.495277 0.084413
0.364050 0.493141 0.078401
0.391791 0.498085 0.067323
0.423377 0.504845 0.043824
0.457862 0.512047 0.000000
0.494057 0.519097 0.000000
0.532494 0.526177 0.000000
0.573205 0.533013 0.000000
0.596399 0.521874 0.000000
0.638941 0.521904 0.014862
0.686610 0.532006 0.088899
0.726864 0.539025 0.134646
0.761257 0.543725 0.176669
0.794278 0.550042 0.218753
0.827115 0.559899 0.264103
0.858061 0.573083 0.312810
0.885924 0.589532 0.362707
0.910674 0.597650 0.391333
0.933623 0.585138 0.381811
0.953887 0.571923 0.374487
0.971466 0.558312 0.369299
0.986603 0.544457 0.366217
0.999634 0.530938 0.365515
1.000000 0.518212 0.367254
1.000000 0.506676 0.371496
1.000000 0.497169 0.379065
0.293645 0.539544 0.091646
0.296880 0.539178 0.091005
0.300816 0.539025 0.089876
0.309514 0.538231 0.088594
0.322911 0.537163 0.085725
0.339605 0.535760 0.081788
0.359533 0.534051 0.076539
0.382025 0.531731 0.069490
0.407660 0.532464 0.058717
0.437507 0.538109 0.025696
0.469978 0.544060 0.000000
0.504387 0.550164 0.000000
0.540581 0.556023 0.000000
0.578698 0.561883 0.000000
0.618799 0.567651 0.000000
0.636439 0.551171 0.000000
0.677272 0.549889 0.046357
0.718471 0.556390 0.109529
0.755184 0.562066 0.157137
0.789548 0.568231 0.202121
0.822934 0.576806 0.248539
0.854551 0.588556 0.298375
0.883207 0.603143 0.349767
0.907897 0.620417 0.400702
0.928435 0.638087 0.446662
0.948363 0.626429 0.439155
0.965484 0.613977 0.433661
0.980224 0.601465 0.430213
0.992889 0.589258 0.429053
1.000000 0.577874 0.430274
1.000000 0.568170 0.434363
1.000000 0.560632 0.441627
0.312718 0.574243 0.087434
0.315465 0.574029 0.086702
0.319677 0.573663 0.085573
0.327764 0.573083 0.083833
0.340246 0.572076 0.081392
0.356512 0.570733 0.076814
0.375830 0.568994 0.070832
0.397864 0.566857 0.061921
0.421851 0.564477 0.044160
0.449866 0.568780 0.010346
0.480690 0.573816 0.000000
0.513085 0.578882 0.000000
0.547204 0.583978 0.000000
0.583185 0.588983 0.000000
0.620966 0.594018 0.000000
0.657527 0.596460 0.000000
0.672633 0.577264 0.000000
0.711238 0.574762 0.078614
0.748470 0.579858 0.134340
0.783993 0.586084 0.183169
0.818479 0.594079 0.231754
0.850797 0.604486 0.282841
0.880186 0.617487 0.335821
0.905608 0.632990 0.388373
0.926635 0.650202 0.438422
0.943420 0.667597 0.483314
0.959228 0.663691 0.489845
0.973510 0.652583 0.486427
0.985809 0.641657 0.484932
0.996338 0.631617 0.485786
1.000000 0.622827 0.489082
1.000000 0.616083 0.495277
0.330510 0.605982 0.085298
0.333013 0.605798 0.085695
0.336950 0.605493 0.084260
0.344823 0.604883 0.082124
0.356664 0.603967 0.078645
0.372168 0.602655 0.073915
0.390631 0.601007 0.067201
0.411749 0.599023 0.057893
0.435065 0.596796 0.032624
0.461189 0.597528 0.000000
0.490303 0.601862 0.000000
0.520623 0.606134 0.000000
0.552880 0.610376 0.000000
0.586999 0.614771 0.000000
0.622766 0.619074 0.000000
0.659846 0.623255 0.000000
0.691249 0.621271 0.000000
0.705226 0.600916 0.033051
0.742733 0.598322 0.108248
0.778592 0.604059 0.162814
0.813779 0.611505 0.213657
0.846708 0.620722 0.266026
0.876890 0.632380 0.320714
0.903105 0.646204 0.375097
0.924834 0.661799 0.427253
0.942107 0.677882 0.474372
0.955322 0.693111 0.515221
0.967193 0.695949 0.533043
0.979095 0.686305 0.531487
0.989349 0.677028 0.531701
0.998169 0.669032 0.534325
1.000000 0.662745 0.539513
0.347204 0.635431 0.087556
0.349828 0.635218 0.086519
0.353307 0.635004 0.085084
0.360693 0.634424 0.083314
0.372107 0.633478 0.079591
0.386725 0.632288 0.074586
0.404547 0.630762 0.067079
0.424720 0.628931 0.056855
0.447181 0.626734 0.030457
0.471626 0.624537 0.000000
0.498756 0.628138 0.000000
0.527398 0.631739 0.000000
0.557824 0.635431 0.000000
0.590173 0.639094 0.000000
0.623865 0.642847 0.000000
0.659113 0.646418 0.000000
0.695430 0.650019 0.000000
0.722194 0.643885 0.018280
0.738003 0.625055 0.088350
0.774136 0.622827 0.140536
0.809842 0.629847 0.195102
0.843259 0.637964 0.249302
0.873381 0.647639 0.304509
0.900420 0.660029 0.360906
0.922850 0.673976 0.415106
0.940703 0.688746 0.464637
0.954314 0.702815 0.507530
0.964446 0.716152 0.545006
0.972869 0.724086 0.570916
0.982849 0.715724 0.570764
0.991424 0.708278 0.572717
0.998810 0.702296 0.577081
0.363470 0.662837 0.090425
0.365698 0.662684 0.089693
0.369116 0.662379 0.088960
0.376043 0.661891 0.086671
0.386755 0.661067 0.083101
0.400671 0.659937 0.078645
0.417395 0.658564 0.071687
0.436622 0.656794 0.062165
0.458350 0.654749 0.038300
0.481453 0.652369 0.014191
0.506218 0.653010 0.013001
0.533349 0.656031 0.013306
0.562280 0.659144 0.015595
0.592859 0.662348 0.021668
0.625086 0.665614 0.029450
0.658839 0.669001 0.038300
0.693629 0.672419 0.051606
0.729793 0.675898 0.062470
0.752377 0.666346 0.090272
0.770748 0.649805 0.126802
0.806882 0.649165 0.175967
0.840970 0.656703 0.232975
0.871244 0.664973 0.289708
0.897490 0.674342 0.345495
0.920714 0.686854 0.401984
0.939147 0.700160 0.454017
0.953246 0.713069 0.499275
0.963684 0.725277 0.538506
0.971344 0.737087 0.573266
0.976837 0.748501 0.604395
0.985229 0.741604 0.605798
0.992462 0.735866 0.609430
0.378912 0.688472 0.097963
0.381140 0.688319 0.097292
0.384192 0.688136 0.096040
0.390875 0.687617 0.093751
0.400793 0.686824 0.090272
0.413977 0.685756 0.085145
0.429816 0.684504 0.078218
0.448005 0.682887 0.071260
0.467964 0.681086 0.069734
0.489693 0.678920 0.067750
0.513115 0.676661 0.065461
0.538964 0.679316 0.068482
0.566674 0.682155 0.071992
0.596124 0.685115 0.076143
0.627039 0.688319 0.081300
0.659449 0.691676 0.086732
0.693233 0.695186 0.092866
0.728328 0.698909 0.100343
0.764736 0.702907 0.108064
0.783963 0.690455 0.132082
0.804929 0.676478 0.165835
0.839628 0.676661 0.216556
0.870542 0.684016 0.276280
0.896727 0.691676 0.333593
0.918395 0.700252 0.387915
0.937530 0.712184 0.442634
0.952117 0.723873 0.490425
0.962890 0.734981 0.531548
0.970794 0.745693 0.567712
0.976440 0.756222 0.600092
0.980285 0.767025 0.630030
0.986358 0.765408 0.639033
0.394385 0.713710 0.106722
0.396460 0.713527 0.106142
0.399420 0.713313 0.104799
0.405371 0.712886 0.103212
0.414435 0.712184 0.102754
0.426246 0.711330 0.102510
0.440986 0.710109 0.101595
0.457740 0.708705 0.101106
0.476997 0.706996 0.100130
0.497932 0.705043 0.098817
0.520745 0.702785 0.097749
0.545190 0.702663 0.098451
0.571923 0.705501 0.102449
0.600336 0.708492 0.107301
0.630396 0.711757 0.112703
0.661952 0.715328 0.118715
0.695033 0.719142 0.125277
0.729213 0.723201 0.132723
0.764706 0.727443 0.141085
0.801144 0.731899 0.150484
0.816648 0.716243 0.174289
0.839078 0.704341 0.209812
0.870695 0.704463 0.263066
0.897398 0.710964 0.323430
0.918853 0.717647 0.379400
0.935790 0.724727 0.430182
0.950866 0.735164 0.480720
0.962036 0.745113 0.524010
0.970214 0.754757 0.561852
0.976043 0.764309 0.595514
0.980041 0.774197 0.626429
0.982177 0.785733 0.657557
0.408545 0.740047 0.132845
0.410468 0.739925 0.132723
0.413031 0.739712 0.132601
0.418616 0.739345 0.132448
0.427314 0.738674 0.132113
0.438605 0.737881 0.131777
0.452522 0.736843 0.131563
0.468788 0.735500 0.131197
0.487251 0.733974 0.130617
0.507683 0.732174 0.129854
0.529625 0.730159 0.129183
0.553155 0.727901 0.128664
0.579065 0.730159 0.132448
0.606683 0.733394 0.137575
0.635981 0.736904 0.143343
0.666743 0.740658 0.149813
0.698970 0.744564 0.157321
0.732204 0.748745 0.165621
0.766537 0.753048 0.174807
0.801785 0.757443 0.185214
0.836027 0.760342 0.197391
0.849058 0.742702 0.221225
0.871580 0.732174 0.259831
0.898833 0.731716 0.314061
0.920470 0.736965 0.373144
0.937163 0.742214 0.425849
0.949676 0.747189 0.470527
0.961151 0.755825 0.516045
0.969574 0.764309 0.555596
0.975616 0.772885 0.590692
0.979767 0.781765 0.622644
0.982025 0.792294 0.654536
0.424445 0.768612 0.164462
0.426246 0.768551 0.164614
0.428809 0.768338 0.164523
0.433997 0.768002 0.164401
0.442237 0.767422 0.164401
0.453101 0.766690 0.164096
0.466377 0.765743 0.164065
0.482063 0.764553 0.163760
0.499947 0.763180 0.163668
0.519524 0.761563 0.163455
0.541009 0.759731 0.163027
0.563897 0.757717 0.162844
0.588403 0.756893 0.164004
0.615412 0.760189 0.169833
0.643824 0.763668 0.176394
0.673640 0.767391 0.183932
0.704891 0.771267 0.192264
0.737026 0.775235 0.201602
0.770138 0.779324 0.211856
0.803922 0.783413 0.223148
0.838132 0.787503 0.235264
0.867643 0.786893 0.250614
0.879667 0.768948 0.273533
0.900786 0.759152 0.314519
0.922850 0.757687 0.368231
0.939300 0.761257 0.423346
0.951446 0.764523 0.469947
0.960479 0.767483 0.508385
0.968963 0.774380 0.548974
0.975158 0.781857 0.585657
0.979461 0.789761 0.618769
0.981872 0.799222 0.651514
0.443061 0.798978 0.201541
0.444862 0.798856 0.201480
0.447150 0.798703 0.201602
0.452155 0.798367 0.201511
0.459937 0.797879 0.201602
0.470344 0.797208 0.201572
0.483040 0.796353 0.201511
0.498054 0.795285 0.201755
0.515282 0.794034 0.201785
0.534234 0.792630 0.201846
0.554925 0.790951 0.201938
0.577142 0.789120 0.202182
0.600702 0.787106 0.202365
0.626337 0.788388 0.206851
0.653803 0.791684 0.214359
0.682612 0.795132 0.222629
0.712581 0.798703 0.231968
0.743404 0.802274 0.241947
0.775051 0.805875 0.252903
0.807156 0.809506 0.264714
0.839567 0.813016 0.277287
0.872190 0.816464 0.290806
0.896513 0.812161 0.307805
0.907012 0.793881 0.329717
0.925414 0.784329 0.372137
0.941985 0.781582 0.422644
0.953643 0.782956 0.471015
0.962280 0.784268 0.510613
0.968658 0.785763 0.543877
0.974701 0.791287 0.580316
0.979156 0.798123 0.614679
0.981689 0.806546 0.648402
0.465522 0.829831 0.245457
0.467170 0.829740 0.245396
0.469245 0.829618 0.245487
0.473945 0.829343 0.245487
0.481331 0.828885 0.245731
0.491188 0.828275 0.245914
0.503166 0.827543 0.246128
0.517418 0.826596 0.246555
0.533715 0.825498 0.246769
0.551934 0.824216 0.247227
0.571740 0.822721 0.247684
0.593225 0.821103 0.248234
0.615900 0.819303 0.248905
0.639765 0.817350 0.249729
0.666133 0.820218 0.257786
