其他预设/【233】日式怀旧街道调色预设208款/1.3D LUT预设（视频调色-PR-AE-PS-FCPX-达芬奇用）/3.日式城市街拍预设 (自动曝光预设)/JA – Shaded Light 5 (Auto-Exposure).cube
# Created by Adobe Lightroom plugin Export LUT (1.17.0)
# www.johnrellis.com/lightroom/exportlut.htm
# Preset: JA – Shaded Light 5 (Auto-Exposure)
# Color profile: /Library/Application Support/Adobe/Color/Profiles/Recommended/AdobeRGB1998.icc
LUT_3D_SIZE 8
DOMAIN_MIN 0.000000 0.000000 0.000000
DOMAIN_MAX 0.903226 0.903226 0.903226
0.061799 0.074098 0.088899
0.087068 0.074830 0.088899
0.159731 0.077485 0.088380
0.241428 0.082307 0.087373
0.372503 0.088441 0.078920
0.574426 0.089143 0.007172
0.785641 0.072114 0.000000
0.915465 0.024689 0.000000
0.058350 0.100160 0.092134
0.086061 0.102144 0.088350
0.163424 0.113649 0.087190
0.247288 0.118990 0.086458
0.383642 0.133669 0.075227
0.587762 0.150973 0.000000
0.792477 0.154940 0.000000
0.917815 0.143313 0.000000
0.003021 0.181491 0.103395
0.072602 0.183932 0.088869
0.157168 0.184512 0.085359
0.254002 0.200717 0.083650
0.425177 0.248325 0.047547
0.633082 0.286046 0.000000
0.814237 0.297612 0.000000
0.925475 0.284123 0.000000
0.000000 0.281987 0.124483
0.000000 0.284520 0.092653
0.150851 0.288853 0.076051
0.249699 0.290013 0.070466
0.397345 0.335485 0.015747
0.692927 0.460639 0.000000
0.844480 0.460182 0.000000
0.937346 0.432227 0.000000
0.000000 0.464851 0.158419
0.000000 0.467506 0.098604
0.117159 0.471473 0.000000
0.289128 0.471046 0.000000
0.418433 0.476905 0.000000
0.596307 0.521324 0.000000
0.839628 0.603296 0.000000
0.951446 0.588525 0.000000
0.000000 0.701930 0.195895
0.000000 0.703517 0.129610
0.000000 0.705196 0.000000
0.290227 0.704128 0.000000
0.472389 0.697780 0.000000
0.626001 0.698512 0.000000
0.778470 0.695308 0.000000
0.927123 0.703517 0.000000
0.000000 0.857053 0.229862
0.000000 0.857694 0.180941
0.000000 0.858335 0.000000
0.198154 0.854215 0.000000
0.436561 0.847318 0.000000
0.605097 0.837522 0.000000
0.753597 0.829679 0.000000
0.894957 0.816037 0.000000
0.000000 0.946593 0.269718
0.000000 0.947082 0.239200
0.000000 0.949035 0.000000
0.000000 0.946319 0.000000
0.355047 0.941985 0.000000
0.547478 0.935119 0.000000
0.701259 0.928130 0.000000
0.845701 0.921813 0.000000
0.062501 0.076478 0.119905
0.081422 0.079194 0.116335
0.157870 0.067842 0.128237
0.240940 0.059052 0.117464
0.370153 0.028626 0.112856
0.570062 0.000000 0.091890
0.782803 0.000000 0.000000
0.914488 0.000000 0.000000
0.060334 0.099123 0.121187
0.086458 0.103365 0.123598
0.163638 0.103853 0.121492
0.246159 0.106325 0.119387
0.380835 0.110689 0.112947
0.583337 0.111177 0.088045
0.789792 0.099458 0.000000
0.916808 0.081849 0.000000
0.007965 0.180606 0.144137
0.073671 0.183963 0.136233
0.158022 0.185763 0.122072
0.260685 0.203738 0.127810
0.421149 0.236362 0.113344
0.628687 0.267582 0.069947
0.811887 0.276982 0.000000
0.924559 0.264073 0.000000
0.000000 0.282017 0.168765
0.000000 0.284764 0.158022
0.146883 0.290288 0.123690
0.251255 0.291875 0.115938
0.408087 0.341527 0.105562
0.699123 0.457435 0.000000
0.842649 0.449042 0.000000
0.936492 0.421851 0.000000
0.000000 0.466163 0.210636
0.000000 0.469032 0.186954
0.097658 0.474250 0.110689
0.286381 0.474586 0.059693
0.420569 0.479225 0.014496
0.606439 0.526970 0.000000
0.843076 0.601251 0.000000
0.950683 0.582300 0.000000
0.000000 0.703212 0.250156
0.000000 0.704799 0.217014
0.000000 0.707729 0.000000
0.278752 0.706294 0.000000
0.470008 0.699367 0.000000
0.627100 0.699519 0.000000
0.781247 0.695033 0.000000
0.928710 0.701869 0.000000
0.000000 0.857389 0.275456
0.000000 0.857877 0.247807
0.000000 0.859617 0.000000
0.174563 0.855375 0.000000
0.429908 0.848234 0.000000
0.603143 0.838071 0.000000
0.753872 0.829892 0.000000
0.895872 0.815030 0.000000
0.000000 0.946593 0.303929
0.000000 0.946746 0.288884
0.000000 0.948791 0.133761
0.000000 0.946929 0.000000
0.346777 0.942596 0.000000
0.543389 0.935790 0.000000
0.699947 0.928435 0.000000
0.845914 0.921874 0.000000
0.057282 0.078828 0.212955
0.087129 0.080903 0.205447
0.139071 0.089570 0.195743
0.203250 0.098299 0.210422
0.343969 0.000000 0.226688
0.545953 0.000000 0.204410
0.769162 0.000000 0.171023
0.909850 0.000000 0.153017
0.029603 0.106752 0.223178
0.088533 0.110292 0.216220
0.144472 0.117067 0.203250
0.215366 0.116823 0.216220
0.358831 0.000000 0.219516
0.561303 0.000000 0.187503
0.776974 0.000000 0.171023
0.912383 0.000000 0.153048
0.039460 0.180117 0.221469
0.092317 0.182254 0.222049
0.158999 0.188083 0.223423
0.254520 0.184482 0.216312
0.402930 0.183383 0.208438
0.608820 0.180392 0.193393
0.801663 0.171115 0.171298
0.920684 0.161074 0.153323
0.000000 0.281559 0.257816
0.067140 0.284398 0.256657
0.145174 0.293614 0.237400
0.255558 0.297124 0.216403
0.445930 0.357031 0.218723
0.684321 0.409491 0.199069
0.835660 0.401068 0.174594
0.933318 0.377173 0.158450
0.000000 0.470741 0.317082
0.000000 0.473701 0.308263
0.000000 0.482765 0.256474
0.269352 0.486763 0.198520
0.427405 0.486549 0.185885
0.640620 0.542687 0.166720
0.854459 0.592218 0.181308
0.947509 0.558923 0.185733
0.000000 0.707790 0.369940
0.000000 0.709346 0.355016
0.000000 0.714137 0.280613
0.222171 0.714443 0.165438
0.458839 0.704982 0.109010
0.630762 0.703090 0.080568
0.795529 0.698390 0.002899
0.933837 0.696254 0.138796
0.000000 0.858610 0.387030
0.000000 0.859007 0.373388
0.000000 0.860014 0.314458
0.000000 0.859281 0.167514
0.403693 0.851621 0.064698
0.595636 0.839963 0.000000
0.754971 0.830655 0.000000
0.899077 0.810849 0.000000
0.000000 0.946532 0.397345
0.000000 0.946685 0.388098
0.000000 0.946471 0.363531
0.000000 0.948241 0.226078
0.321691 0.944335 0.136721
0.528679 0.937987 0.000000
0.695338 0.929412 0.000000
0.846555 0.922210 0.000000
0.051423 0.082002 0.322484
0.091432 0.086793 0.313542
0.145998 0.103304 0.285649
0.199313 0.116152 0.274937
0.257939 0.128511 0.288182
0.438575 0.000000 0.350469
0.718898 0.000000 0.391852
0.894041 0.000000 0.335119
0.049775 0.118929 0.335576
0.095033 0.121218 0.326238
0.152804 0.129427 0.296361
0.204288 0.137545 0.281285
0.263615 0.143526 0.293370
0.460151 0.000000 0.354925
0.732631 0.000000 0.379675
0.898985 0.000000 0.309545
0.000000 0.208011 0.385931
0.000000 0.202274 0.373999
0.164187 0.194980 0.336858
0.223026 0.193057 0.304601
0.315862 0.177157 0.323857
0.545281 0.000000 0.352453
0.772274 0.000000 0.307530
0.911620 0.000000 0.259403
0.000000 0.298497 0.359747
0.058747 0.299260 0.359686
0.157961 0.301701 0.358709
0.264408 0.305180 0.353948
0.439307 0.293553 0.337194
0.646876 0.283482 0.319799
0.817227 0.272068 0.302190
0.925231 0.261601 0.288609
0.000000 0.479133 0.441535
0.000000 0.482277 0.439734
0.052735 0.491585 0.428473
0.243290 0.501854 0.378454
0.440192 0.498787 0.335393
0.691371 0.558556 0.359777
0.851286 0.562646 0.383368
0.937652 0.519890 0.357885
0.000000 0.715572 0.509728
0.000000 0.717037 0.503593
0.000000 0.721218 0.478248
0.181949 0.724788 0.408972
0.432380 0.718685 0.319402
0.637629 0.708583 0.300053
0.815305 0.701289 0.314397
0.936004 0.699428 0.407599
0.000000 0.860136 0.522026
0.000000 0.860319 0.516228
0.000000 0.860533 0.494240
0.175235 0.859190 0.450324
0.375250 0.855772 0.348425
0.584344 0.842649 0.281926
0.757412 0.831418 0.271519
0.902373 0.802304 0.256657
0.000000 0.945098 0.525566
0.000000 0.945068 0.522026
0.000000 0.944671 0.509300
0.249516 0.941741 0.504906
0.339971 0.943786 0.401831
0.515892 0.939452 0.306584
0.690089 0.930388 0.247379
0.848173 0.922210 0.230289
0.083772 0.079500 0.499763
0.121126 0.085603 0.488228
0.183993 0.103090 0.449073
0.227665 0.122683 0.393042
0.284886 0.127443 0.377691
0.366735 0.113069 0.400336
0.566430 0.000000 0.481178
0.840208 0.000000 0.539757
0.072908 0.122011 0.515770
0.118074 0.123720 0.503990
0.187961 0.130190 0.463630
0.232486 0.140993 0.401587
0.291630 0.141970 0.385321
0.373510 0.126040 0.405310
0.583978 0.000000 0.487098
0.846983 0.000000 0.533745
0.000000 0.201755 0.572045
0.000000 0.201450 0.559716
0.180301 0.196414 0.516594
0.252476 0.192477 0.442573
0.317205 0.188937 0.413489
0.398718 0.169192 0.422858
0.646021 0.000000 0.501793
0.870512 0.000000 0.506401
0.000000 0.385351 0.625605
0.000000 0.380133 0.624842
0.000000 0.357885 0.619074
0.285557 0.314977 0.536767
0.370123 0.294194 0.468788
0.489052 0.250278 0.474159
0.748623 0.000000 0.493874
0.903899 0.000000 0.433478
0.000000 0.519799 0.589593
0.000000 0.519982 0.588983
0.086610 0.520256 0.585992
0.303807 0.519371 0.577966
0.467018 0.513024 0.559716
0.674159 0.486671 0.531670
0.820035 0.462287 0.505943
0.919585 0.442145 0.484993
0.000000 0.723995 0.660182
0.000000 0.725093 0.658808
0.103883 0.727932 0.652552
0.322484 0.729519 0.636988
0.471290 0.726497 0.592035
0.652918 0.713863 0.534874
0.824308 0.721401 0.595117
0.921172 0.729427 0.642756
0.000000 0.859159 0.668452
0.000000 0.858915 0.666957
0.168948 0.857694 0.661799
0.358251 0.854459 0.652338
0.498817 0.848875 0.630640
0.597986 0.843900 0.538109
0.765377 0.830442 0.516045
0.902098 0.807065 0.537530
0.030091 0.939239 0.669886
0.146395 0.938750 0.670161
0.283696 0.937041 0.671046
0.409644 0.934478 0.669398
0.540734 0.929778 0.672053
0.579248 0.933379 0.586206
0.703304 0.928191 0.504143
0.854551 0.920409 0.492470
0.165866 0.032074 0.709712
0.193851 0.037293 0.701869
0.258579 0.053895 0.672114
0.314183 0.077974 0.610925
0.358923 0.091798 0.549035
0.422339 0.075410 0.522606
0.556786 0.000000 0.570977
0.742123 0.000000 0.637659
0.151766 0.105135 0.719631
0.183688 0.103761 0.712093
0.255924 0.100465 0.683223
0.318181 0.104860 0.623102
0.363867 0.111757 0.556878
0.429694 0.095979 0.529656
0.561975 0.000000 0.573907
0.750027 0.000000 0.639246
0.000000 0.202762 0.751400
0.097139 0.200107 0.744961
0.231724 0.190890 0.719600
0.326513 0.178866 0.664302
0.379950 0.171633 0.584344
0.456764 0.155581 0.555657
0.580041 0.017090 0.583825
0.776974 0.000000 0.642573
0.000000 0.373846 0.797665
0.000000 0.368414 0.792599
0.160342 0.353674 0.772915
0.333257 0.327947 0.730007
0.415503 0.288701 0.641962
0.507225 0.267277 0.602197
0.611170 0.201297 0.599115
0.821164 0.000000 0.639124
0.000000 0.575616 0.801480
0.000000 0.575677 0.801144
0.194736 0.577173 0.799496
0.402350 0.583978 0.795651
0.504845 0.528466 0.738888
0.581689 0.463691 0.666835
0.686030 0.372137 0.634150
0.875700 0.292485 0.619440
0.000000 0.724331 0.779995
0.006195 0.724971 0.779599
0.277379 0.727169 0.777859
0.444221 0.730159 0.773953
0.581079 0.730861 0.766445
0.684077 0.720912 0.749050
0.801602 0.698939 0.728206
0.895445 0.678035 0.708583
0.357214 0.851774 0.801846
0.388769 0.850523 0.802060
0.470161 0.847257 0.801938
0.555505 0.844419 0.798978
0.632776 0.841550 0.791958
0.696986 0.836667 0.770108
0.784237 0.827939 0.732937
0.899748 0.839780 0.771542
0.466773 0.925231 0.805905
0.482948 0.924712 0.806546
0.530846 0.923217 0.808133
0.591455 0.921874 0.808347
0.651972 0.921355 0.803769
0.711604 0.920867 0.789761
0.758145 0.921721 0.731838
0.870054 0.916350 0.717067
0.237125 0.065339 0.845701
0.258335 0.061707 0.843015
0.318914 0.029419 0.832761
0.395575 0.000000 0.810971
0.463752 0.000000 0.768551
0.543328 0.000000 0.737575
0.627680 0.000000 0.713313
0.786770 0.000000 0.763027
0.227146 0.118196 0.848875
0.249607 0.115511 0.846250
0.313359 0.104707 0.836271
0.393561 0.079866 0.815000
0.465034 0.000000 0.773648
0.545129 0.000000 0.740810
0.631373 0.000000 0.716457
0.787869 0.000000 0.763027
0.187930 0.226200 0.859434
0.217655 0.224186 0.856992
0.295171 0.217044 0.847776
0.387060 0.200717 0.828367
0.469490 0.170108 0.790646
0.551049 0.123049 0.751888
0.644282 0.000000 0.727504
0.791592 0.000000 0.762753
0.207736 0.402594 0.875059
0.234684 0.400244 0.872923
0.306218 0.389960 0.865049
0.396826 0.369024 0.848569
0.483497 0.328557 0.817105
0.561822 0.273869 0.770108
0.666255 0.227543 0.745815
0.797299 0.185794 0.761135
0.333440 0.601740 0.893889
0.365728 0.606622 0.891814
0.451575 0.620417 0.883879
0.530083 0.622309 0.868956
0.556542 0.564019 0.845945
0.592523 0.469795 0.796719
0.696620 0.421210 0.769345
0.802731 0.367376 0.758267
0.408331 0.732815 0.881956
0.434150 0.735958 0.881559
0.509483 0.746395 0.880278
0.600977 0.760494 0.878416
0.683253 0.771847 0.876524
0.706905 0.729915 0.843320
0.738918 0.661921 0.799069
0.818326 0.578302 0.768551
0.488197 0.832547 0.869017
0.507073 0.833249 0.868803
0.563104 0.835447 0.868070
0.633143 0.838407 0.866911
0.701228 0.840970 0.865049
0.759640 0.841062 0.861143
0.805417 0.831693 0.848569
0.889311 0.817380 0.835416
0.625788 0.917266 0.887327
0.635645 0.916838 0.887480
0.666041 0.915618 0.888060
0.708461 0.914397 0.889097
0.744656 0.916289 0.888090
0.778500 0.919585 0.882658
0.811948 0.920775 0.861265
0.885252 0.915343 0.835416
0.310674 0.178866 0.928344
0.326024 0.179995 0.927123
0.374151 0.184146 0.922606
0.444221 0.188540 0.914122
0.523156 0.187533 0.900633
0.600580 0.168368 0.880430
0.701106 0.122927 0.873503
0.803281 0.000000 0.864622
0.310674 0.211948 0.929564
0.326146 0.212894 0.928313
0.374517 0.215885 0.923796
0.444984 0.218845 0.915251
0.523919 0.216373 0.901793
0.601160 0.196201 0.881498
0.701442 0.158724 0.873960
0.803983 0.052705 0.865019
0.320928 0.312078 0.933654
0.335973 0.312474 0.932403
0.383581 0.313573 0.927825
0.452644 0.313115 0.919188
0.529808 0.305241 0.905730
0.605402 0.279515 0.885588
0.702785 0.249454 0.875517
0.806271 0.198520 0.866331
0.397040 0.480507 0.939605
0.407874 0.479988 0.938384
0.443091 0.477241 0.933867
0.496529 0.469764 0.925322
0.558282 0.451392 0.911955
0.620996 0.412024 0.892302
0.707088 0.372595 0.877836
0.810300 0.330755 0.868193
0.588037 0.699184 0.945647
0.598779 0.702266 0.944182
0.610498 0.695705 0.940185
0.603296 0.659052 0.933959
0.633875 0.633875 0.920897
0.666926 0.587366 0.901366
0.720150 0.525414 0.880308
0.815946 0.487343 0.869963
0.624353 0.787350 0.954131
0.634333 0.789731 0.954040
0.664790 0.796658 0.953887
0.704402 0.802060 0.950927
0.737667 0.795163 0.938567
0.743740 0.754788 0.918547
0.753506 0.690272 0.885924
0.824704 0.653376 0.872404
0.655634 0.858091 0.946715
0.663142 0.859190 0.946715
0.686824 0.862425 0.946807
0.721614 0.866758 0.947204
0.762081 0.870756 0.948119
0.805692 0.872129 0.949737
0.821683 0.836118 0.920653
0.843198 0.788083 0.882567
0.686152 0.916838 0.938964
0.691798 0.917205 0.938994
0.710201 0.918456 0.939147
0.738918 0.920562 0.939483
0.774044 0.923369 0.940032
0.813993 0.926604 0.940642
0.860349 0.929107 0.940032
0.905730 0.919982 0.927977
