其他预设/【233】日式怀旧街道调色预设208款/1.3D LUT预设（视频调色-PR-AE-PS-FCPX-达芬奇用）/3.日式城市街拍预设 (自动曝光预设)/JA – Shaded Light 4 (Auto-Exposure).cube
# Created by Adobe Lightroom plugin Export LUT (1.17.0)
# www.johnrellis.com/lightroom/exportlut.htm
# Preset: JA – Shaded Light 4 (Auto-Exposure)
# Color profile: /Library/Application Support/Adobe/Color/Profiles/Recommended/AdobeRGB1998.icc
LUT_3D_SIZE 32
0.041871 0.058595 0.070344
0.057893 0.058717 0.070527
0.068757 0.058747 0.071015
0.088106 0.059174 0.071504
0.109133 0.059174 0.072114
0.129427 0.059266 0.072938
0.149081 0.059571 0.073915
0.166934 0.059785 0.075563
0.182284 0.060761 0.077089
0.194156 0.062135 0.079042
0.205325 0.063386 0.081575
0.220005 0.064820 0.083986
0.242649 0.065675 0.086091
0.277134 0.064302 0.087709
0.325017 0.058869 0.087343
0.381720 0.035981 0.085145
0.441505 0.000000 0.080873
0.498909 0.000000 0.075685
0.551232 0.000000 0.069459
0.600488 0.000000 0.061830
0.645930 0.000000 0.050477
0.688106 0.000000 0.030488
0.727626 0.000000 0.012207
0.765255 0.000000 0.000000
0.801846 0.000000 0.000000
0.837552 0.000000 0.000000
0.872251 0.000000 0.000000
0.905943 0.000000 0.000000
0.938415 0.000000 0.000000
0.969543 0.000000 0.000000
0.999207 0.000000 0.000000
1.000000 0.000000 0.000000
0.041840 0.068086 0.070771
0.057008 0.068269 0.070588
0.067842 0.068391 0.071077
0.087800 0.069123 0.071168
0.108888 0.069123 0.071778
0.129458 0.068696 0.072969
0.149294 0.068421 0.074006
0.167117 0.068635 0.075624
0.182193 0.068360 0.077577
0.194095 0.069154 0.079561
0.205447 0.069795 0.081788
0.220462 0.070771 0.084474
0.243320 0.071321 0.086824
0.278447 0.070314 0.087800
0.326665 0.066560 0.087556
0.383368 0.056977 0.085206
0.443214 0.024964 0.081086
0.500420 0.000000 0.075410
0.552544 0.000000 0.069184
0.601587 0.000000 0.060975
0.646937 0.000000 0.048737
0.688899 0.000000 0.028351
0.728359 0.000000 0.010193
0.765927 0.000000 0.000000
0.802457 0.000000 0.000000
0.838071 0.000000 0.000000
0.872740 0.000000 0.000000
0.906340 0.000000 0.000000
0.938750 0.000000 0.000000
0.969818 0.000000 0.000000
0.999359 0.000000 0.000000
1.000000 0.000000 0.000000
0.040406 0.078859 0.071321
0.055848 0.079713 0.070710
0.068360 0.079683 0.070832
0.087098 0.079774 0.071351
0.108797 0.080385 0.072267
0.129671 0.079591 0.073121
0.149477 0.079011 0.074525
0.167208 0.078157 0.075898
0.182437 0.077485 0.077516
0.194247 0.077119 0.079957
0.205570 0.077302 0.082460
0.220920 0.077943 0.085115
0.244297 0.078126 0.087160
0.279973 0.078431 0.088502
0.328527 0.076814 0.087800
0.385687 0.070588 0.085267
0.445533 0.059754 0.080598
0.502403 0.029084 0.075074
0.554376 0.000000 0.068299
0.603204 0.000000 0.060365
0.648280 0.000000 0.046693
0.690089 0.000000 0.026612
0.729366 0.000000 0.008453
0.766842 0.000000 0.000000
0.803250 0.000000 0.000000
0.838773 0.000000 0.000000
0.873320 0.000000 0.000000
0.906828 0.000000 0.000000
0.939178 0.000000 0.000000
0.970153 0.000000 0.000000
0.999664 0.000000 0.000000
1.000000 0.000000 0.000000
0.035798 0.099580 0.071687
0.052491 0.099977 0.071107
0.066346 0.100282 0.070497
0.086763 0.099916 0.071015
0.106966 0.097688 0.072328
0.129671 0.099153 0.073579
0.149722 0.097841 0.075074
0.167819 0.095979 0.076814
0.182773 0.094118 0.078920
0.194491 0.092103 0.081453
0.206149 0.090913 0.083742
0.222141 0.091127 0.086275
0.246525 0.092409 0.088685
0.283482 0.093690 0.089479
0.333196 0.094484 0.088380
0.390753 0.093263 0.085054
0.450416 0.089204 0.080568
0.506920 0.082216 0.073976
0.558312 0.070680 0.067231
0.606561 0.048707 0.059022
0.651209 0.000000 0.042176
0.692622 0.000000 0.023316
0.731594 0.000000 0.004120
0.768765 0.000000 0.000000
0.804990 0.000000 0.000000
0.840299 0.000000 0.000000
0.874662 0.000000 0.000000
0.907988 0.000000 0.000000
0.940093 0.000000 0.000000
0.970886 0.000000 0.000000
1.000000 0.000000 0.000000
1.000000 0.000000 0.000000
0.032044 0.122042 0.073274
0.048798 0.122377 0.072389
0.063539 0.122469 0.071778
0.082338 0.122255 0.071321
0.106203 0.121859 0.071962
0.126040 0.117372 0.073854
0.148562 0.118929 0.075898
0.168215 0.118593 0.078340
0.183017 0.114961 0.080720
0.194583 0.111360 0.083711
0.206882 0.109255 0.086580
0.224094 0.108919 0.089021
0.250217 0.110750 0.090761
0.289342 0.114260 0.090700
0.340520 0.118074 0.088991
0.398657 0.120974 0.085176
0.458076 0.121492 0.079408
0.513634 0.119783 0.072602
0.564324 0.114839 0.065003
0.611902 0.107668 0.054292
0.655726 0.098024 0.035340
0.696559 0.085878 0.016114
0.735012 0.068421 0.000000
0.771878 0.025086 0.000000
0.807706 0.000000 0.000000
0.842679 0.000000 0.000000
0.876738 0.000000 0.000000
0.909697 0.000000 0.000000
0.941558 0.000000 0.000000
0.972045 0.000000 0.000000
1.000000 0.000000 0.000000
1.000000 0.000000 0.000000
0.026001 0.144717 0.075532
0.043366 0.144839 0.075013
0.060639 0.144930 0.074098
0.078889 0.144900 0.072236
0.101472 0.144137 0.073030
0.125643 0.143496 0.074189
0.143984 0.137209 0.077028
0.164828 0.137545 0.080018
0.182223 0.136721 0.083955
0.194949 0.133150 0.087404
0.208194 0.130007 0.090242
0.226963 0.129763 0.092409
0.255650 0.132662 0.093690
0.297612 0.138521 0.092866
0.350622 0.145663 0.089601
0.409339 0.151736 0.084871
0.468238 0.155856 0.077760
0.522698 0.156954 0.070283
0.572381 0.155489 0.061738
0.618830 0.152071 0.046937
0.661707 0.147158 0.026398
0.701747 0.139437 0.006897
0.739498 0.131136 0.000000
0.775906 0.120729 0.000000
0.811307 0.108309 0.000000
0.845884 0.092348 0.000000
0.879515 0.071351 0.000000
0.912047 0.015351 0.000000
0.943450 0.000000 0.000000
0.973602 0.000000 0.000000
1.000000 0.000000 0.000000
1.000000 0.000000 0.000000
0.021515 0.166201 0.078798
0.038056 0.166018 0.078035
0.057221 0.165988 0.077852
0.075959 0.165866 0.076509
0.096834 0.165164 0.075715
0.119875 0.164004 0.076692
0.143343 0.163180 0.078309
0.160311 0.156283 0.081849
0.178103 0.154055 0.085939
0.192416 0.151766 0.091035
0.209384 0.152071 0.095430
0.231235 0.153262 0.097047
0.263249 0.157992 0.097322
0.308629 0.166842 0.094881
0.363622 0.177035 0.090639
0.422766 0.186099 0.084077
0.480751 0.192599 0.075898
0.533837 0.195407 0.066682
0.582361 0.195987 0.055055
0.627344 0.194064 0.035676
0.669032 0.191043 0.014099
0.708125 0.185824 0.000000
0.745174 0.180117 0.000000
0.780911 0.172976 0.000000
0.815824 0.164889 0.000000
0.849821 0.155428 0.000000
0.882902 0.144656 0.000000
0.914946 0.131960 0.000000
0.945861 0.117281 0.000000
0.975494 0.099428 0.000000
1.000000 0.075715 0.000000
1.000000 0.022522 0.000000
0.021271 0.184421 0.084108
0.037415 0.184390 0.083680
0.054963 0.184146 0.083589
0.073304 0.183871 0.082399
0.093080 0.183261 0.081086
0.113466 0.181827 0.081300
0.136049 0.180697 0.082704
0.157900 0.179538 0.085145
0.173861 0.172732 0.088991
0.188205 0.167605 0.093355
0.204410 0.166995 0.097841
0.230533 0.173251 0.101228
0.273625 0.187198 0.101350
0.322637 0.199466 0.097536
0.379583 0.212619 0.090944
0.438849 0.223972 0.082826
0.495369 0.231937 0.073030
0.546807 0.236057 0.062165
0.593866 0.237247 0.045411
0.637293 0.236332 0.022248
0.677638 0.233768 0.001587
0.715633 0.229862 0.000000
0.751858 0.225132 0.000000
0.786923 0.219333 0.000000
0.821164 0.212772 0.000000
0.854582 0.205661 0.000000
0.886961 0.197543 0.000000
0.918395 0.188540 0.000000
0.948699 0.178622 0.000000
0.977752 0.167727 0.000000
1.000000 0.155520 0.000000
1.000000 0.141909 0.000000
0.027741 0.198581 0.091341
0.041321 0.198367 0.091279
0.056001 0.198184 0.090944
0.071962 0.197787 0.090486
0.089723 0.197147 0.089387
0.108339 0.196170 0.087922
0.127840 0.194522 0.088960
0.148653 0.193393 0.090486
0.169100 0.191989 0.092714
0.185458 0.187259 0.095552
0.199008 0.181552 0.100282
0.222904 0.186618 0.103639
0.264683 0.202579 0.104341
0.330022 0.229984 0.100282
0.398322 0.253269 0.091524
0.457191 0.266117 0.080842
0.511833 0.274601 0.069001
0.561669 0.279088 0.054353
0.606836 0.280461 0.028779
0.648493 0.279576 0.006592
0.687373 0.277256 0.000000
0.724269 0.273472 0.000000
0.759548 0.269047 0.000000
0.793881 0.263920 0.000000
0.827329 0.258396 0.000000
0.859953 0.251774 0.000000
0.891661 0.244816 0.000000
0.922362 0.237278 0.000000
0.951965 0.229068 0.000000
0.980377 0.220096 0.000000
1.000000 0.210575 0.000000
1.000000 0.200351 0.000000
0.035889 0.211612 0.099184
0.047791 0.211429 0.099153
0.058930 0.211307 0.098604
0.072023 0.211002 0.098207
0.087709 0.210422 0.097261
0.104982 0.209751 0.095918
0.122591 0.208347 0.095125
0.141512 0.206851 0.096254
0.161318 0.206119 0.098024
0.181064 0.205356 0.099672
0.198703 0.202762 0.102296
0.215091 0.199100 0.105684
0.252506 0.214115 0.106996
0.313359 0.242466 0.103243
0.391455 0.277317 0.093355
0.473274 0.309422 0.078706
0.530175 0.320684 0.063600
0.577966 0.324681 0.040803
0.620905 0.325475 0.011994
0.660639 0.324102 0.000000
0.698177 0.321324 0.000000
0.733761 0.317601 0.000000
0.768124 0.313085 0.000000
0.801572 0.307958 0.000000
0.834226 0.302312 0.000000
0.866056 0.296269 0.000000
0.896910 0.289860 0.000000
0.926818 0.282780 0.000000
0.955627 0.275120 0.000000
0.983246 0.267124 0.000000
1.000000 0.258640 0.000000
1.000000 0.249729 0.000000
0.038361 0.230686 0.105867
0.048676 0.230655 0.105592
0.059876 0.230533 0.105287
0.072023 0.230198 0.104738
0.087343 0.229679 0.103883
0.104128 0.229129 0.102632
0.121645 0.228183 0.101137
0.138918 0.226139 0.100954
0.158511 0.225345 0.101991
0.178897 0.225528 0.103578
0.199466 0.225650 0.104768
0.219852 0.225406 0.106569
0.240208 0.223941 0.108888
0.295903 0.252384 0.105592
0.371160 0.290074 0.095918
0.453315 0.326726 0.080415
0.529870 0.355108 0.060304
0.595056 0.373327 0.021881
0.635798 0.372717 0.000000
0.673762 0.370397 0.000000
0.709682 0.366857 0.000000
0.744106 0.362493 0.000000
0.777523 0.357549 0.000000
0.810025 0.352148 0.000000
0.841764 0.346441 0.000000
0.872648 0.340215 0.000000
0.902617 0.333623 0.000000
0.931640 0.326665 0.000000
0.959594 0.319249 0.000000
0.986419 0.311467 0.000000
1.000000 0.303288 0.000000
1.000000 0.294865 0.000000
0.024537 0.263157 0.109895
0.035584 0.263035 0.109651
0.051820 0.262852 0.109377
0.069337 0.262425 0.108827
0.086702 0.261997 0.107759
0.105196 0.261173 0.106416
0.124269 0.260197 0.104707
0.143252 0.258732 0.102785
0.161410 0.255070 0.103395
0.183871 0.256168 0.104128
0.206851 0.257511 0.105287
0.230411 0.259220 0.105928
0.254215 0.260594 0.106874
0.279362 0.261173 0.108125
0.349096 0.298985 0.099184
0.430945 0.340185 0.082612
0.509697 0.373754 0.060365
0.579980 0.397925 0.011933
0.640925 0.413916 0.000000
0.687465 0.418616 0.000000
0.721920 0.413916 0.000000
0.755154 0.408515 0.000000
0.787533 0.402838 0.000000
0.819120 0.396918 0.000000
0.849882 0.390570 0.000000
0.879820 0.384009 0.000000
0.908782 0.377081 0.000000
0.936828 0.369848 0.000000
0.963836 0.362341 0.000000
0.989776 0.354406 0.000000
1.000000 0.346258 0.000000
1.000000 0.337865 0.000000
0.000000 0.314855 0.108400
0.000000 0.314763 0.108339
0.011292 0.314488 0.107851
0.056306 0.314061 0.107057
0.082826 0.313298 0.105989
0.106722 0.312169 0.104158
0.129824 0.310643 0.102510
0.152255 0.308812 0.100069
0.173861 0.305089 0.099245
0.195651 0.301732 0.099580
0.222080 0.303960 0.099916
0.249149 0.306401 0.100069
0.276982 0.309239 0.100038
0.305852 0.312413 0.099458
0.331731 0.310704 0.101167
0.406195 0.349371 0.085664
0.487037 0.388586 0.060761
0.559747 0.417395 0.002472
0.623774 0.437263 0.000000
0.680201 0.450446 0.000000
0.730892 0.459266 0.000000
0.766812 0.455848 0.000000
0.798123 0.449317 0.000000
0.828702 0.442359 0.000000
0.858457 0.435340 0.000000
0.887327 0.427985 0.000000
0.915312 0.420539 0.000000
0.942321 0.412757 0.000000
0.968353 0.404639 0.000000
0.993347 0.396399 0.000000
1.000000 0.388006 0.000000
1.000000 0.379370 0.000000
0.000000 0.381689 0.099580
0.000000 0.381415 0.099062
0.000000 0.381048 0.098817
0.000000 0.380377 0.097963
0.069123 0.379156 0.096376
0.104891 0.377569 0.094667
0.135195 0.375616 0.092622
0.163088 0.373114 0.089662
0.189487 0.370001 0.086397
0.213382 0.363531 0.087068
0.240238 0.361486 0.086915
0.271061 0.364111 0.086244
0.302159 0.366918 0.085298
0.334020 0.369909 0.083650
0.366796 0.373175 0.081758
0.390784 0.366430 0.086030
0.461494 0.398993 0.063203
0.536980 0.433265 0.000000
0.604486 0.457801 0.000000
0.663722 0.474281 0.000000
0.716670 0.485267 0.000000
0.765103 0.492622 0.000000
0.809201 0.496712 0.000000
0.838682 0.488777 0.000000
0.867338 0.480690 0.000000
0.895109 0.472419 0.000000
0.921996 0.463996 0.000000
0.947967 0.455512 0.000000
0.972992 0.446845 0.000000
0.997009 0.437995 0.000000
1.000000 0.428992 0.000000
1.000000 0.420020 0.000000
0.000000 0.453010 0.080964
0.000000 0.452766 0.080903
0.000000 0.452247 0.080018
0.000000 0.451453 0.078950
0.015442 0.449989 0.077272
0.096376 0.448249 0.074708
0.136416 0.445777 0.071473
0.170809 0.442695 0.067659
0.202396 0.439124 0.062776
0.231785 0.433967 0.058930
0.257877 0.425666 0.061433
0.290440 0.425940 0.060029
0.324620 0.428138 0.056092
0.359197 0.430549 0.049683
0.394110 0.432868 0.040925
0.429419 0.435218 0.030884
0.449775 0.422766 0.056886
0.511620 0.444800 0.000000
0.582544 0.474800 0.000000
0.645167 0.495552 0.000000
0.700679 0.509361 0.000000
0.751034 0.518700 0.000000
0.797757 0.525078 0.000000
0.841093 0.528954 0.000000
0.876463 0.526604 0.000000
0.903105 0.517296 0.000000
0.928862 0.507836 0.000000
0.953765 0.498360 0.000000
0.977722 0.488838 0.000000
1.000000 0.479316 0.000000
1.000000 0.469642 0.000000
1.000000 0.460029 0.000000
0.000000 0.519585 0.043397
0.000000 0.519249 0.042359
0.000000 0.518791 0.040223
0.000000 0.517845 0.035798
0.000000 0.516350 0.029297
0.078645 0.514366 0.021485
0.132021 0.511803 0.011780
0.173404 0.508690 0.000000
0.210117 0.504753 0.000000
0.243656 0.500328 0.000000
0.274662 0.493263 0.000000
0.303807 0.485542 0.000000
0.340276 0.486732 0.000000
0.376806 0.488106 0.000000
0.413153 0.489326 0.000000
0.449805 0.490639 0.000000
0.486397 0.491707 0.000000
0.506188 0.477058 0.000000
0.557946 0.487709 0.000000
0.624414 0.513695 0.000000
0.682856 0.531182 0.000000
0.735500 0.543023 0.000000
0.784115 0.551110 0.000000
0.829129 0.556420 0.000000
0.870481 0.559167 0.000000
0.908110 0.559625 0.000000
0.935851 0.551934 0.000000
0.959625 0.541405 0.000000
0.982513 0.530846 0.000000
1.000000 0.520378 0.000000
1.000000 0.509941 0.000000
1.000000 0.499611 0.000000
0.000000 0.578637 0.000000
0.000000 0.578302 0.000000
0.000000 0.577844 0.000000
0.000000 0.576989 0.000000
0.000000 0.575463 0.000000
0.025177 0.573419 0.000000
0.121248 0.570855 0.000000
0.170504 0.567620 0.000000
0.211948 0.563775 0.000000
0.249271 0.559258 0.000000
0.284337 0.554101 0.000000
0.315770 0.545647 0.000000
0.348699 0.540093 0.000000
0.386725 0.540673 0.000000
0.424567 0.541192 0.000000
0.462104 0.541619 0.000000
0.499641 0.542016 0.000000
0.537285 0.542412 0.000000
0.562158 0.530907 0.000000
0.602045 0.529351 0.000000
0.663020 0.550134 0.000000
0.718227 0.565087 0.000000
0.768856 0.575433 0.000000
0.815854 0.582513 0.000000
0.859037 0.586633 0.000000
0.898344 0.588128 0.000000
0.933776 0.587366 0.000000
0.965454 0.584680 0.000000
0.987243 0.572930 0.000000
1.000000 0.561364 0.000000
1.000000 0.550042 0.000000
1.000000 0.538903 0.000000
0.000000 0.629786 0.000000
0.000000 0.629450 0.000000
0.000000 0.629053 0.000000
0.000000 0.628138 0.000000
0.000000 0.626734 0.000000
0.000000 0.624811 0.000000
0.104219 0.622370 0.000000
0.162844 0.619379 0.000000
0.209140 0.615747 0.000000
0.249943 0.611536 0.000000
0.287480 0.606775 0.000000
0.322423 0.600488 0.000000
0.354772 0.592035 0.000000
0.391180 0.588952 0.000000
0.430182 0.589014 0.000000
0.468666 0.588983 0.000000
0.507073 0.588922 0.000000
0.545251 0.588647 0.000000
0.583368 0.588281 0.000000
0.612970 0.580072 0.000000
0.645289 0.571313 0.000000
0.699153 0.584680 0.000000
0.752193 0.597772 0.000000
0.801236 0.607080 0.000000
0.846403 0.612848 0.000000
0.887572 0.615686 0.000000
0.924712 0.615900 0.000000
0.957946 0.613855 0.000000
0.987457 0.610010 0.000000
1.000000 0.602533 0.000000
1.000000 0.590143 0.000000
1.000000 0.578058 0.000000
0.000000 0.674922 0.000000
0.000000 0.674708 0.000000
0.000000 0.674311 0.000000
0.000000 0.673487 0.000000
0.000000 0.672236 0.000000
0.000000 0.670497 0.000000
0.077913 0.668269 0.000000
0.151217 0.665492 0.000000
0.202457 0.662257 0.000000
0.246189 0.658473 0.000000
0.286534 0.654108 0.000000
0.324010 0.649104 0.000000
0.358923 0.642176 0.000000
0.391608 0.633906 0.000000
0.431006 0.632990 0.000000
0.470436 0.632593 0.000000
0.509514 0.632136 0.000000
0.548180 0.631495 0.000000
0.586755 0.630793 0.000000
0.625177 0.629938 0.000000
0.658961 0.624781 0.000000
0.685542 0.610742 0.000000
0.733700 0.617823 0.000000
0.785092 0.629664 0.000000
0.832425 0.637629 0.000000
0.875669 0.642145 0.000000
0.914702 0.643641 0.000000
0.949645 0.642481 0.000000
0.980652 0.639155 0.000000
1.000000 0.634150 0.000000
1.000000 0.627985 0.000000
1.000000 0.617243 0.000000
0.000000 0.716243 0.000000
0.000000 0.715999 0.000000
0.000000 0.715663 0.000000
0.000000 0.714961 0.000000
0.000000 0.713771 0.000000
0.000000 0.712215 0.000000
0.000000 0.710140 0.000000
0.135378 0.707637 0.000000
0.192691 0.704738 0.000000
0.239994 0.701228 0.000000
0.282475 0.697292 0.000000
0.321935 0.692775 0.000000
0.359045 0.687526 0.000000
0.393896 0.680293 0.000000
0.428443 0.673762 0.000000
0.468696 0.673152 0.000000
0.508354 0.672450 0.000000
0.547570 0.671595 0.000000
0.586511 0.670649 0.000000
0.625269 0.669612 0.000000
0.663813 0.668360 0.000000
0.701350 0.666255 0.000000
0.723537 0.648341 0.000000
0.767239 0.650080 0.000000
0.817044 0.660670 0.000000
0.862577 0.667231 0.000000
0.903746 0.670314 0.000000
0.940551 0.670405 0.000000
0.973175 0.667872 0.000000
1.000000 0.663294 0.000000
1.000000 0.657282 0.000000
1.000000 0.650294 0.000000
0.000000 0.754788 0.000000
0.000000 0.754543 0.000000
0.000000 0.754238 0.000000
0.000000 0.753567 0.000000
0.000000 0.752499 0.000000
0.000000 0.751064 0.000000
0.000000 0.749172 0.000000
0.113771 0.746914 0.000000
0.180179 0.744198 0.000000
0.231205 0.741054 0.000000
0.276158 0.737453 0.000000
0.317479 0.733333 0.000000
0.356268 0.728725 0.000000
0.392889 0.722896 0.000000
0.427497 0.715755 0.000000
0.464271 0.711330 0.000000
0.504601 0.710475 0.000000
0.544427 0.709560 0.000000
0.583734 0.708522 0.000000
0.622766 0.707332 0.000000
0.661616 0.706081 0.000000
0.700343 0.704646 0.000000
0.739651 0.703761 0.000000
0.760342 0.684627 0.000000
0.800168 0.681575 0.000000
0.848173 0.690791 0.000000
0.891661 0.695857 0.000000
0.930571 0.697414 0.000000
0.965026 0.695949 0.000000
0.995361 0.692103 0.000000
1.000000 0.686427 0.000000
1.000000 0.679530 0.000000
0.000000 0.791287 0.000000
0.000000 0.791104 0.000000
0.000000 0.790799 0.000000
0.000000 0.790188 0.000000
0.000000 0.789212 0.000000
0.000000 0.787869 0.000000
0.000000 0.786191 0.000000
0.082673 0.784085 0.000000
0.164889 0.781643 0.000000
0.220554 0.778714 0.000000
0.267979 0.775479 0.000000
0.311162 0.771725 0.000000
0.351415 0.767575 0.000000
0.389654 0.762936 0.000000
0.425696 0.756649 0.000000
0.460182 0.749599 0.000000
0.499153 0.747036 0.000000
0.539422 0.746090 0.000000
0.579217 0.745022 0.000000
0.618647 0.743832 0.000000
0.657862 0.742550 0.000000
0.696742 0.741085 0.000000
0.735561 0.739559 0.000000
0.775051 0.738582 0.000000
0.796170 0.720027 0.000000
0.832395 0.712520 0.000000
0.878386 0.719966 0.000000
0.919646 0.723476 0.000000
0.956176 0.723415 0.000000
0.988220 0.720455 0.000000
1.000000 0.715297 0.000000
1.000000 0.708675 0.000000
0.000000 0.825803 0.000000
0.000000 0.825650 0.000000
0.000000 0.825406 0.000000
0.000000 0.824826 0.000000
0.000000 0.823911 0.000000
0.000000 0.822721 0.000000
0.000000 0.821225 0.000000
0.000000 0.819333 0.000000
0.145418 0.817105 0.000000
0.207675 0.814511 0.000000
0.258213 0.811521 0.000000
0.303197 0.808164 0.000000
0.344884 0.804379 0.000000
0.384405 0.800198 0.000000
0.422034 0.795315 0.000000
0.457893 0.789029 0.000000
0.492287 0.782345 0.000000
0.533104 0.781338 0.000000
0.573419 0.780240 0.000000
0.613184 0.779049 0.000000
0.652583 0.777768 0.000000
0.691768 0.776272 0.000000
0.730678 0.774716 0.000000
0.769467 0.773007 0.000000
0.808865 0.771786 0.000000
0.830961 0.754482 0.000000
0.866026 0.745815 0.000000
0.907683 0.748379 0.000000
0.946471 0.750057 0.000000
0.980499 0.748318 0.000000
1.000000 0.743923 0.000000
1.000000 0.737697 0.000000
0.000000 0.858335 0.000000
0.000000 0.858183 0.000000
0.000000 0.857939 0.000000
0.000000 0.857420 0.000000
0.000000 0.856657 0.000000
0.000000 0.855558 0.000000
0.000000 0.854215 0.000000
0.000000 0.852537 0.000000
0.120943 0.850523 0.000000
0.192386 0.848173 0.000000
0.246647 0.845518 0.000000
0.293675 0.842496 0.000000
0.337041 0.839109 0.000000
0.377722 0.835386 0.000000
0.416541 0.831296 0.000000
0.453651 0.826139 0.000000
0.489235 0.820157 0.000000
0.525536 0.815274 0.000000
0.566247 0.814176 0.000000
0.606378 0.812955 0.000000
0.646052 0.811612 0.000000
0.685359 0.810178 0.000000
0.724453 0.808591 0.000000
0.763333 0.806851 0.000000
0.802029 0.805020 0.000000
0.841062 0.803372 0.000000
0.867094 0.789670 0.000000
0.898436 0.777920 0.000000
0.935943 0.775753 0.000000
0.972168 0.775570 0.000000
1.000000 0.772183 0.000000
1.000000 0.766567 0.000000
0.000000 0.888701 0.000000
0.000000 0.888579 0.000000
0.000000 0.888365 0.000000
0.000000 0.887938 0.000000
0.000000 0.887205 0.000000
0.000000 0.886259 0.000000
0.000000 0.885039 0.000000
0.000000 0.883543 0.000000
0.086122 0.881773 0.000000
0.174350 0.879698 0.000000
0.232883 0.877348 0.000000
0.282780 0.874662 0.000000
0.327642 0.871702 0.000000
0.369574 0.868376 0.000000
0.409400 0.864775 0.000000
0.447700 0.860838 0.000000
0.484352 0.855589 0.000000
0.519677 0.849943 0.000000
0.557824 0.846708 0.000000
0.598260 0.845487 0.000000
0.638148 0.844083 0.000000
0.677668 0.842649 0.000000
0.716884 0.841062 0.000000
0.755825 0.839353 0.000000
0.794583 0.837522 0.000000
0.833219 0.835508 0.000000
0.871672 0.833371 0.000000
0.901366 0.823026 0.000000
0.929381 0.808652 0.000000
0.963134 0.802121 0.000000
0.996735 0.800046 0.000000
1.000000 0.795224 0.000000
0.000000 0.916899 0.000000
0.000000 0.916777 0.000000
0.000000 0.916594 0.000000
0.000000 0.916228 0.000000
0.000000 0.915587 0.000000
0.000000 0.914763 0.000000
0.000000 0.913695 0.000000
0.000000 0.912383 0.000000
0.000000 0.910826 0.000000
0.152651 0.909026 0.000000
0.217685 0.906920 0.000000
0.270115 0.904631 0.000000
0.316838 0.901976 0.000000
0.360143 0.899107 0.000000
0.400855 0.895964 0.000000
0.439948 0.892546 0.000000
0.477699 0.888518 0.000000
0.514031 0.883604 0.000000
0.549248 0.878416 0.000000
0.588952 0.876493 0.000000
0.629114 0.875120 0.000000
0.668757 0.873625 0.000000
0.708095 0.872038 0.000000
0.747036 0.870329 0.000000
0.785763 0.868467 0.000000
0.824277 0.866453 0.000000
0.862699 0.864317 0.000000
0.900999 0.862028 0.000000
0.933562 0.854398 0.000000
0.958618 0.837827 0.000000
0.989227 0.827420 0.000000
1.000000 0.823728 0.000000
0.000000 0.942962 0.000000
0.000000 0.942840 0.000000
0.000000 0.942687 0.000000
0.000000 0.942351 0.000000
0.000000 0.941802 0.000000
0.000000 0.941070 0.000000
0.000000 0.940154 0.000000
0.000000 0.939025 0.000000
0.000000 0.937682 0.000000
0.126772 0.936095 0.000000
0.200565 0.934295 0.000000
0.256260 0.932311 0.000000
0.304814 0.930053 0.000000
0.349248 0.927550 0.000000
0.390936 0.924834 0.000000
0.430854 0.921843 0.000000
0.469398 0.918669 0.000000
0.506523 0.914702 0.000000
0.542687 0.910246 0.000000
0.578485 0.905913 0.000000
0.618769 0.904540 0.000000
0.658656 0.903044 0.000000
0.697963 0.901396 0.000000
0.736995 0.899657 0.000000
0.775662 0.897795 0.000000
0.814115 0.895781 0.000000
0.852384 0.893614 0.000000
0.890501 0.891295 0.000000
0.928496 0.888853 0.000000
0.963592 0.883635 0.000000
0.986236 0.865476 0.000000
1.000000 0.852018 0.000000
0.000000 0.966857 0.000000
0.000000 0.966766 0.000000
0.000000 0.966613 0.000000
0.000000 0.966339 0.000000
0.000000 0.965881 0.000000
0.000000 0.965240 0.000000
0.000000 0.964477 0.000000
0.000000 0.963500 0.000000
0.000000 0.962341 0.000000
0.092714 0.960998 0.000000
0.181674 0.959472 0.000000
0.241398 0.957733 0.000000
0.291875 0.955810 0.000000
0.337438 0.953704 0.000000
0.380041 0.951354 0.000000
