其他预设/【233】日式怀旧街道调色预设208款/1.3D LUT预设（视频调色-PR-AE-PS-FCPX-达芬奇用）/3.日式城市街拍预设 (自动曝光预设)/JA – Cine Night 5 (Auto-Exposure).cube
# Created by Adobe Lightroom plugin Export LUT (1.17.0)
# www.johnrellis.com/lightroom/exportlut.htm
# Preset: JA – Cine Night 5 (Auto-Exposure)
# Color profile: /Library/Application Support/Adobe/Color/Profiles/Recommended/AdobeRGB1998.icc
LUT_3D_SIZE 8
DOMAIN_MIN 0.000000 0.000000 0.000000
DOMAIN_MAX 0.903226 0.903226 0.903226
0.000000 0.030060 0.060395
0.037537 0.048066 0.065370
0.138705 0.070344 0.071290
0.434943 0.000000 0.043336
0.782864 0.000000 0.000000
0.968811 0.000000 0.000000
1.000000 0.000000 0.000000
1.000000 0.000000 0.000000
0.000000 0.074250 0.086091
0.012268 0.081086 0.076570
0.150576 0.104585 0.046632
0.459998 0.000000 0.000000
0.796323 0.000000 0.000000
0.972900 0.000000 0.000000
1.000000 0.000000 0.000000
1.000000 0.000000 0.000000
0.000000 0.131960 0.141207
0.000000 0.139986 0.133822
0.083101 0.168521 0.102296
0.467414 0.249912 0.000000
0.818387 0.230930 0.000000
0.982300 0.208286 0.000000
1.000000 0.211978 0.000000
1.000000 0.177432 0.000000
0.000000 0.280217 0.243046
0.000000 0.289799 0.233951
0.000000 0.305547 0.193484
0.286961 0.373999 0.118257
0.775448 0.477302 0.000000
0.983185 0.459846 0.000000
1.000000 0.422705 0.000000
1.000000 0.381537 0.000000
0.000000 0.518914 0.383551
0.000000 0.525566 0.374762
0.000000 0.544121 0.340490
0.189517 0.533959 0.281926
0.591302 0.614130 0.136080
0.936980 0.658320 0.000000
1.000000 0.618402 0.000000
1.000000 0.550225 0.000000
0.000000 0.747402 0.531365
0.000000 0.750759 0.525963
0.000000 0.759487 0.508934
0.095338 0.759426 0.459632
0.493050 0.745693 0.401770
0.825498 0.790066 0.253178
1.000000 0.782467 0.000000
1.000000 0.717098 0.000000
0.000000 0.905180 0.652583
0.000000 0.906249 0.652216
0.000000 0.906767 0.654108
0.320684 0.899596 0.669368
0.541680 0.885100 0.633448
0.743862 0.879606 0.573724
0.943389 0.893919 0.445808
1.000000 0.856046 0.298894
0.000000 0.984558 0.753353
0.000000 0.984894 0.753323
0.000000 0.983368 0.758511
0.540490 0.966705 0.793362
0.721981 0.952392 0.814084
0.799008 0.944091 0.793179
0.885679 0.945495 0.754238
0.982818 0.948882 0.661341
0.000000 0.048676 0.106783
0.000000 0.061555 0.106050
0.114626 0.069856 0.120058
0.403052 0.000000 0.116243
0.766781 0.000000 0.059388
0.964691 0.000000 0.000000
1.000000 0.000000 0.000000
1.000000 0.000000 0.000000
0.000000 0.074800 0.114107
0.000000 0.082338 0.122957
0.119783 0.095735 0.123964
0.418708 0.000000 0.112184
0.775875 0.000000 0.025574
0.967498 0.000000 0.000000
1.000000 0.000000 0.000000
1.000000 0.000000 0.000000
0.000000 0.134524 0.169680
0.000000 0.143862 0.173098
0.070954 0.170138 0.147494
0.447364 0.227909 0.101839
0.804959 0.195041 0.000000
0.976471 0.172213 0.000000
1.000000 0.188357 0.000000
1.000000 0.187015 0.000000
0.000000 0.286046 0.274754
0.000000 0.296178 0.271366
0.000000 0.316442 0.236545
0.285863 0.375189 0.172732
0.773495 0.468086 0.000000
0.979614 0.448157 0.000000
1.000000 0.412879 0.000000
1.000000 0.372320 0.000000
0.000000 0.524926 0.414496
0.000000 0.531304 0.407752
0.000000 0.549004 0.380987
0.192111 0.541772 0.323400
0.590967 0.614649 0.204929
0.935973 0.655970 0.000000
1.000000 0.616815 0.000000
1.000000 0.547936 0.000000
0.000000 0.750637 0.555444
0.000000 0.753841 0.551019
0.000000 0.762051 0.537072
0.127565 0.763119 0.494942
0.495766 0.745632 0.439460
0.824277 0.790188 0.308690
1.000000 0.782742 0.188083
1.000000 0.718654 0.140871
0.000000 0.906188 0.668055
0.000000 0.907103 0.667750
0.000000 0.907317 0.669947
0.335027 0.899779 0.684474
0.553887 0.885435 0.655268
0.745876 0.878996 0.599359
0.941253 0.893889 0.483894
1.000000 0.856901 0.358099
0.000000 0.984649 0.760708
0.000000 0.984985 0.760678
0.000000 0.983368 0.765713
0.543816 0.966613 0.799008
0.731106 0.951751 0.822446
0.803342 0.943816 0.802060
0.886595 0.945098 0.765805
0.981140 0.948791 0.680781
0.000000 0.066072 0.193362
0.000000 0.069520 0.199924
0.026673 0.087617 0.206882
0.317876 0.000000 0.261662
0.700160 0.000000 0.272709
0.937011 0.000000 0.283268
1.000000 0.000000 0.276890
1.000000 0.000000 0.244938
0.000000 0.088350 0.202579
0.000000 0.091676 0.215244
0.003082 0.107576 0.221256
0.324834 0.055146 0.270970
0.708858 0.000000 0.278569
0.940429 0.000000 0.282994
1.000000 0.000000 0.275090
1.000000 0.000000 0.241886
0.000000 0.138308 0.235538
0.000000 0.145907 0.244053
0.000000 0.174411 0.269474
0.367712 0.185519 0.281315
0.742672 0.118288 0.281437
0.951751 0.120394 0.277714
1.000000 0.194156 0.268650
1.000000 0.214786 0.231113
0.000000 0.298161 0.361242
0.000000 0.309178 0.364904
0.000000 0.336889 0.364691
0.275822 0.377935 0.314244
0.769986 0.442054 0.286900
0.963684 0.424109 0.276951
1.000000 0.408820 0.254856
1.000000 0.380224 0.208591
0.000000 0.538018 0.497780
0.000000 0.545403 0.497383
0.000000 0.563653 0.490730
0.201968 0.566369 0.446235
0.586725 0.615290 0.367071
0.930327 0.652399 0.332982
1.000000 0.620172 0.331975
1.000000 0.555871 0.254551
0.000000 0.759274 0.621759
0.000000 0.762631 0.621149
0.000000 0.770047 0.617182
0.239384 0.770962 0.606195
0.508324 0.746883 0.547967
0.818631 0.790219 0.457099
1.000000 0.785977 0.417060
1.000000 0.730343 0.405646
0.000000 0.909422 0.712947
0.000000 0.909941 0.713588
0.000000 0.909148 0.716854
0.374456 0.900725 0.728908
0.595636 0.886442 0.718227
0.753719 0.876646 0.672663
0.934264 0.893828 0.590539
1.000000 0.861051 0.520256
0.000000 0.985046 0.784665
0.000000 0.985351 0.784024
0.000000 0.983886 0.787625
0.548852 0.966888 0.816281
0.760098 0.949401 0.848539
0.817044 0.943206 0.828855
0.889647 0.943877 0.799680
0.976318 0.948608 0.735653
0.000000 0.079408 0.341741
0.000000 0.082490 0.352636
0.000000 0.083894 0.389868
0.240452 0.097475 0.383062
0.599115 0.000000 0.457465
0.881834 0.000000 0.512078
1.000000 0.210056 0.560510
1.000000 0.335637 0.572381
0.000000 0.101778 0.356298
0.000000 0.105348 0.365820
0.000000 0.111757 0.400458
0.242435 0.129366 0.395544
0.604334 0.000000 0.468421
0.882567 0.000000 0.522881
1.000000 0.249882 0.563409
1.000000 0.348272 0.569024
0.000000 0.162875 0.371557
0.000000 0.167391 0.378698
0.000000 0.190402 0.423255
0.245335 0.225681 0.437629
0.622217 0.220005 0.504814
0.889860 0.249332 0.545861
1.000000 0.352270 0.570153
1.000000 0.400763 0.563653
0.000000 0.285344 0.443977
0.000000 0.294591 0.450935
0.000000 0.327428 0.473762
0.238376 0.380224 0.509789
0.671962 0.410529 0.539757
0.911040 0.444526 0.563012
1.000000 0.485237 0.576410
1.000000 0.493233 0.562005
0.000000 0.535149 0.594324
0.000000 0.547601 0.601740
0.000000 0.585595 0.624903
0.254124 0.595117 0.615167
0.574212 0.614801 0.562646
0.915312 0.659144 0.591302
1.000000 0.648707 0.601495
1.000000 0.609155 0.561913
0.000000 0.773312 0.713680
0.000000 0.776242 0.713771
0.000000 0.782345 0.713680
0.307164 0.781338 0.710719
0.552148 0.764279 0.681209
0.808591 0.789822 0.628168
0.982269 0.798215 0.644556
1.000000 0.763912 0.652003
0.000000 0.914427 0.776761
0.000000 0.914549 0.777279
0.000000 0.912535 0.779934
0.415991 0.903319 0.786618
0.666194 0.887724 0.797513
0.768002 0.872251 0.757900
0.925048 0.893706 0.711696
1.000000 0.871214 0.697719
0.000000 0.985595 0.824735
0.000000 0.985901 0.823972
0.000000 0.985016 0.822904
0.530968 0.969360 0.839750
0.759976 0.950927 0.866728
0.837034 0.942992 0.864897
0.894194 0.941985 0.842283
0.970581 0.948425 0.800259
0.000000 0.097536 0.527214
0.000000 0.099458 0.537743
0.000000 0.092561 0.574151
0.328985 0.000000 0.609247
0.534569 0.081300 0.587213
0.811582 0.180240 0.644953
0.968383 0.372320 0.707210
1.000000 0.580163 0.777646
0.000000 0.121004 0.535882
0.000000 0.123629 0.545647
0.000000 0.125246 0.580133
0.334691 0.081880 0.621088
0.536461 0.148836 0.595941
0.812955 0.231388 0.653285
0.967285 0.403204 0.714626
1.000000 0.596490 0.783108
0.000000 0.187381 0.526207
0.000000 0.192172 0.543938
0.000000 0.211765 0.591485
0.330755 0.234867 0.649165
0.542138 0.283635 0.625116
0.817868 0.357214 0.680781
0.963622 0.494636 0.739071
1.000000 0.634150 0.792966
0.000000 0.310155 0.581994
0.000000 0.315435 0.586358
0.000000 0.334112 0.600031
0.227665 0.389441 0.654688
0.549157 0.446754 0.671199
0.826810 0.509148 0.723110
0.960754 0.605127 0.769955
1.000000 0.652644 0.780575
0.000000 0.498909 0.664118
0.000000 0.506371 0.668025
0.000000 0.531609 0.680781
0.206241 0.569512 0.700587
0.558556 0.611475 0.724941
0.857176 0.656550 0.755978
0.971191 0.697475 0.776394
1.000000 0.710964 0.778134
0.000000 0.749691 0.773648
0.000000 0.756039 0.776852
0.000000 0.774044 0.787198
0.376776 0.793210 0.804471
0.618433 0.783566 0.794705
0.799527 0.788479 0.761318
0.966552 0.819760 0.799954
1.000000 0.802976 0.799130
0.000000 0.920073 0.847715
0.000000 0.920165 0.848539
0.000000 0.916625 0.849119
0.474189 0.906920 0.850156
0.683589 0.894285 0.849302
0.795804 0.878691 0.833646
0.917693 0.893675 0.806271
0.993835 0.885710 0.821378
0.000000 0.986145 0.872862
0.000000 0.986389 0.872160
0.200931 0.983917 0.871702
0.535393 0.970733 0.876768
0.739925 0.955200 0.886687
0.864012 0.943450 0.904356
0.899413 0.939544 0.882689
0.965667 0.948363 0.857603
0.000000 0.123445 0.709438
0.000000 0.123415 0.716518
0.000000 0.111574 0.740291
0.405554 0.000000 0.777981
0.649805 0.000000 0.783810
0.785824 0.251530 0.749966
0.929351 0.463508 0.787198
0.995941 0.640314 0.838621
0.000000 0.149477 0.712520
0.000000 0.151003 0.719234
0.000000 0.149203 0.742397
0.397192 0.114107 0.779477
0.652644 0.079438 0.788846
0.785794 0.291539 0.754665
0.928740 0.485451 0.791897
0.994873 0.652461 0.841917
0.000000 0.220554 0.709010
0.000000 0.221439 0.719966
0.000000 0.243412 0.744930
0.359167 0.263706 0.781704
0.659052 0.292271 0.804196
0.785611 0.401038 0.770291
0.927123 0.552544 0.807309
0.991669 0.690517 0.852445
0.000000 0.336736 0.708309
0.000000 0.338506 0.709529
0.000000 0.350561 0.722988
0.259556 0.408484 0.778378
0.659022 0.481605 0.823728
0.784756 0.538415 0.794888
0.926024 0.642573 0.830076
0.987488 0.743954 0.867979
0.000000 0.514488 0.767605
0.000000 0.518090 0.768948
0.000000 0.530297 0.773220
0.077577 0.547631 0.778622
0.560418 0.605829 0.812894
0.785489 0.668696 0.823423
0.928038 0.735317 0.856046
0.983398 0.803586 0.887114
0.000000 0.704585 0.820890
0.000000 0.708522 0.822202
0.000000 0.721218 0.826505
0.251713 0.738857 0.833158
0.582330 0.758145 0.841642
0.790951 0.783871 0.854429
0.940368 0.824308 0.878691
0.988098 0.841550 0.887541
0.000000 0.897246 0.884520
0.000000 0.898680 0.885405
0.000000 0.901274 0.888396
0.446906 0.900175 0.893675
0.718898 0.898772 0.903532
0.831754 0.890745 0.897978
0.912322 0.893217 0.878416
0.982238 0.905180 0.904753
0.000000 0.985626 0.917479
0.000000 0.985962 0.917266
0.286809 0.981872 0.918517
0.586969 0.969024 0.921782
0.755978 0.956207 0.922881
0.859861 0.947478 0.926116
0.910155 0.941161 0.922057
0.961913 0.948486 0.906981
0.000000 0.177340 0.857908
0.000000 0.177371 0.860929
0.134096 0.173404 0.871061
0.477211 0.162356 0.887419
0.745174 0.203311 0.907164
0.866911 0.287419 0.891386
0.923064 0.504479 0.858579
0.975647 0.700465 0.884672
0.000000 0.206760 0.858091
0.000000 0.207858 0.861021
0.104677 0.209537 0.871061
0.470130 0.211795 0.887297
0.740291 0.258305 0.906889
0.868437 0.329076 0.894438
0.921965 0.524437 0.860899
0.975036 0.708949 0.886625
0.000000 0.285740 0.856321
0.000000 0.289891 0.859342
0.000000 0.303380 0.869444
0.439918 0.327428 0.885771
0.721675 0.385534 0.905364
0.869291 0.444617 0.901915
0.918547 0.585168 0.868681
0.973144 0.736019 0.893095
0.000000 0.385016 0.837675
0.000000 0.387915 0.842374
0.000000 0.402869 0.858793
0.361883 0.452827 0.879942
0.682155 0.518242 0.900908
0.861814 0.586938 0.908263
0.913817 0.665797 0.880583
0.970855 0.775174 0.903136
0.000000 0.542535 0.861357
0.000000 0.542931 0.861082
0.000000 0.542992 0.859800
0.000000 0.536675 0.855619
0.595148 0.618891 0.890410
0.853788 0.712795 0.916930
0.909270 0.747585 0.895079
0.968780 0.820768 0.916167
0.000000 0.710262 0.891783
0.000000 0.711788 0.891844
0.000000 0.716487 0.891844
0.205905 0.721645 0.890867
0.507713 0.724300 0.887572
0.782956 0.771420 0.904509
0.906035 0.824430 0.912047
0.967529 0.869017 0.931884
0.000000 0.852567 0.915953
0.000000 0.853819 0.916228
0.000000 0.857298 0.916960
0.363256 0.861112 0.917998
0.629145 0.864897 0.919677
0.804227 0.873045 0.923156
0.906065 0.889738 0.930541
0.970947 0.914031 0.945922
0.000000 0.972808 0.947173
0.000000 0.974243 0.947631
0.000000 0.974609 0.949523
0.482307 0.967315 0.950652
0.729671 0.954559 0.951110
0.871061 0.949035 0.956207
0.924437 0.946746 0.955688
0.959350 0.948791 0.946105
0.193240 0.326635 0.958587
0.259648 0.329229 0.959228
0.416052 0.339757 0.961303
0.602594 0.364935 0.964538
0.783139 0.423377 0.968231
0.909819 0.519463 0.969482
0.956542 0.584405 0.948486
0.974487 0.731899 0.927306
0.186038 0.352758 0.958099
0.254551 0.355657 0.958709
0.412787 0.366583 0.960784
0.600092 0.392523 0.963958
0.780850 0.449775 0.967620
0.908598 0.543297 0.969329
0.955932 0.601495 0.949645
0.973754 0.739376 0.928344
0.124117 0.425849 0.956023
0.216159 0.429358 0.956634
0.392462 0.442359 0.958679
0.587579 0.469947 0.961822
0.771756 0.524559 0.965423
0.904692 0.613214 0.968933
0.954101 0.653254 0.953582
0.971435 0.762997 0.931853
0.000000 0.490578 0.951110
0.000000 0.495918 0.952026
0.306462 0.527367 0.954711
0.550652 0.562493 0.957855
0.749752 0.612116 0.961852
0.890166 0.686824 0.966369
0.951873 0.721706 0.960143
0.968078 0.796963 0.937438
0.000000 0.606317 0.948089
0.000000 0.605005 0.947570
0.000000 0.599237 0.945892
0.369268 0.613031 0.951659
0.694301 0.682429 0.956847
0.864500 0.746914 0.962890
0.943572 0.792081 0.963500
0.964263 0.836210 0.944854
0.000000 0.741176 0.958251
0.000000 0.741421 0.957946
0.000000 0.741329 0.956664
0.332830 0.738125 0.953887
0.519158 0.726345 0.948425
0.812863 0.791104 0.957092
0.935058 0.857298 0.966857
0.960479 0.876799 0.953704
0.000000 0.852171 0.966186
0.000000 0.852567 0.966003
0.167025 0.853544 0.965179
0.436225 0.854612 0.963561
0.624933 0.855192 0.960937
0.763149 0.853910 0.956817
0.899504 0.880980 0.960815
0.957488 0.914885 0.963348
0.181643 0.933165 0.971618
0.183688 0.933654 0.971618
0.208591 0.935149 0.971557
0.490547 0.932769 0.970642
0.689448 0.930266 0.969512
0.826596 0.931640 0.968994
0.909575 0.938018 0.969787
0.956481 0.947539 0.973205
