其他预设/【233】日式怀旧街道调色预设208款/1.3D LUT预设（视频调色-PR-AE-PS-FCPX-达芬奇用）/3.日式城市街拍预设 (自动曝光预设)/JA – Subdued 2 (Auto-Exposure).cube
# Created by Adobe Lightroom plugin Export LUT (1.17.0)
# www.johnrellis.com/lightroom/exportlut.htm
# Preset: JA – Subdued 2 (Auto-Exposure)
# Color profile: /Library/Application Support/Adobe/Color/Profiles/Recommended/AdobeRGB1998.icc
LUT_3D_SIZE 5
DOMAIN_MIN 0.000000 0.000000 0.000000
DOMAIN_MAX 0.903226 0.903226 0.903226
0.105257 0.103426 0.114748
0.181399 0.109468 0.112490
0.557733 0.186984 0.013336
0.849393 0.275669 0.000000
0.976287 0.298985 0.000000
0.111513 0.171725 0.119692
0.188907 0.174929 0.115541
0.570825 0.314702 0.000000
0.850156 0.367224 0.000000
0.975494 0.371191 0.000000
0.073884 0.478309 0.000061
0.285588 0.474128 0.000000
0.578668 0.520897 0.000000
0.847807 0.565667 0.000000
0.972930 0.536400 0.000000
0.000000 0.753323 0.000000
0.284123 0.748135 0.000000
0.573724 0.731655 0.000000
0.829374 0.755215 0.000000
0.964050 0.700374 0.000000
0.116152 0.902342 0.000000
0.279484 0.899413 0.000000
0.525139 0.889403 0.000000
0.755550 0.880644 0.000000
0.956725 0.881743 0.000000
0.097597 0.106661 0.179965
0.173312 0.104707 0.181155
0.550652 0.000000 0.155673
0.851011 0.147860 0.084016
0.977966 0.252476 0.000000
0.100465 0.173342 0.189181
0.179995 0.175326 0.190311
0.568902 0.230869 0.154696
0.851377 0.299382 0.054505
0.977173 0.330968 0.000000
0.000000 0.487221 0.235355
0.158541 0.500816 0.145602
0.580438 0.524437 0.075410
0.850126 0.553491 0.000000
0.973968 0.514794 0.000000
0.000000 0.760311 0.116091
0.146273 0.758846 0.051606
0.548791 0.739193 0.000000
0.828305 0.756008 0.000000
0.963928 0.698482 0.000000
0.000000 0.906310 0.041901
0.257328 0.900603 0.183169
0.510124 0.890990 0.123354
0.749722 0.880461 0.000000
0.954192 0.881834 0.000000
0.000000 0.101137 0.459419
0.247929 0.000000 0.476905
0.548333 0.000000 0.486885
0.831022 0.000000 0.450202
0.963928 0.255131 0.410956
0.000000 0.252873 0.456031
0.104982 0.171847 0.478859
0.559472 0.000000 0.496376
0.831601 0.144198 0.450324
0.952544 0.448157 0.476570
0.000000 0.500481 0.481453
0.000000 0.507958 0.487312
0.561242 0.531945 0.503227
0.825437 0.564416 0.495186
0.955200 0.561913 0.461097
0.000000 0.765408 0.472328
0.000000 0.767086 0.455268
0.526329 0.757687 0.459266
0.814572 0.757931 0.451484
0.947234 0.737087 0.478340
0.000000 0.907256 0.402777
0.119448 0.904448 0.402747
0.542260 0.888609 0.463539
0.745663 0.875944 0.407477
0.941741 0.881895 0.453529
0.000000 0.088655 0.712306
0.174533 0.000000 0.718502
0.542596 0.000000 0.738369
0.821744 0.000000 0.733059
0.938170 0.314672 0.659205
0.000000 0.229252 0.710292
0.000000 0.177493 0.717281
0.523796 0.132204 0.736233
0.818418 0.203738 0.732082
0.933562 0.431434 0.669062
0.000000 0.505577 0.694881
0.000000 0.503563 0.696529
0.534997 0.528466 0.717311
0.804868 0.580346 0.727016
0.922606 0.636957 0.698878
0.000000 0.737209 0.705043
0.000000 0.738552 0.705776
0.538964 0.744442 0.708492
0.792752 0.763333 0.722896
0.921294 0.781643 0.723384
0.000000 0.906188 0.664668
0.176577 0.902617 0.663294
0.525689 0.890532 0.665126
0.762295 0.875792 0.685603
0.922210 0.882383 0.692988
0.000000 0.126131 0.861326
0.000000 0.102113 0.862852
0.440925 0.000000 0.867979
0.740810 0.190433 0.874846
0.932616 0.348394 0.863096
0.000000 0.235874 0.860075
0.000000 0.236118 0.861418
0.452399 0.261875 0.865568
0.749813 0.374121 0.871305
0.928222 0.458808 0.861112
0.000000 0.510369 0.848569
0.275334 0.522148 0.849393
0.543847 0.555230 0.853696
0.774197 0.621118 0.861357
0.917815 0.650935 0.857359
0.072694 0.693019 0.846006
0.290623 0.698970 0.844877
0.556909 0.722499 0.840848
0.774014 0.759030 0.848905
0.911192 0.784543 0.858000
0.188785 0.870573 0.851164
0.326940 0.870603 0.850584
0.569696 0.871031 0.848661
0.758206 0.873045 0.847288
0.905241 0.886656 0.858854
