其他预设/【233】日式怀旧街道调色预设208款/1.3D LUT预设（视频调色-PR-AE-PS-FCPX-达芬奇用）/3.日式城市街拍预设 (自动曝光预设)/JA – Cine Night 4 (Auto-Exposure).cube
# Created by Adobe Lightroom plugin Export LUT (1.17.0)
# www.johnrellis.com/lightroom/exportlut.htm
# Preset: JA – Cine Night 4 (Auto-Exposure)
# Color profile: /Library/Application Support/Adobe/Color/Profiles/Recommended/AdobeRGB1998.icc
LUT_3D_SIZE 5
DOMAIN_MIN 0.000000 0.000000 0.000000
DOMAIN_MAX 0.903226 0.903226 0.903226
0.014038 0.000000 0.121248
0.132631 0.086091 0.135042
0.445441 0.213901 0.142275
0.826322 0.328527 0.150393
1.000000 0.449104 0.256992
0.000000 0.144228 0.161959
0.125216 0.168215 0.157961
0.476905 0.282200 0.159030
0.836210 0.377966 0.173465
1.000000 0.487190 0.282475
0.000000 0.406104 0.265690
0.000000 0.431525 0.236210
0.488685 0.461158 0.228550
0.864378 0.542046 0.254948
1.000000 0.612146 0.379736
0.000000 0.737972 0.415991
0.000000 0.747311 0.397223
0.481483 0.758175 0.328923
0.841062 0.759365 0.405005
1.000000 0.783536 0.564141
0.000000 0.937011 0.567163
0.331487 0.932982 0.579583
0.672511 0.917784 0.643977
0.829770 0.915343 0.612055
0.990814 0.907622 0.725490
0.000000 0.084230 0.190799
0.120668 0.096223 0.207767
0.446815 0.211337 0.227634
0.823301 0.332616 0.254459
1.000000 0.476143 0.346227
0.000000 0.171664 0.219059
0.129000 0.196353 0.232975
0.475959 0.285283 0.248234
0.832517 0.384039 0.272160
1.000000 0.514885 0.369726
0.000000 0.418830 0.319097
0.032166 0.444800 0.318761
0.507683 0.476753 0.305119
0.858732 0.552148 0.345892
1.000000 0.638758 0.460914
0.000000 0.743832 0.466255
0.000000 0.751888 0.458045
0.507866 0.760983 0.420386
0.840635 0.763333 0.481147
1.000000 0.794888 0.616571
0.113344 0.936309 0.600549
0.367559 0.931945 0.613245
0.683162 0.917357 0.670436
0.836545 0.914549 0.650355
0.989441 0.908141 0.745174
0.000000 0.195926 0.339574
0.092317 0.168887 0.350225
0.423194 0.196872 0.393103
0.808957 0.265476 0.408362
0.991577 0.583337 0.554955
0.000000 0.287968 0.365972
0.137911 0.290166 0.383551
0.453590 0.280613 0.416388
0.815518 0.379034 0.441138
0.992920 0.609644 0.567834
0.000000 0.469703 0.451362
0.138003 0.483101 0.464424
0.546227 0.515984 0.504082
0.833646 0.598810 0.545403
0.995300 0.698817 0.621851
0.000000 0.753933 0.595666
0.272984 0.760403 0.605280
0.602106 0.764218 0.617975
0.839017 0.773831 0.640681
0.996399 0.816556 0.715114
0.373877 0.930907 0.706294
0.482551 0.927306 0.712978
0.690425 0.918456 0.733303
0.854246 0.913146 0.744778
0.985992 0.909636 0.795224
0.000000 0.357702 0.578973
0.000000 0.311315 0.587427
0.461219 0.260685 0.594598
0.771176 0.332616 0.637140
0.971588 0.602808 0.697078
0.000000 0.427771 0.598688
0.187594 0.416846 0.612024
0.474525 0.344549 0.619928
0.777768 0.405829 0.650538
0.972107 0.635431 0.707332
0.000000 0.574640 0.656397
0.272679 0.577630 0.661463
0.582635 0.592828 0.679805
0.796109 0.599908 0.693751
0.977020 0.718196 0.734737
0.230808 0.763607 0.729549
0.382544 0.764645 0.732723
0.644892 0.769192 0.743160
0.840177 0.786923 0.766415
0.984619 0.829007 0.794614
0.517662 0.921935 0.812528
0.591760 0.919432 0.817014
0.743893 0.916014 0.830320
0.870481 0.914122 0.835935
0.981659 0.912016 0.858213
0.411475 0.570642 0.822690
0.456336 0.557977 0.824247
0.576257 0.509392 0.825132
0.792874 0.488472 0.822049
0.960998 0.656794 0.838407
0.438941 0.610590 0.826108
0.517296 0.616754 0.827543
0.603967 0.567773 0.829679
0.796109 0.534752 0.826078
0.961059 0.677760 0.841947
0.471687 0.704707 0.840726
0.531518 0.706844 0.839231
0.698268 0.720821 0.842466
0.804959 0.665980 0.840879
0.962188 0.735348 0.853452
0.558434 0.822019 0.872099
0.604242 0.822538 0.871672
0.713130 0.822019 0.869841
0.844083 0.819303 0.869230
0.965667 0.820310 0.874540
0.643915 0.917540 0.899779
0.676875 0.916716 0.899962
0.767361 0.914580 0.900816
0.883818 0.912596 0.902983
0.978424 0.914580 0.908965
