其他预设/【233】日式怀旧街道调色预设208款/1.3D LUT预设（视频调色-PR-AE-PS-FCPX-达芬奇用）/3.日式城市街拍预设 (自动曝光预设)/JA – Chrome 4 (Auto-Exposure).cube
# Created by Adobe Lightroom plugin Export LUT (1.17.0)
# www.johnrellis.com/lightroom/exportlut.htm
# Preset: JA – Chrome 4 (Auto-Exposure)
# Color profile: /Library/Application Support/Adobe/Color/Profiles/Recommended/AdobeRGB1998.icc
LUT_3D_SIZE 5
DOMAIN_MIN 0.000000 0.000000 0.000000
DOMAIN_MAX 0.903226 0.903226 0.903226
0.102937 0.100343 0.105287
0.185519 0.106966 0.113344
0.505547 0.094636 0.110292
0.794644 0.113008 0.133944
0.954925 0.263828 0.273320
0.112337 0.186130 0.117128
0.197330 0.189944 0.117494
0.526452 0.280095 0.124025
0.801266 0.301640 0.167422
0.951995 0.383307 0.323583
0.064515 0.461860 0.100496
0.246220 0.465248 0.093507
0.512749 0.494453 0.080293
0.800107 0.562737 0.271733
0.938964 0.624994 0.475685
0.025269 0.706844 0.123293
0.246921 0.706996 0.121248
0.490059 0.707240 0.112947
0.750851 0.730251 0.205509
0.923186 0.752834 0.488930
0.317693 0.886259 0.327947
0.377691 0.885710 0.330541
0.530663 0.883848 0.339574
0.719539 0.882261 0.379095
0.901640 0.884123 0.485603
0.101167 0.102754 0.181643
0.194858 0.095216 0.195102
0.499031 0.000000 0.242985
0.786099 0.000000 0.266026
0.945586 0.327550 0.391150
0.114473 0.180362 0.188022
0.201755 0.196292 0.204196
0.520897 0.224765 0.234928
0.791318 0.295811 0.304356
0.942473 0.429816 0.428412
0.000000 0.461616 0.244358
0.201480 0.479652 0.212192
0.516808 0.499550 0.226566
0.797238 0.592248 0.424018
0.931151 0.645899 0.542992
0.043549 0.707027 0.264683
0.242771 0.710567 0.258427
0.491127 0.710109 0.258427
0.750607 0.730892 0.331365
0.917937 0.767697 0.564843
0.352544 0.883665 0.401312
0.402930 0.883513 0.401282
0.544305 0.881956 0.408728
0.723690 0.880583 0.437049
0.900694 0.883726 0.534569
0.079255 0.084657 0.419135
0.252934 0.000000 0.467964
0.533562 0.000000 0.507500
0.765743 0.000000 0.495308
0.927581 0.376013 0.551995
0.000000 0.206058 0.394293
0.177279 0.173281 0.446723
0.536797 0.101076 0.510948
0.766323 0.251591 0.506950
0.921996 0.476783 0.579675
0.000000 0.427741 0.429450
0.181369 0.448707 0.448890
0.539879 0.525444 0.518944
0.773556 0.585931 0.574975
0.916442 0.661311 0.645930
0.000000 0.699001 0.475807
0.259220 0.703944 0.481697
0.529137 0.719326 0.511192
0.752926 0.735317 0.548516
0.909667 0.806790 0.714168
0.351507 0.879973 0.524224
0.421088 0.878965 0.533104
0.578454 0.877226 0.558160
0.732052 0.876249 0.566949
0.898497 0.883116 0.643915
0.000000 0.000000 0.650141
0.236698 0.000000 0.674037
0.534051 0.000000 0.741085
0.789334 0.000000 0.746670
0.923552 0.177798 0.688869
0.000000 0.159487 0.635035
0.149142 0.139925 0.660029
0.509209 0.000000 0.733211
0.786709 0.121157 0.745388
0.919158 0.343175 0.696407
0.000000 0.392889 0.561822
0.112917 0.396155 0.571466
0.474250 0.460212 0.684108
0.776669 0.536248 0.740291
0.908110 0.598779 0.725704
0.000000 0.645960 0.635157
0.240146 0.653681 0.642359
0.503502 0.682826 0.669490
0.769009 0.755093 0.738735
0.904173 0.801907 0.785550
0.341985 0.873198 0.687709
0.409247 0.872587 0.689662
0.571099 0.871489 0.697902
0.748013 0.873930 0.720058
0.896147 0.883452 0.760464
0.000000 0.000000 0.849149
0.192569 0.000000 0.857053
0.453956 0.000000 0.878660
0.729244 0.000000 0.904326
0.932036 0.000000 0.895354
0.000000 0.131044 0.845640
0.100862 0.098756 0.852598
0.430030 0.000000 0.874876
0.725826 0.000000 0.901335
0.928435 0.226596 0.893156
0.000000 0.429206 0.813718
0.163882 0.424659 0.823392
0.423468 0.412787 0.852964
0.729152 0.493019 0.887510
0.917601 0.556573 0.886931
0.053346 0.632563 0.797421
0.200900 0.630915 0.796811
0.389319 0.622675 0.793942
0.700313 0.687861 0.852079
0.906798 0.766384 0.881865
0.330571 0.843046 0.832181
0.382483 0.843473 0.832456
0.526360 0.845304 0.833768
0.708766 0.851743 0.839261
0.900694 0.892485 0.880674
