其他预设/【233】日式怀旧街道调色预设208款/1.3D LUT预设（视频调色-PR-AE-PS-FCPX-达芬奇用）/3.日式城市街拍预设 (自动曝光预设)/JA – Chrome 3 (Auto-Exposure).cube
# Created by Adobe Lightroom plugin Export LUT (1.17.0)
# www.johnrellis.com/lightroom/exportlut.htm
# Preset: JA – Chrome 3 (Auto-Exposure)
# Color profile: /Library/Application Support/Adobe/Color/Profiles/Recommended/AdobeRGB1998.icc
LUT_3D_SIZE 8
DOMAIN_MIN 0.000000 0.000000 0.000000
DOMAIN_MAX 0.903226 0.903226 0.903226
0.120058 0.117037 0.122683
0.143252 0.117403 0.122744
0.206790 0.119387 0.121553
0.423774 0.127810 0.105592
0.648432 0.142123 0.057679
0.792477 0.158053 0.000000
0.901396 0.172793 0.000000
0.980011 0.184817 0.000000
0.123293 0.139681 0.125551
0.145571 0.140047 0.125063
0.215152 0.151125 0.122225
0.439551 0.191226 0.099153
0.655360 0.215427 0.018433
0.796109 0.222507 0.000000
0.903075 0.226963 0.000000
0.980499 0.230320 0.000000
0.128420 0.201083 0.129030
0.154574 0.201816 0.128359
0.235691 0.223087 0.122957
0.475471 0.332677 0.063661
0.677974 0.377264 0.000000
0.808072 0.367834 0.000000
0.908598 0.355291 0.000000
0.981964 0.341833 0.000000
0.114748 0.387640 0.100404
0.176333 0.388312 0.097536
0.302617 0.390234 0.086488
0.489021 0.460914 0.000000
0.683864 0.511070 0.000000
0.823911 0.538140 0.000000
0.916503 0.511376 0.000000
0.983490 0.480385 0.000000
0.073610 0.575067 0.000000
0.173342 0.573907 0.000000
0.325231 0.570001 0.000000
0.481605 0.577996 0.000000
0.666041 0.630610 0.000000
0.814267 0.639460 0.000000
0.916106 0.642786 0.000000
0.982269 0.634272 0.048432
0.053254 0.702663 0.000000
0.164920 0.701595 0.000000
0.316258 0.697841 0.000000
0.467720 0.691371 0.000000
0.621637 0.711208 0.000000
0.788266 0.750027 0.000000
0.904448 0.740780 0.104799
0.971435 0.732021 0.239750
0.127718 0.811337 0.000000
0.191379 0.810513 0.000000
0.319371 0.807645 0.000000
0.458961 0.802548 0.000000
0.599145 0.795315 0.000000
0.739895 0.818173 0.042664
0.876280 0.839048 0.212924
0.958007 0.819944 0.348943
0.274296 0.902708 0.228061
0.300694 0.902159 0.227573
0.378119 0.900145 0.224125
0.483711 0.896605 0.217838
0.601160 0.891478 0.208682
0.722347 0.888365 0.222049
0.836545 0.896941 0.329229
0.935821 0.902495 0.418677
0.119997 0.118013 0.141604
0.141604 0.116030 0.143282
0.202274 0.116182 0.145846
0.415045 0.005798 0.133303
0.643397 0.000000 0.104036
0.789792 0.035767 0.060914
0.900389 0.103883 0.000000
0.979889 0.138796 0.000000
0.123232 0.137636 0.144228
0.142611 0.138827 0.145418
0.209659 0.139773 0.143404
0.430213 0.144778 0.128664
0.650233 0.157504 0.094545
0.793423 0.170748 0.031952
0.902098 0.185000 0.000000
0.980346 0.197513 0.000000
0.122316 0.201175 0.150027
0.145174 0.204166 0.146426
0.231174 0.219669 0.141939
0.473304 0.322667 0.101869
0.672786 0.350622 0.014435
0.805509 0.343297 0.000000
0.907591 0.334325 0.000000
0.981659 0.324987 0.000000
0.000000 0.391089 0.133425
0.132296 0.395300 0.119966
0.292149 0.396307 0.110018
0.485756 0.458198 0.047059
0.682948 0.505730 0.000000
0.823331 0.532189 0.000000
0.915190 0.500786 0.000000
0.982696 0.473182 0.000000
0.000000 0.578882 0.000000
0.105135 0.578790 0.030579
0.306218 0.574365 0.000000
0.474861 0.577081 0.000000
0.664393 0.629358 0.000000
0.813352 0.637751 0.000000
0.914946 0.643153 0.079561
0.980072 0.634272 0.179263
0.000000 0.705226 0.000000
0.110842 0.704372 0.000000
0.298619 0.700465 0.000000
0.460182 0.693599 0.000000
0.618067 0.710475 0.000000
0.787015 0.749477 0.000000
0.902464 0.741848 0.198703
0.968872 0.736233 0.299382
0.082704 0.812467 0.099458
0.175387 0.811490 0.111604
0.311498 0.808591 0.100130
0.454108 0.803464 0.076814
0.596155 0.796109 0.000000
0.738766 0.817441 0.150118
0.875090 0.838743 0.265141
0.955962 0.821500 0.384710
0.283055 0.902281 0.267979
0.308293 0.901732 0.266819
0.383001 0.899809 0.263981
0.486244 0.896300 0.257877
0.602014 0.891325 0.249363
0.722316 0.887602 0.256657
0.836667 0.896452 0.356085
0.935027 0.902312 0.440375
0.119753 0.119142 0.186496
0.141634 0.115541 0.195804
0.205112 0.112245 0.203983
0.397253 0.000000 0.260868
0.625208 0.000000 0.257359
0.779690 0.000000 0.188571
0.895109 0.000000 0.182712
0.977417 0.000000 0.179812
0.128603 0.142061 0.186526
0.141115 0.138216 0.195926
0.209201 0.130922 0.208286
0.408850 0.000000 0.253727
0.631434 0.000000 0.234623
0.783230 0.000000 0.189700
0.896666 0.000000 0.185580
0.977600 0.000000 0.185397
0.121706 0.196780 0.205447
0.138338 0.200412 0.209079
0.218265 0.212436 0.220462
0.451728 0.215122 0.209506
0.655604 0.227787 0.200351
0.794644 0.245609 0.198154
0.901274 0.266941 0.203006
0.977691 0.286381 0.212161
0.000000 0.392157 0.271916
0.000000 0.399054 0.261509
0.215457 0.417823 0.209415
0.474891 0.450111 0.199191
0.678706 0.490944 0.213046
0.810788 0.493172 0.233585
0.906706 0.479194 0.252537
0.975891 0.469917 0.273136
0.000000 0.580743 0.264103
0.000000 0.583856 0.244297
0.221256 0.588586 0.203433
0.450782 0.578088 0.185611
0.657404 0.624933 0.212284
0.806851 0.637537 0.270756
0.906920 0.655879 0.332799
0.970031 0.643610 0.368841
0.000000 0.708095 0.226108
0.000000 0.709255 0.208469
0.251621 0.708034 0.225376
0.439246 0.700496 0.210941
0.608301 0.706722 0.214176
0.781582 0.747097 0.285222
0.894652 0.747799 0.371893
0.960479 0.750973 0.435096
0.000000 0.815427 0.216434
0.000000 0.815274 0.213870
0.309545 0.810452 0.277806
0.450111 0.805417 0.267582
0.591028 0.798093 0.251469
0.736385 0.814298 0.303532
0.871122 0.837613 0.389166
0.949798 0.826535 0.476814
0.184482 0.905791 0.287816
0.252049 0.904265 0.306371
0.404089 0.898344 0.368200
0.498085 0.895079 0.362737
0.606683 0.890471 0.354833
0.722377 0.884764 0.346105
0.836454 0.894835 0.428473
0.932525 0.901854 0.502495
0.112490 0.112917 0.325780
0.154116 0.104250 0.343938
0.292882 0.000000 0.400702
0.421515 0.000000 0.402564
0.593072 0.000000 0.421302
0.757198 0.000000 0.407752
0.874968 0.000000 0.398138
0.958495 0.142702 0.416968
0.082094 0.136965 0.327947
0.131197 0.130526 0.344213
0.279484 0.071015 0.401770
0.427192 0.000000 0.407721
0.600458 0.000000 0.419959
0.759365 0.000000 0.405219
0.874540 0.000000 0.405493
0.960632 0.163149 0.407324
0.088350 0.224460 0.311437
0.113893 0.224765 0.318730
0.207279 0.202396 0.386542
0.441779 0.170199 0.422522
0.620142 0.162112 0.418524
0.762783 0.214755 0.415625
0.877165 0.265782 0.415564
0.960815 0.326543 0.423224
0.000000 0.376440 0.382940
0.000000 0.382330 0.388281
0.194919 0.401770 0.406378
0.447425 0.434913 0.434730
0.640070 0.444526 0.434821
0.777432 0.461830 0.442725
0.883330 0.481788 0.454017
0.958770 0.498054 0.463447
0.000000 0.582879 0.436805
0.000000 0.585443 0.432166
0.162905 0.591791 0.418067
0.442084 0.593622 0.424170
0.641169 0.616632 0.437415
0.790860 0.649104 0.479103
0.889830 0.664057 0.506096
0.955261 0.654383 0.516869
0.000000 0.709224 0.406806
0.000000 0.710079 0.402594
0.205234 0.711238 0.396582
0.449012 0.708186 0.425147
0.600946 0.698360 0.408362
0.771664 0.742885 0.464942
0.883513 0.757595 0.522606
0.949462 0.771145 0.565515
0.000000 0.815274 0.390661
0.000000 0.814939 0.390661
0.269078 0.813107 0.398169
0.469123 0.807065 0.439185
0.595056 0.800412 0.426276
0.732235 0.808072 0.443336
0.865232 0.835874 0.512078
0.941466 0.833890 0.580865
0.202487 0.904723 0.414740
0.248386 0.903868 0.418463
0.356909 0.901244 0.429786
0.514488 0.893736 0.478523
0.613153 0.889586 0.470680
0.721248 0.884154 0.460121
0.834836 0.892180 0.513817
0.928679 0.901183 0.581781
0.095583 0.090333 0.505882
0.159976 0.071595 0.516381
0.302647 0.000000 0.551019
0.492988 0.000000 0.595422
0.621820 0.000000 0.581018
0.735378 0.000000 0.552239
0.858030 0.000000 0.538445
0.946319 0.161959 0.539391
0.000000 0.122255 0.505425
0.116762 0.110201 0.515648
0.282353 0.000000 0.548882
0.483467 0.000000 0.594659
0.623713 0.000000 0.583215
0.735561 0.000000 0.552361
0.857694 0.000000 0.541924
0.944945 0.237400 0.546044
0.000000 0.242924 0.490028
0.000000 0.229679 0.503868
0.197971 0.189212 0.538262
0.448463 0.137575 0.589593
0.626551 0.131899 0.587457
0.732570 0.232731 0.558709
0.855436 0.298222 0.559106
0.940673 0.382818 0.567407
0.000000 0.374151 0.488380
0.000000 0.375097 0.492195
0.221225 0.385382 0.504356
0.430518 0.417212 0.562554
0.622736 0.438025 0.589349
0.740230 0.456214 0.580316
0.853910 0.482948 0.584710
0.935973 0.521660 0.595941
0.000000 0.542565 0.539940
0.000000 0.545586 0.542718
0.223392 0.556207 0.551812
0.452461 0.575219 0.567773
0.619715 0.604456 0.592889
0.759030 0.617517 0.599359
0.865568 0.633417 0.608911
0.940032 0.646387 0.617029
0.000000 0.708888 0.568994
0.000000 0.709957 0.569757
0.235172 0.710475 0.569390
0.446571 0.710170 0.570886
0.606043 0.712337 0.576165
0.759426 0.737026 0.596490
0.872984 0.768338 0.642573
0.938384 0.781674 0.667597
0.000000 0.814542 0.544366
0.018708 0.814054 0.544884
0.292058 0.812009 0.548241
0.452308 0.809415 0.552941
0.601007 0.805783 0.567742
0.719753 0.797513 0.551720
0.858122 0.833677 0.619165
0.933135 0.842496 0.676783
0.229435 0.903075 0.542443
0.269352 0.902281 0.544030
0.368780 0.899870 0.548974
0.481117 0.896544 0.553857
0.617578 0.889708 0.580743
0.717617 0.884703 0.569574
0.829496 0.888212 0.594781
0.924102 0.900450 0.662104
0.078767 0.051972 0.635554
0.151919 0.000000 0.641810
0.288731 0.000000 0.663081
0.455879 0.000000 0.698512
0.636347 0.000000 0.725277
0.758358 0.000000 0.707973
0.846921 0.000000 0.667475
0.930602 0.161685 0.652033
0.000000 0.100191 0.634272
0.101808 0.084474 0.640314
0.268498 0.000000 0.661402
0.444221 0.000000 0.696925
0.634546 0.000000 0.726284
0.758480 0.000000 0.708553
0.845701 0.000000 0.668940
0.929900 0.229831 0.655207
0.000000 0.200076 0.625910
0.000000 0.194247 0.631983
0.190280 0.177890 0.653162
0.408545 0.134554 0.688838
0.629633 0.108095 0.726955
0.756435 0.188449 0.709224
0.840482 0.301213 0.675471
0.927825 0.366369 0.665400
0.000000 0.377630 0.588464
0.000000 0.379583 0.596857
0.253178 0.393774 0.625452
0.415229 0.400885 0.666468
0.618585 0.431495 0.712978
0.750454 0.451911 0.708309
0.832822 0.478981 0.685359
0.924590 0.505425 0.681300
0.000000 0.508476 0.613977
0.031037 0.510765 0.615534
0.278172 0.522332 0.620630
0.449866 0.547448 0.629389
0.600366 0.585046 0.682551
0.745632 0.607080 0.709316
0.835782 0.613642 0.699794
0.920714 0.636133 0.703609
0.000000 0.661799 0.653742
0.090700 0.663416 0.655055
0.302678 0.669154 0.659754
0.465034 0.679866 0.668757
0.606348 0.697230 0.683833
0.741329 0.726772 0.710658
0.850584 0.743465 0.722652
0.924102 0.756924 0.732570
0.000000 0.808713 0.681300
0.151736 0.808591 0.682246
0.319707 0.808316 0.685573
0.465431 0.808835 0.689357
0.595727 0.808042 0.685725
0.722957 0.808316 0.689845
0.848661 0.830137 0.718837
0.925048 0.853422 0.765530
0.258427 0.901030 0.670832
0.292760 0.900328 0.671199
0.382177 0.898192 0.671687
0.488624 0.895201 0.671168
0.598871 0.891630 0.670466
0.719539 0.885863 0.683986
0.817288 0.880858 0.671870
0.918456 0.899535 0.742733
0.019409 0.000000 0.752102
0.135805 0.000000 0.755734
0.272251 0.000000 0.768276
0.421942 0.000000 0.789517
0.588739 0.000000 0.815152
0.745113 0.000000 0.825376
0.862211 0.000000 0.811154
0.928557 0.085267 0.763058
0.000000 0.068360 0.750759
0.076234 0.026123 0.754360
0.251865 0.000000 0.766903
0.410651 0.000000 0.788296
0.582666 0.000000 0.814572
0.744533 0.000000 0.825589
0.861204 0.000000 0.810849
0.927031 0.196963 0.764492
0.000000 0.190799 0.744076
0.000000 0.186343 0.747738
0.183505 0.169284 0.760616
0.380255 0.127596 0.782528
0.567712 0.000000 0.811185
0.746517 0.178103 0.824796
0.856962 0.263249 0.809537
0.922148 0.359045 0.769009
0.062043 0.394537 0.721309
0.152621 0.397192 0.725948
0.237644 0.379767 0.741939
0.402289 0.388220 0.765621
0.577569 0.408392 0.796445
0.754452 0.455055 0.822385
0.850706 0.469093 0.807767
0.915282 0.501579 0.775448
0.167086 0.513909 0.697200
0.213870 0.516564 0.697414
0.326390 0.527398 0.698787
0.458320 0.551934 0.729854
0.581170 0.566186 0.771054
0.744045 0.604028 0.811307
0.844480 0.614435 0.806668
0.907195 0.626337 0.783474
0.199252 0.635401 0.726436
0.242008 0.636927 0.726741
0.346288 0.642451 0.727840
0.463569 0.651301 0.729915
0.581628 0.665248 0.733608
0.719142 0.705104 0.782223
0.838895 0.732021 0.806638
0.904936 0.734981 0.796231
0.238163 0.766445 0.757015
0.274266 0.767025 0.757443
0.368139 0.769223 0.759060
0.479225 0.773465 0.762295
0.598199 0.780941 0.768490
0.719387 0.794675 0.780545
0.833829 0.822049 0.806638
0.912474 0.838407 0.820401
0.277958 0.894530 0.782467
0.308049 0.894133 0.782681
0.390082 0.892973 0.783352
0.494881 0.891417 0.784817
0.607538 0.889982 0.788113
0.714199 0.886748 0.783505
0.816129 0.883970 0.786221
0.911711 0.898131 0.817441
0.000000 0.000000 0.857267
0.063294 0.000000 0.859159
0.250828 0.000000 0.865415
0.390509 0.000000 0.875029
0.536492 0.000000 0.887999
0.693263 0.000000 0.899901
0.826413 0.000000 0.900237
0.936522 0.000000 0.889830
0.000000 0.005188 0.857572
0.000000 0.000000 0.859159
0.232212 0.000000 0.864775
0.380102 0.000000 0.874388
0.529992 0.000000 0.887480
0.690211 0.000000 0.899596
0.826505 0.000000 0.899840
0.935180 0.000000 0.889311
0.000000 0.198886 0.853696
0.000000 0.194186 0.855375
0.185031 0.174441 0.861143
0.357366 0.126680 0.871092
0.516564 0.000000 0.884550
0.685878 0.000000 0.897185
0.828641 0.214328 0.897734
0.930724 0.301183 0.887449
0.172976 0.410040 0.841032
0.181949 0.400855 0.843290
0.269108 0.390845 0.849912
0.402014 0.389837 0.860533
0.543175 0.387945 0.874754
0.694789 0.395972 0.890257
0.833097 0.456886 0.894316
0.924315 0.476967 0.884886
0.332280 0.564630 0.818173
0.350347 0.565423 0.820188
0.406836 0.568109 0.827390
0.470069 0.558312 0.841306
0.570031 0.556817 0.859281
0.702968 0.572778 0.878660
0.838712 0.615930 0.891417
0.916960 0.620050 0.882475
0.360845 0.660395 0.819516
0.377661 0.661219 0.819211
0.428901 0.663905 0.818204
0.501488 0.667292 0.816068
0.596033 0.676967 0.831327
0.702358 0.689601 0.859739
0.834073 0.729488 0.884428
0.909972 0.737362 0.880797
0.375769 0.758633 0.838163
0.391730 0.759060 0.838041
0.440742 0.760220 0.837583
0.513878 0.762264 0.836728
0.601251 0.765530 0.835355
0.695735 0.771450 0.833280
0.813107 0.802121 0.864042
0.905028 0.827359 0.880919
0.392279 0.862119 0.855863
0.407294 0.862242 0.855863
0.455451 0.862730 0.855924
0.529107 0.863615 0.856168
0.617731 0.865202 0.856718
0.713527 0.868009 0.858183
0.810239 0.873991 0.862699
0.901335 0.893156 0.881407
