其他预设/【233】日式怀旧街道调色预设208款/1.3D LUT预设（视频调色-PR-AE-PS-FCPX-达芬奇用）/3.日式城市街拍预设 (自动曝光预设)/JA – Cine Night 4 (Auto-Exposure).cube
# Created by Adobe Lightroom plugin Export LUT (1.17.0)
# www.johnrellis.com/lightroom/exportlut.htm
# Preset: JA – Cine Night 4 (Auto-Exposure)
# Color profile: /Library/Application Support/Adobe/Color/Profiles/Recommended/AdobeRGB1998.icc
LUT_3D_SIZE 32
0.014038 0.000000 0.121248
0.024231 0.000000 0.121828
0.039185 0.000000 0.122499
0.061769 0.016785 0.123995
0.076478 0.042145 0.126589
0.092622 0.061402 0.129244
0.111025 0.073152 0.132326
0.132631 0.086091 0.135042
0.158999 0.101106 0.137209
0.190341 0.117922 0.139193
0.227909 0.136080 0.140841
0.272282 0.155093 0.142214
0.323766 0.174807 0.142763
0.381872 0.194491 0.142885
0.445441 0.213901 0.142275
0.511864 0.232242 0.140871
0.577203 0.249821 0.139315
0.638575 0.266575 0.138308
0.694240 0.282872 0.138216
0.744259 0.298466 0.139986
0.787839 0.313725 0.143923
0.826322 0.328527 0.150393
0.860624 0.343359 0.159182
0.891569 0.358618 0.170016
0.919982 0.374243 0.182956
0.946593 0.390997 0.197940
0.971923 0.408911 0.214878
0.995941 0.428351 0.234379
1.000000 0.449104 0.256992
1.000000 0.471687 0.283604
1.000000 0.496529 0.314977
1.000000 0.524468 0.352544
0.014649 0.000397 0.122957
0.024628 0.003418 0.123079
0.038727 0.010346 0.123659
0.061036 0.028565 0.125154
0.076356 0.052033 0.127718
0.092561 0.065492 0.130343
0.111330 0.076387 0.133059
0.133120 0.089052 0.135561
0.159335 0.103792 0.137850
0.190890 0.120333 0.139834
0.228519 0.138552 0.141573
0.273045 0.157443 0.142611
0.324651 0.177035 0.143252
0.382757 0.196750 0.143343
0.446448 0.215915 0.142550
0.512902 0.234257 0.141390
0.578027 0.251652 0.139864
0.639307 0.268498 0.138827
0.694759 0.284672 0.138766
0.744686 0.300237 0.140383
0.788205 0.315190 0.144472
0.826596 0.330083 0.151034
0.860868 0.344732 0.159823
0.891752 0.359869 0.170779
0.920134 0.375555 0.183627
0.946715 0.392309 0.198520
0.972045 0.410132 0.215427
0.996033 0.429511 0.235142
1.000000 0.450202 0.257816
1.000000 0.472816 0.284337
1.000000 0.497566 0.315679
1.000000 0.525444 0.353338
0.011597 0.021576 0.125124
0.021729 0.028199 0.124605
0.035279 0.029358 0.125277
0.060761 0.047059 0.126741
0.075990 0.061189 0.128969
0.092561 0.070405 0.131930
0.111391 0.080537 0.134249
0.133547 0.092988 0.136690
0.159884 0.107546 0.138613
0.191379 0.124086 0.140688
0.229282 0.141848 0.142061
0.274052 0.160739 0.143191
0.325719 0.180209 0.143801
0.383978 0.199771 0.144137
0.447578 0.218997 0.143282
0.514122 0.236851 0.142153
0.579248 0.254368 0.140688
0.640192 0.270970 0.139559
0.695705 0.286900 0.139651
0.745327 0.302434 0.141238
0.788754 0.317388 0.145480
0.827024 0.331945 0.151919
0.861173 0.346715 0.160739
0.892027 0.361700 0.171633
0.920348 0.377325 0.184665
0.946868 0.393957 0.199466
0.972168 0.411780 0.216464
0.996094 0.431037 0.236179
1.000000 0.451850 0.258885
1.000000 0.474311 0.285374
1.000000 0.498939 0.316777
1.000000 0.526848 0.354498
0.004761 0.061982 0.130098
0.014191 0.064149 0.130343
0.028809 0.066377 0.129488
0.056611 0.066957 0.130922
0.074922 0.073396 0.132937
0.092500 0.080232 0.134615
0.111818 0.089876 0.136660
0.134310 0.101656 0.138674
0.161166 0.115480 0.140352
0.193057 0.131624 0.142153
0.231052 0.149325 0.143587
0.276249 0.167880 0.144747
0.328069 0.187259 0.145510
0.386603 0.206332 0.145449
0.450416 0.225071 0.144686
0.516716 0.242954 0.143587
0.581659 0.259922 0.142153
0.642390 0.276463 0.141268
0.697444 0.292149 0.141390
0.746700 0.307286 0.143191
0.789883 0.321965 0.147524
0.827939 0.336370 0.154025
0.861875 0.350988 0.162875
0.892576 0.365728 0.173861
0.920806 0.381231 0.186587
0.947265 0.397681 0.201572
0.972442 0.415412 0.218570
0.996338 0.434546 0.238315
1.000000 0.455177 0.260960
1.000000 0.477546 0.287572
1.000000 0.502068 0.319158
1.000000 0.529870 0.356817
0.000000 0.080568 0.136812
0.006622 0.081758 0.137240
0.019287 0.083833 0.136751
0.049195 0.087343 0.134951
0.070008 0.087495 0.137789
0.091188 0.095552 0.138918
0.112856 0.103487 0.140047
0.135744 0.114443 0.141604
0.163180 0.127810 0.143130
0.195499 0.143496 0.144778
0.234134 0.160739 0.146029
0.279667 0.179049 0.147127
0.332006 0.197848 0.147738
0.390692 0.216587 0.147799
0.454658 0.234775 0.147036
0.520867 0.252079 0.145876
0.585412 0.268620 0.144717
0.645594 0.284794 0.143679
0.700252 0.300145 0.144076
0.748989 0.314824 0.146212
0.791592 0.329168 0.150515
0.829313 0.343359 0.157168
0.863005 0.357519 0.166140
0.893492 0.372137 0.177005
0.921508 0.387366 0.189853
0.947845 0.403510 0.204868
0.972900 0.421088 0.221927
0.996674 0.439918 0.241611
1.000000 0.460426 0.264378
1.000000 0.482582 0.291234
1.000000 0.506981 0.322850
1.000000 0.534630 0.360693
0.000000 0.098787 0.144228
0.000000 0.100343 0.144442
0.006043 0.102052 0.144167
0.030823 0.106050 0.142245
0.066529 0.109438 0.141054
0.084932 0.110414 0.144106
0.110262 0.121523 0.145174
0.136812 0.131930 0.145602
0.165377 0.144503 0.146944
0.198642 0.159335 0.148226
0.238132 0.175998 0.149416
0.284337 0.193698 0.150423
0.337072 0.211887 0.150973
0.396307 0.229984 0.150820
0.460487 0.247593 0.150027
0.526452 0.264225 0.149081
0.590448 0.280400 0.147829
0.650019 0.295872 0.147280
0.703853 0.310765 0.147860
0.751858 0.325017 0.150118
0.793881 0.338903 0.154788
0.831174 0.352422 0.161593
0.864469 0.366308 0.170443
0.894652 0.380560 0.181430
0.922454 0.395453 0.194369
0.948547 0.411414 0.209293
0.973541 0.428656 0.226505
0.997101 0.447333 0.246159
1.000000 0.467475 0.269078
1.000000 0.489448 0.296056
1.000000 0.513664 0.327886
1.000000 0.541039 0.365850
0.000000 0.119905 0.152499
0.000000 0.121187 0.152377
0.000000 0.123049 0.152102
0.010193 0.127352 0.150240
0.053620 0.132418 0.147311
0.082002 0.135073 0.147463
0.102937 0.136965 0.150637
0.133852 0.152041 0.151675
0.166201 0.164645 0.151980
0.202701 0.179385 0.152743
0.243137 0.195102 0.153841
0.290227 0.211978 0.154604
0.343694 0.229343 0.155184
0.403632 0.246525 0.154940
0.467994 0.263462 0.154086
0.533593 0.279332 0.153170
0.596735 0.294987 0.152010
0.655512 0.309880 0.151583
0.708614 0.324071 0.152438
0.755550 0.337652 0.155062
0.796780 0.350958 0.159915
0.833463 0.364080 0.166934
0.866300 0.377325 0.175937
0.896117 0.391180 0.186984
0.923644 0.405768 0.199954
0.949493 0.421302 0.214817
0.974273 0.438239 0.232181
0.997650 0.456550 0.252049
1.000000 0.476356 0.275029
1.000000 0.498116 0.302281
1.000000 0.521996 0.334234
1.000000 0.549096 0.372564
0.000000 0.144228 0.161959
0.000000 0.145449 0.161746
0.000000 0.147280 0.161288
0.000000 0.151339 0.159548
0.021881 0.157259 0.155276
0.073182 0.163424 0.152285
0.101198 0.165286 0.154238
0.125216 0.168215 0.157961
0.162966 0.187015 0.159121
0.202152 0.201694 0.159304
0.249149 0.217929 0.159213
0.297520 0.233646 0.159701
0.352026 0.249912 0.160006
0.412421 0.266239 0.159792
0.476905 0.282200 0.159030
0.541985 0.297429 0.157961
0.604334 0.312169 0.157229
0.662104 0.326329 0.157229
0.714046 0.339940 0.158083
0.759915 0.352819 0.161257
0.800259 0.365454 0.166415
0.836210 0.377966 0.173465
0.868467 0.390784 0.182712
0.897856 0.404059 0.193698
0.925048 0.418097 0.206729
0.950683 0.433295 0.221897
0.975158 0.449805 0.239170
0.998260 0.467720 0.259098
1.000000 0.487190 0.282475
1.000000 0.508446 0.309789
1.000000 0.532128 0.342260
1.000000 0.558892 0.380865
0.000000 0.172885 0.172854
0.000000 0.174289 0.172610
0.000000 0.176028 0.172061
0.000000 0.179873 0.170413
0.000000 0.185763 0.166110
0.053254 0.192416 0.161471
0.095277 0.199344 0.158083
0.125460 0.200351 0.161654
0.153506 0.204288 0.166140
0.199374 0.225864 0.167208
0.247105 0.241703 0.166903
0.302831 0.258213 0.166415
0.361975 0.273899 0.166018
0.423102 0.289097 0.165560
0.487465 0.303960 0.164889
0.551843 0.318425 0.164218
0.613336 0.332280 0.163455
0.669917 0.345892 0.163546
0.720424 0.358465 0.165194
0.764920 0.370581 0.168582
0.804227 0.382422 0.173892
0.839322 0.394263 0.181155
0.870970 0.406470 0.190402
0.899870 0.419196 0.201572
0.926665 0.432715 0.214847
0.951995 0.447303 0.230045
0.976226 0.463355 0.247532
0.998993 0.480781 0.267643
1.000000 0.499763 0.291173
1.000000 0.520653 0.318883
1.000000 0.543938 0.351720
1.000000 0.570306 0.390692
0.000000 0.205966 0.185214
0.000000 0.207218 0.184878
0.000000 0.208804 0.184237
0.000000 0.212558 0.182528
0.000000 0.217960 0.178897
0.000000 0.225132 0.171359
0.080201 0.231846 0.167575
0.122072 0.237522 0.165621
0.155734 0.239048 0.169955
0.188754 0.243717 0.174838
0.244663 0.266941 0.175937
0.301122 0.283024 0.175265
0.365301 0.299260 0.174166
0.435309 0.314824 0.172549
0.499855 0.328649 0.171908
0.563287 0.342199 0.171267
0.623438 0.355413 0.170809
0.678523 0.367834 0.171267
0.727413 0.379675 0.173190
0.770443 0.390814 0.176852
0.808713 0.401770 0.182467
0.842832 0.413031 0.190036
0.873808 0.424445 0.199405
0.902129 0.436408 0.210941
0.928466 0.449378 0.224125
0.953429 0.463325 0.239597
0.977356 0.478798 0.257237
0.999725 0.495735 0.277592
1.000000 0.514305 0.301488
1.000000 0.534630 0.329534
1.000000 0.557488 0.362737
1.000000 0.583307 0.402014
0.000000 0.242222 0.198856
0.000000 0.243351 0.198398
0.000000 0.244907 0.197696
0.000000 0.248203 0.195987
0.000000 0.253208 0.192477
0.000000 0.259922 0.185763
0.047120 0.267063 0.178592
0.110262 0.274144 0.173800
0.155154 0.278294 0.173739
0.193606 0.279973 0.178683
0.232761 0.285100 0.184115
0.299229 0.308965 0.185428
0.363897 0.325048 0.184390
0.435523 0.340887 0.182620
0.510185 0.355962 0.180545
0.576043 0.369085 0.179660
0.634638 0.381292 0.179324
0.688045 0.392950 0.180148
0.735073 0.403510 0.182315
0.776577 0.413703 0.186313
0.813535 0.423774 0.192355
0.846708 0.434058 0.200046
0.876921 0.444709 0.209812
0.904601 0.456031 0.221408
0.930480 0.468116 0.234958
0.955077 0.481422 0.250492
0.978576 0.496223 0.268437
1.000000 0.512596 0.289189
1.000000 0.530571 0.313359
1.000000 0.550408 0.341955
1.000000 0.572656 0.375616
1.000000 0.597864 0.415198
0.000000 0.280888 0.213443
0.000000 0.281956 0.213107
0.000000 0.283268 0.212436
0.000000 0.286259 0.210666
0.000000 0.290929 0.207401
0.000000 0.297063 0.201419
0.000000 0.304570 0.190616
0.090364 0.311009 0.185885
0.148470 0.317998 0.180087
0.196963 0.320531 0.182650
0.240269 0.322026 0.188357
0.285893 0.327276 0.194400
0.362463 0.351812 0.195651
0.434485 0.367895 0.194156
0.509178 0.383185 0.192203
0.581903 0.397650 0.190219
0.646906 0.410468 0.188998
0.698390 0.420966 0.190158
0.743160 0.430304 0.192691
0.783017 0.439429 0.197055
0.818692 0.448371 0.203494
0.850858 0.457588 0.211582
0.880186 0.467231 0.221469
0.907256 0.477607 0.233310
0.932647 0.488930 0.247166
0.956786 0.501518 0.263035
0.979889 0.515587 0.281254
1.000000 0.531212 0.302312
1.000000 0.548547 0.327092
1.000000 0.567803 0.356085
1.000000 0.589471 0.390295
1.000000 0.613764 0.430060
0.000000 0.321111 0.229526
0.000000 0.322057 0.229038
0.000000 0.323339 0.228336
0.000000 0.326085 0.226566
0.000000 0.330297 0.223453
0.000000 0.335882 0.218051
0.000000 0.342718 0.208927
0.048280 0.349676 0.198978
0.134401 0.356085 0.193149
0.195163 0.362249 0.186893
0.247532 0.363561 0.192355
0.295872 0.364752 0.198642
0.347631 0.370367 0.205295
0.433112 0.395850 0.206516
0.508049 0.411658 0.204685
0.580621 0.426673 0.202945
0.647883 0.440314 0.201663
0.707424 0.451972 0.201450
0.751766 0.460182 0.204379
0.789853 0.467842 0.209110
0.824186 0.475563 0.215915
0.855253 0.483497 0.224308
0.883696 0.492042 0.234714
0.910063 0.501244 0.246799
0.934905 0.511650 0.260899
0.958618 0.523400 0.276982
0.981231 0.536706 0.295720
1.000000 0.551659 0.317327
1.000000 0.568231 0.342535
1.000000 0.586816 0.372229
1.000000 0.607599 0.406592
1.000000 0.630945 0.446662
0.000000 0.362768 0.246952
0.000000 0.363622 0.246311
0.000000 0.364782 0.245731
0.000000 0.367376 0.244022
0.000000 0.371191 0.240970
0.000000 0.376318 0.235996
0.000000 0.382727 0.228031
0.000000 0.390051 0.214389
0.112978 0.396124 0.207523
0.185702 0.402228 0.200443
0.249973 0.406653 0.196658
0.306676 0.407782 0.202609
0.359442 0.408911 0.209445
0.416510 0.414649 0.216648
0.505577 0.440955 0.217960
0.579156 0.457191 0.216312
0.646082 0.471412 0.215213
0.705440 0.483467 0.215549
0.755795 0.492317 0.217868
0.796872 0.499184 0.222660
0.829740 0.505241 0.229892
0.859739 0.511711 0.238743
0.887327 0.518883 0.249516
0.913024 0.526970 0.261936
0.937255 0.536309 0.276493
0.960479 0.547112 0.293034
0.982513 0.559594 0.312047
1.000000 0.573663 0.334203
1.000000 0.589502 0.360113
1.000000 0.607202 0.390051
1.000000 0.627039 0.424903
1.000000 0.649317 0.465064
0.000000 0.406104 0.265690
0.000000 0.406836 0.265263
0.000000 0.407904 0.264439
0.000000 0.410224 0.262760
0.000000 0.413886 0.259861
0.000000 0.418738 0.255192
0.000000 0.424659 0.247868
0.000000 0.431525 0.236210
0.073884 0.438422 0.222751
0.171847 0.444251 0.215640
0.245121 0.449714 0.207187
0.311955 0.452522 0.206668
0.372198 0.453590 0.213199
0.428382 0.454658 0.220676
0.488685 0.461158 0.228550
0.575555 0.488380 0.230472
0.643977 0.504265 0.229770
0.703120 0.516442 0.230167
0.753445 0.525048 0.232975
0.797024 0.531762 0.238102
0.835172 0.537224 0.245548
0.864378 0.542046 0.254948
0.891020 0.547753 0.266026
0.915984 0.554467 0.279026
0.939635 0.562737 0.293980
0.962341 0.572595 0.310887
0.983764 0.584100 0.330480
1.000000 0.597314 0.353460
1.000000 0.612146 0.379736
1.000000 0.628840 0.410010
1.000000 0.647547 0.445014
1.000000 0.668452 0.484993
0.000000 0.451209 0.285893
0.000000 0.452033 0.285466
0.000000 0.452949 0.284642
0.000000 0.455177 0.282994
0.000000 0.458503 0.279973
0.000000 0.463111 0.275578
0.000000 0.468696 0.268772
0.000000 0.475257 0.258335
0.000000 0.482551 0.241611
0.149355 0.488380 0.231846
0.234775 0.493538 0.223453
0.310063 0.498451 0.213504
0.378271 0.499916 0.217136
0.440589 0.500877 0.224491
0.497810 0.502190 0.232792
0.558221 0.509819 0.241367
0.639246 0.537163 0.244663
0.700252 0.550774 0.245823
0.750820 0.559014 0.249180
0.794430 0.565026 0.254856
0.832639 0.569818 0.262730
0.866545 0.574121 0.272953
0.894743 0.578515 0.284794
0.918975 0.583856 0.298192
0.942046 0.590845 0.313481
0.964172 0.599603 0.331151
0.984924 0.610071 0.351324
1.000000 0.622187 0.374640
1.000000 0.635981 0.401404
1.000000 0.651453 0.431891
1.000000 0.668849 0.466957
1.000000 0.688289 0.506554
0.000000 0.498177 0.307195
0.000000 0.498878 0.306615
0.000000 0.499825 0.306004
0.000000 0.501884 0.304173
0.000000 0.505058 0.301366
0.000000 0.509300 0.296910
0.000000 0.514488 0.290379
0.000000 0.520653 0.280827
0.000000 0.527520 0.266453
0.112825 0.534203 0.249210
0.218845 0.539147 0.240787
0.300938 0.543633 0.231052
0.376745 0.547570 0.221317
0.444984 0.548486 0.228458
0.506889 0.549615 0.236759
0.562890 0.551293 0.246128
0.621790 0.559716 0.256077
0.695064 0.584588 0.261936
0.747646 0.593988 0.266209
0.791470 0.599115 0.272709
0.829770 0.603052 0.281376
0.863737 0.606500 0.292149
0.894285 0.610163 0.305058
0.921935 0.614740 0.319738
0.944396 0.620386 0.335729
0.965881 0.627985 0.353826
0.985901 0.637201 0.374517
1.000000 0.648127 0.398138
1.000000 0.660609 0.425086
1.000000 0.674800 0.455909
1.000000 0.690669 0.490547
1.000000 0.708370 0.529290
0.000000 0.546441 0.328893
0.000000 0.547051 0.328313
0.000000 0.548058 0.327611
0.000000 0.549950 0.325811
0.000000 0.552941 0.322942
0.000000 0.556939 0.318547
0.000000 0.561730 0.312413
0.000000 0.567376 0.303502
0.000000 0.573877 0.290776
0.064118 0.580743 0.272251
0.196323 0.585840 0.259739
0.287663 0.590021 0.250004
0.367895 0.593652 0.238987
0.442451 0.596216 0.233524
0.509148 0.597162 0.241764
0.568841 0.598627 0.251347
0.623316 0.600610 0.262303
0.679744 0.608972 0.274022
0.742763 0.628199 0.284001
0.788083 0.633753 0.291661
0.826505 0.636713 0.301274
0.860563 0.639155 0.312993
0.891203 0.641993 0.326604
0.919249 0.645808 0.342412
0.945312 0.650904 0.360052
0.967407 0.657343 0.379187
0.986694 0.665248 0.400092
1.000000 0.674769 0.424018
1.000000 0.685847 0.450996
1.000000 0.698482 0.481575
1.000000 0.712642 0.515526
1.000000 0.728328 0.552819
0.000000 0.596735 0.350988
0.000000 0.597406 0.350378
0.000000 0.598199 0.349584
0.000000 0.599969 0.347936
0.000000 0.602655 0.345006
0.000000 0.606348 0.340887
0.000000 0.610712 0.334905
0.000000 0.615900 0.326696
0.000000 0.621607 0.315465
0.000000 0.627680 0.299901
0.168948 0.633417 0.280888
0.272465 0.636927 0.271489
0.357305 0.639979 0.260777
0.434119 0.642451 0.248508
0.505119 0.643549 0.248631
0.568414 0.644251 0.258671
0.625299 0.645228 0.270085
0.676753 0.646723 0.283024
0.729549 0.653834 0.297490
0.783749 0.667781 0.311803
0.822965 0.670314 0.322606
0.857115 0.671839 0.335271
0.887816 0.673671 0.349889
0.915923 0.676600 0.366491
0.942046 0.680995 0.385016
0.966247 0.686793 0.405493
0.987274 0.693660 0.428016
1.000000 0.701686 0.451972
1.000000 0.711238 0.478828
1.000000 0.722133 0.508721
1.000000 0.734463 0.541466
1.000000 0.747860 0.576379
0.000000 0.647608 0.373297
0.000000 0.648096 0.372808
0.000000 0.648859 0.372045
0.000000 0.650355 0.370275
0.000000 0.652735 0.367437
0.000000 0.655848 0.363439
0.000000 0.659571 0.357763
0.000000 0.663813 0.350317
0.000000 0.668513 0.340429
0.000000 0.673396 0.327367
0.157870 0.678309 0.310094
0.258701 0.681514 0.296666
0.346380 0.683497 0.286259
0.424140 0.684993 0.274723
0.495491 0.686061 0.261662
0.561944 0.686000 0.268956
0.621302 0.686152 0.280858
0.674678 0.686702 0.294560
0.723110 0.687526 0.309789
0.772122 0.693507 0.327001
0.819181 0.703487 0.345556
0.853300 0.703944 0.359014
0.884154 0.704860 0.374640
0.912322 0.706905 0.392096
0.938506 0.710445 0.411383
0.962707 0.715358 0.432532
0.984283 0.721401 0.455909
1.000000 0.728420 0.481605
1.000000 0.736294 0.508141
1.000000 0.745418 0.536889
1.000000 0.755612 0.567468
1.000000 0.766690 0.599512
0.000000 0.695399 0.395178
0.000000 0.695766 0.394629
0.000000 0.696376 0.393835
0.000000 0.697566 0.392157
0.000000 0.699367 0.389380
0.000000 0.701778 0.385595
0.000000 0.704646 0.380468
0.000000 0.707881 0.373846
0.000000 0.711391 0.365362
0.000000 0.714992 0.354803
0.165438 0.718593 0.341588
0.254185 0.721614 0.326238
0.340307 0.722866 0.316289
0.416449 0.723568 0.305241
0.486122 0.723964 0.292882
0.551263 0.724025 0.282231
0.613306 0.723354 0.294987
0.668696 0.723049 0.309209
0.718593 0.723079 0.325231
0.763699 0.723476 0.343023
0.808774 0.728420 0.363165
0.850156 0.735775 0.385107
0.880247 0.734890 0.400519
0.908537 0.736049 0.418799
0.934813 0.738705 0.438727
0.958953 0.742855 0.460517
0.980468 0.747951 0.484260
0.998901 0.753964 0.509911
1.000000 0.760586 0.537194
1.000000 0.767849 0.564996
1.000000 0.775845 0.592950
1.000000 0.784695 0.622278
0.000000 0.737972 0.415991
0.000000 0.738338 0.415473
0.000000 0.738705 0.414801
0.000000 0.739651 0.413245
0.000000 0.741024 0.410773
0.000000 0.742824 0.407263
0.000000 0.744961 0.402808
0.000000 0.747311 0.397223
0.000000 0.749844 0.390326
0.000000 0.752346 0.382086
0.185183 0.754757 0.372686
0.270634 0.756771 0.361944
0.346349 0.757839 0.351385
0.416419 0.758175 0.340703
0.481483 0.758175 0.328923
0.543053 0.757900 0.315831
0.603204 0.757137 0.312108
0.660456 0.756130 0.327245
0.711788 0.755428 0.344030
0.758022 0.755093 0.362280
0.799741 0.755245 0.382391
0.841062 0.759365 0.405005
0.877775 0.765103 0.429725
0.904509 0.763790 0.446540
0.930907 0.765713 0.466957
0.955077 0.768948 0.489021
0.976623 0.773190 0.512749
0.994995 0.778103 0.538018
1.000000 0.783536 0.564141
1.000000 0.789151 0.590661
1.000000 0.795010 0.617517
1.000000 0.801846 0.644312
0.000000 0.775753 0.436347
0.000000 0.776028 0.435798
0.000000 0.776364 0.435248
0.000000 0.777005 0.433845
0.000000 0.777981 0.431739
0.000000 0.779294 0.428748
0.000000 0.780850 0.425025
0.000000 0.782467 0.420569
0.000000 0.784176 0.415351
0.098787 0.785763 0.409522
0.215183 0.787137 0.403388
0.296574 0.788022 0.397436
0.368414 0.788479 0.391577
0.428565 0.788663 0.381323
0.486061 0.788540 0.369940
0.541680 0.788174 0.357427
0.595819 0.787472 0.343725
0.651789 0.786191 0.348363
0.704402 0.784970 0.365789
0.751644 0.784085 0.384833
0.794125 0.783566 0.405280
0.832273 0.783536 0.427314
0.869932 0.787228 0.452003
0.902892 0.792264 0.478401
0.926909 0.791012 0.495369
0.951171 0.793484 0.517357
0.972686 0.796811 0.540734
0.991150 0.800656 0.564874
1.000000 0.804776 0.589410
1.000000 0.808988 0.614221
1.000000 0.813413 0.639460
1.000000 0.818326 0.665370
0.000000 0.809384 0.456367
0.000000 0.809567 0.456001
0.000000 0.809781 0.455451
0.000000 0.810208 0.454353
0.000000 0.810941 0.452613
0.000000 0.811826 0.450294
0.000000 0.812802 0.447517
0.000000 0.813809 0.444251
0.000000 0.814755 0.440742
0.158206 0.815518 0.437293
0.252842 0.816007 0.434333
0.329168 0.816037 0.432166
0.398230 0.815640 0.431189
0.454841 0.815335 0.426551
0.502312 0.815335 0.415686
0.550072 0.815061 0.403845
0.597803 0.814481 0.390814
0.645441 0.813687 0.376623
0.697871 0.812131 0.390784
0.745785 0.810819 0.410163
0.788907 0.809903 0.431098
0.827604 0.809415 0.453315
0.862272 0.809476 0.476783
0.896452 0.813016 0.502312
0.926238 0.817868 0.529107
0.947326 0.816342 0.545037
0.968963 0.818753 0.567254
0.987488 0.821561 0.589929
1.000000 0.824491 0.612940
1.000000 0.827451 0.636286
1.000000 0.830533 0.660090
1.000000 0.834073 0.684565
0.000000 0.839414 0.476600
0.000000 0.839506 0.476326
0.000000 0.839658 0.475959
0.000000 0.839963 0.475135
0.000000 0.840360 0.473915
0.000000 0.840909 0.472328
0.000000 0.841459 0.470558
0.000000 0.841917 0.468666
0.095613 0.842252 0.467048
0.214511 0.842313 0.465949
0.295781 0.842039 0.465827
0.367041 0.841337 0.467109
0.432258 0.840269 0.470039
0.492714 0.838895 0.474739
0.531243 0.839017 0.465644
0.569696 0.839048 0.454444
0.609613 0.838804 0.442176
0.650507 0.838376 0.428687
0.693538 0.837522 0.418647
0.741878 0.835935 0.438605
0.785245 0.834745 0.459663
0.824277 0.834012 0.482002
0.859281 0.833738 0.504967
0.890471 0.833921 0.528496
0.921263 0.837308 0.553429
0.947692 0.841489 0.578302
0.965515 0.839200 0.592065
0.984039 0.840940 0.613214
0.999145 0.842802 0.634882
1.000000 0.844602 0.656886
1.000000 0.846433 0.679438
1.000000 0.848722 0.702724
0.000000 0.866697 0.497505
0.000000 0.866758 0.497383
0.000000 0.866819 0.497047
0.000000 0.866972 0.496651
0.000000 0.867155 0.495979
0.000000 0.867369 0.495247
0.000000 0.867521 0.494484
0.000000 0.867521 0.494118
0.186038 0.867277 0.494423
0.270359 0.866789 0.495674
0.342535 0.865904 0.498207
0.408209 0.864714 0.502434
0.469337 0.863157 0.508507
0.526482 0.861387 0.516411
0.570123 0.860441 0.518334
0.599817 0.860838 0.508141
0.631617 0.861021 0.496834
0.665187 0.860990 0.484352
0.700435 0.860716 0.470649
0.740810 0.859770 0.469825
0.784054 0.858366 0.490852
0.822934 0.857298 0.512840
0.857694 0.856657 0.535149
0.888823 0.856443 0.557458
0.916594 0.856626 0.579095
0.943908 0.859556 0.601343
0.966674 0.862608 0.623621
0.981201 0.859403 0.635737
0.995941 0.859861 0.655299
1.000000 0.860563 0.676173
1.000000 0.861173 0.697597
1.000000 0.862364 0.719905
0.000000 0.892058 0.519402
0.000000 0.892058 0.519402
0.000000 0.892058 0.519341
0.000000 0.892088 0.519219
0.000000 0.892058 0.519188
0.000000 0.892027 0.519310
0.000000 0.891814 0.519890
0.173281 0.891386 0.521111
0.256931 0.890684 0.523278
0.327153 0.889677 0.526726
0.391730 0.888304 0.531701
0.452125 0.886687 0.538476
0.508904 0.884794 0.547021
0.561975 0.882719 0.557061
0.610224 0.880705 0.567651
0.636622 0.880919 0.561852
0.661524 0.881376 0.552148
0.688289 0.881651 0.541283
0.716945 0.881743 0.529229
0.747341 0.881559 0.515892
0.785397 0.880308 0.524376
0.823484 0.878935 0.545464
0.857542 0.877928 0.566308
0.888029 0.877226 0.586694
0.915343 0.876890 0.606592
0.939727 0.876890 0.625788
0.963622 0.879088 0.645441
0.982391 0.880644 0.665370
0.993530 0.876493 0.676081
1.000000 0.875395 0.694240
1.000000 0.874907 0.714778
1.000000 0.874937 0.736263
0.000000 0.915740 0.542626
0.000000 0.915709 0.542718
0.000000 0.915679 0.542901
0.000000 0.915557 0.543267
0.000000 0.915312 0.543938
0.076631 0.914916 0.545098
0.184176 0.914336 0.546960
0.257359 0.913451 0.549645
0.322606 0.912291 0.553613
0.383917 0.910796 0.559106
0.442145 0.908995 0.566217
0.497841 0.906920 0.575067
0.550256 0.904692 0.585382
0.598474 0.902403 0.596460
0.641444 0.900389 0.607019
