其他预设/【233】日式怀旧街道调色预设208款/1.3D LUT预设（视频调色-PR-AE-PS-FCPX-达芬奇用）/3.日式城市街拍预设 (自动曝光预设)/JA – Controlled Contrast 3 (Auto-Exposure).cube
# Created by Adobe Lightroom plugin Export LUT (1.17.0)
# www.johnrellis.com/lightroom/exportlut.htm
# Preset: JA – Controlled Contrast 3 (Auto-Exposure)
# Color profile: /Library/Application Support/Adobe/Color/Profiles/Recommended/AdobeRGB1998.icc
LUT_3D_SIZE 32
0.064149 0.059663 0.054932
0.064149 0.059663 0.054932
0.064149 0.059663 0.054932
0.068544 0.059327 0.054749
0.083711 0.055726 0.054139
0.112825 0.042451 0.052644
0.159792 0.006592 0.048890
0.217258 0.000000 0.041566
0.276036 0.000000 0.029877
0.325353 0.000000 0.017090
0.362585 0.000000 0.007111
0.392340 0.000000 0.000000
0.420081 0.000000 0.000000
0.451087 0.000000 0.000000
0.487861 0.000000 0.000000
0.529198 0.000000 0.000000
0.573754 0.000000 0.000000
0.619745 0.000000 0.000000
0.665858 0.000000 0.000000
0.711818 0.000000 0.000000
0.754788 0.000000 0.000000
0.792996 0.000000 0.015534
0.825040 0.000000 0.065797
0.851438 0.000000 0.092988
0.873533 0.000000 0.118959
0.892699 0.000000 0.144350
0.910277 0.000000 0.168734
0.927642 0.000000 0.192233
0.946044 0.000000 0.214206
0.965637 0.000000 0.234195
0.985840 0.000000 0.252689
1.000000 0.000000 0.270054
0.064149 0.059663 0.054932
0.064149 0.059663 0.054932
0.064088 0.060151 0.054871
0.068910 0.060212 0.054597
0.083894 0.058900 0.053834
0.113313 0.051179 0.051972
0.160494 0.024506 0.047669
0.217624 0.000000 0.039307
0.276158 0.000000 0.026978
0.325475 0.000000 0.013794
0.362615 0.000000 0.003754
0.392401 0.000000 0.000000
0.420081 0.000000 0.000000
0.451118 0.000000 0.000000
0.487953 0.000000 0.000000
0.529320 0.000000 0.000000
0.573785 0.000000 0.000000
0.619898 0.000000 0.000000
0.665919 0.000000 0.000000
0.711849 0.000000 0.000000
0.754849 0.000000 0.000000
0.793057 0.000000 0.012726
0.825040 0.000000 0.065126
0.851408 0.000000 0.092836
0.873503 0.000000 0.118868
0.892668 0.000000 0.144259
0.910277 0.000000 0.168429
0.927611 0.000000 0.192447
0.945983 0.000000 0.214206
0.965606 0.000000 0.234287
0.985840 0.000000 0.252567
1.000000 0.000000 0.269932
0.064149 0.059663 0.054932
0.064088 0.060151 0.054871
0.064607 0.060060 0.054841
0.069276 0.061097 0.054444
0.084321 0.062104 0.053315
0.113954 0.060578 0.050996
0.160922 0.048219 0.045869
0.218143 0.005371 0.036164
0.276493 0.000000 0.022766
0.325658 0.000000 0.009430
0.362585 0.000000 0.000000
0.392370 0.000000 0.000000
0.420111 0.000000 0.000000
0.451240 0.000000 0.000000
0.487953 0.000000 0.000000
0.529564 0.000000 0.000000
0.573999 0.000000 0.000000
0.619989 0.000000 0.000000
0.666133 0.000000 0.000000
0.711971 0.000000 0.000000
0.754940 0.000000 0.000000
0.793118 0.000000 0.010285
0.825010 0.000000 0.064271
0.851377 0.000000 0.092653
0.873472 0.000000 0.118715
0.892638 0.000000 0.143893
0.910216 0.000000 0.168521
0.927550 0.000000 0.192325
0.945983 0.000000 0.214206
0.965545 0.000000 0.234226
0.985809 0.000000 0.252506
1.000000 0.000000 0.269841
0.064210 0.062959 0.054444
0.065278 0.062776 0.054414
0.066163 0.063081 0.054322
0.070192 0.065126 0.053773
0.084779 0.068635 0.052216
0.115145 0.072297 0.048920
0.162295 0.074006 0.041047
0.219333 0.068330 0.029084
0.277440 0.042023 0.013764
0.325994 0.000000 0.000610
0.362707 0.000000 0.000000
0.392401 0.000000 0.000000
0.420233 0.000000 0.000000
0.451362 0.000000 0.000000
0.488319 0.000000 0.000000
0.529900 0.000000 0.000000
0.574365 0.000000 0.000000
0.620294 0.000000 0.000000
0.666377 0.000000 0.000000
0.712154 0.000000 0.000000
0.755123 0.000000 0.000000
0.793149 0.000000 0.005921
0.825010 0.000000 0.062959
0.851316 0.000000 0.092164
0.873350 0.000000 0.118257
0.892515 0.000000 0.144045
0.910094 0.000000 0.168490
0.927459 0.000000 0.192416
0.945892 0.000000 0.214176
0.965515 0.000000 0.233951
0.985748 0.000000 0.252293
1.000000 0.000000 0.269566
0.064881 0.072541 0.052766
0.066285 0.072724 0.052644
0.068574 0.072755 0.053315
0.073365 0.073915 0.052827
0.085115 0.078157 0.050416
0.114260 0.087709 0.045411
0.164004 0.098604 0.034272
0.221408 0.104677 0.017334
0.278782 0.102022 0.000458
0.326574 0.090272 0.000000
0.362799 0.066743 0.000000
0.392370 0.000061 0.000000
0.420264 0.000000 0.000000
0.451667 0.000000 0.000000
0.488716 0.000000 0.000000
0.530297 0.000000 0.000000
0.574853 0.000000 0.000000
0.620752 0.000000 0.000000
0.666835 0.000000 0.000000
0.712581 0.000000 0.000000
0.755337 0.000000 0.000000
0.793301 0.000000 0.000000
0.825010 0.000000 0.060639
0.851194 0.000000 0.090822
0.873198 0.000000 0.118044
0.892302 0.000000 0.143801
0.909880 0.000000 0.168643
0.927276 0.000000 0.192325
0.945769 0.000000 0.214023
0.965423 0.000000 0.233799
0.985687 0.000000 0.251957
1.000000 0.000000 0.269291
0.066377 0.090578 0.050446
0.068757 0.090578 0.050324
0.071962 0.090486 0.050141
0.079011 0.090455 0.050538
0.091737 0.094942 0.047669
0.114443 0.104097 0.040833
0.159823 0.121828 0.025635
0.220218 0.137606 0.003693
0.280522 0.144259 0.000000
0.327276 0.139834 0.000000
0.362921 0.128054 0.000000
0.392309 0.110933 0.000000
0.420325 0.090181 0.000000
0.452003 0.060639 0.000000
0.489265 0.000000 0.000000
0.530999 0.000000 0.000000
0.575616 0.000000 0.000000
0.621454 0.000000 0.000000
0.667384 0.000000 0.000000
0.713069 0.000000 0.000000
0.755673 0.000000 0.000000
0.793454 0.000000 0.000000
0.824979 0.000000 0.055695
0.851041 0.000000 0.089784
0.872953 0.000000 0.117433
0.892058 0.000000 0.143526
0.909636 0.000000 0.168368
0.927062 0.000000 0.192294
0.945617 0.000000 0.213901
0.965301 0.000000 0.233494
0.985565 0.000000 0.251652
1.000000 0.000000 0.268772
0.069642 0.120668 0.041871
0.073640 0.120516 0.041596
0.078920 0.120638 0.042206
0.088838 0.120638 0.042359
0.102571 0.120821 0.041840
0.126131 0.131594 0.031281
0.159548 0.145022 0.017029
0.213687 0.165713 0.000000
0.275395 0.180697 0.000000
0.327031 0.182650 0.000000
0.363104 0.174289 0.000000
0.392248 0.161593 0.000000
0.420356 0.147738 0.000000
0.452461 0.133303 0.000000
0.490028 0.117006 0.000000
0.531823 0.096284 0.000000
0.576410 0.063325 0.000000
0.622309 0.000000 0.000000
0.668208 0.000000 0.000000
0.713741 0.000000 0.000000
0.756069 0.000000 0.000000
0.793637 0.000000 0.000000
0.824918 0.000000 0.047486
0.850858 0.000000 0.087556
0.872679 0.000000 0.116487
0.891722 0.000000 0.143282
0.909300 0.000000 0.168429
0.926787 0.000000 0.192050
0.945434 0.000000 0.213596
0.965118 0.000000 0.233127
0.985443 0.000000 0.250980
1.000000 0.000000 0.268132
0.075837 0.162173 0.023896
0.081392 0.161929 0.024628
0.088319 0.161868 0.024048
0.101076 0.161654 0.023865
0.118624 0.161440 0.023865
0.140505 0.165743 0.018647
0.172793 0.179171 0.000671
0.213382 0.194095 0.000000
0.267582 0.211978 0.000000
0.319951 0.219669 0.000000
0.359930 0.215274 0.000000
0.392126 0.205142 0.000000
0.420478 0.193576 0.000000
0.452979 0.183322 0.000000
0.490883 0.173678 0.000000
0.532769 0.163119 0.000000
0.577447 0.150790 0.000000
0.623224 0.134798 0.000000
0.669123 0.114260 0.000000
0.714473 0.085084 0.000000
0.756588 0.009491 0.000000
0.793820 0.000000 0.000000
0.824826 0.000000 0.036439
0.850614 0.000000 0.085176
0.872313 0.000000 0.115480
0.891325 0.000000 0.143008
0.908904 0.000000 0.168063
0.926482 0.000000 0.191562
0.945159 0.000000 0.213199
0.964935 0.001282 0.232456
0.985290 0.068666 0.250340
1.000000 0.094789 0.267430
0.085512 0.209964 0.000000
0.091707 0.209934 0.000000
0.099550 0.209873 0.000000
0.114961 0.209476 0.000000
0.135042 0.209110 0.000000
0.157900 0.208286 0.000000
0.187106 0.216953 0.000000
0.223575 0.229862 0.000000
0.266270 0.243076 0.000000
0.311833 0.252384 0.000000
0.352819 0.251530 0.000000
0.386389 0.243839 0.000000
0.419104 0.235050 0.000000
0.453651 0.227390 0.000000
0.491829 0.220890 0.000000
0.533928 0.214755 0.000000
0.578637 0.207858 0.000000
0.624537 0.199771 0.000000
0.670192 0.189609 0.000000
0.715328 0.177310 0.000000
0.757137 0.163088 0.000000
0.794034 0.146700 0.000000
0.824765 0.130129 0.019989
0.850309 0.115724 0.081575
0.871885 0.106661 0.113985
0.890837 0.104555 0.142031
0.908476 0.110201 0.167697
0.926116 0.119997 0.191226
0.944884 0.130800 0.212375
0.964721 0.140841 0.231724
0.985107 0.150637 0.249485
1.000000 0.160830 0.266484
0.096223 0.257481 0.000000
0.103182 0.257267 0.000000
0.111696 0.257115 0.000000
0.127901 0.256565 0.000000
0.149538 0.255863 0.000000
0.173800 0.254734 0.000000
0.200137 0.254063 0.000000
0.232334 0.264073 0.000000
0.268681 0.273991 0.000000
0.308324 0.282902 0.000000
0.344030 0.283238 0.000000
0.378882 0.278447 0.000000
0.411353 0.271183 0.000000
0.448859 0.266423 0.000000
0.492988 0.264317 0.000000
0.535363 0.260838 0.000000
0.580102 0.257328 0.000000
0.625757 0.252720 0.000000
0.671382 0.246891 0.000000
0.716213 0.239628 0.000000
0.757748 0.230655 0.000000
0.794186 0.220310 0.000000
0.824613 0.209628 0.000153
0.849943 0.199893 0.077882
0.871397 0.192844 0.112001
0.890288 0.189059 0.140993
0.907958 0.188846 0.166903
0.925658 0.191440 0.190646
0.944579 0.195224 0.211734
0.964477 0.199405 0.230686
0.984924 0.204044 0.248325
1.000000 0.209537 0.265202
0.107729 0.297063 0.000000
0.114382 0.296788 0.000000
0.122713 0.296544 0.000000
0.138613 0.295903 0.000000
0.160037 0.294865 0.000000
0.184329 0.293462 0.000000
0.210269 0.291722 0.000000
0.237888 0.293370 0.000000
0.269108 0.300267 0.000000
0.303166 0.306767 0.000000
0.339696 0.312566 0.000000
0.369970 0.308965 0.000000
0.402808 0.303899 0.000000
0.439063 0.300298 0.000000
0.483009 0.300816 0.000000
0.533165 0.303136 0.000000
0.581537 0.303105 0.000000
0.627192 0.300969 0.000000
0.672724 0.297612 0.000000
0.717342 0.293034 0.000000
0.758450 0.286625 0.000000
0.794430 0.278447 0.000000
0.824491 0.269627 0.000000
0.849516 0.261021 0.072633
0.870817 0.253941 0.109621
0.889677 0.248814 0.139803
0.907378 0.246220 0.166110
0.925200 0.245731 0.189639
0.944213 0.246342 0.210575
0.964202 0.247623 0.229435
0.984680 0.249516 0.246983
1.000000 0.252476 0.263828
0.119692 0.327306 0.000000
0.125612 0.327062 0.000000
0.133150 0.326726 0.000000
0.147768 0.326024 0.000000
0.167788 0.324956 0.000000
0.190982 0.323430 0.000000
0.215854 0.321721 0.000000
0.241917 0.319402 0.000000
0.268925 0.322484 0.000000
0.298436 0.327459 0.000000
0.330571 0.332219 0.000000
0.364965 0.336797 0.000000
0.393103 0.332433 0.000000
0.428595 0.330663 0.000000
0.470924 0.332555 0.000000
0.519982 0.337316 0.000000
0.573632 0.342779 0.000000
0.628779 0.346777 0.000000
0.674128 0.345220 0.000000
0.718471 0.342412 0.000000
0.759091 0.337346 0.000000
0.794553 0.330480 0.000000
0.824186 0.322148 0.000000
0.848997 0.313695 0.065827
0.870176 0.306035 0.106691
0.889006 0.299962 0.138033
0.906706 0.295659 0.164920
0.924681 0.293095 0.188357
0.943816 0.291691 0.209232
0.963897 0.290929 0.227848
0.984405 0.291112 0.245365
1.000000 0.292119 0.262089
0.132967 0.351385 0.000000
0.138186 0.351171 0.000000
0.144533 0.350866 0.000000
0.157565 0.350195 0.000000
0.175814 0.349126 0.000000
0.196933 0.347631 0.000000
0.220218 0.345892 0.000000
0.244755 0.343694 0.000000
0.269810 0.341741 0.000000
0.295476 0.346014 0.000000
0.323766 0.350347 0.000000
0.354894 0.354894 0.000000
0.388495 0.359686 0.000000
0.417212 0.356664 0.000000
0.458137 0.360449 0.000000
0.505699 0.367254 0.000000
0.558526 0.375341 0.000000
0.614008 0.382879 0.000000
0.670466 0.388586 0.000000
0.719661 0.389166 0.000000
0.759823 0.385138 0.000000
0.794736 0.378698 0.000000
0.823911 0.370611 0.000000
0.848447 0.361822 0.055390
0.869474 0.353491 0.102846
0.888243 0.346410 0.135592
0.906035 0.340795 0.163058
0.924102 0.336736 0.186831
0.943389 0.333562 0.207370
0.963592 0.331487 0.226169
0.984131 0.330053 0.243320
1.000000 0.329595 0.260105
0.148470 0.372686 0.000000
0.152895 0.372442 0.000000
0.158022 0.372198 0.000000
0.169436 0.371649 0.000000
0.185336 0.370550 0.000000
0.204593 0.369207 0.006714
0.225772 0.367590 0.020691
0.248478 0.365484 0.038483
0.272038 0.363073 0.058350
0.295628 0.363378 0.055604
0.320745 0.367864 0.013550
0.348852 0.372839 0.000000
0.379889 0.378454 0.000000
0.414343 0.384802 0.000000
0.444495 0.384009 0.000000
0.490578 0.393011 0.000000
0.542199 0.403479 0.000000
0.597314 0.413977 0.000000
0.654170 0.423102 0.000000
0.710170 0.429572 0.000000
0.760433 0.430823 0.000000
0.794858 0.424659 0.000000
0.823575 0.416297 0.000000
0.847807 0.407233 0.032349
0.868681 0.398199 0.097902
0.887388 0.390112 0.132876
0.905272 0.383215 0.160800
0.923522 0.377722 0.184573
0.942931 0.373480 0.205295
0.963226 0.370062 0.223880
0.983795 0.367590 0.241123
1.000000 0.365881 0.257786
0.165591 0.394171 0.041291
0.169284 0.393957 0.044160
0.173739 0.393683 0.044770
0.183444 0.393103 0.050111
0.197543 0.392157 0.057710
0.214786 0.390875 0.063264
0.234073 0.389319 0.070100
0.254948 0.387396 0.077028
0.276799 0.385168 0.084657
0.299199 0.382696 0.092958
0.321813 0.385931 0.084230
0.347356 0.391760 0.065431
0.376104 0.398352 0.014771
0.408392 0.405859 0.000000
0.444221 0.414038 0.000000
0.475196 0.414649 0.000000
0.524956 0.427344 0.000000
0.579339 0.440497 0.000000
0.636316 0.453010 0.000000
0.693904 0.463416 0.000000
0.746456 0.468452 0.000000
0.790707 0.467384 0.000000
0.823178 0.460334 0.000000
0.847105 0.450568 0.000458
0.867796 0.440803 0.092317
0.886534 0.431769 0.129000
0.904479 0.423774 0.157961
0.922911 0.417212 0.181949
0.942473 0.411841 0.202640
0.962829 0.407446 0.221042
0.983490 0.403876 0.238315
1.000000 0.401099 0.255070
0.184360 0.418402 0.079347
0.187503 0.418189 0.079896
0.191257 0.417945 0.080720
0.199832 0.417365 0.082856
0.212284 0.416480 0.086000
0.227604 0.415259 0.090242
0.245121 0.413764 0.094667
0.264378 0.411994 0.100404
0.284916 0.409827 0.106844
0.305913 0.407416 0.113985
0.327245 0.405646 0.119448
0.350469 0.412268 0.106691
0.376837 0.419684 0.089479
0.406775 0.427893 0.064485
0.440192 0.436805 0.000000
0.477119 0.446479 0.000000
0.508141 0.447517 0.000000
0.560235 0.462684 0.000000
0.617273 0.478309 0.000000
0.675929 0.492561 0.000000
0.730922 0.501732 0.000000
0.778164 0.504173 0.000000
0.815824 0.500237 0.000000
0.845823 0.492409 0.000000
0.866880 0.482002 0.084321
0.885588 0.472023 0.124605
0.903624 0.462959 0.154086
0.922210 0.455451 0.178561
0.941955 0.449165 0.199527
0.962432 0.443763 0.217868
0.983124 0.439277 0.235264
1.000000 0.435676 0.252110
0.204288 0.445869 0.104128
0.206821 0.445716 0.104280
0.210391 0.445472 0.105318
0.217868 0.444862 0.106966
0.228794 0.444038 0.109529
0.242893 0.442878 0.112978
0.258976 0.441444 0.117006
0.276829 0.439643 0.121798
0.295872 0.437568 0.127199
0.315892 0.435187 0.133120
0.336370 0.432593 0.139834
0.357397 0.434302 0.138766
0.381476 0.442237 0.126101
0.408911 0.450874 0.109560
0.439796 0.460395 0.087068
0.474098 0.470436 0.040925
0.511955 0.481117 0.000000
0.543969 0.483162 0.000000
0.596643 0.499153 0.000000
0.656153 0.517144 0.000000
0.713619 0.530846 0.000000
0.763943 0.537255 0.000000
0.804593 0.536156 0.000000
0.836759 0.529931 0.000000
0.863096 0.520989 0.072480
0.884581 0.510979 0.118837
0.902739 0.501152 0.150057
0.921569 0.492683 0.174533
0.941436 0.485542 0.195560
0.961975 0.479438 0.214359
0.982757 0.474128 0.231601
1.000000 0.469612 0.248539
0.224338 0.476051 0.125765
0.226719 0.475868 0.126070
0.229923 0.475654 0.126741
0.236637 0.475074 0.128237
0.246708 0.474250 0.130678
0.259495 0.473121 0.133333
0.274296 0.471687 0.137057
0.290959 0.469917 0.140932
0.309087 0.467903 0.145968
0.328161 0.465614 0.151217
0.347570 0.463081 0.156771
0.367498 0.460304 0.163027
0.389410 0.466224 0.155917
0.414649 0.475349 0.142977
0.443275 0.485145 0.126986
0.475196 0.495705 0.105165
0.510643 0.506828 0.073182
0.549462 0.518425 0.000000
0.583062 0.522026 0.000000
0.633387 0.536065 0.000000
0.694484 0.555444 0.000000
0.748013 0.566461 0.000000
0.792020 0.568933 0.000000
0.826749 0.564752 0.000000
0.854765 0.556847 0.050111
0.878782 0.547539 0.109255
0.901122 0.538231 0.144320
0.920836 0.529168 0.169863
0.940887 0.521263 0.191104
0.961517 0.514397 0.209934
0.982361 0.508293 0.227481
1.000000 0.503075 0.244633
0.244785 0.509117 0.145296
0.246891 0.508965 0.145876
0.249851 0.508659 0.146304
0.255924 0.508232 0.147524
0.265171 0.507378 0.149325
0.276982 0.506371 0.152041
0.290867 0.505028 0.154940
0.306584 0.503380 0.158419
0.323857 0.501488 0.162692
0.341924 0.499336 0.167483
0.360906 0.496803 0.172335
0.380316 0.494087 0.177707
0.400275 0.492683 0.181460
0.423774 0.501976 0.170687
0.450294 0.512078 0.157473
0.480140 0.522850 0.141360
0.513237 0.534203 0.120119
0.549645 0.546014 0.090089
0.589441 0.558251 0.008026
0.624323 0.562921 0.000000
0.672084 0.574578 0.000000
0.730159 0.591608 0.000000
0.777981 0.598413 0.000000
0.815640 0.596979 0.000000
0.845731 0.590539 0.000000
0.871031 0.581689 0.095216
0.894194 0.572412 0.134096
0.917388 0.564050 0.162936
0.940307 0.556451 0.185946
0.961059 0.548882 0.205173
0.981933 0.542107 0.222751
1.000000 0.536156 0.240146
0.264714 0.545373 0.162539
0.266819 0.545220 0.163180
0.269566 0.545037 0.163668
0.275090 0.544549 0.164492
0.283726 0.543847 0.166171
0.294804 0.542779 0.168215
0.307958 0.541466 0.171176
0.323003 0.539910 0.174044
0.339452 0.538140 0.177615
0.357122 0.535973 0.181582
0.375616 0.533684 0.185855
0.394751 0.531029 0.190341
0.414221 0.528191 0.195071
0.435431 0.531182 0.193393
0.460334 0.541283 0.182589
0.488319 0.552087 0.169345
0.519341 0.563409 0.152865
0.553521 0.575280 0.132082
0.590753 0.587366 0.103059
0.631067 0.599695 0.045197
0.666804 0.604791 0.000000
0.709926 0.612207 0.000000
0.762081 0.624414 0.000000
0.803220 0.626551 0.000000
0.835752 0.622095 0.000000
0.862669 0.614130 0.074800
0.886748 0.605097 0.120821
0.910491 0.596704 0.152255
0.935058 0.589410 0.177554
0.959716 0.582727 0.199039
0.981476 0.575616 0.217380
1.000000 0.568902 0.234989
0.284031 0.584405 0.177646
0.285801 0.584283 0.177859
0.288365 0.584100 0.178164
0.293614 0.583673 0.179049
0.301884 0.582910 0.180453
0.312383 0.581933 0.182284
0.324865 0.580743 0.184390
0.339452 0.579309 0.186984
0.355383 0.577569 0.189975
0.372686 0.575555 0.193393
0.390875 0.573327 0.196933
0.409918 0.570855 0.200656
0.429297 0.568078 0.204501
0.449134 0.565087 0.208713
0.472297 0.572686 0.202152
0.498817 0.583337 0.191073
0.528130 0.594537 0.177798
0.560296 0.606104 0.161288
0.595148 0.617853 0.140597
0.632532 0.629480 0.112886
0.672206 0.640681 0.067170
0.707454 0.645045 0.000000
0.744656 0.647028 0.000000
0.789364 0.653132 0.000000
0.824826 0.651392 0.000000
0.853635 0.644862 0.021424
0.878874 0.636316 0.103426
0.903197 0.628077 0.139467
0.928435 0.620874 0.166354
0.953887 0.614405 0.188968
0.978637 0.607996 0.209751
1.000000 0.601404 0.229343
0.301793 0.625696 0.189273
0.303532 0.625574 0.189578
0.305943 0.625299 0.189792
0.311009 0.624933 0.190463
0.318822 0.624323 0.191653
0.329015 0.623377 0.193240
0.341283 0.622278 0.195071
0.355352 0.620813 0.197086
0.371069 0.619226 0.199527
0.388098 0.617304 0.202243
0.406226 0.615290 0.205325
0.425208 0.612848 0.208469
0.444831 0.610254 0.211887
0.464851 0.607385 0.215427
0.485664 0.606287 0.217319
0.510948 0.616602 0.207767
0.538659 0.627222 0.196506
0.568811 0.637995 0.183047
0.601160 0.648707 0.167086
0.635706 0.659144 0.147097
0.672236 0.669245 0.121035
0.710506 0.678584 0.081056
0.744564 0.681727 0.000000
0.774929 0.677699 0.000000
0.812741 0.678401 0.000000
0.843839 0.673823 0.000000
0.870451 0.666163 0.077760
0.895537 0.658167 0.122438
0.921386 0.651240 0.152926
0.947692 0.645075 0.177218
0.973419 0.639002 0.199008
0.997742 0.632685 0.219852
0.318273 0.667720 0.198581
0.320012 0.667597 0.198642
0.322240 0.667445 0.198917
0.327245 0.667018 0.199588
0.334691 0.666407 0.200473
0.344640 0.665553 0.201663
0.356634 0.664485 0.203189
0.370336 0.663264 0.204959
0.385962 0.661738 0.206973
0.402899 0.659968 0.209415
0.421027 0.658015 0.211887
0.440040 0.655848 0.214633
0.459785 0.653376 0.217441
0.480140 0.650690 0.220523
0.500877 0.647852 0.223606
0.523613 0.650874 0.221103
0.549645 0.660304 0.211429
0.577783 0.669886 0.200351
0.607874 0.679255 0.187320
0.639765 0.688411 0.171969
0.673182 0.696956 0.153017
0.708095 0.704829 0.129091
0.744167 0.711879 0.095064
0.776455 0.713283 0.020356
0.800656 0.704189 0.000000
0.833158 0.700862 0.000000
0.861448 0.694575 0.003510
0.887449 0.687098 0.099550
0.913939 0.680507 0.135836
0.941192 0.674769 0.162997
0.967956 0.669154 0.186343
0.993347 0.663203 0.208225
0.333379 0.707729 0.206546
0.335088 0.707607 0.206607
0.337285 0.707424 0.206882
0.342016 0.707088 0.207401
0.349371 0.706508 0.208164
0.358831 0.705776 0.209171
0.370672 0.704829 0.210391
0.384222 0.703670 0.211887
0.399542 0.702235 0.213687
0.416388 0.700679 0.215518
0.434302 0.698878 0.217746
0.453346 0.696864 0.220096
0.473213 0.694636 0.222568
0.493721 0.692164 0.225223
0.514824 0.689509 0.227909
0.536278 0.686702 0.230747
0.560357 0.692897 0.224491
0.586511 0.700984 0.215061
0.614343 0.708797 0.204135
0.643549 0.716213 0.191714
0.674128 0.723140 0.177462
0.705867 0.729397 0.160006
0.738735 0.735012 0.138949
0.772641 0.739895 0.109926
0.803464 0.740230 0.068879
0.822965 0.727413 0.000000
0.851835 0.721523 0.000000
0.878996 0.714839 0.061433
0.906157 0.708736 0.113191
0.934295 0.703578 0.145327
0.962188 0.698604 0.170962
0.988739 0.693141 0.194430
0.347448 0.743954 0.214450
0.349004 0.743862 0.214511
0.351141 0.743709 0.214664
0.355718 0.743343 0.215152
0.362676 0.742855 0.215763
0.371984 0.742214 0.216709
0.383459 0.741329 0.217777
0.396674 0.740261 0.219089
0.411627 0.739010 0.220615
0.428107 0.737606 0.222324
0.445777 0.735988 0.224247
0.464820 0.734157 0.226200
0.484627 0.732143 0.228519
0.505058 0.729915 0.230777
0.526268 0.727535 0.233188
0.547936 0.724971 0.235813
0.570214 0.723812 0.236790
0.594354 0.730190 0.228702
0.619837 0.736294 0.219821
0.646693 0.742031 0.209751
0.674678 0.747402 0.198154
0.703761 0.752316 0.184878
0.733974 0.756680 0.169009
0.765042 0.760555 0.149813
0.797177 0.763851 0.124636
0.826932 0.763607 0.091798
0.843107 0.748440 0.062806
0.869963 0.741421 0.000000
0.897978 0.735897 0.079225
0.927062 0.731472 0.121889
0.956146 0.727260 0.152102
0.983978 0.722530 0.177920
0.360510 0.775051 0.223636
0.362127 0.774929 0.223880
0.364111 0.774807 0.224033
0.368505 0.774502 0.224308
0.375250 0.774044 0.224887
0.384131 0.773465 0.225650
0.394965 0.772702 0.226566
0.407782 0.771756 0.227787
0.422400 0.770626 0.229129
0.438300 0.769345 0.230655
0.455695 0.767880 0.232486
0.474159 0.766262 0.234287
0.493599 0.764462 0.236332
0.514000 0.762509 0.238499
0.534936 0.760372 0.240879
0.556512 0.758053 0.243320
0.578637 0.755581 0.245853
0.601068 0.756741 0.243626
0.624506 0.761440 0.235935
0.649195 0.765835 0.227298
0.674983 0.769955 0.217624
0.701839 0.773739 0.206790
0.729702 0.777188 0.194308
0.758511 0.780270 0.179660
0.788296 0.782956 0.161746
0.819028 0.785245 0.139376
0.848386 0.785031 0.110658
0.862730 0.768795 0.090486
0.888853 0.761898 0.007477
0.919463 0.758511 0.087861
0.949828 0.755276 0.127413
0.979034 0.751431 0.157595
0.373480 0.801572 0.234836
0.374914 0.801480 0.234897
0.376837 0.801358 0.235019
0.380896 0.801114 0.235447
0.387335 0.800656 0.235904
0.395758 0.800137 0.236637
0.406165 0.799435 0.237583
0.418311 0.798642 0.238621
0.432258 0.797635 0.240024
0.447730 0.796475 0.241459
0.464454 0.795193 0.243168
0.482399 0.793759 0.245029
0.501366 0.792142 0.246983
0.521233 0.790372 0.249271
0.541863 0.788449 0.251621
0.563012 0.786404 0.254154
0.584863 0.784207 0.256901
0.607019 0.781827 0.259800
0.628901 0.784482 0.254337
0.651728 0.787869 0.246647
0.675502 0.791043 0.238193
0.700435 0.794095 0.228763
0.726375 0.796841 0.218021
0.753262 0.799405 0.205844
0.781186 0.801755 0.191653
0.810147 0.803891 0.174685
0.840177 0.805844 0.153506
0.869780 0.806180 0.126558
0.883452 0.789944 0.108736
0.910491 0.784329 0.059968
0.943206 0.782620 0.090700
0.973938 0.779812 0.130770
0.386847 0.824704 0.248569
0.388067 0.824643 0.248722
0.389899 0.824521 0.248905
0.393744 0.824308 0.249210
0.399847 0.823941 0.249790
0.407813 0.823453 0.250553
0.417639 0.822843 0.251530
0.429114 0.822110 0.252567
0.442420 0.821195 0.253971
0.457252 0.820188 0.255589
0.473335 0.819028 0.257328
0.490669 0.817746 0.259342
0.508934 0.816312 0.261631
0.528283 0.814755 0.264042
0.548363 0.813046 0.266667
