其他预设/【233】日式怀旧街道调色预设208款/1.3D LUT预设（视频调色-PR-AE-PS-FCPX-达芬奇用）/3.日式城市街拍预设 (自动曝光预设)/JA – Chrome 4 (Auto-Exposure).cube
# Created by Adobe Lightroom plugin Export LUT (1.17.0)
# www.johnrellis.com/lightroom/exportlut.htm
# Preset: JA – Chrome 4 (Auto-Exposure)
# Color profile: /Library/Application Support/Adobe/Color/Profiles/Recommended/AdobeRGB1998.icc
LUT_3D_SIZE 8
DOMAIN_MIN 0.000000 0.000000 0.000000
DOMAIN_MAX 0.903226 0.903226 0.903226
0.102937 0.100343 0.105287
0.133059 0.103029 0.108888
0.211551 0.107851 0.114443
0.391424 0.102480 0.113222
0.604944 0.090730 0.108919
0.762448 0.103182 0.124514
0.876616 0.159548 0.176272
0.954925 0.263828 0.273320
0.107851 0.132540 0.111116
0.136538 0.131991 0.111635
0.213993 0.142519 0.119509
0.398993 0.163119 0.116121
0.610010 0.175448 0.112795
0.765011 0.185306 0.132052
0.877348 0.220432 0.187961
0.954192 0.304173 0.287846
0.112795 0.211612 0.118624
0.145174 0.212741 0.117891
0.228489 0.219760 0.118288
0.413123 0.282780 0.123812
0.626246 0.331456 0.135988
0.773159 0.339696 0.167971
0.878874 0.359472 0.237858
0.950835 0.415473 0.340307
0.093660 0.370550 0.112093
0.152529 0.372290 0.110201
0.269078 0.377996 0.104128
0.419104 0.403265 0.096956
0.612055 0.453162 0.128634
0.780667 0.509361 0.255009
0.878080 0.524315 0.337682
0.943786 0.555322 0.425818
0.000000 0.541192 0.092531
0.139864 0.541741 0.090150
0.281743 0.543267 0.082765
0.428565 0.550378 0.071626
0.591577 0.571771 0.083284
0.747555 0.590051 0.189731
0.868345 0.637842 0.380957
0.933532 0.690639 0.528130
0.000000 0.676265 0.109194
0.136324 0.676356 0.108186
0.279698 0.676753 0.103975
0.421241 0.677302 0.097353
0.569879 0.686885 0.117189
0.723079 0.702419 0.172000
0.843992 0.701564 0.303014
0.925597 0.741024 0.503258
0.150942 0.790677 0.189853
0.196597 0.790585 0.190402
0.303502 0.790280 0.190585
0.427283 0.789731 0.192599
0.555291 0.788754 0.194919
0.693385 0.796414 0.249546
0.823758 0.804013 0.317906
0.914031 0.793332 0.431189
0.317693 0.886259 0.327947
0.336522 0.886137 0.328649
0.395666 0.885527 0.331548
0.481819 0.884550 0.336278
0.581750 0.883055 0.343694
0.690425 0.881956 0.364843
0.802701 0.883024 0.423255
0.901640 0.884123 0.485603
0.102815 0.102174 0.134676
0.135409 0.098604 0.136995
0.213352 0.105074 0.144656
0.391485 0.041718 0.147646
0.602686 0.000000 0.153780
0.760067 0.026886 0.174228
0.874266 0.163912 0.226078
0.951965 0.286900 0.317357
0.108949 0.130068 0.136355
0.136538 0.132967 0.139315
0.217258 0.139010 0.146273
0.398932 0.141024 0.151766
0.607568 0.143832 0.158450
0.762600 0.166690 0.182498
0.874784 0.226291 0.238529
0.951110 0.324987 0.330663
0.113252 0.210605 0.149691
0.141665 0.215488 0.146487
0.229618 0.221347 0.147555
0.419745 0.285100 0.167910
0.623835 0.322087 0.184482
0.770260 0.336370 0.219669
0.875731 0.368231 0.285954
0.947692 0.431312 0.377569
0.079438 0.371954 0.158724
0.129915 0.377386 0.143343
0.264408 0.382757 0.138552
0.420752 0.405371 0.138552
0.615473 0.455695 0.185763
0.779049 0.517784 0.311681
0.874693 0.531914 0.376135
0.940948 0.565179 0.453651
0.000000 0.543938 0.151217
0.104372 0.545403 0.136294
0.272435 0.546563 0.131502
0.425788 0.551904 0.127077
0.592370 0.572869 0.145022
0.748226 0.593317 0.245670
0.866606 0.646418 0.421057
0.931212 0.696071 0.548058
0.000000 0.678035 0.157961
0.117006 0.678096 0.157717
0.273808 0.678340 0.155795
0.419104 0.678706 0.152651
0.569299 0.687251 0.170230
0.723140 0.702724 0.221073
0.843168 0.704524 0.342931
0.923705 0.746670 0.528496
0.157931 0.790707 0.228824
0.202335 0.790646 0.228885
0.306767 0.790311 0.229648
0.429297 0.789761 0.231479
0.556451 0.788785 0.234501
0.694118 0.796048 0.283482
0.823453 0.803952 0.347387
0.912902 0.795132 0.455329
0.328069 0.885527 0.351598
0.346075 0.885405 0.352056
0.402991 0.884886 0.354559
0.487037 0.883909 0.359258
0.585138 0.882506 0.365881
0.691981 0.881407 0.384405
0.803464 0.882658 0.440650
0.901305 0.884001 0.501152
0.099641 0.102358 0.203708
0.137667 0.095613 0.215946
0.226078 0.086763 0.225284
0.390112 0.000000 0.264286
0.593286 0.000000 0.282628
0.749020 0.000000 0.294377
0.864591 0.190097 0.342718
0.942870 0.341070 0.417121
0.111055 0.137240 0.200290
0.133120 0.131044 0.212222
0.228672 0.122164 0.228153
0.397711 0.074952 0.260868
0.597345 0.000000 0.277501
0.752407 0.086671 0.295201
0.864836 0.251713 0.354162
0.942016 0.373388 0.427405
0.112764 0.204379 0.212497
0.139101 0.209934 0.217929
0.236881 0.230442 0.238499
0.422705 0.250248 0.259068
0.613489 0.282322 0.291325
0.758938 0.328801 0.335424
0.865263 0.392218 0.394232
0.938842 0.466957 0.462837
0.022004 0.367315 0.262730
0.104860 0.375219 0.260288
0.238804 0.400122 0.244083
0.427649 0.413336 0.253269
0.624079 0.474800 0.341253
0.767697 0.520714 0.411810
0.865019 0.548180 0.462135
0.932982 0.588586 0.522240
0.000000 0.540642 0.278874
0.052155 0.545312 0.272770
0.246738 0.557610 0.256291
0.419745 0.557855 0.253880
0.595117 0.576745 0.285313
0.749477 0.609064 0.387915
0.861784 0.674556 0.525200
0.924804 0.709499 0.599725
0.000000 0.675929 0.287633
0.120851 0.678096 0.286656
0.273320 0.683009 0.283696
0.421057 0.682948 0.283452
0.570428 0.688014 0.296971
0.723354 0.703944 0.344335
0.840970 0.715206 0.448615
0.918334 0.764584 0.600153
0.188724 0.788815 0.327428
0.234226 0.789120 0.331823
0.328496 0.790005 0.334569
0.442329 0.789487 0.336126
0.563836 0.788663 0.338750
0.696895 0.794797 0.374731
0.822660 0.803861 0.428717
0.909331 0.801541 0.526757
0.351659 0.883360 0.414557
0.375158 0.882933 0.419959
0.426246 0.882689 0.421637
0.503532 0.881895 0.425177
0.595911 0.880766 0.430732
0.696407 0.879576 0.441230
0.805753 0.881468 0.492683
0.900420 0.883635 0.548730
0.089021 0.093507 0.338659
0.144411 0.082429 0.355718
0.293553 0.000000 0.408576
0.429328 0.000000 0.413550
0.584527 0.000000 0.425025
0.738430 0.000000 0.430549
0.851316 0.214908 0.461128
0.928008 0.402991 0.525475
0.048981 0.128298 0.334356
0.121126 0.122316 0.350134
0.278202 0.067262 0.404242
0.431373 0.000000 0.415717
0.587243 0.000000 0.423285
0.739376 0.000000 0.432959
0.850034 0.277043 0.470558
0.927642 0.424903 0.529992
0.086946 0.220859 0.306737
0.117098 0.222721 0.314549
0.218845 0.213901 0.382116
0.437934 0.203250 0.422583
0.597681 0.228916 0.426032
0.740017 0.314672 0.453925
0.847532 0.410163 0.498634
0.927825 0.488930 0.544121
0.000000 0.348730 0.354498
0.084169 0.355993 0.361364
0.229435 0.382116 0.386145
0.445136 0.432715 0.432654
0.613397 0.464973 0.462654
0.749294 0.504936 0.499428
0.851347 0.552483 0.543084
0.923125 0.605371 0.592432
0.000000 0.534569 0.408148
0.000000 0.539055 0.408515
0.245853 0.553307 0.412024
0.441352 0.573877 0.430579
0.602319 0.585504 0.448585
0.753536 0.641962 0.540703
0.853696 0.694179 0.615198
0.917540 0.718593 0.653559
0.000000 0.671351 0.412360
0.108522 0.673426 0.412879
0.286595 0.680018 0.420386
0.448157 0.689448 0.437995
0.578698 0.689296 0.438483
0.725307 0.707057 0.478737
0.839353 0.735256 0.573388
0.912718 0.790219 0.685756
0.188510 0.785367 0.429847
0.234562 0.785733 0.432746
0.347936 0.786984 0.444404
0.470039 0.789242 0.458869
0.579583 0.788815 0.460761
0.701442 0.792996 0.480751
0.821927 0.804105 0.528710
0.904997 0.812619 0.618585
0.351904 0.881346 0.483436
0.374578 0.881010 0.486915
0.442512 0.879911 0.498756
0.527306 0.878996 0.511650
0.611810 0.878264 0.516014
0.704341 0.877379 0.521874
0.808682 0.879667 0.562890
0.899138 0.883238 0.611749
0.070069 0.071901 0.490852
0.144289 0.039765 0.502800
0.292638 0.000000 0.543786
0.491798 0.000000 0.600244
0.621698 0.000000 0.587488
0.736782 0.000000 0.563622
0.844999 0.000000 0.558495
0.926909 0.340459 0.583917
0.000000 0.114137 0.486122
0.104372 0.103456 0.497871
0.273533 0.000000 0.538354
0.481392 0.000000 0.596796
0.622004 0.000000 0.587884
0.736416 0.000000 0.563500
0.844266 0.176699 0.562310
0.925353 0.377295 0.590326
0.000000 0.233188 0.459083
0.000000 0.224796 0.475563
0.202670 0.196445 0.517967
0.445991 0.175509 0.583276
0.622065 0.176730 0.588952
0.733028 0.240848 0.566522
0.841306 0.359075 0.578271
0.920043 0.478737 0.612757
0.000000 0.342504 0.444465
0.000000 0.344884 0.449836
0.202182 0.355962 0.468421
0.410468 0.398047 0.547631
0.619379 0.432044 0.589014
0.732631 0.460883 0.582452
0.837064 0.526665 0.608759
0.912383 0.599878 0.649470
0.000000 0.495857 0.493141
0.000000 0.500664 0.497810
0.240879 0.518364 0.513939
0.436042 0.551232 0.544091
0.619135 0.603906 0.592370
0.744137 0.634913 0.621454
0.841428 0.670863 0.655695
0.911498 0.707729 0.691096
0.000000 0.664118 0.537407
0.096864 0.666438 0.539086
0.286870 0.672999 0.544945
0.453620 0.684504 0.558312
0.604273 0.701839 0.579522
0.730404 0.713771 0.600549
0.842954 0.764309 0.687312
0.909728 0.806912 0.748775
0.189303 0.780179 0.540551
0.234775 0.780575 0.542077
0.346624 0.782071 0.548394
0.476081 0.785275 0.560632
0.601617 0.790677 0.578332
0.705013 0.791043 0.581170
0.821897 0.805509 0.625177
0.902861 0.827726 0.707424
0.350469 0.878386 0.567803
0.372473 0.878080 0.569818
0.439155 0.877226 0.576776
0.531334 0.876188 0.589197
0.628321 0.875761 0.604486
0.713802 0.875486 0.608942
0.809903 0.877653 0.633021
0.897795 0.883055 0.676753
0.016663 0.000000 0.619165
0.134798 0.000000 0.627314
0.278355 0.000000 0.654902
0.450599 0.000000 0.698787
0.641413 0.000000 0.736172
0.761105 0.000000 0.719051
0.848661 0.000000 0.679042
0.924163 0.223178 0.664607
0.000000 0.090150 0.614771
0.083864 0.073793 0.622980
0.259312 0.000000 0.650904
0.439734 0.000000 0.696071
0.639612 0.000000 0.736385
0.760678 0.000000 0.718807
0.847440 0.000000 0.679744
0.922850 0.277348 0.667689
0.000000 0.193179 0.596582
0.000000 0.188205 0.605310
0.186130 0.177188 0.634668
0.404639 0.149905 0.682368
0.631434 0.168276 0.732265
0.757870 0.205325 0.717433
0.842435 0.293004 0.683314
0.918608 0.405646 0.678614
0.000000 0.339361 0.538109
0.000000 0.341466 0.550225
0.186130 0.352728 0.592706
0.378729 0.366125 0.651301
0.611933 0.421668 0.712795
0.752255 0.445747 0.714687
0.834195 0.472938 0.690150
0.911925 0.547143 0.698634
0.000000 0.463081 0.562280
0.000000 0.465217 0.565179
0.202304 0.474647 0.575494
0.376776 0.498421 0.594171
0.576898 0.561852 0.673213
0.746853 0.607538 0.712795
0.829007 0.623407 0.704158
0.905241 0.674861 0.726986
0.000000 0.617426 0.607843
0.097810 0.620264 0.610407
0.270848 0.630274 0.619776
0.430854 0.649165 0.637232
0.589136 0.679286 0.665339
0.743709 0.729183 0.713069
0.837217 0.757504 0.740871
0.905058 0.785245 0.768551
0.183536 0.768826 0.647517
0.229252 0.769833 0.649134
0.340337 0.773587 0.655238
0.469093 0.779049 0.663508
0.600427 0.785611 0.674006
0.723720 0.798032 0.694636
0.824094 0.809598 0.717159
0.904631 0.849546 0.792111
0.344610 0.874357 0.662531
0.366308 0.874144 0.663416
0.431678 0.873503 0.666285
0.522972 0.872770 0.671901
0.625452 0.872496 0.682155
0.724788 0.873960 0.697108
0.808316 0.874937 0.703029
0.896422 0.883268 0.743679
0.000000 0.000000 0.739315
0.112856 0.000000 0.743923
0.260441 0.000000 0.759609
0.413825 0.000000 0.785794
0.584192 0.000000 0.815824
0.745388 0.000000 0.831754
0.860594 0.000000 0.819028
0.928954 0.000000 0.771786
0.000000 0.030610 0.736172
0.013397 0.000000 0.740841
0.240940 0.000000 0.756832
0.403296 0.000000 0.783474
0.578576 0.000000 0.814389
0.745144 0.000000 0.831510
0.859648 0.000000 0.818509
0.927520 0.167147 0.772671
0.000000 0.175235 0.723445
0.000000 0.171298 0.728481
0.165194 0.155734 0.745693
0.370611 0.119570 0.774166
0.564172 0.087282 0.808286
0.747158 0.215000 0.829709
0.855924 0.261906 0.816312
0.922637 0.343389 0.775814
0.000000 0.345983 0.689082
0.000000 0.344854 0.696132
0.064302 0.320500 0.718776
0.347478 0.335546 0.751614
0.557488 0.377142 0.791653
0.754665 0.460273 0.826200
0.849821 0.467536 0.812955
0.914946 0.498787 0.781064
0.000000 0.453040 0.646815
0.000000 0.452613 0.647669
0.123751 0.452796 0.651942
0.348425 0.483406 0.700221
0.536004 0.521813 0.758206
0.739254 0.600855 0.809445
0.843320 0.619593 0.809689
0.905699 0.631006 0.788388
0.000000 0.586786 0.680690
0.000000 0.587549 0.681483
0.205997 0.590814 0.684504
0.353857 0.597620 0.690028
0.496437 0.611109 0.699489
0.699763 0.685603 0.771511
0.837949 0.735409 0.807736
0.898924 0.743496 0.800046
0.153780 0.729030 0.716182
0.198062 0.730007 0.717067
0.303014 0.733516 0.720333
0.425147 0.740475 0.726802
0.561975 0.752987 0.738643
0.702693 0.776516 0.761166
0.833768 0.822019 0.806577
0.903044 0.846006 0.831296
0.322759 0.864378 0.753353
0.344701 0.864500 0.753933
0.410620 0.865049 0.756252
0.505699 0.866209 0.760983
0.613977 0.868040 0.768399
0.718196 0.869780 0.774411
0.814908 0.875883 0.788174
0.895720 0.884642 0.810636
0.000000 0.000000 0.849149
0.000000 0.000000 0.851530
0.235355 0.000000 0.859586
0.380774 0.000000 0.871336
0.529046 0.000000 0.886809
0.688106 0.000000 0.900877
0.822904 0.000000 0.903441
0.932036 0.000000 0.895354
0.000000 0.000000 0.849516
0.000000 0.000000 0.851469
0.217227 0.000000 0.858396
0.370672 0.000000 0.870207
0.523003 0.000000 0.885924
0.685542 0.000000 0.900237
0.823148 0.000000 0.902953
0.930999 0.000000 0.894713
0.000000 0.166476 0.843534
0.000000 0.161227 0.845609
0.142885 0.139132 0.852995
0.340612 0.079866 0.865507
0.507347 0.000000 0.881895
0.681880 0.000000 0.896910
0.825528 0.231357 0.900633
0.927184 0.286046 0.892454
0.000000 0.336217 0.827970
0.000000 0.324559 0.830869
0.000000 0.313390 0.839628
0.327764 0.319036 0.853544
0.509545 0.333501 0.871397
0.685389 0.382116 0.889097
0.831083 0.463661 0.896696
0.921172 0.475990 0.888914
0.000000 0.487678 0.796078
0.000000 0.487373 0.799069
0.206516 0.488045 0.809506
0.342504 0.480232 0.828855
0.508324 0.496407 0.852415
0.684840 0.545678 0.876280
0.839384 0.628534 0.892638
0.914031 0.627344 0.885039
0.000000 0.601831 0.792416
0.063325 0.601190 0.792233
0.203372 0.598627 0.791379
0.316625 0.592737 0.789609
0.484016 0.608087 0.812863
0.665431 0.652857 0.851743
0.831357 0.729397 0.882841
0.907988 0.742489 0.882292
0.204807 0.724819 0.812558
0.229801 0.724758 0.812467
0.298955 0.724331 0.812253
0.391363 0.723507 0.811734
0.498299 0.722988 0.810849
0.614221 0.724361 0.809628
0.794186 0.782864 0.855894
0.904021 0.828244 0.881407
0.330571 0.843046 0.832181
0.346746 0.843168 0.832242
0.398535 0.843626 0.832547
0.478981 0.844541 0.833219
0.576410 0.846372 0.834592
0.681636 0.850187 0.837827
0.791379 0.859800 0.846921
0.900694 0.892485 0.880674
