其他预设/【233】日式怀旧街道调色预设208款/1.3D LUT预设（视频调色-PR-AE-PS-FCPX-达芬奇用）/3.日式城市街拍预设 (自动曝光预设)/JA – Night Candy 1 (Auto-Exposure).cube
# Created by Adobe Lightroom plugin Export LUT (1.17.0)
# www.johnrellis.com/lightroom/exportlut.htm
# Preset: JA – Night Candy 1 (Auto-Exposure)
# Color profile: /Library/Application Support/Adobe/Color/Profiles/Recommended/AdobeRGB1998.icc
LUT_3D_SIZE 32
0.079255 0.087068 0.087587
0.084260 0.086610 0.087495
0.091615 0.085695 0.087678
0.109377 0.083040 0.087617
0.141848 0.075868 0.087404
0.187533 0.057496 0.086183
0.239017 0.000000 0.084749
0.290288 0.000000 0.082490
0.339666 0.000000 0.079316
0.385931 0.000000 0.076143
0.428779 0.000000 0.072541
0.468116 0.000000 0.068879
0.503990 0.000000 0.065339
0.536736 0.000000 0.062348
0.566491 0.000000 0.058991
0.593561 0.000000 0.054261
0.617975 0.000000 0.049866
0.640345 0.000000 0.046357
0.661189 0.000000 0.042329
0.681483 0.000000 0.038453
0.702235 0.000000 0.034394
0.724300 0.000000 0.029023
0.748623 0.000000 0.022553
0.776211 0.000000 0.012757
0.808133 0.000000 0.000000
0.845518 0.000000 0.000000
0.887266 0.000000 0.000000
0.931121 0.000000 0.000000
0.974334 0.000000 0.000000
1.000000 0.000000 0.000000
1.000000 0.000000 0.000000
1.000000 0.000000 0.000000
0.078462 0.091402 0.087526
0.082338 0.090242 0.088411
0.088655 0.090425 0.089082
0.108705 0.088594 0.087770
0.141665 0.083528 0.087129
0.187839 0.070741 0.086000
0.239811 0.025605 0.084047
0.291295 0.000000 0.081697
0.340673 0.000000 0.078645
0.387091 0.000000 0.075441
0.429877 0.000000 0.071351
0.469093 0.000000 0.068055
0.504906 0.000000 0.064576
0.537621 0.000000 0.061097
0.567315 0.000000 0.057984
0.594263 0.000000 0.053040
0.618616 0.000000 0.048707
0.640894 0.000000 0.045258
0.661707 0.000000 0.041321
0.681971 0.000000 0.037263
0.702693 0.000000 0.033631
0.724788 0.000000 0.028321
0.749111 0.000000 0.021729
0.776699 0.000000 0.012207
0.808682 0.000000 0.000000
0.846098 0.000000 0.000000
0.887816 0.000000 0.000000
0.931579 0.000000 0.000000
0.974670 0.000000 0.000000
1.000000 0.000000 0.000000
1.000000 0.000000 0.000000
1.000000 0.000000 0.000000
0.077211 0.097505 0.087861
0.082002 0.097169 0.087800
0.087465 0.095216 0.089265
0.102358 0.096345 0.091463
0.139315 0.093629 0.087831
0.188479 0.085359 0.085481
0.240726 0.066407 0.083253
0.292485 0.000000 0.080720
0.342046 0.000000 0.077485
0.388373 0.000000 0.074159
0.431189 0.000000 0.070344
0.470466 0.000000 0.066560
0.506126 0.000000 0.063416
0.538750 0.000000 0.060090
0.568322 0.000000 0.056184
0.595239 0.000000 0.050721
0.619471 0.000000 0.047303
0.641688 0.000000 0.043610
0.662409 0.000000 0.039063
0.682643 0.000000 0.036225
0.703365 0.000000 0.032654
0.725429 0.000000 0.026551
0.749783 0.000000 0.020020
0.777401 0.000000 0.011536
0.809445 0.000000 0.000000
0.846830 0.000000 0.000000
0.888518 0.000000 0.000000
0.932128 0.000000 0.000000
0.975158 0.000000 0.000000
1.000000 0.000000 0.000000
1.000000 0.000000 0.000000
1.000000 0.000000 0.000000
0.073732 0.112551 0.088136
0.078004 0.112581 0.087465
0.087556 0.111727 0.087312
0.099855 0.106844 0.091676
0.121889 0.109651 0.096956
0.175570 0.111391 0.090913
0.240024 0.103609 0.082918
0.294987 0.084413 0.078767
0.344884 0.031830 0.074922
0.391394 0.000000 0.071321
0.434180 0.000000 0.067689
0.473243 0.000000 0.063813
0.508782 0.000000 0.060548
0.541222 0.000000 0.056519
0.570642 0.000000 0.051820
0.597314 0.000000 0.047669
0.621271 0.000000 0.043061
0.643336 0.000000 0.039704
0.663935 0.000000 0.035615
0.684047 0.000000 0.033478
0.704707 0.000000 0.030182
0.726802 0.000000 0.025330
0.751278 0.000000 0.019074
0.778897 0.000000 0.009369
0.811063 0.000000 0.000000
0.848478 0.000000 0.000000
0.890013 0.000000 0.000000
0.933501 0.000000 0.000000
0.976196 0.000000 0.000000
1.000000 0.000000 0.000000
1.000000 0.000000 0.000000
1.000000 0.000000 0.000000
0.065400 0.138460 0.089296
0.068727 0.138460 0.087526
0.080293 0.137942 0.085908
0.102693 0.136568 0.086061
0.119081 0.125765 0.094850
0.154238 0.132418 0.100740
0.214725 0.138552 0.096132
0.283757 0.134920 0.085084
0.346349 0.118624 0.073671
0.395850 0.090394 0.067536
0.438636 0.014008 0.063355
0.477638 0.000000 0.059449
0.512902 0.000000 0.054719
0.545068 0.000000 0.049653
0.574090 0.000000 0.044282
0.600397 0.000000 0.039796
0.624109 0.000000 0.036133
0.645930 0.000000 0.033845
0.666285 0.000000 0.031861
0.686305 0.000000 0.029084
0.706905 0.000000 0.026581
0.729091 0.000000 0.022980
0.753567 0.000000 0.016968
0.781399 0.000000 0.008545
0.813626 0.000000 0.000000
0.851072 0.000000 0.000000
0.892454 0.000000 0.000000
0.935515 0.000000 0.000000
0.977752 0.000000 0.000000
1.000000 0.000000 0.000000
1.000000 0.000000 0.000000
1.000000 0.000000 0.000000
0.033204 0.176150 0.092134
0.041199 0.176425 0.089845
0.060365 0.176333 0.082094
0.095033 0.174838 0.082155
0.131197 0.173312 0.082307
0.149050 0.154757 0.096345
0.195804 0.165194 0.104372
0.255650 0.171572 0.105745
0.326604 0.170443 0.090333
0.388190 0.157595 0.075898
0.441230 0.134737 0.061158
0.483192 0.100923 0.050019
0.518181 0.024628 0.044343
0.550042 0.000000 0.038025
0.578668 0.000000 0.033417
0.604547 0.000000 0.030732
0.627863 0.000000 0.028626
0.649378 0.000000 0.026673
0.669429 0.000000 0.026947
0.689296 0.000000 0.026612
0.709895 0.000000 0.023651
0.732082 0.000000 0.020935
0.756710 0.000000 0.015229
0.784695 0.000000 0.007691
0.817136 0.000000 0.000000
0.854582 0.000000 0.000000
0.895750 0.000000 0.000000
0.938293 0.000000 0.000000
0.979828 0.000000 0.000000
1.000000 0.000000 0.000000
1.000000 0.000000 0.000000
1.000000 0.000000 0.000000
0.000000 0.221622 0.098054
0.000000 0.221775 0.094667
0.000000 0.222141 0.084718
0.072694 0.221469 0.074769
0.124514 0.219120 0.074617
0.169192 0.217319 0.075654
0.188540 0.193332 0.097566
0.242252 0.205051 0.109590
0.299657 0.210452 0.121675
0.368475 0.209415 0.105257
0.427893 0.197604 0.087098
0.478370 0.177676 0.069520
0.521477 0.150027 0.046509
0.556023 0.114076 0.025818
0.584314 0.058106 0.022827
0.609491 0.000000 0.022644
0.632410 0.000000 0.021576
0.653559 0.000000 0.021729
0.673304 0.000000 0.024018
0.692988 0.000000 0.024170
0.713649 0.000000 0.023224
0.735958 0.000000 0.021332
0.760708 0.000000 0.015839
0.788937 0.000000 0.008698
0.821592 0.000000 0.000000
0.859037 0.000000 0.000000
0.899748 0.000000 0.000000
0.941680 0.000000 0.000000
0.982452 0.000000 0.000000
1.000000 0.000000 0.000000
1.000000 0.000000 0.000000
1.000000 0.000000 0.000000
0.000000 0.269474 0.108858
0.000000 0.269810 0.103029
0.000000 0.270298 0.091981
0.000000 0.270634 0.062806
0.105348 0.268711 0.062287
0.162509 0.265873 0.061555
0.210575 0.261479 0.068421
0.233982 0.237766 0.099672
0.290288 0.248447 0.120943
0.347173 0.253300 0.139620
0.407935 0.252018 0.137514
0.464912 0.239567 0.114565
0.512596 0.220096 0.093294
0.553124 0.195254 0.072084
0.587701 0.164462 0.043366
0.615229 0.127962 0.018402
0.637659 0.081056 0.020417
0.658381 0.000000 0.023560
0.677882 0.000000 0.024933
0.697505 0.000000 0.027863
0.718135 0.000000 0.028687
0.740597 0.000000 0.027619
0.765652 0.000000 0.022797
0.794125 0.000000 0.015625
0.827054 0.000000 0.002625
0.864439 0.000000 0.000000
0.904662 0.000000 0.000000
0.945800 0.000000 0.000000
0.985534 0.000000 0.000000
1.000000 0.000000 0.000000
1.000000 0.000000 0.000000
1.000000 0.000000 0.000000
0.000000 0.317144 0.120180
0.000000 0.317479 0.113161
0.000000 0.317967 0.102205
0.000000 0.318700 0.068605
0.058289 0.317815 0.030488
0.145022 0.315404 0.029053
0.204471 0.313268 0.026154
0.253971 0.306554 0.060273
0.281682 0.284062 0.106447
0.337194 0.293034 0.140139
0.391760 0.297002 0.165377
0.444007 0.297215 0.185031
0.498421 0.284306 0.159030
0.543603 0.264530 0.134676
0.581231 0.240299 0.111696
0.613062 0.212100 0.088930
0.640833 0.179660 0.064332
0.663905 0.144015 0.038697
0.683101 0.103304 0.041230
0.702693 0.000000 0.044678
0.723476 0.000000 0.046113
0.746212 0.000000 0.044160
0.771511 0.000000 0.040040
0.800381 0.000000 0.031952
0.833555 0.000000 0.019745
0.870726 0.000000 0.002869
0.910338 0.000000 0.000000
0.950500 0.000000 0.000000
0.989014 0.000000 0.000000
1.000000 0.000000 0.000000
1.000000 0.000000 0.000000
1.000000 0.000000 0.000000
0.000000 0.362982 0.130831
0.000000 0.363348 0.124147
0.000000 0.363745 0.113832
0.000000 0.364630 0.083528
0.000000 0.365087 0.000000
0.112856 0.363012 0.000000
0.187259 0.360235 0.000000
0.248112 0.359503 0.000000
0.297704 0.350134 0.057740
0.328588 0.329778 0.120424
0.381750 0.336370 0.166781
0.432654 0.339117 0.196994
0.478828 0.341161 0.230472
0.528130 0.330144 0.213565
0.570550 0.310246 0.187015
0.605615 0.286107 0.161990
0.635645 0.258885 0.137667
0.661921 0.229068 0.113344
0.685969 0.196231 0.088258
0.708583 0.160800 0.068299
0.729610 0.125032 0.068055
0.752621 0.070100 0.066773
0.778347 0.000000 0.064485
0.807614 0.000000 0.060517
0.841093 0.000000 0.051392
0.877928 0.000000 0.035035
0.916747 0.000000 0.015961
0.955718 0.000000 0.000000
0.992859 0.000000 0.000000
1.000000 0.000000 0.000000
1.000000 0.000000 0.000000
1.000000 0.000000 0.000000
0.000000 0.406043 0.141909
0.000000 0.406348 0.135500
0.000000 0.406683 0.125795
0.000000 0.407477 0.099001
0.000000 0.408637 0.000000
0.017609 0.407141 0.000000
0.160220 0.404761 0.000000
0.229099 0.401740 0.000000
0.291356 0.402686 0.000000
0.340246 0.391119 0.068330
0.373266 0.372839 0.142641
0.422766 0.377508 0.198550
0.469856 0.379278 0.232212
0.512200 0.380957 0.266941
0.554009 0.375250 0.272404
0.593408 0.355932 0.245060
0.626581 0.332219 0.218235
0.655177 0.306126 0.192660
0.681178 0.277928 0.167330
0.706661 0.247807 0.141665
0.732906 0.215122 0.114351
0.759915 0.179690 0.089570
0.786191 0.146426 0.086793
0.815976 0.099123 0.082795
0.849516 0.000000 0.077760
0.885893 0.000000 0.070863
0.923705 0.000000 0.062776
0.961364 0.000000 0.050782
0.996948 0.000000 0.036866
1.000000 0.000000 0.029480
1.000000 0.000000 0.036042
1.000000 0.000000 0.053681
0.000000 0.445533 0.152529
0.000000 0.445808 0.146700
0.000000 0.446082 0.137575
0.000000 0.446784 0.114626
0.000000 0.447913 0.046509
0.000000 0.447761 0.000000
0.118044 0.445716 0.000000
0.204410 0.442969 0.000000
0.269932 0.439643 0.000000
0.332952 0.442298 0.000000
0.380285 0.428901 0.091829
0.414496 0.412634 0.170626
0.460151 0.415961 0.233646
0.503502 0.416693 0.268772
0.541711 0.417700 0.303990
0.575921 0.417853 0.332036
0.613062 0.399481 0.304051
0.644648 0.377264 0.276921
0.672969 0.352697 0.250370
0.700435 0.326787 0.224582
0.728511 0.299138 0.198398
0.758145 0.269627 0.171084
0.790463 0.236606 0.140566
0.825315 0.199924 0.109865
0.858854 0.167575 0.104280
0.894560 0.123507 0.098360
0.931182 0.000000 0.091768
0.967315 0.000000 0.085969
1.000000 0.000000 0.081361
1.000000 0.000000 0.079316
1.000000 0.000000 0.081971
1.000000 0.000000 0.087831
0.000000 0.481727 0.162600
0.000000 0.481971 0.157351
0.000000 0.482246 0.149172
0.000000 0.482948 0.128908
0.000000 0.483955 0.082795
0.000000 0.484901 0.000000
0.000000 0.482979 0.000000
0.170779 0.480568 0.000000
0.245884 0.477577 0.000000
0.309697 0.475685 0.000000
0.371038 0.476722 0.000000
0.417792 0.463630 0.121859
0.452064 0.449134 0.202701
0.493874 0.451331 0.269993
0.533379 0.451026 0.305425
0.567559 0.451362 0.340581
0.597192 0.452918 0.374823
0.629969 0.440467 0.361975
0.661097 0.420203 0.334966
0.690944 0.398169 0.308751
0.721035 0.375006 0.283116
0.752560 0.350225 0.256870
0.786526 0.323919 0.229709
0.823758 0.294621 0.200107
0.863523 0.261021 0.166537
0.903716 0.221683 0.128756
0.939055 0.189700 0.122683
0.973419 0.148440 0.117708
1.000000 0.082643 0.113375
1.000000 0.000000 0.112062
1.000000 0.000000 0.113283
1.000000 0.000000 0.117678
0.000000 0.514824 0.172641
0.000000 0.514977 0.167391
0.000000 0.515282 0.160098
0.000000 0.515862 0.142061
0.000000 0.516655 0.105135
0.000000 0.517723 0.000000
0.000000 0.516869 0.000000
0.124025 0.514702 0.000000
0.216587 0.512016 0.000000
0.285008 0.508843 0.000000
0.347539 0.508507 0.000000
0.406561 0.507164 0.030304
0.452430 0.495338 0.155734
0.486275 0.482368 0.236149
0.523735 0.483345 0.306340
0.559594 0.482338 0.341741
0.590143 0.481880 0.376165
0.617273 0.483253 0.408972
0.645747 0.478584 0.417212
0.678096 0.461402 0.391608
0.710506 0.442451 0.366400
0.744076 0.422339 0.341405
0.779904 0.400793 0.315923
0.818814 0.377661 0.289311
0.859770 0.351873 0.260868
0.901213 0.322148 0.229648
0.941650 0.286961 0.194247
0.979461 0.244236 0.151369
1.000000 0.213352 0.147250
1.000000 0.176791 0.145266
1.000000 0.131624 0.145846
1.000000 0.057008 0.148592
0.000000 0.544823 0.181521
0.000000 0.545006 0.176944
0.000000 0.545220 0.170413
0.000000 0.545708 0.154177
0.000000 0.546471 0.123507
0.000000 0.547417 0.048890
0.000000 0.547662 0.000000
0.000000 0.545556 0.000000
0.180514 0.543206 0.000000
0.257725 0.540307 0.000000
0.321508 0.536950 0.000000
0.383124 0.538140 0.000000
0.439368 0.534661 0.096590
0.484108 0.523949 0.191196
0.516991 0.512474 0.270451
0.550317 0.512261 0.342107
0.582544 0.510582 0.377081
0.610590 0.509911 0.409979
0.636255 0.511437 0.441718
0.662440 0.514977 0.469795
0.697200 0.501030 0.445686
0.733028 0.485481 0.421942
0.770840 0.468727 0.398260
0.811490 0.450538 0.374090
0.853727 0.430304 0.348852
0.895933 0.407507 0.322423
0.936767 0.381018 0.293889
0.974762 0.350256 0.262730
1.000000 0.313573 0.226841
1.000000 0.268894 0.183536
1.000000 0.239384 0.179751
1.000000 0.209384 0.181186
0.000000 0.572045 0.189944
0.000000 0.572198 0.185519
0.000000 0.572381 0.179599
0.000000 0.572778 0.165408
0.000000 0.573388 0.139223
0.000000 0.574182 0.090120
0.000000 0.574884 0.000000
0.000000 0.573449 0.000000
0.134157 0.571252 0.000000
0.226596 0.568566 0.000000
0.295415 0.565484 0.000000
0.355901 0.562310 0.000000
0.416114 0.564477 0.000000
0.469581 0.559319 0.139834
0.512657 0.549493 0.227268
0.544182 0.539361 0.304662
0.573541 0.538293 0.376837
0.603326 0.536522 0.410620
0.629847 0.536248 0.442664
0.656153 0.539055 0.473671
0.684108 0.544793 0.503410
0.719783 0.539544 0.496803
0.759762 0.527489 0.474769
0.802213 0.514031 0.452552
0.845731 0.498817 0.430121
0.888792 0.481209 0.407141
0.929931 0.460822 0.383276
0.967895 0.437446 0.358465
1.000000 0.410224 0.331762
1.000000 0.378271 0.301610
1.000000 0.340581 0.266789
1.000000 0.294957 0.223331
0.000000 0.596490 0.197482
0.000000 0.596612 0.193576
0.000000 0.596735 0.188235
0.000000 0.597131 0.175387
0.000000 0.597650 0.152926
0.000000 0.598260 0.114351
0.000000 0.598840 0.000000
0.000000 0.598291 0.000000
0.046357 0.596246 0.000000
0.190982 0.593866 0.000000
0.267155 0.591028 0.000000
0.330114 0.587793 0.000000
0.388373 0.586053 0.000000
0.446723 0.587884 0.081086
0.497292 0.581323 0.180179
0.538170 0.572351 0.263127
0.568109 0.563317 0.338415
0.594659 0.562219 0.410254
0.622980 0.561059 0.443183
0.649866 0.562188 0.474434
0.678218 0.566644 0.504387
0.709468 0.573968 0.533013
0.746944 0.577417 0.544213
0.791287 0.568841 0.524041
0.836271 0.558068 0.503868
0.880156 0.545006 0.483711
0.921660 0.529412 0.463355
0.959594 0.511284 0.442908
0.992676 0.490242 0.421912
1.000000 0.466102 0.399908
1.000000 0.438544 0.375891
1.000000 0.406928 0.348425
0.000000 0.618616 0.204501
0.000000 0.618677 0.200900
0.000000 0.618860 0.196109
0.000000 0.619135 0.184421
0.000000 0.619562 0.164706
0.000000 0.620111 0.132967
0.000000 0.620630 0.080049
0.000000 0.620844 0.000000
0.000000 0.619043 0.000000
0.148745 0.616876 0.000000
0.236851 0.614343 0.000000
0.303746 0.611475 0.000000
0.362280 0.608179 0.000000
0.419409 0.607996 0.064057
0.475624 0.609796 0.122011
0.523369 0.602106 0.218479
0.562310 0.594018 0.298863
0.590692 0.586114 0.371771
0.614893 0.585168 0.442847
0.643153 0.585351 0.474983
0.671931 0.588556 0.505058
0.703517 0.594965 0.533837
0.739223 0.604059 0.561151
0.779416 0.614710 0.586847
0.825803 0.608789 0.569390
0.870573 0.600000 0.551751
0.912413 0.588556 0.534295
0.950317 0.574548 0.517205
0.983093 0.557977 0.500267
1.000000 0.538994 0.483467
1.000000 0.517723 0.466346
1.000000 0.494331 0.448188
0.000000 0.639734 0.211276
0.000000 0.639826 0.208225
0.000000 0.639948 0.203433
0.000000 0.640284 0.193271
0.000000 0.640650 0.175784
0.000000 0.641169 0.148959
0.000000 0.641627 0.108431
0.000000 0.641840 0.010437
0.000000 0.640833 0.000000
0.087709 0.638911 0.000000
0.204013 0.636622 0.000000
0.276768 0.634058 0.000000
0.337835 0.631220 0.017365
0.392889 0.627985 0.045319
0.449226 0.629236 0.109682
0.503075 0.629664 0.167239
0.548730 0.622553 0.256352
0.585626 0.615229 0.333776
0.612512 0.608209 0.404608
0.635645 0.608240 0.474861
0.665309 0.610468 0.505547
0.697230 0.616114 0.534478
0.733181 0.624811 0.561761
0.773770 0.635492 0.587457
0.816342 0.646265 0.611475
0.860533 0.646632 0.610132
0.902861 0.639002 0.595270
0.940703 0.628626 0.581018
0.973144 0.615717 0.567346
0.998993 0.600458 0.554437
1.000000 0.583490 0.542107
1.000000 0.565362 0.530266
0.000000 0.660517 0.217868
0.000000 0.660609 0.214908
0.000000 0.660731 0.210605
0.000000 0.660975 0.201328
0.000000 0.661372 0.185458
0.000000 0.661830 0.161868
0.000000 0.662226 0.129091
0.000000 0.662470 0.083040
0.000000 0.662135 0.002899
0.000000 0.660456 0.018219
0.166751 0.658473 0.040558
0.249180 0.656245 0.058869
0.313603 0.653712 0.068849
0.370275 0.650935 0.079408
0.423529 0.648585 0.096345
0.478798 0.650874 0.145846
0.530694 0.650263 0.207980
0.574304 0.643702 0.293065
0.609400 0.637079 0.368353
0.634974 0.630823 0.436744
0.658350 0.632471 0.505791
0.690486 0.637171 0.534813
0.726741 0.645533 0.562219
0.767697 0.656428 0.587854
0.811002 0.667659 0.611810
0.853269 0.677485 0.634607
0.893126 0.681880 0.646998
0.931182 0.674586 0.634638
0.963378 0.664546 0.623316
0.988800 0.652216 0.613184
1.000000 0.638331 0.604211
1.000000 0.623651 0.596490
0.000000 0.681758 0.224704
0.000000 0.681849 0.221775
0.000000 0.681971 0.217899
0.000000 0.682185 0.209232
0.000000 0.682551 0.194705
0.000000 0.683009 0.173770
0.000000 0.683467 0.145541
0.000000 0.683803 0.110658
0.000000 0.683711 0.072786
0.000000 0.682490 0.071351
0.119692 0.680842 0.077790
0.219974 0.678920 0.084993
0.289158 0.676753 0.092409
0.348333 0.674281 0.100435
0.401953 0.671656 0.108858
0.454810 0.671168 0.133761
0.509056 0.674250 0.178042
0.559289 0.672816 0.246555
0.601251 0.666804 0.328740
0.634852 0.660822 0.401953
0.659541 0.655238 0.468147
0.684291 0.658991 0.535515
0.719997 0.666194 0.562463
0.761318 0.677363 0.588128
0.805234 0.689174 0.612024
0.848356 0.699580 0.634821
0.887816 0.707698 0.657008
0.921782 0.713649 0.678920
0.953704 0.706783 0.671107
0.978973 0.696590 0.662501
0.997742 0.684718 0.655390
1.000000 0.672267 0.649958
0.000000 0.704433 0.231632
0.000000 0.704524 0.228977
0.000000 0.704616 0.225376
0.000000 0.704891 0.217411
0.000000 0.705287 0.203891
0.000000 0.705776 0.184695
0.000000 0.706233 0.159701
0.000000 0.706630 0.130220
0.000000 0.706691 0.102052
0.000000 0.706050 0.094179
0.000000 0.704646 0.099916
0.187686 0.703059 0.105745
0.264805 0.701259 0.112154
0.327001 0.699275 0.118776
0.382422 0.697047 0.125582
0.433967 0.694575 0.133181
0.487343 0.696437 0.166110
0.541253 0.700710 0.207279
0.590021 0.698390 0.283268
0.630762 0.692927 0.363378
0.663416 0.687709 0.434333
0.687770 0.682673 0.498329
0.714900 0.688685 0.563622
0.754482 0.698299 0.588190
0.799161 0.710811 0.612085
0.843107 0.721920 0.634852
0.883513 0.730404 0.657069
0.918273 0.736263 0.679072
0.945922 0.740139 0.701717
0.968933 0.736233 0.707088
0.987762 0.725765 0.700526
1.000000 0.714717 0.696071
0.000000 0.729580 0.239384
0.000000 0.729702 0.237034
0.000000 0.729824 0.233646
0.000000 0.730098 0.225925
0.000000 0.730465 0.213260
0.000000 0.731014 0.195499
0.000000 0.731594 0.172244
0.000000 0.732082 0.145693
0.000000 0.732357 0.121706
0.000000 0.732143 0.113191
0.000000 0.731106 0.117708
0.148074 0.729824 0.122683
0.238590 0.728389 0.128389
0.305974 0.726772 0.134127
0.363958 0.725032 0.140414
0.417182 0.723079 0.146975
0.467140 0.720943 0.154086
0.522240 0.725795 0.194339
0.576471 0.731533 0.234501
0.624079 0.728206 0.318669
0.664027 0.723445 0.396521
0.696376 0.718776 0.465705
0.721004 0.714412 0.527245
0.751125 0.722469 0.589715
0.792630 0.732540 0.611872
0.837491 0.744442 0.634668
0.878843 0.753414 0.656947
0.914488 0.759304 0.679072
0.942870 0.762631 0.701930
0.962921 0.764675 0.726436
0.976928 0.764614 0.745602
0.990661 0.754696 0.741207
0.000000 0.758389 0.248386
0.000000 0.758480 0.246098
0.000000 0.758602 0.242802
0.000000 0.758877 0.235538
0.000000 0.759365 0.223575
0.000000 0.759945 0.206668
0.000000 0.760586 0.184512
0.000000 0.761257 0.159121
0.000000 0.761654 0.136263
0.000000 0.761715 0.127016
0.000000 0.761166 0.132631
0.085603 0.760220 0.136995
0.209232 0.759182 0.141848
0.284062 0.757992 0.147127
0.345953 0.756710 0.152590
0.401617 0.755276 0.158938
0.453498 0.753689 0.165103
0.504753 0.753841 0.180179
0.560754 0.760555 0.220523
0.615564 0.767208 0.262791
0.662348 0.763058 0.352178
0.701961 0.758907 0.428382
0.734524 0.754879 0.495460
0.760037 0.750912 0.554284
0.791531 0.759213 0.613855
0.831510 0.767147 0.634333
0.873838 0.776761 0.656611
0.910460 0.782742 0.678889
0.939605 0.785611 0.702052
0.960174 0.786557 0.726955
0.973022 0.787808 0.754116
0.979644 0.791989 0.784146
0.000000 0.791989 0.259037
0.000000 0.792050 0.256901
0.000000 0.792233 0.253574
0.000000 0.792538 0.246586
0.000000 0.793057 0.234958
0.000000 0.793729 0.218570
0.000000 0.794461 0.196811
0.000000 0.795285 0.172030
0.000000 0.795865 0.148806
0.000000 0.796170 0.137331
0.000000 0.796109 0.144503
0.000000 0.795499 0.148745
0.172000 0.794797 0.153414
0.259953 0.794003 0.157748
0.327703 0.793118 0.162997
0.386786 0.792142 0.168673
0.441230 0.791043 0.174777
0.492592 0.789853 0.181094
0.546258 0.792844 0.204685
0.602808 0.800351 0.244511
0.657191 0.805356 0.297307
0.703487 0.801450 0.384924
0.742977 0.797604 0.459327
0.775875 0.793820 0.523980
0.802457 0.790158 0.579736
0.833433 0.796658 0.635645
0.868742 0.800565 0.656184
0.906157 0.806638 0.678584
0.936126 0.809049 0.702083
0.957305 0.808865 0.727413
0.970520 0.808469 0.755123
0.977386 0.810636 0.785855
0.000000 0.830655 0.271580
0.000000 0.830808 0.269291
0.000000 0.830930 0.266178
0.000000 0.831266 0.259281
0.000000 0.831785 0.247990
0.000000 0.832486 0.231846
0.000000 0.833310 0.210300
0.000000 0.834165 0.184787
0.000000 0.834897 0.159884
0.000000 0.835386 0.145113
0.000000 0.835416 0.150423
0.000000 0.835080 0.158480
0.114443 0.834592 0.162692
0.231144 0.834012 0.167239
0.307317 0.833371 0.172122
0.371160 0.832639 0.177523
0.428779 0.831815 0.183047
0.482612 0.830838 0.188968
0.533959 0.829801 0.195071
0.589929 0.834989 0.228214
0.646387 0.842008 0.267887
0.699702 0.844450 0.331518
0.745296 0.840543 0.417334
0.784390 0.836606 0.489906
0.817350 0.832822 0.551781
0.844724 0.829099 0.603937
0.873106 0.832364 0.657008
0.902403 0.831601 0.678492
0.932433 0.832975 0.701839
0.954284 0.831662 0.727718
0.967926 0.829557 0.756100
0.975036 0.829618 0.787564
0.000000 0.872496 0.281743
0.000000 0.872557 0.281865
0.000000 0.872709 0.280034
0.000000 0.873014 0.273136
0.000000 0.873472 0.261967
0.000000 0.874174 0.246067
0.000000 0.874968 0.224430
0.000000 0.875853 0.197910
0.000000 0.876616 0.170748
0.000000 0.877073 0.152316
0.000000 0.877134 0.153933
0.000000 0.876829 0.168276
0.000000 0.876432 0.172122
0.193027 0.875914 0.176577
0.283085 0.875303 0.181216
0.353368 0.874601 0.186007
0.414923 0.873808 0.191745
0.471443 0.872892 0.197299
0.524926 0.871824 0.203586
0.576532 0.870939 0.211185
0.633631 0.876707 0.252598
0.688960 0.882170 0.292210
0.740536 0.881712 0.366339
0.785092 0.877348 0.450385
0.823423 0.873075 0.520531
0.856016 0.868986 0.578943
0.883574 0.865019 0.628046
0.907805 0.864225 0.679194
0.929839 0.858518 0.702602
0.951110 0.854948 0.727871
0.965148 0.851072 0.757015
0.972564 0.848936 0.789334
0.000000 0.914702 0.283391
0.000000 0.914794 0.283513
0.000000 0.914885 0.283604
0.000000 0.915099 0.283757
0.000000 0.915526 0.276341
0.000000 0.916106 0.260594
0.000000 0.916838 0.239078
0.000000 0.917662 0.211673
0.000000 0.918395 0.181643
0.000000 0.918791 0.159213
0.000000 0.918700 0.156680
0.000000 0.918212 0.176608
0.000000 0.917662 0.183322
0.139071 0.917052 0.187594
0.253758 0.916320 0.192172
