其他预设/【233】日式怀旧街道调色预设208款/1.3D LUT预设（视频调色-PR-AE-PS-FCPX-达芬奇用）/3.日式城市街拍预设 (自动曝光预设)/JA – Faded Soft 3 (Auto-Exposure).cube
# Created by Adobe Lightroom plugin Export LUT (1.17.0)
# www.johnrellis.com/lightroom/exportlut.htm
# Preset: JA – Faded Soft 3 (Auto-Exposure)
# Color profile: /Library/Application Support/Adobe/Color/Profiles/Recommended/AdobeRGB1998.icc
LUT_3D_SIZE 5
DOMAIN_MIN 0.000000 0.000000 0.000000
DOMAIN_MAX 0.903226 0.903226 0.903226
0.065095 0.069032 0.076661
0.212161 0.078157 0.067353
0.463630 0.125154 0.000000
0.823972 0.201633 0.000000
0.974914 0.206760 0.000000
0.073182 0.192569 0.087343
0.208316 0.197452 0.066041
0.468635 0.240726 0.000000
0.824552 0.309697 0.000000
0.974182 0.290227 0.000000
0.083497 0.419532 0.099977
0.249851 0.417609 0.030396
0.489082 0.450874 0.000000
0.829831 0.516472 0.000000
0.971740 0.465797 0.000000
0.000000 0.775204 0.000000
0.296452 0.768429 0.000000
0.585077 0.754025 0.000000
0.837736 0.759182 0.000000
0.969818 0.668482 0.000000
0.145418 0.925750 0.148135
0.290806 0.922332 0.075319
0.540337 0.909453 0.000000
0.771542 0.896910 0.000000
0.972534 0.880705 0.000000
0.071046 0.077852 0.235172
0.176822 0.100649 0.206943
0.445624 0.072847 0.190311
0.820310 0.128054 0.093263
0.975158 0.197482 0.000000
0.029358 0.187930 0.232273
0.192020 0.202792 0.223026
0.461982 0.214450 0.185061
0.823667 0.264408 0.057618
0.974609 0.279454 0.000000
0.000000 0.428565 0.282444
0.200412 0.433204 0.230900
0.486213 0.454871 0.187747
0.826963 0.496132 0.000000
0.972290 0.454780 0.000000
0.000000 0.783871 0.289403
0.187716 0.779629 0.207004
0.563226 0.756008 0.024201
0.835142 0.760281 0.000000
0.969512 0.660853 0.000000
0.131777 0.926665 0.321569
0.265721 0.924010 0.283421
0.515404 0.912291 0.114443
0.762509 0.897765 0.000000
0.970397 0.881132 0.000000
0.108522 0.064576 0.569268
0.234623 0.098238 0.525780
0.378637 0.147494 0.423926
0.758511 0.000000 0.462196
0.961730 0.140963 0.394415
0.000000 0.161257 0.596155
0.229068 0.225254 0.550805
0.395605 0.227756 0.439948
0.781155 0.099763 0.450874
0.964080 0.219120 0.375341
0.000000 0.474403 0.572564
0.085420 0.472084 0.558282
0.457832 0.468055 0.494881
0.817533 0.448341 0.423346
0.968261 0.406439 0.322362
0.000000 0.799588 0.628382
0.164401 0.797391 0.610254
0.502098 0.779599 0.526513
0.816281 0.764279 0.464424
0.963195 0.641321 0.301152
0.335576 0.921324 0.617182
0.442725 0.915831 0.625971
0.587762 0.906096 0.600153
0.735439 0.898528 0.394354
0.956329 0.883055 0.378576
0.217288 0.109438 0.836698
0.313176 0.130037 0.829160
0.495766 0.139559 0.797665
0.715663 0.076051 0.738186
0.901457 0.353674 0.685512
0.142824 0.195895 0.841337
0.311254 0.261570 0.832914
0.500450 0.262455 0.802914
0.722347 0.229404 0.743160
0.901457 0.431067 0.693721
0.000000 0.398840 0.845487
0.000000 0.409247 0.843259
0.602869 0.590143 0.813443
0.740780 0.530083 0.754330
0.902098 0.614588 0.726040
0.000000 0.719326 0.827604
0.293462 0.730983 0.824369
0.626703 0.766201 0.811734
0.774563 0.771054 0.777401
0.916075 0.743557 0.734859
0.571618 0.907591 0.833341
0.624323 0.903960 0.832700
0.723476 0.897307 0.827237
0.793057 0.890837 0.791135
0.916258 0.887633 0.761746
0.329015 0.258793 0.931853
0.391180 0.290318 0.929381
0.531182 0.350591 0.920806
0.692500 0.429969 0.902739
0.872526 0.497383 0.879911
0.300450 0.282872 0.933379
0.438514 0.396551 0.928222
0.577173 0.463996 0.918730
0.715663 0.519005 0.900999
0.872587 0.555840 0.878691
0.000000 0.299748 0.940185
0.275578 0.382238 0.936309
0.713283 0.696834 0.913115
0.776791 0.695644 0.898650
0.873808 0.679469 0.876677
0.000000 0.584222 0.931670
0.348547 0.623011 0.928771
0.663569 0.734493 0.919493
0.830900 0.821469 0.906035
0.879026 0.790311 0.878325
0.491524 0.832090 0.915648
0.575494 0.842771 0.913939
0.726131 0.866789 0.910338
0.830411 0.887388 0.907530
0.896117 0.891691 0.892027
