其他预设/【233】日式怀旧街道调色预设208款/1.3D LUT预设（视频调色-PR-AE-PS-FCPX-达芬奇用）/3.日式城市街拍预设 (自动曝光预设)/JA – Gritty Contrast 2 (Auto-Exposure).cube
# Created by Adobe Lightroom plugin Export LUT (1.17.0)
# www.johnrellis.com/lightroom/exportlut.htm
# Preset: JA – Gritty Contrast 2 (Auto-Exposure)
# Color profile: /Library/Application Support/Adobe/Color/Profiles/Recommended/AdobeRGB1998.icc
LUT_3D_SIZE 5
DOMAIN_MIN 0.000000 0.000000 0.000000
DOMAIN_MAX 0.903226 0.903226 0.903226
0.070192 0.076143 0.083955
0.234562 0.122835 0.145907
0.561822 0.151888 0.212497
0.774075 0.306310 0.358862
0.942077 0.514946 0.543664
0.125704 0.211612 0.112764
0.275212 0.228946 0.114992
0.617670 0.293400 0.204135
0.804349 0.374212 0.368017
0.949706 0.543267 0.549279
0.258000 0.482307 0.000000
0.376959 0.483528 0.000000
0.658137 0.506279 0.000000
0.886778 0.567407 0.387671
0.967834 0.631495 0.566796
0.356939 0.683284 0.000000
0.437598 0.678981 0.000000
0.657740 0.700313 0.000000
0.899168 0.696468 0.228580
0.980743 0.745022 0.582147
0.448493 0.891295 0.191318
0.508873 0.888609 0.179232
0.678492 0.879210 0.129488
0.897856 0.887175 0.280461
0.988312 0.817899 0.521202
0.066926 0.126131 0.286503
0.210758 0.154330 0.256046
0.482002 0.236820 0.310643
0.760891 0.373877 0.408087
0.944884 0.525841 0.545251
0.088045 0.221408 0.259037
0.233494 0.247379 0.266148
0.544396 0.326299 0.330907
0.792233 0.426734 0.416663
0.951904 0.552667 0.550713
0.143160 0.472847 0.265354
0.312535 0.464424 0.258885
0.613977 0.500847 0.272862
0.881682 0.592279 0.423499
0.968780 0.637690 0.567926
0.331884 0.675227 0.272679
0.415015 0.671839 0.254307
0.639582 0.693172 0.182712
0.897246 0.700496 0.214420
0.980896 0.746456 0.580713
0.441260 0.893889 0.197604
0.501946 0.891264 0.186191
0.672450 0.881437 0.135439
0.893095 0.888457 0.280827
0.988373 0.819211 0.518730
0.000000 0.181765 0.563653
0.280095 0.279332 0.545098
0.489784 0.300328 0.528344
0.698054 0.451362 0.545068
0.889799 0.587823 0.629877
0.000000 0.281071 0.547845
0.265141 0.315984 0.530907
0.493080 0.378882 0.520775
0.684901 0.490822 0.548791
0.906188 0.606989 0.634943
0.000000 0.480964 0.532372
0.279789 0.482551 0.520256
0.551995 0.547692 0.546441
0.747433 0.604242 0.590967
0.940490 0.690761 0.663264
0.319188 0.690394 0.537530
0.422705 0.680751 0.539147
0.582300 0.668482 0.531640
0.825925 0.730129 0.583185
0.964294 0.793393 0.684291
0.491737 0.887510 0.558618
0.544671 0.882658 0.560449
0.657069 0.878172 0.514214
0.861509 0.887327 0.467231
0.988525 0.823636 0.511009
0.161410 0.307683 0.744381
0.360601 0.396033 0.733425
0.559472 0.493996 0.718990
0.705196 0.511192 0.711421
0.913787 0.644648 0.758053
0.187686 0.360052 0.736294
0.370031 0.426520 0.724880
0.572839 0.529503 0.711696
0.706386 0.541985 0.707576
0.910002 0.666224 0.759091
0.261021 0.507713 0.728756
0.383703 0.528618 0.718379
0.566857 0.575433 0.697322
0.716823 0.620539 0.704097
0.898314 0.718868 0.758694
0.329137 0.679866 0.721706
0.420386 0.681849 0.714687
0.574762 0.690761 0.702449
0.770840 0.753750 0.736080
0.918853 0.825467 0.803372
0.459815 0.904051 0.764889
0.520439 0.899809 0.761471
0.662745 0.888731 0.751797
0.800504 0.876616 0.723659
0.943603 0.884764 0.793820
0.506981 0.552667 0.908354
0.543328 0.575525 0.906096
0.719753 0.696132 0.894652
0.792416 0.713344 0.891478
0.885100 0.729274 0.887388
0.491188 0.554986 0.908110
0.536217 0.581201 0.905608
0.713954 0.697871 0.894438
0.799283 0.730678 0.890074
0.886809 0.744564 0.886534
0.457008 0.593500 0.908324
0.475044 0.597864 0.907530
0.674098 0.689479 0.895781
0.816739 0.776089 0.886839
0.892058 0.786801 0.884489
0.437934 0.698177 0.905394
0.483833 0.706172 0.903838
0.632563 0.738186 0.897520
0.805600 0.801328 0.885222
0.900175 0.843320 0.882719
0.429725 0.840146 0.899596
0.490700 0.844450 0.898070
0.648859 0.858885 0.892882
0.810575 0.878965 0.885344
0.915312 0.903014 0.889555
