其他预设/【237】莫兰迪灰色调LR预设合集/Urban vibe/Lightroom Desktop/Urban vibe no.1.lrtemplate
s = {
	id = "9031CA53-D5F1-48AC-98A9-01AA149EF283",
	internalName = "Urban vibe no.1",
	title = "Urban vibe no.1",
	type = "Develop",
	value = {
		settings = {
			AutoLateralCA = 0,
			Blacks2012 = 0,
			BlueHue = 2,
			BlueSaturation = 0,
			CameraProfile = "Adobe Standard",
			ChromaticAberrationB = 0,
			ChromaticAberrationR = 0,
			Clarity2012 = 35,
			ColorNoiseReduction = 29,
			ColorNoiseReductionDetail = 47,
			ColorNoiseReductionSmoothness = 54,
			Contrast2012 = -5,
			ConvertToGrayscale = false,
			CropConstrainToWarp = 0,
			Defringe = 0,
			DefringeGreenAmount = 0,
			DefringeGreenHueHi = 60,
			DefringeGreenHueLo = 40,
			DefringePurpleAmount = 0,
			DefringePurpleHueHi = 70,
			DefringePurpleHueLo = 30,
			Dehaze = 0,
			EnableCalibration = true,
			EnableColorAdjustments = true,
			EnableDetail = true,
			EnableEffects = true,
			EnableLensCorrections = true,
			EnableSplitToning = true,
			Exposure2012 = 0,
			GrainAmount = 0,
			GrainFrequency = 50,
			GrainSize = 25,
			GreenHue = -2,
			GreenSaturation = 0,
			Highlights2012 = -70,
			HueAdjustmentAqua = 10,
			HueAdjustmentBlue = -7,
			HueAdjustmentGreen = 11,
			HueAdjustmentMagenta = 43,
			HueAdjustmentOrange = 44,
			HueAdjustmentPurple = -28,
			HueAdjustmentRed = 7,
			HueAdjustmentYellow = -8,
			LensManualDistortionAmount = 0,
			LuminanceAdjustmentAqua = -13,
			LuminanceAdjustmentBlue = -27,
			LuminanceAdjustmentGreen = -14,
			LuminanceAdjustmentMagenta = 2,
			LuminanceAdjustmentOrange = 4,
			LuminanceAdjustmentPurple = -57,
			LuminanceAdjustmentRed = -7,
			LuminanceAdjustmentYellow = -15,
			LuminanceNoiseReductionContrast = 0,
			LuminanceNoiseReductionDetail = 54,
			LuminanceSmoothing = 27,
			ParametricDarks = 45,
			ParametricHighlightSplit = 75,
			ParametricHighlights = 0,
			ParametricLights = 0,
			ParametricMidtoneSplit = 50,
			ParametricShadowSplit = 25,
			ParametricShadows = -13,
			PostCropVignetteAmount = 0,
			PostCropVignetteFeather = 50,
			PostCropVignetteHighlightContrast = 0,
			PostCropVignetteMidpoint = 50,
			PostCropVignetteRoundness = 0,
			PostCropVignetteStyle = 1,
			ProcessVersion = "10.0",
			RedHue = -32,
			RedSaturation = -14,
			Saturation = -16,
			SaturationAdjustmentAqua = 0,
			SaturationAdjustmentBlue = 0,
			SaturationAdjustmentGreen = 0,
			SaturationAdjustmentMagenta = 0,
			SaturationAdjustmentOrange = 0,
			SaturationAdjustmentPurple = 0,
			SaturationAdjustmentRed = 0,
			SaturationAdjustmentYellow = 0,
			ShadowTint = 0,
			Shadows2012 = -10,
			SharpenDetail = 25,
			SharpenEdgeMasking = 0,
			SharpenRadius = 1,
			Sharpness = 9,
			SplitToningBalance = 0,
			SplitToningHighlightHue = 33,
			SplitToningHighlightSaturation = 13,
			SplitToningShadowHue = 39,
			SplitToningShadowSaturation = 28,
			Temperature = 5000,
			Tint = 10,
			ToneCurveName2012 = "Medium Contrast",
			ToneCurvePV2012 = {
				0,
				0,
				32,
				22,
				64,
				56,
				128,
				128,
				192,
				196,
				255,
				255,
			},
			ToneCurvePV2012Blue = {
				0,
				0,
				255,
				255,
			},
			ToneCurvePV2012Green = {
				0,
				0,
				255,
				255,
			},
			ToneCurvePV2012Red = {
				0,
				0,
				255,
				255,
			},
			Vibrance = 7,
			VignetteAmount = 0,
			VignetteMidpoint = 50,
			WhiteBalance = "Custom",
			Whites2012 = 32,
		},
		uuid = "13B809D9-96CB-415D-984C-77066711B4D2",
	},
	version = 0,
}
