其他预设/【214】摩洛哥风格旅拍预设5款/2.LR预设文件/摩洛哥风格旅拍-2.lrtemplate
s = {
	id = "4EE731BF-BC6B-4AB5-A8BA-0B8E53E8F1DE",
	internalName = "摩洛哥风格旅拍[素锦印象]-2",
	title = "摩洛哥风格旅拍[素锦印象]-2",
	type = "Develop",
	value = {
		settings = {
			AutoLateralCA = 0,
			Blacks2012 = 66,
			BlueHue = -10,
			BlueSaturation = -10,
			CameraProfile = "Embedded",
			ChromaticAberrationB = 0,
			ChromaticAberrationR = 0,
			Clarity2012 = -10,
			ColorNoiseReduction = 25,
			ColorNoiseReductionDetail = 50,
			ColorNoiseReductionSmoothness = 50,
			Contrast2012 = -20,
			ConvertToGrayscale = false,
			CropConstrainToWarp = 0,
			Defringe = 0,
			DefringeGreenAmount = 0,
			DefringeGreenHueHi = 60,
			DefringeGreenHueLo = 40,
			DefringePurpleAmount = 0,
			DefringePurpleHueHi = 70,
			DefringePurpleHueLo = 30,
			Dehaze = 0,
			EnableCalibration = true,
			EnableCircularGradientBasedCorrections = true,
			EnableColorAdjustments = true,
			EnableDetail = true,
			EnableEffects = true,
			EnableGradientBasedCorrections = true,
			EnableLensCorrections = true,
			EnableSplitToning = true,
			EnableTransform = true,
			Exposure2012 = 0.15,
			GrainAmount = 0,
			GrainFrequency = 50,
			GrainSize = 25,
			GreenHue = 50,
			GreenSaturation = -25,
			Highlights2012 = -62,
			HueAdjustmentAqua = -35,
			HueAdjustmentBlue = -33,
			HueAdjustmentGreen = 55,
			HueAdjustmentMagenta = 0,
			HueAdjustmentOrange = -21,
			HueAdjustmentPurple = 0,
			HueAdjustmentRed = -5,
			HueAdjustmentYellow = 0,
			IncrementalTemperature = 10,
			IncrementalTint = -7,
			LensManualDistortionAmount = 0,
			LensProfileEnable = 0,
			LensProfileSetup = "LensDefaults",
			LuminanceAdjustmentAqua = -31,
			LuminanceAdjustmentBlue = -15,
			LuminanceAdjustmentGreen = 0,
			LuminanceAdjustmentMagenta = 0,
			LuminanceAdjustmentOrange = -20,
			LuminanceAdjustmentPurple = 0,
			LuminanceAdjustmentRed = -25,
			LuminanceAdjustmentYellow = -14,
			LuminanceNoiseReductionContrast = 0,
			LuminanceNoiseReductionDetail = 50,
			LuminanceSmoothing = 0,
			ParametricDarks = 0,
			ParametricHighlightSplit = 75,
			ParametricHighlights = 0,
			ParametricLights = 0,
			ParametricMidtoneSplit = 50,
			ParametricShadowSplit = 25,
			ParametricShadows = 0,
			PerspectiveAspect = 0,
			PerspectiveHorizontal = 0,
			PerspectiveRotate = 0,
			PerspectiveScale = 100,
			PerspectiveUpright = 0,
			PerspectiveVertical = 0,
			PerspectiveX = 0,
			PerspectiveY = 0,
			PostCropVignetteAmount = 0,
			PostCropVignetteFeather = 50,
			PostCropVignetteHighlightContrast = 0,
			PostCropVignetteMidpoint = 50,
			PostCropVignetteRoundness = 0,
			PostCropVignetteStyle = 1,
			ProcessVersion = "6.7",
			RedHue = 35,
			RedSaturation = 5,
			Saturation = -34,
			SaturationAdjustmentAqua = 15,
			SaturationAdjustmentBlue = 16,
			SaturationAdjustmentGreen = -64,
			SaturationAdjustmentMagenta = 0,
			SaturationAdjustmentOrange = 1,
			SaturationAdjustmentPurple = 0,
			SaturationAdjustmentRed = -2,
			SaturationAdjustmentYellow = -23,
			ShadowTint = 0,
			Shadows2012 = 70,
			SharpenDetail = 25,
			SharpenEdgeMasking = 0,
			SharpenRadius = 1,
			Sharpness = 0,
			SplitToningBalance = 0,
			SplitToningHighlightHue = 306,
			SplitToningHighlightSaturation = 6,
			SplitToningShadowHue = 38,
			SplitToningShadowSaturation = 16,
			ToneCurveName2012 = "Custom",
			ToneCurvePV2012 = {
				0,
				29,
				42,
				43,
				132,
				121,
				212,
				192,
				255,
				219,
			},
			ToneCurvePV2012Blue = {
				0,
				0,
				39,
				13,
				87,
				65,
				123,
				124,
				183,
				197,
				255,
				255,
			},
			ToneCurvePV2012Green = {
				0,
				0,
				40,
				14,
				83,
				59,
				124,
				126,
				172,
				185,
				255,
				255,
			},
			ToneCurvePV2012Red = {
				0,
				0,
				40,
				12,
				84,
				58,
				124,
				123,
				186,
				196,
				255,
				255,
			},
			UprightCenterMode = 0,
			UprightCenterNormX = 0.5,
			UprightCenterNormY = 0.5,
			UprightFocalLength35mm = 35,
			UprightFocalMode = 0,
			UprightFourSegmentsCount = 0,
			UprightPreview = false,
			UprightTransformCount = 6,
			UprightVersion = 151388160,
			Vibrance = -17,
			VignetteAmount = 0,
			VignetteMidpoint = 50,
			WhiteBalance = "Custom",
			Whites2012 = 32,
			orientation = "AB",
		},
		uuid = "8B4EC03D-6F74-4A2E-B5CB-38D1180F89BA",
	},
	version = 0,
}
