其他预设/【237】莫兰迪灰色调LR预设合集/Kawaii/Lightroom Desktop/Kawaii no.3.lrtemplate
s = {
	id = "268A18FC-E6AF-449A-9BD4-149B26616945",
	internalName = "Kawaii no.3",
	title = "Kawaii no.3",
	type = "Develop",
	value = {
		settings = {
			AutoLateralCA = 0,
			Blacks2012 = -22,
			BlueHue = -26,
			BlueSaturation = -18,
			CameraProfile = "Adobe Standard",
			ChromaticAberrationB = 0,
			ChromaticAberrationR = 0,
			Clarity2012 = 35,
			ColorNoiseReduction = 36,
			ColorNoiseReductionDetail = 50,
			ColorNoiseReductionSmoothness = 50,
			Contrast2012 = 13,
			ConvertToGrayscale = false,
			CropConstrainToWarp = 0,
			Defringe = 0,
			DefringeGreenAmount = 0,
			DefringeGreenHueHi = 60,
			DefringeGreenHueLo = 40,
			DefringePurpleAmount = 0,
			DefringePurpleHueHi = 70,
			DefringePurpleHueLo = 30,
			Dehaze = 0,
			EnableCalibration = true,
			EnableColorAdjustments = true,
			EnableDetail = true,
			EnableEffects = true,
			EnableLensCorrections = true,
			EnableSplitToning = true,
			Exposure2012 = 0.16,
			GrainAmount = 0,
			GrainFrequency = 50,
			GrainSize = 25,
			GreenHue = 100,
			GreenSaturation = -32,
			Highlights2012 = -72,
			HueAdjustmentAqua = -45,
			HueAdjustmentBlue = 40,
			HueAdjustmentGreen = 68,
			HueAdjustmentMagenta = 0,
			HueAdjustmentOrange = 0,
			HueAdjustmentPurple = 0,
			HueAdjustmentRed = 0,
			HueAdjustmentYellow = 36,
			LensManualDistortionAmount = 0,
			LuminanceAdjustmentAqua = -26,
			LuminanceAdjustmentBlue = -27,
			LuminanceAdjustmentGreen = 85,
			LuminanceAdjustmentMagenta = -11,
			LuminanceAdjustmentOrange = -18,
			LuminanceAdjustmentPurple = -5,
			LuminanceAdjustmentRed = 15,
			LuminanceAdjustmentYellow = -26,
			LuminanceNoiseReductionContrast = 0,
			LuminanceNoiseReductionDetail = 50,
			LuminanceSmoothing = 26,
			ParametricDarks = 0,
			ParametricHighlightSplit = 75,
			ParametricHighlights = 0,
			ParametricLights = 0,
			ParametricMidtoneSplit = 50,
			ParametricShadowSplit = 25,
			ParametricShadows = 0,
			PostCropVignetteAmount = 0,
			PostCropVignetteFeather = 50,
			PostCropVignetteHighlightContrast = 0,
			PostCropVignetteMidpoint = 50,
			PostCropVignetteRoundness = 0,
			PostCropVignetteStyle = 1,
			ProcessVersion = "10.0",
			RedHue = 15,
			RedSaturation = 21,
			Saturation = -27,
			SaturationAdjustmentAqua = -38,
			SaturationAdjustmentBlue = -19,
			SaturationAdjustmentGreen = -55,
			SaturationAdjustmentMagenta = 0,
			SaturationAdjustmentOrange = 6,
			SaturationAdjustmentPurple = 0,
			SaturationAdjustmentRed = -9,
			SaturationAdjustmentYellow = -9,
			ShadowTint = 0,
			Shadows2012 = 61,
			SharpenDetail = 25,
			SharpenEdgeMasking = 0,
			SharpenRadius = 1,
			Sharpness = 29,
			SplitToningBalance = 6,
			SplitToningHighlightHue = 49,
			SplitToningHighlightSaturation = 23,
			SplitToningShadowHue = 195,
			SplitToningShadowSaturation = 10,
			ToneCurveName2012 = "Custom",
			ToneCurvePV2012 = {
				0,
				13,
				128,
				128,
				192,
				190,
				255,
				244,
			},
			ToneCurvePV2012Blue = {
				0,
				0,
				255,
				255,
			},
			ToneCurvePV2012Green = {
				0,
				0,
				255,
				255,
			},
			ToneCurvePV2012Red = {
				0,
				0,
				255,
				255,
			},
			Vibrance = 19,
			VignetteAmount = 0,
			VignetteMidpoint = 50,
			WhiteBalance = "As Shot",
			Whites2012 = 30,
		},
		uuid = "A8EFB7C7-9ABE-495F-9892-80AE6F4AEA43",
	},
	version = 0,
}
