其他预设/【239】阳光逆光效果预设26款/3.XMP格式(PS)预设/阳光逆光预设[]-8.xmp
<x:xmpmeta xmlns:x="adobe:ns:meta/" x:xmptk="Adobe XMP Core 5.6-c140 79.160451, 2017/05/06-01:08:21        ">
 <rdf:RDF xmlns:rdf="http://www.w3.org/1999/02/22-rdf-syntax-ns#">
  <rdf:Description rdf:about=""
    xmlns:crs="http://ns.adobe.com/camera-raw-settings/1.0/"
   crs:PresetType="Normal"
   crs:Cluster=""
   crs:UUID="A0F09B90A832058F379E876243664F17"
   crs:SupportsAmount="False"
   crs:SupportsColor="True"
   crs:SupportsMonochrome="True"
   crs:SupportsHighDynamicRange="True"
   crs:SupportsNormalDynamicRange="True"
   crs:SupportsSceneReferred="True"
   crs:SupportsOutputReferred="True"
   crs:CameraModelRestriction=""
   crs:Copyright=""
   crs:ContactInfo=""
   crs:Version="10.5"
   crs:ProcessVersion="10.0"
   crs:WhiteBalance="As Shot"
   crs:Saturation="0"
   crs:Sharpness="15"
   crs:LuminanceSmoothing="0"
   crs:ColorNoiseReduction="25"
   crs:VignetteAmount="0"
   crs:ShadowTint="0"
   crs:RedHue="0"
   crs:RedSaturation="0"
   crs:GreenHue="0"
   crs:GreenSaturation="0"
   crs:BlueHue="0"
   crs:BlueSaturation="0"
   crs:Vibrance="+5"
   crs:HueAdjustmentRed="-4"
   crs:HueAdjustmentOrange="+8"
   crs:HueAdjustmentYellow="-5"
   crs:HueAdjustmentGreen="+5"
   crs:HueAdjustmentAqua="+4"
   crs:HueAdjustmentBlue="0"
   crs:HueAdjustmentPurple="0"
   crs:HueAdjustmentMagenta="-5"
   crs:SaturationAdjustmentRed="+20"
   crs:SaturationAdjustmentOrange="-18"
   crs:SaturationAdjustmentYellow="+6"
   crs:SaturationAdjustmentGreen="-5"
   crs:SaturationAdjustmentAqua="-4"
   crs:SaturationAdjustmentBlue="+20"
   crs:SaturationAdjustmentPurple="+5"
   crs:SaturationAdjustmentMagenta="+2"
   crs:LuminanceAdjustmentRed="+2"
   crs:LuminanceAdjustmentOrange="+10"
   crs:LuminanceAdjustmentYellow="-8"
   crs:LuminanceAdjustmentGreen="0"
   crs:LuminanceAdjustmentAqua="0"
   crs:LuminanceAdjustmentBlue="-4"
   crs:LuminanceAdjustmentPurple="-2"
   crs:LuminanceAdjustmentMagenta="0"
   crs:SplitToningShadowHue="15"
   crs:SplitToningShadowSaturation="10"
   crs:SplitToningHighlightHue="43"
   crs:SplitToningHighlightSaturation="35"
   crs:SplitToningBalance="0"
   crs:ParametricShadows="-5"
   crs:ParametricDarks="-5"
   crs:ParametricLights="+15"
   crs:ParametricHighlights="0"
   crs:ParametricShadowSplit="25"
   crs:ParametricMidtoneSplit="50"
   crs:ParametricHighlightSplit="75"
   crs:SharpenRadius="+1.0"
   crs:SharpenDetail="25"
   crs:SharpenEdgeMasking="0"
   crs:PostCropVignetteAmount="0"
   crs:GrainAmount="0"
   crs:ColorNoiseReductionDetail="50"
   crs:ColorNoiseReductionSmoothness="50"
   crs:LensManualDistortionAmount="0"
   crs:AutoLateralCA="0"
   crs:Exposure2012="+0.24"
   crs:Contrast2012="+25"
   crs:Highlights2012="-15"
   crs:Shadows2012="+8"
   crs:Whites2012="+20"
   crs:Blacks2012="-10"
   crs:Clarity2012="+10"
   crs:DefringePurpleAmount="0"
   crs:DefringePurpleHueLo="30"
   crs:DefringePurpleHueHi="70"
   crs:DefringeGreenAmount="0"
   crs:DefringeGreenHueLo="40"
   crs:DefringeGreenHueHi="60"
   crs:Dehaze="0"
   crs:ConvertToGrayscale="False"
   crs:OverrideLookVignette="False"
   crs:ToneCurveName2012="Custom"
   crs:CameraProfile="Embedded"
   crs:HasSettings="True">
   <crs:Name>
    <rdf:Alt>
     <rdf:li xml:lang="x-default">阳光逆光预设[素锦印象]-8</rdf:li>
    </rdf:Alt>
   </crs:Name>
   <crs:ShortName>
    <rdf:Alt>
     <rdf:li xml:lang="x-default"/>
    </rdf:Alt>
   </crs:ShortName>
   <crs:SortName>
    <rdf:Alt>
     <rdf:li xml:lang="x-default"/>
    </rdf:Alt>
   </crs:SortName>
   <crs:Group>
    <rdf:Alt>
     <rdf:li xml:lang="x-default">阳光逆光调色[sujinyinxiang.taobao.com]</rdf:li>
    </rdf:Alt>
   </crs:Group>
   <crs:Description>
    <rdf:Alt>
     <rdf:li xml:lang="x-default"/>
    </rdf:Alt>
   </crs:Description>
   <crs:ToneCurvePV2012>
    <rdf:Seq>
     <rdf:li>5, 39</rdf:li>
     <rdf:li>39, 59</rdf:li>
     <rdf:li>57, 75</rdf:li>
     <rdf:li>97, 108</rdf:li>
     <rdf:li>128, 133</rdf:li>
     <rdf:li>204, 206</rdf:li>
     <rdf:li>255, 255</rdf:li>
    </rdf:Seq>
   </crs:ToneCurvePV2012>
   <crs:ToneCurvePV2012Red>
    <rdf:Seq>
     <rdf:li>0, 0</rdf:li>
     <rdf:li>255, 255</rdf:li>
    </rdf:Seq>
   </crs:ToneCurvePV2012Red>
   <crs:ToneCurvePV2012Green>
    <rdf:Seq>
     <rdf:li>0, 0</rdf:li>
     <rdf:li>255, 255</rdf:li>
    </rdf:Seq>
   </crs:ToneCurvePV2012Green>
   <crs:ToneCurvePV2012Blue>
    <rdf:Seq>
     <rdf:li>0, 0</rdf:li>
     <rdf:li>255, 255</rdf:li>
    </rdf:Seq>
   </crs:ToneCurvePV2012Blue>
   <crs:Look
    crs:Name=""/>
  </rdf:Description>
 </rdf:RDF>
</x:xmpmeta>
